sanky1234/BimanualDexCatch/isaacgymenvs/cem_results/May31/football_pose_0.30000000000000004_0.1_1.2_0.0_0.0_0_2025-05-31.csv
x,y,z,roll,pitch,yaw,robot1/joint1,robot1/joint2,robot1/joint3,robot1/joint4,robot1/joint5,robot1/joint6,robot1/joint7,robot2/joint1,robot2/joint2,robot2/joint3,robot2/joint4,robot2/joint5,robot2/joint6,robot2/joint7
0.30000000000000004,0.1,1.2,0.0,0.0,0,-1.150276,0.26003888,-1.2030152,-0.27538225,-0.010663611,0.68047047,-0.27770576,1.525157,0.18773027,0.9405191,0.72771376,-0.13826862,0.105279975,-0.64899075
0.30000000000000004,0.1,1.2,0.0,0.0,0,-1.14887,0.2630146,-1.2676077,-0.36427566,0.06685727,0.8076717,-0.15199572,1.5380536,0.22991636,0.8486321,0.6353295,-0.255741,0.11294169,-1.5190005
0.30000000000000004,0.1,1.2,0.0,0.0,0,-1.191544,0.24216233,-1.3252087,-0.25028327,-0.025540292,0.7802223,0.04841649,1.5973644,0.19466032,0.8125324,0.7308756,-0.15182056,-0.07809857,-0.597039
0.30000000000000004,0.1,1.2,0.0,0.0,0,-1.0663506,0.26854143,-1.2391814,-0.4372168,-0.034511358,0.97165865,-0.098545656,1.5134383,0.23155165,0.90519553,0.67881095,0.05800072,0.0975271,-1.2024895
0.30000000000000004,0.1,1.2,0.0,0.0,0,-1.1331928,0.27964568,-1.2881674,-0.4261696,-0.0008883525,0.83972704,0.08888216,1.5959334,0.43251297,0.8762758,0.60264015,-0.48376048,-0.10552368,-0.16159305
0.30000000000000004,0.1,1.2,0.0,0.0,0,-1.1741061,0.35163233,-1.3052907,-0.31336647,-0.031811576,0.71596897,-0.022419572,1.3842378,0.25902802,0.8924911,0.63867253,-0.27647316,-0.06795036,-1.112066
0.30000000000000004,0.1,1.2,0.0,0.0,0,-1.1406276,0.27352902,-1.2383215,-0.3288677,-0.06443323,0.8024513,-0.041118857,1.6583638,0.22383605,0.84833145,0.74495417,-0.3389961,-0.018445604,-0.58429664
0.30000000000000004,0.1,1.2,0.0,0.0,0,-1.1010121,0.22923413,-1.2928098,-0.35797748,-0.059827156,0.8216844,0.057764493,1.4327899,0.3964849,0.9268976,0.66686505,-0.460779,-0.11454938,-0.8787889
0.30000000000000004,0.1,1.2,0.0,0.0,0,-1.1334637,0.20891596,-1.2880192,-0.3370043,0.07576102,0.8268874,-0.10024435,1.5539714,0.34231463,0.8948196,0.6533429,-0.06304993,0.05337896,-1.269299
0.30000000000000004,0.1,1.2,0.0,0.0,0,-1.1921895,0.20406744,-1.2864306,-0.28243175,-0.076806776,0.8112506,-0.16789716,1.5517387,0.4383203,0.8924191,0.6649602,-0.21089259,-0.13304047,-0.54479784
0.30000000000000004,0.1,1.2,0.0,0.0,0,-1.168057,0.23308034,-1.2901887,-0.47057897,0.024942638,1.0421692,-0.106668085,1.5992131,0.14619936,0.9038049,0.73152035,-0.20110662,0.059738725,-0.9434741
0.30000000000000004,0.1,1.2,0.0,0.0,0,-1.0953926,0.20198159,-1.2041061,-0.37175217,-0.02856266,0.8365348,-0.28764576,1.556071,0.3532467,0.8915489,0.5684468,-0.4813606,0.050929748,-0.06322482
0.30000000000000004,0.1,1.2,0.0,0.0,0,-1.034365,0.3029521,-1.2800452,-0.4169196,-0.01895746,0.84625137,-0.2025605,1.629285,0.35390386,0.93398315,0.6154018,-0.08721901,0.06751417,-0.2865576
0.30000000000000004,0.1,1.2,0.0,0.0,0,-1.1601843,0.22218534,-1.2580478,-0.50550455,-0.037114438,0.8852532,-0.17325756,1.455364,0.37824446,0.9916371,0.5503453,0.08718967,-0.0027789623,-1.3662887
0.30000000000000004,0.1,1.2,0.0,0.0,0,-1.1609496,0.2827221,-1.2672902,-0.3890625,0.058663674,0.7704086,-0.23161474,1.6300683,0.3001467,0.8816618,0.6610874,-0.45702943,-0.036678754,-0.8334274
0.30000000000000004,0.1,1.2,0.0,0.0,0,-1.1908602,0.27318415,-1.2456506,-0.4508501,-0.06081304,0.80289716,-0.21719132,1.4729469,0.31052098,0.9268539,0.51583076,0.1042204,-0.026673727,-0.9529076
0.30000000000000004,0.1,1.2,0.0,0.0,0,-1.1852964,0.2863562,-1.2850088,-0.4066566,-0.038865287,0.82010907,0.029653614,1.628751,0.3185021,0.88151443,0.69654644,-0.4796519,-0.2504673,-0.31111142
0.30000000000000004,0.1,1.2,0.0,0.0,0,-1.1039284,0.2084847,-1.2723985,-0.40584967,-0.066181995,0.79723907,-0.10055198,1.4921339,0.34329045,0.9137283,0.601407,-0.20631073,-0.106044404,-0.9731223
0.30000000000000004,0.1,1.2,0.0,0.0,0,-1.0840944,0.23495713,-1.279724,-0.30492377,0.031019082,0.7433213,-0.23497221,1.6028658,0.19852832,0.88655573,0.7028064,0.010211493,-0.04131114,-0.30213544
0.30000000000000004,0.1,1.2,0.0,0.0,0,-1.1263347,0.26258758,-1.303812,-0.3361651,0.019952318,0.7873542,-0.076233186,1.662803,0.28336805,0.87159574,0.66365874,-0.34722978,-0.0021066812,-0.5406684
0.30000000000000004,0.1,1.2,0.0,0.0,0,-1.19432,0.23446843,-1.3624696,-0.37780774,-0.14192072,0.98596805,-0.084235,1.4617846,0.29219744,0.8777052,0.7125677,-0.24070692,-0.21575527,-1.4426166
0.30000000000000004,0.1,1.2,0.0,0.0,0,-1.1621627,0.2928814,-1.2840984,-0.35572085,-0.07234511,0.7950401,0.14851627,1.5264653,0.3084813,0.8828996,0.6059162,-0.40175265,0.075205214,-1.0601965
0.30000000000000004,0.1,1.2,0.0,0.0,0,-1.0913063,0.2416723,-1.2706218,-0.5974266,-0.010657862,1.0979515,0.024958659,1.6009772,0.19817838,0.86594176,0.6617518,-0.064007394,-0.017166633,-0.25449
0.30000000000000004,0.1,1.2,0.0,0.0,0,-1.1774924,0.3226803,-1.3425871,-0.38907617,-0.09665658,0.769694,-0.0129690645,1.6186074,0.32345942,0.9446461,0.5667597,-0.14897224,0.14545433,-0.43409657
0.30000000000000004,0.1,1.2,0.0,0.0,0,-1.1319555,0.2859203,-1.273966,-0.32222107,-0.10235694,0.6931306,-0.16714256,1.4906662,0.17526278,0.8727454,0.6212052,-0.020593029,0.022526653,-1.1390178
0.30000000000000004,0.1,1.2,0.0,0.0,0,-1.1717197,0.2584477,-1.2812012,-0.35137373,-0.09821216,0.72566956,-0.26226956,1.4610558,0.29527268,0.8466613,0.60389674,-0.6670733,-0.14671801,-0.7147751
0.30000000000000004,0.1,1.2,0.0,0.0,0,-1.1175133,0.24288473,-1.322233,-0.3444911,-0.12736054,0.81519425,0.1272601,1.5111179,0.29495376,0.9345063,0.6876069,-0.030374693,-0.16611621,-0.46248278
0.30000000000000004,0.1,1.2,0.0,0.0,0,-1.2131397,0.27429304,-1.2330046,-0.3523458,-0.058206435,0.73094696,0.0072591584,1.5789466,0.33724743,0.92215246,0.55862486,-0.073043026,0.07868064,-0.095256545
0.30000000000000004,0.1,1.2,0.0,0.0,0,-1.1268924,0.33958548,-1.2509357,-0.28006944,-0.03396612,1.1434612,0.01819885,1.6605924,0.25439182,0.82045543,0.77567524,-0.19616422,0.117396615,-0.2246671
0.30000000000000004,0.1,1.2,0.0,0.0,0,-1.1941128,0.24604306,-1.2608411,-0.28364658,-0.06754056,0.88227236,-0.13806827,1.284447,0.29404545,0.95289874,0.6492093,-0.33073282,-0.2001098,-0.3091949
0.30000000000000004,0.1,1.2,0.0,0.0,0,-1.1200577,0.33577764,-1.1577164,-0.38089505,-0.09854532,0.88070166,-0.011458819,1.4799486,0.19302252,0.8331645,0.5870557,-0.18318112,0.097307876,-0.71734893
0.30000000000000004,0.1,1.2,0.0,0.0,0,-1.095348,0.2341017,-1.2256153,-0.26344272,-0.06673923,0.95316267,-0.032890175,1.4081951,0.42351553,0.862928,0.75368464,-0.52807295,-0.012916944,-0.31116647
0.30000000000000004,0.1,1.2,0.0,0.0,0,-1.1103072,0.2891825,-1.3178747,-0.11303837,-0.02900752,0.7510737,-0.012445922,1.4196373,0.24540983,0.81454885,0.684076,-0.14640681,0.04186348,-0.7047904
0.30000000000000004,0.1,1.2,0.0,0.0,0,-1.1918811,0.37437052,-1.2535,-0.2906011,-0.02768293,0.97347146,-0.038481586,1.5127975,0.31298026,0.95569223,0.7902366,-0.3537725,0.06501745,-0.17711073
0.30000000000000004,0.1,1.2,0.0,0.0,0,-1.2329729,0.23486756,-1.21492,-0.5657407,-0.048360147,1.1776322,-0.24869186,1.586015,0.20019269,0.94279385,0.7241905,-0.23619965,-0.065414794,-0.5092982
0.30000000000000004,0.1,1.2,0.0,0.0,0,-1.1627202,0.2586269,-1.2453178,-0.16297244,-0.091366455,0.7812639,-0.26744932,1.2653573,0.15989038,0.92761266,0.7561953,-0.7194165,-0.024411354,-0.20932364
0.30000000000000004,0.1,1.2,0.0,0.0,0,-1.0827374,0.2638789,-1.1620183,-0.35220158,0.034306772,0.9624455,-0.21373995,1.556294,0.26412612,0.9225194,0.6299401,-0.29546455,0.08040741,-0.72020835
0.30000000000000004,0.1,1.2,0.0,0.0,0,-1.1372249,0.23625882,-1.3508235,-0.26046142,-0.009533864,1.0348386,-0.11805187,1.5222695,0.18381733,0.834899,0.83465886,-0.55282086,-0.06297656,-1.0377812
0.30000000000000004,0.1,1.2,0.0,0.0,0,-1.2267113,0.34848148,-1.3016659,-0.34370163,-0.007136234,1.0333638,-0.11985301,1.4144846,0.2369215,0.90060663,0.7335627,-0.20349257,-0.075094685,-0.775159
0.30000000000000004,0.1,1.2,0.0,0.0,0,-1.0577049,0.1916259,-1.2707311,-0.2327074,-0.012289875,0.8810619,-0.13412799,1.4858383,0.1447163,0.93798167,0.8799053,-0.1534635,-0.1718153,-0.3502751
0.30000000000000004,0.1,1.2,0.0,0.0,0,-1.1179647,0.316968,-1.2790687,-0.41008705,-0.022399874,0.81192386,-0.14011957,1.5303882,0.16638595,0.9081656,0.66938907,-0.11201421,-0.15407145,-1.3488702
0.30000000000000004,0.1,1.2,0.0,0.0,0,-1.0782957,0.19478466,-1.2635664,-0.37957495,-0.061364904,0.95223135,-0.18072997,1.4682858,0.27029312,0.8875927,0.73092395,-0.16242471,-0.07057504,-1.2943959
0.30000000000000004,0.1,1.2,0.0,0.0,0,-1.0979909,0.21709055,-1.2162987,-0.37764832,-0.10440796,1.007458,-0.06579595,1.6557233,0.197293,0.864392,0.7964755,-0.13940838,-0.07297464,-0.70832956
0.30000000000000004,0.1,1.2,0.0,0.0,0,-1.2116028,0.31944016,-1.2611074,-0.35013476,0.027443118,0.97884464,-0.12095124,1.3861977,0.31636703,0.9389695,0.71684885,-0.30427766,-0.021874737,-0.708691
0.30000000000000004,0.1,1.2,0.0,0.0,0,-1.1636262,0.20621948,-1.190143,-0.37481004,-0.080671616,1.0431439,0.020970698,1.4933214,0.29427758,0.8410132,0.6797907,-0.40757614,-0.05907574,-0.1071252
0.30000000000000004,0.1,1.2,0.0,0.0,0,-1.0702362,0.24965362,-1.22536,-0.34365332,-0.085392505,0.87047887,-0.44130445,1.4347045,0.22677796,0.9265187,0.65056854,-0.46827742,0.078019425,-0.7620793
0.30000000000000004,0.1,1.2,0.0,0.0,0,-1.0291331,0.2618203,-1.3236973,-0.3477437,-0.0027366306,0.87393254,-0.46271157,1.5386264,0.28216726,0.85573375,0.6351538,-0.13394235,0.12189331,-1.0056971
0.30000000000000004,0.1,1.2,0.0,0.0,0,-1.039036,0.298041,-1.2161484,-0.29281476,-0.04719388,0.7716318,-0.08378447,1.4383713,0.31420523,0.89445263,0.6575995,-0.5333748,-0.17610157,-0.5884231
0.30000000000000004,0.1,1.2,0.0,0.0,0,-1.2057115,0.26331154,-1.1617179,-0.29703808,-0.017216735,0.83365667,-0.36358273,1.407539,0.2592987,0.91195154,0.7239274,-0.21424012,-0.037157647,-0.97241455
0.30000000000000004,0.1,1.2,0.0,0.0,0,-1.1132307,0.20887484,-1.264691,-0.27949983,-0.020071689,0.7422816,-0.07914035,1.505651,0.24964035,0.9304781,0.655539,-0.18278077,0.070967525,-0.35719502
0.30000000000000004,0.1,1.2,0.0,0.0,0,-1.1283361,0.25205943,-1.2153141,-0.38308978,-0.09313867,0.8587562,-0.22136103,1.623269,0.23189944,0.8962038,0.68849736,-0.1672135,0.07266215,-0.9822758
0.30000000000000004,0.1,1.2,0.0,0.0,0,-1.1638069,0.22377402,-1.2950149,-0.30898744,-0.028662195,0.7257975,-0.102014,1.7554345,0.33540374,0.8550307,0.5760337,-0.013955291,-0.029568296,-0.025253356
0.30000000000000004,0.1,1.2,0.0,0.0,0,-1.1041349,0.24654157,-1.2987313,-0.5529415,0.05897253,0.9855061,-0.14792363,1.5935347,0.07990833,0.8710672,0.6574674,-0.3635767,-0.01378114,-0.3162742
0.30000000000000004,0.1,1.2,0.0,0.0,0,-1.0773315,0.30019438,-1.2477474,-0.47063044,-0.03597578,0.8817164,-0.048528273,1.3877358,0.36477682,0.96046925,0.60107577,-0.53573906,-0.16600358,-0.30967945
0.30000000000000004,0.1,1.2,0.0,0.0,0,-1.1300075,0.23374434,-1.2632307,-0.3404088,-0.11824161,0.9002695,-0.07262769,1.4515305,0.20757274,0.8990096,0.7670869,-0.30920273,-0.22655499,-0.56764287
0.30000000000000004,0.1,1.2,0.0,0.0,0,-1.150418,0.27581537,-1.286376,-0.32711095,0.022558818,0.8356216,-0.22321345,1.5160027,0.17477527,0.90320504,0.71822345,-0.25681493,-0.015148638,0.07243492
0.30000000000000004,0.1,1.2,0.0,0.0,0,-1.0583887,0.29990187,-1.2411519,-0.39015368,-0.11327543,0.85730565,-0.3296606,1.5924948,0.19280533,0.9510632,0.70971715,0.17467989,-0.033792574,-0.6223133
0.30000000000000004,0.1,1.2,0.0,0.0,0,-1.1295348,0.18006091,-1.2712995,-0.3719269,-0.07459093,0.9215783,0.047600545,1.4443209,0.37510327,0.8546238,0.59480476,-0.363843,-0.18441623,-0.7254727
0.30000000000000004,0.1,1.2,0.0,0.0,0,-1.2295138,0.27466732,-1.2860644,-0.38873178,0.042155635,0.7709728,-0.03893909,1.4195329,0.21808907,0.8931165,0.56448776,-0.4075237,0.04063236,-1.4144802
0.30000000000000004,0.1,1.2,0.0,0.0,0,-1.1954566,0.22969773,-1.219567,-0.41973943,0.029951947,0.8703568,-0.10809954,1.5043299,0.24429251,0.892419,0.6332017,-0.0050383965,-0.10616035,-0.6562158
0.30000000000000004,0.1,1.2,0.0,0.0,0,-1.2144495,0.26150373,-1.3497568,-0.32254362,-0.074061565,0.687359,-0.11750251,1.5077609,0.3135725,0.8677092,0.5958125,0.047954123,-0.16516241,-0.6218433
0.30000000000000004,0.1,1.2,0.0,0.0,0,-1.1885276,0.33635622,-1.3092312,-0.40918192,-0.05871774,0.79875374,-0.10869942,1.5271556,0.26530978,0.88979256,0.59814173,-0.39974445,-0.059423205,-0.33052674
0.30000000000000004,0.1,1.2,0.0,0.0,0,-1.0316204,0.25478545,-1.2438985,-0.30377662,-0.10101744,0.9872332,-0.3150266,1.3204201,0.23631823,0.8599125,0.76844966,-0.28220403,-0.04871231,-0.5382605
0.30000000000000004,0.1,1.2,0.0,0.0,0,-1.1182339,0.3101812,-1.2309537,-0.21532509,-0.05573317,0.9526769,-0.024001068,1.5288815,0.18882631,0.9067368,0.8634128,-0.08105367,-0.064804934,-0.093316965
0.30000000000000004,0.1,1.2,0.0,0.0,0,-1.052675,0.27410102,-1.2436206,-0.2896982,-0.031047078,0.8123247,-0.27734503,1.4765598,0.30911025,0.8866981,0.69154185,-0.5525605,-0.055106837,-0.48206016
0.30000000000000004,0.1,1.2,0.0,0.0,0,-1.0747076,0.30046964,-1.1978137,-0.29687372,-0.0069131437,1.0111685,-0.096574344,1.5130163,0.13015567,0.8002271,0.6894669,-0.32126215,-0.061999116,-0.37602597
0.30000000000000004,0.1,1.2,0.0,0.0,0,-1.1671923,0.29376704,-1.2570114,-0.17592135,-0.013444327,0.87606454,-0.06649232,1.4755545,0.33417755,0.8940893,0.6954692,-0.35668162,0.10279788,-0.1401358
0.30000000000000004,0.1,1.2,0.0,0.0,0,-1.0240821,0.25089172,-1.2592071,-0.35504922,-0.046337325,0.9720675,-0.1977019,1.6575514,0.30030328,0.9942269,0.7385605,-0.52051085,0.06405063,-0.14319429
0.30000000000000004,0.1,1.2,0.0,0.0,0,-1.1384654,0.23323132,-1.2676401,-0.28118175,-0.0869742,0.9485544,-0.056174167,1.4805114,0.24631867,0.8972492,0.5194104,-0.33287263,0.25235066,-0.71462893
0.30000000000000004,0.1,1.2,0.0,0.0,0,-1.1177374,0.26947406,-1.2297326,-0.20660633,-0.039862413,0.983673,-0.07749805,1.6055964,0.37602335,0.86861163,0.8464115,-0.12699135,0.05955109,0.07650438
0.30000000000000004,0.1,1.2,0.0,0.0,0,-1.0770377,0.3209296,-1.2877774,-0.32648993,-0.061381992,0.8724329,-0.13071257,1.6147138,0.2172912,0.91873926,0.67397845,-0.41079113,-0.15587546,-0.8011387
0.30000000000000004,0.1,1.2,0.0,0.0,0,-1.1961148,0.2552922,-1.2423544,-0.26977056,-0.019982582,0.97364336,-0.18754631,1.4336443,0.37688383,0.8994203,0.750641,-0.0049953302,-0.08210846,-0.72931975
0.30000000000000004,0.1,1.2,0.0,0.0,0,-1.1234229,0.28647724,-1.1996198,-0.41991207,0.034812775,1.0623755,-0.22282349,1.6112533,0.33785045,0.890824,0.7750398,-0.35075226,0.07570556,-0.19587322
0.30000000000000004,0.1,1.2,0.0,0.0,0,-1.1008201,0.27726966,-1.2291691,-0.32335234,-0.0017553199,0.97246724,-0.09853013,1.5119182,0.2909339,0.9075555,0.7801037,0.12449904,0.022755774,-0.56908697
0.30000000000000004,0.1,1.2,0.0,0.0,0,-1.0546805,0.2661877,-1.2770594,-0.18768612,0.022903917,0.77187824,-0.38658857,1.5252153,0.22484751,0.85306865,0.8475501,-0.24265599,-0.18752603,-0.27984327
0.30000000000000004,0.1,1.2,0.0,0.0,0,-1.1765682,0.2890853,-1.195058,-0.27991834,0.10722391,0.6877607,0.20699407,1.4651892,0.104333885,0.8315281,0.7033329,-0.20989342,0.098452605,0.3430898
0.30000000000000004,0.1,1.2,0.0,0.0,0,-1.1089171,0.25326446,-1.3074082,-0.18627003,-0.1266355,0.9012884,-0.13778977,1.407952,0.28500843,0.8505253,0.69268966,-0.32950264,-0.008146332,-0.61951995
0.30000000000000004,0.1,1.2,0.0,0.0,0,-1.1544923,0.21300298,-1.2378678,-0.27712247,-0.11301019,0.92099726,-0.040440377,1.5313656,0.27278224,0.9448278,0.7082277,-0.0082409475,0.105846114,-0.53177613
0.30000000000000004,0.1,1.2,0.0,0.0,0,-1.1958898,0.3201301,-1.2144552,-0.2694998,0.019165246,0.8241516,-0.21571529,1.5326881,0.27478567,0.8482349,0.7317292,-0.3377489,-0.022513462,-0.428872
0.30000000000000004,0.1,1.2,0.0,0.0,0,-1.1015402,0.2921528,-1.2975364,-0.26837575,-0.060111802,0.8681403,-0.28966698,1.5201864,0.31785306,0.87206507,0.7322898,-0.19548182,-0.07393262,-0.26848388
0.30000000000000004,0.1,1.2,0.0,0.0,0,-1.1081208,0.24763301,-1.1904597,-0.336392,-0.07416068,0.84551483,0.18131061,1.4141561,0.35021883,0.91356426,0.5589176,-0.5684667,-0.02463424,-0.37531152
0.30000000000000004,0.1,1.2,0.0,0.0,0,-1.1056395,0.30194584,-1.3057262,-0.22681318,-0.09859057,0.89233613,-0.17054743,1.4659302,0.17595927,0.82880354,0.78804576,0.16989549,-0.1355091,-0.64049226
0.30000000000000004,0.1,1.2,0.0,0.0,0,-1.1534454,0.25502697,-1.2259052,-0.2576191,-0.08091662,0.9313072,-0.08723702,1.4911115,0.25913233,0.7828178,0.790635,0.20616615,-0.16910519,-0.33825076
0.30000000000000004,0.1,1.2,0.0,0.0,0,-1.192708,0.3371228,-1.2375365,-0.37649712,0.03963132,0.98432285,0.13903908,1.5552561,0.20364045,0.87325776,0.75488895,-0.10078422,0.01987537,-0.024786372
0.30000000000000004,0.1,1.2,0.0,0.0,0,-1.1930504,0.19553587,-1.3210279,-0.056659203,-0.009636074,0.72033167,0.02597002,1.4078183,0.34777993,0.8578476,0.63261384,-0.75221676,0.06609538,-1.1837393
0.30000000000000004,0.1,1.2,0.0,0.0,0,-1.2017049,0.22131021,-1.3512013,-0.4512196,0.01699648,1.0275377,-0.4494438,1.5407655,0.1795464,0.9074382,0.7047314,-0.2965589,-0.1290974,-0.65147364
0.30000000000000004,0.1,1.2,0.0,0.0,0,-1.1265658,0.26264653,-1.1886436,-0.31668183,-0.037969034,0.8999218,-0.20290786,1.4962814,0.19397978,0.92012995,0.69045395,-0.32157558,-0.0051783198,-0.28593788
0.30000000000000004,0.1,1.2,0.0,0.0,0,-1.033105,0.243181,-1.2183636,-0.28625917,-0.0594783,0.9435106,-0.25186205,1.6577094,0.30483553,0.89473325,0.7644263,-0.1870785,-0.09059315,0.18436259
0.30000000000000004,0.1,1.2,0.0,0.0,0,-1.1179609,0.26868662,-1.2350011,-0.5426162,-0.04124932,1.1148742,-0.11557714,1.39842,0.37956402,0.8707814,0.48372242,-0.6925253,-0.023065567,-0.49731568
0.30000000000000004,0.1,1.2,0.0,0.0,0,-1.1178908,0.26372153,-1.2997261,-0.51099443,0.033703063,0.7299753,-0.1928377,1.5121393,0.20708726,0.88606703,0.48026136,0.059509367,-0.08482686,-0.67073697
0.30000000000000004,0.1,1.2,0.0,0.0,0,-1.085579,0.23421404,-1.299941,-0.29062143,-0.054570243,0.83207774,-0.12213448,1.3326735,0.20840287,0.87230366,0.6292673,-0.20928234,-0.018332163,-1.4506013
0.30000000000000004,0.1,1.2,0.0,0.0,0,-1.1826934,0.22024995,-1.1589104,-0.29889014,-0.019489354,0.83557075,-0.30889702,1.4382402,0.21013553,0.93343264,0.70602524,-0.29135585,0.014618739,-0.63099414
0.30000000000000004,0.1,1.2,0.0,0.0,0,-1.0940751,0.19595362,-1.2710049,-0.42285714,0.081152946,1.0661442,-0.14117269,1.5527483,0.31978297,0.84587103,0.62660897,-0.26012185,0.068874665,-0.5823073
0.30000000000000004,0.1,1.2,0.0,0.0,0,-1.1716336,0.24386898,-1.2607701,-0.2884566,-0.087634794,0.8151627,-0.00045316736,1.4747415,0.37355405,0.868159,0.60116994,-0.16528802,0.018140212,-0.80643463
0.30000000000000004,0.1,1.2,0.0,0.0,0,-1.0419042,0.19797723,-1.2243017,-0.43156612,0.024201918,0.9448845,0.0019302574,1.4994811,0.23696281,0.8370646,0.58390117,-0.27971473,-0.010536497,-0.8852796
0.30000000000000004,0.1,1.2,0.0,0.0,0,-1.1677796,0.21457802,-1.2834542,-0.3693181,0.013010185,0.97804344,-0.24526046,1.3545501,0.30723423,0.9434633,0.6050785,-0.23926605,0.025840007,-0.24148065
0.30000000000000004,0.1,1.2,0.0,0.0,0,-1.1082823,0.20502353,-1.3047093,-0.37773174,-0.04993658,1.0333968,-0.20763467,1.3393167,0.36231613,0.93554217,0.611466,-0.27644515,0.02480067,0.0051321103
0.30000000000000004,0.1,1.2,0.0,0.0,0,-1.0590779,0.2786226,-1.448788,-0.3293263,0.022323428,0.6488929,-0.0364415,1.470583,0.09195064,0.8745498,0.6313875,0.0063690837,-0.05776453,-1.0056355
0.30000000000000004,0.1,1.2,0.0,0.0,0,-1.1436216,0.27735746,-1.3146942,-0.28682423,-0.11028512,0.6602589,-0.037971918,1.4918793,0.25864467,0.85157895,0.5840405,-0.26550293,0.03712833,-0.27102134
0.30000000000000004,0.1,1.2,0.0,0.0,0,-1.1370058,0.19710194,-1.3048363,-0.3460033,0.071447894,0.98499066,-0.1034853,1.4996215,0.3063808,0.88765925,0.7021817,-0.124705076,-0.12523216,-0.501565
0.30000000000000004,0.1,1.2,0.0,0.0,0,-1.0987209,0.22213183,-1.2557979,-0.33115438,-0.07947041,0.85457456,-0.27280718,1.460653,0.1534542,0.91613424,0.697455,-0.10640406,0.063338466,-0.09864185
0.30000000000000004,0.1,1.2,0.0,0.0,0,-1.1105118,0.2271294,-1.2778215,-0.29830983,-0.103875875,0.8942092,-0.19830373,1.5703548,0.20646562,0.905194,0.71609825,0.032120645,0.0821401,-0.17719589
0.30000000000000004,0.1,1.2,0.0,0.0,0,-1.1236967,0.29181206,-1.32417,-0.3597627,-0.034978308,0.9084391,-0.3245824,1.5643209,0.23084335,0.82189554,0.7002716,-0.12538949,-0.046164334,-0.3383944
0.30000000000000004,0.1,1.2,0.0,0.0,0,-1.0499858,0.19676076,-1.2350347,-0.28928512,0.037333537,0.73207724,0.24303637,1.5457994,0.19477138,0.8799246,0.6891449,-0.178517,0.010560552,-0.2535203
0.30000000000000004,0.1,1.2,0.0,0.0,0,-1.0705158,0.2529699,-1.2447929,-0.28932887,0.034505635,0.7831451,-0.22198838,1.567024,0.21092013,0.7992695,0.6998498,-0.13779646,-0.112505384,-0.5463624
0.30000000000000004,0.1,1.2,0.0,0.0,0,-1.1088161,0.27593163,-1.3377595,-0.3728088,-0.034227334,0.912493,-0.33170897,1.3593066,0.4671858,0.924194,0.45711035,-0.41640094,0.0013065716,-0.8866004
0.30000000000000004,0.1,1.2,0.0,0.0,0,-1.0665171,0.26304784,-1.3245384,-0.38914502,-0.034604143,0.91732657,-0.118669935,1.4672241,0.27075276,0.90310246,0.5982097,-0.3303676,0.079412974,-0.25504422
0.30000000000000004,0.1,1.2,0.0,0.0,0,-1.0880287,0.28489786,-1.2778709,-0.34835085,-0.064030655,0.7914484,-0.17941085,1.4246083,0.2302091,0.80650914,0.57356274,-0.1749212,-0.21394525,-0.7655731
0.30000000000000004,0.1,1.2,0.0,0.0,0,-1.1831967,0.25517127,-1.2301779,-0.35077855,0.10575507,0.8872344,-0.2193708,1.4215908,0.2724272,0.9489002,0.7066262,-0.19897339,-0.12278024,-0.33477423
0.30000000000000004,0.1,1.2,0.0,0.0,0,-1.150613,0.2805688,-1.2994642,-0.4167101,0.049665794,0.8937343,-0.18166648,1.3693031,0.28512174,0.91160244,0.5670183,-0.17047448,-0.065269455,-0.505264
0.30000000000000004,0.1,1.2,0.0,0.0,0,-1.1423687,0.25546217,-1.2593507,-0.40044656,-0.05224803,0.81860995,-0.24474731,1.3996283,0.29522392,0.864845,0.58149546,-0.1322803,-0.19476636,-0.75637937
0.30000000000000004,0.1,1.2,0.0,0.0,0,-1.1808683,0.20812815,-1.2391517,-0.3236101,0.008985647,0.75138116,0.17580578,1.4039223,0.26726094,0.87346417,0.48134458,-0.48575246,0.111474745,-1.2966936
0.30000000000000004,0.1,1.2,0.0,0.0,0,-1.0641286,0.2780938,-1.2546498,-0.49387813,-0.17450546,0.9844927,-0.08866991,1.4873852,0.10297595,0.8892799,0.6348178,-0.49031126,0.10572835,-0.72872883
0.30000000000000004,0.1,1.2,0.0,0.0,0,-1.1203582,0.27997935,-1.2712128,-0.43572563,-0.033424538,0.8335086,-0.2693047,1.4084241,0.14169209,0.86405647,0.44683987,-0.26778156,-0.015474895,-0.63656956
0.30000000000000004,0.1,1.2,0.0,0.0,0,-1.1525565,0.21467811,-1.2906617,-0.34997892,-0.0069087967,0.7336953,-0.31136033,1.4070907,0.26050425,0.9119609,0.42334768,-0.1699881,-0.033186305,-1.0213078
0.30000000000000004,0.1,1.2,0.0,0.0,0,-0.99889255,0.2030389,-1.2108586,-0.3187962,-0.16374196,0.76198524,-0.06916386,1.5163851,0.18441837,0.8403345,0.68374115,0.24948685,-0.10224635,-0.5788325
0.30000000000000004,0.1,1.2,0.0,0.0,0,-1.1668885,0.22076115,-1.2905303,-0.38148552,0.08432837,0.755275,-0.25278124,1.4867245,0.271596,0.8263158,0.42727408,-0.6257279,0.010062759,-0.5668583
0.30000000000000004,0.1,1.2,0.0,0.0,0,-1.1601837,0.29069754,-1.2617848,-0.31581947,-0.0006777587,0.7145538,-0.14187987,1.3956901,0.22684006,0.9045886,0.59784853,-0.45320457,-0.011575245,-0.81362766
0.30000000000000004,0.1,1.2,0.0,0.0,0,-1.1134148,0.3124087,-1.2904589,-0.39482197,-0.0048029684,0.7339892,-0.111933246,1.3971732,0.26797605,0.9078149,0.42637658,-0.15649648,0.04500322,-0.47612634
0.30000000000000004,0.1,1.2,0.0,0.0,0,-1.1931684,0.28468698,-1.3636973,-0.36240557,0.009777557,0.9134174,0.13631168,1.6057861,0.15063956,0.8382638,0.68822384,-0.38397267,0.028559297,-0.5274995
0.30000000000000004,0.1,1.2,0.0,0.0,0,-1.1842909,0.2312427,-1.2935604,-0.14304644,-0.042994987,0.7370769,-0.3409321,1.4234699,0.3038955,0.8813845,0.5997834,-0.40456057,0.10951411,-0.59772545
0.30000000000000004,0.1,1.2,0.0,0.0,0,-1.080284,0.2034184,-1.3230503,-0.09348177,-0.09530904,1.0652497,-0.25543773,1.4619294,0.2350046,0.9334554,0.782437,-0.3570059,-0.01670082,-0.99384815
0.30000000000000004,0.1,1.2,0.0,0.0,0,-1.0971811,0.17831606,-1.2015362,-0.27276182,-0.02598833,0.964196,-0.08367996,1.5041057,0.19827223,0.9134755,0.7632529,0.08679611,0.1649012,-1.5190145
0.30000000000000004,0.1,1.2,0.0,0.0,0,-1.0715022,0.27973607,-1.3185077,-0.14006743,0.018876733,0.9617181,-0.083697535,1.3396963,0.27571216,0.89001334,0.80137676,-0.39306182,-0.049025074,-0.4794552
0.30000000000000004,0.1,1.2,0.0,0.0,0,-1.2031429,0.25430152,-1.3386946,-0.3376951,0.06897773,1.0633649,0.19376564,1.5856744,0.13026322,0.9379104,0.8869396,-0.22917023,-0.047127806,-1.267666
0.30000000000000004,0.1,1.2,0.0,0.0,0,-1.1538458,0.34749252,-1.2402694,-0.21779504,-0.06245342,0.7615798,-0.14264198,1.2995019,0.30303013,0.92202735,0.50229585,-0.32985768,-0.011828691,-0.89699304
0.30000000000000004,0.1,1.2,0.0,0.0,0,-1.1581873,0.17561376,-1.3015302,-0.19683321,-0.027026039,1.1253954,0.10640228,1.600838,0.2970353,0.8253772,0.8184183,-0.18440883,-0.003992124,-1.3313442
0.30000000000000004,0.1,1.2,0.0,0.0,0,-1.1650652,0.2200007,-1.2080177,-0.19070221,-0.119960316,0.98909634,-0.17600799,1.2854437,0.1565962,0.9770477,0.9012374,-0.39173105,-0.14883745,-0.68999356
0.30000000000000004,0.1,1.2,0.0,0.0,0,-1.1763437,0.32303697,-1.2757099,-0.36351296,0.005566446,1.1658264,-0.104370296,1.5462475,0.32460648,0.90118724,0.81817514,-0.07538405,-0.0830273,-0.28884515
0.30000000000000004,0.1,1.2,0.0,0.0,0,-1.1271024,0.26702693,-1.327561,-0.23440632,0.063556634,0.76060706,0.017324597,1.5445533,0.221305,0.89029133,0.70291084,-0.032302868,0.10963271,-0.8946447
0.30000000000000004,0.1,1.2,0.0,0.0,0,-1.0352368,0.2691834,-1.2902427,-0.33944893,-0.048657894,0.95556253,-0.052594393,1.349574,0.2838586,0.88150096,0.694099,-0.53689027,-0.20888166,-0.24700578
0.30000000000000004,0.1,1.2,0.0,0.0,0,-1.1695088,0.27032265,-1.2127941,-0.3114998,-0.16249177,0.90916216,-0.158786,1.4429004,0.27251422,0.9202731,0.5350487,-0.33082512,0.15894938,-1.1107962
0.30000000000000004,0.1,1.2,0.0,0.0,0,-1.0747992,0.2703024,-1.2550751,-0.45752284,-0.025822343,0.9554095,-0.19581586,1.6145488,0.21232012,0.8701189,0.7251032,0.25137618,-0.15234406,-1.3306125
0.30000000000000004,0.1,1.2,0.0,0.0,0,-1.0772985,0.2962097,-1.3302196,-0.50127494,-0.060020614,1.1620712,-0.06190507,1.4675702,0.24159123,0.86983335,0.68928045,-0.2839994,0.05390787,-0.7696926
0.30000000000000004,0.1,1.2,0.0,0.0,0,-1.061988,0.22059214,-1.2652818,-0.30211934,-0.0712104,0.8516665,-0.054498218,1.2392997,0.2739149,0.9693842,0.62910104,-0.45334065,-0.08919444,-1.018761
0.30000000000000004,0.1,1.2,0.0,0.0,0,-1.2004724,0.30892575,-1.230015,-0.43220094,-0.09556877,0.62609047,-0.07856227,1.5013624,0.20413102,0.8929253,0.5620254,0.019384624,-0.0696685,-0.8547106
0.30000000000000004,0.1,1.2,0.0,0.0,0,-1.1872239,0.27472895,-1.2894503,-0.2449304,-0.06672072,0.79312867,0.11128315,1.4136674,0.26472268,0.8214455,0.6668834,-0.17443305,-0.17219168,-0.72220254
0.30000000000000004,0.1,1.2,0.0,0.0,0,-1.1894891,0.29014865,-1.2935379,-0.35801724,0.0102285715,0.9657461,-0.004364324,1.3482647,0.24389018,0.94132113,0.66394275,0.077744074,0.028542895,-1.6010538
0.30000000000000004,0.1,1.2,0.0,0.0,0,-1.1988698,0.30392388,-1.2808622,-0.39253578,-0.103650324,0.78089464,-0.36886606,1.4768306,0.14112142,0.8683543,0.5446656,-0.13937011,0.10154259,-0.73330104
0.30000000000000004,0.1,1.2,0.0,0.0,0,-1.1452745,0.3093834,-1.3429487,-0.34936738,0.008804579,0.82419074,-0.09584029,1.4396757,0.22925474,0.86107093,0.556454,-0.4646101,0.061273254,-0.57678205
0.30000000000000004,0.1,1.2,0.0,0.0,0,-1.1608224,0.3194665,-1.2665724,-0.40206027,-0.09727003,0.83720803,-0.31194898,1.334567,0.30333245,0.8840604,0.40457988,-0.4989651,-0.13476786,-0.55424726
0.30000000000000004,0.1,1.2,0.0,0.0,0,-1.1782637,0.29186612,-1.3092617,-0.40156764,0.047141783,0.87633634,-0.040016204,1.4688355,0.26398203,0.9080024,0.5920313,-0.5358937,-0.027151976,-0.1300417
0.30000000000000004,0.1,1.2,0.0,0.0,0,-1.1461115,0.26469585,-1.2278609,-0.3065102,-0.09681944,0.9113014,0.17005624,1.6686448,0.3581399,0.90211314,0.74741274,-0.22854675,0.07081965,-0.13332334
0.30000000000000004,0.1,1.2,0.0,0.0,0,-1.1691159,0.27103114,-1.2732931,-0.2838367,-0.10207667,1.0585698,0.047605354,1.396501,0.34379953,0.89051455,0.5469733,-0.1540235,0.12034623,-0.86391574
0.30000000000000004,0.1,1.2,0.0,0.0,0,-1.1098181,0.23538046,-1.2622406,-0.36006522,-0.018670268,1.0975932,-0.0031624078,1.6070877,0.22796816,0.9200317,0.80935484,-0.29652277,0.09370723,-1.1899489
0.30000000000000004,0.1,1.2,0.0,0.0,0,-1.1517614,0.2683396,-1.2323889,-0.28788766,0.10278885,0.9352653,-0.16144195,1.4508783,0.30327055,0.83623177,0.7587019,-0.4831543,-0.04681891,-0.48304245
0.30000000000000004,0.1,1.2,0.0,0.0,0,-1.0981587,0.2260991,-1.2958286,-0.31674212,-0.08744063,1.0122249,-0.34347114,1.5837102,0.24820255,0.9493883,0.80911916,-0.5251604,0.07577663,-1.024055
0.30000000000000004,0.1,1.2,0.0,0.0,0,-1.0693427,0.29041654,-1.235808,-0.29173377,-0.054476466,0.75008297,-0.0918663,1.6048375,0.12438071,0.77876854,0.6196639,-0.29014993,0.1809639,-0.5439562
0.30000000000000004,0.1,1.2,0.0,0.0,0,-1.1645982,0.27737954,-1.2281816,-0.44890514,-0.05553553,0.89953333,-0.029647473,1.5107177,0.34909612,0.8563118,0.5385505,-0.53399664,-0.17544793,-0.24018806
0.30000000000000004,0.1,1.2,0.0,0.0,0,-1.1300216,0.2935926,-1.2670113,-0.2711944,0.06621222,0.88592356,-0.23868375,1.470517,0.16294064,0.8301094,0.66252816,-0.058738492,0.18027899,-0.9247141
0.30000000000000004,0.1,1.2,0.0,0.0,0,-1.1094725,0.2043637,-1.2561655,-0.30747423,-0.019809015,0.7659282,-0.052124053,1.357146,0.17204899,0.93987,0.5618056,-0.5999344,-0.00865235,-0.5978393
0.30000000000000004,0.1,1.2,0.0,0.0,0,-1.144892,0.24031162,-1.3181709,-0.1577426,0.023791544,0.79686725,-0.28353712,1.2547606,0.2951249,0.8863617,0.6710369,0.010431123,-0.13339981,-0.41337958
0.30000000000000004,0.1,1.2,0.0,0.0,0,-1.197086,0.329018,-1.2872269,-0.21464245,-0.08089182,0.8678835,-0.22668546,1.3425835,0.23214903,0.9413371,0.7748223,-0.5590601,-0.020947522,-0.5634321
0.30000000000000004,0.1,1.2,0.0,0.0,0,-1.2166618,0.2820333,-1.2883196,-0.18778402,-0.108588934,0.8436612,0.08903229,1.3309094,0.2641298,0.8648779,0.6118663,-0.14565502,0.046662394,-0.3885343
0.30000000000000004,0.1,1.2,0.0,0.0,0,-1.1194805,0.36784634,-1.3389748,-0.4347244,-0.15140855,1.0967401,-0.10067094,1.544034,0.21989867,0.8314189,0.7460726,-0.4000707,-0.02811207,-0.5265209
0.30000000000000004,0.1,1.2,0.0,0.0,0,-1.1459407,0.178729,-1.1614221,-0.5065318,0.017980175,0.8950539,-0.16580872,1.4348589,0.20300809,0.9701437,0.49693456,-0.11896,-0.01887341,-0.59299815
0.30000000000000004,0.1,1.2,0.0,0.0,0,-1.1710364,0.28560162,-1.3203216,-0.22818835,0.01884418,0.76746476,-0.3146096,1.4006822,0.33820435,0.8404599,0.47149152,-0.22326377,0.10647761,-0.8327904
0.30000000000000004,0.1,1.2,0.0,0.0,0,-1.2031977,0.28245538,-1.2732502,-0.48179924,-0.01455442,0.7896618,-0.1443706,1.695153,0.30366877,0.9071621,0.553144,0.090509705,-0.08747464,-0.64468294
0.30000000000000004,0.1,1.2,0.0,0.0,0,-1.2312372,0.29264346,-1.2648191,-0.30058897,0.04449248,0.84197587,-0.09417506,1.3466786,0.2783158,0.9262819,0.6083494,-0.1735959,0.009192622,-0.97976553
0.30000000000000004,0.1,1.2,0.0,0.0,0,-1.2048992,0.23031925,-1.3713808,-0.23125292,-0.0037891818,0.78049344,-0.27038285,1.4145226,0.23531535,0.8214514,0.60117584,-0.40297765,-0.1771049,-0.3417903
0.30000000000000004,0.1,1.2,0.0,0.0,0,-1.0786458,0.19557483,-1.2653849,-0.45823997,-0.08413748,0.8528139,-0.24968277,1.6011027,0.24411799,0.87208176,0.5194163,-0.1501164,0.11023369,-0.5466943
0.30000000000000004,0.1,1.2,0.0,0.0,0,-1.1046879,0.26774108,-1.2711434,-0.37563244,0.009333432,0.81012374,-0.20111623,1.4547169,0.26528755,0.8870205,0.5862879,-0.45680594,-0.04148136,-0.39410374
0.30000000000000004,0.1,1.2,0.0,0.0,0,-1.1396294,0.25217888,-1.2590841,-0.2806931,-0.11916579,0.7886438,-0.14592591,1.3838618,0.25042135,0.8977438,0.5632204,0.012596786,0.081985,-0.86965346
0.30000000000000004,0.1,1.2,0.0,0.0,0,-1.1079807,0.19475092,-1.2882802,-0.51225036,-0.018575696,1.0359374,-0.029120652,1.4856601,0.21562238,0.9443686,0.5252444,0.020673927,0.17317861,-0.62315094
0.30000000000000004,0.1,1.2,0.0,0.0,0,-1.1587936,0.19416654,-1.2362149,-0.42553845,-0.07986428,0.96618575,-0.008412444,1.4980632,0.19328214,0.86326116,0.56427956,0.11587519,0.13748908,-0.6762412
0.30000000000000004,0.1,1.2,0.0,0.0,0,-1.1540279,0.23085926,-1.3169564,-0.3653745,-0.12628633,0.8695045,0.056419857,1.4017074,0.35378107,0.8640815,0.4053665,-0.22397254,-0.08837568,-0.92522734
0.30000000000000004,0.1,1.2,0.0,0.0,0,-1.2186515,0.25727084,-1.2657102,-0.41385347,-0.07774575,0.8708855,-0.11064246,1.4687655,0.20236318,0.8278504,0.48939532,-0.40314007,0.020515174,-1.045124
0.30000000000000004,0.1,1.2,0.0,0.0,0,-1.0501279,0.19572946,-1.1781657,-0.37676716,-0.09309228,0.7162324,-0.0637398,1.4867028,0.21791752,0.8765276,0.5958762,-0.19555041,-0.12769365,-0.5478808
0.30000000000000004,0.1,1.2,0.0,0.0,0,-1.1653169,0.31952766,-1.2493174,-0.27873278,0.0026479005,1.059775,-0.13493715,1.370515,0.11484531,0.8126473,0.97532624,0.0012402539,-0.12610635,-0.027864097
0.30000000000000004,0.1,1.2,0.0,0.0,0,-1.164963,0.27176377,-1.2152059,-0.215129,0.060277276,1.0407852,-0.1688043,1.5507942,0.28147015,0.9226305,0.8323375,-0.1518382,0.018948844,-0.37949806
0.30000000000000004,0.1,1.2,0.0,0.0,0,-1.079902,0.297454,-1.3225075,-0.18063325,0.026812714,0.9342085,-0.2763473,1.2978991,0.26819155,0.89522314,0.5686686,-0.37177494,-0.0215121,-0.9131352
0.30000000000000004,0.1,1.2,0.0,0.0,0,-1.1267672,0.3344401,-1.2606357,-0.23303705,-0.012650367,0.92195195,-0.24717942,1.4146118,0.2082324,0.8874524,0.8384315,-0.12386599,0.030739581,-0.92656606
0.30000000000000004,0.1,1.2,0.0,0.0,0,-1.0936781,0.25641847,-1.2456629,-0.2082265,-0.031027984,0.9843303,-0.02505657,1.4099813,0.22755568,0.8909691,0.9211387,-0.5174602,-0.05818317,-0.67524517
0.30000000000000004,0.1,1.2,0.0,0.0,0,-1.1901339,0.23839541,-1.2386922,-0.24704012,0.015544768,1.0557694,-0.12015466,1.5612693,0.20489646,0.89226747,0.88423055,-0.268359,-0.02659342,-0.6872175
0.30000000000000004,0.1,1.2,0.0,0.0,0,-1.1237252,0.25038454,-1.2260861,-0.1252539,-0.055789948,0.7809605,-0.26884088,1.399611,0.25755924,0.87014776,0.86837184,-0.38272175,0.013777113,-0.54095507
0.30000000000000004,0.1,1.2,0.0,0.0,0,-1.0994154,0.30832866,-1.3374658,-0.2008996,-0.08699268,1.0189352,-0.18372545,1.3187791,0.34411475,0.8874488,0.7193635,-0.05888251,0.0155655,-0.4695189
0.30000000000000004,0.1,1.2,0.0,0.0,0,-1.1945354,0.24275413,-1.3260541,-0.42324933,-0.01423947,1.0306933,-0.264634,1.3702573,0.15563153,0.95754576,0.6940969,-0.3470562,-0.27660644,-0.2923182
0.30000000000000004,0.1,1.2,0.0,0.0,0,-1.1597035,0.2610593,-1.2701334,-0.17043439,-0.011694734,0.83922505,0.009890009,1.2704748,0.20926394,0.8830122,0.7811834,-0.53885293,-0.06256803,-0.97615236
0.30000000000000004,0.1,1.2,0.0,0.0,0,-1.1141613,0.2603484,-1.1905118,-0.42435852,-0.046047825,0.6613912,-0.5042692,1.3966861,0.1788572,0.91329736,0.643788,-0.38058066,0.0351417,-1.3232474
0.30000000000000004,0.1,1.2,0.0,0.0,0,-1.1699288,0.30529916,-1.2528788,-0.17072229,-0.022984726,0.84255725,-0.14434887,1.3500215,0.33551484,0.8604739,0.6480791,-0.0769317,0.12896034,-0.35513285
0.30000000000000004,0.1,1.2,0.0,0.0,0,-1.1438653,0.256208,-1.2792038,-0.24238122,-0.0487199,1.0067523,-0.20298272,1.473242,0.2175407,0.82848877,0.7851135,-0.42447963,0.02607747,-0.9924855
0.30000000000000004,0.1,1.2,0.0,0.0,0,-0.98410046,0.3431991,-1.1872522,-0.18581715,-0.08040552,0.9012556,-0.31075832,1.5984707,0.4162854,0.87504953,0.6406835,-0.09122998,0.025591524,-1.0583091
0.30000000000000004,0.1,1.2,0.0,0.0,0,-1.1596324,0.237385,-1.2681826,-0.2949244,-0.12309074,0.83401567,-0.24587327,1.3820246,0.20861512,0.8278125,0.5377983,0.21592785,-0.062357903,-0.9057005
0.30000000000000004,0.1,1.2,0.0,0.0,0,-1.0335463,0.28174123,-1.2318743,-0.25240397,-0.0075930282,0.6068895,-0.09215968,1.4678771,0.27523223,0.87850577,0.61166686,-0.35091296,0.13207158,-0.8974586
0.30000000000000004,0.1,1.2,0.0,0.0,0,-1.1339307,0.27980956,-1.2225486,-0.45676705,-0.0659077,0.76887786,0.19619948,1.4194356,0.10939323,0.95428777,0.6086942,-0.44503552,-0.083315685,-0.41906983
0.30000000000000004,0.1,1.2,0.0,0.0,0,-1.2153877,0.31085905,-1.333936,-0.18149905,0.030514617,0.8907293,-0.290081,1.282632,0.2586754,0.9109491,0.6830589,-0.05124963,-0.017437324,-0.5916265
0.30000000000000004,0.1,1.2,0.0,0.0,0,-1.1203654,0.18802994,-1.2029899,-0.33696535,-0.06872462,0.81389946,-0.17575926,1.416845,0.21842237,0.82269746,0.5632203,-0.79983157,-0.05684653,-0.7636987
0.30000000000000004,0.1,1.2,0.0,0.0,0,-1.130055,0.252905,-1.2086403,-0.36584774,-0.21095449,0.9021526,-0.2753042,1.4813062,0.12676306,0.89787424,0.75703853,-0.06645356,-0.09023098,-0.6991997
0.30000000000000004,0.1,1.2,0.0,0.0,0,-1.1100787,0.15798728,-1.2590445,-0.26949185,-0.071334146,0.7757654,-0.13801913,1.2965348,0.2985021,0.9985605,0.6048928,0.31589893,-0.2763257,-1.5601051
0.30000000000000004,0.1,1.2,0.0,0.0,0,-1.1035131,0.328592,-1.3284103,-0.42867675,-0.08332307,0.82330203,-0.20839494,1.4219159,0.11953329,0.9082393,0.66887826,-0.34197828,-0.074708134,-0.7908587
0.30000000000000004,0.1,1.2,0.0,0.0,0,-1.2221453,0.22636445,-1.2700027,-0.35315675,-0.02942396,0.9302647,-0.08396047,1.4571923,0.101545826,0.86368924,0.7217507,-0.3388078,-0.15804632,-0.70040125
0.30000000000000004,0.1,1.2,0.0,0.0,0,-1.2096773,0.29103845,-1.2912445,-0.3999769,-0.021678844,0.9170278,-0.1367162,1.4857129,0.20042944,0.8247654,0.67033297,-0.16017547,-0.051401723,-0.8073039
0.30000000000000004,0.1,1.2,0.0,0.0,0,-1.1848806,0.2439495,-1.2883238,-0.35304302,-0.0006707012,0.9109979,-0.24514884,1.4621114,0.23912114,0.8181888,0.56179804,-0.2762957,-0.036247637,-0.5855594
0.30000000000000004,0.1,1.2,0.0,0.0,0,-1.1284025,0.3348961,-1.212048,-0.28279853,-0.04438833,0.9702766,0.09793811,1.5649517,0.15375236,0.85534424,0.8934926,-0.19886228,-0.053883534,-1.0612807
0.30000000000000004,0.1,1.2,0.0,0.0,0,-1.0807487,0.21952684,-1.248936,-0.22508498,-0.044441827,0.9355193,-0.32446998,1.5389313,0.16684233,0.860995,0.73906684,-0.13742201,0.026961466,-0.64509666
0.30000000000000004,0.1,1.2,0.0,0.0,0,-1.0292088,0.32051337,-1.2785964,-0.2629154,-0.056269705,0.9460297,0.15205301,1.3847035,0.27039772,0.91896164,0.71567124,-0.28760678,0.03943906,-0.5496793
0.30000000000000004,0.1,1.2,0.0,0.0,0,-1.1379422,0.245024,-1.291451,-0.27372155,-0.026241416,0.86657095,-0.0973166,1.533001,0.39325613,0.8823878,0.74961436,-0.4801392,-0.14141099,-0.33628988
0.30000000000000004,0.1,1.2,0.0,0.0,0,-1.1602439,0.3358512,-1.2631814,-0.3633449,-0.023889598,1.0346107,-0.13911772,1.3429034,0.28400162,0.893641,0.69967204,-0.4657439,-0.14158607,-0.8485636
0.30000000000000004,0.1,1.2,0.0,0.0,0,-1.1741252,0.26903346,-1.2802633,-0.38268244,-0.079865865,1.0471781,-0.025835989,1.266238,0.27214918,0.9513339,0.4944958,-0.3992847,0.012686921,-1.0474504
0.30000000000000004,0.1,1.2,0.0,0.0,0,-1.1102493,0.27431634,-1.299058,-0.3855539,0.015703235,1.0426292,-0.009343487,1.4138681,0.267217,0.90964025,0.6404055,-0.35097456,0.04207642,-0.8116898
0.30000000000000004,0.1,1.2,0.0,0.0,0,-1.1338177,0.298816,-1.2818146,-0.26863262,-0.08850634,0.943297,-0.014023222,1.367486,0.28376365,0.9176602,0.7082815,-0.06979683,0.014783481,-1.2828573
0.30000000000000004,0.1,1.2,0.0,0.0,0,-1.1738712,0.26661497,-1.3466452,-0.40555805,-0.07654073,1.0385315,0.15049335,1.4537182,0.22956404,0.8464196,0.5391522,-0.38284332,-0.0057959924,-0.8224619
0.30000000000000004,0.1,1.2,0.0,0.0,0,-1.1887214,0.21814048,-1.2226433,-0.39329463,-0.10437029,1.0351354,-0.06630823,1.5162431,0.35611856,0.8188168,0.7262853,-0.16034529,-0.23281853,-0.67651564
0.30000000000000004,0.1,1.2,0.0,0.0,0,-1.201735,0.19890946,-1.337491,-0.43061596,-0.06141253,1.0136025,-0.22746986,1.6169055,0.08319906,0.8504729,0.7896239,-0.4549436,-0.1278148,-0.9549417
0.30000000000000004,0.1,1.2,0.0,0.0,0,-1.14996,0.23558979,-1.1807278,-0.34385633,-0.053108312,0.8855086,-0.016419558,1.4668721,0.105580784,0.8711988,0.7752115,-0.0491428,-0.16844437,-0.40214178
0.30000000000000004,0.1,1.2,0.0,0.0,0,-1.2923541,0.20896746,-1.2910751,-0.36563617,-0.08038634,0.82586336,-0.42822573,1.4497294,0.28567487,0.9001321,0.41496557,-0.4473744,-0.012663341,-0.55981225
0.30000000000000004,0.1,1.2,0.0,0.0,0,-1.2743218,0.18013152,-1.3149772,-0.28583995,-0.026905244,1.0037524,-0.2115002,1.3451002,0.27283606,0.9516207,0.60800445,-0.29210794,-0.09315421,-0.046446744
0.30000000000000004,0.1,1.2,0.0,0.0,0,-1.1555786,0.23627584,-1.2652704,-0.19747233,-0.058269706,0.92559725,-0.1149369,1.4190142,0.23219682,0.8799161,0.54373926,-0.049544305,-0.01709049,0.2792906
0.30000000000000004,0.1,1.2,0.0,0.0,0,-1.2468898,0.25885922,-1.211941,-0.24622722,-0.06398861,0.9940491,-0.17115387,1.6305538,0.28983286,0.8505149,0.6828309,-0.31215408,0.17185502,-0.44821084
0.30000000000000004,0.1,1.2,0.0,0.0,0,-1.0787821,0.21699633,-1.2361674,-0.30020943,-0.028816465,1.0935026,-0.024103759,1.4632328,0.26324725,0.82652825,0.7384447,-0.2413349,0.054182716,-0.63914543
0.30000000000000004,0.1,1.2,0.0,0.0,0,-1.1700221,0.2677614,-1.240102,-0.20940599,0.04562369,0.75891834,-0.15707742,1.516239,0.3335243,0.9424275,0.69313085,0.12752712,0.13593815,-0.8197548
0.30000000000000004,0.1,1.2,0.0,0.0,0,-1.1551336,0.27476606,-1.2865678,-0.32460365,-0.10447667,0.96019953,-0.14489606,1.2778076,0.28419206,0.88962924,0.48946896,-0.061774783,-0.10559727,0.14224985
0.30000000000000004,0.1,1.2,0.0,0.0,0,-1.1251194,0.23111829,-1.2797891,-0.35255605,0.009313984,1.0274361,-0.15048341,1.7112495,0.2935626,0.8984861,0.8183706,-0.15818158,-0.07724687,-1.0414267
0.30000000000000004,0.1,1.2,0.0,0.0,0,-1.0686387,0.20118916,-1.1996566,-0.22994702,-0.1006202,0.9167362,-0.16752286,1.3109044,0.23564042,0.9428715,0.70782316,-0.22452134,-0.062012017,-0.9699347
0.30000000000000004,0.1,1.2,0.0,0.0,0,-1.2039089,0.29844406,-1.2259852,-0.2923091,-0.081813835,0.9505634,-0.22685789,1.6032693,0.21597742,0.7875942,0.8392608,-0.08988977,-0.15392156,-0.5507905
0.30000000000000004,0.1,1.2,0.0,0.0,0,-1.1279126,0.21305235,-1.2998707,-0.21750543,-0.07577985,0.9898599,-0.022880878,1.2727139,0.19655232,0.90859103,0.75443333,-0.26518458,-0.14352621,-0.8110237
0.30000000000000004,0.1,1.2,0.0,0.0,0,-1.1433936,0.20561099,-1.23478,-0.2432764,0.028659783,0.9863978,-0.203472,1.4138149,0.057069726,0.9160155,0.7620676,-0.5065024,0.13331574,-0.58399814
0.30000000000000004,0.1,1.2,0.0,0.0,0,-1.1367966,0.24574861,-1.2459102,-0.2237865,-0.14808995,0.897062,-0.28138217,1.2693337,0.16010076,0.91257334,0.6261359,-0.51424193,0.03413738,-0.3044113
0.30000000000000004,0.1,1.2,0.0,0.0,0,-1.1090759,0.21928352,-1.3732058,-0.23732893,-0.061579976,1.0645818,-0.24260211,1.4195971,0.27435267,0.8444411,0.668299,0.12199362,-0.07217318,-1.0277919
0.30000000000000004,0.1,1.2,0.0,0.0,0,-1.1764976,0.3301551,-1.2293286,-0.25051826,-0.041207243,0.7532815,0.047426425,1.3202564,0.27260026,0.9186162,0.6146104,-0.29318082,-0.0070975176,-0.8405522
0.30000000000000004,0.1,1.2,0.0,0.0,0,-1.1554444,0.26585326,-1.290779,-0.33416858,-0.08488606,0.9791242,-0.015508976,1.3938459,0.19041775,0.8697595,0.6828553,-0.20913814,-0.14904071,-0.75678927
0.30000000000000004,0.1,1.2,0.0,0.0,0,-1.122554,0.20367534,-1.1675513,-0.2814357,-0.010803918,0.70744157,-0.15374587,1.320191,0.19731945,0.93685204,0.5843194,-0.1802617,-0.1501197,-0.9033461
0.30000000000000004,0.1,1.2,0.0,0.0,0,-1.1274056,0.24344796,-1.2865593,-0.29624054,0.035619475,0.82081807,-0.17412625,1.3134575,0.19436356,0.8874548,0.61040646,-0.4336415,-0.12201935,-0.5323224
0.30000000000000004,0.1,1.2,0.0,0.0,0,-1.1620803,0.26468965,-1.2019885,-0.15711567,-0.029705219,0.8836548,-0.1376012,1.2554672,0.1697671,0.8775146,0.66161907,-0.5864629,-0.0012902344,-0.5846073
0.30000000000000004,0.1,1.2,0.0,0.0,0,-1.1703212,0.23898359,-1.2413827,-0.20198736,-0.087269016,0.96834826,-0.08579203,1.4435129,0.15333615,0.88260514,0.7787776,-0.69932497,0.04391877,-0.6065218
0.30000000000000004,0.1,1.2,0.0,0.0,0,-1.1477293,0.2467833,-1.2696116,-0.11929278,0.038574327,0.9566928,-0.046901133,1.5468974,0.47302085,0.8631386,0.8323098,-0.1512234,0.09594027,-1.0697888
0.30000000000000004,0.1,1.2,0.0,0.0,0,-1.1282752,0.3004774,-1.2140956,-0.31597573,-0.121490635,0.91152465,-0.13774823,1.4469364,0.14780855,0.9338085,0.743309,0.0062573333,-0.22894059,-1.0269663
0.30000000000000004,0.1,1.2,0.0,0.0,0,-1.2203469,0.30614537,-1.2765496,-0.3277948,-0.07231788,0.9309093,-0.2608175,1.4341319,0.084056586,0.89676553,0.6300921,-0.48342478,0.036831718,-0.46555614
0.30000000000000004,0.1,1.2,0.0,0.0,0,-1.0361078,0.27554938,-1.3866365,-0.25309947,-0.05760598,0.7864487,-0.19797747,1.2475227,0.15541266,0.92875195,0.6025117,-0.02514721,-0.1462557,-1.0436934
0.30000000000000004,0.1,1.2,0.0,0.0,0,-1.1220267,0.29716164,-1.3054239,-0.3411612,0.023761645,0.7815536,-0.115042984,1.4305185,0.12815486,0.8797052,0.5504463,-0.19532533,0.025338281,-1.0927761
0.30000000000000004,0.1,1.2,0.0,0.0,0,-1.0999455,0.26891193,-1.2407963,-0.20800102,-0.059469476,0.9233122,-0.13728277,1.3505486,0.24346231,0.83488744,0.5602849,-0.41224527,-0.053533956,-0.7433776
0.30000000000000004,0.1,1.2,0.0,0.0,0,-1.0904615,0.24317215,-1.2880858,-0.16191569,-0.01742077,0.85033613,-0.18271042,1.2992868,0.16850118,0.85446537,0.60370994,-0.22331417,0.08125131,-1.0043439
0.30000000000000004,0.1,1.2,0.0,0.0,0,-1.110598,0.26491025,-1.2413677,-0.16938138,0.042687714,0.7617848,-0.08404883,1.3562201,0.23846297,0.884641,0.70763904,-0.33155715,-0.1304653,-1.1513699
0.30000000000000004,0.1,1.2,0.0,0.0,0,-1.0941972,0.25947252,-1.302767,-0.28401706,-0.1012764,1.0440592,0.07506536,1.2874838,0.20429942,0.9049384,0.5467121,-0.26932862,-0.112992175,-1.0805091
0.30000000000000004,0.1,1.2,0.0,0.0,0,-1.118977,0.27499947,-1.3678486,-0.21235073,-0.023707872,0.8602505,-0.20642976,1.3294885,0.13962416,0.84946096,0.5617831,-0.12708375,-0.04501281,-0.8716307
0.30000000000000004,0.1,1.2,0.0,0.0,0,-1.1466824,0.1774316,-1.3007584,-0.31356007,-0.02867372,0.9734165,-0.025667666,1.5494016,0.24907997,0.6898199,0.5164925,0.0064395093,0.008677174,-0.3369191
0.30000000000000004,0.1,1.2,0.0,0.0,0,-1.1129044,0.31444877,-1.296496,-0.46315315,-0.09798254,1.071215,-0.1810607,1.3660644,0.1499141,0.867038,0.6567254,-0.31104952,-0.1302112,-0.6370713
0.30000000000000004,0.1,1.2,0.0,0.0,0,-1.205733,0.2752841,-1.2954556,-0.2692958,-0.15479912,0.9883848,-0.18518995,1.2520168,0.3964938,0.91319853,0.4778894,-0.6951406,-0.13359934,-0.25346726
0.30000000000000004,0.1,1.2,0.0,0.0,0,-1.107651,0.28541374,-1.2909304,-0.3007192,-0.08406031,0.5712997,-0.10401591,1.3063952,0.20575258,0.9180475,0.40635914,-0.4232405,-0.099716716,-0.6352073
0.30000000000000004,0.1,1.2,0.0,0.0,0,-1.0924582,0.29645246,-1.3404323,-0.32104164,-0.0496925,0.8156639,0.14095485,1.3734841,0.19059847,0.85910344,0.5696182,-0.18166974,-0.17271064,-0.8954853
0.30000000000000004,0.1,1.2,0.0,0.0,0,-1.1472815,0.28154787,-1.2334582,-0.32874215,-0.10212487,1.045657,0.023380682,1.5032449,0.24517657,0.8869074,0.77864873,-0.102930695,0.007292349,-0.052243132
0.30000000000000004,0.1,1.2,0.0,0.0,0,-1.115967,0.22987142,-1.2181548,-0.13434859,-0.09616459,0.8705169,-0.3187783,1.3810172,0.2564506,0.8435179,0.822036,-0.12904085,-0.08725891,-1.0626574
0.30000000000000004,0.1,1.2,0.0,0.0,0,-1.2018241,0.24994989,-1.2288035,-0.26177627,0.014767295,0.9817566,0.06597337,1.4150336,0.05919826,0.83068305,0.7170982,0.02159684,0.10854928,-1.3882146
0.30000000000000004,0.1,1.2,0.0,0.0,0,-1.1665485,0.2525611,-1.234795,-0.3349482,0.020365462,0.90038353,-0.0925945,1.327466,0.27936977,0.95034456,0.6866928,0.13978398,-0.17686199,-1.2658606
0.30000000000000004,0.1,1.2,0.0,0.0,0,-1.1116878,0.26111466,-1.3114358,-0.29306066,-0.02931551,0.85933346,-0.2551628,1.356092,0.16235986,0.92108965,0.54869485,-0.06671217,0.19727947,-0.6576771
0.30000000000000004,0.1,1.2,0.0,0.0,0,-1.1753706,0.24005054,-1.2031038,-0.35357124,-0.012045755,0.9715056,-0.06058917,1.441535,0.08131751,0.8564257,0.6628129,-0.15062378,0.09356327,-0.47940883
0.30000000000000004,0.1,1.2,0.0,0.0,0,-1.1300343,0.29531097,-1.248869,-0.36659977,-0.04608831,0.826292,-0.33969864,1.3244876,0.11951242,0.9188381,0.6634858,-0.32087684,-0.21767236,-0.9150198
0.30000000000000004,0.1,1.2,0.0,0.0,0,-1.1938218,0.2795592,-1.239883,-0.33895025,-0.028957296,0.88780737,-0.052487426,1.4569485,0.23039755,0.8278972,0.5658288,-0.32225955,0.027645078,-0.9524686
0.30000000000000004,0.1,1.2,0.0,0.0,0,-1.1839434,0.20389536,-1.3260106,-0.17417188,-0.084334,0.73646426,-0.27373073,1.3451816,0.14226317,0.8649248,0.50974995,-0.24271986,-0.07918895,-0.7981746
0.30000000000000004,0.1,1.2,0.0,0.0,0,-1.1712309,0.23158503,-1.3130163,-0.1295342,-0.088730924,0.86074257,-0.18983442,1.4074991,0.2046835,0.8406248,0.5111752,-0.20291603,0.1334135,-0.52948964
0.30000000000000004,0.1,1.2,0.0,0.0,0,-1.1588902,0.31321678,-1.2712804,-0.5158582,-0.04154781,0.9508641,-0.21961774,1.4192163,0.030308733,0.96065634,0.5593605,-0.118193865,0.12151524,-0.48271796
0.30000000000000004,0.1,1.2,0.0,0.0,0,-1.10637,0.26914972,-1.2763294,-0.38236484,-0.102851555,0.8684187,0.22878121,1.3674128,0.19494233,0.9036883,0.5348926,-0.30586144,-0.019161725,-0.57629967
0.30000000000000004,0.1,1.2,0.0,0.0,0,-1.1240029,0.2878244,-1.3080055,-0.29233873,-0.058412462,0.8642942,-0.029987838,1.3307757,0.20839989,0.81862926,0.5434791,-0.40550512,-0.26447088,-0.6285748
0.30000000000000004,0.1,1.2,0.0,0.0,0,-1.2039194,0.2027009,-1.2842745,-0.18106711,-0.033853643,0.9547205,-0.10974412,1.343722,0.23387578,0.8603362,0.5369647,-0.4297575,0.0073580868,-0.72679293
0.30000000000000004,0.1,1.2,0.0,0.0,0,-1.1060724,0.22977714,-1.2833598,-0.20980774,0.046631016,0.97970974,-0.2995284,1.3616945,0.18898593,0.83993363,0.55700755,-0.28530368,-0.11084263,-0.8522306
0.30000000000000004,0.1,1.2,0.0,0.0,0,-1.1733412,0.26125255,-1.3614553,-0.24291968,0.0005770263,1.1267725,0.10053874,1.2885536,0.28233197,0.90864384,0.49345362,-0.30801654,-0.1759598,-1.0731659
0.30000000000000004,0.1,1.2,0.0,0.0,0,-1.1733412,0.26125255,-1.3614553,-0.24291968,0.0005770263,1.1267725,0.10053874,1.2885536,0.28233197,0.90864384,0.49345362,-0.30801654,-0.1759598,-1.0731659
0.30000000000000004,0.1,1.2,0.0,0.0,0,-1.1733412,0.26125255,-1.3614553,-0.24291968,0.0005770263,1.1267725,0.10053874,1.2885536,0.28233197,0.90864384,0.49345362,-0.30801654,-0.1759598,-1.0731659
0.30000000000000004,0.1,1.2,0.0,0.0,0,-1.1733412,0.26125255,-1.3614553,-0.24291968,0.0005770263,1.1267725,0.10053874,1.2885536,0.28233197,0.90864384,0.49345362,-0.30801654,-0.1759598,-1.0731659
0.30000000000000004,0.1,1.2,0.0,0.0,0,-1.1733412,0.26125255,-1.3614553,-0.24291968,0.0005770263,1.1267725,0.10053874,1.2885536,0.28233197,0.90864384,0.49345362,-0.30801654,-0.1759598,-1.0731659
0.30000000000000004,0.1,1.2,0.0,0.0,0,-1.1733412,0.26125255,-1.3614553,-0.24291968,0.0005770263,1.1267725,0.10053874,1.2885536,0.28233197,0.90864384,0.49345362,-0.30801654,-0.1759598,-1.0731659
0.30000000000000004,0.1,1.2,0.0,0.0,0,-1.1733412,0.26125255,-1.3614553,-0.24291968,0.0005770263,1.1267725,0.10053874,1.2885536,0.28233197,0.90864384,0.49345362,-0.30801654,-0.1759598,-1.0731659
0.30000000000000004,0.1,1.2,0.0,0.0,0,-1.1733412,0.26125255,-1.3614553,-0.24291968,0.0005770263,1.1267725,0.10053874,1.2885536,0.28233197,0.90864384,0.49345362,-0.30801654,-0.1759598,-1.0731659
0.30000000000000004,0.1,1.2,0.0,0.0,0,-1.1733412,0.26125255,-1.3614553,-0.24291968,0.0005770263,1.1267725,0.10053874,1.2885536,0.28233197,0.90864384,0.49345362,-0.30801654,-0.1759598,-1.0731659
0.30000000000000004,0.1,1.2,0.0,0.0,0,-1.1808152,0.31833625,-1.2475828,-0.45145437,-0.0132282805,0.89748377,-0.32742858,1.3923261,0.18572062,0.8680775,0.5258927,-0.48803315,-0.086660855,-0.7894423
0.30000000000000004,0.1,1.2,0.0,0.0,0,-1.1808152,0.31833625,-1.2475828,-0.45145437,-0.0132282805,0.89748377,-0.32742858,1.3923261,0.18572062,0.8680775,0.5258927,-0.48803315,-0.086660855,-0.7894423
0.30000000000000004,0.1,1.2,0.0,0.0,0,-1.1808152,0.31833625,-1.2475828,-0.45145437,-0.0132282805,0.89748377,-0.32742858,1.3923261,0.18572062,0.8680775,0.5258927,-0.48803315,-0.086660855,-0.7894423
0.30000000000000004,0.1,1.2,0.0,0.0,0,-1.1808152,0.31833625,-1.2475828,-0.45145437,-0.0132282805,0.89748377,-0.32742858,1.3923261,0.18572062,0.8680775,0.5258927,-0.48803315,-0.086660855,-0.7894423
0.30000000000000004,0.1,1.2,0.0,0.0,0,-1.1808152,0.31833625,-1.2475828,-0.45145437,-0.0132282805,0.89748377,-0.32742858,1.3923261,0.18572062,0.8680775,0.5258927,-0.48803315,-0.086660855,-0.7894423
0.30000000000000004,0.1,1.2,0.0,0.0,0,-1.1808152,0.31833625,-1.2475828,-0.45145437,-0.0132282805,0.89748377,-0.32742858,1.3923261,0.18572062,0.8680775,0.5258927,-0.48803315,-0.086660855,-0.7894423
0.30000000000000004,0.1,1.2,0.0,0.0,0,-1.1808152,0.31833625,-1.2475828,-0.45145437,-0.0132282805,0.89748377,-0.32742858,1.3923261,0.18572062,0.8680775,0.5258927,-0.48803315,-0.086660855,-0.7894423
0.30000000000000004,0.1,1.2,0.0,0.0,0,-1.1808152,0.31833625,-1.2475828,-0.45145437,-0.0132282805,0.89748377,-0.32742858,1.3923261,0.18572062,0.8680775,0.5258927,-0.48803315,-0.086660855,-0.7894423
0.30000000000000004,0.1,1.2,0.0,0.0,0,-1.1354059,0.30053017,-1.296514,-0.3139559,-0.025449058,0.9525604,-0.038279332,1.3349469,0.3019948,0.87640864,0.47359464,-0.09787288,-0.1752848,-1.2903597
0.30000000000000004,0.1,1.2,0.0,0.0,0,-1.1354059,0.30053017,-1.296514,-0.3139559,-0.025449058,0.9525604,-0.038279332,1.3349469,0.3019948,0.87640864,0.47359464,-0.09787288,-0.1752848,-1.2903597
0.30000000000000004,0.1,1.2,0.0,0.0,0,-1.1354059,0.30053017,-1.296514,-0.3139559,-0.025449058,0.9525604,-0.038279332,1.3349469,0.3019948,0.87640864,0.47359464,-0.09787288,-0.1752848,-1.2903597
0.30000000000000004,0.1,1.2,0.0,0.0,0,-1.1354059,0.30053017,-1.296514,-0.3139559,-0.025449058,0.9525604,-0.038279332,1.3349469,0.3019948,0.87640864,0.47359464,-0.09787288,-0.1752848,-1.2903597
0.30000000000000004,0.1,1.2,0.0,0.0,0,-1.1354059,0.30053017,-1.296514,-0.3139559,-0.025449058,0.9525604,-0.038279332,1.3349469,0.3019948,0.87640864,0.47359464,-0.09787288,-0.1752848,-1.2903597
0.30000000000000004,0.1,1.2,0.0,0.0,0,-1.1354059,0.30053017,-1.296514,-0.3139559,-0.025449058,0.9525604,-0.038279332,1.3349469,0.3019948,0.87640864,0.47359464,-0.09787288,-0.1752848,-1.2903597
0.30000000000000004,0.1,1.2,0.0,0.0,0,-1.1354059,0.30053017,-1.296514,-0.3139559,-0.025449058,0.9525604,-0.038279332,1.3349469,0.3019948,0.87640864,0.47359464,-0.09787288,-0.1752848,-1.2903597
0.30000000000000004,0.1,1.2,0.0,0.0,0,-1.0515381,0.22461824,-1.3311753,-0.12800893,-0.09571089,0.63157284,-0.29348263,1.3780928,0.2997501,0.87105656,0.3183146,-0.18401891,0.06655995,-1.4708276
0.30000000000000004,0.1,1.2,0.0,0.0,0,-1.0515381,0.22461824,-1.3311753,-0.12800893,-0.09571089,0.63157284,-0.29348263,1.3780928,0.2997501,0.87105656,0.3183146,-0.18401891,0.06655995,-1.4708276
0.30000000000000004,0.1,1.2,0.0,0.0,0,-1.0515381,0.22461824,-1.3311753,-0.12800893,-0.09571089,0.63157284,-0.29348263,1.3780928,0.2997501,0.87105656,0.3183146,-0.18401891,0.06655995,-1.4708276
0.30000000000000004,0.1,1.2,0.0,0.0,0,-1.0515381,0.22461824,-1.3311753,-0.12800893,-0.09571089,0.63157284,-0.29348263,1.3780928,0.2997501,0.87105656,0.3183146,-0.18401891,0.06655995,-1.4708276
0.30000000000000004,0.1,1.2,0.0,0.0,0,-1.0515381,0.22461824,-1.3311753,-0.12800893,-0.09571089,0.63157284,-0.29348263,1.3780928,0.2997501,0.87105656,0.3183146,-0.18401891,0.06655995,-1.4708276
0.30000000000000004,0.1,1.2,0.0,0.0,0,-1.0515381,0.22461824,-1.3311753,-0.12800893,-0.09571089,0.63157284,-0.29348263,1.3780928,0.2997501,0.87105656,0.3183146,-0.18401891,0.06655995,-1.4708276
0.30000000000000004,0.1,1.2,0.0,0.0,0,-1.0515381,0.22461824,-1.3311753,-0.12800893,-0.09571089,0.63157284,-0.29348263,1.3780928,0.2997501,0.87105656,0.3183146,-0.18401891,0.06655995,-1.4708276
0.30000000000000004,0.1,1.2,0.0,0.0,0,-1.0515381,0.22461824,-1.3311753,-0.12800893,-0.09571089,0.63157284,-0.29348263,1.3780928,0.2997501,0.87105656,0.3183146,-0.18401891,0.06655995,-1.4708276
0.30000000000000004,0.1,1.2,0.0,0.0,0,-1.0866114,0.26014808,-1.2457505,-0.19157138,-0.06341406,0.8813511,0.033476945,1.3132625,0.14214441,0.8373088,0.6542942,-0.10264771,-0.06962415,-0.82195526
