sanky1234/BimanualDexCatch/isaacgymenvs/cem_results/May31/football_pose_0.30000000000000004_0.1_1.2999999999999998_0.0_0.0_0_2025-06-03.csv
x,y,z,roll,pitch,yaw,robot1/joint1,robot1/joint2,robot1/joint3,robot1/joint4,robot1/joint5,robot1/joint6,robot1/joint7,robot2/joint1,robot2/joint2,robot2/joint3,robot2/joint4,robot2/joint5,robot2/joint6,robot2/joint7
0.30000000000000004,0.1,1.2999999999999998,0.0,0.0,0,-1.3294567,0.3553734,-1.2748916,-0.5964322,-0.2171129,0.62109035,-1.7999921,1.3480523,0.44695455,1.234612,0.028607825,-0.35079646,0.45331138,-0.8529773
0.30000000000000004,0.1,1.2999999999999998,0.0,0.0,0,-1.2137731,0.2868437,-1.2768606,-0.6188645,-0.55121714,0.63012534,-1.3359901,1.5657737,0.40587986,1.2219664,-0.020905215,-0.40054345,0.5111403,-0.64351404
0.30000000000000004,0.1,1.2999999999999998,0.0,0.0,0,-1.282913,0.24666423,-1.3393037,-0.49462005,-0.35196644,0.6141944,-2.2741845,1.2928011,0.40325084,1.2436634,-0.032556646,-0.42127278,0.40390068,-0.58440197
0.30000000000000004,0.1,1.2999999999999998,0.0,0.0,0,-1.1986253,0.39192963,-1.3407528,-0.56398225,-0.16125415,0.61553425,-1.7345153,1.4588708,0.46568456,1.0799521,0.12992848,-0.32084137,0.46648955,-0.6616928
0.30000000000000004,0.1,1.2999999999999998,0.0,0.0,0,-1.2564563,0.25260592,-1.3251445,-0.42360735,-0.0063886293,0.65702116,-0.83802664,1.3589603,0.44507152,1.0684444,0.08974062,-0.29085088,0.5449346,-0.025146827
0.30000000000000004,0.1,1.2999999999999998,0.0,0.0,0,-1.423567,0.33355543,-1.3267485,-0.5001702,-0.34796146,0.60744345,-1.8053079,1.414971,0.4614271,1.2155074,-0.12967692,-0.39081854,0.47557926,-0.30273837
0.30000000000000004,0.1,1.2999999999999998,0.0,0.0,0,-1.3570814,0.4013543,-1.3078134,-0.35627407,-0.3066347,0.6266098,-1.4556257,1.5121385,0.5405763,0.99422187,0.11472707,-0.4419555,0.48191282,-0.25830778
0.30000000000000004,0.1,1.2999999999999998,0.0,0.0,0,-1.1853434,0.2656388,-1.335643,-0.6276391,-0.2923221,0.6137762,-1.1524141,1.5682944,0.43617344,1.1749291,0.17283197,-0.38679346,0.41171646,-0.19038317
0.30000000000000004,0.1,1.2999999999999998,0.0,0.0,0,-1.2909621,0.2629843,-1.3171177,-0.45452085,-0.050628483,0.57933897,-2.2932339,1.4297681,0.46688783,1.0622038,-0.019346682,-0.35433754,0.40149167,-0.4234196
0.30000000000000004,0.1,1.2999999999999998,0.0,0.0,0,-1.2444082,0.31363672,-1.326767,-0.38585097,-0.28811377,0.60265404,-1.5483613,1.4197651,0.42146754,1.058076,0.03881276,-0.33740294,0.48392618,-1.0263096
0.30000000000000004,0.1,1.2999999999999998,0.0,0.0,0,-1.1903858,0.27618423,-1.3238281,-0.50855535,-0.34073418,0.5838443,-2.3327432,1.4065946,0.37176564,1.3437307,0.16100958,-0.303399,0.45436922,-0.685029
0.30000000000000004,0.1,1.2999999999999998,0.0,0.0,0,-1.3057231,0.4690413,-1.3059483,-0.41871542,-0.058725744,0.5899202,-1.4432548,1.843648,0.36870405,1.1794378,0.1274963,-0.26432797,0.48986843,-0.9344389
0.30000000000000004,0.1,1.2999999999999998,0.0,0.0,0,-1.0603596,0.24859802,-1.3247476,-0.46650168,-0.037573334,0.65015614,-1.7441907,1.6763089,0.459041,1.2227398,0.24984518,-0.38622057,0.45739663,-1.2895283
0.30000000000000004,0.1,1.2999999999999998,0.0,0.0,0,-1.3447059,0.36232656,-1.2990415,-0.6021936,-0.22834513,0.60717976,-1.6607039,1.5384856,0.44857857,1.1196105,0.04652724,-0.37897953,0.46107176,-0.27611408
0.30000000000000004,0.1,1.2999999999999998,0.0,0.0,0,-1.2190522,0.31594458,-1.2895087,-0.6256842,-0.14491957,0.6216902,-1.4739596,1.5393249,0.4276483,1.1070193,0.09850034,-0.41612852,0.48820153,0.55585694
0.30000000000000004,0.1,1.2999999999999998,0.0,0.0,0,-1.1131121,0.2765647,-1.2969354,-0.46957856,-0.37893033,0.5698332,-2.0667331,1.6313919,0.35143536,1.0933852,0.26257014,-0.40218863,0.44724098,-0.82426554
0.30000000000000004,0.1,1.2999999999999998,0.0,0.0,0,-1.2228988,0.29680192,-1.3263657,-0.5477832,-0.3933588,0.5688399,-0.7235626,1.490145,0.4943729,1.2851346,0.16640912,-0.43129385,0.47071466,-0.3919944
0.30000000000000004,0.1,1.2999999999999998,0.0,0.0,0,-1.3528771,0.3563152,-1.3171824,-0.562636,-0.40634656,0.5905962,-1.8323475,1.5060781,0.32838166,1.18645,-0.05095215,-0.36101273,0.487879,0.1873686
0.30000000000000004,0.1,1.2999999999999998,0.0,0.0,0,-1.2436197,0.3373709,-1.3222952,-0.48417714,0.0101877125,0.60828215,-1.3836802,1.4169377,0.47507852,1.162159,0.035873976,-0.37906057,0.47524342,-0.51659197
0.30000000000000004,0.1,1.2999999999999998,0.0,0.0,0,-1.3267851,0.33694467,-1.3309727,-0.42987305,-0.22791304,0.6087797,-1.4861776,1.3925847,0.53112394,1.203547,-0.07698823,-0.34580272,0.49442175,-0.97214335
0.30000000000000004,0.1,1.2999999999999998,0.0,0.0,0,-1.3548073,0.24380054,-1.3152018,-0.49517098,-0.123520985,0.5911491,-1.5617067,1.412371,0.52206767,1.3220779,0.06764328,-0.3912747,0.51841223,-0.64700365
0.30000000000000004,0.1,1.2999999999999998,0.0,0.0,0,-1.1548343,0.33607048,-1.2813153,-0.49227166,-0.29962292,0.5975314,-1.4750266,1.3423958,0.5030983,1.1971895,0.07178597,-0.42626056,0.49078453,-0.5012137
0.30000000000000004,0.1,1.2999999999999998,0.0,0.0,0,-1.2994612,0.28895134,-1.307641,-0.4138801,-0.1464736,0.58501065,-1.5621457,1.3533326,0.54046065,1.1241268,0.009998196,-0.33357075,0.45458767,-0.6667187
0.30000000000000004,0.1,1.2999999999999998,0.0,0.0,0,-1.2340603,0.36120635,-1.3455527,-0.4749595,-0.3818635,0.67317015,-1.2778585,1.6660967,0.35732064,1.1316091,0.23465285,-0.410961,0.45418003,-0.349533
0.30000000000000004,0.1,1.2999999999999998,0.0,0.0,0,-1.2218367,0.40697965,-1.3167138,-0.55048156,-0.16539742,0.61625195,-2.3887146,1.4202019,0.44724935,1.119543,0.016444547,-0.3774228,0.48538107,-0.4477432
0.30000000000000004,0.1,1.2999999999999998,0.0,0.0,0,-1.2585263,0.31260723,-1.3358629,-0.4227845,-0.3981765,0.6269465,-2.50986,1.5078231,0.35815996,1.3328183,0.2726212,-0.43968326,0.4949865,-0.70015574
0.30000000000000004,0.1,1.2999999999999998,0.0,0.0,0,-1.2233397,0.35151538,-1.3141677,-0.55111134,-0.12780634,0.5663084,-2.6429305,1.3165145,0.4493002,1.3667586,0.055158146,-0.3625544,0.5423793,-0.01979213
0.30000000000000004,0.1,1.2999999999999998,0.0,0.0,0,-1.3183236,0.3441012,-1.2784141,-0.59359676,-0.21391325,0.5984346,-0.7282158,1.6283268,0.39342737,1.2193537,0.21524161,-0.38708156,0.49027744,-0.38344574
0.30000000000000004,0.1,1.2999999999999998,0.0,0.0,0,-1.2008891,0.29181972,-1.2956522,-0.47976556,-0.23842888,0.61267596,-1.9897407,1.6789334,0.3920044,1.0495116,0.219016,-0.34980392,0.50419134,-0.48510253
0.30000000000000004,0.1,1.2999999999999998,0.0,0.0,0,-1.2080259,0.24397577,-1.3448321,-0.5095648,-0.28249043,0.57526785,-1.4477997,1.2934455,0.4828581,1.2328393,0.04018919,-0.3306238,0.44705594,0.2290954
0.30000000000000004,0.1,1.2999999999999998,0.0,0.0,0,-1.2805539,0.41117802,-1.3278494,-0.54347605,-0.26539075,0.63636184,-1.7566755,1.5506448,0.40256265,1.1983278,0.2581219,-0.3942223,0.478385,-0.5529643
0.30000000000000004,0.1,1.2999999999999998,0.0,0.0,0,-1.1782104,0.43104494,-1.3608674,-0.5613024,-0.10030578,0.60444814,-1.4793717,1.4229977,0.39637753,1.0863957,0.032264795,-0.33670968,0.51172817,-0.80912
0.30000000000000004,0.1,1.2999999999999998,0.0,0.0,0,-1.3794187,0.30098265,-1.2887652,-0.38806608,-0.2644422,0.6401332,-0.78150696,1.4700577,0.40531892,1.0550275,-0.0032136457,-0.35767296,0.4598761,-0.892259
0.30000000000000004,0.1,1.2999999999999998,0.0,0.0,0,-1.2466773,0.4259404,-1.3211261,-0.5215266,-0.2121391,0.63476706,-1.0652184,1.327479,0.3644648,1.1804702,0.047078393,-0.38429153,0.43303013,-0.15443562
0.30000000000000004,0.1,1.2999999999999998,0.0,0.0,0,-1.32802,0.33881,-1.2917416,-0.4747528,-0.051507857,0.6049604,-1.5940226,1.5037441,0.44406796,1.278014,0.4226363,-0.40555936,0.4763727,-0.34639737
0.30000000000000004,0.1,1.2999999999999998,0.0,0.0,0,-1.2936622,0.3760277,-1.3494399,-0.38720822,-0.13924178,0.61296153,-0.5876523,1.3402228,0.4822539,1.1409945,0.17122196,-0.34880167,0.45514372,-1.01522
0.30000000000000004,0.1,1.2999999999999998,0.0,0.0,0,-1.1497093,0.40437517,-1.3156244,-0.47381467,-0.21396314,0.5697456,-0.93588823,1.4442816,0.41918233,1.078236,0.0355827,-0.2633253,0.53976196,-0.7723934
0.30000000000000004,0.1,1.2999999999999998,0.0,0.0,0,-1.1680455,0.3018129,-1.3452125,-0.3244699,-0.47531438,0.5663643,-2.8440342,1.5785401,0.39861566,1.0035838,-0.05007144,-0.32254407,0.46754315,-0.5252456
0.30000000000000004,0.1,1.2999999999999998,0.0,0.0,0,-1.2924674,0.3386556,-1.3417745,-0.394939,-0.14358416,0.5758654,-0.9936245,1.4881446,0.50455433,1.3797743,0.4055914,-0.41454995,0.50097257,-0.84115666
0.30000000000000004,0.1,1.2999999999999998,0.0,0.0,0,-1.36348,0.37823835,-1.3235574,-0.51792544,-0.41035435,0.61161524,-1.5928438,1.6199555,0.53964376,1.0453918,-0.05599596,-0.29208958,0.51380765,-0.17160518
0.30000000000000004,0.1,1.2999999999999998,0.0,0.0,0,-1.3962282,0.34717795,-1.3020827,-0.49572957,-0.05943495,0.67072624,-2.5792813,1.6266172,0.4089847,1.1506574,0.3055347,-0.3678975,0.48985314,-0.14825863
0.30000000000000004,0.1,1.2999999999999998,0.0,0.0,0,-1.311378,0.3700727,-1.2606015,-0.43246597,-0.18404858,0.60477823,-2.2220738,1.3795279,0.45637602,1.0515078,0.12990046,-0.24843284,0.4506925,-1.610659
0.30000000000000004,0.1,1.2999999999999998,0.0,0.0,0,-1.1457058,0.36921942,-1.3376353,-0.43227938,-0.22932334,0.61478823,-1.7519829,1.3405428,0.5204633,1.2181756,0.044716924,-0.4362031,0.5121692,-0.38012123
0.30000000000000004,0.1,1.2999999999999998,0.0,0.0,0,-1.1599038,0.3216277,-1.306386,-0.55525976,-0.17095675,0.59929657,-1.5725822,1.6587623,0.41772184,1.0891447,0.2170797,-0.3462239,0.46208856,-0.743137
0.30000000000000004,0.1,1.2999999999999998,0.0,0.0,0,-1.2996255,0.36409503,-1.3142214,-0.64454937,0.21432707,0.5920917,-1.923312,1.5112641,0.3843424,1.1729987,0.036964137,-0.33385247,0.49064165,-0.043234672
0.30000000000000004,0.1,1.2999999999999998,0.0,0.0,0,-1.328278,0.31191146,-1.2925841,-0.42933553,-0.005857596,0.62382126,-1.8563385,1.4522386,0.43935257,1.0768809,0.13115674,-0.41563568,0.50544316,-0.60660166
0.30000000000000004,0.1,1.2999999999999998,0.0,0.0,0,-1.3496628,0.28818494,-1.2971528,-0.6120841,-0.043017037,0.61337996,-2.127313,1.4505411,0.35090643,1.1335757,-0.06905496,-0.36305007,0.4844953,-0.37933198
0.30000000000000004,0.1,1.2999999999999998,0.0,0.0,0,-1.2193396,0.31001195,-1.335203,-0.6081943,-0.19704923,0.58040035,-1.4422387,1.5425861,0.5249964,1.321573,0.17442127,-0.41916627,0.44960788,-0.24568152
0.30000000000000004,0.1,1.2999999999999998,0.0,0.0,0,-1.2921422,0.37852725,-1.3361158,-0.43163234,-0.03043535,0.5562546,-1.3996055,1.4437802,0.45313936,1.1061863,0.24324322,-0.39093038,0.426132,-0.7320102
0.30000000000000004,0.1,1.2999999999999998,0.0,0.0,0,-1.4083127,0.32619265,-1.2915406,-0.43245178,0.012832489,0.63846356,-1.6346544,1.3463889,0.5766195,1.2336273,0.14395261,-0.31605202,0.5033805,-0.67321354
0.30000000000000004,0.1,1.2999999999999998,0.0,0.0,0,-1.2291826,0.33020917,-1.3237977,-0.4364564,-0.14122523,0.59142995,-0.8018521,1.6267787,0.37760794,1.1925819,0.27426073,-0.29634827,0.45424905,0.18170714
0.30000000000000004,0.1,1.2999999999999998,0.0,0.0,0,-1.321419,0.2897587,-1.3368887,-0.41156706,-0.18344298,0.6270584,-1.5287534,1.3516814,0.40188745,1.1951118,0.22968188,-0.3697165,0.42604977,-0.9132001
0.30000000000000004,0.1,1.2999999999999998,0.0,0.0,0,-1.2834066,0.37775642,-1.3199623,-0.5843006,-0.036239292,0.6886392,-1.8177776,1.6477863,0.3375187,1.0951958,0.32062846,-0.30572224,0.4313184,-0.6338277
0.30000000000000004,0.1,1.2999999999999998,0.0,0.0,0,-1.3827449,0.45129693,-1.3232765,-0.4931361,-0.36819988,0.5987754,-1.8190085,1.4081714,0.41170844,1.1282138,0.19951023,-0.3313033,0.45938727,-1.3196774
0.30000000000000004,0.1,1.2999999999999998,0.0,0.0,0,-1.1906435,0.36090294,-1.3258867,-0.43439308,-0.29783356,0.5840808,-1.67972,1.4540818,0.483741,1.1475986,0.21644999,-0.36452892,0.5130696,-0.9793998
0.30000000000000004,0.1,1.2999999999999998,0.0,0.0,0,-1.2744204,0.3195892,-1.3177536,-0.50567937,-0.0851532,0.5958772,-1.4652548,1.5339996,0.41981098,1.2095339,0.24276078,-0.32912856,0.48188508,-0.4009716
0.30000000000000004,0.1,1.2999999999999998,0.0,0.0,0,-1.2527767,0.3321329,-1.3429037,-0.55777204,-0.112430274,0.60109264,-1.6383834,1.3388786,0.4163245,1.350046,0.18750405,-0.34712744,0.55792296,-0.79000676
0.30000000000000004,0.1,1.2999999999999998,0.0,0.0,0,-1.3568116,0.33329022,-1.3221301,-0.51379794,-0.028918669,0.64147514,-1.5293694,1.5075628,0.49132842,1.1795734,0.17955248,-0.27071783,0.49169874,-0.41873723
0.30000000000000004,0.1,1.2999999999999998,0.0,0.0,0,-1.2552836,0.3222391,-1.2865639,-0.45653594,-0.22743778,0.61165816,-2.0977588,1.6398942,0.36696923,1.0438609,0.24771766,-0.2690298,0.49598143,-0.65389764
0.30000000000000004,0.1,1.2999999999999998,0.0,0.0,0,-1.2587525,0.33682674,-1.3244727,-0.59199077,-0.31679946,0.60553616,-1.5850154,1.6400139,0.5114713,1.148942,0.12253116,-0.41620842,0.49613395,-0.6611691
0.30000000000000004,0.1,1.2999999999999998,0.0,0.0,0,-1.2729706,0.37505844,-1.3194672,-0.47269136,-0.32723024,0.5785444,-1.40366,1.563177,0.4102951,1.29746,0.25085098,-0.40534946,0.497626,-0.6971232
0.30000000000000004,0.1,1.2999999999999998,0.0,0.0,0,-1.314686,0.30425584,-1.300253,-0.45797077,-0.20989381,0.56277883,-1.9207666,1.4469287,0.42120543,1.1102192,0.021451272,-0.46483225,0.47886315,-0.60120296
0.30000000000000004,0.1,1.2999999999999998,0.0,0.0,0,-1.2959856,0.24470393,-1.3043928,-0.43216223,-0.17119324,0.61734223,-2.2377317,1.5134939,0.4422388,1.0990003,0.20047651,-0.37276328,0.4008929,-0.84618443
0.30000000000000004,0.1,1.2999999999999998,0.0,0.0,0,-1.2098135,0.34651232,-1.3126671,-0.5059442,-0.28579676,0.5751976,0.12546045,1.4615412,0.4308902,1.0893782,-0.021936413,-0.4110852,0.4316419,-0.41384074
0.30000000000000004,0.1,1.2999999999999998,0.0,0.0,0,-1.3486637,0.26169977,-1.311845,-0.4617367,-0.31386957,0.5808967,-1.1300794,1.4073347,0.43418998,1.215827,0.22143379,-0.4065394,0.4318666,-1.1251327
0.30000000000000004,0.1,1.2999999999999998,0.0,0.0,0,-1.3282818,0.21123944,-1.3055787,-0.41991743,-0.0015561306,0.5701166,-0.73741186,1.4933358,0.34551144,1.1019311,0.2526761,-0.27304763,0.44922835,-0.7905084
0.30000000000000004,0.1,1.2999999999999998,0.0,0.0,0,-1.2415186,0.36925897,-1.2920672,-0.5118071,-0.11940823,0.56792843,-1.6812087,1.5971223,0.41952717,1.1119462,0.28630823,-0.29867786,0.4226113,-0.4430838
0.30000000000000004,0.1,1.2999999999999998,0.0,0.0,0,-1.2312158,0.30915752,-1.3364655,-0.480501,-0.31815073,0.58085644,-1.4534965,1.5780653,0.4295048,1.1430506,0.22809018,-0.4216033,0.4326435,-0.32350498
0.30000000000000004,0.1,1.2999999999999998,0.0,0.0,0,-1.3499818,0.3060083,-1.311363,-0.46525824,-0.21007009,0.60914916,-1.8527616,1.4574951,0.42548478,1.1799245,0.22764744,-0.38282925,0.4185785,-0.53501266
0.30000000000000004,0.1,1.2999999999999998,0.0,0.0,0,-1.3358185,0.37174138,-1.2735451,-0.5165124,-0.59121543,0.6478055,-0.9871764,1.6130319,0.41896507,1.0942684,0.17198813,-0.38041398,0.4642646,-0.2808262
0.30000000000000004,0.1,1.2999999999999998,0.0,0.0,0,-1.3209771,0.31696612,-1.3369265,-0.49181277,-0.18941538,0.64749557,-2.1117074,1.4960052,0.4976542,1.1780075,0.15655872,-0.31642658,0.49137628,-0.7875688
0.30000000000000004,0.1,1.2999999999999998,0.0,0.0,0,-1.1807276,0.39426017,-1.334635,-0.5248111,-0.23611929,0.588353,-1.1898979,1.4941347,0.5188665,1.2592561,0.2306059,-0.49394926,0.42201778,-0.16053647
0.30000000000000004,0.1,1.2999999999999998,0.0,0.0,0,-1.1851103,0.39457735,-1.2908988,-0.43794075,-0.15900025,0.5413813,-2.680478,1.5670834,0.4491146,1.2543647,0.23470272,-0.34489018,0.48942256,-0.9033398
0.30000000000000004,0.1,1.2999999999999998,0.0,0.0,0,-1.367159,0.34468526,-1.3061802,-0.5420546,-0.13222449,0.5830461,-1.275759,1.5304517,0.5155422,1.3473352,0.2100837,-0.3752152,0.47043747,-0.15301952
0.30000000000000004,0.1,1.2999999999999998,0.0,0.0,0,-1.2727894,0.36668023,-1.304772,-0.44849214,0.01608123,0.62362766,-1.836838,1.5191313,0.4381182,1.1160012,0.33437526,-0.36672354,0.48002672,-0.6309496
0.30000000000000004,0.1,1.2999999999999998,0.0,0.0,0,-1.3283038,0.35766143,-1.346418,-0.4537583,-0.46128768,0.59638894,-2.2783785,1.3787519,0.39489824,1.2418513,0.044278212,-0.48284087,0.539114,-0.69048214
0.30000000000000004,0.1,1.2999999999999998,0.0,0.0,0,-1.2605535,0.40574977,-1.31801,-0.4157742,-0.14338642,0.6238804,-1.2425134,1.4988875,0.47777006,0.995152,0.24083151,-0.31042746,0.5188902,-1.1697009
0.30000000000000004,0.1,1.2999999999999998,0.0,0.0,0,-1.3028628,0.24159873,-1.321482,-0.3962073,-0.18852024,0.6388757,-2.499127,1.355038,0.44650304,1.1344393,-0.047922313,-0.37970844,0.4493941,-0.42838943
0.30000000000000004,0.1,1.2999999999999998,0.0,0.0,0,-1.1968689,0.38580185,-1.3123202,-0.49494284,-0.291325,0.5590491,-1.699223,1.401272,0.33432585,1.092104,-0.01559743,-0.35115197,0.42434397,-0.3060017
0.30000000000000004,0.1,1.2999999999999998,0.0,0.0,0,-1.2499218,0.4403693,-1.3059212,-0.63579243,-0.119773,0.6484146,-1.7979527,1.5580835,0.37087128,1.1866759,0.15205464,-0.27720246,0.4637672,-0.5185829
0.30000000000000004,0.1,1.2999999999999998,0.0,0.0,0,-1.2482983,0.33963546,-1.3341756,-0.5765562,-0.05145604,0.6340964,-1.1618493,1.5426681,0.5192134,1.2023801,0.20448309,-0.3424837,0.46795997,-0.47015753
0.30000000000000004,0.1,1.2999999999999998,0.0,0.0,0,-1.2365029,0.34905908,-1.3373615,-0.37353492,-0.30366638,0.63580686,-1.3977847,1.2694627,0.4026739,1.1729617,0.1383836,-0.35415852,0.44274232,-1.0237751
0.30000000000000004,0.1,1.2999999999999998,0.0,0.0,0,-1.2836008,0.40151635,-1.3007755,-0.40328622,-0.08888151,0.5370317,-1.4888804,1.5344664,0.46015605,1.2865374,0.35281307,-0.30928338,0.52512455,-0.5649225
0.30000000000000004,0.1,1.2999999999999998,0.0,0.0,0,-1.3890669,0.3965487,-1.3266997,-0.4202999,-0.21651375,0.6190207,-1.5082655,1.314812,0.42077267,1.1923463,0.2528821,-0.29772434,0.4154062,-0.95093966
0.30000000000000004,0.1,1.2999999999999998,0.0,0.0,0,-1.2638812,0.34632748,-1.3037686,-0.46743205,0.12377242,0.5511953,-1.776951,1.447022,0.50423014,1.1577169,0.20077787,-0.3187818,0.5023572,-0.7641554
0.30000000000000004,0.1,1.2999999999999998,0.0,0.0,0,-1.2244442,0.3772577,-1.3166989,-0.5164772,0.00017968188,0.622371,-1.0376076,1.4181104,0.5007624,1.1090264,-0.022886982,-0.30589738,0.43065554,-0.98726845
0.30000000000000004,0.1,1.2999999999999998,0.0,0.0,0,-1.1377409,0.26197425,-1.2837845,-0.54396355,-0.24240763,0.6597942,-0.54027736,1.3870758,0.47097045,1.2167388,0.041197535,-0.3218324,0.48772305,-0.43749014
0.30000000000000004,0.1,1.2999999999999998,0.0,0.0,0,-1.3142897,0.3269319,-1.2889619,-0.44125965,-0.20962544,0.6219313,-1.4472655,1.4341457,0.38478744,1.051178,0.12784216,-0.32485506,0.47863021,-0.49680364
0.30000000000000004,0.1,1.2999999999999998,0.0,0.0,0,-1.2740756,0.3276758,-1.3088609,-0.518802,-0.15127744,0.64934164,-1.5454072,1.6056714,0.39646327,1.191477,0.27340156,-0.33356246,0.5020812,0.107506976
0.30000000000000004,0.1,1.2999999999999998,0.0,0.0,0,-1.3127152,0.3370657,-1.3402709,-0.4788951,-0.16817285,0.57049847,-2.8014376,1.6285694,0.42388028,1.1687088,0.27781186,-0.37774995,0.5242538,-0.3023509
0.30000000000000004,0.1,1.2999999999999998,0.0,0.0,0,-1.3612254,0.42751637,-1.3210938,-0.5621093,-0.0034450926,0.61613405,-1.2962196,1.5132778,0.39563495,1.0281482,0.104262374,-0.4449595,0.4888071,-0.77570885
0.30000000000000004,0.1,1.2999999999999998,0.0,0.0,0,-1.2336392,0.37760627,-1.2834527,-0.466617,-0.4469963,0.6060487,-0.47302344,1.3982754,0.49790454,1.1887898,0.14796668,-0.38623288,0.50379956,-0.6943467
0.30000000000000004,0.1,1.2999999999999998,0.0,0.0,0,-1.2078829,0.3285512,-1.2752337,-0.48840272,0.00073352474,0.61417466,-1.5077114,1.4054215,0.4605695,1.174727,0.21495274,-0.38171285,0.43311474,-0.8551443
0.30000000000000004,0.1,1.2999999999999998,0.0,0.0,0,-1.423042,0.4478251,-1.2854626,-0.69071674,-0.09425469,0.5652797,-1.8287573,1.4946164,0.50705314,1.1451398,0.028036077,-0.3018118,0.47562566,-0.058176003
0.30000000000000004,0.1,1.2999999999999998,0.0,0.0,0,-1.2525834,0.34509102,-1.3501643,-0.5205564,-0.29588455,0.6329606,-0.9138821,1.5188383,0.41165203,1.2266835,0.25458,-0.31827936,0.47496873,-0.3660792
0.30000000000000004,0.1,1.2999999999999998,0.0,0.0,0,-1.2530419,0.37076733,-1.2857413,-0.533254,-0.41927516,0.6090008,-1.2180706,1.6841631,0.4404137,1.0436319,0.13752344,-0.36613956,0.50029486,-0.11320625
0.30000000000000004,0.1,1.2999999999999998,0.0,0.0,0,-1.3173804,0.3456217,-1.3097099,-0.57340854,-0.28431568,0.58522576,-1.4781104,1.621172,0.51604015,1.0832636,0.052509602,-0.40786582,0.5083504,-0.1650318
0.30000000000000004,0.1,1.2999999999999998,0.0,0.0,0,-1.2560385,0.33842087,-1.3012428,-0.5608605,-0.21255311,0.59968376,-0.5041397,1.5181587,0.44403145,1.2101637,0.20095761,-0.3680379,0.5259344,-0.36658087
0.30000000000000004,0.1,1.2999999999999998,0.0,0.0,0,-1.1716721,0.3069986,-1.340382,-0.52944773,-0.14095111,0.63443124,-1.8743688,1.6865395,0.34976345,0.89135927,0.12449646,-0.30653256,0.46834257,-0.5605478
0.30000000000000004,0.1,1.2999999999999998,0.0,0.0,0,-1.3898685,0.3505319,-1.3114133,-0.5431922,-0.22277562,0.5951344,-0.14557207,1.3982812,0.43806547,1.0567126,-0.19360325,-0.2899232,0.4515968,-0.09013885
0.30000000000000004,0.1,1.2999999999999998,0.0,0.0,0,-1.1783614,0.3237175,-1.2969826,-0.54248005,-0.31965834,0.58812934,-1.2897304,1.4976891,0.5467153,1.2648889,0.16231735,-0.46612483,0.41960534,-0.19700354
0.30000000000000004,0.1,1.2999999999999998,0.0,0.0,0,-1.210463,0.45953625,-1.3101963,-0.47406417,-0.3596601,0.57152206,-2.2029467,1.334834,0.4708875,1.1657985,-0.012748646,-0.25519904,0.42389593,-0.528394
0.30000000000000004,0.1,1.2999999999999998,0.0,0.0,0,-1.3371623,0.28365555,-1.3583925,-0.5190078,-0.084035076,0.6092213,-1.1125586,1.5545645,0.42897052,1.1669271,0.15422858,-0.3503901,0.50508106,-0.38069943
0.30000000000000004,0.1,1.2999999999999998,0.0,0.0,0,-1.3457747,0.34214228,-1.2764525,-0.5436796,-0.14321625,0.5598806,-1.6625031,1.3778546,0.51715213,1.3308531,0.17145287,-0.34919384,0.493857,-0.47375813
0.30000000000000004,0.1,1.2999999999999998,0.0,0.0,0,-1.1738402,0.35243535,-1.3294413,-0.53282535,-0.02860562,0.6390865,-0.31385362,1.4106587,0.35511255,1.074688,0.24341297,-0.33402893,0.4790558,-1.0846051
0.30000000000000004,0.1,1.2999999999999998,0.0,0.0,0,-1.3106534,0.46857408,-1.2972656,-0.47699735,-0.103967935,0.60113007,-1.5017517,1.295926,0.39307755,1.2198397,0.18978067,-0.383286,0.48181322,-1.1074524
0.30000000000000004,0.1,1.2999999999999998,0.0,0.0,0,-1.3164916,0.28762442,-1.2769712,-0.5539193,-0.39540127,0.5937595,-1.2225276,1.5208598,0.4682673,1.1597029,-0.050329287,-0.39356697,0.50888026,-0.41081086
0.30000000000000004,0.1,1.2999999999999998,0.0,0.0,0,-1.3182597,0.36539292,-1.2919824,-0.5157368,-0.4121662,0.5906393,-2.773225,1.4447392,0.46875942,1.0480937,0.037220716,-0.39037803,0.41775987,-0.6770832
0.30000000000000004,0.1,1.2999999999999998,0.0,0.0,0,-1.2392241,0.35422572,-1.2875537,-0.45691848,-0.09397239,0.62140715,-1.3081344,1.4019177,0.36199006,1.087992,0.1489885,-0.47917265,0.45817798,-0.5363873
0.30000000000000004,0.1,1.2999999999999998,0.0,0.0,0,-1.133785,0.2672936,-1.3251321,-0.4598081,0.10588151,0.5983856,-1.1989557,1.5195012,0.38166067,1.0668339,0.23925966,-0.3618802,0.51658446,-0.32225722
0.30000000000000004,0.1,1.2999999999999998,0.0,0.0,0,-1.3047242,0.2957471,-1.288638,-0.3531371,-0.33868942,0.6029591,-1.2210634,1.3290204,0.4193842,1.0893382,0.053569127,-0.36934486,0.50347865,-0.4063621
0.30000000000000004,0.1,1.2999999999999998,0.0,0.0,0,-1.2783821,0.26793572,-1.2783574,-0.4055894,-0.25692683,0.5682068,-2.886592,1.4004904,0.31279543,1.1037214,0.005027186,-0.4324985,0.4765022,-0.3513911
0.30000000000000004,0.1,1.2999999999999998,0.0,0.0,0,-1.2866713,0.333885,-1.3241568,-0.40966523,-0.23477663,0.59625185,-0.9686192,1.3381253,0.4358074,1.1478603,0.03605236,-0.48285356,0.45563686,-0.76557326
0.30000000000000004,0.1,1.2999999999999998,0.0,0.0,0,-1.2278798,0.3233585,-1.3179965,-0.42426404,-0.13025586,0.635885,-1.7153846,1.338719,0.44269472,1.1586508,0.15600929,-0.37406036,0.47783142,-0.5030013
0.30000000000000004,0.1,1.2999999999999998,0.0,0.0,0,-1.4073894,0.30507088,-1.2955728,-0.40911254,0.13301714,0.58083725,-2.5248165,1.2113512,0.4314924,1.183048,-0.0034284163,-0.2852728,0.47864702,-0.22879995
0.30000000000000004,0.1,1.2999999999999998,0.0,0.0,0,-1.2385818,0.33803886,-1.3148991,-0.43729165,-0.015132059,0.55338997,-0.31195685,1.4544768,0.34869856,1.0688397,0.23814136,-0.27293772,0.44236767,-0.6649936
0.30000000000000004,0.1,1.2999999999999998,0.0,0.0,0,-1.2720631,0.37023583,-1.3447156,-0.51650715,-0.072423235,0.6158843,-0.70151246,1.3901532,0.4132774,1.12894,0.090890385,-0.4228959,0.46984497,-0.8558829
0.30000000000000004,0.1,1.2999999999999998,0.0,0.0,0,-1.3052208,0.38225862,-1.3311584,-0.52648276,0.12790029,0.6313112,-1.3173301,1.4748476,0.45985565,1.1447893,0.21956432,-0.3183585,0.48573506,-0.23171368
0.30000000000000004,0.1,1.2999999999999998,0.0,0.0,0,-1.311938,0.34514853,-1.3101388,-0.4665463,-0.11043537,0.61584926,-1.8046806,1.4775658,0.45090532,1.0288905,0.01064262,-0.34437478,0.45965478,-0.83794236
0.30000000000000004,0.1,1.2999999999999998,0.0,0.0,0,-1.2785652,0.30289656,-1.298575,-0.4362696,-0.1869803,0.6031698,-0.52761215,1.4223994,0.38392046,1.0514317,0.1473119,-0.40995276,0.4131846,-0.27058816
0.30000000000000004,0.1,1.2999999999999998,0.0,0.0,0,-1.2689432,0.40027642,-1.2694671,-0.46659714,-0.35673347,0.63297814,-2.0295434,1.4853592,0.4016481,0.9821985,-0.02785745,-0.3782411,0.4490987,-0.69986856
0.30000000000000004,0.1,1.2999999999999998,0.0,0.0,0,-1.1885939,0.38616925,-1.3148861,-0.43174195,-0.34335878,0.5563697,-2.7647943,1.392525,0.49840218,0.9544865,0.051265325,-0.2918661,0.44397923,-0.1942214
0.30000000000000004,0.1,1.2999999999999998,0.0,0.0,0,-1.3564259,0.45216197,-1.3164574,-0.50489503,-0.077614926,0.63651633,-2.1834283,1.2991418,0.47879845,1.1699432,0.04981631,-0.2527063,0.4383839,-0.5547841
0.30000000000000004,0.1,1.2999999999999998,0.0,0.0,0,-1.3012795,0.40595627,-1.3134886,-0.43431193,-0.29067448,0.59885615,-2.1371882,1.3652271,0.38952008,1.1135113,0.103806354,-0.44722503,0.43474314,-1.1984624
0.30000000000000004,0.1,1.2999999999999998,0.0,0.0,0,-1.3802222,0.3973899,-1.2724128,-0.5014803,-0.2631575,0.5956518,-1.8756702,1.3328886,0.492858,1.1920466,-0.034256212,-0.3519772,0.45154166,-0.69385123
0.30000000000000004,0.1,1.2999999999999998,0.0,0.0,0,-1.1570411,0.33080563,-1.3358606,-0.49325132,-0.015026972,0.62100315,-1.9312869,1.5615317,0.44209164,0.995196,0.05258641,-0.49584395,0.51581055,-0.6291085
0.30000000000000004,0.1,1.2999999999999998,0.0,0.0,0,-1.3398395,0.29316902,-1.2931383,-0.43443677,-0.13761993,0.5760659,-2.8686523,1.5904926,0.46570888,0.9194492,0.052827038,-0.33397615,0.48964995,-0.47061145
0.30000000000000004,0.1,1.2999999999999998,0.0,0.0,0,-1.3045869,0.3586156,-1.3306785,-0.49943468,-0.19960283,0.6050371,-1.5540293,1.3152332,0.40693545,1.231594,0.20218796,-0.258048,0.43569413,0.24900809
0.30000000000000004,0.1,1.2999999999999998,0.0,0.0,0,-1.30733,0.29826736,-1.2881913,-0.51260257,-0.00735287,0.6018033,-0.41628817,1.524014,0.46730402,1.0180806,0.062434793,-0.25852293,0.46071374,-0.72428674
0.30000000000000004,0.1,1.2999999999999998,0.0,0.0,0,-1.3990284,0.35454193,-1.2938293,-0.5234608,-0.24737237,0.582515,-2.9667141,1.485296,0.44025055,1.0713611,0.16159998,-0.2763971,0.5097549,-0.03818622
0.30000000000000004,0.1,1.2999999999999998,0.0,0.0,0,-1.2092032,0.35902017,-1.3462765,-0.41526976,-0.40764597,0.6321843,-1.8418465,1.3861169,0.45483407,1.114208,-0.006501167,-0.39083645,0.45145574,-0.36974537
0.30000000000000004,0.1,1.2999999999999998,0.0,0.0,0,-1.1969028,0.24464005,-1.3036753,-0.52673984,-0.086889304,0.595382,-1.4387525,1.5692267,0.38440615,1.0713695,0.18412794,-0.3965657,0.43791673,-0.24668616
0.30000000000000004,0.1,1.2999999999999998,0.0,0.0,0,-1.2329344,0.3742695,-1.3152821,-0.51202404,-0.06664152,0.562733,-1.4167032,1.5267177,0.3535983,0.9968912,0.08004175,-0.35990143,0.4833616,-0.33000287
0.30000000000000004,0.1,1.2999999999999998,0.0,0.0,0,-1.1342685,0.31059542,-1.3097743,-0.5599047,-0.34113654,0.6072879,-0.86195517,1.3506304,0.39694133,1.2769037,0.13066052,-0.31397656,0.5128333,-0.84653854
0.30000000000000004,0.1,1.2999999999999998,0.0,0.0,0,-1.2325219,0.36595124,-1.300291,-0.5524522,-0.14683175,0.58897066,-1.6344615,1.5319486,0.3783705,1.0673224,0.1583491,-0.21061005,0.48410317,-0.15934874
0.30000000000000004,0.1,1.2999999999999998,0.0,0.0,0,-1.2084191,0.49549404,-1.3268816,-0.50020903,-0.23856254,0.6317683,-2.3936055,1.462573,0.3929285,1.1460638,0.15358758,-0.37020227,0.48394024,-0.29387227
0.30000000000000004,0.1,1.2999999999999998,0.0,0.0,0,-1.292537,0.39319828,-1.310432,-0.4928963,-0.13985164,0.6440439,-2.6228352,1.5662776,0.3547101,0.98851836,0.12748691,-0.41163287,0.47958514,-0.03665553
0.30000000000000004,0.1,1.2999999999999998,0.0,0.0,0,-1.2242514,0.33653453,-1.330159,-0.5600689,-0.35729048,0.6448207,-0.8188196,1.43561,0.4316264,1.1366367,0.06992709,-0.30342948,0.45751125,-0.6414845
0.30000000000000004,0.1,1.2999999999999998,0.0,0.0,0,-1.356213,0.31431112,-1.3260818,-0.5051136,-0.28996408,0.6037354,-0.76352733,1.4158629,0.44926494,1.1846869,0.09641127,-0.3688222,0.41945156,-0.3868618
0.30000000000000004,0.1,1.2999999999999998,0.0,0.0,0,-1.216563,0.2902161,-1.35946,-0.45166755,-0.40642533,0.53528017,-1.126675,1.4605322,0.4955699,1.2031413,0.15265775,-0.41549745,0.4410084,0.049221106
0.30000000000000004,0.1,1.2999999999999998,0.0,0.0,0,-1.206301,0.31887385,-1.3067104,-0.4464905,-0.15939632,0.6309921,-1.5417815,1.3885106,0.383593,0.9694802,0.01501719,-0.3989618,0.4217979,-0.44864222
0.30000000000000004,0.1,1.2999999999999998,0.0,0.0,0,-1.2293694,0.3606181,-1.2825857,-0.49425888,-0.0762451,0.6416514,-2.0951068,1.475609,0.43170846,1.0572594,0.07484694,-0.27330732,0.51809853,-0.5549906
0.30000000000000004,0.1,1.2999999999999998,0.0,0.0,0,-1.2102084,0.26678255,-1.3034244,-0.39309147,-0.16521943,0.59042764,-1.3652465,1.3255832,0.5315711,1.162698,0.012661719,-0.4269747,0.4297477,-0.4346036
0.30000000000000004,0.1,1.2999999999999998,0.0,0.0,0,-1.2778137,0.4064476,-1.3382171,-0.45570046,-0.15772887,0.5959173,-2.1629543,1.5324492,0.44612056,0.95636475,-0.21420163,-0.29355654,0.48897132,-1.0666873
0.30000000000000004,0.1,1.2999999999999998,0.0,0.0,0,-1.4042934,0.3322774,-1.2983972,-0.5107289,-0.090131834,0.6118461,-0.22945522,1.3444592,0.37013185,1.3473564,-0.06880285,-0.4638055,0.442759,-1.1475224
0.30000000000000004,0.1,1.2999999999999998,0.0,0.0,0,-1.2495528,0.31218815,-1.3226734,-0.39414167,0.055000346,0.6020587,-2.1472526,1.3373297,0.36605668,1.1046921,0.15163083,-0.31016675,0.5036556,-0.40815845
0.30000000000000004,0.1,1.2999999999999998,0.0,0.0,0,-1.2547089,0.32296416,-1.31845,-0.4050488,-0.20673722,0.6136887,-2.3304598,1.4511809,0.4499587,1.027904,0.0007786579,-0.27650422,0.464485,-1.1063814
0.30000000000000004,0.1,1.2999999999999998,0.0,0.0,0,-1.2046533,0.3168682,-1.3280686,-0.4974697,-0.030823354,0.59593534,-1.7035618,1.4783579,0.4295061,1.0211195,0.05608991,-0.3845388,0.42474568,-0.6266254
0.30000000000000004,0.1,1.2999999999999998,0.0,0.0,0,-1.3705513,0.3756097,-1.369347,-0.53706396,-0.14248,0.62777746,-2.624312,1.4146863,0.412614,1.1756374,-0.11678378,-0.42346516,0.42635417,-0.68026286
0.30000000000000004,0.1,1.2999999999999998,0.0,0.0,0,-1.1214217,0.32231668,-1.3282467,-0.4558487,-0.21732324,0.5866263,-1.4963979,1.4562811,0.4493553,1.2072934,0.22900403,-0.2630492,0.48337236,0.099567674
0.30000000000000004,0.1,1.2999999999999998,0.0,0.0,0,-1.3942041,0.38199025,-1.3424611,-0.5630651,-0.36818102,0.62078094,-2.139406,1.5763146,0.41217047,1.0744619,-0.21559764,-0.45636567,0.476118,-0.8300749
0.30000000000000004,0.1,1.2999999999999998,0.0,0.0,0,-1.3274719,0.39562637,-1.3004278,-0.51611173,-0.24636084,0.63289744,-1.1260717,1.4875358,0.38453478,1.036674,-0.00047440475,-0.3995509,0.4311491,-0.9863712
0.30000000000000004,0.1,1.2999999999999998,0.0,0.0,0,-1.2805283,0.32862037,-1.3104124,-0.63330024,-0.20835237,0.5773099,-1.261559,1.4452869,0.50702155,1.2274839,-0.00078081526,-0.4026969,0.4942921,-0.7736549
0.30000000000000004,0.1,1.2999999999999998,0.0,0.0,0,-1.1543596,0.29253992,-1.3257375,-0.53090453,-0.2477,0.61692804,-1.8045253,1.4504205,0.35205466,1.1087853,0.08258673,-0.33925423,0.4649845,-0.8135562
0.30000000000000004,0.1,1.2999999999999998,0.0,0.0,0,-1.3463702,0.3269133,-1.2863895,-0.654161,-0.0837877,0.5926269,-1.188994,1.472088,0.40942016,1.1940801,0.04619334,-0.4564592,0.4954277,-0.5759747
0.30000000000000004,0.1,1.2999999999999998,0.0,0.0,0,-1.388303,0.3322002,-1.2938987,-0.51081574,0.1171686,0.6310401,-1.6223267,1.3888333,0.46335152,1.1543133,0.100386664,-0.2878058,0.5011269,-0.5003732
0.30000000000000004,0.1,1.2999999999999998,0.0,0.0,0,-1.1763581,0.33291605,-1.3061284,-0.54872596,-0.44399804,0.6109429,-0.6982533,1.4826876,0.47212437,1.0812683,-0.0325625,-0.37751174,0.4538727,-0.488913
0.30000000000000004,0.1,1.2999999999999998,0.0,0.0,0,-1.2564924,0.38747558,-1.311044,-0.50271696,-0.49199364,0.6420312,-1.1213423,1.3915834,0.40551832,1.1328723,0.035145156,-0.29991403,0.48513636,-0.5742089
0.30000000000000004,0.1,1.2999999999999998,0.0,0.0,0,-1.193158,0.27889213,-1.3162754,-0.45490465,-0.4485164,0.59303397,-1.7845864,1.3587359,0.43924847,1.2445346,0.07789035,-0.41296285,0.46399227,-0.5644186
0.30000000000000004,0.1,1.2999999999999998,0.0,0.0,0,-1.377791,0.43041536,-1.3408836,-0.5737718,0.17727803,0.65834194,-2.3121424,1.3842571,0.43494025,1.1190656,0.03939006,-0.259885,0.4889323,-0.31459993
0.30000000000000004,0.1,1.2999999999999998,0.0,0.0,0,-1.362942,0.34410578,-1.3254638,-0.53966457,0.047763508,0.5871029,-1.7148523,1.3419063,0.50050515,1.2402878,0.10027263,-0.37530118,0.43447846,-0.24851087
0.30000000000000004,0.1,1.2999999999999998,0.0,0.0,0,-1.2811582,0.26932925,-1.2980705,-0.5513693,-0.37711638,0.6918259,-0.9281708,1.4115252,0.45597634,1.138344,0.04250983,-0.31372765,0.4474546,-0.10360064
0.30000000000000004,0.1,1.2999999999999998,0.0,0.0,0,-0.99749833,0.41285044,-1.2972724,-0.480874,-0.115395345,0.56949186,-1.1211644,1.3721741,0.21205747,1.3131547,0.18743971,-0.4030455,0.4991636,-0.6350165
0.30000000000000004,0.1,1.2999999999999998,0.0,0.0,0,-1.2343706,0.36802095,-1.296659,-0.7258159,-0.14171518,0.6243405,-1.9389708,1.4175258,0.38423678,1.2641503,0.024829358,-0.32454857,0.47973257,-1.0713708
0.30000000000000004,0.1,1.2999999999999998,0.0,0.0,0,-1.2989819,0.3851146,-1.3233678,-0.4140464,-0.07598505,0.5946395,-0.82737565,1.2093893,0.3656285,1.2117176,0.10132374,-0.44415754,0.48678797,-0.5700506
0.30000000000000004,0.1,1.2999999999999998,0.0,0.0,0,-1.2560129,0.388409,-1.3199867,-0.5105294,-0.1922137,0.6077361,-1.5898286,1.2489918,0.409265,1.3044769,-0.028477931,-0.2746726,0.44347692,-0.67000794
0.30000000000000004,0.1,1.2999999999999998,0.0,0.0,0,-1.3528564,0.3062494,-1.3076067,-0.59086776,-0.23256496,0.6081798,-1.4876845,1.5507494,0.3788068,1.1245773,0.049273096,-0.32719222,0.4541553,-0.51514447
0.30000000000000004,0.1,1.2999999999999998,0.0,0.0,0,-1.2799498,0.39291486,-1.2844185,-0.45751166,-0.19053498,0.57543266,-1.4896033,1.1657672,0.42707735,1.2651402,0.067269154,-0.25090778,0.4039838,-0.87468743
0.30000000000000004,0.1,1.2999999999999998,0.0,0.0,0,-1.3585862,0.3350812,-1.342609,-0.40889522,-0.19115008,0.6468007,-2.2549036,1.2170837,0.43220454,1.2821561,0.0100339865,-0.4417594,0.5149356,-0.38369536
0.30000000000000004,0.1,1.2999999999999998,0.0,0.0,0,-1.2575191,0.38036263,-1.3109995,-0.4879621,-0.118740074,0.5615592,-1.9537835,1.4417255,0.39886266,1.0830402,-0.056032453,-0.39026302,0.47513673,-0.958383
0.30000000000000004,0.1,1.2999999999999998,0.0,0.0,0,-1.2603993,0.3416205,-1.3182292,-0.46563464,-0.16966952,0.59694546,-0.76804054,1.2953624,0.38221392,1.2150885,0.16955711,-0.2798086,0.4818159,-0.74227446
0.30000000000000004,0.1,1.2999999999999998,0.0,0.0,0,-1.3455468,0.28621075,-1.2981822,-0.4325237,-0.03810408,0.59676,-1.0458018,1.407811,0.5102037,1.0936575,-0.022420658,-0.44905463,0.4435311,-0.66924274
0.30000000000000004,0.1,1.2999999999999998,0.0,0.0,0,-1.231039,0.32241967,-1.3325673,-0.36388478,-0.48836276,0.6348311,-1.5238371,1.4518476,0.485722,1.1142472,0.1298393,-0.26873177,0.45786637,-0.5894049
0.30000000000000004,0.1,1.2999999999999998,0.0,0.0,0,-1.2694368,0.24470998,-1.3208427,-0.50318515,-0.16917059,0.57124466,-2.0237389,1.3667599,0.38937435,1.2333163,-0.011562109,-0.31936342,0.4914231,-0.46887857
0.30000000000000004,0.1,1.2999999999999998,0.0,0.0,0,-1.3542854,0.27240574,-1.3235959,-0.43572408,-0.21208657,0.6473993,-2.3431687,1.4359168,0.45173153,1.0720842,0.033393506,-0.3835475,0.47326168,-1.168545
0.30000000000000004,0.1,1.2999999999999998,0.0,0.0,0,-1.1081355,0.2759658,-1.3566322,-0.50204384,-0.27837494,0.6132409,-0.699771,1.4105684,0.4343742,1.1069025,0.06609768,-0.3922524,0.43314317,-1.159201
0.30000000000000004,0.1,1.2999999999999998,0.0,0.0,0,-1.3222363,0.35842264,-1.3043395,-0.50125635,-0.30358073,0.59182316,-1.4207305,1.3677092,0.42788994,1.166162,-0.016038226,-0.38686445,0.4887332,-0.46810594
0.30000000000000004,0.1,1.2999999999999998,0.0,0.0,0,-1.3247976,0.23636694,-1.3153291,-0.43634313,-0.23086692,0.58983755,-1.2215893,1.4449319,0.33981386,1.0864196,0.0712398,-0.34327176,0.45868832,-0.46745723
0.30000000000000004,0.1,1.2999999999999998,0.0,0.0,0,-1.3460747,0.31535286,-1.2879684,-0.5652854,-0.026305899,0.57149035,-1.0096141,1.3275645,0.47789314,1.2455815,0.027004348,-0.42713004,0.4352745,-0.6416119
0.30000000000000004,0.1,1.2999999999999998,0.0,0.0,0,-1.4482712,0.40276527,-1.2847468,-0.5355733,-0.37746224,0.62370807,-2.1444302,1.3099073,0.49669066,1.2126846,-0.038628425,-0.37891066,0.44176993,-0.4398941
0.30000000000000004,0.1,1.2999999999999998,0.0,0.0,0,-1.1845733,0.3069908,-1.3275504,-0.5614778,-0.20775487,0.64124936,-1.8834417,1.3668995,0.38455504,1.2669104,0.17063478,-0.3365303,0.45510525,-0.5556521
0.30000000000000004,0.1,1.2999999999999998,0.0,0.0,0,-0.99356896,0.3934535,-1.2953805,-0.5647822,-0.16464242,0.62420815,-1.5762793,1.433837,0.473742,1.4133849,0.061732132,-0.40920904,0.5290031,-0.1880463
0.30000000000000004,0.1,1.2999999999999998,0.0,0.0,0,-1.3002876,0.28395805,-1.3018641,-0.53442824,-0.23918302,0.5895957,-2.0771692,1.3448776,0.45811567,1.2431267,-0.0824606,-0.3186736,0.46890345,-0.3844438
0.30000000000000004,0.1,1.2999999999999998,0.0,0.0,0,-1.4516885,0.3555164,-1.3293601,-0.46859565,-0.0053805867,0.566087,-1.6428815,1.4646565,0.4362465,1.0973059,-0.010029046,-0.42218375,0.50841725,-0.3708016
0.30000000000000004,0.1,1.2999999999999998,0.0,0.0,0,-1.2370886,0.33008283,-1.2826941,-0.6830086,-0.096777484,0.59166324,-1.5597631,1.3277526,0.25816283,1.3883657,0.16094145,-0.43323356,0.4171842,-0.6638462
0.30000000000000004,0.1,1.2999999999999998,0.0,0.0,0,-1.2881143,0.37093624,-1.3011502,-0.5909837,0.062181238,0.62018985,-1.3854485,1.406772,0.31867775,1.2217753,0.0052400976,-0.37568098,0.52763647,-0.0029107397
0.30000000000000004,0.1,1.2999999999999998,0.0,0.0,0,-1.2534956,0.33543512,-1.3029656,-0.59561324,-0.24358746,0.61758184,-2.4866104,1.5151018,0.403488,1.1164483,0.027691346,-0.45172372,0.48263323,-0.71199113
0.30000000000000004,0.1,1.2999999999999998,0.0,0.0,0,-0.94837075,0.33647987,-1.3361742,-0.5031356,-0.03249512,0.6072704,-1.8516064,1.6687415,0.431397,1.2917261,0.028708857,-0.36386457,0.5027916,-0.09110743
0.30000000000000004,0.1,1.2999999999999998,0.0,0.0,0,-1.3618141,0.36407372,-1.2908295,-0.5099444,-0.13601927,0.5706991,-1.7818317,1.4932959,0.38478804,0.9842973,-0.07666684,-0.34903312,0.4378307,-0.77383226
0.30000000000000004,0.1,1.2999999999999998,0.0,0.0,0,-1.2667137,0.36005872,-1.2982616,-0.49440768,-0.2790513,0.60357904,-1.726143,1.2808355,0.41199955,1.2995939,-0.043261517,-0.36641115,0.5199999,-0.93597806
0.30000000000000004,0.1,1.2999999999999998,0.0,0.0,0,-1.2510521,0.31059328,-1.3160827,-0.5319422,-0.2523116,0.5895402,-1.1978765,1.3292272,0.37878615,1.3128606,-0.05842246,-0.30405584,0.41257268,-1.0481071
0.30000000000000004,0.1,1.2999999999999998,0.0,0.0,0,-1.1954005,0.38589668,-1.3301816,-0.40587226,-0.16182247,0.60272926,-2.2300675,1.2747657,0.35434356,1.1479038,0.08082608,-0.27500832,0.44773304,-0.7038533
0.30000000000000004,0.1,1.2999999999999998,0.0,0.0,0,-1.3974535,0.3202773,-1.3061409,-0.5035318,-0.21242799,0.59562284,-1.6781161,1.4649241,0.45338097,1.1703268,-0.16935028,-0.36230397,0.5090099,-0.6902546
0.30000000000000004,0.1,1.2999999999999998,0.0,0.0,0,-1.2696034,0.34263763,-1.3184222,-0.61821336,-0.12426188,0.66119564,-1.1602817,1.4128237,0.36014947,1.2263869,0.16163109,-0.39422375,0.42918956,-0.1392378
0.30000000000000004,0.1,1.2999999999999998,0.0,0.0,0,-1.2977233,0.33994895,-1.3612955,-0.5645456,-0.056538764,0.6161501,-1.9148575,1.2891232,0.4440429,1.3005677,-0.07542753,-0.47778776,0.49191618,-0.21409346
0.30000000000000004,0.1,1.2999999999999998,0.0,0.0,0,-1.3537178,0.3342661,-1.3248934,-0.3978625,-0.13513634,0.6104989,-2.0379074,1.2642106,0.4710864,1.2053314,0.016415592,-0.32305208,0.46656206,-0.32670045
0.30000000000000004,0.1,1.2999999999999998,0.0,0.0,0,-1.2726138,0.38416374,-1.333935,-0.5953858,-0.35023868,0.61709934,-2.391597,1.4975982,0.43372762,1.1894522,0.05089912,-0.3131417,0.46636146,-0.9388988
0.30000000000000004,0.1,1.2999999999999998,0.0,0.0,0,-1.2431717,0.3112119,-1.3153335,-0.39496455,-0.24149464,0.5951572,-2.0839155,1.5369973,0.45649883,0.88705087,-0.0351861,-0.3355162,0.52245945,-0.3915442
0.30000000000000004,0.1,1.2999999999999998,0.0,0.0,0,-1.2767245,0.27929112,-1.3343166,-0.4966287,-0.50644755,0.6463285,-1.8517964,1.2896821,0.5169689,1.2868787,0.004178542,-0.27048385,0.4015515,-0.5044177
0.30000000000000004,0.1,1.2999999999999998,0.0,0.0,0,-1.3303487,0.24843524,-1.3352004,-0.54535156,-0.25796342,0.60221934,-1.3559711,1.4962535,0.44930038,1.1196917,-0.19517821,-0.41445848,0.47302094,-0.61229897
0.30000000000000004,0.1,1.2999999999999998,0.0,0.0,0,-1.2263072,0.37943554,-1.330329,-0.48537788,-0.35444105,0.6356554,-0.9329171,1.3728648,0.28932184,1.1695261,0.07673803,-0.43650463,0.5487731,-0.5683381
0.30000000000000004,0.1,1.2999999999999998,0.0,0.0,0,-1.331794,0.27183467,-1.355839,-0.48356754,0.013047076,0.6488355,-2.344858,1.3925596,0.33063108,1.0589768,-0.061051674,-0.31544283,0.44533122,-0.29333735
0.30000000000000004,0.1,1.2999999999999998,0.0,0.0,0,-1.3282186,0.29966515,-1.310027,-0.5279516,0.18575428,0.583148,-2.0330632,1.3273998,0.5162626,1.2614155,-0.16728686,-0.39616767,0.49049473,-0.334173
0.30000000000000004,0.1,1.2999999999999998,0.0,0.0,0,-1.2688975,0.3606069,-1.2964398,-0.582761,-0.23110136,0.58039623,-1.5208553,1.4773457,0.45275906,1.0985798,-0.0111709125,-0.33892816,0.48494786,-0.7314187
0.30000000000000004,0.1,1.2999999999999998,0.0,0.0,0,-1.468593,0.346861,-1.2970167,-0.5180282,-0.5230135,0.5688542,-1.8740656,1.490994,0.2711645,0.9591142,-0.10789995,-0.20289099,0.47634307,-0.2641924
0.30000000000000004,0.1,1.2999999999999998,0.0,0.0,0,-1.3466139,0.32173604,-1.3059217,-0.51109236,-0.09842205,0.634039,-1.831034,1.3654208,0.39868233,1.1511215,0.011576112,-0.35571995,0.4483549,-0.9309308
0.30000000000000004,0.1,1.2999999999999998,0.0,0.0,0,-1.1967314,0.28078434,-1.3064907,-0.39066187,-0.17237997,0.5556541,-2.3289511,1.2918874,0.518983,1.2246478,-0.18489939,-0.28260595,0.46169728,-0.3281895
0.30000000000000004,0.1,1.2999999999999998,0.0,0.0,0,-1.3666406,0.33658582,-1.321417,-0.48441032,-0.13440861,0.5585104,-1.1431684,1.355835,0.38941225,1.1675998,0.05235297,-0.35143366,0.47415504,-0.34172207
0.30000000000000004,0.1,1.2999999999999998,0.0,0.0,0,-1.3000332,0.38108978,-1.3252859,-0.5725149,-0.20394692,0.6117672,-0.22279187,1.3903221,0.33200336,1.2198471,0.13878769,-0.38793373,0.48360807,-0.45269284
0.30000000000000004,0.1,1.2999999999999998,0.0,0.0,0,-1.2941908,0.2828157,-1.3198798,-0.4914941,-0.268575,0.6065383,-2.491099,1.3760693,0.35020423,1.1414161,0.054066963,-0.25601026,0.45438445,-0.45235237
0.30000000000000004,0.1,1.2999999999999998,0.0,0.0,0,-1.3019898,0.35885194,-1.3066578,-0.53594637,-0.17717187,0.6116747,-2.0879078,1.4119318,0.38573113,1.1723276,0.08559502,-0.42832834,0.4350873,-0.58164877
0.30000000000000004,0.1,1.2999999999999998,0.0,0.0,0,-1.3007542,0.32649568,-1.3283023,-0.28794566,-0.51823545,0.59202296,-1.8951315,1.1977878,0.29723266,1.2371242,0.0939562,-0.26402375,0.4594624,-0.69760305
0.30000000000000004,0.1,1.2999999999999998,0.0,0.0,0,-1.1994466,0.32992205,-1.336612,-0.588213,-0.26858205,0.63389355,-1.0625045,1.3870351,0.49624577,1.2687149,0.09732607,-0.4206499,0.4340799,-0.45747343
0.30000000000000004,0.1,1.2999999999999998,0.0,0.0,0,-1.2625085,0.4078557,-1.3202318,-0.6007255,0.09217735,0.61542344,-1.4041299,1.2830478,0.40639153,1.2611755,0.022694306,-0.40005228,0.46946916,-0.97848064
0.30000000000000004,0.1,1.2999999999999998,0.0,0.0,0,-1.2798164,0.35036343,-1.307231,-0.5310862,-0.40890858,0.63979787,-0.887493,1.2483193,0.43871385,1.354927,0.023138097,-0.4362809,0.4457768,-0.82066655
0.30000000000000004,0.1,1.2999999999999998,0.0,0.0,0,-1.2679844,0.31488806,-1.3125839,-0.3907082,-0.238356,0.6027308,-1.5367874,1.2467653,0.4566188,1.2579861,7.2712974e-06,-0.41820607,0.4790338,-0.60448354
0.30000000000000004,0.1,1.2999999999999998,0.0,0.0,0,-1.3917055,0.3801384,-1.3109089,-0.47498807,-0.058199238,0.59363496,-1.3229544,1.1538693,0.33776996,1.3391516,0.21157372,-0.2594171,0.40256375,-0.577169
0.30000000000000004,0.1,1.2999999999999998,0.0,0.0,0,-1.2124025,0.269543,-1.3177555,-0.3637088,-0.28270227,0.56014633,-1.9992497,1.4751276,0.4879479,1.0451298,0.13792495,-0.3099446,0.4930332,-0.9734057
0.30000000000000004,0.1,1.2999999999999998,0.0,0.0,0,-1.3509285,0.3027505,-1.3393685,-0.4797328,-0.3190131,0.6155737,-1.1108315,1.3629537,0.51833075,1.3125478,0.097588144,-0.3955088,0.4201336,-0.19582151
0.30000000000000004,0.1,1.2999999999999998,0.0,0.0,0,-1.337205,0.38320798,-1.3052555,-0.54913306,-0.0058905287,0.6076299,-0.88208574,1.408274,0.3993886,1.1037182,0.0800003,-0.39236838,0.5189263,-0.6227237
0.30000000000000004,0.1,1.2999999999999998,0.0,0.0,0,-1.360489,0.40615302,-1.3128525,-0.5385823,0.018632412,0.62150246,-0.94392854,1.3966379,0.4118173,1.0984802,0.072254576,-0.34888688,0.46664125,-0.8775206
0.30000000000000004,0.1,1.2999999999999998,0.0,0.0,0,-1.2281977,0.24847838,-1.3104461,-0.56618005,-0.36465487,0.6357766,-1.1444552,1.4589282,0.37063223,1.0883828,-0.032919668,-0.34295607,0.46983302,-0.14887968
0.30000000000000004,0.1,1.2999999999999998,0.0,0.0,0,-1.1904099,0.29911807,-1.3200039,-0.4737229,-0.2512727,0.59136325,-1.6637298,1.3008825,0.3333188,1.3252524,0.23067737,-0.42739052,0.48179737,-0.35467014
0.30000000000000004,0.1,1.2999999999999998,0.0,0.0,0,-1.3477175,0.30584177,-1.3259205,-0.47728342,-0.007106866,0.6114392,-0.9397637,1.4286053,0.43261883,1.0599396,0.0954903,-0.33699206,0.41945264,-0.30763066
0.30000000000000004,0.1,1.2999999999999998,0.0,0.0,0,-1.2308964,0.3218101,-1.3230708,-0.57834846,-0.20753732,0.5866177,-1.7613829,1.421051,0.46604612,1.1597521,-0.101290606,-0.3725904,0.48249897,-0.49320373
0.30000000000000004,0.1,1.2999999999999998,0.0,0.0,0,-1.2140467,0.35261607,-1.3000861,-0.55824614,-0.27191466,0.6093456,-2.3767486,1.2680595,0.4355274,1.3637458,0.110769086,-0.37648135,0.40189677,-0.49916622
0.30000000000000004,0.1,1.2999999999999998,0.0,0.0,0,-1.1175736,0.2981968,-1.3150544,-0.47532722,-0.14312948,0.5608779,-2.2610352,1.4490077,0.41890565,1.1812164,0.04498842,-0.37385908,0.5066097,-0.3262181
0.30000000000000004,0.1,1.2999999999999998,0.0,0.0,0,-1.2651186,0.27682692,-1.3238907,-0.5342847,-0.26984268,0.6004913,-2.441428,1.3316212,0.3448296,1.2524933,-0.028608218,-0.41074157,0.476495,-0.43119285
0.30000000000000004,0.1,1.2999999999999998,0.0,0.0,0,-1.3536824,0.3543172,-1.2801411,-0.52822053,-0.1693368,0.6239478,-1.3677694,1.3642814,0.39309216,1.165217,0.051087834,-0.44518355,0.4774589,-0.5948081
0.30000000000000004,0.1,1.2999999999999998,0.0,0.0,0,-1.2702365,0.27724472,-1.3156927,-0.5336412,-0.16216174,0.6350892,-2.5378885,1.534196,0.32826963,0.9938412,-0.05341929,-0.36639944,0.47880018,-0.44268852
0.30000000000000004,0.1,1.2999999999999998,0.0,0.0,0,-1.3723098,0.23731539,-1.3112056,-0.42518368,-0.050778996,0.578612,-0.122963406,1.3097489,0.3790595,1.2224355,0.11660814,-0.4119323,0.44730496,-0.21105118
0.30000000000000004,0.1,1.2999999999999998,0.0,0.0,0,-1.2654095,0.33355522,-1.337873,-0.46300638,-0.39356753,0.6602693,-1.3544883,1.3874409,0.42713508,1.1474626,-0.027447136,-0.31915158,0.50781184,-0.72510093
0.30000000000000004,0.1,1.2999999999999998,0.0,0.0,0,-1.380757,0.34521654,-1.366425,-0.47872752,-0.4062192,0.59403324,-0.8306849,1.2998736,0.32754594,1.1987091,-0.05584469,-0.27413157,0.50637656,-0.48366642
0.30000000000000004,0.1,1.2999999999999998,0.0,0.0,0,-1.2462938,0.35352468,-1.321308,-0.48401543,-0.2744111,0.5813243,-1.34568,1.3122226,0.38501576,1.1690186,-0.025831254,-0.41645095,0.45127878,-0.9217148
0.30000000000000004,0.1,1.2999999999999998,0.0,0.0,0,-1.2909027,0.4344738,-1.2940024,-0.5952166,-0.27820915,0.5924563,-0.34808007,1.3879426,0.34090254,1.2069091,-0.032541998,-0.41692135,0.4655265,-1.3066852
0.30000000000000004,0.1,1.2999999999999998,0.0,0.0,0,-1.276154,0.33733103,-1.3006821,-0.36504412,-0.15871888,0.61412394,-2.0885046,1.1971362,0.39204723,1.2038928,0.050043464,-0.30527827,0.51201963,-0.7467354
0.30000000000000004,0.1,1.2999999999999998,0.0,0.0,0,-1.2522751,0.32742015,-1.306232,-0.49077964,-0.16849975,0.59743744,-1.1880056,1.3367273,0.29634988,1.1717476,0.0678777,-0.37237108,0.5273441,-0.5832853
0.30000000000000004,0.1,1.2999999999999998,0.0,0.0,0,-1.2474641,0.33205512,-1.3209071,-0.41945395,-0.5237591,0.64933157,-2.6098058,1.4120911,0.5216991,1.1270046,0.1816776,-0.30920506,0.48953342,0.28656027
0.30000000000000004,0.1,1.2999999999999998,0.0,0.0,0,-1.2792716,0.27535343,-1.2990705,-0.54246294,-0.18149847,0.6055282,-1.1228153,1.3713286,0.3558939,1.1888936,0.07153279,-0.3912438,0.3806892,-1.0923028
0.30000000000000004,0.1,1.2999999999999998,0.0,0.0,0,-1.2995728,0.3414162,-1.3085163,-0.45401752,-0.2325341,0.61053056,-1.0341578,1.3322605,0.47296682,1.18523,-0.085003555,-0.26511547,0.4296565,-1.1976658
0.30000000000000004,0.1,1.2999999999999998,0.0,0.0,0,-1.1972985,0.35972258,-1.2642212,-0.63994,-0.33396906,0.5991106,-0.6998995,1.5616704,0.40756804,1.1229438,-0.115957245,-0.5249945,0.4867013,-0.845407
0.30000000000000004,0.1,1.2999999999999998,0.0,0.0,0,-1.239817,0.39520508,-1.347139,-0.5809199,0.0136377895,0.6255638,-0.5063317,1.4791992,0.28287688,1.0279068,0.009379118,-0.38801414,0.44123474,-0.6717637
0.30000000000000004,0.1,1.2999999999999998,0.0,0.0,0,-1.2902867,0.30222002,-1.3171473,-0.47921157,0.10863551,0.61889607,-0.76997733,1.1400201,0.35235137,1.375132,0.036583338,-0.29622924,0.48631996,-0.629273
0.30000000000000004,0.1,1.2999999999999998,0.0,0.0,0,-1.3059002,0.19263259,-1.2638925,-0.49113593,-0.41542736,0.5965244,-0.26799697,1.3996239,0.51639724,1.2322811,-0.106143706,-0.3543498,0.49062943,-0.50829107
0.30000000000000004,0.1,1.2999999999999998,0.0,0.0,0,-1.3898774,0.36134225,-1.3120371,-0.5148706,-0.4139118,0.6056992,-1.4895606,1.4705489,0.3940588,1.0894595,-0.1313981,-0.35153618,0.512813,-0.6301412
0.30000000000000004,0.1,1.2999999999999998,0.0,0.0,0,-1.3390518,0.25147715,-1.2796545,-0.51678646,0.01635236,0.6169345,-1.8513306,1.5446587,0.347835,1.0089021,-0.12389088,-0.41422132,0.43828258,-0.6604323
0.30000000000000004,0.1,1.2999999999999998,0.0,0.0,0,-1.405977,0.34856638,-1.3189505,-0.49675152,-0.47074994,0.60493135,-1.6316016,1.2910606,0.39637408,1.3031758,-0.023669852,-0.41417682,0.44081274,-1.0769771
0.30000000000000004,0.1,1.2999999999999998,0.0,0.0,0,-1.2484443,0.2680762,-1.3069398,-0.42534104,-0.089357734,0.6210165,-0.56809235,1.3424423,0.4519681,1.135275,-0.0028006316,-0.29932275,0.41094366,-0.9491348
0.30000000000000004,0.1,1.2999999999999998,0.0,0.0,0,-1.3837849,0.3452926,-1.2888292,-0.54557717,-0.12162997,0.5927671,-1.2919359,1.4832268,0.4206006,1.0472592,0.000828851,-0.41998246,0.48033953,-0.9794828
0.30000000000000004,0.1,1.2999999999999998,0.0,0.0,0,-1.2003461,0.31458005,-1.3580216,-0.51119906,-0.10505131,0.64003533,-0.90361255,1.3254434,0.32919905,1.314129,0.252613,-0.40007743,0.4974835,-0.21309805
0.30000000000000004,0.1,1.2999999999999998,0.0,0.0,0,-1.4088498,0.38794836,-1.3052405,-0.494698,-0.22501397,0.6238567,-0.9211637,1.5139396,0.30823216,0.938852,-0.08334668,-0.34616047,0.4974929,-0.43208647
0.30000000000000004,0.1,1.2999999999999998,0.0,0.0,0,-1.3237895,0.33492187,-1.2755882,-0.47492427,-0.28074095,0.62099785,-1.8409626,1.3005601,0.44676694,1.2304678,-0.08205545,-0.37692875,0.5031454,-0.6188556
0.30000000000000004,0.1,1.2999999999999998,0.0,0.0,0,-1.2268262,0.4110793,-1.3186966,-0.4766565,-0.23690683,0.6319362,-1.8280292,1.5545068,0.41388905,0.97075075,0.21509475,-0.3729162,0.53493315,-0.33854157
0.30000000000000004,0.1,1.2999999999999998,0.0,0.0,0,-1.2103673,0.44059116,-1.3321824,-0.51834476,-0.37244934,0.62580514,-0.42197078,1.2852185,0.4296363,1.2350773,0.050924804,-0.33484575,0.45360482,-1.0145998
0.30000000000000004,0.1,1.2999999999999998,0.0,0.0,0,-1.195891,0.3333526,-1.2986479,-0.44772038,0.03891515,0.6196774,-2.0441825,1.5185829,0.38782758,1.1238362,0.20516054,-0.38736457,0.49444133,-0.38221017
0.30000000000000004,0.1,1.2999999999999998,0.0,0.0,0,-1.3145883,0.35042268,-1.3313044,-0.53981405,-0.29258874,0.5990244,-1.004418,1.2505903,0.4292848,1.3524778,0.06375902,-0.36486083,0.473028,-0.6659185
0.30000000000000004,0.1,1.2999999999999998,0.0,0.0,0,-1.218638,0.23567495,-1.2984065,-0.4934899,-0.24860963,0.6332865,-2.2477777,1.5493273,0.42673194,1.0079808,-0.084924206,-0.45978788,0.42963675,-0.5868098
0.30000000000000004,0.1,1.2999999999999998,0.0,0.0,0,-1.218638,0.23567495,-1.2984065,-0.4934899,-0.24860963,0.6332865,-2.2477777,1.5493273,0.42673194,1.0079808,-0.084924206,-0.45978788,0.42963675,-0.5868098
0.30000000000000004,0.1,1.2999999999999998,0.0,0.0,0,-1.218638,0.23567495,-1.2984065,-0.4934899,-0.24860963,0.6332865,-2.2477777,1.5493273,0.42673194,1.0079808,-0.084924206,-0.45978788,0.42963675,-0.5868098
0.30000000000000004,0.1,1.2999999999999998,0.0,0.0,0,-1.218638,0.23567495,-1.2984065,-0.4934899,-0.24860963,0.6332865,-2.2477777,1.5493273,0.42673194,1.0079808,-0.084924206,-0.45978788,0.42963675,-0.5868098
0.30000000000000004,0.1,1.2999999999999998,0.0,0.0,0,-1.218638,0.23567495,-1.2984065,-0.4934899,-0.24860963,0.6332865,-2.2477777,1.5493273,0.42673194,1.0079808,-0.084924206,-0.45978788,0.42963675,-0.5868098
0.30000000000000004,0.1,1.2999999999999998,0.0,0.0,0,-1.218638,0.23567495,-1.2984065,-0.4934899,-0.24860963,0.6332865,-2.2477777,1.5493273,0.42673194,1.0079808,-0.084924206,-0.45978788,0.42963675,-0.5868098
0.30000000000000004,0.1,1.2999999999999998,0.0,0.0,0,-1.2599177,0.3380311,-1.3344039,-0.3791763,0.008436401,0.59397686,-1.9680413,1.6025957,0.5547508,0.74234617,-0.2134453,-0.26429912,0.47442207,0.34901592
0.30000000000000004,0.1,1.2999999999999998,0.0,0.0,0,-1.2599177,0.3380311,-1.3344039,-0.3791763,0.008436401,0.59397686,-1.9680413,1.6025957,0.5547508,0.74234617,-0.2134453,-0.26429912,0.47442207,0.34901592
0.30000000000000004,0.1,1.2999999999999998,0.0,0.0,0,-1.2599177,0.3380311,-1.3344039,-0.3791763,0.008436401,0.59397686,-1.9680413,1.6025957,0.5547508,0.74234617,-0.2134453,-0.26429912,0.47442207,0.34901592
0.30000000000000004,0.1,1.2999999999999998,0.0,0.0,0,-1.2599177,0.3380311,-1.3344039,-0.3791763,0.008436401,0.59397686,-1.9680413,1.6025957,0.5547508,0.74234617,-0.2134453,-0.26429912,0.47442207,0.34901592
0.30000000000000004,0.1,1.2999999999999998,0.0,0.0,0,-1.2599177,0.3380311,-1.3344039,-0.3791763,0.008436401,0.59397686,-1.9680413,1.6025957,0.5547508,0.74234617,-0.2134453,-0.26429912,0.47442207,0.34901592
0.30000000000000004,0.1,1.2999999999999998,0.0,0.0,0,-1.2599177,0.3380311,-1.3344039,-0.3791763,0.008436401,0.59397686,-1.9680413,1.6025957,0.5547508,0.74234617,-0.2134453,-0.26429912,0.47442207,0.34901592
0.30000000000000004,0.1,1.2999999999999998,0.0,0.0,0,-1.2599177,0.3380311,-1.3344039,-0.3791763,0.008436401,0.59397686,-1.9680413,1.6025957,0.5547508,0.74234617,-0.2134453,-0.26429912,0.47442207,0.34901592
0.30000000000000004,0.1,1.2999999999999998,0.0,0.0,0,-1.2599177,0.3380311,-1.3344039,-0.3791763,0.008436401,0.59397686,-1.9680413,1.6025957,0.5547508,0.74234617,-0.2134453,-0.26429912,0.47442207,0.34901592
0.30000000000000004,0.1,1.2999999999999998,0.0,0.0,0,-1.3729689,0.3265575,-1.2774687,-0.49562755,-0.19475771,0.5609682,-2.142558,1.8221272,0.4285541,0.6933172,-0.27749112,-0.38883764,0.51353985,-0.90895724
0.30000000000000004,0.1,1.2999999999999998,0.0,0.0,0,-1.3729689,0.3265575,-1.2774687,-0.49562755,-0.19475771,0.5609682,-2.142558,1.8221272,0.4285541,0.6933172,-0.27749112,-0.38883764,0.51353985,-0.90895724
0.30000000000000004,0.1,1.2999999999999998,0.0,0.0,0,-1.3729689,0.3265575,-1.2774687,-0.49562755,-0.19475771,0.5609682,-2.142558,1.8221272,0.4285541,0.6933172,-0.27749112,-0.38883764,0.51353985,-0.90895724
0.30000000000000004,0.1,1.2999999999999998,0.0,0.0,0,-1.3729689,0.3265575,-1.2774687,-0.49562755,-0.19475771,0.5609682,-2.142558,1.8221272,0.4285541,0.6933172,-0.27749112,-0.38883764,0.51353985,-0.90895724
0.30000000000000004,0.1,1.2999999999999998,0.0,0.0,0,-1.3729689,0.3265575,-1.2774687,-0.49562755,-0.19475771,0.5609682,-2.142558,1.8221272,0.4285541,0.6933172,-0.27749112,-0.38883764,0.51353985,-0.90895724
0.30000000000000004,0.1,1.2999999999999998,0.0,0.0,0,-1.3729689,0.3265575,-1.2774687,-0.49562755,-0.19475771,0.5609682,-2.142558,1.8221272,0.4285541,0.6933172,-0.27749112,-0.38883764,0.51353985,-0.90895724
0.30000000000000004,0.1,1.2999999999999998,0.0,0.0,0,-1.2722353,0.37837073,-1.3328459,-0.47754475,-0.46211207,0.6186017,-1.997577,1.3875,0.4504691,1.1706449,-0.05043931,-0.3524877,0.47346228,-0.99964786
0.30000000000000004,0.1,1.2999999999999998,0.0,0.0,0,-1.2722353,0.37837073,-1.3328459,-0.47754475,-0.46211207,0.6186017,-1.997577,1.3875,0.4504691,1.1706449,-0.05043931,-0.3524877,0.47346228,-0.99964786
0.30000000000000004,0.1,1.2999999999999998,0.0,0.0,0,-1.2722353,0.37837073,-1.3328459,-0.47754475,-0.46211207,0.6186017,-1.997577,1.3875,0.4504691,1.1706449,-0.05043931,-0.3524877,0.47346228,-0.99964786
0.30000000000000004,0.1,1.2999999999999998,0.0,0.0,0,-1.2722353,0.37837073,-1.3328459,-0.47754475,-0.46211207,0.6186017,-1.997577,1.3875,0.4504691,1.1706449,-0.05043931,-0.3524877,0.47346228,-0.99964786
0.30000000000000004,0.1,1.2999999999999998,0.0,0.0,0,-1.2722353,0.37837073,-1.3328459,-0.47754475,-0.46211207,0.6186017,-1.997577,1.3875,0.4504691,1.1706449,-0.05043931,-0.3524877,0.47346228,-0.99964786
0.30000000000000004,0.1,1.2999999999999998,0.0,0.0,0,-1.2722353,0.37837073,-1.3328459,-0.47754475,-0.46211207,0.6186017,-1.997577,1.3875,0.4504691,1.1706449,-0.05043931,-0.3524877,0.47346228,-0.99964786
0.30000000000000004,0.1,1.2999999999999998,0.0,0.0,0,-1.2722353,0.37837073,-1.3328459,-0.47754475,-0.46211207,0.6186017,-1.997577,1.3875,0.4504691,1.1706449,-0.05043931,-0.3524877,0.47346228,-0.99964786
0.30000000000000004,0.1,1.2999999999999998,0.0,0.0,0,-1.3527325,0.4299259,-1.3304293,-0.52808297,-0.32381234,0.6205645,-2.001286,1.4512559,0.3733556,1.0203204,-0.02403335,-0.34221673,0.41311842,-0.53401786
0.30000000000000004,0.1,1.2999999999999998,0.0,0.0,0,-1.3527325,0.4299259,-1.3304293,-0.52808297,-0.32381234,0.6205645,-2.001286,1.4512559,0.3733556,1.0203204,-0.02403335,-0.34221673,0.41311842,-0.53401786
0.30000000000000004,0.1,1.2999999999999998,0.0,0.0,0,-1.3527325,0.4299259,-1.3304293,-0.52808297,-0.32381234,0.6205645,-2.001286,1.4512559,0.3733556,1.0203204,-0.02403335,-0.34221673,0.41311842,-0.53401786
0.30000000000000004,0.1,1.2999999999999998,0.0,0.0,0,-1.3527325,0.4299259,-1.3304293,-0.52808297,-0.32381234,0.6205645,-2.001286,1.4512559,0.3733556,1.0203204,-0.02403335,-0.34221673,0.41311842,-0.53401786
0.30000000000000004,0.1,1.2999999999999998,0.0,0.0,0,-1.3527325,0.4299259,-1.3304293,-0.52808297,-0.32381234,0.6205645,-2.001286,1.4512559,0.3733556,1.0203204,-0.02403335,-0.34221673,0.41311842,-0.53401786
