sanky1234/BimanualDexCatch/isaacgymenvs/cem_results/May31/football_pose_0.30000000000000004_0.1_1.5_0.0_0.0_0_2025-05-31.csv
x,y,z,roll,pitch,yaw,robot1/joint1,robot1/joint2,robot1/joint3,robot1/joint4,robot1/joint5,robot1/joint6,robot1/joint7,robot2/joint1,robot2/joint2,robot2/joint3,robot2/joint4,robot2/joint5,robot2/joint6,robot2/joint7
0.30000000000000004,0.1,1.5,0.0,0.0,0,-0.058707137,-1.1927476,-1.0884678,-0.46808267,-0.2533431,-0.043380007,0.535747,0.70441204,1.0146009,0.5197986,-0.051750157,-0.5934727,1.1986272,0.31656602
0.30000000000000004,0.1,1.5,0.0,0.0,0,-0.048075803,-1.2063328,-1.0973995,-0.45262912,-0.1630397,-0.115002625,0.43137392,1.1590567,0.9226602,0.77104586,-0.050086297,-0.2554116,1.0933892,0.86404294
0.30000000000000004,0.1,1.5,0.0,0.0,0,-0.046670776,-1.1904771,-1.0769557,-0.46981767,-0.12689194,-0.074036546,0.43311694,1.1974597,1.1487031,0.65287554,-0.15110274,-0.2986239,1.077806,-0.17878701
0.30000000000000004,0.1,1.5,0.0,0.0,0,-0.046814922,-1.2097716,-1.0810095,-0.4763169,-0.2534234,-0.033655956,0.5015861,0.9729277,1.072149,1.2783438,-0.07449931,-0.5079161,1.1908574,1.1125962
0.30000000000000004,0.1,1.5,0.0,0.0,0,-0.05232682,-1.2080634,-1.0853552,-0.4706658,-0.1414808,-0.08007967,0.5200389,0.803051,1.3454852,0.5219128,-0.040695373,-0.25049275,1.1338198,0.24937718
0.30000000000000004,0.1,1.5,0.0,0.0,0,-0.062091216,-1.2010952,-1.0914534,-0.46013257,-0.19699094,-0.057671357,0.5387037,0.8295357,1.0154557,0.5578691,-0.048976734,-0.33175585,1.054973,-0.18340115
0.30000000000000004,0.1,1.5,0.0,0.0,0,-0.06316522,-1.1950688,-1.0714884,-0.4676105,-0.17371087,-0.07894704,0.4125883,1.3132006,1.13686,0.65618324,-0.08858546,-0.10548606,1.1010295,0.56899536
0.30000000000000004,0.1,1.5,0.0,0.0,0,-0.05403952,-1.2120397,-1.0748408,-0.46695128,-0.21981941,-0.061157644,0.5086904,0.67860305,0.89351624,0.45388746,-0.064369254,-0.42018104,0.99515414,0.07629601
0.30000000000000004,0.1,1.5,0.0,0.0,0,-0.051375296,-1.1957022,-1.0727177,-0.45757324,-0.20969026,-0.09412202,0.43137133,1.1755873,1.1766895,1.6347636,-0.09798311,-0.32424232,1.0355843,1.2047194
0.30000000000000004,0.1,1.5,0.0,0.0,0,-0.05446733,-1.1975895,-1.0862573,-0.46305382,-0.037797157,-0.06559495,0.50889665,0.66972494,1.3151615,0.55933136,-0.008162729,-0.2521199,1.1890321,0.6130063
0.30000000000000004,0.1,1.5,0.0,0.0,0,-0.053711366,-1.2080704,-1.0766313,-0.4656948,-0.16742982,-0.050722614,0.4836906,1.187596,0.8697827,0.33291513,-0.14573535,-0.5224029,1.1464764,-1.3744919
0.30000000000000004,0.1,1.5,0.0,0.0,0,-0.056067683,-1.2016934,-1.0809197,-0.46329385,-0.23632309,-0.079388306,0.4974287,1.1444224,0.977633,0.23458146,-0.08298952,-0.5287456,1.093979,0.5504944
0.30000000000000004,0.1,1.5,0.0,0.0,0,-0.052698772,-1.2033277,-1.0831736,-0.46038115,-0.23542978,-0.06702973,0.55760354,1.0726637,0.8393415,0.77078944,-0.06684092,-0.09234379,1.1184428,0.19289188
0.30000000000000004,0.1,1.5,0.0,0.0,0,-0.06231451,-1.1854286,-1.0716758,-0.4638384,-0.2894081,-0.06529152,0.4480365,1.2486221,1.1696651,0.59807026,-0.079329334,-0.799063,1.0699215,0.28226984
0.30000000000000004,0.1,1.5,0.0,0.0,0,-0.056724567,-1.19655,-1.0769144,-0.46587226,-0.20813915,-0.07054932,0.5166252,1.0171819,0.9413443,0.21473604,-0.12779255,-0.32824305,1.0939351,0.029485678
0.30000000000000004,0.1,1.5,0.0,0.0,0,-0.05236562,-1.1992284,-1.0814612,-0.46596962,-0.21406189,-0.042162523,0.5186747,1.0578523,1.1479183,0.6095523,-0.09407834,-0.30712995,1.0210569,-0.58588105
0.30000000000000004,0.1,1.5,0.0,0.0,0,-0.052654497,-1.2024946,-1.0826484,-0.4691971,-0.1911335,-0.07535647,0.4077279,0.88683,0.8490181,0.10869845,-0.055204734,-0.11904037,1.049136,0.9642924
0.30000000000000004,0.1,1.5,0.0,0.0,0,-0.055413254,-1.2024256,-1.0877178,-0.45892474,-0.23297863,-0.07175626,0.54540193,0.59037006,0.91967666,0.6073917,-0.11020818,-0.2567129,1.2163229,0.7376141
0.30000000000000004,0.1,1.5,0.0,0.0,0,-0.061725438,-1.2020434,-1.0816656,-0.4522126,-0.1718892,-0.057023067,0.49321204,0.36850488,1.3177131,0.5945999,-0.07579787,-0.25226718,1.1391561,-0.52046764
0.30000000000000004,0.1,1.5,0.0,0.0,0,-0.055539567,-1.2105546,-1.0839938,-0.47322902,-0.13424252,-0.0834773,0.50143695,0.95793587,1.0304277,0.8610986,-0.080912806,-0.22850448,1.1370776,0.03464634
0.30000000000000004,0.1,1.5,0.0,0.0,0,-0.057544816,-1.1953683,-1.0776187,-0.4551586,-0.14006604,-0.087877564,0.46779177,0.91491026,0.95415086,0.58257633,-0.06842555,-0.51489645,1.0266306,0.5116113
0.30000000000000004,0.1,1.5,0.0,0.0,0,-0.06451673,-1.2076242,-1.076304,-0.45697954,-0.111787245,-0.05714431,0.44671375,0.70520455,0.84126335,0.03456359,-0.07782422,-0.1151122,1.0582888,-0.2475747
0.30000000000000004,0.1,1.5,0.0,0.0,0,-0.050947923,-1.2048608,-1.0854721,-0.4714239,-0.09626212,-0.05932279,0.4857844,0.9213158,1.1626217,0.502757,-0.11515128,-0.25430346,1.1068721,1.7878458
0.30000000000000004,0.1,1.5,0.0,0.0,0,-0.058657598,-1.2049067,-1.0824842,-0.46472228,-0.14634499,-0.06629678,0.4537471,0.57327706,0.9098474,0.87834805,-0.055211436,-0.39428404,1.0370146,0.7292316
0.30000000000000004,0.1,1.5,0.0,0.0,0,-0.06375019,-1.2121844,-1.0813715,-0.45951664,-0.16673441,-0.06405961,0.49816155,0.6762625,1.041032,0.653869,-0.072342426,-0.3104757,1.0697495,-0.46995854
0.30000000000000004,0.1,1.5,0.0,0.0,0,-0.043514088,-1.1944617,-1.0792655,-0.46084917,-0.19771188,-0.092581205,0.5480685,1.0735506,0.68822354,1.0484737,-0.09713766,-0.14715905,1.0413511,0.28235632
0.30000000000000004,0.1,1.5,0.0,0.0,0,-0.06003782,-1.2068793,-1.083333,-0.4595564,-0.056115195,-0.070687145,0.478689,0.8287034,1.0290704,0.44766116,-0.16324379,-0.23401384,1.0657233,-0.41226706
0.30000000000000004,0.1,1.5,0.0,0.0,0,-0.034093194,-1.2114922,-1.0843484,-0.46267286,-0.18840143,-0.09245012,0.4366061,0.36297533,0.8213332,0.4934919,-0.034489684,-0.054328624,1.0580467,0.62904763
0.30000000000000004,0.1,1.5,0.0,0.0,0,-0.06449712,-1.1966821,-1.0906786,-0.47090355,-0.09025489,-0.06027282,0.48381197,0.9291502,1.3003378,0.5345209,-0.06054613,-0.35374495,1.0555258,0.2406463
0.30000000000000004,0.1,1.5,0.0,0.0,0,-0.052602287,-1.1970066,-1.08323,-0.4706103,-0.21596803,-0.056493014,0.51104,1.0146945,0.8457407,0.78958136,-0.11750622,-0.29635847,1.150787,1.3980135
0.30000000000000004,0.1,1.5,0.0,0.0,0,-0.044988077,-1.2060953,-1.078733,-0.45759666,-0.13777892,-0.06704922,0.4859456,0.6707087,0.9418525,0.2658189,-0.080271885,-0.30741787,1.0975193,-0.09947263
0.30000000000000004,0.1,1.5,0.0,0.0,0,-0.05478448,-1.2013946,-1.0731294,-0.46293366,-0.14035285,-0.058653776,0.4696275,0.7763434,1.2758112,1.1539968,-0.13584279,-0.4518452,1.1691103,1.144761
0.30000000000000004,0.1,1.5,0.0,0.0,0,-0.04932029,-1.2074038,-1.0910258,-0.45881447,-0.12955193,-0.09404162,0.42383412,1.4033675,1.0668774,0.6253644,-0.08126541,-0.29356238,1.0394571,1.2538637
0.30000000000000004,0.1,1.5,0.0,0.0,0,-0.05271714,-1.2101891,-1.0854301,-0.46921322,-0.13307925,-0.057358116,0.48940134,0.7260443,1.034971,0.3332949,-0.13940404,-0.5384023,1.1444113,0.4824611
0.30000000000000004,0.1,1.5,0.0,0.0,0,-0.054687157,-1.1980767,-1.0753177,-0.4573275,-0.17911659,-0.078382336,0.45287582,0.61409724,0.8940371,0.29943693,-0.08322143,-0.2756972,1.1816413,0.28223127
0.30000000000000004,0.1,1.5,0.0,0.0,0,-0.0604517,-1.2013901,-1.0877162,-0.4677243,-0.17850424,-0.07612296,0.48015335,1.2884983,1.0571179,0.60653406,-0.14331311,-0.42430764,1.1380322,-0.32931185
0.30000000000000004,0.1,1.5,0.0,0.0,0,-0.053022098,-1.2124803,-1.0768244,-0.4692651,-0.15660541,-0.079740055,0.48002476,0.66638976,0.93977773,0.5537201,-0.07198601,-0.26466483,1.0660359,1.1624069
0.30000000000000004,0.1,1.5,0.0,0.0,0,-0.05684836,-1.2041233,-1.076432,-0.4673472,-0.1624657,-0.04685414,0.5216928,0.9825028,0.9329948,-0.04528968,-0.13516001,-0.32740292,1.1388469,0.009660521
0.30000000000000004,0.1,1.5,0.0,0.0,0,-0.056634936,-1.2038836,-1.091693,-0.45696935,-0.14082395,-0.077706054,0.44825017,0.9324329,1.0676719,0.7702872,-0.07460452,-0.058728866,1.0188433,0.22429305
0.30000000000000004,0.1,1.5,0.0,0.0,0,-0.05161863,-1.2076888,-1.0824753,-0.46642596,-0.16933727,-0.06214871,0.5240732,1.0973046,0.90328276,0.53991073,-0.09505996,-0.27616268,1.281053,0.64045304
0.30000000000000004,0.1,1.5,0.0,0.0,0,-0.049838975,-1.1939437,-1.0851802,-0.4651699,-0.24664742,-0.084213875,0.56157535,1.1248369,0.9997669,0.49185777,-0.055507086,-0.60850465,1.1688977,-1.2938734
0.30000000000000004,0.1,1.5,0.0,0.0,0,-0.0554696,-1.2055577,-1.0761181,-0.4637608,-0.17838052,-0.06685248,0.47821876,0.59209675,1.2748221,0.60422885,-0.11336696,-0.34711805,1.1816664,0.98773664
0.30000000000000004,0.1,1.5,0.0,0.0,0,-0.0658386,-1.2057737,-1.0893791,-0.4717539,-0.122670375,-0.04541112,0.54319656,1.2252812,0.9345851,1.118791,-0.11308729,-0.041444615,1.0765306,1.2526344
0.30000000000000004,0.1,1.5,0.0,0.0,0,-0.044607725,-1.1989105,-1.088111,-0.4775855,-0.15301207,-0.06586209,0.5484283,0.9314173,0.8519353,0.86491835,-0.0671172,-0.48599705,1.1977893,1.8118342
0.30000000000000004,0.1,1.5,0.0,0.0,0,-0.0601729,-1.1960754,-1.0867516,-0.4727442,-0.14080644,-0.052518673,0.5008975,0.4281461,1.2337445,0.73404264,-0.05031771,0.06000262,1.1919127,1.3327836
0.30000000000000004,0.1,1.5,0.0,0.0,0,-0.06116907,-1.1925511,-1.0688539,-0.46537408,-0.15852156,-0.07477718,0.4596523,0.84033215,1.1630112,0.8749831,-0.11706824,-0.17194578,1.0157253,-0.6515667
0.30000000000000004,0.1,1.5,0.0,0.0,0,-0.05434149,-1.2030234,-1.076725,-0.4650525,-0.079270154,-0.07154035,0.49800542,0.635745,0.93277997,0.01290736,-0.033418614,-0.3236988,1.0374212,-0.6945757
0.30000000000000004,0.1,1.5,0.0,0.0,0,-0.06366371,-1.2054578,-1.0858489,-0.46180815,-0.22122903,-0.05271024,0.52342725,0.62732756,1.0323242,0.54887575,-0.08790939,-0.32969052,1.1576643,-0.20582949
0.30000000000000004,0.1,1.5,0.0,0.0,0,-0.051787667,-1.2074643,-1.0792263,-0.45815924,-0.13861702,-0.064131856,0.509421,0.41662157,1.1281548,0.1627202,-0.07135542,-0.1899437,1.1539434,0.26663977
0.30000000000000004,0.1,1.5,0.0,0.0,0,-0.048176218,-1.2108674,-1.0773846,-0.459665,-0.06604264,-0.094681896,0.50817686,0.85646164,1.1270237,0.888319,-0.124248914,-0.11149541,1.2092879,1.5430493
0.30000000000000004,0.1,1.5,0.0,0.0,0,-0.061056606,-1.1978477,-1.0851557,-0.45963627,-0.1961402,-0.055079952,0.5297691,1.225341,1.128354,0.49378031,-0.054125153,-0.10910875,1.0793321,0.6475007
0.30000000000000004,0.1,1.5,0.0,0.0,0,-0.04661162,-1.1986468,-1.07855,-0.47181258,-0.23303543,-0.055115126,0.50832826,1.2030455,1.2201917,0.8111019,-0.112176865,-0.39479318,1.1833924,1.396804
0.30000000000000004,0.1,1.5,0.0,0.0,0,-0.056454465,-1.2086527,-1.08084,-0.45302227,-0.23929465,-0.071320325,0.59311956,0.8965911,0.81160885,0.60167503,-0.08602773,-0.2594665,1.1738483,2.08127
0.30000000000000004,0.1,1.5,0.0,0.0,0,-0.05513858,-1.1993731,-1.0784192,-0.47400174,-0.11798629,-0.049324892,0.41435897,1.2353098,0.98567295,0.9714224,-0.050571598,-0.16272563,1.0711281,0.03909335
0.30000000000000004,0.1,1.5,0.0,0.0,0,-0.052257083,-1.2022647,-1.096306,-0.45915926,-0.19990909,-0.08633302,0.5232274,0.65176207,0.9933769,0.7522115,-0.1097034,-0.12414305,1.2658576,0.94208074
0.30000000000000004,0.1,1.5,0.0,0.0,0,-0.057378016,-1.2000744,-1.0841262,-0.45854995,-0.12440004,-0.07989842,0.45228592,0.5232072,1.0815393,0.97135824,-0.14355473,-0.19100031,1.1564169,-0.3875763
0.30000000000000004,0.1,1.5,0.0,0.0,0,-0.054666687,-1.205558,-1.0902376,-0.45855483,-0.2003285,-0.07154108,0.53242147,1.1888074,1.1195859,0.39094087,-0.11008271,-0.47710133,1.2052634,0.8418448
0.30000000000000004,0.1,1.5,0.0,0.0,0,-0.039695833,-1.1978768,-1.0828453,-0.46295488,-0.15120071,-0.08600504,0.5048736,1.0225612,0.970513,1.2194104,-0.10969575,-0.4960116,1.0581236,0.7213731
0.30000000000000004,0.1,1.5,0.0,0.0,0,-0.049099848,-1.1962593,-1.0980706,-0.4674661,-0.188301,-0.084473185,0.5148607,1.143916,1.2667937,0.27161166,-0.09844214,-0.28577244,1.1818782,-0.7551186
0.30000000000000004,0.1,1.5,0.0,0.0,0,-0.054563157,-1.202206,-1.0888615,-0.47067505,-0.12726617,-0.056406945,0.4815542,0.8270184,1.1648152,0.38248125,-0.06092058,-0.13209581,1.1925622,0.15286338
0.30000000000000004,0.1,1.5,0.0,0.0,0,-0.06721556,-1.2048588,-1.0945047,-0.4620072,-0.13390887,-0.07018181,0.47683123,0.6937932,0.8383651,0.682291,-0.09277476,-0.07097378,1.102596,1.4908007
0.30000000000000004,0.1,1.5,0.0,0.0,0,-0.05329105,-1.1942669,-1.0833821,-0.46785212,-0.12617959,-0.08831543,0.41667816,0.90488625,1.0224394,0.7448821,-0.0016531055,-0.55258065,1.1629933,0.3695993
0.30000000000000004,0.1,1.5,0.0,0.0,0,-0.05696633,-1.2059233,-1.0835332,-0.46951917,-0.13280468,-0.08562889,0.4708951,1.3378007,1.0995231,0.111327045,-0.06301605,-0.2435768,1.1699809,0.4725902
0.30000000000000004,0.1,1.5,0.0,0.0,0,-0.04936261,-1.214117,-1.096007,-0.46970037,-0.18938904,-0.06179212,0.554794,0.83046955,0.9677181,1.2327545,-0.128866,-0.2403713,1.0812979,0.6955999
0.30000000000000004,0.1,1.5,0.0,0.0,0,-0.062545255,-1.2012144,-1.0807217,-0.4622218,-0.19285284,-0.06100558,0.49111947,0.6187593,1.0354128,0.5830614,-0.18872078,-0.51913196,1.1500022,0.7192098
0.30000000000000004,0.1,1.5,0.0,0.0,0,-0.061603684,-1.2041473,-1.0886116,-0.46860197,-0.09473184,-0.055249996,0.51811385,1.3229661,0.63673353,0.48708028,-0.050625212,-0.22795767,1.127844,2.0376508
0.30000000000000004,0.1,1.5,0.0,0.0,0,-0.044778556,-1.2107879,-1.0726717,-0.47872356,-0.16962253,-0.050478864,0.43737343,0.6880175,0.9904632,0.7567907,-0.06971259,-0.5323851,1.173284,0.10717828
0.30000000000000004,0.1,1.5,0.0,0.0,0,-0.04741424,-1.2157022,-1.0791429,-0.47224122,-0.29403275,-0.053148326,0.5248052,0.663268,0.98130333,0.44567683,-0.13581401,-0.13572343,1.057436,-0.27008596
0.30000000000000004,0.1,1.5,0.0,0.0,0,-0.04884156,-1.1943634,-1.0792707,-0.46353474,-0.15525877,-0.050356142,0.51163375,0.53667134,1.0768596,0.7674266,-0.10610435,-0.52712786,1.1087433,1.5163492
0.30000000000000004,0.1,1.5,0.0,0.0,0,-0.048709296,-1.1960589,-1.08889,-0.46315125,-0.11955988,-0.067298144,0.4761857,0.85366255,1.3233321,0.633538,-0.0451723,-0.17074452,0.98206115,0.502091
0.30000000000000004,0.1,1.5,0.0,0.0,0,-0.054151654,-1.197644,-1.0815456,-0.45774135,-0.17804831,-0.087453775,0.47161305,1.0566604,1.2652186,0.43020806,-0.080607966,-0.14051268,1.0716102,0.17705728
0.30000000000000004,0.1,1.5,0.0,0.0,0,-0.06032363,-1.1979887,-1.0896249,-0.45967248,-0.12033833,-0.08654316,0.39831358,0.7774586,1.0036833,0.73050946,-0.12797128,0.021804255,1.1479136,-0.10627935
0.30000000000000004,0.1,1.5,0.0,0.0,0,-0.056733668,-1.2089996,-1.0877079,-0.4609795,-0.15014501,-0.07348826,0.46734914,0.27162674,1.1750151,0.08350489,-0.088139586,-0.16238065,1.1779215,0.41626677
0.30000000000000004,0.1,1.5,0.0,0.0,0,-0.044423457,-1.1970965,-1.0853395,-0.46847013,-0.14877793,-0.081732206,0.44882858,0.9687989,0.7332691,0.861269,-0.051890913,-0.2433781,1.1320233,1.2592754
0.30000000000000004,0.1,1.5,0.0,0.0,0,-0.03961529,-1.2036169,-1.0769404,-0.46804184,-0.11390142,-0.055804607,0.49162173,0.45612478,1.0196384,0.5018816,-0.029119773,0.06502457,0.9896349,0.24407959
0.30000000000000004,0.1,1.5,0.0,0.0,0,-0.045920875,-1.2096378,-1.0730213,-0.47355616,-0.09392442,-0.047450464,0.4916604,0.7359984,1.0748507,0.9661524,-0.08603693,0.03532777,1.128455,0.395741
0.30000000000000004,0.1,1.5,0.0,0.0,0,-0.05542684,-1.2010864,-1.0877587,-0.46683887,-0.069104336,-0.096903555,0.42065474,0.5034731,1.156871,1.2262522,-0.12541595,0.030998157,1.0731263,0.64634323
0.30000000000000004,0.1,1.5,0.0,0.0,0,-0.04549298,-1.2110226,-1.0732362,-0.46791092,-0.23679289,-0.055666205,0.47475573,1.0599344,0.8865186,0.75207746,-0.10849243,-0.16684443,1.0902004,0.096002385
0.30000000000000004,0.1,1.5,0.0,0.0,0,-0.0546567,-1.1919467,-1.079518,-0.4597084,-0.2161595,-0.07389483,0.51126516,0.8444864,1.3516833,0.46743968,-0.03677374,-0.14475802,1.0505368,0.6432542
0.30000000000000004,0.1,1.5,0.0,0.0,0,-0.052659936,-1.2037587,-1.0802355,-0.45332825,-0.18109754,-0.059171785,0.4743253,0.589371,1.0955722,0.7579582,-0.12612578,-0.3493739,1.1547183,-1.4218323
0.30000000000000004,0.1,1.5,0.0,0.0,0,-0.06604977,-1.2103902,-1.0778247,-0.46332383,-0.14734563,-0.06729387,0.48818636,0.75560033,0.7929321,0.76889014,-0.018415311,-0.46243212,1.1329751,0.4028901
0.30000000000000004,0.1,1.5,0.0,0.0,0,-0.061633557,-1.1954376,-1.0751492,-0.4607559,-0.17330876,-0.07860754,0.51248527,0.8659422,1.284002,0.3639053,-0.0622938,0.17767757,1.1920464,1.0430014
0.30000000000000004,0.1,1.5,0.0,0.0,0,-0.04186618,-1.2036753,-1.0932777,-0.47259536,-0.047467973,-0.09687954,0.4439652,1.2802777,1.1056608,0.62344027,-0.05867959,-0.07076329,1.1166922,2.1834626
0.30000000000000004,0.1,1.5,0.0,0.0,0,-0.054238796,-1.2002199,-1.0763323,-0.46897092,-0.16285728,-0.06593953,0.4722749,0.7418149,0.9779382,0.6443338,-0.18275578,-0.18115775,1.1052184,1.7537338
0.30000000000000004,0.1,1.5,0.0,0.0,0,-0.046325438,-1.2018614,-1.073579,-0.45885524,-0.18742435,-0.0731865,0.526077,1.4135549,1.1549778,0.6246668,-0.016356653,-0.36413532,1.1454278,0.89955175
0.30000000000000004,0.1,1.5,0.0,0.0,0,-0.05377849,-1.1960348,-1.081252,-0.45900968,-0.16812588,-0.07586159,0.4587256,0.4968327,0.8640865,0.68943,-0.036267865,-0.14330372,1.176395,0.16140912
0.30000000000000004,0.1,1.5,0.0,0.0,0,-0.052422818,-1.1999114,-1.0803734,-0.45579863,-0.13300285,-0.07311808,0.5067493,1.0129744,1.2501218,1.1227393,-0.11948559,-0.48193312,1.1699437,1.0942212
0.30000000000000004,0.1,1.5,0.0,0.0,0,-0.05376005,-1.2040522,-1.0780187,-0.46022275,-0.18247725,-0.08088097,0.47513127,0.58017755,1.0394013,1.2629833,-0.15605386,-0.4730611,1.1605062,-0.6040162
0.30000000000000004,0.1,1.5,0.0,0.0,0,-0.06060688,-1.2018682,-1.0809817,-0.46537054,-0.19147013,-0.070405744,0.4236963,0.45619535,1.0744382,0.6401235,-0.10296318,-0.42871147,1.0627692,1.0304348
0.30000000000000004,0.1,1.5,0.0,0.0,0,-0.04588658,-1.2009599,-1.0921894,-0.45821622,-0.17473605,-0.081549026,0.47245002,0.66636556,0.8939763,0.8696043,-0.052272055,-0.14049256,1.064932,0.2999266
0.30000000000000004,0.1,1.5,0.0,0.0,0,-0.059891623,-1.1960241,-1.0904835,-0.4644609,-0.09698981,-0.042073768,0.42432353,0.5673258,0.7824593,0.9493751,-0.09636757,-0.22168863,1.205373,0.5546019
0.30000000000000004,0.1,1.5,0.0,0.0,0,-0.055406574,-1.2024554,-1.0905675,-0.47460932,-0.14478792,-0.05845872,0.47999987,0.70866376,0.92569524,0.48070806,-0.09942032,-0.2756565,1.0535563,2.3813703
0.30000000000000004,0.1,1.5,0.0,0.0,0,-0.04017819,-1.2012304,-1.0801585,-0.46466148,-0.1830077,-0.10434322,0.46235216,1.0970005,1.0732725,0.8003077,-0.023242684,-0.21826811,1.1236817,0.014454185
0.30000000000000004,0.1,1.5,0.0,0.0,0,-0.048620008,-1.1920063,-1.0938975,-0.4604672,-0.07745066,-0.07861032,0.45225036,0.7377151,1.3458996,0.10492904,-0.088192225,-0.032866452,1.1340793,1.7412968
0.30000000000000004,0.1,1.5,0.0,0.0,0,-0.057628687,-1.1984842,-1.0725955,-0.46074668,-0.15232317,-0.07265353,0.50184965,0.62338793,1.3111668,0.7250642,-0.13228394,-0.29871848,1.1421365,0.31275305
0.30000000000000004,0.1,1.5,0.0,0.0,0,-0.06564167,-1.197337,-1.0858575,-0.4567803,-0.30475748,-0.07293943,0.46591055,0.9339609,0.93929917,0.50900173,-0.067092724,-0.11293448,1.0592061,0.3412873
0.30000000000000004,0.1,1.5,0.0,0.0,0,-0.050322242,-1.2021337,-1.081449,-0.47415632,-0.23342371,-0.064746335,0.5223369,0.63322455,1.2682658,1.1277872,-0.061813198,-0.12996076,1.0782744,0.34165883
0.30000000000000004,0.1,1.5,0.0,0.0,0,-0.042673856,-1.1941878,-1.0758187,-0.44655675,-0.17791797,-0.06012453,0.587466,1.2356186,1.1900244,1.0264127,-0.1430342,-0.11917226,1.1099114,-0.06315566
0.30000000000000004,0.1,1.5,0.0,0.0,0,-0.0639249,-1.1992012,-1.0981036,-0.45724723,-0.1349477,-0.07868766,0.42260578,1.0326008,0.93127066,1.0577648,-0.033401977,-0.1928509,1.0885682,0.12731487
0.30000000000000004,0.1,1.5,0.0,0.0,0,-0.04774368,-1.199155,-1.0848922,-0.45998272,-0.16558418,-0.07872332,0.48231277,0.592794,0.9127137,0.6046528,-0.10007086,-0.16413768,1.1740589,1.0982023
0.30000000000000004,0.1,1.5,0.0,0.0,0,-0.05035647,-1.204258,-1.0771607,-0.4666996,-0.22848493,-0.066894606,0.53429586,0.6274375,0.962398,0.6942745,-0.08406363,-0.024630781,1.0687183,-0.89836365
0.30000000000000004,0.1,1.5,0.0,0.0,0,-0.050403032,-1.1893758,-1.0833001,-0.47160202,-0.11657585,-0.043628402,0.48594946,0.9125845,1.3101377,0.721369,-0.11170639,0.091259584,1.2348279,1.9110433
0.30000000000000004,0.1,1.5,0.0,0.0,0,-0.045071945,-1.2062154,-1.0877756,-0.4753283,-0.17900787,-0.06329118,0.5105625,1.112974,0.94926846,1.2549484,-0.0988209,-0.3894235,1.2373036,1.7934604
0.30000000000000004,0.1,1.5,0.0,0.0,0,-0.045760132,-1.1985736,-1.0818685,-0.45782006,-0.113536954,-0.09313196,0.49698505,1.012352,1.0938748,0.48956895,-0.12940499,-0.22462739,0.98022133,0.36323452
0.30000000000000004,0.1,1.5,0.0,0.0,0,-0.04188822,-1.1918964,-1.0827419,-0.46033275,-0.11018299,-0.06971212,0.46227115,1.0088896,0.9462808,0.42021164,-0.118186705,-0.31396776,1.0638208,0.79949415
0.30000000000000004,0.1,1.5,0.0,0.0,0,-0.052045237,-1.200101,-1.0853767,-0.4785551,-0.22470032,-0.08220877,0.47429323,0.88672346,1.0736516,0.63063186,-0.07273329,0.043756314,1.0778897,-0.9373762
0.30000000000000004,0.1,1.5,0.0,0.0,0,-0.044569217,-1.1963055,-1.0912871,-0.4624658,-0.06694155,-0.08121468,0.5260266,0.9274143,1.1278374,0.142089,-0.12150773,-0.2751858,1.0440282,0.19019052
0.30000000000000004,0.1,1.5,0.0,0.0,0,-0.053066377,-1.2040735,-1.0706924,-0.45964625,-0.2525617,-0.06442553,0.46254197,1.0060251,1.011709,0.25064418,-0.09029345,-0.21469057,1.0985202,1.3277442
0.30000000000000004,0.1,1.5,0.0,0.0,0,-0.059474815,-1.2127401,-1.0764189,-0.45270452,-0.17091137,-0.044215363,0.52012724,0.8349755,1.1413997,0.38056082,-0.17098074,-0.13382255,1.055078,1.1758785
0.30000000000000004,0.1,1.5,0.0,0.0,0,-0.05404875,-1.1995909,-1.0776399,-0.46088454,-0.08116241,-0.074494496,0.47079006,1.1235569,0.79745466,0.89757967,-0.048069697,0.21605077,1.0228895,2.1269894
0.30000000000000004,0.1,1.5,0.0,0.0,0,-0.061566398,-1.2088242,-1.0830799,-0.46138617,-0.14400317,-0.05299468,0.5585981,0.77121764,1.2159323,0.81253415,-0.2142189,-0.19773968,1.0904343,1.5909156
0.30000000000000004,0.1,1.5,0.0,0.0,0,-0.06576788,-1.203054,-1.0771416,-0.46597913,-0.09792091,-0.07016439,0.41394672,0.7382612,1.0782893,0.8718424,-0.14523494,-0.33247948,1.1505265,-0.3602597
0.30000000000000004,0.1,1.5,0.0,0.0,0,-0.04794307,-1.204944,-1.0888326,-0.46542743,-0.030453332,-0.08069815,0.52838916,0.78075475,0.859923,0.92158246,-0.06314576,-0.14296475,1.1293635,-0.15731964
0.30000000000000004,0.1,1.5,0.0,0.0,0,-0.057393543,-1.1817096,-1.0823691,-0.4709616,-0.15626465,-0.066796035,0.48823848,0.8562654,0.94676286,0.58367443,-0.11014908,-0.3018526,1.1171079,-0.33472422
0.30000000000000004,0.1,1.5,0.0,0.0,0,-0.055791296,-1.2068491,-1.0789508,-0.46449733,-0.17566584,-0.064290866,0.5586121,1.0561246,0.89708734,0.19555156,-0.09547041,-0.23054892,1.0041022,2.4327586
0.30000000000000004,0.1,1.5,0.0,0.0,0,-0.053482827,-1.2112931,-1.0839652,-0.4774796,-0.15916908,-0.04476249,0.4787868,1.0074673,1.25133,0.6839729,-0.1266806,-0.5368234,1.0346996,1.018152
0.30000000000000004,0.1,1.5,0.0,0.0,0,-0.055608213,-1.194016,-1.0702304,-0.46095926,-0.10776264,-0.08031372,0.44966796,0.9262061,1.1947427,0.6583136,-0.12683932,-0.25202018,1.0925547,1.0325298
0.30000000000000004,0.1,1.5,0.0,0.0,0,-0.05018419,-1.2027103,-1.0761703,-0.4727803,-0.057340957,-0.07609075,0.4810248,0.8966325,0.89160097,0.5335199,-0.09561079,-0.22214818,1.0698645,-0.9489818
0.30000000000000004,0.1,1.5,0.0,0.0,0,-0.04553764,-1.1981488,-1.074115,-0.46584108,-0.11108883,-0.0710832,0.51456225,0.95997435,1.3264917,0.7043975,-0.12760311,0.1008839,1.1435235,-0.015247008
0.30000000000000004,0.1,1.5,0.0,0.0,0,-0.05382403,-1.1952647,-1.0798781,-0.4465896,-0.17906822,-0.06929839,0.5027657,0.9196176,1.074823,0.72894627,-0.059141338,0.052648798,1.2079048,0.46386716
0.30000000000000004,0.1,1.5,0.0,0.0,0,-0.052823164,-1.2015091,-1.0722475,-0.48767903,-0.13728157,-0.07208323,0.4658466,1.3239605,1.0252345,0.08416915,-0.0387768,-0.33706194,1.0974697,1.2459737
0.30000000000000004,0.1,1.5,0.0,0.0,0,-0.063512884,-1.1989847,-1.0691675,-0.45361653,-0.11454991,-0.039199457,0.537696,0.9700843,0.92300856,0.48205107,-0.02434161,-0.3822843,1.1312263,-0.4156551
0.30000000000000004,0.1,1.5,0.0,0.0,0,-0.054825902,-1.1840326,-1.0779338,-0.46515396,-0.22562777,-0.076721884,0.5565597,0.96803176,1.2394339,0.8934345,-0.097423926,-0.21286769,1.1151229,0.61935
0.30000000000000004,0.1,1.5,0.0,0.0,0,-0.056367334,-1.1992159,-1.0788823,-0.4584656,-0.20493497,-0.07236367,0.5586266,0.8655632,1.218466,0.6578887,-0.12880689,-0.04190536,1.1207211,0.24227458
0.30000000000000004,0.1,1.5,0.0,0.0,0,-0.061382983,-1.1990355,-1.0800295,-0.47457927,-0.14227536,-0.06765045,0.4941507,1.0421242,1.0151482,0.5791405,-0.054669786,-0.30180848,1.1222627,0.21582511
0.30000000000000004,0.1,1.5,0.0,0.0,0,-0.05258096,-1.1987028,-1.0737188,-0.4606674,-0.27036697,-0.061327424,0.5719326,1.1043313,0.9043408,0.5426743,-0.08758934,-0.17757764,1.1337088,0.8992481
0.30000000000000004,0.1,1.5,0.0,0.0,0,-0.050048713,-1.1966788,-1.0775408,-0.46900415,-0.14081617,-0.053292945,0.56296986,0.7672847,1.1157275,1.0363244,-0.124273255,-0.22744237,1.0985614,-0.39134833
0.30000000000000004,0.1,1.5,0.0,0.0,0,-0.06375942,-1.1958346,-1.0906516,-0.45401293,-0.14028564,-0.06834597,0.6136276,0.9516678,0.9141194,0.8558625,-0.17031017,-0.32531583,1.1596242,0.6370332
0.30000000000000004,0.1,1.5,0.0,0.0,0,-0.051336642,-1.198212,-1.094041,-0.47058764,-0.05960832,-0.048261072,0.47302195,1.2717967,1.2954944,1.181725,-0.06833664,-0.48258623,1.2088999,-1.1355
0.30000000000000004,0.1,1.5,0.0,0.0,0,-0.048442952,-1.195605,-1.0801108,-0.4646179,-0.19403139,-0.06243716,0.5798737,0.9462033,1.0040518,0.92612225,-0.16855223,0.0026559364,1.1013838,0.43194246
0.30000000000000004,0.1,1.5,0.0,0.0,0,-0.05957868,-1.1993119,-1.0790116,-0.4646024,-0.11898138,-0.041393287,0.52165633,1.2053277,0.90892375,0.69561213,-0.14576238,-0.29031155,0.99986446,1.2879632
0.30000000000000004,0.1,1.5,0.0,0.0,0,-0.064120255,-1.1885175,-1.0966263,-0.4672949,-0.15109757,-0.06146947,0.5108452,1.1706003,1.2663692,0.8148808,-0.1345518,-0.48624784,1.1409793,0.21509452
0.30000000000000004,0.1,1.5,0.0,0.0,0,-0.050537225,-1.1988132,-1.0903884,-0.45448098,-0.074668996,-0.06505599,0.4467562,1.2237451,1.069056,0.9064343,0.0057220035,-0.12559071,1.1132512,-1.0674901
0.30000000000000004,0.1,1.5,0.0,0.0,0,-0.053552266,-1.2021081,-1.0841699,-0.46488345,-0.044289775,-0.07147961,0.6139615,1.427291,1.140126,0.5689287,-0.12928826,-0.2782933,1.1370615,0.7999557
0.30000000000000004,0.1,1.5,0.0,0.0,0,-0.04839563,-1.1912874,-1.083744,-0.46798977,-0.17390469,-0.0825849,0.5318262,0.83174646,1.2793363,1.3663216,-0.050641257,-0.36208686,1.1326503,1.4601638
0.30000000000000004,0.1,1.5,0.0,0.0,0,-0.055659287,-1.207698,-1.0843133,-0.463705,-0.17940716,-0.074164234,0.5842006,1.2305777,0.9211179,0.9232295,-0.050910108,-0.28861922,1.0434229,-0.61131006
0.30000000000000004,0.1,1.5,0.0,0.0,0,-0.05123044,-1.1931616,-1.0852634,-0.47144368,-0.11715717,-0.069389135,0.46184608,1.386616,1.086871,0.60485923,-0.09599898,-0.40974262,1.1941725,0.61279494
0.30000000000000004,0.1,1.5,0.0,0.0,0,-0.05561592,-1.2044449,-1.0755244,-0.4616382,-0.10433081,-0.036209125,0.5226609,1.1689123,0.6788322,1.1781024,-0.05866881,0.02223382,1.1367568,0.090816215
0.30000000000000004,0.1,1.5,0.0,0.0,0,-0.048199277,-1.2021496,-1.0766888,-0.46396,-0.15229943,-0.08594765,0.50853753,1.4889337,0.97259146,0.6256185,-0.094460405,-0.17851089,1.0970848,-0.10450877
0.30000000000000004,0.1,1.5,0.0,0.0,0,-0.06315504,-1.2006025,-1.0869318,-0.47639135,-0.11725051,-0.05564061,0.50396764,0.5125808,1.1549023,0.73517984,-0.11139086,-0.10244387,1.2075425,0.04955185
0.30000000000000004,0.1,1.5,0.0,0.0,0,-0.040013704,-1.1948152,-1.0867827,-0.45123002,-0.1482166,-0.07944365,0.526042,0.78110874,1.0456454,0.49378058,-0.010957362,-0.16054454,1.0610117,-1.3034387
0.30000000000000004,0.1,1.5,0.0,0.0,0,-0.057861194,-1.2028486,-1.0821533,-0.476782,-0.07514003,-0.09160131,0.39732933,1.0339534,1.2088324,0.9688893,-0.14086874,-0.43326807,1.1571088,0.35234863
0.30000000000000004,0.1,1.5,0.0,0.0,0,-0.039732445,-1.1961869,-1.0688282,-0.44912097,-0.151098,-0.06304405,0.5102173,1.2349788,0.9885428,0.16092104,-0.1372412,-0.13550279,1.10061,1.748082
0.30000000000000004,0.1,1.5,0.0,0.0,0,-0.05324384,-1.1858547,-1.07301,-0.46084344,-0.15147498,-0.061551258,0.49356794,0.6765162,1.1857408,0.3117252,-0.09401611,-0.19986528,1.1032764,-0.012277006
0.30000000000000004,0.1,1.5,0.0,0.0,0,-0.05258742,-1.2023307,-1.0738486,-0.4554821,-0.070930555,-0.058470774,0.5668556,1.2889055,1.0937229,-0.004606628,-0.0802633,-0.55650675,1.0895008,0.56920147
0.30000000000000004,0.1,1.5,0.0,0.0,0,-0.061541136,-1.2043914,-1.0881312,-0.4822066,-0.10403975,-0.051834334,0.56873447,0.7219601,0.97140133,0.6526697,-0.08500391,0.1483387,1.1517136,1.0350504
0.30000000000000004,0.1,1.5,0.0,0.0,0,-0.06746469,-1.2051828,-1.0863128,-0.47243822,-0.082951054,-0.047449153,0.48153803,0.9570825,1.1193398,0.3632617,-0.124380864,-0.18823853,1.0209602,1.2153225
0.30000000000000004,0.1,1.5,0.0,0.0,0,-0.053455323,-1.1999758,-1.0806589,-0.481236,-0.10676367,-0.05772152,0.4993824,0.49753708,0.8899767,0.15380587,-0.07126601,-0.47500926,1.1188946,-0.58269703
0.30000000000000004,0.1,1.5,0.0,0.0,0,-0.05740468,-1.1830634,-1.077058,-0.46343002,-0.14766401,-0.059327465,0.50350255,1.1458406,1.342223,0.37958714,-0.049291395,-0.4699564,1.1756775,0.44008636
0.30000000000000004,0.1,1.5,0.0,0.0,0,-0.051998846,-1.1891078,-1.0699961,-0.4586477,-0.18739545,-0.058485825,0.5429602,1.3303384,1.2953465,0.33475894,-0.016537238,-0.31410778,1.1323397,1.7437916
0.30000000000000004,0.1,1.5,0.0,0.0,0,-0.046378322,-1.1944749,-1.0668987,-0.46211874,-0.18181935,-0.0831306,0.52573997,0.8326322,0.7442061,0.6943703,-0.049342297,-0.15127438,1.1569307,-0.48232037
0.30000000000000004,0.1,1.5,0.0,0.0,0,-0.04351504,-1.1960311,-1.0735687,-0.47543973,-0.1402159,-0.060268674,0.4967192,0.61832577,1.0440453,1.1406621,-0.1283387,-0.17654486,1.1995751,0.56008655
0.30000000000000004,0.1,1.5,0.0,0.0,0,-0.048818875,-1.217343,-1.0760938,-0.4541409,-0.085149884,-0.083115004,0.53497684,1.1072413,1.1786658,0.9255869,-0.02302805,-0.34774604,1.1239655,-1.7279866
0.30000000000000004,0.1,1.5,0.0,0.0,0,-0.052824732,-1.2079883,-1.0723364,-0.4716112,-0.13597241,-0.059966397,0.5367384,1.0370145,1.3087339,1.1134039,-0.02060094,-0.24387096,1.2411851,1.067062
0.30000000000000004,0.1,1.5,0.0,0.0,0,-0.055187784,-1.187912,-1.0796894,-0.46626222,-0.06789812,-0.054119557,0.4124691,1.1975601,1.1359825,0.7979289,-0.0844434,-0.01109897,1.0760592,1.105976
0.30000000000000004,0.1,1.5,0.0,0.0,0,-0.048176177,-1.2053579,-1.0768256,-0.4729092,-0.08525338,-0.07089268,0.5289367,0.78043514,1.0273846,0.14938653,-0.1380845,-0.18016927,1.1302896,0.9693747
0.30000000000000004,0.1,1.5,0.0,0.0,0,-0.05610758,-1.2051334,-1.0800354,-0.47284186,-0.1329788,-0.06766874,0.51736736,1.050841,1.0981708,1.235834,-0.07823489,-0.122183494,1.184794,1.4643698
0.30000000000000004,0.1,1.5,0.0,0.0,0,-0.03449242,-1.1991729,-1.0899062,-0.46434364,-0.15628296,-0.06846851,0.4916693,1.1373097,0.9169371,1.1713797,-0.11899714,-0.032704026,1.165851,0.8463758
0.30000000000000004,0.1,1.5,0.0,0.0,0,-0.04737822,-1.1853677,-1.076204,-0.459091,-0.17290254,-0.07270298,0.51022816,1.2437482,0.9062945,1.1699384,-0.12121181,-0.23084596,1.0398451,0.72369146
0.30000000000000004,0.1,1.5,0.0,0.0,0,-0.04602895,-1.2042694,-1.0718536,-0.47752637,-0.1072771,-0.07494298,0.47351164,0.666667,0.88154477,0.44376177,-0.048050303,-0.25147817,1.0218297,-0.8225225
0.30000000000000004,0.1,1.5,0.0,0.0,0,-0.056091927,-1.1971675,-1.0833935,-0.46668458,-0.18841197,-0.08044919,0.59693193,0.7444612,1.443534,0.46281222,-0.13914366,-0.35976923,1.2011591,1.9949514
0.30000000000000004,0.1,1.5,0.0,0.0,0,-0.05121122,-1.2064335,-1.0838497,-0.45373252,-0.1279102,-0.06960917,0.44031626,0.8795578,1.0364655,0.4098296,-0.06279084,-0.13342991,1.0099906,0.31887856
0.30000000000000004,0.1,1.5,0.0,0.0,0,-0.06324924,-1.2002777,-1.0836794,-0.45719355,-0.115355566,-0.09521701,0.4750812,0.39752892,0.8239307,0.64480513,-0.18030062,0.12915812,1.103643,1.4993821
0.30000000000000004,0.1,1.5,0.0,0.0,0,-0.046991527,-1.2110916,-1.0748324,-0.4667517,-0.11924794,-0.041538946,0.46872926,0.92512494,0.95121324,0.48330945,-0.08942578,-0.51012146,1.1356008,-0.25101805
0.30000000000000004,0.1,1.5,0.0,0.0,0,-0.05626632,-1.2028918,-1.0874254,-0.47193906,-0.24374363,-0.08655586,0.46399057,0.57989854,0.8528687,1.342622,-0.0086098565,-0.46872833,1.1166874,1.6604315
0.30000000000000004,0.1,1.5,0.0,0.0,0,-0.050148636,-1.2066836,-1.0728471,-0.4685299,-0.081270605,-0.075558655,0.47393924,0.93908846,1.4199234,0.65311515,-0.15592472,-0.24057567,1.0993419,1.2744415
0.30000000000000004,0.1,1.5,0.0,0.0,0,-0.04516367,-1.1914142,-1.0881295,-0.46271548,-0.14083949,-0.057056285,0.47462937,0.652129,1.035288,0.83223546,-0.033791672,-0.6092698,1.1119752,1.114983
0.30000000000000004,0.1,1.5,0.0,0.0,0,-0.05731337,-1.1947169,-1.0909792,-0.46951956,-0.123626046,-0.06006448,0.5212207,0.77161646,1.2630104,0.76121545,-0.07724025,-0.23839763,1.1271389,1.0280316
0.30000000000000004,0.1,1.5,0.0,0.0,0,-0.06118688,-1.2025402,-1.0805091,-0.47697252,-0.08789791,-0.05864912,0.46803433,0.90542525,1.3146875,0.64801097,-0.11995279,-0.36178115,1.0910684,1.2289393
0.30000000000000004,0.1,1.5,0.0,0.0,0,-0.05243973,-1.1983074,-1.0761726,-0.46725565,-0.07667519,-0.077381976,0.40996563,0.9064826,1.1023588,0.42650977,-0.041008666,-0.1939889,1.0127875,0.25287738
0.30000000000000004,0.1,1.5,0.0,0.0,0,-0.0509894,-1.1954702,-1.0724919,-0.47492397,-0.10250025,-0.04732017,0.47793564,0.89056575,1.3606828,0.7206092,-0.08461856,-0.25048608,1.1625389,0.10679337
0.30000000000000004,0.1,1.5,0.0,0.0,0,-0.046745952,-1.2011868,-1.0740451,-0.45215076,-0.17735898,-0.051957104,0.5107144,1.0899142,1.0116243,0.32007003,-0.13942656,-0.41237152,1.0882174,1.1338799
0.30000000000000004,0.1,1.5,0.0,0.0,0,-0.045714043,-1.196556,-1.0810466,-0.46964747,-0.092282355,-0.09264748,0.46136054,1.0165209,1.2506756,0.5686659,-0.13285266,-0.23491736,1.2687687,-0.07371743
0.30000000000000004,0.1,1.5,0.0,0.0,0,-0.048663147,-1.1988732,-1.0753455,-0.47060674,-0.17030747,-0.068709634,0.5254516,0.9197978,1.2587701,0.6923342,-0.10017546,-0.4290024,1.2292293,-1.2213386
0.30000000000000004,0.1,1.5,0.0,0.0,0,-0.048177503,-1.2085801,-1.0837096,-0.45964405,-0.11726827,-0.06435421,0.50496894,0.8681051,0.95339787,0.7348028,-0.0015629404,-0.68741685,1.1334374,0.44570014
0.30000000000000004,0.1,1.5,0.0,0.0,0,-0.059476342,-1.1937209,-1.0771788,-0.4429528,-0.035259888,-0.09114412,0.47091603,0.8435085,1.1539816,0.67737067,-0.027627198,-0.33942774,1.0989507,-0.12710157
0.30000000000000004,0.1,1.5,0.0,0.0,0,-0.04879589,-1.1942872,-1.0710515,-0.4503681,-0.07352823,-0.10289571,0.46358994,1.0108055,1.3221369,0.55054945,-0.087151736,-0.13390104,1.205459,-0.043974087
0.30000000000000004,0.1,1.5,0.0,0.0,0,-0.04943231,-1.2009801,-1.0819101,-0.45394656,-0.13331024,-0.062858395,0.50193864,0.951808,0.93262154,0.6060895,-0.12722275,0.011984421,1.1478963,0.45126808
0.30000000000000004,0.1,1.5,0.0,0.0,0,-0.061940193,-1.1959164,-1.0781239,-0.4531778,-0.1163083,-0.06478274,0.54557836,1.0903436,1.2373984,0.60893905,-0.03199119,-0.21254233,1.1480168,1.1760316
0.30000000000000004,0.1,1.5,0.0,0.0,0,-0.049474172,-1.1879715,-1.0674958,-0.4603796,-0.13577622,-0.04834897,0.5160074,1.0043586,1.2071209,0.78264546,-0.09751421,-0.30085808,1.1973088,-0.050901264
0.30000000000000004,0.1,1.5,0.0,0.0,0,-0.0535704,-1.1929667,-1.0819236,-0.47380272,-0.07312847,-0.06370921,0.4552135,1.4508941,0.9380385,0.31336966,-0.1325918,-0.3313937,1.1447575,0.9410487
0.30000000000000004,0.1,1.5,0.0,0.0,0,-0.065859735,-1.1973007,-1.0910699,-0.46241587,-0.15292716,-0.06724865,0.5571382,1.1311631,1.0089542,0.4725458,0.007219375,-0.23030531,1.0756315,0.451574
0.30000000000000004,0.1,1.5,0.0,0.0,0,-0.0572307,-1.1952912,-1.0828501,-0.45616865,-0.15713392,-0.05672966,0.57150555,1.1347369,1.3971783,0.838282,-0.09827084,-0.317507,1.1274933,0.45635447
0.30000000000000004,0.1,1.5,0.0,0.0,0,-0.046708412,-1.1993623,-1.0817357,-0.46527842,-0.10014683,-0.06261374,0.51656604,0.98389214,1.2407631,0.9786571,-0.09086411,-0.19166295,1.2060707,1.1565973
0.30000000000000004,0.1,1.5,0.0,0.0,0,-0.058712576,-1.1867023,-1.078544,-0.47083065,-0.15688682,-0.041354634,0.5268475,1.3455126,1.0648884,0.3069517,-0.013470047,-0.2581366,1.1943905,2.6694963
0.30000000000000004,0.1,1.5,0.0,0.0,0,-0.05008503,-1.2053741,-1.0794886,-0.46035504,-0.12386019,-0.09914789,0.5018008,1.2408099,1.0931216,0.6533497,-0.114752285,0.2128801,1.0096675,0.73226875
0.30000000000000004,0.1,1.5,0.0,0.0,0,-0.05485343,-1.1997246,-1.0791315,-0.4613326,-0.047705106,-0.05814916,0.520257,1.089256,0.7020663,0.6250899,-0.086190924,-0.49079353,1.1826031,0.31981522
0.30000000000000004,0.1,1.5,0.0,0.0,0,-0.051514234,-1.1967616,-1.0762076,-0.46129122,-0.11942176,-0.06232136,0.49460098,0.9342863,1.0384364,0.80690753,-0.0846017,-0.36337772,1.1504996,0.55642813
0.30000000000000004,0.1,1.5,0.0,0.0,0,-0.050192494,-1.1845483,-1.0848284,-0.45934072,-0.1382223,-0.06495281,0.5439507,0.57486534,0.82776433,1.163245,-0.07700156,-0.21057236,1.1582334,-0.09425951
0.30000000000000004,0.1,1.5,0.0,0.0,0,-0.05427733,-1.19686,-1.0830543,-0.4575739,-0.09458995,-0.049195882,0.4846173,1.2191026,0.972702,0.6842781,-0.12979773,-0.2281126,1.1942234,-0.63270605
0.30000000000000004,0.1,1.5,0.0,0.0,0,-0.06861648,-1.2045764,-1.0756706,-0.46725795,-0.19450073,-0.058091886,0.55171615,1.0294029,0.96955866,1.080037,-0.06271149,-0.5805659,1.2042612,0.8064051
0.30000000000000004,0.1,1.5,0.0,0.0,0,-0.056812692,-1.1869556,-1.0854591,-0.4595182,-0.19766295,-0.06000919,0.538068,1.1541821,0.8970152,0.94626266,-0.10188496,-0.13886432,1.1112323,0.7125775
0.30000000000000004,0.1,1.5,0.0,0.0,0,-0.06749098,-1.1872896,-1.0917084,-0.46395284,-0.08833149,-0.074726716,0.47662544,1.1769042,1.118029,1.0045992,-0.12144549,-0.42779312,1.0805242,0.9019383
0.30000000000000004,0.1,1.5,0.0,0.0,0,-0.05047538,-1.2144442,-1.0668733,-0.4731612,-0.16569757,-0.07601258,0.559513,0.9247484,0.95890903,1.2446865,-0.12574786,0.12164136,1.1175461,0.109916374
0.30000000000000004,0.1,1.5,0.0,0.0,0,-0.05782348,-1.2004799,-1.0724105,-0.46163386,-0.18810067,-0.06449228,0.54554963,1.1093906,0.890877,0.9056529,-0.11900872,-0.17315057,1.1242989,2.3926656
0.30000000000000004,0.1,1.5,0.0,0.0,0,-0.052412104,-1.1953822,-1.0782588,-0.47341254,-0.13902844,-0.079767704,0.5035693,1.3301922,1.1222342,0.88779914,-0.1311495,-0.4488965,1.1668513,1.9771948
0.30000000000000004,0.1,1.5,0.0,0.0,0,-0.059080947,-1.1926501,-1.0801765,-0.45974055,-0.09293585,-0.07470448,0.46787202,1.6257448,0.8168053,0.4854729,-0.10160914,-0.2538773,1.136715,1.0855916
0.30000000000000004,0.1,1.5,0.0,0.0,0,-0.05897371,-1.2040868,-1.0861471,-0.4655889,-0.18399324,-0.08337302,0.5529364,0.49557254,0.86676157,0.40584368,-0.086786926,0.086492665,1.0774268,-0.8204111
0.30000000000000004,0.1,1.5,0.0,0.0,0,-0.055742495,-1.1843276,-1.0742155,-0.44596365,-0.11334402,-0.06719012,0.49320033,0.7487783,1.3268924,0.45646012,-0.13497858,-0.26025143,1.0011572,-0.02667318
0.30000000000000004,0.1,1.5,0.0,0.0,0,-0.06425877,-1.2027209,-1.080081,-0.46840072,-0.20719056,-0.08246561,0.44489852,1.1145229,0.9043214,0.594416,-0.12802488,-0.24827518,1.1529287,0.65154624
0.30000000000000004,0.1,1.5,0.0,0.0,0,-0.054616846,-1.2036144,-1.0786316,-0.45983294,-0.13069178,-0.08340078,0.5315049,1.1308943,0.9606725,1.1303324,-0.12658434,-0.082978405,1.1025475,1.0885274
0.30000000000000004,0.1,1.5,0.0,0.0,0,-0.060062077,-1.1891977,-1.0811712,-0.46296394,-0.19356248,-0.09089552,0.56273824,0.99079734,1.1021848,0.81460756,-0.1671293,-0.3560702,1.2011472,0.67809355
0.30000000000000004,0.1,1.5,0.0,0.0,0,-0.05687894,-1.1902764,-1.0856873,-0.4632093,0.014042771,-0.057024542,0.46764693,0.80680406,1.0686803,0.79589397,-0.09317965,-0.17182261,1.0308082,1.9087453
0.30000000000000004,0.1,1.5,0.0,0.0,0,-0.058807965,-1.1959895,-1.0728468,-0.4635875,-0.094395034,-0.06777673,0.4556238,1.0251713,0.85482377,0.5588215,-0.06974224,-0.24195139,1.0619501,0.28041357
0.30000000000000004,0.1,1.5,0.0,0.0,0,-0.049376536,-1.1949273,-1.0854794,-0.4730962,-0.13282064,-0.09226509,0.5045739,0.800386,1.0654546,1.0024787,-0.058859766,-0.33827463,1.1481367,2.0979018
0.30000000000000004,0.1,1.5,0.0,0.0,0,-0.056115225,-1.200532,-1.0816969,-0.47269157,-0.086709686,-0.081354916,0.509439,0.7831259,1.0657319,0.32347348,-0.101068646,-0.4748414,1.123706,1.2598916
0.30000000000000004,0.1,1.5,0.0,0.0,0,-0.054509837,-1.189448,-1.0848702,-0.44752133,-0.18490295,-0.085268594,0.6073123,1.024935,0.88940823,0.34747472,-0.108676955,-0.30638203,1.129992,1.6703306
0.30000000000000004,0.1,1.5,0.0,0.0,0,-0.052250262,-1.2042053,-1.0772303,-0.4852983,-0.16142632,-0.06486428,0.5463046,0.54272705,1.2443186,0.75644106,-0.00804282,-0.32679152,1.0797122,-0.033943295
0.30000000000000004,0.1,1.5,0.0,0.0,0,-0.048530586,-1.1962415,-1.0779885,-0.45800388,-0.032183412,-0.0670795,0.54756695,1.1100577,0.8769935,0.17979757,-0.12616073,-0.035795417,1.0792484,-0.088634305
0.30000000000000004,0.1,1.5,0.0,0.0,0,-0.06130356,-1.213839,-1.086688,-0.46986526,-0.108079284,-0.05169675,0.53327036,0.95577985,0.92408764,0.66345173,-0.16454896,-0.32648143,1.0842097,0.65142864
0.30000000000000004,0.1,1.5,0.0,0.0,0,-0.058606073,-1.1879853,-1.0862181,-0.46667534,-0.13220094,-0.08168608,0.519882,1.0397834,1.004322,0.52048767,-0.065869845,-0.09101521,1.1348598,1.1930343
0.30000000000000004,0.1,1.5,0.0,0.0,0,-0.05990804,-1.204424,-1.066375,-0.46844038,-0.19274554,-0.091320954,0.517752,0.98373204,1.0230411,0.29401454,-0.100144856,-0.10918056,1.1986326,0.52637637
0.30000000000000004,0.1,1.5,0.0,0.0,0,-0.059399363,-1.1974336,-1.0767121,-0.46670318,-0.11646328,-0.08302345,0.46936962,0.54760814,1.3287604,0.28437072,-0.09743327,-0.15650566,1.1300312,0.5974604
0.30000000000000004,0.1,1.5,0.0,0.0,0,-0.07312781,-1.2035221,-1.0704738,-0.44885847,-0.12354442,-0.046504386,0.5471301,0.78728825,1.1429038,0.42159867,-0.16636048,-0.40048862,1.1520581,0.16714118
0.30000000000000004,0.1,1.5,0.0,0.0,0,-0.059511393,-1.1921265,-1.0891398,-0.4607274,-0.07087253,-0.09705137,0.4737053,0.8268351,1.015367,0.5390337,-0.03759847,-0.27897963,1.0828822,1.8905122
0.30000000000000004,0.1,1.5,0.0,0.0,0,-0.05827466,-1.2001247,-1.0737904,-0.45740506,-0.16321371,-0.0756788,0.56011295,0.76761466,1.2261474,0.5818783,-0.05680131,-0.30877736,0.9791617,0.008452496
0.30000000000000004,0.1,1.5,0.0,0.0,0,-0.037105016,-1.1879495,-1.0818822,-0.4457855,-0.11308631,-0.07488008,0.55328506,0.89585155,0.8573785,0.5010261,-0.039231565,-0.34929752,1.0902392,-0.241013
0.30000000000000004,0.1,1.5,0.0,0.0,0,-0.045868043,-1.2055975,-1.0732627,-0.4611687,-0.0872454,-0.06914781,0.537338,0.71944106,1.1980404,0.81063443,-0.1508264,-0.17100808,1.1244059,-0.12778653
0.30000000000000004,0.1,1.5,0.0,0.0,0,-0.0473576,-1.2004845,-1.0749491,-0.46121803,-0.09685189,-0.05758679,0.5288165,0.8140376,1.1655716,0.9220595,-0.15856735,-0.34704715,1.1101468,-0.59708977
0.30000000000000004,0.1,1.5,0.0,0.0,0,-0.06348194,-1.1988823,-1.0849326,-0.4542123,-0.07820574,-0.059610166,0.5108232,0.9260208,1.1921033,0.7669705,-0.071612336,-0.44431463,1.0692143,0.9877203
0.30000000000000004,0.1,1.5,0.0,0.0,0,-0.060039446,-1.1983185,-1.0711375,-0.46229437,-0.10223275,-0.03514773,0.49445078,0.8833562,1.0438589,0.70913386,-0.044180974,-0.23588917,1.0887555,0.9804395
0.30000000000000004,0.1,1.5,0.0,0.0,0,-0.060310747,-1.2041132,-1.0817088,-0.46389407,-0.13304378,-0.082640566,0.50789034,1.0130577,1.059862,0.8485634,-0.04176251,0.06941592,1.1929559,0.24488343
0.30000000000000004,0.1,1.5,0.0,0.0,0,-0.065892704,-1.1963605,-1.0780883,-0.45595872,-0.1564553,-0.08342159,0.53997856,0.92021453,1.09723,1.1078691,-0.093850024,-0.18681674,1.1310853,0.38894874
0.30000000000000004,0.1,1.5,0.0,0.0,0,-0.05387719,-1.1852773,-1.0840528,-0.4661494,-0.13324638,-0.07506223,0.5227448,1.0674678,0.8658586,0.98320353,-0.09258001,-0.4315334,1.130995,0.6224511
0.30000000000000004,0.1,1.5,0.0,0.0,0,-0.052924655,-1.1910945,-1.0656846,-0.46758714,-0.22936055,-0.05189245,0.5776677,0.56181544,1.1863588,0.16369301,-0.07478347,-0.1797432,1.0952885,0.20420425
0.30000000000000004,0.1,1.5,0.0,0.0,0,-0.06271488,-1.1957449,-1.0802833,-0.4689245,-0.09999088,-0.060246717,0.466373,0.885782,1.2599243,0.46944374,-0.10134039,-0.340891,1.1188095,0.5130898
0.30000000000000004,0.1,1.5,0.0,0.0,0,-0.050519615,-1.1928773,-1.0830221,-0.47303158,-0.11646572,-0.06622446,0.52972513,0.83629066,0.96031004,0.7129739,-0.006152691,-0.28842822,1.12309,1.3146008
0.30000000000000004,0.1,1.5,0.0,0.0,0,-0.054556623,-1.2007556,-1.0797178,-0.47588012,-0.14013943,-0.07833093,0.51196307,0.7237003,1.0400982,0.8188968,-0.026531981,-0.06363866,1.1119368,0.83668673
0.30000000000000004,0.1,1.5,0.0,0.0,0,-0.060021788,-1.2002243,-1.0776894,-0.45112094,-0.057900958,-0.06634547,0.5028261,0.8055724,0.8500834,0.48981935,-0.10289287,-0.15267238,1.1199055,0.7084063
0.30000000000000004,0.1,1.5,0.0,0.0,0,-0.056572795,-1.1849589,-1.0883442,-0.45235166,-0.08535565,-0.07112658,0.46871433,0.7781277,0.9626477,0.53285646,-0.04053589,-0.1147492,1.0762671,1.2260559
0.30000000000000004,0.1,1.5,0.0,0.0,0,-0.058759045,-1.1939119,-1.0790958,-0.45341486,-0.10723514,-0.07927956,0.5322655,1.0510564,0.89772695,0.23184101,-0.12006331,-0.1351708,1.1608552,-0.72277033
0.30000000000000004,0.1,1.5,0.0,0.0,0,-0.06263016,-1.1952178,-1.0801709,-0.46400985,-0.12219991,-0.06716952,0.51328564,0.8733262,1.0744008,0.5333923,-0.08679389,-0.036504235,1.1611484,-0.5632475
0.30000000000000004,0.1,1.5,0.0,0.0,0,-0.05695902,-1.193314,-1.0807083,-0.45466238,-0.123464145,-0.08352486,0.4980488,1.1160889,0.6652616,0.42533737,-0.05239827,-0.4225662,1.0299742,0.26480633
0.30000000000000004,0.1,1.5,0.0,0.0,0,-0.05084822,-1.198493,-1.0619205,-0.45393395,-0.11300714,-0.063810185,0.44553146,0.87449,1.009651,0.19640107,-0.08544275,-0.27182382,1.0526206,0.34635946
0.30000000000000004,0.1,1.5,0.0,0.0,0,-0.049803346,-1.2011132,-1.0737356,-0.459651,-0.056215897,-0.0762959,0.5530571,0.78664577,1.0510341,0.481294,-0.12707187,-0.024545733,1.1865654,0.4868381
0.30000000000000004,0.1,1.5,0.0,0.0,0,-0.05626116,-1.1893389,-1.0806075,-0.46955875,-0.0961163,-0.035103228,0.49836814,0.5994953,0.9934853,1.0310718,-0.046759047,-0.46809718,1.2084758,0.39368892
0.30000000000000004,0.1,1.5,0.0,0.0,0,-0.0638542,-1.1982377,-1.0781913,-0.4656673,-0.18890397,-0.077426374,0.55178356,0.9024304,0.8587887,0.64530873,-0.1135687,-0.24683997,1.1783681,0.77142936
0.30000000000000004,0.1,1.5,0.0,0.0,0,-0.05199462,-1.1944507,-1.084137,-0.46966532,-0.17140931,-0.09405441,0.53538126,0.78278685,1.0391624,1.052977,-0.04589642,0.066246204,1.1896795,0.14514889
0.30000000000000004,0.1,1.5,0.0,0.0,0,-0.04534876,-1.1970484,-1.0811678,-0.47039157,-0.066603266,-0.058588166,0.52206665,0.49537072,0.95254457,0.5031588,-0.087974854,-0.38886392,1.2221259,2.5367272
0.30000000000000004,0.1,1.5,0.0,0.0,0,-0.05345426,-1.205707,-1.0776634,-0.4616476,-0.07238197,-0.09769941,0.44807315,0.8216344,0.99810153,0.5203649,-0.13498984,-0.40685567,1.1010165,1.3321781
0.30000000000000004,0.1,1.5,0.0,0.0,0,-0.050956473,-1.2067369,-1.0841764,-0.47419882,-0.13055079,-0.06821919,0.5668987,0.53711504,1.3036814,0.7195645,-0.14551184,-0.31051072,1.1541203,0.5792003
0.30000000000000004,0.1,1.5,0.0,0.0,0,-0.06307216,-1.1993164,-1.0851233,-0.46735126,-0.12963633,-0.057871416,0.52449167,0.6469091,1.0980611,0.93984735,-0.1335714,-0.22379492,1.1275525,0.8852946
0.30000000000000004,0.1,1.5,0.0,0.0,0,-0.047176894,-1.1979167,-1.0849158,-0.46344817,-0.161556,-0.055651173,0.58150166,0.8255396,0.83116966,0.6722247,-0.09036573,-0.10000836,1.1613513,1.445185
0.30000000000000004,0.1,1.5,0.0,0.0,0,-0.05992311,-1.193691,-1.0772414,-0.4796007,-0.046477083,-0.037699856,0.42625552,1.0366647,0.8826621,0.6760615,-0.092364475,-0.3584875,1.2136297,1.9893444
0.30000000000000004,0.1,1.5,0.0,0.0,0,-0.046170782,-1.1996225,-1.0849545,-0.4729266,-0.11448489,-0.07650719,0.5106186,0.71496433,0.85238487,0.9037016,-0.044931464,-0.27536866,1.1482373,0.8850349
0.30000000000000004,0.1,1.5,0.0,0.0,0,-0.065475166,-1.1980498,-1.0741602,-0.4663471,-0.16518745,-0.06518374,0.52007765,0.6215966,0.94605035,0.6301444,-0.119416825,-0.3429413,1.1715382,0.7280129
0.30000000000000004,0.1,1.5,0.0,0.0,0,-0.049799714,-1.2061162,-1.0733553,-0.4580506,-0.09685946,-0.0491955,0.4962304,0.5825267,0.7892883,0.7022814,-0.07093985,0.12470506,1.104288,0.26953492
0.30000000000000004,0.1,1.5,0.0,0.0,0,-0.054926384,-1.1943748,-1.0850298,-0.48146284,-0.21590519,-0.071445815,0.591989,0.85957223,0.9719228,0.72090775,-0.17941578,-0.13337538,1.1576906,-0.010134373
0.30000000000000004,0.1,1.5,0.0,0.0,0,-0.055275787,-1.1941724,-1.0715263,-0.46915638,-0.096905276,-0.08746764,0.46205875,0.68950796,1.1617388,0.62459004,-0.15674432,-0.12756985,1.2086948,1.5753644
0.30000000000000004,0.1,1.5,0.0,0.0,0,-0.047211677,-1.1997955,-1.0663185,-0.45058313,-0.20087431,-0.059971113,0.54725313,0.7134573,0.81721395,0.7550061,-0.07662304,-0.041428443,1.1865964,0.15396217
0.30000000000000004,0.1,1.5,0.0,0.0,0,-0.048307016,-1.1943827,-1.0821373,-0.46599898,-0.14329934,-0.087153286,0.49270427,0.51833147,1.3074119,0.2895674,-0.07365678,-0.049327474,1.0985122,2.5593286
0.30000000000000004,0.1,1.5,0.0,0.0,0,-0.06350842,-1.1935647,-1.0876129,-0.45912302,-0.03328267,-0.0442417,0.50448,0.88315976,0.77859896,0.42285633,-0.16764387,-0.23308817,1.1410247,0.17250629
0.30000000000000004,0.1,1.5,0.0,0.0,0,-0.054739945,-1.1931443,-1.0758663,-0.47688404,-0.15849872,-0.055892356,0.526284,0.59045494,0.85491353,0.7217087,-0.076690964,-0.18743576,1.2081481,0.6685072
0.30000000000000004,0.1,1.5,0.0,0.0,0,-0.05138186,-1.1898477,-1.0792148,-0.46974188,-0.13473158,-0.056578685,0.5236096,0.72582805,0.8682743,0.7391981,-0.085777596,-0.24674821,1.1860116,0.41325578
0.30000000000000004,0.1,1.5,0.0,0.0,0,-0.05208529,-1.1938161,-1.0815068,-0.47268793,-0.0864807,-0.049211074,0.49799109,0.68759435,0.997948,0.65406483,-0.1356193,-0.3735775,1.0753251,1.5586919
0.30000000000000004,0.1,1.5,0.0,0.0,0,-0.06327396,-1.1992183,-1.0826689,-0.4701674,-0.26311722,-0.08620669,0.46165764,0.919823,0.89508003,0.7151076,-0.0656053,-0.11421391,1.2026024,1.3619095
0.30000000000000004,0.1,1.5,0.0,0.0,0,-0.06252173,-1.214226,-1.0876752,-0.4615935,-0.28177962,-0.088934615,0.46016622,0.99759054,0.9334036,0.5239832,-0.13906406,-0.18193111,1.1818072,1.5781296
0.30000000000000004,0.1,1.5,0.0,0.0,0,-0.06252173,-1.214226,-1.0876752,-0.4615935,-0.28177962,-0.088934615,0.46016622,0.99759054,0.9334036,0.5239832,-0.13906406,-0.18193111,1.1818072,1.5781296
0.30000000000000004,0.1,1.5,0.0,0.0,0,-0.06252173,-1.214226,-1.0876752,-0.4615935,-0.28177962,-0.088934615,0.46016622,0.99759054,0.9334036,0.5239832,-0.13906406,-0.18193111,1.1818072,1.5781296
0.30000000000000004,0.1,1.5,0.0,0.0,0,-0.06252173,-1.214226,-1.0876752,-0.4615935,-0.28177962,-0.088934615,0.46016622,0.99759054,0.9334036,0.5239832,-0.13906406,-0.18193111,1.1818072,1.5781296
0.30000000000000004,0.1,1.5,0.0,0.0,0,-0.06252173,-1.214226,-1.0876752,-0.4615935,-0.28177962,-0.088934615,0.46016622,0.99759054,0.9334036,0.5239832,-0.13906406,-0.18193111,1.1818072,1.5781296
0.30000000000000004,0.1,1.5,0.0,0.0,0,-0.06252173,-1.214226,-1.0876752,-0.4615935,-0.28177962,-0.088934615,0.46016622,0.99759054,0.9334036,0.5239832,-0.13906406,-0.18193111,1.1818072,1.5781296
0.30000000000000004,0.1,1.5,0.0,0.0,0,-0.04452481,-1.1982588,-1.0826991,-0.4733323,-0.076663144,-0.052093495,0.5486586,1.1559061,0.7970999,0.10804427,-0.13324106,-0.19096042,1.0677189,1.3212776
0.30000000000000004,0.1,1.5,0.0,0.0,0,-0.04452481,-1.1982588,-1.0826991,-0.4733323,-0.076663144,-0.052093495,0.5486586,1.1559061,0.7970999,0.10804427,-0.13324106,-0.19096042,1.0677189,1.3212776
0.30000000000000004,0.1,1.5,0.0,0.0,0,-0.04452481,-1.1982588,-1.0826991,-0.4733323,-0.076663144,-0.052093495,0.5486586,1.1559061,0.7970999,0.10804427,-0.13324106,-0.19096042,1.0677189,1.3212776
0.30000000000000004,0.1,1.5,0.0,0.0,0,-0.04452481,-1.1982588,-1.0826991,-0.4733323,-0.076663144,-0.052093495,0.5486586,1.1559061,0.7970999,0.10804427,-0.13324106,-0.19096042,1.0677189,1.3212776
0.30000000000000004,0.1,1.5,0.0,0.0,0,-0.04452481,-1.1982588,-1.0826991,-0.4733323,-0.076663144,-0.052093495,0.5486586,1.1559061,0.7970999,0.10804427,-0.13324106,-0.19096042,1.0677189,1.3212776
0.30000000000000004,0.1,1.5,0.0,0.0,0,-0.04452481,-1.1982588,-1.0826991,-0.4733323,-0.076663144,-0.052093495,0.5486586,1.1559061,0.7970999,0.10804427,-0.13324106,-0.19096042,1.0677189,1.3212776
0.30000000000000004,0.1,1.5,0.0,0.0,0,-0.07414406,-1.194093,-1.0769359,-0.44961572,-0.0712485,-0.03963694,0.48885736,0.3787755,1.100262,0.66611767,-0.08804392,-0.017153801,1.1206232,0.19447622
0.30000000000000004,0.1,1.5,0.0,0.0,0,-0.07414406,-1.194093,-1.0769359,-0.44961572,-0.0712485,-0.03963694,0.48885736,0.3787755,1.100262,0.66611767,-0.08804392,-0.017153801,1.1206232,0.19447622
0.30000000000000004,0.1,1.5,0.0,0.0,0,-0.07414406,-1.194093,-1.0769359,-0.44961572,-0.0712485,-0.03963694,0.48885736,0.3787755,1.100262,0.66611767,-0.08804392,-0.017153801,1.1206232,0.19447622
0.30000000000000004,0.1,1.5,0.0,0.0,0,-0.07414406,-1.194093,-1.0769359,-0.44961572,-0.0712485,-0.03963694,0.48885736,0.3787755,1.100262,0.66611767,-0.08804392,-0.017153801,1.1206232,0.19447622
0.30000000000000004,0.1,1.5,0.0,0.0,0,-0.07414406,-1.194093,-1.0769359,-0.44961572,-0.0712485,-0.03963694,0.48885736,0.3787755,1.100262,0.66611767,-0.08804392,-0.017153801,1.1206232,0.19447622
0.30000000000000004,0.1,1.5,0.0,0.0,0,-0.057333145,-1.192995,-1.0770394,-0.47168693,-0.1042745,-0.06784536,0.49590978,0.573577,1.02065,0.6287247,-0.0735888,-0.20594701,1.005712,1.8158095
0.30000000000000004,0.1,1.5,0.0,0.0,0,-0.057333145,-1.192995,-1.0770394,-0.47168693,-0.1042745,-0.06784536,0.49590978,0.573577,1.02065,0.6287247,-0.0735888,-0.20594701,1.005712,1.8158095
0.30000000000000004,0.1,1.5,0.0,0.0,0,-0.057333145,-1.192995,-1.0770394,-0.47168693,-0.1042745,-0.06784536,0.49590978,0.573577,1.02065,0.6287247,-0.0735888,-0.20594701,1.005712,1.8158095
0.30000000000000004,0.1,1.5,0.0,0.0,0,-0.057333145,-1.192995,-1.0770394,-0.47168693,-0.1042745,-0.06784536,0.49590978,0.573577,1.02065,0.6287247,-0.0735888,-0.20594701,1.005712,1.8158095
0.30000000000000004,0.1,1.5,0.0,0.0,0,-0.057333145,-1.192995,-1.0770394,-0.47168693,-0.1042745,-0.06784536,0.49590978,0.573577,1.02065,0.6287247,-0.0735888,-0.20594701,1.005712,1.8158095
0.30000000000000004,0.1,1.5,0.0,0.0,0,-0.057333145,-1.192995,-1.0770394,-0.47168693,-0.1042745,-0.06784536,0.49590978,0.573577,1.02065,0.6287247,-0.0735888,-0.20594701,1.005712,1.8158095
0.30000000000000004,0.1,1.5,0.0,0.0,0,-0.05163178,-1.2080246,-1.066121,-0.48321444,-0.15751824,-0.073566526,0.47007015,0.5407232,1.1597971,0.63420165,-0.09866117,-0.37056306,1.1127853,0.544004
0.30000000000000004,0.1,1.5,0.0,0.0,0,-0.05163178,-1.2080246,-1.066121,-0.48321444,-0.15751824,-0.073566526,0.47007015,0.5407232,1.1597971,0.63420165,-0.09866117,-0.37056306,1.1127853,0.544004
0.30000000000000004,0.1,1.5,0.0,0.0,0,-0.05163178,-1.2080246,-1.066121,-0.48321444,-0.15751824,-0.073566526,0.47007015,0.5407232,1.1597971,0.63420165,-0.09866117,-0.37056306,1.1127853,0.544004
0.30000000000000004,0.1,1.5,0.0,0.0,0,-0.05163178,-1.2080246,-1.066121,-0.48321444,-0.15751824,-0.073566526,0.47007015,0.5407232,1.1597971,0.63420165,-0.09866117,-0.37056306,1.1127853,0.544004
0.30000000000000004,0.1,1.5,0.0,0.0,0,-0.05163178,-1.2080246,-1.066121,-0.48321444,-0.15751824,-0.073566526,0.47007015,0.5407232,1.1597971,0.63420165,-0.09866117,-0.37056306,1.1127853,0.544004
0.30000000000000004,0.1,1.5,0.0,0.0,0,-0.05163178,-1.2080246,-1.066121,-0.48321444,-0.15751824,-0.073566526,0.47007015,0.5407232,1.1597971,0.63420165,-0.09866117,-0.37056306,1.1127853,0.544004
0.30000000000000004,0.1,1.5,0.0,0.0,0,-0.05582583,-1.1950382,-1.081049,-0.44787005,-0.24405761,-0.036081057,0.5559768,0.74066865,0.87863827,0.31525037,-0.015826698,-0.40245324,1.1374424,0.086993665
0.30000000000000004,0.1,1.5,0.0,0.0,0,-0.05582583,-1.1950382,-1.081049,-0.44787005,-0.24405761,-0.036081057,0.5559768,0.74066865,0.87863827,0.31525037,-0.015826698,-0.40245324,1.1374424,0.086993665
0.30000000000000004,0.1,1.5,0.0,0.0,0,-0.05582583,-1.1950382,-1.081049,-0.44787005,-0.24405761,-0.036081057,0.5559768,0.74066865,0.87863827,0.31525037,-0.015826698,-0.40245324,1.1374424,0.086993665
