sanky1234/BimanualDexCatch/isaacgymenvs/cem_results/May31/football_pose_0.1_0.1_1.5_0.0_0.0_0_2025-06-03.csv
x,y,z,roll,pitch,yaw,robot1/joint1,robot1/joint2,robot1/joint3,robot1/joint4,robot1/joint5,robot1/joint6,robot1/joint7,robot2/joint1,robot2/joint2,robot2/joint3,robot2/joint4,robot2/joint5,robot2/joint6,robot2/joint7
0.1,0.1,1.5,0.0,0.0,0,0.61560446,-1.5557524,0.2417233,-0.38797903,0.6078834,0.11031256,-1.1127491,-0.28188562,-0.32928312,-0.7510788,0.13475515,-0.3299811,0.63250583,-0.8783085
0.1,0.1,1.5,0.0,0.0,0,0.6089272,-1.5572999,0.2520307,-0.3849663,0.67193586,0.17618774,-1.2405009,-0.27618077,-0.38411418,0.60559255,0.10078437,-0.54284453,0.6941407,-0.25572366
0.1,0.1,1.5,0.0,0.0,0,0.6252255,-1.5619438,0.24203461,-0.38429973,0.5996339,0.1689601,-1.0748314,-0.33788,-0.31264043,-0.13255347,0.07647433,-0.29885346,0.80136484,-0.93413967
0.1,0.1,1.5,0.0,0.0,0,0.61100566,-1.5653379,0.2476113,-0.39051044,0.63699186,0.19184506,-1.2050564,-0.38812625,-0.2817963,-0.111710794,0.065817915,-0.20725328,0.71888363,-0.30519712
0.1,0.1,1.5,0.0,0.0,0,0.6201928,-1.5592877,0.24856353,-0.3886723,0.59264827,0.16946016,-1.2298831,-0.28520173,-0.3025292,-0.31469944,0.0818391,-0.44442704,0.76418823,-0.20845181
0.1,0.1,1.5,0.0,0.0,0,0.6203351,-1.5569419,0.24048686,-0.3880457,0.6064621,0.2084177,-1.2322837,-0.30850857,-0.37563175,0.09585471,-0.021148438,-0.25403464,0.73717034,-0.06152021
0.1,0.1,1.5,0.0,0.0,0,0.61280763,-1.5618335,0.25744063,-0.38962197,0.5604187,0.17656974,-1.1111367,-0.23594594,-0.2577336,-1.4083259,0.08629436,-0.5309932,0.6722261,-0.35090503
0.1,0.1,1.5,0.0,0.0,0,0.62574935,-1.5627401,0.25678325,-0.38751602,0.59759533,0.16873889,-1.1968442,-0.3801637,-0.27486777,-0.63504,0.08403538,-0.49455595,0.9019536,-0.7525949
0.1,0.1,1.5,0.0,0.0,0,0.6015222,-1.5551187,0.24394538,-0.3866454,0.585972,0.2005916,-1.1634284,-0.25367802,-0.32184893,-0.24272728,0.016100394,-0.26492375,0.8284083,-0.85812783
0.1,0.1,1.5,0.0,0.0,0,0.6301848,-1.563352,0.24457735,-0.38404688,0.57477427,0.17570257,-1.1767076,-0.38669723,-0.36286142,0.08206722,0.08909448,-0.5447084,0.66638094,0.3969792
0.1,0.1,1.5,0.0,0.0,0,0.62387127,-1.5540481,0.2514895,-0.38612586,0.58157545,0.17403217,-1.1141739,-0.2514527,-0.34073585,-0.07463296,0.07839419,-0.34234053,0.7180019,-0.13811672
0.1,0.1,1.5,0.0,0.0,0,0.6123916,-1.5560721,0.25156695,-0.38514698,0.56521595,0.1763514,-1.115354,-0.2056919,-0.38846308,-0.92325157,0.020793611,-0.4893198,0.77545536,-0.4920494
0.1,0.1,1.5,0.0,0.0,0,0.6170588,-1.5572677,0.25509235,-0.38370836,0.5955628,0.15299365,-1.2191257,-0.30892742,-0.3328907,-0.09879047,0.10577456,-0.34084186,0.7406262,-0.45643902
0.1,0.1,1.5,0.0,0.0,0,0.6193875,-1.5593913,0.24666148,-0.38632908,0.61118126,0.20850556,-1.1840668,-0.38252652,-0.30488232,-0.8924468,0.04241317,-0.6831938,0.7393498,-0.74860865
0.1,0.1,1.5,0.0,0.0,0,0.6128032,-1.5601507,0.23236558,-0.387112,0.6187652,0.17599653,-1.1985825,-0.38863537,-0.30774635,-0.6449442,0.061400924,-0.5157808,0.72427,-0.5367053
0.1,0.1,1.5,0.0,0.0,0,0.6001454,-1.5596381,0.24429311,-0.38803902,0.59787905,0.1738278,-1.169039,-0.26860622,-0.277016,0.05944003,0.12608138,-0.3697117,0.8486829,-1.1350957
0.1,0.1,1.5,0.0,0.0,0,0.62099546,-1.5626471,0.24425764,-0.38321266,0.58811235,0.17190011,-1.1362998,-0.30762133,-0.27019823,-0.551741,0.10806526,-0.33596084,0.7958034,-0.40465742
0.1,0.1,1.5,0.0,0.0,0,0.61918,-1.5600375,0.2513088,-0.3871498,0.57243854,0.20209642,-1.1516906,-0.21136275,-0.44151127,-0.4750638,0.066066444,-0.54415065,0.8695604,-0.56705123
0.1,0.1,1.5,0.0,0.0,0,0.6297547,-1.5568681,0.2500315,-0.3832218,0.5920695,0.16473985,-1.1984916,-0.35301167,-0.3828164,-1.0084472,-0.0008210997,-0.51594466,0.71449125,-0.23205398
0.1,0.1,1.5,0.0,0.0,0,0.61889815,-1.5596648,0.2416741,-0.38419205,0.6185772,0.1737604,-1.2134712,-0.4080289,-0.3790161,-1.4181108,0.06016462,-0.39183918,0.7128534,-0.34019637
0.1,0.1,1.5,0.0,0.0,0,0.61485535,-1.5559753,0.23839974,-0.38867715,0.6152787,0.17651446,-1.0690082,-0.35255548,-0.34777114,-0.20449106,0.06467965,-0.48384747,0.7459574,-0.54073644
0.1,0.1,1.5,0.0,0.0,0,0.6250017,-1.5603863,0.23781468,-0.38536426,0.59445155,0.18328954,-1.1994733,-0.36789665,-0.3608236,0.40151107,0.07100249,-0.25138128,0.89575005,-0.6794298
0.1,0.1,1.5,0.0,0.0,0,0.6219099,-1.5559208,0.24907109,-0.3884996,0.58864033,0.17308222,-1.1902486,-0.23579656,-0.35591155,0.25555938,0.16752279,-0.59417874,0.6981551,-0.8167475
0.1,0.1,1.5,0.0,0.0,0,0.6155916,-1.5592346,0.26160002,-0.3881506,0.56216526,0.17589734,-1.1464204,-0.34468856,-0.33014968,-1.0286417,-0.006494283,-0.50993145,0.70641315,-0.9655312
0.1,0.1,1.5,0.0,0.0,0,0.6205499,-1.5556301,0.24980241,-0.38865936,0.62017924,0.17981932,-1.1300601,-0.27556914,-0.2884017,-0.12459444,0.07448937,-0.10804117,0.8102657,-0.4346442
0.1,0.1,1.5,0.0,0.0,0,0.6296913,-1.5573882,0.23281215,-0.39282912,0.6225779,0.22332866,-1.0418245,-0.3045465,-0.28518417,0.41338906,0.11276994,-0.33326945,0.69560075,-0.6126457
0.1,0.1,1.5,0.0,0.0,0,0.6065981,-1.5597746,0.24061199,-0.38153738,0.6134519,0.16153935,-1.1485463,-0.26330096,-0.34237915,-0.3206865,0.09368279,-0.46331882,0.73041546,-0.6991144
0.1,0.1,1.5,0.0,0.0,0,0.6143925,-1.5580473,0.23808168,-0.3889261,0.61677283,0.18875332,-1.1344069,-0.24706613,-0.32692757,-0.37924173,-0.014436091,-0.5582952,0.7864535,-0.15441437
0.1,0.1,1.5,0.0,0.0,0,0.6276725,-1.5574353,0.26515868,-0.38983735,0.58889985,0.18655735,-1.1828228,-0.29487786,-0.3478457,-0.38404647,0.080051176,-0.20343535,0.89755034,-0.7603581
0.1,0.1,1.5,0.0,0.0,0,0.63129145,-1.5615879,0.23390771,-0.38813472,0.5981969,0.21215984,-1.0557766,-0.24962184,-0.29281783,-0.9438104,0.094402865,-0.34656084,0.825799,-0.3903164
0.1,0.1,1.5,0.0,0.0,0,0.61840934,-1.5499239,0.24470513,-0.3870007,0.5592371,0.15321124,-1.0888302,-0.45152074,-0.3449873,-0.4701678,0.15998247,-0.25492024,0.8008925,-0.51366967
0.1,0.1,1.5,0.0,0.0,0,0.60984004,-1.5581803,0.258311,-0.38959908,0.6141117,0.16104662,-1.2442204,-0.34853888,-0.33702728,-1.3532964,0.08346999,-0.53319806,0.74934363,-0.49889192
0.1,0.1,1.5,0.0,0.0,0,0.6046574,-1.5568786,0.23607975,-0.3890918,0.552266,0.18361822,-1.029258,-0.25388005,-0.32362825,-0.86272335,0.09488122,-0.33545965,0.77568257,-0.10979031
0.1,0.1,1.5,0.0,0.0,0,0.6123922,-1.55612,0.24891774,-0.3873929,0.59341186,0.19124012,-1.2105658,-0.37740058,-0.29728192,-0.47606608,0.13265628,-0.4379718,0.69591933,-0.21545513
0.1,0.1,1.5,0.0,0.0,0,0.604238,-1.5568626,0.25176275,-0.3861505,0.63235253,0.18691266,-1.2149279,-0.35450667,-0.43660787,-0.88045126,0.022249866,-0.37123328,0.7522474,-0.34662268
0.1,0.1,1.5,0.0,0.0,0,0.6138554,-1.5580715,0.23306996,-0.38567737,0.61113715,0.19054483,-1.1029665,-0.35143542,-0.49028337,-0.260849,0.116825335,0.119978234,0.84445995,-0.8161246
0.1,0.1,1.5,0.0,0.0,0,0.62330186,-1.5612614,0.24373566,-0.385332,0.52702117,0.17611171,-1.1281195,-0.36923656,-0.2889991,-0.34473482,0.07772861,-0.35772035,0.74683464,0.22749823
0.1,0.1,1.5,0.0,0.0,0,0.60683095,-1.551986,0.2428639,-0.38584042,0.5643177,0.15892693,-1.1153635,-0.3516319,-0.41703802,-0.34846455,0.17017345,-0.5770549,0.78822803,-0.67885387
0.1,0.1,1.5,0.0,0.0,0,0.612594,-1.5555115,0.24378893,-0.38653466,0.6386199,0.17811242,-0.9621271,-0.25509882,-0.36989018,-1.0939891,0.109796405,-0.326331,0.82369316,0.30481035
0.1,0.1,1.5,0.0,0.0,0,0.60102665,-1.5584189,0.2467148,-0.38690546,0.5347009,0.18384388,-1.0858214,-0.43853208,-0.29786134,-1.6170101,0.11751631,-0.43913314,0.6183641,-0.5738808
0.1,0.1,1.5,0.0,0.0,0,0.60513073,-1.5528221,0.24445222,-0.38529754,0.57146806,0.15831877,-1.0836805,-0.32336813,-0.31885585,-1.3983978,0.02303979,-0.56760216,0.8014665,-0.5074853
0.1,0.1,1.5,0.0,0.0,0,0.6096096,-1.5570894,0.2504935,-0.38712376,0.53954333,0.19007424,-1.0598348,-0.37446818,-0.37577948,-0.56517947,0.06919903,-0.344869,0.83086437,0.26662764
0.1,0.1,1.5,0.0,0.0,0,0.62201107,-1.5626781,0.2508472,-0.38940012,0.5647254,0.182296,-1.179645,-0.32796088,-0.38050002,-0.12520845,0.10458983,-0.67441744,0.671855,-0.14819512
0.1,0.1,1.5,0.0,0.0,0,0.6277785,-1.5547415,0.25765482,-0.38508767,0.5968752,0.1513828,-1.2194622,-0.3906885,-0.37451315,-1.4779946,0.07925291,-0.37147912,0.64172477,-0.45041427
0.1,0.1,1.5,0.0,0.0,0,0.61935914,-1.5598333,0.24368422,-0.38451865,0.5942145,0.14360225,-1.0950747,-0.3825063,-0.32220706,-0.96788913,0.09945521,-0.6522313,0.7786706,-0.58127075
0.1,0.1,1.5,0.0,0.0,0,0.59925973,-1.5579141,0.24647795,-0.38293204,0.60497874,0.14669886,-1.1109107,-0.23518072,-0.36736447,-0.59543127,0.0564982,-0.6205062,0.705809,-0.08933858
0.1,0.1,1.5,0.0,0.0,0,0.6118258,-1.559918,0.2557809,-0.38854212,0.58574176,0.16194288,-1.1599016,-0.18241306,-0.3299845,-0.32967785,0.08961544,-0.19233586,0.74815625,-0.24332073
0.1,0.1,1.5,0.0,0.0,0,0.6115494,-1.5548769,0.24959743,-0.38609424,0.58798146,0.16915026,-1.1219684,-0.3285533,-0.3449605,-0.87688893,0.046810895,-0.6792034,0.7577749,-0.43397945
0.1,0.1,1.5,0.0,0.0,0,0.6009934,-1.5619214,0.23788342,-0.38681448,0.5983815,0.19189869,-1.1600949,-0.42657015,-0.4186921,-0.82866436,0.048713956,-0.3479892,0.68504703,-0.9138812
0.1,0.1,1.5,0.0,0.0,0,0.6187847,-1.5573363,0.24223842,-0.38893512,0.6053771,0.18443246,-1.1395465,-0.5209218,-0.29952952,0.00032843166,-0.064642906,-0.36072433,0.7389755,-0.82595986
0.1,0.1,1.5,0.0,0.0,0,0.61140287,-1.5566694,0.26097143,-0.38640478,0.58928436,0.15396734,-1.1771196,-0.46436158,-0.37680683,-0.40273952,0.09964617,-0.41797358,0.867178,-0.72513556
0.1,0.1,1.5,0.0,0.0,0,0.60470986,-1.5517875,0.24921484,-0.3873567,0.5563282,0.17201854,-1.1160736,-0.32834432,-0.42337307,-0.9204188,0.089221284,-0.3043221,0.7857927,-0.556216
0.1,0.1,1.5,0.0,0.0,0,0.6151155,-1.5554377,0.24821797,-0.38567904,0.6160707,0.14848806,-1.1354156,-0.29510474,-0.30336732,-0.7457251,-0.005448369,-0.3593624,0.77769727,-0.36677623
0.1,0.1,1.5,0.0,0.0,0,0.5998055,-1.5609808,0.23220396,-0.3881617,0.6147312,0.13256352,-1.0598071,-0.22322108,-0.3225198,-1.2411991,0.04480077,-0.3231483,0.6602062,-0.9383725
0.1,0.1,1.5,0.0,0.0,0,0.62832224,-1.5559199,0.25835896,-0.38587767,0.6493309,0.17858386,-1.2336285,-0.25543916,-0.3145697,-0.61276156,0.028418003,-0.5126756,0.77161133,-0.51053804
0.1,0.1,1.5,0.0,0.0,0,0.6115041,-1.5553917,0.24747068,-0.3852908,0.62568206,0.15499897,-1.1741899,-0.34066427,-0.40729433,-0.17231321,0.00801568,-0.50082415,0.6949429,-0.027165247
0.1,0.1,1.5,0.0,0.0,0,0.6215232,-1.5556618,0.25422046,-0.39027557,0.5807392,0.17315233,-1.1877389,-0.3811749,-0.41931468,-0.64163536,0.051841367,-0.2827273,0.78340393,-0.56940377
0.1,0.1,1.5,0.0,0.0,0,0.62529594,-1.5656296,0.24383304,-0.3905714,0.5325664,0.17768346,-1.0747701,-0.271631,-0.24831904,-0.2123216,0.031413596,-0.37776473,0.81418777,-0.46925142
0.1,0.1,1.5,0.0,0.0,0,0.6098802,-1.5635611,0.25933245,-0.3856149,0.6362938,0.18816023,-1.1947548,-0.39757565,-0.40624556,-0.030453712,0.035410073,-0.2129993,0.7044718,-0.77894485
0.1,0.1,1.5,0.0,0.0,0,0.6137856,-1.5552742,0.24023207,-0.38487712,0.61306334,0.1720374,-1.1054612,-0.41759706,-0.40916657,-0.028443761,0.072377615,-0.610077,0.81867194,-0.83209807
0.1,0.1,1.5,0.0,0.0,0,0.6129073,-1.5582373,0.24064352,-0.38658184,0.5574667,0.20254976,-1.154871,-0.47168815,-0.32570037,-1.1301408,0.10189429,-0.49002025,0.74611306,-0.87398297
0.1,0.1,1.5,0.0,0.0,0,0.605192,-1.5574423,0.25393888,-0.386635,0.599308,0.17187382,-1.1652002,-0.2949974,-0.3313868,0.012130943,0.12374696,-0.29190627,0.8350856,-0.46363938
0.1,0.1,1.5,0.0,0.0,0,0.61086535,-1.5579047,0.24223204,-0.38184115,0.5710148,0.18950231,-1.1377679,-0.40780878,-0.41164255,-0.0305809,0.06267662,-0.20582606,0.8283254,-0.18068926
0.1,0.1,1.5,0.0,0.0,0,0.62029564,-1.5608255,0.25182396,-0.38611266,0.6209531,0.17396566,-1.1715945,-0.3719211,-0.3212772,-0.72123593,0.055488337,-0.29538593,0.66428965,-0.42229998
0.1,0.1,1.5,0.0,0.0,0,0.611747,-1.5546738,0.25060573,-0.38559514,0.5795092,0.16468045,-1.0606287,-0.26804328,-0.30105427,-0.7656543,0.11736767,-0.29153588,0.7570011,-1.1466433
0.1,0.1,1.5,0.0,0.0,0,0.6074294,-1.5591352,0.2543386,-0.38678148,0.5769418,0.13608569,-1.1932853,-0.34658363,-0.3585556,0.09316239,0.06384025,-0.4120705,0.7620371,-0.0494736
0.1,0.1,1.5,0.0,0.0,0,0.6102084,-1.5640912,0.2537874,-0.3892326,0.5913122,0.19045688,-1.1444516,-0.38863972,-0.36838496,-0.9051016,0.093711734,-0.6029285,0.6467224,-0.16222692
0.1,0.1,1.5,0.0,0.0,0,0.6208612,-1.5603234,0.24765836,-0.38895884,0.622918,0.17867109,-1.2083839,-0.3472262,-0.3902012,-0.07712958,0.10527865,-0.4788493,0.764976,-0.6365186
0.1,0.1,1.5,0.0,0.0,0,0.60891247,-1.5580556,0.2584544,-0.3838926,0.5213803,0.1762284,-1.1321765,-0.27788457,-0.40698144,-1.1223092,0.10753191,-0.4233256,0.81931436,-0.339072
0.1,0.1,1.5,0.0,0.0,0,0.6193936,-1.5590324,0.252612,-0.38489705,0.6321941,0.21963833,-1.1537454,-0.30623466,-0.37760532,-0.6689347,0.08720402,-0.62923366,0.696963,-0.109400526
0.1,0.1,1.5,0.0,0.0,0,0.6195488,-1.5602509,0.25623745,-0.38640827,0.6327422,0.1839513,-1.2064698,-0.23540585,-0.33516148,-0.7760627,0.047298487,-0.41969308,0.8824004,-0.59599906
0.1,0.1,1.5,0.0,0.0,0,0.6012941,-1.5593055,0.23959087,-0.38742495,0.5784739,0.1866836,-1.0713888,-0.32030597,-0.24677818,-0.9003239,0.12970239,-0.40782222,0.6837339,-1.030502
0.1,0.1,1.5,0.0,0.0,0,0.6203471,-1.5590731,0.24818891,-0.38400507,0.6256177,0.19649677,-1.2091736,-0.42807674,-0.3968661,-0.6541223,0.05336511,-0.2600119,0.78281873,-0.3045043
0.1,0.1,1.5,0.0,0.0,0,0.61772263,-1.558841,0.24445595,-0.38665938,0.61398566,0.16782327,-1.1252341,-0.3261027,-0.37567496,-0.5698031,-0.012951013,-0.23467493,0.856431,-0.2771738
0.1,0.1,1.5,0.0,0.0,0,0.63328147,-1.5570374,0.24337614,-0.38786677,0.5531107,0.17663431,-1.0696915,-0.21888064,-0.34954646,0.09866397,0.042036094,-0.53192514,0.6693478,-0.28877875
0.1,0.1,1.5,0.0,0.0,0,0.61082375,-1.5534264,0.25849482,-0.38460907,0.59815514,0.21058814,-1.1551019,-0.232508,-0.27665386,0.45912153,0.07903377,-0.6262495,0.75707006,-0.17158067
0.1,0.1,1.5,0.0,0.0,0,0.6210486,-1.5577071,0.2622964,-0.385597,0.5833284,0.1625489,-1.2177665,-0.3051479,-0.33850217,-0.15089463,0.07506481,-0.5493926,0.8275529,-0.2219357
0.1,0.1,1.5,0.0,0.0,0,0.607559,-1.5579022,0.24056064,-0.38869217,0.5840457,0.18258475,-1.1861364,-0.4035568,-0.3894288,-0.8440225,-0.0004569208,-0.56009895,0.7616186,-0.086685054
0.1,0.1,1.5,0.0,0.0,0,0.62403697,-1.5562247,0.24667901,-0.38990244,0.6139683,0.17590669,-1.1288904,-0.29153648,-0.33692792,-0.93723005,0.14337784,-0.32865936,0.7284257,-0.29405528
0.1,0.1,1.5,0.0,0.0,0,0.6119783,-1.5639489,0.23958592,-0.3862514,0.533459,0.22147281,-1.1513004,-0.49385494,-0.26229334,-1.5561066,0.07187021,-0.5690584,0.6856972,-1.0161005
0.1,0.1,1.5,0.0,0.0,0,0.6312545,-1.5625417,0.23897816,-0.38937563,0.6262609,0.18590876,-1.1537244,-0.24553344,-0.32792363,-0.9755533,0.022152487,-0.50655,0.8804492,-0.5638381
0.1,0.1,1.5,0.0,0.0,0,0.6238815,-1.5575256,0.23748122,-0.38081428,0.6185991,0.18874297,-1.1093998,-0.2858027,-0.3409445,-1.1147166,0.028663373,-0.35138023,0.7057936,-0.6987281
0.1,0.1,1.5,0.0,0.0,0,0.6108102,-1.5568138,0.2459149,-0.38849923,0.5783377,0.18309991,-1.1439772,-0.28177202,-0.41014197,-0.4621673,0.09821936,-0.12766081,0.80158955,0.01477668
0.1,0.1,1.5,0.0,0.0,0,0.6131876,-1.5588313,0.24513312,-0.38410574,0.6099238,0.17043503,-1.172472,-0.27916765,-0.32294896,-0.1899737,-0.010102704,-0.5134598,0.7506085,-0.28033575
0.1,0.1,1.5,0.0,0.0,0,0.606781,-1.5583721,0.24172495,-0.386036,0.608007,0.17362665,-1.1722624,-0.36256588,-0.35237598,-1.1282501,0.065199524,-0.52029926,0.72486246,-0.7350435
0.1,0.1,1.5,0.0,0.0,0,0.6121855,-1.5536393,0.23292081,-0.38558322,0.6485787,0.18406753,-1.15254,-0.23971272,-0.34902266,-0.29081497,0.107198395,-0.43804324,0.8588139,-0.19829482
0.1,0.1,1.5,0.0,0.0,0,0.60848886,-1.5636476,0.25249103,-0.38608205,0.60058117,0.20759912,-1.0883801,-0.44863573,-0.38122535,-0.66525733,0.08000632,-0.41908848,0.767305,-0.71961623
0.1,0.1,1.5,0.0,0.0,0,0.630348,-1.5515991,0.24059072,-0.38299918,0.588724,0.1699664,-1.1504532,-0.22792353,-0.37691444,-1.0576394,0.069243826,-0.6181791,0.7596502,0.2643296
0.1,0.1,1.5,0.0,0.0,0,0.60664296,-1.5561309,0.24080853,-0.38759798,0.56414396,0.1781881,-1.1421002,-0.25920215,-0.42743635,-0.5955911,0.07148397,-0.19167466,0.75442326,-0.6504649
0.1,0.1,1.5,0.0,0.0,0,0.61428773,-1.5585482,0.24389914,-0.386904,0.5897223,0.1822537,-1.1230652,-0.37501907,-0.35274825,0.39808843,0.0760007,-0.5253862,0.85009205,-0.42865825
0.1,0.1,1.5,0.0,0.0,0,0.60873336,-1.5567956,0.24913613,-0.38509282,0.5771386,0.19019122,-1.2929461,-0.51519173,-0.34179655,-0.7264916,0.028447881,-0.51730996,0.868819,-0.68606204
0.1,0.1,1.5,0.0,0.0,0,0.60794294,-1.5542946,0.24853519,-0.38526443,0.568779,0.14527337,-1.0248133,-0.21677095,-0.3406497,0.07223769,0.04375015,-0.28294075,0.8288935,-0.5679146
0.1,0.1,1.5,0.0,0.0,0,0.6179242,-1.5608118,0.26336047,-0.38325402,0.6968494,0.18729322,-1.2327635,-0.36852837,-0.3823667,0.46524668,0.12781242,-0.5738677,0.6401724,-0.61065507
0.1,0.1,1.5,0.0,0.0,0,0.6100723,-1.563029,0.24523129,-0.388345,0.57289577,0.18682852,-1.1478022,-0.28520924,-0.35085258,-0.65594137,0.15024878,-0.16819176,0.7422259,-0.36393893
0.1,0.1,1.5,0.0,0.0,0,0.6010789,-1.5586287,0.23828328,-0.38953388,0.6233345,0.17886668,-1.193152,-0.16535789,-0.27565452,-0.7756097,0.13149726,-0.5268766,0.7932412,0.08562089
0.1,0.1,1.5,0.0,0.0,0,0.6045171,-1.5576044,0.2364615,-0.3849874,0.59365326,0.19986778,-1.0778366,-0.24478456,-0.27215844,-1.2136152,0.12376378,-0.25109032,0.7948574,-0.06359258
0.1,0.1,1.5,0.0,0.0,0,0.6251877,-1.5646619,0.24574742,-0.3894703,0.5712773,0.1592711,-1.1517266,-0.24072807,-0.39560783,-1.0088304,-0.0017092173,-0.52727336,0.7379213,-1.1109545
0.1,0.1,1.5,0.0,0.0,0,0.60850734,-1.5545032,0.24989618,-0.38855657,0.61062044,0.20615861,-1.1869144,-0.21375097,-0.33151093,-0.55804914,0.08776798,-0.3625655,0.6585167,-0.26152167
0.1,0.1,1.5,0.0,0.0,0,0.6118409,-1.5574011,0.25979167,-0.38572735,0.6281868,0.16439326,-1.2083056,-0.2579119,-0.35935995,-0.39381707,0.115975,-0.19967443,0.7881034,-0.7102963
0.1,0.1,1.5,0.0,0.0,0,0.615747,-1.5590594,0.24871953,-0.38930404,0.605418,0.18204136,-1.1687945,-0.25891206,-0.42197883,-0.7939317,-0.0010179252,-0.454928,0.8316583,-0.7544785
0.1,0.1,1.5,0.0,0.0,0,0.61704177,-1.5558943,0.25045952,-0.382466,0.5895706,0.18942204,-1.2607223,-0.2985704,-0.35757446,-0.43247235,0.056050893,-0.5122744,0.69558924,-0.30988306
0.1,0.1,1.5,0.0,0.0,0,0.61553854,-1.5606306,0.2413823,-0.38689306,0.6287924,0.13939352,-1.1021552,-0.25943083,-0.31223372,0.34985214,0.073110536,-0.55243284,0.7905894,-0.33372587
0.1,0.1,1.5,0.0,0.0,0,0.6008945,-1.5603037,0.23530148,-0.3868716,0.5270033,0.19384106,-1.0486203,-0.29283467,-0.3294982,0.096781105,0.12043686,-0.32856014,0.639377,-0.054796696
0.1,0.1,1.5,0.0,0.0,0,0.60451055,-1.5648754,0.2514132,-0.38669345,0.6032514,0.19494301,-1.0733926,-0.39302164,-0.39770088,-0.8811632,0.108240575,-0.24909914,0.5835363,-0.43431577
0.1,0.1,1.5,0.0,0.0,0,0.6023504,-1.5546106,0.2277638,-0.38467556,0.60041106,0.17219323,-1.0397784,-0.2308269,-0.3615121,-0.9502523,0.026046248,-0.25063944,0.72730345,-0.09528261
0.1,0.1,1.5,0.0,0.0,0,0.6260426,-1.565459,0.25502846,-0.38484517,0.64794064,0.21351562,-1.1580231,-0.33302474,-0.3669439,-0.22242941,0.14938197,-0.4436937,0.77269375,-0.78043866
0.1,0.1,1.5,0.0,0.0,0,0.6094009,-1.5578966,0.24067499,-0.38072813,0.59327495,0.17627952,-1.053796,-0.4068575,-0.31558713,-0.79499114,0.10989751,-0.4044557,0.73204154,-0.32044104
0.1,0.1,1.5,0.0,0.0,0,0.6204144,-1.5571555,0.24937324,-0.38268542,0.5864976,0.1688378,-1.090995,-0.32392597,-0.29397672,-0.10585346,0.15605572,-0.3367493,0.73900753,-0.71258235
0.1,0.1,1.5,0.0,0.0,0,0.61818665,-1.5523576,0.24909118,-0.38493514,0.5729939,0.18860424,-1.0585754,-0.31957477,-0.29712138,-0.18477319,0.11740707,-0.29677412,0.6993197,-0.14906436
0.1,0.1,1.5,0.0,0.0,0,0.6068498,-1.5563467,0.24766198,-0.386493,0.56251633,0.1870835,-1.1426855,-0.2647646,-0.3325979,-0.09676596,0.14185293,-0.69181484,0.7337812,0.10077628
0.1,0.1,1.5,0.0,0.0,0,0.61497426,-1.5553006,0.25078592,-0.39019862,0.5638736,0.16897376,-1.132665,-0.29177853,-0.2019255,-0.71103877,0.03277716,0.097613856,0.7442516,0.18256268
0.1,0.1,1.5,0.0,0.0,0,0.6060952,-1.5658342,0.24442293,-0.38775048,0.6093541,0.1721711,-1.15548,-0.26885757,-0.3879041,-0.9474201,0.016466757,-0.4995969,0.71757853,-0.2435354
0.1,0.1,1.5,0.0,0.0,0,0.6137811,-1.5567678,0.24883217,-0.38842243,0.60264313,0.1693742,-1.1048999,-0.25732273,-0.39564458,-0.7681697,-0.013517327,-0.4101691,0.8020395,-0.9192815
0.1,0.1,1.5,0.0,0.0,0,0.61267686,-1.555291,0.25690645,-0.38504767,0.54446274,0.14377557,-1.1592442,-0.20749892,-0.3762152,-0.21466266,-0.041237388,-0.52170366,0.7490241,-0.26957893
0.1,0.1,1.5,0.0,0.0,0,0.6323797,-1.5603869,0.2596314,-0.381273,0.5684447,0.17713468,-1.1670586,-0.4617421,-0.26946974,-0.23307472,0.05014364,-0.5950614,0.81967616,-0.7908981
0.1,0.1,1.5,0.0,0.0,0,0.6172232,-1.5566531,0.25263917,-0.38548982,0.56409115,0.17059693,-1.2022454,-0.39173445,-0.3151286,-0.6667704,0.06443266,-0.50774217,0.6318586,-0.80654114
0.1,0.1,1.5,0.0,0.0,0,0.60378903,-1.5565432,0.25009882,-0.3833317,0.5670619,0.18072912,-1.0872452,-0.19238232,-0.3210382,-0.837035,0.08094884,-0.5154641,0.6683423,-0.479752
0.1,0.1,1.5,0.0,0.0,0,0.61236036,-1.55757,0.242416,-0.38484564,0.58619124,0.19752283,-1.1379684,-0.3979737,-0.25832826,-0.12765156,0.025117692,-0.3932398,0.7761228,-0.64502865
0.1,0.1,1.5,0.0,0.0,0,0.60865045,-1.5607315,0.23717871,-0.38689142,0.55537724,0.19087718,-0.99686605,-0.38012806,-0.38223347,-0.5365251,0.11513963,-0.48292035,0.76848876,-0.5333868
0.1,0.1,1.5,0.0,0.0,0,0.60163647,-1.5583272,0.24413963,-0.3871215,0.5617448,0.1569573,-1.0301324,-0.32034397,-0.37658808,-1.0382881,0.09950441,-0.47352862,0.69271964,-0.6018716
0.1,0.1,1.5,0.0,0.0,0,0.615182,-1.5584642,0.25506255,-0.38933823,0.5303109,0.15059613,-1.1720122,-0.33540788,-0.33956534,-0.059418365,0.111282736,-0.37668636,0.7954991,-0.21569231
0.1,0.1,1.5,0.0,0.0,0,0.6072717,-1.562081,0.25082675,-0.38451883,0.59564304,0.18031599,-1.1635215,-0.3129242,-0.32957163,-0.4037119,0.07522998,-0.28476956,0.7248676,-0.18135542
0.1,0.1,1.5,0.0,0.0,0,0.6079787,-1.560862,0.25172272,-0.38738325,0.5054545,0.20512012,-1.033543,-0.17495242,-0.30722687,-1.2870796,0.13351129,-0.31026518,0.78864527,-0.31201732
0.1,0.1,1.5,0.0,0.0,0,0.615714,-1.5568742,0.2479122,-0.385752,0.58650637,0.17997383,-1.1412357,-0.49422172,-0.3328968,-0.49947524,0.08221336,-0.399966,0.9382836,-0.5116321
0.1,0.1,1.5,0.0,0.0,0,0.61367905,-1.5600063,0.24511422,-0.38553524,0.5906396,0.17427781,-1.2056092,-0.28674558,-0.35551697,-0.123139136,-0.0065984107,-0.46051708,0.7730353,-0.88073397
0.1,0.1,1.5,0.0,0.0,0,0.6006575,-1.5557302,0.24660237,-0.38844934,0.5629526,0.18910804,-1.0438038,-0.18594113,-0.34244892,-0.80345017,0.06687158,-0.40529144,0.7363279,-0.7372941
0.1,0.1,1.5,0.0,0.0,0,0.600259,-1.5577493,0.24784951,-0.3876572,0.60812396,0.21481542,-1.1217734,-0.33926326,-0.36900845,-0.02178966,0.023688667,-0.48521388,0.75232816,-0.16425346
0.1,0.1,1.5,0.0,0.0,0,0.6036491,-1.5594972,0.24095464,-0.38623962,0.6184549,0.17669363,-1.1332886,-0.311048,-0.36414453,0.0677662,0.11329899,-0.70035964,0.69781095,-0.8819517
0.1,0.1,1.5,0.0,0.0,0,0.6134119,-1.5587686,0.2436558,-0.38867968,0.59279996,0.16117387,-1.1665975,-0.24508783,-0.31415105,-0.7388362,0.13924102,-0.5074642,0.8779735,-0.49929857
0.1,0.1,1.5,0.0,0.0,0,0.637008,-1.5557599,0.24581744,-0.3859101,0.643276,0.17785181,-1.1631293,-0.24728477,-0.43323871,-0.25904432,0.025356643,-0.55292016,0.8320947,-0.5121506
0.1,0.1,1.5,0.0,0.0,0,0.6326424,-1.5600039,0.24182391,-0.3824565,0.5588879,0.18553586,-1.1956719,-0.40688586,-0.3631655,-0.5971372,0.18605316,-0.8462604,0.74921525,-0.48369536
0.1,0.1,1.5,0.0,0.0,0,0.6067924,-1.5568337,0.25590673,-0.3861178,0.5780573,0.18845986,-1.1307101,-0.362476,-0.40122584,-0.15157475,0.11846366,-0.43027654,0.77812374,-0.73736167
0.1,0.1,1.5,0.0,0.0,0,0.6231469,-1.5562491,0.23500551,-0.38596347,0.6228758,0.18360016,-1.1605943,-0.28839186,-0.34532055,-1.0117663,0.012797789,-0.35066956,0.77656853,-0.3676482
0.1,0.1,1.5,0.0,0.0,0,0.5958052,-1.5592333,0.24321324,-0.38298318,0.57738227,0.15124084,-1.1133502,-0.3639646,-0.35487512,-0.45562637,0.079637624,-0.43952903,0.74230486,-0.48463818
0.1,0.1,1.5,0.0,0.0,0,0.6136226,-1.556825,0.24302392,-0.38244626,0.62250704,0.1360183,-1.0786551,-0.35678032,-0.41942015,-0.07303516,0.09000242,-0.5974499,0.84619313,-0.5093227
0.1,0.1,1.5,0.0,0.0,0,0.59017813,-1.5618576,0.23325396,-0.38362974,0.6095617,0.1797806,-1.1458766,-0.24621567,-0.33268216,-0.40157273,0.034650464,-0.2400735,0.77544785,-0.24355176
0.1,0.1,1.5,0.0,0.0,0,0.6135004,-1.5569516,0.24734293,-0.38554105,0.5909596,0.20124689,-1.2004575,-0.35067612,-0.40306106,-0.4697854,0.04761697,-0.50552255,0.8001063,0.21403663
0.1,0.1,1.5,0.0,0.0,0,0.61149585,-1.5592552,0.23787598,-0.3859424,0.597472,0.17361026,-1.0978744,-0.3654326,-0.33532065,-0.854755,0.071731366,-0.5068942,0.8132945,-0.4737302
0.1,0.1,1.5,0.0,0.0,0,0.6263322,-1.5569122,0.25219858,-0.38583636,0.5689875,0.20055786,-1.06231,-0.093664326,-0.28667456,-0.41080585,0.063383274,-0.32207865,0.74501866,-0.61952066
0.1,0.1,1.5,0.0,0.0,0,0.61508685,-1.5567092,0.23522802,-0.38731924,0.59665567,0.1684198,-1.2064383,-0.3688767,-0.35383448,0.37951428,0.09588326,-0.58916336,0.7336573,-0.6946944
0.1,0.1,1.5,0.0,0.0,0,0.628687,-1.5539485,0.25440326,-0.3902474,0.57854843,0.16213365,-1.1222963,-0.33516893,-0.3869012,-0.0050389003,0.0037046059,-0.18871936,0.7345491,-0.22718757
0.1,0.1,1.5,0.0,0.0,0,0.6042626,-1.5606816,0.2579711,-0.38735452,0.6124602,0.18513289,-1.1001285,-0.26515347,-0.41895807,0.15144515,0.0064411988,-0.23786847,0.85775214,0.009309742
0.1,0.1,1.5,0.0,0.0,0,0.6176782,-1.561756,0.23244672,-0.38685817,0.55838954,0.19451134,-1.1147698,-0.39676052,-0.3597124,-0.2920054,0.07888674,-0.47679424,0.78109133,-0.48429903
0.1,0.1,1.5,0.0,0.0,0,0.60378814,-1.5548098,0.24434339,-0.38251656,0.56483656,0.16186243,-1.0717021,-0.43365175,-0.38845295,-1.4587848,0.05988684,-0.13013992,0.6975418,-0.7063226
0.1,0.1,1.5,0.0,0.0,0,0.62840843,-1.5657884,0.2504523,-0.38822755,0.5641951,0.18907796,-1.1344208,-0.40276286,-0.31864133,0.52697235,0.07376528,-0.5072074,0.77274317,0.013474395
0.1,0.1,1.5,0.0,0.0,0,0.622544,-1.5550343,0.24997221,-0.3882605,0.5892929,0.15303677,-1.1086309,-0.3402441,-0.37511528,-0.5322219,0.08535619,-0.2174559,0.8008451,-0.6539794
0.1,0.1,1.5,0.0,0.0,0,0.623876,-1.5624846,0.24467894,-0.38878444,0.56163186,0.16532287,-1.1144674,-0.33354697,-0.39733833,-0.016059862,-0.03170581,-0.49336824,0.82374334,-0.14288475
0.1,0.1,1.5,0.0,0.0,0,0.60964173,-1.5591112,0.24688156,-0.3876904,0.56733537,0.16240454,-1.1211861,-0.31923446,-0.25703323,-0.33693704,0.05861868,-0.47911283,0.81574225,-0.49963683
0.1,0.1,1.5,0.0,0.0,0,0.6292573,-1.555614,0.2462994,-0.38311103,0.5994849,0.19488756,-1.2215729,-0.4870467,-0.3325193,-0.3873823,0.15408671,-0.658186,0.7462401,-0.5946474
0.1,0.1,1.5,0.0,0.0,0,0.62018186,-1.5577025,0.2403538,-0.38960573,0.6142142,0.19278376,-1.1555096,-0.30020103,-0.31139874,-0.8521087,0.076989755,-0.46071684,0.812534,-0.3991286
0.1,0.1,1.5,0.0,0.0,0,0.6079738,-1.5560367,0.24764568,-0.3835043,0.62961364,0.16385795,-1.1809897,-0.33715075,-0.39478242,0.036224462,-0.058154497,-0.46107277,0.7070972,-0.6412703
0.1,0.1,1.5,0.0,0.0,0,0.61454827,-1.5592483,0.23995338,-0.38311136,0.57264876,0.17481354,-1.102511,-0.36900514,-0.44028085,-1.2464998,0.09127661,-0.57211995,0.8996579,-0.24190436
0.1,0.1,1.5,0.0,0.0,0,0.604254,-1.5565808,0.25154886,-0.38405022,0.72422886,0.20822074,-1.1014355,-0.3205084,-0.39216846,-0.11592608,0.103790455,-0.61871004,0.74679667,-0.28379294
0.1,0.1,1.5,0.0,0.0,0,0.60732454,-1.5506481,0.2546718,-0.39129242,0.59283215,0.17636184,-1.1373216,-0.24388981,-0.28735095,-1.1088097,0.096214294,-0.7202829,0.79617643,-0.451444
0.1,0.1,1.5,0.0,0.0,0,0.6240637,-1.557526,0.24919373,-0.38159972,0.60278964,0.17896448,-1.1593949,-0.41627973,-0.38386902,-0.2231425,0.03725632,-0.5270654,0.69550776,-0.57277954
0.1,0.1,1.5,0.0,0.0,0,0.6278859,-1.5542871,0.2549295,-0.3867248,0.5690834,0.20363112,-1.192987,-0.33389455,-0.39364764,0.05248441,0.093941115,-0.08404579,0.90425783,-0.34979415
0.1,0.1,1.5,0.0,0.0,0,0.6113041,-1.5575901,0.24010104,-0.3878412,0.68078023,0.20150265,-1.1920972,-0.25279525,-0.37028423,-0.6400385,0.024068592,-0.7340823,0.7333005,-0.4441211
0.1,0.1,1.5,0.0,0.0,0,0.6147266,-1.560376,0.24175783,-0.3873408,0.5798344,0.19547424,-1.1569394,-0.13771456,-0.33908036,-1.4092361,0.08409673,-0.31065834,0.71998954,-0.5147449
0.1,0.1,1.5,0.0,0.0,0,0.6205412,-1.5601633,0.24338952,-0.3845579,0.5892698,0.18697451,-1.1216463,-0.24942636,-0.34610996,-0.28118554,0.13308537,-0.3348014,0.6829207,-0.4490918
0.1,0.1,1.5,0.0,0.0,0,0.61675704,-1.5564202,0.25296706,-0.38643152,0.5682205,0.1750877,-1.0808284,-0.10391399,-0.37680098,-0.10529818,0.07884776,-0.6079365,0.82739913,-0.9012312
0.1,0.1,1.5,0.0,0.0,0,0.61351603,-1.5562433,0.23988166,-0.38433203,0.62045556,0.19780438,-1.1317687,-0.2913878,-0.40914804,0.37982842,0.021027625,-0.3577411,0.72186536,-0.64144963
0.1,0.1,1.5,0.0,0.0,0,0.61559993,-1.5614831,0.24548703,-0.3857388,0.58705485,0.17922047,-1.0737114,-0.36967826,-0.24860966,0.75933075,0.11867888,-0.37176585,0.93586713,-0.5911358
0.1,0.1,1.5,0.0,0.0,0,0.6057627,-1.5592711,0.24606384,-0.38631624,0.5759559,0.19981119,-1.0927142,-0.2706128,-0.27598757,-0.013501486,0.07924029,-0.58647144,0.6939381,-0.6170292
0.1,0.1,1.5,0.0,0.0,0,0.6084373,-1.5611533,0.23847553,-0.38497812,0.6066052,0.17153892,-1.1080824,-0.37298992,-0.35325068,0.04021816,0.08870743,-0.50501806,0.84516615,-0.3742967
0.1,0.1,1.5,0.0,0.0,0,0.6336899,-1.5603926,0.24120563,-0.38510877,0.5618455,0.13543847,-1.0256975,-0.14957216,-0.4360676,-0.17426942,0.042350322,-0.49307054,0.8341873,-0.36000362
0.1,0.1,1.5,0.0,0.0,0,0.625226,-1.5552366,0.2431968,-0.38575888,0.62055844,0.19364163,-1.1627877,-0.44952446,-0.3592971,-0.56418294,0.020517698,-0.41638675,0.8371318,-0.19282709
0.1,0.1,1.5,0.0,0.0,0,0.6121982,-1.5642153,0.25306886,-0.38872606,0.60850686,0.18961544,-1.1694988,-0.23907056,-0.36306572,-0.011840406,0.07092766,-0.39816687,0.8201653,-1.3615496
0.1,0.1,1.5,0.0,0.0,0,0.6081033,-1.5589505,0.2352975,-0.38289225,0.59277207,0.1847975,-1.0741942,-0.3143545,-0.3619426,-0.18681298,0.033380687,-0.30073017,0.70457804,0.48911977
0.1,0.1,1.5,0.0,0.0,0,0.6195199,-1.5590414,0.25497833,-0.38878036,0.6612327,0.20603597,-1.1650534,-0.32123983,-0.33706164,-0.14445233,0.14545947,-0.33453622,0.73853356,0.27100465
0.1,0.1,1.5,0.0,0.0,0,0.59479713,-1.5602115,0.24170385,-0.38403043,0.5765834,0.16203943,-1.0825936,-0.43209592,-0.40243205,-1.1477445,0.07331719,-0.59048736,0.8839016,-0.6811303
0.1,0.1,1.5,0.0,0.0,0,0.61674416,-1.5635424,0.25575903,-0.3844621,0.6276327,0.18906441,-1.1457341,-0.3486475,-0.29917365,-0.35947806,0.07733756,-0.325303,0.73191,-0.21810372
0.1,0.1,1.5,0.0,0.0,0,0.6159169,-1.5584171,0.24243343,-0.38784808,0.55350715,0.1458797,-1.1812428,-0.40887597,-0.3673492,-1.0794936,0.13803512,-0.8589906,0.82569826,-0.49921107
0.1,0.1,1.5,0.0,0.0,0,0.61166275,-1.559544,0.23480274,-0.38541743,0.59898055,0.18745874,-1.1411765,-0.11672954,-0.36590844,-0.7217247,0.08644134,-0.3359998,0.72067636,-0.39395052
0.1,0.1,1.5,0.0,0.0,0,0.6077385,-1.5597391,0.24373907,-0.38577884,0.5166782,0.19154263,-1.0705059,-0.25910327,-0.3760471,-0.38924336,0.10864532,-0.5310976,0.6379146,-0.62025875
0.1,0.1,1.5,0.0,0.0,0,0.60368603,-1.5644829,0.25014883,-0.386324,0.6098505,0.18323508,-1.1069694,-0.36719653,-0.43138447,-0.7661489,0.084478535,-0.46969488,0.85272676,-0.3351491
0.1,0.1,1.5,0.0,0.0,0,0.612495,-1.5519121,0.24855657,-0.38624445,0.6086973,0.18781453,-1.185837,-0.3069955,-0.4179486,-0.33954257,0.15427464,-0.6084627,0.709654,-0.36893082
0.1,0.1,1.5,0.0,0.0,0,0.5968098,-1.5537548,0.24736914,-0.38826847,0.6082968,0.16598007,-1.1257647,-0.40828922,-0.4074386,-0.46283522,0.012566774,-0.46000996,0.7074413,0.05235201
0.1,0.1,1.5,0.0,0.0,0,0.60174656,-1.5582995,0.23885946,-0.38716486,0.54101825,0.16142894,-1.083887,-0.2868224,-0.37204713,0.042507295,0.09247286,-0.5441732,0.7121824,-0.43339956
0.1,0.1,1.5,0.0,0.0,0,0.619479,-1.5581857,0.25189996,-0.38476914,0.60839176,0.20376827,-1.229963,-0.36927888,-0.37375548,-0.92739856,0.06172823,-0.28133088,0.8413116,-0.36105967
0.1,0.1,1.5,0.0,0.0,0,0.60744786,-1.5621806,0.23775522,-0.3871056,0.592783,0.20438342,-1.1225177,-0.28924492,-0.31050846,0.3271731,0.13491756,-0.52050495,0.8236413,-0.56860405
0.1,0.1,1.5,0.0,0.0,0,0.61310464,-1.5620736,0.23908572,-0.38589,0.57831234,0.15440044,-1.1154431,-0.55265296,-0.31371444,-1.0501727,0.05581028,-0.3496838,0.749505,-1.1671593
0.1,0.1,1.5,0.0,0.0,0,0.61295456,-1.5587201,0.23986655,-0.3842908,0.61427784,0.18462017,-1.1326476,-0.32953152,-0.41421402,-0.62647784,0.11683024,-0.1521702,0.785415,-0.3260165
0.1,0.1,1.5,0.0,0.0,0,0.60836935,-1.5596961,0.24228185,-0.38690287,0.61682385,0.17707103,-1.1729887,-0.27774838,-0.34239587,-1.5822165,0.08484162,-0.2572914,0.67616695,-0.700887
0.1,0.1,1.5,0.0,0.0,0,0.6168466,-1.5612108,0.23437348,-0.3860613,0.6253261,0.18045491,-1.0912175,-0.46123895,-0.32344243,-0.6380052,0.0072803646,-0.49882424,0.75759506,-0.21748538
0.1,0.1,1.5,0.0,0.0,0,0.6239602,-1.5563743,0.24141507,-0.3865117,0.59825516,0.12909263,-1.1571639,-0.08713099,-0.37963235,-0.1935795,0.05656976,-0.4125339,0.7447449,-0.23781207
0.1,0.1,1.5,0.0,0.0,0,0.62086785,-1.5588855,0.2587386,-0.38694587,0.527162,0.17029041,-1.0440726,-0.3982122,-0.39966053,-0.63765484,0.08428262,-0.45175213,0.8422181,0.062301714
0.1,0.1,1.5,0.0,0.0,0,0.6032658,-1.5544852,0.23961967,-0.3890631,0.6167862,0.19432232,-1.0741254,-0.31339037,-0.32367295,-0.6503201,-0.016576974,-0.6273515,0.7354009,-0.382042
0.1,0.1,1.5,0.0,0.0,0,0.61021554,-1.561318,0.24521978,-0.385703,0.5479513,0.18460748,-1.0540007,-0.46282768,-0.40107226,-1.0235504,0.0062104454,-0.654891,0.7089358,-0.12590419
0.1,0.1,1.5,0.0,0.0,0,0.6229126,-1.556044,0.24153806,-0.38886786,0.59991187,0.20115505,-1.1290151,-0.3407944,-0.3724986,0.1275826,0.06314675,-0.2884045,0.7692102,-0.62455994
0.1,0.1,1.5,0.0,0.0,0,0.6013858,-1.5619447,0.24382219,-0.3864535,0.5343525,0.16675016,-0.9883412,-0.36371624,-0.4052792,-0.14300925,0.0496585,-0.4863628,0.7168179,-0.23369958
0.1,0.1,1.5,0.0,0.0,0,0.60936785,-1.5579975,0.25146148,-0.3853319,0.57699394,0.16562122,-1.1488336,-0.27741832,-0.4355763,-0.4029218,0.06597659,-0.50133127,0.7526578,-0.38367358
0.1,0.1,1.5,0.0,0.0,0,0.61110026,-1.5583942,0.23042831,-0.38611504,0.6417377,0.19424525,-1.1779158,-0.2954201,-0.3959695,0.38648668,0.13372035,-0.41854826,0.6809724,-0.8212765
0.1,0.1,1.5,0.0,0.0,0,0.6212484,-1.5555232,0.23841634,-0.39042875,0.57330304,0.16920322,-1.1857487,-0.41518596,-0.38699073,-0.47517452,0.01765572,-0.30180362,0.7865113,-0.6988495
0.1,0.1,1.5,0.0,0.0,0,0.6118103,-1.5564268,0.24322283,-0.38477775,0.564727,0.20656374,-1.0837492,-0.33153254,-0.37221986,-1.1422645,0.051599912,-0.49244836,0.7365782,-0.86641747
0.1,0.1,1.5,0.0,0.0,0,0.6054109,-1.5568594,0.2421948,-0.3905331,0.59844595,0.16662334,-1.118883,-0.330142,-0.35319933,0.085997656,0.07633063,-0.42738673,0.885628,-0.064139254
0.1,0.1,1.5,0.0,0.0,0,0.6145695,-1.5600348,0.24679956,-0.38826776,0.58714885,0.17463516,-1.0847245,-0.3700938,-0.37325883,-0.9253194,0.014897027,-0.4073582,0.77400964,-0.5439956
0.1,0.1,1.5,0.0,0.0,0,0.62494886,-1.564599,0.2552567,-0.38549024,0.6052517,0.19838935,-1.1952821,-0.36992407,-0.3483374,0.2084748,0.11648784,-0.67172456,0.7378123,-0.8482008
0.1,0.1,1.5,0.0,0.0,0,0.6007629,-1.5571818,0.25728542,-0.38618037,0.54943967,0.15805963,-1.1398692,-0.37256572,-0.31975925,-0.011555314,0.09158899,-0.49975356,0.82082283,-0.4359961
0.1,0.1,1.5,0.0,0.0,0,0.62172633,-1.5590706,0.25445825,-0.38629812,0.57318,0.2098852,-1.221146,-0.2592202,-0.25493646,-0.55921483,0.08346934,-0.21680441,0.73062676,-0.10508614
0.1,0.1,1.5,0.0,0.0,0,0.5961071,-1.5569589,0.23413815,-0.38655034,0.552239,0.24544914,-1.1186599,-0.25297222,-0.3749076,0.06805322,0.0036557608,-0.15264474,0.6171236,-0.464157
0.1,0.1,1.5,0.0,0.0,0,0.6126362,-1.5608053,0.24308136,-0.38655713,0.5915642,0.18145134,-1.1434342,-0.23743731,-0.38218153,-0.9907974,0.1135627,-0.39206728,0.7323094,-0.9423212
0.1,0.1,1.5,0.0,0.0,0,0.596982,-1.5564253,0.25376636,-0.38319066,0.59854585,0.15641244,-1.1925648,-0.41610086,-0.3468547,-0.61215216,0.042218022,-0.26423842,0.86685234,-0.50024146
0.1,0.1,1.5,0.0,0.0,0,0.61778533,-1.5574011,0.25611278,-0.3837681,0.51412153,0.1919955,-1.0834792,-0.3717314,-0.32821625,-0.52116823,0.1107098,-0.33520815,0.755802,-0.21443105
0.1,0.1,1.5,0.0,0.0,0,0.59506786,-1.5605702,0.2356482,-0.38363653,0.60199434,0.16106102,-1.075351,-0.41500065,-0.43083358,-0.11955589,0.06597857,-0.45084104,0.8472431,-0.73312014
0.1,0.1,1.5,0.0,0.0,0,0.62529176,-1.5602264,0.25403413,-0.38478586,0.58443433,0.18479612,-1.1347654,-0.3270928,-0.30014506,-0.21214885,0.16093887,-0.6228345,0.6399243,0.024185477
0.1,0.1,1.5,0.0,0.0,0,0.61694455,-1.5637522,0.25528297,-0.38584754,0.5711761,0.17909482,-1.1440593,-0.33187225,-0.30254227,-0.27388933,0.05769962,-0.47721618,0.81200117,-0.56375414
0.1,0.1,1.5,0.0,0.0,0,0.6124909,-1.561238,0.24668597,-0.3860584,0.5856102,0.17886828,-1.1631811,-0.3111594,-0.3940318,0.5346605,0.033109237,-0.53997386,0.7865038,-0.7055011
0.1,0.1,1.5,0.0,0.0,0,0.61584544,-1.5567342,0.251348,-0.38750854,0.62737775,0.18111017,-1.0620375,-0.28546154,-0.38063172,0.07658224,0.14425348,-0.18249504,0.7941604,-0.80778885
0.1,0.1,1.5,0.0,0.0,0,0.6218115,-1.5634888,0.25145823,-0.38340172,0.53157276,0.1839026,-1.0593163,-0.37127525,-0.3834025,-0.8195229,0.13410644,-0.58989877,0.8251255,-0.51425505
0.1,0.1,1.5,0.0,0.0,0,0.6273538,-1.5594959,0.25127032,-0.38234785,0.58894134,0.17867163,-1.1418022,-0.30468524,-0.3315515,-0.2977699,0.06472243,-0.30432272,0.73060936,-0.23163888
0.1,0.1,1.5,0.0,0.0,0,0.6037196,-1.5619498,0.23529314,-0.3840728,0.6065661,0.19923595,-1.1491878,-0.4027691,-0.3225789,-1.0241829,0.021391131,-0.36214286,0.8114284,-0.5328719
0.1,0.1,1.5,0.0,0.0,0,0.61591595,-1.5553315,0.25054187,-0.38550848,0.5473286,0.19214894,-1.0779237,-0.23055889,-0.33544946,-0.40447584,0.028186837,-0.21825153,0.75435525,-0.47653162
0.1,0.1,1.5,0.0,0.0,0,0.6083401,-1.5638841,0.23966764,-0.38563013,0.5789225,0.20241286,-1.0673368,-0.18273596,-0.3537099,-0.18533923,0.055458285,-0.750409,0.7001152,-0.47315624
0.1,0.1,1.5,0.0,0.0,0,0.60411334,-1.5587338,0.24380311,-0.38284767,0.59139186,0.19677444,-1.0991656,-0.43462232,-0.3552409,-0.17243086,0.027525863,-0.38694677,0.7136307,0.04475604
0.1,0.1,1.5,0.0,0.0,0,0.60167557,-1.5539622,0.24535589,-0.38332027,0.6118386,0.15713821,-1.0570866,-0.41744062,-0.36437634,-0.15766373,0.05755327,-0.25015923,0.86560893,-0.13453394
0.1,0.1,1.5,0.0,0.0,0,0.593428,-1.5618523,0.23368688,-0.38671398,0.5888612,0.17986095,-1.1118737,-0.37615854,-0.41766408,-0.50430906,0.059857506,-0.63231915,0.7857663,-0.68620175
0.1,0.1,1.5,0.0,0.0,0,0.5926245,-1.5579827,0.2602156,-0.38628992,0.54086125,0.17674644,-1.1070732,-0.22841336,-0.34123242,0.10199972,0.06017755,-0.626035,0.8679576,-0.7866742
0.1,0.1,1.5,0.0,0.0,0,0.6127361,-1.561946,0.26480302,-0.3834868,0.6129806,0.19104432,-1.1129934,-0.36181423,-0.33592314,-0.24983189,0.16968933,-0.34714046,0.75922036,-0.4232617
0.1,0.1,1.5,0.0,0.0,0,0.61040074,-1.5589895,0.2429461,-0.38614878,0.6084371,0.15997909,-1.1409298,-0.43977612,-0.41925985,-0.8984396,0.06728234,-0.4714773,0.76348764,-0.24090311
0.1,0.1,1.5,0.0,0.0,0,0.6124997,-1.5547187,0.24416178,-0.38824105,0.5848499,0.21216467,-1.134281,-0.42394006,-0.34770194,-1.064207,0.026089625,-0.25220144,0.7803969,-0.44311193
0.1,0.1,1.5,0.0,0.0,0,0.6116594,-1.5592933,0.24283904,-0.38796467,0.6292746,0.17973503,-1.1728685,-0.388514,-0.43666142,-0.33999655,0.021496002,-0.41898856,0.80524373,-0.37042236
0.1,0.1,1.5,0.0,0.0,0,0.60608494,-1.5565983,0.24841443,-0.38759756,0.5752715,0.18612936,-1.1144855,-0.4671151,-0.3706808,0.1033732,0.049863275,-0.27057385,0.66550046,-0.08647158
0.1,0.1,1.5,0.0,0.0,0,0.6108953,-1.5639071,0.2341202,-0.3836606,0.6194172,0.18553007,-1.1467968,-0.2291697,-0.40518156,-0.11728302,0.1105742,-0.41059974,0.7828707,-0.4094679
0.1,0.1,1.5,0.0,0.0,0,0.61387765,-1.5542978,0.26418453,-0.38630545,0.6799275,0.20833856,-1.1040057,-0.38495845,-0.30306652,-0.5708264,0.051290892,-0.37296268,0.758791,-0.8158346
0.1,0.1,1.5,0.0,0.0,0,0.61666393,-1.5540321,0.25716522,-0.38826898,0.581405,0.21953167,-1.093685,-0.30582067,-0.3315969,-0.97213346,0.02894997,-0.5782529,0.7766008,-0.42411014
0.1,0.1,1.5,0.0,0.0,0,0.59716433,-1.5584083,0.24829589,-0.38479042,0.63835377,0.18765284,-1.0501179,-0.3531414,-0.3557626,-0.6799013,-0.04278022,-0.26445678,0.7399071,-0.95907855
0.1,0.1,1.5,0.0,0.0,0,0.6198385,-1.5602883,0.23912847,-0.38829154,0.69973207,0.195559,-1.1697727,-0.40194064,-0.32152212,-0.7022356,0.14007922,-0.49013928,0.7145244,-0.50084275
0.1,0.1,1.5,0.0,0.0,0,0.6168401,-1.5648339,0.25019825,-0.38632745,0.57791096,0.19478053,-1.0593345,-0.27652285,-0.37851873,-1.0709597,0.11422592,-0.5221977,0.6768421,-0.16048662
0.1,0.1,1.5,0.0,0.0,0,0.5921819,-1.559082,0.25494716,-0.38580492,0.63172257,0.1725946,-1.0618582,-0.13166384,-0.34914747,-0.029139157,-0.032796267,-0.4344013,0.7508254,-0.43263415
0.1,0.1,1.5,0.0,0.0,0,0.6168766,-1.5539632,0.23413903,-0.3825526,0.5388955,0.19601555,-1.0386494,-0.14311999,-0.39153263,-0.92151624,0.12075593,-0.27979806,0.7577004,-0.18097177
0.1,0.1,1.5,0.0,0.0,0,0.6258099,-1.5531734,0.23892535,-0.38753763,0.523901,0.19954498,-1.1709917,-0.40478235,-0.3781147,-0.6078416,0.06433467,-0.32108116,0.7734307,-0.82737285
0.1,0.1,1.5,0.0,0.0,0,0.6060659,-1.5586462,0.25775808,-0.386615,0.6089832,0.21056062,-1.0615424,-0.4286546,-0.35400924,0.40781912,0.095589034,-0.68591315,0.77986187,-0.52040994
0.1,0.1,1.5,0.0,0.0,0,0.61400753,-1.5546222,0.23877262,-0.3892036,0.55063075,0.24182896,-1.1716778,-0.27526206,-0.4059673,-0.5132361,0.13197881,-0.25945494,0.82853365,-0.79599565
0.1,0.1,1.5,0.0,0.0,0,0.6088197,-1.5587596,0.25744563,-0.38257283,0.5982229,0.18635274,-1.0609245,-0.30679184,-0.3685699,-0.973063,0.08586368,-0.4283201,0.7388274,-0.5400758
0.1,0.1,1.5,0.0,0.0,0,0.6085235,-1.5574445,0.24615857,-0.384699,0.680724,0.16711932,-1.1236472,-0.28799763,-0.38856947,-0.35154915,0.002831902,-0.32447082,0.746408,-0.35393375
0.1,0.1,1.5,0.0,0.0,0,0.602393,-1.5624496,0.24683797,-0.38419715,0.6328437,0.2118584,-1.0189215,-0.35587674,-0.36817056,-0.6990475,0.06725007,-0.64583564,0.8140719,-0.24230401
0.1,0.1,1.5,0.0,0.0,0,0.60036635,-1.5603808,0.2527222,-0.38724855,0.5959423,0.19307885,-1.0514797,-0.29275954,-0.38818908,-0.7982724,0.087828524,-0.29057392,0.67053396,-1.06289
0.1,0.1,1.5,0.0,0.0,0,0.61861145,-1.5601376,0.26032588,-0.38933152,0.6239834,0.21640337,-1.1535095,-0.2647263,-0.44154757,-0.535453,0.055938892,-0.45558664,0.8254553,-0.49607286
0.1,0.1,1.5,0.0,0.0,0,0.5944049,-1.560421,0.255169,-0.38453585,0.62295526,0.2523103,-1.1074036,-0.41122982,-0.37293833,-0.12444875,0.0070194346,-0.40803912,0.6528336,0.24109413
0.1,0.1,1.5,0.0,0.0,0,0.61506027,-1.558233,0.25102878,-0.38305274,0.52725476,0.21766838,-1.3032002,-0.38495138,-0.33516815,-0.84102225,0.12788284,-0.33108276,0.7445502,-0.17946768
0.1,0.1,1.5,0.0,0.0,0,0.6060448,-1.5571247,0.25076643,-0.38719192,0.6393107,0.21819384,-1.161368,-0.3252582,-0.3429442,-0.31987682,0.011164282,-0.3696363,0.7231839,-0.40621734
0.1,0.1,1.5,0.0,0.0,0,0.60298723,-1.5599327,0.25910115,-0.38714024,0.65201485,0.21474026,-1.0617126,-0.2209623,-0.41647854,-1.0903435,0.036950663,-0.25735897,0.73098177,-0.95413405
0.1,0.1,1.5,0.0,0.0,0,0.6032853,-1.5544957,0.26414058,-0.3891316,0.6014596,0.18360636,-1.0647738,-0.22937892,-0.3877593,-0.5207543,0.0028645408,-0.38250208,0.6668719,-0.540485
0.1,0.1,1.5,0.0,0.0,0,0.6230376,-1.5616821,0.26139393,-0.38714734,0.6013228,0.18375853,-1.1442739,-0.19911836,-0.27782243,-0.26114112,0.12655053,-0.596273,0.91040367,-0.19295916
0.1,0.1,1.5,0.0,0.0,0,0.60213006,-1.556777,0.24591784,-0.38558695,0.62172824,0.15211618,-1.0367628,-0.5274523,-0.4032955,-0.3008829,0.0802769,-0.18465559,0.84853524,-0.021967892
0.1,0.1,1.5,0.0,0.0,0,0.59912103,-1.5558465,0.25217003,-0.38829678,0.6465212,0.1635301,-1.0617373,-0.22014165,-0.4262736,-0.75402397,0.08712785,-0.3873497,0.7844903,-0.44143483
0.1,0.1,1.5,0.0,0.0,0,0.60573417,-1.5557768,0.25656128,-0.3886893,0.64588934,0.19067782,-1.1310164,-0.3219474,-0.41187307,-0.24479298,0.14768931,-0.32862675,0.7945291,-0.16983679
0.1,0.1,1.5,0.0,0.0,0,0.6097951,-1.5575517,0.25316712,-0.38913047,0.58455,0.17407262,-1.1486325,-0.350992,-0.37101063,0.20537108,0.057261527,-0.71219885,0.83424836,-0.13873126
0.1,0.1,1.5,0.0,0.0,0,0.6024928,-1.5594535,0.24901581,-0.38916788,0.63636106,0.15523379,-1.0469815,-0.30762127,-0.42425302,-0.63875276,0.06649222,-0.41204274,0.64476407,0.14133324
0.1,0.1,1.5,0.0,0.0,0,0.60135484,-1.5560195,0.24025993,-0.38532674,0.57784355,0.23075342,-1.097789,-0.43979442,-0.32748806,-1.0768422,0.08155359,-0.1422711,0.7475324,0.11386812
0.1,0.1,1.5,0.0,0.0,0,0.6097771,-1.5523921,0.24785356,-0.38674322,0.6193446,0.19026951,-0.98251116,-0.32969496,-0.3387106,-0.061220977,0.116894685,-0.30838743,0.7682862,-0.682717
0.1,0.1,1.5,0.0,0.0,0,0.60308766,-1.5544134,0.247786,-0.38292855,0.5945047,0.20365451,-1.092367,-0.473094,-0.42621225,-0.46936613,0.046235073,-0.4408445,0.7604644,-0.60215753
0.1,0.1,1.5,0.0,0.0,0,0.60678566,-1.5633157,0.26025894,-0.3848298,0.611701,0.18666586,-1.190293,-0.26571476,-0.31601083,-0.6350408,-0.029769182,-0.3925495,0.6413779,-0.21256065
0.1,0.1,1.5,0.0,0.0,0,0.60896283,-1.5581313,0.2504562,-0.38840553,0.54251343,0.17473103,-1.0966698,-0.3625548,-0.39904952,-1.2367771,0.038143847,-0.60586876,0.8081662,-0.39372092
0.1,0.1,1.5,0.0,0.0,0,0.6171337,-1.557956,0.24956489,-0.38480622,0.6536846,0.19502632,-1.0966002,-0.22245586,-0.3016735,-0.48861623,0.06788254,-0.2558553,0.7001166,-0.36272776
0.1,0.1,1.5,0.0,0.0,0,0.6021429,-1.5592575,0.2602812,-0.38207,0.652024,0.19889614,-1.0909497,-0.26548317,-0.3229406,-0.75659364,0.0076050037,-0.5405871,0.6327742,-0.5189783
0.1,0.1,1.5,0.0,0.0,0,0.6187315,-1.5611086,0.23946953,-0.38628864,0.6307105,0.17970341,-1.1605043,-0.24761194,-0.35240847,-1.1150658,0.06401716,-0.16701424,0.8198245,-0.2963292
0.1,0.1,1.5,0.0,0.0,0,0.6187315,-1.5611086,0.23946953,-0.38628864,0.6307105,0.17970341,-1.1605043,-0.24761194,-0.35240847,-1.1150658,0.06401716,-0.16701424,0.8198245,-0.2963292
0.1,0.1,1.5,0.0,0.0,0,0.6187315,-1.5611086,0.23946953,-0.38628864,0.6307105,0.17970341,-1.1605043,-0.24761194,-0.35240847,-1.1150658,0.06401716,-0.16701424,0.8198245,-0.2963292
0.1,0.1,1.5,0.0,0.0,0,0.6187315,-1.5611086,0.23946953,-0.38628864,0.6307105,0.17970341,-1.1605043,-0.24761194,-0.35240847,-1.1150658,0.06401716,-0.16701424,0.8198245,-0.2963292
0.1,0.1,1.5,0.0,0.0,0,0.6187315,-1.5611086,0.23946953,-0.38628864,0.6307105,0.17970341,-1.1605043,-0.24761194,-0.35240847,-1.1150658,0.06401716,-0.16701424,0.8198245,-0.2963292
0.1,0.1,1.5,0.0,0.0,0,0.6233194,-1.5649426,0.23703045,-0.3873181,0.6616716,0.15983458,-1.1621668,-0.25065503,-0.35014546,-0.9034774,0.10018683,-0.2358075,0.88025326,-0.6663864
0.1,0.1,1.5,0.0,0.0,0,0.6233194,-1.5649426,0.23703045,-0.3873181,0.6616716,0.15983458,-1.1621668,-0.25065503,-0.35014546,-0.9034774,0.10018683,-0.2358075,0.88025326,-0.6663864
0.1,0.1,1.5,0.0,0.0,0,0.6233194,-1.5649426,0.23703045,-0.3873181,0.6616716,0.15983458,-1.1621668,-0.25065503,-0.35014546,-0.9034774,0.10018683,-0.2358075,0.88025326,-0.6663864
0.1,0.1,1.5,0.0,0.0,0,0.6233194,-1.5649426,0.23703045,-0.3873181,0.6616716,0.15983458,-1.1621668,-0.25065503,-0.35014546,-0.9034774,0.10018683,-0.2358075,0.88025326,-0.6663864
0.1,0.1,1.5,0.0,0.0,0,0.6233194,-1.5649426,0.23703045,-0.3873181,0.6616716,0.15983458,-1.1621668,-0.25065503,-0.35014546,-0.9034774,0.10018683,-0.2358075,0.88025326,-0.6663864
0.1,0.1,1.5,0.0,0.0,0,0.60145575,-1.5574224,0.25652206,-0.38793707,0.66551656,0.19313957,-1.0588331,-0.50551647,-0.33659995,0.1219324,-0.016040046,-0.3471484,0.76920676,-0.65670377
0.1,0.1,1.5,0.0,0.0,0,0.60145575,-1.5574224,0.25652206,-0.38793707,0.66551656,0.19313957,-1.0588331,-0.50551647,-0.33659995,0.1219324,-0.016040046,-0.3471484,0.76920676,-0.65670377
0.1,0.1,1.5,0.0,0.0,0,0.60145575,-1.5574224,0.25652206,-0.38793707,0.66551656,0.19313957,-1.0588331,-0.50551647,-0.33659995,0.1219324,-0.016040046,-0.3471484,0.76920676,-0.65670377
0.1,0.1,1.5,0.0,0.0,0,0.60145575,-1.5574224,0.25652206,-0.38793707,0.66551656,0.19313957,-1.0588331,-0.50551647,-0.33659995,0.1219324,-0.016040046,-0.3471484,0.76920676,-0.65670377
0.1,0.1,1.5,0.0,0.0,0,0.60145575,-1.5574224,0.25652206,-0.38793707,0.66551656,0.19313957,-1.0588331,-0.50551647,-0.33659995,0.1219324,-0.016040046,-0.3471484,0.76920676,-0.65670377
0.1,0.1,1.5,0.0,0.0,0,0.6013582,-1.5575114,0.23589617,-0.38586435,0.66962403,0.2212686,-1.1707604,-0.3510618,-0.3746329,-0.66003394,0.05888602,-0.3228611,0.74441737,-0.8472249
0.1,0.1,1.5,0.0,0.0,0,0.6013582,-1.5575114,0.23589617,-0.38586435,0.66962403,0.2212686,-1.1707604,-0.3510618,-0.3746329,-0.66003394,0.05888602,-0.3228611,0.74441737,-0.8472249
0.1,0.1,1.5,0.0,0.0,0,0.6013582,-1.5575114,0.23589617,-0.38586435,0.66962403,0.2212686,-1.1707604,-0.3510618,-0.3746329,-0.66003394,0.05888602,-0.3228611,0.74441737,-0.8472249
0.1,0.1,1.5,0.0,0.0,0,0.6013582,-1.5575114,0.23589617,-0.38586435,0.66962403,0.2212686,-1.1707604,-0.3510618,-0.3746329,-0.66003394,0.05888602,-0.3228611,0.74441737,-0.8472249
0.1,0.1,1.5,0.0,0.0,0,0.6013582,-1.5575114,0.23589617,-0.38586435,0.66962403,0.2212686,-1.1707604,-0.3510618,-0.3746329,-0.66003394,0.05888602,-0.3228611,0.74441737,-0.8472249
0.1,0.1,1.5,0.0,0.0,0,0.6013582,-1.5575114,0.23589617,-0.38586435,0.66962403,0.2212686,-1.1707604,-0.3510618,-0.3746329,-0.66003394,0.05888602,-0.3228611,0.74441737,-0.8472249
0.1,0.1,1.5,0.0,0.0,0,0.5902635,-1.5559163,0.25859484,-0.38735113,0.52304804,0.18578494,-0.9378692,-0.32944056,-0.42896658,-0.18934278,0.118365034,-0.46860373,0.6820168,-0.14376664
0.1,0.1,1.5,0.0,0.0,0,0.5902635,-1.5559163,0.25859484,-0.38735113,0.52304804,0.18578494,-0.9378692,-0.32944056,-0.42896658,-0.18934278,0.118365034,-0.46860373,0.6820168,-0.14376664
0.1,0.1,1.5,0.0,0.0,0,0.5902635,-1.5559163,0.25859484,-0.38735113,0.52304804,0.18578494,-0.9378692,-0.32944056,-0.42896658,-0.18934278,0.118365034,-0.46860373,0.6820168,-0.14376664
0.1,0.1,1.5,0.0,0.0,0,0.5902635,-1.5559163,0.25859484,-0.38735113,0.52304804,0.18578494,-0.9378692,-0.32944056,-0.42896658,-0.18934278,0.118365034,-0.46860373,0.6820168,-0.14376664
0.1,0.1,1.5,0.0,0.0,0,0.5902635,-1.5559163,0.25859484,-0.38735113,0.52304804,0.18578494,-0.9378692,-0.32944056,-0.42896658,-0.18934278,0.118365034,-0.46860373,0.6820168,-0.14376664
0.1,0.1,1.5,0.0,0.0,0,0.5902635,-1.5559163,0.25859484,-0.38735113,0.52304804,0.18578494,-0.9378692,-0.32944056,-0.42896658,-0.18934278,0.118365034,-0.46860373,0.6820168,-0.14376664
0.1,0.1,1.5,0.0,0.0,0,0.5902635,-1.5559163,0.25859484,-0.38735113,0.52304804,0.18578494,-0.9378692,-0.32944056,-0.42896658,-0.18934278,0.118365034,-0.46860373,0.6820168,-0.14376664
0.1,0.1,1.5,0.0,0.0,0,0.61280805,-1.5581124,0.26029283,-0.38116848,0.6554777,0.23312648,-1.0651076,-0.3010673,-0.34952,-0.637876,0.10011177,-0.62830395,0.71371835,-0.77561396
0.1,0.1,1.5,0.0,0.0,0,0.61280805,-1.5581124,0.26029283,-0.38116848,0.6554777,0.23312648,-1.0651076,-0.3010673,-0.34952,-0.637876,0.10011177,-0.62830395,0.71371835,-0.77561396
0.1,0.1,1.5,0.0,0.0,0,0.61280805,-1.5581124,0.26029283,-0.38116848,0.6554777,0.23312648,-1.0651076,-0.3010673,-0.34952,-0.637876,0.10011177,-0.62830395,0.71371835,-0.77561396
0.1,0.1,1.5,0.0,0.0,0,0.61280805,-1.5581124,0.26029283,-0.38116848,0.6554777,0.23312648,-1.0651076,-0.3010673,-0.34952,-0.637876,0.10011177,-0.62830395,0.71371835,-0.77561396
