sanky1234/BimanualDexCatch/isaacgymenvs/cem_results/May31/football_pose_0.0_-0.1_1.5_0.5235987755982988_0.0_0_2025-05-31.csv
x,y,z,roll,pitch,yaw,robot1/joint1,robot1/joint2,robot1/joint3,robot1/joint4,robot1/joint5,robot1/joint6,robot1/joint7,robot2/joint1,robot2/joint2,robot2/joint3,robot2/joint4,robot2/joint5,robot2/joint6,robot2/joint7
0.0,-0.1,1.5,0.5235987755982988,0.0,0,0.041850947,-0.9584942,0.1006579,-1.5873992,0.867643,-0.086828396,-0.536821,1.0998496,-0.61261123,1.2011088,-0.37238297,0.036993444,-0.20380558,0.9464003
0.0,-0.1,1.5,0.5235987755982988,0.0,0,0.021796197,-1.0379274,0.13172843,-1.429322,0.81205606,-0.26270384,-0.32693586,1.0639586,-0.58381194,1.1624911,-0.28039292,-0.42174232,-0.23698023,1.0297419
0.0,-0.1,1.5,0.5235987755982988,0.0,0,0.009543703,-0.9349666,0.0983778,-1.5881034,0.5075379,-0.18428002,-0.22087537,1.1359705,-0.6248457,1.2013624,-0.3351251,0.34437838,-0.2103239,1.303275
0.0,-0.1,1.5,0.5235987755982988,0.0,0,0.012178673,-1.0088769,0.11098846,-1.5746789,0.044835683,-0.16281083,-0.34418955,1.051411,-0.61381656,1.1541005,-0.3935276,0.10258135,-0.19875391,1.0412068
0.0,-0.1,1.5,0.5235987755982988,0.0,0,0.03562914,-0.97530013,0.09358978,-1.6173216,0.10504398,-0.10612981,-0.43891683,1.119592,-0.57791525,1.1321462,-0.35397646,-0.033292204,-0.14030805,0.8693427
0.0,-0.1,1.5,0.5235987755982988,0.0,0,0.03906012,-1.066691,0.17241673,-1.4261976,0.28236178,-0.09980087,-0.6070031,1.1332561,-0.6582011,1.0730844,-0.24840459,0.0052156877,-0.20253263,0.8868057
0.0,-0.1,1.5,0.5235987755982988,0.0,0,0.018730234,-0.9208657,0.15974338,-1.6410035,0.27080157,-0.070518285,-0.34521028,1.1466181,-0.5935539,1.17008,-0.35274678,-0.3851919,-0.19925964,1.0023224
0.0,-0.1,1.5,0.5235987755982988,0.0,0,0.023807129,-0.95464414,0.14088349,-1.5808412,0.08632712,-0.15277457,-0.42431554,1.1608782,-0.6147773,1.206516,-0.353476,0.1588782,-0.20542231,0.73301935
0.0,-0.1,1.5,0.5235987755982988,0.0,0,0.030264094,-1.0251943,0.11260286,-1.5025536,0.34376478,-0.1573185,-0.3380443,1.0677845,-0.6271487,1.1616181,-0.30051166,0.086210854,-0.2205945,1.3029809
0.0,-0.1,1.5,0.5235987755982988,0.0,0,0.031114738,-0.96525025,0.07557445,-1.6339641,0.2815829,-0.20987055,-0.6212256,1.1372577,-0.5597036,1.2254609,-0.40615502,0.4177425,-0.20255654,1.1459798
0.0,-0.1,1.5,0.5235987755982988,0.0,0,0.05726264,-1.0376078,0.084192745,-1.5183257,0.19735426,-0.17183846,-0.36391672,1.1412731,-0.6276795,1.1435227,-0.38578594,0.22819567,-0.21629906,0.90878266
0.0,-0.1,1.5,0.5235987755982988,0.0,0,0.087052956,-0.98143363,0.17327471,-1.6384624,0.27637023,-0.07385585,-0.37247497,1.0540943,-0.60447586,1.1501547,-0.3368858,-0.25276464,-0.20217374,1.0097367
0.0,-0.1,1.5,0.5235987755982988,0.0,0,0.020772401,-0.946414,0.14852431,-1.6095564,0.20480357,-0.13825236,-0.5121198,1.1539663,-0.5994958,1.1807607,-0.27047268,0.27445382,-0.21329756,1.1143016
0.0,-0.1,1.5,0.5235987755982988,0.0,0,0.030236093,-0.8627597,0.20834307,-1.8407223,0.36035666,-0.13674018,-0.5262905,1.1417259,-0.5971012,1.1270889,-0.3537032,0.25604364,-0.16030352,0.97842723
0.0,-0.1,1.5,0.5235987755982988,0.0,0,0.0052703233,-0.9249388,0.16798003,-1.6357096,0.46427947,-0.09031663,-0.6189567,1.1386956,-0.6540215,1.136982,-0.3138865,0.10962609,-0.17358547,0.701723
0.0,-0.1,1.5,0.5235987755982988,0.0,0,0.037961964,-0.9542936,0.12253974,-1.6689419,0.21345526,-0.14664297,-0.20272854,1.0601861,-0.640545,1.1320242,-0.3672649,0.20165323,-0.20758152,1.1833433
0.0,-0.1,1.5,0.5235987755982988,0.0,0,0.045978893,-0.9071417,0.12959252,-1.7613324,0.36251703,-0.12409945,-0.5034094,1.1076272,-0.61649036,1.105479,-0.22390045,0.053060025,-0.19223613,0.7533088
0.0,-0.1,1.5,0.5235987755982988,0.0,0,0.054867912,-1.0207344,0.10647719,-1.4693995,0.55180633,-0.09815164,-0.45697394,1.0074596,-0.56826013,1.2537687,-0.36365613,-0.07379129,-0.17981523,1.1478521
0.0,-0.1,1.5,0.5235987755982988,0.0,0,0.034775633,-1.0124204,0.114845105,-1.5637429,0.34175915,-0.12861735,-0.39094427,1.0452822,-0.6007619,1.1717716,-0.38005942,0.07498196,-0.24217072,0.99691594
0.0,-0.1,1.5,0.5235987755982988,0.0,0,-0.010555506,-1.0400112,0.117240176,-1.512992,0.052885678,-0.16479172,-0.2577162,1.1605748,-0.6174966,1.1536546,-0.42785254,-0.111555256,-0.2509591,0.963596
0.0,-0.1,1.5,0.5235987755982988,0.0,0,0.038815822,-0.95324606,0.17966154,-1.5843621,-0.08191802,-0.25966063,-0.54155624,1.01324,-0.6258973,1.17417,-0.36651897,-0.10821231,-0.20442183,1.1332779
0.0,-0.1,1.5,0.5235987755982988,0.0,0,0.038358167,-0.9522364,0.14394826,-1.5703977,0.46005917,-0.1789167,-0.6418192,1.1200607,-0.6147096,1.1775126,-0.3606714,-0.13544214,-0.19524485,0.96199757
0.0,-0.1,1.5,0.5235987755982988,0.0,0,0.055280313,-0.96634877,0.08182352,-1.662205,0.42578617,-0.07272348,-0.38997874,1.0126417,-0.5940121,1.2425824,-0.4979762,0.3116683,-0.16885048,1.108739
0.0,-0.1,1.5,0.5235987755982988,0.0,0,0.035568155,-0.9497564,0.10109601,-1.6763152,0.4259159,-0.071512304,-0.26258782,1.111457,-0.63217777,1.1387628,-0.34565198,0.31102502,-0.1731115,0.97889465
0.0,-0.1,1.5,0.5235987755982988,0.0,0,0.047438648,-0.99578565,0.17256083,-1.5937412,0.690346,-0.12799086,-0.27515593,1.193416,-0.5435255,1.1532128,-0.36912772,0.031154249,-0.15585472,1.2247934
0.0,-0.1,1.5,0.5235987755982988,0.0,0,0.012992209,-0.94801426,0.09072692,-1.66416,0.3261305,-0.17555717,-0.11609439,1.0096235,-0.6144859,1.1374689,-0.2309607,-0.07759256,-0.19282283,0.9607555
0.0,-0.1,1.5,0.5235987755982988,0.0,0,0.04809885,-0.93035,0.14292401,-1.6219796,0.478337,-0.13699225,-0.25481504,1.130065,-0.62275356,1.1616648,-0.3228503,-0.038753614,-0.22113968,0.8867681
0.0,-0.1,1.5,0.5235987755982988,0.0,0,0.017021278,-0.8938171,0.20753087,-1.6927263,0.37350416,-0.12762053,-0.64350617,1.1334466,-0.5930801,1.2310023,-0.38403803,0.20968908,-0.18070129,0.93482786
0.0,-0.1,1.5,0.5235987755982988,0.0,0,0.015688688,-0.9807709,0.10156267,-1.5775133,0.10796273,-0.18290584,-0.4703178,1.1770737,-0.65087086,1.1879213,-0.4605259,-0.23659176,-0.19009264,1.0277874
0.0,-0.1,1.5,0.5235987755982988,0.0,0,0.0792436,-0.96045053,0.0777262,-1.5829499,0.4318563,-0.102372326,-0.2865501,1.1636673,-0.5743298,1.1771326,-0.27021667,0.026636831,-0.17466278,1.1326439
0.0,-0.1,1.5,0.5235987755982988,0.0,0,0.05977581,-1.0204922,0.15965816,-1.4682467,0.111404456,-0.13803805,-0.52685976,1.1512774,-0.610674,1.1730894,-0.31470728,0.0382951,-0.20766105,1.1006439
0.0,-0.1,1.5,0.5235987755982988,0.0,0,0.043070883,-0.9747689,0.1407861,-1.6151346,0.64384544,-0.14998086,-0.33399186,1.0545534,-0.5958402,1.2025,-0.3486794,0.3628372,-0.21180238,1.0485344
0.0,-0.1,1.5,0.5235987755982988,0.0,0,0.02723041,-1.0046327,0.14129107,-1.5089637,0.5453049,-0.038964927,-0.3660495,1.0612673,-0.66126287,1.2133319,-0.39190474,0.4160999,-0.21478118,0.9587188
0.0,-0.1,1.5,0.5235987755982988,0.0,0,0.022770803,-0.8815104,0.16048065,-1.7032843,0.36930293,-0.1796157,-0.31383815,1.1053277,-0.59927607,1.2584554,-0.44663274,0.15795854,-0.16463017,1.00018
0.0,-0.1,1.5,0.5235987755982988,0.0,0,0.037962977,-0.92687035,0.060271215,-1.6508621,0.74857104,-0.2165305,-0.56067926,1.0370462,-0.62315315,1.2201442,-0.39457244,0.16048469,-0.20949635,1.1025512
0.0,-0.1,1.5,0.5235987755982988,0.0,0,0.008540935,-0.94545245,0.17046583,-1.6556989,0.1205208,-0.18660009,-0.34984887,1.1604726,-0.5874945,1.14677,-0.33994156,0.05810673,-0.20915817,1.1205771
0.0,-0.1,1.5,0.5235987755982988,0.0,0,0.03414801,-1.0342995,0.123443335,-1.5145345,0.27471352,-0.13368572,-0.33044186,1.0759612,-0.6153819,1.0995748,-0.29331666,-0.31470412,-0.2045813,0.97920436
0.0,-0.1,1.5,0.5235987755982988,0.0,0,0.036404613,-0.89854676,0.13762845,-1.7641075,0.26955926,-0.104299136,-0.35594356,1.1694864,-0.6610651,1.0849344,-0.42311883,-0.3569168,-0.19538385,0.9959936
0.0,-0.1,1.5,0.5235987755982988,0.0,0,0.004344818,-0.97780555,0.14634977,-1.6147305,0.41069007,-0.15274338,-0.33063036,1.1768917,-0.6194961,1.1385016,-0.36029452,0.26286224,-0.2045015,0.9735778
0.0,-0.1,1.5,0.5235987755982988,0.0,0,0.07735578,-0.9376705,0.07092564,-1.6581954,0.8262222,-0.09175406,-0.33640832,1.0042149,-0.58553064,1.2545375,-0.30177763,0.09540516,-0.17725085,1.1020811
0.0,-0.1,1.5,0.5235987755982988,0.0,0,0.0454677,-1.0051303,0.14953005,-1.5579956,0.14287783,-0.15943679,-0.3750619,1.1872741,-0.575308,1.1763052,-0.38946912,0.090557486,-0.18696706,0.8960074
0.0,-0.1,1.5,0.5235987755982988,0.0,0,0.036263056,-0.97068244,0.13850738,-1.6168712,0.19213621,-0.1274826,-0.33102322,1.0755451,-0.61047775,1.183489,-0.34767833,0.19069074,-0.18494847,1.124281
0.0,-0.1,1.5,0.5235987755982988,0.0,0,0.013063217,-0.9758588,0.09507839,-1.5621558,0.67461836,-0.09845801,-0.50903594,1.0702146,-0.6038512,1.2097025,-0.36880824,0.13506393,-0.17895034,0.8057475
0.0,-0.1,1.5,0.5235987755982988,0.0,0,0.0235647,-1.0094421,0.15227108,-1.5060911,0.40029797,-0.1065075,-0.58476716,1.056763,-0.6164108,1.2209231,-0.3425831,0.44475487,-0.19708575,0.938839
0.0,-0.1,1.5,0.5235987755982988,0.0,0,0.02076679,-0.9423831,0.17164423,-1.7002977,0.20920448,-0.048699643,-0.4688613,1.1156762,-0.64752173,1.1397374,-0.37779048,0.24646667,-0.21539962,0.8992262
0.0,-0.1,1.5,0.5235987755982988,0.0,0,0.0067016613,-1.0089465,0.1118036,-1.4975046,0.75110257,-0.16595694,-0.6074479,1.0208534,-0.61147743,1.2032892,-0.36299998,-0.0074469056,-0.21649016,0.7439461
0.0,-0.1,1.5,0.5235987755982988,0.0,0,0.03264537,-0.9019213,0.12211479,-1.7356497,0.58050835,-0.09479836,-0.5065927,1.0762028,-0.642333,1.20437,-0.40685797,0.5557542,-0.20821825,0.8406679
0.0,-0.1,1.5,0.5235987755982988,0.0,0,0.034077965,-0.99330825,0.079221115,-1.5405233,0.4975494,-0.19788471,-0.286176,1.0692034,-0.5822659,1.159636,-0.29972804,-0.13078097,-0.19009925,0.92775214
0.0,-0.1,1.5,0.5235987755982988,0.0,0,0.047806446,-1.0198507,0.08493738,-1.5316408,0.427891,-0.1553389,-0.4678079,1.0801709,-0.63392884,1.140106,-0.3811833,0.08048304,-0.17522521,1.0050943
0.0,-0.1,1.5,0.5235987755982988,0.0,0,0.047238532,-0.9833993,0.20995748,-1.5629337,0.5841345,-0.08662451,-0.2838755,1.138053,-0.60459834,1.1742827,-0.37285843,-0.054988135,-0.18660668,1.1423397
0.0,-0.1,1.5,0.5235987755982988,0.0,0,0.030417597,-0.96776086,0.07782123,-1.607401,0.5087419,-0.15206604,-0.55437535,1.1542115,-0.6496009,1.1221884,-0.31091598,0.34216607,-0.22018193,1.2727438
0.0,-0.1,1.5,0.5235987755982988,0.0,0,0.02323244,-0.9576127,0.14681591,-1.5857679,0.40695035,-0.18238893,-0.31220013,1.1758713,-0.61166424,1.2115171,-0.41102526,-0.19909017,-0.20967174,1.0224149
0.0,-0.1,1.5,0.5235987755982988,0.0,0,0.043407068,-0.965228,0.12589623,-1.6234109,0.44990355,-0.15898281,-0.22723192,1.0468644,-0.60808957,1.1670884,-0.38969004,-0.074733436,-0.2326765,0.8707383
0.0,-0.1,1.5,0.5235987755982988,0.0,0,-0.0099448655,-0.98600477,0.1842489,-1.5762373,0.47591195,-0.11385552,-0.25720412,1.058605,-0.59904784,1.2112058,-0.44564134,-0.103372954,-0.21282782,1.0110813
0.0,-0.1,1.5,0.5235987755982988,0.0,0,0.05560877,-0.9856887,0.12736727,-1.5505632,0.37244493,-0.15730022,-0.6537701,1.1744155,-0.5920009,1.1737163,-0.33066303,0.09080569,-0.18319695,1.1958939
0.0,-0.1,1.5,0.5235987755982988,0.0,0,0.057275947,-1.0519274,0.13348277,-1.4127026,0.33337393,-0.24433437,-0.35207447,1.0649116,-0.6209268,1.1405091,-0.26315108,-0.17737082,-0.24410488,1.0713725
0.0,-0.1,1.5,0.5235987755982988,0.0,0,0.05907934,-0.973208,0.068159945,-1.6068892,0.25487244,-0.104071334,-0.36468285,1.1152319,-0.5701762,1.1798222,-0.29721567,0.028605547,-0.21611652,0.967955
0.0,-0.1,1.5,0.5235987755982988,0.0,0,0.036240812,-0.9150505,0.113274224,-1.7096617,0.29248947,-0.13303289,-0.50289553,1.0430436,-0.6280867,1.1603589,-0.3506144,0.08526986,-0.18554263,0.930578
0.0,-0.1,1.5,0.5235987755982988,0.0,0,0.021098763,-0.8549827,0.09274,-1.7774289,0.1360173,-0.20215888,-0.51103354,1.1394956,-0.62722653,1.1718869,-0.35523853,0.2273068,-0.25499013,1.067433
0.0,-0.1,1.5,0.5235987755982988,0.0,0,0.05151259,-1.0187252,0.14087453,-1.5169549,0.48048192,-0.0497814,-0.2600529,1.1126733,-0.60818225,1.191023,-0.34800574,0.12147867,-0.26655257,1.2269058
0.0,-0.1,1.5,0.5235987755982988,0.0,0,0.025996689,-0.90463233,0.1447269,-1.720334,0.28796843,-0.0976192,-0.54389435,1.1285087,-0.603975,1.15442,-0.30398324,0.12437866,-0.20567484,0.740735
0.0,-0.1,1.5,0.5235987755982988,0.0,0,0.002931271,-0.9412033,0.10661865,-1.6774986,0.3208634,-0.07996454,-0.37554723,1.16532,-0.6236071,1.1540868,-0.36957482,0.19677463,-0.23371895,1.261731
0.0,-0.1,1.5,0.5235987755982988,0.0,0,0.048066445,-0.9955393,0.08064557,-1.5632396,0.53526086,-0.15918122,-0.7396212,1.1494584,-0.6010594,1.1571295,-0.3578263,0.075937755,-0.20862539,0.80616045
0.0,-0.1,1.5,0.5235987755982988,0.0,0,0.030684745,-1.0737326,0.13216175,-1.4356343,0.24680936,-0.070015214,-0.46007508,1.1728549,-0.6097599,1.1522261,-0.32475543,0.24448878,-0.23037133,0.77729225
0.0,-0.1,1.5,0.5235987755982988,0.0,0,0.007575453,-0.9491996,0.14854582,-1.6392932,0.27637133,-0.18451159,-0.39729342,1.1734488,-0.6134774,1.1216501,-0.32767013,0.12998049,-0.16462603,0.80699664
0.0,-0.1,1.5,0.5235987755982988,0.0,0,0.05457981,-1.0114834,0.1926448,-1.5163273,0.4384781,-0.13279127,-0.6290809,1.0507655,-0.6191207,1.1543355,-0.32098156,-0.09963449,-0.19990833,1.0089779
0.0,-0.1,1.5,0.5235987755982988,0.0,0,0.061141305,-1.0336076,0.10689363,-1.5068488,0.24838421,-0.124990635,-0.20848958,1.0205858,-0.6506197,1.1494676,-0.4070097,-0.10211222,-0.18599828,1.2538233
0.0,-0.1,1.5,0.5235987755982988,0.0,0,0.013552653,-1.0486369,0.16736369,-1.7065088,0.1626275,-0.07431233,-0.21818164,0.9786885,-0.6602524,1.108295,-0.25281516,0.13983338,-0.2003588,1.0005131
0.0,-0.1,1.5,0.5235987755982988,0.0,0,0.031293128,-1.0260752,0.15051848,-1.6638898,0.3543476,-0.09280732,-0.32756987,0.96157736,-0.49307337,1.2342876,-0.2678043,-0.048837982,-0.23891771,0.74416226
0.0,-0.1,1.5,0.5235987755982988,0.0,0,0.038267225,-1.003883,0.11793905,-1.76578,0.25847447,-0.1487978,-0.5881458,1.1287646,-0.6119961,1.3058902,-0.76612085,-0.32014668,-0.1608801,1.0490569
0.0,-0.1,1.5,0.5235987755982988,0.0,0,0.043793302,-1.0871781,0.20084988,-1.5873265,0.8258446,-0.1609362,-0.7472812,1.1104677,-0.57810026,0.9564035,-0.24529652,-0.33340192,-0.236249,0.988901
0.0,-0.1,1.5,0.5235987755982988,0.0,0,0.027037492,-0.9826551,0.14224635,-1.6917001,-0.009783792,-0.17459254,-0.2635043,1.0306996,-0.62565064,1.1584884,-0.37936354,0.25551778,-0.17150317,1.3030647
0.0,-0.1,1.5,0.5235987755982988,0.0,0,0.03231562,-1.0090009,0.11580397,-1.6866885,0.4001102,-0.15580712,-0.16921937,1.0530261,-0.6036759,1.0986995,-0.38144672,0.49613717,-0.18442288,1.0049573
0.0,-0.1,1.5,0.5235987755982988,0.0,0,0.04947162,-1.0174049,0.14754711,-1.5901455,-0.032100566,-0.17236394,-0.3805784,1.0497884,-0.596656,1.1296082,-0.3235748,0.030317951,-0.21040606,0.98153067
0.0,-0.1,1.5,0.5235987755982988,0.0,0,0.023688491,-0.96823436,0.20351392,-1.6733956,-0.019765561,-0.10799669,-0.56154144,1.0574207,-0.61378634,1.1213807,-0.32519144,0.20172189,-0.16436017,1.016859
0.0,-0.1,1.5,0.5235987755982988,0.0,0,0.041880928,-0.85922265,0.09708595,-1.5595019,0.48899397,-0.06338956,-0.51824415,1.1824576,-0.60679674,1.2507446,-0.18856414,-0.16423938,-0.19927804,1.0142205
0.0,-0.1,1.5,0.5235987755982988,0.0,0,0.039738398,-0.96513027,0.1629799,-1.769268,0.3817932,-0.04426109,-0.48223627,1.1876353,-0.6157653,1.0036694,-0.3181346,0.014664465,-0.18890966,1.0722693
0.0,-0.1,1.5,0.5235987755982988,0.0,0,0.029079739,-1.0591077,0.12685236,-1.5975049,0.64997035,-0.14883223,-0.48864922,1.0087667,-0.5976458,1.0993031,-0.38790014,0.15519537,-0.21801588,1.2571404
0.0,-0.1,1.5,0.5235987755982988,0.0,0,0.043522783,-0.98470116,0.15209155,-1.7531629,0.16750102,-0.08146531,-0.113580406,1.1503947,-0.59757936,1.0532598,-0.3645649,0.117995515,-0.2640069,1.0251783
0.0,-0.1,1.5,0.5235987755982988,0.0,0,0.048960436,-0.9214985,0.14401776,-1.6810952,0.051547732,-0.18317817,-0.26826066,1.1030846,-0.6326819,1.2229744,-0.22564806,0.071342416,-0.19349253,1.2191789
0.0,-0.1,1.5,0.5235987755982988,0.0,0,0.08233652,-1.0621246,0.14605883,-1.5007393,0.15446518,-0.07642829,-0.5340296,1.0039021,-0.59880733,1.1494318,-0.31553906,0.2474943,-0.17863494,0.9782213
0.0,-0.1,1.5,0.5235987755982988,0.0,0,0.03765596,-0.8822627,0.14364126,-1.7134659,0.12228799,-0.16397694,-0.35477012,1.0803388,-0.64340806,1.2490807,-0.38885975,0.37221614,-0.1669411,0.87716645
0.0,-0.1,1.5,0.5235987755982988,0.0,0,0.023709765,-1.0368767,0.16073322,-1.6120509,0.3296711,-0.12307707,-0.64497167,1.212734,-0.6442902,0.9968864,-0.29453292,0.31010178,-0.2554013,1.3169081
0.0,-0.1,1.5,0.5235987755982988,0.0,0,0.026460912,-0.90842974,0.09292687,-1.6156133,0.43937624,-0.1796741,-0.3541799,1.1355382,-0.5673723,1.2718498,-0.29989552,0.21382973,-0.2272646,1.2725382
0.0,-0.1,1.5,0.5235987755982988,0.0,0,0.002850118,-0.9331698,0.14248432,-1.754861,0.6047119,-0.10165927,-0.5521972,1.0272245,-0.47818887,1.208694,-0.28058642,-0.15054324,-0.23950672,0.70310646
0.0,-0.1,1.5,0.5235987755982988,0.0,0,0.025838992,-1.0928514,0.13295126,-1.5314152,0.5252035,-0.023098461,-0.2792714,1.0524292,-0.5965024,1.0785215,-0.27430987,-0.012863026,-0.15487768,1.0396773
0.0,-0.1,1.5,0.5235987755982988,0.0,0,0.028897803,-1.0145063,0.19564687,-1.6666858,0.18550421,-0.070163816,-0.31967592,1.140224,-0.5963479,1.0540984,-0.3265966,0.08608331,-0.22763449,0.84664655
0.0,-0.1,1.5,0.5235987755982988,0.0,0,-0.005058455,-0.97634906,0.14187834,-1.7054058,0.34758532,-0.1812596,-0.41438502,1.0330371,-0.5655587,1.109497,-0.24880604,0.127393,-0.2053899,0.724837
0.0,-0.1,1.5,0.5235987755982988,0.0,0,0.028732648,-1.0089062,0.17590837,-1.6300364,0.68865764,-0.19808823,-0.4997034,1.0645298,-0.5762636,1.096848,-0.30039117,-0.14877973,-0.14461055,1.0227563
0.0,-0.1,1.5,0.5235987755982988,0.0,0,0.061873205,-1.0204688,0.1132608,-1.6636256,0.42620137,-0.028949497,-0.22531268,1.151738,-0.59416825,1.11556,-0.43890652,0.60241914,-0.20590971,1.3428582
0.0,-0.1,1.5,0.5235987755982988,0.0,0,0.0454093,-0.95674556,0.10110117,-1.7625086,0.7805636,-0.0727056,-0.31826657,1.0553445,-0.614823,1.1281847,-0.41932288,0.16651878,-0.17057575,1.0167375
0.0,-0.1,1.5,0.5235987755982988,0.0,0,0.063910306,-0.9733056,0.15126151,-1.7145773,0.75175005,-0.19477515,-0.31234938,1.046206,-0.650166,1.056956,-0.3377472,0.042445365,-0.15028708,1.0803652
0.0,-0.1,1.5,0.5235987755982988,0.0,0,0.037360124,-0.98672044,0.13635054,-1.6674436,0.49207246,-0.1663056,-0.47085232,1.0765603,-0.60363966,1.1643114,-0.41378555,0.55717874,-0.24343772,1.1645877
0.0,-0.1,1.5,0.5235987755982988,0.0,0,0.023758672,-1.0368977,0.16362618,-1.6116856,0.48665115,-0.122778125,-0.5280114,1.0761224,-0.61339575,1.0545002,-0.28831816,-0.07604179,-0.19102216,0.96266276
0.0,-0.1,1.5,0.5235987755982988,0.0,0,0.055828944,-0.89418656,0.07598803,-1.6032969,0.5433219,-0.14769046,-0.547936,1.1599622,-0.66274023,1.1683383,-0.25174585,0.197729,-0.18985775,0.9782528
0.0,-0.1,1.5,0.5235987755982988,0.0,0,0.0193419,-1.0081869,0.15807311,-1.6342022,0.49156627,-0.12092002,-0.35478714,0.96723074,-0.54977155,1.2336468,-0.2952806,0.35438794,-0.22799835,0.8831919
0.0,-0.1,1.5,0.5235987755982988,0.0,0,0.06760231,-0.96618843,0.15893495,-1.6551466,0.2923926,-0.13753076,-0.56185496,1.0577766,-0.65490615,1.1023539,-0.26783964,0.43275365,-0.1776021,1.0590267
0.0,-0.1,1.5,0.5235987755982988,0.0,0,0.041348156,-1.032827,0.06256215,-1.5294633,0.5298464,-0.17973112,-0.5144855,1.1085213,-0.651782,1.0612005,-0.29679418,0.0056093098,-0.17317595,1.0392324
0.0,-0.1,1.5,0.5235987755982988,0.0,0,0.052782208,-0.954684,0.16747718,-1.7576087,0.46600226,-0.041732047,-0.36468187,1.1053863,-0.57787824,1.1414719,-0.3831828,0.23941061,-0.21606274,0.9697079
0.0,-0.1,1.5,0.5235987755982988,0.0,0,0.0057116523,-0.9698419,0.14456521,-1.5862,0.5875185,-0.121591076,-0.38873434,1.1512902,-0.64886236,1.2468584,-0.4453903,0.05801689,-0.2242485,1.1581343
0.0,-0.1,1.5,0.5235987755982988,0.0,0,0.00047124614,-1.010499,0.16656123,-1.6222748,0.3882381,-0.15763186,-0.43140376,1.0993145,-0.62543046,1.0490403,-0.37337184,-0.11822401,-0.16335207,0.9806866
0.0,-0.1,1.5,0.5235987755982988,0.0,0,0.006506149,-0.96356225,0.117219344,-1.6989783,0.03805435,-0.08736433,-0.3544411,1.0459965,-0.58300626,1.185292,-0.30805984,0.2285933,-0.19054836,1.222767
0.0,-0.1,1.5,0.5235987755982988,0.0,0,0.030241406,-1.046734,0.17563185,-1.5342082,0.28106502,-0.074799664,-0.59485567,1.1676408,-0.63104486,1.120914,-0.38115972,0.17994387,-0.16598935,0.97164834
0.0,-0.1,1.5,0.5235987755982988,0.0,0,0.06268693,-0.97068036,0.10993764,-1.5896914,0.52478963,-0.12729286,-0.4699576,1.103212,-0.6624272,1.1316608,-0.28435332,0.054570496,-0.22389255,1.1980896
0.0,-0.1,1.5,0.5235987755982988,0.0,0,0.012231979,-0.9415154,0.11103228,-1.7030344,0.34173864,-0.1394078,-0.35127744,1.1093415,-0.5735507,1.1928265,-0.4120402,0.110647134,-0.24423777,0.8587292
0.0,-0.1,1.5,0.5235987755982988,0.0,0,0.06753212,-0.92053246,0.08287183,-1.7044634,0.14223146,-0.16377023,-0.3949322,1.1027913,-0.6540582,1.1673175,-0.3676287,0.33632118,-0.20680787,0.9509509
0.0,-0.1,1.5,0.5235987755982988,0.0,0,0.01994601,-0.9857926,0.07779209,-1.6660542,0.58935803,-0.032192674,-0.46881345,1.2050915,-0.6588939,1.0976936,-0.4007916,0.34190306,-0.20538759,1.2050432
0.0,-0.1,1.5,0.5235987755982988,0.0,0,0.028243713,-0.9933543,0.12459239,-1.6014516,0.41471314,-0.14226389,-0.48656943,1.1203738,-0.60557806,1.1291701,-0.3770707,0.115418755,-0.16328165,1.045902
0.0,-0.1,1.5,0.5235987755982988,0.0,0,-0.003607981,-0.97858185,0.09567735,-1.6275617,0.23144665,-0.16499777,-0.5054416,1.0781313,-0.62996495,1.1370136,-0.29975682,0.097644456,-0.2142745,1.1620128
0.0,-0.1,1.5,0.5235987755982988,0.0,0,0.020225419,-1.0024968,0.11608824,-1.6326032,0.36706385,-0.093104094,-0.31857198,1.0333278,-0.61506563,1.1450083,-0.34584928,0.27810556,-0.22705083,1.0258238
0.0,-0.1,1.5,0.5235987755982988,0.0,0,0.0572641,-1.0405465,0.0926042,-1.364475,0.21529421,-0.09373502,-0.4890064,1.0953555,-0.62128186,1.2090586,-0.28558305,-0.053919435,-0.1842789,0.8400701
0.0,-0.1,1.5,0.5235987755982988,0.0,0,0.038653318,-1.0377517,0.21724124,-1.5765282,0.06375406,-0.10450759,-0.43887615,1.1877838,-0.60754263,1.0217897,-0.32009336,-0.19610691,-0.22045925,0.7053486
0.0,-0.1,1.5,0.5235987755982988,0.0,0,0.045469288,-0.9565088,0.18000005,-1.6522833,0.35312542,-0.18285608,-0.5760119,1.1470475,-0.61578727,1.0959481,-0.3106,0.08486056,-0.18878378,0.8359298
0.0,-0.1,1.5,0.5235987755982988,0.0,0,0.03166368,-1.0405337,0.1405355,-1.5401345,0.5759523,-0.16075414,-0.357892,1.0337082,-0.6278641,1.1226339,-0.3477081,0.12307011,-0.241357,1.0596827
0.0,-0.1,1.5,0.5235987755982988,0.0,0,0.048632804,-1.0146044,0.119595125,-1.5797813,0.5175181,-0.20955388,-0.31822768,1.2104264,-0.6408648,1.0705312,-0.36643574,0.16360518,-0.18317077,0.97082657
0.0,-0.1,1.5,0.5235987755982988,0.0,0,0.083383106,-0.9714794,0.13128188,-1.531889,-0.0048205187,-0.12538822,-0.6587597,1.1132653,-0.6376701,1.1917628,-0.28842685,0.22128673,-0.19990824,0.95064694
0.0,-0.1,1.5,0.5235987755982988,0.0,0,0.047668617,-1.0212162,0.16029862,-1.5793684,0.12642014,-0.1115059,-0.3186521,1.1233308,-0.57711405,1.1510967,-0.40498766,0.33292395,-0.1287695,1.092623
0.0,-0.1,1.5,0.5235987755982988,0.0,0,0.027970048,-0.96346766,0.14607915,-1.630338,0.21566391,-0.18480664,-0.27585068,1.13422,-0.62298083,1.1168413,-0.32254893,0.45884338,-0.14147176,0.8907033
0.0,-0.1,1.5,0.5235987755982988,0.0,0,0.07523465,-1.0818357,0.08797989,-1.4901546,0.41801292,-0.15202838,-0.49512675,1.0856448,-0.61956906,1.1003522,-0.3226659,0.03531367,-0.23197392,1.1267036
0.0,-0.1,1.5,0.5235987755982988,0.0,0,0.034393214,-1.0231042,0.15229054,-1.5764074,0.4853754,-0.09731559,-0.51744187,1.0483588,-0.5827963,1.1311176,-0.30754462,-0.02702332,-0.16749944,0.95877254
0.0,-0.1,1.5,0.5235987755982988,0.0,0,0.0126409065,-0.9178892,0.12548782,-1.7077292,0.61453754,-0.08086487,-0.5714282,1.0516177,-0.584675,1.181188,-0.33961055,-0.16085722,-0.18238635,1.1030271
0.0,-0.1,1.5,0.5235987755982988,0.0,0,0.029677989,-1.0277293,0.16414206,-1.5510598,0.29746422,-0.21300024,-0.52208126,1.1297051,-0.5751593,1.0807866,-0.2959149,-0.19131424,-0.21533772,1.0459098
0.0,-0.1,1.5,0.5235987755982988,0.0,0,0.040212512,-0.9893529,0.13709791,-1.5728562,0.27102417,-0.093554854,-0.45336977,1.1563386,-0.65468884,1.1353662,-0.40699065,0.09858934,-0.16604237,0.820882
0.0,-0.1,1.5,0.5235987755982988,0.0,0,-0.009677784,-0.87067986,0.17376101,-1.6757462,0.35916862,-0.13290983,-0.35806367,1.058551,-0.58942294,1.2490658,-0.2760542,-0.12693897,-0.25028867,0.987597
0.0,-0.1,1.5,0.5235987755982988,0.0,0,0.028164396,-0.9653266,0.1695072,-1.5415652,0.3772343,-0.1396309,-0.17457022,1.0790538,-0.6183369,1.1976507,-0.2859987,0.28614128,-0.15759811,1.1882132
0.0,-0.1,1.5,0.5235987755982988,0.0,0,0.06680786,-0.97086495,0.17083526,-1.6760587,0.36795962,-0.07127033,-0.41945657,1.1149287,-0.6051979,1.1441702,-0.42338797,-0.025601225,-0.21871495,1.03865
0.0,-0.1,1.5,0.5235987755982988,0.0,0,0.038093522,-0.9992615,0.13121559,-1.6230377,0.86336505,-0.07551083,-0.5239073,1.0952435,-0.6184899,1.1009203,-0.35995984,-0.045126364,-0.19852863,1.1451715
0.0,-0.1,1.5,0.5235987755982988,0.0,0,0.05458638,-0.9770479,0.17951573,-1.6400607,0.33512518,-0.08779237,-0.19439454,1.0808997,-0.6214923,1.1326181,-0.30069658,0.12800075,-0.17615497,1.1690577
0.0,-0.1,1.5,0.5235987755982988,0.0,0,0.012118856,-0.9065009,0.0986587,-1.6665723,0.56850535,-0.0965116,-0.62857646,1.0918686,-0.5929662,1.2230978,-0.33791298,0.20334686,-0.16806635,0.8212584
0.0,-0.1,1.5,0.5235987755982988,0.0,0,0.06394455,-1.0442404,0.13244449,-1.4957713,0.23026626,-0.1544983,-0.33462933,1.1456474,-0.6119721,1.08353,-0.24119738,0.12339219,-0.12152631,0.9014546
0.0,-0.1,1.5,0.5235987755982988,0.0,0,0.05984861,-0.96208245,0.13022266,-1.6354554,0.6384844,-0.17816582,-0.3640657,1.0602219,-0.6579212,1.1702995,-0.3984936,0.25245482,-0.23253326,0.8744473
0.0,-0.1,1.5,0.5235987755982988,0.0,0,0.038737755,-0.9609764,0.15068689,-1.6635584,0.20744921,-0.17285112,-0.49943948,1.0819393,-0.6082133,1.1250844,-0.26382887,0.17580472,-0.23698205,1.0221539
0.0,-0.1,1.5,0.5235987755982988,0.0,0,0.03705122,-1.0336953,0.15773527,-1.5346332,0.38468263,-0.0797307,-0.6336907,1.1585534,-0.58387476,1.1431608,-0.34150517,0.19684337,-0.2399256,1.2935832
0.0,-0.1,1.5,0.5235987755982988,0.0,0,0.053740878,-0.97894806,0.12785435,-1.658434,0.28124538,-0.08060265,-0.3516975,1.0307062,-0.6147295,1.1344615,-0.29385957,0.06094133,-0.1911931,0.9817282
0.0,-0.1,1.5,0.5235987755982988,0.0,0,0.021881621,-0.8918767,0.21025845,-1.7270689,0.31009582,-0.20637631,-0.70086086,1.0509533,-0.62539095,1.2212458,-0.3706021,0.37531114,-0.23367302,1.0223099
0.0,-0.1,1.5,0.5235987755982988,0.0,0,0.032745816,-0.9467662,0.13915133,-1.651351,0.4718019,-0.29038754,-0.432404,1.1178967,-0.6331975,1.0498402,-0.2763469,-0.1051549,-0.17845531,0.6911823
0.0,-0.1,1.5,0.5235987755982988,0.0,0,0.03358749,-0.97270316,0.14523405,-1.5866586,0.20301539,-0.090409204,-0.510826,1.1829358,-0.6523475,1.1837796,-0.37179968,0.12949319,-0.24423519,0.99103373
0.0,-0.1,1.5,0.5235987755982988,0.0,0,0.058597304,-0.95913893,0.13382208,-1.5976101,0.52884465,-0.08460007,-0.47036076,1.1300011,-0.62134653,1.1426316,-0.24380645,0.039031174,-0.2054939,1.1110917
0.0,-0.1,1.5,0.5235987755982988,0.0,0,0.03629313,-0.96408814,0.10962774,-1.5883582,0.33179483,-0.1230385,-0.45650762,1.1236166,-0.6282008,1.1190588,-0.32351995,-0.21564503,-0.22781315,0.91245407
0.0,-0.1,1.5,0.5235987755982988,0.0,0,0.042349327,-1.011608,0.07938648,-1.5460405,0.25467312,-0.18794829,-0.36177543,1.0705897,-0.61031693,1.1401635,-0.27769947,0.05725799,-0.21590494,0.8880909
0.0,-0.1,1.5,0.5235987755982988,0.0,0,-0.00030055453,-1.0155652,0.12867418,-1.5130359,1.0109619,-0.034554165,-0.4506411,1.2437772,-0.6229257,1.0668981,-0.21095753,0.034963775,-0.20201828,0.8436239
0.0,-0.1,1.5,0.5235987755982988,0.0,0,0.048704844,-0.99403083,0.12646657,-1.4904481,0.57471794,-0.11845007,-0.58454835,1.05964,-0.6101836,1.2022719,-0.28764442,0.016553968,-0.19931097,0.785656
0.0,-0.1,1.5,0.5235987755982988,0.0,0,0.07536812,-0.99721384,0.14775527,-1.5677117,0.33417553,-0.120251834,-0.35122156,1.1335402,-0.60375655,1.1170992,-0.19169688,0.055728037,-0.23663229,0.9927556
0.0,-0.1,1.5,0.5235987755982988,0.0,0,0.03704195,-0.9266048,0.10232172,-1.7142419,-0.030374927,-0.10007537,-0.19577172,1.1678095,-0.653478,1.0622301,-0.28878665,-0.14595811,-0.19414474,1.1297672
0.0,-0.1,1.5,0.5235987755982988,0.0,0,0.021168767,-0.9622349,0.17237778,-1.6191416,0.68436974,-0.10458491,-0.49785158,1.0647777,-0.6138396,1.1744299,-0.27117118,0.2121938,-0.21871395,0.8144778
0.0,-0.1,1.5,0.5235987755982988,0.0,0,0.03572276,-1.0614889,0.11875668,-1.6271634,0.6644612,-0.080529146,-0.66506565,1.2085474,-0.6002374,0.9761185,-0.27627295,0.09628161,-0.22610952,1.2084236
0.0,-0.1,1.5,0.5235987755982988,0.0,0,0.0302992,-1.0299184,0.14660616,-1.6346579,0.4288063,-0.07062734,-0.27356547,0.9416557,-0.63039505,1.0872339,-0.21000662,0.2410293,-0.1817346,1.0077958
0.0,-0.1,1.5,0.5235987755982988,0.0,0,0.066671915,-0.9530338,0.13317129,-1.644169,0.28077242,-0.13994457,-0.56836224,0.9901999,-0.63502973,1.217818,-0.34401095,-0.0005675252,-0.27240893,1.1360888
0.0,-0.1,1.5,0.5235987755982988,0.0,0,0.0036683558,-1.0215873,0.1351912,-1.649111,0.38642913,-0.1832813,-0.45132235,1.1252506,-0.5808276,1.0609137,-0.36344,0.08946384,-0.18697353,1.1377659
0.0,-0.1,1.5,0.5235987755982988,0.0,0,0.01738484,-0.9105218,0.056447063,-1.5688149,-0.06995548,-0.18130313,-0.32394862,1.1246898,-0.6771878,1.2292423,-0.24265109,0.10360126,-0.18977992,1.2194555
0.0,-0.1,1.5,0.5235987755982988,0.0,0,0.025965793,-0.93538713,0.13189872,-1.6909077,0.7893063,-0.15920502,-0.37234536,1.0269382,-0.64011055,1.0774463,-0.30063596,-0.052412868,-0.21247993,0.9979913
0.0,-0.1,1.5,0.5235987755982988,0.0,0,0.047581986,-1.0021348,0.11514435,-1.6472394,0.4676019,-0.2204175,-0.46946183,1.1089363,-0.62465,1.0648861,-0.44882226,-0.021798005,-0.23617129,1.2638369
0.0,-0.1,1.5,0.5235987755982988,0.0,0,0.025260132,-0.9620734,0.12198933,-1.7639542,-0.047376562,-0.11968282,-0.43552208,1.0913643,-0.6316643,1.0919976,-0.47026107,0.074873105,-0.15772013,1.1416981
0.0,-0.1,1.5,0.5235987755982988,0.0,0,0.020202562,-1.0856504,0.13039954,-1.4292995,-0.071330555,-0.16522183,-0.27114984,1.0984334,-0.6255675,1.0568912,-0.26392666,0.27191392,-0.21210074,1.0193224
0.0,-0.1,1.5,0.5235987755982988,0.0,0,0.009970533,-1.0632957,0.09519329,-1.5551643,0.6678222,-0.05678569,-0.5119293,1.1035788,-0.6099268,1.096026,-0.27708936,0.32876855,-0.20333248,1.0846274
0.0,-0.1,1.5,0.5235987755982988,0.0,0,0.015865186,-1.0800546,0.13763131,-1.5223426,0.66660136,-0.045813937,-0.30324793,1.2591895,-0.6059732,1.0161763,-0.32001024,-0.08082135,-0.14984025,0.79851055
0.0,-0.1,1.5,0.5235987755982988,0.0,0,0.034392454,-0.9858169,0.15881385,-1.6671479,0.52920204,-0.06834948,-0.3003177,1.0962301,-0.65844524,1.0462842,-0.32072064,0.049715064,-0.18856348,1.000925
0.0,-0.1,1.5,0.5235987755982988,0.0,0,0.028485443,-0.8393838,0.12864293,-1.7397547,0.4983389,-0.1370394,-0.23958024,1.0613841,-0.62887186,1.2570544,-0.33146697,0.10417134,-0.20545116,0.9389305
0.0,-0.1,1.5,0.5235987755982988,0.0,0,0.026547825,-0.97751063,0.14120585,-1.6690373,0.36389992,-0.20441216,-0.41262662,1.0799875,-0.62917477,1.1148682,-0.40538108,0.07930996,-0.18279307,0.98820657
0.0,-0.1,1.5,0.5235987755982988,0.0,0,0.018704623,-1.0618956,0.12105045,-1.4848906,0.45984036,-0.086985454,-0.44641387,1.0224512,-0.616514,1.1542104,-0.34990516,0.25853103,-0.18065791,1.0918097
0.0,-0.1,1.5,0.5235987755982988,0.0,0,0.030997336,-1.0607553,0.104633555,-1.5658355,0.5657624,-0.055335242,-0.6415572,1.1885176,-0.62020177,1.0357412,-0.23242292,0.3907757,-0.1687409,1.0492268
0.0,-0.1,1.5,0.5235987755982988,0.0,0,0.017468287,-1.0543053,0.08062821,-1.5149361,0.55170625,-0.15085196,-0.3366058,1.2272232,-0.6223032,1.0626053,-0.27474642,0.13585286,-0.23101272,1.1624813
0.0,-0.1,1.5,0.5235987755982988,0.0,0,0.054178584,-1.020226,0.168365,-1.5636164,0.13400328,-0.2283463,-0.5877237,1.0658317,-0.5879077,1.1626494,-0.40420005,0.3966203,-0.21432233,0.94069177
0.0,-0.1,1.5,0.5235987755982988,0.0,0,0.016422026,-0.99659544,0.10865253,-1.6062042,0.6187895,-0.08808992,-0.46592093,1.0159707,-0.5675285,1.194743,-0.28921667,0.2095968,-0.19027835,1.2146741
0.0,-0.1,1.5,0.5235987755982988,0.0,0,0.037053842,-1.004607,0.17664072,-1.5832957,0.6101297,-0.05871319,-0.320819,1.0791894,-0.6174558,1.1394155,-0.26781884,0.32645923,-0.20955272,1.137033
0.0,-0.1,1.5,0.5235987755982988,0.0,0,0.056972824,-0.9790107,0.13053198,-1.6208991,0.5515499,-0.011635806,-0.37587452,1.0637685,-0.6015802,1.19917,-0.401261,0.22445218,-0.1834515,1.0078007
0.0,-0.1,1.5,0.5235987755982988,0.0,0,0.025366757,-0.98212093,0.24141993,-1.6162106,0.42658094,-0.12007201,-0.40348348,1.1437783,-0.6488553,1.0354044,-0.31685752,-0.24592118,-0.17261833,0.9923694
0.0,-0.1,1.5,0.5235987755982988,0.0,0,-0.003937628,-1.0398768,0.10965551,-1.5663168,0.31366903,-0.13039559,-0.30572248,1.2137295,-0.6595906,1.0494567,-0.38214153,0.06440738,-0.16751385,1.1253264
0.0,-0.1,1.5,0.5235987755982988,0.0,0,0.02482151,-0.9881017,0.20074357,-1.5627139,0.5170914,-0.09099606,-0.3083457,1.112245,-0.6189353,1.1418835,-0.31538686,0.062202357,-0.21403323,0.8687139
0.0,-0.1,1.5,0.5235987755982988,0.0,0,0.011465325,-1.0414342,0.16323872,-1.5421458,0.46923712,-0.10833567,-0.33646378,1.0928162,-0.62941134,1.0800095,-0.2725902,0.14906213,-0.23873429,0.8108732
0.0,-0.1,1.5,0.5235987755982988,0.0,0,0.034726467,-0.9543507,0.17742369,-1.6272519,0.18425809,-0.27540374,-0.37951422,1.156956,-0.63421303,1.1199759,-0.3766325,0.24209768,-0.22048084,1.0197365
0.0,-0.1,1.5,0.5235987755982988,0.0,0,0.034464564,-0.97231925,0.09875688,-1.6346315,0.59400606,-0.15787292,-0.54859966,1.0174295,-0.59004587,1.1619296,-0.23318316,0.21967468,-0.15256314,0.9049673
0.0,-0.1,1.5,0.5235987755982988,0.0,0,0.029103408,-1.0366495,0.1373475,-1.5713553,0.2956059,-0.14183147,-0.3316252,1.1576873,-0.6090941,1.0981061,-0.36976573,0.36294186,-0.1674266,0.94488466
0.0,-0.1,1.5,0.5235987755982988,0.0,0,0.044634346,-0.99432653,0.14316753,-1.5821416,0.554596,-0.19262394,-0.39573076,1.1401731,-0.6003614,1.1122369,-0.3133351,0.24773555,-0.19986533,1.0818467
0.0,-0.1,1.5,0.5235987755982988,0.0,0,0.028986713,-0.9729052,0.07899114,-1.5405607,0.27925253,-0.046050314,-0.6521779,1.136498,-0.65075094,1.1916264,-0.37212712,0.0023826605,-0.20513582,1.0096803
0.0,-0.1,1.5,0.5235987755982988,0.0,0,0.034873247,-1.0497533,0.10616507,-1.5543702,0.2949076,-0.0714396,-0.33363497,1.1666101,-0.571379,1.1086277,-0.30862942,0.12113247,-0.209682,0.82209873
0.0,-0.1,1.5,0.5235987755982988,0.0,0,0.026205022,-0.94072044,0.12963882,-1.6650659,0.14447859,-0.1706229,-0.31145775,1.1123654,-0.5900476,1.1529293,-0.3516622,-0.014622054,-0.18861032,1.0611243
0.0,-0.1,1.5,0.5235987755982988,0.0,0,0.020438725,-1.0115585,0.12286115,-1.5786991,0.25157273,-0.09833735,-0.48533237,1.1218448,-0.62184054,1.1016805,-0.2624625,0.10952421,-0.20105694,1.2689006
0.0,-0.1,1.5,0.5235987755982988,0.0,0,0.03138211,-0.9653777,0.2181594,-1.6868284,0.10291611,-0.04483627,-0.34352827,1.0901732,-0.5958554,1.1765339,-0.3947519,0.102124654,-0.20841496,0.8990186
0.0,-0.1,1.5,0.5235987755982988,0.0,0,0.036144633,-1.0333556,0.12454425,-1.5243073,0.18612376,-0.16540954,-0.2842496,1.160427,-0.57001376,1.171561,-0.33774254,0.30688736,-0.22620575,1.1389658
0.0,-0.1,1.5,0.5235987755982988,0.0,0,0.015268675,-1.0560062,0.11976564,-1.5437791,0.26012945,-0.030576874,-0.2398652,1.0970863,-0.60071707,1.1006311,-0.14532296,0.08411154,-0.20763743,0.9405956
0.0,-0.1,1.5,0.5235987755982988,0.0,0,0.035994094,-0.9447727,0.11438567,-1.686685,0.49584725,-0.12993196,-0.42982963,1.0360014,-0.6059705,1.1559231,-0.3258709,0.20785873,-0.15752769,1.2863312
0.0,-0.1,1.5,0.5235987755982988,0.0,0,0.035433028,-0.9451456,0.1357774,-1.6909487,0.54087687,-0.22766644,-0.46780202,1.0999794,-0.5946714,1.1174171,-0.3201769,-0.0013315846,-0.15099958,1.226868
0.0,-0.1,1.5,0.5235987755982988,0.0,0,0.018977413,-0.9366461,0.13824885,-1.6539983,0.5989232,-0.20428084,-0.27369756,0.99490666,-0.6145229,1.2136497,-0.35873222,0.25930327,-0.23356459,1.1934344
0.0,-0.1,1.5,0.5235987755982988,0.0,0,0.047781106,-0.98909885,0.13874614,-1.5715396,0.21223179,-0.1424002,-0.5851147,1.209077,-0.56916213,1.1344911,-0.36273327,-0.30973852,-0.16350497,0.94100535
0.0,-0.1,1.5,0.5235987755982988,0.0,0,0.016070696,-0.9872795,0.10903917,-1.6207646,0.54509526,-0.058519296,-0.50700146,1.2358662,-0.60955304,1.0939132,-0.27114052,0.18193303,-0.1951701,1.1544561
0.0,-0.1,1.5,0.5235987755982988,0.0,0,0.053206094,-0.95077664,0.15301993,-1.6158272,0.6814475,-0.13760243,-0.38141537,1.180713,-0.58757687,1.1270801,-0.2558568,-0.048149347,-0.2112508,0.9419255
0.0,-0.1,1.5,0.5235987755982988,0.0,0,0.01851986,-0.9666955,0.15321375,-1.642467,0.76144564,-0.20389518,-0.3907408,1.1052109,-0.6321271,1.1154783,-0.28646272,0.3912245,-0.17755648,0.8971128
0.0,-0.1,1.5,0.5235987755982988,0.0,0,0.04318953,-0.95042324,0.10078181,-1.5937765,-0.086482614,-0.108255595,-0.5832059,1.185264,-0.60010767,1.1431351,-0.22868785,0.0830531,-0.18507405,1.0738326
0.0,-0.1,1.5,0.5235987755982988,0.0,0,0.029679341,-0.94436544,0.115026094,-1.6836481,0.48259422,-0.101750806,-0.24641925,1.059385,-0.6587589,1.0889794,-0.2595519,-0.014323718,-0.18576822,1.0021006
0.0,-0.1,1.5,0.5235987755982988,0.0,0,0.052101247,-1.0054647,0.13733387,-1.5257921,-0.13013819,-0.1329633,-0.31414068,1.1593969,-0.6619736,1.1127439,-0.27956742,0.29552034,-0.24440159,1.1456598
0.0,-0.1,1.5,0.5235987755982988,0.0,0,0.02745124,-0.94878083,0.13313061,-1.6008388,0.018424993,-0.14942907,-0.5467224,1.1232631,-0.61773145,1.1810454,-0.3385,0.25527173,-0.18901898,1.0089242
0.0,-0.1,1.5,0.5235987755982988,0.0,0,0.024218814,-0.9838634,0.10367909,-1.5543171,0.49164975,-0.0967902,-0.52493536,1.0980278,-0.6155449,1.2046785,-0.25704622,0.3673276,-0.2519689,0.9345444
0.0,-0.1,1.5,0.5235987755982988,0.0,0,-0.0010128561,-0.917061,0.10040125,-1.6699762,0.46129948,-0.18301684,-0.24235255,1.1404208,-0.59649336,1.166211,-0.27590576,0.34932873,-0.20545557,0.9030856
0.0,-0.1,1.5,0.5235987755982988,0.0,0,0.04554549,-1.0447266,0.075959295,-1.506282,0.1828036,-0.054151732,-0.63224614,1.1502358,-0.63668865,1.1073489,-0.30460075,0.15221076,-0.20168969,0.7713778
0.0,-0.1,1.5,0.5235987755982988,0.0,0,0.055399127,-0.9824462,0.13422608,-1.586123,0.4935912,-0.13624199,-0.11288904,1.1684202,-0.648294,1.0803392,-0.2758379,0.051359043,-0.2028511,1.1052742
0.0,-0.1,1.5,0.5235987755982988,0.0,0,0.05355978,-1.0587713,0.10693153,-1.6423953,0.77620685,-0.2452191,-0.34886038,1.1528434,-0.6210464,1.2196234,-0.3058845,0.18754247,-0.22331125,0.98478967
0.0,-0.1,1.5,0.5235987755982988,0.0,0,0.014765491,-0.9375976,0.16193894,-1.7696909,0.46118885,-0.22162868,-0.44911763,1.1321435,-0.5943065,1.0662407,-0.3617858,0.110240445,-0.19962338,0.60232955
0.0,-0.1,1.5,0.5235987755982988,0.0,0,0.049617987,-0.98191667,0.10331256,-1.5602167,0.22855785,-0.18612744,-0.39998907,1.1632777,-0.6107108,1.1993837,-0.2848004,0.18845552,-0.17415038,1.0651019
0.0,-0.1,1.5,0.5235987755982988,0.0,0,0.029633176,-0.9207355,0.107695766,-1.7627454,0.31454858,-0.027399879,-0.28291517,1.053115,-0.6349959,1.1577332,-0.34865868,0.16286813,-0.14595602,0.99755645
0.0,-0.1,1.5,0.5235987755982988,0.0,0,0.034816314,-0.8959576,0.1119279,-1.7359585,0.32636312,-0.1535994,-0.55605525,1.136787,-0.62235886,1.1861576,-0.26978213,0.26496553,-0.24653745,0.9526739
0.0,-0.1,1.5,0.5235987755982988,0.0,0,0.037424292,-0.95695096,0.14930321,-1.6619279,0.6287756,-0.07851372,-0.83606863,1.0506302,-0.6069646,1.1384957,-0.24713978,-0.15970445,-0.21704125,0.8743724
0.0,-0.1,1.5,0.5235987755982988,0.0,0,0.037268322,-0.98068726,0.13321573,-1.5292459,0.46244258,-0.06256683,-0.62820035,1.1284467,-0.59115416,1.1603327,-0.18617015,0.19159617,-0.19117329,0.98158044
0.0,-0.1,1.5,0.5235987755982988,0.0,0,0.007446352,-1.0864985,0.16761443,-1.4353572,0.3971449,-0.13433778,-0.36839744,1.1701005,-0.5873827,1.1337737,-0.30841216,0.40152928,-0.20911849,0.9143564
0.0,-0.1,1.5,0.5235987755982988,0.0,0,0.06298886,-0.8881247,0.09458916,-1.7885138,0.35995358,-0.14092295,-0.47916043,1.1295553,-0.6337594,1.1571025,-0.3171936,0.21384706,-0.15955618,0.9999551
0.0,-0.1,1.5,0.5235987755982988,0.0,0,0.051737845,-0.95084244,0.10881132,-1.6110724,0.32296118,-0.17432149,-0.47028103,1.2051004,-0.62498266,1.0984839,-0.21565421,0.20441921,-0.19727021,1.2622365
0.0,-0.1,1.5,0.5235987755982988,0.0,0,0.043415897,-0.97804224,0.10290884,-1.5676214,0.14435135,-0.10980629,-0.47208366,1.1981725,-0.61532927,1.1562583,-0.30216965,0.46130368,-0.20221674,0.92923737
0.0,-0.1,1.5,0.5235987755982988,0.0,0,0.040174715,-0.98291546,0.067496054,-1.560552,0.25437045,-0.24643882,-0.3941137,0.97714543,-0.6186248,1.2121111,-0.27671638,0.016090618,-0.19954723,1.1872311
0.0,-0.1,1.5,0.5235987755982988,0.0,0,0.029152466,-1.0480303,0.119628206,-1.6815993,0.71134156,0.020102361,-0.42143798,1.1799189,-0.6208216,0.8947047,-0.31663793,-0.15626042,-0.23844232,0.88498586
0.0,-0.1,1.5,0.5235987755982988,0.0,0,0.023436584,-1.0231253,0.08160462,-1.7439045,0.52568877,-0.050595306,-0.31445876,1.1897259,-0.65168697,0.90837055,-0.24298991,0.025656193,-0.17880104,0.88894117
0.0,-0.1,1.5,0.5235987755982988,0.0,0,0.0777201,-1.0635227,0.096257,-1.6058149,0.3081023,-0.1038518,-0.31876895,1.0898083,-0.65160275,1.0199531,-0.29277438,0.043729767,-0.15153766,0.9267774
0.0,-0.1,1.5,0.5235987755982988,0.0,0,0.061849624,-0.9007522,0.14226918,-1.6126511,0.5577445,0.0012081891,-0.48740473,1.2350739,-0.6213195,1.190513,-0.21329874,-0.20743443,-0.18181275,0.9254866
0.0,-0.1,1.5,0.5235987755982988,0.0,0,0.005269268,-0.94478434,0.13599005,-1.8285933,0.6464188,-0.11539011,-0.47292307,1.157214,-0.62545836,0.97687393,-0.34655923,0.24124324,-0.18267329,0.9506044
0.0,-0.1,1.5,0.5235987755982988,0.0,0,0.02309328,-0.9721257,0.16507833,-1.7512678,0.22328842,-0.11277105,-0.1400706,1.1517428,-0.61462516,1.003666,-0.3745866,0.004731409,-0.1767987,1.1114312
0.0,-0.1,1.5,0.5235987755982988,0.0,0,0.031462602,-0.9074031,0.13528544,-1.7285405,0.50287735,-0.1050685,-0.41725665,1.1926693,-0.6130923,1.2612264,-0.5004156,0.00680859,-0.14674246,1.1053761
0.0,-0.1,1.5,0.5235987755982988,0.0,0,0.00333869,-0.997432,0.17706864,-1.5394076,0.2983924,-0.09085238,-0.36960247,1.1188556,-0.62827873,1.0727485,-0.1528725,-0.033572778,-0.17913058,0.95452756
0.0,-0.1,1.5,0.5235987755982988,0.0,0,0.033947613,-0.85362935,0.1360679,-1.8497359,0.4066631,-0.18418209,-0.4152876,1.2277927,-0.6000006,1.2449867,-0.45077312,0.07440233,-0.195489,1.0493829
0.0,-0.1,1.5,0.5235987755982988,0.0,0,0.023275344,-1.0224522,0.109560244,-1.6480888,0.46984616,-0.0326189,-0.26473647,1.1344465,-0.61735976,1.0401219,-0.26505548,0.03168935,-0.22937225,1.2388982
0.0,-0.1,1.5,0.5235987755982988,0.0,0,0.019765867,-1.0063515,0.1077046,-1.6989763,0.56213033,-0.11195084,-0.47208625,1.2374934,-0.6349478,0.95501816,-0.24395305,0.16460855,-0.18999553,0.86936027
0.0,-0.1,1.5,0.5235987755982988,0.0,0,0.03781579,-0.9127237,0.1508213,-1.7418486,0.34055611,-0.13716288,-0.34433845,1.1564832,-0.6006583,1.1695085,-0.41279152,-0.1649722,-0.18942273,1.0188948
0.0,-0.1,1.5,0.5235987755982988,0.0,0,0.003906537,-0.94110495,0.14796107,-1.7044735,0.40712124,-0.099861436,-0.42246357,1.113994,-0.58129716,1.1152,-0.28898183,0.060327224,-0.20439996,0.9752179
0.0,-0.1,1.5,0.5235987755982988,0.0,0,0.022480175,-0.9051592,0.10964086,-1.7674775,0.46900168,-0.09562882,-0.5557679,1.1218796,-0.6310614,1.083392,-0.24366397,0.2156171,-0.1905594,1.2126923
0.0,-0.1,1.5,0.5235987755982988,0.0,0,0.032537516,-0.9537849,0.17179278,-1.6784422,0.17767642,-0.070151165,-0.32738498,1.0904675,-0.67595834,1.1093814,-0.33571905,0.005503253,-0.19914024,1.2528329
0.0,-0.1,1.5,0.5235987755982988,0.0,0,0.06123464,-1.0081997,0.17697509,-1.5727079,0.50401205,-0.09843027,-0.51697785,1.204204,-0.63202655,1.0980506,-0.28355175,-0.025858525,-0.21801333,1.3615772
0.0,-0.1,1.5,0.5235987755982988,0.0,0,0.02812603,-0.98691857,0.13151416,-1.594821,0.1479992,-0.13074146,-0.5813843,1.0667148,-0.6829029,1.0908285,-0.3428017,0.075957045,-0.19413409,0.7623894
0.0,-0.1,1.5,0.5235987755982988,0.0,0,0.047763728,-0.92868066,0.118297175,-1.6522496,0.10971567,-0.12004487,-0.26563847,1.1544054,-0.56127447,1.2394745,-0.36932936,-0.045310013,-0.22314495,0.89101416
0.0,-0.1,1.5,0.5235987755982988,0.0,0,0.020737749,-0.8563562,0.07792416,-1.5646285,0.199051,-0.07118169,-0.44668964,1.1503942,-0.6334013,1.3879766,-0.28252348,0.009321307,-0.22951247,0.9109181
0.0,-0.1,1.5,0.5235987755982988,0.0,0,0.020737162,-1.0478117,0.17222294,-1.6789073,0.6859839,-0.09713538,-0.3617198,1.108452,-0.5612524,1.014035,-0.33495086,0.028631551,-0.14110331,1.1411935
0.0,-0.1,1.5,0.5235987755982988,0.0,0,0.04344726,-1.0171491,0.1078058,-1.7392555,0.33606163,-0.060304765,-0.35357967,1.0613743,-0.6184293,1.0713562,-0.26536712,0.2146172,-0.1915135,1.3803002
0.0,-0.1,1.5,0.5235987755982988,0.0,0,0.012950302,-1.0309174,0.10979973,-1.6653574,0.34958178,-0.13337524,-0.28697014,1.1607926,-0.6393529,1.0190843,-0.3863915,0.46007472,-0.21008408,1.1074221
0.0,-0.1,1.5,0.5235987755982988,0.0,0,0.0058562714,-0.9878873,0.092054315,-1.6667644,0.6845863,-0.1939176,-0.6191416,1.1267629,-0.622168,1.1186877,-0.4620205,0.39103442,-0.17648162,1.124725
0.0,-0.1,1.5,0.5235987755982988,0.0,0,-0.0065337014,-0.9885421,0.15476617,-1.553988,0.057249576,-0.14057711,-0.20586182,1.1505481,-0.6342362,1.1651093,-0.3395661,0.34622645,-0.16883743,0.9623928
0.0,-0.1,1.5,0.5235987755982988,0.0,0,0.049435224,-0.9539244,0.10789751,-1.7142568,0.1964844,-0.221332,-0.25021434,1.1166068,-0.6214915,1.0275075,-0.3183838,-0.05062806,-0.19241819,0.9615998
0.0,-0.1,1.5,0.5235987755982988,0.0,0,0.013998224,-0.9557717,0.10255225,-1.7045358,0.7358146,-0.099155515,-0.38770038,1.2038726,-0.60937214,1.2357678,-0.5003983,-0.3308229,-0.24642621,1.0367196
0.0,-0.1,1.5,0.5235987755982988,0.0,0,0.014002135,-0.9607623,0.12008365,-1.6688793,0.41403407,-0.1987789,-0.3181135,1.0612706,-0.58480895,1.1724144,-0.34972504,-0.012347328,-0.22545287,0.8309693
0.0,-0.1,1.5,0.5235987755982988,0.0,0,0.052626945,-0.92199683,0.19182813,-1.6689956,0.44163036,-0.08401505,-0.40045068,1.1849025,-0.64681405,1.154413,-0.17388672,0.19964561,-0.18399413,0.8953206
0.0,-0.1,1.5,0.5235987755982988,0.0,0,0.030569222,-0.9103682,0.15610282,-1.7285509,0.39231822,-0.12892768,-0.42084596,1.1029861,-0.6449552,1.1425178,-0.27198112,0.22627954,-0.2395055,0.8715755
0.0,-0.1,1.5,0.5235987755982988,0.0,0,0.05137039,-0.92421335,0.111053325,-1.5963607,0.14773007,-0.16223039,-0.5904017,1.1148149,-0.5856236,1.2067724,-0.27161038,0.2353304,-0.23426706,1.1694536
0.0,-0.1,1.5,0.5235987755982988,0.0,0,0.007626346,-0.85294205,0.108571395,-1.7604535,0.72710806,-0.06757867,-0.20530377,1.0804491,-0.663474,1.1749866,-0.24406056,0.13404831,-0.19861864,0.99700946
0.0,-0.1,1.5,0.5235987755982988,0.0,0,0.027195815,-0.94478005,0.07309231,-1.6360054,0.5526605,-0.09729493,-0.23945928,1.0465155,-0.6300966,1.1568102,-0.31425458,-0.0006958591,-0.1613534,1.020343
0.0,-0.1,1.5,0.5235987755982988,0.0,0,0.0062583853,-1.0478407,0.16446015,-1.6789728,0.6703491,-0.042270236,-0.56426907,1.049903,-0.6015288,1.0854772,-0.3528209,0.12640797,-0.20511436,1.2501338
0.0,-0.1,1.5,0.5235987755982988,0.0,0,0.045312833,-1.0296643,0.09809631,-1.650175,0.50639087,-0.19260034,-0.401514,1.1782137,-0.5841252,1.0583766,-0.43081912,0.16518824,-0.23843648,1.0536848
0.0,-0.1,1.5,0.5235987755982988,0.0,0,0.03098764,-0.910493,0.14827994,-1.5867808,0.39808446,-0.1615599,-0.4734332,1.0673991,-0.6775097,1.2068658,-0.24178106,0.2365002,-0.17218117,1.3113518
0.0,-0.1,1.5,0.5235987755982988,0.0,0,0.039250363,-0.9261847,0.15918498,-1.6475725,0.4799272,-0.15634784,-0.37011954,1.1756877,-0.6191854,1.2256467,-0.35846084,0.22506304,-0.17641132,0.9708069
0.0,-0.1,1.5,0.5235987755982988,0.0,0,0.020241449,-0.9705856,0.09068223,-1.6449162,0.5165056,-0.13706826,-0.24359643,1.2145371,-0.65835565,1.1124806,-0.4224691,-0.23217118,-0.1616941,0.8625953
0.0,-0.1,1.5,0.5235987755982988,0.0,0,0.03380814,-0.97267723,0.121096045,-1.551447,0.23652963,-0.14640842,-0.38608667,1.1657488,-0.6084478,1.1395931,-0.26741153,0.39800882,-0.18939261,1.2238343
0.0,-0.1,1.5,0.5235987755982988,0.0,0,0.028858064,-0.9347364,0.15957977,-1.7035124,0.38333258,-0.033646733,-0.35811666,1.1409322,-0.6440062,1.1422046,-0.40855086,-0.034338906,-0.17867514,1.235816
0.0,-0.1,1.5,0.5235987755982988,0.0,0,0.031825885,-0.89406985,0.14799434,-1.7138573,0.3366517,-0.24724966,-0.473729,1.191606,-0.6696934,1.0983,-0.25810942,0.31737325,-0.23778208,1.1510899
0.0,-0.1,1.5,0.5235987755982988,0.0,0,0.03185639,-0.98949313,0.10435411,-1.7295038,0.15013665,-0.09426013,-0.41752785,1.0827595,-0.61559653,1.048947,-0.24657671,0.039410304,-0.18407278,0.8513235
0.0,-0.1,1.5,0.5235987755982988,0.0,0,0.053920865,-1.0182443,0.16057196,-1.6798139,0.5393517,-0.049477257,-0.45041755,1.1160026,-0.5809434,1.1149573,-0.35625485,0.3531549,-0.19281174,1.159045
0.0,-0.1,1.5,0.5235987755982988,0.0,0,0.007878808,-0.855319,0.13298573,-1.6188596,0.28075132,-0.09490768,-0.4255764,1.1111178,-0.6415371,1.2926811,-0.2993372,0.34908783,-0.16729143,1.1169548
0.0,-0.1,1.5,0.5235987755982988,0.0,0,0.03190169,-0.8948735,0.14405134,-1.6360182,0.4629231,-0.063490234,-0.23738891,0.98180825,-0.6416627,1.2153014,-0.29573423,0.022396067,-0.19123513,1.223729
0.0,-0.1,1.5,0.5235987755982988,0.0,0,0.029402312,-1.0090666,0.13186511,-1.7280756,0.27506977,-0.09863615,-0.30116314,1.1922854,-0.64212686,0.9931423,-0.37333697,0.0048923893,-0.23232074,1.124207
0.0,-0.1,1.5,0.5235987755982988,0.0,0,0.021207403,-0.93614286,0.12548931,-1.6951656,0.28616017,-0.14835963,-0.32605964,1.1136373,-0.6195184,1.1227647,-0.30757707,-0.04367029,-0.20203844,1.321226
0.0,-0.1,1.5,0.5235987755982988,0.0,0,0.041941967,-1.0383205,0.1255627,-1.4124101,0.5048767,-0.12033744,-0.6213512,1.1276662,-0.6051588,1.1362798,-0.23115641,0.044596486,-0.2241878,1.3143842
0.0,-0.1,1.5,0.5235987755982988,0.0,0,0.021769283,-0.9779164,0.164039,-1.561465,0.4013569,-0.1401249,-0.3982075,1.0777794,-0.61851007,1.150194,-0.28036937,0.16521652,-0.18146491,1.0175766
0.0,-0.1,1.5,0.5235987755982988,0.0,0,0.03913266,-1.0529597,0.099539444,-1.4002712,0.26099965,-0.097545594,-0.5280529,1.1325105,-0.61285985,1.2505782,-0.4148133,-0.2539684,-0.1870508,1.0009785
0.0,-0.1,1.5,0.5235987755982988,0.0,0,0.03913266,-1.0529597,0.099539444,-1.4002712,0.26099965,-0.097545594,-0.5280529,1.1325105,-0.61285985,1.2505782,-0.4148133,-0.2539684,-0.1870508,1.0009785
0.0,-0.1,1.5,0.5235987755982988,0.0,0,0.03913266,-1.0529597,0.099539444,-1.4002712,0.26099965,-0.097545594,-0.5280529,1.1325105,-0.61285985,1.2505782,-0.4148133,-0.2539684,-0.1870508,1.0009785
0.0,-0.1,1.5,0.5235987755982988,0.0,0,0.03913266,-1.0529597,0.099539444,-1.4002712,0.26099965,-0.097545594,-0.5280529,1.1325105,-0.61285985,1.2505782,-0.4148133,-0.2539684,-0.1870508,1.0009785
0.0,-0.1,1.5,0.5235987755982988,0.0,0,0.03913266,-1.0529597,0.099539444,-1.4002712,0.26099965,-0.097545594,-0.5280529,1.1325105,-0.61285985,1.2505782,-0.4148133,-0.2539684,-0.1870508,1.0009785
0.0,-0.1,1.5,0.5235987755982988,0.0,0,0.03913266,-1.0529597,0.099539444,-1.4002712,0.26099965,-0.097545594,-0.5280529,1.1325105,-0.61285985,1.2505782,-0.4148133,-0.2539684,-0.1870508,1.0009785
0.0,-0.1,1.5,0.5235987755982988,0.0,0,0.03913266,-1.0529597,0.099539444,-1.4002712,0.26099965,-0.097545594,-0.5280529,1.1325105,-0.61285985,1.2505782,-0.4148133,-0.2539684,-0.1870508,1.0009785
0.0,-0.1,1.5,0.5235987755982988,0.0,0,0.019726353,-1.1252064,0.17716768,-1.2573507,0.60524154,-0.1985827,-0.15879504,1.1659324,-0.61265826,1.2756975,-0.42459592,-0.01961583,-0.20799446,1.1860569
0.0,-0.1,1.5,0.5235987755982988,0.0,0,0.019726353,-1.1252064,0.17716768,-1.2573507,0.60524154,-0.1985827,-0.15879504,1.1659324,-0.61265826,1.2756975,-0.42459592,-0.01961583,-0.20799446,1.1860569
0.0,-0.1,1.5,0.5235987755982988,0.0,0,0.019726353,-1.1252064,0.17716768,-1.2573507,0.60524154,-0.1985827,-0.15879504,1.1659324,-0.61265826,1.2756975,-0.42459592,-0.01961583,-0.20799446,1.1860569
0.0,-0.1,1.5,0.5235987755982988,0.0,0,0.019726353,-1.1252064,0.17716768,-1.2573507,0.60524154,-0.1985827,-0.15879504,1.1659324,-0.61265826,1.2756975,-0.42459592,-0.01961583,-0.20799446,1.1860569
0.0,-0.1,1.5,0.5235987755982988,0.0,0,0.019726353,-1.1252064,0.17716768,-1.2573507,0.60524154,-0.1985827,-0.15879504,1.1659324,-0.61265826,1.2756975,-0.42459592,-0.01961583,-0.20799446,1.1860569
0.0,-0.1,1.5,0.5235987755982988,0.0,0,0.019726353,-1.1252064,0.17716768,-1.2573507,0.60524154,-0.1985827,-0.15879504,1.1659324,-0.61265826,1.2756975,-0.42459592,-0.01961583,-0.20799446,1.1860569
0.0,-0.1,1.5,0.5235987755982988,0.0,0,0.03545838,-0.99784327,0.109740324,-1.5260566,0.10802828,-0.1753556,-0.3515655,1.2052273,-0.62285805,1.1508267,-0.33472246,-0.13157368,-0.20063022,0.9447108
0.0,-0.1,1.5,0.5235987755982988,0.0,0,0.03545838,-0.99784327,0.109740324,-1.5260566,0.10802828,-0.1753556,-0.3515655,1.2052273,-0.62285805,1.1508267,-0.33472246,-0.13157368,-0.20063022,0.9447108
0.0,-0.1,1.5,0.5235987755982988,0.0,0,0.03545838,-0.99784327,0.109740324,-1.5260566,0.10802828,-0.1753556,-0.3515655,1.2052273,-0.62285805,1.1508267,-0.33472246,-0.13157368,-0.20063022,0.9447108
0.0,-0.1,1.5,0.5235987755982988,0.0,0,0.03545838,-0.99784327,0.109740324,-1.5260566,0.10802828,-0.1753556,-0.3515655,1.2052273,-0.62285805,1.1508267,-0.33472246,-0.13157368,-0.20063022,0.9447108
0.0,-0.1,1.5,0.5235987755982988,0.0,0,0.03545838,-0.99784327,0.109740324,-1.5260566,0.10802828,-0.1753556,-0.3515655,1.2052273,-0.62285805,1.1508267,-0.33472246,-0.13157368,-0.20063022,0.9447108
0.0,-0.1,1.5,0.5235987755982988,0.0,0,0.03545838,-0.99784327,0.109740324,-1.5260566,0.10802828,-0.1753556,-0.3515655,1.2052273,-0.62285805,1.1508267,-0.33472246,-0.13157368,-0.20063022,0.9447108
0.0,-0.1,1.5,0.5235987755982988,0.0,0,0.03545838,-0.99784327,0.109740324,-1.5260566,0.10802828,-0.1753556,-0.3515655,1.2052273,-0.62285805,1.1508267,-0.33472246,-0.13157368,-0.20063022,0.9447108
0.0,-0.1,1.5,0.5235987755982988,0.0,0,0.061553713,-1.1452289,0.15887749,-1.2142261,-0.062587015,-0.07402639,-0.4614766,1.2408886,-0.60717976,1.2575687,-0.32245135,0.18299034,-0.25334293,0.80541885
0.0,-0.1,1.5,0.5235987755982988,0.0,0,0.061553713,-1.1452289,0.15887749,-1.2142261,-0.062587015,-0.07402639,-0.4614766,1.2408886,-0.60717976,1.2575687,-0.32245135,0.18299034,-0.25334293,0.80541885
0.0,-0.1,1.5,0.5235987755982988,0.0,0,0.061553713,-1.1452289,0.15887749,-1.2142261,-0.062587015,-0.07402639,-0.4614766,1.2408886,-0.60717976,1.2575687,-0.32245135,0.18299034,-0.25334293,0.80541885
0.0,-0.1,1.5,0.5235987755982988,0.0,0,0.061553713,-1.1452289,0.15887749,-1.2142261,-0.062587015,-0.07402639,-0.4614766,1.2408886,-0.60717976,1.2575687,-0.32245135,0.18299034,-0.25334293,0.80541885
0.0,-0.1,1.5,0.5235987755982988,0.0,0,0.061553713,-1.1452289,0.15887749,-1.2142261,-0.062587015,-0.07402639,-0.4614766,1.2408886,-0.60717976,1.2575687,-0.32245135,0.18299034,-0.25334293,0.80541885
0.0,-0.1,1.5,0.5235987755982988,0.0,0,0.061553713,-1.1452289,0.15887749,-1.2142261,-0.062587015,-0.07402639,-0.4614766,1.2408886,-0.60717976,1.2575687,-0.32245135,0.18299034,-0.25334293,0.80541885
0.0,-0.1,1.5,0.5235987755982988,0.0,0,0.061553713,-1.1452289,0.15887749,-1.2142261,-0.062587015,-0.07402639,-0.4614766,1.2408886,-0.60717976,1.2575687,-0.32245135,0.18299034,-0.25334293,0.80541885
0.0,-0.1,1.5,0.5235987755982988,0.0,0,0.053565256,-1.0297455,0.17479204,-1.5267038,0.7386258,-0.14378656,-0.59245795,1.049745,-0.6361515,1.1535859,-0.3636967,0.25181076,-0.1760528,1.0812404
0.0,-0.1,1.5,0.5235987755982988,0.0,0,0.053565256,-1.0297455,0.17479204,-1.5267038,0.7386258,-0.14378656,-0.59245795,1.049745,-0.6361515,1.1535859,-0.3636967,0.25181076,-0.1760528,1.0812404
0.0,-0.1,1.5,0.5235987755982988,0.0,0,0.053565256,-1.0297455,0.17479204,-1.5267038,0.7386258,-0.14378656,-0.59245795,1.049745,-0.6361515,1.1535859,-0.3636967,0.25181076,-0.1760528,1.0812404
0.0,-0.1,1.5,0.5235987755982988,0.0,0,0.053565256,-1.0297455,0.17479204,-1.5267038,0.7386258,-0.14378656,-0.59245795,1.049745,-0.6361515,1.1535859,-0.3636967,0.25181076,-0.1760528,1.0812404
0.0,-0.1,1.5,0.5235987755982988,0.0,0,0.053565256,-1.0297455,0.17479204,-1.5267038,0.7386258,-0.14378656,-0.59245795,1.049745,-0.6361515,1.1535859,-0.3636967,0.25181076,-0.1760528,1.0812404
