sanky1234/BimanualDexCatch/isaacgymenvs/cem_results/May31/football_pose_0.0_0.0_1.0_0.0_0.5235987755982988_0_2025-05-31.csv
x,y,z,roll,pitch,yaw,robot1/joint1,robot1/joint2,robot1/joint3,robot1/joint4,robot1/joint5,robot1/joint6,robot1/joint7,robot2/joint1,robot2/joint2,robot2/joint3,robot2/joint4,robot2/joint5,robot2/joint6,robot2/joint7
0.0,0.0,1.0,0.0,0.5235987755982988,0,-0.016077397,-1.0393673,-2.7088418,0.10634329,-0.08038777,1.5410733,0.29498112,2.7192678,-1.4197388,0.9797102,1.4185822,-0.042109463,1.1051455,2.00942
0.0,0.0,1.0,0.0,0.5235987755982988,0,-0.024480304,-1.0494369,-2.7621603,0.14963017,-0.16335052,1.5283413,0.38820362,2.7476943,-1.4139111,0.9789174,1.4200072,-0.12359407,1.0839753,1.8619808
0.0,0.0,1.0,0.0,0.5235987755982988,0,-0.00752119,-0.99347794,-2.76316,0.16825446,-0.13568658,1.5325301,0.39095202,2.628844,-1.4373785,0.967551,1.3484526,-0.057251144,1.0890042,2.0040252
0.0,0.0,1.0,0.0,0.5235987755982988,0,0.002010316,-1.0410244,-2.6597345,0.11895718,-0.14161345,1.5292667,0.3105295,2.7203977,-1.40874,0.98093826,1.3990079,-0.029412476,1.0992963,1.9708972
0.0,0.0,1.0,0.0,0.5235987755982988,0,-0.017757269,-1.0152258,-2.767442,0.109573275,-0.1577178,1.5287412,0.5205832,2.7184474,-1.4072387,0.96024495,1.4014683,-0.0483528,1.0840061,2.0007546
0.0,0.0,1.0,0.0,0.5235987755982988,0,-0.0014623769,-1.0182495,-2.7356975,0.089147165,-0.18333814,1.5182322,0.45587346,2.7654307,-1.3882247,0.985678,1.4199758,-0.10985767,1.0949388,1.903302
0.0,0.0,1.0,0.0,0.5235987755982988,0,-0.014315181,-1.0167491,-2.7773855,0.13882333,-0.21399294,1.5545567,0.3163491,2.7561429,-1.4204549,0.99142456,1.4196296,-0.08234291,1.0916749,1.8127718
0.0,0.0,1.0,0.0,0.5235987755982988,0,-0.014869379,-1.030348,-2.7277079,0.12814543,-0.13601829,1.5337992,0.44095698,2.7400725,-1.4323015,0.9891538,1.4201343,-0.053702023,1.0941057,1.9752882
0.0,0.0,1.0,0.0,0.5235987755982988,0,-0.023824073,-1.0406562,-2.7208297,0.12765808,-0.11347523,1.535655,0.25201786,2.543037,-1.4009475,0.9503282,1.3589172,-0.08882971,1.0995201,1.9637096
0.0,0.0,1.0,0.0,0.5235987755982988,0,-0.0060865083,-1.0205268,-2.7456307,0.114490144,-0.100184634,1.4961121,0.3795297,2.7267725,-1.4123355,0.96006423,1.4203278,-0.07211717,1.1057812,1.8503811
0.0,0.0,1.0,0.0,0.5235987755982988,0,-0.0019488982,-1.0087053,-2.6974812,0.1773902,-0.21891259,1.5618017,0.31497604,2.783787,-1.4043663,0.98450315,1.413574,-0.10592383,1.1037277,1.844155
0.0,0.0,1.0,0.0,0.5235987755982988,0,-0.011110108,-1.0225277,-2.7656384,0.15867284,-0.19032456,1.5162498,0.23956856,2.661572,-1.4193381,0.97050107,1.3797011,-0.030120727,1.0889606,1.842441
0.0,0.0,1.0,0.0,0.5235987755982988,0,-0.025250224,-1.0244156,-2.7866323,0.094577275,-0.22932288,1.5388038,0.350223,2.7491102,-1.3978193,0.9927508,1.4198214,-0.088264,1.076041,1.9519173
0.0,0.0,1.0,0.0,0.5235987755982988,0,-0.018028233,-1.0412098,-2.7978213,0.15640645,-0.14913002,1.5382414,0.36577073,2.7978158,-1.447099,0.9719317,1.4201428,-0.09680098,1.0939689,1.9381701
0.0,0.0,1.0,0.0,0.5235987755982988,0,-0.0070307325,-0.9922806,-2.7231727,0.15112342,-0.213577,1.5340819,0.3190419,2.5489397,-1.4228841,0.96952057,1.3041191,-0.031792358,1.1062783,1.9230506
0.0,0.0,1.0,0.0,0.5235987755982988,0,-0.02632243,-1.0329534,-2.8097405,0.14731345,-0.10079757,1.5421485,0.4911981,2.7285078,-1.3959911,0.9751988,1.4204913,-0.05269102,1.0819933,1.8500563
0.0,0.0,1.0,0.0,0.5235987755982988,0,-0.0031392416,-1.0152678,-2.7938242,0.14030418,-0.12076396,1.5468717,0.3263188,2.5298288,-1.444323,0.98156565,1.3448759,-0.03507351,1.0974698,1.9532174
0.0,0.0,1.0,0.0,0.5235987755982988,0,-0.014668597,-1.0174575,-2.7851899,0.12692948,-0.16012521,1.5497077,0.3612691,2.6633549,-1.417002,0.9769254,1.3978789,-0.051233634,1.1060596,1.8593966
0.0,0.0,1.0,0.0,0.5235987755982988,0,-0.0027170882,-1.0198644,-2.7740982,0.18084079,-0.24052326,1.5342216,0.2930905,2.8436904,-1.4290653,0.9753933,1.4167851,-0.15395641,1.0891236,1.9970105
0.0,0.0,1.0,0.0,0.5235987755982988,0,-0.001341485,-1.0177393,-2.7609303,0.14223148,-0.16714904,1.534774,0.37941325,2.5241017,-1.4276738,0.99147594,1.3219358,-0.07831182,1.0873961,1.9168174
0.0,0.0,1.0,0.0,0.5235987755982988,0,-0.0026568787,-1.0309147,-2.7489977,0.19283238,-0.22235966,1.5502722,0.4768171,2.7160418,-1.4152089,1.0206238,1.352949,-0.10228256,1.103429,1.9893907
0.0,0.0,1.0,0.0,0.5235987755982988,0,-0.002024409,-1.0443081,-2.7027774,0.16433448,-0.15609117,1.550226,0.26634613,2.6962693,-1.4039165,0.99115455,1.4096595,-0.08814726,1.071658,1.9280868
0.0,0.0,1.0,0.0,0.5235987755982988,0,-0.0074604056,-1.0457474,-2.6843178,0.10597692,-0.108168304,1.556517,0.33284712,2.7971642,-1.4114734,0.9905445,1.419759,-0.13724935,1.0850952,1.8967487
0.0,0.0,1.0,0.0,0.5235987755982988,0,-0.0070505794,-1.012819,-2.784973,0.15702581,-0.23486222,1.5596734,0.33482134,2.7703328,-1.4387376,0.976652,1.4196904,-0.085610054,1.08805,2.0077252
0.0,0.0,1.0,0.0,0.5235987755982988,0,-0.016179448,-1.0088204,-2.692066,0.16531195,-0.17007522,1.5329822,0.4545318,2.586645,-1.4498808,0.95930374,1.3252039,-0.028637405,1.0995857,1.9660889
0.0,0.0,1.0,0.0,0.5235987755982988,0,-0.0023162318,-1.0150689,-2.7195668,0.15407345,-0.15365256,1.525907,0.41360033,2.7048688,-1.4259984,0.9540534,1.3657101,-0.095244475,1.0924691,1.8448713
0.0,0.0,1.0,0.0,0.5235987755982988,0,-0.017935254,-1.0451134,-2.716339,0.09275573,-0.084931664,1.5275156,0.28084657,2.612065,-1.4275801,0.97673696,1.3734776,-0.07501573,1.0858799,1.8954887
0.0,0.0,1.0,0.0,0.5235987755982988,0,-0.008621269,-1.0019542,-2.7391374,0.16320178,-0.20046914,1.5418041,0.35947484,2.5570827,-1.4115546,0.9752577,1.3421371,-0.06602427,1.0914899,1.9079708
0.0,0.0,1.0,0.0,0.5235987755982988,0,-0.015206946,-1.0123026,-2.719712,0.15771705,-0.17477342,1.5684315,0.50971895,2.7141876,-1.421784,0.9856617,1.420034,-0.07369739,1.0862463,2.0522137
0.0,0.0,1.0,0.0,0.5235987755982988,0,0.005746188,-1.0120484,-2.769701,0.08683046,-0.14978091,1.5508933,0.49736202,2.608798,-1.4172741,0.9878344,1.3646375,-0.060142215,1.1006465,1.9105526
0.0,0.0,1.0,0.0,0.5235987755982988,0,0.0091666635,-1.0435892,-2.7046652,0.14090797,-0.18352972,1.5376722,0.38323194,2.678299,-1.4171972,0.95541483,1.4071611,-0.07787487,1.0958815,1.9496303
0.0,0.0,1.0,0.0,0.5235987755982988,0,-0.0054040463,-1.0056273,-2.7985168,0.1503266,-0.21100314,1.5576875,0.3058916,2.8074389,-1.4236588,0.9700904,1.4152169,-0.11646179,1.0893122,2.0373452
0.0,0.0,1.0,0.0,0.5235987755982988,0,-0.0067184865,-1.026987,-2.702527,0.09296361,-0.15765229,1.5509611,0.43115458,2.6224031,-1.4080192,0.96852714,1.3732659,-0.06937348,1.0911568,2.0427575
0.0,0.0,1.0,0.0,0.5235987755982988,0,-0.024538834,-1.0122081,-2.7395632,0.1022064,-0.19296396,1.5394874,0.46903595,2.6262598,-1.4172541,0.9734917,1.3216534,-0.097512186,1.0990559,2.1122937
0.0,0.0,1.0,0.0,0.5235987755982988,0,-0.016626744,-1.0264525,-2.7456658,0.11963861,-0.18599348,1.5587996,0.34881282,2.5595572,-1.438656,0.95726335,1.3635461,-0.045549665,1.0894899,1.7973756
0.0,0.0,1.0,0.0,0.5235987755982988,0,-0.010414764,-1.0163127,-2.770556,0.13723694,-0.07591748,1.5493832,0.2693673,2.6668053,-1.3864971,0.9516522,1.3595443,-0.081523955,1.0980681,1.9982872
0.0,0.0,1.0,0.0,0.5235987755982988,0,-0.0015652005,-0.9957059,-2.7713275,0.13399981,-0.15951355,1.5376784,0.40634567,2.7655718,-1.4070262,0.97641003,1.4198036,-0.048995763,1.0834411,1.9189512
0.0,0.0,1.0,0.0,0.5235987755982988,0,-0.006083942,-1.0181614,-2.816879,0.09955736,-0.18829766,1.5558928,0.5061024,2.7461889,-1.4141024,0.9769667,1.4201738,-0.051303826,1.0858643,1.994371
0.0,0.0,1.0,0.0,0.5235987755982988,0,-0.024291357,-1.0383915,-2.7800002,0.1212922,-0.18294874,1.4833874,0.33399633,2.6210918,-1.4201216,0.9668374,1.3570254,-0.10206969,1.0874754,1.7546735
0.0,0.0,1.0,0.0,0.5235987755982988,0,-0.0082565155,-1.0083741,-2.7241108,0.039834604,-0.22223328,1.5142927,0.3971885,2.5376923,-1.3924102,0.97500366,1.2961661,-0.092473134,1.0879147,1.9268196
0.0,0.0,1.0,0.0,0.5235987755982988,0,-0.008763934,-1.0195502,-2.7657588,0.12880665,-0.12350054,1.5376616,0.45717263,2.5999997,-1.4118222,0.9788771,1.3287581,-0.048993763,1.0857522,2.0106227
0.0,0.0,1.0,0.0,0.5235987755982988,0,-0.006368966,-1.0329921,-2.774568,0.14831229,-0.11590941,1.5156434,0.40247163,2.6378183,-1.4072834,0.9657682,1.3867829,-0.037868593,1.0866361,1.9949255
0.0,0.0,1.0,0.0,0.5235987755982988,0,-0.014592788,-1.0178055,-2.6880505,0.13808791,-0.10805072,1.5608023,0.35405755,2.5731144,-1.4255127,0.977045,1.376904,-0.031681977,1.080928,1.9204112
0.0,0.0,1.0,0.0,0.5235987755982988,0,-0.027846737,-0.99129564,-2.665477,0.11951142,-0.15769863,1.5471703,0.322549,2.7525916,-1.4171827,0.96501845,1.4200366,-0.056996148,1.0973715,1.9270787
0.0,0.0,1.0,0.0,0.5235987755982988,0,-0.002877407,-1.0192132,-2.7832673,0.15088129,-0.1705864,1.5293207,0.37823826,2.5557501,-1.4242204,0.9719439,1.3687333,-0.062081166,1.0930192,1.7524551
0.0,0.0,1.0,0.0,0.5235987755982988,0,-0.022741316,-1.0240921,-2.7847314,0.12912913,-0.07319139,1.5447948,0.247607,2.863772,-1.4127597,0.97245497,1.3971761,-0.22682258,1.0970547,1.9483575
0.0,0.0,1.0,0.0,0.5235987755982988,0,0.004082551,-1.0229942,-2.780252,0.11726617,-0.13637601,1.5518289,0.23579098,2.7790146,-1.4174296,0.967782,1.4039456,-0.09171778,1.0911227,1.8291154
0.0,0.0,1.0,0.0,0.5235987755982988,0,-0.023118168,-1.0277239,-2.7867243,0.13562016,-0.19091313,1.5580411,0.43916073,2.701061,-1.4079485,0.9714927,1.3797033,-0.06309,1.0941206,1.8673204
0.0,0.0,1.0,0.0,0.5235987755982988,0,-0.008277455,-1.017577,-2.729218,0.11306387,-0.1917095,1.5427254,0.36171323,2.7811573,-1.4134258,0.9698946,1.4199651,-0.032733608,1.1009123,1.9568787
0.0,0.0,1.0,0.0,0.5235987755982988,0,-0.013294536,-1.0034268,-2.7437456,0.084903896,-0.18962446,1.540257,0.3157581,2.7618637,-1.4346906,0.96134984,1.3845541,-0.045254234,1.0879377,1.9423237
0.0,0.0,1.0,0.0,0.5235987755982988,0,-0.025250563,-0.9998445,-2.7509892,0.12378237,-0.17401744,1.5149477,0.5114015,2.7319949,-1.4197884,0.992116,1.4007832,-0.105956376,1.0892571,1.766717
0.0,0.0,1.0,0.0,0.5235987755982988,0,-0.012176846,-1.0322313,-2.7587545,0.08785872,-0.20315985,1.5422436,0.3741838,2.6085932,-1.4284077,0.97551316,1.3505534,-0.07907699,1.0928699,1.9790399
0.0,0.0,1.0,0.0,0.5235987755982988,0,-0.01389231,-1.0327793,-2.7096565,0.066759,-0.17022909,1.5524526,0.3340928,2.6648066,-1.4126916,0.968868,1.377614,-0.09269379,1.098865,1.8966376
0.0,0.0,1.0,0.0,0.5235987755982988,0,-0.026583606,-1.0515513,-2.7437224,0.11655573,-0.18325633,1.5601162,0.36713913,2.6757634,-1.4190961,0.9899143,1.420118,-0.06621175,1.091101,1.9057661
0.0,0.0,1.0,0.0,0.5235987755982988,0,-0.025074653,-1.0269778,-2.7434967,0.07685338,-0.20747475,1.5406958,0.27530113,2.5959718,-1.4115444,0.9723384,1.3414905,-0.100707404,1.088391,1.8645265
0.0,0.0,1.0,0.0,0.5235987755982988,0,-0.025790635,-1.019907,-2.7569845,0.1356801,-0.1154608,1.5326892,0.2795884,2.6037908,-1.4278778,0.9897474,1.3526078,-0.07084825,1.0780431,1.8141043
0.0,0.0,1.0,0.0,0.5235987755982988,0,0.0055997954,-1.0382303,-2.7792344,0.16031663,-0.13788712,1.5406506,0.42356,2.7267826,-1.4088492,0.9650456,1.419409,-0.053722233,1.0954014,1.9119108
0.0,0.0,1.0,0.0,0.5235987755982988,0,0.008201358,-0.99483,-2.7768874,0.09676197,-0.16210024,1.5222659,0.33626556,2.679028,-1.4112337,0.9850997,1.3575118,-0.07807928,1.1016265,1.885564
0.0,0.0,1.0,0.0,0.5235987755982988,0,0.008159535,-1.0196213,-2.7626593,0.16031046,-0.19843975,1.538984,0.41851577,2.7581782,-1.414756,0.9803706,1.4199051,-0.12752895,1.0872295,1.9036156
0.0,0.0,1.0,0.0,0.5235987755982988,0,-0.018345363,-1.0359819,-2.8058348,0.16682488,-0.23854181,1.5188674,0.43123892,2.7963955,-1.411,0.98307806,1.420689,-0.11844986,1.0905243,1.897125
0.0,0.0,1.0,0.0,0.5235987755982988,0,0.0006303753,-1.0062757,-2.7578018,0.122172974,-0.109997466,1.5498382,0.29388684,2.7327116,-1.4214147,0.97397274,1.3730861,-0.05126762,1.0856097,1.979482
0.0,0.0,1.0,0.0,0.5235987755982988,0,-0.027674023,-1.0162281,-2.7813613,0.10831951,-0.20693253,1.5438832,0.4001194,2.7584863,-1.4078195,0.9826505,1.391165,-0.18257888,1.0783788,1.8404329
0.0,0.0,1.0,0.0,0.5235987755982988,0,-0.017619899,-1.0399084,-2.7378273,0.14310388,-0.20612457,1.5543336,0.38285455,2.7625465,-1.3891852,0.98720336,1.4204582,-0.10782827,1.089599,1.7850302
0.0,0.0,1.0,0.0,0.5235987755982988,0,-0.00074786536,-1.0480367,-2.7006676,0.12686187,-0.21004012,1.5174334,0.38978902,2.6976807,-1.4196165,0.96995515,1.3838232,-0.075556666,1.0883392,1.8879651
0.0,0.0,1.0,0.0,0.5235987755982988,0,-0.014157236,-1.0165528,-2.7527063,0.08345516,-0.21844937,1.562069,0.4473416,2.8389854,-1.416608,0.9978393,1.4203713,-0.15281509,1.0969654,1.9204373
0.0,0.0,1.0,0.0,0.5235987755982988,0,-0.0024883084,-1.0369328,-2.813505,0.05136523,-0.15694474,1.515027,0.39699295,2.6754007,-1.4254631,0.99143344,1.385776,-0.05683816,1.0901612,1.8909895
0.0,0.0,1.0,0.0,0.5235987755982988,0,-0.0006847017,-1.0166175,-2.7276516,0.12645662,-0.13267599,1.538358,0.31846893,2.5286565,-1.4226964,0.9888306,1.3603845,-0.03851843,1.0877091,1.9453124
0.0,0.0,1.0,0.0,0.5235987755982988,0,-0.006736671,-1.0395391,-2.697825,0.14091544,-0.20193492,1.5655069,0.44465894,2.7344167,-1.4228755,0.96175677,1.412164,-0.0969747,1.1001556,1.818728
0.0,0.0,1.0,0.0,0.5235987755982988,0,0.0003199347,-1.0504739,-2.7526178,0.11031057,-0.19369102,1.5149114,0.2524494,2.6270292,-1.4027592,0.9629102,1.3951396,-0.082731284,1.087848,1.9371495
0.0,0.0,1.0,0.0,0.5235987755982988,0,-0.010211109,-1.0178372,-2.771293,0.10110714,-0.16759697,1.5588893,0.28755695,2.6564863,-1.4228953,0.95902956,1.3719414,-0.08235511,1.0801184,1.9536164
0.0,0.0,1.0,0.0,0.5235987755982988,0,-0.009290822,-1.0173256,-2.7335668,0.09850815,-0.20986791,1.5356424,0.37245178,2.8295808,-1.4010217,0.9415432,1.4147817,-0.15443343,1.0894977,1.9713502
0.0,0.0,1.0,0.0,0.5235987755982988,0,-0.015851952,-1.0075034,-2.769307,0.1361254,-0.12158071,1.5633603,0.50281334,2.6495116,-1.4193438,0.9590315,1.3663361,-0.03555881,1.095476,1.9203458
0.0,0.0,1.0,0.0,0.5235987755982988,0,-0.015214294,-1.0210687,-2.66733,0.106260195,-0.14666066,1.5400976,0.41227406,2.672006,-1.4180413,1.004625,1.3814301,-0.08798271,1.0974356,2.0103862
0.0,0.0,1.0,0.0,0.5235987755982988,0,-0.015433804,-1.0426104,-2.611718,0.10770539,-0.21542458,1.5482873,0.33129492,2.545146,-1.4165803,0.9672568,1.3764815,-0.045247044,1.0945741,1.8573492
0.0,0.0,1.0,0.0,0.5235987755982988,0,-0.024992522,-0.9985179,-2.7658978,0.08441232,-0.18754661,1.5219853,0.44831896,2.6678438,-1.4261432,0.9858371,1.3577269,-0.021555673,1.0841911,1.9325086
0.0,0.0,1.0,0.0,0.5235987755982988,0,-0.004617128,-1.0170107,-2.8548834,0.1104037,-0.08680721,1.5368063,0.38644817,2.7812927,-1.4058547,0.9930327,1.4198463,-0.11537319,1.0850791,1.9983169
0.0,0.0,1.0,0.0,0.5235987755982988,0,-0.011905889,-1.0169839,-2.6951308,0.15109274,-0.20478939,1.5378945,0.42808095,2.6434648,-1.4222013,0.96245104,1.3450478,-0.046623487,1.0849214,2.0581372
0.0,0.0,1.0,0.0,0.5235987755982988,0,-0.013090976,-1.0044076,-2.7623484,0.13703732,-0.18474033,1.5598545,0.5186081,2.6285462,-1.397591,0.9652001,1.317819,-0.06904003,1.0903373,2.0173137
0.0,0.0,1.0,0.0,0.5235987755982988,0,-0.01797873,-1.0443988,-2.76789,0.10116714,-0.16983859,1.5591844,0.42406815,2.5889664,-1.4352424,0.98121387,1.3803461,-0.038124267,1.0920411,1.9857643
0.0,0.0,1.0,0.0,0.5235987755982988,0,-0.0034537693,-1.0275662,-2.7964916,0.09258383,-0.20039575,1.5336651,0.36335555,2.678332,-1.4267393,0.9578918,1.3814006,-0.08728558,1.0937421,1.9318951
0.0,0.0,1.0,0.0,0.5235987755982988,0,-0.026016919,-1.0453167,-2.7615445,0.128281,-0.13337535,1.5119967,0.42106593,2.748342,-1.4152397,0.95581293,1.4203693,-0.059317827,1.095822,2.0122354
0.0,0.0,1.0,0.0,0.5235987755982988,0,-0.030197157,-1.0288464,-2.6845868,0.17610902,-0.19000259,1.5471383,0.38341907,2.7060225,-1.4214156,0.98738396,1.4199328,-0.030087722,1.0908184,1.9714454
0.0,0.0,1.0,0.0,0.5235987755982988,0,-0.020668034,-1.0013177,-2.7492182,0.09303109,-0.107362285,1.5146155,0.4194513,2.8757977,-1.4428234,0.9647666,1.3873571,-0.20364983,1.0969797,2.0230205
0.0,0.0,1.0,0.0,0.5235987755982988,0,-0.013550895,-1.034366,-2.7767904,0.105452396,-0.08891446,1.5517709,0.25882733,2.4874103,-1.4045398,0.9850685,1.322651,-0.07821309,1.0918654,1.8855032
0.0,0.0,1.0,0.0,0.5235987755982988,0,-0.017050682,-1.0391958,-2.6889474,0.11339179,-0.1237005,1.549692,0.3334894,2.7305593,-1.4152551,0.9791365,1.4201486,-0.09792645,1.078873,1.8727125
0.0,0.0,1.0,0.0,0.5235987755982988,0,-0.024378654,-1.0007355,-2.7660174,0.122261174,-0.21945092,1.5588822,0.398244,2.750783,-1.4221659,0.9705375,1.3890278,-0.058874384,1.086952,1.9806802
0.0,0.0,1.0,0.0,0.5235987755982988,0,-0.010489862,-1.026284,-2.7133393,0.093306825,-0.13184395,1.5460012,0.42345107,2.8275356,-1.4198952,0.9527291,1.420645,-0.20358871,1.0868756,1.7461667
0.0,0.0,1.0,0.0,0.5235987755982988,0,-0.0018747945,-1.0240568,-2.7525344,0.18049006,-0.17763884,1.5171232,0.29895043,2.7666945,-1.4154363,0.98131895,1.4177443,-0.08328834,1.0884212,1.9095938
0.0,0.0,1.0,0.0,0.5235987755982988,0,0.002197434,-1.0416965,-2.7484798,0.11504981,-0.03691984,1.545153,0.402391,2.723611,-1.390012,0.9761001,1.4201936,-0.0518812,1.0885637,1.9060751
0.0,0.0,1.0,0.0,0.5235987755982988,0,0.0021702251,-1.0243269,-2.7199712,0.16063856,-0.18330252,1.5454412,0.38851106,2.6899626,-1.4181101,0.99050397,1.3521998,-0.058443747,1.0839787,2.0225143
0.0,0.0,1.0,0.0,0.5235987755982988,0,-0.012913925,-1.0285532,-2.7000487,0.0663757,-0.13314924,1.5534011,0.33380276,2.6617734,-1.4236753,0.9885763,1.3931892,-0.04813316,1.0876192,1.9042907
0.0,0.0,1.0,0.0,0.5235987755982988,0,-0.017299488,-0.9789114,-2.8456256,0.075798504,-0.13492605,1.553563,0.4325367,2.7778525,-1.40308,0.98100543,1.4006442,-0.116203606,1.0822846,1.8554053
0.0,0.0,1.0,0.0,0.5235987755982988,0,-0.005859998,-1.0360402,-2.7443445,0.12390976,-0.14593951,1.5529387,0.23183851,2.7277858,-1.4281487,0.9746922,1.4202281,-0.07940996,1.0855733,1.8949463
0.0,0.0,1.0,0.0,0.5235987755982988,0,0.0052622347,-1.03072,-2.7662098,0.08513346,-0.1173582,1.5435519,0.3561767,2.58162,-1.4087192,0.9844578,1.3643624,-0.031159684,1.0930765,2.0005503
0.0,0.0,1.0,0.0,0.5235987755982988,0,-0.0016800555,-1.0067567,-2.7201426,0.06829547,-0.24242726,1.5528929,0.46161482,2.7431827,-1.4146785,0.954104,1.411747,-0.07131483,1.0869291,1.8052188
0.0,0.0,1.0,0.0,0.5235987755982988,0,-0.009105266,-1.0298209,-2.7618043,0.09248897,-0.20477813,1.5392255,0.4617255,2.6930916,-1.4318885,0.94248897,1.3766081,-0.08734705,1.0899078,1.9519283
0.0,0.0,1.0,0.0,0.5235987755982988,0,0.0033593448,-1.0050968,-2.6701872,0.09469625,-0.23505078,1.5620064,0.39186174,2.7343616,-1.4208667,0.9656942,1.3647072,-0.084744506,1.0975035,1.9465989
0.0,0.0,1.0,0.0,0.5235987755982988,0,-0.00015261375,-1.0254159,-2.752035,0.13373144,-0.12832667,1.5654672,0.31630883,2.819016,-1.4163774,0.953288,1.4007509,-0.11022379,1.0916947,2.0708826
0.0,0.0,1.0,0.0,0.5235987755982988,0,-0.015378205,-1.0000107,-2.7517667,0.16477697,-0.09871404,1.5469576,0.3118597,2.7216473,-1.4221238,0.9903811,1.3668144,-0.076831356,1.0878636,1.8573874
0.0,0.0,1.0,0.0,0.5235987755982988,0,-0.011051411,-1.0213951,-2.7887683,0.12725355,-0.24226622,1.5467875,0.3456495,2.6200528,-1.4106205,0.96539277,1.3336521,-0.10215269,1.0981046,1.8676221
0.0,0.0,1.0,0.0,0.5235987755982988,0,-0.012770226,-1.0159569,-2.7177663,0.1751735,-0.25218895,1.506095,0.34154963,2.6831527,-1.4213134,0.9560166,1.4071941,-0.07426486,1.0772983,1.8955119
0.0,0.0,1.0,0.0,0.5235987755982988,0,-0.029163998,-1.0292331,-2.719648,0.113315605,-0.21890494,1.5358236,0.32960317,2.5175333,-1.4177382,0.9843774,1.3503205,-0.04773412,1.0976988,1.9415989
0.0,0.0,1.0,0.0,0.5235987755982988,0,-0.008741263,-1.0035238,-2.6881275,0.18622476,-0.22776157,1.5286568,0.35564554,2.787081,-1.3835539,0.9519908,1.4152634,-0.08416617,1.0797778,2.028663
0.0,0.0,1.0,0.0,0.5235987755982988,0,0.00066379446,-1.0309615,-2.6505468,0.102077276,-0.16336831,1.5341787,0.36077592,2.703653,-1.4126818,0.9660219,1.3827863,-0.114280045,1.0761139,1.9768438
0.0,0.0,1.0,0.0,0.5235987755982988,0,-0.015596904,-1.0137529,-2.769428,0.060720284,-0.11832392,1.5157349,0.32651794,2.6531541,-1.4097458,1.012624,1.3550178,-0.063737564,1.0952052,1.9851933
0.0,0.0,1.0,0.0,0.5235987755982988,0,-0.019116735,-1.0230625,-2.7613876,0.11349634,-0.17550124,1.5402299,0.46428394,2.7044282,-1.403272,0.99216986,1.4021493,-0.05254306,1.1002734,2.0667264
0.0,0.0,1.0,0.0,0.5235987755982988,0,0.008892206,-1.0181146,-2.7997227,0.053714205,-0.08312742,1.5344698,0.40478972,2.704078,-1.4171538,0.9513379,1.4059795,-0.037066612,1.0872924,1.8641115
0.0,0.0,1.0,0.0,0.5235987755982988,0,-0.03462026,-1.0353045,-2.7002957,0.098249875,-0.17893659,1.5480827,0.3559147,2.808516,-1.4348495,0.9983045,1.4189923,-0.077951,1.0871003,2.0218666
0.0,0.0,1.0,0.0,0.5235987755982988,0,-0.029828181,-1.0366861,-2.6700447,0.15937775,-0.20026639,1.5298376,0.29176742,2.6777673,-1.4402174,0.98190635,1.4121335,-0.06211775,1.0876819,1.9445789
0.0,0.0,1.0,0.0,0.5235987755982988,0,-0.0056632664,-1.016705,-2.7785156,0.17409977,-0.152884,1.5495147,0.3315264,2.705331,-1.4134401,0.9824249,1.3907821,-0.03646909,1.0883518,1.9411861
0.0,0.0,1.0,0.0,0.5235987755982988,0,-0.0073646735,-1.025234,-2.765083,0.062182575,-0.14349477,1.509197,0.46429142,2.5354168,-1.4059672,0.9743428,1.3329399,-0.0624561,1.086401,1.9508679
0.0,0.0,1.0,0.0,0.5235987755982988,0,0.0145255,-1.0207472,-2.7937648,0.10435414,-0.21554765,1.5305687,0.43830064,2.6696656,-1.414217,0.9661944,1.3775839,-0.07288135,1.0965406,2.0298038
0.0,0.0,1.0,0.0,0.5235987755982988,0,-0.024290835,-1.024396,-2.7288291,0.09940239,-0.18237,1.5539556,0.33925593,2.6694496,-1.4026681,0.9824756,1.3790084,-0.08012377,1.0970621,1.9683512
0.0,0.0,1.0,0.0,0.5235987755982988,0,-0.019363489,-1.0407326,-2.6455266,0.10952258,-0.20434289,1.5168004,0.3541639,2.779561,-1.4276698,0.96141773,1.4201863,-0.08950925,1.0914934,1.9776804
0.0,0.0,1.0,0.0,0.5235987755982988,0,-0.0016652686,-1.0281409,-2.83353,0.12777297,-0.114902765,1.5558486,0.38300118,2.7089226,-1.4146422,0.9464851,1.4152915,-0.047929924,1.0820448,1.8394915
0.0,0.0,1.0,0.0,0.5235987755982988,0,-0.007213558,-1.0329186,-2.7421558,0.12709938,-0.22283228,1.5388327,0.4155278,2.7047017,-1.413544,0.96183634,1.3778442,-0.09243205,1.0911777,1.953367
0.0,0.0,1.0,0.0,0.5235987755982988,0,-0.017349165,-0.9836296,-2.7327917,0.12120148,-0.19651403,1.5055128,0.3912142,2.772215,-1.4356157,0.9880005,1.4198931,-0.04759219,1.086683,2.0297513
0.0,0.0,1.0,0.0,0.5235987755982988,0,-0.019291997,-1.0118247,-2.7122746,0.14426139,-0.20487818,1.5581493,0.2970579,2.738262,-1.4235061,0.95942163,1.4052036,-0.075320125,1.07844,2.015162
0.0,0.0,1.0,0.0,0.5235987755982988,0,-0.017378377,-1.0193086,-2.7125318,0.13447197,-0.025165305,1.5205015,0.27294862,2.624976,-1.4083081,0.9506418,1.3590125,-0.05829074,1.0952916,1.9876183
0.0,0.0,1.0,0.0,0.5235987755982988,0,-0.016849974,-1.0201296,-2.7090993,0.120968275,-0.24126905,1.5400778,0.36927828,2.7323403,-1.4202586,0.96850944,1.41451,-0.10362738,1.0764668,1.7855601
0.0,0.0,1.0,0.0,0.5235987755982988,0,0.011156531,-1.0146288,-2.824433,0.13704853,-0.046807766,1.5340424,0.2275412,2.7029161,-1.4153285,0.9939479,1.3599703,-0.070923865,1.0845366,2.065294
0.0,0.0,1.0,0.0,0.5235987755982988,0,-0.012358624,-1.023937,-2.6989503,0.121458404,-0.16530605,1.5520546,0.35908478,2.6789334,-1.4037191,0.9775634,1.3648167,-0.027445583,1.0859569,2.1114364
0.0,0.0,1.0,0.0,0.5235987755982988,0,-0.006476598,-1.0155176,-2.773899,0.08876149,-0.18751141,1.5346236,0.4210064,2.5989215,-1.4337549,0.9752447,1.3099524,-0.10421966,1.0837605,1.9692093
0.0,0.0,1.0,0.0,0.5235987755982988,0,-0.0100285215,-1.0380208,-2.7230215,0.10118942,-0.12919909,1.5608848,0.43083385,2.7407794,-1.4023482,0.9847617,1.4201286,-0.06547076,1.0904516,1.8451475
0.0,0.0,1.0,0.0,0.5235987755982988,0,-0.008423599,-1.0270729,-2.776339,0.07692834,-0.19655155,1.5192407,0.3670969,2.744147,-1.4039569,1.0004523,1.397006,-0.09338593,1.0806273,1.9019908
0.0,0.0,1.0,0.0,0.5235987755982988,0,-0.015105437,-1.0241661,-2.7601955,0.13697124,-0.2800909,1.550414,0.44969755,2.606748,-1.4164805,0.9581996,1.3543996,-0.04393538,1.0883623,1.9076314
0.0,0.0,1.0,0.0,0.5235987755982988,0,-0.010636766,-0.99936837,-2.7102993,0.14750187,-0.15276493,1.5345788,0.45204344,2.6791177,-1.4205015,0.9721163,1.3397889,-0.108815596,1.0915606,1.9611996
0.0,0.0,1.0,0.0,0.5235987755982988,0,0.011939039,-1.010207,-2.7249265,0.11407804,-0.17254616,1.540287,0.36445764,2.5832288,-1.4069902,0.9752606,1.3522758,-0.017915564,1.0942494,1.9912962
0.0,0.0,1.0,0.0,0.5235987755982988,0,-0.009365206,-1.0043737,-2.702758,0.18780677,-0.14635941,1.5456334,0.4762742,2.6773396,-1.4444604,0.96629655,1.3725827,-0.05952897,1.083127,1.9647943
0.0,0.0,1.0,0.0,0.5235987755982988,0,-0.0005870603,-1.0190433,-2.7465303,0.11670503,-0.22626221,1.5330834,0.6083005,2.6869123,-1.4080863,0.99169344,1.3718375,-0.068241216,1.0912808,1.9867998
0.0,0.0,1.0,0.0,0.5235987755982988,0,-0.011707274,-1.0098675,-2.735954,0.08296751,-0.23266543,1.5481261,0.34709382,2.5245569,-1.4261957,0.9760654,1.3537416,-0.056602877,1.0911448,1.7505085
0.0,0.0,1.0,0.0,0.5235987755982988,0,-0.02888593,-1.0066977,-2.8355565,0.10097158,-0.14155376,1.5467896,0.38706133,2.4760487,-1.4165709,0.98066217,1.3182074,-0.04496878,1.0850352,1.8836112
0.0,0.0,1.0,0.0,0.5235987755982988,0,-0.016821437,-1.0170054,-2.7693036,0.13978386,-0.114572935,1.5371413,0.3440283,2.7085328,-1.4114175,0.9824692,1.3861336,-0.07737216,1.0858753,1.886581
0.0,0.0,1.0,0.0,0.5235987755982988,0,-0.013942595,-1.0283096,-2.810673,0.1164521,-0.07364367,1.5261983,0.502868,2.751535,-1.4245377,0.9994995,1.4204582,-0.07561283,1.089984,2.0420349
0.0,0.0,1.0,0.0,0.5235987755982988,0,0.0023447,-1.0033188,-2.6996465,0.10899029,-0.1463016,1.5353947,0.42029527,2.642592,-1.4240704,0.9760449,1.3537729,-0.0463683,1.0938361,1.9214259
0.0,0.0,1.0,0.0,0.5235987755982988,0,-0.012132895,-0.98554385,-2.7053835,0.16035172,-0.19830471,1.5430648,0.37571517,2.661759,-1.4225115,0.9418866,1.3544903,-0.04533419,1.0767471,1.8504875
0.0,0.0,1.0,0.0,0.5235987755982988,0,-0.012209389,-1.0000648,-2.747938,0.13407283,-0.13997954,1.5537387,0.2446172,2.735911,-1.3968468,0.95510083,1.3850731,-0.05210441,1.0845789,2.0638871
0.0,0.0,1.0,0.0,0.5235987755982988,0,-0.017476784,-1.0098915,-2.7559903,0.123432636,-0.1237972,1.5580782,0.4669334,2.6347961,-1.4226708,0.9878598,1.3781401,-0.04968218,1.0887126,1.9744587
0.0,0.0,1.0,0.0,0.5235987755982988,0,-0.028132837,-1.018685,-2.7026048,0.081228435,-0.19011949,1.5431103,0.43773177,2.7266166,-1.436576,0.95638436,1.4061652,-0.075862445,1.0894059,1.9812224
0.0,0.0,1.0,0.0,0.5235987755982988,0,-0.011303703,-0.9837973,-2.8513265,0.11104917,-0.23611367,1.534172,0.43254673,2.7491627,-1.4130603,0.97178125,1.3933464,-0.05504025,1.0928444,1.8620871
0.0,0.0,1.0,0.0,0.5235987755982988,0,-0.0039772647,-1.0155057,-2.7525551,0.114173375,-0.193355,1.5468204,0.27624664,2.7632504,-1.4100293,0.99061006,1.4202595,-0.052655473,1.077467,1.9028413
0.0,0.0,1.0,0.0,0.5235987755982988,0,-0.029278127,-1.0074315,-2.69642,0.07536609,-0.1532373,1.5302136,0.41289598,2.6624682,-1.4240661,0.96005553,1.3733277,-0.071326815,1.095258,1.9032233
0.0,0.0,1.0,0.0,0.5235987755982988,0,-0.0138925,-1.0158674,-2.7841651,0.097577356,-0.16977103,1.5428032,0.50799274,2.6977105,-1.3973962,0.9666293,1.367354,-0.037605073,1.0902445,1.9784513
0.0,0.0,1.0,0.0,0.5235987755982988,0,-0.01346799,-1.0309254,-2.7077687,0.09767114,-0.20762472,1.5673727,0.40828466,2.7802904,-1.3983464,0.9816011,1.4202327,-0.11003488,1.0913075,1.9186827
0.0,0.0,1.0,0.0,0.5235987755982988,0,-0.024620373,-0.9953961,-2.7243977,0.11685948,-0.22335888,1.553477,0.43914807,2.688995,-1.4019794,0.9450551,1.3619053,-0.055317048,1.0874509,1.9192269
0.0,0.0,1.0,0.0,0.5235987755982988,0,-0.011791115,-1.0213917,-2.7472565,0.0862529,-0.12207106,1.5289117,0.46635836,2.681804,-1.4222776,0.9964911,1.3938652,-0.06848748,1.0970472,1.9639297
0.0,0.0,1.0,0.0,0.5235987755982988,0,-0.0028112885,-1.0187496,-2.6837294,0.1223771,-0.27080697,1.5595428,0.28072298,2.7279747,-1.4171145,0.9599511,1.4201193,-0.07143279,1.0872154,1.9504642
0.0,0.0,1.0,0.0,0.5235987755982988,0,-0.011153208,-1.0165795,-2.6587424,0.11206772,-0.17248441,1.5548182,0.40582472,2.6836538,-1.4063638,0.9531604,1.3934035,-0.0676141,1.096756,2.0079086
0.0,0.0,1.0,0.0,0.5235987755982988,0,-0.010582354,-0.99879855,-2.7398407,0.14561033,-0.14841872,1.559324,0.45242923,2.7213533,-1.3999571,0.96544766,1.3945382,-0.049826592,1.0837301,1.9698478
0.0,0.0,1.0,0.0,0.5235987755982988,0,-0.012735034,-1.0242001,-2.699231,0.060727727,-0.1156179,1.5351223,0.46522683,2.6243997,-1.4348034,0.9801198,1.3771127,-0.09973359,1.0904758,1.8915046
0.0,0.0,1.0,0.0,0.5235987755982988,0,-0.007107629,-1.0282097,-2.8156636,0.09736376,-0.24615099,1.5340902,0.50195193,2.7649195,-1.4318311,0.96530294,1.4201893,-0.03415633,1.0991554,1.9349581
0.0,0.0,1.0,0.0,0.5235987755982988,0,-0.021928366,-1.0076603,-2.7226832,0.08430462,-0.17484911,1.5681418,0.41888037,2.7197034,-1.4248859,0.9910909,1.3984499,-0.05120544,1.103483,1.7505779
0.0,0.0,1.0,0.0,0.5235987755982988,0,0.007848214,-1.0164382,-2.814553,0.10560648,-0.15978804,1.555909,0.22301215,2.734256,-1.42564,0.98706883,1.404808,-0.048891034,1.0939517,1.9582613
0.0,0.0,1.0,0.0,0.5235987755982988,0,-0.00042386402,-1.015032,-2.6864858,0.09853415,-0.17310484,1.5485566,0.39523244,2.73825,-1.4509238,0.96708035,1.3756789,-0.11008715,1.0977154,2.0028548
0.0,0.0,1.0,0.0,0.5235987755982988,0,-0.0018575729,-0.99897635,-2.8168805,0.1388084,-0.17775398,1.5521219,0.4134922,2.8021448,-1.4406469,0.96684664,1.4028455,-0.06834784,1.1004483,2.0865319
0.0,0.0,1.0,0.0,0.5235987755982988,0,-0.009841379,-1.0112005,-2.7831511,0.08975307,-0.23141798,1.5349551,0.3726359,2.597382,-1.4196573,0.97566926,1.348905,-0.02691001,1.1076146,1.9473556
0.0,0.0,1.0,0.0,0.5235987755982988,0,-0.016831625,-1.0118178,-2.7725806,0.07480313,-0.11131132,1.5365295,0.35597867,2.6797478,-1.4039403,0.99024427,1.3826145,-0.07076732,1.0902107,1.9769969
0.0,0.0,1.0,0.0,0.5235987755982988,0,-0.02684188,-1.0158477,-2.6697547,0.06894027,-0.19482256,1.5693842,0.51159537,2.5798244,-1.4137274,0.9654557,1.3539296,-0.09414122,1.0842626,1.8507795
0.0,0.0,1.0,0.0,0.5235987755982988,0,-0.0056067295,-1.0161699,-2.7317884,0.07900659,-0.13734052,1.5637347,0.52051914,2.565834,-1.4207894,0.972423,1.3443388,-0.088950165,1.0958416,1.8445755
0.0,0.0,1.0,0.0,0.5235987755982988,0,-0.011405214,-1.0122509,-2.7059054,0.09120146,-0.1899934,1.5212672,0.22424969,2.7760355,-1.4201812,0.9649264,1.4200507,-0.12683028,1.0926127,1.9451238
0.0,0.0,1.0,0.0,0.5235987755982988,0,-0.03807014,-1.0432994,-2.6904154,0.11156701,-0.1322934,1.5214609,0.3381689,2.4004128,-1.4076015,0.9558002,1.3583249,-0.112231776,1.0904312,1.8795215
0.0,0.0,1.0,0.0,0.5235987755982988,0,-0.011019481,-0.99758095,-2.7514324,0.17929661,-0.18364361,1.5141814,0.3720539,2.3319232,-1.3973902,0.99219316,1.301669,-0.07589981,1.0890232,1.825946
0.0,0.0,1.0,0.0,0.5235987755982988,0,-0.0038479106,-1.0309113,-2.7874393,0.049347192,-0.22600652,1.505658,0.5046298,2.4480083,-1.4454038,0.980439,1.3613784,-0.08311012,1.0811065,1.8617779
0.0,0.0,1.0,0.0,0.5235987755982988,0,-0.0037573474,-1.0138664,-2.747215,0.13790841,-0.16423395,1.5517406,0.2580302,2.443335,-1.419689,0.95790267,1.3287064,-0.07690967,1.0974349,1.9152031
0.0,0.0,1.0,0.0,0.5235987755982988,0,-0.012047049,-1.0411929,-2.7318308,0.14916642,-0.17235091,1.5442644,0.3785058,2.4059541,-1.4126923,0.9585268,1.3451377,-0.08447572,1.1010532,1.9268411
0.0,0.0,1.0,0.0,0.5235987755982988,0,-0.008965242,-1.0401702,-2.7271714,0.11550714,-0.24167538,1.5270263,0.3574831,2.4222162,-1.4242212,0.95204276,1.3263514,-0.09436714,1.0877602,1.9482453
0.0,0.0,1.0,0.0,0.5235987755982988,0,-0.023078013,-1.0442345,-2.7793508,0.13250206,-0.14580224,1.5543528,0.40183657,2.451473,-1.4212291,0.959703,1.3506418,-0.117043614,1.0794271,1.9296231
0.0,0.0,1.0,0.0,0.5235987755982988,0,-0.02235076,-1.0067796,-2.7275279,0.16325559,-0.22450395,1.5188626,0.32163525,2.3693352,-1.4100759,0.9974637,1.3383586,-0.039703805,1.1012262,2.0358155
0.0,0.0,1.0,0.0,0.5235987755982988,0,-0.0018190234,-1.013228,-2.7540295,0.17047161,-0.1419913,1.5434115,0.27239135,2.4806905,-1.4065737,0.97088665,1.3643641,-0.10358818,1.0897927,1.9514802
0.0,0.0,1.0,0.0,0.5235987755982988,0,-0.00021543245,-1.0510682,-2.7920203,0.12116793,-0.24965288,1.5586082,0.3516495,2.3730855,-1.4070162,0.96389985,1.3465406,-0.07497469,1.0902007,1.8935891
0.0,0.0,1.0,0.0,0.5235987755982988,0,-0.00791867,-1.0270913,-2.6884077,0.17262813,-0.16117355,1.5348758,0.46055576,2.5152051,-1.3890631,0.98589545,1.3530027,-0.083471514,1.1013926,1.8806409
0.0,0.0,1.0,0.0,0.5235987755982988,0,-0.0035271647,-1.0546278,-2.7160485,0.09941485,-0.24366038,1.5338844,0.47738644,2.5506916,-1.3913817,0.9695298,1.3862462,-0.12126347,1.0846404,1.9529132
0.0,0.0,1.0,0.0,0.5235987755982988,0,-0.01750835,-1.0154465,-2.7100334,0.17379332,-0.23175459,1.5541443,0.41995245,2.5270495,-1.4292011,0.95554113,1.3797182,-0.06644408,1.0900177,2.0894551
0.0,0.0,1.0,0.0,0.5235987755982988,0,-0.017279884,-1.0227133,-2.7298224,0.11054875,-0.14862835,1.5471176,0.4597436,2.4306698,-1.4414618,0.9677676,1.3581667,-0.064373635,1.0923613,1.9137974
0.0,0.0,1.0,0.0,0.5235987755982988,0,-0.008002667,-1.0287126,-2.7771897,0.14481893,-0.24528794,1.540135,0.35244665,2.4811318,-1.3956536,0.9802986,1.3400996,-0.06433658,1.0810072,1.9747225
0.0,0.0,1.0,0.0,0.5235987755982988,0,0.016714517,-1.034048,-2.7696228,0.1030415,-0.1555235,1.5342512,0.32027835,2.5706172,-1.4094443,0.97046167,1.3764578,-0.097303875,1.088663,1.9842297
0.0,0.0,1.0,0.0,0.5235987755982988,0,-0.017460326,-1.0304984,-2.8242986,0.1278585,-0.086993515,1.5438854,0.42311183,2.5605657,-1.430756,0.97497684,1.3714778,-0.12772147,1.090689,1.9015445
0.0,0.0,1.0,0.0,0.5235987755982988,0,-0.015591391,-1.0074085,-2.6723638,0.079640165,-0.11153199,1.5193933,0.42343166,2.6036665,-1.4220092,0.984997,1.396708,-0.08793992,1.0942429,1.9135227
0.0,0.0,1.0,0.0,0.5235987755982988,0,-0.025268963,-0.9919338,-2.6522577,0.14269137,-0.19750383,1.557165,0.30773133,2.5381563,-1.423199,0.97817296,1.4053494,-0.038489025,1.085301,1.721337
0.0,0.0,1.0,0.0,0.5235987755982988,0,-0.015005217,-1.0251956,-2.7707274,0.2170731,-0.18414882,1.5455902,0.40474242,2.5495405,-1.4185293,0.95283926,1.4090576,-0.047684435,1.092262,1.9266986
0.0,0.0,1.0,0.0,0.5235987755982988,0,-0.009835315,-1.0292197,-2.763203,0.19761164,-0.1922215,1.5326396,0.37612724,2.542369,-1.3957026,0.98974526,1.3755674,-0.09917328,1.0985764,1.9742315
0.0,0.0,1.0,0.0,0.5235987755982988,0,-0.014330148,-1.0428995,-2.745944,0.16947386,-0.10329589,1.5391628,0.44647327,2.5750868,-1.4139447,0.9678461,1.3869368,-0.08764436,1.0995784,1.8042583
0.0,0.0,1.0,0.0,0.5235987755982988,0,-0.016002988,-1.07386,-2.736924,0.1383474,-0.13251439,1.5360073,0.3451573,2.4470813,-1.4168478,1.0045543,1.3369449,-0.11225835,1.1067051,1.79477
0.0,0.0,1.0,0.0,0.5235987755982988,0,-0.009339779,-1.0396441,-2.7728355,0.15988141,-0.08244997,1.5662683,0.3754359,2.632748,-1.4001833,0.95266545,1.4201794,-0.10679322,1.0815957,1.9658101
0.0,0.0,1.0,0.0,0.5235987755982988,0,-0.009535505,-1.0186194,-2.7770324,0.10843285,-0.13812505,1.5582532,0.32684,2.573771,-1.4413537,0.9764842,1.3889732,-0.07080221,1.100627,1.8307801
0.0,0.0,1.0,0.0,0.5235987755982988,0,-0.007082123,-1.0268173,-2.7425187,0.15777904,-0.26931036,1.554457,0.3244692,2.5923283,-1.413302,0.9709038,1.3855511,-0.1072313,1.0872743,1.8281786
0.0,0.0,1.0,0.0,0.5235987755982988,0,-0.0007001881,-1.0213616,-2.7292929,0.06208801,-0.16971055,1.5385462,0.3795133,2.5170524,-1.3941169,0.9827502,1.372526,-0.07497181,1.0998292,1.8945577
0.0,0.0,1.0,0.0,0.5235987755982988,0,-0.0143929245,-1.0350841,-2.6519914,0.12318415,-0.17067432,1.5225531,0.4138373,2.548901,-1.4296039,0.97340405,1.4031805,-0.038963366,1.0898559,1.8589622
0.0,0.0,1.0,0.0,0.5235987755982988,0,-0.0034803993,-1.0418924,-2.702382,0.16571149,-0.24135755,1.5437727,0.36756846,2.6487856,-1.4149601,0.9753585,1.3974477,-0.028428005,1.0893714,2.1063266
0.0,0.0,1.0,0.0,0.5235987755982988,0,-0.015325911,-1.0437725,-2.7472677,0.05811641,-0.20453428,1.5422932,0.3295634,2.5892074,-1.4185832,0.97857916,1.3522534,-0.043490972,1.0852132,1.9399366
0.0,0.0,1.0,0.0,0.5235987755982988,0,-0.014766552,-1.0178759,-2.73619,0.11464676,-0.13643019,1.5522634,0.36850843,2.5064147,-1.4181194,0.95478755,1.2754464,-0.06522995,1.0897818,1.8767401
0.0,0.0,1.0,0.0,0.5235987755982988,0,-0.0057627787,-1.0173227,-2.8324118,0.14639817,-0.34392858,1.548474,0.30934432,2.6376317,-1.4205158,1.0015861,1.3712652,-0.06870419,1.0864769,1.8978971
0.0,0.0,1.0,0.0,0.5235987755982988,0,-0.0011514452,-1.0277311,-2.727233,0.035201512,-0.12457778,1.5462742,0.31436858,2.571589,-1.4071476,0.9981146,1.3484966,-0.07705456,1.0852526,1.9384701
0.0,0.0,1.0,0.0,0.5235987755982988,0,-0.018760096,-1.0162219,-2.7386048,0.17882265,-0.18345208,1.570457,0.4107209,2.764121,-1.4200104,0.9675548,1.4203144,-0.059684183,1.0701796,2.062902
0.0,0.0,1.0,0.0,0.5235987755982988,0,-0.02038184,-1.0121268,-2.708728,0.10180459,-0.1171702,1.5204374,0.32598743,2.6111126,-1.4216361,0.9670955,1.324343,-0.09161779,1.0936813,2.0129046
0.0,0.0,1.0,0.0,0.5235987755982988,0,0.0049368925,-1.0309166,-2.7527335,0.12107521,-0.18966532,1.5263852,0.41291508,2.6290054,-1.4255723,0.98501027,1.4033592,-0.05989912,1.0940821,1.799243
0.0,0.0,1.0,0.0,0.5235987755982988,0,0.0021988282,-1.0282631,-2.7154374,0.058338143,-0.16568395,1.5382617,0.3594519,2.6017988,-1.4103042,0.97281706,1.3593211,-0.08625079,1.0985543,1.939016
0.0,0.0,1.0,0.0,0.5235987755982988,0,-0.0112790605,-1.0225607,-2.7059238,0.171104,-0.24506769,1.5356332,0.49812785,2.7605197,-1.3992388,0.99338496,1.4200721,-0.086421795,1.1050845,1.9907577
0.0,0.0,1.0,0.0,0.5235987755982988,0,0.0028629089,-1.0254087,-2.7023892,0.13825066,-0.11993636,1.5440656,0.4478883,2.677333,-1.433967,0.9810896,1.3908147,-0.068969354,1.104635,2.0212932
0.0,0.0,1.0,0.0,0.5235987755982988,0,-0.013273597,-1.023831,-2.7455707,0.15942745,-0.17276375,1.5622268,0.3927286,2.7872205,-1.424329,0.982555,1.4200339,-0.078070916,1.1033671,1.9916182
0.0,0.0,1.0,0.0,0.5235987755982988,0,0.0016393329,-1.0284141,-2.6972928,0.12565273,-0.11298695,1.5172902,0.42392838,2.7169847,-1.4132028,0.9989403,1.4203002,-0.06445863,1.0872337,1.9857138
0.0,0.0,1.0,0.0,0.5235987755982988,0,-0.010175534,-0.9943291,-2.7335227,0.10765481,-0.20002007,1.5388472,0.44333273,2.4696324,-1.4189842,0.96645874,1.2845368,-0.03689844,1.0974618,1.7839954
0.0,0.0,1.0,0.0,0.5235987755982988,0,-0.024973037,-1.0123762,-2.6806488,0.1149055,-0.19712302,1.5343941,0.39202565,2.662267,-1.4069407,0.9628882,1.3511317,-0.10910494,1.0745702,1.9061499
0.0,0.0,1.0,0.0,0.5235987755982988,0,-0.018354574,-1.0304171,-2.742075,0.101959616,-0.17315641,1.5328176,0.49444667,2.4518402,-1.3946604,0.9501788,1.3019173,-0.05991456,1.0882206,2.0044403
0.0,0.0,1.0,0.0,0.5235987755982988,0,-0.0139451185,-1.0258005,-2.721531,0.11262061,-0.11542755,1.5408587,0.4387907,2.489897,-1.4194978,0.9927196,1.334709,-0.035643846,1.08408,2.0246294
0.0,0.0,1.0,0.0,0.5235987755982988,0,-0.00072969246,-1.0117365,-2.7087982,0.14911228,-0.224352,1.5517093,0.3466181,2.5402515,-1.4075422,0.96464664,1.304675,-0.07241537,1.0885016,2.0970945
0.0,0.0,1.0,0.0,0.5235987755982988,0,-0.0054900832,-1.0477755,-2.7421803,0.13579473,-0.20416984,1.5578672,0.36657548,2.484894,-1.4219642,0.9936806,1.3298836,-0.05099609,1.0969278,2.0883925
0.0,0.0,1.0,0.0,0.5235987755982988,0,-0.008062451,-1.0175494,-2.734689,0.15752919,-0.1826337,1.5578521,0.31863162,2.768441,-1.4348524,0.9808869,1.4189978,-0.095353074,1.0814327,2.0559177
0.0,0.0,1.0,0.0,0.5235987755982988,0,-0.016030062,-1.0193387,-2.7799728,0.13271198,-0.13921848,1.5385295,0.42503622,2.6532469,-1.4132051,0.9878581,1.3710507,-0.104031764,1.1035715,1.7686356
0.0,0.0,1.0,0.0,0.5235987755982988,0,0.0072068563,-1.0118772,-2.7199888,0.10944996,-0.30076638,1.5489115,0.49761054,2.6331704,-1.4133345,0.9726002,1.3802559,-0.0668336,1.096462,1.9145012
0.0,0.0,1.0,0.0,0.5235987755982988,0,-0.009442306,-1.0607698,-2.8020506,0.12133084,-0.16624957,1.5333061,0.37294245,2.5104694,-1.4069189,1.0080223,1.3319944,-0.037759654,1.09335,1.8863281
0.0,0.0,1.0,0.0,0.5235987755982988,0,0.009219587,-1.0237907,-2.78328,0.13011709,-0.19228998,1.5403274,0.36621422,2.6322324,-1.4092417,0.9756662,1.4013681,-0.02737842,1.0897659,1.755604
0.0,0.0,1.0,0.0,0.5235987755982988,0,-0.0032009603,-1.0205613,-2.732096,0.15895824,-0.2644222,1.5473757,0.38888538,2.7202127,-1.4021558,0.97719854,1.4135894,-0.075631194,1.0845519,1.9503223
0.0,0.0,1.0,0.0,0.5235987755982988,0,-0.017180972,-1.0116639,-2.7761002,0.10478703,-0.18215741,1.525933,0.40975997,2.6217391,-1.4163941,0.9856613,1.3619936,-0.043250572,1.0850434,2.0323877
0.0,0.0,1.0,0.0,0.5235987755982988,0,-0.015330398,-1.0253601,-2.806955,0.13342929,-0.22581755,1.5381199,0.20979589,2.6358669,-1.41127,0.98207325,1.3504431,-0.078363724,1.0923672,2.0835297
0.0,0.0,1.0,0.0,0.5235987755982988,0,-0.027880447,-1.026927,-2.8187325,0.12072855,-0.20760573,1.5091379,0.4147238,2.6117835,-1.4145957,0.9666522,1.3687264,-0.028851701,1.0754093,1.808499
0.0,0.0,1.0,0.0,0.5235987755982988,0,-0.009109115,-1.0210891,-2.7597325,0.0942406,-0.120977454,1.5510516,0.51009816,2.6464572,-1.4114289,0.9725281,1.3822098,-0.086998776,1.0923779,1.8100518
0.0,0.0,1.0,0.0,0.5235987755982988,0,-0.003801762,-0.99139774,-2.640458,0.120461926,-0.1367613,1.551491,0.42888132,2.7701442,-1.4011014,0.9960865,1.4199922,-0.062658034,1.0768731,1.9508967
0.0,0.0,1.0,0.0,0.5235987755982988,0,-0.015460511,-1.0051551,-2.7632434,0.16215074,-0.12654178,1.5291502,0.41892448,2.685397,-1.4217759,0.9702146,1.4022535,-0.049205486,1.080212,1.9056934
0.0,0.0,1.0,0.0,0.5235987755982988,0,-0.023318524,-1.0184449,-2.8345609,0.017980264,-0.19629008,1.5632765,0.41140088,2.670103,-1.394992,0.9922771,1.3905314,-0.048922416,1.0885174,1.8650408
0.0,0.0,1.0,0.0,0.5235987755982988,0,-0.000953286,-1.0336614,-2.692259,0.12377336,-0.13174354,1.5037333,0.23202558,2.6301744,-1.4195335,0.9882799,1.3672771,-0.08338016,1.0812771,1.9736605
0.0,0.0,1.0,0.0,0.5235987755982988,0,-0.009696026,-1.0282589,-2.8039613,0.08955124,-0.14179716,1.5309105,0.4166353,2.5169027,-1.428116,0.96483105,1.323568,-0.09235014,1.0901043,1.8877689
0.0,0.0,1.0,0.0,0.5235987755982988,0,-0.020400764,-1.0444908,-2.7769325,0.111029215,-0.21683775,1.5414872,0.46091583,2.5529506,-1.4110031,0.95069164,1.3591926,-0.05736416,1.0823823,1.8371034
0.0,0.0,1.0,0.0,0.5235987755982988,0,-0.01698207,-1.0394064,-2.7803512,0.14072591,-0.19818795,1.5461564,0.34965527,2.549444,-1.4206547,0.9718738,1.3508698,-0.06658682,1.0819756,1.9967661
0.0,0.0,1.0,0.0,0.5235987755982988,0,-0.017502848,-1.0227653,-2.7361572,0.1296658,-0.25400722,1.5329316,0.27732483,2.551074,-1.4185337,0.988114,1.3308287,-0.038878452,1.1051344,2.001353
0.0,0.0,1.0,0.0,0.5235987755982988,0,-0.015346626,-1.0230569,-2.6627362,0.108183965,-0.21486768,1.5340976,0.37527856,2.5025256,-1.3818043,0.97476745,1.3344151,-0.08797718,1.0864551,1.9365848
0.0,0.0,1.0,0.0,0.5235987755982988,0,-0.010793011,-1.0025866,-2.7236483,0.08689386,-0.15763369,1.5455623,0.3269561,2.689344,-1.4159505,0.99480927,1.3859026,-0.11220475,1.0902195,2.0747948
0.0,0.0,1.0,0.0,0.5235987755982988,0,-0.011317226,-1.0497067,-2.7859962,0.1461665,-0.18636717,1.5433053,0.30005342,2.719389,-1.4028388,0.9743952,1.3777558,-0.10377428,1.0949334,2.015533
0.0,0.0,1.0,0.0,0.5235987755982988,0,-0.01898878,-1.0317181,-2.710125,0.14754426,-0.1882626,1.5278388,0.29082295,2.6435807,-1.4024674,0.9758651,1.3764514,-0.06460642,1.0828588,1.9107356
0.0,0.0,1.0,0.0,0.5235987755982988,0,-0.0057024197,-1.0530195,-2.664979,0.11276579,-0.19334048,1.5575491,0.4544579,2.672465,-1.4203641,0.95870006,1.4201921,-0.09119143,1.0931655,1.9236887
0.0,0.0,1.0,0.0,0.5235987755982988,0,0.008554463,-1.0342035,-2.7234836,0.1192002,-0.19135268,1.5579405,0.4620993,2.6185555,-1.4237162,0.95513034,1.3500848,-0.086223125,1.0970631,1.7832026
0.0,0.0,1.0,0.0,0.5235987755982988,0,-0.011813446,-1.0233474,-2.7671523,0.19610743,-0.17579365,1.5548679,0.37451395,2.611731,-1.4218067,0.9777441,1.3353734,-0.066436976,1.0894545,1.9619331
0.0,0.0,1.0,0.0,0.5235987755982988,0,-0.007053247,-1.0307375,-2.7937374,0.15500231,-0.22405349,1.5420547,0.39202222,2.625589,-1.4189905,0.9711622,1.3378813,-0.09363793,1.0926886,1.8890504
0.0,0.0,1.0,0.0,0.5235987755982988,0,0.003039497,-1.0380311,-2.7409236,0.15308264,-0.1380792,1.5618281,0.2548832,2.5388439,-1.4303138,0.9663999,1.3515475,-0.06548955,1.0856466,1.9040976
0.0,0.0,1.0,0.0,0.5235987755982988,0,-0.008234988,-1.0277898,-2.663327,0.14450178,-0.13365154,1.5301139,0.32543656,2.5565012,-1.4180588,0.9860359,1.3474313,-0.10280791,1.0959821,1.9174062
0.0,0.0,1.0,0.0,0.5235987755982988,0,-0.019540347,-1.030648,-2.751153,0.12023999,-0.18535788,1.554759,0.4148275,2.5984106,-1.4326929,0.9539023,1.4203323,-0.041656014,1.0927,1.7101151
0.0,0.0,1.0,0.0,0.5235987755982988,0,0.00096915197,-1.0216436,-2.7194831,0.13691673,-0.21480085,1.5321404,0.3709044,2.5199833,-1.4364878,0.99262017,1.3530083,-0.0021865056,1.0914918,1.8753661
0.0,0.0,1.0,0.0,0.5235987755982988,0,-0.010183839,-1.0324739,-2.6674385,0.14765604,-0.113730706,1.5394381,0.31488457,2.585668,-1.4122671,0.99256486,1.3473517,-0.12484244,1.0972155,1.8244144
0.0,0.0,1.0,0.0,0.5235987755982988,0,-0.013538352,-1.011096,-2.7234547,0.1804154,-0.15756825,1.537974,0.43159464,2.4828897,-1.4257209,0.974105,1.3125968,-0.03098007,1.0927382,1.9025506
0.0,0.0,1.0,0.0,0.5235987755982988,0,0.00043938358,-1.0262393,-2.7274268,0.12892142,-0.13036378,1.5166706,0.31163642,2.600298,-1.4005003,0.9926205,1.3623037,-0.04661029,1.0955331,2.026247
0.0,0.0,1.0,0.0,0.5235987755982988,0,-0.015321368,-1.0477244,-2.6823106,0.18936697,-0.2232281,1.5607808,0.45862153,2.430032,-1.4222378,0.9978962,1.3766377,-0.057997588,1.0963969,1.9096292
0.0,0.0,1.0,0.0,0.5235987755982988,0,0.0072130314,-1.0195591,-2.673484,0.106087595,-0.18620431,1.5356256,0.4168628,2.542483,-1.4237546,0.9917052,1.3799762,-0.05957585,1.0857276,1.9502217
0.0,0.0,1.0,0.0,0.5235987755982988,0,-0.018606689,-0.9863573,-2.797944,0.07868938,-0.029359912,1.5400351,0.26877823,2.6083903,-1.4087298,0.98671937,1.3884928,-0.060952693,1.0952332,1.9232299
0.0,0.0,1.0,0.0,0.5235987755982988,0,-0.004361312,-1.0465093,-2.6677084,0.096251495,-0.15895943,1.5423235,0.35175994,2.5397034,-1.4309901,0.9974818,1.355327,-0.09816865,1.0909139,1.9513444
0.0,0.0,1.0,0.0,0.5235987755982988,0,0.0062732897,-1.0174032,-2.7994163,0.13705923,-0.17079122,1.5389296,0.40098023,2.764307,-1.4210551,0.9681209,1.4155263,-0.07033974,1.0900897,1.9827502
0.0,0.0,1.0,0.0,0.5235987755982988,0,-0.015388644,-1.0461785,-2.72306,0.15477301,-0.18989709,1.5603454,0.36330068,2.642833,-1.4412098,0.96144986,1.3797736,-0.103496425,1.0834453,1.9423362
0.0,0.0,1.0,0.0,0.5235987755982988,0,-0.017097741,-1.0149143,-2.7558012,0.10548752,-0.16730307,1.5521524,0.30163252,2.6329126,-1.4198569,0.9704934,1.3647866,-0.07463546,1.09979,1.7981973
0.0,0.0,1.0,0.0,0.5235987755982988,0,0.0048258356,-1.0190413,-2.810302,0.1844541,-0.1755437,1.5338598,0.4136696,2.525721,-1.3942072,0.96483684,1.321009,-0.061556444,1.0869913,1.8224939
0.0,0.0,1.0,0.0,0.5235987755982988,0,-0.006463797,-1.0177207,-2.7727535,0.15876356,-0.1982425,1.51901,0.41667956,2.7522,-1.4370536,0.9822728,1.380301,-0.053002313,1.0889182,1.9162652
0.0,0.0,1.0,0.0,0.5235987755982988,0,0.012565118,-1.015002,-2.7490532,0.17912339,-0.10552993,1.5686113,0.35041046,2.6077857,-1.427452,0.97422206,1.3587115,-0.07259609,1.0932856,1.8964279
0.0,0.0,1.0,0.0,0.5235987755982988,0,-0.01463866,-1.0419874,-2.7182686,0.19419388,-0.19009636,1.5236813,0.34065342,2.4956918,-1.409442,0.95840967,1.4007813,-0.08441052,1.0994549,1.9583501
0.0,0.0,1.0,0.0,0.5235987755982988,0,-0.0019597374,-1.0069785,-2.6657832,0.08408398,-0.19219792,1.5431814,0.44575074,2.444899,-1.4086996,0.98930424,1.373993,-0.14642242,1.0816554,1.8517979
0.0,0.0,1.0,0.0,0.5235987755982988,0,-0.006014607,-1.0039068,-2.7324543,0.036193497,-0.17994729,1.546018,0.48449326,2.5028696,-1.404598,0.97610956,1.390759,-0.05570977,1.0948383,1.8510103
0.0,0.0,1.0,0.0,0.5235987755982988,0,-0.008138229,-1.0512265,-2.6540291,0.06433376,-0.20777512,1.5678151,0.35306945,2.517717,-1.4234685,0.9806708,1.3360386,-0.11011716,1.0871634,2.0166605
0.0,0.0,1.0,0.0,0.5235987755982988,0,-0.014106104,-0.99855036,-2.7432835,0.10971303,-0.2687953,1.5102595,0.30896583,2.5230525,-1.4096576,0.9830207,1.3396984,-0.054377656,1.0998482,2.0321527
0.0,0.0,1.0,0.0,0.5235987755982988,0,0.0060872305,-1.0294814,-2.6989427,0.08954306,-0.15645619,1.5331697,0.37465578,2.7233558,-1.4105579,0.9547612,1.420003,-0.04971334,1.0840378,1.8424463
0.0,0.0,1.0,0.0,0.5235987755982988,0,-0.01525956,-1.0026048,-2.7048726,0.078425795,-0.26327324,1.563769,0.37394762,2.4869473,-1.4281881,0.9580361,1.3143016,-0.06275104,1.089098,1.9056523
0.0,0.0,1.0,0.0,0.5235987755982988,0,-0.01525956,-1.0026048,-2.7048726,0.078425795,-0.26327324,1.563769,0.37394762,2.4869473,-1.4281881,0.9580361,1.3143016,-0.06275104,1.089098,1.9056523
0.0,0.0,1.0,0.0,0.5235987755982988,0,-0.01525956,-1.0026048,-2.7048726,0.078425795,-0.26327324,1.563769,0.37394762,2.4869473,-1.4281881,0.9580361,1.3143016,-0.06275104,1.089098,1.9056523
0.0,0.0,1.0,0.0,0.5235987755982988,0,-0.01525956,-1.0026048,-2.7048726,0.078425795,-0.26327324,1.563769,0.37394762,2.4869473,-1.4281881,0.9580361,1.3143016,-0.06275104,1.089098,1.9056523
0.0,0.0,1.0,0.0,0.5235987755982988,0,-0.01525956,-1.0026048,-2.7048726,0.078425795,-0.26327324,1.563769,0.37394762,2.4869473,-1.4281881,0.9580361,1.3143016,-0.06275104,1.089098,1.9056523
0.0,0.0,1.0,0.0,0.5235987755982988,0,-0.01525956,-1.0026048,-2.7048726,0.078425795,-0.26327324,1.563769,0.37394762,2.4869473,-1.4281881,0.9580361,1.3143016,-0.06275104,1.089098,1.9056523
0.0,0.0,1.0,0.0,0.5235987755982988,0,-0.01525956,-1.0026048,-2.7048726,0.078425795,-0.26327324,1.563769,0.37394762,2.4869473,-1.4281881,0.9580361,1.3143016,-0.06275104,1.089098,1.9056523
0.0,0.0,1.0,0.0,0.5235987755982988,0,-0.01525956,-1.0026048,-2.7048726,0.078425795,-0.26327324,1.563769,0.37394762,2.4869473,-1.4281881,0.9580361,1.3143016,-0.06275104,1.089098,1.9056523
0.0,0.0,1.0,0.0,0.5235987755982988,0,0.0012914528,-0.9964837,-2.695301,0.16049483,-0.16333443,1.4792094,0.5464066,2.4281702,-1.4049472,0.9906321,1.3003737,-0.069172055,1.090306,1.7826576
0.0,0.0,1.0,0.0,0.5235987755982988,0,0.0012914528,-0.9964837,-2.695301,0.16049483,-0.16333443,1.4792094,0.5464066,2.4281702,-1.4049472,0.9906321,1.3003737,-0.069172055,1.090306,1.7826576
0.0,0.0,1.0,0.0,0.5235987755982988,0,0.0012914528,-0.9964837,-2.695301,0.16049483,-0.16333443,1.4792094,0.5464066,2.4281702,-1.4049472,0.9906321,1.3003737,-0.069172055,1.090306,1.7826576
0.0,0.0,1.0,0.0,0.5235987755982988,0,0.0012914528,-0.9964837,-2.695301,0.16049483,-0.16333443,1.4792094,0.5464066,2.4281702,-1.4049472,0.9906321,1.3003737,-0.069172055,1.090306,1.7826576
0.0,0.0,1.0,0.0,0.5235987755982988,0,0.0012914528,-0.9964837,-2.695301,0.16049483,-0.16333443,1.4792094,0.5464066,2.4281702,-1.4049472,0.9906321,1.3003737,-0.069172055,1.090306,1.7826576
0.0,0.0,1.0,0.0,0.5235987755982988,0,0.0012914528,-0.9964837,-2.695301,0.16049483,-0.16333443,1.4792094,0.5464066,2.4281702,-1.4049472,0.9906321,1.3003737,-0.069172055,1.090306,1.7826576
0.0,0.0,1.0,0.0,0.5235987755982988,0,0.0012914528,-0.9964837,-2.695301,0.16049483,-0.16333443,1.4792094,0.5464066,2.4281702,-1.4049472,0.9906321,1.3003737,-0.069172055,1.090306,1.7826576
0.0,0.0,1.0,0.0,0.5235987755982988,0,0.0012914528,-0.9964837,-2.695301,0.16049483,-0.16333443,1.4792094,0.5464066,2.4281702,-1.4049472,0.9906321,1.3003737,-0.069172055,1.090306,1.7826576
0.0,0.0,1.0,0.0,0.5235987755982988,0,-0.004809073,-1.0032037,-2.7909887,0.08919168,-0.13542575,1.5600276,0.3253888,2.4486916,-1.4094079,0.9683293,1.3308411,-0.062272884,1.098192,1.9353534
0.0,0.0,1.0,0.0,0.5235987755982988,0,-0.004809073,-1.0032037,-2.7909887,0.08919168,-0.13542575,1.5600276,0.3253888,2.4486916,-1.4094079,0.9683293,1.3308411,-0.062272884,1.098192,1.9353534
0.0,0.0,1.0,0.0,0.5235987755982988,0,-0.004809073,-1.0032037,-2.7909887,0.08919168,-0.13542575,1.5600276,0.3253888,2.4486916,-1.4094079,0.9683293,1.3308411,-0.062272884,1.098192,1.9353534
0.0,0.0,1.0,0.0,0.5235987755982988,0,-0.004809073,-1.0032037,-2.7909887,0.08919168,-0.13542575,1.5600276,0.3253888,2.4486916,-1.4094079,0.9683293,1.3308411,-0.062272884,1.098192,1.9353534
0.0,0.0,1.0,0.0,0.5235987755982988,0,-0.004809073,-1.0032037,-2.7909887,0.08919168,-0.13542575,1.5600276,0.3253888,2.4486916,-1.4094079,0.9683293,1.3308411,-0.062272884,1.098192,1.9353534
0.0,0.0,1.0,0.0,0.5235987755982988,0,-0.004809073,-1.0032037,-2.7909887,0.08919168,-0.13542575,1.5600276,0.3253888,2.4486916,-1.4094079,0.9683293,1.3308411,-0.062272884,1.098192,1.9353534
0.0,0.0,1.0,0.0,0.5235987755982988,0,-0.004809073,-1.0032037,-2.7909887,0.08919168,-0.13542575,1.5600276,0.3253888,2.4486916,-1.4094079,0.9683293,1.3308411,-0.062272884,1.098192,1.9353534
0.0,0.0,1.0,0.0,0.5235987755982988,0,-0.004809073,-1.0032037,-2.7909887,0.08919168,-0.13542575,1.5600276,0.3253888,2.4486916,-1.4094079,0.9683293,1.3308411,-0.062272884,1.098192,1.9353534
0.0,0.0,1.0,0.0,0.5235987755982988,0,-0.004809073,-1.0032037,-2.7909887,0.08919168,-0.13542575,1.5600276,0.3253888,2.4486916,-1.4094079,0.9683293,1.3308411,-0.062272884,1.098192,1.9353534
0.0,0.0,1.0,0.0,0.5235987755982988,0,-0.007212205,-1.0069194,-2.7275865,0.07358037,-0.13613234,1.5334085,0.31362334,2.4078674,-1.4060996,0.9619275,1.3172315,-0.031539004,1.0991979,2.0572996
0.0,0.0,1.0,0.0,0.5235987755982988,0,-0.007212205,-1.0069194,-2.7275865,0.07358037,-0.13613234,1.5334085,0.31362334,2.4078674,-1.4060996,0.9619275,1.3172315,-0.031539004,1.0991979,2.0572996
0.0,0.0,1.0,0.0,0.5235987755982988,0,-0.007212205,-1.0069194,-2.7275865,0.07358037,-0.13613234,1.5334085,0.31362334,2.4078674,-1.4060996,0.9619275,1.3172315,-0.031539004,1.0991979,2.0572996
0.0,0.0,1.0,0.0,0.5235987755982988,0,-0.007212205,-1.0069194,-2.7275865,0.07358037,-0.13613234,1.5334085,0.31362334,2.4078674,-1.4060996,0.9619275,1.3172315,-0.031539004,1.0991979,2.0572996
0.0,0.0,1.0,0.0,0.5235987755982988,0,-0.007212205,-1.0069194,-2.7275865,0.07358037,-0.13613234,1.5334085,0.31362334,2.4078674,-1.4060996,0.9619275,1.3172315,-0.031539004,1.0991979,2.0572996
0.0,0.0,1.0,0.0,0.5235987755982988,0,-0.007212205,-1.0069194,-2.7275865,0.07358037,-0.13613234,1.5334085,0.31362334,2.4078674,-1.4060996,0.9619275,1.3172315,-0.031539004,1.0991979,2.0572996
0.0,0.0,1.0,0.0,0.5235987755982988,0,-0.007212205,-1.0069194,-2.7275865,0.07358037,-0.13613234,1.5334085,0.31362334,2.4078674,-1.4060996,0.9619275,1.3172315,-0.031539004,1.0991979,2.0572996
