sanky1234/BimanualDexCatch/isaacgymenvs/cem_results/May31/football_pose_0.1_0.1_1.5_0.0_0.0_0_2025-05-31.csv
x,y,z,roll,pitch,yaw,robot1/joint1,robot1/joint2,robot1/joint3,robot1/joint4,robot1/joint5,robot1/joint6,robot1/joint7,robot2/joint1,robot2/joint2,robot2/joint3,robot2/joint4,robot2/joint5,robot2/joint6,robot2/joint7
0.1,0.1,1.5,0.0,0.0,0,0.5714843,-1.497355,0.18348491,-0.24468236,-0.16917945,-0.33429578,-0.7465961,2.3592393,0.16647719,0.5649751,-0.16962647,-0.45381162,-0.26199484,1.2637742
0.1,0.1,1.5,0.0,0.0,0,0.6795159,-1.5240453,0.19048281,-0.25079352,-0.2051137,-0.36282992,-0.75233597,2.4702282,0.16140394,0.50335914,-0.15875506,-0.5288345,-0.18137918,1.2144161
0.1,0.1,1.5,0.0,0.0,0,0.6183628,-1.5143973,0.21336398,-0.27130857,-0.1542196,-0.3742408,-0.77354926,2.5097394,0.13472745,0.53450376,-0.16879787,-0.22314037,-0.18598384,1.3434432
0.1,0.1,1.5,0.0,0.0,0,0.62446725,-1.4927441,0.20958488,-0.29409885,-0.10172063,-0.28285182,-0.787135,2.3688004,0.1488163,0.5191261,-0.15556899,-0.3451837,-0.15662514,1.4277822
0.1,0.1,1.5,0.0,0.0,0,0.69413674,-1.5179214,0.2022399,-0.24702182,-0.17228827,-0.3745973,-0.767934,2.4272194,0.16568959,0.5844642,-0.15241113,-0.24180168,-0.1906489,1.3088772
0.1,0.1,1.5,0.0,0.0,0,0.5314474,-1.4956802,0.22429428,-0.24209191,-0.14865229,-0.3353644,-0.8074501,2.6451144,0.09984917,0.45248833,-0.19456491,-0.26924852,-0.13878945,1.409369
0.1,0.1,1.5,0.0,0.0,0,0.59006023,-1.4791359,0.224527,-0.26589686,-0.12513375,-0.3955379,-0.67999834,2.6365762,0.12370415,0.52503276,-0.13244922,-0.39047432,-0.21894264,1.3022454
0.1,0.1,1.5,0.0,0.0,0,0.6135597,-1.4664645,0.19235586,-0.24683739,-0.14500327,-0.37623155,-0.7048727,2.4252293,0.14049406,0.5169258,-0.14747283,-0.322153,-0.057514336,1.3511268
0.1,0.1,1.5,0.0,0.0,0,0.52658737,-1.4949116,0.20495865,-0.26787654,-0.15391202,-0.33724207,-0.8030349,2.5967984,0.12352275,0.519612,-0.21689917,-0.4070076,-0.16594626,1.4349787
0.1,0.1,1.5,0.0,0.0,0,0.6510242,-1.461372,0.2034446,-0.29216385,-0.1063419,-0.2730213,-0.72288656,2.4516354,0.13985509,0.57748044,-0.11770551,-0.10627077,-0.20805232,1.2012087
0.1,0.1,1.5,0.0,0.0,0,0.5797204,-1.477989,0.18515651,-0.27691844,-0.13703813,-0.36927173,-0.82917887,2.6151912,0.13843863,0.50089175,-0.13408966,-0.25703505,-0.23457593,1.3707162
0.1,0.1,1.5,0.0,0.0,0,0.5479851,-1.4951674,0.16143247,-0.2889676,-0.13731283,-0.3855997,-0.8186493,2.5741322,0.1263139,0.5573339,-0.16510078,-0.3060533,-0.19725059,1.3235031
0.1,0.1,1.5,0.0,0.0,0,0.6303004,-1.4729817,0.2123211,-0.27022725,-0.09449022,-0.3618087,-0.76777464,2.4286392,0.071055986,0.48219183,-0.1911588,-0.29799396,-0.063878976,1.2159356
0.1,0.1,1.5,0.0,0.0,0,0.5692421,-1.4958789,0.15257482,-0.28185478,-0.20473668,-0.34813806,-0.7858875,2.7415774,0.17675923,0.46457106,-0.14058588,-0.30208564,-0.2191131,1.2209349
0.1,0.1,1.5,0.0,0.0,0,0.57173955,-1.5110795,0.21850105,-0.2624916,-0.212103,-0.33124056,-0.7596887,2.4383512,0.11218581,0.40882894,-0.141767,-0.29237986,-0.07277225,1.3631414
0.1,0.1,1.5,0.0,0.0,0,0.51211953,-1.4776483,0.19184788,-0.28203595,-0.13435832,-0.3247516,-0.80917764,2.5536077,0.05873865,0.5353946,-0.12747285,-0.19348682,-0.14317296,1.4204489
0.1,0.1,1.5,0.0,0.0,0,0.59088635,-1.499977,0.18701363,-0.2489089,-0.10894831,-0.43442,-0.75039834,2.4807682,0.11953074,0.51361024,-0.11998583,-0.20663968,-0.31658056,1.3387433
0.1,0.1,1.5,0.0,0.0,0,0.50630665,-1.4596348,0.16577166,-0.27628016,-0.13134997,-0.391521,-0.7247196,2.5922167,0.13368955,0.55228657,-0.12377853,-0.2852449,-0.25710782,1.2123814
0.1,0.1,1.5,0.0,0.0,0,0.5626477,-1.5036203,0.20249704,-0.27529323,-0.17411843,-0.35461256,-0.8241781,2.511075,0.09524958,0.41846132,-0.17379434,-0.547924,-0.101333074,1.3118185
0.1,0.1,1.5,0.0,0.0,0,0.5900713,-1.4734529,0.24529809,-0.26582506,-0.20300126,-0.38608107,-0.7767937,2.4690123,0.105886854,0.6277934,-0.15318356,-0.19094868,-0.17474772,1.3200217
0.1,0.1,1.5,0.0,0.0,0,0.5651212,-1.4788179,0.18583879,-0.26169822,-0.14417277,-0.36926785,-0.7240803,2.5087361,0.12055888,0.46956515,-0.11899175,-0.4135057,-0.23294546,1.3116256
0.1,0.1,1.5,0.0,0.0,0,0.6023698,-1.494289,0.22261606,-0.25410083,-0.16789298,-0.34755817,-0.78098255,2.5367603,0.07578949,0.4608676,-0.15036134,-0.37909967,-0.09224493,1.2986284
0.1,0.1,1.5,0.0,0.0,0,0.5407285,-1.5212127,0.17841345,-0.2756782,-0.14985853,-0.3439255,-0.8019022,2.4443848,0.13684835,0.5353931,-0.14215995,-0.20965025,-0.297822,1.1806264
0.1,0.1,1.5,0.0,0.0,0,0.59771377,-1.5017823,0.1795035,-0.28396583,-0.18051425,-0.37026638,-0.75758094,2.3810275,0.11210083,0.56979597,-0.17144611,-0.29361847,-0.14622337,1.3269682
0.1,0.1,1.5,0.0,0.0,0,0.60560155,-1.4828568,0.21167846,-0.2552314,-0.12452163,-0.2976034,-0.7337809,2.337599,0.13198589,0.60735965,-0.11611267,-0.30794865,-0.121439636,1.126016
0.1,0.1,1.5,0.0,0.0,0,0.6718226,-1.5423937,0.15431702,-0.26825854,-0.12170001,-0.34872895,-0.7602023,2.5327818,0.17582774,0.46755937,-0.14406468,-0.35396364,-0.15505905,1.2534779
0.1,0.1,1.5,0.0,0.0,0,0.48637202,-1.4531925,0.18846816,-0.2679958,-0.14410557,-0.30260313,-0.7714393,2.4386683,0.115420006,0.46304736,-0.15470755,-0.19704723,-0.23200494,1.4022225
0.1,0.1,1.5,0.0,0.0,0,0.59826696,-1.4853482,0.21148401,-0.2581874,-0.16208598,-0.32468235,-0.69064844,2.4766085,0.118313104,0.4688276,-0.15863371,-0.44352624,-0.26204696,1.301779
0.1,0.1,1.5,0.0,0.0,0,0.6095612,-1.5133595,0.19573754,-0.2619963,-0.1607509,-0.38021335,-0.70407504,2.69647,0.15651244,0.4646892,-0.14793481,-0.4488533,-0.23935401,1.296418
0.1,0.1,1.5,0.0,0.0,0,0.6055884,-1.4615792,0.19093406,-0.26311618,-0.17756772,-0.35084212,-0.74694544,2.5031059,0.1275576,0.4829699,-0.13775226,-0.11285417,-0.19550282,1.3331372
0.1,0.1,1.5,0.0,0.0,0,0.59428775,-1.5136092,0.19463223,-0.28334212,-0.106181905,-0.31446356,-0.77290183,2.5088854,0.10203792,0.5229617,-0.17298912,-0.33492962,-0.14255205,1.3209547
0.1,0.1,1.5,0.0,0.0,0,0.59943926,-1.517828,0.21954596,-0.25443953,-0.14981717,-0.36513925,-0.80250156,2.4049573,0.115321204,0.51667017,-0.16585656,-0.38134485,-0.1013624,1.3252087
0.1,0.1,1.5,0.0,0.0,0,0.551093,-1.4483584,0.1782048,-0.29417464,-0.13411097,-0.2889829,-0.78894985,2.3547475,0.12948348,0.5049138,-0.11370012,-0.2744621,-0.19403198,1.2584835
0.1,0.1,1.5,0.0,0.0,0,0.652053,-1.5243739,0.17195901,-0.28319916,-0.13564326,-0.32225212,-0.75951433,2.418397,0.1123357,0.52523136,-0.1526662,-0.4387532,-0.0578352,1.4109194
0.1,0.1,1.5,0.0,0.0,0,0.5355757,-1.4919926,0.17654169,-0.25502744,-0.21003228,-0.34720266,-0.771309,2.6355243,0.05311492,0.39591295,-0.11793018,-0.29433694,-0.10479554,1.3738533
0.1,0.1,1.5,0.0,0.0,0,0.56160825,-1.4936498,0.21009226,-0.25344297,-0.15381898,-0.4178436,-0.8143859,2.4022057,0.12386962,0.4888111,-0.17221431,-0.22686276,-0.16837354,1.239042
0.1,0.1,1.5,0.0,0.0,0,0.64748454,-1.5199417,0.1595755,-0.27195343,-0.18404537,-0.2636524,-0.7504301,2.4593523,0.16897203,0.48628458,-0.15598647,-0.58528453,-0.18423444,1.3773105
0.1,0.1,1.5,0.0,0.0,0,0.53669685,-1.4739336,0.18653378,-0.26121205,-0.1046829,-0.3743766,-0.89719695,2.592343,0.13551527,0.5562269,-0.13662535,-0.3095455,-0.17036958,1.3711646
0.1,0.1,1.5,0.0,0.0,0,0.60748506,-1.540759,0.1538141,-0.25941712,-0.12131964,-0.37117258,-0.74386007,2.3966575,0.18404862,0.49866465,-0.1893383,-0.25680572,-0.090538114,1.2857436
0.1,0.1,1.5,0.0,0.0,0,0.60225165,-1.4591357,0.17926235,-0.28292966,-0.15482548,-0.34815535,-0.7436822,2.3627832,0.18292916,0.5579002,-0.1545548,-0.3843114,-0.16784163,1.2894472
0.1,0.1,1.5,0.0,0.0,0,0.62784725,-1.4928432,0.1440846,-0.2945487,-0.13069105,-0.40103394,-0.7905311,2.4636555,0.100678824,0.4778524,-0.16373865,-0.3195036,0.016206326,1.2604325
0.1,0.1,1.5,0.0,0.0,0,0.6297447,-1.5230151,0.17828499,-0.28308067,-0.16510041,-0.3381647,-0.76435304,2.5387342,0.11531511,0.42488572,-0.17420286,-0.3589267,-0.14705095,1.4390659
0.1,0.1,1.5,0.0,0.0,0,0.6397308,-1.4963627,0.1808489,-0.2661333,-0.14351045,-0.43346015,-0.7724717,2.5491276,0.13432987,0.4416947,-0.15584676,-0.454856,-0.16558221,1.3736713
0.1,0.1,1.5,0.0,0.0,0,0.46926677,-1.4668355,0.16655217,-0.26261517,-0.15339462,-0.36528277,-0.77718407,2.7729964,0.15445961,0.45419726,-0.12820621,-0.2752308,-0.22141178,1.1482066
0.1,0.1,1.5,0.0,0.0,0,0.55098027,-1.509807,0.16035701,-0.27967343,-0.15302,-0.39402273,-0.7498319,2.5303652,0.13067886,0.5039269,-0.1845164,-0.3896885,-0.24443902,1.3413374
0.1,0.1,1.5,0.0,0.0,0,0.56274116,-1.4641242,0.16261378,-0.27962103,-0.09341279,-0.3469758,-0.77967894,2.4866931,0.13133186,0.46907118,-0.17841692,-0.2612895,-0.06768944,1.2911482
0.1,0.1,1.5,0.0,0.0,0,0.5811592,-1.4860399,0.18828551,-0.25061354,-0.20931411,-0.3472184,-0.76340455,2.6411307,0.16965352,0.42256358,-0.15742761,-0.41384843,-0.26574078,1.338013
0.1,0.1,1.5,0.0,0.0,0,0.5805143,-1.4712552,0.17975649,-0.2813859,-0.16859634,-0.36651203,-0.8078161,2.51293,0.12853184,0.45580062,-0.1683162,-0.46443206,-0.14890759,1.2827249
0.1,0.1,1.5,0.0,0.0,0,0.6224514,-1.4940062,0.22278497,-0.2728755,-0.15924983,-0.38550827,-0.7471867,2.4589977,0.099667706,0.5340427,-0.15690708,-0.3872504,-0.15577263,1.2068579
0.1,0.1,1.5,0.0,0.0,0,0.5552164,-1.4555475,0.22855578,-0.2562418,-0.15748353,-0.41104463,-0.8083932,2.4629545,0.09893705,0.521357,-0.17725672,-0.35767534,-0.19626114,1.3470241
0.1,0.1,1.5,0.0,0.0,0,0.53475726,-1.4340646,0.19490695,-0.28119758,-0.114490956,-0.4006335,-0.79402417,2.5875597,0.082795195,0.41172686,-0.16177526,-0.37041926,-0.16132458,1.3384578
0.1,0.1,1.5,0.0,0.0,0,0.592095,-1.5022453,0.21225278,-0.2545982,-0.109815575,-0.38206667,-0.71485436,2.605156,0.123979956,0.46780965,-0.15470618,-0.38668436,-0.29483345,1.236621
0.1,0.1,1.5,0.0,0.0,0,0.56066895,-1.4901211,0.17154764,-0.26575902,-0.123947516,-0.37949428,-0.8143825,2.4798658,0.106096,0.5515574,-0.15606318,-0.2994628,-0.031134479,1.1868573
0.1,0.1,1.5,0.0,0.0,0,0.5788598,-1.4960338,0.17896897,-0.26705787,-0.19281678,-0.38142848,-0.775079,2.5127385,0.11225632,0.58423287,-0.16370414,-0.31284794,-0.18433435,1.3334571
0.1,0.1,1.5,0.0,0.0,0,0.54811543,-1.4641514,0.17233609,-0.2445249,-0.10225092,-0.42364803,-0.78710526,2.6828482,0.14241987,0.51138026,-0.17754939,-0.21450467,-0.13303739,1.4111378
0.1,0.1,1.5,0.0,0.0,0,0.620914,-1.4472451,0.1810233,-0.28280848,-0.14308862,-0.37619135,-0.8053304,2.474356,0.13556613,0.546101,-0.21070732,-0.4222283,-0.049111206,1.5008247
0.1,0.1,1.5,0.0,0.0,0,0.47259656,-1.4839003,0.15868151,-0.2530939,-0.135021,-0.34677377,-0.7524895,2.6978033,0.10221183,0.42178345,-0.15405448,-0.27620164,-0.17954607,1.3607157
0.1,0.1,1.5,0.0,0.0,0,0.6037165,-1.5097065,0.20874886,-0.27388626,-0.219129,-0.36817038,-0.8073402,2.4373393,0.11912447,0.4999309,-0.12581046,-0.3675034,-0.23621099,1.3991181
0.1,0.1,1.5,0.0,0.0,0,0.5664595,-1.5136904,0.20000398,-0.27575177,-0.12859346,-0.2920248,-0.79636055,2.4611003,0.11672241,0.5173194,-0.17459922,-0.30442038,-0.21876529,1.3031923
0.1,0.1,1.5,0.0,0.0,0,0.6102089,-1.5201619,0.19879656,-0.2702793,-0.13172896,-0.33692175,-0.77928543,2.544517,0.11199349,0.34137768,-0.08716506,-0.3277336,-0.24441075,1.2492342
0.1,0.1,1.5,0.0,0.0,0,0.58512133,-1.5118246,0.16473992,-0.28033844,-0.12559499,-0.37457424,-0.7918723,2.6327822,0.16022216,0.5445228,-0.1942666,-0.34198126,-0.16315873,1.2899386
0.1,0.1,1.5,0.0,0.0,0,0.58931553,-1.4813464,0.15671192,-0.25625247,-0.14943273,-0.3662249,-0.7014692,2.6602898,0.14944674,0.5244591,-0.11204489,-0.41293317,-0.1888941,1.3379958
0.1,0.1,1.5,0.0,0.0,0,0.5961907,-1.4918573,0.11052498,-0.28516468,-0.19215228,-0.3185058,-0.7753543,2.552582,0.16590734,0.4769518,-0.1434998,-0.27974272,-0.2365807,1.3589853
0.1,0.1,1.5,0.0,0.0,0,0.50984335,-1.4545361,0.20456788,-0.26806703,-0.18525796,-0.33407763,-0.7690761,2.5574641,0.1339709,0.5927208,-0.18493174,-0.4533723,-0.191849,1.3032544
0.1,0.1,1.5,0.0,0.0,0,0.54066586,-1.4873415,0.17991015,-0.24743478,-0.077487834,-0.38320878,-0.8099221,2.4259512,0.11054207,0.51993364,-0.13453926,-0.20356463,-0.116740435,1.2609763
0.1,0.1,1.5,0.0,0.0,0,0.58144814,-1.4828904,0.20677441,-0.2956149,-0.18154824,-0.37361887,-0.8105541,2.3449833,0.1157648,0.6791636,-0.16254736,-0.29248184,-0.152189,1.2441397
0.1,0.1,1.5,0.0,0.0,0,0.52315706,-1.4463651,0.20453647,-0.2716485,-0.11468833,-0.42645055,-0.7955233,2.4015355,0.050666522,0.5418552,-0.09945564,-0.50089556,-0.11584658,1.1947603
0.1,0.1,1.5,0.0,0.0,0,0.5928917,-1.49871,0.18996777,-0.27692628,-0.1531047,-0.37297675,-0.80883294,2.7596457,0.14482555,0.45874915,-0.13530204,-0.33827513,-0.1669274,1.3437324
0.1,0.1,1.5,0.0,0.0,0,0.5227743,-1.4646994,0.21174732,-0.25500417,-0.12089243,-0.31321612,-0.77878624,2.7875576,0.17174709,0.4806425,-0.13787581,-0.5310452,-0.07165596,1.31179
0.1,0.1,1.5,0.0,0.0,0,0.5836155,-1.489141,0.19237925,-0.27302948,-0.08610395,-0.35385537,-0.788424,2.4816012,0.11615007,0.39650205,-0.13297834,-0.56620026,-0.08183176,1.2686958
0.1,0.1,1.5,0.0,0.0,0,0.6269928,-1.5302774,0.15512592,-0.28254938,-0.13754097,-0.2951315,-0.7810568,2.4956443,0.16418979,0.5381183,-0.16512665,-0.33807403,-0.23965263,1.4115041
0.1,0.1,1.5,0.0,0.0,0,0.5848678,-1.4885553,0.17813584,-0.27972955,-0.12506671,-0.39269438,-0.7156538,2.4044468,0.08215292,0.5617927,-0.12330937,-0.3277652,-0.14084606,1.3600485
0.1,0.1,1.5,0.0,0.0,0,0.60218775,-1.4781121,0.20343025,-0.26232636,-0.11615773,-0.36709967,-0.8036052,2.6581361,0.09866028,0.47324932,-0.16310395,-0.18764634,-0.10922102,1.3506672
0.1,0.1,1.5,0.0,0.0,0,0.62341315,-1.4932146,0.21644226,-0.2867693,-0.15229842,-0.38282624,-0.83938223,2.3920512,0.12746082,0.5540643,-0.17950389,-0.35256004,-0.1642042,1.4116912
0.1,0.1,1.5,0.0,0.0,0,0.62454724,-1.5045224,0.20115662,-0.26812053,-0.12557986,-0.3169812,-0.78425485,2.5119138,0.1188247,0.5308961,-0.11484548,-0.31263602,-0.15179284,1.3119217
0.1,0.1,1.5,0.0,0.0,0,0.62817603,-1.4777501,0.2172915,-0.2799611,-0.16037546,-0.390498,-0.71453714,2.4332266,0.12015691,0.574015,-0.15311614,-0.26840192,-0.18413785,1.270549
0.1,0.1,1.5,0.0,0.0,0,0.57636434,-1.4672271,0.20557477,-0.26325607,-0.24227959,-0.29686034,-0.77542764,2.4805489,0.10890279,0.46444812,-0.16239293,-0.33579454,-0.08412418,1.2813822
0.1,0.1,1.5,0.0,0.0,0,0.5307576,-1.46407,0.20995626,-0.2676931,-0.123340055,-0.36621583,-0.83362275,2.701134,0.18598282,0.51641285,-0.15026526,-0.47565567,-0.23245189,1.228689
0.1,0.1,1.5,0.0,0.0,0,0.6441941,-1.504648,0.2140706,-0.24679765,-0.13680238,-0.34273976,-0.7422393,2.5153275,0.11676789,0.49686956,-0.1948636,-0.15161818,-0.14347152,1.2840605
0.1,0.1,1.5,0.0,0.0,0,0.53782517,-1.4584848,0.20418964,-0.25613347,-0.10292531,-0.3756431,-0.8073186,2.5381227,0.08134481,0.49036258,-0.13775906,-0.5130309,-0.19313532,1.3023223
0.1,0.1,1.5,0.0,0.0,0,0.61429846,-1.5098836,0.19771232,-0.27451319,-0.12983474,-0.3477649,-0.7840866,2.5085454,0.10417756,0.5781797,-0.15933117,-0.40482885,-0.078450345,1.3503964
0.1,0.1,1.5,0.0,0.0,0,0.59343976,-1.4524733,0.16754578,-0.27087057,-0.13180812,-0.37326056,-0.82802945,2.4895377,0.1945534,0.4529775,-0.18849649,-0.40326908,-0.06792142,1.2644928
0.1,0.1,1.5,0.0,0.0,0,0.62534875,-1.472188,0.2031401,-0.25412002,-0.16022019,-0.4584075,-0.74024874,2.4723825,0.123998076,0.56764466,-0.1418009,-0.27312145,-0.19414793,1.386072
0.1,0.1,1.5,0.0,0.0,0,0.5945948,-1.4429599,0.1754393,-0.25712714,-0.16043292,-0.36745912,-0.8047911,2.6936197,0.1629517,0.5254141,-0.2023343,-0.43289384,-0.04735705,1.323908
0.1,0.1,1.5,0.0,0.0,0,0.5532419,-1.470048,0.21284677,-0.24194053,-0.15134655,-0.34192166,-0.722215,2.4157255,0.14937243,0.5452106,-0.20858827,-0.36406085,-0.10847321,1.2848923
0.1,0.1,1.5,0.0,0.0,0,0.6034248,-1.4877243,0.1681529,-0.26493242,-0.1609291,-0.34493,-0.73529315,2.5116553,0.1420217,0.46724635,-0.15328598,-0.2937451,-0.19188814,1.3196212
0.1,0.1,1.5,0.0,0.0,0,0.53449965,-1.391298,0.22601148,-0.28022107,-0.18214136,-0.36650172,-0.72120434,2.3706028,0.15286152,0.5540557,-0.13323036,-0.37768567,-0.12529399,1.2466797
0.1,0.1,1.5,0.0,0.0,0,0.5609867,-1.4906065,0.1728455,-0.26950622,-0.18266344,-0.36544853,-0.84904253,2.5294974,0.10359538,0.5701794,-0.14668079,-0.34512028,-0.21495368,1.2787641
0.1,0.1,1.5,0.0,0.0,0,0.56351924,-1.4574844,0.18399188,-0.26667604,-0.096469015,-0.4258384,-0.71709466,2.487725,0.1409846,0.55712277,-0.12067881,-0.3651066,-0.3703467,1.2958636
0.1,0.1,1.5,0.0,0.0,0,0.6221062,-1.4889685,0.22598912,-0.2700753,-0.13557568,-0.36991596,-0.820019,2.4601972,0.115631305,0.5009042,-0.13528599,-0.19477981,-0.21234646,1.353033
0.1,0.1,1.5,0.0,0.0,0,0.53669745,-1.4459019,0.19356602,-0.25807405,-0.11380635,-0.35658213,-0.78883666,2.5088003,0.13578168,0.42526892,-0.2088014,-0.38035348,-0.052391905,1.2723354
0.1,0.1,1.5,0.0,0.0,0,0.5721772,-1.4631793,0.20983459,-0.2616905,-0.078311786,-0.36993462,-0.7691609,2.3267014,0.17886834,0.5492953,-0.14441596,-0.2444802,-0.23575252,1.274074
0.1,0.1,1.5,0.0,0.0,0,0.5735056,-1.4944227,0.18807806,-0.24478018,-0.09929385,-0.33821675,-0.8102445,2.5447543,0.08712881,0.42230472,-0.12648796,-0.45715317,-0.23813698,1.3817272
0.1,0.1,1.5,0.0,0.0,0,0.59002167,-1.4888108,0.18814693,-0.2671297,-0.12668514,-0.38914987,-0.7414408,2.4967926,0.15009479,0.601998,-0.1885467,-0.4235472,-0.23500356,1.3138602
0.1,0.1,1.5,0.0,0.0,0,0.5953999,-1.5171279,0.19569287,-0.2555368,-0.16168217,-0.32319596,-0.7833542,2.6332614,0.11716965,0.40280613,-0.1647944,-0.31892225,-0.24608935,1.1911771
0.1,0.1,1.5,0.0,0.0,0,0.6217752,-1.502328,0.22544686,-0.24290553,-0.16141766,-0.29899994,-0.7549619,2.4484746,0.13548161,0.5488432,-0.17131567,-0.4246826,-0.2604525,1.2933435
0.1,0.1,1.5,0.0,0.0,0,0.5655849,-1.4687942,0.16901617,-0.26661485,-0.10057603,-0.33599883,-0.77640396,2.6043417,0.15816446,0.4903023,-0.15832971,-0.31210014,-0.24935415,1.4220474
0.1,0.1,1.5,0.0,0.0,0,0.65350187,-1.5216876,0.21190579,-0.27870527,-0.13980727,-0.312903,-0.8549067,2.5643818,0.092658505,0.51748294,-0.133482,-0.34322166,-0.20639789,1.3037349
0.1,0.1,1.5,0.0,0.0,0,0.5739746,-1.4902017,0.16212812,-0.25341314,-0.16091415,-0.33222324,-0.78513074,2.574674,0.0997243,0.39956772,-0.12088483,-0.38027096,-0.07945432,1.3302965
0.1,0.1,1.5,0.0,0.0,0,0.5988819,-1.453739,0.17631117,-0.2649743,-0.1733482,-0.43217418,-0.7497734,2.5842452,0.116619445,0.4950824,-0.16249385,-0.4073986,-0.07345823,1.2305094
0.1,0.1,1.5,0.0,0.0,0,0.5852129,-1.496652,0.16187045,-0.255758,-0.12971222,-0.35165653,-0.7932372,2.470465,0.16284259,0.478077,-0.16279867,-0.30538574,-0.16504617,1.2995421
0.1,0.1,1.5,0.0,0.0,0,0.63691354,-1.5053875,0.20037007,-0.2767079,-0.09642978,-0.39438418,-0.75291586,2.5462577,0.10782482,0.3862509,-0.13432117,-0.5312503,-0.2921635,1.3681539
0.1,0.1,1.5,0.0,0.0,0,0.56306165,-1.4797186,0.15686928,-0.27465123,-0.17883757,-0.3217196,-0.8064005,2.5218863,0.15359277,0.48040074,-0.19660059,-0.2973585,-0.1442817,1.3483025
0.1,0.1,1.5,0.0,0.0,0,0.57310516,-1.4032433,0.23254035,-0.27026358,-0.09720519,-0.39980182,-0.7568756,2.445762,0.12007619,0.50212485,-0.14774702,-0.29641148,-0.089638695,1.2988608
0.1,0.1,1.5,0.0,0.0,0,0.59947306,-1.4878867,0.17662743,-0.24649501,-0.1643075,-0.3756913,-0.7749154,2.6816745,0.10735678,0.40135393,-0.12091468,-0.22518378,-0.09464921,1.1377722
0.1,0.1,1.5,0.0,0.0,0,0.6039327,-1.452651,0.15360658,-0.28520784,-0.15773489,-0.37805873,-0.781537,2.421482,0.15870643,0.46164653,-0.1120391,-0.2922444,-0.11312934,1.3263376
0.1,0.1,1.5,0.0,0.0,0,0.6011925,-1.4917582,0.18162377,-0.25769287,-0.117552936,-0.38582906,-0.7881135,2.618841,0.13149095,0.46581843,-0.17893334,-0.20976372,-0.21060054,1.2555346
0.1,0.1,1.5,0.0,0.0,0,0.6119457,-1.5090374,0.16642015,-0.25010362,-0.15321448,-0.39197704,-0.7716478,2.7037458,0.16735715,0.5341511,-0.16725403,-0.466913,-0.034433335,1.2327994
0.1,0.1,1.5,0.0,0.0,0,0.6818319,-1.543931,0.22512588,-0.27002603,-0.11828957,-0.36414662,-0.7810463,2.6183667,0.15072471,0.4202541,-0.13101785,-0.42481813,-0.24813603,1.2918854
0.1,0.1,1.5,0.0,0.0,0,0.6687789,-1.486408,0.19929184,-0.2622269,-0.17023414,-0.3376335,-0.76975805,2.5931568,0.14172249,0.479687,-0.16235256,-0.2090286,-0.11981365,1.2635211
0.1,0.1,1.5,0.0,0.0,0,0.642624,-1.4927529,0.2107385,-0.25533858,-0.16117328,-0.4026706,-0.8353032,2.3468304,0.16219306,0.6108138,-0.20384562,-0.1816548,-0.15475461,1.3060533
0.1,0.1,1.5,0.0,0.0,0,0.57668287,-1.4774531,0.16690974,-0.2979527,-0.15091391,-0.3770317,-0.7657284,2.5189037,0.07703016,0.48611432,-0.1444229,-0.4202318,-0.11800855,1.3964051
0.1,0.1,1.5,0.0,0.0,0,0.55853903,-1.4316562,0.19448374,-0.25709087,-0.1598372,-0.434189,-0.78514045,2.54231,0.069873996,0.56341064,-0.061698906,-0.42764527,-0.1157888,1.0915327
0.1,0.1,1.5,0.0,0.0,0,0.6569401,-1.4797211,0.1948792,-0.2911944,-0.07824116,-0.37694526,-0.76881087,2.4761884,0.15510418,0.5113209,-0.13839744,-0.3625981,-0.2920315,1.2605854
0.1,0.1,1.5,0.0,0.0,0,0.6173233,-1.4839054,0.17023894,-0.27425653,-0.10515074,-0.33683243,-0.7626617,2.3867075,0.15035243,0.60646087,-0.13373077,-0.3439005,-0.20873779,1.1563171
0.1,0.1,1.5,0.0,0.0,0,0.6057857,-1.4804851,0.17826259,-0.26898646,-0.1664644,-0.37785718,-0.7930177,2.6327825,0.13217518,0.4929562,-0.13051121,-0.51742196,-0.2002501,1.1763449
0.1,0.1,1.5,0.0,0.0,0,0.69363517,-1.5047895,0.19505659,-0.26954323,-0.10648659,-0.30401576,-0.7692673,2.6348352,0.173979,0.5225713,-0.15667395,-0.35334158,-0.15559007,1.257345
0.1,0.1,1.5,0.0,0.0,0,0.5789604,-1.4485251,0.18480785,-0.25119054,-0.17112842,-0.3566729,-0.71615654,2.663399,0.17243096,0.5486483,-0.15167323,-0.19446616,-0.1032268,1.1403223
0.1,0.1,1.5,0.0,0.0,0,0.508859,-1.513797,0.2155556,-0.25401977,-0.12849928,-0.36596566,-0.71330345,2.2525187,0.17730558,0.4057752,-0.16188297,-0.26439992,-0.14027357,1.2743177
0.1,0.1,1.5,0.0,0.0,0,0.57391524,-1.4898708,0.19782437,-0.2637515,-0.14507945,-0.40426913,-0.7609215,2.5281417,0.15930076,0.41326946,-0.20816997,-0.26863632,-0.15881146,1.2989472
0.1,0.1,1.5,0.0,0.0,0,0.52773046,-1.4963917,0.1923251,-0.2695459,-0.10342322,-0.38717002,-0.79294574,2.693057,0.16420434,0.59003186,-0.07384162,-0.27801642,-0.114126615,1.3770735
0.1,0.1,1.5,0.0,0.0,0,0.68523186,-1.501845,0.22539175,-0.24736372,-0.116809964,-0.3623814,-0.72605115,2.4927497,0.14531827,0.48849556,-0.14525512,-0.2232595,-0.15869953,1.3143
0.1,0.1,1.5,0.0,0.0,0,0.57895386,-1.4851366,0.21706098,-0.2539073,-0.06915853,-0.37922797,-0.82902914,2.6341639,0.15994759,0.6113408,-0.1342118,-0.505741,-0.071627006,1.3358372
0.1,0.1,1.5,0.0,0.0,0,0.5475559,-1.4872738,0.23144683,-0.25380132,-0.114646696,-0.38466686,-0.8485413,2.7144284,0.16594493,0.56513923,-0.15595824,-0.2916171,-0.08710817,1.4546572
0.1,0.1,1.5,0.0,0.0,0,0.54542,-1.4913853,0.1647371,-0.27798802,-0.17011268,-0.35129467,-0.7960938,2.7305026,0.16271275,0.48642203,-0.109635875,-0.2583742,-0.16383831,1.254408
0.1,0.1,1.5,0.0,0.0,0,0.5689798,-1.4958651,0.20386349,-0.26876265,-0.15572315,-0.36942282,-0.8169514,2.6159017,0.14268313,0.6051706,-0.10820384,-0.24963932,-0.11684441,1.4065889
0.1,0.1,1.5,0.0,0.0,0,0.6039079,-1.4964628,0.17098182,-0.2663744,-0.11209868,-0.37127241,-0.7807463,2.5925474,0.14749548,0.53907335,-0.11250426,-0.056777168,-0.10746431,1.4238094
0.1,0.1,1.5,0.0,0.0,0,0.6101044,-1.4664229,0.19220105,-0.27375692,-0.15678121,-0.32969692,-0.78092337,2.5896418,0.10838048,0.41737425,-0.13590965,-0.42330596,0.026522495,1.311354
0.1,0.1,1.5,0.0,0.0,0,0.58363754,-1.5181221,0.18211937,-0.28135693,-0.12444989,-0.35570318,-0.783253,2.5924423,0.14080478,0.62753916,-0.12857497,-0.3818522,-0.03616692,1.3520007
0.1,0.1,1.5,0.0,0.0,0,0.5974209,-1.4611645,0.16084741,-0.2762154,-0.151395,-0.4338672,-0.7674749,2.6001866,0.139063,0.54383427,-0.12157076,-0.32907528,-0.09620846,1.4378475
0.1,0.1,1.5,0.0,0.0,0,0.68604946,-1.4982716,0.25419986,-0.27649942,-0.1441531,-0.3595065,-0.8382914,2.4409363,0.13434772,0.57930195,-0.1641636,-0.5941326,-0.17681977,1.4823406
0.1,0.1,1.5,0.0,0.0,0,0.55410355,-1.4613762,0.15270938,-0.27611682,-0.15845095,-0.3838887,-0.7528368,2.6640904,0.12629642,0.5192544,-0.097516224,-0.3324159,-0.1153124,1.2907904
0.1,0.1,1.5,0.0,0.0,0,0.5415961,-1.5286545,0.17175376,-0.2618939,-0.029999392,-0.3137303,-0.7898011,2.789438,0.08574817,0.3626874,-0.15354243,-0.2471195,-0.04853086,1.332877
0.1,0.1,1.5,0.0,0.0,0,0.5663771,-1.4994746,0.17329751,-0.2604902,-0.13873912,-0.39303696,-0.7628591,2.5127194,0.15991399,0.69905263,-0.09832498,-0.3101027,-0.15154448,1.3620749
0.1,0.1,1.5,0.0,0.0,0,0.544808,-1.5108033,0.20674448,-0.2922088,-0.14649554,-0.40001568,-0.77671534,2.4975185,0.09744613,0.50993425,-0.16586731,-0.35958275,-0.18623886,1.2952244
0.1,0.1,1.5,0.0,0.0,0,0.5448411,-1.5109297,0.22487515,-0.25821644,-0.122171566,-0.3569106,-0.75730544,2.6543863,0.12129641,0.5571884,-0.15292238,-0.3226443,-0.13547902,1.38244
0.1,0.1,1.5,0.0,0.0,0,0.55519074,-1.4980514,0.17701931,-0.2703357,-0.14463626,-0.34407687,-0.76589435,2.7053576,0.20199406,0.51735044,-0.1650355,-0.22954813,-0.19302195,1.2168287
0.1,0.1,1.5,0.0,0.0,0,0.55390114,-1.5087081,0.21738103,-0.26213083,-0.18835416,-0.37564158,-0.7686037,2.7555506,0.13197814,0.47662768,-0.14273123,-0.31827602,-0.14057608,1.2334522
0.1,0.1,1.5,0.0,0.0,0,0.49768466,-1.5546622,0.2181579,-0.26989415,-0.10456289,-0.32641384,-0.7991405,2.5587413,0.10529654,0.62535715,-0.15006855,-0.31816024,-0.17406023,1.3916626
0.1,0.1,1.5,0.0,0.0,0,0.5319106,-1.4920298,0.20977332,-0.2607624,-0.13736518,-0.3711839,-0.8058828,2.7694855,0.16480608,0.508095,-0.16456263,-0.37068635,-0.04714008,1.3617926
0.1,0.1,1.5,0.0,0.0,0,0.60525525,-1.485943,0.21951029,-0.29597893,-0.14323531,-0.3625281,-0.74267983,2.4871445,0.104404844,0.6489136,-0.17251845,-0.1977334,-0.043013785,1.3596103
0.1,0.1,1.5,0.0,0.0,0,0.5734855,-1.5075295,0.2217317,-0.25663126,-0.09675023,-0.37705463,-0.7235654,2.4497635,0.10573568,0.54793864,-0.13496017,-0.39290258,-0.26675084,1.3088937
0.1,0.1,1.5,0.0,0.0,0,0.5596004,-1.4990305,0.2078276,-0.25682938,-0.19821307,-0.3523366,-0.7627387,2.7907705,0.15004222,0.41878837,-0.13778408,-0.29816055,-0.1642642,1.3395442
0.1,0.1,1.5,0.0,0.0,0,0.6255355,-1.4787719,0.15152329,-0.27655497,-0.13757111,-0.34901398,-0.7336618,2.5194304,0.15750524,0.55832297,-0.1267527,-0.18144114,-0.15833694,1.4853442
0.1,0.1,1.5,0.0,0.0,0,0.5510726,-1.489791,0.2220352,-0.2853483,-0.16458267,-0.3882641,-0.7842448,2.626303,0.16391918,0.6283223,-0.19901934,-0.306517,-0.08366246,1.3992127
0.1,0.1,1.5,0.0,0.0,0,0.5487307,-1.4758805,0.20967929,-0.27083743,-0.18263501,-0.36152583,-0.80411404,2.8281617,0.17628859,0.4247771,-0.1435012,-0.4508953,-0.104685165,1.2516143
0.1,0.1,1.5,0.0,0.0,0,0.56496364,-1.4979371,0.22655652,-0.2921225,-0.16098048,-0.33440363,-0.8293085,2.709603,0.12384204,0.50999606,-0.16970757,-0.39351743,-0.101194724,1.3307699
0.1,0.1,1.5,0.0,0.0,0,0.59608954,-1.4828163,0.19692363,-0.27247703,-0.17802577,-0.39499342,-0.73516566,2.6296427,0.13316573,0.52328837,-0.12295611,-0.27689353,-0.1656087,1.4072202
0.1,0.1,1.5,0.0,0.0,0,0.59419936,-1.4781795,0.17538132,-0.26531273,-0.18893711,-0.35790136,-0.76341826,2.655329,0.1618679,0.5094524,-0.105539076,-0.28471026,-0.21812224,1.2685062
0.1,0.1,1.5,0.0,0.0,0,0.5416608,-1.4902203,0.19645934,-0.25580502,-0.1266403,-0.4166852,-0.8583278,2.6010125,0.14259101,0.59080756,-0.13761833,-0.1958431,-0.19561872,1.3560259
0.1,0.1,1.5,0.0,0.0,0,0.51741683,-1.5018487,0.22365911,-0.25561756,-0.15883082,-0.3152625,-0.79079,2.6637464,0.1509255,0.5508956,-0.15559979,-0.41281006,-0.18813996,1.2823159
0.1,0.1,1.5,0.0,0.0,0,0.52060324,-1.4763939,0.2246728,-0.27430627,-0.14846215,-0.32727703,-0.7420723,2.5942352,0.1316189,0.60369706,-0.13511755,-0.35824978,-0.106226616,1.2406107
0.1,0.1,1.5,0.0,0.0,0,0.7311444,-1.5101804,0.19891296,-0.2612542,-0.1411114,-0.3721693,-0.77235705,2.496146,0.14705426,0.50396806,-0.0901225,-0.49084762,-0.19963491,1.2357284
0.1,0.1,1.5,0.0,0.0,0,0.60772485,-1.4717058,0.19645627,-0.26798168,-0.14178617,-0.3139676,-0.76304865,2.578611,0.14286701,0.5390422,-0.16125147,-0.1373727,-0.13916147,1.3627876
0.1,0.1,1.5,0.0,0.0,0,0.5650798,-1.4855895,0.21258666,-0.2785404,-0.168753,-0.3678215,-0.7959581,2.6305933,0.14723164,0.5432504,-0.16462074,-0.4132202,-0.1828593,1.4281749
0.1,0.1,1.5,0.0,0.0,0,0.63055366,-1.4919914,0.19163914,-0.2684394,-0.1078413,-0.42258978,-0.810642,2.5042677,0.15358177,0.594916,-0.20654562,-0.22766992,-0.15851249,1.2192163
0.1,0.1,1.5,0.0,0.0,0,0.5959937,-1.4940629,0.19320932,-0.27706233,-0.13552031,-0.30873698,-0.82463276,2.709768,0.19487593,0.5376245,-0.13791141,-0.40921527,-0.08495987,1.332874
0.1,0.1,1.5,0.0,0.0,0,0.54880524,-1.5121481,0.16463488,-0.25292858,-0.17602053,-0.39624587,-0.7174007,2.6550658,0.1663627,0.55242616,-0.15920533,-0.18405817,-0.28128397,1.2982781
0.1,0.1,1.5,0.0,0.0,0,0.5692903,-1.4752014,0.17466843,-0.2729395,-0.16831508,-0.36919114,-0.7805847,2.5397944,0.13262065,0.45520744,-0.13499138,-0.16218376,-0.21104483,1.2989581
0.1,0.1,1.5,0.0,0.0,0,0.5830883,-1.4994118,0.23904416,-0.2603418,-0.117777295,-0.30986533,-0.7271769,2.6234946,0.16787913,0.5150952,-0.1311367,-0.26445556,-0.22228973,1.2080158
0.1,0.1,1.5,0.0,0.0,0,0.5914346,-1.4847245,0.21426553,-0.27809232,-0.1581264,-0.37206137,-0.8096731,2.497262,0.12969586,0.66135377,-0.13825497,-0.27788076,-0.18760838,1.3483925
0.1,0.1,1.5,0.0,0.0,0,0.51375026,-1.5035149,0.18639617,-0.2667839,-0.18004069,-0.40522003,-0.7709386,2.6452787,0.14956984,0.5724712,-0.13573276,-0.35892373,-0.16394176,1.4005679
0.1,0.1,1.5,0.0,0.0,0,0.5797924,-1.463928,0.19213483,-0.25288412,-0.124799475,-0.37788597,-0.8064838,2.7161424,0.1450635,0.49659923,-0.11356077,-0.41039392,-0.18401025,1.3858393
0.1,0.1,1.5,0.0,0.0,0,0.522687,-1.4714062,0.1946991,-0.2525896,-0.22008508,-0.40437695,-0.7451317,2.7159343,0.1504139,0.46475846,-0.09385495,-0.28026265,-0.0673149,1.3534315
0.1,0.1,1.5,0.0,0.0,0,0.60231245,-1.4761808,0.19645089,-0.2874039,-0.12502828,-0.37577486,-0.76306874,2.6301649,0.16527683,0.49951857,-0.12148203,-0.3248511,-0.28021106,1.3728349
0.1,0.1,1.5,0.0,0.0,0,0.60858774,-1.4806197,0.18985671,-0.26210317,-0.1906145,-0.31402007,-0.76258886,2.703727,0.11938113,0.47380736,-0.13886969,-0.368164,-0.006417543,1.4721789
0.1,0.1,1.5,0.0,0.0,0,0.57646465,-1.4740053,0.18518648,-0.273233,-0.13731676,-0.3400495,-0.7859426,2.7691617,0.16877232,0.47646567,-0.16215156,-0.21694194,-0.10270406,1.2723027
0.1,0.1,1.5,0.0,0.0,0,0.5654421,-1.5216333,0.18675853,-0.2635005,-0.10147457,-0.31720746,-0.8159888,2.4839401,0.12706351,0.5963239,-0.17151164,-0.29547974,-0.23180336,1.3074467
0.1,0.1,1.5,0.0,0.0,0,0.5644105,-1.4666771,0.20807016,-0.28084892,-0.06822898,-0.4163396,-0.79529613,2.6503432,0.1272739,0.5508761,-0.12846935,-0.35587355,-0.1953053,1.3507936
0.1,0.1,1.5,0.0,0.0,0,0.6542996,-1.5215092,0.24954335,-0.2624414,-0.17119509,-0.3185315,-0.77875245,2.547326,0.15516406,0.5641862,-0.08321833,-0.3330673,-0.24307548,1.2886795
0.1,0.1,1.5,0.0,0.0,0,0.5617833,-1.4888422,0.14393435,-0.27181083,-0.119646735,-0.3221867,-0.7098259,2.6945066,0.1367652,0.5219422,-0.11856268,-0.32259926,-0.032539506,1.297348
0.1,0.1,1.5,0.0,0.0,0,0.5332827,-1.4778411,0.19438633,-0.2774665,-0.19572957,-0.3391831,-0.8055036,2.6339707,0.11949781,0.5442152,-0.11891858,-0.38639233,-0.2065201,1.3792826
0.1,0.1,1.5,0.0,0.0,0,0.5611377,-1.4884225,0.18221723,-0.23375656,-0.14962272,-0.2917425,-0.83300775,2.5654833,0.13138627,0.54720026,-0.171424,-0.26370534,-0.14825721,1.3256122
0.1,0.1,1.5,0.0,0.0,0,0.5635634,-1.5251797,0.14801282,-0.26939207,-0.17305453,-0.34587073,-0.7855511,2.5920281,0.0829155,0.58815914,-0.1041905,-0.18311286,-0.08898923,1.2791348
0.1,0.1,1.5,0.0,0.0,0,0.5627343,-1.525235,0.17942958,-0.27762115,-0.14334002,-0.37041083,-0.89220524,2.5903115,0.12287619,0.569938,-0.20147303,-0.03828539,-0.10065397,1.274304
0.1,0.1,1.5,0.0,0.0,0,0.5449077,-1.4811255,0.20540911,-0.27707237,-0.1634617,-0.38084802,-0.77620417,2.6729198,0.118531354,0.47403598,-0.14984572,-0.28607723,-0.06793799,1.4069482
0.1,0.1,1.5,0.0,0.0,0,0.61217237,-1.472879,0.1921548,-0.25383994,-0.15613808,-0.33576226,-0.7123986,2.6922457,0.19029199,0.51168406,-0.20384668,-0.31426755,-0.11221912,1.410456
0.1,0.1,1.5,0.0,0.0,0,0.6165,-1.4556293,0.20779617,-0.28050986,-0.12711447,-0.33181635,-0.771543,2.7297666,0.15067808,0.50137186,-0.14613032,-0.3794666,-0.0714143,1.3133755
0.1,0.1,1.5,0.0,0.0,0,0.6109215,-1.4879956,0.21171603,-0.26264414,-0.14685361,-0.4287384,-0.84377486,2.5755937,0.14976078,0.56775093,-0.16145107,-0.5686563,-0.22561128,1.2303976
0.1,0.1,1.5,0.0,0.0,0,0.5862623,-1.4818035,0.141692,-0.24026121,-0.1825961,-0.35038874,-0.79756486,2.6436045,0.19964011,0.57791,-0.19282843,-0.40785313,-0.11666184,1.3926378
0.1,0.1,1.5,0.0,0.0,0,0.5929147,-1.4652203,0.20837924,-0.29413134,-0.08720637,-0.36302042,-0.77285564,2.612977,0.17088182,0.54486775,-0.15598334,-0.22420327,-0.26986733,1.2958657
0.1,0.1,1.5,0.0,0.0,0,0.5140643,-1.4590085,0.19531754,-0.25122407,-0.1897505,-0.35819036,-0.7506689,2.6350806,0.12925974,0.54048884,-0.13774115,-0.31166676,-0.16600038,1.3181046
0.1,0.1,1.5,0.0,0.0,0,0.60851234,-1.4929185,0.22304113,-0.26936156,-0.1341888,-0.40055695,-0.82512987,2.5952132,0.14734346,0.52344066,-0.13553269,-0.36842316,-0.33100227,1.3515242
0.1,0.1,1.5,0.0,0.0,0,0.5645614,-1.4916035,0.16672076,-0.27446955,-0.20611426,-0.32407045,-0.7372899,2.628397,0.16436316,0.5145855,-0.1517871,-0.2961441,-0.26859826,1.2107528
0.1,0.1,1.5,0.0,0.0,0,0.5831031,-1.5158226,0.16602224,-0.2775539,-0.157973,-0.3108691,-0.74482644,2.6630187,0.14932585,0.51992565,-0.12023105,-0.2595612,-0.23155315,1.1996629
0.1,0.1,1.5,0.0,0.0,0,0.60874236,-1.4976552,0.16142932,-0.29185665,-0.19305724,-0.34278437,-0.75862414,2.714972,0.13991359,0.41598585,-0.14917149,-0.4392594,-0.17727637,1.3693478
0.1,0.1,1.5,0.0,0.0,0,0.5976324,-1.4918189,0.158927,-0.27869284,-0.11879961,-0.34007955,-0.78220946,2.681452,0.16996686,0.52003396,-0.19856377,-0.38360566,-0.058981296,1.2163703
0.1,0.1,1.5,0.0,0.0,0,0.5878693,-1.5182427,0.17918499,-0.25762028,-0.11204575,-0.3575808,-0.77987975,2.700608,0.20237008,0.5701349,-0.15330899,-0.45816708,-0.13586913,1.2151376
0.1,0.1,1.5,0.0,0.0,0,0.5903261,-1.4934493,0.19639383,-0.2685385,-0.18875909,-0.3754395,-0.73739475,2.775911,0.17821696,0.47132024,-0.15046918,-0.33868572,-0.051162113,1.2935694
0.1,0.1,1.5,0.0,0.0,0,0.6222311,-1.4992024,0.19943064,-0.2516595,-0.19908419,-0.37473568,-0.8050156,2.6843212,0.20256397,0.5931903,-0.16513415,-0.2914141,-0.049169928,1.2289163
0.1,0.1,1.5,0.0,0.0,0,0.57456374,-1.5224303,0.1601612,-0.25763902,-0.12103188,-0.35029587,-0.7968661,2.7029805,0.15776269,0.46013427,-0.13761964,-0.21110135,-0.15402335,1.3565499
0.1,0.1,1.5,0.0,0.0,0,0.5294023,-1.4822482,0.17534792,-0.28161043,-0.15839407,-0.42231813,-0.8314002,2.6561422,0.17547289,0.5796855,-0.17143501,-0.47463873,-0.11872139,1.4634774
0.1,0.1,1.5,0.0,0.0,0,0.5884645,-1.4954844,0.19757278,-0.27795234,-0.18562894,-0.35648087,-0.7715757,2.7406807,0.1368009,0.4871674,-0.11550505,-0.23862982,-0.07637255,1.335171
0.1,0.1,1.5,0.0,0.0,0,0.5741468,-1.4857209,0.23967077,-0.24348783,-0.14164281,-0.42678902,-0.7890372,2.6927245,0.07894775,0.52924657,-0.14890061,-0.16953361,0.04791744,1.3255005
0.1,0.1,1.5,0.0,0.0,0,0.57382566,-1.4472,0.17081542,-0.26582327,-0.1437296,-0.3694127,-0.753137,2.6729777,0.21045968,0.5871233,-0.14986762,-0.47098708,-0.14311442,1.3039689
0.1,0.1,1.5,0.0,0.0,0,0.5814043,-1.5136621,0.21811737,-0.25972,-0.14877005,-0.39277923,-0.7781913,2.5981696,0.12024882,0.5668063,-0.14916776,-0.11945934,-0.17452645,1.3439256
0.1,0.1,1.5,0.0,0.0,0,0.61077374,-1.5159115,0.18662286,-0.2906878,-0.09873208,-0.3498193,-0.7574765,2.5745459,0.179567,0.64894485,-0.18024154,-0.3872004,-0.11117804,1.2572474
0.1,0.1,1.5,0.0,0.0,0,0.49488375,-1.5038044,0.20030373,-0.28105986,-0.13132739,-0.28687027,-0.7253909,2.6639037,0.12614235,0.5115987,-0.1347451,-0.33413014,-0.24635735,1.3286028
0.1,0.1,1.5,0.0,0.0,0,0.58051395,-1.4889629,0.1746095,-0.3086812,-0.16814642,-0.38304588,-0.7890125,2.5538793,0.10641038,0.5255748,-0.10945168,-0.20194651,-0.21938609,1.4135826
0.1,0.1,1.5,0.0,0.0,0,0.5537531,-1.5165204,0.21270008,-0.25291172,-0.13659546,-0.36904955,-0.7885343,2.666737,0.20008239,0.5819262,-0.15150273,-0.3484669,-0.27112457,1.2746807
0.1,0.1,1.5,0.0,0.0,0,0.4977182,-1.4714657,0.18151034,-0.27036184,-0.15816715,-0.33409578,-0.77683794,2.6850085,0.11494034,0.48652285,-0.12836082,-0.22395225,-0.15933238,1.278768
0.1,0.1,1.5,0.0,0.0,0,0.55291873,-1.4604707,0.19240353,-0.27170363,-0.13797183,-0.36377335,-0.7849205,2.5457947,0.13059685,0.5621405,-0.14968649,-0.4302174,-0.21469517,1.4342383
0.1,0.1,1.5,0.0,0.0,0,0.5740169,-1.4712472,0.19166799,-0.2464516,-0.19644205,-0.39128247,-0.73139286,2.5889702,0.16750605,0.67533064,-0.15702297,-0.5115642,-0.10268114,1.421951
0.1,0.1,1.5,0.0,0.0,0,0.6099912,-1.4845741,0.24202935,-0.2723053,-0.1441598,-0.36534876,-0.71555215,2.6883101,0.18971978,0.5744046,-0.12670833,-0.30439496,-0.19998255,1.3699468
0.1,0.1,1.5,0.0,0.0,0,0.5779598,-1.4779204,0.23464054,-0.25893334,-0.14777605,-0.3796506,-0.7465374,2.5663838,0.16300277,0.61514986,-0.13222247,-0.253723,-0.26266086,1.3903625
0.1,0.1,1.5,0.0,0.0,0,0.577789,-1.4844067,0.19627556,-0.28392938,-0.12960888,-0.3007568,-0.76354367,2.5392387,0.18152738,0.6244049,-0.1395802,-0.40405574,-0.22966482,1.2780999
0.1,0.1,1.5,0.0,0.0,0,0.61686844,-1.5164753,0.21326412,-0.22090939,-0.1535296,-0.4023173,-0.77902037,2.3838203,0.12113346,0.54259187,-0.1543428,-0.24076399,-0.29512066,1.2963619
0.1,0.1,1.5,0.0,0.0,0,0.5982936,-1.448822,0.25123653,-0.27382916,-0.109852955,-0.392232,-0.71572787,2.818804,0.16058415,0.42461473,-0.1631431,-0.39955398,-0.109007575,1.3633976
0.1,0.1,1.5,0.0,0.0,0,0.56827056,-1.4913456,0.18997326,-0.28577635,-0.11779654,-0.32342145,-0.7904191,2.7155309,0.1774834,0.5223639,-0.13655531,-0.3480125,-0.16480766,1.3585712
0.1,0.1,1.5,0.0,0.0,0,0.561806,-1.4851075,0.18048367,-0.26696357,-0.09695595,-0.3879439,-0.88486016,2.6565914,0.16760503,0.5397827,-0.13125998,-0.31876543,-0.23914121,1.2487572
0.1,0.1,1.5,0.0,0.0,0,0.52890396,-1.4639229,0.21064858,-0.27400437,-0.12742777,-0.31273955,-0.8249842,2.6901789,0.18323812,0.57391787,-0.129507,-0.43970215,-0.15338357,1.2281976
0.1,0.1,1.5,0.0,0.0,0,0.48769876,-1.4637626,0.19335927,-0.2709577,-0.13200732,-0.32116726,-0.8378331,2.5904155,0.1779173,0.57774174,-0.19551603,-0.32457998,-0.24718252,1.3817954
0.1,0.1,1.5,0.0,0.0,0,0.5909692,-1.4830072,0.15227523,-0.2632481,-0.17503236,-0.4001166,-0.7461411,2.6318936,0.16772743,0.51838714,-0.10184832,-0.2984321,-0.32724327,1.3387735
0.1,0.1,1.5,0.0,0.0,0,0.607543,-1.4932586,0.19822386,-0.2637701,-0.112090915,-0.35530692,-0.7270611,2.6145673,0.1734615,0.5982585,-0.13321543,-0.4405792,-0.17783843,1.212933
0.1,0.1,1.5,0.0,0.0,0,0.66978955,-1.5329378,0.191712,-0.24501617,-0.14611468,-0.34799206,-0.7695354,2.6299424,0.15410325,0.5350233,-0.11926347,-0.3041615,-0.043634903,1.4038534
0.1,0.1,1.5,0.0,0.0,0,0.64204943,-1.4954786,0.14383864,-0.26447427,-0.11074152,-0.36563605,-0.80591697,2.5292702,0.17880012,0.61272657,-0.1403005,-0.35852867,-0.19947352,1.2249618
0.1,0.1,1.5,0.0,0.0,0,0.62458366,-1.5243435,0.18115067,-0.2578386,-0.13420202,-0.36510554,-0.7755205,2.3237615,0.11589183,0.5095801,-0.14146598,-0.3345935,-0.24556424,1.2639847
0.1,0.1,1.5,0.0,0.0,0,0.5472375,-1.4868304,0.18067853,-0.28241414,-0.102203555,-0.38037258,-0.7817767,2.5025878,0.14603242,0.58416283,-0.178095,-0.4277819,-0.16421805,1.3118609
0.1,0.1,1.5,0.0,0.0,0,0.6138345,-1.5357418,0.21802135,-0.27166864,-0.1429843,-0.38274887,-0.7831049,2.6626225,0.17692451,0.6189754,-0.12065894,-0.496216,-0.049116246,1.2905799
0.1,0.1,1.5,0.0,0.0,0,0.57886106,-1.4831884,0.19633457,-0.26424658,-0.08820507,-0.35453367,-0.7298062,2.4327514,0.149906,0.5559147,-0.104686216,-0.59966063,-0.27049738,1.2305897
0.1,0.1,1.5,0.0,0.0,0,0.5661982,-1.4906075,0.2190248,-0.29462466,-0.13511936,-0.36460477,-0.7707602,2.7388213,0.10739528,0.4501297,-0.1168541,-0.3065822,-0.22937956,1.2915279
0.1,0.1,1.5,0.0,0.0,0,0.54056096,-1.5201353,0.24599372,-0.2802085,-0.09430957,-0.28981605,-0.8170731,2.6540077,0.12129148,0.5877998,-0.11456681,-0.34244037,-0.16759135,1.3727462
0.1,0.1,1.5,0.0,0.0,0,0.58507144,-1.4751042,0.17731956,-0.2557615,-0.0911423,-0.3340628,-0.8000637,2.6702964,0.19643043,0.5702284,-0.16090484,-0.27465174,-0.10078099,1.2514842
0.1,0.1,1.5,0.0,0.0,0,0.50269747,-1.5195243,0.24025308,-0.26222742,-0.14113119,-0.3615669,-0.7950255,2.5931177,0.11829964,0.5856196,-0.14722387,-0.21399017,-0.23778789,1.2840135
0.1,0.1,1.5,0.0,0.0,0,0.62116927,-1.5244157,0.23546901,-0.27070725,-0.08532862,-0.39594653,-0.8134712,2.6111875,0.1501558,0.5228051,-0.08741216,-0.3589597,-0.334714,1.3594056
0.1,0.1,1.5,0.0,0.0,0,0.49752346,-1.4975517,0.19297771,-0.26797226,-0.13908574,-0.37793255,-0.73583925,2.8181977,0.11993636,0.4432943,-0.14713082,-0.18735847,-0.042942267,1.3543719
0.1,0.1,1.5,0.0,0.0,0,0.52453,-1.5298944,0.20210932,-0.27793247,-0.18204008,-0.3592315,-0.77631795,2.7557976,0.118353106,0.48668548,-0.13928372,-0.29463866,-0.11783777,1.2740268
0.1,0.1,1.5,0.0,0.0,0,0.6605588,-1.4575156,0.18775688,-0.27313513,-0.1303963,-0.38824725,-0.6972132,2.529488,0.21007124,0.62465435,-0.12027853,-0.3067105,-0.18473588,1.4478023
0.1,0.1,1.5,0.0,0.0,0,0.61784965,-1.4885486,0.20674886,-0.27888834,-0.10749862,-0.3268394,-0.7739243,2.641553,0.1555262,0.53398705,-0.1384583,-0.22778,-0.13283086,1.3557193
0.1,0.1,1.5,0.0,0.0,0,0.5264378,-1.5165225,0.2518907,-0.27305034,-0.17244086,-0.30765215,-0.8024492,2.6814659,0.09487279,0.53842396,-0.12550715,-0.25027123,-0.10100878,1.3739637
0.1,0.1,1.5,0.0,0.0,0,0.5426181,-1.498321,0.199392,-0.271857,-0.14261614,-0.36310866,-0.8080195,2.535286,0.18614371,0.6861046,-0.13743179,-0.30056238,-0.24275912,1.3193272
0.1,0.1,1.5,0.0,0.0,0,0.53523815,-1.4690607,0.17751347,-0.29100797,-0.15413418,-0.3722628,-0.77983445,2.661208,0.15681764,0.55729544,-0.13729209,-0.46931142,-0.13951327,1.4211671
0.1,0.1,1.5,0.0,0.0,0,0.5659119,-1.4973433,0.17804572,-0.2804098,-0.15703084,-0.3530068,-0.7651885,2.7075768,0.17473814,0.5189019,-0.17910352,-0.21164426,-0.09616476,1.3316625
0.1,0.1,1.5,0.0,0.0,0,0.5440599,-1.4689587,0.19797546,-0.28334618,-0.17006724,-0.3035842,-0.81993407,2.3802435,0.07472625,0.5019778,-0.14027983,-0.3570005,-0.14690317,1.3032143
0.1,0.1,1.5,0.0,0.0,0,0.5875265,-1.5138476,0.19827272,-0.27330562,-0.098945126,-0.35334584,-0.71424043,2.6437912,0.15412971,0.606602,-0.12658782,-0.35225293,-0.09148413,1.316704
0.1,0.1,1.5,0.0,0.0,0,0.5507646,-1.4947134,0.2383471,-0.2689849,-0.17765084,-0.36581734,-0.732266,2.7468722,0.14082284,0.4545733,-0.17095779,-0.40997726,-0.17430484,1.3581202
0.1,0.1,1.5,0.0,0.0,0,0.5187379,-1.4793743,0.21155678,-0.24852143,-0.2012917,-0.35625833,-0.75970435,2.6679022,0.10338334,0.4930445,-0.16718255,-0.367358,-0.12189443,1.3554364
0.1,0.1,1.5,0.0,0.0,0,0.5278576,-1.4976119,0.21104725,-0.26975027,-0.16776659,-0.31856418,-0.76758,2.5880544,0.15745759,0.6459284,-0.12778135,-0.45342353,-0.08584041,1.3344333
0.1,0.1,1.5,0.0,0.0,0,0.57732284,-1.4955562,0.13424669,-0.29457593,-0.17379579,-0.4074541,-0.7649058,2.7356365,0.19377387,0.46583092,-0.122182906,-0.17861874,-0.2519795,1.3714811
0.1,0.1,1.5,0.0,0.0,0,0.5390348,-1.4728765,0.22705889,-0.2783026,-0.16995344,-0.34555644,-0.7721764,2.6400335,0.13497826,0.5646217,-0.19169903,-0.37967473,-0.1091481,1.3234065
0.1,0.1,1.5,0.0,0.0,0,0.61913174,-1.5078881,0.21185327,-0.27795184,-0.17625436,-0.33024478,-0.73350435,2.5409825,0.10226421,0.5239612,-0.11096981,-0.3737636,-0.33990222,1.300028
0.1,0.1,1.5,0.0,0.0,0,0.5238251,-1.5109049,0.17115265,-0.27713168,-0.18323897,-0.3428461,-0.7904147,2.6354992,0.1666514,0.5508915,-0.17740658,-0.21389252,-0.2652226,1.3196431
0.1,0.1,1.5,0.0,0.0,0,0.5579165,-1.5203086,0.18438469,-0.26953363,-0.15627961,-0.36411396,-0.77787924,2.6663795,0.16756193,0.57490337,-0.16202791,-0.34619203,-0.12706532,1.2157451
0.1,0.1,1.5,0.0,0.0,0,0.5443746,-1.487649,0.17049718,-0.27524978,-0.18078531,-0.346854,-0.7148394,2.6941001,0.17144859,0.5375258,-0.14042555,-0.18513803,-0.15877442,1.3575977
0.1,0.1,1.5,0.0,0.0,0,0.5396525,-1.4886336,0.16811103,-0.26566815,-0.21557741,-0.3729517,-0.7250861,2.6330426,0.19776568,0.5474482,-0.15736538,-0.3443705,-0.30073562,1.4244694
0.1,0.1,1.5,0.0,0.0,0,0.5531464,-1.5256655,0.17544515,-0.28539008,-0.17468685,-0.35587507,-0.75900537,2.5377216,0.18975686,0.64470637,-0.19001116,-0.35570198,-0.26934183,1.3629059
0.1,0.1,1.5,0.0,0.0,0,0.5283829,-1.480899,0.21464492,-0.26949444,-0.15989286,-0.30731347,-0.810642,2.696983,0.14207752,0.5062179,-0.12842287,-0.3354997,-0.15508541,1.3485707
0.1,0.1,1.5,0.0,0.0,0,0.5560485,-1.4482532,0.18691058,-0.27139604,-0.20404923,-0.3486467,-0.8018483,2.6677098,0.16963255,0.54568887,-0.13976419,-0.29269886,-0.13907598,1.3598492
0.1,0.1,1.5,0.0,0.0,0,0.50247186,-1.4824584,0.23512898,-0.26442674,-0.18321683,-0.3321124,-0.7791005,2.4977143,0.079161525,0.5168865,-0.14451964,-0.36445785,-0.33813035,1.3282756
0.1,0.1,1.5,0.0,0.0,0,0.58105767,-1.5099319,0.2271648,-0.27095622,-0.15910305,-0.35854554,-0.7978362,2.6829987,0.14328294,0.6021653,-0.10766024,-0.43131632,-0.11076399,1.3082715
0.1,0.1,1.5,0.0,0.0,0,0.5622453,-1.4933342,0.17066355,-0.26903298,-0.14927402,-0.293115,-0.7514198,2.714381,0.15064478,0.4276844,-0.14162493,-0.3312546,-0.15722367,1.2281989
0.1,0.1,1.5,0.0,0.0,0,0.53087217,-1.5258707,0.18778221,-0.26245666,-0.14386341,-0.37675393,-0.72994626,2.7153652,0.11797164,0.5256919,-0.11624973,-0.42353028,-0.12800707,1.2404733
0.1,0.1,1.5,0.0,0.0,0,0.5709299,-1.5312315,0.2125517,-0.27350253,-0.18281367,-0.28123984,-0.6932545,2.7031755,0.15511447,0.5113165,-0.08969567,-0.24846317,-0.2686714,1.2439641
0.1,0.1,1.5,0.0,0.0,0,0.5807435,-1.4780521,0.18185425,-0.27489454,-0.14744388,-0.36900496,-0.7691516,2.666529,0.12777868,0.49179634,-0.124756746,-0.267072,-0.21786778,1.2946687
0.1,0.1,1.5,0.0,0.0,0,0.55749035,-1.4759415,0.22035389,-0.28046805,-0.20244873,-0.35373816,-0.77774084,2.743381,0.14743893,0.44858938,-0.15313473,-0.19227098,-0.13761608,1.2089787
0.1,0.1,1.5,0.0,0.0,0,0.611576,-1.45088,0.20829284,-0.29553932,-0.18255089,-0.34945035,-0.75463456,2.6660724,0.18367742,0.46197873,-0.13122793,-0.5622025,-0.301738,1.2147069
0.1,0.1,1.5,0.0,0.0,0,0.5744604,-1.4993982,0.20585778,-0.28884637,-0.08891911,-0.3345856,-0.7300445,2.7183564,0.21625799,0.56888366,-0.1512081,-0.44814578,-0.17330265,1.2596365
0.1,0.1,1.5,0.0,0.0,0,0.5744604,-1.4993982,0.20585778,-0.28884637,-0.08891911,-0.3345856,-0.7300445,2.7183564,0.21625799,0.56888366,-0.1512081,-0.44814578,-0.17330265,1.2596365
0.1,0.1,1.5,0.0,0.0,0,0.5744604,-1.4993982,0.20585778,-0.28884637,-0.08891911,-0.3345856,-0.7300445,2.7183564,0.21625799,0.56888366,-0.1512081,-0.44814578,-0.17330265,1.2596365
0.1,0.1,1.5,0.0,0.0,0,0.5744604,-1.4993982,0.20585778,-0.28884637,-0.08891911,-0.3345856,-0.7300445,2.7183564,0.21625799,0.56888366,-0.1512081,-0.44814578,-0.17330265,1.2596365
0.1,0.1,1.5,0.0,0.0,0,0.5744604,-1.4993982,0.20585778,-0.28884637,-0.08891911,-0.3345856,-0.7300445,2.7183564,0.21625799,0.56888366,-0.1512081,-0.44814578,-0.17330265,1.2596365
0.1,0.1,1.5,0.0,0.0,0,0.5744604,-1.4993982,0.20585778,-0.28884637,-0.08891911,-0.3345856,-0.7300445,2.7183564,0.21625799,0.56888366,-0.1512081,-0.44814578,-0.17330265,1.2596365
0.1,0.1,1.5,0.0,0.0,0,0.55749035,-1.4759415,0.22035389,-0.28046805,-0.20244873,-0.35373816,-0.77774084,2.743381,0.14743893,0.44858938,-0.15313473,-0.19227098,-0.13761608,1.2089787
0.1,0.1,1.5,0.0,0.0,0,0.55749035,-1.4759415,0.22035389,-0.28046805,-0.20244873,-0.35373816,-0.77774084,2.743381,0.14743893,0.44858938,-0.15313473,-0.19227098,-0.13761608,1.2089787
0.1,0.1,1.5,0.0,0.0,0,0.55749035,-1.4759415,0.22035389,-0.28046805,-0.20244873,-0.35373816,-0.77774084,2.743381,0.14743893,0.44858938,-0.15313473,-0.19227098,-0.13761608,1.2089787
0.1,0.1,1.5,0.0,0.0,0,0.55749035,-1.4759415,0.22035389,-0.28046805,-0.20244873,-0.35373816,-0.77774084,2.743381,0.14743893,0.44858938,-0.15313473,-0.19227098,-0.13761608,1.2089787
0.1,0.1,1.5,0.0,0.0,0,0.55749035,-1.4759415,0.22035389,-0.28046805,-0.20244873,-0.35373816,-0.77774084,2.743381,0.14743893,0.44858938,-0.15313473,-0.19227098,-0.13761608,1.2089787
0.1,0.1,1.5,0.0,0.0,0,0.55749035,-1.4759415,0.22035389,-0.28046805,-0.20244873,-0.35373816,-0.77774084,2.743381,0.14743893,0.44858938,-0.15313473,-0.19227098,-0.13761608,1.2089787
0.1,0.1,1.5,0.0,0.0,0,0.5500046,-1.5046103,0.2336349,-0.26105982,-0.14413634,-0.32657963,-0.81347287,2.5736947,0.15633999,0.6882319,-0.098396376,-0.27301684,-0.12860022,1.2709812
0.1,0.1,1.5,0.0,0.0,0,0.5500046,-1.5046103,0.2336349,-0.26105982,-0.14413634,-0.32657963,-0.81347287,2.5736947,0.15633999,0.6882319,-0.098396376,-0.27301684,-0.12860022,1.2709812
0.1,0.1,1.5,0.0,0.0,0,0.5500046,-1.5046103,0.2336349,-0.26105982,-0.14413634,-0.32657963,-0.81347287,2.5736947,0.15633999,0.6882319,-0.098396376,-0.27301684,-0.12860022,1.2709812
0.1,0.1,1.5,0.0,0.0,0,0.5500046,-1.5046103,0.2336349,-0.26105982,-0.14413634,-0.32657963,-0.81347287,2.5736947,0.15633999,0.6882319,-0.098396376,-0.27301684,-0.12860022,1.2709812
0.1,0.1,1.5,0.0,0.0,0,0.5500046,-1.5046103,0.2336349,-0.26105982,-0.14413634,-0.32657963,-0.81347287,2.5736947,0.15633999,0.6882319,-0.098396376,-0.27301684,-0.12860022,1.2709812
0.1,0.1,1.5,0.0,0.0,0,0.5500046,-1.5046103,0.2336349,-0.26105982,-0.14413634,-0.32657963,-0.81347287,2.5736947,0.15633999,0.6882319,-0.098396376,-0.27301684,-0.12860022,1.2709812
0.1,0.1,1.5,0.0,0.0,0,0.53086096,-1.4884937,0.16537462,-0.2656309,-0.14632182,-0.34493265,-0.75360924,2.6593113,0.1688235,0.4610499,-0.14490053,-0.3950731,-0.31206,1.3292351
0.1,0.1,1.5,0.0,0.0,0,0.53086096,-1.4884937,0.16537462,-0.2656309,-0.14632182,-0.34493265,-0.75360924,2.6593113,0.1688235,0.4610499,-0.14490053,-0.3950731,-0.31206,1.3292351
0.1,0.1,1.5,0.0,0.0,0,0.53086096,-1.4884937,0.16537462,-0.2656309,-0.14632182,-0.34493265,-0.75360924,2.6593113,0.1688235,0.4610499,-0.14490053,-0.3950731,-0.31206,1.3292351
0.1,0.1,1.5,0.0,0.0,0,0.53086096,-1.4884937,0.16537462,-0.2656309,-0.14632182,-0.34493265,-0.75360924,2.6593113,0.1688235,0.4610499,-0.14490053,-0.3950731,-0.31206,1.3292351
0.1,0.1,1.5,0.0,0.0,0,0.53086096,-1.4884937,0.16537462,-0.2656309,-0.14632182,-0.34493265,-0.75360924,2.6593113,0.1688235,0.4610499,-0.14490053,-0.3950731,-0.31206,1.3292351
0.1,0.1,1.5,0.0,0.0,0,0.53086096,-1.4884937,0.16537462,-0.2656309,-0.14632182,-0.34493265,-0.75360924,2.6593113,0.1688235,0.4610499,-0.14490053,-0.3950731,-0.31206,1.3292351
0.1,0.1,1.5,0.0,0.0,0,0.53086096,-1.4884937,0.16537462,-0.2656309,-0.14632182,-0.34493265,-0.75360924,2.6593113,0.1688235,0.4610499,-0.14490053,-0.3950731,-0.31206,1.3292351
0.1,0.1,1.5,0.0,0.0,0,0.5148457,-1.4749101,0.18538551,-0.24612169,-0.15717547,-0.40010703,-0.79303014,2.576853,0.17474073,0.5961052,-0.14671999,-0.3978504,-0.24922886,1.1865116
0.1,0.1,1.5,0.0,0.0,0,0.5148457,-1.4749101,0.18538551,-0.24612169,-0.15717547,-0.40010703,-0.79303014,2.576853,0.17474073,0.5961052,-0.14671999,-0.3978504,-0.24922886,1.1865116
0.1,0.1,1.5,0.0,0.0,0,0.5148457,-1.4749101,0.18538551,-0.24612169,-0.15717547,-0.40010703,-0.79303014,2.576853,0.17474073,0.5961052,-0.14671999,-0.3978504,-0.24922886,1.1865116
0.1,0.1,1.5,0.0,0.0,0,0.5148457,-1.4749101,0.18538551,-0.24612169,-0.15717547,-0.40010703,-0.79303014,2.576853,0.17474073,0.5961052,-0.14671999,-0.3978504,-0.24922886,1.1865116
0.1,0.1,1.5,0.0,0.0,0,0.5148457,-1.4749101,0.18538551,-0.24612169,-0.15717547,-0.40010703,-0.79303014,2.576853,0.17474073,0.5961052,-0.14671999,-0.3978504,-0.24922886,1.1865116
0.1,0.1,1.5,0.0,0.0,0,0.5148457,-1.4749101,0.18538551,-0.24612169,-0.15717547,-0.40010703,-0.79303014,2.576853,0.17474073,0.5961052,-0.14671999,-0.3978504,-0.24922886,1.1865116
0.1,0.1,1.5,0.0,0.0,0,0.5209729,-1.5235707,0.23508325,-0.25536808,-0.17744881,-0.36453038,-0.7802445,2.7346585,0.13484156,0.52252775,-0.16101222,-0.4427655,0.02165673,1.2967521
