sanky1234/BimanualDexCatch/isaacgymenvs/cem_results/May31/football_pose_0.1_0.1_1.0_0.0_0.0_0_2025-05-31.csv
x,y,z,roll,pitch,yaw,robot1/joint1,robot1/joint2,robot1/joint3,robot1/joint4,robot1/joint5,robot1/joint6,robot1/joint7,robot2/joint1,robot2/joint2,robot2/joint3,robot2/joint4,robot2/joint5,robot2/joint6,robot2/joint7
0.1,0.1,1.0,0.0,0.0,0,1.1927737,-0.88759965,2.5558124,0.029428037,-0.096054696,1.5115018,-0.18594518,0.21809977,-0.7191317,1.184676,0.74707764,1.0430765,1.4487175,-0.040938877
0.1,0.1,1.0,0.0,0.0,0,1.1802233,-0.88422674,2.6126454,0.042698767,-0.13309687,1.5466093,-0.3005596,0.14876306,-0.7170614,1.186975,0.7619983,0.98833936,1.5088378,-0.03311613
0.1,0.1,1.0,0.0,0.0,0,1.19179,-0.8733058,2.5614984,0.07909002,-0.119133264,1.5197108,-0.18568036,0.21577081,-0.7595768,1.131084,0.7912776,0.97560006,1.4507251,-0.066355996
0.1,0.1,1.0,0.0,0.0,0,1.1828203,-0.8871863,2.56665,0.06888088,-0.061597224,1.5524948,-0.38684613,0.13919328,-0.74537873,1.1482874,0.82644784,0.9643974,1.4967045,-0.06299797
0.1,0.1,1.0,0.0,0.0,0,1.1942495,-0.8741176,2.5982583,0.07456589,-0.17357638,1.5457449,-0.36930856,0.29881033,-0.74731094,1.1393636,0.78470576,0.9673476,1.4176649,-0.118251555
0.1,0.1,1.0,0.0,0.0,0,1.1905509,-0.8832801,2.5663493,0.0782627,-0.22676978,1.544833,-0.16936566,0.19950515,-0.7562645,1.1599939,0.8103872,0.95553625,1.4499031,-0.048886295
0.1,0.1,1.0,0.0,0.0,0,1.1862167,-0.87509274,2.5845168,0.056221172,-0.16509274,1.5386686,-0.2908718,0.19255202,-0.7233279,1.1498544,0.76446503,0.8530745,1.5211887,-0.23216796
0.1,0.1,1.0,0.0,0.0,0,1.1966934,-0.89234036,2.5684655,0.052161306,-0.10335811,1.5479828,-0.49642712,0.16172442,-0.71895033,1.184146,0.79047364,0.9962341,1.4940586,-0.054628085
0.1,0.1,1.0,0.0,0.0,0,1.1867421,-0.87939817,2.5960286,0.047314364,-0.16492818,1.5494994,-0.43629178,0.1343663,-0.7413685,1.2325974,0.80099505,1.0048127,1.4767824,-0.17057872
0.1,0.1,1.0,0.0,0.0,0,1.1972154,-0.88817436,2.578792,0.054062147,-0.12292218,1.5364947,-0.25559306,0.11793712,-0.71946275,1.1686937,0.81122994,0.9981388,1.5109526,-0.032101355
0.1,0.1,1.0,0.0,0.0,0,1.1824915,-0.8734647,2.53597,0.04864696,-0.123722546,1.536769,-0.37340522,0.19565067,-0.7537608,1.1862372,0.84056336,0.93994755,1.4040843,-0.084147625
0.1,0.1,1.0,0.0,0.0,0,1.1907034,-0.88435864,2.540926,0.04970351,-0.08931088,1.5460057,-0.38461855,0.23276693,-0.7116338,1.1726676,0.7919519,1.0067825,1.392488,-0.087015785
0.1,0.1,1.0,0.0,0.0,0,1.191704,-0.8827864,2.5347013,0.05732022,-0.14521177,1.5268421,-0.21750323,0.24641153,-0.77380824,1.1981056,0.79776525,0.9902698,1.4217013,-0.12744737
0.1,0.1,1.0,0.0,0.0,0,1.1878822,-0.8732252,2.5814028,0.06633586,-0.13507535,1.5323085,-0.28857237,0.1634109,-0.7158049,1.1341763,0.77738744,0.92989874,1.5073848,-0.082452424
0.1,0.1,1.0,0.0,0.0,0,1.1900722,-0.87784374,2.5393927,0.06914078,-0.100240976,1.5405077,-0.43145588,0.104432136,-0.7455398,1.221504,0.82616407,0.9880363,1.5147195,-0.044715833
0.1,0.1,1.0,0.0,0.0,0,1.1856899,-0.8816993,2.56933,0.04653925,-0.12738504,1.5581242,-0.35983726,0.26605946,-0.75840276,1.1400812,0.77165586,1.0210512,1.4593997,-0.12184305
0.1,0.1,1.0,0.0,0.0,0,1.1931114,-0.8766609,2.523623,0.059392683,-0.20870937,1.55438,-0.3079972,0.18970677,-0.7376734,1.2729509,0.79915136,0.9818674,1.3936414,-0.12661548
0.1,0.1,1.0,0.0,0.0,0,1.197974,-0.87889993,2.5668464,0.059209157,-0.17157532,1.5515116,-0.2511469,0.2234643,-0.75778264,1.2065035,0.7595651,0.9678143,1.38949,0.06712018
0.1,0.1,1.0,0.0,0.0,0,1.188203,-0.88458717,2.5120878,0.075633146,-0.15397882,1.5598922,-0.28724647,0.21111259,-0.7084983,1.1211537,0.78851837,0.9554786,1.4926996,0.011786724
0.1,0.1,1.0,0.0,0.0,0,1.1930665,-0.8825848,2.5667973,0.051634308,-0.14081447,1.5374337,-0.20267597,0.24187462,-0.7240675,1.1454613,0.78628975,0.973094,1.4377054,-0.11093151
0.1,0.1,1.0,0.0,0.0,0,1.1944894,-0.87549216,2.5406575,0.025497755,-0.17308292,1.5497848,-0.27414584,0.2401347,-0.724876,1.123742,0.8056327,0.95725507,1.4746498,-0.05662347
0.1,0.1,1.0,0.0,0.0,0,1.1886188,-0.88459176,2.528461,0.052728716,-0.070583664,1.5384904,-0.24140233,0.13264221,-0.7507519,1.175514,0.8151571,0.97213846,1.4518572,-0.06632597
0.1,0.1,1.0,0.0,0.0,0,1.1899139,-0.89079404,2.5139782,0.066267826,-0.07364189,1.5488132,-0.23612717,0.19109716,-0.7191214,1.1920576,0.8044485,0.93350345,1.4841621,-0.055268373
0.1,0.1,1.0,0.0,0.0,0,1.1904303,-0.8796448,2.5325363,0.0712317,-0.17261097,1.5418073,-0.31066662,0.23373768,-0.7308663,1.1514866,0.79621774,0.890186,1.4312317,-0.12190758
0.1,0.1,1.0,0.0,0.0,0,1.1984799,-0.8749335,2.5492654,0.051137295,-0.07868091,1.5348692,-0.36305416,0.17126358,-0.7315,1.2354519,0.8120126,0.8763494,1.465278,0.07821006
0.1,0.1,1.0,0.0,0.0,0,1.1870053,-0.88071096,2.5697596,0.09092394,-0.21865903,1.5475473,-0.42653003,0.20194985,-0.74675626,1.1486453,0.77717996,0.9679066,1.4761814,-0.10219907
0.1,0.1,1.0,0.0,0.0,0,1.1951809,-0.8779542,2.5880802,0.06394211,-0.039998982,1.5348113,-0.35060337,0.11834688,-0.7198071,1.2338083,0.8135766,0.97093725,1.4672822,-0.053665437
0.1,0.1,1.0,0.0,0.0,0,1.1895915,-0.88232255,2.532934,0.07292092,-0.076968014,1.5374342,-0.21760474,0.2212728,-0.7219715,1.140171,0.7894328,1.014341,1.4131757,-0.13500102
0.1,0.1,1.0,0.0,0.0,0,1.1928588,-0.88634044,2.5775182,0.040440146,-0.16155946,1.5417596,-0.27835527,0.11412749,-0.75480914,1.2010134,0.8182103,1.062001,1.5208902,-0.18828256
0.1,0.1,1.0,0.0,0.0,0,1.1961634,-0.8877683,2.5454352,0.053803563,-0.1843731,1.5346118,-0.33244902,0.18275854,-0.70398927,1.1337247,0.7964919,0.9237316,1.5104853,-0.12361342
0.1,0.1,1.0,0.0,0.0,0,1.1963748,-0.8867072,2.5377514,0.030610595,-0.23298533,1.5265405,-0.25194943,0.2509151,-0.759568,1.1618512,0.79413164,1.0365769,1.4238325,-0.17961232
0.1,0.1,1.0,0.0,0.0,0,1.1873631,-0.8852891,2.5461833,0.050783664,-0.19101918,1.5410038,-0.35808516,0.20818734,-0.7302981,1.1773678,0.8032425,0.9042352,1.4694026,-0.06501955
0.1,0.1,1.0,0.0,0.0,0,1.1864395,-0.87946177,2.6114917,0.059456866,-0.21013044,1.5448385,-0.4071227,0.24752894,-0.73636967,1.2453945,0.80342007,0.9318608,1.3424792,-0.14641318
0.1,0.1,1.0,0.0,0.0,0,1.1960522,-0.8856847,2.542128,0.05936342,-0.01157043,1.5506148,-0.37008533,0.2683591,-0.74678963,1.1669408,0.7676076,0.98043793,1.427373,-0.06947951
0.1,0.1,1.0,0.0,0.0,0,1.184871,-0.87641025,2.5638163,0.08042032,-0.11172895,1.556871,-0.35110375,0.22172934,-0.71535754,1.1854486,0.79190004,0.99665654,1.4133626,-0.16700631
0.1,0.1,1.0,0.0,0.0,0,1.195855,-0.8825573,2.5379937,0.08852583,-0.114792265,1.51456,-0.28233802,0.09842544,-0.71671706,1.23607,0.82492113,0.9683283,1.4842887,-0.00031468077
0.1,0.1,1.0,0.0,0.0,0,1.1929032,-0.8707046,2.5897841,0.069428004,-0.17771949,1.5307931,-0.3340478,0.21126154,-0.73076725,1.1532118,0.7615054,0.99743086,1.4476631,0.06867063
0.1,0.1,1.0,0.0,0.0,0,1.194775,-0.8807454,2.56118,0.072830215,-0.15613042,1.5342782,-0.33131474,0.26717642,-0.7327821,1.1661668,0.7489517,0.9432446,1.4375798,-0.12143028
0.1,0.1,1.0,0.0,0.0,0,1.1955929,-0.8786221,2.5996904,0.07112691,-0.15263042,1.5495456,-0.38604844,0.13120887,-0.7244506,1.1846089,0.8222921,0.9818037,1.5246999,0.028660577
0.1,0.1,1.0,0.0,0.0,0,1.1954101,-0.8822334,2.5909536,0.09318146,-0.166052,1.5503955,-0.26271138,0.18057092,-0.7376347,1.210172,0.80261797,0.9237541,1.4855553,0.031400625
0.1,0.1,1.0,0.0,0.0,0,1.1926111,-0.88633096,2.6097884,0.06393761,-0.18172652,1.5533954,-0.26145053,0.16789557,-0.7189059,1.1822196,0.8085213,0.96656257,1.4930608,-0.019848658
0.1,0.1,1.0,0.0,0.0,0,1.1945797,-0.88223,2.6098952,0.06963647,-0.15968673,1.5459976,-0.34489757,0.1894666,-0.7155387,1.1964967,0.8138124,0.8675756,1.4634916,-0.104329474
0.1,0.1,1.0,0.0,0.0,0,1.1977624,-0.8798308,2.5443268,0.0713833,-0.14051792,1.5474806,-0.23343123,0.23213089,-0.745001,1.1719991,0.8322647,0.8674282,1.4414172,-0.054962207
0.1,0.1,1.0,0.0,0.0,0,1.1868222,-0.8824899,2.5664802,0.05718437,-0.12057063,1.5504944,-0.18876742,0.1788583,-0.7447504,1.2213869,0.8092656,0.99221635,1.472075,-0.00021629829
0.1,0.1,1.0,0.0,0.0,0,1.1952072,-0.8836215,2.5696907,0.046351742,-0.10502484,1.5379165,-0.3178931,0.27593502,-0.7679903,1.2606909,0.7636876,0.8802901,1.3700521,-0.036340233
0.1,0.1,1.0,0.0,0.0,0,1.1929517,-0.88539577,2.5760362,0.047338556,-0.15282598,1.5386307,-0.28481185,0.19206154,-0.73702085,1.2314224,0.7816626,0.90000033,1.4425037,-0.043663282
0.1,0.1,1.0,0.0,0.0,0,1.1978196,-0.875259,2.5661583,0.061984573,-0.07195157,1.5453143,-0.25457853,0.09216417,-0.7130801,1.2184814,0.80920947,0.90608126,1.4867061,-0.1346487
0.1,0.1,1.0,0.0,0.0,0,1.201128,-0.882777,2.5009298,0.067454286,-0.1504243,1.534068,-0.30755407,0.18904248,-0.7321308,1.2009311,0.76520514,0.928905,1.5088612,0.03961795
0.1,0.1,1.0,0.0,0.0,0,1.1867207,-0.88142025,2.5520875,0.036249764,-0.15383455,1.5464338,-0.2675758,0.2163244,-0.7467891,1.1987137,0.8155578,0.987814,1.4303969,-0.09959534
0.1,0.1,1.0,0.0,0.0,0,1.19766,-0.8767244,2.5565927,0.073377594,-0.13528836,1.5300156,-0.21319538,0.17242335,-0.71679807,1.2088897,0.8041484,0.9658052,1.4686408,-0.059446346
0.1,0.1,1.0,0.0,0.0,0,1.2021047,-0.8739089,2.5603845,0.06813312,-0.18947326,1.5348171,-0.28888962,0.16572058,-0.723942,1.1956534,0.8112639,1.0086305,1.500733,-0.045047894
0.1,0.1,1.0,0.0,0.0,0,1.1916643,-0.8878432,2.5039396,0.057143837,-0.075319126,1.5236449,-0.3064491,0.21350557,-0.7050283,1.1530424,0.7672906,0.95659894,1.4847777,-0.05956105
0.1,0.1,1.0,0.0,0.0,0,1.182822,-0.87925935,2.540399,0.07134763,-0.056074876,1.5439283,-0.29452908,0.1789563,-0.71580195,1.2039106,0.78926927,1.0336001,1.4297389,-0.0022943364
0.1,0.1,1.0,0.0,0.0,0,1.190914,-0.87978196,2.5669527,0.065899774,-0.115633674,1.546944,-0.27053404,0.16782455,-0.7231842,1.1977105,0.78343886,0.8729337,1.5070057,-0.11253989
0.1,0.1,1.0,0.0,0.0,0,1.187199,-0.88770115,2.5766184,0.049753994,-0.18452503,1.546537,-0.265996,0.21878602,-0.718601,1.183445,0.7691696,0.89697987,1.4287708,-0.0965752
0.1,0.1,1.0,0.0,0.0,0,1.1989981,-0.8831096,2.581417,0.06931001,-0.21492922,1.5390575,-0.4856104,0.18502972,-0.72652173,1.2265222,0.8237125,1.0151824,1.4408226,0.15187979
0.1,0.1,1.0,0.0,0.0,0,1.1982088,-0.880226,2.5252144,0.07303144,-0.07065841,1.5243446,-0.2702289,0.14295308,-0.73398256,1.1924055,0.8006311,0.99198294,1.4854307,-0.15438938
0.1,0.1,1.0,0.0,0.0,0,1.1861979,-0.8819855,2.5490992,0.040337343,-0.11943363,1.5481054,-0.20431872,0.1544996,-0.7544154,1.2301105,0.7945333,0.9223846,1.4576279,-0.035548083
0.1,0.1,1.0,0.0,0.0,0,1.1935947,-0.87859946,2.5702667,0.068732224,-0.19089696,1.5495491,-0.3720781,0.17125934,-0.75102204,1.1750256,0.7458768,0.9212667,1.5237983,-0.046765566
0.1,0.1,1.0,0.0,0.0,0,1.181208,-0.88216215,2.566665,0.042988524,-0.008260327,1.556863,-0.116189964,0.10239854,-0.7230969,1.2271997,0.7956144,1.0270313,1.5438641,-0.018502269
0.1,0.1,1.0,0.0,0.0,0,1.1911646,-0.8750021,2.5830915,0.070093006,-0.17724249,1.5446889,-0.15170826,0.23311381,-0.75601923,1.1651887,0.7774381,1.0254216,1.4431106,-0.10268068
0.1,0.1,1.0,0.0,0.0,0,1.1915938,-0.8830333,2.585674,0.030696424,-0.17958403,1.5502013,-0.3455729,0.26263443,-0.7528356,1.155924,0.7803615,1.0169333,1.4367983,-0.1133783
0.1,0.1,1.0,0.0,0.0,0,1.1948916,-0.8796081,2.5902932,0.07523578,-0.15302826,1.5453272,-0.3413375,0.16089037,-0.7543344,1.1901822,0.81733567,0.9500766,1.4939969,-0.16564657
0.1,0.1,1.0,0.0,0.0,0,1.1880907,-0.88229316,2.5575933,0.036473066,-0.13592955,1.5461881,-0.3582154,0.17200808,-0.71698636,1.2003099,0.79825723,0.94153786,1.5040681,-0.08470691
0.1,0.1,1.0,0.0,0.0,0,1.1860522,-0.87839055,2.5337296,0.077768736,-0.10649911,1.5559722,-0.47318143,0.2177996,-0.7486089,1.1782887,0.7718668,0.9931936,1.4528291,-0.066688895
0.1,0.1,1.0,0.0,0.0,0,1.1859233,-0.87500733,2.5936942,0.08276065,-0.17149113,1.5534459,-0.3845353,0.20329416,-0.7315581,1.2285588,0.8106946,0.89045614,1.4302592,-0.04627127
0.1,0.1,1.0,0.0,0.0,0,1.1897486,-0.882021,2.5638876,0.087527245,-0.14015177,1.5453889,-0.37534398,0.16043994,-0.7696675,1.2065673,0.7599628,0.9354169,1.5205901,0.09538304
0.1,0.1,1.0,0.0,0.0,0,1.1876361,-0.8787371,2.5550961,0.037022967,-0.09040151,1.5464143,-0.25246754,0.1521941,-0.7459657,1.227338,0.8031071,0.9433675,1.5221573,0.1083096
0.1,0.1,1.0,0.0,0.0,0,1.1857215,-0.8816656,2.5810966,0.031403087,-0.17925604,1.5371459,-0.3760221,0.106427826,-0.74197423,1.2440878,0.7686121,1.0524709,1.5153496,-0.086396374
0.1,0.1,1.0,0.0,0.0,0,1.1863328,-0.87859863,2.5669773,0.05577538,-0.1277818,1.5334579,-0.33756825,0.12866007,-0.73130876,1.2207105,0.82209164,0.9894294,1.4981824,-0.04058848
0.1,0.1,1.0,0.0,0.0,0,1.1969874,-0.87778264,2.5596304,0.028154569,-0.1684067,1.5400729,-0.5975878,0.24483939,-0.7328537,1.1320933,0.8242255,0.96081245,1.481599,-0.087038584
0.1,0.1,1.0,0.0,0.0,0,1.1891961,-0.87942874,2.587811,0.030792082,-0.121497646,1.544809,-0.38384974,0.18664016,-0.7175778,1.1679513,0.8108356,0.94213974,1.4579302,-0.022366507
0.1,0.1,1.0,0.0,0.0,0,1.1912391,-0.8832575,2.6081457,0.056004874,-0.1522698,1.5449103,-0.250711,0.19076921,-0.735397,1.155181,0.79207975,1.022675,1.5335517,0.003712251
0.1,0.1,1.0,0.0,0.0,0,1.1857216,-0.8797229,2.5741258,0.063093245,-0.05895736,1.5340232,-0.28543797,0.12616213,-0.7225955,1.2533188,0.79240954,0.87732416,1.491405,-0.011742025
0.1,0.1,1.0,0.0,0.0,0,1.1923649,-0.87400174,2.5672014,0.056418467,-0.14251778,1.552928,-0.22266446,0.19233662,-0.74423665,1.1732818,0.77926487,0.98859406,1.4417807,-0.22890323
0.1,0.1,1.0,0.0,0.0,0,1.2015005,-0.87921816,2.5645864,0.06790924,-0.15326397,1.5348232,-0.3693151,0.19062416,-0.7412459,1.1490808,0.8027193,0.9098757,1.5114335,-0.09318495
0.1,0.1,1.0,0.0,0.0,0,1.1912721,-0.87729335,2.5581765,0.05136266,-0.20571099,1.5314282,-0.41167137,0.18169445,-0.7382588,1.1702912,0.8048411,0.9826309,1.5171182,-0.041080985
0.1,0.1,1.0,0.0,0.0,0,1.186009,-0.87454945,2.591963,0.060256846,-0.16328451,1.5297791,-0.3078419,0.20782544,-0.7238633,1.157388,0.7825314,0.9879136,1.5168644,0.023067063
0.1,0.1,1.0,0.0,0.0,0,1.187721,-0.8788212,2.56209,0.053972404,-0.10180965,1.5450388,-0.33700362,0.13960671,-0.7454488,1.2399156,0.82968146,0.9135414,1.4722819,-0.14523296
0.1,0.1,1.0,0.0,0.0,0,1.1958971,-0.87297153,2.564907,0.08152855,-0.091423474,1.5380312,-0.4267067,0.23860238,-0.7261988,1.1626748,0.75995994,0.9643299,1.3677425,-0.03459989
0.1,0.1,1.0,0.0,0.0,0,1.1974764,-0.87907124,2.5244343,0.063879885,-0.14885554,1.5358144,-0.30972335,0.14068481,-0.7486389,1.177969,0.7976456,0.92066526,1.482846,-0.08914295
0.1,0.1,1.0,0.0,0.0,0,1.1936581,-0.88016087,2.5870314,0.07515583,-0.103000976,1.5365713,-0.36662427,0.18900421,-0.7476427,1.1809086,0.8072487,0.9173692,1.3895526,-0.19122936
0.1,0.1,1.0,0.0,0.0,0,1.1920292,-0.885449,2.5777586,0.07290972,-0.17888175,1.554999,-0.19507514,0.14559163,-0.7325203,1.1941384,0.79641616,0.9225766,1.4044464,-0.07354796
0.1,0.1,1.0,0.0,0.0,0,1.1904261,-0.8897724,2.5655212,0.07314149,-0.16066353,1.5419682,-0.49194336,0.17671198,-0.73615277,1.2034392,0.7848683,0.9357706,1.4475421,-0.136171
0.1,0.1,1.0,0.0,0.0,0,1.194142,-0.88017553,2.5844958,0.06647287,-0.11577071,1.5436996,-0.2590812,0.22655381,-0.7254561,1.1845405,0.7360992,1.0065434,1.4934775,-0.04120214
0.1,0.1,1.0,0.0,0.0,0,1.185687,-0.87799233,2.5875814,0.053554174,-0.055391867,1.5468414,-0.51669455,0.18593548,-0.7385281,1.1715475,0.79928195,1.006567,1.427051,-0.06493464
0.1,0.1,1.0,0.0,0.0,0,1.1987836,-0.88611376,2.5518281,0.058349676,-0.1577001,1.5484093,-0.40980798,0.15450741,-0.73890615,1.1937499,0.7886979,0.8808732,1.4572535,-0.15151167
0.1,0.1,1.0,0.0,0.0,0,1.1924453,-0.885838,2.5687737,0.06277927,-0.121934384,1.5251588,-0.2739624,0.1387737,-0.71912515,1.1742761,0.77231836,0.91715753,1.495572,-0.10543538
0.1,0.1,1.0,0.0,0.0,0,1.1953057,-0.87605023,2.5825744,0.07259738,-0.14291628,1.5302441,-0.29769754,0.109535374,-0.74359983,1.2368369,0.7904938,1.0095793,1.55143,0.060689107
0.1,0.1,1.0,0.0,0.0,0,1.1899627,-0.8788768,2.5484557,0.046121776,-0.12600517,1.5438259,-0.30736887,0.21983105,-0.74806464,1.2002158,0.7807974,0.9900896,1.4005479,0.09712469
0.1,0.1,1.0,0.0,0.0,0,1.1860203,-0.8949425,2.5535975,0.06449603,-0.18138961,1.5384809,-0.25609845,0.23079804,-0.74762046,1.2147366,0.7700851,0.92956495,1.4109198,-0.013330334
0.1,0.1,1.0,0.0,0.0,0,1.1992232,-0.87142324,2.5883756,0.061714537,-0.0784696,1.5400565,-0.34917635,0.12202583,-0.7257871,1.1849465,0.79119456,1.0208813,1.4683661,-0.15619278
0.1,0.1,1.0,0.0,0.0,0,1.1815308,-0.8834204,2.520348,0.058508914,-0.19535835,1.5453947,-0.38538885,0.23806879,-0.74525285,1.1907659,0.7738431,1.0120611,1.4505074,-0.05962856
0.1,0.1,1.0,0.0,0.0,0,1.1931874,-0.88510233,2.5777857,0.08123433,-0.13763693,1.5474517,-0.21721052,0.2697546,-0.7396824,1.1961278,0.7928558,0.9721125,1.3980032,-0.04719094
0.1,0.1,1.0,0.0,0.0,0,1.1930015,-0.8734105,2.5231164,0.07189278,-0.18562894,1.5409881,-0.34628004,0.1858903,-0.75769764,1.1945882,0.7792107,0.98277617,1.4104134,-0.04877488
0.1,0.1,1.0,0.0,0.0,0,1.1975874,-0.87190753,2.5670178,0.05785323,-0.054928485,1.5461966,-0.2765671,0.21716534,-0.7333613,1.1747152,0.78015494,0.98757154,1.4475433,-0.070683524
0.1,0.1,1.0,0.0,0.0,0,1.1863588,-0.8972955,2.5478077,0.08093683,-0.12051987,1.5314862,-0.35847104,0.22816618,-0.7327428,1.2164298,0.7887938,0.92112416,1.3562937,-0.098845586
0.1,0.1,1.0,0.0,0.0,0,1.1937495,-0.8873201,2.583182,0.06560823,-0.07279919,1.548775,-0.3543929,0.21720146,-0.7201816,1.1879222,0.7530245,0.936968,1.4407561,0.003776164
0.1,0.1,1.0,0.0,0.0,0,1.1947414,-0.87939787,2.5596542,0.07425773,-0.11802725,1.5356727,-0.3849786,0.16111523,-0.74321145,1.192382,0.80216724,0.86548203,1.4796418,-0.09522379
0.1,0.1,1.0,0.0,0.0,0,1.1851335,-0.8856732,2.6015344,0.08423517,-0.14236213,1.5385196,-0.37118185,0.21574548,-0.7424986,1.1806645,0.7973292,0.9493191,1.3962095,0.024446286
0.1,0.1,1.0,0.0,0.0,0,1.1868067,-0.89017195,2.5428314,0.04194101,-0.20184018,1.5274183,-0.215578,0.1606406,-0.7389511,1.2490603,0.7505099,0.95142657,1.4208105,-0.081508175
0.1,0.1,1.0,0.0,0.0,0,1.1857054,-0.8833381,2.5519955,0.06292411,-0.114575796,1.5373799,-0.22909282,0.27361125,-0.7407321,1.1975031,0.79390484,0.8634687,1.3705355,-0.017021086
0.1,0.1,1.0,0.0,0.0,0,1.1907225,-0.8895173,2.5797129,0.062114105,-0.032812025,1.5560503,-0.26470864,0.22023657,-0.7352995,1.1909052,0.7853233,0.89527357,1.4340698,-0.10704607
0.1,0.1,1.0,0.0,0.0,0,1.1935576,-0.8845394,2.5837467,0.07369141,-0.15801102,1.5605149,-0.44829863,0.16171636,-0.73898405,1.231114,0.7544448,0.9426581,1.4751954,-0.123100534
0.1,0.1,1.0,0.0,0.0,0,1.1856496,-0.88531846,2.5477817,0.09486482,-0.14632273,1.5375314,-0.43076184,0.21488242,-0.7485263,1.1497096,0.8052678,0.99407685,1.3965986,-0.09638472
0.1,0.1,1.0,0.0,0.0,0,1.1869099,-0.87930954,2.557298,0.08164587,-0.10078789,1.5495028,-0.2836497,0.17267585,-0.7422605,1.2399445,0.78138286,0.96650773,1.410282,-0.07328471
0.1,0.1,1.0,0.0,0.0,0,1.1858054,-0.8760046,2.56186,0.06435911,-0.128922,1.5495012,-0.3923164,0.16393985,-0.73322403,1.19906,0.7849459,0.99176586,1.4933059,-0.08653919
0.1,0.1,1.0,0.0,0.0,0,1.1898407,-0.88647085,2.5877986,0.073503606,-0.11114845,1.5507698,-0.2319551,0.18491973,-0.7349835,1.1820053,0.8097457,1.0524125,1.4292281,-0.13219243
0.1,0.1,1.0,0.0,0.0,0,1.1849581,-0.8907843,2.576189,0.06662479,-0.16774341,1.5335212,-0.23963948,0.17352225,-0.72855467,1.2348309,0.7890383,0.8226481,1.4297751,0.0057692137
0.1,0.1,1.0,0.0,0.0,0,1.1866763,-0.8901177,2.6213856,0.044394854,-0.16669673,1.5481802,-0.40175593,0.06205203,-0.7376956,1.2388804,0.76917225,1.0478387,1.5104023,0.055452116
0.1,0.1,1.0,0.0,0.0,0,1.1863575,-0.8844783,2.5534542,0.054727655,-0.021790724,1.5493615,-0.46673253,0.21359669,-0.73882437,1.1689721,0.7685609,0.9014657,1.4742527,-0.020102784
0.1,0.1,1.0,0.0,0.0,0,1.1894647,-0.8742643,2.5562124,0.06004927,-0.18545058,1.5383819,-0.5329266,0.21212755,-0.74079823,1.1644406,0.7980967,0.9012045,1.4473363,-0.04649564
0.1,0.1,1.0,0.0,0.0,0,1.1890551,-0.88124925,2.5797377,0.061283473,-0.09147182,1.5261291,-0.26014492,0.11981944,-0.72995794,1.2076489,0.77841175,0.90306956,1.4940337,-0.1532435
0.1,0.1,1.0,0.0,0.0,0,1.1860577,-0.8801011,2.545469,0.08287446,-0.16196229,1.5476613,-0.5380374,0.18263859,-0.7203318,1.1836072,0.7976391,1.0722196,1.463292,-0.019889882
0.1,0.1,1.0,0.0,0.0,0,1.1834356,-0.89382684,2.5606534,0.071159676,-0.1450885,1.5377822,-0.23441705,0.20351848,-0.72852504,1.1863229,0.77725625,0.9664181,1.4537973,-0.14699389
0.1,0.1,1.0,0.0,0.0,0,1.1917566,-0.8784347,2.5764728,0.055990107,-0.07074226,1.5363436,-0.26617625,0.28191236,-0.7378011,1.1591144,0.76735276,0.97287667,1.4020106,-0.102663025
0.1,0.1,1.0,0.0,0.0,0,1.18821,-0.8890013,2.5815234,0.038562737,-0.19506988,1.5300554,-0.39173374,0.16084138,-0.75825965,1.2043507,0.8099199,0.9991953,1.4966391,0.008618354
0.1,0.1,1.0,0.0,0.0,0,1.186064,-0.88202715,2.5532808,0.06757615,-0.11640085,1.5475371,-0.39636344,0.18842916,-0.71659285,1.1951429,0.75383687,1.0545639,1.4254423,-0.0877099
0.1,0.1,1.0,0.0,0.0,0,1.1946683,-0.8681846,2.5712829,0.047602814,-0.22247632,1.536768,-0.28350848,0.19984914,-0.76689476,1.2130717,0.7782798,0.9982793,1.474182,-0.008911442
0.1,0.1,1.0,0.0,0.0,0,1.1823466,-0.8813331,2.5468552,0.07077511,-0.12800346,1.5363694,-0.42637092,0.18315235,-0.7414071,1.2145705,0.7745945,0.9993308,1.5025812,-0.08274439
0.1,0.1,1.0,0.0,0.0,0,1.198711,-0.88824,2.5760896,0.061895724,-0.20793624,1.5413637,-0.41301632,0.22784676,-0.7318999,1.1904457,0.77145225,0.9267236,1.3895622,-0.11029105
0.1,0.1,1.0,0.0,0.0,0,1.1920875,-0.877673,2.5443761,0.09125094,-0.15815452,1.5505849,-0.36709732,0.2107595,-0.74276334,1.1072497,0.8006912,0.9610075,1.4698039,-0.11049377
0.1,0.1,1.0,0.0,0.0,0,1.1918689,-0.88254154,2.5875425,0.06915605,-0.13171111,1.5207102,-0.1551265,0.18936172,-0.7328914,1.1591063,0.80087066,1.0629666,1.4413333,-0.09759221
0.1,0.1,1.0,0.0,0.0,0,1.1953535,-0.87667394,2.570447,0.09535872,-0.14944445,1.5449253,-0.31714284,0.22046131,-0.7242329,1.2038661,0.7786032,0.9298807,1.4136003,-0.063181385
0.1,0.1,1.0,0.0,0.0,0,1.1824353,-0.87928694,2.589059,0.07698539,-0.16922301,1.528343,-0.1831256,0.19171226,-0.74781126,1.1941786,0.78672117,1.0302923,1.4318074,-0.07442977
0.1,0.1,1.0,0.0,0.0,0,1.1960377,-0.88481885,2.5358076,0.05697135,-0.13874401,1.5349478,-0.41560578,0.17979193,-0.746172,1.1970233,0.78761023,1.0070769,1.4823325,-0.11409258
0.1,0.1,1.0,0.0,0.0,0,1.1800573,-0.88334954,2.5646338,0.08355573,-0.14067592,1.5483712,-0.25534043,0.1796961,-0.7405419,1.2008348,0.7990189,0.96659,1.4919983,-0.010119167
0.1,0.1,1.0,0.0,0.0,0,1.1922753,-0.8904275,2.565057,0.050612733,-0.11379388,1.5544584,-0.32621482,0.19151306,-0.7106627,1.1527733,0.77946806,0.931457,1.5189852,-0.12185593
0.1,0.1,1.0,0.0,0.0,0,1.1797085,-0.8864557,2.5734482,0.07320378,-0.18446675,1.554085,-0.5265422,0.21423098,-0.7420213,1.1524053,0.7688156,0.9643731,1.4318008,-0.07894352
0.1,0.1,1.0,0.0,0.0,0,1.1883262,-0.88472354,2.4925842,0.07492355,-0.13389562,1.5395544,-0.32072037,0.19148292,-0.7508018,1.2038875,0.8304866,0.9131969,1.4326583,-0.10745531
0.1,0.1,1.0,0.0,0.0,0,1.1856774,-0.890219,2.5410573,0.061622128,-0.1405936,1.5272999,-0.17850761,0.2161492,-0.7353367,1.2075466,0.78813773,0.9254094,1.4258212,-0.07287357
0.1,0.1,1.0,0.0,0.0,0,1.1951793,-0.8808406,2.5483577,0.07745393,-0.15880416,1.5438346,-0.23117416,0.1906581,-0.7309029,1.1572707,0.7919661,0.947714,1.5106032,-0.07350118
0.1,0.1,1.0,0.0,0.0,0,1.1825522,-0.89058894,2.5593293,0.056489505,-0.10670091,1.5362358,-0.17415977,0.20535861,-0.74722403,1.1609306,0.78910774,0.9621379,1.4693348,-0.21309887
0.1,0.1,1.0,0.0,0.0,0,1.1972541,-0.88722175,2.5634122,0.06261183,-0.064529344,1.5494455,-0.42678094,0.18650772,-0.75342363,1.2400439,0.79777575,0.95467085,1.4255155,-0.1633878
0.1,0.1,1.0,0.0,0.0,0,1.1948359,-0.8872222,2.5673218,0.056191072,-0.21354155,1.5374442,-0.36959988,0.15916526,-0.7829055,1.2130156,0.76012975,0.90286297,1.5158801,-0.12094107
0.1,0.1,1.0,0.0,0.0,0,1.1808876,-0.88050795,2.507472,0.04248249,-0.14137255,1.5367295,-0.2932809,0.24982205,-0.7544804,1.1876686,0.80532324,0.9318553,1.4111161,-0.036722887
0.1,0.1,1.0,0.0,0.0,0,1.1859621,-0.88407683,2.5610933,0.08230668,-0.11400636,1.5406045,-0.21885718,0.21758783,-0.7076421,1.093859,0.81028754,0.910081,1.547864,-0.001003655
0.1,0.1,1.0,0.0,0.0,0,1.1843232,-0.87684107,2.5637069,0.07534428,-0.12005495,1.5356879,-0.4829054,0.19132763,-0.72959906,1.1828924,0.79524124,0.9546226,1.491106,-0.025417995
0.1,0.1,1.0,0.0,0.0,0,1.1871927,-0.88346046,2.5362892,0.06053641,-0.14361443,1.5528367,-0.44187933,0.1967989,-0.7438458,1.1851548,0.78835917,0.9803554,1.4859045,-0.09362143
0.1,0.1,1.0,0.0,0.0,0,1.1942791,-0.88354427,2.587109,0.08392674,-0.0960647,1.5467685,-0.34158632,0.17138748,-0.74261,1.1867319,0.8216049,0.9967133,1.4554849,-0.13012083
0.1,0.1,1.0,0.0,0.0,0,1.1898942,-0.87577283,2.5704663,0.076217376,-0.10513024,1.5396564,-0.23949416,0.19937553,-0.7352335,1.2239875,0.8018044,0.9197325,1.4328005,0.024142014
0.1,0.1,1.0,0.0,0.0,0,1.2000871,-0.8828871,2.5586329,0.042537972,-0.13813761,1.5470251,-0.32453024,0.20398934,-0.7520849,1.1928334,0.7744841,0.9195207,1.4610556,0.0568417
0.1,0.1,1.0,0.0,0.0,0,1.1810519,-0.8755099,2.538706,0.077949405,-0.18383606,1.5519141,-0.33736828,0.22419244,-0.7254625,1.2247363,0.7438061,0.9608027,1.3841279,-0.07025604
0.1,0.1,1.0,0.0,0.0,0,1.1906259,-0.8835049,2.5798879,0.07136195,-0.13832264,1.5407624,-0.29789612,0.20541316,-0.7230193,1.1895032,0.80578834,0.95049113,1.4619939,0.0024101322
0.1,0.1,1.0,0.0,0.0,0,1.1852473,-0.86596906,2.5733764,0.058684185,-0.11004429,1.553035,-0.23624453,0.12326644,-0.72204214,1.2048099,0.8241836,0.9679239,1.4952013,-0.105854
0.1,0.1,1.0,0.0,0.0,0,1.1934652,-0.8810065,2.5489151,0.058319915,-0.18899572,1.5542499,-0.30267057,0.1206591,-0.7417767,1.2100219,0.7893204,0.9532469,1.5412353,-0.14642963
0.1,0.1,1.0,0.0,0.0,0,1.1927773,-0.8854715,2.5497892,0.05236411,-0.08478393,1.5485734,-0.225976,0.28479534,-0.7490256,1.1556308,0.78469115,0.8986929,1.4630698,0.079689
0.1,0.1,1.0,0.0,0.0,0,1.1924918,-0.88363343,2.5505164,0.053878628,-0.13959648,1.541999,-0.2622743,0.21632774,-0.7334425,1.1504079,0.7937313,0.92653257,1.5016011,-0.01261835
0.1,0.1,1.0,0.0,0.0,0,1.1922264,-0.886879,2.5895772,0.042610433,-0.16391322,1.5440134,-0.245139,0.18516971,-0.7336452,1.1467985,0.7859438,0.900327,1.5359704,-0.11713275
0.1,0.1,1.0,0.0,0.0,0,1.1877242,-0.880024,2.5760298,0.0760143,-0.11407821,1.5363779,-0.25269845,0.18142463,-0.7259721,1.2082721,0.7763509,0.9674123,1.4875034,0.054705847
0.1,0.1,1.0,0.0,0.0,0,1.1906316,-0.8815727,2.529567,0.065758,-0.10172342,1.5528452,-0.2662,0.25785646,-0.7537219,1.1745083,0.81534934,0.9483965,1.4180032,-0.08299144
0.1,0.1,1.0,0.0,0.0,0,1.1794688,-0.88256556,2.5599012,0.067143664,-0.08105989,1.5393612,-0.39957786,0.18424544,-0.735263,1.1584933,0.7719871,0.9100287,1.5088516,-0.08848275
0.1,0.1,1.0,0.0,0.0,0,1.1990232,-0.8825811,2.5437965,0.042403683,-0.16584387,1.544881,-0.27197286,0.24101207,-0.74964404,1.180599,0.8121121,0.88957995,1.4384568,-0.051912677
0.1,0.1,1.0,0.0,0.0,0,1.1987498,-0.88274056,2.5298336,0.06350576,-0.20159547,1.5608561,-0.4248264,0.24127123,-0.73559695,1.1819161,0.8067248,0.9018802,1.4811343,-0.051315714
0.1,0.1,1.0,0.0,0.0,0,1.202471,-0.88378376,2.5789785,0.068600334,-0.13194522,1.5233552,-0.33520573,0.21764158,-0.7259412,1.2230529,0.78293157,0.9639701,1.3838054,-0.10941016
0.1,0.1,1.0,0.0,0.0,0,1.1885239,-0.88075733,2.591267,0.06717838,-0.18574756,1.542776,-0.23670857,0.19170715,-0.71158534,1.21868,0.7193511,0.91599756,1.4758921,-0.019963026
0.1,0.1,1.0,0.0,0.0,0,1.1870012,-0.88431233,2.539798,0.068082035,-0.15058321,1.5468206,-0.28278494,0.22452591,-0.75298876,1.1772474,0.80077744,0.9475445,1.4547975,-0.15036398
0.1,0.1,1.0,0.0,0.0,0,1.1847973,-0.8757799,2.572893,0.072661266,-0.13545878,1.5278306,-0.29047835,0.14885902,-0.7376992,1.1831573,0.7885273,0.9366718,1.5115145,-0.08744725
0.1,0.1,1.0,0.0,0.0,0,1.1856635,-0.87757045,2.5395231,0.058743287,-0.2054552,1.5527433,-0.22394665,0.2576579,-0.7290953,1.1797205,0.7886342,0.93740416,1.4314021,-0.06942838
0.1,0.1,1.0,0.0,0.0,0,1.181716,-0.8828778,2.620566,0.04832538,-0.1719143,1.5472994,-0.30929714,0.20511813,-0.7276124,1.1778429,0.77035683,0.9551612,1.4739728,-0.0030020275
0.1,0.1,1.0,0.0,0.0,0,1.1891428,-0.88253015,2.5643144,0.062485006,-0.19692457,1.5471292,-0.3413183,0.2577485,-0.7319869,1.1670876,0.7715009,0.9811992,1.4399647,-0.085553184
0.1,0.1,1.0,0.0,0.0,0,1.1916274,-0.8781972,2.5968182,0.07245322,-0.15775956,1.551632,-0.37877184,0.2056146,-0.7111663,1.1700029,0.82177603,0.96705055,1.4685827,-0.11842394
0.1,0.1,1.0,0.0,0.0,0,1.1936702,-0.888094,2.5842557,0.06168959,-0.12455329,1.5384964,-0.35732257,0.08264945,-0.7461912,1.2629143,0.79865694,1.0050215,1.5273619,-0.07976831
0.1,0.1,1.0,0.0,0.0,0,1.1839039,-0.8882302,2.543106,0.07669664,-0.11465899,1.5484744,-0.3551881,0.09493469,-0.75263673,1.2197658,0.80549663,0.9768659,1.525211,-0.13971087
0.1,0.1,1.0,0.0,0.0,0,1.1943235,-0.8860628,2.578884,0.06542929,-0.12697576,1.5502683,-0.34842506,0.25218198,-0.7297183,1.1563878,0.784647,0.96890473,1.472148,-0.057745907
0.1,0.1,1.0,0.0,0.0,0,1.2003055,-0.8829658,2.5801525,0.051725954,-0.121610805,1.5408995,-0.29320768,0.11153398,-0.7362788,1.2116933,0.797575,1.0165342,1.5132124,-0.1262111
0.1,0.1,1.0,0.0,0.0,0,1.1939594,-0.8753587,2.5713654,0.05889831,-0.14075352,1.548339,-0.33578122,0.05247193,-0.7363039,1.2625887,0.8192318,1.0303814,1.5245903,-0.10721427
0.1,0.1,1.0,0.0,0.0,0,1.1868645,-0.8804086,2.578795,0.064154595,-0.099556185,1.5473804,-0.42846173,0.25749084,-0.7299901,1.1004795,0.7701036,0.9523771,1.4734027,-0.056826938
0.1,0.1,1.0,0.0,0.0,0,1.1782433,-0.88300633,2.6038904,0.05174599,-0.007254201,1.5571177,-0.37540206,0.16334888,-0.713869,1.1117675,0.8399614,0.9004286,1.5216925,0.06577875
0.1,0.1,1.0,0.0,0.0,0,1.1861824,-0.8879491,2.5829039,0.07704455,-0.14429295,1.5431821,-0.3368125,0.16965243,-0.7293504,1.186851,0.78399444,0.8695572,1.3841809,-0.051630702
0.1,0.1,1.0,0.0,0.0,0,1.1937654,-0.8812961,2.5444875,0.05026328,-0.14195105,1.5281684,-0.28880495,0.13276991,-0.75010633,1.2539481,0.7820525,0.86710423,1.4607584,-0.058837596
0.1,0.1,1.0,0.0,0.0,0,1.1799343,-0.877126,2.609417,0.046715003,-0.09932908,1.5398419,-0.394883,0.19576971,-0.7306055,1.1376504,0.8023332,0.878526,1.4611694,-0.11451781
0.1,0.1,1.0,0.0,0.0,0,1.1928174,-0.8745528,2.5590627,0.04783673,-0.14639685,1.5408995,-0.33891174,0.16158333,-0.7352721,1.1758788,0.817441,0.9550981,1.5193053,-0.03495085
0.1,0.1,1.0,0.0,0.0,0,1.1906923,-0.87623286,2.548022,0.057802305,-0.17743687,1.538338,-0.39217162,0.24858543,-0.7554146,1.1246719,0.7730046,1.0002695,1.5199306,-0.20945531
0.1,0.1,1.0,0.0,0.0,0,1.1829494,-0.8791477,2.56598,0.0459166,-0.055834796,1.5457598,-0.37740082,0.23642571,-0.7446125,1.1489476,0.8014123,0.977177,1.4370146,-0.0076074963
0.1,0.1,1.0,0.0,0.0,0,1.1827852,-0.874119,2.5828252,0.072088346,-0.16454919,1.5460736,-0.4377184,0.25164652,-0.75303817,1.2084093,0.73401344,0.937099,1.4137881,-0.09485678
0.1,0.1,1.0,0.0,0.0,0,1.1851354,-0.8790924,2.568089,0.04844013,-0.17859155,1.5465595,-0.49924156,0.17420179,-0.74864125,1.168994,0.8081587,0.96453977,1.4345438,-0.06345054
0.1,0.1,1.0,0.0,0.0,0,1.1959788,-0.88288426,2.5607471,0.057868857,-0.11664004,1.5487605,-0.14171062,0.23710129,-0.78573376,1.1641926,0.7833552,1.0215182,1.4302403,-0.08404701
0.1,0.1,1.0,0.0,0.0,0,1.1937336,-0.8828379,2.531665,0.064787924,-0.1708216,1.5314147,-0.33089802,0.19074859,-0.72331804,1.2196836,0.7918007,1.0057771,1.4094722,-0.028775007
0.1,0.1,1.0,0.0,0.0,0,1.1927077,-0.8814209,2.5529659,0.04814619,-0.08222148,1.5388441,-0.36735618,0.18333724,-0.73470026,1.175185,0.79397357,0.97087395,1.4450133,-0.07661634
0.1,0.1,1.0,0.0,0.0,0,1.1873806,-0.88007075,2.5876036,0.08057804,-0.16837704,1.5367873,-0.46189904,0.23706166,-0.7452037,1.1182276,0.79765457,0.93246835,1.4390163,-0.08391513
0.1,0.1,1.0,0.0,0.0,0,1.181804,-0.8867367,2.5748997,0.086470746,-0.10877188,1.54509,-0.20160107,0.15802407,-0.74892694,1.2382733,0.76909715,0.9553379,1.3937732,-0.055330887
0.1,0.1,1.0,0.0,0.0,0,1.1884356,-0.88364816,2.5371659,0.07737646,-0.097019225,1.5681338,-0.22612576,0.2135369,-0.73786813,1.1270335,0.83649915,0.9911223,1.3831024,-0.007697962
0.1,0.1,1.0,0.0,0.0,0,1.1909703,-0.89050275,2.548814,0.07582149,-0.12597951,1.5504854,-0.353407,0.19279583,-0.71588904,1.1948379,0.7774118,1.0138258,1.407552,-0.003940876
0.1,0.1,1.0,0.0,0.0,0,1.1836689,-0.8753906,2.573712,0.086679205,-0.11839,1.5498873,-0.36411482,0.1908605,-0.72180665,1.1602798,0.80641544,0.9926692,1.4872996,-0.10470258
0.1,0.1,1.0,0.0,0.0,0,1.1984457,-0.8793204,2.5564234,0.08360002,-0.12472534,1.5475713,-0.31521228,0.11227865,-0.70872825,1.2074361,0.79193187,1.0648493,1.4636664,-0.07798799
0.1,0.1,1.0,0.0,0.0,0,1.1861604,-0.8795266,2.5819426,0.069468535,-0.14441517,1.534367,-0.37494934,0.16398476,-0.72742796,1.1779592,0.8116763,1.0394518,1.4369268,-0.07820918
0.1,0.1,1.0,0.0,0.0,0,1.1859232,-0.8753908,2.5577695,0.08210612,-0.12130181,1.5335493,-0.3535791,0.21954411,-0.72861964,1.1652815,0.79164016,0.9226734,1.4395478,-0.22948915
0.1,0.1,1.0,0.0,0.0,0,1.201031,-0.8878901,2.5613558,0.06199488,-0.05061179,1.5266253,-0.45558393,0.24674904,-0.71021307,1.1550988,0.80440336,0.98904204,1.4154923,-0.07589465
0.1,0.1,1.0,0.0,0.0,0,1.1938033,-0.8769186,2.5653763,0.055219937,-0.19752577,1.5463887,-0.30025122,0.14965938,-0.750223,1.2319752,0.78806037,0.99533725,1.4703639,-0.07429552
0.1,0.1,1.0,0.0,0.0,0,1.1900576,-0.8805482,2.5706058,0.034494612,-0.18104047,1.5390191,-0.40894228,0.21503769,-0.7273683,1.181097,0.81436706,1.0028821,1.424583,-0.08448432
0.1,0.1,1.0,0.0,0.0,0,1.1824938,-0.8853988,2.5660958,0.07451763,-0.20786604,1.547449,-0.36704698,0.24299079,-0.7539626,1.15798,0.79482585,0.9608757,1.4766881,0.07211527
0.1,0.1,1.0,0.0,0.0,0,1.1932619,-0.88923305,2.5396965,0.05372297,-0.10749465,1.538771,-0.31281626,0.2431279,-0.7111229,1.1843604,0.7664488,0.88703454,1.423367,-0.15861295
0.1,0.1,1.0,0.0,0.0,0,1.1925236,-0.8784245,2.566197,0.07061217,-0.094369225,1.5482085,-0.35453752,0.22235753,-0.74273354,1.1781529,0.77738845,0.8639652,1.4790882,-0.017676556
0.1,0.1,1.0,0.0,0.0,0,1.1871396,-0.8909394,2.5685618,0.08499678,-0.11438148,1.5463774,-0.28066024,0.1259562,-0.71788096,1.2615379,0.7611833,1.0060532,1.473869,-0.03034016
0.1,0.1,1.0,0.0,0.0,0,1.1914579,-0.8706468,2.5651402,0.04961031,-0.11554742,1.5505075,-0.3675329,0.18127583,-0.7318967,1.200455,0.8013186,0.87965465,1.4736258,-0.021927908
0.1,0.1,1.0,0.0,0.0,0,1.1904831,-0.8894411,2.5796304,0.03680029,0.011317094,1.5462695,-0.30314043,0.17640379,-0.72897804,1.1504666,0.7812697,0.96077096,1.5431867,-0.07325349
0.1,0.1,1.0,0.0,0.0,0,1.1945416,-0.8755071,2.564298,0.045389548,-0.23000926,1.5515321,-0.3612784,0.21571553,-0.731527,1.2095565,0.7712059,0.9810337,1.4446952,-0.124234796
0.1,0.1,1.0,0.0,0.0,0,1.1929461,-0.87207264,2.5616355,0.05620594,-0.19070257,1.5357571,-0.3585664,0.23552833,-0.7365644,1.1542876,0.78431404,0.9587569,1.4873059,0.05366077
0.1,0.1,1.0,0.0,0.0,0,1.1824541,-0.87388045,2.5346014,0.07523217,-0.06593703,1.5399636,-0.4877759,0.24349888,-0.73931336,1.1980418,0.7532851,0.99728405,1.3571671,-0.065683894
0.1,0.1,1.0,0.0,0.0,0,1.1891248,-0.87850416,2.5572655,0.07289576,-0.16312121,1.5506883,-0.35983416,0.20312636,-0.7595855,1.203121,0.78981984,0.9200146,1.4561489,-0.12072234
0.1,0.1,1.0,0.0,0.0,0,1.1846864,-0.87840897,2.607933,0.07079873,-0.19829157,1.54814,-0.2952854,0.20471004,-0.74285096,1.1921835,0.77746516,0.9631082,1.4458302,0.03388319
0.1,0.1,1.0,0.0,0.0,0,1.1990272,-0.8825771,2.5315225,0.069092736,-0.1763443,1.5454521,-0.44401848,0.1957087,-0.76503956,1.1831763,0.7987825,1.0029289,1.4315999,0.023878645
0.1,0.1,1.0,0.0,0.0,0,1.193645,-0.88880473,2.5711381,0.065963656,-0.19334154,1.531857,-0.3672233,0.28623262,-0.74247664,1.1536026,0.77623457,1.0050294,1.3989708,-0.09737975
0.1,0.1,1.0,0.0,0.0,0,1.1927149,-0.8728174,2.605229,0.061442237,-0.165678,1.5471491,-0.34325513,0.19983178,-0.7395851,1.160021,0.7952604,0.97763646,1.5025579,-0.19928785
0.1,0.1,1.0,0.0,0.0,0,1.1945677,-0.8773556,2.5515602,0.05899165,-0.14236622,1.5592003,-0.35432804,0.1718371,-0.71497035,1.173889,0.7894175,0.971918,1.5046666,-0.0596313
0.1,0.1,1.0,0.0,0.0,0,1.2019756,-0.8880568,2.5691788,0.060638595,-0.16445363,1.5473454,-0.32673767,0.24472968,-0.6844826,1.1639005,0.79237914,0.9725706,1.4034592,-0.047296993
0.1,0.1,1.0,0.0,0.0,0,1.2012044,-0.8921923,2.5914555,0.046335742,-0.10590366,1.5564735,-0.36995795,0.21099918,-0.7218047,1.1969846,0.78613424,0.90386575,1.4608303,-0.013270644
0.1,0.1,1.0,0.0,0.0,0,1.1948332,-0.8789537,2.5717454,0.06415642,-0.055821415,1.5381316,-0.1837082,0.17456283,-0.7592231,1.2087193,0.80808574,0.9980457,1.4755212,-0.03350148
0.1,0.1,1.0,0.0,0.0,0,1.1791941,-0.8868562,2.5723617,0.05562236,-0.050564036,1.5389189,-0.30618438,0.23100094,-0.7534061,1.1736909,0.7874432,1.0693526,1.4227844,-0.10521016
0.1,0.1,1.0,0.0,0.0,0,1.190482,-0.884957,2.5820591,0.0662283,-0.23034729,1.537535,-0.17962289,0.23001456,-0.74240017,1.1441472,0.8262384,1.0330967,1.438196,-0.10969308
0.1,0.1,1.0,0.0,0.0,0,1.1958863,-0.89303905,2.5163212,0.07654446,-0.13170229,1.5514693,-0.48338747,0.21920384,-0.7614496,1.1991277,0.7800394,1.0127567,1.4619381,0.033654053
0.1,0.1,1.0,0.0,0.0,0,1.185563,-0.8787115,2.5517452,0.056588627,-0.16555993,1.5377772,-0.38985026,0.1571708,-0.73089004,1.2625858,0.78028756,0.94794697,1.4406663,-0.050927885
0.1,0.1,1.0,0.0,0.0,0,1.1952133,-0.88082546,2.5591662,0.05988985,-0.04904603,1.5278898,-0.26663923,0.21117458,-0.7270057,1.1974907,0.77931756,0.9658699,1.4249817,-0.07113784
0.1,0.1,1.0,0.0,0.0,0,1.1877925,-0.8787141,2.5592306,0.046587795,-0.09159979,1.5341678,-0.37580037,0.19267549,-0.7409236,1.2136099,0.80008435,0.9574416,1.4245604,-0.049690492
0.1,0.1,1.0,0.0,0.0,0,1.189722,-0.8766146,2.565441,0.08298241,-0.13248496,1.534041,-0.2787158,0.24440753,-0.7542393,1.128554,0.8081484,0.9648606,1.4819347,-0.080234796
0.1,0.1,1.0,0.0,0.0,0,1.1945648,-0.8810752,2.5037723,0.06093075,-0.20053746,1.5401719,-0.39283508,0.27411136,-0.7486437,1.145641,0.77019036,0.9316939,1.4476122,0.00090404734
0.1,0.1,1.0,0.0,0.0,0,1.1893046,-0.88313305,2.5442092,0.075427614,-0.20801541,1.539713,-0.31544814,0.22709778,-0.7423963,1.1504791,0.78387076,0.9364351,1.5091027,0.030025585
0.1,0.1,1.0,0.0,0.0,0,1.182889,-0.87830937,2.6028955,0.051621173,-0.1785703,1.5356271,-0.33718294,0.22747216,-0.72728235,1.1228079,0.7801365,0.98356336,1.521832,-0.10898047
0.1,0.1,1.0,0.0,0.0,0,1.184301,-0.8767594,2.5385106,0.08609866,-0.15864463,1.5219077,-0.28195676,0.22375797,-0.7273784,1.1587179,0.7937445,0.976142,1.4849861,-0.037479457
0.1,0.1,1.0,0.0,0.0,0,1.196498,-0.88013357,2.5508854,0.083621584,-0.08859891,1.5368841,-0.24279784,0.29340336,-0.74405164,1.170449,0.7689599,0.858825,1.4210262,-0.07621694
0.1,0.1,1.0,0.0,0.0,0,1.1865661,-0.8804556,2.589543,0.09312603,-0.110417046,1.5361,-0.35341296,0.219557,-0.720546,1.1645092,0.7619332,0.90758884,1.4793144,-0.050735585
0.1,0.1,1.0,0.0,0.0,0,1.1855667,-0.8872431,2.575212,0.062077213,-0.05334407,1.5460434,-0.40471566,0.24297193,-0.74980557,1.1999322,0.79689986,0.96431804,1.3944938,-0.10855176
0.1,0.1,1.0,0.0,0.0,0,1.181705,-0.8862105,2.5702267,0.04933571,-0.16187704,1.5323174,-0.27915782,0.1815718,-0.7389888,1.2536607,0.79402196,1.0488778,1.4955013,-0.010659649
0.1,0.1,1.0,0.0,0.0,0,1.190037,-0.8864335,2.594555,0.07954088,-0.12568086,1.5313627,-0.33374974,0.17107327,-0.7614278,1.2366893,0.7753537,0.8984057,1.5066744,-0.1723635
0.1,0.1,1.0,0.0,0.0,0,1.1860421,-0.87970793,2.5947359,0.05769446,-0.18234952,1.5451621,-0.30618685,0.18223114,-0.7317349,1.1555272,0.7931847,0.95885843,1.4954469,-0.055300497
0.1,0.1,1.0,0.0,0.0,0,1.1915525,-0.8768205,2.5651765,0.05196008,-0.078057215,1.5358597,-0.33728942,0.2492314,-0.71559036,1.1320859,0.7914918,0.99345213,1.3943148,-0.06565894
0.1,0.1,1.0,0.0,0.0,0,1.1921364,-0.8787862,2.5978544,0.047337554,-0.1795002,1.5386173,-0.1878488,0.20013762,-0.7494479,1.1121132,0.7853158,0.98820513,1.4671745,-0.013803539
0.1,0.1,1.0,0.0,0.0,0,1.1865091,-0.87443465,2.5975819,0.06993915,-0.21286888,1.534385,-0.13876271,0.14263341,-0.7143936,1.2215127,0.76025975,0.93484706,1.4523023,-0.06580042
0.1,0.1,1.0,0.0,0.0,0,1.1833715,-0.88206553,2.5454962,0.069514446,-0.15013203,1.5419765,-0.28393653,0.19686083,-0.72287345,1.1777366,0.7937037,0.9046904,1.4367716,-0.09018438
0.1,0.1,1.0,0.0,0.0,0,1.185572,-0.89090264,2.5477715,0.06820716,-0.13360886,1.5617493,-0.27734753,0.12975149,-0.72421473,1.1780905,0.7787685,0.9746394,1.561986,-0.060493942
0.1,0.1,1.0,0.0,0.0,0,1.1855787,-0.8823389,2.5582063,0.069390684,-0.14570689,1.5590755,-0.15596515,0.1736224,-0.7287857,1.103339,0.8392631,1.005595,1.5176237,-0.14080241
0.1,0.1,1.0,0.0,0.0,0,1.1904776,-0.88277483,2.555638,0.05010026,-0.111402735,1.5421375,-0.2987758,0.19029808,-0.72694695,1.1308545,0.78264594,1.0049368,1.5278261,-0.07753311
0.1,0.1,1.0,0.0,0.0,0,1.189793,-0.88884276,2.5352933,0.06572549,-0.15528686,1.5521309,-0.34469488,0.16604023,-0.71077734,1.1387266,0.7670039,0.94544524,1.5158798,-0.09457583
0.1,0.1,1.0,0.0,0.0,0,1.1950128,-0.8770327,2.5736005,0.065809205,-0.13520445,1.5410104,-0.29742253,0.16121218,-0.7386233,1.1648213,0.7764145,0.9851911,1.5172898,-0.08237859
0.1,0.1,1.0,0.0,0.0,0,1.1922616,-0.8765596,2.5905406,0.08867829,-0.10178484,1.5388942,-0.29467842,0.24963744,-0.73972344,1.1535531,0.7870205,0.8996117,1.4799813,0.02923041
0.1,0.1,1.0,0.0,0.0,0,1.1918163,-0.8868316,2.5731707,0.057433918,-0.10281368,1.5392454,-0.4095615,0.26327714,-0.74220175,1.1591122,0.77614456,1.0126624,1.4072841,-0.11332463
0.1,0.1,1.0,0.0,0.0,0,1.1886073,-0.8932557,2.578066,0.08260685,-0.21973717,1.5297618,-0.44214574,0.20709898,-0.72569036,1.1721792,0.81866705,1.018529,1.4243556,0.002830425
0.1,0.1,1.0,0.0,0.0,0,1.1897624,-0.8747131,2.4945884,0.088385165,-0.10801925,1.514039,-0.2541029,0.14868101,-0.71115136,1.178398,0.7996475,0.90727735,1.5156047,-0.03748887
0.1,0.1,1.0,0.0,0.0,0,1.2006701,-0.8820817,2.6253347,0.058549896,-0.12804644,1.5474739,-0.35044363,0.19509862,-0.7551532,1.159171,0.76586753,1.0590457,1.4815822,-0.008808388
0.1,0.1,1.0,0.0,0.0,0,1.183254,-0.8757503,2.5784824,0.06274156,-0.09780146,1.5420535,-0.37020698,0.262354,-0.7267209,1.1326658,0.7658321,0.8963487,1.4506437,-0.012003735
0.1,0.1,1.0,0.0,0.0,0,1.1886084,-0.8809616,2.5548646,0.043273956,-0.107038856,1.5376941,-0.3133549,0.1367354,-0.71028054,1.1971296,0.76864076,1.0313549,1.5292565,-0.15365282
0.1,0.1,1.0,0.0,0.0,0,1.1861365,-0.883217,2.5788867,0.081378534,-0.14202704,1.5455781,-0.22544844,0.20166889,-0.74793446,1.1823518,0.8010326,1.0270518,1.4716464,-0.014203581
0.1,0.1,1.0,0.0,0.0,0,1.1874701,-0.8731078,2.5668066,0.06953953,-0.1374188,1.5388479,-0.15781151,0.21519054,-0.7185678,1.1377563,0.75414723,1.0165001,1.4938605,-0.1864951
0.1,0.1,1.0,0.0,0.0,0,1.1862656,-0.88382083,2.5553846,0.09060685,-0.14684306,1.5400227,-0.37259442,0.19208652,-0.7105288,1.1750296,0.75479054,0.92507356,1.4973948,0.075822465
0.1,0.1,1.0,0.0,0.0,0,1.1941894,-0.88053703,2.5440905,0.07915573,-0.146844,1.5445043,-0.38579822,0.2683541,-0.72519505,1.1640213,0.78612685,0.956948,1.4581397,0.0030858577
0.1,0.1,1.0,0.0,0.0,0,1.1840692,-0.8825312,2.5592446,0.09890587,-0.17164841,1.5447992,-0.28951344,0.20365581,-0.73428416,1.143712,0.79046196,1.0183393,1.5375087,-0.054517005
0.1,0.1,1.0,0.0,0.0,0,1.1930608,-0.87483245,2.5821826,0.057982508,-0.10578196,1.5343163,-0.36015186,0.2703683,-0.7408397,1.1130526,0.812118,0.93301153,1.474852,-0.05067712
0.1,0.1,1.0,0.0,0.0,0,1.194348,-0.8801036,2.5949361,0.054817706,-0.12621765,1.5321319,-0.41427863,0.23944041,-0.7730427,1.1570516,0.78121847,0.9622713,1.4209596,-0.03416282
0.1,0.1,1.0,0.0,0.0,0,1.1878237,-0.8825944,2.5723681,0.0565739,-0.1171767,1.5401074,-0.3701797,0.17498398,-0.72551584,1.1778694,0.8214416,0.9865279,1.4725282,-0.06523269
0.1,0.1,1.0,0.0,0.0,0,1.18439,-0.8797864,2.5416107,0.06000934,-0.14192218,1.544581,-0.16521306,0.24294946,-0.72979426,1.1385108,0.80965525,0.96544224,1.4430836,-0.085130006
0.1,0.1,1.0,0.0,0.0,0,1.1896706,-0.8866672,2.5973973,0.09278818,-0.15933435,1.5474058,-0.30408227,0.27118513,-0.7469349,1.173471,0.7693012,1.0639985,1.4183075,-0.13460259
0.1,0.1,1.0,0.0,0.0,0,1.1815069,-0.88588876,2.5844765,0.027862359,-0.16965482,1.5418124,-0.36105832,0.2462376,-0.74895084,1.1500584,0.7745379,1.0083611,1.4695319,-0.048914153
0.1,0.1,1.0,0.0,0.0,0,1.1918494,-0.88597244,2.5501726,0.08625034,-0.15783893,1.5498955,-0.30843008,0.17562144,-0.7699424,1.2057638,0.8282256,1.0635138,1.4707404,-0.12988953
0.1,0.1,1.0,0.0,0.0,0,1.1905552,-0.87643814,2.5714169,0.061957374,-0.13165307,1.5452014,-0.23400824,0.22819623,-0.74328244,1.1313859,0.83626956,0.9682601,1.4366635,-0.19179344
0.1,0.1,1.0,0.0,0.0,0,1.193401,-0.8817473,2.5869484,0.054362465,-0.11582561,1.5348573,-0.27753606,0.20751444,-0.7317476,1.2032447,0.786276,1.0241185,1.3852297,-0.088087924
0.1,0.1,1.0,0.0,0.0,0,1.1891685,-0.8774554,2.6036687,0.046135876,-0.045493886,1.5372319,-0.34709606,0.441373,-0.745128,1.0939127,0.7603411,0.8719926,1.3416964,-0.090079606
0.1,0.1,1.0,0.0,0.0,0,1.1891685,-0.8774554,2.6036687,0.046135876,-0.045493886,1.5372319,-0.34709606,0.441373,-0.745128,1.0939127,0.7603411,0.8719926,1.3416964,-0.090079606
0.1,0.1,1.0,0.0,0.0,0,1.1891685,-0.8774554,2.6036687,0.046135876,-0.045493886,1.5372319,-0.34709606,0.441373,-0.745128,1.0939127,0.7603411,0.8719926,1.3416964,-0.090079606
0.1,0.1,1.0,0.0,0.0,0,1.1891685,-0.8774554,2.6036687,0.046135876,-0.045493886,1.5372319,-0.34709606,0.441373,-0.745128,1.0939127,0.7603411,0.8719926,1.3416964,-0.090079606
0.1,0.1,1.0,0.0,0.0,0,1.1891685,-0.8774554,2.6036687,0.046135876,-0.045493886,1.5372319,-0.34709606,0.441373,-0.745128,1.0939127,0.7603411,0.8719926,1.3416964,-0.090079606
0.1,0.1,1.0,0.0,0.0,0,1.1891685,-0.8774554,2.6036687,0.046135876,-0.045493886,1.5372319,-0.34709606,0.441373,-0.745128,1.0939127,0.7603411,0.8719926,1.3416964,-0.090079606
0.1,0.1,1.0,0.0,0.0,0,1.1891685,-0.8774554,2.6036687,0.046135876,-0.045493886,1.5372319,-0.34709606,0.441373,-0.745128,1.0939127,0.7603411,0.8719926,1.3416964,-0.090079606
0.1,0.1,1.0,0.0,0.0,0,1.1891685,-0.8774554,2.6036687,0.046135876,-0.045493886,1.5372319,-0.34709606,0.441373,-0.745128,1.0939127,0.7603411,0.8719926,1.3416964,-0.090079606
0.1,0.1,1.0,0.0,0.0,0,1.1891685,-0.8774554,2.6036687,0.046135876,-0.045493886,1.5372319,-0.34709606,0.441373,-0.745128,1.0939127,0.7603411,0.8719926,1.3416964,-0.090079606
0.1,0.1,1.0,0.0,0.0,0,1.1891685,-0.8774554,2.6036687,0.046135876,-0.045493886,1.5372319,-0.34709606,0.441373,-0.745128,1.0939127,0.7603411,0.8719926,1.3416964,-0.090079606
0.1,0.1,1.0,0.0,0.0,0,1.1973356,-0.8871618,2.5923662,0.06492841,-0.14339128,1.5379369,-0.43400723,0.21368961,-0.7358434,1.1868035,0.79931307,0.9496093,1.4147911,-0.016449507
0.1,0.1,1.0,0.0,0.0,0,1.1973356,-0.8871618,2.5923662,0.06492841,-0.14339128,1.5379369,-0.43400723,0.21368961,-0.7358434,1.1868035,0.79931307,0.9496093,1.4147911,-0.016449507
0.1,0.1,1.0,0.0,0.0,0,1.1973356,-0.8871618,2.5923662,0.06492841,-0.14339128,1.5379369,-0.43400723,0.21368961,-0.7358434,1.1868035,0.79931307,0.9496093,1.4147911,-0.016449507
0.1,0.1,1.0,0.0,0.0,0,1.1973356,-0.8871618,2.5923662,0.06492841,-0.14339128,1.5379369,-0.43400723,0.21368961,-0.7358434,1.1868035,0.79931307,0.9496093,1.4147911,-0.016449507
0.1,0.1,1.0,0.0,0.0,0,1.1973356,-0.8871618,2.5923662,0.06492841,-0.14339128,1.5379369,-0.43400723,0.21368961,-0.7358434,1.1868035,0.79931307,0.9496093,1.4147911,-0.016449507
0.1,0.1,1.0,0.0,0.0,0,1.1973356,-0.8871618,2.5923662,0.06492841,-0.14339128,1.5379369,-0.43400723,0.21368961,-0.7358434,1.1868035,0.79931307,0.9496093,1.4147911,-0.016449507
0.1,0.1,1.0,0.0,0.0,0,1.1973356,-0.8871618,2.5923662,0.06492841,-0.14339128,1.5379369,-0.43400723,0.21368961,-0.7358434,1.1868035,0.79931307,0.9496093,1.4147911,-0.016449507
0.1,0.1,1.0,0.0,0.0,0,1.1973356,-0.8871618,2.5923662,0.06492841,-0.14339128,1.5379369,-0.43400723,0.21368961,-0.7358434,1.1868035,0.79931307,0.9496093,1.4147911,-0.016449507
0.1,0.1,1.0,0.0,0.0,0,1.1973356,-0.8871618,2.5923662,0.06492841,-0.14339128,1.5379369,-0.43400723,0.21368961,-0.7358434,1.1868035,0.79931307,0.9496093,1.4147911,-0.016449507
0.1,0.1,1.0,0.0,0.0,0,1.1914465,-0.8814521,2.5750823,0.045425337,-0.042195097,1.5450064,-0.27468544,0.14441918,-0.7156912,1.1863227,0.80860716,0.93995297,1.4156381,-0.020867279
0.1,0.1,1.0,0.0,0.0,0,1.1914465,-0.8814521,2.5750823,0.045425337,-0.042195097,1.5450064,-0.27468544,0.14441918,-0.7156912,1.1863227,0.80860716,0.93995297,1.4156381,-0.020867279
0.1,0.1,1.0,0.0,0.0,0,1.1914465,-0.8814521,2.5750823,0.045425337,-0.042195097,1.5450064,-0.27468544,0.14441918,-0.7156912,1.1863227,0.80860716,0.93995297,1.4156381,-0.020867279
0.1,0.1,1.0,0.0,0.0,0,1.1914465,-0.8814521,2.5750823,0.045425337,-0.042195097,1.5450064,-0.27468544,0.14441918,-0.7156912,1.1863227,0.80860716,0.93995297,1.4156381,-0.020867279
0.1,0.1,1.0,0.0,0.0,0,1.1914465,-0.8814521,2.5750823,0.045425337,-0.042195097,1.5450064,-0.27468544,0.14441918,-0.7156912,1.1863227,0.80860716,0.93995297,1.4156381,-0.020867279
0.1,0.1,1.0,0.0,0.0,0,1.1914465,-0.8814521,2.5750823,0.045425337,-0.042195097,1.5450064,-0.27468544,0.14441918,-0.7156912,1.1863227,0.80860716,0.93995297,1.4156381,-0.020867279
0.1,0.1,1.0,0.0,0.0,0,1.1914465,-0.8814521,2.5750823,0.045425337,-0.042195097,1.5450064,-0.27468544,0.14441918,-0.7156912,1.1863227,0.80860716,0.93995297,1.4156381,-0.020867279
0.1,0.1,1.0,0.0,0.0,0,1.1914465,-0.8814521,2.5750823,0.045425337,-0.042195097,1.5450064,-0.27468544,0.14441918,-0.7156912,1.1863227,0.80860716,0.93995297,1.4156381,-0.020867279
0.1,0.1,1.0,0.0,0.0,0,1.1914465,-0.8814521,2.5750823,0.045425337,-0.042195097,1.5450064,-0.27468544,0.14441918,-0.7156912,1.1863227,0.80860716,0.93995297,1.4156381,-0.020867279
0.1,0.1,1.0,0.0,0.0,0,1.1905552,-0.87643814,2.5714169,0.061957374,-0.13165307,1.5452014,-0.23400824,0.22819623,-0.74328244,1.1313859,0.83626956,0.9682601,1.4366635,-0.19179344
0.1,0.1,1.0,0.0,0.0,0,1.1905552,-0.87643814,2.5714169,0.061957374,-0.13165307,1.5452014,-0.23400824,0.22819623,-0.74328244,1.1313859,0.83626956,0.9682601,1.4366635,-0.19179344
0.1,0.1,1.0,0.0,0.0,0,1.1905552,-0.87643814,2.5714169,0.061957374,-0.13165307,1.5452014,-0.23400824,0.22819623,-0.74328244,1.1313859,0.83626956,0.9682601,1.4366635,-0.19179344
0.1,0.1,1.0,0.0,0.0,0,1.1905552,-0.87643814,2.5714169,0.061957374,-0.13165307,1.5452014,-0.23400824,0.22819623,-0.74328244,1.1313859,0.83626956,0.9682601,1.4366635,-0.19179344
