sanky1234/BimanualDexCatch/isaacgymenvs/cem_results/May31/football_pose_0.0_-0.1_1.1_-0.5235987755982988_-0.5235987755982988_0_2025-05-31.csv
x,y,z,roll,pitch,yaw,robot1/joint1,robot1/joint2,robot1/joint3,robot1/joint4,robot1/joint5,robot1/joint6,robot1/joint7,robot2/joint1,robot2/joint2,robot2/joint3,robot2/joint4,robot2/joint5,robot2/joint6,robot2/joint7
0.0,-0.1,1.1,-0.5235987755982988,-0.5235987755982988,0,-0.72085774,-1.0966656,-1.9446133,0.7951375,0.33387288,0.7246381,-0.29319787,-0.42775258,-0.21086198,-1.34736,0.57762915,0.29282096,-0.20388502,-0.8133541
0.0,-0.1,1.1,-0.5235987755982988,-0.5235987755982988,0,0.03474618,-1.0338379,-1.8713926,1.0486726,-1.5276582,-0.67048293,-0.04295388,0.23146264,-0.56815094,-2.2405849,0.45832765,-0.5680323,-0.07535518,-0.2395222
0.0,-0.1,1.1,-0.5235987755982988,-0.5235987755982988,0,-1.0027946,-0.79831076,-2.12706,1.1912028,-0.45022056,-0.07547694,-0.6580623,-0.7221708,-0.16154277,-2.153584,0.44782558,-0.73173386,0.36794493,-0.68122035
0.0,-0.1,1.1,-0.5235987755982988,-0.5235987755982988,0,-1.0400133,-0.7780534,-1.7455152,0.77111846,0.21944372,-0.02181836,0.37881497,-0.4183849,-0.16416883,-1.6396384,0.40887836,-0.3697925,0.6070217,-0.8926958
0.0,-0.1,1.1,-0.5235987755982988,-0.5235987755982988,0,-0.9205257,-1.2704011,-1.8962194,0.88337946,-0.60801524,-0.2425247,0.072747365,0.2185373,-0.22703433,-2.1422796,0.87515676,1.3638818,0.3775788,-0.2728572
0.0,-0.1,1.1,-0.5235987755982988,-0.5235987755982988,0,-0.38988474,-0.98962826,-2.1582832,0.6692132,-1.1895022,-0.02039274,-0.26723287,0.060378995,-0.17120975,-2.104929,0.3179768,1.2712427,0.8173498,-0.41898826
0.0,-0.1,1.1,-0.5235987755982988,-0.5235987755982988,0,-0.3461807,-1.0363948,-1.7522844,0.886277,-1.9304,0.17878906,-0.013772786,0.2685953,-0.51205677,-1.8798038,0.61605567,0.12133398,-0.047825225,-0.50005263
0.0,-0.1,1.1,-0.5235987755982988,-0.5235987755982988,0,-0.9777662,-1.0347754,-1.5798664,0.66179776,-0.48645142,0.1534522,0.3723327,-0.2808052,-0.16843757,-1.7471024,0.5831739,-0.8523569,0.89878607,-0.48312005
0.0,-0.1,1.1,-0.5235987755982988,-0.5235987755982988,0,-0.3075571,-1.0469635,-1.6363374,1.0030861,-0.26588073,0.24253623,0.61647546,-0.67846894,-0.51803946,-1.8309749,0.0863284,-0.4085616,0.54902,-0.11063966
0.0,-0.1,1.1,-0.5235987755982988,-0.5235987755982988,0,-0.81275034,-1.1614884,-1.9696169,1.2297364,-0.15847869,0.292604,-0.3747219,-0.37610707,-0.47547907,-1.5501091,0.82447815,0.0980218,-0.33506605,0.011129995
0.0,-0.1,1.1,-0.5235987755982988,-0.5235987755982988,0,-0.511021,-1.2763919,-2.289381,1.1326728,-1.3528063,0.89366597,0.016121326,-0.41190493,-0.08814808,-2.2600114,0.4394104,0.044832774,0.56238896,-0.45766
0.0,-0.1,1.1,-0.5235987755982988,-0.5235987755982988,0,-0.9489368,-0.9023043,-1.8560567,0.8757365,-0.5894137,0.76030916,0.37144417,0.5807826,-0.24778292,-1.8643506,0.6621753,-0.1643216,0.5779327,-0.3581873
0.0,-0.1,1.1,-0.5235987755982988,-0.5235987755982988,0,-0.6882519,-1.189095,-2.3452184,0.81654406,-0.41128778,0.79266256,-0.34374326,0.093730785,-0.26016346,-1.131795,0.22880384,0.061550044,0.9248735,-0.5675132
0.0,-0.1,1.1,-0.5235987755982988,-0.5235987755982988,0,-0.11582705,-1.0437068,-2.1561124,0.80068636,-1.0061456,0.87534964,0.16148809,-0.35133076,-0.3118984,-1.9024557,0.4756623,-0.4142962,0.09428266,-0.6525872
0.0,-0.1,1.1,-0.5235987755982988,-0.5235987755982988,0,-0.4246135,-1.3190305,-1.4747814,0.8484851,-1.7095702,0.0041136374,-1.0265406,-0.026800385,-0.31696495,-1.554599,0.41569155,0.021403529,0.10110233,-0.9217974
0.0,-0.1,1.1,-0.5235987755982988,-0.5235987755982988,0,-1.1110771,-1.0838459,-2.0655339,0.98228097,-0.091474794,-0.038807973,-0.2108008,-0.072527654,-0.3776864,-1.3611281,0.39751774,-0.40645462,0.66593564,-0.62492824
0.0,-0.1,1.1,-0.5235987755982988,-0.5235987755982988,0,-0.77219576,-1.0496203,-1.9022291,1.030485,0.10986768,1.4996572,-0.38018498,-0.28814098,-0.2256502,-2.5447516,0.3517052,0.03170519,0.13683903,0.05638598
0.0,-0.1,1.1,-0.5235987755982988,-0.5235987755982988,0,-0.35003194,-0.8692029,-2.1188204,0.7233452,-1.3368083,0.827242,0.33375952,-0.28571698,-0.22937632,-2.1567457,0.39797467,0.07047341,0.2783565,-0.48945233
0.0,-0.1,1.1,-0.5235987755982988,-0.5235987755982988,0,-1.1299267,-1.0658257,-2.140958,1.1710057,-1.7991301,-0.020610701,0.32433,-0.12511723,-0.31680694,-2.5452914,0.31716296,0.5930896,0.16209368,-0.31162176
0.0,-0.1,1.1,-0.5235987755982988,-0.5235987755982988,0,-0.6376171,-1.1941923,-1.947101,0.82806957,-0.76589364,-0.028403047,-0.17247324,-0.336708,-0.13282259,-2.1490216,0.14410798,-0.7995508,0.78661484,-0.77332056
0.0,-0.1,1.1,-0.5235987755982988,-0.5235987755982988,0,-0.4091253,-0.92492735,-2.061631,0.5725711,-1.2111949,1.0547763,-0.43215913,0.22862928,-0.35393214,-1.5333338,0.5028525,-1.6035333,0.5475225,-0.65472245
0.0,-0.1,1.1,-0.5235987755982988,-0.5235987755982988,0,-0.46330452,-0.9374058,-1.718887,0.8981778,-0.8605943,0.43849286,0.043725226,-0.27598533,-0.566027,-1.7469054,0.16079247,0.73444396,0.7822104,-0.43239543
0.0,-0.1,1.1,-0.5235987755982988,-0.5235987755982988,0,-0.5987086,-1.0436736,-1.7825836,1.0782735,-0.3768946,0.5085215,0.5761482,-0.011824951,-0.4964089,-1.5612322,0.78995633,-1.4179685,0.17924416,-0.4924798
0.0,-0.1,1.1,-0.5235987755982988,-0.5235987755982988,0,-0.7495559,-1.1440601,-2.1463306,0.8139995,-0.4810667,0.6663629,0.24657176,0.050966512,-0.24214377,-1.6694683,0.24499401,0.76445025,0.61327696,-1.2623191
0.0,-0.1,1.1,-0.5235987755982988,-0.5235987755982988,0,-0.5559075,-1.189903,-1.9575087,0.8425287,0.014961688,-0.765289,-0.16822475,-0.31706333,-0.16149516,-1.877101,0.37576857,3.5077097e-05,0.010647003,-0.15040259
0.0,-0.1,1.1,-0.5235987755982988,-0.5235987755982988,0,-0.12973465,-0.9465047,-2.1037219,0.8533051,-0.2926826,-0.22203733,0.19308299,-0.21209285,-0.41291672,-1.9421798,0.71648437,-0.120936655,-0.08847228,-0.44529164
0.0,-0.1,1.1,-0.5235987755982988,-0.5235987755982988,0,-0.3341836,-1.1014751,-2.311437,0.8356093,-0.6873271,1.1402553,0.38696903,0.02975981,-0.17623653,-1.3091743,0.6934333,-0.92773706,0.3925263,-0.06733944
0.0,-0.1,1.1,-0.5235987755982988,-0.5235987755982988,0,-0.6079643,-0.9314971,-1.9784138,0.67016363,-0.7745214,0.22659639,0.10413553,-0.5527685,-0.25634992,-1.2439346,0.6047918,0.69069284,0.329948,-0.37640926
0.0,-0.1,1.1,-0.5235987755982988,-0.5235987755982988,0,-0.6808041,-1.1868198,-2.15008,0.9275575,0.2510377,0.5355127,-0.37986597,-0.061685517,-0.13022868,-2.1486306,0.44714922,0.07131024,0.43441716,-0.50631773
0.0,-0.1,1.1,-0.5235987755982988,-0.5235987755982988,0,-0.40903097,-1.099343,-1.6857301,0.66195494,-0.26996204,0.6606976,0.028732877,-0.47599274,-0.33198607,-2.0717,0.33909616,-0.043274138,0.5115358,-0.7442455
0.0,-0.1,1.1,-0.5235987755982988,-0.5235987755982988,0,-1.1094497,-1.1166233,-1.3345008,0.8257923,-1.0390918,0.15870716,-0.22991863,-0.21703567,-0.47492698,-1.5617546,0.5802542,0.11752722,0.5154263,-0.41259605
0.0,-0.1,1.1,-0.5235987755982988,-0.5235987755982988,0,-0.8795763,-0.96785367,-1.7390844,0.7655794,-0.7235333,1.2275904,-0.1176827,-0.06646204,-0.15077153,-1.9347184,0.47593325,0.10534157,-0.19427252,-1.1257576
0.0,-0.1,1.1,-0.5235987755982988,-0.5235987755982988,0,-0.69859225,-0.95730966,-1.7127043,0.9834902,-0.7639894,1.5605175,-0.06321884,-0.36460587,-0.43025422,-2.2866201,0.13096946,-0.1018346,0.5242454,0.112069905
0.0,-0.1,1.1,-0.5235987755982988,-0.5235987755982988,0,-0.19604379,-1.1422856,-1.7320013,0.92835915,-0.435711,-0.28086996,0.1846685,-0.11394947,-0.17304507,-2.2788055,0.7337451,0.81056756,0.2789591,-0.5221304
0.0,-0.1,1.1,-0.5235987755982988,-0.5235987755982988,0,-0.7339398,-1.2425863,-1.671277,0.67412573,-0.4439019,0.49375996,1.0391856,-0.102717206,-0.13669504,-2.1948533,0.46603933,0.9911807,0.24752042,-0.24921758
0.0,-0.1,1.1,-0.5235987755982988,-0.5235987755982988,0,-0.71445996,-1.0696529,-2.3137908,1.1324096,-1.1741825,0.64635384,-0.12847327,-0.5104262,-0.41563362,-1.9348696,0.25657684,0.11903593,0.05791792,-0.27759326
0.0,-0.1,1.1,-0.5235987755982988,-0.5235987755982988,0,-0.98941815,-0.9996991,-2.0173504,1.1069196,-1.2730863,0.7128685,0.7755194,-0.26373968,-0.3323933,-1.6044575,0.7743827,0.17694597,0.36458388,0.36165547
0.0,-0.1,1.1,-0.5235987755982988,-0.5235987755982988,0,-0.6954566,-1.2338358,-1.54884,1.1513512,-2.5127935,0.4883112,-0.15673605,-0.15175405,-0.4010202,-1.8660033,0.91106015,-0.74259335,-0.05053883,-0.27164242
0.0,-0.1,1.1,-0.5235987755982988,-0.5235987755982988,0,-0.23857448,-1.1425644,-2.0410204,0.8458007,-0.04361903,0.012437588,-0.71151876,-0.12724522,-0.18836603,-2.153985,0.5486768,0.28003263,0.34448433,-0.39361104
0.0,-0.1,1.1,-0.5235987755982988,-0.5235987755982988,0,-0.22116584,-1.0909848,-1.316686,0.7069685,-0.33173206,-0.52532256,-0.48845282,-0.2370988,-0.5593604,-1.2539008,0.6448144,-0.5013074,0.7584872,-0.47211152
0.0,-0.1,1.1,-0.5235987755982988,-0.5235987755982988,0,-1.1110573,-1.0243317,-1.8005786,0.9580335,-0.9646281,0.22697583,0.2385249,0.10580834,-0.19782618,-2.1644318,0.4586349,-0.2540916,-0.10955111,-0.03098188
0.0,-0.1,1.1,-0.5235987755982988,-0.5235987755982988,0,0.31374875,-1.2092439,-2.1534338,1.11206,0.59711885,0.7781393,-0.36428466,-0.041762467,-0.38492337,-2.0283916,1.0355159,-1.0342326,0.63032943,-0.46983775
0.0,-0.1,1.1,-0.5235987755982988,-0.5235987755982988,0,0.26900372,-1.2333983,-2.2664645,1.1647413,-0.41963235,0.12890063,0.29509276,-0.20053281,-0.2651176,-2.354605,0.40175685,0.4845835,0.092241675,-0.8365962
0.0,-0.1,1.1,-0.5235987755982988,-0.5235987755982988,0,-0.68651605,-0.9695215,-2.133461,0.8611888,-0.6226242,-0.21327876,0.25192013,0.17649436,-0.28687087,-1.6093386,0.655777,0.41819596,0.255616,-0.40790582
0.0,-0.1,1.1,-0.5235987755982988,-0.5235987755982988,0,-0.016591819,-1.1138024,-2.3486543,0.72434527,-0.309362,-0.14979315,0.27796054,-0.019859841,-0.17981967,-1.8145002,1.1420236,0.04655266,0.5526114,-0.30787146
0.0,-0.1,1.1,-0.5235987755982988,-0.5235987755982988,0,-0.37528306,-1.0568285,-1.6947156,0.82487005,-0.053137317,0.6688983,0.5258393,0.16153176,-0.4531343,-2.1770992,0.038151983,0.21115753,0.55635786,-0.5604669
0.0,-0.1,1.1,-0.5235987755982988,-0.5235987755982988,0,-0.6113974,-1.1568184,-1.4481704,1.0168793,-0.36197433,-0.06463591,-0.23489676,-0.11648852,-0.482527,-1.6837189,0.14606799,1.0491098,0.3371707,-0.9277755
0.0,-0.1,1.1,-0.5235987755982988,-0.5235987755982988,0,-0.7500249,-0.99339944,-2.0343025,0.8719443,-0.48569575,0.10061147,0.110473216,-0.5072138,-0.3206576,-1.8872764,-0.1195451,-0.24488199,0.8240959,-0.5010668
0.0,-0.1,1.1,-0.5235987755982988,-0.5235987755982988,0,-0.9295578,-1.103298,-2.3423486,0.8485049,-0.43845886,-0.5845922,-0.91379774,-0.57219213,-0.35129482,-1.8187467,0.13625972,-0.74061656,0.3968579,0.15902998
0.0,-0.1,1.1,-0.5235987755982988,-0.5235987755982988,0,-0.92348236,-1.1556251,-1.8789612,0.86875635,0.79341114,0.96273124,-0.30547294,-0.13457617,-0.16509642,-2.1877472,-0.20203361,-1.0275017,0.45119566,-0.81306326
0.0,-0.1,1.1,-0.5235987755982988,-0.5235987755982988,0,-0.93260145,-1.1436236,-1.7698262,1.1559774,-0.3660219,1.0928075,-0.564952,-0.18688928,-0.45054573,-1.8683386,0.5964159,0.1288783,0.30280197,-0.215151
0.0,-0.1,1.1,-0.5235987755982988,-0.5235987755982988,0,-0.6397061,-0.9549976,-2.12237,0.8621838,-1.1237845,0.1886237,0.15307775,-0.2448507,-0.072761044,-1.9526063,0.5827441,-0.58178693,0.42897466,-0.010612429
0.0,-0.1,1.1,-0.5235987755982988,-0.5235987755982988,0,-0.9094931,-1.1183652,-1.6228805,0.58038694,-1.3177878,0.1886917,-0.7276084,-0.4867686,-0.10416627,-1.5118463,0.17091145,-0.22670208,0.5733663,-0.30699503
0.0,-0.1,1.1,-0.5235987755982988,-0.5235987755982988,0,-0.3679966,-1.0599576,-1.8646514,0.7957676,-1.2832103,-0.19275887,-0.39257476,-0.031008482,-0.27566558,-2.2462566,0.6467987,-0.17262301,0.659333,-0.48538277
0.0,-0.1,1.1,-0.5235987755982988,-0.5235987755982988,0,-0.8804303,-1.0027045,-1.8084143,0.86989605,-0.2524001,0.39103958,-0.21433431,0.03962991,-0.051478017,-2.429476,0.49275184,-0.876423,0.29355663,-0.6942796
0.0,-0.1,1.1,-0.5235987755982988,-0.5235987755982988,0,-1.2263116,-0.9572042,-1.6696597,1.1660739,-0.49073,0.791188,0.3716482,-0.4500528,-0.3933282,-1.7755307,0.5410481,-0.46646938,0.8417856,-0.7144836
0.0,-0.1,1.1,-0.5235987755982988,-0.5235987755982988,0,-0.35142416,-1.2157899,-1.8203592,0.922404,-1.1264215,0.0016979756,0.072536916,-0.54869723,-0.19182412,-2.1404042,0.20176952,0.25419766,0.18941143,-0.45437008
0.0,-0.1,1.1,-0.5235987755982988,-0.5235987755982988,0,-0.76108694,-1.1989738,-1.7111121,0.7264204,-0.9805916,-0.997835,0.23439614,-0.10694364,-0.1748538,-2.2541354,0.17252032,0.8768094,-0.050554704,-0.5401575
0.0,-0.1,1.1,-0.5235987755982988,-0.5235987755982988,0,-1.2128801,-1.0765429,-1.7902776,1.1217364,-0.13155955,0.5755558,-0.44856834,-0.21293867,-0.49971914,-1.80396,0.2978276,0.20130868,0.3584288,-0.38203213
0.0,-0.1,1.1,-0.5235987755982988,-0.5235987755982988,0,-0.96756107,-1.2854166,-1.305411,0.5236115,-0.5201145,0.22816576,-0.29341406,-0.20328483,-0.16746537,-1.8542948,0.522845,-0.114758655,0.22190325,-0.79583377
0.0,-0.1,1.1,-0.5235987755982988,-0.5235987755982988,0,-0.9581405,-0.7957541,-1.6825378,0.6625226,-0.18441807,0.3603586,-0.08527484,-0.20433062,-0.2502848,-1.6153356,0.68041044,0.32156596,0.30666113,-0.3139323
0.0,-0.1,1.1,-0.5235987755982988,-0.5235987755982988,0,-0.7355608,-1.1375996,-2.1838403,1.2862747,-0.27481136,1.1301197,0.29603735,0.01107992,-0.5105214,-1.7470145,0.3417167,-0.62747204,0.028001279,-0.5112845
0.0,-0.1,1.1,-0.5235987755982988,-0.5235987755982988,0,-0.06720417,-1.2610826,-1.6674279,0.60626835,-0.92100304,0.06195839,0.33510122,0.30657828,-0.27407065,-1.6758951,0.8023248,0.07720764,0.3350492,-0.2938957
0.0,-0.1,1.1,-0.5235987755982988,-0.5235987755982988,0,-0.5641519,-0.91884935,-1.8334993,0.7251267,0.98713756,-0.5071798,-0.09219432,-0.39834383,-0.23349655,-2.0280745,0.40923417,-0.93607223,0.76632667,-0.06508003
0.0,-0.1,1.1,-0.5235987755982988,-0.5235987755982988,0,-0.8366339,-1.1072005,-1.6789039,0.80018955,-1.2854692,0.3393173,-0.25294578,-0.29816324,-0.17140919,-2.1675937,0.33501315,0.34029132,0.45931536,-0.22993393
0.0,-0.1,1.1,-0.5235987755982988,-0.5235987755982988,0,0.003492346,-1.1026347,-2.124036,0.97588456,-1.7190723,0.07389853,0.20143026,0.18368916,-0.34095377,-2.3657036,0.7559511,0.39600512,0.51416856,-0.49294826
0.0,-0.1,1.1,-0.5235987755982988,-0.5235987755982988,0,-0.6092146,-0.9005295,-1.9405996,0.81591725,-0.20304243,-0.08096013,-0.12297667,-0.44558033,-0.20592478,-1.6783081,0.5375068,-0.23436211,0.30490506,-0.44724998
0.0,-0.1,1.1,-0.5235987755982988,-0.5235987755982988,0,-0.67373526,-1.0983949,-2.1053722,1.0651814,0.82485366,0.5168769,0.7252936,-0.0055078617,-0.2579693,-2.077375,0.8645482,1.2307839,0.5118041,0.3216466
0.0,-0.1,1.1,-0.5235987755982988,-0.5235987755982988,0,-0.6775854,-1.1798117,-1.5432308,0.6084251,-0.11452301,0.21026093,-0.21894456,-0.2809184,-0.19418792,-1.5401629,0.6730972,-0.047676004,0.35696968,-1.0495175
0.0,-0.1,1.1,-0.5235987755982988,-0.5235987755982988,0,-0.6453188,-1.1762974,-1.9066755,0.83464295,-0.7230408,0.5599312,-0.23368189,-0.064407274,-0.2005271,-1.5540644,0.7387675,0.0038604012,0.4785619,-0.23580223
0.0,-0.1,1.1,-0.5235987755982988,-0.5235987755982988,0,-0.75956535,-1.0090371,-1.8877031,0.8552582,-0.7377776,-0.31722423,0.5947166,-0.16913347,0.26309428,-2.490549,0.6378706,0.24422503,0.31442043,-0.049843743
0.0,-0.1,1.1,-0.5235987755982988,-0.5235987755982988,0,-1.345307,-0.99489504,-2.1503408,0.96848875,-1.0494552,0.90780383,-0.051073447,-0.66315746,-0.42718965,-2.783844,0.23351245,-0.97450066,0.65414876,-0.58230656
0.0,-0.1,1.1,-0.5235987755982988,-0.5235987755982988,0,-1.2135886,-0.99570364,-1.5399746,0.97191656,-1.3287129,-0.43608245,-0.2847563,0.009227884,-0.39102608,-1.7951834,0.502997,-0.60646605,0.63187677,-1.3924034
0.0,-0.1,1.1,-0.5235987755982988,-0.5235987755982988,0,-0.6729268,-0.9636038,-1.6700115,0.82115287,-0.6422883,1.2619487,-0.4269773,0.0823081,-0.48798698,-2.1644404,0.5410487,-0.5012135,0.5125504,-0.43405095
0.0,-0.1,1.1,-0.5235987755982988,-0.5235987755982988,0,-0.8535928,-1.1437142,-1.5561025,0.47248572,0.14085974,0.1168387,-0.13694751,-0.45519593,-0.21894394,-1.6327763,0.41739622,-0.99075717,0.5198178,-0.54169315
0.0,-0.1,1.1,-0.5235987755982988,-0.5235987755982988,0,-0.9371971,-1.1020174,-1.5021437,0.985466,-0.90111184,-0.10815665,0.32266298,-0.3191759,-0.5094943,-1.8104941,-0.11905044,-0.54100865,0.7481698,-0.36524448
0.0,-0.1,1.1,-0.5235987755982988,-0.5235987755982988,0,-1.021606,-0.81189555,-1.7522894,0.87527865,-0.84574765,-0.020274427,0.0429709,-0.22965643,-0.21914141,-1.8323203,0.39693668,0.15737604,0.66509134,-0.26273018
0.0,-0.1,1.1,-0.5235987755982988,-0.5235987755982988,0,-0.3680897,-0.8556472,-1.9072946,0.6973418,-1.0950096,1.0329293,-0.6693598,-0.052335378,-0.4930457,-1.949907,0.4112367,-0.44726878,0.7443351,-0.53329194
0.0,-0.1,1.1,-0.5235987755982988,-0.5235987755982988,0,-0.8804342,-1.2605537,-1.9640805,0.9290451,-1.0737826,0.55063945,-0.061250374,-0.3064121,-0.227441,-1.8563379,0.28536654,-0.98533976,0.1711366,-0.48900977
0.0,-0.1,1.1,-0.5235987755982988,-0.5235987755982988,0,-0.9326588,-1.0530207,-2.0369866,1.1315104,-1.5644895,0.7152246,-0.2833481,0.24107715,-0.52631783,-1.3998593,1.4056484,-1.2361643,0.7682838,-0.24809846
0.0,-0.1,1.1,-0.5235987755982988,-0.5235987755982988,0,-0.30573052,-1.1425134,-2.1460814,1.2352184,-0.53663576,-0.4161727,-0.16761911,-0.22328007,-0.1750302,-1.8001488,0.9506986,0.43616498,0.29337192,-0.52205604
0.0,-0.1,1.1,-0.5235987755982988,-0.5235987755982988,0,-0.8500954,-1.0207868,-1.6446722,0.96244705,-0.9847261,-0.056274053,0.72890174,0.058100037,-0.46485645,-1.8387024,0.7632843,0.26390317,0.675904,-0.28923592
0.0,-0.1,1.1,-0.5235987755982988,-0.5235987755982988,0,-0.7032888,-1.044927,-1.5702174,0.6944895,-0.13439292,-0.25043833,-0.35162237,0.24167056,-0.49230656,-2.2947392,0.26362333,-0.9837575,0.20623809,-0.33216354
0.0,-0.1,1.1,-0.5235987755982988,-0.5235987755982988,0,-0.9299016,-1.0512391,-1.9271045,1.0714769,-0.6160909,0.3052533,-0.01212766,-0.16942245,-0.39430666,-1.7715929,0.46371672,-0.21488892,0.54756594,-0.48667938
0.0,-0.1,1.1,-0.5235987755982988,-0.5235987755982988,0,-0.44125834,-0.87057894,-1.9677128,0.75244606,-0.09735503,0.96185094,-0.16605824,0.08194756,-0.47938314,-1.7189677,0.54350275,-0.7407045,0.32213533,-0.57974863
0.0,-0.1,1.1,-0.5235987755982988,-0.5235987755982988,0,-0.24849902,-1.0117239,-1.7483126,0.6317375,-0.069438554,-0.5487328,-0.07187148,0.24972513,-0.50525624,-1.926509,0.8782863,0.14730808,0.528886,-0.0010774143
0.0,-0.1,1.1,-0.5235987755982988,-0.5235987755982988,0,-1.329518,-1.3656373,-1.7115761,1.0660912,-1.0479864,0.37180218,-0.14851041,0.020462189,-0.31465048,-1.8301407,0.59754044,-0.21561815,0.11575903,-0.3291808
0.0,-0.1,1.1,-0.5235987755982988,-0.5235987755982988,0,-0.7314113,-1.087209,-1.8873147,0.8353722,-0.6169877,-0.06483953,0.34497678,-0.09993299,-0.22859505,-1.3796774,0.6671744,-0.5766415,0.543761,0.010930027
0.0,-0.1,1.1,-0.5235987755982988,-0.5235987755982988,0,-0.38917708,-0.99531585,-1.9758747,0.5876401,-0.59028035,0.7879014,-0.23465149,-0.032845315,-0.29116574,-1.8326002,0.60248214,0.89433926,0.25842115,-0.6812748
0.0,-0.1,1.1,-0.5235987755982988,-0.5235987755982988,0,-0.8505844,-1.05528,-1.3836334,0.62037313,-1.0862516,1.0331087,-0.41237432,-0.23858856,-0.4542266,-1.8734533,0.48683646,0.67161494,0.37906942,-0.70674807
0.0,-0.1,1.1,-0.5235987755982988,-0.5235987755982988,0,-1.1936443,-1.0527197,-1.511983,0.7684915,-0.54286027,0.97995496,-0.3747556,-0.08427012,-0.24448678,-1.907803,0.39500585,-0.85356367,0.6433213,-0.16396114
0.0,-0.1,1.1,-0.5235987755982988,-0.5235987755982988,0,-1.157281,-1.0315816,-2.3253655,0.9443811,-0.38744953,0.9470906,0.5033112,-0.10261885,-0.31601658,-2.4617329,0.31317684,-0.6254941,0.6338251,-1.0686743
0.0,-0.1,1.1,-0.5235987755982988,-0.5235987755982988,0,-1.1532702,-1.1730758,-1.8056835,1.1427169,-0.48380968,-0.21621987,0.08474364,0.015760876,-0.45901915,-1.9140657,0.54466003,1.2967747,0.37851927,-0.5275499
0.0,-0.1,1.1,-0.5235987755982988,-0.5235987755982988,0,-1.5081391,-1.082072,-1.8325144,0.67437744,-0.3587179,1.1166136,-0.019020652,-0.19950077,-0.3502312,-1.5982552,0.26959428,0.39427733,0.91353303,-0.5935195
0.0,-0.1,1.1,-0.5235987755982988,-0.5235987755982988,0,-0.19556046,-1.1739304,-1.9247843,0.49923465,-0.2846862,0.00023392928,0.70795834,-0.7183212,-0.19640909,-1.3731982,0.48892286,-0.103087865,0.3270018,-0.3419095
0.0,-0.1,1.1,-0.5235987755982988,-0.5235987755982988,0,-0.5835548,-1.179384,-2.291711,1.1529257,0.3740052,-0.017325316,-0.086266495,-0.5188975,-0.024586488,-2.316241,0.5097973,0.10357329,0.5165739,-0.15431395
0.0,-0.1,1.1,-0.5235987755982988,-0.5235987755982988,0,-0.7714832,-1.003426,-2.1438043,1.1424191,-1.2089529,0.36844596,-0.058396723,-0.3287343,-0.4198553,-1.9308743,0.36114758,-0.07166619,0.3980648,0.03089077
0.0,-0.1,1.1,-0.5235987755982988,-0.5235987755982988,0,-1.2903016,-1.0700178,-1.5539889,0.9887606,-1.4088793,0.16892521,-0.17657022,-0.15949555,-0.29068157,-1.7091135,-0.09553482,-0.55468225,0.66253674,-0.33592683
0.0,-0.1,1.1,-0.5235987755982988,-0.5235987755982988,0,-1.1456015,-1.0962107,-1.403761,0.69990134,-0.038718093,0.76734215,-0.15371923,-0.1006367,-0.36821404,-1.6189036,0.12943378,0.64851916,-0.19344558,-0.5399762
0.0,-0.1,1.1,-0.5235987755982988,-0.5235987755982988,0,-0.2927109,-1.1520878,-1.7943795,1.1491681,-0.61085725,-0.6424124,0.45458782,-0.40456703,-0.32224485,-1.7004105,0.7283578,-0.22239083,0.20473397,-0.7070675
0.0,-0.1,1.1,-0.5235987755982988,-0.5235987755982988,0,-0.90908605,-0.99979585,-1.9069196,1.103478,-0.56318635,0.0972712,0.17393187,-0.45728233,-0.46616724,-1.821864,0.11346794,1.1235965,0.043577805,-0.43932638
0.0,-0.1,1.1,-0.5235987755982988,-0.5235987755982988,0,-1.2980227,-1.0421721,-1.848752,0.93022907,-0.17445089,0.7152995,-0.2172557,-0.45463413,-0.33906114,-1.4595734,0.11092538,0.96906585,0.78296167,-0.2608902
0.0,-0.1,1.1,-0.5235987755982988,-0.5235987755982988,0,-0.6160526,-1.184922,-1.860089,0.8902209,-0.91099054,0.71166325,-0.46281263,-0.19531797,-0.23992014,-2.0704472,0.34797692,-0.0621375,-0.10181149,-0.028572349
0.0,-0.1,1.1,-0.5235987755982988,-0.5235987755982988,0,-0.45965254,-0.9218397,-2.1611145,0.80290174,-0.27921796,-0.13909459,0.2367114,0.012394271,-0.24204476,-1.8481417,0.39877713,0.49986318,0.1035771,-0.14254247
0.0,-0.1,1.1,-0.5235987755982988,-0.5235987755982988,0,-0.9918893,-1.1610879,-1.8211488,1.109448,-0.5582971,0.8215308,-0.5633161,0.10910195,-0.44906986,-1.8519874,0.6914408,0.71496487,0.87553334,0.44435504
0.0,-0.1,1.1,-0.5235987755982988,-0.5235987755982988,0,-0.31018725,-1.0013161,-2.277136,0.9146011,0.33887982,-0.21850409,0.046425827,0.055217728,-0.24165148,-2.0532322,0.7222891,0.010738117,0.28222716,0.052508343
0.0,-0.1,1.1,-0.5235987755982988,-0.5235987755982988,0,-0.90340024,-1.0521667,-1.6744769,0.9781227,0.6528744,0.6471044,-0.034116473,-0.4850002,-0.42080122,-1.9210002,0.12303093,-0.20775,0.42566794,-0.27711684
0.0,-0.1,1.1,-0.5235987755982988,-0.5235987755982988,0,-0.45445752,-1.0502257,-1.955041,1.0346,-1.2890962,-0.19501862,-0.74567443,-0.28564015,-0.2797672,-1.7765895,0.71803695,0.7702933,0.007113503,-0.13692142
0.0,-0.1,1.1,-0.5235987755982988,-0.5235987755982988,0,-0.37205625,-1.0221761,-2.1468692,0.8000727,0.2940043,0.2643193,-0.50951594,-0.21180528,-0.2357752,-1.180703,0.45179614,-0.15740046,0.5135765,-0.94827485
0.0,-0.1,1.1,-0.5235987755982988,-0.5235987755982988,0,-0.6043705,-0.9632512,-1.9259509,0.75487465,-1.005789,-0.18316144,-0.20245145,-0.032564018,-0.24636021,-1.4419893,-0.070304774,1.6280967,0.23968703,-0.2700625
0.0,-0.1,1.1,-0.5235987755982988,-0.5235987755982988,0,-0.12954687,-1.038704,-1.9526819,1.3230814,-0.24842848,0.39187053,-0.25034487,-0.07146268,-0.44519427,-1.6755307,0.26221582,0.016351365,0.40462956,-0.39324078
0.0,-0.1,1.1,-0.5235987755982988,-0.5235987755982988,0,-0.9134498,-1.2066588,-1.4369133,0.8583296,-0.67489195,-1.1906391,-0.10273284,0.06705038,-0.45629635,-1.7918131,0.64662117,0.044512816,0.28179684,-0.48267946
0.0,-0.1,1.1,-0.5235987755982988,-0.5235987755982988,0,-0.9998952,-0.7778049,-1.5822817,0.78302664,0.058853265,0.54732484,0.06417424,0.10065576,-0.40449595,-1.6648746,-0.050777394,-0.9324341,-0.0065440936,-0.2575334
0.0,-0.1,1.1,-0.5235987755982988,-0.5235987755982988,0,-0.9934188,-0.974229,-2.0099373,1.0792835,-0.32774854,0.25634697,-0.27294943,-0.3997779,-0.41713876,-1.9687513,0.027321965,0.26766643,-0.14236976,-0.25011498
0.0,-0.1,1.1,-0.5235987755982988,-0.5235987755982988,0,-1.0244911,-1.1843615,-1.8921697,1.1128471,-0.56177616,-0.2966101,-0.12605387,-0.4473612,-0.34187976,-1.8493669,0.45257208,0.16451092,0.10968723,-0.41995096
0.0,-0.1,1.1,-0.5235987755982988,-0.5235987755982988,0,-0.29537448,-1.142173,-1.8960388,0.6655677,0.09689696,0.037511136,-0.1473448,-0.24394336,-0.17861645,-2.121192,0.43130457,-0.49292678,0.6078789,-0.40591016
0.0,-0.1,1.1,-0.5235987755982988,-0.5235987755982988,0,-0.78305256,-1.1287873,-2.0612595,0.95777565,-0.6092853,0.034736264,0.038205553,0.18658061,-0.28698504,-1.4102046,0.9285902,0.49598002,0.15802605,-0.88151336
0.0,-0.1,1.1,-0.5235987755982988,-0.5235987755982988,0,-1.0591264,-1.032307,-1.4982238,0.9911484,-0.79970264,0.26127148,-0.4374382,-0.5302762,-0.47028124,-1.6593407,0.1279921,0.75029945,-0.029025273,-0.34844342
0.0,-0.1,1.1,-0.5235987755982988,-0.5235987755982988,0,-0.21789022,-1.2205281,-1.6440893,0.5114502,-1.8938391,0.15029277,0.0038712458,-0.2495817,-0.3078616,-1.8861169,0.4535847,-0.36822045,0.82322335,-0.29248878
0.0,-0.1,1.1,-0.5235987755982988,-0.5235987755982988,0,-0.96691805,-1.2371101,-1.666309,0.96550685,-1.1212802,0.39579195,0.32215184,0.09808312,-0.17306939,-2.2726526,0.6449762,-0.29678738,0.35508335,-1.2597982
0.0,-0.1,1.1,-0.5235987755982988,-0.5235987755982988,0,-0.6466855,-1.1681807,-2.0614395,1.1219732,-1.1102957,0.95441574,-0.14810081,0.20458256,-0.30916774,-2.4339983,0.5423718,0.68426436,0.108381055,-1.2185105
0.0,-0.1,1.1,-0.5235987755982988,-0.5235987755982988,0,-0.26325634,-1.1599637,-2.1245062,1.0460477,-0.83218294,-0.06525717,-0.18726853,-0.19108874,-0.26772612,-1.2895564,0.9207939,-1.2557774,0.64694375,-0.7961655
0.0,-0.1,1.1,-0.5235987755982988,-0.5235987755982988,0,-0.40747473,-1.1125697,-1.9870788,0.81321657,-0.18973978,0.13742803,-0.39852738,0.29705405,-0.27446103,-2.2817976,0.5527677,-0.1527198,-0.06172439,-0.54201686
0.0,-0.1,1.1,-0.5235987755982988,-0.5235987755982988,0,-0.29651773,-1.2068536,-1.6758784,0.8124004,-0.296736,-0.5032956,0.32116038,-0.20284821,-0.32862148,-1.8352735,0.26797995,-0.028087592,0.24855995,-0.19932224
0.0,-0.1,1.1,-0.5235987755982988,-0.5235987755982988,0,-1.1161585,-1.2385004,-1.683883,1.0183953,-0.8210657,0.4925149,0.1563872,-0.32507893,-0.23050271,-1.9291936,0.41787136,-0.6205315,-0.21733025,-0.9115118
0.0,-0.1,1.1,-0.5235987755982988,-0.5235987755982988,0,-0.52212536,-1.2456287,-1.8229216,1.1184518,-0.025931986,0.8402449,-0.81391084,-0.09189306,-0.26666933,-2.0027924,0.38335228,-1.1505667,0.51765364,-0.61797005
0.0,-0.1,1.1,-0.5235987755982988,-0.5235987755982988,0,-0.982243,-1.0027913,-1.8443389,0.932987,0.81483924,-0.14345026,0.33571208,0.00022565266,-0.12101146,-2.2478037,0.6289978,0.41705078,0.7435144,0.023343107
0.0,-0.1,1.1,-0.5235987755982988,-0.5235987755982988,0,-1.2856293,-1.1797336,-1.5118656,0.9838144,-0.81709445,0.21092963,0.21629113,-0.28232348,-0.29965287,-2.004615,0.20123093,-0.26701897,0.49255493,0.16005892
0.0,-0.1,1.1,-0.5235987755982988,-0.5235987755982988,0,-1.0727473,-1.143877,-1.9918963,1.1544807,-1.0466441,-0.34308302,-0.6662201,-0.049036402,-0.22426523,-2.1924663,0.7012493,-0.9573199,0.5319236,-0.34731233
0.0,-0.1,1.1,-0.5235987755982988,-0.5235987755982988,0,-0.34294704,-1.2932268,-1.3529158,0.6742706,-0.751076,0.46002954,0.4252883,0.12932679,-0.17007719,-2.427517,0.5599137,0.375174,0.19511975,-0.22598189
0.0,-0.1,1.1,-0.5235987755982988,-0.5235987755982988,0,-1.2142478,-1.0123434,-1.447639,1.1199919,0.7893756,-0.5652416,-0.14377287,-0.47002566,-0.3665861,-1.8609399,0.3139893,-0.14241494,0.6428971,-0.036762837
0.0,-0.1,1.1,-0.5235987755982988,-0.5235987755982988,0,-0.78463674,-0.77303165,-1.9806335,0.94663894,-0.62563646,0.59598106,-0.29925522,-0.07686736,-0.31533033,-1.5229914,0.13117255,0.6415954,0.540346,-0.4313198
0.0,-0.1,1.1,-0.5235987755982988,-0.5235987755982988,0,-0.7973458,-1.0001253,-1.9410689,0.9411964,-0.53855306,-0.12140298,-0.35342723,-0.5384366,-0.18445869,-2.1202211,0.21265762,-1.084541,0.5094179,-0.6127928
0.0,-0.1,1.1,-0.5235987755982988,-0.5235987755982988,0,-0.812664,-1.1684787,-1.6492836,0.91813475,-1.2964772,0.8897362,-0.259049,-0.5244091,-0.2799527,-2.2446454,0.16216344,0.20214334,0.415238,-0.8702388
0.0,-0.1,1.1,-0.5235987755982988,-0.5235987755982988,0,-0.8067005,-0.87696457,-1.7357599,0.7738522,-0.45763797,0.9848992,-0.008370899,0.13296607,-0.32151642,-1.4022933,0.8377697,-0.80410403,0.30049753,-0.28050387
0.0,-0.1,1.1,-0.5235987755982988,-0.5235987755982988,0,-0.88934106,-1.083807,-1.9824135,0.9882503,-0.6607122,0.15622152,-0.41175088,-0.1587126,-0.26671517,-1.6792257,0.7455358,-0.078368366,0.11335887,-0.7819883
0.0,-0.1,1.1,-0.5235987755982988,-0.5235987755982988,0,-0.93405277,-0.85105515,-1.6330905,0.80155313,-0.5783816,-0.5171105,-0.30100676,0.21972816,-0.34447777,-1.4375612,0.7087661,0.8393253,0.20600803,-0.36425114
0.0,-0.1,1.1,-0.5235987755982988,-0.5235987755982988,0,-0.11328397,-1.1884872,-1.8918419,1.0863839,-1.2174104,0.33387157,-0.4088525,-0.45535117,-0.19027565,-1.8250415,0.49595797,0.4419063,-0.019156732,-0.65621275
0.0,-0.1,1.1,-0.5235987755982988,-0.5235987755982988,0,-0.45162937,-1.1597188,-1.8697864,0.8415357,-0.5346375,0.8926468,0.19367717,-0.31066102,-0.26581517,-1.9318011,0.35159227,-0.4820964,0.3537224,-0.3471118
0.0,-0.1,1.1,-0.5235987755982988,-0.5235987755982988,0,-1.0257596,-0.887703,-1.9820622,1.019523,0.3309957,0.28009886,-0.08850846,-0.33665282,-0.34816542,-1.8515133,0.43921804,-1.0439861,0.7831133,-0.7378368
0.0,-0.1,1.1,-0.5235987755982988,-0.5235987755982988,0,-1.0335944,-1.027938,-2.2854648,1.0456613,-0.08656434,0.02190866,-0.25989276,-0.466267,-0.42484134,-1.766464,0.19288553,-0.0012391674,0.32525602,-0.6315518
0.0,-0.1,1.1,-0.5235987755982988,-0.5235987755982988,0,-0.7170617,-1.2384907,-1.6211522,0.814288,0.045518566,0.7376437,0.57279944,-0.49390405,-0.27661687,-1.7589554,0.41693082,0.08429118,0.39130735,-0.34103066
0.0,-0.1,1.1,-0.5235987755982988,-0.5235987755982988,0,-1.2207834,-0.94210875,-1.7744172,0.89345706,0.72859913,0.8604836,-0.68029696,-0.2216968,-0.21692948,-1.9389877,0.59583193,-0.11883241,0.087436326,-0.49876836
0.0,-0.1,1.1,-0.5235987755982988,-0.5235987755982988,0,-0.49596646,-1.0510426,-2.0222154,0.8796,-0.36848032,-0.070600666,0.12412562,-0.280689,-0.2748874,-1.7441531,0.36973834,-0.41733187,0.4254539,-0.4135756
0.0,-0.1,1.1,-0.5235987755982988,-0.5235987755982988,0,-1.0801733,-1.043395,-1.9687172,0.99133354,0.47573256,0.7254976,0.11476787,-0.14106426,-0.2806277,-1.7070493,0.1576385,-0.8008449,0.31663093,-0.74463737
0.0,-0.1,1.1,-0.5235987755982988,-0.5235987755982988,0,-0.21807694,-1.1090823,-2.0248299,0.87685245,-0.59336966,0.1755178,-0.08312593,-0.4605037,-0.24263743,-2.0631368,0.20625892,-0.41535437,0.49796343,-0.4925922
0.0,-0.1,1.1,-0.5235987755982988,-0.5235987755982988,0,-0.7468985,-0.8901621,-2.149918,1.015376,-0.14711817,-0.18763977,-0.012529651,-0.20305707,-0.29880643,-2.11952,0.37896428,0.58751816,0.74372333,-0.357405
0.0,-0.1,1.1,-0.5235987755982988,-0.5235987755982988,0,-0.6613372,-1.1391145,-1.905253,0.9239552,-0.8796569,0.6980006,-0.40753403,-0.30370927,-0.25083464,-1.4472886,0.88867974,-0.4803761,0.28108838,-0.15410979
0.0,-0.1,1.1,-0.5235987755982988,-0.5235987755982988,0,-0.9480498,-1.165116,-1.4181925,0.7658647,-0.695025,0.11858028,-0.60106945,-0.083963215,-0.3943028,-1.926949,0.123483114,0.79873264,0.1930909,-0.35104743
0.0,-0.1,1.1,-0.5235987755982988,-0.5235987755982988,0,-0.4269328,-0.97046596,-2.006122,0.95535123,0.3779418,1.2109543,-0.15374398,0.06350806,-0.41650528,-1.7717705,0.024993561,-1.1836256,0.2991934,-0.7016656
0.0,-0.1,1.1,-0.5235987755982988,-0.5235987755982988,0,-0.8311991,-1.0189725,-2.1242497,1.0134237,-0.6025392,0.01782398,-0.51264745,-0.22289895,-0.22004369,-1.9358315,0.5246244,-0.72338223,0.21074873,-0.3799481
0.0,-0.1,1.1,-0.5235987755982988,-0.5235987755982988,0,-0.6084638,-1.0619534,-1.9785429,0.95917183,-1.1951803,0.2603012,0.27042076,-0.31939033,-0.3214144,-1.4818306,0.6473696,0.0881622,0.4292439,-0.5744084
0.0,-0.1,1.1,-0.5235987755982988,-0.5235987755982988,0,-0.5144931,-1.1379921,-1.6103315,0.8704076,-1.5386915,-0.20369017,-0.5022107,0.18849964,-0.39697176,-2.3276663,0.2806885,0.49211732,0.18894215,-0.7839456
0.0,-0.1,1.1,-0.5235987755982988,-0.5235987755982988,0,-0.22710104,-1.0624747,-2.4179432,1.118376,-1.3691944,0.34980726,0.62699294,-0.3436267,-0.32683638,-1.2750872,0.8251419,0.6760409,0.56582505,-0.7451884
0.0,-0.1,1.1,-0.5235987755982988,-0.5235987755982988,0,-0.9747127,-1.0262681,-1.5635129,0.6263018,-1.7028509,-0.3685603,0.28003043,-0.09806572,-0.3804546,-2.0497901,0.40274596,-1.3971179,0.49859756,-0.38976067
0.0,-0.1,1.1,-0.5235987755982988,-0.5235987755982988,0,-0.88851935,-1.033862,-1.7164214,1.0245409,-0.7808108,0.603977,-0.5132226,-0.27627647,-0.38866392,-1.5413338,0.76761895,-0.884905,0.6926977,-0.29401186
0.0,-0.1,1.1,-0.5235987755982988,-0.5235987755982988,0,-0.60788715,-1.0974026,-1.8427103,1.0663388,-1.1367844,0.6330112,0.53696734,0.34438354,-0.46131495,-1.7222302,0.20907348,-1.0322644,0.54576534,-0.9548334
0.0,-0.1,1.1,-0.5235987755982988,-0.5235987755982988,0,-0.53240025,-0.9117152,-2.3209028,0.9794742,-0.5157434,-0.08990035,-0.04309136,0.12073703,-0.30047202,-1.9763412,0.40447333,0.36263478,0.10000157,-0.66441834
0.0,-0.1,1.1,-0.5235987755982988,-0.5235987755982988,0,-0.33036616,-1.0192448,-2.0885298,1.0880467,-0.10312303,0.65381706,-0.01772359,-0.049401976,-0.38615113,-1.7706671,0.28560692,0.04745259,0.56450665,-0.21655758
0.0,-0.1,1.1,-0.5235987755982988,-0.5235987755982988,0,-0.9127068,-1.3580534,-1.8731718,1.0436507,-0.7946163,0.14605351,-0.25107005,-0.038325287,-0.26769564,-1.7175883,0.98115605,-0.6900877,-0.16038455,-0.5681216
0.0,-0.1,1.1,-0.5235987755982988,-0.5235987755982988,0,-0.6903261,-1.1042404,-2.1393478,1.0267309,-0.8864566,0.06738843,-0.18055707,-0.16038755,-0.2933208,-1.9254843,0.17635742,-0.18569416,0.89156175,-0.46672392
0.0,-0.1,1.1,-0.5235987755982988,-0.5235987755982988,0,-0.61991554,-1.0210238,-2.4704053,1.0567652,0.6385784,0.31847292,0.43555486,-0.49348316,-0.18353426,-2.0017393,0.37413526,-0.49376842,0.2345945,-0.5563928
0.0,-0.1,1.1,-0.5235987755982988,-0.5235987755982988,0,-0.81666905,-1.143434,-1.7385688,1.0012617,-0.9693578,0.9293817,-0.46903566,-0.4570732,-0.37651822,-1.649265,0.45247123,-1.33624,0.6515299,-0.8948516
0.0,-0.1,1.1,-0.5235987755982988,-0.5235987755982988,0,-0.44114482,-1.0058538,-2.2321887,0.97938085,0.4928151,0.4337601,-0.32214308,-0.058833882,-0.29331923,-2.009394,0.43053785,-0.18495096,0.66390103,-0.31319395
0.0,-0.1,1.1,-0.5235987755982988,-0.5235987755982988,0,-0.36227846,-1.1965469,-1.761179,1.1153632,-1.1145017,0.9319887,-0.2531063,-0.13001217,-0.34390336,-1.6234531,0.38253853,0.88086104,0.31869337,-0.4494426
0.0,-0.1,1.1,-0.5235987755982988,-0.5235987755982988,0,-0.57027304,-1.0275232,-1.7948877,0.7035604,0.18432266,-0.09642064,0.38482594,-0.031256497,-0.30436677,-1.9030961,0.21615028,-0.8114389,0.40868917,-0.786467
0.0,-0.1,1.1,-0.5235987755982988,-0.5235987755982988,0,-0.39353257,-0.9262256,-2.2192178,0.9171879,-0.593502,-1.0082895,0.62171793,-0.006470632,-0.2954626,-2.116021,0.100780524,-2.0502985,0.62027496,-0.05271303
0.0,-0.1,1.1,-0.5235987755982988,-0.5235987755982988,0,-0.6661082,-1.122542,-1.714808,0.91973346,-0.22587994,1.0548601,-0.0090269605,-0.22175954,-0.39878896,-1.436969,0.64753383,0.16376595,0.19272147,-0.638805
0.0,-0.1,1.1,-0.5235987755982988,-0.5235987755982988,0,-0.58925444,-1.1844231,-1.63107,0.9512441,-0.25643712,-0.6854486,-0.15197973,0.17139621,-0.3972482,-1.290047,-0.026780684,-0.63597625,0.7630292,-0.053177346
0.0,-0.1,1.1,-0.5235987755982988,-0.5235987755982988,0,-0.60256755,-1.1223209,-1.6850489,0.7918232,-0.88595146,0.45392224,0.1195296,0.23454164,-0.3685903,-2.240912,0.6844918,-0.058221444,0.7389405,-0.32564202
0.0,-0.1,1.1,-0.5235987755982988,-0.5235987755982988,0,-0.2040302,-1.0642103,-2.1267042,1.0151247,-1.2342157,1.0718948,0.8645626,0.120824404,-0.35496283,-1.7210798,0.8415647,0.3295883,0.67647994,0.18150683
0.0,-0.1,1.1,-0.5235987755982988,-0.5235987755982988,0,-0.6722688,-0.9128388,-1.9743965,0.92284495,-1.0700992,-0.12991774,-0.10440835,0.1909566,-0.34701014,-1.9658362,0.71080655,-0.1941114,0.33128926,-0.8200029
0.0,-0.1,1.1,-0.5235987755982988,-0.5235987755982988,0,-0.71609354,-0.9720461,-1.6190625,0.5803786,0.29634103,0.4299069,-0.64485544,-0.08884437,-0.37084085,-1.6319363,0.86876506,-1.5296644,0.34892723,-0.48014134
0.0,-0.1,1.1,-0.5235987755982988,-0.5235987755982988,0,-0.4426406,-1.1660516,-1.5815638,0.75029176,-0.21675745,0.40829664,0.14189188,-0.34130445,-0.37769932,-1.657796,-0.059087273,0.27406827,0.7482173,-0.9831136
0.0,-0.1,1.1,-0.5235987755982988,-0.5235987755982988,0,-0.31800374,-0.99746495,-2.022344,0.68867433,0.07602419,0.6818556,-0.38693357,-0.39664772,-0.3410557,-1.2993557,-0.03195263,-0.10671897,0.35258666,-0.5687444
0.0,-0.1,1.1,-0.5235987755982988,-0.5235987755982988,0,-0.2086593,-1.1168218,-1.8561717,0.83126926,-0.16774435,0.8358748,-0.1747737,-0.38777304,-0.38239798,-0.9469844,0.35966307,-0.7779511,0.19521518,-0.3542032
0.0,-0.1,1.1,-0.5235987755982988,-0.5235987755982988,0,-0.49968275,-1.1848564,-1.5252372,0.57542574,0.2757143,0.41932955,0.10240922,-0.49826685,-0.3285994,-1.3355459,0.40284592,0.42746457,0.18334763,-0.30596468
0.0,-0.1,1.1,-0.5235987755982988,-0.5235987755982988,0,-0.79277146,-0.98942155,-2.4172995,1.0229597,-0.7165053,0.5477449,0.31150967,-0.153961,-0.3410697,-1.7108419,0.1178834,-0.6529781,1.0550942,-0.022047853
0.0,-0.1,1.1,-0.5235987755982988,-0.5235987755982988,0,-1.5428337,-1.1062046,-1.3496683,0.78572357,-0.22940996,0.2089507,-0.71446556,-0.4481722,0.06827559,-2.1706154,0.75749743,1.1012522,0.2967856,-0.5311134
0.0,-0.1,1.1,-0.5235987755982988,-0.5235987755982988,0,-0.3253596,-1.1049066,-1.521692,0.5618583,-0.697599,0.91812426,-0.20358567,-0.29122382,-0.32604888,-2.5421333,0.52819234,-0.5128523,0.81849825,-0.29988736
0.0,-0.1,1.1,-0.5235987755982988,-0.5235987755982988,0,-0.55966157,-0.95002866,-1.4731269,0.73505676,0.23333874,-0.3524785,-0.067265995,-0.3260803,-0.5388049,-2.1777122,0.5024171,0.12298498,0.34724015,-0.6302664
0.0,-0.1,1.1,-0.5235987755982988,-0.5235987755982988,0,-0.94222337,-0.9944292,-1.3255771,0.8730211,-0.43646187,0.7659736,-0.27286306,-0.68448657,-0.45384178,-1.88947,0.60520977,-0.12068269,0.15390833,-0.57432765
0.0,-0.1,1.1,-0.5235987755982988,-0.5235987755982988,0,0.17055473,-1.2105736,-2.1720002,0.5495642,-0.8130994,0.7617454,-0.057171028,-0.60429335,-0.16219744,-2.3736877,0.4952351,1.2550346,0.13946186,-0.016237244
0.0,-0.1,1.1,-0.5235987755982988,-0.5235987755982988,0,0.11313106,-0.89897907,-2.020093,0.8738804,-0.3431611,0.12506239,-0.009328099,-0.49562034,-0.32192546,-2.269845,0.6396991,0.20636328,0.36477414,-0.29756185
0.0,-0.1,1.1,-0.5235987755982988,-0.5235987755982988,0,-0.24830426,-1.1626015,-1.9823939,1.1737405,0.03189139,-0.07066294,0.5553041,-0.5434937,-0.29730606,-2.2416403,0.8154318,0.20302933,0.4888494,-0.08903207
0.0,-0.1,1.1,-0.5235987755982988,-0.5235987755982988,0,-0.14379248,-1.0081427,-1.8352505,0.79514825,-0.0071730837,0.4843653,0.7454162,-0.8604601,-0.47081465,-2.0369017,0.7024429,-0.37688377,0.2775663,-0.5315653
0.0,-0.1,1.1,-0.5235987755982988,-0.5235987755982988,0,-0.14405493,-0.9751771,-2.1194475,0.86611634,-1.0581883,-0.21993837,-0.3349902,-0.50171083,-0.18615934,-2.3095655,0.90583795,-1.5876687,0.471047,-0.1458314
0.0,-0.1,1.1,-0.5235987755982988,-0.5235987755982988,0,-0.26497674,-0.88360363,-2.0056572,0.561417,0.038537946,0.63975894,-0.0033454476,-0.34424114,-0.26823866,-2.517458,0.8101707,0.28630868,0.9712862,-0.39265954
0.0,-0.1,1.1,-0.5235987755982988,-0.5235987755982988,0,-1.4769577,-0.9494678,-2.5498102,1.0749128,-0.47262838,-0.14828797,-0.8412279,-0.7144224,-0.39381978,-2.1640697,0.602749,-0.8909677,0.26738077,-0.86709744
0.0,-0.1,1.1,-0.5235987755982988,-0.5235987755982988,0,-0.578167,-1.02058,-1.8805568,1.1055001,0.29701155,0.49530476,0.1567903,-0.27016246,-0.2877746,-2.5964763,0.8095118,-0.6604355,0.60530865,0.24959998
0.0,-0.1,1.1,-0.5235987755982988,-0.5235987755982988,0,-0.48252305,-0.9422661,-1.8127692,0.61042476,-1.1642,0.011213911,-0.39858094,-0.45148313,-0.46768534,-2.2197387,0.6606248,0.06664377,-0.023707697,-0.8445728
0.0,-0.1,1.1,-0.5235987755982988,-0.5235987755982988,0,-0.4885062,-0.91893137,-2.006837,1.2748882,0.09934858,0.30638635,-0.28498802,-0.7583131,-0.15962742,-2.4127736,0.6575437,0.13715607,0.28935835,-0.51065195
0.0,-0.1,1.1,-0.5235987755982988,-0.5235987755982988,0,-0.6952741,-0.9875651,-1.5665998,0.71862,-0.2339137,0.5474773,-0.039121576,-0.3019955,-0.5617564,-2.1082745,0.62422776,-0.5656325,0.30429688,-0.23525384
0.0,-0.1,1.1,-0.5235987755982988,-0.5235987755982988,0,-0.48164248,-0.89566743,-2.1630645,0.8769029,-0.9601828,0.18315163,0.42365217,-0.36253998,-0.17548679,-1.8176254,0.74862134,-1.3921295,-0.08543688,-0.13558157
0.0,-0.1,1.1,-0.5235987755982988,-0.5235987755982988,0,-1.1066548,-0.971634,-1.9218106,1.3843913,-1.2352327,0.82411265,0.34786147,-0.12007216,-0.526939,-2.3293204,0.7517031,-0.64685404,0.46482947,-0.48180994
0.0,-0.1,1.1,-0.5235987755982988,-0.5235987755982988,0,-0.302445,-0.8811712,-1.9611403,0.8958633,-0.038421985,0.9842148,0.13750423,-0.12748113,-0.30757567,-2.458938,0.8659165,-0.34845632,0.46416488,-0.35531923
0.0,-0.1,1.1,-0.5235987755982988,-0.5235987755982988,0,-0.112441115,-1.098685,-1.6827209,0.86602867,-1.2863138,0.50946295,-0.9224604,-0.5325049,-0.319491,-1.7613562,0.8027422,0.2249862,-0.028497923,-0.44461375
0.0,-0.1,1.1,-0.5235987755982988,-0.5235987755982988,0,-0.49360955,-1.2003396,-1.5035821,1.033873,0.1836108,-0.47123832,-0.20442785,-0.29972795,-0.44101924,-2.0365217,0.34124964,0.8246903,0.2206453,-0.22896881
0.0,-0.1,1.1,-0.5235987755982988,-0.5235987755982988,0,-0.3991006,-0.78374994,-1.9195974,0.63190037,-0.7842541,-0.32915062,-0.07900082,-0.09817259,-0.3245449,-2.1677973,0.55811447,0.45482132,-0.06589577,-0.7728987
0.0,-0.1,1.1,-0.5235987755982988,-0.5235987755982988,0,-0.32037142,-0.90314186,-2.1509635,0.5948242,-1.4591084,0.67060375,-0.29356474,-0.56614697,-0.12937292,-2.546156,0.26925528,0.31181094,0.54897165,-0.94379383
0.0,-0.1,1.1,-0.5235987755982988,-0.5235987755982988,0,-0.7966323,-1.2144231,-1.4969723,0.72327375,0.48307595,-0.6509181,-0.6148541,-0.38792786,-0.3033619,-2.1803086,0.7223756,-0.12554799,0.16220985,-0.018150585
0.0,-0.1,1.1,-0.5235987755982988,-0.5235987755982988,0,-1.5625535,-1.0323014,-1.8818487,1.4156357,-1.8077755,-0.123932935,0.6516345,-0.7307712,-0.10507845,-2.3406518,0.6151762,0.29433957,0.09253122,-0.30555207
0.0,-0.1,1.1,-0.5235987755982988,-0.5235987755982988,0,-0.13753177,-1.063188,-2.1582997,1.0985289,-0.20750664,-0.14844868,-0.24344534,-0.17619188,-0.34898496,-2.172761,0.92198503,0.015933834,0.76044357,-0.8030246
0.0,-0.1,1.1,-0.5235987755982988,-0.5235987755982988,0,-0.037578188,-0.9644407,-2.279375,0.7495498,-0.15715903,-0.37007532,-0.75533026,-0.25459448,-0.21215504,-2.230875,0.6354491,0.24050763,-0.14733872,-0.6596254
0.0,-0.1,1.1,-0.5235987755982988,-0.5235987755982988,0,-0.49360287,-0.9741676,-2.3072486,0.6950062,-0.32339662,0.3485918,0.059749752,0.4861474,-0.06063314,-2.1973472,0.8278194,-0.85940635,0.13898732,-0.20677124
0.0,-0.1,1.1,-0.5235987755982988,-0.5235987755982988,0,-0.98792744,-1.0159124,-1.668945,0.57009566,-1.1821604,0.012092878,0.2042645,-0.08403761,-0.1940378,-1.6865654,0.5477085,-0.6663859,0.5223857,-0.35101724
0.0,-0.1,1.1,-0.5235987755982988,-0.5235987755982988,0,-0.51671994,-1.2744064,-1.8822846,0.7067654,-1.2091448,-0.049188048,0.28157333,-0.23284197,0.014598741,-1.6343409,0.8274207,-0.049939655,0.51999426,-0.70570046
0.0,-0.1,1.1,-0.5235987755982988,-0.5235987755982988,0,-0.715086,-1.1522894,-2.062374,1.0974205,0.33001298,-0.12708545,-0.40187845,-0.23847973,0.12022092,-2.1063583,0.71270037,-0.52245957,0.59272754,0.80174005
0.0,-0.1,1.1,-0.5235987755982988,-0.5235987755982988,0,-0.24371837,-0.95936245,-2.1410892,0.85983455,-0.6882339,0.9712682,0.21830375,-0.25235432,-0.28665164,-2.481949,0.51452255,1.1230128,0.36424065,-0.9591674
0.0,-0.1,1.1,-0.5235987755982988,-0.5235987755982988,0,-0.32230616,-1.1693197,-2.2100394,0.8457334,0.2824239,-0.36743665,0.49244103,0.4320064,-0.075020745,-2.3953943,0.7349064,-1.2917435,0.344088,-0.495565
0.0,-0.1,1.1,-0.5235987755982988,-0.5235987755982988,0,-0.7592231,-0.971356,-1.6502774,0.4688511,0.14163946,0.75332993,0.2070559,-0.26278758,-0.34796157,-2.2226512,0.5194652,0.43017045,0.30273455,-0.31455368
0.0,-0.1,1.1,-0.5235987755982988,-0.5235987755982988,0,-1.3758997,-1.0559168,-1.6867745,1.1726717,-0.6377954,-0.39826983,-0.18790925,-0.4071833,-0.3934967,-1.5156331,0.5764826,0.61974365,0.53728026,-0.7409092
0.0,-0.1,1.1,-0.5235987755982988,-0.5235987755982988,0,-0.97157085,-0.8129392,-1.8218724,1.0247602,0.81530285,-0.14199178,0.36465278,-0.38104862,-0.15190919,-2.0910523,0.6233126,0.008698388,0.30759436,-0.7368556
0.0,-0.1,1.1,-0.5235987755982988,-0.5235987755982988,0,-1.0613785,-1.0396521,-1.5843467,0.81617326,-0.71895313,0.40496078,-0.30623278,0.027068423,-0.14649585,-1.9838802,1.0766637,-0.3124626,0.8008603,-0.46262637
0.0,-0.1,1.1,-0.5235987755982988,-0.5235987755982988,0,-1.1629807,-1.0509039,-1.4939773,0.903068,-0.1527546,0.0953315,0.1318928,-0.023777612,-0.27451003,-2.2640388,0.7568229,0.046172842,0.91424024,-0.02174883
0.0,-0.1,1.1,-0.5235987755982988,-0.5235987755982988,0,-0.39576617,-0.9607447,-2.2839143,0.7298621,0.44076157,0.5615562,-0.31052336,-0.14148594,-0.15076506,-1.7408519,0.57774377,-0.24103616,0.17198914,-0.5963121
0.0,-0.1,1.1,-0.5235987755982988,-0.5235987755982988,0,-0.096207485,-1.1734481,-2.2707968,0.9323702,-1.2956034,0.6924166,0.20309941,-0.19683586,-0.09322068,-2.021328,0.6449855,-0.116551615,0.21177925,-0.14641011
0.0,-0.1,1.1,-0.5235987755982988,-0.5235987755982988,0,-0.8080342,-1.2428851,-1.6490148,0.6285884,-0.19990942,-0.10829311,-0.017370189,-0.15813269,-0.016156638,-2.1611934,0.6621894,-0.36678833,0.38926587,-0.42886102
0.0,-0.1,1.1,-0.5235987755982988,-0.5235987755982988,0,-0.65669644,-0.57336897,-2.2383091,0.4627696,-0.9515817,-0.3922338,0.46377817,0.070399985,-0.2084839,-2.196909,0.64710426,0.6431445,0.2068364,-0.6338752
0.0,-0.1,1.1,-0.5235987755982988,-0.5235987755982988,0,-0.84362763,-0.9814777,-1.6472089,0.6499358,-1.0103289,0.13264675,-0.028287709,-0.10973313,-0.23273899,-2.1878455,0.71697456,0.067448065,0.40198,-0.72723883
0.0,-0.1,1.1,-0.5235987755982988,-0.5235987755982988,0,-1.2154927,-0.98808134,-1.6366246,0.8298379,-0.857514,1.5467178,0.33266646,-0.48786432,-0.047252048,-1.7729627,0.52711505,0.4937056,0.28000134,-0.34806964
0.0,-0.1,1.1,-0.5235987755982988,-0.5235987755982988,0,-0.11245066,-1.2498223,-2.18798,1.0275655,-0.47779846,-0.12100077,-0.27897337,-0.16213149,-0.0028862148,-2.1611273,0.63138044,0.2883763,0.14894108,-0.1090764
0.0,-0.1,1.1,-0.5235987755982988,-0.5235987755982988,0,-0.79569083,-1.0606536,-1.8076597,0.7125672,-1.5512065,0.043082263,0.5165771,-0.45271134,-0.21056837,-1.5722874,0.4031458,0.27632296,0.20551136,-0.8350285
0.0,-0.1,1.1,-0.5235987755982988,-0.5235987755982988,0,-1.1687725,-0.99795276,-1.8362762,0.9950907,-1.203387,0.5354695,0.07637835,-0.2512294,-0.11489785,-1.6643937,0.80518126,0.37970623,0.689073,-0.24213932
0.0,-0.1,1.1,-0.5235987755982988,-0.5235987755982988,0,-0.62069637,-1.1311188,-1.834011,0.8315644,0.38400102,0.3055746,-0.1945178,-0.19580294,-0.12936933,-2.122071,0.6023918,-0.30097732,0.35438824,-0.09750637
0.0,-0.1,1.1,-0.5235987755982988,-0.5235987755982988,0,-0.71618986,-1.0825953,-1.8856249,0.88517296,0.17979832,-0.060198538,-0.3341925,-0.26273903,-0.16874374,-1.882908,0.63351613,0.18969087,0.68219876,-0.58419144
0.0,-0.1,1.1,-0.5235987755982988,-0.5235987755982988,0,-1.4866549,-1.288196,-1.3688339,1.1355066,-0.16774587,-0.061534196,0.498128,-0.5329519,-0.3265398,-1.5689512,0.77099687,0.16636594,0.13367091,-0.6976691
0.0,-0.1,1.1,-0.5235987755982988,-0.5235987755982988,0,-0.6810457,-1.068745,-1.8085456,0.80695647,-0.031401623,1.2741766,-0.6544052,-0.26602024,-0.1939131,-1.9873625,0.7128342,0.2681773,0.74952936,-0.6053037
0.0,-0.1,1.1,-0.5235987755982988,-0.5235987755982988,0,-0.27985856,-0.9168286,-2.2018325,0.4208338,0.6591092,0.1508696,0.09803312,-0.32861498,-0.16640246,-1.8245614,0.59326893,0.30359557,-0.34004205,-0.16689184
0.0,-0.1,1.1,-0.5235987755982988,-0.5235987755982988,0,0.053834613,-1.2149438,-1.6737219,0.81425333,0.20331936,0.18599351,0.13447511,-0.39248314,-0.22534417,-1.7428193,0.81957173,0.20538402,0.9874082,-0.62471926
0.0,-0.1,1.1,-0.5235987755982988,-0.5235987755982988,0,-0.5473665,-0.8850822,-2.0854354,0.7648497,-0.7757919,0.18465623,-0.2069785,-0.4603011,-0.19813019,-1.5119665,0.7924288,-0.26820883,0.76112664,-0.6947471
0.0,-0.1,1.1,-0.5235987755982988,-0.5235987755982988,0,-0.58566874,-0.9778475,-1.8394574,0.8532839,0.14677796,0.40617925,0.13403007,0.013760868,-0.23799707,-2.2529051,0.8277838,0.08272855,0.66408736,-0.82793164
0.0,-0.1,1.1,-0.5235987755982988,-0.5235987755982988,0,-0.7101523,-0.8102405,-1.9467211,0.8138726,-1.784101,0.11316299,0.21487568,-0.24379563,-0.24473597,-2.0606596,0.27381203,0.5306959,-0.04570099,-0.48535344
0.0,-0.1,1.1,-0.5235987755982988,-0.5235987755982988,0,-1.0580285,-1.1646982,-1.4227256,0.8898245,-1.0507668,0.39471936,0.4169476,-0.039664768,-0.15869404,-2.305813,0.7238997,-0.33726633,0.14027481,-0.35142422
0.0,-0.1,1.1,-0.5235987755982988,-0.5235987755982988,0,-0.5495319,-1.2237009,-1.89448,1.2905178,-0.015843505,0.5379859,-0.26899323,-0.6842959,-0.22610681,-1.9049582,0.40594512,-0.064763136,0.17495959,-0.3646996
0.0,-0.1,1.1,-0.5235987755982988,-0.5235987755982988,0,-0.14393426,-1.0788358,-2.2823637,0.95455563,-0.58758205,0.6953012,-0.4998524,-0.28173658,-0.11512894,-1.8229052,0.8414535,1.0751592,0.2633568,-0.4546599
0.0,-0.1,1.1,-0.5235987755982988,-0.5235987755982988,0,-0.72621816,-1.0534415,-2.0705073,0.98808646,0.11239646,0.26425365,-0.1510766,-0.58709735,-0.18521613,-1.7527924,0.48910108,-1.2006058,0.4455751,-0.70028746
0.0,-0.1,1.1,-0.5235987755982988,-0.5235987755982988,0,-0.025153255,-1.1597943,-2.1710577,1.0679185,-1.1221615,0.48421204,-0.98611784,-0.3012536,-0.19402108,-1.59253,1.0415547,0.27186415,0.3625865,-0.42738983
0.0,-0.1,1.1,-0.5235987755982988,-0.5235987755982988,0,0.0615678,-1.1059173,-2.2675993,0.8577175,-0.42203248,0.7361233,-0.29971436,-0.26202855,-0.18531932,-1.8892864,0.59031934,-0.16062105,0.3317055,-0.29251108
0.0,-0.1,1.1,-0.5235987755982988,-0.5235987755982988,0,-0.22357577,-1.1075715,-1.7321119,0.62927,-0.9085303,1.3458697,0.041136127,-0.60079986,-0.31963873,-1.5020692,0.68198264,-0.74012065,0.553411,-0.010237056
0.0,-0.1,1.1,-0.5235987755982988,-0.5235987755982988,0,-0.8335472,-0.98566025,-1.8541967,0.47314265,-1.4596336,-0.48018882,0.012615865,-0.3834375,-0.4690373,-2.2069314,0.51573247,1.1447972,0.37359375,-0.4999573
0.0,-0.1,1.1,-0.5235987755982988,-0.5235987755982988,0,-0.41283906,-1.0930761,-1.6275492,0.7790853,-0.6049702,-0.33207756,0.6509756,-0.3728664,-0.5301851,-2.1888552,0.5688084,1.4100996,0.43398905,-0.82611966
0.0,-0.1,1.1,-0.5235987755982988,-0.5235987755982988,0,-1.456641,-0.9840955,-1.3282113,0.9193214,0.21954761,-0.45417678,0.03326123,-0.5733266,-0.23203681,-1.5467404,0.094014354,0.11858445,0.2676523,-0.4433459
0.0,-0.1,1.1,-0.5235987755982988,-0.5235987755982988,0,-0.34444883,-1.0320172,-1.8705873,0.80389905,-1.013788,1.263519,-0.036022153,-0.171642,-0.35035655,-2.7411726,0.6202552,1.0815973,0.35079747,-0.16432779
0.0,-0.1,1.1,-0.5235987755982988,-0.5235987755982988,0,0.27643225,-1.1226174,-2.193894,0.5266512,-0.88324463,0.26038596,-0.8141017,0.04026265,-0.4064307,-2.494732,0.7847308,0.12114615,0.15807669,-0.7698109
0.0,-0.1,1.1,-0.5235987755982988,-0.5235987755982988,0,-0.8906058,-1.0927079,-1.4254892,0.5495492,-0.8171122,0.71862245,0.25617385,-0.5819313,-0.32275084,-1.8584474,0.5919842,0.72337127,0.48232064,-0.56628186
0.0,-0.1,1.1,-0.5235987755982988,-0.5235987755982988,0,-0.38253546,-0.957058,-1.898922,0.7257915,-1.1712983,0.93857867,-0.29071948,-0.6415505,-0.1595742,-1.8176725,0.73964816,-0.9600508,0.13512045,-0.32774618
0.0,-0.1,1.1,-0.5235987755982988,-0.5235987755982988,0,-0.759573,-0.9805397,-1.8314954,1.0591298,-0.08647281,0.20801598,-0.09356216,-0.40188643,-0.02611238,-2.078118,0.8510045,0.020398568,0.21710588,-0.20236315
0.0,-0.1,1.1,-0.5235987755982988,-0.5235987755982988,0,-0.76065326,-1.0328842,-1.56048,0.8624423,-0.21268445,0.029644642,0.40300873,-0.495332,-0.2839421,-1.9422365,1.1199186,-0.18443489,-0.0027591367,-0.29542813
0.0,-0.1,1.1,-0.5235987755982988,-0.5235987755982988,0,-0.735594,-1.2275616,-1.6406243,0.6095623,-1.522721,-0.06631459,-0.21869574,-0.08540991,-0.18237345,-2.1099885,0.6399658,-0.008079812,-0.041067272,-0.28578636
0.0,-0.1,1.1,-0.5235987755982988,-0.5235987755982988,0,-1.4940792,-1.1794903,-1.365975,0.80173784,-0.8379682,0.102645956,0.057819072,0.105090275,-0.22273774,-2.2374892,0.90482223,0.16507903,0.29664662,-0.32111728
0.0,-0.1,1.1,-0.5235987755982988,-0.5235987755982988,0,-0.80455077,-0.9043531,-2.2002654,0.79364043,0.12035442,-0.44929808,-0.2543095,-0.06408026,-0.059626244,-2.2162867,0.78574467,0.8785485,0.5119702,-0.6670249
0.0,-0.1,1.1,-0.5235987755982988,-0.5235987755982988,0,-0.8480829,-0.96266925,-1.7852399,0.336146,0.08969991,1.005518,0.0499494,-0.20128028,-0.22797264,-2.1268654,0.16895543,-0.76958704,0.5833006,-0.559497
0.0,-0.1,1.1,-0.5235987755982988,-0.5235987755982988,0,-1.2328213,-0.9873465,-1.4983515,0.75438404,-0.85013425,0.016528286,0.33930796,-0.31373549,-0.27027166,-1.7260286,0.23210926,0.07124156,0.33714578,-0.5371484
0.0,-0.1,1.1,-0.5235987755982988,-0.5235987755982988,0,-0.79487073,-1.0375831,-1.7702746,0.5123428,-0.9250991,-0.034040965,0.03779666,-0.14175603,-0.28393465,-2.0801373,0.83011985,0.29372835,0.4850872,-0.23895489
0.0,-0.1,1.1,-0.5235987755982988,-0.5235987755982988,0,-0.7622238,-1.2539865,-1.275146,0.5909385,-0.83466655,1.1077647,-0.8459303,-0.5210496,-0.23466372,-2.1078281,0.9905669,0.27860105,-0.076655105,-0.09539036
0.0,-0.1,1.1,-0.5235987755982988,-0.5235987755982988,0,-0.2208771,-0.944533,-2.136416,1.202967,-0.76115215,0.4619986,0.04123838,0.2830083,-0.11170468,-2.2742264,0.85451907,-0.3836679,0.92650145,-0.04633797
0.0,-0.1,1.1,-0.5235987755982988,-0.5235987755982988,0,-0.2208771,-0.944533,-2.136416,1.202967,-0.76115215,0.4619986,0.04123838,0.2830083,-0.11170468,-2.2742264,0.85451907,-0.3836679,0.92650145,-0.04633797
0.0,-0.1,1.1,-0.5235987755982988,-0.5235987755982988,0,-0.2208771,-0.944533,-2.136416,1.202967,-0.76115215,0.4619986,0.04123838,0.2830083,-0.11170468,-2.2742264,0.85451907,-0.3836679,0.92650145,-0.04633797
0.0,-0.1,1.1,-0.5235987755982988,-0.5235987755982988,0,-0.2208771,-0.944533,-2.136416,1.202967,-0.76115215,0.4619986,0.04123838,0.2830083,-0.11170468,-2.2742264,0.85451907,-0.3836679,0.92650145,-0.04633797
0.0,-0.1,1.1,-0.5235987755982988,-0.5235987755982988,0,-0.2208771,-0.944533,-2.136416,1.202967,-0.76115215,0.4619986,0.04123838,0.2830083,-0.11170468,-2.2742264,0.85451907,-0.3836679,0.92650145,-0.04633797
0.0,-0.1,1.1,-0.5235987755982988,-0.5235987755982988,0,-1.6277303,-0.7848866,-1.4727364,0.76290244,-0.45445502,0.07602196,0.16640939,-0.08081334,-0.18726797,-1.5437918,0.18694048,0.012141922,0.2820477,-0.61034846
0.0,-0.1,1.1,-0.5235987755982988,-0.5235987755982988,0,-1.6277303,-0.7848866,-1.4727364,0.76290244,-0.45445502,0.07602196,0.16640939,-0.08081334,-0.18726797,-1.5437918,0.18694048,0.012141922,0.2820477,-0.61034846
0.0,-0.1,1.1,-0.5235987755982988,-0.5235987755982988,0,-1.6277303,-0.7848866,-1.4727364,0.76290244,-0.45445502,0.07602196,0.16640939,-0.08081334,-0.18726797,-1.5437918,0.18694048,0.012141922,0.2820477,-0.61034846
0.0,-0.1,1.1,-0.5235987755982988,-0.5235987755982988,0,-1.6277303,-0.7848866,-1.4727364,0.76290244,-0.45445502,0.07602196,0.16640939,-0.08081334,-0.18726797,-1.5437918,0.18694048,0.012141922,0.2820477,-0.61034846
0.0,-0.1,1.1,-0.5235987755982988,-0.5235987755982988,0,-1.6277303,-0.7848866,-1.4727364,0.76290244,-0.45445502,0.07602196,0.16640939,-0.08081334,-0.18726797,-1.5437918,0.18694048,0.012141922,0.2820477,-0.61034846
0.0,-0.1,1.1,-0.5235987755982988,-0.5235987755982988,0,-1.6277303,-0.7848866,-1.4727364,0.76290244,-0.45445502,0.07602196,0.16640939,-0.08081334,-0.18726797,-1.5437918,0.18694048,0.012141922,0.2820477,-0.61034846
0.0,-0.1,1.1,-0.5235987755982988,-0.5235987755982988,0,-0.6995695,-1.071247,-0.87376153,1.2025672,-1.1025345,1.2192291,0.11681818,-0.12207654,-0.80656844,-1.7774075,0.7078786,-0.33397466,0.27783832,-1.0053658
0.0,-0.1,1.1,-0.5235987755982988,-0.5235987755982988,0,-0.6995695,-1.071247,-0.87376153,1.2025672,-1.1025345,1.2192291,0.11681818,-0.12207654,-0.80656844,-1.7774075,0.7078786,-0.33397466,0.27783832,-1.0053658
0.0,-0.1,1.1,-0.5235987755982988,-0.5235987755982988,0,-0.6995695,-1.071247,-0.87376153,1.2025672,-1.1025345,1.2192291,0.11681818,-0.12207654,-0.80656844,-1.7774075,0.7078786,-0.33397466,0.27783832,-1.0053658
0.0,-0.1,1.1,-0.5235987755982988,-0.5235987755982988,0,-0.6995695,-1.071247,-0.87376153,1.2025672,-1.1025345,1.2192291,0.11681818,-0.12207654,-0.80656844,-1.7774075,0.7078786,-0.33397466,0.27783832,-1.0053658
0.0,-0.1,1.1,-0.5235987755982988,-0.5235987755982988,0,-1.599849,-1.1735177,-1.2086494,0.81722337,-1.347367,0.26545978,0.10401161,-0.1162374,-0.39333856,-1.0034856,0.9815418,1.143076,0.1811042,-0.41930833
0.0,-0.1,1.1,-0.5235987755982988,-0.5235987755982988,0,-1.599849,-1.1735177,-1.2086494,0.81722337,-1.347367,0.26545978,0.10401161,-0.1162374,-0.39333856,-1.0034856,0.9815418,1.143076,0.1811042,-0.41930833
0.0,-0.1,1.1,-0.5235987755982988,-0.5235987755982988,0,-1.599849,-1.1735177,-1.2086494,0.81722337,-1.347367,0.26545978,0.10401161,-0.1162374,-0.39333856,-1.0034856,0.9815418,1.143076,0.1811042,-0.41930833
0.0,-0.1,1.1,-0.5235987755982988,-0.5235987755982988,0,-1.599849,-1.1735177,-1.2086494,0.81722337,-1.347367,0.26545978,0.10401161,-0.1162374,-0.39333856,-1.0034856,0.9815418,1.143076,0.1811042,-0.41930833
0.0,-0.1,1.1,-0.5235987755982988,-0.5235987755982988,0,-1.599849,-1.1735177,-1.2086494,0.81722337,-1.347367,0.26545978,0.10401161,-0.1162374,-0.39333856,-1.0034856,0.9815418,1.143076,0.1811042,-0.41930833
0.0,-0.1,1.1,-0.5235987755982988,-0.5235987755982988,0,-1.599849,-1.1735177,-1.2086494,0.81722337,-1.347367,0.26545978,0.10401161,-0.1162374,-0.39333856,-1.0034856,0.9815418,1.143076,0.1811042,-0.41930833
0.0,-0.1,1.1,-0.5235987755982988,-0.5235987755982988,0,-1.599849,-1.1735177,-1.2086494,0.81722337,-1.347367,0.26545978,0.10401161,-0.1162374,-0.39333856,-1.0034856,0.9815418,1.143076,0.1811042,-0.41930833
0.0,-0.1,1.1,-0.5235987755982988,-0.5235987755982988,0,-1.208831,-1.1816219,-1.3285415,0.39627293,0.12475865,1.0346179,-0.49329424,-0.6360402,-0.23925313,-1.9982,0.8454098,-0.8386032,0.44813278,-0.5260022
0.0,-0.1,1.1,-0.5235987755982988,-0.5235987755982988,0,-1.208831,-1.1816219,-1.3285415,0.39627293,0.12475865,1.0346179,-0.49329424,-0.6360402,-0.23925313,-1.9982,0.8454098,-0.8386032,0.44813278,-0.5260022
0.0,-0.1,1.1,-0.5235987755982988,-0.5235987755982988,0,-1.208831,-1.1816219,-1.3285415,0.39627293,0.12475865,1.0346179,-0.49329424,-0.6360402,-0.23925313,-1.9982,0.8454098,-0.8386032,0.44813278,-0.5260022
0.0,-0.1,1.1,-0.5235987755982988,-0.5235987755982988,0,-1.208831,-1.1816219,-1.3285415,0.39627293,0.12475865,1.0346179,-0.49329424,-0.6360402,-0.23925313,-1.9982,0.8454098,-0.8386032,0.44813278,-0.5260022
0.0,-0.1,1.1,-0.5235987755982988,-0.5235987755982988,0,-1.208831,-1.1816219,-1.3285415,0.39627293,0.12475865,1.0346179,-0.49329424,-0.6360402,-0.23925313,-1.9982,0.8454098,-0.8386032,0.44813278,-0.5260022
0.0,-0.1,1.1,-0.5235987755982988,-0.5235987755982988,0,-1.208831,-1.1816219,-1.3285415,0.39627293,0.12475865,1.0346179,-0.49329424,-0.6360402,-0.23925313,-1.9982,0.8454098,-0.8386032,0.44813278,-0.5260022
0.0,-0.1,1.1,-0.5235987755982988,-0.5235987755982988,0,-1.208831,-1.1816219,-1.3285415,0.39627293,0.12475865,1.0346179,-0.49329424,-0.6360402,-0.23925313,-1.9982,0.8454098,-0.8386032,0.44813278,-0.5260022
0.0,-0.1,1.1,-0.5235987755982988,-0.5235987755982988,0,-0.012347431,-0.7175773,-1.9361159,0.60842127,-1.5130888,-0.485078,0.84691834,-0.7179604,-0.7341935,-1.6121705,0.5298238,-0.09625277,0.34449354,-0.32885554
0.0,-0.1,1.1,-0.5235987755982988,-0.5235987755982988,0,-0.012347431,-0.7175773,-1.9361159,0.60842127,-1.5130888,-0.485078,0.84691834,-0.7179604,-0.7341935,-1.6121705,0.5298238,-0.09625277,0.34449354,-0.32885554
0.0,-0.1,1.1,-0.5235987755982988,-0.5235987755982988,0,-0.012347431,-0.7175773,-1.9361159,0.60842127,-1.5130888,-0.485078,0.84691834,-0.7179604,-0.7341935,-1.6121705,0.5298238,-0.09625277,0.34449354,-0.32885554
