sanky1234/BimanualDexCatch/isaacgymenvs/cem_results/May31/football_pose_0.0_0.0_1.1_0.0_-0.5235987755982988_0_2025-05-31.csv
x,y,z,roll,pitch,yaw,robot1/joint1,robot1/joint2,robot1/joint3,robot1/joint4,robot1/joint5,robot1/joint6,robot1/joint7,robot2/joint1,robot2/joint2,robot2/joint3,robot2/joint4,robot2/joint5,robot2/joint6,robot2/joint7
0.0,0.0,1.1,0.0,-0.5235987755982988,0,-0.1281599,-1.069715,-2.6777546,-0.12196479,-0.0030071128,1.4968665,0.86343396,0.21990207,-0.64776266,1.5908275,0.9001532,0.30224115,1.512664,-0.49579746
0.0,0.0,1.1,0.0,-0.5235987755982988,0,-0.15317328,-1.0922618,-2.5971897,-0.038975514,-0.03628605,1.4775369,0.957016,0.20191845,-0.6615097,1.6654587,0.8925181,0.3343222,1.502261,-1.6064372
0.0,0.0,1.1,0.0,-0.5235987755982988,0,-0.1200423,-1.1036254,-2.6634696,-0.0686227,0.008995794,1.5254387,1.0488667,0.25159928,-0.6253848,1.5888159,0.90541005,0.29914695,1.5108374,-1.4544448
0.0,0.0,1.1,0.0,-0.5235987755982988,0,-0.124617,-1.0238576,-2.6298487,-0.11134918,-0.05367585,1.5137475,0.9984066,0.17993446,-0.6355955,1.6136514,0.9100119,0.37972265,1.5485545,0.9429862
0.0,0.0,1.1,0.0,-0.5235987755982988,0,-0.11655041,-1.061692,-2.6260967,-0.016620485,0.034654763,1.4483918,0.9138487,0.19387607,-0.6870617,1.6564195,0.7925065,0.29903454,1.4798467,-2.0042207
0.0,0.0,1.1,0.0,-0.5235987755982988,0,-0.123249866,-1.1327984,-2.6712904,-0.15055014,-0.005516642,1.4430223,0.7389672,0.20902354,-0.65428555,1.6041998,0.95235246,0.37283483,1.5612534,0.7248865
0.0,0.0,1.1,0.0,-0.5235987755982988,0,-0.12387177,-1.1225431,-2.5989783,-0.120991096,0.045223642,1.4817647,1.0935322,0.15309636,-0.654884,1.6602744,0.8246339,0.30537876,1.4792075,0.5138426
0.0,0.0,1.1,0.0,-0.5235987755982988,0,-0.11350955,-1.079047,-2.580701,-0.011498091,-0.063831404,1.3985037,0.85060793,0.16956864,-0.638715,1.6738045,0.8742681,0.32996237,1.4477761,-0.49546057
0.0,0.0,1.1,0.0,-0.5235987755982988,0,-0.11669175,-1.0865399,-2.6010199,-0.024526633,-0.02601535,1.4558247,0.99479187,0.19055732,-0.6430082,1.6171898,0.81764644,0.32375178,1.5246625,1.3276182
0.0,0.0,1.1,0.0,-0.5235987755982988,0,-0.1200079,-1.1270941,-2.6439745,-0.04684958,0.052210588,1.438599,1.0798868,0.10200749,-0.63056743,1.5858253,0.89889467,0.3148338,1.5052091,-1.4000117
0.0,0.0,1.1,0.0,-0.5235987755982988,0,-0.1472607,-1.0895784,-2.540693,0.0033731463,-0.047956143,1.4156982,1.0282834,0.20772186,-0.61862856,1.681282,0.9132401,0.2830982,1.5472525,-0.67106587
0.0,0.0,1.1,0.0,-0.5235987755982988,0,-0.10776298,-1.0880829,-2.558151,-0.010302387,-0.0049345526,1.4749366,0.97831357,0.19804437,-0.67273545,1.6185143,0.8579352,0.34872597,1.4819994,0.9432223
0.0,0.0,1.1,0.0,-0.5235987755982988,0,-0.14477406,-1.117944,-2.5415413,-0.015997436,0.029516013,1.4494513,0.9130121,0.15541087,-0.6263636,1.6038907,0.89316946,0.40514714,1.469883,0.15964045
0.0,0.0,1.1,0.0,-0.5235987755982988,0,-0.11493995,-1.0799499,-2.618457,-0.074311726,0.059923224,1.4652226,0.88801074,0.20422983,-0.6765546,1.6689072,0.9296035,0.3478957,1.5349288,0.472181
0.0,0.0,1.1,0.0,-0.5235987755982988,0,-0.14428173,-1.1008823,-2.6604922,-0.029714573,0.08255645,1.4381671,0.88866043,0.1878601,-0.6908332,1.6814888,0.8584373,0.3666173,1.5379436,-0.7749589
0.0,0.0,1.1,0.0,-0.5235987755982988,0,-0.13577165,-1.1165698,-2.6840243,-0.10738704,0.009378884,1.5106567,1.1486026,0.14570758,-0.6508541,1.6471634,0.95107293,0.37328467,1.4849945,0.59383154
0.0,0.0,1.1,0.0,-0.5235987755982988,0,-0.120198965,-1.1181558,-2.6104116,-0.0720679,-0.023283549,1.4714178,0.8627367,0.2564867,-0.62912595,1.6410509,0.8744402,0.30442792,1.524493,-1.1898682
0.0,0.0,1.1,0.0,-0.5235987755982988,0,-0.0959931,-1.0821692,-2.737201,-0.09708896,0.08485908,1.4722588,0.95598346,0.23695406,-0.64273983,1.6879205,0.8732513,0.33720714,1.5056555,0.39591777
0.0,0.0,1.1,0.0,-0.5235987755982988,0,-0.12974006,-1.0891246,-2.574437,-0.041173298,0.06281487,1.4309955,1.0298572,0.28501964,-0.60864127,1.6840521,0.80433166,0.35991648,1.4731072,0.86702925
0.0,0.0,1.1,0.0,-0.5235987755982988,0,-0.1260551,-1.0628426,-2.6891904,-0.03847421,0.035627898,1.465979,0.8191108,0.20994987,-0.6338453,1.65916,0.99547964,0.35519204,1.5195575,-0.3972427
0.0,0.0,1.1,0.0,-0.5235987755982988,0,-0.13550736,-1.104965,-2.6576128,-0.12811367,-0.0080624325,1.4941719,1.1921836,0.23367013,-0.6268388,1.6447918,0.8515598,0.3584788,1.5342517,0.11309284
0.0,0.0,1.1,0.0,-0.5235987755982988,0,-0.12406203,-1.0747747,-2.6766713,-0.07264163,-0.020926941,1.4445664,0.8102551,0.19693267,-0.6326711,1.6158465,0.88877565,0.34906498,1.5192156,-0.6023364
0.0,0.0,1.1,0.0,-0.5235987755982988,0,-0.11683145,-1.1067324,-2.6922061,0.00071623886,-0.0032750112,1.4607993,0.80897236,0.2143489,-0.6553604,1.675229,0.87371,0.30823186,1.521196,-0.88794816
0.0,0.0,1.1,0.0,-0.5235987755982988,0,-0.1510152,-1.0884271,-2.665428,-0.03288983,0.021604115,1.5257055,1.0036744,0.1397605,-0.6748527,1.6938168,0.86929876,0.3081174,1.4897751,0.52812976
0.0,0.0,1.1,0.0,-0.5235987755982988,0,-0.12331885,-1.0534186,-2.5470593,-0.12219239,0.08350212,1.4745129,0.7402237,0.22696078,-0.63439214,1.6744158,0.9459563,0.33306894,1.5057182,-1.3224558
0.0,0.0,1.1,0.0,-0.5235987755982988,0,-0.11343506,-1.0880233,-2.6469016,-0.08748459,0.022121293,1.4636635,0.9066677,0.20114116,-0.6799419,1.6650811,0.89550984,0.35125425,1.5343575,-0.65485525
0.0,0.0,1.1,0.0,-0.5235987755982988,0,-0.1170479,-1.0886222,-2.594203,-0.091908984,0.06285698,1.4649627,1.2008892,0.28448233,-0.6617593,1.6019158,0.9015257,0.38468707,1.5177526,0.7152637
0.0,0.0,1.1,0.0,-0.5235987755982988,0,-0.14824258,-1.1045239,-2.6417747,-0.085250676,0.034709975,1.4776099,0.828519,0.1496406,-0.6374477,1.6332883,0.93653244,0.32445678,1.5038698,-1.8812233
0.0,0.0,1.1,0.0,-0.5235987755982988,0,-0.12155807,-1.0682602,-2.6488018,-0.045002386,0.0037189159,1.4300947,1.1689928,0.23686735,-0.6590887,1.6616573,0.921384,0.4255203,1.4772959,-0.30664
0.0,0.0,1.1,0.0,-0.5235987755982988,0,-0.11937984,-1.0859685,-2.6287024,-0.06731758,0.04449833,1.4271755,1.1872071,0.24005373,-0.629803,1.5915557,0.90607476,0.35348564,1.5353838,-1.0677397
0.0,0.0,1.1,0.0,-0.5235987755982988,0,-0.1216014,-1.0602117,-2.604924,-0.07450923,0.02532952,1.4312238,0.9494937,0.19064526,-0.6619054,1.6491668,0.8668462,0.3895892,1.488454,-0.6979221
0.0,0.0,1.1,0.0,-0.5235987755982988,0,-0.14279167,-1.0870645,-2.6601262,-0.029779803,-0.03174056,1.4400029,1.017855,0.2455147,-0.6850118,1.6510156,0.9403921,0.36448437,1.5470394,-0.7071187
0.0,0.0,1.1,0.0,-0.5235987755982988,0,-0.12565798,-1.0924212,-2.6767626,-0.09688959,0.010957721,1.4367256,1.3652111,0.16670702,-0.6246502,1.6652076,0.91660374,0.301747,1.5189812,0.9673501
0.0,0.0,1.1,0.0,-0.5235987755982988,0,-0.11847244,-1.0861301,-2.6303701,-0.059601348,0.06278719,1.4891763,0.79511315,0.19767162,-0.6490822,1.7280784,0.8688401,0.2998945,1.5414953,2.1047196
0.0,0.0,1.1,0.0,-0.5235987755982988,0,-0.09413803,-1.1076413,-2.587674,-0.07783356,-0.03302693,1.482455,0.82696533,0.24149725,-0.655384,1.6089331,0.9344262,0.38466594,1.4831244,-0.9555267
0.0,0.0,1.1,0.0,-0.5235987755982988,0,-0.10663466,-1.0786136,-2.6273558,-0.03611584,0.028599348,1.4025028,0.9415063,0.25739512,-0.6297817,1.6223996,0.9190089,0.40698448,1.4739133,0.22588909
0.0,0.0,1.1,0.0,-0.5235987755982988,0,-0.1353543,-1.0680228,-2.594898,-0.022248346,0.06156873,1.4593238,0.8176091,0.20615922,-0.6917226,1.590119,0.86164546,0.36918372,1.5060903,-0.81475216
0.0,0.0,1.1,0.0,-0.5235987755982988,0,-0.10821062,-1.0809577,-2.6203997,-0.1045187,0.02166819,1.504255,1.0977436,0.28996155,-0.6514702,1.709008,0.95593005,0.33979207,1.5041509,-0.6917942
0.0,0.0,1.1,0.0,-0.5235987755982988,0,-0.098575406,-1.096982,-2.6493373,-0.10703641,0.07550768,1.4808784,0.8891425,0.22485128,-0.6563996,1.6509975,0.8369805,0.29315883,1.5316721,0.2810607
0.0,0.0,1.1,0.0,-0.5235987755982988,0,-0.11078807,-1.0998696,-2.6526966,-0.13574629,0.070398405,1.4965606,1.1076375,0.2563392,-0.6450228,1.6372105,0.8909765,0.27447346,1.5489726,-0.10526765
0.0,0.0,1.1,0.0,-0.5235987755982988,0,-0.15205276,-1.0912735,-2.6239467,-0.062214363,0.041975126,1.5126799,1.0019509,0.27483034,-0.6269275,1.701589,0.9291996,0.30232346,1.5015363,0.08457798
0.0,0.0,1.1,0.0,-0.5235987755982988,0,-0.094093725,-1.0708281,-2.6449354,-0.08858645,-0.06653494,1.4730442,1.1055416,0.2552977,-0.63047326,1.6517185,0.91369843,0.36234137,1.484022,-0.337792
0.0,0.0,1.1,0.0,-0.5235987755982988,0,-0.09747598,-1.0724782,-2.603649,-0.026577462,0.074150674,1.4558803,0.92462885,0.2265762,-0.66764414,1.5569475,0.90010256,0.40698025,1.4922998,-0.49110556
0.0,0.0,1.1,0.0,-0.5235987755982988,0,-0.1326341,-1.090518,-2.5325928,-0.12996525,0.040647347,1.4705219,1.1312279,0.15263258,-0.612792,1.6640878,0.9204735,0.35478812,1.5328388,-0.25672868
0.0,0.0,1.1,0.0,-0.5235987755982988,0,-0.10386948,-1.0931791,-2.64302,-0.055485167,0.025492376,1.489383,1.1127743,0.17974673,-0.6246565,1.668108,0.8548959,0.38649258,1.5034117,-1.2866805
0.0,0.0,1.1,0.0,-0.5235987755982988,0,-0.13077429,-1.0925144,-2.637395,-0.105855055,0.084018625,1.4488302,0.8821516,0.20833905,-0.6332028,1.7021514,1.0042294,0.3512241,1.5254304,-0.8721128
0.0,0.0,1.1,0.0,-0.5235987755982988,0,-0.12395222,-1.1066818,-2.5694962,-0.13472512,0.04885321,1.4813824,0.9779169,0.25202617,-0.6434666,1.6379594,0.93295485,0.3029048,1.5210795,-1.044748
0.0,0.0,1.1,0.0,-0.5235987755982988,0,-0.13222902,-1.072446,-2.548893,-0.07598668,0.0025577894,1.482111,1.1508265,0.22380328,-0.63511974,1.6132969,0.94692063,0.3832758,1.4711101,-1.1716388
0.0,0.0,1.1,0.0,-0.5235987755982988,0,-0.12826249,-1.0971763,-2.605968,-0.0855199,0.06529441,1.4456608,1.2564322,0.15374656,-0.65758795,1.6166604,0.9084121,0.3596731,1.5345532,-0.83779013
0.0,0.0,1.1,0.0,-0.5235987755982988,0,-0.13951476,-1.0780637,-2.5712543,-0.07652747,0.009981903,1.4733872,0.8712535,0.19335185,-0.6397078,1.6348778,0.88726646,0.32546735,1.5147777,0.36814147
0.0,0.0,1.1,0.0,-0.5235987755982988,0,-0.12184357,-1.0717759,-2.599392,-0.088149734,0.061158195,1.4538842,1.1263318,0.1411706,-0.64510906,1.6588244,0.9435066,0.33157325,1.5180084,0.6594669
0.0,0.0,1.1,0.0,-0.5235987755982988,0,-0.09050061,-1.0448462,-2.5833519,-0.07486109,0.09749373,1.4600496,0.8463933,0.16778798,-0.6543091,1.7482018,0.8962042,0.31428948,1.514467,-0.21630034
0.0,0.0,1.1,0.0,-0.5235987755982988,0,-0.14164236,-1.0865661,-2.5930488,-0.071435936,-0.0021865591,1.505415,0.5751356,0.22704579,-0.63563323,1.6328803,0.8307756,0.3298131,1.511919,-1.0485889
0.0,0.0,1.1,0.0,-0.5235987755982988,0,-0.11814466,-1.0864328,-2.6294992,-0.07548186,-0.122316204,1.5114317,0.9781492,0.22755526,-0.6512613,1.6432977,0.87044823,0.3575665,1.4941819,-0.78630877
0.0,0.0,1.1,0.0,-0.5235987755982988,0,-0.12667976,-1.0875399,-2.613043,-0.041011952,0.055633575,1.447906,1.1725982,0.20361693,-0.6235343,1.6407965,0.8229851,0.35429433,1.5488307,-1.1349974
0.0,0.0,1.1,0.0,-0.5235987755982988,0,-0.12937889,-1.0610578,-2.6171248,-0.119417414,-0.0353821,1.4508679,1.0896362,0.1994302,-0.61866844,1.6596558,0.9094301,0.37015158,1.5596955,-0.5362948
0.0,0.0,1.1,0.0,-0.5235987755982988,0,-0.13069627,-1.0757481,-2.6386313,-0.10662082,0.012124214,1.4884018,0.8536971,0.25293395,-0.66133773,1.6843095,0.90037835,0.37689257,1.505835,-0.5402111
0.0,0.0,1.1,0.0,-0.5235987755982988,0,-0.09497736,-1.0871689,-2.5698724,-0.016508443,-0.008054119,1.4655095,0.9566935,0.21978189,-0.651648,1.6729407,0.8719482,0.3497141,1.5380977,-0.3373575
0.0,0.0,1.1,0.0,-0.5235987755982988,0,-0.117207296,-1.0737413,-2.6343389,-0.10804764,0.040076725,1.4821553,1.0535724,0.26069587,-0.61084664,1.7517155,0.8290473,0.37816966,1.4594588,1.2533557
0.0,0.0,1.1,0.0,-0.5235987755982988,0,-0.15319185,-1.0709407,-2.6287644,-0.04658834,0.024273302,1.4792428,1.0220908,0.20471331,-0.64543396,1.6678199,0.912192,0.36659458,1.510503,-0.4421358
0.0,0.0,1.1,0.0,-0.5235987755982988,0,-0.12609568,-1.0571043,-2.632649,-0.09375081,0.04926297,1.4634054,1.149025,0.21773951,-0.6447415,1.5995533,0.86309576,0.4008011,1.5264497,0.009064649
0.0,0.0,1.1,0.0,-0.5235987755982988,0,-0.13112956,-1.0867679,-2.5974207,-0.061143786,-0.015493828,1.5043178,0.9576454,0.18090968,-0.64581275,1.7269572,0.94720024,0.38504606,1.5265393,-0.8510705
0.0,0.0,1.1,0.0,-0.5235987755982988,0,-0.1347558,-1.0629711,-2.5907288,-0.17379567,0.02782912,1.477544,1.1526784,0.23856086,-0.6097348,1.653432,0.88772047,0.35009503,1.5059044,-1.0900856
0.0,0.0,1.1,0.0,-0.5235987755982988,0,-0.14264178,-1.0400912,-2.6657343,-0.05042392,-0.034228437,1.4799109,0.94581187,0.20868282,-0.6611551,1.6462117,0.89158595,0.3411783,1.5001999,0.21409506
0.0,0.0,1.1,0.0,-0.5235987755982988,0,-0.12461198,-1.0655402,-2.6506796,-0.1297213,0.02835515,1.5139375,0.91965455,0.23719901,-0.6330139,1.6121895,0.8642554,0.4249346,1.5305282,-0.75727904
0.0,0.0,1.1,0.0,-0.5235987755982988,0,-0.11657294,-1.0924274,-2.637198,-0.09220918,0.038432684,1.4438891,1.0654496,0.23662062,-0.6253459,1.666126,0.83574444,0.37608105,1.5158656,-0.71150434
0.0,0.0,1.1,0.0,-0.5235987755982988,0,-0.12786707,-1.0720395,-2.6690683,-0.11699981,0.076165944,1.498325,0.94024056,0.2922884,-0.62580234,1.6291953,0.88900924,0.35861242,1.5432785,0.35015377
0.0,0.0,1.1,0.0,-0.5235987755982988,0,-0.124625325,-1.0700302,-2.6320698,-0.07316843,0.031387955,1.503852,0.8803608,0.16137557,-0.6480818,1.6521254,0.89899164,0.33091873,1.5433999,-0.73560095
0.0,0.0,1.1,0.0,-0.5235987755982988,0,-0.12076967,-1.0792631,-2.6239927,-0.022935603,0.008753488,1.4536037,0.9694654,0.26028612,-0.6373697,1.6429105,0.89057904,0.36861074,1.5224626,-0.8230794
0.0,0.0,1.1,0.0,-0.5235987755982988,0,-0.12561172,-1.0612462,-2.641292,-0.07640248,0.06632067,1.4741149,0.9409011,0.23204963,-0.63863814,1.6451432,0.9171591,0.35506466,1.5185885,-0.55735695
0.0,0.0,1.1,0.0,-0.5235987755982988,0,-0.12185044,-1.0599178,-2.66097,-0.12565497,0.03280161,1.5112286,1.1982046,0.20342092,-0.6530479,1.6266192,0.86417806,0.39671916,1.5623119,-0.16648665
0.0,0.0,1.1,0.0,-0.5235987755982988,0,-0.13834144,-1.0604883,-2.6036992,-0.03325492,0.028982485,1.5252868,0.8994092,0.24867685,-0.6743783,1.6176853,0.8519759,0.3674484,1.5077932,-0.8952908
0.0,0.0,1.1,0.0,-0.5235987755982988,0,-0.09845345,-1.013634,-2.603395,-0.09671479,0.038384307,1.5087525,0.8110395,0.21858865,-0.6052656,1.6805927,0.8614435,0.31641722,1.5104328,-1.8459128
0.0,0.0,1.1,0.0,-0.5235987755982988,0,-0.1310737,-0.97208697,-2.552083,-0.07543053,-0.045587942,1.540079,0.854096,0.20628403,-0.64360476,1.6552333,0.95018923,0.34304512,1.5187579,0.14534159
0.0,0.0,1.1,0.0,-0.5235987755982988,0,-0.11813815,-1.0868992,-2.677159,-0.06403325,0.059899766,1.5463858,0.8660915,0.27012762,-0.6738089,1.6686289,0.9103661,0.37608632,1.4844503,-0.829535
0.0,0.0,1.1,0.0,-0.5235987755982988,0,-0.098674,-1.0944978,-2.57395,-0.04495573,0.029581238,1.4196316,0.9101008,0.16242006,-0.67750853,1.5870295,0.91744924,0.36361456,1.5237982,1.2397561
0.0,0.0,1.1,0.0,-0.5235987755982988,0,-0.11073016,-1.1030856,-2.562006,-0.05237624,-0.09599329,1.4423844,1.1978102,0.27090427,-0.65378666,1.594041,0.88272345,0.36963883,1.5257094,0.87712413
0.0,0.0,1.1,0.0,-0.5235987755982988,0,-0.10105215,-1.0926055,-2.6881826,-0.08943125,0.01430685,1.4481741,0.98626924,0.26168355,-0.6567985,1.628165,0.93961465,0.32638276,1.5199947,0.49237955
0.0,0.0,1.1,0.0,-0.5235987755982988,0,-0.11257573,-1.0712363,-2.6130748,-0.04311085,0.020640861,1.4598706,0.9238303,0.22245969,-0.67853206,1.7100232,0.93336445,0.39391226,1.5253831,1.1136667
0.0,0.0,1.1,0.0,-0.5235987755982988,0,-0.09413108,-1.0718037,-2.680143,-0.04554184,0.03106109,1.4672773,0.9748437,0.22478203,-0.64693147,1.63573,0.8658333,0.36261111,1.4983659,0.43971542
0.0,0.0,1.1,0.0,-0.5235987755982988,0,-0.10308333,-1.0830207,-2.6267667,-0.093198895,0.003024522,1.4277619,0.85575545,0.23354636,-0.68842834,1.636898,0.8707682,0.35082984,1.5265336,0.5135016
0.0,0.0,1.1,0.0,-0.5235987755982988,0,-0.10796146,-1.0666744,-2.656521,-0.07164702,-0.04802654,1.4860424,1.2661891,0.17740126,-0.683775,1.6598136,0.8818693,0.31833786,1.5317289,-0.16101955
0.0,0.0,1.1,0.0,-0.5235987755982988,0,-0.1422113,-1.0913699,-2.6528692,0.0024476699,-0.043908358,1.431167,0.6725573,0.1326006,-0.6529215,1.6820992,0.9332642,0.33910167,1.5583758,-1.371809
0.0,0.0,1.1,0.0,-0.5235987755982988,0,-0.13859743,-1.0512635,-2.6914334,-0.05563676,-0.076721735,1.4410437,0.8985109,0.223107,-0.64970857,1.7164066,0.8320073,0.34621978,1.5280315,0.6648231
0.0,0.0,1.1,0.0,-0.5235987755982988,0,-0.1405071,-1.0995241,-2.6575887,-0.019608162,0.028081166,1.4530551,0.8143437,0.19329758,-0.6517308,1.6216403,0.9503891,0.38977095,1.5190294,-2.325432
0.0,0.0,1.1,0.0,-0.5235987755982988,0,-0.110343255,-1.1122496,-2.613534,-0.020218575,0.07243668,1.4420322,1.0810261,0.14347069,-0.6522168,1.6683015,0.8875403,0.41667542,1.5399747,0.80080515
0.0,0.0,1.1,0.0,-0.5235987755982988,0,-0.120111,-1.1249894,-2.6555538,-0.07994802,-0.030810079,1.4483185,0.65448815,0.18021858,-0.65182906,1.6525315,0.91475147,0.3658701,1.4955448,0.5221536
0.0,0.0,1.1,0.0,-0.5235987755982988,0,-0.13832507,-1.0951647,-2.5903044,-0.10475589,-0.090801686,1.5107459,0.8763408,0.20056923,-0.66793156,1.6490268,0.8805929,0.34306464,1.54151,-0.6591065
0.0,0.0,1.1,0.0,-0.5235987755982988,0,-0.14040953,-1.0981057,-2.6534579,-0.028564403,0.0034006191,1.4383568,0.93824774,0.2002936,-0.61521024,1.6303787,0.8246456,0.34033343,1.5192181,0.4828626
0.0,0.0,1.1,0.0,-0.5235987755982988,0,-0.11624027,-1.0952883,-2.5698078,-0.083469056,-0.059203014,1.4998873,0.89996374,0.23371921,-0.6680553,1.6607614,0.8823751,0.31035152,1.5123596,-1.5676032
0.0,0.0,1.1,0.0,-0.5235987755982988,0,-0.1296107,-1.0799655,-2.5842526,-0.01831054,0.010475195,1.4140639,1.0648905,0.18601207,-0.64555436,1.671568,0.9662051,0.36393705,1.5368465,0.4426306
0.0,0.0,1.1,0.0,-0.5235987755982988,0,-0.12834698,-1.098744,-2.5570955,-0.059733663,0.027328447,1.4498177,0.8488191,0.22349496,-0.6448376,1.6550523,0.95192385,0.3148346,1.5377644,-0.33901265
0.0,0.0,1.1,0.0,-0.5235987755982988,0,-0.1332753,-1.0750623,-2.6647654,-0.049198758,0.006398307,1.4775,0.8425264,0.23357509,-0.6443127,1.6009499,0.916698,0.34587333,1.5062509,1.0603822
0.0,0.0,1.1,0.0,-0.5235987755982988,0,-0.13776949,-1.091371,-2.616706,-0.05901702,-0.043335926,1.4970708,1.0091989,0.18176992,-0.63283193,1.6053866,0.8196991,0.356436,1.5284111,-0.3586983
0.0,0.0,1.1,0.0,-0.5235987755982988,0,-0.117045484,-1.0821037,-2.68143,-0.09603387,0.0447514,1.4473373,1.015755,0.19685121,-0.6070612,1.5977646,0.9048586,0.33408952,1.5293751,-0.90346736
0.0,0.0,1.1,0.0,-0.5235987755982988,0,-0.12012177,-1.0726827,-2.6018386,-0.046321657,-0.017304963,1.4316244,0.8229764,0.25536516,-0.6369476,1.6661755,0.8369523,0.34577194,1.4971172,-0.086302854
0.0,0.0,1.1,0.0,-0.5235987755982988,0,-0.112338744,-1.0908096,-2.6181343,-0.04278683,0.0047602565,1.4839075,0.98972183,0.19376297,-0.62297463,1.7222478,0.9137484,0.35667667,1.5132585,-1.7493132
0.0,0.0,1.1,0.0,-0.5235987755982988,0,-0.12420778,-1.0884349,-2.6923418,-0.0758566,0.023524879,1.408195,1.0015391,0.19039504,-0.64112085,1.7069296,0.929837,0.37552786,1.490556,1.5917723
0.0,0.0,1.1,0.0,-0.5235987755982988,0,-0.12372622,-1.1066856,-2.6352026,-0.07305072,0.035641618,1.5074395,0.886381,0.21779737,-0.6368723,1.653316,0.8253882,0.35156453,1.4859223,0.18717675
0.0,0.0,1.1,0.0,-0.5235987755982988,0,-0.11284594,-1.0935874,-2.625242,-0.053149115,0.044019584,1.433479,1.0673158,0.21712102,-0.6670038,1.6477089,0.92622256,0.33269754,1.494906,-1.3176897
0.0,0.0,1.1,0.0,-0.5235987755982988,0,-0.11580783,-1.1142763,-2.7449727,-0.09481509,-0.018609377,1.4452381,0.987699,0.18918887,-0.64125955,1.5748522,0.8650291,0.31183788,1.4590919,-2.2121165
0.0,0.0,1.1,0.0,-0.5235987755982988,0,-0.1138271,-1.1145768,-2.6029222,-0.101774916,0.08579134,1.4583102,1.2268912,0.16954732,-0.63427055,1.7432398,0.8633714,0.30635318,1.5098016,-0.5577568
0.0,0.0,1.1,0.0,-0.5235987755982988,0,-0.115878694,-1.0928282,-2.6598465,-0.059235863,-0.03917755,1.4199638,0.8600162,0.27534363,-0.6798116,1.6473202,0.89215195,0.29487023,1.5305768,-0.43099582
0.0,0.0,1.1,0.0,-0.5235987755982988,0,-0.11132449,-1.078839,-2.6089358,-0.038597777,-0.020315684,1.4588625,1.061213,0.18592814,-0.6575212,1.7322468,0.946591,0.34760958,1.5565668,0.12065134
0.0,0.0,1.1,0.0,-0.5235987755982988,0,-0.100088544,-1.0820941,-2.6236043,-0.07225846,0.11944555,1.4537814,1.1384425,0.20841882,-0.65281576,1.6807041,0.9128268,0.36614275,1.5157363,0.5691768
0.0,0.0,1.1,0.0,-0.5235987755982988,0,-0.13059986,-1.0979968,-2.6092546,-0.07497929,0.005489221,1.3957709,1.202913,0.21324947,-0.6628385,1.644819,0.9080369,0.3183108,1.521668,1.7448967
0.0,0.0,1.1,0.0,-0.5235987755982988,0,-0.11796554,-1.0881182,-2.6365747,-0.028136224,-0.075271696,1.4740821,1.0962241,0.30799916,-0.6864397,1.6982204,0.83492863,0.37181643,1.4723614,0.6231725
0.0,0.0,1.1,0.0,-0.5235987755982988,0,-0.12110182,-1.1023788,-2.630261,-0.09667904,0.092548296,1.4311247,1.1237042,0.24085307,-0.6252227,1.5858245,0.85319483,0.29383016,1.4588915,-1.5329493
0.0,0.0,1.1,0.0,-0.5235987755982988,0,-0.1466961,-1.1099977,-2.6450222,-0.0012871318,0.031836297,1.4801428,0.98086894,0.22380327,-0.65266913,1.6514924,0.8917127,0.35172388,1.5007402,-0.89594287
0.0,0.0,1.1,0.0,-0.5235987755982988,0,-0.12662908,-1.0627291,-2.5976737,-0.066065095,0.082987525,1.4527696,1.0966073,0.23214912,-0.6440727,1.6244541,0.8385033,0.3437149,1.5582747,0.7072172
0.0,0.0,1.1,0.0,-0.5235987755982988,0,-0.1232219,-1.0791299,-2.6069634,-0.09705865,0.09682781,1.4942268,1.0918946,0.24567974,-0.6388972,1.6527169,0.94474953,0.37891707,1.5233058,1.4169862
0.0,0.0,1.1,0.0,-0.5235987755982988,0,-0.13199759,-1.111913,-2.6387262,-0.064703085,0.004875951,1.5325488,0.75738555,0.17960043,-0.6503132,1.6114887,0.8779615,0.3533264,1.5053129,-0.683603
0.0,0.0,1.1,0.0,-0.5235987755982988,0,-0.12209749,-1.0861832,-2.655686,-0.07224858,-0.012185316,1.4432989,0.9341055,0.1938448,-0.6861576,1.5842669,0.91951144,0.31565735,1.4806705,-0.20186923
0.0,0.0,1.1,0.0,-0.5235987755982988,0,-0.13301192,-1.0724375,-2.637361,-0.03329255,-0.0019877572,1.4750925,1.1138141,0.2417142,-0.64903015,1.5711467,0.9506679,0.33192793,1.5001323,0.34032193
0.0,0.0,1.1,0.0,-0.5235987755982988,0,-0.1194836,-1.0686343,-2.5915916,-0.027194254,-0.063746415,1.4284496,1.0304512,0.1928118,-0.6234505,1.7037731,0.91856813,0.34735492,1.5494411,-1.2051134
0.0,0.0,1.1,0.0,-0.5235987755982988,0,-0.11737611,-1.0846064,-2.5907688,-0.017426776,-0.02340162,1.456796,0.9604259,0.23895708,-0.62937474,1.684648,0.9362278,0.36981374,1.4984932,0.59306943
0.0,0.0,1.1,0.0,-0.5235987755982988,0,-0.10970836,-1.0798589,-2.626707,-0.024479877,0.029249977,1.4482769,1.1101624,0.20656002,-0.6435641,1.7152436,0.8520532,0.33971608,1.5314896,0.6359867
0.0,0.0,1.1,0.0,-0.5235987755982988,0,-0.117455065,-1.112206,-2.643634,-0.09254026,0.01656716,1.4838504,0.9720974,0.2679115,-0.64130396,1.585362,0.90222716,0.34386355,1.4932239,-1.3547125
0.0,0.0,1.1,0.0,-0.5235987755982988,0,-0.10908298,-1.0625211,-2.600202,-0.07518063,0.05785883,1.4380159,1.1940652,0.22750042,-0.68541086,1.6727991,0.9313844,0.32092127,1.4649367,-1.8162798
0.0,0.0,1.1,0.0,-0.5235987755982988,0,-0.1142904,-1.0688164,-2.612097,-0.08900732,0.08521576,1.4848447,0.9673442,0.25868118,-0.63209385,1.6639521,0.93925667,0.33360383,1.4976147,-0.71123964
0.0,0.0,1.1,0.0,-0.5235987755982988,0,-0.12720917,-1.0875864,-2.6496398,-0.07675585,-0.096058674,1.4575903,0.92067766,0.20254886,-0.6048443,1.6619619,0.90954584,0.37727338,1.526807,-0.64692694
0.0,0.0,1.1,0.0,-0.5235987755982988,0,-0.14074233,-1.1114177,-2.5645843,-0.13019687,0.023028044,1.4608089,1.1710664,0.21759896,-0.6623987,1.6060455,0.8941241,0.30131358,1.5492874,0.9783052
0.0,0.0,1.1,0.0,-0.5235987755982988,0,-0.110204,-1.073922,-2.6666794,-0.06684137,-0.010669392,1.477097,1.0023073,0.22204675,-0.6286569,1.6110365,0.96605575,0.35110158,1.554574,-0.7868344
0.0,0.0,1.1,0.0,-0.5235987755982988,0,-0.12069475,-1.0657774,-2.5954583,-0.08089766,0.024292434,1.4519912,1.0241265,0.24163723,-0.6634318,1.6533865,0.93856937,0.35909778,1.534137,0.24322405
0.0,0.0,1.1,0.0,-0.5235987755982988,0,-0.12665133,-1.0647478,-2.545425,-0.06040469,0.06385476,1.45252,0.9824326,0.24106346,-0.6947846,1.5966654,0.95445764,0.31514403,1.491315,-0.92569804
0.0,0.0,1.1,0.0,-0.5235987755982988,0,-0.14967702,-1.066228,-2.6567273,-0.08119754,0.11014685,1.4343864,1.052925,0.20547931,-0.6469178,1.6928681,0.93556917,0.30102724,1.4698913,0.27410033
0.0,0.0,1.1,0.0,-0.5235987755982988,0,-0.10691792,-1.0760869,-2.588095,-0.08471746,0.007946115,1.4666353,1.0640844,0.231165,-0.64800406,1.6402797,0.79087716,0.38043934,1.5238713,-0.2238837
0.0,0.0,1.1,0.0,-0.5235987755982988,0,-0.10763618,-1.0866038,-2.6237674,-0.082799755,0.005067971,1.5189751,0.98935455,0.21264336,-0.67640305,1.6214275,0.9107727,0.3984408,1.5073662,-0.41515723
0.0,0.0,1.1,0.0,-0.5235987755982988,0,-0.16512454,-1.0971464,-2.6196175,-0.052969337,0.051697448,1.5123591,0.8671297,0.26256093,-0.66955906,1.6540036,0.85948026,0.35777044,1.5056397,-1.1720339
0.0,0.0,1.1,0.0,-0.5235987755982988,0,-0.13737598,-1.072353,-2.6007786,-0.05040846,-0.01987174,1.4952284,0.9926382,0.30478263,-0.63419336,1.6313208,1.0188373,0.26991287,1.522751,-0.67515826
0.0,0.0,1.1,0.0,-0.5235987755982988,0,-0.16869313,-1.0964122,-2.647125,-0.07013055,-0.032661453,1.4749095,1.0472177,0.19662718,-0.6447312,1.6950454,0.8941943,0.37859297,1.5362344,-0.08972485
0.0,0.0,1.1,0.0,-0.5235987755982988,0,-0.15326081,-1.087955,-2.5950496,-0.14097945,0.06361579,1.4829357,1.0455945,0.27393693,-0.6826697,1.5900359,0.9198762,0.35954487,1.5276446,0.6201003
0.0,0.0,1.1,0.0,-0.5235987755982988,0,-0.12819953,-1.0799834,-2.5271993,-0.09701704,-0.019032344,1.5410862,0.9924912,0.23628922,-0.62973183,1.6085836,0.83816344,0.34486526,1.5080723,-1.2397652
0.0,0.0,1.1,0.0,-0.5235987755982988,0,-0.12208735,-1.0717396,-2.658323,0.010806399,-0.0048808083,1.4895626,0.9260426,0.26492417,-0.64371794,1.6797645,0.8719489,0.3778952,1.4904201,-0.59627134
0.0,0.0,1.1,0.0,-0.5235987755982988,0,-0.11928717,-1.0709955,-2.6496034,-0.094634056,0.09612478,1.4922916,1.1066138,0.23588674,-0.6431295,1.6923866,0.888182,0.3276143,1.505846,-0.025243629
0.0,0.0,1.1,0.0,-0.5235987755982988,0,-0.1330412,-1.0624449,-2.632017,-0.038337525,-0.023618286,1.511525,1.0625693,0.21740213,-0.6685224,1.6304321,0.9143354,0.35253718,1.5000144,-0.71909136
0.0,0.0,1.1,0.0,-0.5235987755982988,0,-0.14724955,-1.0615153,-2.6040502,-0.101485595,0.026364937,1.510255,1.1753459,0.22645326,-0.6378139,1.6846598,0.93672276,0.33855498,1.5211285,-0.1921587
0.0,0.0,1.1,0.0,-0.5235987755982988,0,-0.1024214,-1.0672375,-2.6145718,-0.110424034,0.019265762,1.4894509,0.9755901,0.22083826,-0.62408215,1.6958196,0.9023246,0.3466896,1.4871333,-1.0728264
0.0,0.0,1.1,0.0,-0.5235987755982988,0,-0.15836053,-1.0785981,-2.6200607,-0.10258596,-0.01056939,1.5155234,1.1738839,0.1734342,-0.6289674,1.6970402,0.9155172,0.3818088,1.5174137,-1.9415247
0.0,0.0,1.1,0.0,-0.5235987755982988,0,-0.12113687,-1.0845076,-2.6452837,-0.09712572,0.10390057,1.4757799,0.9156456,0.19593917,-0.6347481,1.6189698,0.9083883,0.34015086,1.5293388,1.3987819
0.0,0.0,1.1,0.0,-0.5235987755982988,0,-0.15461163,-1.0548283,-2.5997527,-0.05978587,0.060847428,1.5053546,0.99589294,0.1605678,-0.6307895,1.6541015,0.91751295,0.33376262,1.4905081,-2.4284418
0.0,0.0,1.1,0.0,-0.5235987755982988,0,-0.11699804,-1.0938723,-2.59969,-0.0838475,-0.060236827,1.4342405,1.244381,0.2125939,-0.67961544,1.6222595,0.83391356,0.30768272,1.5083871,-0.438906
0.0,0.0,1.1,0.0,-0.5235987755982988,0,-0.14755745,-1.0861839,-2.6586618,-0.004160975,-0.024301726,1.4766278,1.0362146,0.17193814,-0.6378047,1.6772653,0.8929159,0.33939022,1.5000085,-0.53617847
0.0,0.0,1.1,0.0,-0.5235987755982988,0,-0.12622459,-1.0796154,-2.664088,-0.043890502,-0.050398216,1.4716128,0.8872644,0.21204486,-0.64625216,1.6641763,0.80385554,0.30166534,1.502992,0.6258384
0.0,0.0,1.1,0.0,-0.5235987755982988,0,-0.13432935,-1.0972813,-2.565327,-0.10738738,0.008823073,1.4355233,1.0748247,0.17293595,-0.65512264,1.6424791,0.85907143,0.2907749,1.5334424,1.1150738
0.0,0.0,1.1,0.0,-0.5235987755982988,0,-0.12388406,-1.0983982,-2.6114578,-0.08151909,0.009053184,1.4624454,0.9599123,0.2279033,-0.6445588,1.6460181,0.84004134,0.39084703,1.5080098,1.1203287
0.0,0.0,1.1,0.0,-0.5235987755982988,0,-0.12805805,-1.0835705,-2.6012883,-0.11305811,-0.12626663,1.4884813,1.0917773,0.17597531,-0.62297267,1.6369133,0.9361251,0.32846907,1.5245204,-0.16034564
0.0,0.0,1.1,0.0,-0.5235987755982988,0,-0.0994825,-1.0726784,-2.586181,-0.086347826,-0.03163572,1.4557369,1.0224667,0.1672285,-0.66922784,1.6406349,0.89579266,0.33182976,1.4742947,0.37284505
0.0,0.0,1.1,0.0,-0.5235987755982988,0,-0.121617205,-1.0635608,-2.6342418,-0.014933581,0.026700972,1.4660813,1.2665657,0.22208354,-0.6354331,1.6904794,0.9252977,0.36626884,1.5672554,0.7478931
0.0,0.0,1.1,0.0,-0.5235987755982988,0,-0.09769709,-1.09059,-2.5855134,-0.06373721,-0.038661614,1.4893492,1.0138662,0.2248513,-0.65646344,1.6346304,0.9181085,0.363707,1.5290408,-0.3555626
0.0,0.0,1.1,0.0,-0.5235987755982988,0,-0.10106793,-1.0896988,-2.6589968,-0.053703364,0.057625573,1.3900117,1.1663605,0.21449652,-0.62698275,1.662236,0.8902081,0.32174438,1.5383881,2.0160155
0.0,0.0,1.1,0.0,-0.5235987755982988,0,-0.11421918,-1.0701405,-2.6372883,-0.036103427,0.01585896,1.4741879,1.0752767,0.25114816,-0.6507501,1.6269975,0.86490303,0.26113942,1.5371603,-0.6611818
0.0,0.0,1.1,0.0,-0.5235987755982988,0,-0.11485175,-1.0918778,-2.6033895,-0.06442816,0.0096407775,1.4683477,1.1017689,0.24117036,-0.6547133,1.6582073,0.92344725,0.41175717,1.5185726,0.94646144
0.0,0.0,1.1,0.0,-0.5235987755982988,0,-0.122082315,-1.065504,-2.6559105,-0.062840946,-0.043771565,1.48157,0.80884254,0.2371172,-0.6848951,1.7269988,0.88278884,0.37799743,1.5188004,-1.6986626
0.0,0.0,1.1,0.0,-0.5235987755982988,0,-0.12284643,-1.0698394,-2.6379042,-0.055489246,0.028021252,1.4784595,1.0024554,0.24115254,-0.6190971,1.721933,0.87952745,0.32820207,1.485581,1.3085471
0.0,0.0,1.1,0.0,-0.5235987755982988,0,-0.1081784,-1.1046247,-2.6500263,-0.0400288,0.075782284,1.4709741,0.7889122,0.20770319,-0.62622315,1.6574818,0.886522,0.36661366,1.517614,-1.2897321
0.0,0.0,1.1,0.0,-0.5235987755982988,0,-0.10679085,-1.0780092,-2.5913665,-0.11847875,0.00460201,1.5013084,0.8702956,0.1964873,-0.62374395,1.6080152,0.9212259,0.39335617,1.5071722,-0.24132195
0.0,0.0,1.1,0.0,-0.5235987755982988,0,-0.13807264,-1.0759536,-2.6703658,-0.032807387,0.04207969,1.4230629,1.1748226,0.1847938,-0.66940063,1.6590134,0.92090094,0.31073755,1.4921999,1.585758
0.0,0.0,1.1,0.0,-0.5235987755982988,0,-0.122434676,-1.0709224,-2.6321802,-0.066129476,0.080374055,1.4558864,1.0304211,0.26281756,-0.6496078,1.6866901,0.8756875,0.3412929,1.482657,-1.6589211
0.0,0.0,1.1,0.0,-0.5235987755982988,0,-0.1398556,-1.0763419,-2.6903272,-0.049718402,-0.046663236,1.4872946,0.6999764,0.22232036,-0.6015638,1.643512,0.9828722,0.34922305,1.5097287,-0.7087901
0.0,0.0,1.1,0.0,-0.5235987755982988,0,-0.12605791,-1.078772,-2.5739388,-0.06280243,-0.06441098,1.4735743,0.83264,0.15402673,-0.6589086,1.6134026,0.9252317,0.40497684,1.5142279,-0.5877689
0.0,0.0,1.1,0.0,-0.5235987755982988,0,-0.14022398,-1.0843948,-2.6125443,-0.06512226,-0.026103176,1.4055624,1.0633023,0.24346636,-0.6717056,1.6324387,0.8706076,0.37062892,1.4806048,-1.4227322
0.0,0.0,1.1,0.0,-0.5235987755982988,0,-0.10006771,-1.098528,-2.590078,-0.06460875,-0.0028947673,1.4517331,1.2312938,0.20463537,-0.65095407,1.6823801,0.84034765,0.37657136,1.5420249,-0.19624367
0.0,0.0,1.1,0.0,-0.5235987755982988,0,-0.13164228,-1.0832087,-2.6747825,-0.07080658,0.15225948,1.4545246,1.0981115,0.22665296,-0.63089687,1.6989771,0.9513644,0.3580475,1.5322764,-0.63614935
0.0,0.0,1.1,0.0,-0.5235987755982988,0,-0.12513988,-1.0845909,-2.5810726,-0.1124131,-0.012510491,1.4379039,0.9556295,0.24804603,-0.6429741,1.6169906,0.95828795,0.30467954,1.5412455,-1.3043333
0.0,0.0,1.1,0.0,-0.5235987755982988,0,-0.16662788,-1.0566257,-2.6591253,-0.060082383,-0.057198483,1.4744853,1.0418471,0.19013159,-0.63679063,1.6228746,0.8307606,0.33748806,1.4833704,-0.34385636
0.0,0.0,1.1,0.0,-0.5235987755982988,0,-0.14143413,-1.0611963,-2.5638964,-0.055088557,-0.07297517,1.4405065,0.9164159,0.1781262,-0.640018,1.6099511,0.96101004,0.37782648,1.5440648,-0.9022994
0.0,0.0,1.1,0.0,-0.5235987755982988,0,-0.11602099,-1.0551314,-2.589829,-0.055030745,0.06474012,1.4547026,0.9359065,0.20527904,-0.64505994,1.6993623,0.9393708,0.3303398,1.5496669,-0.27488032
0.0,0.0,1.1,0.0,-0.5235987755982988,0,-0.12732849,-1.0527136,-2.6154568,-0.04691849,0.014828231,1.4998844,0.8560202,0.22961615,-0.64611477,1.647523,0.8761199,0.31441462,1.5150925,-0.6471601
0.0,0.0,1.1,0.0,-0.5235987755982988,0,-0.14156444,-1.0788789,-2.6795487,-0.09600417,0.022549741,1.481619,0.9733759,0.16309172,-0.6500625,1.6759864,0.95169187,0.39403513,1.5436177,-0.6194094
0.0,0.0,1.1,0.0,-0.5235987755982988,0,-0.1400159,-1.079368,-2.6092308,-0.1681001,0.0054759914,1.5241417,0.96970206,0.23928066,-0.63200676,1.6995466,0.96924406,0.2868484,1.4829363,-0.2746406
0.0,0.0,1.1,0.0,-0.5235987755982988,0,-0.11969599,-1.0374302,-2.6002343,-0.11253144,0.0021521237,1.5059212,1.0671186,0.2078476,-0.6660466,1.646644,0.8891248,0.31906605,1.4871656,-0.3189671
0.0,0.0,1.1,0.0,-0.5235987755982988,0,-0.14319728,-1.0653801,-2.6162696,-0.06214873,0.10937274,1.4662308,1.0029241,0.24328919,-0.6346292,1.6711676,0.8579003,0.37572813,1.5250602,-0.2084358
0.0,0.0,1.1,0.0,-0.5235987755982988,0,-0.13624917,-1.0802829,-2.6512783,-0.06036708,0.0005568259,1.483054,0.9567905,0.19453001,-0.6488653,1.6441813,0.8601597,0.3986215,1.5152975,0.65515107
0.0,0.0,1.1,0.0,-0.5235987755982988,0,-0.11984765,-1.0674982,-2.624136,-0.04613683,-0.015282496,1.4869816,0.92067045,0.22588,-0.649065,1.6897243,0.9442072,0.34570748,1.5038255,-1.5136101
0.0,0.0,1.1,0.0,-0.5235987755982988,0,-0.10496881,-1.0889797,-2.6037848,-0.04886663,-0.058093645,1.4835408,1.0760936,0.18016148,-0.6376147,1.6630783,0.8482463,0.32245702,1.5035622,-1.5637472
0.0,0.0,1.1,0.0,-0.5235987755982988,0,-0.108875275,-1.0726546,-2.588454,-0.08698985,0.05135412,1.4933069,1.0218751,0.1521292,-0.6939619,1.6470468,0.8416465,0.3418181,1.5462877,0.61189824
0.0,0.0,1.1,0.0,-0.5235987755982988,0,-0.15059975,-1.0889862,-2.6181316,-0.041196506,0.058530927,1.4289755,1.0354882,0.19172889,-0.6595678,1.6185697,0.8852795,0.34087488,1.4746212,0.22574589
0.0,0.0,1.1,0.0,-0.5235987755982988,0,-0.13140526,-1.0691067,-2.6444614,-0.038025167,0.051375855,1.4689662,1.0982697,0.24366032,-0.648854,1.6645994,0.9072484,0.32111862,1.5142109,-1.684973
0.0,0.0,1.1,0.0,-0.5235987755982988,0,-0.1199342,-1.0919684,-2.5633166,-0.031859145,-0.048796657,1.4348421,0.9411247,0.26048514,-0.6552941,1.675715,0.91199887,0.39228222,1.5227406,0.46459982
0.0,0.0,1.1,0.0,-0.5235987755982988,0,-0.12547345,-1.0923351,-2.623857,-0.03759524,-0.044391472,1.4187391,1.0583196,0.17939891,-0.60367393,1.6661755,0.8445531,0.3776161,1.4912724,0.5936981
0.0,0.0,1.1,0.0,-0.5235987755982988,0,-0.11364249,-1.0747283,-2.5982084,-0.014473685,0.00016500012,1.4916242,0.84549814,0.1963009,-0.64873487,1.6332401,0.85447544,0.3766191,1.4966004,-0.6609546
0.0,0.0,1.1,0.0,-0.5235987755982988,0,-0.110345505,-1.0897049,-2.6145651,-0.03306979,-0.041772485,1.4854305,0.9211612,0.21167274,-0.6261249,1.667307,0.9721937,0.35823503,1.5070943,-0.2274415
0.0,0.0,1.1,0.0,-0.5235987755982988,0,-0.12271205,-1.0945706,-2.5626562,-0.09873067,0.032605067,1.4825377,1.0688003,0.2325356,-0.6428111,1.6046978,1.0242772,0.40452573,1.5382693,0.35969973
0.0,0.0,1.1,0.0,-0.5235987755982988,0,-0.13099332,-1.0641047,-2.6195788,-0.055088677,-0.008960663,1.4555656,0.9767604,0.20529798,-0.6205544,1.653899,0.94607633,0.33795217,1.4714241,-0.19983993
0.0,0.0,1.1,0.0,-0.5235987755982988,0,-0.14380038,-1.0799098,-2.6151838,-0.0011832026,-0.005059864,1.4886305,1.0208973,0.24656047,-0.61023223,1.6448717,0.9020094,0.29874855,1.5440365,-1.4864082
0.0,0.0,1.1,0.0,-0.5235987755982988,0,-0.11177554,-1.0960261,-2.6793892,-0.08690731,-0.023515033,1.4669985,1.0626963,0.18831931,-0.65888643,1.6641419,0.9417543,0.38461846,1.5651275,-0.77058166
0.0,0.0,1.1,0.0,-0.5235987755982988,0,-0.12927231,-1.0808904,-2.6447873,-0.0602837,0.004556257,1.4772484,0.9159377,0.2503642,-0.6527471,1.6120412,0.8814678,0.32190958,1.5344014,-0.14108142
0.0,0.0,1.1,0.0,-0.5235987755982988,0,-0.12131721,-1.0739502,-2.6437538,-0.05089556,-0.038897894,1.466796,0.7833252,0.23013504,-0.64574194,1.6845365,0.8415636,0.40356386,1.4820216,1.1364111
0.0,0.0,1.1,0.0,-0.5235987755982988,0,-0.123461865,-1.0763084,-2.623192,-0.08761192,0.058210347,1.5008597,0.9712444,0.16651778,-0.6515452,1.6374671,0.8655974,0.33924857,1.5082455,-0.0025899438
0.0,0.0,1.1,0.0,-0.5235987755982988,0,-0.13422707,-1.0711827,-2.6237617,-0.019261342,-0.05039435,1.4395342,0.8002974,0.2764088,-0.660129,1.6775682,0.92534184,0.3675853,1.4992769,0.03581392
0.0,0.0,1.1,0.0,-0.5235987755982988,0,-0.1435688,-1.096617,-2.6343377,-0.06461801,0.11677669,1.4840784,0.9420043,0.23215505,-0.6321315,1.6457525,0.9273946,0.41178054,1.4843905,-0.021432057
0.0,0.0,1.1,0.0,-0.5235987755982988,0,-0.12369304,-1.1148769,-2.630402,-0.08063365,-0.009573053,1.4431611,0.9579162,0.24065219,-0.63710964,1.7001752,0.95822394,0.35199317,1.4877393,0.61062586
0.0,0.0,1.1,0.0,-0.5235987755982988,0,-0.11114769,-1.1181026,-2.6181676,-0.11723087,0.017944599,1.4593385,0.9691232,0.23645625,-0.6305877,1.6214919,0.8641047,0.29941595,1.4877197,-1.4763381
0.0,0.0,1.1,0.0,-0.5235987755982988,0,-0.11995079,-1.0740255,-2.6365306,-0.098312415,0.048344888,1.4730533,0.84782135,0.26257333,-0.643652,1.6523744,0.88153034,0.34543863,1.507739,-0.037342582
0.0,0.0,1.1,0.0,-0.5235987755982988,0,-0.13664685,-1.1110953,-2.6331315,-0.074078605,-0.009327217,1.4479477,1.1731586,0.23926578,-0.6503922,1.6396934,0.9111711,0.36587685,1.4997743,-0.45159
0.0,0.0,1.1,0.0,-0.5235987755982988,0,-0.12305893,-1.104786,-2.5729718,-0.03817685,-0.07028945,1.4589962,0.99219304,0.22047526,-0.61918133,1.6594232,0.9154905,0.4061822,1.4870942,1.1769621
0.0,0.0,1.1,0.0,-0.5235987755982988,0,-0.13229254,-1.0918835,-2.562891,-0.075368464,0.026117602,1.4219427,0.90745115,0.22726974,-0.64402074,1.6788145,0.9249648,0.33365193,1.5173029,-0.8414995
0.0,0.0,1.1,0.0,-0.5235987755982988,0,-0.12715894,-1.0498021,-2.75165,-0.038123004,-0.027337944,1.4699843,1.1091305,0.20851237,-0.6270555,1.7414374,0.86840475,0.34054744,1.509842,0.7284637
0.0,0.0,1.1,0.0,-0.5235987755982988,0,-0.12292054,-1.0809256,-2.6051698,-0.053139403,-0.0021371332,1.4679016,0.8597189,0.16152573,-0.6640052,1.6882142,0.9340114,0.35850078,1.5355378,-1.2492194
0.0,0.0,1.1,0.0,-0.5235987755982988,0,-0.10083373,-1.0777113,-2.6411903,-0.12780698,0.0666349,1.4285574,1.1591537,0.25847638,-0.6199453,1.657209,0.91158015,0.3212941,1.5067209,1.9845979
0.0,0.0,1.1,0.0,-0.5235987755982988,0,-0.1313758,-1.0744317,-2.6020765,-0.12440787,0.035131495,1.4663604,1.1450354,0.14230134,-0.6312251,1.6510749,0.9359333,0.35773563,1.5410826,0.43601382
0.0,0.0,1.1,0.0,-0.5235987755982988,0,-0.13586004,-1.1049328,-2.570866,-0.13402866,-0.03617511,1.4725249,0.8448221,0.22090076,-0.63662213,1.6524014,0.9370843,0.36043626,1.4877901,-1.3300918
0.0,0.0,1.1,0.0,-0.5235987755982988,0,-0.13848242,-1.0635091,-2.6623802,-0.04133059,0.12005239,1.4513888,1.1431916,0.2587102,-0.6309555,1.6073645,0.9202393,0.3502436,1.5035822,0.49862316
0.0,0.0,1.1,0.0,-0.5235987755982988,0,-0.15248355,-1.070017,-2.7017794,-0.07751452,0.061026204,1.5155824,0.890562,0.21090326,-0.6578032,1.645869,0.8938268,0.35022083,1.5089641,-1.799859
0.0,0.0,1.1,0.0,-0.5235987755982988,0,-0.10938118,-1.0898448,-2.648723,-0.10711485,0.075019754,1.5156553,1.0415283,0.2231416,-0.67938083,1.6408869,0.9235751,0.3763867,1.5355533,-0.16317892
0.0,0.0,1.1,0.0,-0.5235987755982988,0,-0.11968543,-1.0778831,-2.5268958,-0.15570514,0.10495303,1.5168679,0.84330344,0.24080594,-0.6228815,1.646457,0.92430186,0.33135563,1.506984,0.14613071
0.0,0.0,1.1,0.0,-0.5235987755982988,0,-0.11608349,-1.0700648,-2.6160238,-0.1255775,0.07390948,1.4472228,1.1367816,0.21528424,-0.6167967,1.6365895,0.8809353,0.35490167,1.519108,-0.047453195
0.0,0.0,1.1,0.0,-0.5235987755982988,0,-0.14327413,-1.0802494,-2.6974006,-0.13498135,-0.056187216,1.4621383,1.0382415,0.2119824,-0.6633574,1.6117423,0.9870313,0.34436926,1.4934474,-0.048631698
0.0,0.0,1.1,0.0,-0.5235987755982988,0,-0.13336697,-1.0251467,-2.5818546,-0.09700714,-0.02541889,1.4181007,0.99543893,0.2343807,-0.6826177,1.6443394,0.9618734,0.40310255,1.5248544,-2.078496
0.0,0.0,1.1,0.0,-0.5235987755982988,0,-0.11706041,-1.0905682,-2.6166003,-0.044745326,0.020914607,1.4362144,0.9357932,0.17923641,-0.62366205,1.6317605,0.92098886,0.3162295,1.5125005,-1.7151437
0.0,0.0,1.1,0.0,-0.5235987755982988,0,-0.14325793,-1.0962092,-2.548521,-0.09394467,0.006261115,1.4961694,1.1427885,0.18927582,-0.66648227,1.6637639,0.890631,0.34594977,1.5129312,0.28194308
0.0,0.0,1.1,0.0,-0.5235987755982988,0,-0.12775767,-1.089579,-2.6098523,-0.060943667,-0.000793866,1.4543902,0.9452779,0.24036805,-0.6494757,1.5741372,0.95606214,0.38328713,1.5509056,1.1679732
0.0,0.0,1.1,0.0,-0.5235987755982988,0,-0.10635325,-1.0612487,-2.5861576,-0.047868434,-0.011163673,1.4708883,0.73671764,0.19214836,-0.6670782,1.6708616,0.9265005,0.35761645,1.4977223,0.7017663
0.0,0.0,1.1,0.0,-0.5235987755982988,0,-0.14000806,-1.1089212,-2.6468534,-0.069012254,-0.0687294,1.4791894,0.9655683,0.23785684,-0.6434102,1.5942813,0.9773176,0.3991382,1.5147576,0.47749177
0.0,0.0,1.1,0.0,-0.5235987755982988,0,-0.11050363,-1.078763,-2.5752065,-0.040683623,-0.031742185,1.460923,0.95249844,0.22112164,-0.6540656,1.6764325,0.86588895,0.38330957,1.5262438,1.1455538
0.0,0.0,1.1,0.0,-0.5235987755982988,0,-0.11563121,-1.1059123,-2.63323,-0.100988686,0.05426876,1.4937205,1.0284877,0.22858988,-0.6740391,1.6574441,0.8956497,0.38652784,1.5343182,0.27343735
0.0,0.0,1.1,0.0,-0.5235987755982988,0,-0.103070535,-1.09514,-2.6073468,0.017326089,0.050334774,1.4386929,1.0052623,0.27095076,-0.5932518,1.648421,0.87544054,0.31675807,1.4240133,0.08748481
0.0,0.0,1.1,0.0,-0.5235987755982988,0,-0.10134705,-1.1259482,-2.5553362,-0.06692922,-0.016772255,1.4565334,1.1683245,0.18276915,-0.64735323,1.6713932,0.8440242,0.34360743,1.5307053,0.25319734
0.0,0.0,1.1,0.0,-0.5235987755982988,0,-0.1315498,-1.1059314,-2.6019955,-0.056627054,0.0316191,1.4710848,0.80028087,0.15489198,-0.67756426,1.6943572,0.9493247,0.36694857,1.4673692,-0.83367264
0.0,0.0,1.1,0.0,-0.5235987755982988,0,-0.13545349,-1.1095929,-2.6132445,-0.042411145,-0.07537617,1.4889618,0.7077749,0.21732098,-0.6543845,1.6140798,0.8394728,0.32705376,1.5362679,-0.53251547
0.0,0.0,1.1,0.0,-0.5235987755982988,0,-0.10934443,-1.0749319,-2.6407719,-0.05077729,0.032763124,1.442735,1.0465331,0.2974516,-0.6308188,1.6581464,0.8539694,0.29338044,1.5080652,-1.3853387
0.0,0.0,1.1,0.0,-0.5235987755982988,0,-0.14668901,-1.0562326,-2.5972347,-0.024283128,0.008036242,1.4972947,0.8840256,0.23837724,-0.6609676,1.692824,0.9250391,0.3392296,1.5272498,1.0624613
0.0,0.0,1.1,0.0,-0.5235987755982988,0,-0.10646404,-1.0723594,-2.625236,-0.025654856,0.08754979,1.48296,0.9840375,0.17014381,-0.63124543,1.6243131,0.94186115,0.2989801,1.5384009,-0.07607278
0.0,0.0,1.1,0.0,-0.5235987755982988,0,-0.1359353,-1.0792364,-2.5964715,-0.023986435,-0.034199126,1.4624523,0.9453783,0.2353648,-0.6614296,1.6444207,0.8342324,0.32757077,1.541954,-0.4688744
0.0,0.0,1.1,0.0,-0.5235987755982988,0,-0.14689393,-1.112497,-2.5597916,-0.09164848,0.06485292,1.4845866,1.0301692,0.2895962,-0.64799035,1.5741973,0.9428227,0.3324695,1.5260686,-1.3918436
0.0,0.0,1.1,0.0,-0.5235987755982988,0,-0.12941428,-1.0860527,-2.566285,-0.02417978,-0.022098588,1.4777668,0.8596152,0.19274709,-0.65079504,1.7553394,0.8399378,0.35328856,1.4957435,-1.6926254
0.0,0.0,1.1,0.0,-0.5235987755982988,0,-0.13190307,-1.0636487,-2.625025,-0.05752999,-0.016379582,1.4889127,0.8327657,0.15187815,-0.6626672,1.6766028,0.90153795,0.33739913,1.5169911,0.25777757
0.0,0.0,1.1,0.0,-0.5235987755982988,0,-0.10549375,-1.0660657,-2.641717,-0.03567625,0.06757433,1.4845718,0.72182155,0.18074329,-0.6489375,1.6601368,0.85403657,0.38396,1.5138537,-0.19940549
0.0,0.0,1.1,0.0,-0.5235987755982988,0,-0.11910515,-1.0749714,-2.6174989,-0.08525939,-0.038356107,1.4574046,1.0880936,0.14547057,-0.6447268,1.648311,0.88872486,0.32280254,1.4859855,-0.027177555
0.0,0.0,1.1,0.0,-0.5235987755982988,0,-0.13055825,-1.0893852,-2.5993452,-0.05140674,0.041043926,1.4689474,1.042034,0.21542323,-0.63251173,1.6163157,0.96128297,0.38934302,1.4951428,1.8592265
0.0,0.0,1.1,0.0,-0.5235987755982988,0,-0.12825742,-1.0491294,-2.6420546,-0.07327338,-0.043229274,1.4158254,0.9559391,0.28661835,-0.6468096,1.7007248,0.8448382,0.35015067,1.5365818,0.7048698
0.0,0.0,1.1,0.0,-0.5235987755982988,0,-0.15503946,-1.083741,-2.5869544,-0.11768954,-0.027917322,1.5583489,1.0445808,0.18456185,-0.63416696,1.6531868,0.93373126,0.32905436,1.5655044,-1.8210162
0.0,0.0,1.1,0.0,-0.5235987755982988,0,-0.12286742,-1.1004336,-2.6092582,-0.020323595,0.04834738,1.4950228,0.87875706,0.20923366,-0.6557354,1.63589,0.94180715,0.37919202,1.4611549,0.354514
0.0,0.0,1.1,0.0,-0.5235987755982988,0,-0.11856082,-1.0655109,-2.5692003,-0.020156752,-0.027213883,1.4891039,0.90752864,0.19509244,-0.6339863,1.6390028,0.94065684,0.37202895,1.5324066,-1.3619972
0.0,0.0,1.1,0.0,-0.5235987755982988,0,-0.11153332,-1.0685512,-2.6486125,-0.07866946,-0.005123343,1.4634774,0.70862544,0.24036601,-0.65105397,1.6280215,0.90603375,0.38157552,1.5417709,0.7648415
0.0,0.0,1.1,0.0,-0.5235987755982988,0,-0.107575156,-1.1003662,-2.5952773,-0.046265967,0.014242967,1.5041435,0.83900815,0.2538266,-0.6069936,1.6257552,0.860117,0.37973532,1.4945803,0.87956315
0.0,0.0,1.1,0.0,-0.5235987755982988,0,-0.12162062,-1.1089244,-2.589432,-0.017549288,0.005538941,1.4482474,0.9706846,0.26426372,-0.61674935,1.6622108,0.92879236,0.41162962,1.4550147,0.3097066
0.0,0.0,1.1,0.0,-0.5235987755982988,0,-0.11331578,-1.1066818,-2.5743992,-0.13845691,-0.0906782,1.4543403,0.8820002,0.16238971,-0.6067556,1.6132177,0.9161037,0.3523622,1.5127544,0.303832
0.0,0.0,1.1,0.0,-0.5235987755982988,0,-0.12429353,-1.1158694,-2.6806245,-0.052041214,0.028790677,1.534945,0.9184338,0.19345202,-0.64968586,1.6502953,0.82692987,0.32019627,1.4903516,-0.14719437
0.0,0.0,1.1,0.0,-0.5235987755982988,0,-0.12293641,-1.0905741,-2.5953906,-0.049550097,-0.01121539,1.4919221,0.9686683,0.19245614,-0.64885557,1.6503326,0.8976264,0.36408985,1.5118129,0.5674684
0.0,0.0,1.1,0.0,-0.5235987755982988,0,-0.12434758,-1.0903728,-2.6633,-0.06759961,0.013341508,1.4528886,0.99767077,0.2009392,-0.61651266,1.656258,0.969223,0.32081825,1.5251973,0.5695855
0.0,0.0,1.1,0.0,-0.5235987755982988,0,-0.10657405,-1.0770683,-2.616968,-0.036999453,-0.066950254,1.4915918,0.7669449,0.22264534,-0.66250455,1.630452,0.92530215,0.35050792,1.5389094,1.3947793
0.0,0.0,1.1,0.0,-0.5235987755982988,0,-0.08905191,-1.0900776,-2.621892,-0.10481727,0.026422719,1.5023929,0.8523047,0.22086936,-0.65689063,1.6240134,0.87317044,0.38839057,1.4914126,0.83183527
0.0,0.0,1.1,0.0,-0.5235987755982988,0,-0.11931731,-1.0872915,-2.5623348,-0.03147007,0.026149234,1.4400905,1.0629743,0.14557151,-0.64897394,1.6173587,0.93365526,0.3900939,1.5291977,0.37946925
0.0,0.0,1.1,0.0,-0.5235987755982988,0,-0.13416651,-1.1080173,-2.6317918,-0.10602549,-0.014787512,1.5080559,0.9896017,0.14875594,-0.6402031,1.6830134,0.90831566,0.40083498,1.5250936,0.56543046
0.0,0.0,1.1,0.0,-0.5235987755982988,0,-0.108146764,-1.0640134,-2.5831237,-0.1053232,0.06688209,1.4614775,1.0537645,0.17554797,-0.62057674,1.5797467,0.9086028,0.35687223,1.568569,1.0478475
0.0,0.0,1.1,0.0,-0.5235987755982988,0,-0.10399359,-1.0874747,-2.586454,-0.086997986,0.0028240792,1.5092995,0.963454,0.15970346,-0.64855963,1.606414,0.8615222,0.3432722,1.5110092,1.1019086
0.0,0.0,1.1,0.0,-0.5235987755982988,0,-0.13166001,-1.1066749,-2.6107206,-0.07374234,0.08558717,1.4706234,0.9455858,0.21775317,-0.6322451,1.6327618,0.8439387,0.361347,1.5117626,-1.3392875
0.0,0.0,1.1,0.0,-0.5235987755982988,0,-0.13331205,-1.1040006,-2.565101,-0.076661944,-0.08405902,1.4456743,1.0804019,0.24636498,-0.6431682,1.6594918,0.9012516,0.2968396,1.5397731,1.3985192
0.0,0.0,1.1,0.0,-0.5235987755982988,0,-0.1367058,-1.0661236,-2.6220958,-0.06363631,0.0030545492,1.4916618,1.0020883,0.2675766,-0.61233807,1.6797419,0.9342765,0.33836627,1.5391424,0.9271729
0.0,0.0,1.1,0.0,-0.5235987755982988,0,-0.10770953,-1.0823226,-2.6573422,-0.09495933,0.037269223,1.4838498,0.7771632,0.19667265,-0.66173494,1.6830995,0.94763565,0.3800898,1.5026115,-2.0429063
0.0,0.0,1.1,0.0,-0.5235987755982988,0,-0.08257682,-1.1018763,-2.620966,-0.034539863,-0.03690104,1.476619,1.0003185,0.16802818,-0.6019118,1.6391894,0.94354546,0.35183644,1.505313,0.8337209
0.0,0.0,1.1,0.0,-0.5235987755982988,0,-0.105618194,-1.0760266,-2.615808,-0.04960848,0.020446904,1.4720241,0.8882071,0.15605389,-0.6398683,1.6456834,0.89320576,0.36388725,1.5377501,1.1060283
0.0,0.0,1.1,0.0,-0.5235987755982988,0,-0.12117207,-1.0569737,-2.7547598,-0.01264167,0.05927711,1.4282002,0.9307289,0.24796328,-0.6781538,1.6124989,0.93484145,0.35152602,1.5183003,-0.09632974
0.0,0.0,1.1,0.0,-0.5235987755982988,0,-0.12711526,-1.091534,-2.6845574,-0.03809316,0.011292591,1.4690833,0.9840894,0.21449362,-0.6206479,1.6972858,0.85424525,0.2996133,1.5488313,1.7438719
0.0,0.0,1.1,0.0,-0.5235987755982988,0,-0.12970875,-1.1010772,-2.573556,-0.032991298,-0.0014223412,1.4317657,0.76357996,0.14383426,-0.66842395,1.631949,0.87657475,0.37931582,1.543465,-1.7495776
0.0,0.0,1.1,0.0,-0.5235987755982988,0,-0.12970875,-1.1010772,-2.573556,-0.032991298,-0.0014223412,1.4317657,0.76357996,0.14383426,-0.66842395,1.631949,0.87657475,0.37931582,1.543465,-1.7495776
0.0,0.0,1.1,0.0,-0.5235987755982988,0,-0.12970875,-1.1010772,-2.573556,-0.032991298,-0.0014223412,1.4317657,0.76357996,0.14383426,-0.66842395,1.631949,0.87657475,0.37931582,1.543465,-1.7495776
0.0,0.0,1.1,0.0,-0.5235987755982988,0,-0.12970875,-1.1010772,-2.573556,-0.032991298,-0.0014223412,1.4317657,0.76357996,0.14383426,-0.66842395,1.631949,0.87657475,0.37931582,1.543465,-1.7495776
0.0,0.0,1.1,0.0,-0.5235987755982988,0,-0.12970875,-1.1010772,-2.573556,-0.032991298,-0.0014223412,1.4317657,0.76357996,0.14383426,-0.66842395,1.631949,0.87657475,0.37931582,1.543465,-1.7495776
0.0,0.0,1.1,0.0,-0.5235987755982988,0,-0.12970875,-1.1010772,-2.573556,-0.032991298,-0.0014223412,1.4317657,0.76357996,0.14383426,-0.66842395,1.631949,0.87657475,0.37931582,1.543465,-1.7495776
0.0,0.0,1.1,0.0,-0.5235987755982988,0,-0.12970875,-1.1010772,-2.573556,-0.032991298,-0.0014223412,1.4317657,0.76357996,0.14383426,-0.66842395,1.631949,0.87657475,0.37931582,1.543465,-1.7495776
0.0,0.0,1.1,0.0,-0.5235987755982988,0,-0.12970875,-1.1010772,-2.573556,-0.032991298,-0.0014223412,1.4317657,0.76357996,0.14383426,-0.66842395,1.631949,0.87657475,0.37931582,1.543465,-1.7495776
0.0,0.0,1.1,0.0,-0.5235987755982988,0,-0.13920245,-1.0598917,-2.7069852,-0.06358214,-0.0029815184,1.4761033,0.82594293,0.2578161,-0.6607959,1.68736,0.9569212,0.35435048,1.5013785,-0.22829568
0.0,0.0,1.1,0.0,-0.5235987755982988,0,-0.13920245,-1.0598917,-2.7069852,-0.06358214,-0.0029815184,1.4761033,0.82594293,0.2578161,-0.6607959,1.68736,0.9569212,0.35435048,1.5013785,-0.22829568
0.0,0.0,1.1,0.0,-0.5235987755982988,0,-0.13920245,-1.0598917,-2.7069852,-0.06358214,-0.0029815184,1.4761033,0.82594293,0.2578161,-0.6607959,1.68736,0.9569212,0.35435048,1.5013785,-0.22829568
0.0,0.0,1.1,0.0,-0.5235987755982988,0,-0.13920245,-1.0598917,-2.7069852,-0.06358214,-0.0029815184,1.4761033,0.82594293,0.2578161,-0.6607959,1.68736,0.9569212,0.35435048,1.5013785,-0.22829568
0.0,0.0,1.1,0.0,-0.5235987755982988,0,-0.13920245,-1.0598917,-2.7069852,-0.06358214,-0.0029815184,1.4761033,0.82594293,0.2578161,-0.6607959,1.68736,0.9569212,0.35435048,1.5013785,-0.22829568
0.0,0.0,1.1,0.0,-0.5235987755982988,0,-0.13920245,-1.0598917,-2.7069852,-0.06358214,-0.0029815184,1.4761033,0.82594293,0.2578161,-0.6607959,1.68736,0.9569212,0.35435048,1.5013785,-0.22829568
0.0,0.0,1.1,0.0,-0.5235987755982988,0,-0.13920245,-1.0598917,-2.7069852,-0.06358214,-0.0029815184,1.4761033,0.82594293,0.2578161,-0.6607959,1.68736,0.9569212,0.35435048,1.5013785,-0.22829568
0.0,0.0,1.1,0.0,-0.5235987755982988,0,-0.13920245,-1.0598917,-2.7069852,-0.06358214,-0.0029815184,1.4761033,0.82594293,0.2578161,-0.6607959,1.68736,0.9569212,0.35435048,1.5013785,-0.22829568
0.0,0.0,1.1,0.0,-0.5235987755982988,0,-0.13623558,-1.095088,-2.6354232,-0.03663657,-0.019656394,1.5221479,1.0162314,0.25217873,-0.6434555,1.6174777,0.8994654,0.2908963,1.524299,0.64489895
0.0,0.0,1.1,0.0,-0.5235987755982988,0,-0.13623558,-1.095088,-2.6354232,-0.03663657,-0.019656394,1.5221479,1.0162314,0.25217873,-0.6434555,1.6174777,0.8994654,0.2908963,1.524299,0.64489895
0.0,0.0,1.1,0.0,-0.5235987755982988,0,-0.13623558,-1.095088,-2.6354232,-0.03663657,-0.019656394,1.5221479,1.0162314,0.25217873,-0.6434555,1.6174777,0.8994654,0.2908963,1.524299,0.64489895
0.0,0.0,1.1,0.0,-0.5235987755982988,0,-0.13623558,-1.095088,-2.6354232,-0.03663657,-0.019656394,1.5221479,1.0162314,0.25217873,-0.6434555,1.6174777,0.8994654,0.2908963,1.524299,0.64489895
0.0,0.0,1.1,0.0,-0.5235987755982988,0,-0.13623558,-1.095088,-2.6354232,-0.03663657,-0.019656394,1.5221479,1.0162314,0.25217873,-0.6434555,1.6174777,0.8994654,0.2908963,1.524299,0.64489895
0.0,0.0,1.1,0.0,-0.5235987755982988,0,-0.13623558,-1.095088,-2.6354232,-0.03663657,-0.019656394,1.5221479,1.0162314,0.25217873,-0.6434555,1.6174777,0.8994654,0.2908963,1.524299,0.64489895
0.0,0.0,1.1,0.0,-0.5235987755982988,0,-0.13623558,-1.095088,-2.6354232,-0.03663657,-0.019656394,1.5221479,1.0162314,0.25217873,-0.6434555,1.6174777,0.8994654,0.2908963,1.524299,0.64489895
0.0,0.0,1.1,0.0,-0.5235987755982988,0,-0.13623558,-1.095088,-2.6354232,-0.03663657,-0.019656394,1.5221479,1.0162314,0.25217873,-0.6434555,1.6174777,0.8994654,0.2908963,1.524299,0.64489895
0.0,0.0,1.1,0.0,-0.5235987755982988,0,-0.13623558,-1.095088,-2.6354232,-0.03663657,-0.019656394,1.5221479,1.0162314,0.25217873,-0.6434555,1.6174777,0.8994654,0.2908963,1.524299,0.64489895
0.0,0.0,1.1,0.0,-0.5235987755982988,0,-0.11721364,-1.0593182,-2.6048102,-0.039376173,0.05093688,1.4700886,0.79961836,0.23055147,-0.6376107,1.6515638,0.9574934,0.33987728,1.4788778,-2.6461217
0.0,0.0,1.1,0.0,-0.5235987755982988,0,-0.11721364,-1.0593182,-2.6048102,-0.039376173,0.05093688,1.4700886,0.79961836,0.23055147,-0.6376107,1.6515638,0.9574934,0.33987728,1.4788778,-2.6461217
0.0,0.0,1.1,0.0,-0.5235987755982988,0,-0.11721364,-1.0593182,-2.6048102,-0.039376173,0.05093688,1.4700886,0.79961836,0.23055147,-0.6376107,1.6515638,0.9574934,0.33987728,1.4788778,-2.6461217
0.0,0.0,1.1,0.0,-0.5235987755982988,0,-0.11721364,-1.0593182,-2.6048102,-0.039376173,0.05093688,1.4700886,0.79961836,0.23055147,-0.6376107,1.6515638,0.9574934,0.33987728,1.4788778,-2.6461217
0.0,0.0,1.1,0.0,-0.5235987755982988,0,-0.11721364,-1.0593182,-2.6048102,-0.039376173,0.05093688,1.4700886,0.79961836,0.23055147,-0.6376107,1.6515638,0.9574934,0.33987728,1.4788778,-2.6461217
0.0,0.0,1.1,0.0,-0.5235987755982988,0,-0.11721364,-1.0593182,-2.6048102,-0.039376173,0.05093688,1.4700886,0.79961836,0.23055147,-0.6376107,1.6515638,0.9574934,0.33987728,1.4788778,-2.6461217
0.0,0.0,1.1,0.0,-0.5235987755982988,0,-0.11721364,-1.0593182,-2.6048102,-0.039376173,0.05093688,1.4700886,0.79961836,0.23055147,-0.6376107,1.6515638,0.9574934,0.33987728,1.4788778,-2.6461217
