sanky1234/BimanualDexCatch/isaacgymenvs/cem_results/May31/football_pose_0.2_0.0_1.2_0.0_0.0_0_2025-06-03.csv
x,y,z,roll,pitch,yaw,robot1/joint1,robot1/joint2,robot1/joint3,robot1/joint4,robot1/joint5,robot1/joint6,robot1/joint7,robot2/joint1,robot2/joint2,robot2/joint3,robot2/joint4,robot2/joint5,robot2/joint6,robot2/joint7
0.2,0.0,1.2,0.0,0.0,0,-0.45663932,-0.3639708,-1.7812785,0.33906823,-0.1402325,1.1075468,-0.4377743,0.43523377,-0.061999165,1.8418086,0.23796026,0.16874383,0.4382747,-1.2309916
0.2,0.0,1.2,0.0,0.0,0,-0.04734796,-0.46105325,-1.8821083,0.35348648,-0.005704558,1.3058752,-0.41953096,0.23820809,-0.25178787,1.9332515,0.27914906,1.0737195,0.013566005,-1.0693804
0.2,0.0,1.2,0.0,0.0,0,-0.15118986,-0.4932803,-1.8932827,0.3729849,-0.050362196,1.4283388,-0.47944462,0.274948,-0.22068815,2.0406485,-0.0017509978,1.1843194,0.2664506,-0.8914597
0.2,0.0,1.2,0.0,0.0,0,-0.11832903,-0.40813464,-1.8457551,0.240941,-0.13929042,1.291024,-0.5310156,0.59672165,-0.15464321,1.8963943,0.1759916,-0.0014499095,0.44018045,-0.97282976
0.2,0.0,1.2,0.0,0.0,0,-0.15295419,-0.4095951,-1.8122334,0.34403148,0.13579543,1.2112149,-0.84082824,0.10403649,-0.30731088,2.087751,0.31914306,0.20681448,0.19246927,-1.4082235
0.2,0.0,1.2,0.0,0.0,0,-0.34845904,-0.47946993,-1.8309331,0.26240298,-0.009373433,1.1554966,-0.45428133,0.19009306,-0.1274333,2.1627831,-0.06614928,-0.025062256,0.43259218,-1.6610231
0.2,0.0,1.2,0.0,0.0,0,-0.48247623,-0.5265117,-1.7732953,0.29663008,-0.03073992,1.1720415,-0.6508868,0.4220401,-0.23034775,1.9679874,-0.0941887,0.35477048,0.2577369,-1.1665965
0.2,0.0,1.2,0.0,0.0,0,-0.42920586,-0.472513,-1.878743,0.17840265,-0.14663117,1.3004682,-0.4388915,0.56079566,-0.15838248,2.0416174,-0.09512718,0.21028635,0.3390064,-0.69522434
0.2,0.0,1.2,0.0,0.0,0,-0.47469348,-0.56015563,-1.8455576,0.35858643,-0.12608826,0.74601305,-0.67591155,0.46150753,-0.3055881,1.894305,-0.32893416,-0.029102845,0.58389175,-0.9905507
0.2,0.0,1.2,0.0,0.0,0,-0.60785645,-0.5730862,-1.8039099,0.33182377,0.1252745,1.1556989,-0.60544914,0.3011605,-0.34369168,2.0021417,-0.4245715,0.06610441,0.7337014,-1.4627806
0.2,0.0,1.2,0.0,0.0,0,-0.5208664,-0.43854547,-1.8469546,0.36202556,-0.05275473,1.2703935,-0.58471155,0.7517358,0.035567883,1.9033134,0.12386056,-0.1723769,0.2994573,-1.3136957
0.2,0.0,1.2,0.0,0.0,0,-0.4104646,-0.4210002,-1.7827251,0.2645482,-0.04609011,1.168159,-0.675924,0.39943862,-0.273854,1.8998476,-0.3619125,0.0010140395,0.56648797,-0.97186977
0.2,0.0,1.2,0.0,0.0,0,-0.20565991,-0.39907002,-1.746141,0.12240672,-0.0027468584,1.1132308,-0.5468753,0.69467664,-0.19144203,1.9210973,0.107500404,-0.25886858,0.11168265,-1.4310244
0.2,0.0,1.2,0.0,0.0,0,-0.66549456,-0.3998032,-1.7749212,0.5107585,0.02570121,1.0110657,-0.63094693,0.67815393,-0.2663633,1.8406177,0.040279202,-0.047631085,0.23847564,-1.6945869
0.2,0.0,1.2,0.0,0.0,0,-0.21753378,-0.43102974,-1.8651612,0.18299243,-0.039014887,1.240458,-0.7036082,0.67326283,-0.28652415,2.0955753,0.1880207,-0.20196125,0.03641947,-0.646213
0.2,0.0,1.2,0.0,0.0,0,-0.41016495,-0.48841766,-1.7783797,0.16532896,0.025750754,1.0649642,-0.7079745,0.16989496,-0.11965776,1.7580022,-0.18666068,-0.28529215,0.3146014,-1.5536568
0.2,0.0,1.2,0.0,0.0,0,-0.5361211,-0.39607134,-1.8440957,0.21143134,-0.08300173,1.2545339,-0.46702135,0.31837595,-0.18322152,1.9652958,0.010339042,-1.0194532,0.33472037,-1.1640702
0.2,0.0,1.2,0.0,0.0,0,-0.61084837,-0.49696952,-1.6807684,0.09073466,-0.12343791,1.2486713,-0.57064223,0.39552677,-0.28373984,2.055978,0.094398215,0.41689646,0.61380875,-1.1939743
0.2,0.0,1.2,0.0,0.0,0,-0.10468191,-0.5019539,-1.8539853,0.27002853,0.010715099,1.4401417,-0.62939703,0.54122883,-0.2696498,1.8659798,0.083327666,0.2275998,0.3213562,-0.9874156
0.2,0.0,1.2,0.0,0.0,0,-0.44673604,-0.42482793,-1.8144358,0.30926916,-0.010103318,1.294344,-0.47584322,0.5718163,-0.20266312,1.8475978,-0.090109296,-0.48597315,0.5434254,-0.59091794
0.2,0.0,1.2,0.0,0.0,0,-0.14773865,-0.5122934,-1.8860729,0.3565145,0.07347163,1.0070922,-0.60763407,0.42404988,-0.15805665,2.127902,0.10046851,0.004563143,0.05598965,-1.4642363
0.2,0.0,1.2,0.0,0.0,0,-0.528024,-0.32989582,-1.7086946,0.038436897,0.11737912,1.2808104,-0.6059924,0.20095894,-0.27354372,1.9527487,-0.016184822,0.4957758,0.027387869,-0.97973603
0.2,0.0,1.2,0.0,0.0,0,-0.6862127,-0.50774544,-1.7728076,0.25448802,-0.013031245,1.1874105,-0.5147352,0.16672193,-0.48051986,1.9024799,0.26291564,-0.4993635,0.2470384,-2.0690784
0.2,0.0,1.2,0.0,0.0,0,-0.45456237,-0.41666016,-1.7949023,0.18632646,-0.19816452,0.88122016,-0.6255304,0.08437368,-0.36306778,1.9596168,0.276183,0.48301363,0.46812588,-1.0697259
0.2,0.0,1.2,0.0,0.0,0,-0.2603633,-0.46514386,-1.8497521,0.19207263,-0.2090691,1.2122626,-0.66360873,0.41721198,-0.23713426,2.0877762,-0.038137786,0.36766103,0.23778786,-0.8690866
0.2,0.0,1.2,0.0,0.0,0,-0.33712545,-0.3874085,-1.7341539,0.2762777,-0.13950036,1.0044221,-0.4861205,0.51868254,-0.20303492,2.0534813,0.0667988,0.45402887,0.30662954,-0.8066332
0.2,0.0,1.2,0.0,0.0,0,-0.12689032,-0.44215968,-1.8166114,0.20003925,0.073721185,1.132771,-0.5985499,0.40164635,-0.35804096,1.9792737,0.12057589,1.4423158,0.08333911,-0.8568591
0.2,0.0,1.2,0.0,0.0,0,-0.5558179,-0.36829636,-1.7906116,0.11818027,-0.06827998,1.1753458,-0.48401672,0.19959208,-0.38260615,1.9429699,-0.19541521,-0.5034546,0.60052073,-1.0478477
0.2,0.0,1.2,0.0,0.0,0,-0.28889668,-0.39961353,-1.7639158,0.2964253,-0.0031327396,0.8947845,-0.6587169,0.29362994,-0.27496526,2.1137915,0.0179351,0.40553516,0.49294332,-1.0729705
0.2,0.0,1.2,0.0,0.0,0,-0.18676066,-0.45468542,-1.7920314,0.15797867,0.08753894,1.3457834,-0.58767074,0.2389893,-0.08519973,2.0986915,0.15874235,0.73673666,0.3525068,-0.71394885
0.2,0.0,1.2,0.0,0.0,0,-0.45863575,-0.48148057,-1.7720228,0.25895575,0.1456722,0.9870383,-0.6879026,0.3910406,-0.26639107,2.0352247,-0.20520766,0.19991179,0.4801567,-1.3601023
0.2,0.0,1.2,0.0,0.0,0,-0.5418122,-0.46845645,-1.8615535,0.5188051,0.009701241,0.81169116,-0.6486844,0.39020848,-0.16196041,2.068424,-0.053789217,0.13384163,0.35969368,-1.2555671
0.2,0.0,1.2,0.0,0.0,0,-0.20108046,-0.3608084,-1.7976247,0.1035489,-0.06937293,1.1528178,-0.63745636,0.23422602,-0.18709278,2.1707244,0.22740683,-0.37210605,0.32111043,-0.60452235
0.2,0.0,1.2,0.0,0.0,0,-0.55214894,-0.49063256,-1.7494028,0.3428405,-0.036028937,1.0018274,-0.5387276,0.5544677,-0.23086071,1.9176236,-0.12638181,0.41545835,0.32159078,-1.4169477
0.2,0.0,1.2,0.0,0.0,0,-0.17667106,-0.5185072,-1.7883797,0.22994557,-0.014410196,0.94976914,-0.49368006,0.7126625,-0.21714632,1.7680805,0.19780116,0.42828807,0.1904916,-0.9991393
0.2,0.0,1.2,0.0,0.0,0,-0.3612479,-0.34175298,-1.891094,0.18894854,0.06456456,1.0161276,-0.8570556,0.56798583,-0.064867646,2.311196,0.12546949,-0.045716606,0.41315314,-1.3456852
0.2,0.0,1.2,0.0,0.0,0,-0.2868135,-0.43579364,-1.8319418,0.13325527,0.015931936,1.261158,-0.7371936,0.3547362,-0.4114087,1.7987716,-0.1598725,-0.464909,0.08772328,-1.3403374
0.2,0.0,1.2,0.0,0.0,0,-0.711881,-0.43680197,-1.7159126,0.40885544,-0.027374167,0.92767215,-0.57742417,0.4788748,-0.14876454,1.975169,-0.10116591,0.46148396,0.30773938,-1.5969039
0.2,0.0,1.2,0.0,0.0,0,-0.56386256,-0.5152508,-1.7731922,0.2522284,0.055044394,1.2294321,-0.71552044,0.41164204,-0.20185252,1.8630711,-0.047713853,0.6598013,0.16290694,-1.8744304
0.2,0.0,1.2,0.0,0.0,0,-0.17997523,-0.40871754,-1.7754091,0.10525021,-0.050385807,1.138538,-0.68891823,0.48894483,-0.151031,2.0775437,0.16339608,0.07521776,-0.01717094,-1.0983835
0.2,0.0,1.2,0.0,0.0,0,-0.35415086,-0.4226642,-1.774004,0.208278,-0.10421129,0.80045444,-0.34109372,0.6874732,-0.34126872,1.92462,-0.11173902,0.29072675,0.5401529,-0.7374334
0.2,0.0,1.2,0.0,0.0,0,-0.21421878,-0.47498643,-1.8095735,0.1946052,-0.05458977,1.3722359,-0.80796206,0.55800873,-0.2672876,1.9755994,0.13588236,0.9545393,0.37525013,-0.7175546
0.2,0.0,1.2,0.0,0.0,0,-0.01007766,-0.5134877,-1.8284839,0.3903113,-0.04276236,1.0031472,-0.6137699,0.43174484,-0.28590474,1.7587593,0.45842063,-0.31043938,0.53097063,-1.5148329
0.2,0.0,1.2,0.0,0.0,0,-0.27901936,-0.4983414,-1.6255021,0.2334816,-0.15467845,0.9802033,-0.6998184,0.25043344,-0.21112025,1.98806,-0.09372348,-0.24031562,0.4148846,-1.1152984
0.2,0.0,1.2,0.0,0.0,0,-0.13933209,-0.4454028,-1.8134253,0.07381329,-0.032004736,1.1756116,-0.6956217,0.4152296,-0.27803606,2.0141146,0.033938333,0.77087754,0.11280962,-1.1321647
0.2,0.0,1.2,0.0,0.0,0,-0.2009826,-0.43638316,-1.7921637,0.18346219,-0.033368066,1.1315279,-0.7167678,0.31642526,-0.21771832,2.0375783,0.015098768,-0.8991723,0.47181684,-1.2908486
0.2,0.0,1.2,0.0,0.0,0,-0.1756904,-0.48760036,-1.8991519,0.31813863,-0.010167593,1.0235695,-0.25128123,0.37226048,-0.14844066,1.8138574,-0.07457752,-0.045618683,0.56088483,-1.9377342
0.2,0.0,1.2,0.0,0.0,0,-0.23986779,-0.4396157,-1.8127061,0.39433968,-0.061278977,1.319607,-0.73284566,0.4555684,-0.4035715,2.001918,0.19279055,-0.51066697,0.00042554297,-1.840524
0.2,0.0,1.2,0.0,0.0,0,-0.3798692,-0.4153504,-1.8917704,0.22243762,-0.1251643,0.9724605,-0.5781593,0.16276337,-0.24572752,1.9531558,0.25767148,-0.103362925,-0.040706534,-0.91719186
0.2,0.0,1.2,0.0,0.0,0,-0.22513467,-0.45085847,-1.7478969,0.30197644,-0.08717564,0.92369026,-0.73876095,0.61150986,-0.14115666,1.952368,0.25096485,0.7483782,0.39166558,-1.0306972
0.2,0.0,1.2,0.0,0.0,0,-0.6374272,-0.46707758,-1.8213211,0.55960065,-0.06027459,0.9922304,-0.7803375,0.4762969,-0.26703092,1.8203082,0.18547863,-0.1679936,-0.024449188,-1.7464187
0.2,0.0,1.2,0.0,0.0,0,-0.18569352,-0.42403015,-1.9052935,0.23873276,-0.099231556,0.9612067,-0.5619302,0.6217545,-0.40357336,2.002847,0.054771855,0.03659697,0.51445526,-1.4961549
0.2,0.0,1.2,0.0,0.0,0,-0.47516692,-0.47538453,-1.7708924,0.56745535,0.10608983,0.9992629,-0.29754087,0.32612854,-0.36403665,1.7291913,0.1613277,0.6213282,0.07519519,0.07123246
0.2,0.0,1.2,0.0,0.0,0,-0.5428346,-0.46191525,-1.8458909,0.2559829,-0.018381355,1.0426508,-0.40764442,0.61246014,-0.19725047,1.9555228,-0.1165088,-0.45668545,0.28510788,-0.8304267
0.2,0.0,1.2,0.0,0.0,0,-0.41213453,-0.52633154,-1.8602817,0.4242814,-0.11039306,0.9306518,-0.7336952,0.50433964,-0.16695085,1.9668716,-0.046271186,-0.24671754,0.34033233,-0.8881801
0.2,0.0,1.2,0.0,0.0,0,-0.32139635,-0.5673165,-1.8514289,0.12810315,0.008436972,1.4362338,-0.42442772,0.098061234,-0.22385727,1.9551114,0.3314203,0.09146037,0.37508053,-0.9911587
0.2,0.0,1.2,0.0,0.0,0,-0.5228866,-0.45719117,-1.8114978,0.28779775,0.02797229,1.006991,-0.46570677,0.109420724,-0.28973657,1.9044204,0.034770295,-0.35329708,0.34213775,-1.2363868
0.2,0.0,1.2,0.0,0.0,0,-0.4615046,-0.43015066,-1.8233461,0.12836206,0.1172361,1.0771478,-0.6416327,0.33016717,-0.23124108,1.7885977,0.3088211,0.38335142,0.2731721,-0.91571814
0.2,0.0,1.2,0.0,0.0,0,-0.4836778,-0.51709944,-1.8041252,0.36932242,0.09566463,1.1251562,-0.61900085,0.23013695,-0.25097337,1.822684,0.049803097,0.33845675,0.3223887,-1.2971207
0.2,0.0,1.2,0.0,0.0,0,-0.50926703,-0.4423221,-1.8436345,0.28648818,0.04956414,1.3349714,-0.4610511,0.2553588,-0.22798745,1.789913,-0.012479431,0.17157665,0.6454391,-0.84305584
0.2,0.0,1.2,0.0,0.0,0,-0.31580678,-0.5098734,-1.8456945,0.1453024,-0.16783758,1.4229121,-0.6936946,0.06524515,-0.17344658,1.9844372,0.117643185,0.4959285,0.17417242,-1.1017191
0.2,0.0,1.2,0.0,0.0,0,-0.2996921,-0.50699806,-1.8984329,0.20059088,0.113298066,1.0321494,-0.6305738,0.40136772,-0.21145175,1.8006482,0.013357835,0.43877718,-0.12413389,-1.3054231
0.2,0.0,1.2,0.0,0.0,0,-0.38881487,-0.49139944,-1.8514671,0.28197742,-0.0221834,1.0236809,-0.679192,0.48319834,-0.22932662,1.9777803,-0.16091053,0.03964274,0.4636326,-1.5194131
0.2,0.0,1.2,0.0,0.0,0,-0.508292,-0.32808855,-1.7984028,0.32012102,0.0052223727,1.2327654,-0.6806501,0.38079497,-0.22972006,2.0430095,-0.056739718,-0.9946476,0.14917786,-1.0702612
0.2,0.0,1.2,0.0,0.0,0,-0.37936145,-0.4424206,-1.9206512,0.2875283,-0.062486265,1.2843553,-0.72455484,0.13567677,-0.150739,2.0613947,0.00025840817,-0.64765817,0.36921495,-0.9391823
0.2,0.0,1.2,0.0,0.0,0,-0.36202413,-0.48646885,-1.8037264,0.32662246,-0.013769315,0.9277341,-0.48564014,0.16084017,-0.2382329,2.0129547,-0.07056687,0.36543712,0.2961546,-0.5787061
0.2,0.0,1.2,0.0,0.0,0,-0.5648936,-0.55472076,-1.7595947,0.23951231,-0.099814184,1.4766701,-0.5868399,0.27668804,-0.5065327,1.5991651,-0.053022537,0.9046843,0.48201296,-2.0093508
0.2,0.0,1.2,0.0,0.0,0,-0.39119574,-0.47131535,-1.8573749,0.38790148,-0.06739672,1.1914973,-0.53242224,0.16278489,-0.31603986,1.8997573,-0.09679812,-0.046838727,0.2801024,-1.3264332
0.2,0.0,1.2,0.0,0.0,0,-0.51933473,-0.42090124,-1.7473044,0.3175713,0.049764592,1.0785893,-0.70179343,0.32426783,-0.24896976,1.8804866,-0.07704586,-0.16393496,0.3329713,-1.0911767
0.2,0.0,1.2,0.0,0.0,0,-0.20695199,-0.43052584,-1.8020941,0.32975742,-0.0138547635,1.3173949,-1.003388,0.363356,-0.39679927,1.6224688,0.22614153,-0.22511284,0.0029118904,-1.1521114
0.2,0.0,1.2,0.0,0.0,0,-0.048986055,-0.47540516,-1.8436245,0.2925637,-0.05919418,0.86246616,-0.65024567,0.17684597,-0.37260512,2.0263655,0.26165283,0.408296,0.074577644,-1.0839471
0.2,0.0,1.2,0.0,0.0,0,-0.27704898,-0.3839729,-1.8923365,0.1334685,0.05203997,1.0010569,-0.5935686,0.38318267,-0.096966274,2.0920994,0.13498989,-0.33829328,-0.011991538,-1.5027486
0.2,0.0,1.2,0.0,0.0,0,-0.19696753,-0.4334111,-1.7588608,0.3089627,-0.100016326,1.0241344,-0.6075889,0.6315289,-0.33793345,1.933692,0.17837419,0.92186403,0.44439018,-1.2486755
0.2,0.0,1.2,0.0,0.0,0,0.0062605916,-0.33482134,-1.9594748,0.025425086,-0.14764653,1.026243,-0.43762326,0.41607442,-0.29733658,1.8811054,0.38485253,-0.8440766,0.28838745,-0.39428857
0.2,0.0,1.2,0.0,0.0,0,-0.637502,-0.5021011,-1.7633853,0.33921576,-0.0014786823,1.1576879,-0.5624505,0.26998672,-0.26578864,1.9289995,-0.15356778,0.68254334,0.3945803,-1.2439792
0.2,0.0,1.2,0.0,0.0,0,-0.6448549,-0.47302204,-1.791785,0.26839295,-0.19580881,1.2748449,-0.62558466,0.35089415,-0.29747388,1.7647849,-0.13591859,0.6028425,0.48584574,-1.1555307
0.2,0.0,1.2,0.0,0.0,0,-0.4594698,-0.4552071,-1.7881888,0.20894353,0.08446745,1.2662868,-0.62772197,0.086088814,-0.3904667,1.8964303,-0.025236998,1.0049794,0.089667566,-0.70027167
0.2,0.0,1.2,0.0,0.0,0,-0.36962184,-0.4828095,-1.8185225,0.34125954,0.044060152,0.95696485,-0.70065826,0.45445654,-0.291204,1.8498569,-0.1442117,-0.8257434,0.15579322,-0.8245712
0.2,0.0,1.2,0.0,0.0,0,-0.4492036,-0.43557495,-1.763221,0.26943097,0.04790373,1.0748061,-0.6395529,0.24752033,-0.31311724,1.9413297,-0.1404054,0.32455343,0.31414077,-1.0954807
0.2,0.0,1.2,0.0,0.0,0,-0.437877,-0.45903417,-1.7327646,0.29342827,-0.020172501,1.0880244,-0.55191046,0.0017732906,-0.4154037,1.8678657,0.26683527,0.63891655,0.41797495,-0.89410216
0.2,0.0,1.2,0.0,0.0,0,-0.35738438,-0.40101832,-1.8100708,0.12691243,-0.018121859,1.2636948,-0.502804,0.16894956,-0.40648672,1.8216411,0.2528366,0.6605696,0.4237217,-0.65069985
0.2,0.0,1.2,0.0,0.0,0,-0.4871813,-0.40798372,-1.787012,0.25985083,-0.10495386,1.3860478,-0.5512027,0.10967072,-0.17840967,2.092166,-0.0480907,0.99122745,0.28950676,-1.0768547
0.2,0.0,1.2,0.0,0.0,0,-0.21325631,-0.43474004,-1.7908512,0.24869488,-0.18149261,1.2119415,-0.58729655,0.5800435,-0.2868543,1.9435295,0.1348246,-0.5346282,0.11568407,-0.572352
0.2,0.0,1.2,0.0,0.0,0,-0.34754604,-0.5171168,-1.7948138,0.28891245,0.26482502,0.8363809,-0.68152106,0.13919826,-0.2659011,1.8740244,0.22965956,-0.06686982,0.323095,-1.514102
0.2,0.0,1.2,0.0,0.0,0,-0.49969378,-0.3944093,-1.7476767,0.41440934,-0.078536905,1.2510926,-0.6522978,0.26040158,-0.14106162,1.8607038,0.41578925,0.17625405,0.35011297,-1.7961212
0.2,0.0,1.2,0.0,0.0,0,-0.27052927,-0.485635,-1.8360232,0.26111165,-0.07527839,1.0025921,-0.6580302,-0.06183474,-0.30863476,1.978652,0.24883734,0.55781513,0.43271753,-1.5078214
0.2,0.0,1.2,0.0,0.0,0,-0.44525936,-0.49735433,-1.6978536,0.28545216,-0.18344392,1.116321,-0.38186327,0.27802232,-0.26625165,1.8568834,0.078896016,0.44498923,-0.2987585,-1.3458935
0.2,0.0,1.2,0.0,0.0,0,-0.2995437,-0.4612605,-1.7225239,0.14526357,-0.08331475,1.0797005,-0.47202298,0.36329564,-0.29875457,1.9669198,0.05653871,0.4713685,0.13163137,-1.5909851
0.2,0.0,1.2,0.0,0.0,0,-0.19126484,-0.39319456,-1.7941376,0.08102926,-0.048926637,0.9109255,-0.51377803,0.19723439,-0.25830996,2.1102855,0.36125672,-1.1845657,0.56641454,-1.657168
0.2,0.0,1.2,0.0,0.0,0,-0.27648225,-0.4699455,-1.8199953,0.32317674,-0.05031894,1.194159,-0.437245,0.11219905,-0.47176304,1.7698638,0.02456981,0.01961264,0.3937123,-1.4180498
0.2,0.0,1.2,0.0,0.0,0,-0.24188158,-0.41736317,-1.8418758,0.16935495,-0.109549396,0.8631753,-0.49412632,0.28646156,-0.34687904,1.9740252,0.012652061,0.5742472,-0.18227962,-1.4644634
0.2,0.0,1.2,0.0,0.0,0,-0.38051358,-0.45351008,-1.7214335,0.4297518,-0.05883564,0.82528555,-0.71191454,0.33055067,-0.37729368,2.0152893,-0.053992137,-0.025168344,0.114718094,-0.46127683
0.2,0.0,1.2,0.0,0.0,0,-0.18972369,-0.47346354,-1.9000325,0.4438419,0.010987378,1.0699867,-0.810357,-0.058261577,-0.38183424,2.0036702,0.32760304,0.5283208,0.122609526,-0.010431276
0.2,0.0,1.2,0.0,0.0,0,-0.22324647,-0.4250444,-1.7998505,0.004489778,0.14389107,0.83984965,-0.56895083,0.2176192,-0.31910658,1.8745302,0.5103587,0.42069644,0.23960203,-1.5272535
0.2,0.0,1.2,0.0,0.0,0,-0.25719872,-0.41107398,-1.8404909,0.24342896,0.16911627,1.301885,-0.60162157,0.040249582,-0.2027308,2.0013041,0.40941665,-0.046344604,0.07529542,-1.0408179
0.2,0.0,1.2,0.0,0.0,0,-0.29437625,-0.43276832,-1.7506199,0.29153553,-0.07217534,1.0264701,-0.83851427,0.5220815,-0.21792899,1.7216591,0.20757222,0.0053164894,-0.0070924377,-1.326693
0.2,0.0,1.2,0.0,0.0,0,-0.3624257,-0.42523766,-1.7408724,0.16120392,-0.035043955,1.009595,-0.636754,0.30848354,-0.18817776,1.868093,0.31842944,0.31756398,0.24061598,-1.2716347
0.2,0.0,1.2,0.0,0.0,0,-0.2587939,-0.47748718,-1.7562174,0.1444088,-0.028036155,1.1682041,-0.5593228,0.73524016,-0.21704854,2.0164483,0.18510729,0.45857957,0.14932476,-1.1242864
0.2,0.0,1.2,0.0,0.0,0,-0.41103026,-0.48907793,-1.7057747,0.4217251,-0.106920086,1.4707254,-0.42809495,0.15952873,-0.14886062,2.0190227,0.23946445,-0.60602856,0.5821732,-1.7701105
0.2,0.0,1.2,0.0,0.0,0,-0.36832184,-0.38967574,-1.7820345,0.18677801,0.08274151,1.3844086,-0.8317387,0.026286608,-0.22513497,2.1276655,0.09452074,0.07567162,0.13100345,-1.3119631
0.2,0.0,1.2,0.0,0.0,0,-0.3235445,-0.44079238,-1.7059499,0.27758214,-0.22134791,1.0378702,-0.52098435,0.7031324,-0.33347055,1.9222431,0.06343953,-1.4690484,0.52284944,-1.1881948
0.2,0.0,1.2,0.0,0.0,0,-0.37516934,-0.5110811,-1.6750883,0.2613143,-0.119737,0.9547905,-0.6297967,0.04689422,-0.4435738,1.8618244,0.2795354,-0.47072035,0.20778333,-1.2589371
0.2,0.0,1.2,0.0,0.0,0,-0.28912753,-0.35415053,-1.8682913,0.34304416,0.028690603,1.2935666,-0.6755403,0.034855746,-0.37210175,1.8973045,0.23210232,0.12694377,0.5228052,-0.39627632
0.2,0.0,1.2,0.0,0.0,0,-0.23872504,-0.38966233,-1.7187687,0.37808335,-0.123018146,0.97996855,-0.7184033,0.33690244,-0.29587984,1.8403214,0.33828524,-0.19185509,0.24696068,-0.85768193
0.2,0.0,1.2,0.0,0.0,0,-0.23127098,-0.41771337,-1.8711967,0.42407238,-0.10840457,1.1309104,-0.5790278,0.3076221,-0.2763498,1.9049782,0.027969858,0.009219157,0.10975501,-1.015042
0.2,0.0,1.2,0.0,0.0,0,-0.21408403,-0.39655805,-1.8514819,0.2389696,-0.10820196,1.0296825,-0.55323476,0.70857114,-0.15078682,1.8375936,0.13056216,0.1276269,-0.11762674,-1.1321986
0.2,0.0,1.2,0.0,0.0,0,-0.3505252,-0.42862862,-1.7351763,0.3663997,-0.109108225,1.1985321,-0.6706396,0.077983,-0.26146555,1.951672,0.35552552,-0.04312363,0.40304434,-0.54758716
0.2,0.0,1.2,0.0,0.0,0,-0.297488,-0.47894552,-1.7304249,0.22635624,-0.2801758,1.2115228,-0.5406132,0.25941208,-0.22403015,2.0348537,-0.0097065205,0.51880026,0.26391554,-0.88606536
0.2,0.0,1.2,0.0,0.0,0,-0.20996898,-0.50719196,-1.8080578,0.19793761,-0.03240559,1.1412905,-0.5601862,0.5429321,-0.31751385,1.7290634,-0.008782942,-0.28965437,0.05166601,-1.6675566
0.2,0.0,1.2,0.0,0.0,0,-0.35865358,-0.40051845,-1.7529578,0.24262862,0.14217249,1.0540284,-0.6689946,0.03835202,-0.47136268,1.8744872,0.06755059,-0.17355779,-0.05478548,-0.6504445
0.2,0.0,1.2,0.0,0.0,0,-0.4193051,-0.39911246,-1.7616253,0.59530044,-0.033635363,1.1147157,-0.57084674,0.5466986,-0.19300306,1.7217989,0.022563761,1.2579591,0.53015137,-1.4443004
0.2,0.0,1.2,0.0,0.0,0,-0.108943515,-0.44885385,-1.8325648,0.28327423,0.12879975,0.81370395,-0.5526691,0.3549709,-0.28833392,2.0102646,0.0067325393,-0.6640434,0.12644067,-1.1429925
0.2,0.0,1.2,0.0,0.0,0,-0.1601448,-0.44360176,-1.9193304,0.24863388,0.13655046,1.407128,-0.60918397,0.28121316,-0.093823776,1.7954764,0.24458383,0.25551665,0.3747658,-0.9151125
0.2,0.0,1.2,0.0,0.0,0,-0.41816467,-0.52499884,-1.7371551,0.43566546,0.020294707,1.4323634,-0.67193455,0.24401571,-0.33820295,1.7652931,-0.015087947,0.44622314,0.2958225,-1.5331972
0.2,0.0,1.2,0.0,0.0,0,-0.32292956,-0.45979777,-1.766354,0.15765569,0.10032287,1.4592257,-0.6086861,0.7323488,-0.236042,1.7963357,0.3615047,0.27024353,0.25554848,-0.5521597
0.2,0.0,1.2,0.0,0.0,0,-0.3960554,-0.4953194,-1.8544123,0.3387211,-0.11764787,0.9892884,-0.6393326,-0.13816918,-0.30194104,2.04282,0.06817734,0.2843891,0.44553995,-1.681329
0.2,0.0,1.2,0.0,0.0,0,-0.3646678,-0.46270013,-1.8102955,0.31845075,0.024011945,1.244248,-0.6489376,0.22217989,-0.2333252,1.7676877,0.23891841,0.40637478,0.44126743,-1.6232914
0.2,0.0,1.2,0.0,0.0,0,-0.41850412,-0.44848067,-1.800511,0.48594657,0.15424868,1.1228018,-0.55506885,0.25926808,-0.14303964,1.9226234,0.18929964,0.26845175,0.04877289,-0.7295597
0.2,0.0,1.2,0.0,0.0,0,-0.30802846,-0.48325032,-1.9131494,0.3144539,0.06547417,1.3132323,-0.65392476,-0.044476606,-0.33954045,1.8376604,0.2783693,-0.1300075,0.6673499,-1.579576
0.2,0.0,1.2,0.0,0.0,0,-0.39382508,-0.4072667,-1.8890264,0.17467445,0.0020490559,1.2886974,-0.6074109,0.09213928,-0.38646033,1.853937,0.06100367,-0.047732152,0.1393494,-0.54636294
0.2,0.0,1.2,0.0,0.0,0,-0.429248,-0.42968678,-1.8091431,0.11689915,-0.00043977427,1.3755482,-0.79920155,0.07680102,-0.5460147,1.7712003,0.11619409,-0.26679334,0.21805313,-1.1953667
0.2,0.0,1.2,0.0,0.0,0,-0.16305417,-0.51053035,-1.8550645,0.10607957,-0.04196364,1.1358001,-0.7733706,0.1428329,-0.10175232,1.9656224,0.2961722,-0.2830493,0.4320723,-1.4133302
0.2,0.0,1.2,0.0,0.0,0,-0.52780324,-0.4327331,-1.8037788,0.31267518,-0.023644619,1.2807962,-0.6796034,-0.05311762,-0.23863047,2.155145,0.011885864,0.19418609,0.123549335,-0.83531165
0.2,0.0,1.2,0.0,0.0,0,-0.64646626,-0.47618237,-1.8380653,0.38925993,0.029205415,1.3376428,-0.5491894,0.18156165,-0.23789231,1.831494,0.24467923,-0.08765032,-0.20962301,-0.33147213
0.2,0.0,1.2,0.0,0.0,0,-0.29334348,-0.3840466,-1.9300253,0.28596926,0.1558471,1.0086548,-0.68363094,0.40942433,-0.14425346,1.9212363,-0.11061681,0.6752616,0.5382356,-1.0983845
0.2,0.0,1.2,0.0,0.0,0,-0.17603071,-0.3391232,-1.7417445,0.35724172,-0.05228887,1.3256062,-0.5868465,0.65969086,-0.22756514,1.7862151,0.1970134,-0.76987195,0.15774496,-1.228104
0.2,0.0,1.2,0.0,0.0,0,-0.256942,-0.41545704,-1.7313974,0.43990517,-0.040470038,1.3464478,-0.6762534,0.11053075,-0.05569721,1.9122804,0.119306654,0.7972529,0.5895006,-0.5784423
0.2,0.0,1.2,0.0,0.0,0,-0.026404379,-0.5546801,-1.7264212,0.44717416,-0.05296815,1.0867261,-0.7478298,0.4869912,-0.11218318,1.8270367,0.17401871,-0.55173033,0.4569879,-1.7090207
0.2,0.0,1.2,0.0,0.0,0,-0.38931522,-0.41844904,-1.6652399,0.2563064,-0.005239544,1.330392,-0.3424848,0.27199042,-0.25391042,1.8368703,0.15856491,1.3977367,0.3757146,-0.19556235
0.2,0.0,1.2,0.0,0.0,0,-0.31823272,-0.42720196,-1.7896513,0.59692,0.0048257597,0.8059987,-0.55356336,0.9323963,-0.1140112,1.9685695,0.33465785,0.18269698,0.17132506,-0.6599456
0.2,0.0,1.2,0.0,0.0,0,-0.514056,-0.42834976,-1.7802283,0.1515083,-0.14006978,1.0036627,-0.7229674,0.31480247,-0.32179064,1.8436656,0.055488102,-0.22586907,0.16534525,-1.143753
0.2,0.0,1.2,0.0,0.0,0,-0.44266316,-0.58559173,-1.7743515,0.28648654,-0.11002058,1.3675741,-0.67671007,0.00080384745,-0.11719605,2.1193883,0.39308572,-0.42444554,0.17231023,-1.1322118
0.2,0.0,1.2,0.0,0.0,0,-0.456195,-0.43233636,-1.8666558,0.3904705,-0.066920035,0.8973219,-0.6429806,0.44998023,-0.11079923,1.9464833,-0.15014496,0.0020420002,0.39697647,-1.0673016
0.2,0.0,1.2,0.0,0.0,0,-0.6458369,-0.4257295,-1.8515282,0.32875487,0.16253655,1.0477052,-0.5059233,0.39711982,-0.3044712,1.6852263,-0.09971267,0.38447338,0.54876375,-1.249536
0.2,0.0,1.2,0.0,0.0,0,-0.33703843,-0.45914346,-1.8963821,0.35084206,0.029751565,1.0332332,-0.6852861,0.17735468,-0.107971296,1.8875668,0.2945101,-0.6892411,0.26963162,-0.5603971
0.2,0.0,1.2,0.0,0.0,0,-0.71447814,-0.35056424,-1.845509,0.38388366,0.028790163,0.99755245,-0.7502731,-0.11063805,-0.3613817,2.1253498,0.041874506,0.3738203,-0.018246975,-1.4568192
0.2,0.0,1.2,0.0,0.0,0,-0.34596294,-0.3529261,-1.7483343,0.31865382,0.06783353,1.1559108,-0.6646745,0.46116045,-0.100713715,1.7127774,0.07254922,0.8093014,0.20860283,-1.2635483
0.2,0.0,1.2,0.0,0.0,0,-0.39395857,-0.4544609,-1.8218087,0.12447671,0.181201,1.1487886,-0.52810085,0.4900217,-0.17442523,1.9129093,-0.06827843,0.19991757,0.17567444,-1.6287705
0.2,0.0,1.2,0.0,0.0,0,-0.6594169,-0.38586885,-1.7842804,0.3675272,0.08003554,1.3502002,-0.4602543,0.26956603,-0.204695,1.834125,0.12722118,0.04872448,0.22765206,-0.8699295
0.2,0.0,1.2,0.0,0.0,0,-0.38626024,-0.5610862,-1.7326925,0.28106502,-0.05039176,1.1298413,-0.53320396,0.14612569,-0.32715172,1.890762,-0.094714776,-0.7669912,0.33207384,-1.1546324
0.2,0.0,1.2,0.0,0.0,0,-0.57466084,-0.4058432,-1.8052028,0.44763988,-0.14274675,0.7971543,-0.44720426,0.12755127,-0.31669223,1.8976282,-0.14595588,1.1127424,0.70589405,-0.6393569
0.2,0.0,1.2,0.0,0.0,0,-0.58310324,-0.44227806,-1.8050498,0.23779939,0.18824106,1.3638809,-0.5025063,0.28674033,-0.28972948,1.9101508,-0.09605666,-0.09928222,0.24956998,-1.197971
0.2,0.0,1.2,0.0,0.0,0,-0.6738156,-0.50381035,-1.7854865,0.33219317,0.028246794,1.2121856,-0.6244437,-0.043603245,-0.35122317,1.9427452,0.09759958,0.3611044,0.4948525,-1.0278403
0.2,0.0,1.2,0.0,0.0,0,-0.4189772,-0.42056012,-1.8389759,0.5310912,-0.026997866,1.0795496,-0.6545761,0.2579209,-0.2780989,1.9161004,-0.1561619,0.37065566,0.35196614,-1.0477638
0.2,0.0,1.2,0.0,0.0,0,-0.21031708,-0.43098107,-1.8531055,0.1946295,-0.06851547,1.0758715,-0.6197407,0.2544921,-0.14643407,1.942312,0.162332,-0.7781401,0.40056226,-1.6811317
0.2,0.0,1.2,0.0,0.0,0,-0.31214792,-0.41013303,-1.7795708,0.30063665,-0.08827029,1.08566,-0.6599863,0.49613044,-0.3759143,1.6719717,0.07003921,0.116803095,-0.115421794,-0.50464314
0.2,0.0,1.2,0.0,0.0,0,-0.35926256,-0.34207463,-1.8260008,0.38830444,-0.078337334,1.4324489,-0.5509131,0.1652266,-0.16324385,1.9577196,0.4581104,0.59908134,-0.07701727,-1.2821529
0.2,0.0,1.2,0.0,0.0,0,-0.38096762,-0.46877298,-1.6210396,0.11101686,-0.08275919,1.3727633,-0.6292832,0.39323795,-0.076533146,2.0539973,0.12642342,0.9484348,0.011186521,-1.7574202
0.2,0.0,1.2,0.0,0.0,0,-0.21924181,-0.44960523,-1.760317,0.38935408,-0.01628918,1.0286558,-0.6575981,0.4132059,-0.24761948,1.7610552,0.40462756,0.3393939,0.15679224,-0.55723464
0.2,0.0,1.2,0.0,0.0,0,-0.4892279,-0.50263846,-1.7860976,0.37778267,-0.11142538,1.0350238,-0.39873317,-0.07844741,-0.35013285,2.0224197,0.18037702,-0.39243323,-0.028274974,-0.58970624
0.2,0.0,1.2,0.0,0.0,0,-0.5667205,-0.3820836,-1.8313019,0.27976644,-0.14073226,1.0884061,-0.54148924,0.35739693,-0.25347182,1.8918766,-0.23138532,0.6969569,0.49559256,-1.5745724
0.2,0.0,1.2,0.0,0.0,0,-0.50251514,-0.39388338,-1.7433413,0.025602838,-0.056902107,1.3578668,-0.46354368,0.18362862,-0.26967213,2.0226295,-0.017052725,-0.26145688,0.10671257,-0.97166485
0.2,0.0,1.2,0.0,0.0,0,-0.5455992,-0.5130421,-1.7245543,0.38057318,0.12101505,1.1109985,-0.74590313,0.44865674,-0.22258486,2.0380406,-0.016445072,0.33563638,0.5555054,-1.227785
0.2,0.0,1.2,0.0,0.0,0,-0.65181816,-0.33708802,-1.8943015,0.16806725,0.16024867,1.195865,-0.59508413,0.12638967,-0.2682443,1.915063,0.12671061,0.49595,0.47666818,-1.4027586
0.2,0.0,1.2,0.0,0.0,0,-0.62558633,-0.32011023,-1.7809834,0.424779,0.09642364,0.86627084,-0.4854131,0.17076872,-0.08850448,1.890333,0.21753849,1.5416874,0.36935407,-1.1896352
0.2,0.0,1.2,0.0,0.0,0,-0.44474903,-0.50560987,-1.8112395,0.43228492,-0.27422145,1.2057443,-0.7733269,0.25776297,-0.30078152,1.8308604,-0.124724984,0.6687138,0.69970137,-1.1632879
0.2,0.0,1.2,0.0,0.0,0,-0.2981646,-0.4762338,-1.6437993,0.12576088,-0.054326862,1.126591,-0.50725204,0.49636546,0.18939158,1.8917344,-0.026847018,0.015598606,0.3480658,-1.8452749
0.2,0.0,1.2,0.0,0.0,0,-0.5197477,-0.503697,-1.8663278,0.39727312,0.054903224,1.1740761,-0.42940348,0.1740107,-0.215826,1.927932,0.14694387,-0.30627385,0.09289071,-0.7065004
0.2,0.0,1.2,0.0,0.0,0,-0.38286066,-0.45958236,-1.8650969,0.30605364,-0.18931189,0.879705,-0.6461925,0.056301408,-0.24520938,1.9627554,0.15823345,0.43011114,0.15339117,-0.8135634
0.2,0.0,1.2,0.0,0.0,0,-0.5861448,-0.43049592,-1.7914382,0.2996886,-0.12335028,0.96714365,-0.4694888,0.51214784,-0.18679911,1.9488608,-0.2055845,0.12284233,0.37881023,-1.6740922
0.2,0.0,1.2,0.0,0.0,0,-0.6509847,-0.4061605,-1.8534579,0.20280237,0.08111895,1.1747882,-0.4936937,0.25417015,-0.37979326,1.9013717,-0.19033998,0.058091298,0.20318785,-1.0027472
0.2,0.0,1.2,0.0,0.0,0,-0.4957971,-0.4216291,-1.7911788,0.2595314,0.0001717759,1.1069348,-0.47951505,0.23219217,-0.2087949,1.8511305,0.020198563,-0.3425256,0.15738982,-0.6328217
0.2,0.0,1.2,0.0,0.0,0,-0.4481082,-0.40155712,-1.8212979,0.42638794,-0.0008652514,1.0797517,-0.83689857,0.009749216,-0.34801677,1.905392,0.20749047,-0.2097739,0.14344479,-0.51675564
0.2,0.0,1.2,0.0,0.0,0,-0.39061216,-0.49739993,-1.8079573,0.33622512,0.094251625,0.9664372,-0.61390674,0.2555588,-0.23784272,1.73556,0.2366667,0.47305644,-0.14214176,-0.9468431
0.2,0.0,1.2,0.0,0.0,0,-0.32969248,-0.47373658,-1.8237231,0.3458166,-0.15790692,1.069955,-0.52314484,0.20682088,-0.21815448,1.7969835,0.19326656,-0.25307232,0.34187517,-1.706311
0.2,0.0,1.2,0.0,0.0,0,-0.24909127,-0.50054437,-1.7413936,0.26637295,0.016783446,1.10525,-0.5615484,0.028904084,-0.21431285,2.0116699,0.22229004,-0.38399327,0.13516524,-0.8508637
0.2,0.0,1.2,0.0,0.0,0,-0.40622276,-0.42649236,-1.7987624,0.37452427,-0.06995293,1.1419504,-0.37375098,0.017885942,-0.39132956,1.891619,0.11627927,0.0931188,0.065857805,-1.5344697
0.2,0.0,1.2,0.0,0.0,0,-0.40825844,-0.41761526,-1.7773354,0.45041496,-0.072296076,1.194282,-0.48655134,0.18917675,-0.33175445,1.7733256,0.23710148,0.75777,0.11668799,-0.8476891
0.2,0.0,1.2,0.0,0.0,0,0.00071907183,-0.3438656,-1.9010531,0.11579255,0.10569908,1.1134803,-0.54968864,0.29596964,-0.4559028,1.8592126,0.19080184,-0.4656613,0.427734,-0.53770155
0.2,0.0,1.2,0.0,0.0,0,-0.15847209,-0.29101038,-1.8438257,0.1738088,-0.066065334,1.3382157,-0.69873065,0.41922757,-0.49023578,1.7919862,0.22298393,-0.9049958,0.450044,-0.6410845
0.2,0.0,1.2,0.0,0.0,0,-0.4886541,-0.3734431,-1.8040773,0.3659734,-0.033442978,1.2442223,-0.6451183,0.07552637,-0.18367337,1.9781138,0.22017923,0.22145163,0.38862845,-1.6007587
0.2,0.0,1.2,0.0,0.0,0,-0.43026507,-0.5455392,-1.835573,0.5339729,-0.15750514,1.0835016,-0.8511677,0.7232579,-0.23738572,1.6749268,-0.074013464,-0.3146353,0.32325086,-0.17547679
0.2,0.0,1.2,0.0,0.0,0,-0.41394156,-0.4446241,-1.7741864,0.25078326,-0.009943517,1.30065,-0.5612276,-0.02983671,-0.2533659,2.1747754,-0.10178249,-0.020561079,0.2964611,-0.58067733
0.2,0.0,1.2,0.0,0.0,0,-0.185463,-0.5042646,-1.7911955,0.024175113,-0.056704734,1.2033272,-0.43061075,0.7348312,-0.13153794,1.8293815,0.1196045,-0.11432454,0.109885186,-0.67484903
0.2,0.0,1.2,0.0,0.0,0,-0.53467685,-0.429567,-1.6644019,0.6022581,-0.017522672,1.0793383,-0.64504653,0.46668023,-0.21309327,1.7382252,0.07319944,0.65847945,0.26930195,-1.0539086
0.2,0.0,1.2,0.0,0.0,0,-0.31926426,-0.48811087,-1.7618284,0.29566976,0.07040167,1.1252916,-0.5559111,0.16441283,-0.2717699,1.8357186,0.24125229,0.70397365,0.20841634,-1.3778627
0.2,0.0,1.2,0.0,0.0,0,-0.18583547,-0.54019964,-1.8359151,0.38018444,-0.13851365,1.2570282,-0.6388745,0.27119496,-0.23379911,1.8883463,-0.017169904,-0.18430513,0.6274084,-1.1465045
0.2,0.0,1.2,0.0,0.0,0,-0.3139134,-0.44810167,-1.7745006,0.24449824,0.17115359,1.2652766,-0.5898797,0.37607187,-0.26883435,1.7075417,0.16543809,-0.19182159,0.6832716,-1.6581957
0.2,0.0,1.2,0.0,0.0,0,-0.44937605,-0.47903508,-1.7049339,0.4262921,-0.06949234,0.93539995,-0.61243445,0.48612452,-0.27796662,1.9207447,-0.1885464,0.21139766,0.50592047,-1.0921471
0.2,0.0,1.2,0.0,0.0,0,-0.29221764,-0.41982082,-1.6823347,0.20526996,0.016451953,0.875431,-0.70814985,0.25462154,-0.325251,1.8217772,0.272835,-0.34104326,0.30529362,-1.1215308
0.2,0.0,1.2,0.0,0.0,0,-0.3328509,-0.42028382,-1.7915593,0.19940005,0.0014308414,1.3884777,-0.857063,0.13345702,-0.2975162,1.8634963,0.2527436,0.8111334,0.29798794,-1.9219657
0.2,0.0,1.2,0.0,0.0,0,-0.4379345,-0.3838603,-1.6457502,0.24992573,-0.0830728,1.3557832,-0.5601043,0.37827486,-0.1898085,2.0028305,0.097607315,-0.71982986,0.09272512,-1.9543241
0.2,0.0,1.2,0.0,0.0,0,-0.34718955,-0.4613447,-1.7742344,0.49916482,0.012454303,1.2807499,-0.4371229,0.2621515,-0.27459633,1.855375,0.19152458,-1.0195525,0.22739188,-1.2298559
0.2,0.0,1.2,0.0,0.0,0,-0.24042137,-0.42471513,-1.8047276,0.15751687,-0.13611813,1.1911049,-0.37805134,0.32095543,-0.23437802,1.9173539,0.11213885,-0.26929346,0.68107325,-0.6373541
0.2,0.0,1.2,0.0,0.0,0,-0.17996672,-0.4024481,-1.8487027,0.2627036,-0.048769422,1.1898658,-0.49308595,0.5383104,-0.4357583,1.6356091,0.02937152,-0.3822012,0.26226363,0.18769336
0.2,0.0,1.2,0.0,0.0,0,-0.15907112,-0.51315165,-1.7578349,0.20131323,-0.13321559,0.8973746,-0.56667584,0.18704753,-0.29552487,1.9587588,0.10895045,-0.66243106,0.33841717,-1.0725927
0.2,0.0,1.2,0.0,0.0,0,-0.21180665,-0.39507982,-1.7582277,0.161071,0.005219067,1.2087052,-0.6043946,0.36925343,-0.20456119,1.889813,0.29848263,-0.6268999,0.56339926,-0.3232722
0.2,0.0,1.2,0.0,0.0,0,-0.6611666,-0.4241958,-1.7823228,-0.015424524,0.047542542,1.374219,-0.7189372,-0.18173501,-0.14413859,2.1338165,-0.042376764,-0.005634801,0.44184947,-0.7878675
0.2,0.0,1.2,0.0,0.0,0,-0.4210698,-0.42941406,-1.8599452,0.032164812,-0.07520437,1.2844081,-0.8266309,0.5453679,-0.29080394,1.9398384,-0.24829467,-0.30879375,-0.094215214,-1.1268998
0.2,0.0,1.2,0.0,0.0,0,-0.45750734,-0.39515534,-1.8197944,0.14511475,0.108556725,1.0782391,-0.6939133,0.34711805,-0.416469,1.7342495,-0.03092403,0.21222968,-0.093448415,-0.9550107
0.2,0.0,1.2,0.0,0.0,0,-0.42782113,-0.44037697,-1.8828399,0.18506604,0.115479425,1.231793,-0.6266213,0.17718859,-0.24578863,1.9288603,-0.051923536,0.021539923,0.24212518,-0.66136307
0.2,0.0,1.2,0.0,0.0,0,-0.48598045,-0.50285006,-1.7862295,0.33237386,-0.1470081,1.3370169,-0.40572864,0.03962776,-0.18394734,2.0277112,0.09794359,-0.4106534,0.40342703,-1.0878448
0.2,0.0,1.2,0.0,0.0,0,-0.3632752,-0.40549597,-1.9258549,0.24650083,-0.06841799,1.1717399,-0.28514943,0.19964275,-0.045419432,2.0320423,0.04621247,-0.08342063,0.32042193,-0.7214229
0.2,0.0,1.2,0.0,0.0,0,-0.30965975,-0.42942902,-1.9067785,0.25413156,-0.11418756,0.99225426,-0.64455366,0.13828214,-0.14761192,1.9923465,0.13679788,-0.4136482,-0.32183778,-1.1740413
0.2,0.0,1.2,0.0,0.0,0,-0.63683426,-0.49326867,-1.6596655,0.25039807,0.08075764,1.0329703,-0.56011754,0.44909298,-0.09374472,1.9928534,0.014652794,0.049653202,-0.103559695,-0.87882775
0.2,0.0,1.2,0.0,0.0,0,-0.45001704,-0.40367344,-1.8937001,0.19734088,-0.01715206,1.18584,-0.56606036,0.110669255,-0.2441273,2.0287628,0.2068804,0.35327932,0.29374546,-0.54218805
0.2,0.0,1.2,0.0,0.0,0,-0.44083628,-0.4734729,-1.9023342,0.38461387,-0.09611637,1.2924803,-0.5238778,0.13291809,-0.21258481,1.8600055,0.34775954,0.5284929,0.23677312,-1.6231853
0.2,0.0,1.2,0.0,0.0,0,-0.5163183,-0.46075687,-1.834793,0.39132375,-0.08191012,0.99150944,-0.5519985,-0.04091817,-0.30123174,2.0237734,-0.27766758,0.7948626,0.80514205,-1.7374923
0.2,0.0,1.2,0.0,0.0,0,-0.50220066,-0.44878897,-1.8724682,0.42174792,-0.114683926,0.89199173,-0.5207452,0.5582161,-0.3040658,1.5144916,0.11932616,1.0844635,0.08711553,-1.635853
0.2,0.0,1.2,0.0,0.0,0,-0.40325838,-0.49100044,-1.7941102,0.26764363,0.059175532,1.1006702,-0.68538535,0.2780401,-0.18826641,1.8150821,0.02915428,-0.061761364,0.043034982,-0.8541246
0.2,0.0,1.2,0.0,0.0,0,-0.40929025,-0.4815053,-1.809378,0.4084804,-0.04129458,0.8262192,-0.70822775,0.25645122,0.010184896,1.9473895,0.2820053,0.3567894,-0.06767342,-0.7125195
0.2,0.0,1.2,0.0,0.0,0,-0.4404133,-0.49215057,-1.7956612,0.231723,-0.11028763,1.2483658,-0.5520591,0.30872846,-0.16752335,1.8582406,0.008067975,-0.68429506,0.53718704,-0.7301451
0.2,0.0,1.2,0.0,0.0,0,-0.38457274,-0.45475626,-1.8063133,0.11636853,0.0069306474,1.3638638,-0.5036165,0.19418865,-0.21649593,1.9155401,0.093309514,0.8220172,0.1818816,-1.2784725
0.2,0.0,1.2,0.0,0.0,0,-0.40807828,-0.4460191,-1.7906127,0.41428763,-0.061557524,0.95972013,-0.42110053,0.3137185,-0.20247911,1.8963045,-0.05908355,0.1223536,0.49282458,-1.4948491
0.2,0.0,1.2,0.0,0.0,0,-0.34822965,-0.45276892,-1.8219593,0.12274138,0.0034025612,1.2281494,-0.40008998,0.16447246,-0.18253182,2.0430686,-0.0034797706,-0.11062627,0.2926349,-0.6335887
0.2,0.0,1.2,0.0,0.0,0,-0.46728483,-0.41903275,-1.8246396,0.26185486,0.058229387,1.3521641,-0.79048336,0.036950592,-0.2667346,1.9505471,0.09965964,0.2678744,0.3405834,-1.3437313
0.2,0.0,1.2,0.0,0.0,0,-0.3701625,-0.4859954,-1.7498451,0.11638031,-0.013630688,1.233178,-0.58482134,0.22158848,-0.25407994,1.9093752,-0.09660096,-0.18421403,0.4182732,-1.1445312
0.2,0.0,1.2,0.0,0.0,0,-0.4175763,-0.49268317,-1.7389224,0.18580917,0.059804495,1.371153,-0.69305515,0.22849078,-0.22579916,2.0040066,-0.0526177,-0.46635363,0.45344496,-0.94317514
0.2,0.0,1.2,0.0,0.0,0,-0.35657936,-0.40657634,-1.8220612,0.34628737,-0.006461518,1.2718436,-0.7554137,0.5178963,-0.19458307,1.8993222,-0.028997274,-0.0012366361,0.43758562,-1.0705924
0.2,0.0,1.2,0.0,0.0,0,-0.77150416,-0.3847761,-1.7885281,0.28995538,0.24904259,1.2703207,-0.69896096,0.08946754,-0.24445929,2.0170133,0.0600298,0.17368694,0.24598405,-1.4800799
0.2,0.0,1.2,0.0,0.0,0,-0.27397537,-0.4571352,-1.8002366,0.3202464,0.052603677,1.269094,-0.666456,0.29250625,-0.18782975,1.8581755,0.18843175,-0.7492927,0.334276,-0.45772153
0.2,0.0,1.2,0.0,0.0,0,-0.31381702,-0.4974944,-1.7541256,0.4575955,0.021410383,1.2860322,-0.5188186,0.2051242,-0.33429042,1.8497528,0.05926147,-0.15975605,0.08356565,-1.0409971
0.2,0.0,1.2,0.0,0.0,0,-0.35146642,-0.49682742,-1.7124243,0.242681,-0.08717214,1.093262,-0.7910877,0.24839458,-0.243249,1.8331093,0.13950029,-0.3301364,0.17890479,-0.5706569
0.2,0.0,1.2,0.0,0.0,0,-0.27783057,-0.37050438,-1.7825588,0.31582022,-0.016063584,1.2841908,-0.54300785,0.2606798,-0.30640027,1.8174244,0.20926028,0.2838193,0.24694926,-1.0079898
0.2,0.0,1.2,0.0,0.0,0,-0.40328303,-0.39168608,-1.6973058,0.32073703,-0.16171898,1.1182921,-0.45092526,0.37522948,-0.29458225,1.8011708,0.118841656,0.59448594,0.28648823,-0.9782592
0.2,0.0,1.2,0.0,0.0,0,-0.45717525,-0.53477895,-1.7549255,0.40519944,0.028542606,1.2331551,-0.6707726,0.1130446,-0.13306972,1.9871346,-0.0011531007,-0.09857247,0.39054042,-0.6484538
0.2,0.0,1.2,0.0,0.0,0,-0.56460804,-0.43266538,-1.7286041,0.112616174,-0.013434793,1.1198754,-0.6080854,0.4181469,-0.18165283,2.0163927,-0.11331031,0.4541567,-0.07311613,-0.7936779
0.2,0.0,1.2,0.0,0.0,0,-0.55875504,-0.39760596,-1.8245246,0.19064519,-0.1525093,1.2608364,-0.5728099,0.23811178,-0.26749244,1.8883364,0.09023115,0.09082306,0.30956984,-0.8287347
0.2,0.0,1.2,0.0,0.0,0,-0.64101446,-0.36672765,-1.8216585,0.26468754,-0.0043108817,1.1344862,-0.45690453,0.44945288,-0.06940648,1.8815149,0.124214314,-0.5658994,0.6329017,-1.0262225
0.2,0.0,1.2,0.0,0.0,0,-0.44238403,-0.34848392,-1.818992,0.43918157,-0.21532126,0.977854,-0.37895358,0.118444875,-0.25782308,1.8941913,0.025128275,0.3177506,0.48273897,-1.9833134
0.2,0.0,1.2,0.0,0.0,0,-0.49146906,-0.47268623,-1.8023826,0.36957386,-0.049180888,1.171765,-0.88576096,0.012489426,-0.13410951,2.073292,0.104474634,-0.16103211,0.2991564,-1.0937476
0.2,0.0,1.2,0.0,0.0,0,-0.45033744,-0.47320148,-1.7764767,0.21017784,0.11730945,1.0048658,-0.48840976,0.2549259,-0.2250051,1.8628304,-0.041047547,-0.066544995,0.60634977,-1.2333547
0.2,0.0,1.2,0.0,0.0,0,-0.31189424,-0.3939025,-1.6575702,0.44096956,-0.14640635,0.7115649,-0.66740453,0.29204398,-0.27083722,1.8440119,0.14118616,-0.18552944,0.40254274,-1.6094073
0.2,0.0,1.2,0.0,0.0,0,-0.6371553,-0.4714015,-1.8677738,0.33429396,0.1540867,1.0768398,-0.55639136,0.30623922,-0.37864926,1.6227814,0.13427436,0.6305897,0.2875288,-1.0053052
0.2,0.0,1.2,0.0,0.0,0,-0.45634672,-0.42154092,-1.7544638,0.296494,0.058490094,0.9638851,-0.54406077,0.44825384,-0.107556485,1.8158642,0.09394323,-0.46660805,0.35951108,-0.4668099
0.2,0.0,1.2,0.0,0.0,0,-0.7095072,-0.4192674,-1.7196405,0.48291436,0.11936762,1.3726189,-0.47353795,0.24107215,-0.10954324,1.8251644,0.23414496,0.52206635,0.48921674,-1.4764061
0.2,0.0,1.2,0.0,0.0,0,-0.52479935,-0.4213477,-1.7994978,0.2978262,-0.0718565,1.2687904,-0.44963425,0.2515866,-0.26447654,1.9223751,-0.0908878,-0.06642578,0.31832555,-0.9738513
0.2,0.0,1.2,0.0,0.0,0,-0.36113173,-0.4772239,-1.7890135,0.29517564,-0.118708,1.061282,-0.7246521,0.2930365,-0.25298622,1.8155773,0.11882108,0.6905077,-0.06676442,-1.8052889
0.2,0.0,1.2,0.0,0.0,0,-0.5497615,-0.47096223,-1.6774906,0.29862666,0.18097249,0.94732547,-0.53801197,0.3812158,-0.22522303,1.8027008,0.02324766,-0.08773159,0.13182923,-1.4819812
0.2,0.0,1.2,0.0,0.0,0,-0.751513,-0.4699038,-1.7023741,0.29260314,-0.11497521,1.2652986,-0.745577,0.45226884,-0.25082973,1.7719617,-0.07249893,-0.08761572,0.48697332,-1.1197953
0.2,0.0,1.2,0.0,0.0,0,-0.60047275,-0.47846666,-1.817073,0.48275873,-0.07539798,1.4726809,-0.5846192,0.11434943,-0.4050417,1.8331678,0.08153813,0.29336122,0.390346,-0.8620473
0.2,0.0,1.2,0.0,0.0,0,-0.24077505,-0.43656003,-1.8119997,0.2315096,-0.018928124,0.951952,-0.6698381,0.0057469695,-0.08053046,2.1947773,0.25364998,-0.30814433,0.5402597,-0.8819993
0.2,0.0,1.2,0.0,0.0,0,-0.43991518,-0.45729303,-1.6830173,0.24039117,-0.033496674,1.3760984,-0.59296256,0.4618105,-0.22262546,1.8183763,0.03498552,-0.52552646,0.34929317,-1.5111881
0.2,0.0,1.2,0.0,0.0,0,-0.55923766,-0.32918665,-1.6820464,0.33812323,-0.037676442,1.3322942,-0.78647685,0.19400653,-0.24569546,1.9462345,0.08178252,0.05761179,0.26604152,-1.5840256
0.2,0.0,1.2,0.0,0.0,0,-0.15427177,-0.41920575,-1.8916053,0.3558079,-0.24116445,0.7087506,-0.26572946,0.3148698,-0.27180007,2.0373633,-0.113161124,-0.43472555,0.45064425,-1.7362309
0.2,0.0,1.2,0.0,0.0,0,-0.37678456,-0.42535806,-1.7492527,0.26629165,-0.19418636,1.0890291,-0.5243404,0.69614106,-0.231251,2.209829,-0.05487562,-0.5111151,0.105119675,-0.86710274
0.2,0.0,1.2,0.0,0.0,0,-0.4448157,-0.49565804,-1.8807604,0.12627776,0.1358778,1.0238056,-0.59483296,0.22021058,-0.18561524,1.9500226,0.057203718,-0.29521897,0.6040904,-0.89470476
0.2,0.0,1.2,0.0,0.0,0,-0.39122143,-0.34997323,-1.8765626,0.28494483,-0.24389052,0.99029,-0.45429602,0.3493821,-0.33631682,1.8616428,-0.12006157,0.61866754,0.06912144,-0.6031248
0.2,0.0,1.2,0.0,0.0,0,-0.0476286,-0.4120686,-1.9690825,0.22686881,0.14065316,0.85004175,-0.62827647,0.36373594,-0.35428855,1.8519423,-0.1003936,-0.5150972,0.47725433,-0.936669
0.2,0.0,1.2,0.0,0.0,0,-0.36773518,-0.48407018,-1.8375417,0.29944497,-0.10253372,1.2205569,-0.49534932,0.107817285,-0.16032898,1.9753197,0.045831937,0.22552866,0.4257103,-1.6152495
0.2,0.0,1.2,0.0,0.0,0,-0.63226813,-0.49408418,-1.787954,0.32557517,0.098839715,1.1753099,-0.7050332,0.30902487,-0.18450269,1.8068501,0.105301775,0.33468238,0.11112654,-1.1127496
0.2,0.0,1.2,0.0,0.0,0,-0.54346544,-0.41151056,-1.7652609,0.17199942,-0.04389858,1.4128717,-0.7829859,0.23751763,-0.29552376,1.8698336,0.10949083,-0.23837864,0.019120833,-1.1752487
0.2,0.0,1.2,0.0,0.0,0,-0.7953583,-0.44585687,-1.732626,0.45479634,-0.07164701,1.1833123,-0.7713834,0.09432549,-0.20673211,1.9602418,0.2994693,-0.026758729,0.2689692,-1.1008304
0.2,0.0,1.2,0.0,0.0,0,-0.769919,-0.46097428,-1.7695487,0.12446989,0.12504914,1.2843817,-0.4005588,0.24649264,-0.20912659,1.9389617,0.22107476,-0.25189742,-0.05347354,-1.1859316
0.2,0.0,1.2,0.0,0.0,0,-0.25081244,-0.45078635,-1.8384324,0.26555216,-0.114505626,0.91086054,-0.8352186,0.09623072,-0.22647399,1.9413024,0.13590166,-0.1495629,0.107068546,-1.2329955
0.2,0.0,1.2,0.0,0.0,0,-0.32465354,-0.45111546,-1.7925828,0.2886694,0.08124862,1.0403936,-0.57050425,0.4462092,-0.16982315,1.6760653,0.13907307,0.037815094,0.38520193,-1.6665603
0.2,0.0,1.2,0.0,0.0,0,-0.37882894,-0.40889943,-1.7035258,0.25803652,-0.11560442,1.2001129,-0.5581677,0.070110396,-0.24155805,1.6840818,0.10345388,-0.20922191,0.21249163,-1.066559
0.2,0.0,1.2,0.0,0.0,0,-0.47320738,-0.42648387,-1.7881656,0.06439072,-0.14971872,1.1457471,-0.3400566,0.35067454,-0.21458815,1.859747,0.2767257,-0.048736565,-0.09304815,0.0673478
0.2,0.0,1.2,0.0,0.0,0,-0.3603752,-0.4817477,-1.9498458,0.3427038,-0.04707711,1.1299462,-0.60693663,0.20009927,-0.19904403,1.9008563,0.023726108,0.34736282,0.2064492,-0.95501405
0.2,0.0,1.2,0.0,0.0,0,-0.43936005,-0.4232545,-1.782374,0.28765514,-0.08974268,0.88171613,-0.4124307,0.25074932,-0.10858929,1.902405,0.11076545,0.40059838,0.40449464,-1.9465497
0.2,0.0,1.2,0.0,0.0,0,-0.53796107,-0.45132047,-1.693165,0.27922148,0.07878649,0.9503895,-0.49958214,0.23179966,-0.35735008,1.8747144,-0.24652342,0.306854,0.7603851,-1.3396301
0.2,0.0,1.2,0.0,0.0,0,-0.49098876,-0.48565137,-1.7681489,0.24466665,-0.09485668,1.358491,-0.864343,0.22568399,-0.14381582,2.0007963,-0.058950506,-0.25122857,0.60173815,-1.568438
0.2,0.0,1.2,0.0,0.0,0,-0.4581352,-0.4714697,-1.825584,0.27562854,-0.02087575,1.172587,-0.60267746,0.2966118,-0.08737419,1.8848394,0.2562302,0.6368714,0.27212593,-1.9045132
0.2,0.0,1.2,0.0,0.0,0,-0.6360628,-0.43808782,-1.8414404,0.20640102,0.12880956,1.08884,-0.5848378,0.24450424,-0.09139226,2.0732005,0.07247099,-0.45143566,0.28356475,-1.2031393
0.2,0.0,1.2,0.0,0.0,0,-0.4599049,-0.4341796,-1.8466408,0.4431133,0.09437291,1.2840422,-0.6234923,0.2728561,-0.10954625,1.8536866,0.22410755,-0.2611472,0.42263862,-1.554466
0.2,0.0,1.2,0.0,0.0,0,-0.5751248,-0.4701189,-1.8837498,0.23978469,-0.07970523,1.0617573,-0.8105701,0.34891808,-0.10202723,1.9890914,-0.02250332,-0.20795164,0.43852323,-1.6031495
0.2,0.0,1.2,0.0,0.0,0,-0.68621844,-0.433822,-1.6999037,-0.17142388,-0.17897362,0.7419208,-0.6075075,0.38356292,-0.031043721,1.8272126,0.5048839,0.88662505,0.280197,-1.4248971
0.2,0.0,1.2,0.0,0.0,0,-0.68621844,-0.433822,-1.6999037,-0.17142388,-0.17897362,0.7419208,-0.6075075,0.38356292,-0.031043721,1.8272126,0.5048839,0.88662505,0.280197,-1.4248971
0.2,0.0,1.2,0.0,0.0,0,-0.68621844,-0.433822,-1.6999037,-0.17142388,-0.17897362,0.7419208,-0.6075075,0.38356292,-0.031043721,1.8272126,0.5048839,0.88662505,0.280197,-1.4248971
0.2,0.0,1.2,0.0,0.0,0,-0.68621844,-0.433822,-1.6999037,-0.17142388,-0.17897362,0.7419208,-0.6075075,0.38356292,-0.031043721,1.8272126,0.5048839,0.88662505,0.280197,-1.4248971
0.2,0.0,1.2,0.0,0.0,0,-0.68621844,-0.433822,-1.6999037,-0.17142388,-0.17897362,0.7419208,-0.6075075,0.38356292,-0.031043721,1.8272126,0.5048839,0.88662505,0.280197,-1.4248971
0.2,0.0,1.2,0.0,0.0,0,-0.68621844,-0.433822,-1.6999037,-0.17142388,-0.17897362,0.7419208,-0.6075075,0.38356292,-0.031043721,1.8272126,0.5048839,0.88662505,0.280197,-1.4248971
0.2,0.0,1.2,0.0,0.0,0,-0.68621844,-0.433822,-1.6999037,-0.17142388,-0.17897362,0.7419208,-0.6075075,0.38356292,-0.031043721,1.8272126,0.5048839,0.88662505,0.280197,-1.4248971
0.2,0.0,1.2,0.0,0.0,0,-0.68621844,-0.433822,-1.6999037,-0.17142388,-0.17897362,0.7419208,-0.6075075,0.38356292,-0.031043721,1.8272126,0.5048839,0.88662505,0.280197,-1.4248971
0.2,0.0,1.2,0.0,0.0,0,-0.7683933,-0.4676749,-1.8663162,0.16873409,0.10886155,0.90593046,-0.6340973,0.6425869,-0.37920144,1.7700046,0.07670131,-0.1484703,0.6912008,-1.118811
0.2,0.0,1.2,0.0,0.0,0,-0.7683933,-0.4676749,-1.8663162,0.16873409,0.10886155,0.90593046,-0.6340973,0.6425869,-0.37920144,1.7700046,0.07670131,-0.1484703,0.6912008,-1.118811
0.2,0.0,1.2,0.0,0.0,0,-0.7683933,-0.4676749,-1.8663162,0.16873409,0.10886155,0.90593046,-0.6340973,0.6425869,-0.37920144,1.7700046,0.07670131,-0.1484703,0.6912008,-1.118811
0.2,0.0,1.2,0.0,0.0,0,-0.7683933,-0.4676749,-1.8663162,0.16873409,0.10886155,0.90593046,-0.6340973,0.6425869,-0.37920144,1.7700046,0.07670131,-0.1484703,0.6912008,-1.118811
0.2,0.0,1.2,0.0,0.0,0,-0.7683933,-0.4676749,-1.8663162,0.16873409,0.10886155,0.90593046,-0.6340973,0.6425869,-0.37920144,1.7700046,0.07670131,-0.1484703,0.6912008,-1.118811
0.2,0.0,1.2,0.0,0.0,0,-0.7683933,-0.4676749,-1.8663162,0.16873409,0.10886155,0.90593046,-0.6340973,0.6425869,-0.37920144,1.7700046,0.07670131,-0.1484703,0.6912008,-1.118811
0.2,0.0,1.2,0.0,0.0,0,-0.7683933,-0.4676749,-1.8663162,0.16873409,0.10886155,0.90593046,-0.6340973,0.6425869,-0.37920144,1.7700046,0.07670131,-0.1484703,0.6912008,-1.118811
0.2,0.0,1.2,0.0,0.0,0,-0.7319064,-0.36298525,-1.764899,0.24708275,-0.020868171,1.0382415,-0.58245486,0.59629965,-0.24934182,1.6258085,0.004698269,0.40071777,0.086240984,-0.16738376
0.2,0.0,1.2,0.0,0.0,0,-0.7319064,-0.36298525,-1.764899,0.24708275,-0.020868171,1.0382415,-0.58245486,0.59629965,-0.24934182,1.6258085,0.004698269,0.40071777,0.086240984,-0.16738376
0.2,0.0,1.2,0.0,0.0,0,-0.7319064,-0.36298525,-1.764899,0.24708275,-0.020868171,1.0382415,-0.58245486,0.59629965,-0.24934182,1.6258085,0.004698269,0.40071777,0.086240984,-0.16738376
0.2,0.0,1.2,0.0,0.0,0,-0.7319064,-0.36298525,-1.764899,0.24708275,-0.020868171,1.0382415,-0.58245486,0.59629965,-0.24934182,1.6258085,0.004698269,0.40071777,0.086240984,-0.16738376
0.2,0.0,1.2,0.0,0.0,0,-0.7319064,-0.36298525,-1.764899,0.24708275,-0.020868171,1.0382415,-0.58245486,0.59629965,-0.24934182,1.6258085,0.004698269,0.40071777,0.086240984,-0.16738376
0.2,0.0,1.2,0.0,0.0,0,-0.7319064,-0.36298525,-1.764899,0.24708275,-0.020868171,1.0382415,-0.58245486,0.59629965,-0.24934182,1.6258085,0.004698269,0.40071777,0.086240984,-0.16738376
0.2,0.0,1.2,0.0,0.0,0,-0.7319064,-0.36298525,-1.764899,0.24708275,-0.020868171,1.0382415,-0.58245486,0.59629965,-0.24934182,1.6258085,0.004698269,0.40071777,0.086240984,-0.16738376
0.2,0.0,1.2,0.0,0.0,0,-0.7319064,-0.36298525,-1.764899,0.24708275,-0.020868171,1.0382415,-0.58245486,0.59629965,-0.24934182,1.6258085,0.004698269,0.40071777,0.086240984,-0.16738376
0.2,0.0,1.2,0.0,0.0,0,-0.7319064,-0.36298525,-1.764899,0.24708275,-0.020868171,1.0382415,-0.58245486,0.59629965,-0.24934182,1.6258085,0.004698269,0.40071777,0.086240984,-0.16738376
0.2,0.0,1.2,0.0,0.0,0,-0.50104463,-0.42988184,-1.8814069,0.091548525,0.058740277,1.3380917,-0.47928417,0.3711933,-0.12503141,1.9452171,0.19914114,-0.15566638,0.38653615,-1.176859
0.2,0.0,1.2,0.0,0.0,0,-0.50104463,-0.42988184,-1.8814069,0.091548525,0.058740277,1.3380917,-0.47928417,0.3711933,-0.12503141,1.9452171,0.19914114,-0.15566638,0.38653615,-1.176859
0.2,0.0,1.2,0.0,0.0,0,-0.50104463,-0.42988184,-1.8814069,0.091548525,0.058740277,1.3380917,-0.47928417,0.3711933,-0.12503141,1.9452171,0.19914114,-0.15566638,0.38653615,-1.176859
0.2,0.0,1.2,0.0,0.0,0,-0.50104463,-0.42988184,-1.8814069,0.091548525,0.058740277,1.3380917,-0.47928417,0.3711933,-0.12503141,1.9452171,0.19914114,-0.15566638,0.38653615,-1.176859
0.2,0.0,1.2,0.0,0.0,0,-0.50104463,-0.42988184,-1.8814069,0.091548525,0.058740277,1.3380917,-0.47928417,0.3711933,-0.12503141,1.9452171,0.19914114,-0.15566638,0.38653615,-1.176859
0.2,0.0,1.2,0.0,0.0,0,-0.50104463,-0.42988184,-1.8814069,0.091548525,0.058740277,1.3380917,-0.47928417,0.3711933,-0.12503141,1.9452171,0.19914114,-0.15566638,0.38653615,-1.176859
0.2,0.0,1.2,0.0,0.0,0,-0.50104463,-0.42988184,-1.8814069,0.091548525,0.058740277,1.3380917,-0.47928417,0.3711933,-0.12503141,1.9452171,0.19914114,-0.15566638,0.38653615,-1.176859
0.2,0.0,1.2,0.0,0.0,0,-0.50104463,-0.42988184,-1.8814069,0.091548525,0.058740277,1.3380917,-0.47928417,0.3711933,-0.12503141,1.9452171,0.19914114,-0.15566638,0.38653615,-1.176859
