sanky1234/BimanualDexCatch/isaacgymenvs/cem_results/May31/football_pose_0.1_0.1_1.4_0.0_0.0_0_2025-05-31.csv
x,y,z,roll,pitch,yaw,robot1/joint1,robot1/joint2,robot1/joint3,robot1/joint4,robot1/joint5,robot1/joint6,robot1/joint7,robot2/joint1,robot2/joint2,robot2/joint3,robot2/joint4,robot2/joint5,robot2/joint6,robot2/joint7
0.1,0.1,1.4,0.0,0.0,0,-0.4116,-0.61976373,-1.200511,-0.52111906,0.48031035,0.24114357,-1.336515,-0.8015638,-1.3914127,-0.9132033,-0.36834657,-1.275897,0.6122752,-1.2144192
0.1,0.1,1.4,0.0,0.0,0,-0.4010652,-0.7651699,-1.1859045,-0.5099174,0.42779496,0.04737348,-1.6175379,-0.9750818,-1.3253981,-0.98643285,-0.30217248,-1.277074,0.0947359,-0.96400255
0.1,0.1,1.4,0.0,0.0,0,-0.29899216,-0.72357434,-1.1995534,-0.5277766,0.4140085,0.06918847,-1.603097,-1.0568147,-1.6374459,-0.76716214,-0.4648631,-1.0073435,0.22170998,-0.8079019
0.1,0.1,1.4,0.0,0.0,0,-0.36868364,-0.6517709,-1.2331884,-0.4853676,0.4766821,0.15938742,-1.5263122,-0.9877559,-1.6444806,-0.8566567,-0.37077662,-0.40458915,0.124091834,-0.63703865
0.1,0.1,1.4,0.0,0.0,0,-0.12258129,-0.7464995,-1.2062395,-0.51081604,0.53082675,0.25407165,-1.6816084,-0.86289257,-1.5064341,-0.83379054,-0.28804272,-1.0840632,0.6148591,-0.7867461
0.1,0.1,1.4,0.0,0.0,0,-0.3077171,-0.6563365,-1.2111715,-0.5271554,0.33692062,0.061149362,-1.2621301,-1.0362468,-1.6256634,-0.6388609,-0.32397985,-1.2415804,0.66461945,-0.79635733
0.1,0.1,1.4,0.0,0.0,0,-0.32474598,-0.75870556,-1.224759,-0.5220172,0.4608444,0.14267607,-2.042181,-0.76001644,-1.451259,-0.86444014,-0.2994603,-1.2227199,0.39017454,-1.0981804
0.1,0.1,1.4,0.0,0.0,0,-0.35990825,-0.70763844,-1.18668,-0.49920195,0.45827267,0.30393946,-1.741277,-0.8976396,-1.424186,-0.82310086,-0.38828906,-1.3692329,0.29497436,-1.6459705
0.1,0.1,1.4,0.0,0.0,0,-0.2908113,-0.72795,-1.2021953,-0.5153811,0.4563462,0.5624007,-2.0404708,-1.0251573,-1.5145494,-0.8675085,-0.29500037,-1.0116178,0.24057345,-0.67290634
0.1,0.1,1.4,0.0,0.0,0,-0.3118693,-0.71407896,-1.2089698,-0.5232778,0.2626574,0.012930847,-1.5899893,-0.9258567,-1.3744608,-0.97405887,-0.26021641,-1.013069,0.300486,-0.96598667
0.1,0.1,1.4,0.0,0.0,0,-0.45504117,-0.62653404,-1.1955636,-0.5186136,0.3794292,0.1827067,-1.6324567,-1.0543076,-1.6467878,-0.8328566,-0.2669878,-1.3189304,0.17053223,-0.35186318
0.1,0.1,1.4,0.0,0.0,0,-0.2409424,-0.77012885,-1.1992778,-0.49971852,0.3355921,0.019419668,-1.6735961,-1.0563349,-1.4751474,-0.780752,-0.32668534,-1.3645669,0.42051628,-0.5974338
0.1,0.1,1.4,0.0,0.0,0,-0.29765674,-0.7528945,-1.2048821,-0.504666,0.39821544,0.23734067,-1.7360194,-1.1696997,-1.3961967,-0.92168564,-0.33160955,-0.88066447,0.453133,-0.45028952
0.1,0.1,1.4,0.0,0.0,0,-0.24407458,-0.70923513,-1.1974128,-0.51324004,0.30587637,0.17008302,-1.4409142,-1.0345548,-1.6052351,-0.8717917,-0.18995565,-0.7310708,0.10961964,-0.76114565
0.1,0.1,1.4,0.0,0.0,0,-0.3071235,-0.72081906,-1.1988219,-0.5021699,0.52950656,0.20284364,-2.0133538,-1.0197287,-1.3962106,-0.8714483,-0.28311023,-1.0274694,0.5294929,-0.9460575
0.1,0.1,1.4,0.0,0.0,0,-0.36712375,-0.71994776,-1.2216138,-0.5037971,0.40357456,0.32097507,-1.6638497,-1.0466474,-1.5486991,-0.8299471,-0.38640338,-0.15003504,0.44518456,0.03282174
0.1,0.1,1.4,0.0,0.0,0,-0.31689477,-0.6817175,-1.202263,-0.5208025,0.50655466,0.15650246,-1.0397078,-0.9260185,-1.4947103,-0.96662647,-0.15510894,-0.7843055,0.5302617,-0.2617799
0.1,0.1,1.4,0.0,0.0,0,-0.38059044,-0.67793083,-1.1910951,-0.52782273,0.39244068,0.40951592,-1.0439613,-0.9936896,-1.5621856,-0.81281906,-0.3907197,-0.60829574,0.29667127,-0.5763683
0.1,0.1,1.4,0.0,0.0,0,-0.3051668,-0.6902978,-1.2025869,-0.50361973,0.4698125,0.19454978,-1.3575555,-0.90593326,-1.4355565,-0.91650254,-0.3637569,-0.7261092,0.49874812,-0.6401812
0.1,0.1,1.4,0.0,0.0,0,-0.3816651,-0.6759252,-1.1903584,-0.5232372,0.36700073,0.2085462,-1.4536084,-0.8872551,-1.483637,-0.846986,-0.3800891,-1.1115375,0.22499274,-0.4571254
0.1,0.1,1.4,0.0,0.0,0,-0.2847055,-0.7631146,-1.1977979,-0.51011086,0.31515875,0.23606975,-1.2998757,-1.0124127,-1.4903382,-0.8707754,-0.3728384,-1.4143121,0.083472036,-0.7802752
0.1,0.1,1.4,0.0,0.0,0,-0.35798696,-0.7086977,-1.2013143,-0.5206138,0.31936854,0.21230136,-1.7387208,-0.8853086,-1.5857923,-0.7629645,-0.31230843,-0.44621262,0.20532298,-0.88426805
0.1,0.1,1.4,0.0,0.0,0,-0.3385821,-0.7648516,-1.1991689,-0.5232347,0.5144838,0.10799232,-1.6603522,-0.99879,-1.5169203,-0.85797346,-0.44715863,-0.89306885,0.190777,-0.81425697
0.1,0.1,1.4,0.0,0.0,0,-0.3104709,-0.7412419,-1.2077755,-0.5012695,0.3492608,-0.015217139,-1.1695822,-0.9347618,-1.4785239,-0.7725037,-0.24701348,-1.4549407,0.4533212,-0.259738
0.1,0.1,1.4,0.0,0.0,0,-0.4460522,-0.6757144,-1.219484,-0.5159571,0.46190917,0.12656039,-1.3340743,-0.8310502,-1.4603287,-0.7957872,-0.32031965,-1.0409896,0.5949914,-0.26616704
0.1,0.1,1.4,0.0,0.0,0,-0.38212353,-0.6630992,-1.2149119,-0.4942944,0.44061577,0.24026358,-1.871681,-0.91078335,-1.5527474,-0.86094856,-0.29950097,-0.28899777,0.3395071,-0.34616286
0.1,0.1,1.4,0.0,0.0,0,-0.26066202,-0.7655745,-1.2237103,-0.4848268,0.53252125,0.3177279,-1.505811,-0.97735983,-1.5143375,-0.79808915,-0.37114707,-1.1684716,0.25288066,-0.50744265
0.1,0.1,1.4,0.0,0.0,0,-0.339251,-0.69506395,-1.2041456,-0.5274457,0.4145217,0.24502817,-1.2571424,-0.89998364,-1.4102615,-0.87895703,-0.5222832,-0.8108201,0.42379364,-1.0546046
0.1,0.1,1.4,0.0,0.0,0,-0.30475238,-0.7348316,-1.2077569,-0.5058247,0.36877024,0.23126258,-1.6970665,-0.92729753,-1.4847245,-0.8250218,-0.3826035,-1.0287058,0.29572654,-0.54027885
0.1,0.1,1.4,0.0,0.0,0,-0.34973893,-0.9036077,-1.1961927,-0.5209367,0.42368948,0.09828341,-1.2001907,-0.92711675,-1.4177017,-0.9302925,-0.31746635,-0.34067383,0.49346524,-0.69107276
0.1,0.1,1.4,0.0,0.0,0,-0.36356014,-0.78878176,-1.2213414,-0.49483684,0.35913816,0.14250684,-2.048545,-0.9612423,-1.5636226,-0.67858005,-0.2955958,-1.476181,0.41019154,-0.37051615
0.1,0.1,1.4,0.0,0.0,0,-0.45100257,-0.6501227,-1.1941917,-0.51829535,0.46270615,0.061479926,-1.5710021,-0.9149689,-1.6968261,-0.79210067,-0.15089272,-1.0168383,0.08996261,-0.4366052
0.1,0.1,1.4,0.0,0.0,0,-0.35715207,-0.5227402,-1.225435,-0.5220492,0.37638673,0.33778682,-1.5213274,-0.9038162,-1.5572004,-0.87986326,-0.42969576,-0.59920335,0.52002823,-0.026661016
0.1,0.1,1.4,0.0,0.0,0,-0.3989365,-0.52708936,-1.2095134,-0.4965127,0.3642342,0.28838128,-1.4460342,-0.9463096,-1.5496404,-0.88166493,-0.433678,-0.57647276,0.7184801,-0.720135
0.1,0.1,1.4,0.0,0.0,0,-0.3943819,-0.78227097,-1.188067,-0.46473396,0.5105904,0.16805093,-1.5687203,-0.9532106,-1.5374471,-0.8000617,-0.36052495,-0.4521187,0.2755524,-0.4617919
0.1,0.1,1.4,0.0,0.0,0,-0.33680558,-0.72654665,-1.2027411,-0.5174459,0.2833314,0.22205266,-1.6661907,-0.9657199,-1.6108054,-0.71508455,-0.3068688,-0.33233237,0.16631792,-0.20525576
0.1,0.1,1.4,0.0,0.0,0,-0.3870995,-0.8001027,-1.1969318,-0.5236431,0.3639367,0.07101961,-1.6262842,-1.0145394,-1.4643621,-0.6790719,-0.31591478,-1.1556858,0.55372983,-0.7849363
0.1,0.1,1.4,0.0,0.0,0,-0.30771407,-0.8285931,-1.2153786,-0.51796585,0.37557757,0.18866329,-1.5062389,-0.9799273,-1.3783993,-0.83356094,-0.27801058,-0.87246454,0.24062574,-0.23292483
0.1,0.1,1.4,0.0,0.0,0,-0.32023928,-0.7763917,-1.2139482,-0.5032203,0.38893113,0.18462293,-1.2210759,-0.872043,-1.5268399,-0.83738,-0.2864083,-0.5807127,0.3032946,-0.91955227
0.1,0.1,1.4,0.0,0.0,0,-0.26795402,-0.6916426,-1.211635,-0.49526405,0.39434913,0.20887756,-1.4715786,-0.99851525,-1.4529419,-0.89883703,-0.24026595,-0.9481542,0.4715772,-0.53541666
0.1,0.1,1.4,0.0,0.0,0,-0.4096604,-0.7305171,-1.2024938,-0.5077556,0.40523493,0.39266327,-1.4522166,-0.9415573,-1.3802537,-0.9652234,-0.3018746,-1.1327142,0.066443175,-0.08662837
0.1,0.1,1.4,0.0,0.0,0,-0.28520563,-0.6416387,-1.2197206,-0.5216498,0.40903175,0.334479,-1.9876753,-1.020516,-1.4875045,-0.9168715,-0.37469742,-0.838934,0.3543798,-1.2525345
0.1,0.1,1.4,0.0,0.0,0,-0.30735454,-0.832174,-1.2012763,-0.48763385,0.37549824,0.20080945,-1.9111848,-0.85079414,-1.619146,-0.81156427,-0.21883039,-0.060383905,0.404691,-0.18026218
0.1,0.1,1.4,0.0,0.0,0,-0.38305968,-0.72036016,-1.1919694,-0.5323224,0.4692107,0.26779887,-2.0627668,-1.0303725,-1.4739676,-0.70600986,-0.40104878,-0.9187936,0.69685304,-0.56060296
0.1,0.1,1.4,0.0,0.0,0,-0.34233463,-0.78552765,-1.1952426,-0.52827114,0.4801291,0.096216045,-1.7579756,-0.9365279,-1.5529387,-0.67577106,-0.41438603,-0.5791935,0.54179496,0.059477277
0.1,0.1,1.4,0.0,0.0,0,-0.32121074,-0.6487192,-1.216621,-0.5163936,0.4156531,0.2696133,-1.9613743,-1.012041,-1.4273379,-0.95018226,-0.3232301,-1.170129,0.32064295,-0.5520554
0.1,0.1,1.4,0.0,0.0,0,-0.35394242,-0.64199597,-1.2240713,-0.53380567,0.3654499,0.20039186,-2.2947464,-0.8900117,-1.5523818,-0.7934573,-0.3668465,-0.83557606,0.25047898,-0.036749393
0.1,0.1,1.4,0.0,0.0,0,-0.3759524,-0.74664706,-1.2001396,-0.5128833,0.34725824,0.014637222,-1.4747893,-0.9515745,-1.5565846,-0.754394,-0.4150175,-0.14787479,0.41199473,-0.5289679
0.1,0.1,1.4,0.0,0.0,0,-0.30026346,-0.74497724,-1.1919506,-0.5286647,0.31851998,0.27014032,-1.3089887,-0.9561087,-1.6254013,-0.81689453,-0.406807,-0.76214576,0.09683637,-0.7442473
0.1,0.1,1.4,0.0,0.0,0,-0.2505768,-0.8231909,-1.1936855,-0.51960784,0.5149197,0.18935451,-1.827267,-1.088098,-1.5291685,-0.8105317,-0.24475597,-0.9646407,0.19555221,-1.4200374
0.1,0.1,1.4,0.0,0.0,0,-0.32129642,-0.6935568,-1.2012923,-0.50737995,0.3310733,0.08175992,-1.4921603,-1.0193577,-1.4112002,-0.84784,-0.19858862,-1.672413,0.48079726,-0.8948909
0.1,0.1,1.4,0.0,0.0,0,-0.34250343,-0.7137805,-1.1946441,-0.49215773,0.5082147,0.45811576,-1.6960676,-0.98577064,-1.528332,-0.79742223,-0.28135487,-0.68341815,0.5813437,-0.64980716
0.1,0.1,1.4,0.0,0.0,0,-0.2966805,-0.79015833,-1.1925081,-0.510409,0.38172725,0.4505088,-1.5089134,-0.99546856,-1.3533117,-0.91213924,-0.27919987,-0.9870003,0.3474425,0.45117784
0.1,0.1,1.4,0.0,0.0,0,-0.3114415,-0.7624636,-1.203202,-0.50799817,0.45653287,0.11979466,-1.9125592,-0.96604806,-1.5451082,-0.7165514,-0.3878938,-0.76220137,0.48091042,-0.9218085
0.1,0.1,1.4,0.0,0.0,0,-0.32357112,-0.7012184,-1.2216663,-0.503257,0.29890513,0.15084407,-1.5735809,-0.91555476,-1.6587735,-0.6308345,-0.25426057,-0.8641374,0.57056123,-0.47665793
0.1,0.1,1.4,0.0,0.0,0,-0.27699134,-0.7665659,-1.2165194,-0.5094688,0.42718393,0.11382558,-1.4374468,-1.055242,-1.4554439,-0.7950673,-0.34110218,-1.1208404,0.42393687,-0.4396611
0.1,0.1,1.4,0.0,0.0,0,-0.2820979,-0.78109956,-1.2007499,-0.5004996,0.49109364,0.2846524,-1.4569038,-1.1481503,-1.4553539,-0.95444244,-0.22114575,-1.3562459,0.0962136,-0.63772947
0.1,0.1,1.4,0.0,0.0,0,-0.34553573,-0.6889868,-1.2187263,-0.49983808,0.32238907,0.04033075,-1.1848474,-1.0934855,-1.4348936,-0.8186956,-0.32947692,-1.2135123,0.4901842,-0.8359233
0.1,0.1,1.4,0.0,0.0,0,-0.3863681,-0.680858,-1.2026796,-0.5254413,0.41754895,0.3158994,-1.6092535,-1.0374509,-1.5560393,-0.8465973,-0.2983266,-0.8231939,0.2142877,-1.2480063
0.1,0.1,1.4,0.0,0.0,0,-0.37059996,-0.70530295,-1.2018297,-0.5323595,0.44738737,-0.045366727,-1.5133241,-0.9945647,-1.4441932,-0.7940876,-0.379094,-1.1530622,0.49539748,-0.3470796
0.1,0.1,1.4,0.0,0.0,0,-0.36902693,-0.7098744,-1.2052696,-0.50404495,0.4181029,0.33214325,-1.6520058,-1.044696,-1.4548309,-0.8721933,-0.32679346,-1.2417197,0.29120547,-0.67125726
0.1,0.1,1.4,0.0,0.0,0,-0.1629259,-0.68229765,-1.2098433,-0.48827478,0.45125198,0.21932495,-1.7997175,-0.9345438,-1.556939,-0.9548533,-0.24773392,-0.9527359,0.5498143,-0.6750731
0.1,0.1,1.4,0.0,0.0,0,-0.43008414,-0.50308764,-1.2175914,-0.506977,0.46389467,0.14546303,-2.0618806,-0.9906952,-1.440599,-1.0007147,-0.4635713,-0.5416988,0.8050409,-0.47935456
0.1,0.1,1.4,0.0,0.0,0,-0.36474413,-0.50306433,-1.2050124,-0.52254164,0.37703964,0.22140864,-1.3063511,-0.9465609,-1.6186664,-0.8847812,-0.26852593,-1.1464723,0.3260499,-0.1319571
0.1,0.1,1.4,0.0,0.0,0,-0.26226118,-0.8719174,-1.2239407,-0.5258005,0.5084507,0.2110453,-2.1175966,-0.87368256,-1.4614483,-0.77923167,-0.27962512,-1.7666621,0.13130142,-1.0561037
0.1,0.1,1.4,0.0,0.0,0,-0.32700872,-0.59005743,-1.2042661,-0.5146448,0.38150573,0.32410392,-1.8567398,-0.95614487,-1.549838,-0.97959614,-0.27150217,-0.54676634,0.43210348,-0.7236733
0.1,0.1,1.4,0.0,0.0,0,-0.2741126,-0.88445044,-1.2109973,-0.50532913,0.35865957,0.2767456,-1.5948459,-1.1337494,-1.45286,-0.78554344,-0.24981,-0.9264107,0.4856871,-0.54445934
0.1,0.1,1.4,0.0,0.0,0,-0.32212195,-0.71802837,-1.2123669,-0.49947232,0.2718243,0.30464125,-1.7914101,-1.106803,-1.4581424,-0.7633693,-0.37616417,-0.73272943,0.7940266,-0.42495266
0.1,0.1,1.4,0.0,0.0,0,-0.39729017,-0.5504045,-1.2083313,-0.52726084,0.34415656,0.22314414,-1.2859194,-0.8486169,-1.5047839,-0.87170357,-0.40769833,-0.8948243,0.55497724,-0.32564953
0.1,0.1,1.4,0.0,0.0,0,-0.26686808,-0.8577443,-1.197459,-0.52050006,0.28190556,0.20654525,-1.6348451,-0.9574053,-1.3675591,-0.88024265,-0.35978454,-1.0103694,0.29911548,-1.2985796
0.1,0.1,1.4,0.0,0.0,0,-0.28459707,-0.83031386,-1.1954794,-0.4885829,0.3792244,0.37656447,-1.8029372,-0.9750153,-1.4928762,-0.69157887,-0.2958105,-1.1285328,0.38517392,-1.7206843
0.1,0.1,1.4,0.0,0.0,0,-0.41175562,-0.5878644,-1.232152,-0.51297545,0.4418633,0.08264327,-1.2001837,-0.90150493,-1.6327541,-0.8253375,-0.20083982,-0.8769411,0.53559494,-0.17564449
0.1,0.1,1.4,0.0,0.0,0,-0.42607006,-0.58481455,-1.2014822,-0.49206555,0.3521446,0.15880992,-1.0621517,-0.83734006,-1.468829,-0.9283481,-0.37248996,-1.1851796,0.24906701,-0.34264237
0.1,0.1,1.4,0.0,0.0,0,-0.32293653,-0.61363846,-1.2082666,-0.5096167,0.44301352,0.1587715,-0.79783237,-0.93184793,-1.691084,-0.6427919,-0.34780833,-1.4721347,0.3640551,-0.68121827
0.1,0.1,1.4,0.0,0.0,0,-0.33864,-0.6207177,-1.1957161,-0.5120395,0.3200956,0.2063751,-1.5072327,-1.0243801,-1.4932929,-0.9204469,-0.39289606,-0.45463255,0.5314226,-0.10590681
0.1,0.1,1.4,0.0,0.0,0,-0.12755425,-0.7614625,-1.2003804,-0.4966551,0.48512256,0.10257833,-1.6852888,-0.94535017,-1.4310294,-0.98884916,-0.23982829,-0.90174633,0.71922344,-0.66283786
0.1,0.1,1.4,0.0,0.0,0,-0.32071012,-0.8078073,-1.2190465,-0.5255782,0.4318486,0.10554291,-1.7016779,-0.9914952,-1.4610124,-0.7249208,-0.2524699,-1.0497636,0.49986318,-0.36393628
0.1,0.1,1.4,0.0,0.0,0,-0.3301443,-0.7796747,-1.2115883,-0.4971386,0.30244452,0.27103332,-1.4082845,-1.1149157,-1.5552918,-0.8260144,-0.23415841,-0.91031885,0.20158389,-1.095128
0.1,0.1,1.4,0.0,0.0,0,-0.2739614,-0.78430706,-1.1933321,-0.5239572,0.41921544,0.074937925,-1.3678317,-0.9919488,-1.7007402,-0.56768024,-0.18826771,-1.2464488,0.40903878,-1.474904
0.1,0.1,1.4,0.0,0.0,0,-0.3305033,-0.7969195,-1.1856611,-0.50093156,0.3560047,0.16440238,-1.8235402,-0.99511737,-1.4633527,-0.7530171,-0.32902017,-1.1674892,0.41982558,-0.5602319
0.1,0.1,1.4,0.0,0.0,0,-0.40270844,-0.7187402,-1.2010683,-0.4981401,0.36729372,0.36638403,-1.304915,-0.8777504,-1.5424794,-0.7211455,-0.4272938,-0.49621257,0.43467188,-0.7774766
0.1,0.1,1.4,0.0,0.0,0,-0.3006806,-0.7731925,-1.2012068,-0.50789404,0.44705626,0.15748475,-1.7257545,-1.0243707,-1.4286191,-0.8561153,-0.30262575,-0.7290974,0.48873556,-0.60440356
0.1,0.1,1.4,0.0,0.0,0,-0.3585636,-0.6588174,-1.2098709,-0.5098838,0.41244185,0.17329182,-1.1963547,-0.90098387,-1.4334158,-0.88772357,-0.330217,-0.91309017,0.6287238,-0.5013878
0.1,0.1,1.4,0.0,0.0,0,-0.32223657,-0.7450458,-1.2095336,-0.5050899,0.43041053,0.20495063,-1.2568471,-0.8891852,-1.6961327,-0.67658144,-0.31143385,-0.78987104,0.017753497,-0.28504822
0.1,0.1,1.4,0.0,0.0,0,-0.3240914,-0.74913156,-1.2105861,-0.5017268,0.43042943,0.25903347,-2.0266244,-0.93621147,-1.516031,-0.7461208,-0.34691316,-0.71119934,0.5950232,-0.16063991
0.1,0.1,1.4,0.0,0.0,0,-0.24446891,-0.7425777,-1.189246,-0.51016694,0.3344858,0.3689138,-1.6062777,-0.8729031,-1.6726214,-0.7026677,-0.24591789,-0.58291453,0.28226364,-0.7876469
0.1,0.1,1.4,0.0,0.0,0,-0.3617341,-0.6654567,-1.2299229,-0.5115582,0.38891554,0.19614331,-1.6974838,-1.0539063,-1.4851876,-0.89643,-0.28474468,-1.1927773,0.23856156,-0.6888624
0.1,0.1,1.4,0.0,0.0,0,-0.36210448,-0.787601,-1.1942577,-0.50491357,0.46732953,0.418401,-1.6629593,-1.1210049,-1.4643092,-0.83962095,-0.3802522,-0.51372933,0.0105280625,0.16295466
0.1,0.1,1.4,0.0,0.0,0,-0.2902582,-0.75613475,-1.1969324,-0.48580477,0.3852654,0.25381142,-1.2875775,-1.036461,-1.4006658,-0.8571903,-0.47336638,-1.2465843,0.2582767,-0.8756626
0.1,0.1,1.4,0.0,0.0,0,-0.3542889,-0.5629274,-1.189373,-0.52215934,0.39027816,0.18800199,-1.6086773,-0.8113321,-1.6322013,-0.84707224,-0.3354348,-1.5131555,0.22392063,-0.5900069
0.1,0.1,1.4,0.0,0.0,0,-0.38296843,-0.5900232,-1.2105526,-0.49436173,0.36028045,-0.03423877,-0.96960545,-0.9198538,-1.6320148,-0.70667714,-0.44361115,-0.961581,0.6415716,-0.54440707
0.1,0.1,1.4,0.0,0.0,0,-0.28218454,-0.75267696,-1.2133462,-0.50036895,0.3174046,0.19966024,-1.5822045,-1.1145715,-1.490829,-0.82911694,-0.3319443,-0.8020706,0.7648092,-0.36827794
0.1,0.1,1.4,0.0,0.0,0,-0.2827082,-0.80876124,-1.1991467,-0.547574,0.37987053,0.31541932,-1.2936466,-1.0501902,-1.4506781,-0.85174507,-0.33978054,-0.6938327,0.46054977,-0.59046507
0.1,0.1,1.4,0.0,0.0,0,-0.30180833,-0.69116294,-1.2077415,-0.4801927,0.33373824,0.23214783,-1.3432078,-1.0124052,-1.4991629,-0.93116903,-0.24474087,-0.900442,0.2383917,-0.9664696
0.1,0.1,1.4,0.0,0.0,0,-0.37043142,-0.7826869,-1.1962638,-0.5170861,0.33864585,0.05616216,-1.1720983,-0.9521711,-1.5721079,-0.8333363,-0.2899048,-0.4101888,0.060870364,-0.26448014
0.1,0.1,1.4,0.0,0.0,0,-0.3839976,-0.76973855,-1.2100834,-0.5409003,0.4635629,0.2573421,-1.4679984,-1.0241627,-1.5326273,-0.7686511,-0.35499933,-0.70358497,0.091372326,-0.7144155
0.1,0.1,1.4,0.0,0.0,0,-0.36520502,-0.6456683,-1.2191999,-0.52446336,0.2842168,0.07671195,-1.8769186,-1.0174301,-1.5339565,-0.91103715,-0.25604525,-0.80985117,-0.033811584,-0.89676875
0.1,0.1,1.4,0.0,0.0,0,-0.37543148,-0.62827694,-1.2073985,-0.5237414,0.42426676,0.24286626,-1.3530904,-1.0401144,-1.5097908,-0.84506315,-0.26468703,-0.9816627,0.6273332,-0.9085172
0.1,0.1,1.4,0.0,0.0,0,-0.29099542,-0.6125031,-1.1964988,-0.49782914,0.50017035,0.3777916,-1.525578,-0.92679036,-1.511356,-0.81166,-0.26987192,-1.6987311,0.53044164,-0.7892032
0.1,0.1,1.4,0.0,0.0,0,-0.36533967,-0.5761458,-1.193194,-0.50983953,0.3700374,0.33111674,-1.1489093,-0.94761425,-1.5778737,-0.85910785,-0.30358058,-1.2147397,0.4100989,-0.25376824
0.1,0.1,1.4,0.0,0.0,0,-0.26940176,-0.7237251,-1.2103181,-0.4782191,0.40517887,0.14490564,-1.6816319,-1.1453791,-1.5884501,-0.88375384,-0.28234428,-0.61155,0.13635428,-0.74020606
0.1,0.1,1.4,0.0,0.0,0,-0.36483657,-0.57480645,-1.1937515,-0.5120836,0.25954473,0.2756989,-1.193694,-0.9568933,-1.5460066,-0.9462309,-0.24443324,-0.7915258,0.32434055,-1.0696936
0.1,0.1,1.4,0.0,0.0,0,-0.34402046,-0.59864974,-1.2191863,-0.5148385,0.38176355,0.31230867,-1.7502936,-0.92075133,-1.4943678,-0.7256326,-0.513346,-0.9679375,0.7195034,-0.456129
0.1,0.1,1.4,0.0,0.0,0,-0.33503848,-0.75607973,-1.2121235,-0.49757308,0.49893048,0.1339651,-1.3257327,-0.99467385,-1.4915208,-0.8153572,-0.3410781,-0.7327407,0.38167307,-0.35775787
0.1,0.1,1.4,0.0,0.0,0,-0.2630611,-0.61926496,-1.2198291,-0.53790396,0.312268,0.13053639,-1.9328928,-0.97275996,-1.6293856,-0.90416825,-0.25128853,-0.16632137,0.29038447,-0.34744582
0.1,0.1,1.4,0.0,0.0,0,-0.26642558,-0.6826789,-1.1854602,-0.5245804,0.3676038,0.16803111,-1.5527669,-0.8906265,-1.5416937,-0.77161455,-0.3520986,-0.8660596,0.6632955,-0.09309223
0.1,0.1,1.4,0.0,0.0,0,-0.29967812,-0.855675,-1.1917459,-0.5245148,0.3981723,0.14755394,-1.73053,-1.0267832,-1.3491871,-0.90178037,-0.3771637,-0.9711245,0.31089562,-0.509605
0.1,0.1,1.4,0.0,0.0,0,-0.23782904,-0.880567,-1.2111441,-0.50347793,0.43403795,0.13784759,-1.482441,-0.87552315,-1.4626224,-0.7710168,-0.2295156,-1.5518328,0.4483231,-0.99822897
0.1,0.1,1.4,0.0,0.0,0,-0.3120982,-0.6704378,-1.2214862,-0.50086004,0.40805027,0.1834041,-1.5607693,-1.0421158,-1.564785,-0.9047585,-0.3496632,-1.067087,0.26422724,0.007384528
0.1,0.1,1.4,0.0,0.0,0,-0.3658526,-0.6968217,-1.2153345,-0.51967794,0.44968984,-0.03216232,-1.8331721,-0.94281274,-1.5502491,-0.84376115,-0.29719627,-0.9363399,0.2793226,-0.58999527
0.1,0.1,1.4,0.0,0.0,0,-0.24003981,-0.662957,-1.1935573,-0.50654835,0.28398037,0.34961078,-1.7843035,-1.0936624,-1.493846,-0.9270663,-0.3109339,-0.7156907,0.42232233,-0.38679954
0.1,0.1,1.4,0.0,0.0,0,-0.3668313,-0.74248695,-1.2014972,-0.49505812,0.3791385,0.18525957,-1.9426669,-0.9751036,-1.3865861,-0.88392043,-0.402387,-0.90401995,0.33334294,-0.52863324
0.1,0.1,1.4,0.0,0.0,0,-0.33796668,-0.7751683,-1.2136211,-0.50173545,0.35781708,0.36469865,-1.6994053,-0.96266145,-1.438217,-0.8546933,-0.33723906,-0.8929345,0.20789431,-0.6197906
0.1,0.1,1.4,0.0,0.0,0,-0.3295274,-0.8016742,-1.2123594,-0.55006254,0.2869474,0.012340049,-1.8598906,-0.96156013,-1.4170704,-0.8781646,-0.19821544,-0.6034307,0.54522604,-0.77766323
0.1,0.1,1.4,0.0,0.0,0,-0.42822698,-0.76889133,-1.1958295,-0.514658,0.3461208,0.18245131,-1.7672452,-0.99852014,-1.4351015,-0.8093932,-0.3880928,-0.6578282,0.4028929,-0.7026691
0.1,0.1,1.4,0.0,0.0,0,-0.35390186,-0.7777589,-1.2148573,-0.53352934,0.26840666,0.2830553,-1.567096,-1.0288877,-1.482517,-0.76812536,-0.23296747,-0.99865144,0.34987518,-0.21734272
0.1,0.1,1.4,0.0,0.0,0,-0.39232656,-0.6385726,-1.227571,-0.51866895,0.3323032,0.17105897,-2.0209112,-0.95791733,-1.5326304,-0.74336565,-0.40682912,-0.882495,0.5512235,-1.2783978
0.1,0.1,1.4,0.0,0.0,0,-0.45720494,-0.5986188,-1.1919,-0.52016425,0.42646378,0.1536458,-1.5658548,-0.9786626,-1.4184319,-0.9470121,-0.29083264,-0.96501017,0.55290127,-0.9425495
0.1,0.1,1.4,0.0,0.0,0,-0.34047338,-0.80478495,-1.1957018,-0.50301987,0.54547906,0.2925136,-1.329978,-0.99266726,-1.448859,-0.83266526,-0.17078768,-0.88440365,0.43815646,-0.82043463
0.1,0.1,1.4,0.0,0.0,0,-0.33554026,-0.8096625,-1.2145967,-0.52375454,0.4770742,0.033543404,-1.7408739,-0.91262263,-1.4807239,-0.81306964,-0.29799485,-0.29128757,0.51807433,-0.15853894
0.1,0.1,1.4,0.0,0.0,0,-0.30588752,-0.77535903,-1.199068,-0.52510047,0.33576825,0.2378107,-1.014067,-0.9501851,-1.5735972,-0.7233501,-0.34240872,-0.84530693,0.3851826,-1.0848662
0.1,0.1,1.4,0.0,0.0,0,-0.40628296,-0.62579215,-1.2031567,-0.51753473,0.42494485,0.18501896,-1.3655733,-1.0391555,-1.6201314,-0.75777763,-0.25347936,-0.71251816,0.6441379,-0.56467706
0.1,0.1,1.4,0.0,0.0,0,-0.35070023,-0.6698188,-1.1931921,-0.46162298,0.3140214,0.1729793,-2.290733,-0.99423146,-1.5483732,-0.8363132,-0.25907427,-1.061255,0.42172608,-0.7908641
0.1,0.1,1.4,0.0,0.0,0,-0.25634605,-0.8406704,-1.1942589,-0.5036644,0.43170202,0.16773136,-1.8081957,-1.0258374,-1.2530607,-1.0237607,-0.28965893,-0.8636362,0.40857652,-1.4654989
0.1,0.1,1.4,0.0,0.0,0,-0.32581425,-0.8022975,-1.2028855,-0.51890755,0.34876558,0.17334428,-1.2361182,-0.95142466,-1.4417986,-0.8876743,-0.24258265,-0.69787276,0.28358904,-1.0297047
0.1,0.1,1.4,0.0,0.0,0,-0.33933544,-0.6284156,-1.2180198,-0.4909073,0.31663397,0.26281765,-1.1351938,-0.93751806,-1.6024888,-0.78311765,-0.28276396,-0.7780255,0.61155903,-0.5525681
0.1,0.1,1.4,0.0,0.0,0,-0.29013664,-0.67202103,-1.2090735,-0.5220847,0.35997748,0.16548371,-1.6075183,-0.95357496,-1.4968079,-0.95951,-0.23712528,-0.603889,0.2573633,-0.6480342
0.1,0.1,1.4,0.0,0.0,0,-0.25913417,-0.71277124,-1.2224917,-0.53060293,0.41027147,0.047577117,-1.8661063,-0.99064463,-1.3917903,-0.941905,-0.2855761,-0.7328788,0.5920321,-0.541979
0.1,0.1,1.4,0.0,0.0,0,-0.31634662,-0.7642582,-1.1952507,-0.5417797,0.31471407,0.2689294,-1.8001078,-1.0333723,-1.5362163,-0.8061139,-0.28870943,-0.42204565,0.4771442,-0.55063224
0.1,0.1,1.4,0.0,0.0,0,-0.44499555,-0.61880744,-1.2025104,-0.53642243,0.40826365,0.36000115,-1.6277149,-0.99816024,-1.4058627,-0.9929985,-0.20051324,-0.8629986,0.6627474,-1.0461919
0.1,0.1,1.4,0.0,0.0,0,-0.38374805,-0.7428978,-1.1846586,-0.48835334,0.40843618,0.31510636,-1.6308715,-1.0495535,-1.5987921,-0.7516501,-0.17372859,-0.7221683,0.47418207,-0.847784
0.1,0.1,1.4,0.0,0.0,0,-0.27084213,-0.7165805,-1.1974585,-0.518822,0.40102494,0.29100934,-1.3265122,-0.9227358,-1.4792844,-0.75127214,-0.35494646,-0.88729113,0.856804,-0.3220975
0.1,0.1,1.4,0.0,0.0,0,-0.38971093,-0.7122191,-1.2155234,-0.52657866,0.3542498,0.052266408,-1.4689498,-0.97987247,-1.5277497,-0.7741898,-0.40188396,-0.30488783,0.61458904,-0.03357509
0.1,0.1,1.4,0.0,0.0,0,-0.32953164,-0.71462744,-1.2053125,-0.52435076,0.3575571,0.019248178,-1.0782446,-1.0383719,-1.6000736,-0.7856826,-0.36542615,-0.33188206,0.46145028,-0.80421966
0.1,0.1,1.4,0.0,0.0,0,-0.36263815,-0.7019258,-1.2277836,-0.5133221,0.35013464,0.18143846,-1.9633981,-1.0097328,-1.4995079,-0.9034667,-0.2209571,-0.5868785,0.1437437,-0.66022056
0.1,0.1,1.4,0.0,0.0,0,-0.28265467,-0.77514607,-1.1979425,-0.48130834,0.39610043,0.24089669,-1.7317795,-0.9242247,-1.6992155,-0.6231453,-0.32105944,-0.52490497,0.5250547,-0.6646255
0.1,0.1,1.4,0.0,0.0,0,-0.38648057,-0.7232496,-1.2204957,-0.48848245,0.5125295,-0.014815824,-1.6707116,-1.025305,-1.5666641,-0.7833272,-0.22636187,-1.0886637,0.31018224,-0.7326379
0.1,0.1,1.4,0.0,0.0,0,-0.26183385,-0.76906353,-1.2041967,-0.48042908,0.37295237,0.41052708,-1.3924683,-0.96451324,-1.589118,-0.7417048,-0.2592245,-0.93203765,0.40902144,-0.48065042
0.1,0.1,1.4,0.0,0.0,0,-0.2841377,-0.7501258,-1.2120148,-0.522611,0.5599046,0.1162706,-1.6346205,-0.97799116,-1.5219507,-0.6894354,-0.38134393,-1.0091474,0.5923546,-1.1531519
0.1,0.1,1.4,0.0,0.0,0,-0.278901,-0.74793553,-1.2157632,-0.48232514,0.458493,0.10322643,-1.56235,-1.0751854,-1.5818835,-0.8458915,-0.27108967,-0.3865045,0.35346264,-0.9162461
0.1,0.1,1.4,0.0,0.0,0,-0.3014165,-0.7227602,-1.219515,-0.49904686,0.35569274,0.048334245,-1.5843346,-0.906736,-1.4538035,-0.85035014,-0.33442008,-0.65572405,0.9279451,-0.50042367
0.1,0.1,1.4,0.0,0.0,0,-0.30333373,-0.7390394,-1.2123567,-0.5090992,0.4686213,0.21733439,-1.3096036,-0.99885166,-1.527228,-0.8595521,-0.26267946,-0.5747934,0.42197046,-0.947673
0.1,0.1,1.4,0.0,0.0,0,-0.24719313,-0.6218515,-1.2029908,-0.5331552,0.47759536,0.18898045,-1.3431181,-1.1074928,-1.6168417,-0.8123189,-0.30040082,-0.569958,0.23032789,-0.32609138
0.1,0.1,1.4,0.0,0.0,0,-0.2681157,-0.5122338,-1.2137609,-0.52011126,0.35109997,0.2099631,-1.7007934,-0.8622586,-1.5693729,-0.9194113,-0.30220503,-1.1006601,0.5574459,-0.4928596
0.1,0.1,1.4,0.0,0.0,0,-0.30464503,-0.81878924,-1.206107,-0.5049442,0.46952936,0.24368396,-1.4742231,-0.96019906,-1.5932385,-0.79261196,-0.3066711,-0.5226089,0.5662219,-0.45742175
0.1,0.1,1.4,0.0,0.0,0,-0.30210063,-0.71301633,-1.1864876,-0.5176475,0.39202407,0.16923085,-1.7389646,-1.0822251,-1.6766487,-0.7485617,-0.18819231,-0.92169356,0.22047997,-0.5723049
0.1,0.1,1.4,0.0,0.0,0,-0.30548793,-0.8695695,-1.1934935,-0.52424115,0.33768415,0.32372937,-1.4678018,-0.9663087,-1.3809805,-0.9049478,-0.19533715,-0.8867599,0.3269383,-0.30817792
0.1,0.1,1.4,0.0,0.0,0,-0.41426325,-0.75197226,-1.1917014,-0.49700677,0.49633437,0.26207003,-1.2521193,-1.1606516,-1.579656,-0.8681317,-0.28247643,-0.390166,0.082108185,-0.93831444
0.1,0.1,1.4,0.0,0.0,0,-0.33703145,-0.7474912,-1.2113204,-0.50372,0.40712506,0.1987819,-1.4839553,-0.94235843,-1.4722935,-0.68811,-0.4720027,-0.93446684,0.47219232,-0.18725158
0.1,0.1,1.4,0.0,0.0,0,-0.2747587,-0.6304242,-1.2355664,-0.5063257,0.374563,0.45342997,-1.6253802,-0.90880984,-1.5774359,-0.8407057,-0.31849864,-0.7021864,0.34383702,-0.292059
0.1,0.1,1.4,0.0,0.0,0,-0.31912997,-0.8909112,-1.2010483,-0.5358416,0.54725915,0.23533407,-1.6613712,-1.0225141,-1.34608,-0.7714591,-0.26398146,-1.1416218,0.52609056,-0.7105523
0.1,0.1,1.4,0.0,0.0,0,-0.11553731,-0.76334864,-1.2155743,-0.50151163,0.25995007,0.2902517,-1.2279904,-0.87868345,-1.4501351,-0.8695165,-0.22259201,-1.3522863,0.77799666,-0.37210292
0.1,0.1,1.4,0.0,0.0,0,-0.3475958,-0.84747636,-1.1889383,-0.50441694,0.28473675,0.23291485,-1.2761799,-0.8995017,-1.2537913,-0.9541795,-0.30436328,-1.0584444,0.46160933,-0.5608379
0.1,0.1,1.4,0.0,0.0,0,-0.32500407,-0.75112146,-1.1874878,-0.52792686,0.46354285,0.106166944,-1.517767,-1.0020213,-1.4422442,-0.83248335,-0.31703272,-1.1238403,0.38974404,-0.931483
0.1,0.1,1.4,0.0,0.0,0,-0.3856974,-0.6006095,-1.2237848,-0.49426162,0.43862057,0.38358888,-1.81204,-1.1121066,-1.4567966,-0.8931565,-0.3410791,-0.7395528,0.6853239,-0.83862
0.1,0.1,1.4,0.0,0.0,0,-0.30003998,-0.6216843,-1.2021065,-0.5070397,0.28664693,0.22514276,-1.5985339,-1.1090416,-1.5577363,-0.96517146,-0.22413234,-0.5437325,0.3647597,-1.2226315
0.1,0.1,1.4,0.0,0.0,0,-0.27796367,-0.8051873,-1.2057618,-0.52150995,0.3243064,0.25803572,-1.5676155,-0.9731533,-1.4281584,-0.8047573,-0.3024009,-1.391869,0.38604805,-0.53083843
0.1,0.1,1.4,0.0,0.0,0,-0.31061324,-0.8322645,-1.2320278,-0.5087098,0.36165884,0.3026794,-1.7238407,-0.97856873,-1.4602559,-0.90694374,-0.39520064,-1.0802879,0.07419104,-0.6470907
0.1,0.1,1.4,0.0,0.0,0,-0.28002527,-0.82849896,-1.2068099,-0.51005495,0.40261823,0.21338128,-1.8369694,-0.87490773,-1.3762535,-0.95660037,-0.4006396,-0.7783122,0.24427606,-0.94033915
0.1,0.1,1.4,0.0,0.0,0,-0.4109191,-0.59699607,-1.1956702,-0.53955346,0.42317432,0.25020638,-1.3692751,-0.9214105,-1.5294322,-0.9229578,-0.22316073,-1.101855,0.42780384,-1.1393658
0.1,0.1,1.4,0.0,0.0,0,-0.30898252,-0.6543797,-1.2147466,-0.5104635,0.45006678,0.26137176,-1.9409138,-0.92855626,-1.6124834,-0.8718113,-0.28733855,-0.32171044,0.2645399,-0.8916576
0.1,0.1,1.4,0.0,0.0,0,-0.2884732,-0.71312445,-1.200322,-0.5102104,0.427168,0.34331524,-1.5442466,-1.0472355,-1.6427444,-0.7968102,-0.30651724,-1.4086952,0.16083026,0.08259029
0.1,0.1,1.4,0.0,0.0,0,-0.34178168,-0.6505657,-1.2184908,-0.51238215,0.5463817,0.15886359,-1.3084077,-0.8950628,-1.5498521,-0.8658331,-0.30608624,-0.68527204,0.61758554,-0.8685281
0.1,0.1,1.4,0.0,0.0,0,-0.44603133,-0.739678,-1.2217963,-0.5112578,0.3899464,0.25609457,-1.5273565,-1.0281146,-1.3255711,-0.9521979,-0.23029391,-1.1463499,0.3001071,-0.5181919
0.1,0.1,1.4,0.0,0.0,0,-0.38253838,-0.6776192,-1.213052,-0.5071207,0.29985723,0.36413372,-1.3202163,-0.9266653,-1.4618288,-0.9096834,-0.35427487,-0.6877883,0.28873876,-1.1892408
0.1,0.1,1.4,0.0,0.0,0,-0.3546332,-0.6478363,-1.2180587,-0.5141108,0.23759243,0.09669207,-1.493454,-1.0694249,-1.5730428,-0.87450683,-0.19365771,-0.69720834,0.30426165,-0.83228326
0.1,0.1,1.4,0.0,0.0,0,-0.3419353,-0.7969303,-1.2099226,-0.48397356,0.42497325,0.030189227,-1.6190594,-0.9538226,-1.5414041,-0.72926563,-0.19772367,-0.768867,0.64834034,-0.32010198
0.1,0.1,1.4,0.0,0.0,0,-0.34611723,-0.65780014,-1.2035944,-0.5190364,0.50733775,0.33358234,-1.388498,-0.83704054,-1.5033197,-0.86129737,-0.34640896,-1.0843138,0.37499157,-0.7200839
0.1,0.1,1.4,0.0,0.0,0,-0.26617673,-0.6852964,-1.2120585,-0.5418514,0.35111082,0.1050655,-1.9353892,-1.0094409,-1.555068,-0.8387231,-0.2909971,-0.9294325,0.3478981,-1.2492328
0.1,0.1,1.4,0.0,0.0,0,-0.29621837,-0.7766514,-1.2197899,-0.5006629,0.4659552,0.2775546,-1.5058806,-1.0103143,-1.3238705,-0.9584624,-0.33396477,-1.073601,0.35608286,-0.9762617
0.1,0.1,1.4,0.0,0.0,0,-0.36589915,-0.7738839,-1.1795098,-0.48368302,0.23446336,0.13888633,-1.5777613,-0.933006,-1.536577,-0.6118423,-0.19405648,-2.1446173,0.5800247,-0.66113186
0.1,0.1,1.4,0.0,0.0,0,-0.35013703,-0.7067589,-1.2060075,-0.52715325,0.5089183,0.109325245,-1.4466963,-1.005486,-1.6102448,-0.7760746,-0.28613532,-0.6472275,0.9575054,-0.34788492
0.1,0.1,1.4,0.0,0.0,0,-0.39624262,-0.6422146,-1.2124127,-0.5130936,0.45927066,0.30978388,-1.6033568,-0.9297018,-1.4636827,-0.9918439,-0.2717333,-0.65146416,0.2236123,-1.2307398
0.1,0.1,1.4,0.0,0.0,0,-0.2575876,-0.75662154,-1.1944132,-0.48449335,0.3947871,0.21479043,-1.3968581,-0.9185835,-1.3807435,-0.9138469,-0.3956657,-0.621984,0.70535254,-0.22996752
0.1,0.1,1.4,0.0,0.0,0,-0.29836354,-0.70164835,-1.203151,-0.49343762,0.42276445,0.291147,-2.0511167,-0.98515934,-1.5096419,-0.87793905,-0.15506175,-1.1800231,0.3840447,-0.5971451
0.1,0.1,1.4,0.0,0.0,0,-0.33149746,-0.7462805,-1.1922705,-0.5246431,0.283286,0.13361081,-1.3352163,-0.96211064,-1.4595011,-0.8909281,-0.2642699,-0.75689566,0.27933967,-0.960388
0.1,0.1,1.4,0.0,0.0,0,-0.32593703,-0.67876816,-1.1948673,-0.49630505,0.28249156,0.4134837,-1.3091425,-0.9646061,-1.5050275,-0.97570646,-0.17458197,-0.8903023,0.1118593,-0.6951349
0.1,0.1,1.4,0.0,0.0,0,-0.31469345,-0.69530606,-1.2242833,-0.49202913,0.37420705,0.14798509,-1.3195888,-0.87583643,-1.4884304,-0.8350665,-0.21417932,-1.2778294,0.61714023,-0.7858795
0.1,0.1,1.4,0.0,0.0,0,-0.29263455,-0.7244772,-1.1884136,-0.5158887,0.39588225,0.29090482,-1.991676,-1.0528605,-1.5870116,-0.824454,-0.2431705,-0.62242573,0.3341532,-0.36347115
0.1,0.1,1.4,0.0,0.0,0,-0.27450958,-0.75115293,-1.2164972,-0.5148184,0.38980827,0.18349878,-1.7211502,-0.9648552,-1.4456973,-0.85246027,-0.23317379,-1.0026226,0.48576134,-0.44904456
0.1,0.1,1.4,0.0,0.0,0,-0.19291818,-0.73599225,-1.2074629,-0.5169152,0.39179492,0.27833554,-1.3647935,-0.98238546,-1.5016851,-0.90029746,-0.24837346,-0.5770794,0.669148,-1.0519445
0.1,0.1,1.4,0.0,0.0,0,-0.3382013,-0.7169823,-1.2103113,-0.5131196,0.51091295,0.20317267,-1.6989357,-0.9826929,-1.4148386,-0.9746925,-0.22645332,-0.6565319,0.34007514,-0.6949299
0.1,0.1,1.4,0.0,0.0,0,-0.30747524,-0.7441372,-1.1968424,-0.4772739,0.4849054,0.046901893,-1.6126158,-1.0105997,-1.4959267,-0.75817496,-0.3671994,-1.0034885,0.53217167,-1.1338848
0.1,0.1,1.4,0.0,0.0,0,-0.09306447,-0.7071905,-1.2196095,-0.5208783,0.43268472,0.20354986,-1.5516664,-0.93560857,-1.6134709,-0.99817574,-0.30584124,-1.0173686,0.2360413,-0.28333396
0.1,0.1,1.4,0.0,0.0,0,-0.31299463,-0.79215056,-1.2092066,-0.4902361,0.46362233,0.24339864,-1.762878,-1.0260094,-1.554718,-0.78989244,-0.31003502,-0.31336358,-0.037167963,-0.6295946
0.1,0.1,1.4,0.0,0.0,0,-0.31652293,-0.59793323,-1.2171884,-0.5133582,0.42634663,0.1556896,-1.6794555,-1.015015,-1.6654042,-0.8536851,-0.29380807,-0.80302256,0.37729436,-0.7831616
0.1,0.1,1.4,0.0,0.0,0,-0.34963393,-0.661477,-1.1991876,-0.5037184,0.41438392,0.33401343,-1.5873682,-1.0255082,-1.523788,-0.7889839,-0.14316161,-1.4373302,0.59829605,-0.1998123
0.1,0.1,1.4,0.0,0.0,0,-0.2516672,-0.7410718,-1.2335585,-0.5240047,0.38327205,0.42567065,-1.5438049,-1.119374,-1.5924041,-0.7834998,-0.27639794,-1.2689394,0.19527541,-0.36554903
0.1,0.1,1.4,0.0,0.0,0,-0.4031105,-0.8070673,-1.2071307,-0.5163973,0.39828157,0.15695737,-1.5031002,-1.0751417,-1.4808973,-0.78377104,-0.25141108,-0.42711428,0.25614047,-0.17902389
0.1,0.1,1.4,0.0,0.0,0,-0.24750197,-0.67637736,-1.1925129,-0.52352744,0.35280883,0.3706509,-1.5157936,-0.9639213,-1.6245341,-0.6887103,-0.4064726,-0.8020833,0.5152612,-1.1666468
0.1,0.1,1.4,0.0,0.0,0,-0.25337029,-0.68383336,-1.1918417,-0.5185668,0.34343785,0.07203218,-1.5786071,-0.9508896,-1.5542707,-0.86773443,-0.2947548,-0.6572917,0.5416134,-0.585066
0.1,0.1,1.4,0.0,0.0,0,-0.3797115,-0.8046928,-1.216611,-0.50102955,0.5419215,-0.06227418,-1.4107534,-1.1047158,-1.3534393,-0.8946468,-0.28724813,-0.84901685,0.26175618,-1.1892018
0.1,0.1,1.4,0.0,0.0,0,-0.33198148,-0.80395454,-1.1949617,-0.51141137,0.3420494,0.3099407,-1.4911716,-1.0369852,-1.5627375,-0.66979635,-0.32031792,-0.72230107,0.56537664,-1.3888019
0.1,0.1,1.4,0.0,0.0,0,-0.40825805,-0.793593,-1.2037636,-0.48539928,0.41962892,0.17889293,-1.569408,-1.09593,-1.5371271,-0.7356395,-0.3074242,-1.0310175,0.35960272,-0.5477627
0.1,0.1,1.4,0.0,0.0,0,-0.4497862,-0.68293,-1.2182353,-0.51456684,0.42592445,0.0713355,-1.4612409,-0.9197217,-1.4563378,-0.77944154,-0.3551598,-0.7278376,0.6552509,-0.29927772
0.1,0.1,1.4,0.0,0.0,0,-0.2846408,-0.67366844,-1.2049992,-0.48922813,0.3024611,0.21785036,-1.523677,-0.95318913,-1.537572,-0.81966734,-0.45965597,-0.81279033,0.4043255,-0.4817014
0.1,0.1,1.4,0.0,0.0,0,-0.3522475,-0.7980296,-1.2060564,-0.48014754,0.4169971,0.17444059,-1.4703459,-1.0158838,-1.405451,-0.88611907,-0.33542544,-0.94781667,0.28333715,-0.7312091
0.1,0.1,1.4,0.0,0.0,0,-0.37230498,-0.75865346,-1.2217863,-0.5048507,0.38832837,0.08447353,-1.6906947,-1.006858,-1.5869635,-0.80466145,-0.36935195,-0.27685124,0.2249697,-0.2974828
0.1,0.1,1.4,0.0,0.0,0,-0.30531883,-0.7631597,-1.2134951,-0.520816,0.32144654,0.074407525,-1.5685652,-1.0282546,-1.5062323,-0.8160569,-0.32968053,-1.4050816,0.33610988,-0.29934925
0.1,0.1,1.4,0.0,0.0,0,-0.3363455,-0.76393974,-1.189022,-0.5011643,0.4235929,0.23423865,-1.3975353,-1.0463414,-1.4059994,-0.7094395,-0.3358242,-1.1575005,0.732583,-0.5240292
0.1,0.1,1.4,0.0,0.0,0,-0.2834574,-0.78501326,-1.2053335,-0.47643644,0.48382977,0.20631953,-1.4878572,-1.0308691,-1.5210142,-0.84504455,-0.26740745,-0.37909916,0.42585286,-0.52890795
0.1,0.1,1.4,0.0,0.0,0,-0.2889167,-0.76515025,-1.2292154,-0.51527685,0.38970765,0.11645451,-1.2240996,-1.0041605,-1.5635054,-0.70036113,-0.27035615,-0.9811428,0.5199877,-1.0472285
0.1,0.1,1.4,0.0,0.0,0,-0.29016867,-0.7472731,-1.2122799,-0.48853356,0.44334993,0.22416624,-1.4744681,-1.0485526,-1.5147079,-0.9112251,-0.21567677,-0.5386695,0.26105663,-0.69446003
0.1,0.1,1.4,0.0,0.0,0,-0.3681029,-0.8325847,-1.2080553,-0.49038163,0.49794152,0.32620555,-1.4843559,-0.9423337,-1.4485854,-0.936083,-0.34907192,-0.2606119,0.31040367,-0.61139065
0.1,0.1,1.4,0.0,0.0,0,-0.31042778,-0.6971521,-1.2123374,-0.47736454,0.3470505,0.2451211,-1.2787865,-1.0457394,-1.5591824,-0.8244417,-0.4280644,-0.22189456,0.50575095,-0.7744326
0.1,0.1,1.4,0.0,0.0,0,-0.24959415,-0.64303,-1.2110124,-0.51101446,0.37667412,0.27646434,-1.2454144,-0.87315434,-1.5711092,-0.78930855,-0.27992243,-1.2934147,0.58394957,-0.5619739
0.1,0.1,1.4,0.0,0.0,0,-0.29665795,-0.65674734,-1.2094817,-0.5190725,0.4164379,0.30148026,-1.7931046,-0.98379165,-1.5031213,-1.0142906,-0.15844527,-0.8561353,0.37269568,-1.3352122
0.1,0.1,1.4,0.0,0.0,0,-0.39627185,-0.5432911,-1.2253201,-0.57476604,0.35863754,0.33703285,-1.4384317,-0.98628366,-1.5974576,-0.9424248,-0.2606781,-0.40351278,0.5187868,-0.7379823
0.1,0.1,1.4,0.0,0.0,0,-0.3011732,-0.8285452,-1.1998638,-0.5007921,0.3349698,0.27292782,-1.3550003,-0.8393348,-1.630186,-0.6823653,-0.3281065,-0.4130484,0.5477041,-0.5664954
0.1,0.1,1.4,0.0,0.0,0,-0.27895114,-0.6190564,-1.207042,-0.5117304,0.47204915,0.22434556,-1.8047196,-1.0364617,-1.684106,-0.8322273,-0.14041747,-0.7591517,0.32634732,-0.16366792
0.1,0.1,1.4,0.0,0.0,0,-0.377782,-0.65121114,-1.1999245,-0.5247795,0.39575878,0.29744118,-1.6430054,-1.0200175,-1.3874738,-1.0312605,-0.37166864,-0.6833531,0.097679175,-0.2837954
0.1,0.1,1.4,0.0,0.0,0,-0.26736096,-0.8028386,-1.1988899,-0.52614784,0.34045598,0.26361486,-1.8181388,-0.9824208,-1.6413468,-0.66763115,-0.28539535,-0.7140447,0.77427053,-0.5634029
0.1,0.1,1.4,0.0,0.0,0,-0.31655583,-0.7787416,-1.196826,-0.50033104,0.5247826,0.25228247,-1.8742442,-0.95855194,-1.4063207,-0.87121063,-0.40818527,-0.6155855,0.43309677,-0.3896401
0.1,0.1,1.4,0.0,0.0,0,-0.23295344,-0.66867054,-1.2189308,-0.5289325,0.2920706,0.24234302,-1.7484168,-1.0516086,-1.5800601,-0.7997543,-0.2366806,-0.9248626,0.5931813,-1.0616988
0.1,0.1,1.4,0.0,0.0,0,-0.3072747,-0.77550906,-1.2036797,-0.5224444,0.39787567,0.21146007,-1.7461461,-1.086281,-1.4860786,-0.83518857,-0.2675105,-1.0891114,0.24498245,-0.37055448
0.1,0.1,1.4,0.0,0.0,0,-0.33493638,-0.6277746,-1.2167631,-0.49489176,0.40658632,0.3029213,-1.2481414,-0.98082626,-1.4478133,-0.9340741,-0.24577156,-1.2352058,0.43495867,-0.2170306
0.1,0.1,1.4,0.0,0.0,0,-0.3395875,-0.6391266,-1.2182753,-0.5062469,0.39853832,0.23019837,-1.4456034,-1.0987092,-1.5554848,-0.740644,-0.24780446,-0.85137784,0.7768075,-0.12762679
0.1,0.1,1.4,0.0,0.0,0,-0.3789104,-0.80807585,-1.2091738,-0.51776636,0.47339997,0.5480755,-1.9263824,-0.995334,-1.4719218,-0.8647423,-0.23439153,-0.4236537,0.10828461,-0.5260708
0.1,0.1,1.4,0.0,0.0,0,-0.37449732,-0.7633698,-1.202531,-0.5316443,0.32563308,-0.01221267,-1.9160976,-1.0122099,-1.3874187,-0.83377117,-0.2504353,-0.81158936,0.5066218,-0.20518337
0.1,0.1,1.4,0.0,0.0,0,-0.323381,-0.7587012,-1.1934006,-0.5307989,0.51081836,0.31782147,-1.5014092,-0.94668466,-1.4847531,-0.84813774,-0.32605746,-0.95014495,0.12772141,-0.8050297
0.1,0.1,1.4,0.0,0.0,0,-0.2955015,-0.81126535,-1.2106696,-0.51747555,0.4358758,0.34681463,-1.6857892,-1.1544234,-1.552557,-0.743763,-0.32652682,-0.81588554,0.5289683,-0.49858546
0.1,0.1,1.4,0.0,0.0,0,-0.32582495,-0.7685067,-1.2298024,-0.49192613,0.5192161,0.077958845,-1.3087572,-1.1111401,-1.4893172,-0.62761873,-0.3097041,-1.0096437,0.7701414,-1.1961169
0.1,0.1,1.4,0.0,0.0,0,-0.3886613,-0.75427973,-1.202102,-0.51264644,0.45303255,0.18542369,-1.2752577,-1.0491648,-1.4281634,-0.59589446,-0.33762118,-1.3177843,0.8330657,-0.83636606
0.1,0.1,1.4,0.0,0.0,0,-0.34206992,-0.71488583,-1.2117772,-0.4989066,0.3925329,0.21102473,-1.3655473,-1.0655106,-1.518184,-0.6872758,-0.25759938,-1.4933491,0.5770354,-0.82787883
0.1,0.1,1.4,0.0,0.0,0,-0.45434162,-0.45098826,-1.1892097,-0.48558298,0.2869035,0.15546721,-1.9458683,-0.9235789,-1.6251391,-0.9350798,-0.36744162,-0.6392629,0.53825164,-1.1075149
0.1,0.1,1.4,0.0,0.0,0,-0.36429074,-0.7879218,-1.2165531,-0.47670275,0.36346254,0.23196992,-1.7189829,-1.0837361,-1.4877753,-0.7740891,-0.25227022,-0.99625045,0.3411357,-0.5532118
0.1,0.1,1.4,0.0,0.0,0,-0.35009414,-0.90792185,-1.1913096,-0.5227636,0.3282868,0.33466572,-1.8572595,-1.0439634,-1.3563014,-0.84860665,-0.2950338,-0.92422503,0.39536527,-0.76399547
0.1,0.1,1.4,0.0,0.0,0,-0.34368473,-0.56855243,-1.1927485,-0.5169227,0.23338366,0.31607094,-1.3522543,-0.96786857,-1.5319607,-0.9291677,-0.3046413,-0.8614607,0.5281648,-0.80609745
0.1,0.1,1.4,0.0,0.0,0,-0.35555053,-0.7668833,-1.1956629,-0.495734,0.32542732,0.12298699,-1.8244629,-1.0860813,-1.5639119,-0.72901446,-0.31040207,-0.61720896,0.4321175,-0.81862
0.1,0.1,1.4,0.0,0.0,0,-0.32961494,-0.56548434,-1.2078736,-0.51127684,0.3261315,0.30942202,-1.9304224,-0.9570205,-1.5476323,-0.9324958,-0.3282611,-0.71596146,0.35813817,-0.20943888
0.1,0.1,1.4,0.0,0.0,0,-0.35213748,-0.8512,-1.1971099,-0.51777357,0.33671597,0.2808389,-1.3773359,-0.94936585,-1.4394106,-0.8820567,-0.288712,-0.78392315,0.1683528,-0.40609297
0.1,0.1,1.4,0.0,0.0,0,-0.31657147,-0.7351195,-1.1983622,-0.5242272,0.31470084,0.16204849,-1.3392738,-0.9021466,-1.247167,-0.9549566,-0.28280577,-1.3663826,0.6478081,-0.47675562
0.1,0.1,1.4,0.0,0.0,0,-0.27974427,-0.78078777,-1.1925424,-0.4994692,0.3598635,0.38922346,-1.6731582,-1.02304,-1.5508778,-0.8352047,-0.2862749,-0.6902128,0.1622835,-0.9251841
0.1,0.1,1.4,0.0,0.0,0,-0.300247,-0.5739838,-1.2261752,-0.53387094,0.32930222,0.18963565,-2.0794892,-1.060462,-1.5224669,-0.79270977,-0.28804913,-1.0828539,0.7462958,-1.1639488
0.1,0.1,1.4,0.0,0.0,0,-0.4116062,-0.586296,-1.1922342,-0.51901025,0.27866724,0.15493879,-1.6191673,-0.9407425,-1.492999,-0.93098974,-0.34313524,-0.96942943,0.3213863,-0.33449194
0.1,0.1,1.4,0.0,0.0,0,-0.34230584,-0.621611,-1.2208905,-0.51972497,0.39875075,0.16793525,-1.7188106,-1.1230298,-1.4913111,-0.8951633,-0.27377355,-0.6732851,0.7248087,-1.0427061
0.1,0.1,1.4,0.0,0.0,0,-0.3146456,-0.70183444,-1.2047327,-0.5130378,0.16787252,0.15743598,-1.5246098,-1.072892,-1.4274074,-0.8736693,-0.32040146,-1.1954576,0.32826936,0.25664467
0.1,0.1,1.4,0.0,0.0,0,-0.38379547,-0.8107182,-1.1925,-0.55182004,0.39115876,0.0726345,-1.1871421,-0.93215275,-1.7313943,-0.605527,-0.16275437,-0.52681,0.7040387,-0.91471654
0.1,0.1,1.4,0.0,0.0,0,-0.32546782,-0.5895941,-1.1958439,-0.5058248,0.3435419,0.2771539,-1.337411,-1.0762233,-1.6639968,-0.79262906,-0.3449231,-0.64126337,0.64942515,-0.7413127
0.1,0.1,1.4,0.0,0.0,0,-0.29494166,-0.70549196,-1.2050048,-0.5107235,0.36523652,0.069577485,-1.753394,-1.1148647,-1.4755818,-0.8843538,-0.28283495,-0.5703402,0.5696291,-0.50920486
0.1,0.1,1.4,0.0,0.0,0,-0.3088013,-0.8238783,-1.204335,-0.4920412,0.35359374,0.33712718,-1.3131111,-1.0895878,-1.535818,-0.8431754,-0.21103254,-0.4925155,0.32516155,-0.8429919
0.1,0.1,1.4,0.0,0.0,0,-0.3279952,-0.7544349,-1.2336943,-0.49574614,0.41174033,0.2903135,-1.5581456,-1.0074836,-1.6108172,-0.7730194,-0.29708213,-0.64667284,0.17192654,-0.83371377
0.1,0.1,1.4,0.0,0.0,0,-0.2961948,-0.72157174,-1.1928754,-0.5000071,0.2870358,0.19661286,-1.578372,-1.0988551,-1.594266,-0.80427885,-0.27212733,-0.49857497,0.60874426,-1.3945154
0.1,0.1,1.4,0.0,0.0,0,-0.24473326,-0.8290541,-1.2025115,-0.52025443,0.3030012,0.14254896,-1.6533078,-0.96486783,-1.5235512,-0.7327019,-0.34806672,-0.7261547,0.49979994,-0.84524626
0.1,0.1,1.4,0.0,0.0,0,-0.31601614,-0.659212,-1.2026485,-0.5049359,0.29499888,0.24542485,-1.6254652,-1.01102,-1.7220576,-0.7262414,-0.22269544,-0.8362678,0.25653952,-0.32292736
0.1,0.1,1.4,0.0,0.0,0,-0.3596631,-0.78869265,-1.1863021,-0.52273196,0.41760018,0.264825,-1.4864547,-1.1307187,-1.4583335,-0.8642926,-0.1788099,-0.6231556,0.45616865,-0.86268544
0.1,0.1,1.4,0.0,0.0,0,-0.29277396,-0.8187245,-1.2035363,-0.5110339,0.31567946,0.29753467,-1.6900166,-0.99934614,-1.3996594,-0.78802997,-0.44401148,-0.63574696,0.6885037,-1.4603167
0.1,0.1,1.4,0.0,0.0,0,-0.2743843,-0.7223635,-1.2118849,-0.52538395,0.3563312,0.31199014,-1.8646591,-1.0599226,-1.5148766,-0.8611492,-0.2571372,-1.2242861,0.27322987,-1.0098014
0.1,0.1,1.4,0.0,0.0,0,-0.33530775,-0.7869778,-1.2204105,-0.5448774,0.5287327,0.09223994,-1.6126754,-1.1518401,-1.3850353,-0.88717175,-0.19435242,-0.7802692,0.37104684,-0.20038694
0.1,0.1,1.4,0.0,0.0,0,-0.36467364,-0.7601585,-1.213356,-0.5029641,0.496951,0.13705295,-1.4253416,-1.0668118,-1.5146478,-0.7659128,-0.31094787,-0.6285831,0.53657895,-0.6981372
0.1,0.1,1.4,0.0,0.0,0,-0.33829257,-0.69087166,-1.2154707,-0.51065373,0.28516117,-0.0057690646,-1.7058388,-0.9244869,-1.7152283,-0.648871,-0.3026942,-0.4437732,0.59291935,-0.29234028
0.1,0.1,1.4,0.0,0.0,0,-0.37048972,-0.73523176,-1.2150018,-0.5234527,0.3619152,0.1671942,-1.8580198,-1.0653067,-1.4145949,-0.8128599,-0.29448366,-0.83007,0.592026,-0.43840325
0.1,0.1,1.4,0.0,0.0,0,-0.26028714,-0.77667534,-1.1960332,-0.4778304,0.39511696,0.18076977,-1.8598075,-1.1622831,-1.3741484,-0.9218691,-0.2762044,-0.8546007,0.5118559,-0.57128465
0.1,0.1,1.4,0.0,0.0,0,-0.2459884,-0.73759186,-1.1983256,-0.50235075,0.49587902,0.21794102,-1.7091659,-1.0527889,-1.6874939,-0.7333245,-0.2408282,-0.57650125,0.48297045,-0.5207674
0.1,0.1,1.4,0.0,0.0,0,-0.2886902,-0.7241788,-1.2095379,-0.49627277,0.42363083,0.1505328,-1.7956079,-0.94898546,-1.54538,-0.69466454,-0.18567628,-1.2431974,0.75014627,-0.8837697
0.1,0.1,1.4,0.0,0.0,0,-0.30411536,-0.72107196,-1.2236022,-0.5234248,0.4155352,0.05991111,-1.5450958,-1.0474899,-1.4678806,-0.9185221,-0.3683966,-0.37097353,0.6243623,-1.2032443
0.1,0.1,1.4,0.0,0.0,0,-0.30020082,-0.77366185,-1.2004737,-0.5252122,0.40856853,0.2724111,-1.0356293,-0.99128616,-1.376932,-0.93473035,-0.35313687,-0.81733334,0.25541127,-0.66585946
0.1,0.1,1.4,0.0,0.0,0,-0.30020082,-0.77366185,-1.2004737,-0.5252122,0.40856853,0.2724111,-1.0356293,-0.99128616,-1.376932,-0.93473035,-0.35313687,-0.81733334,0.25541127,-0.66585946
0.1,0.1,1.4,0.0,0.0,0,-0.30020082,-0.77366185,-1.2004737,-0.5252122,0.40856853,0.2724111,-1.0356293,-0.99128616,-1.376932,-0.93473035,-0.35313687,-0.81733334,0.25541127,-0.66585946
0.1,0.1,1.4,0.0,0.0,0,-0.38710454,-0.84998274,-1.2023458,-0.5006937,0.316276,0.28261584,-1.790924,-0.7770247,-1.3406137,-0.75292844,-0.44877732,-1.3387656,0.49995688,-0.41349873
0.1,0.1,1.4,0.0,0.0,0,-0.38710454,-0.84998274,-1.2023458,-0.5006937,0.316276,0.28261584,-1.790924,-0.7770247,-1.3406137,-0.75292844,-0.44877732,-1.3387656,0.49995688,-0.41349873
0.1,0.1,1.4,0.0,0.0,0,-0.38710454,-0.84998274,-1.2023458,-0.5006937,0.316276,0.28261584,-1.790924,-0.7770247,-1.3406137,-0.75292844,-0.44877732,-1.3387656,0.49995688,-0.41349873
0.1,0.1,1.4,0.0,0.0,0,-0.38710454,-0.84998274,-1.2023458,-0.5006937,0.316276,0.28261584,-1.790924,-0.7770247,-1.3406137,-0.75292844,-0.44877732,-1.3387656,0.49995688,-0.41349873
0.1,0.1,1.4,0.0,0.0,0,-0.38710454,-0.84998274,-1.2023458,-0.5006937,0.316276,0.28261584,-1.790924,-0.7770247,-1.3406137,-0.75292844,-0.44877732,-1.3387656,0.49995688,-0.41349873
0.1,0.1,1.4,0.0,0.0,0,-0.3001691,-0.8745008,-1.1918148,-0.527512,0.28566688,0.41528064,-1.8382123,-0.9101734,-1.7370058,-1.0713054,-0.19404688,-1.0494729,-0.2856141,-0.26153052
0.1,0.1,1.4,0.0,0.0,0,-0.3001691,-0.8745008,-1.1918148,-0.527512,0.28566688,0.41528064,-1.8382123,-0.9101734,-1.7370058,-1.0713054,-0.19404688,-1.0494729,-0.2856141,-0.26153052
0.1,0.1,1.4,0.0,0.0,0,-0.3001691,-0.8745008,-1.1918148,-0.527512,0.28566688,0.41528064,-1.8382123,-0.9101734,-1.7370058,-1.0713054,-0.19404688,-1.0494729,-0.2856141,-0.26153052
0.1,0.1,1.4,0.0,0.0,0,-0.3001691,-0.8745008,-1.1918148,-0.527512,0.28566688,0.41528064,-1.8382123,-0.9101734,-1.7370058,-1.0713054,-0.19404688,-1.0494729,-0.2856141,-0.26153052
0.1,0.1,1.4,0.0,0.0,0,-0.3001691,-0.8745008,-1.1918148,-0.527512,0.28566688,0.41528064,-1.8382123,-0.9101734,-1.7370058,-1.0713054,-0.19404688,-1.0494729,-0.2856141,-0.26153052
0.1,0.1,1.4,0.0,0.0,0,-0.35173258,-0.7300998,-1.1929058,-0.4827757,0.39124244,0.19461147,-1.200371,-1.0268567,-1.561594,-0.7735713,-0.23680145,-0.792276,0.5412373,-0.87609
0.1,0.1,1.4,0.0,0.0,0,-0.35173258,-0.7300998,-1.1929058,-0.4827757,0.39124244,0.19461147,-1.200371,-1.0268567,-1.561594,-0.7735713,-0.23680145,-0.792276,0.5412373,-0.87609
0.1,0.1,1.4,0.0,0.0,0,-0.35173258,-0.7300998,-1.1929058,-0.4827757,0.39124244,0.19461147,-1.200371,-1.0268567,-1.561594,-0.7735713,-0.23680145,-0.792276,0.5412373,-0.87609
0.1,0.1,1.4,0.0,0.0,0,-0.32695663,-0.7067427,-1.2039413,-0.5050201,0.43607977,-0.02211751,-1.4691013,-1.1048065,-1.4894433,-0.84770095,-0.22408135,-0.77184737,0.6268767,-0.7925597
0.1,0.1,1.4,0.0,0.0,0,-0.32695663,-0.7067427,-1.2039413,-0.5050201,0.43607977,-0.02211751,-1.4691013,-1.1048065,-1.4894433,-0.84770095,-0.22408135,-0.77184737,0.6268767,-0.7925597
0.1,0.1,1.4,0.0,0.0,0,-0.32695663,-0.7067427,-1.2039413,-0.5050201,0.43607977,-0.02211751,-1.4691013,-1.1048065,-1.4894433,-0.84770095,-0.22408135,-0.77184737,0.6268767,-0.7925597
0.1,0.1,1.4,0.0,0.0,0,-0.2459884,-0.73759186,-1.1983256,-0.50235075,0.49587902,0.21794102,-1.7091659,-1.0527889,-1.6874939,-0.7333245,-0.2408282,-0.57650125,0.48297045,-0.5207674
0.1,0.1,1.4,0.0,0.0,0,-0.2459884,-0.73759186,-1.1983256,-0.50235075,0.49587902,0.21794102,-1.7091659,-1.0527889,-1.6874939,-0.7333245,-0.2408282,-0.57650125,0.48297045,-0.5207674
0.1,0.1,1.4,0.0,0.0,0,-0.2459884,-0.73759186,-1.1983256,-0.50235075,0.49587902,0.21794102,-1.7091659,-1.0527889,-1.6874939,-0.7333245,-0.2408282,-0.57650125,0.48297045,-0.5207674
0.1,0.1,1.4,0.0,0.0,0,-0.38419574,-0.6603382,-1.2172865,-0.50177616,0.365764,0.08607777,-1.1764078,-1.0586431,-1.4172325,-0.74517566,-0.18412891,-1.2068244,0.8246651,-0.4794535
0.1,0.1,1.4,0.0,0.0,0,-0.38419574,-0.6603382,-1.2172865,-0.50177616,0.365764,0.08607777,-1.1764078,-1.0586431,-1.4172325,-0.74517566,-0.18412891,-1.2068244,0.8246651,-0.4794535
0.1,0.1,1.4,0.0,0.0,0,-0.38419574,-0.6603382,-1.2172865,-0.50177616,0.365764,0.08607777,-1.1764078,-1.0586431,-1.4172325,-0.74517566,-0.18412891,-1.2068244,0.8246651,-0.4794535
0.1,0.1,1.4,0.0,0.0,0,-0.37048972,-0.73523176,-1.2150018,-0.5234527,0.3619152,0.1671942,-1.8580198,-1.0653067,-1.4145949,-0.8128599,-0.29448366,-0.83007,0.592026,-0.43840325
0.1,0.1,1.4,0.0,0.0,0,-0.37048972,-0.73523176,-1.2150018,-0.5234527,0.3619152,0.1671942,-1.8580198,-1.0653067,-1.4145949,-0.8128599,-0.29448366,-0.83007,0.592026,-0.43840325
0.1,0.1,1.4,0.0,0.0,0,-0.37048972,-0.73523176,-1.2150018,-0.5234527,0.3619152,0.1671942,-1.8580198,-1.0653067,-1.4145949,-0.8128599,-0.29448366,-0.83007,0.592026,-0.43840325
0.1,0.1,1.4,0.0,0.0,0,-0.33790967,-0.72203773,-1.2089581,-0.51591635,0.4336732,0.2256659,-1.6830981,-1.0594767,-1.5507969,-0.93573874,-0.21599941,-0.049523894,0.12985973,-1.6018456
0.1,0.1,1.4,0.0,0.0,0,-0.33790967,-0.72203773,-1.2089581,-0.51591635,0.4336732,0.2256659,-1.6830981,-1.0594767,-1.5507969,-0.93573874,-0.21599941,-0.049523894,0.12985973,-1.6018456
0.1,0.1,1.4,0.0,0.0,0,-0.33790967,-0.72203773,-1.2089581,-0.51591635,0.4336732,0.2256659,-1.6830981,-1.0594767,-1.5507969,-0.93573874,-0.21599941,-0.049523894,0.12985973,-1.6018456
0.1,0.1,1.4,0.0,0.0,0,-0.34531787,-0.68929017,-1.2161766,-0.49401605,0.28015557,0.37916213,-1.663604,-1.0757275,-1.6438042,-0.7490836,-0.20568253,-0.6761519,0.46517003,-0.291633
