sanky1234/BimanualDexCatch/isaacgymenvs/cem_results/May31/football_pose_0.2_0.1_1.5_0.0_0.0_0_2025-06-03.csv
x,y,z,roll,pitch,yaw,robot1/joint1,robot1/joint2,robot1/joint3,robot1/joint4,robot1/joint5,robot1/joint6,robot1/joint7,robot2/joint1,robot2/joint2,robot2/joint3,robot2/joint4,robot2/joint5,robot2/joint6,robot2/joint7
0.2,0.1,1.5,0.0,0.0,0,0.62541103,-1.3699178,-0.21026793,-0.91152763,0.9360261,0.22806022,1.4584055,-1.3114021,-0.50907034,-1.7588608,-0.32426044,-0.083468,0.69729143,0.6525965
0.2,0.1,1.5,0.0,0.0,0,0.6243434,-1.3688114,-0.20982774,-0.9011537,0.91326404,0.23445596,1.4726856,-1.3076372,-0.5226945,-1.7573279,-0.3534418,-0.010138593,0.7147155,0.54203606
0.2,0.1,1.5,0.0,0.0,0,0.6199109,-1.3713229,-0.21748258,-0.9019038,0.9292824,0.24195027,1.4242085,-1.3049324,-0.4815963,-1.7685556,-0.35344085,-0.07083392,0.728458,0.58343875
0.2,0.1,1.5,0.0,0.0,0,0.6252693,-1.3716971,-0.20749919,-0.91086733,0.92296785,0.2432084,1.4855058,-1.3259573,-0.47320852,-1.7750763,-0.32403606,-0.045790777,0.672261,0.5914821
0.2,0.1,1.5,0.0,0.0,0,0.6173526,-1.3724622,-0.20906626,-0.91099066,0.9335018,0.26666057,1.4700812,-1.3246651,-0.5059376,-1.7946606,-0.34271422,0.016311454,0.7084167,0.43580326
0.2,0.1,1.5,0.0,0.0,0,0.62338555,-1.3694552,-0.21536186,-0.9092578,0.9376195,0.23579063,1.4539183,-1.3033847,-0.45928475,-1.7749833,-0.32407236,-0.18485804,0.71356744,0.8654589
0.2,0.1,1.5,0.0,0.0,0,0.61705047,-1.3677205,-0.21199624,-0.9080582,0.93559545,0.22793972,1.4636643,-1.2810987,-0.4976708,-1.7688351,-0.3258591,-0.18315451,0.7160861,0.7748622
0.2,0.1,1.5,0.0,0.0,0,0.6187927,-1.3684437,-0.21218576,-0.9084088,0.90587276,0.2445162,1.4399784,-1.2894013,-0.478265,-1.7495899,-0.38845608,-0.021102985,0.6927979,0.5099007
0.2,0.1,1.5,0.0,0.0,0,0.6250359,-1.372897,-0.21099879,-0.90179074,0.9427046,0.23357001,1.418708,-1.3017206,-0.5119637,-1.776189,-0.36525792,-0.07494608,0.75102353,0.6613655
0.2,0.1,1.5,0.0,0.0,0,0.6191643,-1.3699394,-0.21390192,-0.89889634,0.94105273,0.22887163,1.4509435,-1.3127521,-0.5107626,-1.795408,-0.32223657,-0.04685734,0.74303967,0.49762502
0.2,0.1,1.5,0.0,0.0,0,0.6250999,-1.3677111,-0.20986019,-0.9026647,0.9387299,0.23469226,1.4463031,-1.2926975,-0.49818087,-1.7598908,-0.35673955,-0.10268058,0.7314693,0.54635864
0.2,0.1,1.5,0.0,0.0,0,0.621159,-1.369993,-0.20717074,-0.90621877,0.9124135,0.24707532,1.472626,-1.332667,-0.49695382,-1.7655128,-0.33303508,-0.030479502,0.7301704,0.6959264
0.2,0.1,1.5,0.0,0.0,0,0.6248328,-1.3718363,-0.20786755,-0.902997,0.93703854,0.23144606,1.4589466,-1.2837635,-0.5084486,-1.7755105,-0.34058592,-0.08812006,0.7220143,0.5584981
0.2,0.1,1.5,0.0,0.0,0,0.6197319,-1.370756,-0.21014342,-0.90754265,0.9414948,0.23149294,1.4652978,-1.3200557,-0.4807393,-1.7703243,-0.34061107,-0.045650333,0.7173843,0.6462567
0.2,0.1,1.5,0.0,0.0,0,0.6223143,-1.3740392,-0.2206526,-0.89938897,0.9326767,0.24070019,1.4499028,-1.28165,-0.5346324,-1.7261301,-0.35833222,-0.15092954,0.7221889,0.45564356
0.2,0.1,1.5,0.0,0.0,0,0.622119,-1.370278,-0.21545039,-0.903023,0.9534597,0.24533878,1.4669987,-1.2981719,-0.49923432,-1.7856282,-0.3636378,-0.065082416,0.736412,0.5467539
0.2,0.1,1.5,0.0,0.0,0,0.6154301,-1.3765919,-0.20671365,-0.90351105,0.9616575,0.22704098,1.439312,-1.3006924,-0.4507771,-1.78952,-0.31364104,-0.06969835,0.69032395,0.36074287
0.2,0.1,1.5,0.0,0.0,0,0.62353855,-1.3717511,-0.21684587,-0.90309453,0.92279434,0.22374526,1.445317,-1.2973955,-0.49261394,-1.7589631,-0.38775063,-0.015394027,0.7167412,0.42740187
0.2,0.1,1.5,0.0,0.0,0,0.618359,-1.3736387,-0.21500923,-0.9082804,0.9303736,0.21718825,1.4877002,-1.2746358,-0.50192285,-1.776444,-0.34776327,-0.024068521,0.69205296,0.57878387
0.2,0.1,1.5,0.0,0.0,0,0.61852413,-1.3753246,-0.21638705,-0.9089843,0.9121126,0.22246906,1.4764404,-1.3065594,-0.49623895,-1.7750016,-0.3595296,-0.00973893,0.7173771,0.6442921
0.2,0.1,1.5,0.0,0.0,0,0.6191111,-1.3647404,-0.212174,-0.89753246,0.9388983,0.21771051,1.4530432,-1.3485363,-0.5163087,-1.7957788,-0.3497916,0.10358438,0.76459646,0.6080635
0.2,0.1,1.5,0.0,0.0,0,0.6165945,-1.3721789,-0.20794487,-0.90695125,0.90751195,0.2275172,1.4565319,-1.301246,-0.48235062,-1.7874585,-0.3579244,0.056068804,0.7416323,0.23806548
0.2,0.1,1.5,0.0,0.0,0,0.62868005,-1.371339,-0.20437826,-0.9082873,0.92016107,0.23920806,1.4660671,-1.2937317,-0.50876224,-1.7512845,-0.3784352,-0.11477733,0.75093603,0.5859426
0.2,0.1,1.5,0.0,0.0,0,0.6223569,-1.3743864,-0.21739252,-0.8940234,0.92335516,0.24321657,1.462238,-1.3085904,-0.50341123,-1.7919798,-0.37482035,0.022801274,0.744013,0.6175132
0.2,0.1,1.5,0.0,0.0,0,0.6198458,-1.3707424,-0.21512993,-0.9081688,0.94636524,0.2508067,1.4693828,-1.2883451,-0.4945838,-1.779636,-0.36827734,-0.006496664,0.6743745,0.7313869
0.2,0.1,1.5,0.0,0.0,0,0.6213276,-1.3668096,-0.2160613,-0.90295225,0.92083865,0.22940283,1.4917421,-1.3028467,-0.49446547,-1.7766376,-0.36705068,-0.0053908094,0.7196262,0.55717933
0.2,0.1,1.5,0.0,0.0,0,0.61841774,-1.3666013,-0.2081752,-0.90880996,0.92989755,0.20999421,1.4867588,-1.2921048,-0.48398384,-1.7559797,-0.36799815,-0.052856788,0.6684279,0.790046
0.2,0.1,1.5,0.0,0.0,0,0.621789,-1.3712277,-0.21380056,-0.90132034,0.92436373,0.23433173,1.5133369,-1.2663981,-0.49054664,-1.788917,-0.37013435,-0.02431974,0.6957928,0.4478917
0.2,0.1,1.5,0.0,0.0,0,0.6186475,-1.3723516,-0.21265437,-0.89422774,0.9308897,0.24085434,1.4404458,-1.3021804,-0.52057296,-1.7852486,-0.3705852,-0.0073010833,0.7573504,0.55959237
0.2,0.1,1.5,0.0,0.0,0,0.6215712,-1.3716681,-0.21432616,-0.90110147,0.92943496,0.23012352,1.5010942,-1.2805452,-0.49157825,-1.8026217,-0.36501634,0.0032731055,0.72125053,0.49206382
0.2,0.1,1.5,0.0,0.0,0,0.6235941,-1.3707184,-0.21048889,-0.9025819,0.978793,0.21824275,1.5106844,-1.2874529,-0.49774647,-1.7814243,-0.36659998,0.055907886,0.67662406,0.4996103
0.2,0.1,1.5,0.0,0.0,0,0.62117475,-1.3673735,-0.22109497,-0.9024528,0.94310707,0.21754801,1.4624101,-1.291724,-0.4976376,-1.7885497,-0.3235276,-0.059425093,0.7204544,0.3997062
0.2,0.1,1.5,0.0,0.0,0,0.62310356,-1.3641936,-0.21943326,-0.9112836,0.9275561,0.24632318,1.4733934,-1.2762772,-0.4892207,-1.7775407,-0.38857362,-0.022041216,0.71442425,0.45925182
0.2,0.1,1.5,0.0,0.0,0,0.6210185,-1.3692756,-0.20716138,-0.90422916,0.9335407,0.20972338,1.4624104,-1.3053037,-0.51106197,-1.7948408,-0.3634691,-0.04662631,0.7555947,0.8215404
0.2,0.1,1.5,0.0,0.0,0,0.61599004,-1.3696091,-0.2208877,-0.9009096,0.92759335,0.2617566,1.4623075,-1.3303776,-0.51101595,-1.745884,-0.33581206,0.023276292,0.7014167,0.36922035
0.2,0.1,1.5,0.0,0.0,0,0.6203368,-1.3721223,-0.2057046,-0.89492196,0.93499666,0.22992127,1.5005202,-1.3034737,-0.4895675,-1.7634618,-0.36303866,-0.085587494,0.7173262,0.37714687
0.2,0.1,1.5,0.0,0.0,0,0.6230541,-1.374372,-0.21604374,-0.90066826,0.92779046,0.22914773,1.4679248,-1.2963552,-0.5009435,-1.7918079,-0.38311827,0.0018277258,0.74047357,0.5608457
0.2,0.1,1.5,0.0,0.0,0,0.6235252,-1.3676233,-0.21891546,-0.90267146,0.9261434,0.26048294,1.4833825,-1.2829884,-0.5015535,-1.7531369,-0.35187387,-0.13037585,0.705975,0.5266048
0.2,0.1,1.5,0.0,0.0,0,0.6213579,-1.3663341,-0.21427931,-0.9035207,0.9285863,0.23171636,1.4673499,-1.2846133,-0.51266235,-1.7946503,-0.37169698,-0.05941259,0.7376006,0.82640755
0.2,0.1,1.5,0.0,0.0,0,0.62006766,-1.3700873,-0.2161258,-0.91427124,0.945308,0.2502431,1.4589431,-1.3013016,-0.47388926,-1.7646465,-0.35165188,-0.069225684,0.7025244,0.6369396
0.2,0.1,1.5,0.0,0.0,0,0.62720877,-1.3696473,-0.21128139,-0.90817964,0.92526597,0.23541838,1.4770204,-1.3242722,-0.51239014,-1.7653337,-0.40526626,-0.019159514,0.7724584,0.7289585
0.2,0.1,1.5,0.0,0.0,0,0.62228173,-1.3734851,-0.19972311,-0.90904725,0.95661235,0.24228865,1.4945396,-1.3112017,-0.48255095,-1.7688015,-0.34780475,-0.0719246,0.693038,0.7595182
0.2,0.1,1.5,0.0,0.0,0,0.62017447,-1.3678052,-0.2089169,-0.9076846,0.9497364,0.21199468,1.4935486,-1.2917948,-0.50489014,-1.7899452,-0.32960463,-0.058419757,0.71293676,0.5096796
0.2,0.1,1.5,0.0,0.0,0,0.6268211,-1.3677809,-0.21808259,-0.9056502,0.9681391,0.23067273,1.4737763,-1.3259844,-0.51215327,-1.7855276,-0.36053443,0.018667812,0.6900559,0.60140896
0.2,0.1,1.5,0.0,0.0,0,0.62206626,-1.3704841,-0.21180624,-0.8998001,0.9549227,0.21632095,1.5004917,-1.320327,-0.49996364,-1.789238,-0.35747343,-0.04899835,0.7161281,0.43469813
0.2,0.1,1.5,0.0,0.0,0,0.62101066,-1.371497,-0.21067776,-0.8967819,0.9461409,0.23852888,1.5041518,-1.2817342,-0.49642655,-1.7277305,-0.38238135,-0.0677386,0.7265842,0.58431894
0.2,0.1,1.5,0.0,0.0,0,0.628222,-1.3701857,-0.21750113,-0.9051514,0.9353053,0.2314725,1.4687443,-1.3073974,-0.5080803,-1.8011909,-0.34015682,0.054035675,0.6539559,0.73630977
0.2,0.1,1.5,0.0,0.0,0,0.62300986,-1.3689715,-0.20830078,-0.9122522,0.9534524,0.23551413,1.4345769,-1.2924333,-0.51119447,-1.7729661,-0.3400958,-0.03102487,0.69567716,0.53889585
0.2,0.1,1.5,0.0,0.0,0,0.6233017,-1.3703841,-0.21346997,-0.90005696,0.94271535,0.21645534,1.4672854,-1.3274401,-0.4991741,-1.7611492,-0.38191798,-0.038038574,0.74653596,0.70405686
0.2,0.1,1.5,0.0,0.0,0,0.62268865,-1.3704965,-0.21088012,-0.9024328,0.9164032,0.23040251,1.4802423,-1.3269662,-0.5157945,-1.7563102,-0.36763886,0.00790549,0.72109306,0.6384604
0.2,0.1,1.5,0.0,0.0,0,0.6156611,-1.3675323,-0.20717977,-0.910177,0.93025297,0.22759765,1.4713409,-1.2935214,-0.49825725,-1.7386152,-0.3758699,-0.12862334,0.7081654,0.98807305
0.2,0.1,1.5,0.0,0.0,0,0.6204609,-1.3683461,-0.22030665,-0.90297943,0.92591435,0.23814309,1.5070055,-1.3110908,-0.50005573,-1.7894367,-0.37418368,-0.063888304,0.7827493,0.7188905
0.2,0.1,1.5,0.0,0.0,0,0.6216511,-1.3718219,-0.21672177,-0.8949308,0.9565543,0.2261332,1.4814627,-1.3505812,-0.5092159,-1.7659435,-0.3410502,0.026553582,0.7341358,0.5678646
0.2,0.1,1.5,0.0,0.0,0,0.6168693,-1.3708279,-0.21782473,-0.9058977,0.9382988,0.233727,1.4450297,-1.2701297,-0.50435185,-1.8061221,-0.36971694,0.005184113,0.70521146,0.59327906
0.2,0.1,1.5,0.0,0.0,0,0.623932,-1.3692466,-0.21142998,-0.90027535,0.9538145,0.2495435,1.4590075,-1.2931253,-0.4900017,-1.782723,-0.32631758,-0.0019909425,0.68999726,0.26894677
0.2,0.1,1.5,0.0,0.0,0,0.62385875,-1.3733729,-0.21317828,-0.90202755,0.91635895,0.24262974,1.5068903,-1.2731054,-0.49161944,-1.7661247,-0.3489523,-0.17193991,0.7484672,0.43834615
0.2,0.1,1.5,0.0,0.0,0,0.61936724,-1.3738056,-0.20233767,-0.9071251,0.9199318,0.23712549,1.485869,-1.2873132,-0.50502634,-1.779365,-0.36284623,0.014418439,0.7460616,0.38026085
0.2,0.1,1.5,0.0,0.0,0,0.6174176,-1.3673728,-0.20505442,-0.9054833,0.95465434,0.20747022,1.4971691,-1.3170213,-0.51396614,-1.805947,-0.3170839,0.050961025,0.7341161,0.6557622
0.2,0.1,1.5,0.0,0.0,0,0.6231295,-1.3740294,-0.2099006,-0.9142092,0.9361171,0.24153897,1.439183,-1.3264499,-0.50994086,-1.7870204,-0.3328148,0.008257369,0.7165927,0.66189367
0.2,0.1,1.5,0.0,0.0,0,0.62144816,-1.3725286,-0.2104861,-0.9175536,0.95504403,0.22178012,1.5118986,-1.3114072,-0.514178,-1.7551348,-0.35161698,-0.0920802,0.7058281,0.3482139
0.2,0.1,1.5,0.0,0.0,0,0.6221705,-1.3696098,-0.21145636,-0.9004369,0.94366133,0.21417986,1.5027502,-1.3193136,-0.5038639,-1.7950951,-0.33551952,0.0048872107,0.6843554,0.5979029
0.2,0.1,1.5,0.0,0.0,0,0.6194223,-1.3704237,-0.22109552,-0.8966509,0.9428654,0.24165265,1.4829916,-1.2922214,-0.5448558,-1.7896739,-0.35209724,0.019896494,0.7060536,0.5445785
0.2,0.1,1.5,0.0,0.0,0,0.62216324,-1.3730305,-0.2069725,-0.9082092,0.9462233,0.23307014,1.460695,-1.2960829,-0.49736327,-1.7810606,-0.38231733,-0.034253497,0.6970152,0.360093
0.2,0.1,1.5,0.0,0.0,0,0.61618334,-1.3732318,-0.20908053,-0.9162558,0.93237275,0.23194465,1.4946437,-1.2813897,-0.4860376,-1.7941552,-0.36074752,-0.121897675,0.7069142,0.48273802
0.2,0.1,1.5,0.0,0.0,0,0.6233609,-1.3688151,-0.21618883,-0.9070669,0.9229271,0.23155484,1.517195,-1.3118439,-0.5070051,-1.7696221,-0.346819,-0.03720053,0.6995426,0.46109724
0.2,0.1,1.5,0.0,0.0,0,0.62163293,-1.3744446,-0.2117152,-0.90132684,0.9372529,0.22867414,1.4649997,-1.3197461,-0.50649625,-1.7566572,-0.36753857,0.0105501935,0.7333884,0.40795138
0.2,0.1,1.5,0.0,0.0,0,0.6180661,-1.3709571,-0.2210699,-0.8996953,0.94255054,0.23844841,1.4991982,-1.3195091,-0.49146983,-1.7961843,-0.32958537,0.06941555,0.68630046,0.53818613
0.2,0.1,1.5,0.0,0.0,0,0.61819255,-1.3722465,-0.20787695,-0.8945315,0.9144559,0.24079786,1.4801373,-1.3064835,-0.50809675,-1.7729839,-0.3488206,-0.0047885594,0.71460474,0.57582986
0.2,0.1,1.5,0.0,0.0,0,0.6211051,-1.3715788,-0.21184237,-0.9025908,0.9399145,0.241024,1.4654462,-1.2977375,-0.48761234,-1.7675992,-0.3579587,-0.09033918,0.739593,0.568226
0.2,0.1,1.5,0.0,0.0,0,0.6235636,-1.3710086,-0.20853744,-0.8969019,0.9234459,0.22994861,1.4962704,-1.289775,-0.51270086,-1.7648284,-0.3699446,-0.041832287,0.6929366,0.6327204
0.2,0.1,1.5,0.0,0.0,0,0.6213185,-1.3676431,-0.21738106,-0.90613306,0.9595394,0.22341701,1.5185863,-1.2617056,-0.5291718,-1.7772828,-0.40110067,-0.007306959,0.69210947,0.515556
0.2,0.1,1.5,0.0,0.0,0,0.62239504,-1.3707708,-0.20992383,-0.90506864,0.91817915,0.23386014,1.4639297,-1.3227732,-0.47896346,-1.7611823,-0.34999365,-0.040218174,0.74529636,0.4262957
0.2,0.1,1.5,0.0,0.0,0,0.6269366,-1.3668381,-0.2071308,-0.9056721,0.91471404,0.22324914,1.4860082,-1.294892,-0.48516148,-1.7950398,-0.32420945,-0.047916677,0.70922935,0.39958575
0.2,0.1,1.5,0.0,0.0,0,0.6208152,-1.3715094,-0.21291676,-0.9054153,0.9204955,0.23202386,1.5106075,-1.3058057,-0.512586,-1.7767142,-0.30669838,-0.042830843,0.678202,0.45951462
0.2,0.1,1.5,0.0,0.0,0,0.6164197,-1.3708328,-0.21423273,-0.9108068,0.9197647,0.2154632,1.4973556,-1.3212166,-0.4921795,-1.7431996,-0.3377049,-0.06927146,0.68448603,0.6234287
0.2,0.1,1.5,0.0,0.0,0,0.62040156,-1.3703635,-0.21850306,-0.90810764,0.9627845,0.24202256,1.4684467,-1.3226008,-0.50560814,-1.773668,-0.3393489,-0.02445885,0.7178589,0.6287913
0.2,0.1,1.5,0.0,0.0,0,0.62008053,-1.3708334,-0.21477288,-0.9050188,0.9377755,0.23013031,1.5363612,-1.3139709,-0.48027197,-1.7844802,-0.33119214,-0.065797016,0.7200136,0.29803744
0.2,0.1,1.5,0.0,0.0,0,0.62115794,-1.373054,-0.2135046,-0.89426947,0.9247223,0.2343865,1.5225053,-1.3084846,-0.4989669,-1.796159,-0.35340124,-0.027952094,0.73334837,0.5766568
0.2,0.1,1.5,0.0,0.0,0,0.6245165,-1.3714786,-0.22148743,-0.9082757,0.93718946,0.22977528,1.4865915,-1.2825288,-0.4919161,-1.7736269,-0.361953,-0.06692274,0.674956,0.496335
0.2,0.1,1.5,0.0,0.0,0,0.624776,-1.3753959,-0.20999429,-0.9040263,0.91699773,0.24525565,1.4916251,-1.33252,-0.5029413,-1.758021,-0.3480887,-0.078169435,0.6891807,0.86415
0.2,0.1,1.5,0.0,0.0,0,0.6212418,-1.3704542,-0.21479698,-0.9105042,0.91726625,0.23009007,1.4507427,-1.294465,-0.5127069,-1.8006415,-0.33267364,0.004489203,0.6939267,0.5281004
0.2,0.1,1.5,0.0,0.0,0,0.61998713,-1.3657125,-0.22464286,-0.912712,0.9313667,0.24645801,1.4985712,-1.3008204,-0.4871763,-1.7679443,-0.3414821,-0.10191219,0.6842127,0.7375841
0.2,0.1,1.5,0.0,0.0,0,0.6177199,-1.3704269,-0.20018263,-0.89913374,0.9408273,0.24723576,1.4559253,-1.3136865,-0.49525902,-1.794551,-0.33944547,-0.036167413,0.7190419,0.5549626
0.2,0.1,1.5,0.0,0.0,0,0.6259822,-1.370922,-0.21328577,-0.90698284,0.9690816,0.2408766,1.508148,-1.3021759,-0.51691604,-1.74532,-0.3590319,-0.03556028,0.70885634,0.4915454
0.2,0.1,1.5,0.0,0.0,0,0.6203257,-1.3703371,-0.2116774,-0.9062003,0.9354451,0.23179458,1.4728836,-1.2949799,-0.5040794,-1.7645738,-0.3549743,-0.10281971,0.72510993,0.59492344
0.2,0.1,1.5,0.0,0.0,0,0.61999416,-1.3727387,-0.21211301,-0.90270966,0.92772096,0.22679624,1.4674606,-1.2913419,-0.50024015,-1.7626528,-0.3506007,-0.11205017,0.7184511,0.58363664
0.2,0.1,1.5,0.0,0.0,0,0.6192752,-1.3693798,-0.22175944,-0.9020782,0.9301123,0.22082302,1.4592643,-1.3271804,-0.5124582,-1.8086077,-0.3177976,-0.032743044,0.7320583,0.70193446
0.2,0.1,1.5,0.0,0.0,0,0.61782,-1.3698537,-0.21009411,-0.9060756,0.96310943,0.22530703,1.4580748,-1.2640315,-0.51396525,-1.7837569,-0.3294032,-0.039577536,0.6776376,0.616497
0.2,0.1,1.5,0.0,0.0,0,0.6199741,-1.3704095,-0.21153553,-0.8958251,0.9262876,0.23615289,1.4952309,-1.308551,-0.49780157,-1.7698485,-0.37664258,-0.0098637575,0.7218514,0.6138835
0.2,0.1,1.5,0.0,0.0,0,0.62080413,-1.3726171,-0.20447561,-0.9039992,0.93907505,0.2311739,1.4678949,-1.3151008,-0.4778738,-1.7658058,-0.36371848,-0.037221145,0.69644374,0.5854343
0.2,0.1,1.5,0.0,0.0,0,0.61905104,-1.3715134,-0.21354836,-0.9034683,0.9475098,0.2216063,1.4500598,-1.2981592,-0.5100282,-1.7849883,-0.3590543,-0.038383573,0.71978635,0.68903375
0.2,0.1,1.5,0.0,0.0,0,0.6237464,-1.3677696,-0.20487927,-0.9029832,0.93607944,0.2340149,1.49648,-1.3233585,-0.5272667,-1.7730652,-0.35002643,-0.022748154,0.71993303,0.76352394
0.2,0.1,1.5,0.0,0.0,0,0.61856896,-1.369559,-0.21292406,-0.9034438,0.9566015,0.22990447,1.4999775,-1.2914008,-0.4863745,-1.7930851,-0.40313688,-0.0772931,0.70530283,0.5814675
0.2,0.1,1.5,0.0,0.0,0,0.61689836,-1.3682225,-0.20973,-0.89827204,0.9165516,0.24661155,1.4676129,-1.3079069,-0.49758637,-1.7438978,-0.3582285,-0.08184108,0.69227093,0.6913883
0.2,0.1,1.5,0.0,0.0,0,0.6179377,-1.3695146,-0.210953,-0.8975868,0.94793737,0.24047858,1.489428,-1.3139303,-0.50288343,-1.7592388,-0.3601636,-0.005024183,0.71677756,0.4745447
0.2,0.1,1.5,0.0,0.0,0,0.6226362,-1.3680187,-0.21717888,-0.9089663,0.95025575,0.241794,1.4931126,-1.2968533,-0.51052636,-1.7798781,-0.33240554,0.014581402,0.6950287,0.47913516
0.2,0.1,1.5,0.0,0.0,0,0.6160909,-1.3748857,-0.21282221,-0.90106416,0.9424458,0.22583911,1.5129572,-1.294993,-0.536127,-1.7759463,-0.356513,-0.0091195395,0.70688426,0.40966296
0.2,0.1,1.5,0.0,0.0,0,0.6233117,-1.3736604,-0.22059411,-0.9136467,0.94018865,0.229505,1.484712,-1.3416958,-0.5251081,-1.7650707,-0.37049454,0.044757023,0.69963354,0.5387098
0.2,0.1,1.5,0.0,0.0,0,0.62087727,-1.3738595,-0.22369008,-0.90776736,0.9509495,0.22921187,1.4913713,-1.2836819,-0.5003219,-1.7723051,-0.33285883,-0.07899101,0.64946216,0.5828887
0.2,0.1,1.5,0.0,0.0,0,0.6229156,-1.3694649,-0.20882909,-0.9150055,0.95410645,0.24230836,1.4466408,-1.2904075,-0.50605655,-1.7820382,-0.36561877,-0.08186356,0.75644636,0.67290765
0.2,0.1,1.5,0.0,0.0,0,0.6229201,-1.3734319,-0.22120483,-0.9060384,0.95991045,0.24586277,1.4458582,-1.2731721,-0.5309956,-1.8017657,-0.37239248,-0.032607213,0.7266619,0.61440706
0.2,0.1,1.5,0.0,0.0,0,0.62005824,-1.3699353,-0.20892222,-0.90305823,0.9080827,0.22868356,1.4737296,-1.3150938,-0.49351883,-1.7893338,-0.35353103,0.020453433,0.70512587,0.5718497
0.2,0.1,1.5,0.0,0.0,0,0.6210501,-1.371017,-0.21334434,-0.90500396,0.9404488,0.23693565,1.5217007,-1.2925837,-0.5062662,-1.7871892,-0.3634172,-0.13148643,0.72198373,0.6710541
0.2,0.1,1.5,0.0,0.0,0,0.62540156,-1.3701118,-0.21720399,-0.90098834,0.9298563,0.23428832,1.4623175,-1.3037182,-0.4835479,-1.8200039,-0.36087763,0.08082574,0.6776657,0.57472956
0.2,0.1,1.5,0.0,0.0,0,0.625399,-1.3669105,-0.20802622,-0.9012771,0.92116755,0.24175327,1.4891353,-1.2917062,-0.50432694,-1.7759297,-0.35751835,-0.008554951,0.72143346,0.29230136
0.2,0.1,1.5,0.0,0.0,0,0.6231293,-1.3689313,-0.212112,-0.9047643,0.9230698,0.22247446,1.4656444,-1.3114983,-0.4990559,-1.7892759,-0.38004145,-0.04789562,0.7623386,0.84853446
0.2,0.1,1.5,0.0,0.0,0,0.6208774,-1.368593,-0.21360628,-0.9092493,0.9109769,0.24500333,1.5051934,-1.2837771,-0.51741874,-1.7814697,-0.34553123,-0.023990516,0.68496466,0.53640175
0.2,0.1,1.5,0.0,0.0,0,0.61985594,-1.3702167,-0.2197739,-0.9000887,0.9418934,0.2452046,1.4804373,-1.3145303,-0.49429834,-1.7649863,-0.38739544,-0.04233886,0.7404437,0.61736035
0.2,0.1,1.5,0.0,0.0,0,0.6202331,-1.3703009,-0.20367558,-0.90618193,0.9391497,0.2206856,1.4661198,-1.3071045,-0.50427866,-1.7667102,-0.31597188,-0.105996266,0.7136982,0.4391485
0.2,0.1,1.5,0.0,0.0,0,0.62439156,-1.3701575,-0.2195116,-0.9059055,0.9278,0.24268661,1.489808,-1.2975892,-0.47908154,-1.7727209,-0.34542885,-0.08287417,0.6772213,0.63282883
0.2,0.1,1.5,0.0,0.0,0,0.6228964,-1.3720267,-0.2138286,-0.90054333,0.9373438,0.24426693,1.4531101,-1.3147357,-0.4898407,-1.7729876,-0.35378364,-0.05158436,0.71784,0.5754706
0.2,0.1,1.5,0.0,0.0,0,0.6203833,-1.369679,-0.21141763,-0.9032213,0.9350754,0.23683937,1.4335507,-1.3158897,-0.50832254,-1.776457,-0.3176224,-0.09288889,0.71719164,0.58608395
0.2,0.1,1.5,0.0,0.0,0,0.61713606,-1.3719766,-0.21719648,-0.90180796,0.93639886,0.23170334,1.4663666,-1.328757,-0.4981614,-1.7791518,-0.3642021,-0.048282836,0.7451773,0.92648447
0.2,0.1,1.5,0.0,0.0,0,0.624361,-1.3715674,-0.20774157,-0.90543705,0.9198841,0.24926558,1.4494305,-1.2974889,-0.5168611,-1.7948972,-0.3839314,0.005476769,0.73305225,0.667387
0.2,0.1,1.5,0.0,0.0,0,0.6237183,-1.3709882,-0.21016641,-0.9084144,0.9226822,0.23389868,1.463216,-1.3149016,-0.5243518,-1.7752578,-0.35892913,0.019626047,0.7252101,0.478031
0.2,0.1,1.5,0.0,0.0,0,0.62035185,-1.3686343,-0.2158099,-0.8996708,0.9306461,0.22544618,1.4839613,-1.3118689,-0.4919272,-1.7526165,-0.33745137,-0.08587762,0.6579052,0.64128655
0.2,0.1,1.5,0.0,0.0,0,0.61773217,-1.3722651,-0.21061233,-0.9071188,0.9273686,0.21410732,1.4677137,-1.3306822,-0.49393854,-1.7991734,-0.321276,0.03422279,0.7175578,0.46097505
0.2,0.1,1.5,0.0,0.0,0,0.6220995,-1.3700963,-0.21383077,-0.89803416,0.94383866,0.22620298,1.4730489,-1.3182088,-0.50730544,-1.762816,-0.3579731,-0.061148494,0.7204064,0.5787957
0.2,0.1,1.5,0.0,0.0,0,0.6242362,-1.3755873,-0.21321285,-0.90603805,0.9116102,0.21711434,1.4493449,-1.3079726,-0.5128366,-1.7883644,-0.38055626,-0.007920905,0.73556143,0.6854962
0.2,0.1,1.5,0.0,0.0,0,0.6237862,-1.368586,-0.21255648,-0.9105228,0.9383556,0.21638243,1.4826784,-1.2934858,-0.47150198,-1.8047798,-0.35600135,-0.045521706,0.68758005,0.8155227
0.2,0.1,1.5,0.0,0.0,0,0.620318,-1.3680063,-0.21881236,-0.90587944,0.93553054,0.24824947,1.485229,-1.3066852,-0.49117407,-1.7436259,-0.3708089,-0.025807466,0.65964687,0.5688646
0.2,0.1,1.5,0.0,0.0,0,0.6208935,-1.3730091,-0.20973687,-0.9047571,0.9295844,0.22549652,1.4524457,-1.2879574,-0.49021056,-1.8078831,-0.31814554,-0.04233077,0.7102064,0.33151412
0.2,0.1,1.5,0.0,0.0,0,0.61742723,-1.3724755,-0.21152757,-0.90068907,0.9430159,0.22116221,1.4686728,-1.3034115,-0.4889701,-1.7502773,-0.39492995,-0.03519139,0.69886065,0.64667255
0.2,0.1,1.5,0.0,0.0,0,0.62552136,-1.3724684,-0.2088486,-0.89937544,0.9153984,0.23919718,1.4705856,-1.3135428,-0.53682363,-1.7917423,-0.32982925,0.0048159184,0.68471587,0.622836
0.2,0.1,1.5,0.0,0.0,0,0.6213998,-1.3684801,-0.21733654,-0.9014457,0.9554461,0.23281778,1.4606588,-1.3356395,-0.4615473,-1.7723856,-0.36331487,0.0059194136,0.7306658,0.3770863
0.2,0.1,1.5,0.0,0.0,0,0.6260025,-1.3704242,-0.21300252,-0.896842,0.9339412,0.22090562,1.4466481,-1.2828013,-0.503926,-1.7890826,-0.36761287,-0.011319335,0.7004506,0.31699815
0.2,0.1,1.5,0.0,0.0,0,0.62520367,-1.3723706,-0.20698753,-0.9058388,0.91538215,0.21034265,1.5069858,-1.2996219,-0.49201006,-1.7810618,-0.3882858,-0.09787645,0.73792785,0.7135193
0.2,0.1,1.5,0.0,0.0,0,0.6224791,-1.3722044,-0.21399812,-0.9033604,0.9456728,0.23888272,1.4919462,-1.2965821,-0.5101981,-1.7822046,-0.36073068,-0.075584665,0.7123118,0.48216632
0.2,0.1,1.5,0.0,0.0,0,0.6234912,-1.3716305,-0.21707912,-0.90055454,0.9292573,0.23163661,1.5027212,-1.2806543,-0.49189845,-1.78657,-0.36521393,-0.06854384,0.7020928,0.60461646
0.2,0.1,1.5,0.0,0.0,0,0.62246436,-1.3714725,-0.22282279,-0.9084501,0.92536527,0.24371395,1.4582149,-1.3315215,-0.502805,-1.7854213,-0.35326326,-0.012013793,0.70974946,0.751027
0.2,0.1,1.5,0.0,0.0,0,0.6182865,-1.3749827,-0.20704184,-0.9004333,0.9097347,0.2099333,1.488818,-1.2641598,-0.5100339,-1.8072449,-0.37001544,-0.053233847,0.72063136,0.57815576
0.2,0.1,1.5,0.0,0.0,0,0.621928,-1.3703223,-0.2174219,-0.9054112,0.9347953,0.24159433,1.5040466,-1.285821,-0.4897476,-1.7543709,-0.3394114,-0.12154737,0.6815629,0.41037342
0.2,0.1,1.5,0.0,0.0,0,0.62093925,-1.3671441,-0.21048504,-0.89954805,0.9321365,0.22709654,1.4773397,-1.3144064,-0.50468177,-1.7476183,-0.37550354,-0.061279103,0.7101258,0.64898735
0.2,0.1,1.5,0.0,0.0,0,0.625015,-1.3705975,-0.20692867,-0.9064695,0.93347025,0.23225659,1.4465742,-1.3245447,-0.49592328,-1.7801265,-0.33352584,0.005942663,0.7152944,0.38585216
0.2,0.1,1.5,0.0,0.0,0,0.6224542,-1.3694944,-0.22093001,-0.90308803,0.9497208,0.24932277,1.4465209,-1.309394,-0.46394065,-1.7801052,-0.3562608,-0.09545068,0.72241527,0.5352093
0.2,0.1,1.5,0.0,0.0,0,0.62426734,-1.3701723,-0.21639511,-0.9082391,0.9116247,0.24758436,1.4891264,-1.3230709,-0.46439853,-1.7720013,-0.3667081,-0.045320567,0.7026339,0.62340385
0.2,0.1,1.5,0.0,0.0,0,0.6210479,-1.3704268,-0.21675254,-0.8986087,0.9330295,0.24980786,1.4583398,-1.302898,-0.48221734,-1.7610111,-0.3347362,-0.11656067,0.6797935,0.5537887
0.2,0.1,1.5,0.0,0.0,0,0.61909187,-1.3709977,-0.21147233,-0.89956224,0.9331588,0.22253694,1.4872452,-1.3029976,-0.49717608,-1.7724239,-0.38114378,-0.053765934,0.7452534,0.4319994
0.2,0.1,1.5,0.0,0.0,0,0.6179382,-1.3729329,-0.22114207,-0.902818,0.9297925,0.25311434,1.4567472,-1.3137414,-0.51998985,-1.7678427,-0.37203896,-0.050942574,0.7342953,0.61610615
0.2,0.1,1.5,0.0,0.0,0,0.62323403,-1.3698928,-0.20793049,-0.9060998,0.9108621,0.24836646,1.4714779,-1.3050197,-0.5040019,-1.7786977,-0.37492442,-0.009665951,0.69330084,0.82712007
0.2,0.1,1.5,0.0,0.0,0,0.6200293,-1.370753,-0.21359803,-0.90852946,0.9249463,0.23718746,1.4666946,-1.3100532,-0.48403823,-1.7874391,-0.3492483,-0.037427437,0.695825,0.64301866
0.2,0.1,1.5,0.0,0.0,0,0.6194026,-1.3725795,-0.20917603,-0.9032259,0.93906236,0.21473922,1.4565965,-1.3188863,-0.5070268,-1.7511922,-0.34720248,-0.09359418,0.71003723,0.58139807
0.2,0.1,1.5,0.0,0.0,0,0.62122756,-1.3713433,-0.21014507,-0.90639555,0.92534435,0.24526039,1.4664501,-1.28836,-0.5244583,-1.7828829,-0.34388173,-0.07398995,0.6867764,0.624621
0.2,0.1,1.5,0.0,0.0,0,0.62602323,-1.3678453,-0.21425414,-0.907651,0.95144725,0.23175262,1.4444964,-1.3088506,-0.49571437,-1.7605776,-0.36192873,-0.066846125,0.70406884,0.5161487
0.2,0.1,1.5,0.0,0.0,0,0.62285507,-1.3741995,-0.21463472,-0.90796626,0.9360187,0.2373804,1.4702502,-1.3000014,-0.4962825,-1.763673,-0.36325997,-0.10561777,0.6882797,0.61723053
0.2,0.1,1.5,0.0,0.0,0,0.6196672,-1.3721137,-0.21269359,-0.8995243,0.94906837,0.24321023,1.4292684,-1.3239812,-0.46630964,-1.7701783,-0.3250429,-0.07153894,0.6999189,0.4215206
0.2,0.1,1.5,0.0,0.0,0,0.6182815,-1.3713546,-0.2144627,-0.9085763,0.92447585,0.23656929,1.4787118,-1.3350067,-0.48269212,-1.7611512,-0.33723179,-0.017640606,0.7265619,0.4232785
0.2,0.1,1.5,0.0,0.0,0,0.61792576,-1.3715758,-0.21525437,-0.9050407,0.9384241,0.22273836,1.4770721,-1.2955577,-0.48779705,-1.783901,-0.3822618,-0.053863388,0.7029077,0.71350163
0.2,0.1,1.5,0.0,0.0,0,0.6210417,-1.3667606,-0.21548094,-0.8993002,0.9403223,0.23275208,1.5034164,-1.347088,-0.47447258,-1.7894479,-0.35362837,-0.020585487,0.70754373,0.51607585
0.2,0.1,1.5,0.0,0.0,0,0.6227022,-1.3678492,-0.21834083,-0.90199393,0.9399423,0.22241652,1.4685693,-1.3263971,-0.47554818,-1.7642612,-0.3607195,-0.095746264,0.71218014,0.64653695
0.2,0.1,1.5,0.0,0.0,0,0.62292874,-1.3710917,-0.21611367,-0.90577096,0.94043213,0.18925701,1.460744,-1.2704483,-0.5046868,-1.7687548,-0.33997637,-0.14553982,0.683461,0.44498196
0.2,0.1,1.5,0.0,0.0,0,0.6225981,-1.3708893,-0.21402799,-0.9050958,0.91710895,0.24874341,1.4749469,-1.308033,-0.47002646,-1.7905743,-0.3755362,0.005019567,0.70640033,0.5013909
0.2,0.1,1.5,0.0,0.0,0,0.627301,-1.3707062,-0.21593301,-0.9018769,0.95509267,0.22946753,1.4789761,-1.3443116,-0.53715974,-1.7836087,-0.34267658,-0.0095011685,0.7401716,0.7022536
0.2,0.1,1.5,0.0,0.0,0,0.61487335,-1.3707019,-0.21103938,-0.90500295,0.9449796,0.23708692,1.4586449,-1.329571,-0.46715114,-1.7881528,-0.3077045,-0.020437151,0.6932675,0.32803303
0.2,0.1,1.5,0.0,0.0,0,0.62634355,-1.3708609,-0.21472816,-0.90693915,0.94612896,0.20586117,1.4370081,-1.351389,-0.5146053,-1.7701577,-0.33321536,-0.005823979,0.71708506,0.58066404
0.2,0.1,1.5,0.0,0.0,0,0.61988014,-1.3733846,-0.22302869,-0.8968758,0.9515488,0.2334923,1.4863509,-1.2862041,-0.51633185,-1.794732,-0.32553133,-0.1411519,0.69414246,0.5346588
0.2,0.1,1.5,0.0,0.0,0,0.6217746,-1.373189,-0.21416414,-0.89939046,0.9514444,0.22328933,1.4230639,-1.3451229,-0.5110516,-1.7582841,-0.35312375,-0.10327945,0.7694386,0.54524094
0.2,0.1,1.5,0.0,0.0,0,0.62313837,-1.3695272,-0.21374856,-0.9074525,0.9387312,0.21674795,1.4709531,-1.2924118,-0.5104393,-1.7645172,-0.3680633,-0.009363379,0.721399,0.18452527
0.2,0.1,1.5,0.0,0.0,0,0.6252408,-1.3705422,-0.21971574,-0.9024398,0.94499147,0.23363529,1.4757717,-1.3076975,-0.4820562,-1.7934942,-0.36065915,-0.060822006,0.7190201,0.53562194
0.2,0.1,1.5,0.0,0.0,0,0.6217285,-1.3715425,-0.21710877,-0.9037662,0.9342561,0.24781905,1.5124043,-1.298747,-0.52189505,-1.7904943,-0.34177294,0.03359926,0.65681344,0.5027051
0.2,0.1,1.5,0.0,0.0,0,0.6193556,-1.3736027,-0.21643302,-0.9069995,0.9586439,0.24121873,1.454585,-1.330856,-0.49809885,-1.7761081,-0.37198502,0.009044947,0.7478014,0.58484435
0.2,0.1,1.5,0.0,0.0,0,0.6223791,-1.3715304,-0.20181991,-0.909437,0.9059795,0.20727612,1.4370937,-1.3119662,-0.49286228,-1.7932713,-0.3588704,0.023224697,0.7188038,0.48909968
0.2,0.1,1.5,0.0,0.0,0,0.61745,-1.3715081,-0.21465321,-0.90275913,0.93461615,0.2562913,1.4632921,-1.3079551,-0.5017313,-1.7867713,-0.3398114,-0.042889692,0.7388267,0.3664765
0.2,0.1,1.5,0.0,0.0,0,0.6213227,-1.3705059,-0.21571821,-0.91020024,0.93928564,0.22600056,1.4995656,-1.3009683,-0.5077626,-1.7827429,-0.35823095,-0.13289984,0.706483,0.56355876
0.2,0.1,1.5,0.0,0.0,0,0.6220397,-1.3722649,-0.21647297,-0.9082201,0.9197721,0.23889881,1.4734396,-1.321686,-0.49934566,-1.7752672,-0.3658159,-0.03631606,0.737838,0.50268316
0.2,0.1,1.5,0.0,0.0,0,0.621607,-1.3731992,-0.21296088,-0.9016189,0.92788225,0.24502197,1.4689634,-1.2983701,-0.5031229,-1.7646488,-0.36789358,-0.11338463,0.72242844,0.57321435
0.2,0.1,1.5,0.0,0.0,0,0.61989534,-1.3694277,-0.20075642,-0.9055552,0.9247285,0.2286348,1.476802,-1.2895191,-0.4803997,-1.7725203,-0.3521696,-0.17438303,0.6902017,0.6518365
0.2,0.1,1.5,0.0,0.0,0,0.6211877,-1.3755858,-0.21464008,-0.8989155,0.919062,0.25216773,1.4900854,-1.2962945,-0.5091212,-1.7522997,-0.35801432,-0.08713533,0.69564116,0.5111687
0.2,0.1,1.5,0.0,0.0,0,0.6215974,-1.3671968,-0.21664268,-0.9015675,0.9368715,0.22973756,1.4761832,-1.3220792,-0.49882567,-1.7973837,-0.32509804,-0.104224406,0.7184714,0.60420585
0.2,0.1,1.5,0.0,0.0,0,0.6267006,-1.369666,-0.20907396,-0.9076453,0.9277428,0.21409014,1.4606819,-1.2993478,-0.49790916,-1.7926922,-0.3553551,-0.053302977,0.6730564,0.65819573
0.2,0.1,1.5,0.0,0.0,0,0.6227751,-1.3723831,-0.21251239,-0.9028152,0.9380453,0.23093574,1.4979473,-1.3324238,-0.5365927,-1.7765449,-0.36123797,0.050922364,0.7205963,0.59912527
0.2,0.1,1.5,0.0,0.0,0,0.62434477,-1.3694015,-0.21636803,-0.896774,0.93988895,0.24028222,1.4687124,-1.3314714,-0.49237162,-1.7632968,-0.36315393,-0.034461185,0.7113484,0.52522457
0.2,0.1,1.5,0.0,0.0,0,0.62365615,-1.367056,-0.21445286,-0.90657383,0.95695466,0.22541918,1.4413856,-1.3221946,-0.5174498,-1.7359133,-0.37950227,-0.09090712,0.759879,0.48874453
0.2,0.1,1.5,0.0,0.0,0,0.616801,-1.3744276,-0.21929857,-0.90366083,0.92879105,0.22561379,1.5088779,-1.3277386,-0.5171394,-1.7744253,-0.3423177,-0.035061967,0.71929383,0.50885594
0.2,0.1,1.5,0.0,0.0,0,0.6219048,-1.3710849,-0.20432025,-0.89892197,0.91159546,0.22872604,1.4550852,-1.2873544,-0.4949612,-1.7943938,-0.3808214,0.02458949,0.71982896,0.3542473
0.2,0.1,1.5,0.0,0.0,0,0.61957604,-1.3724755,-0.21002008,-0.90023243,0.9005615,0.2266625,1.4881344,-1.3382751,-0.4852362,-1.7824601,-0.35482973,0.029526517,0.71684605,0.5860851
0.2,0.1,1.5,0.0,0.0,0,0.62334806,-1.3727297,-0.21777429,-0.8991341,0.9313152,0.23621501,1.4793575,-1.2772738,-0.51653117,-1.7919255,-0.3495873,-0.0800287,0.70906556,0.43328673
0.2,0.1,1.5,0.0,0.0,0,0.6197953,-1.3703585,-0.21343175,-0.90651256,0.9347552,0.23584156,1.4812322,-1.2757677,-0.48573124,-1.7889203,-0.38546973,-0.027036622,0.67393196,0.7019106
0.2,0.1,1.5,0.0,0.0,0,0.6233842,-1.369377,-0.2126505,-0.90324795,0.90068763,0.24554963,1.4816078,-1.3063313,-0.51254493,-1.7819111,-0.37112865,-0.039915577,0.7380313,0.5206975
0.2,0.1,1.5,0.0,0.0,0,0.61405754,-1.3707757,-0.21603689,-0.9034477,0.9513227,0.2175695,1.4620857,-1.3225938,-0.49725497,-1.7605177,-0.3319773,-0.09161671,0.7041071,0.49229354
0.2,0.1,1.5,0.0,0.0,0,0.6226736,-1.3690302,-0.21019496,-0.9128238,0.93838215,0.22489671,1.5269516,-1.3335794,-0.4779048,-1.7585597,-0.3144621,-0.113926,0.6858384,0.42131117
0.2,0.1,1.5,0.0,0.0,0,0.621956,-1.3704462,-0.21059377,-0.90312356,0.9369227,0.235593,1.4770658,-1.3222905,-0.5018901,-1.7985482,-0.33867648,-0.05524284,0.707399,0.66452634
0.2,0.1,1.5,0.0,0.0,0,0.62110543,-1.3729721,-0.21125871,-0.90363854,0.93530935,0.2264445,1.4760725,-1.2935991,-0.4967417,-1.8014631,-0.37219992,-0.038440745,0.7346904,0.3819571
0.2,0.1,1.5,0.0,0.0,0,0.6233433,-1.3713259,-0.21507227,-0.9107144,0.9302474,0.25560138,1.4820719,-1.2980802,-0.51497823,-1.8081561,-0.37860748,-0.0010217949,0.71567816,0.7664525
0.2,0.1,1.5,0.0,0.0,0,0.62205434,-1.3706623,-0.20877635,-0.9057832,0.91037583,0.22955573,1.47784,-1.319432,-0.5049615,-1.7683892,-0.34127218,-0.048503928,0.6874786,0.54935515
0.2,0.1,1.5,0.0,0.0,0,0.62463963,-1.3689631,-0.21378307,-0.90311545,0.9340926,0.22815083,1.4644544,-1.3042313,-0.5264724,-1.7904962,-0.31272063,-0.032937784,0.6704211,0.39604628
0.2,0.1,1.5,0.0,0.0,0,0.61995065,-1.3749669,-0.22187658,-0.9091576,0.934838,0.22414601,1.4585775,-1.289237,-0.5036656,-1.8102248,-0.3552817,-0.08097758,0.72197896,0.5099501
0.2,0.1,1.5,0.0,0.0,0,0.6226539,-1.3736037,-0.21422042,-0.9131018,0.91878504,0.25216997,1.4530171,-1.2827638,-0.5096,-1.8064195,-0.36178023,-0.06628426,0.71266055,0.60375667
0.2,0.1,1.5,0.0,0.0,0,0.62335396,-1.3747245,-0.20820425,-0.9065491,0.9337022,0.23366924,1.4878798,-1.3294864,-0.48679376,-1.7880911,-0.3755533,-0.032425143,0.69718903,0.484801
0.2,0.1,1.5,0.0,0.0,0,0.62385195,-1.3683671,-0.21231478,-0.9040016,0.96169496,0.23179644,1.4543239,-1.339119,-0.5092391,-1.7642906,-0.35292804,-0.032046884,0.70503604,0.59922993
0.2,0.1,1.5,0.0,0.0,0,0.62281144,-1.3704818,-0.21586318,-0.9049704,0.90804166,0.25394312,1.5006021,-1.3228414,-0.51244366,-1.7897367,-0.34234986,-0.07407277,0.7072838,0.61436224
0.2,0.1,1.5,0.0,0.0,0,0.62246835,-1.3691916,-0.21260223,-0.90519094,0.9385458,0.26003283,1.4408458,-1.3048087,-0.50708133,-1.7486594,-0.37946486,-0.052132223,0.69144464,0.45342845
0.2,0.1,1.5,0.0,0.0,0,0.620112,-1.3694699,-0.21373561,-0.9082494,0.94052404,0.24241416,1.4644009,-1.3643138,-0.49112615,-1.7578075,-0.3760349,-0.01157676,0.7403533,0.6627032
0.2,0.1,1.5,0.0,0.0,0,0.61858404,-1.3727993,-0.21744575,-0.8946024,0.93176323,0.24538277,1.4931337,-1.3248591,-0.50179154,-1.7954165,-0.34365416,-0.05064245,0.7189824,0.56874365
0.2,0.1,1.5,0.0,0.0,0,0.6244023,-1.3669807,-0.21970055,-0.90650487,0.9386805,0.24413827,1.4720172,-1.3251902,-0.50196207,-1.7762684,-0.35922772,-0.114931785,0.7367495,0.6917496
0.2,0.1,1.5,0.0,0.0,0,0.6200358,-1.3674561,-0.2174976,-0.9063328,0.9183197,0.2177517,1.4859673,-1.3260299,-0.4951285,-1.7621478,-0.3718064,-0.09291743,0.7036226,0.7643024
0.2,0.1,1.5,0.0,0.0,0,0.6199654,-1.3744458,-0.21096453,-0.89906734,0.95657223,0.21719608,1.4950668,-1.3094003,-0.48028806,-1.7812805,-0.37468132,-0.026498262,0.71914285,0.47357148
0.2,0.1,1.5,0.0,0.0,0,0.6191817,-1.3689114,-0.20827103,-0.90871483,0.909759,0.25709325,1.4604236,-1.2947986,-0.50584906,-1.7887179,-0.3893786,-0.020133287,0.7384049,0.52315104
0.2,0.1,1.5,0.0,0.0,0,0.62535346,-1.3704132,-0.21375847,-0.904661,0.9301329,0.23868561,1.4769925,-1.3172592,-0.51667035,-1.762522,-0.3766913,-0.007886887,0.71545136,0.48419103
0.2,0.1,1.5,0.0,0.0,0,0.62189865,-1.3690181,-0.21453276,-0.9073346,0.92490304,0.25557715,1.4583873,-1.3175235,-0.5066146,-1.786326,-0.33771178,-0.0829727,0.7227783,0.47445863
0.2,0.1,1.5,0.0,0.0,0,0.61556935,-1.3708093,-0.21130145,-0.9070811,0.96131,0.25267375,1.4533999,-1.3057594,-0.500478,-1.7775036,-0.36534017,-0.008434747,0.68510175,0.4903781
0.2,0.1,1.5,0.0,0.0,0,0.620651,-1.3740449,-0.21371731,-0.89788806,0.9312018,0.23135562,1.4905851,-1.3141229,-0.49805382,-1.7640105,-0.3488757,-0.09330229,0.69845617,0.51084316
0.2,0.1,1.5,0.0,0.0,0,0.62468326,-1.3708638,-0.21095371,-0.9046457,0.92928654,0.20701477,1.4564549,-1.3248507,-0.51082325,-1.7767171,-0.35566774,-0.011844957,0.7354183,0.4431557
0.2,0.1,1.5,0.0,0.0,0,0.6147081,-1.3698022,-0.22049856,-0.90044755,0.9372125,0.2191366,1.4577465,-1.2955126,-0.480126,-1.7954636,-0.37922364,0.009058512,0.6976494,0.38846976
0.2,0.1,1.5,0.0,0.0,0,0.62312305,-1.3719033,-0.21823254,-0.89925396,0.9474403,0.2530185,1.4614701,-1.3438352,-0.48773205,-1.7821676,-0.35318643,-0.0116943065,0.74426264,0.38168666
0.2,0.1,1.5,0.0,0.0,0,0.6238959,-1.3708462,-0.20891264,-0.90586513,0.94540346,0.19726555,1.4823338,-1.3163699,-0.4964517,-1.7870301,-0.33359405,-0.15618578,0.7451654,0.33662
0.2,0.1,1.5,0.0,0.0,0,0.6213846,-1.3683697,-0.20596297,-0.9063648,0.9229275,0.22329165,1.467029,-1.3267739,-0.5026234,-1.7602571,-0.36806914,-0.026164832,0.716454,0.543562
0.2,0.1,1.5,0.0,0.0,0,0.6234914,-1.372805,-0.21649832,-0.9013971,0.93223387,0.25639573,1.4625905,-1.309589,-0.492561,-1.7987877,-0.33354655,-0.04722574,0.6688231,0.6716598
0.2,0.1,1.5,0.0,0.0,0,0.6209836,-1.3710228,-0.20936625,-0.9060265,0.92221844,0.23009565,1.4599446,-1.2897723,-0.50697875,-1.7720989,-0.37310866,-0.013090888,0.6608815,0.46097776
0.2,0.1,1.5,0.0,0.0,0,0.615796,-1.3742054,-0.21657361,-0.90310603,0.93325186,0.21887605,1.4519454,-1.3010367,-0.5017762,-1.7549597,-0.34959027,-0.1526019,0.7163146,0.538268
0.2,0.1,1.5,0.0,0.0,0,0.62425655,-1.3680153,-0.20857523,-0.9019511,0.9456572,0.22584595,1.4472756,-1.3187846,-0.5171793,-1.7788563,-0.38746676,-0.027037645,0.73523015,0.64712673
0.2,0.1,1.5,0.0,0.0,0,0.6180089,-1.370963,-0.21301122,-0.8981295,0.93112636,0.20999157,1.5037099,-1.293653,-0.5201327,-1.7957939,-0.4187448,0.051318526,0.76123124,0.33230904
0.2,0.1,1.5,0.0,0.0,0,0.61683214,-1.3694028,-0.20778973,-0.896499,0.9424212,0.23347893,1.468701,-1.328373,-0.4960474,-1.7584847,-0.32180408,-0.07081171,0.6894651,0.27730998
0.2,0.1,1.5,0.0,0.0,0,0.6201123,-1.3733288,-0.21492344,-0.8995977,0.93656677,0.2366481,1.4436108,-1.3461906,-0.5242331,-1.7666864,-0.3792814,-0.080701396,0.79504186,0.48341408
0.2,0.1,1.5,0.0,0.0,0,0.61840653,-1.3720357,-0.2130498,-0.9091941,0.91804093,0.25118658,1.4746242,-1.3114499,-0.51385516,-1.768958,-0.35858795,0.010184076,0.6795517,0.49789587
0.2,0.1,1.5,0.0,0.0,0,0.6226242,-1.368648,-0.21078894,-0.9031709,0.95280176,0.23220307,1.4830973,-1.3036367,-0.49265057,-1.8049895,-0.3829664,0.0802053,0.6909581,0.5218064
0.2,0.1,1.5,0.0,0.0,0,0.61960405,-1.368146,-0.21165588,-0.9000332,0.9277078,0.23621601,1.4581245,-1.3205409,-0.50469565,-1.7788436,-0.333859,-0.061243948,0.710292,0.4862881
0.2,0.1,1.5,0.0,0.0,0,0.62136316,-1.370214,-0.2144129,-0.9021779,0.8974193,0.24522248,1.460999,-1.2936676,-0.50192374,-1.7723418,-0.3960409,-0.059671286,0.72814876,0.510855
0.2,0.1,1.5,0.0,0.0,0,0.62470967,-1.3705037,-0.21366538,-0.9083045,0.9158269,0.24588415,1.500994,-1.319638,-0.50587904,-1.7976685,-0.3788962,-0.059371006,0.73254704,0.6562531
0.2,0.1,1.5,0.0,0.0,0,0.62424254,-1.3710704,-0.21060862,-0.9106497,0.93874276,0.2447293,1.4636637,-1.3252617,-0.519519,-1.7733094,-0.36165327,-0.0755607,0.7025293,0.70056677
0.2,0.1,1.5,0.0,0.0,0,0.6236125,-1.3704792,-0.20876484,-0.908701,0.90710574,0.24659431,1.470359,-1.30418,-0.46826053,-1.793861,-0.37832206,-0.08332608,0.7208368,0.5814313
0.2,0.1,1.5,0.0,0.0,0,0.6170913,-1.3697493,-0.20961335,-0.8979876,0.9060238,0.22943102,1.49741,-1.3216587,-0.48542535,-1.7935516,-0.35078242,-0.032756947,0.6932939,0.69299287
0.2,0.1,1.5,0.0,0.0,0,0.6170292,-1.3714235,-0.21181218,-0.90503335,0.91694665,0.26003984,1.46396,-1.2975037,-0.53220534,-1.7547976,-0.35197443,-0.08602736,0.68684095,0.48521137
0.2,0.1,1.5,0.0,0.0,0,0.6199949,-1.3703817,-0.20665835,-0.9119713,0.91578466,0.21906471,1.472889,-1.3028162,-0.534424,-1.7775159,-0.37398708,-0.009942066,0.7233555,0.38680264
0.2,0.1,1.5,0.0,0.0,0,0.6195887,-1.3711286,-0.20967527,-0.9025054,0.9015691,0.2177557,1.4885147,-1.3261392,-0.5010315,-1.7797986,-0.3675442,-0.049164418,0.72796786,0.531687
0.2,0.1,1.5,0.0,0.0,0,0.61957395,-1.3707472,-0.22157241,-0.9048749,0.94536126,0.22958018,1.4767584,-1.3339022,-0.4989423,-1.7837903,-0.34579253,-0.116477124,0.7037106,0.6013831
0.2,0.1,1.5,0.0,0.0,0,0.6224096,-1.3699433,-0.21251374,-0.89968306,0.9208416,0.2509923,1.4607046,-1.3191339,-0.49074495,-1.7878467,-0.36279362,-0.022199186,0.6999156,0.6063162
0.2,0.1,1.5,0.0,0.0,0,0.6175685,-1.3696737,-0.21821056,-0.9057062,0.9358395,0.23105459,1.472299,-1.296944,-0.48533905,-1.7784433,-0.37686533,-0.10199433,0.7347819,0.50918525
0.2,0.1,1.5,0.0,0.0,0,0.6179379,-1.3706082,-0.21342671,-0.90216386,0.92975616,0.23624866,1.4523404,-1.3169464,-0.47718692,-1.7767777,-0.3791691,-0.041919872,0.71395934,0.5143557
0.2,0.1,1.5,0.0,0.0,0,0.6220941,-1.3732827,-0.20851834,-0.9058926,0.9152931,0.22259535,1.4548422,-1.2756623,-0.49120978,-1.7781551,-0.36457512,-0.13780995,0.7066231,0.49460196
0.2,0.1,1.5,0.0,0.0,0,0.6238747,-1.3725644,-0.21038881,-0.9040942,0.9295203,0.22282338,1.4902827,-1.30765,-0.51274776,-1.7708336,-0.33672383,-0.1039249,0.6760171,0.318531
0.2,0.1,1.5,0.0,0.0,0,0.62127364,-1.3672093,-0.21745282,-0.91284734,0.9469011,0.22236833,1.513495,-1.2997632,-0.49660173,-1.7423475,-0.3838108,-0.12473434,0.71077764,0.46059573
0.2,0.1,1.5,0.0,0.0,0,0.61845356,-1.3731902,-0.20988949,-0.9016003,0.93658364,0.2293307,1.4635638,-1.3048896,-0.5057232,-1.776544,-0.34372616,-0.046224773,0.6909563,0.4403758
0.2,0.1,1.5,0.0,0.0,0,0.6161645,-1.3756657,-0.21680939,-0.8979643,0.95790696,0.22103356,1.4598632,-1.3319435,-0.52353376,-1.7557943,-0.34506842,-0.12527916,0.68348277,0.49714762
0.2,0.1,1.5,0.0,0.0,0,0.6229333,-1.3723285,-0.21887696,-0.9051749,0.9331905,0.2367269,1.4287261,-1.3488829,-0.5273288,-1.7636333,-0.3481074,0.0030065079,0.6956952,0.706353
0.2,0.1,1.5,0.0,0.0,0,0.6225921,-1.3691282,-0.21036485,-0.9008333,0.9223688,0.23907296,1.492047,-1.3415952,-0.4910877,-1.7797987,-0.40600884,0.021543661,0.7291032,0.62231463
0.2,0.1,1.5,0.0,0.0,0,0.620038,-1.3673745,-0.22309728,-0.91078687,0.8961758,0.23401386,1.4856809,-1.3412577,-0.47088385,-1.7955306,-0.35708,-0.060223147,0.71625096,0.67907757
0.2,0.1,1.5,0.0,0.0,0,0.62064457,-1.3698754,-0.21045706,-0.8979792,0.9395114,0.23325354,1.4581939,-1.3276639,-0.46624473,-1.8178738,-0.3600166,-0.013627594,0.71157426,0.8419693
0.2,0.1,1.5,0.0,0.0,0,0.61981314,-1.3689154,-0.20851898,-0.90666217,0.91659856,0.23691249,1.4871006,-1.3003442,-0.5223308,-1.7968321,-0.37097776,0.01045162,0.69110084,0.55935854
0.2,0.1,1.5,0.0,0.0,0,0.6240737,-1.3688312,-0.20545305,-0.90007305,0.94882774,0.2135047,1.4644994,-1.3210694,-0.47465992,-1.7708943,-0.33599395,-0.1029112,0.6805819,0.39867496
0.2,0.1,1.5,0.0,0.0,0,0.6214561,-1.36635,-0.22148922,-0.9037066,0.93758345,0.23401406,1.4839838,-1.3207906,-0.46603242,-1.7870603,-0.36269867,-0.030569308,0.66074526,0.50633603
0.2,0.1,1.5,0.0,0.0,0,0.6267263,-1.3731427,-0.20973791,-0.8998076,0.94939375,0.24202584,1.4642904,-1.3181152,-0.4686636,-1.8072319,-0.38193917,-0.10004551,0.71146554,0.46831423
0.2,0.1,1.5,0.0,0.0,0,0.6187594,-1.3705403,-0.20808671,-0.90382224,0.9173226,0.25094888,1.4462527,-1.2976036,-0.4983683,-1.7678716,-0.36384055,-0.08203515,0.68834007,0.5293602
0.2,0.1,1.5,0.0,0.0,0,0.6191986,-1.3707922,-0.2097388,-0.8946874,0.9012776,0.23474379,1.4628311,-1.3094908,-0.5098312,-1.791687,-0.380627,0.018287815,0.699122,0.4476235
0.2,0.1,1.5,0.0,0.0,0,0.62627584,-1.3726403,-0.21242788,-0.899133,0.94440365,0.2419794,1.4595455,-1.3111333,-0.46732256,-1.8036742,-0.3677291,-0.07881765,0.72426885,0.39632946
0.2,0.1,1.5,0.0,0.0,0,0.62054473,-1.3717269,-0.20687225,-0.902865,0.92610043,0.23504527,1.4642812,-1.3169606,-0.48853096,-1.772545,-0.387163,-0.12070964,0.70886225,0.724975
0.2,0.1,1.5,0.0,0.0,0,0.62139684,-1.3705989,-0.20585349,-0.9035217,0.9454083,0.22889325,1.4507428,-1.3017646,-0.5369674,-1.7676616,-0.38817388,-0.0762365,0.723137,0.455201
0.2,0.1,1.5,0.0,0.0,0,0.6175221,-1.3699467,-0.21868634,-0.90756744,0.9187027,0.21316268,1.488957,-1.3168404,-0.4831031,-1.7918658,-0.3575148,-0.014022864,0.7000774,0.36964062
0.2,0.1,1.5,0.0,0.0,0,0.6215958,-1.3690679,-0.21344967,-0.9101539,0.9346376,0.21941759,1.4539946,-1.3085636,-0.5058554,-1.762076,-0.3687548,-0.09682152,0.693445,0.6058026
0.2,0.1,1.5,0.0,0.0,0,0.6206335,-1.3681487,-0.20893075,-0.897559,0.9430325,0.23701449,1.4718503,-1.3263699,-0.5039424,-1.7750354,-0.3330403,-0.056509618,0.66175574,0.40257666
0.2,0.1,1.5,0.0,0.0,0,0.61533237,-1.3704574,-0.20617072,-0.9117346,0.92383766,0.23523189,1.4539001,-1.3092703,-0.5080176,-1.7736604,-0.37748158,-0.027872264,0.6884559,0.38780332
0.2,0.1,1.5,0.0,0.0,0,0.62479323,-1.37102,-0.20552461,-0.90221953,0.9376207,0.22615714,1.4351696,-1.3378284,-0.5343775,-1.7720042,-0.36838862,-0.022526639,0.69415456,0.4435849
0.2,0.1,1.5,0.0,0.0,0,0.61700124,-1.3707055,-0.21385346,-0.8961119,0.930584,0.24028428,1.4797441,-1.3000377,-0.5110417,-1.792708,-0.3704944,-0.058263693,0.6733731,0.46925062
0.2,0.1,1.5,0.0,0.0,0,0.62145525,-1.3653003,-0.20535336,-0.8981836,0.90082127,0.24770667,1.4680357,-1.3488954,-0.4924189,-1.760095,-0.3668462,-0.03416291,0.6689321,0.62539303
0.2,0.1,1.5,0.0,0.0,0,0.62273324,-1.3760844,-0.20552397,-0.90176034,0.9442317,0.25450277,1.4650398,-1.3128065,-0.5018687,-1.7529488,-0.26770884,-0.016431786,0.7421804,0.5920287
0.2,0.1,1.5,0.0,0.0,0,0.6173016,-1.3696783,-0.22596745,-0.90566105,0.9047844,0.23100285,1.5051208,-1.2880553,-0.5196933,-1.7903,-0.32565945,-0.09409046,0.65986854,0.74680924
0.2,0.1,1.5,0.0,0.0,0,0.6236583,-1.371304,-0.21165042,-0.90370286,0.9223197,0.23696437,1.5015419,-1.3108294,-0.5118452,-1.7618029,-0.34427714,-0.12319626,0.78155017,0.7184023
0.2,0.1,1.5,0.0,0.0,0,0.6236583,-1.371304,-0.21165042,-0.90370286,0.9223197,0.23696437,1.5015419,-1.3108294,-0.5118452,-1.7618029,-0.34427714,-0.12319626,0.78155017,0.7184023
0.2,0.1,1.5,0.0,0.0,0,0.6236583,-1.371304,-0.21165042,-0.90370286,0.9223197,0.23696437,1.5015419,-1.3108294,-0.5118452,-1.7618029,-0.34427714,-0.12319626,0.78155017,0.7184023
0.2,0.1,1.5,0.0,0.0,0,0.6236583,-1.371304,-0.21165042,-0.90370286,0.9223197,0.23696437,1.5015419,-1.3108294,-0.5118452,-1.7618029,-0.34427714,-0.12319626,0.78155017,0.7184023
0.2,0.1,1.5,0.0,0.0,0,0.6236583,-1.371304,-0.21165042,-0.90370286,0.9223197,0.23696437,1.5015419,-1.3108294,-0.5118452,-1.7618029,-0.34427714,-0.12319626,0.78155017,0.7184023
0.2,0.1,1.5,0.0,0.0,0,0.6236583,-1.371304,-0.21165042,-0.90370286,0.9223197,0.23696437,1.5015419,-1.3108294,-0.5118452,-1.7618029,-0.34427714,-0.12319626,0.78155017,0.7184023
0.2,0.1,1.5,0.0,0.0,0,0.6236583,-1.371304,-0.21165042,-0.90370286,0.9223197,0.23696437,1.5015419,-1.3108294,-0.5118452,-1.7618029,-0.34427714,-0.12319626,0.78155017,0.7184023
0.2,0.1,1.5,0.0,0.0,0,0.6159873,-1.3684781,-0.20935968,-0.9051201,0.94062537,0.22929077,1.4912586,-1.2422373,-0.5080021,-1.7445751,-0.3038984,-0.10103131,0.7100785,0.8288846
0.2,0.1,1.5,0.0,0.0,0,0.6159873,-1.3684781,-0.20935968,-0.9051201,0.94062537,0.22929077,1.4912586,-1.2422373,-0.5080021,-1.7445751,-0.3038984,-0.10103131,0.7100785,0.8288846
0.2,0.1,1.5,0.0,0.0,0,0.6159873,-1.3684781,-0.20935968,-0.9051201,0.94062537,0.22929077,1.4912586,-1.2422373,-0.5080021,-1.7445751,-0.3038984,-0.10103131,0.7100785,0.8288846
0.2,0.1,1.5,0.0,0.0,0,0.6159873,-1.3684781,-0.20935968,-0.9051201,0.94062537,0.22929077,1.4912586,-1.2422373,-0.5080021,-1.7445751,-0.3038984,-0.10103131,0.7100785,0.8288846
0.2,0.1,1.5,0.0,0.0,0,0.6159873,-1.3684781,-0.20935968,-0.9051201,0.94062537,0.22929077,1.4912586,-1.2422373,-0.5080021,-1.7445751,-0.3038984,-0.10103131,0.7100785,0.8288846
0.2,0.1,1.5,0.0,0.0,0,0.6159873,-1.3684781,-0.20935968,-0.9051201,0.94062537,0.22929077,1.4912586,-1.2422373,-0.5080021,-1.7445751,-0.3038984,-0.10103131,0.7100785,0.8288846
0.2,0.1,1.5,0.0,0.0,0,0.6208244,-1.3721488,-0.21113801,-0.90650845,0.94114697,0.2468208,1.4917327,-1.308555,-0.52038395,-1.7787882,-0.3230241,0.060436614,0.74383867,0.5628399
0.2,0.1,1.5,0.0,0.0,0,0.6208244,-1.3721488,-0.21113801,-0.90650845,0.94114697,0.2468208,1.4917327,-1.308555,-0.52038395,-1.7787882,-0.3230241,0.060436614,0.74383867,0.5628399
0.2,0.1,1.5,0.0,0.0,0,0.6208244,-1.3721488,-0.21113801,-0.90650845,0.94114697,0.2468208,1.4917327,-1.308555,-0.52038395,-1.7787882,-0.3230241,0.060436614,0.74383867,0.5628399
0.2,0.1,1.5,0.0,0.0,0,0.6208244,-1.3721488,-0.21113801,-0.90650845,0.94114697,0.2468208,1.4917327,-1.308555,-0.52038395,-1.7787882,-0.3230241,0.060436614,0.74383867,0.5628399
0.2,0.1,1.5,0.0,0.0,0,0.6208244,-1.3721488,-0.21113801,-0.90650845,0.94114697,0.2468208,1.4917327,-1.308555,-0.52038395,-1.7787882,-0.3230241,0.060436614,0.74383867,0.5628399
0.2,0.1,1.5,0.0,0.0,0,0.6208244,-1.3721488,-0.21113801,-0.90650845,0.94114697,0.2468208,1.4917327,-1.308555,-0.52038395,-1.7787882,-0.3230241,0.060436614,0.74383867,0.5628399
0.2,0.1,1.5,0.0,0.0,0,0.6208244,-1.3721488,-0.21113801,-0.90650845,0.94114697,0.2468208,1.4917327,-1.308555,-0.52038395,-1.7787882,-0.3230241,0.060436614,0.74383867,0.5628399
0.2,0.1,1.5,0.0,0.0,0,0.6253551,-1.3693613,-0.20953804,-0.89650625,0.96496284,0.24654469,1.5108782,-1.2738206,-0.50150156,-1.8180612,-0.30661738,0.07664203,0.7592692,0.50050354
0.2,0.1,1.5,0.0,0.0,0,0.6253551,-1.3693613,-0.20953804,-0.89650625,0.96496284,0.24654469,1.5108782,-1.2738206,-0.50150156,-1.8180612,-0.30661738,0.07664203,0.7592692,0.50050354
0.2,0.1,1.5,0.0,0.0,0,0.6253551,-1.3693613,-0.20953804,-0.89650625,0.96496284,0.24654469,1.5108782,-1.2738206,-0.50150156,-1.8180612,-0.30661738,0.07664203,0.7592692,0.50050354
0.2,0.1,1.5,0.0,0.0,0,0.6253551,-1.3693613,-0.20953804,-0.89650625,0.96496284,0.24654469,1.5108782,-1.2738206,-0.50150156,-1.8180612,-0.30661738,0.07664203,0.7592692,0.50050354
0.2,0.1,1.5,0.0,0.0,0,0.6253551,-1.3693613,-0.20953804,-0.89650625,0.96496284,0.24654469,1.5108782,-1.2738206,-0.50150156,-1.8180612,-0.30661738,0.07664203,0.7592692,0.50050354
0.2,0.1,1.5,0.0,0.0,0,0.6253551,-1.3693613,-0.20953804,-0.89650625,0.96496284,0.24654469,1.5108782,-1.2738206,-0.50150156,-1.8180612,-0.30661738,0.07664203,0.7592692,0.50050354
0.2,0.1,1.5,0.0,0.0,0,0.62152123,-1.372453,-0.20185864,-0.9040331,0.9721613,0.2622872,1.4976532,-1.2742615,-0.5074763,-1.7496195,-0.29635692,-0.075274125,0.75268006,0.55946606
0.2,0.1,1.5,0.0,0.0,0,0.62152123,-1.372453,-0.20185864,-0.9040331,0.9721613,0.2622872,1.4976532,-1.2742615,-0.5074763,-1.7496195,-0.29635692,-0.075274125,0.75268006,0.55946606
0.2,0.1,1.5,0.0,0.0,0,0.62152123,-1.372453,-0.20185864,-0.9040331,0.9721613,0.2622872,1.4976532,-1.2742615,-0.5074763,-1.7496195,-0.29635692,-0.075274125,0.75268006,0.55946606
0.2,0.1,1.5,0.0,0.0,0,0.62152123,-1.372453,-0.20185864,-0.9040331,0.9721613,0.2622872,1.4976532,-1.2742615,-0.5074763,-1.7496195,-0.29635692,-0.075274125,0.75268006,0.55946606
0.2,0.1,1.5,0.0,0.0,0,0.62152123,-1.372453,-0.20185864,-0.9040331,0.9721613,0.2622872,1.4976532,-1.2742615,-0.5074763,-1.7496195,-0.29635692,-0.075274125,0.75268006,0.55946606
0.2,0.1,1.5,0.0,0.0,0,0.62152123,-1.372453,-0.20185864,-0.9040331,0.9721613,0.2622872,1.4976532,-1.2742615,-0.5074763,-1.7496195,-0.29635692,-0.075274125,0.75268006,0.55946606
