sanky1234/BimanualDexCatch/isaacgymenvs/cem_results/May31/football_pose_0.0_-0.1_0.8_0.0_0.5235987755982988_0_2025-05-31.csv
x,y,z,roll,pitch,yaw,robot1/joint1,robot1/joint2,robot1/joint3,robot1/joint4,robot1/joint5,robot1/joint6,robot1/joint7,robot2/joint1,robot2/joint2,robot2/joint3,robot2/joint4,robot2/joint5,robot2/joint6,robot2/joint7
0.0,-0.1,0.8,0.0,0.5235987755982988,0,0.21633764,0.94420296,0.9034232,-0.32927775,-0.3531169,0.29828727,-0.27417728,-0.47731477,1.0549846,0.24669828,0.14682057,0.14839293,1.5152136,-0.3448994
0.0,-0.1,0.8,0.0,0.5235987755982988,0,0.44815037,0.9099307,0.7702914,-0.36699224,-0.35992056,0.0531013,0.40134013,-0.50295943,0.9409204,0.34020853,0.16919862,0.08869427,1.4920712,-0.48526326
0.0,-0.1,0.8,0.0,0.5235987755982988,0,-0.25498143,0.9947744,0.7914366,0.0497151,-0.43098328,-0.10484485,-0.6244495,-0.5001657,0.9474434,0.35908183,0.1541599,0.036536872,1.5632124,-0.1122187
0.0,-0.1,0.8,0.0,0.5235987755982988,0,0.2624348,0.91989124,1.019125,-0.39767605,-0.3716811,-0.031957816,0.1392042,-0.48820692,1.1160266,0.31267896,0.05267497,0.15852281,1.5029293,-0.5887971
0.0,-0.1,0.8,0.0,0.5235987755982988,0,0.83935755,1.2662369,1.1224543,-0.571669,-0.41246122,0.39214456,-0.15941702,-0.4900262,1.0931526,0.30202988,0.10558444,0.14533919,1.4853629,-0.044712834
0.0,-0.1,0.8,0.0,0.5235987755982988,0,0.23747683,0.8983775,0.76577353,-0.27739167,-0.5484952,0.057151742,0.12593988,-0.48377863,1.0260441,0.40301734,0.0701661,0.072167516,1.491591,-0.5516686
0.0,-0.1,0.8,0.0,0.5235987755982988,0,0.304356,0.67513055,0.9746726,-0.31706843,-0.28985825,-0.108135335,0.30796635,-0.49705696,1.0511637,0.3112251,0.21785666,0.03335813,1.5140616,-0.22729455
0.0,-0.1,0.8,0.0,0.5235987755982988,0,0.2949975,0.8773451,1.037825,-0.061324842,-0.46169797,0.49772328,0.0096924445,-0.4724308,1.1318157,0.31565043,0.14093855,0.008250288,1.5336539,-0.2893656
0.0,-0.1,0.8,0.0,0.5235987755982988,0,0.8613865,1.2446879,0.9601038,-0.4991605,-0.5663301,-0.07700071,-0.16252878,-0.5072101,1.074052,0.37510905,0.18588953,0.09047813,1.4950445,-0.35548168
0.0,-0.1,0.8,0.0,0.5235987755982988,0,-0.01901681,1.0096112,0.87688404,-0.2710919,-0.4621207,-0.2905925,-0.046732023,-0.4917227,1.06512,0.31856743,0.14725491,0.12555861,1.5039964,0.21175155
0.0,-0.1,0.8,0.0,0.5235987755982988,0,-0.07617144,0.9352475,0.8761839,-0.34374073,-0.469281,-0.35657862,0.33503512,-0.5000941,1.0664489,0.37717307,0.013464918,0.07667488,1.5083455,-0.15289755
0.0,-0.1,0.8,0.0,0.5235987755982988,0,0.34486732,1.0247446,1.0960162,-0.4320217,-0.33130684,0.0055788984,0.3716394,-0.51105654,1.0688908,0.3347698,0.164091,0.10255192,1.5354363,0.07724137
0.0,-0.1,0.8,0.0,0.5235987755982988,0,0.4625834,0.86303574,0.6438633,-0.093959175,-0.41979358,0.27403602,-0.065024965,-0.52029425,0.996091,0.18693516,0.13574763,0.12927271,1.5323513,-0.18432061
0.0,-0.1,0.8,0.0,0.5235987755982988,0,0.71004885,0.7966061,0.5769138,-0.306886,-0.41423744,0.13441363,-0.23888272,-0.5094906,1.131098,0.3220951,0.23984107,0.19559082,1.485514,-0.25493297
0.0,-0.1,0.8,0.0,0.5235987755982988,0,0.7840628,1.1465384,0.74130034,-0.54253215,-0.2879053,0.08465882,-0.016599843,-0.51139265,1.0500063,0.38655,0.046918426,0.14111376,1.5201726,-0.12695684
0.0,-0.1,0.8,0.0,0.5235987755982988,0,0.25798497,1.272927,1.0726302,-0.1648111,-0.44444025,-0.34528187,-0.19566713,-0.51039714,1.0915937,0.32944277,0.06675889,0.0025179773,1.4968659,-0.5208221
0.0,-0.1,0.8,0.0,0.5235987755982988,0,0.44088438,0.92721957,0.8183042,-0.07903922,-0.3747403,0.85627216,0.19369948,-0.5017213,1.1161085,0.33072466,0.17280054,0.082834296,1.5365041,-0.5548514
0.0,-0.1,0.8,0.0,0.5235987755982988,0,-0.27093598,0.83727306,0.6084618,-0.36778805,-0.5409992,0.23663577,-0.41753536,-0.49944112,1.1405243,0.4683962,0.0070382063,0.12620135,1.5214787,-0.16268201
0.0,-0.1,0.8,0.0,0.5235987755982988,0,0.60774535,1.1525367,0.65036166,-0.5510577,-0.43523175,-0.3157312,-0.019965462,-0.50383866,1.091621,0.26030675,0.06848883,0.14399037,1.5235411,-0.26645783
0.0,-0.1,0.8,0.0,0.5235987755982988,0,-0.053958558,0.87411,0.57180667,-0.32474837,-0.18020053,0.4109144,-0.06025345,-0.49158832,1.1077613,0.33403096,-0.17711456,0.16090202,1.5547192,-0.45875975
0.0,-0.1,0.8,0.0,0.5235987755982988,0,0.049882215,0.97915345,0.8046539,-0.4889187,-0.41174293,-0.30310673,0.35538912,-0.49223417,1.0170264,0.3058073,0.06933553,0.20374207,1.5065652,-0.12807798
0.0,-0.1,0.8,0.0,0.5235987755982988,0,1.0273786,0.94116914,0.9407421,-0.2568307,-0.398274,-0.5933874,0.16613346,-0.45572025,0.98823583,0.31142122,0.008791071,0.051671114,1.4607841,-0.6493645
0.0,-0.1,0.8,0.0,0.5235987755982988,0,0.38418713,1.0007168,0.94294,-0.41137952,-0.25882024,-0.7163611,-0.22671615,-0.4905529,0.9784186,0.38631245,0.10071546,0.11594359,1.500879,-0.6650597
0.0,-0.1,0.8,0.0,0.5235987755982988,0,-0.016231518,0.99790764,1.0951886,-0.37135768,-0.4416688,0.3865123,0.043257713,-0.47880572,1.098352,0.3167121,0.19285055,0.17151847,1.5152661,-0.35445714
0.0,-0.1,0.8,0.0,0.5235987755982988,0,0.32298875,1.0268542,0.8555835,-0.44798478,-0.3649244,0.827209,0.2601693,-0.5037935,0.93572325,0.42604306,0.05703913,0.14557478,1.5103998,-0.18893385
0.0,-0.1,0.8,0.0,0.5235987755982988,0,0.6280295,0.9016827,0.94399834,-0.294846,-0.4732088,0.3210232,-0.18400887,-0.49000135,1.145157,0.4185912,0.14576945,0.12787908,1.5166565,-0.6023503
0.0,-0.1,0.8,0.0,0.5235987755982988,0,0.21372698,0.81749743,0.63691485,-0.1760487,-0.47562835,0.17345159,-0.18262689,-0.5138921,1.0502778,0.31863457,0.22445641,0.16282849,1.4912897,-0.29831368
0.0,-0.1,0.8,0.0,0.5235987755982988,0,-0.16110748,0.71449435,0.6681017,-0.3414335,-0.34348938,-0.077548005,0.13269271,-0.47845063,1.0779428,0.31247655,-0.029066695,0.059683613,1.5429748,-0.5688806
0.0,-0.1,0.8,0.0,0.5235987755982988,0,0.0070270067,0.8016363,0.7271265,-0.43390986,-0.44926175,0.74588263,0.033258785,-0.4769865,1.0545475,0.37517673,0.13593201,0.10481466,1.5267208,-0.47214815
0.0,-0.1,0.8,0.0,0.5235987755982988,0,0.8501402,0.8847688,0.92594737,-0.5425957,-0.5067713,0.24256779,0.22587588,-0.51815844,1.0291084,0.40883645,-0.037336998,0.18440181,1.5427086,0.17570968
0.0,-0.1,0.8,0.0,0.5235987755982988,0,0.37670526,0.7006731,0.9520752,-0.47832817,-0.38069054,-0.30020973,0.54866743,-0.48298085,1.0940241,0.39572966,0.08125199,0.0875637,1.5065657,-0.096369684
0.0,-0.1,0.8,0.0,0.5235987755982988,0,0.22832128,1.1690707,0.83106345,-0.58091474,-0.27501917,-0.40215278,0.31724802,-0.52840734,0.99201787,0.32089102,0.1781795,0.23066817,1.498861,-0.049504917
0.0,-0.1,0.8,0.0,0.5235987755982988,0,0.5308192,0.8597787,0.63981485,-0.5625248,-0.25487363,0.1793825,-0.11294124,-0.48440477,1.0945373,0.308551,-0.07155174,0.15839437,1.4894136,-0.2721492
0.0,-0.1,0.8,0.0,0.5235987755982988,0,0.6378436,0.8599809,0.6432744,-0.25886628,-0.33956233,0.4790908,-0.38396323,-0.49650973,0.9809723,0.3734558,0.033964884,0.22137444,1.5208595,-0.10936722
0.0,-0.1,0.8,0.0,0.5235987755982988,0,0.009754186,0.8870568,0.83374816,-0.27544385,-0.519389,-0.058099806,0.63428044,-0.49871406,0.9209769,0.36422098,0.08534553,0.17786388,1.5207093,-0.19082682
0.0,-0.1,0.8,0.0,0.5235987755982988,0,-0.21109337,0.92739236,0.8875764,-0.3842854,-0.30333632,0.5027895,-0.22728713,-0.5075111,1.096657,0.3367187,-0.07262562,0.26820722,1.4797305,-0.78730404
0.0,-0.1,0.8,0.0,0.5235987755982988,0,0.18285227,1.1775898,0.7786894,-0.59713995,-0.40156692,-0.29481444,-0.31883046,-0.5204137,1.042664,0.39709267,0.03532021,0.06173368,1.4888489,-0.4921887
0.0,-0.1,0.8,0.0,0.5235987755982988,0,0.6455279,0.9896215,0.9005094,-0.4971557,-0.29086396,0.5650437,0.3474139,-0.49532315,1.1711818,0.26401335,0.22493872,-0.005130533,1.4796157,-0.31621352
0.0,-0.1,0.8,0.0,0.5235987755982988,0,0.04122296,1.0915155,1.0417758,-0.562937,-0.24049746,0.09825004,0.2776037,-0.48394367,1.062945,0.36082664,0.09014622,0.1881922,1.5286201,-0.37684813
0.0,-0.1,0.8,0.0,0.5235987755982988,0,0.8923558,0.7250865,0.75411797,-0.35035378,-0.19438443,0.19963083,-0.13038313,-0.48164803,1.1326554,0.28061542,0.09853336,0.13866289,1.4904726,0.059363846
0.0,-0.1,0.8,0.0,0.5235987755982988,0,0.07657649,0.6741872,0.71666306,-0.2612928,-0.35324088,0.12068464,-0.11448414,-0.49952853,1.0071127,0.3370993,0.13948011,0.2709064,1.4743252,-0.51242346
0.0,-0.1,0.8,0.0,0.5235987755982988,0,0.13953331,0.73076814,0.85033107,-0.5144203,-0.48254701,-0.35103244,0.44079137,-0.50319356,1.0428445,0.21519965,0.08112943,0.16074182,1.4546235,-0.30085012
0.0,-0.1,0.8,0.0,0.5235987755982988,0,0.074433975,0.985416,0.5333518,-0.50292873,-0.41428253,0.35029563,0.16834255,-0.49583116,1.0531734,0.34411603,0.22999236,0.045260172,1.5103594,-0.24015354
0.0,-0.1,0.8,0.0,0.5235987755982988,0,0.4840668,1.0097526,0.8419269,-0.3699566,-0.52139014,0.40613613,-0.12215652,-0.4669209,1.0409046,0.34826037,-0.0130479345,0.14786752,1.5191721,-0.10934406
0.0,-0.1,0.8,0.0,0.5235987755982988,0,-0.17330977,0.93835646,0.9483158,-0.36110097,-0.6581992,0.3124459,-0.0022025204,-0.5136627,1.121991,0.29650998,0.18220213,0.15406293,1.5157427,-0.49282196
0.0,-0.1,0.8,0.0,0.5235987755982988,0,-0.1711369,0.9128994,0.84585124,-0.389798,-0.4276071,0.62148935,0.13289762,-0.5085817,0.9260688,0.3569147,0.13957788,0.13596262,1.5175729,0.19723774
0.0,-0.1,0.8,0.0,0.5235987755982988,0,0.21492484,0.8481458,0.7421354,-0.31226286,-0.28593647,0.17786509,0.37510225,-0.49522114,1.0339806,0.31378856,0.039090898,0.17598622,1.5244435,-0.09881173
0.0,-0.1,0.8,0.0,0.5235987755982988,0,0.22866918,0.86846685,0.9786633,-0.6587414,-0.33056676,0.27528566,-0.14836225,-0.49324155,1.000248,0.32258427,0.12999637,0.20349622,1.4752784,-0.21724951
0.0,-0.1,0.8,0.0,0.5235987755982988,0,0.1264811,1.049771,0.9036064,-0.31861907,-0.26309508,0.58904976,0.32844958,-0.53823817,1.0797393,0.3120929,0.01835599,0.26463103,1.500419,-0.16420184
0.0,-0.1,0.8,0.0,0.5235987755982988,0,0.21489806,1.191904,0.92098045,-0.56906587,-0.17175238,0.4427666,-0.05357359,-0.51121294,0.9895109,0.37282962,0.012951644,0.029929396,1.5272338,-0.042395953
0.0,-0.1,0.8,0.0,0.5235987755982988,0,0.2717242,0.87509054,0.6550184,-0.23399085,-0.36545724,-0.92845047,-0.11255185,-0.49298576,1.0584899,0.2830256,0.03583772,0.1671045,1.4856272,-0.45263904
0.0,-0.1,0.8,0.0,0.5235987755982988,0,0.14186037,0.6740406,1.0914919,-0.28617787,-0.38093248,0.12502453,-0.25257787,-0.5535959,1.2069997,0.3432261,0.21204285,0.17406903,1.5019989,-0.38017052
0.0,-0.1,0.8,0.0,0.5235987755982988,0,0.016680531,0.6816367,0.6599869,-0.23593384,-0.5575602,0.02258433,0.11060738,-0.501355,1.0659566,0.34888807,0.07214378,0.046662085,1.4874272,-0.26754606
0.0,-0.1,0.8,0.0,0.5235987755982988,0,0.053941224,0.92879856,1.0288955,-0.23678838,-0.6099975,0.20277537,0.22784293,-0.49340916,0.9902031,0.28989375,0.17286067,0.1899703,1.51708,-0.2763814
0.0,-0.1,0.8,0.0,0.5235987755982988,0,1.0073812,1.0635495,0.7185478,-0.40889534,-0.36580586,0.0016503246,-0.059642073,-0.50251913,1.0608252,0.3829709,0.18377338,0.1773945,1.5197638,-0.14543197
0.0,-0.1,0.8,0.0,0.5235987755982988,0,-0.099451356,1.2045852,0.7662483,-0.47417116,-0.18325774,0.23129462,0.013418923,-0.4883061,1.1121156,0.28995076,0.20684345,0.13943824,1.4670477,0.06771793
0.0,-0.1,0.8,0.0,0.5235987755982988,0,0.10151367,0.86110777,0.5029272,-0.42364132,-0.37358478,0.24223478,-0.19181009,-0.50307864,1.0294662,0.2318022,0.0799701,0.17391187,1.5080292,-0.45380053
0.0,-0.1,0.8,0.0,0.5235987755982988,0,0.04507748,0.5470545,0.96193576,-0.4282262,-0.4168192,-0.29595414,-0.090914026,-0.4845823,1.1528119,0.3423289,0.08431024,0.09608515,1.4902847,-0.08563805
0.0,-0.1,0.8,0.0,0.5235987755982988,0,0.45798162,0.798564,0.64181197,-0.47522524,-0.5788011,0.33043665,0.62083566,-0.522053,1.0830982,0.31181034,0.01890648,0.13429679,1.5186325,-0.3767739
0.0,-0.1,0.8,0.0,0.5235987755982988,0,0.4250661,0.93034697,1.0278102,-0.4061573,-0.418782,0.7333221,-0.112163626,-0.47845674,1.0621223,0.3430769,0.20778799,0.07893805,1.5067725,-0.54466504
0.0,-0.1,0.8,0.0,0.5235987755982988,0,0.20256817,1.0206399,0.84198004,-0.537918,-0.3918746,0.10037196,-0.20374747,-0.5529486,1.0407578,0.28440607,0.07424852,0.16787803,1.4967358,-0.44827563
0.0,-0.1,0.8,0.0,0.5235987755982988,0,0.2993474,0.89560974,1.0883027,-0.43413007,-0.43404806,-0.23049442,0.31749964,-0.49023145,1.0581412,0.25282624,0.0022542377,0.19565934,1.570599,-0.23239057
0.0,-0.1,0.8,0.0,0.5235987755982988,0,-0.43940493,0.90821445,1.33744,-0.6664435,-0.4070986,0.8522937,-0.008410614,-0.5080929,1.1431514,0.311166,-0.018665453,0.09615713,1.5480034,-0.12123719
0.0,-0.1,0.8,0.0,0.5235987755982988,0,-0.12612936,0.73673075,0.9183912,-0.13925883,-0.36559126,0.28791958,0.07646563,-0.49713507,1.0634015,0.36076242,0.03932625,0.099348366,1.5011859,-0.36042833
0.0,-0.1,0.8,0.0,0.5235987755982988,0,0.49485734,0.83486974,1.0179577,-0.13725403,-0.3723142,0.20808388,0.09899291,-0.4982376,1.0652732,0.41229886,0.18005008,0.17176206,1.512013,-0.32753053
0.0,-0.1,0.8,0.0,0.5235987755982988,0,0.79525405,0.82112974,0.6966662,-0.4668532,-0.32223383,0.13234419,0.6643004,-0.50263244,0.9660204,0.3681866,0.07645004,0.24586941,1.4780053,-0.2530637
0.0,-0.1,0.8,0.0,0.5235987755982988,0,0.5507237,0.6611508,0.8882226,-0.35799527,-0.22929513,0.28911394,0.2385763,-0.5159958,1.085477,0.34458062,0.102782615,0.16893539,1.5169225,-0.05243574
0.0,-0.1,0.8,0.0,0.5235987755982988,0,0.8528942,0.8992396,0.8244392,-0.44476432,-0.430212,0.052841,0.58102506,-0.48384273,1.100532,0.25733635,0.10772654,0.18591654,1.5115727,-0.3382233
0.0,-0.1,0.8,0.0,0.5235987755982988,0,0.7282281,0.840502,0.8439144,-0.43075722,-0.56073487,-0.081476785,0.5347125,-0.4949551,1.0609694,0.2962167,0.1963949,0.019446531,1.5287845,-0.6700918
0.0,-0.1,0.8,0.0,0.5235987755982988,0,0.38317183,0.88215667,0.7184981,-0.3421955,-0.5328425,0.38930973,-0.346635,-0.485951,1.0617633,0.2771995,0.16400215,0.26713136,1.4979446,-0.16150719
0.0,-0.1,0.8,0.0,0.5235987755982988,0,0.5414344,1.0547748,0.44800088,-0.37571648,-0.45542103,1.0991886,0.20230898,-0.5183275,1.1436778,0.32284987,0.20902602,0.16360945,1.5299718,-0.16698197
0.0,-0.1,0.8,0.0,0.5235987755982988,0,0.35293627,0.70859915,0.86363584,-0.6558042,-0.33883235,-0.4825575,-0.2569881,-0.50684017,1.0033908,0.2814134,-0.008304178,0.05115605,1.495897,-0.07792703
0.0,-0.1,0.8,0.0,0.5235987755982988,0,0.37530252,0.7242707,0.9637738,-0.2821155,-0.34534246,0.027624113,-0.2697948,-0.45806265,1.1250173,0.39027542,-0.08665885,0.117685825,1.5111809,-0.2425735
0.0,-0.1,0.8,0.0,0.5235987755982988,0,0.447415,0.82043403,0.7425158,-0.39039782,-0.43640378,0.42477545,-0.15113528,-0.49682105,1.0253066,0.28579023,0.1382131,0.09461147,1.5194666,-0.3742981
0.0,-0.1,0.8,0.0,0.5235987755982988,0,0.6225252,0.7841538,0.8407868,-0.42326498,-0.2562912,0.48444223,0.24441224,-0.49745277,1.0758524,0.36075372,0.10566221,0.19327872,1.5128727,0.03412218
0.0,-0.1,0.8,0.0,0.5235987755982988,0,0.78576356,0.79578286,0.8211066,-0.5024376,-0.40396103,-0.6398744,0.19289304,-0.49978685,1.0966789,0.28659832,0.09451415,0.14921159,1.4853652,-0.19793107
0.0,-0.1,0.8,0.0,0.5235987755982988,0,-0.20276697,0.8443536,0.7083512,-0.3392221,-0.31871584,0.64373857,-0.22595814,-0.50821793,1.049488,0.27733937,0.13482986,0.18181522,1.5068215,-0.1356577
0.0,-0.1,0.8,0.0,0.5235987755982988,0,0.069271274,0.7882244,0.8837321,-0.57714814,-0.280847,-0.045789693,-0.05763668,-0.48230827,1.0720966,0.3000586,-0.0038174256,0.1017859,1.5277618,-0.39339367
0.0,-0.1,0.8,0.0,0.5235987755982988,0,-0.21704084,0.90379745,0.87396526,-0.40108767,-0.41653633,0.1807036,-0.36940873,-0.5071359,1.0731035,0.35030416,0.082725324,0.16337833,1.5005211,-0.62721914
0.0,-0.1,0.8,0.0,0.5235987755982988,0,0.7365503,1.0860432,0.941943,-0.4159332,-0.5234934,0.08095336,0.27686992,-0.5127172,1.0099069,0.26690257,0.13652492,0.009546362,1.5472972,-0.30168918
0.0,-0.1,0.8,0.0,0.5235987755982988,0,0.30296746,1.0254763,0.4704789,-0.5657296,-0.45727518,0.074744985,0.79267913,-0.5051496,0.9730116,0.37000144,0.027962115,0.1493939,1.5232095,-0.115685485
0.0,-0.1,0.8,0.0,0.5235987755982988,0,0.4944266,0.8400866,0.7067363,-0.3888309,-0.49310973,0.030614126,0.6869378,-0.4822999,1.0215776,0.31822875,0.11815052,0.077658266,1.5394146,-0.4732453
0.0,-0.1,0.8,0.0,0.5235987755982988,0,0.70122296,0.948296,0.88267523,-0.21866448,-0.4605977,0.92795247,-0.2162917,-0.5164594,1.0092355,0.31894794,0.12446521,-0.009584879,1.4907596,-0.5937185
0.0,-0.1,0.8,0.0,0.5235987755982988,0,0.85193163,0.94854015,0.98021823,-0.41307026,-0.27985296,0.14782545,0.18883164,-0.5074816,1.0363775,0.29566723,0.045183368,0.10616442,1.517599,-0.32024845
0.0,-0.1,0.8,0.0,0.5235987755982988,0,0.29338604,0.82158464,0.7936862,-0.3436368,-0.42113677,-0.27473795,0.08709147,-0.53144264,0.8322321,0.23961909,0.02019764,0.1001944,1.5522643,-0.29243886
0.0,-0.1,0.8,0.0,0.5235987755982988,0,-0.09529736,0.7814406,0.6925415,-0.21994427,-0.48945802,-0.14158453,0.018504776,-0.5038034,0.9510434,0.28695443,0.09678086,0.017758546,1.5586011,-0.18200134
0.0,-0.1,0.8,0.0,0.5235987755982988,0,0.16074812,1.0366374,0.68655163,-0.5206409,-0.4007425,0.32048446,0.4921702,-0.50724113,1.1660079,0.36305505,0.13216208,0.16580972,1.5224928,-0.30565286
0.0,-0.1,0.8,0.0,0.5235987755982988,0,-0.19644153,0.933321,1.0212073,-0.14903405,-0.62482345,0.11444705,0.0217971,-0.53376824,0.8852325,0.31565687,0.017500833,0.20856355,1.5246168,-0.4187813
0.0,-0.1,0.8,0.0,0.5235987755982988,0,0.39814845,0.95214564,1.0755465,-0.77312374,-0.28932196,-0.20184246,0.2779427,-0.50881416,0.91856885,0.3633004,0.081090786,0.21929528,1.5413429,-0.15333004
0.0,-0.1,0.8,0.0,0.5235987755982988,0,0.79174674,0.77295274,0.93411654,-0.24747685,-0.44183597,0.04120778,-0.18672505,-0.540281,0.8372505,0.35064346,0.115847595,0.10888824,1.5104346,-0.25092885
0.0,-0.1,0.8,0.0,0.5235987755982988,0,-0.020899652,0.8415698,0.9769418,-0.17320822,-0.6192234,0.26163462,-0.09739954,-0.52199876,0.9238591,0.2791475,0.1064831,0.04307013,1.5239038,-0.62641907
0.0,-0.1,0.8,0.0,0.5235987755982988,0,0.549338,0.7995415,0.8461594,-0.11884098,-0.44790605,0.777624,-0.12998335,-0.5081277,1.0023402,0.2909771,0.0557433,0.106914826,1.514138,-0.15871744
0.0,-0.1,0.8,0.0,0.5235987755982988,0,0.19032677,1.0478122,0.76616484,-0.19642457,-0.6377964,0.1879919,0.058797326,-0.50500077,1.094444,0.30601814,0.05868451,0.18099566,1.5095088,-0.11825876
0.0,-0.1,0.8,0.0,0.5235987755982988,0,0.20811965,0.9677215,1.0497677,-0.5713525,-0.5385839,0.8257264,0.1062967,-0.5055892,1.1250238,0.27288213,0.11235054,0.07992424,1.4878685,-0.535986
0.0,-0.1,0.8,0.0,0.5235987755982988,0,1.3739914,1.0092983,0.6305522,-0.407582,-0.36666504,0.32518855,0.11551334,-0.5057792,1.0092005,0.2691015,0.06687743,0.11792426,1.5594379,-0.6753801
0.0,-0.1,0.8,0.0,0.5235987755982988,0,0.5653866,1.0895729,0.90591055,-0.22694366,-0.51754147,0.03755668,0.41701034,-0.50514895,0.96986014,0.37059385,0.1466041,0.15502693,1.5117285,-0.26436663
0.0,-0.1,0.8,0.0,0.5235987755982988,0,0.30762056,0.82175183,1.0430342,-0.3301855,-0.29966518,0.52602243,-0.11500013,-0.53092176,0.9582332,0.46150294,0.10714336,0.16260426,1.5176945,-0.31775016
0.0,-0.1,0.8,0.0,0.5235987755982988,0,-0.036571987,0.93245214,0.6973518,-0.28723106,-0.48247027,0.086856835,-0.24482271,-0.48501706,0.8953111,0.39056528,0.0580563,0.079750255,1.5392182,-0.5049759
0.0,-0.1,0.8,0.0,0.5235987755982988,0,0.25590992,0.91253376,0.9862371,-0.21559286,-0.38091543,-0.5278717,0.0820246,-0.50088084,1.0524591,0.3668868,0.01483879,0.20188026,1.5223777,-0.40784386
0.0,-0.1,0.8,0.0,0.5235987755982988,0,0.5315291,0.90629464,0.81352895,-0.20857596,-0.4861091,0.3136005,0.2107185,-0.52527636,0.94526947,0.34701598,0.07223537,0.10383878,1.4843819,-0.09497975
0.0,-0.1,0.8,0.0,0.5235987755982988,0,0.22423376,1.035836,0.7808774,0.0192237,-0.13692768,0.3953368,0.25380158,-0.5092233,0.96645296,0.37773198,0.09322364,0.12516047,1.491698,-0.3352041
0.0,-0.1,0.8,0.0,0.5235987755982988,0,0.08549531,0.9564908,0.8411855,-0.5982191,-0.17637418,0.045878634,-0.28308633,-0.492199,0.9579136,0.371428,0.064529315,0.083237134,1.5457588,-0.26215744
0.0,-0.1,0.8,0.0,0.5235987755982988,0,0.5354439,0.854759,0.5852657,-0.22022016,-0.38016656,-0.41736287,-0.030899854,-0.5058601,1.0447423,0.31910676,0.062645346,0.24931051,1.5394857,-0.42002243
0.0,-0.1,0.8,0.0,0.5235987755982988,0,0.17942347,0.81830233,0.7856986,-0.4696771,-0.38573214,0.55172074,0.036551617,-0.5024733,1.021691,0.32489836,-0.0058148154,0.06231909,1.5346138,0.091675885
0.0,-0.1,0.8,0.0,0.5235987755982988,0,0.10018173,0.9881694,0.76541656,-0.33799812,-0.3873623,-0.19527298,-0.4090741,-0.5062934,1.0866543,0.38836396,0.10379274,0.26542485,1.5347602,-0.14991896
0.0,-0.1,0.8,0.0,0.5235987755982988,0,0.49921522,1.0672683,0.9022512,-0.3109965,-0.5569519,0.11991882,-0.09705572,-0.47861448,1.0320504,0.26185226,0.121927455,0.18856256,1.5192964,-0.16477408
0.0,-0.1,0.8,0.0,0.5235987755982988,0,0.39781794,0.913047,0.8434661,-0.69541734,-0.37903866,-0.46262306,-0.39049602,-0.51785517,1.0932684,0.40190646,0.079884656,0.15217927,1.541505,-0.38160002
0.0,-0.1,0.8,0.0,0.5235987755982988,0,0.060520783,0.9641202,0.93747014,-0.43292493,-0.31600186,-0.0961361,-0.21522121,-0.5077047,1.2142365,0.32990387,0.16015536,0.005752229,1.5082706,-0.06347865
0.0,-0.1,0.8,0.0,0.5235987755982988,0,0.44286978,1.0178175,0.76533914,-0.1395311,-0.25761124,0.38301674,-0.031900145,-0.50325364,1.103267,0.33168387,0.088484064,0.08514803,1.4681371,-0.20468773
0.0,-0.1,0.8,0.0,0.5235987755982988,0,0.6935298,0.628588,0.8375604,-0.27922338,-0.31721586,0.13532463,-0.9389371,-0.50847113,1.0130972,0.3124301,0.070453495,0.1060509,1.5116954,-0.28219098
0.0,-0.1,0.8,0.0,0.5235987755982988,0,0.6117456,1.07978,0.7586204,-0.4880681,-0.28498048,-0.49792677,0.18078315,-0.4979928,1.0636339,0.40320343,0.029250745,0.113905095,1.5086315,-0.35874724
0.0,-0.1,0.8,0.0,0.5235987755982988,0,0.17438133,1.0033481,0.440818,-0.08895367,-0.3476719,-0.37207285,-0.03476223,-0.4784588,1.1487302,0.31014445,-0.015789846,0.14016153,1.5267805,-0.3775332
0.0,-0.1,0.8,0.0,0.5235987755982988,0,0.17298017,0.7655373,0.8995236,-0.14979139,-0.51119894,0.3771066,0.44545558,-0.49498305,1.0693274,0.3357768,0.04061872,0.01857508,1.5286961,-0.488917
0.0,-0.1,0.8,0.0,0.5235987755982988,0,0.5939116,0.7407962,0.76592916,-0.26239678,-0.32557285,0.80467427,0.12819108,-0.5068699,1.2293401,0.29544944,0.0395219,0.12939861,1.4387609,-0.13427517
0.0,-0.1,0.8,0.0,0.5235987755982988,0,-0.16276328,0.781037,0.6987315,-0.30672505,-0.42079335,-0.62081444,-0.04879338,-0.53001946,1.0445418,0.30244008,0.14496253,0.06535415,1.5424044,-0.2673913
0.0,-0.1,0.8,0.0,0.5235987755982988,0,-0.24183646,1.0349708,0.87988317,-0.7322899,-0.3267827,0.3297638,-0.048630673,-0.5126536,1.0485178,0.29825386,0.12972578,0.16535091,1.4929448,-0.36661366
0.0,-0.1,0.8,0.0,0.5235987755982988,0,0.031717617,0.8617152,0.8263481,-0.42052817,-0.46371827,0.29633078,-0.7673858,-0.5236774,1.0666842,0.29536822,0.13126121,-0.012789333,1.5209615,-0.3687027
0.0,-0.1,0.8,0.0,0.5235987755982988,0,0.071590334,1.03433,0.8530626,-0.44076377,-0.4147936,0.018808851,-0.085270904,-0.506277,1.0843158,0.3418893,0.024678266,0.15871507,1.5330888,-0.03125314
0.0,-0.1,0.8,0.0,0.5235987755982988,0,0.07462576,0.82642424,0.885351,-0.3608851,-0.516142,0.38762254,0.56544036,-0.48497382,1.2216858,0.3783064,0.04627376,0.20102014,1.4910423,-0.13605653
0.0,-0.1,0.8,0.0,0.5235987755982988,0,0.20583518,1.0146182,1.4191971,-0.29159242,-0.42042416,0.35775673,-0.6693605,-0.51460165,1.1308275,0.39229473,0.036804102,0.16196012,1.5236531,-0.19777264
0.0,-0.1,0.8,0.0,0.5235987755982988,0,0.65426123,0.8178402,0.51066124,-0.37722823,-0.46615016,0.27676126,0.48232034,-0.49368387,1.0968957,0.34236082,-0.025322825,0.02600422,1.510826,-0.28726617
0.0,-0.1,0.8,0.0,0.5235987755982988,0,0.4725223,0.9025697,0.7301066,-0.3387506,-0.34478858,0.535368,-0.20427404,-0.49450096,1.0460633,0.3482424,0.14756256,0.121768855,1.511792,-0.24229902
0.0,-0.1,0.8,0.0,0.5235987755982988,0,0.42680672,0.89622104,0.58167654,-0.37366384,-0.64895844,0.29599136,-0.24331455,-0.5038919,1.0240989,0.45797208,-0.032832935,0.116581224,1.5518906,-0.38335028
0.0,-0.1,0.8,0.0,0.5235987755982988,0,0.4306502,0.49103487,0.8856567,-0.2788289,-0.5827599,0.7253519,-0.24677265,-0.50270957,1.119476,0.34339982,0.021323793,0.19559743,1.4591624,-0.117765054
0.0,-0.1,0.8,0.0,0.5235987755982988,0,-0.08085182,0.7037102,0.55925167,-0.39575458,-0.46975955,0.034612056,0.06904953,-0.4971422,1.0757598,0.24580444,0.20482036,0.1092922,1.5271686,-0.20856555
0.0,-0.1,0.8,0.0,0.5235987755982988,0,0.67515206,1.0340238,0.82241243,-0.32977334,-0.38566887,1.039945,-0.5651864,-0.5090529,1.1551452,0.2683554,0.086399615,0.098865904,1.4661592,0.072378986
0.0,-0.1,0.8,0.0,0.5235987755982988,0,0.4065523,0.97386044,0.708625,-0.40740776,-0.3336158,0.8122721,0.41483164,-0.46390766,0.9871916,0.3524144,0.1149407,0.0429742,1.5246011,-0.22967823
0.0,-0.1,0.8,0.0,0.5235987755982988,0,0.10729119,0.7839347,0.7666004,-0.18017896,-0.45186156,0.7893994,0.27289718,-0.4911524,1.1032152,0.37452593,0.092260875,0.16640382,1.510856,-0.38953772
0.0,-0.1,0.8,0.0,0.5235987755982988,0,0.0035920478,0.799029,0.67824215,-0.40330157,-0.29902124,-0.65325624,-0.34873515,-0.5276821,1.1417018,0.26161915,-0.11763594,0.1807582,1.5395923,-0.18939778
0.0,-0.1,0.8,0.0,0.5235987755982988,0,0.08336737,0.74850297,0.84386426,-0.44999605,-0.52914083,0.12968487,0.046572305,-0.490319,0.92512083,0.29807675,0.23972107,0.18793906,1.4862127,-0.027428621
0.0,-0.1,0.8,0.0,0.5235987755982988,0,0.2095662,0.7304783,0.5862834,-0.55925024,-0.48411867,0.3456935,0.39863205,-0.46515572,1.1102018,0.33027253,0.10176899,0.09296843,1.5590069,-0.08613686
0.0,-0.1,0.8,0.0,0.5235987755982988,0,-0.41792032,0.8127266,0.98372805,-0.17271614,-0.34204713,0.342511,0.30085713,-0.53499097,1.0975245,0.29500878,-0.22174118,0.13796774,1.5618708,-0.7277146
0.0,-0.1,0.8,0.0,0.5235987755982988,0,0.6755868,0.96549654,0.95591915,-0.20230208,-0.44951612,0.5087383,-0.02282901,-0.47646457,1.1840359,0.38752633,-0.10462488,0.0717532,1.5385059,-0.5091141
0.0,-0.1,0.8,0.0,0.5235987755982988,0,0.7606168,0.86662245,0.90710545,-0.23094027,-0.35597828,0.09107235,-0.2401487,-0.4890875,1.0991342,0.2910791,-0.07549083,0.15336773,1.4906934,-0.06728753
0.0,-0.1,0.8,0.0,0.5235987755982988,0,0.008677831,0.953496,0.95096105,-0.1923191,-0.41077432,0.031783093,-0.17269117,-0.47620252,1.087925,0.33926597,0.12305649,0.13053973,1.5022858,-0.43860474
0.0,-0.1,0.8,0.0,0.5235987755982988,0,0.72586197,0.96426326,0.89517444,-0.43454173,-0.27997574,0.28846902,0.48045963,-0.50673014,1.0868907,0.27222493,0.055573754,0.14925422,1.5183548,-0.08097191
0.0,-0.1,0.8,0.0,0.5235987755982988,0,-0.0034350425,0.8881283,0.78796345,-0.17226519,-0.44285357,-0.35727262,0.18493171,-0.51636046,1.0455364,0.21278414,0.0112491,0.08506862,1.5467175,-0.22466034
0.0,-0.1,0.8,0.0,0.5235987755982988,0,-0.07487917,1.0342323,1.1714824,-0.48851696,-0.2702939,-0.029678345,-0.14367002,-0.49795705,1.0085869,0.24376135,0.10189811,0.11135765,1.5055063,0.09243954
0.0,-0.1,0.8,0.0,0.5235987755982988,0,-0.021901555,0.7270127,0.8080123,-0.44061568,-0.3125822,0.08050771,0.0012458186,-0.47133243,1.1111528,0.3603886,0.13535744,0.073334314,1.508388,-0.54768914
0.0,-0.1,0.8,0.0,0.5235987755982988,0,0.21081087,0.6230675,0.84365296,-0.3933083,-0.3984475,0.04178142,0.29457912,-0.47936475,1.044169,0.39186564,0.0071117063,0.17237526,1.5349562,-0.30014303
0.0,-0.1,0.8,0.0,0.5235987755982988,0,1.2304723,0.8714218,1.0447254,-0.4456929,-0.43770853,0.15932627,-0.007999157,-0.4953114,1.0642669,0.34918424,-0.10325795,0.21921991,1.5275968,-0.5033326
0.0,-0.1,0.8,0.0,0.5235987755982988,0,0.059459556,0.91948956,0.7856569,-0.4502729,-0.4172506,-0.6513621,-0.49908847,-0.5212637,1.1779366,0.268565,-0.050578993,0.14752775,1.5078416,-0.27402663
0.0,-0.1,0.8,0.0,0.5235987755982988,0,-0.906648,0.7725505,0.8321941,-0.34350562,-0.3455541,0.6043295,-0.3365728,-0.49715754,1.1370826,0.28465924,0.025564292,0.14018345,1.4927659,-0.35224128
0.0,-0.1,0.8,0.0,0.5235987755982988,0,-0.030046063,0.90000826,1.3749908,-0.35615888,-0.39420676,0.020178258,0.1047857,-0.5173759,1.0860903,0.29197514,-0.08879389,0.15690981,1.5069057,-0.3038698
0.0,-0.1,0.8,0.0,0.5235987755982988,0,0.07340065,0.7940984,0.9412928,-0.84657353,-0.2224291,0.15348816,0.20678583,-0.49157688,1.2523079,0.5297097,0.058425255,0.107998125,1.531363,-0.4488028
0.0,-0.1,0.8,0.0,0.5235987755982988,0,0.4079915,0.9407016,0.7289114,-0.5417563,-0.5124675,0.10887887,0.22402349,-0.50901294,1.1636206,0.3017163,0.029434958,-0.023646927,1.4814223,-0.31618822
0.0,-0.1,0.8,0.0,0.5235987755982988,0,-0.20891222,0.9141824,0.83861804,-0.74561083,-0.54780483,-0.25431532,-0.03616277,-0.50836706,1.1124476,0.24274771,0.22898142,0.12936199,1.4891891,-0.1017574
0.0,-0.1,0.8,0.0,0.5235987755982988,0,0.5316122,0.6559985,0.97102964,-0.3850912,-0.44172955,-0.7090652,0.71128684,-0.5175581,1.1128162,0.43815216,-0.104817405,0.15123008,1.5328087,-0.20640278
0.0,-0.1,0.8,0.0,0.5235987755982988,0,0.26326174,0.9700117,1.0759045,-0.5422545,-0.64169323,0.06317787,0.2862533,-0.46912426,0.996461,0.3349554,0.07484166,0.12717201,1.5535557,-0.47646603
0.0,-0.1,0.8,0.0,0.5235987755982988,0,-0.0004996578,1.0760874,0.8907569,-0.5492427,-0.408313,-0.0677497,0.14994219,-0.5131481,1.0968606,0.4281092,0.029828792,0.03377636,1.4896253,-0.015154936
0.0,-0.1,0.8,0.0,0.5235987755982988,0,0.8305925,0.89413804,1.0615981,-0.17330703,-0.39929828,-0.8513483,0.13666175,-0.49413595,1.1196204,0.29147822,-0.075900696,0.25459534,1.5295552,-0.45825663
0.0,-0.1,0.8,0.0,0.5235987755982988,0,-0.1734519,1.1454624,0.7504311,-0.45298353,-0.2465388,0.488362,0.37968373,-0.49867302,1.0729388,0.32212463,0.16607651,0.16200665,1.5027498,-0.14122446
0.0,-0.1,0.8,0.0,0.5235987755982988,0,0.46491632,1.0165316,0.8192092,-0.46849057,-0.32335037,0.13916224,0.1068972,-0.5014436,1.0461531,0.2745561,0.14666189,0.07236933,1.5121176,-0.5404012
0.0,-0.1,0.8,0.0,0.5235987755982988,0,0.15984294,0.92556787,0.72154963,-0.44427523,-0.49876443,0.19069698,-0.0090403985,-0.5011382,1.0986156,0.23665412,-0.03138149,0.14376236,1.5029442,-0.1748305
0.0,-0.1,0.8,0.0,0.5235987755982988,0,0.2142485,0.8303216,0.8281129,-0.38384873,-0.45198107,0.37329015,0.5873204,-0.49375665,1.0966954,0.32943282,-0.07715816,0.1684189,1.4831861,-0.30060455
0.0,-0.1,0.8,0.0,0.5235987755982988,0,0.091154166,0.8724318,0.71764445,-0.40418905,-0.41659752,0.022808578,0.09738442,-0.5061693,1.0656854,0.30349308,-0.08262093,0.08170746,1.46827,-0.58715385
0.0,-0.1,0.8,0.0,0.5235987755982988,0,0.52792686,0.91468257,0.68501586,-0.48410523,-0.43112433,-0.32810432,0.56757027,-0.51357764,1.1401011,0.31763938,-0.08456109,0.13625869,1.4958187,-0.28781164
0.0,-0.1,0.8,0.0,0.5235987755982988,0,-0.4497389,0.82454187,0.7233358,-0.21285434,-0.47801477,-0.18046387,0.090991646,-0.47882834,1.0184591,0.2609012,0.10842498,0.1007635,1.5251302,-0.19583192
0.0,-0.1,0.8,0.0,0.5235987755982988,0,0.13627334,0.9983421,0.79901195,-0.21962532,-0.44035405,-0.255303,-0.3082776,-0.5092452,0.97837275,0.2667383,0.17561013,0.15312107,1.5072538,0.12847997
0.0,-0.1,0.8,0.0,0.5235987755982988,0,0.65200454,1.0108731,1.0659608,-0.34156686,-0.43709356,-0.8182937,-0.26547167,-0.50953037,1.1456374,0.25775483,-0.16366991,0.1660779,1.5502378,-0.6082645
0.0,-0.1,0.8,0.0,0.5235987755982988,0,0.049913697,1.12865,0.89464855,-0.637072,-0.24358559,-0.35827467,0.18848948,-0.5264968,1.1077034,0.3515076,-0.04061802,0.05246031,1.4768869,-0.23844512
0.0,-0.1,0.8,0.0,0.5235987755982988,0,-0.31334776,0.77602744,0.51268804,-0.32580295,-0.4840253,0.6166316,0.5898128,-0.50302845,1.1748427,0.4041773,0.13782106,0.109264195,1.501517,-0.16382028
0.0,-0.1,0.8,0.0,0.5235987755982988,0,-0.6648866,1.0893296,0.68318415,-0.3574269,-0.30096662,0.19221666,0.3503706,-0.49048772,1.1549345,0.33422065,-0.014397462,0.2203757,1.4928943,-0.16153662
0.0,-0.1,0.8,0.0,0.5235987755982988,0,0.46925,0.6625454,0.75352424,-0.36701268,-0.506317,0.26968595,0.089832395,-0.47555792,1.0044104,0.28095725,0.21321553,0.06443384,1.483781,-0.16441669
0.0,-0.1,0.8,0.0,0.5235987755982988,0,-0.06684233,1.1372632,0.75650775,-0.23326096,-0.27340478,-0.04152954,0.4908099,-0.49150565,1.0829258,0.26111257,-0.031145174,0.2381341,1.4860128,-0.19229688
0.0,-0.1,0.8,0.0,0.5235987755982988,0,0.86308354,1.1067866,0.8722501,-0.2803949,-0.47147813,-0.2808499,-0.26089576,-0.520268,1.1053599,0.40599886,-0.061981846,0.11731018,1.5246546,-0.10313927
0.0,-0.1,0.8,0.0,0.5235987755982988,0,0.2995099,0.997843,1.046733,-0.31420615,-0.40727744,-0.2717251,-0.19860055,-0.5162969,0.9372126,0.35562068,0.09339607,0.054941315,1.5423818,-0.050483584
0.0,-0.1,0.8,0.0,0.5235987755982988,0,0.19878054,0.6952549,0.8785268,-0.31010407,-0.46445265,0.08360253,-0.21858846,-0.4992975,1.1431149,0.359954,-0.07421432,0.08495887,1.5524967,-0.05788188
0.0,-0.1,0.8,0.0,0.5235987755982988,0,-0.57332706,0.7880226,0.8049817,-0.4655039,-0.36216182,0.30363488,-0.06169087,-0.5002774,1.1057854,0.33436686,0.16017476,0.15251061,1.4392834,-0.47744235
0.0,-0.1,0.8,0.0,0.5235987755982988,0,0.16214247,0.9844561,0.8016959,-0.6976624,-0.41598758,-0.028306236,-0.33801827,-0.5139834,1.0714499,0.3096505,-0.0362333,0.1814858,1.5025876,-0.36941558
0.0,-0.1,0.8,0.0,0.5235987755982988,0,-0.68406135,0.7188291,0.6251847,-0.22780247,-0.28892297,0.1311321,-0.00888163,-0.4686362,1.0991721,0.27623683,-0.08729038,0.17215288,1.5053195,-0.25348914
0.0,-0.1,0.8,0.0,0.5235987755982988,0,0.32308915,0.87698394,0.77987456,-0.3640153,-0.37893778,0.6990202,0.1662949,-0.5089242,1.103089,0.3923932,0.017909128,0.13626888,1.5344784,-0.051098693
0.0,-0.1,0.8,0.0,0.5235987755982988,0,0.42957816,0.66066104,0.8324026,-0.4018835,-0.3184738,-0.018887563,-0.4420029,-0.52284133,1.0925846,0.28835398,-0.020138558,0.1187943,1.4726869,-0.5041787
0.0,-0.1,0.8,0.0,0.5235987755982988,0,-0.37580946,1.0604367,0.9561862,-0.3257634,-0.5252623,0.7810821,0.10499484,-0.51158947,1.2001134,0.26086769,0.021334926,0.07820166,1.5072309,-0.52066547
0.0,-0.1,0.8,0.0,0.5235987755982988,0,0.3470972,1.2932245,0.74921095,-0.69432646,-0.49412033,0.14321804,-0.10884074,-0.5339425,1.0944738,0.28302923,-0.05548876,0.1752885,1.5175558,-0.22797196
0.0,-0.1,0.8,0.0,0.5235987755982988,0,0.28586963,0.81543595,0.8030744,-0.2530142,-0.54554105,0.209694,0.3029945,-0.49307358,1.0843917,0.40981427,0.0064925207,0.08126966,1.4947627,-0.36334175
0.0,-0.1,0.8,0.0,0.5235987755982988,0,0.44768408,0.856115,0.81670076,-0.35980043,-0.4445125,0.14885925,0.043158416,-0.5396123,1.0564913,0.2733893,0.031439003,0.07045584,1.5321939,-0.7737486
0.0,-0.1,0.8,0.0,0.5235987755982988,0,-0.27720463,0.8058404,0.8277207,-0.4465615,-0.53472733,-0.41800097,0.0481091,-0.5064435,1.070457,0.43897507,-0.0029926635,0.027342498,1.498119,-0.6373226
0.0,-0.1,0.8,0.0,0.5235987755982988,0,0.30272704,0.81597245,1.0406061,-0.32971817,-0.38209003,-0.56238586,0.50465965,-0.50787485,1.1326734,0.36041498,-0.0044733454,0.12058472,1.4784923,-0.13447174
0.0,-0.1,0.8,0.0,0.5235987755982988,0,0.057988133,0.75906533,0.7048151,-0.64597756,-0.37109533,0.061325468,-0.16197035,-0.5149831,1.0786117,0.39091393,-0.031328984,0.15774883,1.5299389,-0.17158647
0.0,-0.1,0.8,0.0,0.5235987755982988,0,0.09277735,0.87315476,1.0331278,-0.52179193,-0.40904233,0.57568556,0.02168394,-0.5003633,1.146085,0.3511331,0.0032081788,0.16735782,1.5198144,-0.24720019
0.0,-0.1,0.8,0.0,0.5235987755982988,0,0.444667,0.94953495,0.7189273,-0.3241318,-0.33704498,0.61450857,-0.38546535,-0.49143198,1.0830839,0.2973728,-0.05199801,0.16720106,1.46969,-0.3286605
0.0,-0.1,0.8,0.0,0.5235987755982988,0,-0.36189914,0.98570514,0.78957206,-0.6129548,-0.6716998,0.037046745,0.26804614,-0.5262215,0.99107534,0.2854571,0.037444323,0.12003741,1.5021415,-0.16703703
0.0,-0.1,0.8,0.0,0.5235987755982988,0,0.26693392,0.9121026,0.96098846,-0.31667367,-0.472214,0.692223,-0.18931632,-0.52228165,1.1157556,0.34556115,-0.0073502045,0.1487899,1.5136659,-0.24374157
0.0,-0.1,0.8,0.0,0.5235987755982988,0,0.23230375,0.81880045,0.7675134,-0.5462605,-0.20773736,0.13503774,0.4064847,-0.51516545,1.0712034,0.39866668,0.03037043,0.04209033,1.4989398,-0.22062403
0.0,-0.1,0.8,0.0,0.5235987755982988,0,0.8589577,0.90261924,0.6086867,-0.32349768,-0.43073142,0.09342286,-0.0016224764,-0.49829236,1.0559267,0.32039568,0.079519935,0.09665489,1.5125414,-0.16386525
0.0,-0.1,0.8,0.0,0.5235987755982988,0,-0.15059708,0.915429,1.0250171,-0.4925013,-0.43014762,0.5214088,0.31009522,-0.44339147,1.068108,0.36637944,0.08382019,0.10012027,1.5119357,-0.4255119
0.0,-0.1,0.8,0.0,0.5235987755982988,0,0.4534446,1.0040295,0.7279389,-0.358723,-0.43107623,-0.2621379,-0.62440777,-0.5187765,1.0037836,0.3178387,0.10640973,0.20597534,1.5515774,0.095088385
0.0,-0.1,0.8,0.0,0.5235987755982988,0,0.6182084,0.8085447,0.6412587,-0.3551299,-0.5540747,0.07795678,-0.3739425,-0.46272033,1.080754,0.2646467,0.113592625,0.20508324,1.5224254,-0.35844892
0.0,-0.1,0.8,0.0,0.5235987755982988,0,0.3917999,0.9464765,0.79940414,-0.36212337,-0.45936003,0.82781154,0.19444853,-0.51634234,1.0445865,0.31420296,-0.1016302,0.08693685,1.5519135,-0.29538667
0.0,-0.1,0.8,0.0,0.5235987755982988,0,0.21914336,0.89030755,0.8114956,-0.2183781,-0.41431734,0.45398048,0.11477102,-0.48477095,1.0925057,0.24135731,0.17725897,0.15210274,1.4818875,-0.3836222
0.0,-0.1,0.8,0.0,0.5235987755982988,0,0.38770556,0.947707,0.81256086,-0.5055238,-0.32046106,0.04198549,0.06178824,-0.485642,1.1542746,0.3084719,0.13494998,0.13932525,1.5090716,-0.5412034
0.0,-0.1,0.8,0.0,0.5235987755982988,0,-0.3568123,0.8374355,0.83637196,-0.36504123,-0.33170217,-0.36087817,0.3214037,-0.49977815,1.0496505,0.3028075,0.19098024,0.056992214,1.5083531,-0.29121354
0.0,-0.1,0.8,0.0,0.5235987755982988,0,0.2985041,0.76322377,0.59560317,-0.25092128,-0.54483384,-0.36285755,-0.0048217527,-0.50541043,0.8791121,0.30099505,0.14619538,0.12415947,1.5229485,-0.38941342
0.0,-0.1,0.8,0.0,0.5235987755982988,0,0.5353609,0.79371464,0.8001901,-0.14492826,-0.5919629,-0.38849607,-0.096245386,-0.4903793,0.9635121,0.30083436,0.06235343,0.19044429,1.5380511,0.063672766
0.0,-0.1,0.8,0.0,0.5235987755982988,0,1.0936625,0.81442094,1.0441064,-0.2190264,-0.41502005,0.8644015,0.65388244,-0.49663374,0.99390167,0.29753336,0.120554656,0.21068853,1.522935,-0.017536178
0.0,-0.1,0.8,0.0,0.5235987755982988,0,0.06164772,0.99340963,0.7113164,-0.5526535,-0.5890392,-0.16690432,0.92991483,-0.5263647,1.0841606,0.3209188,0.0051243566,0.18149067,1.5634171,-0.06428002
0.0,-0.1,0.8,0.0,0.5235987755982988,0,0.40426272,1.0364989,0.70592636,-0.6282173,-0.41753405,0.12800047,0.37068427,-0.47971755,1.1235033,0.3806353,0.0904456,0.09041043,1.5145278,-0.154989
0.0,-0.1,0.8,0.0,0.5235987755982988,0,0.1502573,0.9111364,0.61134344,-0.45466208,-0.39465752,-0.037252806,0.22734386,-0.51865554,1.1111696,0.45001388,0.13016753,0.12189322,1.5068129,-0.49912035
0.0,-0.1,0.8,0.0,0.5235987755982988,0,-0.47587273,0.75677526,0.5390094,-0.26492915,-0.3941237,0.1080699,0.4645238,-0.48194063,1.1510577,0.3503617,0.07364379,0.071573295,1.4836586,-0.017391557
0.0,-0.1,0.8,0.0,0.5235987755982988,0,0.6740665,0.8445026,1.0949798,-0.53095835,-0.270127,0.6592414,-0.16707395,-0.5215166,1.103034,0.32358295,0.051303606,0.12194172,1.5392187,-0.25984028
0.0,-0.1,0.8,0.0,0.5235987755982988,0,0.710864,1.036154,0.88414115,-0.28982118,-0.5611438,-0.28847462,-0.39414302,-0.5064409,0.9581461,0.30104467,0.09754799,0.085596874,1.4892439,-0.20929731
0.0,-0.1,0.8,0.0,0.5235987755982988,0,0.20307326,1.0476516,0.8793379,-0.029696833,-0.563265,-0.17556548,0.010162761,-0.5297888,1.1380601,0.29781908,0.17843889,0.18429479,1.534019,-0.24848539
0.0,-0.1,0.8,0.0,0.5235987755982988,0,0.86066455,0.92805463,1.022774,-0.49967438,-0.4126892,-0.12569496,-0.28634036,-0.5112843,1.0299277,0.440232,0.044972867,0.03175111,1.5507101,-0.459214
0.0,-0.1,0.8,0.0,0.5235987755982988,0,0.98410827,0.8165014,1.0769055,-0.3160475,-0.3561024,-0.19504687,0.4675866,-0.5054523,1.1438711,0.3344132,0.1499903,0.010321144,1.5084429,-0.010873289
0.0,-0.1,0.8,0.0,0.5235987755982988,0,0.36778805,1.0098282,0.8139883,-0.1182682,-0.35270965,-0.108345,0.15125059,-0.5149811,1.0827721,0.35891563,0.19148794,0.039421935,1.4822857,-0.46765497
0.0,-0.1,0.8,0.0,0.5235987755982988,0,0.14595126,0.75283706,0.8164983,-0.39565685,-0.39582682,-0.3425169,0.31153342,-0.4682715,1.0306368,0.21110356,0.20980738,0.12617236,1.5138384,-0.29922786
0.0,-0.1,0.8,0.0,0.5235987755982988,0,0.2858986,1.0336202,0.9850608,-0.22328526,-0.32052445,-0.15581544,0.43920192,-0.50775963,1.0699545,0.40352312,0.13281448,0.22690798,1.5240657,-0.21921323
0.0,-0.1,0.8,0.0,0.5235987755982988,0,-0.005447426,0.90486956,0.78536856,-0.58998674,-0.33171374,0.2842112,-0.010232828,-0.48223874,1.0718051,0.29917488,0.025784932,0.09767136,1.5380086,0.017554812
0.0,-0.1,0.8,0.0,0.5235987755982988,0,0.38001958,0.6932259,0.87515074,-0.22493346,-0.31194508,0.24161813,0.18606178,-0.49054027,1.0598947,0.40729186,0.0714187,0.14925925,1.5653646,-0.5070923
0.0,-0.1,0.8,0.0,0.5235987755982988,0,-0.06829868,0.7530626,1.0390961,-0.28165713,-0.35477722,-0.083395906,-0.37041894,-0.5370896,1.0667694,0.38492584,0.06876996,0.18831255,1.5258718,0.022276426
0.0,-0.1,0.8,0.0,0.5235987755982988,0,0.2629239,1.0800362,0.87624884,-0.13272998,-0.58033323,0.30389768,0.3467775,-0.51024026,1.1457568,0.3626007,-0.030936632,0.18686149,1.5524923,-0.6146062
0.0,-0.1,0.8,0.0,0.5235987755982988,0,0.26809746,0.91967875,1.0567797,-0.2989205,-0.24131326,0.19050822,0.51392233,-0.49250615,1.1217525,0.3035393,0.12435955,0.14011551,1.5007001,-0.40570602
0.0,-0.1,0.8,0.0,0.5235987755982988,0,0.18266709,0.6405886,0.7632665,-0.17481531,-0.3086798,0.2950134,-0.17392604,-0.51712024,1.1306891,0.34468845,0.11661371,0.23775788,1.5509366,-0.5142172
0.0,-0.1,0.8,0.0,0.5235987755982988,0,0.4763974,0.9336708,0.87860847,-0.33004317,-0.6579843,-0.5948997,0.17788397,-0.4931045,1.1008617,0.28276384,-0.0007906941,0.12694196,1.565987,0.019001506
0.0,-0.1,0.8,0.0,0.5235987755982988,0,0.08767623,0.9458781,0.82312167,-0.3937119,-0.34064266,-0.76944184,0.34211406,-0.49560088,1.1280092,0.26218444,-0.0020132707,0.18117936,1.4896024,-0.3874983
0.0,-0.1,0.8,0.0,0.5235987755982988,0,0.14711605,0.9284479,0.8990551,-0.19190913,-0.33035174,-0.41785288,-0.054153007,-0.5099964,1.1221714,0.39883006,0.050244484,0.14277343,1.4814153,-0.095040426
0.0,-0.1,0.8,0.0,0.5235987755982988,0,0.1386445,0.9913718,0.66102993,-0.30475354,-0.47551167,0.12834626,0.4838604,-0.512757,0.9586589,0.3803261,0.18949273,-0.013077781,1.5226852,-0.43091363
0.0,-0.1,0.8,0.0,0.5235987755982988,0,0.9205891,1.1397803,0.8325287,-0.56231815,-0.5989815,-0.06839993,0.26824698,-0.51522034,1.0210841,0.2995403,0.09714245,0.0442282,1.5065459,-0.18953441
0.0,-0.1,0.8,0.0,0.5235987755982988,0,-0.20786315,0.6071642,0.9726141,-0.45535287,-0.4826872,0.8124128,0.17789347,-0.50611395,1.1068746,0.38270432,0.065648034,0.08319894,1.5421131,-0.2262866
0.0,-0.1,0.8,0.0,0.5235987755982988,0,0.22736569,0.801836,1.0332359,-0.59505534,-0.3855011,-0.31251678,0.24199955,-0.50302696,1.0389191,0.3687086,0.05897668,0.060940202,1.5435286,-0.39321584
0.0,-0.1,0.8,0.0,0.5235987755982988,0,-0.1904907,0.88149077,0.9096615,-0.1606917,-0.4911275,0.44211254,-0.4347692,-0.49592438,1.0939422,0.28369805,-0.0024151655,0.083848275,1.527475,-0.64503556
0.0,-0.1,0.8,0.0,0.5235987755982988,0,-0.29215914,0.75220656,0.76746315,-0.551854,-0.42044884,0.31619224,0.16853303,-0.5127267,1.0805831,0.37919062,0.072454736,0.11728751,1.5163076,-0.6448086
0.0,-0.1,0.8,0.0,0.5235987755982988,0,0.44375217,0.92715997,0.89542776,-0.48344627,-0.41581982,1.1024328,0.6485897,-0.51694155,1.0676286,0.29236722,0.050932247,0.18446614,1.490596,-0.32920903
0.0,-0.1,0.8,0.0,0.5235987755982988,0,0.30083394,1.2256365,0.7985325,-0.12660664,-0.34759265,1.0385563,0.029245032,-0.5176111,1.0945264,0.36263707,0.13191918,0.15849105,1.4958065,-0.35488006
0.0,-0.1,0.8,0.0,0.5235987755982988,0,-0.019834913,0.6831055,1.1758236,-0.558608,-0.43438765,0.42693573,0.17734765,-0.5037804,1.025556,0.26856598,0.03485121,0.14637864,1.5451348,-0.118924566
0.0,-0.1,0.8,0.0,0.5235987755982988,0,-0.30808398,0.9478244,0.77486646,-0.48294905,-0.48827186,0.4747267,-0.12758279,-0.4930703,1.2288101,0.27184558,-0.00049135624,0.16192631,1.5343512,-0.28429842
0.0,-0.1,0.8,0.0,0.5235987755982988,0,0.5581054,0.7435773,1.1400899,-0.537481,-0.5308286,0.5041908,-0.07969027,-0.5019132,1.0593486,0.3828384,0.041004065,0.12014148,1.43254,0.0006586713
0.0,-0.1,0.8,0.0,0.5235987755982988,0,0.4026266,0.9645236,0.81495523,-0.4727228,-0.29077128,0.053378865,0.14638773,-0.4711902,1.0722926,0.24224839,0.15445656,0.15452549,1.46233,-0.60913527
0.0,-0.1,0.8,0.0,0.5235987755982988,0,0.5955005,1.1050748,0.9111474,-0.6994005,-0.4120714,-0.33923435,-0.036985397,-0.5041609,1.0711569,0.38472173,0.045412444,0.10359771,1.5386069,-0.21269073
0.0,-0.1,0.8,0.0,0.5235987755982988,0,0.7336857,0.91201,1.0606102,-0.58116984,-0.55077296,-0.1836645,0.545192,-0.47877955,1.0409014,0.25715762,-0.0054823346,0.2284948,1.4974697,-0.06987994
0.0,-0.1,0.8,0.0,0.5235987755982988,0,0.28276092,1.0314702,0.96615636,-0.5421285,-0.2590972,0.7623512,0.18066186,-0.5098537,0.9854745,0.28145668,0.24558124,0.12594539,1.501664,-0.23913929
0.0,-0.1,0.8,0.0,0.5235987755982988,0,0.8393148,0.87424856,0.82895917,-0.6620645,-0.3550531,-0.13166706,0.02976976,-0.5257706,1.0860313,0.28933486,0.2788343,0.05772505,1.5056592,-0.08772228
0.0,-0.1,0.8,0.0,0.5235987755982988,0,0.5075099,0.5756204,0.79229105,-0.5973086,-0.3086989,0.3153449,0.6314338,-0.5277204,0.9916626,0.3613823,0.15401004,0.011228537,1.5000049,-0.36304668
0.0,-0.1,0.8,0.0,0.5235987755982988,0,0.4983157,1.0658348,0.9594402,-0.2247786,-0.46158913,0.22698925,0.24136148,-0.49377754,0.9302953,0.32759994,0.24990511,0.17107004,1.5398718,-0.099236734
0.0,-0.1,0.8,0.0,0.5235987755982988,0,0.650822,1.083886,0.45018664,-0.33279574,-0.45261237,-0.6011215,-0.016033366,-0.49620625,1.0677096,0.32319975,-0.061731078,0.17954537,1.5074556,-0.3265291
0.0,-0.1,0.8,0.0,0.5235987755982988,0,0.09040254,0.9082561,0.996631,-0.7545332,-0.5099515,0.26611644,-0.14836091,-0.52026474,0.9561786,0.43548068,0.078096226,0.09617353,1.5124128,-0.36784416
0.0,-0.1,0.8,0.0,0.5235987755982988,0,-0.08369581,0.91553384,0.7472539,-0.2713038,-0.6296573,0.38075137,0.2404195,-0.49887756,1.0212543,0.293904,0.018929217,0.19653952,1.5472473,-0.71733737
0.0,-0.1,0.8,0.0,0.5235987755982988,0,0.4894398,0.9462708,0.76226157,-0.2869901,-0.47928214,0.08323327,-0.09861122,-0.509686,1.0643597,0.38766488,0.018583596,0.12321509,1.4989516,-0.5908229
0.0,-0.1,0.8,0.0,0.5235987755982988,0,0.5562241,0.880802,0.40101153,-0.6172456,-0.41736504,-0.20263992,-0.14637856,-0.51260924,1.0238414,0.31863564,0.030032732,0.1836796,1.5155758,-0.3973669
0.0,-0.1,0.8,0.0,0.5235987755982988,0,0.22973706,1.0546093,1.1446123,-0.307837,-0.43542767,-0.22858945,0.08384523,-0.5081973,1.0144224,0.39257622,0.04479208,0.16593745,1.5437698,-0.35571298
0.0,-0.1,0.8,0.0,0.5235987755982988,0,0.6119141,0.9319749,0.5144741,-0.31031415,-0.49612272,0.23724222,-0.04586991,-0.52536964,1.0900911,0.3930839,-0.061553482,0.1559856,1.543397,-0.24390298
0.0,-0.1,0.8,0.0,0.5235987755982988,0,0.30847222,0.8156843,0.74324554,-0.3673618,-0.4551723,-0.043725036,0.4008534,-0.51119417,1.0501239,0.32408345,0.07141366,0.22039068,1.4973911,-0.47068617
0.0,-0.1,0.8,0.0,0.5235987755982988,0,0.1594594,0.76191694,0.74329865,-0.76230633,-0.16924492,0.33325046,0.4519632,-0.52107143,1.0758361,0.4337876,-0.00359796,0.07601355,1.5399228,-0.5409249
0.0,-0.1,0.8,0.0,0.5235987755982988,0,0.7376824,1.0117387,0.5479488,-0.13831909,-0.3006211,-0.67055887,-0.37159848,-0.50329393,1.0928023,0.41981512,-0.024095755,0.1260201,1.5189952,-0.5540063
0.0,-0.1,0.8,0.0,0.5235987755982988,0,0.29171947,0.7971373,1.0415152,-0.32609758,-0.3949573,-0.11586645,-0.5068502,-0.49375486,0.9222956,0.2659437,-0.010279063,0.21274394,1.5004181,-0.15219527
0.0,-0.1,0.8,0.0,0.5235987755982988,0,0.30901128,0.90494776,0.7211785,-0.41878766,-0.53998995,-0.6973885,-0.40868893,-0.5244752,0.9653062,0.3514087,0.0077894973,0.1668733,1.5228184,-0.36041385
0.0,-0.1,0.8,0.0,0.5235987755982988,0,0.42343405,0.8607598,0.87865525,-0.22834018,-0.16555053,0.24709737,0.033003133,-0.5126529,0.94378406,0.37265238,0.17067145,0.26300934,1.4912586,-0.18086374
0.0,-0.1,0.8,0.0,0.5235987755982988,0,0.119002,0.8620431,0.8037728,-0.28515875,-0.45300904,0.4171502,0.8775221,-0.5128127,0.99941385,0.3637298,0.0033222712,0.14197937,1.5226955,-0.43821844
0.0,-0.1,0.8,0.0,0.5235987755982988,0,0.10480261,0.8242559,0.89188015,-0.26089582,-0.39435774,-0.24456707,-0.27496225,-0.49708393,1.1697137,0.31503946,0.11483443,0.21328999,1.5179402,-0.33437213
0.0,-0.1,0.8,0.0,0.5235987755982988,0,0.51668483,0.97954464,0.9974178,-0.65116966,-0.23095955,0.121269576,-0.24743901,-0.45570785,1.0151418,0.35791445,0.13260083,0.19712515,1.5154094,-0.42088535
0.0,-0.1,0.8,0.0,0.5235987755982988,0,0.009881512,0.9253137,0.8729456,-0.31752098,-0.17127387,0.51726884,0.2723052,-0.5285468,1.0223502,0.46783152,0.15268463,0.12664318,1.5158582,-0.16436978
0.0,-0.1,0.8,0.0,0.5235987755982988,0,0.162871,1.0740006,0.8657718,-0.41349107,-0.23008098,-0.34660375,0.09966035,-0.4997399,0.98949665,0.3579728,0.03671141,0.14020956,1.5174955,-0.1489366
0.0,-0.1,0.8,0.0,0.5235987755982988,0,0.53890884,0.90462005,1.0822604,-0.14472263,-0.34231618,-0.21592024,0.27422586,-0.50204355,1.0285783,0.35800144,0.07187525,0.080977514,1.5257169,-0.3781756
0.0,-0.1,0.8,0.0,0.5235987755982988,0,0.21109477,1.0827192,0.61254555,-0.66366076,-0.39437324,-0.06056132,-0.12297291,-0.50237876,0.949019,0.37631506,0.0539846,0.14026079,1.5412081,-0.36171687
0.0,-0.1,0.8,0.0,0.5235987755982988,0,0.3457464,1.0594419,0.94833475,-0.2551836,-0.44549924,-0.030070344,-0.29245636,-0.48204637,1.1019636,0.43658748,-0.03791921,0.043347333,1.5576215,-0.13735421
0.0,-0.1,0.8,0.0,0.5235987755982988,0,0.36764973,1.0194345,1.0948703,-0.4119983,-0.33585837,-0.36396578,0.4686349,-0.49124038,0.9382127,0.43603623,0.2004229,0.19111559,1.5537542,-0.050220497
0.0,-0.1,0.8,0.0,0.5235987755982988,0,0.36764973,1.0194345,1.0948703,-0.4119983,-0.33585837,-0.36396578,0.4686349,-0.49124038,0.9382127,0.43603623,0.2004229,0.19111559,1.5537542,-0.050220497
0.0,-0.1,0.8,0.0,0.5235987755982988,0,0.36764973,1.0194345,1.0948703,-0.4119983,-0.33585837,-0.36396578,0.4686349,-0.49124038,0.9382127,0.43603623,0.2004229,0.19111559,1.5537542,-0.050220497
0.0,-0.1,0.8,0.0,0.5235987755982988,0,0.36764973,1.0194345,1.0948703,-0.4119983,-0.33585837,-0.36396578,0.4686349,-0.49124038,0.9382127,0.43603623,0.2004229,0.19111559,1.5537542,-0.050220497
0.0,-0.1,0.8,0.0,0.5235987755982988,0,0.36764973,1.0194345,1.0948703,-0.4119983,-0.33585837,-0.36396578,0.4686349,-0.49124038,0.9382127,0.43603623,0.2004229,0.19111559,1.5537542,-0.050220497
0.0,-0.1,0.8,0.0,0.5235987755982988,0,0.36764973,1.0194345,1.0948703,-0.4119983,-0.33585837,-0.36396578,0.4686349,-0.49124038,0.9382127,0.43603623,0.2004229,0.19111559,1.5537542,-0.050220497
0.0,-0.1,0.8,0.0,0.5235987755982988,0,0.36764973,1.0194345,1.0948703,-0.4119983,-0.33585837,-0.36396578,0.4686349,-0.49124038,0.9382127,0.43603623,0.2004229,0.19111559,1.5537542,-0.050220497
0.0,-0.1,0.8,0.0,0.5235987755982988,0,0.36764973,1.0194345,1.0948703,-0.4119983,-0.33585837,-0.36396578,0.4686349,-0.49124038,0.9382127,0.43603623,0.2004229,0.19111559,1.5537542,-0.050220497
0.0,-0.1,0.8,0.0,0.5235987755982988,0,-0.23108709,0.9406835,1.1331997,-0.5262985,-0.39604208,0.50936484,0.40062654,-0.5128971,1.1150665,0.3684382,-0.013492504,0.14186724,1.5234157,-0.19452414
0.0,-0.1,0.8,0.0,0.5235987755982988,0,-0.23108709,0.9406835,1.1331997,-0.5262985,-0.39604208,0.50936484,0.40062654,-0.5128971,1.1150665,0.3684382,-0.013492504,0.14186724,1.5234157,-0.19452414
0.0,-0.1,0.8,0.0,0.5235987755982988,0,-0.23108709,0.9406835,1.1331997,-0.5262985,-0.39604208,0.50936484,0.40062654,-0.5128971,1.1150665,0.3684382,-0.013492504,0.14186724,1.5234157,-0.19452414
0.0,-0.1,0.8,0.0,0.5235987755982988,0,-0.23108709,0.9406835,1.1331997,-0.5262985,-0.39604208,0.50936484,0.40062654,-0.5128971,1.1150665,0.3684382,-0.013492504,0.14186724,1.5234157,-0.19452414
0.0,-0.1,0.8,0.0,0.5235987755982988,0,-0.23108709,0.9406835,1.1331997,-0.5262985,-0.39604208,0.50936484,0.40062654,-0.5128971,1.1150665,0.3684382,-0.013492504,0.14186724,1.5234157,-0.19452414
0.0,-0.1,0.8,0.0,0.5235987755982988,0,-0.23108709,0.9406835,1.1331997,-0.5262985,-0.39604208,0.50936484,0.40062654,-0.5128971,1.1150665,0.3684382,-0.013492504,0.14186724,1.5234157,-0.19452414
0.0,-0.1,0.8,0.0,0.5235987755982988,0,-0.23108709,0.9406835,1.1331997,-0.5262985,-0.39604208,0.50936484,0.40062654,-0.5128971,1.1150665,0.3684382,-0.013492504,0.14186724,1.5234157,-0.19452414
0.0,-0.1,0.8,0.0,0.5235987755982988,0,-0.23108709,0.9406835,1.1331997,-0.5262985,-0.39604208,0.50936484,0.40062654,-0.5128971,1.1150665,0.3684382,-0.013492504,0.14186724,1.5234157,-0.19452414
0.0,-0.1,0.8,0.0,0.5235987755982988,0,0.61787885,0.81092834,0.63847005,-0.20418316,-0.5205487,0.7655907,-0.10238265,-0.5136087,1.0466216,0.26978734,0.089911826,0.20906413,1.516329,-0.039514065
0.0,-0.1,0.8,0.0,0.5235987755982988,0,0.61787885,0.81092834,0.63847005,-0.20418316,-0.5205487,0.7655907,-0.10238265,-0.5136087,1.0466216,0.26978734,0.089911826,0.20906413,1.516329,-0.039514065
0.0,-0.1,0.8,0.0,0.5235987755982988,0,0.61787885,0.81092834,0.63847005,-0.20418316,-0.5205487,0.7655907,-0.10238265,-0.5136087,1.0466216,0.26978734,0.089911826,0.20906413,1.516329,-0.039514065
0.0,-0.1,0.8,0.0,0.5235987755982988,0,0.61787885,0.81092834,0.63847005,-0.20418316,-0.5205487,0.7655907,-0.10238265,-0.5136087,1.0466216,0.26978734,0.089911826,0.20906413,1.516329,-0.039514065
0.0,-0.1,0.8,0.0,0.5235987755982988,0,0.61787885,0.81092834,0.63847005,-0.20418316,-0.5205487,0.7655907,-0.10238265,-0.5136087,1.0466216,0.26978734,0.089911826,0.20906413,1.516329,-0.039514065
0.0,-0.1,0.8,0.0,0.5235987755982988,0,0.61787885,0.81092834,0.63847005,-0.20418316,-0.5205487,0.7655907,-0.10238265,-0.5136087,1.0466216,0.26978734,0.089911826,0.20906413,1.516329,-0.039514065
0.0,-0.1,0.8,0.0,0.5235987755982988,0,0.61787885,0.81092834,0.63847005,-0.20418316,-0.5205487,0.7655907,-0.10238265,-0.5136087,1.0466216,0.26978734,0.089911826,0.20906413,1.516329,-0.039514065
0.0,-0.1,0.8,0.0,0.5235987755982988,0,0.61787885,0.81092834,0.63847005,-0.20418316,-0.5205487,0.7655907,-0.10238265,-0.5136087,1.0466216,0.26978734,0.089911826,0.20906413,1.516329,-0.039514065
0.0,-0.1,0.8,0.0,0.5235987755982988,0,0.61787885,0.81092834,0.63847005,-0.20418316,-0.5205487,0.7655907,-0.10238265,-0.5136087,1.0466216,0.26978734,0.089911826,0.20906413,1.516329,-0.039514065
0.0,-0.1,0.8,0.0,0.5235987755982988,0,-0.1769491,0.9904936,0.7352449,-0.5748626,-0.38767716,-0.13051209,-0.24980423,-0.48476517,0.8798693,0.37050563,0.15251265,0.12589811,1.4531075,-0.37325004
0.0,-0.1,0.8,0.0,0.5235987755982988,0,-0.1769491,0.9904936,0.7352449,-0.5748626,-0.38767716,-0.13051209,-0.24980423,-0.48476517,0.8798693,0.37050563,0.15251265,0.12589811,1.4531075,-0.37325004
0.0,-0.1,0.8,0.0,0.5235987755982988,0,-0.1769491,0.9904936,0.7352449,-0.5748626,-0.38767716,-0.13051209,-0.24980423,-0.48476517,0.8798693,0.37050563,0.15251265,0.12589811,1.4531075,-0.37325004
0.0,-0.1,0.8,0.0,0.5235987755982988,0,-0.1769491,0.9904936,0.7352449,-0.5748626,-0.38767716,-0.13051209,-0.24980423,-0.48476517,0.8798693,0.37050563,0.15251265,0.12589811,1.4531075,-0.37325004
0.0,-0.1,0.8,0.0,0.5235987755982988,0,-0.1769491,0.9904936,0.7352449,-0.5748626,-0.38767716,-0.13051209,-0.24980423,-0.48476517,0.8798693,0.37050563,0.15251265,0.12589811,1.4531075,-0.37325004
0.0,-0.1,0.8,0.0,0.5235987755982988,0,-0.1769491,0.9904936,0.7352449,-0.5748626,-0.38767716,-0.13051209,-0.24980423,-0.48476517,0.8798693,0.37050563,0.15251265,0.12589811,1.4531075,-0.37325004
0.0,-0.1,0.8,0.0,0.5235987755982988,0,-0.1769491,0.9904936,0.7352449,-0.5748626,-0.38767716,-0.13051209,-0.24980423,-0.48476517,0.8798693,0.37050563,0.15251265,0.12589811,1.4531075,-0.37325004
