sanky1234/BimanualDexCatch/isaacgymenvs/cem_results/May31/football_pose_0.0_-0.1_1.2_-0.5235987755982988_-0.5235987755982988_0_2025-05-31.csv
x,y,z,roll,pitch,yaw,robot1/joint1,robot1/joint2,robot1/joint3,robot1/joint4,robot1/joint5,robot1/joint6,robot1/joint7,robot2/joint1,robot2/joint2,robot2/joint3,robot2/joint4,robot2/joint5,robot2/joint6,robot2/joint7
0.0,-0.1,1.2,-0.5235987755982988,-0.5235987755982988,0,-0.13375609,-0.7329481,-2.3615527,0.20450848,1.8624688,-0.30116215,-0.47299907,-0.90902746,-1.3180865,-0.4281827,0.086781435,-0.56788766,1.543882,-0.37505445
0.0,-0.1,1.2,-0.5235987755982988,-0.5235987755982988,0,-0.2962066,-0.67434967,-2.1535234,-0.02289079,1.6693311,0.14965485,-0.38317028,-0.9249677,-1.3179789,-0.4395496,0.097473815,-0.5776151,1.5468204,-0.5084235
0.0,-0.1,1.2,-0.5235987755982988,-0.5235987755982988,0,-0.18779528,-0.6743308,-2.245636,0.13499914,1.8582765,-0.15113123,-0.30063292,-0.96071327,-1.3232753,-0.4459394,0.093920976,-0.5443864,1.5528504,-0.4673995
0.0,-0.1,1.2,-0.5235987755982988,-0.5235987755982988,0,-0.31458315,-0.6967147,-2.170879,-0.2597025,1.4923886,0.15919936,-0.14965214,-0.9134964,-1.3303907,-0.45674098,0.10872368,-0.568279,1.5377462,-0.4591756
0.0,-0.1,1.2,-0.5235987755982988,-0.5235987755982988,0,-0.1705457,-0.746549,-2.1837804,0.038567472,1.7732073,0.56231654,-0.3767161,-0.9266193,-1.3443015,-0.427331,0.1173463,-0.5849031,1.5386516,-0.488551
0.0,-0.1,1.2,-0.5235987755982988,-0.5235987755982988,0,-0.092392795,-0.86625564,-2.1328743,-0.10055861,2.0248563,0.091453835,-0.577886,-0.8990974,-1.3161639,-0.4514085,0.116516106,-0.56591266,1.5389079,-0.58301514
0.0,-0.1,1.2,-0.5235987755982988,-0.5235987755982988,0,-0.16038069,-0.7769756,-2.2732167,0.0043702284,1.8799568,0.2814718,0.08144719,-0.92263466,-1.3304429,-0.41769078,0.09853952,-0.54575455,1.5261227,-0.7267874
0.0,-0.1,1.2,-0.5235987755982988,-0.5235987755982988,0,-0.21452971,-0.81928647,-2.0704288,0.09375071,1.7198652,0.8240302,-0.45535502,-0.9018262,-1.3069692,-0.48039776,0.11016616,-0.5731015,1.5409468,-0.48432195
0.0,-0.1,1.2,-0.5235987755982988,-0.5235987755982988,0,-0.2544951,-0.71312463,-2.1975765,-0.18427756,1.6301987,-0.0025036077,-0.20063414,-0.9118311,-1.3351316,-0.41247457,0.09453464,-0.53772664,1.5403394,-0.5499848
0.0,-0.1,1.2,-0.5235987755982988,-0.5235987755982988,0,-0.1968093,-0.7252322,-2.269912,0.26937413,1.813171,-0.5564909,-0.6114362,-0.9383888,-1.3020636,-0.46170995,0.129315,-0.6123537,1.5278033,-0.46523356
0.0,-0.1,1.2,-0.5235987755982988,-0.5235987755982988,0,-0.27191904,-0.7654374,-2.1636868,0.12281636,1.6043886,0.10926213,-0.5282166,-0.8766036,-1.2974669,-0.4070572,0.120662555,-0.59871936,1.5463905,-0.49357933
0.0,-0.1,1.2,-0.5235987755982988,-0.5235987755982988,0,-0.4354011,-0.722562,-2.054312,0.22301365,1.366853,0.23332857,-0.3668362,-0.9442177,-1.3497075,-0.33886975,0.10026608,-0.59240746,1.5494285,-0.48151463
0.0,-0.1,1.2,-0.5235987755982988,-0.5235987755982988,0,-0.15936312,-0.89524865,-2.2043853,-0.44221845,1.839128,0.5539724,-0.48146778,-0.9335192,-1.3172652,-0.356958,0.108753085,-0.5798499,1.5453031,-0.64645135
0.0,-0.1,1.2,-0.5235987755982988,-0.5235987755982988,0,-0.06997588,-0.8078532,-2.2477121,0.10117825,1.8332552,0.37085733,-0.41835836,-0.9038828,-1.3644884,-0.4217065,0.09092909,-0.57688415,1.5386462,-0.4348465
0.0,-0.1,1.2,-0.5235987755982988,-0.5235987755982988,0,-0.22060913,-0.8643559,-2.179396,0.033788625,1.9390218,-1.1763014,-0.36552522,-0.8612478,-1.3209976,-0.35323635,0.10030343,-0.54883474,1.5543406,-0.46003613
0.0,-0.1,1.2,-0.5235987755982988,-0.5235987755982988,0,-0.2413714,-0.78579396,-2.107026,-0.10930393,1.6803404,-0.21216036,0.4493221,-0.9373687,-1.3411045,-0.39525256,0.09810216,-0.585007,1.5628799,-0.5582421
0.0,-0.1,1.2,-0.5235987755982988,-0.5235987755982988,0,-0.14282867,-0.8196064,-2.1387079,0.057065126,1.5076247,-0.24228571,-0.41467556,-0.9585566,-1.3265218,-0.40791798,0.124411464,-0.6065689,1.5375091,-0.29555848
0.0,-0.1,1.2,-0.5235987755982988,-0.5235987755982988,0,-0.23703459,-0.89793366,-2.2197864,0.19155432,1.5486834,0.12969197,-0.36568338,-0.92986983,-1.3005527,-0.293978,0.11564718,-0.5704653,1.5494958,-0.43709517
0.0,-0.1,1.2,-0.5235987755982988,-0.5235987755982988,0,-0.20278506,-0.7387914,-2.1750195,0.0066626132,1.719061,0.81788176,-0.33351085,-0.9334245,-1.3314987,-0.42264834,0.1018403,-0.579966,1.5459759,-0.6323573
0.0,-0.1,1.2,-0.5235987755982988,-0.5235987755982988,0,-0.17344017,-0.7879052,-2.159976,0.12881386,1.6867929,0.30838424,-0.6217995,-0.92023474,-1.3057346,-0.45219988,0.11264752,-0.58632827,1.5644077,-0.75274205
0.0,-0.1,1.2,-0.5235987755982988,-0.5235987755982988,0,-0.13679822,-0.74903107,-2.244853,-0.11052317,1.5983485,0.50664645,-0.68759656,-0.935897,-1.329883,-0.43622574,0.10912906,-0.54811174,1.5548571,-0.69733435
0.0,-0.1,1.2,-0.5235987755982988,-0.5235987755982988,0,-0.23574613,-0.8519009,-2.2254746,0.19576217,1.5705185,-0.1892161,-0.67539066,-0.9074117,-1.3133332,-0.37085322,0.10120726,-0.5210479,1.5497576,-0.66208357
0.0,-0.1,1.2,-0.5235987755982988,-0.5235987755982988,0,-0.19292946,-0.7789437,-2.159135,0.14057906,1.7691416,0.004905336,-0.42337024,-0.9267318,-1.3052685,-0.46627724,0.10642197,-0.53664976,1.547906,-0.44235122
0.0,-0.1,1.2,-0.5235987755982988,-0.5235987755982988,0,-0.020259293,-0.8747301,-2.3138113,0.15569244,1.253828,0.61027265,-0.4766346,-0.96674836,-1.3235611,-0.38477796,0.1108102,-0.5862878,1.543611,-0.44639063
0.0,-0.1,1.2,-0.5235987755982988,-0.5235987755982988,0,-0.2149116,-0.8003208,-2.2154064,0.07310542,1.4774381,-0.14442751,-0.6494306,-0.91080934,-1.2955657,-0.37625104,0.09729807,-0.5776552,1.5651219,-0.5263486
0.0,-0.1,1.2,-0.5235987755982988,-0.5235987755982988,0,-0.16064134,-0.7143304,-2.2722278,0.0012102387,1.7131772,0.18979293,-0.45047596,-0.9491703,-1.3291628,-0.44220155,0.093720905,-0.5571259,1.5252358,-0.5528968
0.0,-0.1,1.2,-0.5235987755982988,-0.5235987755982988,0,-0.25068417,-0.7815298,-2.1371198,0.0994856,1.5482683,0.03346529,-0.2520357,-0.93110955,-1.3267001,-0.3808853,0.10885265,-0.56803036,1.5621288,-0.40205216
0.0,-0.1,1.2,-0.5235987755982988,-0.5235987755982988,0,-0.10924327,-0.8138652,-2.1512597,-0.1257584,1.6815606,-0.9067572,-0.42917258,-0.95445395,-1.3264952,-0.45856336,0.10238411,-0.581682,1.5246575,-0.51144606
0.0,-0.1,1.2,-0.5235987755982988,-0.5235987755982988,0,-0.13462669,-0.8193382,-2.2710557,-0.09008018,1.3126639,-0.30762973,-0.7219261,-0.9079328,-1.3264248,-0.40240943,0.098221,-0.5327216,1.5646567,-0.42419642
0.0,-0.1,1.2,-0.5235987755982988,-0.5235987755982988,0,-0.016819226,-0.8853586,-2.2278116,-0.18752533,1.7092272,-1.0863725,-0.30856413,-0.9606452,-1.311243,-0.41471368,0.096718766,-0.6206025,1.5311693,-0.29023468
0.0,-0.1,1.2,-0.5235987755982988,-0.5235987755982988,0,-0.26816082,-0.7256056,-2.2213848,0.118076466,1.5540869,-0.6738641,-0.54847455,-0.8983242,-1.3152039,-0.41400963,0.10724543,-0.5670829,1.5614336,-0.41690105
0.0,-0.1,1.2,-0.5235987755982988,-0.5235987755982988,0,-0.2517115,-0.71812814,-2.3186352,0.061259467,1.3673508,-0.31409577,-0.43321863,-0.93226445,-1.3043101,-0.3771652,0.10211939,-0.5819482,1.5515484,-0.51924795
0.0,-0.1,1.2,-0.5235987755982988,-0.5235987755982988,0,-0.48500496,-0.75116247,-2.171781,-0.27932116,1.9284503,0.1978373,-0.6651547,-0.9121002,-1.3544137,-0.35885504,0.09704378,-0.545732,1.5446723,-0.4809483
0.0,-0.1,1.2,-0.5235987755982988,-0.5235987755982988,0,-0.26208073,-0.67873025,-2.2361398,0.0013567347,1.6248399,0.24223854,-0.5597312,-0.92196697,-1.3480065,-0.40579352,0.12563092,-0.5961648,1.5344207,-0.5760742
0.0,-0.1,1.2,-0.5235987755982988,-0.5235987755982988,0,-0.08973646,-0.8063919,-2.258877,0.043200977,1.4159603,-0.61535436,-0.2770956,-0.9095401,-1.3302525,-0.4040262,0.12315691,-0.60698503,1.5590136,-0.41428512
0.0,-0.1,1.2,-0.5235987755982988,-0.5235987755982988,0,-0.25367954,-0.81328046,-2.1448705,0.07416816,1.6049463,-0.76392287,-0.3248248,-0.9068141,-1.3038932,-0.34428293,0.10397152,-0.5971278,1.5531895,-0.5034771
0.0,-0.1,1.2,-0.5235987755982988,-0.5235987755982988,0,-0.12301778,-0.85357773,-2.3201964,0.13967885,1.6130368,-0.14902787,-0.43251362,-0.9018183,-1.309059,-0.3468335,0.096612915,-0.58556837,1.5455556,-0.44083524
0.0,-0.1,1.2,-0.5235987755982988,-0.5235987755982988,0,-0.22973053,-0.8271364,-2.208624,0.27488956,1.5530124,-0.25692457,0.21024783,-0.89148295,-1.3342941,-0.40050218,0.09596576,-0.5730294,1.5439029,-0.68561625
0.0,-0.1,1.2,-0.5235987755982988,-0.5235987755982988,0,-0.21212463,-0.7643144,-2.144764,-0.13143304,1.3427814,-0.46145892,-0.5843491,-0.9176969,-1.3360255,-0.42002842,0.10521529,-0.5762604,1.5445881,-0.549174
0.0,-0.1,1.2,-0.5235987755982988,-0.5235987755982988,0,-0.19997078,-0.74779564,-2.2167974,-0.082818195,1.8664892,1.1076622,-0.70655864,-0.90836257,-1.3394593,-0.38885254,0.095647536,-0.569524,1.5449228,-0.5056207
0.0,-0.1,1.2,-0.5235987755982988,-0.5235987755982988,0,-0.20443441,-0.79000574,-2.222353,-0.24597459,1.7275975,-0.22675958,0.07456108,-0.94010496,-1.3243102,-0.3949685,0.10048954,-0.57439035,1.5557781,-0.51805973
0.0,-0.1,1.2,-0.5235987755982988,-0.5235987755982988,0,-0.23381838,-0.77716345,-2.1302269,0.05379292,1.7892562,0.16442801,-0.2519217,-0.94736904,-1.3262612,-0.39658615,0.10255131,-0.5596057,1.5539613,-0.7059533
0.0,-0.1,1.2,-0.5235987755982988,-0.5235987755982988,0,-0.20700444,-0.749982,-2.161022,0.15949558,1.5816323,-0.039302412,0.02184845,-0.91097033,-1.3768789,-0.38428617,0.11725703,-0.56440777,1.5330666,-0.5499069
0.0,-0.1,1.2,-0.5235987755982988,-0.5235987755982988,0,-0.39764786,-0.6199745,-2.1571238,0.0606105,1.715571,0.5437987,-0.6568103,-0.8891615,-1.3441452,-0.4041672,0.11804567,-0.57795614,1.5434681,-0.6514705
0.0,-0.1,1.2,-0.5235987755982988,-0.5235987755982988,0,-0.18219136,-0.80211914,-2.145375,-0.12496418,1.7358745,-0.06750362,-0.1711686,-0.9441366,-1.3190213,-0.3886786,0.10614832,-0.5603184,1.5565982,-0.40293846
0.0,-0.1,1.2,-0.5235987755982988,-0.5235987755982988,0,-0.2847851,-0.7991475,-2.0554032,-0.12478885,1.6326978,-0.32069853,-0.31422704,-0.93039834,-1.3113497,-0.42070264,0.11410672,-0.56237465,1.5556163,-0.46049345
0.0,-0.1,1.2,-0.5235987755982988,-0.5235987755982988,0,-0.32032773,-0.7520841,-2.0506449,-0.10162827,1.5081735,0.37763214,-0.2961896,-0.91899586,-1.3148282,-0.41950926,0.118909635,-0.6162329,1.5695022,-0.41349083
0.0,-0.1,1.2,-0.5235987755982988,-0.5235987755982988,0,-0.20662777,-0.8254116,-2.0819392,0.007613665,1.4057423,0.99702805,-0.6910461,-0.9151386,-1.3246717,-0.3943014,0.107760474,-0.6206164,1.5382013,-0.5935165
0.0,-0.1,1.2,-0.5235987755982988,-0.5235987755982988,0,-0.17785265,-0.9302146,-2.164242,0.20430458,1.7632316,-0.20094198,-0.6460916,-0.95024234,-1.3314756,-0.31624687,0.11345265,-0.57209426,1.5517075,-0.740463
0.0,-0.1,1.2,-0.5235987755982988,-0.5235987755982988,0,-0.08420996,-0.8400286,-2.269563,-0.034496848,1.9219441,-0.8399116,-0.5592651,-0.9167588,-1.3393273,-0.36216995,0.104179405,-0.5509322,1.5557857,-0.54977137
0.0,-0.1,1.2,-0.5235987755982988,-0.5235987755982988,0,-0.13438047,-0.79613984,-2.202439,0.04381082,2.0083935,-0.40623224,-0.621131,-0.9143619,-1.2935921,-0.45464894,0.09035804,-0.6116871,1.5341015,-0.4479433
0.0,-0.1,1.2,-0.5235987755982988,-0.5235987755982988,0,-0.0782094,-0.8616846,-2.2267034,0.08267874,1.7025421,-0.16884392,-0.37966907,-0.9235144,-1.3063972,-0.4562209,0.102534726,-0.5856269,1.528648,-0.52271605
0.0,-0.1,1.2,-0.5235987755982988,-0.5235987755982988,0,-0.15731628,-0.8482267,-2.1396465,0.16896717,1.4558227,-0.32999036,-0.3727347,-0.9484543,-1.3296472,-0.39999276,0.08469397,-0.5562906,1.5415154,-0.6397395
0.0,-0.1,1.2,-0.5235987755982988,-0.5235987755982988,0,-0.17103294,-0.7116159,-2.2753882,-0.02843127,1.5714333,0.2863709,0.105678216,-0.90544677,-1.348113,-0.38301653,0.11183906,-0.5963935,1.5423821,-0.38398895
0.0,-0.1,1.2,-0.5235987755982988,-0.5235987755982988,0,-0.1742079,-0.9025918,-1.9948455,-0.29454562,1.4438381,-0.11825253,-0.451819,-0.9333944,-1.3247215,-0.3900908,0.11099077,-0.5870722,1.5658228,-0.64209
0.0,-0.1,1.2,-0.5235987755982988,-0.5235987755982988,0,-0.3766473,-0.687437,-2.1244054,-0.09351352,1.6967216,-0.04750243,-0.24409996,-0.9135034,-1.3217168,-0.4185098,0.10985629,-0.57994545,1.546864,-0.5675141
0.0,-0.1,1.2,-0.5235987755982988,-0.5235987755982988,0,-0.21942337,-0.81985986,-2.0789955,-0.042840768,1.5155122,0.7445987,-0.3498407,-0.91870743,-1.3123755,-0.42435527,0.09166927,-0.5914525,1.542411,-0.59423125
0.0,-0.1,1.2,-0.5235987755982988,-0.5235987755982988,0,-0.15671347,-0.83059037,-2.136146,0.15396555,1.5428588,0.043418743,-0.6756469,-0.9506403,-1.3293579,-0.42332563,0.106456265,-0.5529356,1.5210493,-0.5486741
0.0,-0.1,1.2,-0.5235987755982988,-0.5235987755982988,0,-0.3875733,-0.6829259,-2.2028213,-0.28897527,1.7145568,0.05187986,-0.64565116,-0.8923326,-1.328673,-0.39577314,0.11560804,-0.6216732,1.54126,-0.45893908
0.0,-0.1,1.2,-0.5235987755982988,-0.5235987755982988,0,-0.090954214,-0.80774486,-2.2562692,-0.024084449,1.3395134,0.07603367,-0.5464246,-0.93251365,-1.3282012,-0.36780533,0.1176486,-0.6263638,1.5468233,-0.66617787
0.0,-0.1,1.2,-0.5235987755982988,-0.5235987755982988,0,-0.20696566,-0.8327729,-2.0500119,-0.085585706,1.3540844,0.025685707,-0.39477614,-0.92542833,-1.3314127,-0.3935946,0.1097961,-0.5930046,1.553269,-0.5086061
0.0,-0.1,1.2,-0.5235987755982988,-0.5235987755982988,0,0.029609779,-0.9735943,-2.2608192,0.036759205,1.7421205,-0.031474493,-0.10570541,-0.93974715,-1.3350688,-0.35441142,0.115234375,-0.59229666,1.5428277,-0.4467425
0.0,-0.1,1.2,-0.5235987755982988,-0.5235987755982988,0,-0.110085644,-0.7929264,-2.24441,-0.075808235,1.4212612,1.1267635,-0.40980434,-0.8985989,-1.3234249,-0.43768722,0.09941046,-0.5303814,1.5551503,-0.67466414
0.0,-0.1,1.2,-0.5235987755982988,-0.5235987755982988,0,-0.13993922,-0.88309246,-2.1596565,0.1832894,2.1205585,0.3973175,-0.31289014,-0.9386853,-1.3256761,-0.37275654,0.08840729,-0.5985305,1.5388654,-0.5123605
0.0,-0.1,1.2,-0.5235987755982988,-0.5235987755982988,0,-0.33159146,-0.82052237,-1.9489772,-0.0877803,1.4010775,0.26364368,-0.5503291,-0.9167379,-1.3437535,-0.4178744,0.1226185,-0.5336191,1.5456649,-0.52367467
0.0,-0.1,1.2,-0.5235987755982988,-0.5235987755982988,0,-0.13732733,-0.7898786,-2.215482,-0.12627828,1.5497243,0.96361345,-0.08251518,-0.90483344,-1.3161339,-0.43504974,0.10808231,-0.5804704,1.5505717,-0.40480343
0.0,-0.1,1.2,-0.5235987755982988,-0.5235987755982988,0,-0.16373596,-0.81131524,-2.1996002,0.036800615,1.5727571,-0.60321933,-0.4021925,-0.9246648,-1.3252224,-0.4049313,0.098964304,-0.57807463,1.5278647,-0.52361536
0.0,-0.1,1.2,-0.5235987755982988,-0.5235987755982988,0,-0.20531902,-0.72510386,-2.2195413,0.020630967,1.8159264,0.37498406,-0.8121423,-0.94272345,-1.3155816,-0.4020728,0.109166235,-0.586385,1.5409775,-0.42327106
0.0,-0.1,1.2,-0.5235987755982988,-0.5235987755982988,0,-0.19539829,-0.72824097,-2.231168,0.029078763,1.9390869,-0.29172215,-0.27238482,-0.9067951,-1.3249164,-0.44420424,0.105917625,-0.5583042,1.5203687,-0.49773622
0.0,-0.1,1.2,-0.5235987755982988,-0.5235987755982988,0,-0.35934192,-0.83256835,-2.1474357,-0.5048595,1.8764219,0.4751962,-0.79483587,-0.9378897,-1.3181355,-0.40041637,0.11111066,-0.58851635,1.5273229,-0.47374827
0.0,-0.1,1.2,-0.5235987755982988,-0.5235987755982988,0,-0.1727314,-0.8497693,-2.146016,-0.25573725,1.6479075,-0.32168603,-0.22612463,-0.94683903,-1.3081875,-0.39761418,0.100497484,-0.5731805,1.5459309,-0.4163639
0.0,-0.1,1.2,-0.5235987755982988,-0.5235987755982988,0,-0.110210374,-0.8334051,-2.2355072,0.207266,1.6597774,-0.091866136,-0.42742145,-0.9270527,-1.3518767,-0.35725418,0.08424733,-0.57243496,1.5321625,-0.48876435
0.0,-0.1,1.2,-0.5235987755982988,-0.5235987755982988,0,-0.03770941,-0.95224583,-2.1938608,0.030084044,1.6551471,0.6639697,-0.08578773,-0.92168486,-1.3285109,-0.34450078,0.11498646,-0.60963064,1.5630953,-0.52111894
0.0,-0.1,1.2,-0.5235987755982988,-0.5235987755982988,0,-0.111759536,-0.7952095,-2.3943117,0.2255724,1.4681598,-0.38576514,-0.026253387,-0.8965016,-1.2895257,-0.3707683,0.10718386,-0.5645092,1.5569228,-0.5910539
0.0,-0.1,1.2,-0.5235987755982988,-0.5235987755982988,0,-0.32513955,-0.77870864,-2.0261123,-0.09598231,1.5125043,-0.2535694,-0.44404584,-0.90458876,-1.3251609,-0.42647752,0.097713344,-0.54563177,1.5476841,-0.70381624
0.0,-0.1,1.2,-0.5235987755982988,-0.5235987755982988,0,-0.39375094,-0.7146073,-2.0756571,0.015882246,1.575618,-0.015865238,-0.27801168,-0.9416601,-1.3072287,-0.39697883,0.119171456,-0.5784809,1.529824,-0.54406065
0.0,-0.1,1.2,-0.5235987755982988,-0.5235987755982988,0,-0.054438658,-0.87598425,-2.1987324,-0.049032368,1.9997721,-1.2003276,-0.45435125,-0.91332525,-1.3166275,-0.45387882,0.114571676,-0.5433669,1.5459447,-0.7304249
0.0,-0.1,1.2,-0.5235987755982988,-0.5235987755982988,0,-0.08737172,-0.8251616,-2.2508526,0.08707794,1.7756236,-0.49903497,-0.4096326,-0.9529374,-1.3179772,-0.36521697,0.1031022,-0.587598,1.5539225,-0.57755125
0.0,-0.1,1.2,-0.5235987755982988,-0.5235987755982988,0,-0.23568517,-0.7056815,-2.1750937,0.022075472,1.569354,0.9539704,-0.4944693,-0.92756486,-1.3565733,-0.40340012,0.09634011,-0.57480544,1.559274,-0.5642568
0.0,-0.1,1.2,-0.5235987755982988,-0.5235987755982988,0,-0.22464049,-0.8142912,-2.120009,-0.058975343,2.03397,0.38705328,-0.32558495,-0.9392706,-1.3308182,-0.35859445,0.09128821,-0.5697623,1.5540142,-0.72557324
0.0,-0.1,1.2,-0.5235987755982988,-0.5235987755982988,0,-0.058628507,-0.90569043,-2.1851997,0.006484303,1.5076511,0.14167795,-0.22274278,-0.924572,-1.3256809,-0.38525924,0.120769635,-0.5800633,1.5523493,-0.26193446
0.0,-0.1,1.2,-0.5235987755982988,-0.5235987755982988,0,-0.123706944,-0.85601497,-2.231437,-0.11407634,1.8117186,-0.47726202,-0.10363417,-0.90204877,-1.31203,-0.35864222,0.09121798,-0.5732921,1.5352615,-0.55421644
0.0,-0.1,1.2,-0.5235987755982988,-0.5235987755982988,0,-0.1444919,-0.87285954,-2.085377,-0.2489611,1.8207844,-0.56747127,-0.45513687,-0.94931424,-1.3143499,-0.408718,0.11430408,-0.57527125,1.5397227,-0.44334745
0.0,-0.1,1.2,-0.5235987755982988,-0.5235987755982988,0,-0.20070153,-0.81914806,-2.2085075,-0.510614,1.7863774,-0.51465404,-0.28843373,-0.8946709,-1.3252605,-0.41645047,0.08201647,-0.589515,1.5431495,-0.65480024
0.0,-0.1,1.2,-0.5235987755982988,-0.5235987755982988,0,-0.31365463,-0.821843,-2.0144675,0.102703996,1.8087249,0.05072471,-0.13854659,-0.9300591,-1.3202974,-0.36395288,0.08592263,-0.6024382,1.5515027,-0.5512154
0.0,-0.1,1.2,-0.5235987755982988,-0.5235987755982988,0,-0.15655206,-0.69497573,-2.3186443,-0.023391709,1.8411235,-0.009929144,-0.72737265,-0.92078227,-1.3352196,-0.40838298,0.09848725,-0.5541332,1.5288205,-0.4821439
0.0,-0.1,1.2,-0.5235987755982988,-0.5235987755982988,0,-0.14199431,-0.78475523,-2.2912312,0.10735787,1.6356686,0.9248185,-0.44961601,-0.88328546,-1.3317691,-0.3610225,0.08502708,-0.61977226,1.5677577,-0.65395176
0.0,-0.1,1.2,-0.5235987755982988,-0.5235987755982988,0,-0.1671822,-0.754775,-2.2482426,-0.12200684,1.877537,0.484872,-0.5281809,-0.93418413,-1.2946042,-0.44131625,0.09334518,-0.5671454,1.5452616,-0.50070614
0.0,-0.1,1.2,-0.5235987755982988,-0.5235987755982988,0,-0.20602009,-0.8841198,-2.067166,0.1946144,1.8152602,-0.88580406,-0.27195612,-0.9321817,-1.3591578,-0.35541293,0.11818563,-0.5572055,1.5420487,-0.5592262
0.0,-0.1,1.2,-0.5235987755982988,-0.5235987755982988,0,-0.21087825,-0.7609717,-2.2287138,-0.008697876,1.5826458,0.11891243,-0.160407,-0.92652327,-1.3092017,-0.38016683,0.10596424,-0.58324474,1.5429368,-0.3774786
0.0,-0.1,1.2,-0.5235987755982988,-0.5235987755982988,0,-0.21452174,-0.81237555,-2.2577124,0.29578492,1.6693654,0.1082559,-0.57913154,-0.90272325,-1.34125,-0.3340946,0.1042979,-0.58673763,1.5348864,-0.55579966
0.0,-0.1,1.2,-0.5235987755982988,-0.5235987755982988,0,-0.22955047,-0.7613721,-2.1656048,0.009026415,1.6568804,0.80547464,-0.3514725,-0.92663336,-1.3284403,-0.4193849,0.10393784,-0.5590685,1.549504,-0.583831
0.0,-0.1,1.2,-0.5235987755982988,-0.5235987755982988,0,-0.3058379,-0.9167648,-2.260505,0.42018887,1.8830243,0.12027851,-0.49454552,-0.9009346,-1.307764,-0.3033281,0.10995116,-0.57375216,1.5445188,-0.572456
0.0,-0.1,1.2,-0.5235987755982988,-0.5235987755982988,0,-0.27930784,-0.80193686,-2.1094537,-0.33932588,1.5691358,1.0310824,-0.56365424,-0.9168256,-1.3289399,-0.38914892,0.09602828,-0.57996225,1.5663121,-0.46304002
0.0,-0.1,1.2,-0.5235987755982988,-0.5235987755982988,0,-0.22797264,-0.785312,-2.1257854,0.15708959,1.8153231,0.13880204,-0.5065785,-0.9250513,-1.3022306,-0.43949914,0.10699144,-0.5442151,1.5300307,-0.438854
0.0,-0.1,1.2,-0.5235987755982988,-0.5235987755982988,0,-0.30252275,-0.93172485,-2.078793,0.30042985,1.9453402,-1.0479053,-0.54573166,-0.9430026,-1.30794,-0.30908543,0.1107658,-0.593465,1.5357555,-0.629052
0.0,-0.1,1.2,-0.5235987755982988,-0.5235987755982988,0,-0.13879699,-0.77267605,-2.2743027,-0.07393468,1.4782077,-0.22235894,-0.6038123,-0.9211543,-1.3054216,-0.43353182,0.108271934,-0.5612823,1.5387546,-0.6280218
0.0,-0.1,1.2,-0.5235987755982988,-0.5235987755982988,0,-0.23216006,-0.85659087,-2.0129907,-0.16177753,1.6131868,0.53155065,-0.51387936,-0.93836296,-1.3169348,-0.41238397,0.13198599,-0.5733629,1.5680057,-0.41088042
0.0,-0.1,1.2,-0.5235987755982988,-0.5235987755982988,0,-0.20958267,-0.72135216,-2.2372785,-0.053164504,1.7189671,0.04110491,0.012902605,-0.9124444,-1.3324542,-0.36182326,0.107200645,-0.61392623,1.5514957,-0.64700806
0.0,-0.1,1.2,-0.5235987755982988,-0.5235987755982988,0,-0.21087407,-0.7817194,-2.166747,-0.12416403,1.790572,-0.4063171,-0.18753399,-0.922839,-1.2986441,-0.39777094,0.11603251,-0.620623,1.5629593,-0.6600995
0.0,-0.1,1.2,-0.5235987755982988,-0.5235987755982988,0,-0.14139034,-0.8395257,-2.1341684,-0.037586447,1.5210683,0.5875835,-0.5884438,-0.91280633,-1.3124217,-0.43290463,0.096154466,-0.56532854,1.5441513,-0.59844375
0.0,-0.1,1.2,-0.5235987755982988,-0.5235987755982988,0,-0.26652122,-0.7841185,-2.1073194,-0.07446365,1.689251,0.059165426,-0.3134016,-0.91423535,-1.3160055,-0.38604045,0.11164059,-0.6284939,1.544274,-0.51445895
0.0,-0.1,1.2,-0.5235987755982988,-0.5235987755982988,0,-0.12366589,-0.6911987,-2.3858376,-0.18721583,1.5290364,0.1497536,-0.18172659,-0.9053472,-1.3310984,-0.37394872,0.10023282,-0.5962443,1.5431708,-0.6198057
0.0,-0.1,1.2,-0.5235987755982988,-0.5235987755982988,0,-0.24177872,-0.8531077,-2.0359066,0.2766917,1.5809802,0.59403443,-0.2779206,-0.9481065,-1.3338264,-0.436875,0.10912057,-0.48110208,1.5616245,-0.45954072
0.0,-0.1,1.2,-0.5235987755982988,-0.5235987755982988,0,-0.14465553,-0.8291924,-2.1733794,0.10178047,1.5025971,-0.67352027,0.010697724,-0.93892884,-1.3419119,-0.35208258,0.11078797,-0.5975742,1.5690418,-0.30310342
0.0,-0.1,1.2,-0.5235987755982988,-0.5235987755982988,0,-0.10619667,-0.82147115,-2.2448359,-0.19374016,1.4403176,0.21908304,-0.46085617,-0.9389971,-1.2996229,-0.4151862,0.101738706,-0.5870465,1.5578139,-0.634728
0.0,-0.1,1.2,-0.5235987755982988,-0.5235987755982988,0,-0.21353583,-0.74667287,-2.2123358,0.17314848,2.0407317,-0.19600645,-0.6219899,-0.9426716,-1.308937,-0.4176872,0.09655981,-0.5642425,1.535035,-0.37515905
0.0,-0.1,1.2,-0.5235987755982988,-0.5235987755982988,0,-0.2983853,-0.681565,-2.264755,-0.035371933,1.6007946,0.14015992,-0.035433076,-0.95454246,-1.3388087,-0.37745872,0.10771099,-0.51706564,1.5329562,-0.6492716
0.0,-0.1,1.2,-0.5235987755982988,-0.5235987755982988,0,-0.23835343,-0.7634431,-2.1458316,0.055818703,1.5690851,0.0148370555,-0.058033295,-0.9085648,-1.315941,-0.41969505,0.12201896,-0.5628896,1.5454481,-0.5755783
0.0,-0.1,1.2,-0.5235987755982988,-0.5235987755982988,0,-0.2605971,-0.7612731,-2.197599,0.12513153,1.654951,-0.28232503,-0.36244163,-0.9078386,-1.3056016,-0.3751168,0.12518445,-0.59244657,1.5374119,-0.676241
0.0,-0.1,1.2,-0.5235987755982988,-0.5235987755982988,0,-0.15068343,-0.77685153,-2.214022,0.1043846,1.7818043,1.2063218,-0.02537752,-0.91866523,-1.3117301,-0.40525553,0.1083191,-0.5882899,1.5647583,-0.7350985
0.0,-0.1,1.2,-0.5235987755982988,-0.5235987755982988,0,-0.14056726,-0.858468,-2.173046,-0.06228506,1.537043,-0.56618,-0.05288934,-0.9046158,-1.3132665,-0.3924173,0.11988506,-0.64704007,1.5328038,-0.37771255
0.0,-0.1,1.2,-0.5235987755982988,-0.5235987755982988,0,-0.16765323,-0.79888666,-2.2037723,0.040632706,1.3479583,0.09104041,-0.60619533,-0.9181285,-1.3044063,-0.41365913,0.11163565,-0.54386544,1.5480696,-0.5712819
0.0,-0.1,1.2,-0.5235987755982988,-0.5235987755982988,0,-0.3296918,-0.7457465,-2.0705488,0.13573195,1.4649215,-0.338656,-0.38770637,-0.91846025,-1.3207848,-0.3864622,0.09802188,-0.56808245,1.5634441,-0.44305488
0.0,-0.1,1.2,-0.5235987755982988,-0.5235987755982988,0,-0.24158444,-0.8609488,-2.003882,-0.25379494,1.5452862,-0.18554991,-0.16103116,-0.91836816,-1.3142203,-0.39922702,0.104239024,-0.5937909,1.5493997,-0.68601286
0.0,-0.1,1.2,-0.5235987755982988,-0.5235987755982988,0,-0.22576399,-0.78470045,-2.129866,0.15931763,1.6999236,-0.65942675,-0.10867406,-0.92171484,-1.303677,-0.422824,0.10062619,-0.5661461,1.5509224,-0.59119046
0.0,-0.1,1.2,-0.5235987755982988,-0.5235987755982988,0,-0.28392377,-0.8403182,-2.126312,-0.34612933,1.9349732,0.216,-0.96914786,-0.9187327,-1.3263851,-0.3645112,0.09863976,-0.5606603,1.5397093,-0.8253033
0.0,-0.1,1.2,-0.5235987755982988,-0.5235987755982988,0,-0.2631853,-0.7815769,-2.246988,0.27552834,1.6818273,-0.8722085,-0.41208014,-0.9096911,-1.2874523,-0.3569601,0.10681117,-0.555149,1.5245697,-0.4220809
0.0,-0.1,1.2,-0.5235987755982988,-0.5235987755982988,0,-0.022513643,-0.8724596,-2.2523143,-0.15414202,1.4431894,0.27927017,-0.34994245,-0.92612875,-1.3037187,-0.40768203,0.10805166,-0.5770587,1.555541,-0.5502945
0.0,-0.1,1.2,-0.5235987755982988,-0.5235987755982988,0,-0.15235026,-0.85302234,-2.2533157,0.07555505,1.600927,-0.89296234,-0.9962029,-0.9228064,-1.3131851,-0.34734243,0.09428365,-0.52895737,1.5293245,-0.53507406
0.0,-0.1,1.2,-0.5235987755982988,-0.5235987755982988,0,-0.065041654,-0.8634929,-2.2327917,0.06469021,1.6087136,-0.19882376,-0.37589878,-0.96703494,-1.3141882,-0.38664678,0.09690676,-0.5706985,1.5312934,-0.51194125
0.0,-0.1,1.2,-0.5235987755982988,-0.5235987755982988,0,-0.28284788,-0.8045655,-2.0423768,0.0047529866,1.7156686,-0.4746404,-0.56599313,-0.90634805,-1.3235855,-0.4168359,0.092410535,-0.5457386,1.5436305,-0.44851628
0.0,-0.1,1.2,-0.5235987755982988,-0.5235987755982988,0,-0.27687782,-0.74868166,-2.14661,-0.07928191,1.6561105,0.16159974,-0.22734594,-0.91346467,-1.3256663,-0.37405044,0.10518578,-0.5979623,1.5348173,-0.51631874
0.0,-0.1,1.2,-0.5235987755982988,-0.5235987755982988,0,-0.18874328,-0.8809314,-2.0903354,0.15436384,1.6220391,0.24953441,-0.7475616,-0.92312986,-1.3414557,-0.37081748,0.10172728,-0.5589702,1.541978,-0.47955918
0.0,-0.1,1.2,-0.5235987755982988,-0.5235987755982988,0,-0.18946102,-0.88917553,-2.034157,-0.030688426,1.8622704,-0.8894536,-0.1838334,-0.90605927,-1.2970579,-0.40406677,0.103410006,-0.6018045,1.5605894,-0.56168306
0.0,-0.1,1.2,-0.5235987755982988,-0.5235987755982988,0,-0.14567322,-0.7839633,-2.2794209,-0.02609752,1.7145094,-0.07609081,-0.32662457,-0.8875289,-1.3159524,-0.3733572,0.105912924,-0.58603793,1.5591937,-0.39156473
0.0,-0.1,1.2,-0.5235987755982988,-0.5235987755982988,0,-0.15391833,-0.83098817,-2.1505446,-0.13775882,1.4779594,-0.80759186,-0.32635152,-0.92972696,-1.3167459,-0.40852913,0.11751372,-0.56323177,1.545198,-0.36380318
0.0,-0.1,1.2,-0.5235987755982988,-0.5235987755982988,0,-0.07112036,-0.92045563,-2.170518,-0.056590866,1.6893333,0.2659441,-0.3163271,-0.9043237,-1.3312597,-0.36106408,0.09554863,-0.58043945,1.543925,-0.61591405
0.0,-0.1,1.2,-0.5235987755982988,-0.5235987755982988,0,-0.25445843,-0.6956723,-2.2667391,-0.10041559,1.6243105,0.34927693,-0.58087844,-0.91313016,-1.3239919,-0.33811837,0.096237786,-0.61932814,1.5448806,-0.6207553
0.0,-0.1,1.2,-0.5235987755982988,-0.5235987755982988,0,-0.16606948,-0.80864286,-2.2094586,0.18889135,1.5432302,-0.05086651,0.061415434,-0.91318154,-1.3010969,-0.40597087,0.10774083,-0.6019506,1.5526754,-0.6010839
0.0,-0.1,1.2,-0.5235987755982988,-0.5235987755982988,0,-0.19573,-0.83332926,-2.2094338,0.13956068,1.8846142,1.2418165,-0.5875483,-0.93014175,-1.3096001,-0.29456848,0.111773066,-0.6479264,1.5455012,-0.38010895
0.0,-0.1,1.2,-0.5235987755982988,-0.5235987755982988,0,-0.15063843,-0.8810303,-2.1294746,0.078042164,1.9268774,-0.42927265,-0.46274546,-0.9353969,-1.3613235,-0.35492232,0.10255174,-0.53241414,1.5366595,-0.69699454
0.0,-0.1,1.2,-0.5235987755982988,-0.5235987755982988,0,-0.057592966,-0.90007037,-2.1583369,-0.14030951,1.9979922,-0.42634428,-0.022082351,-0.9293373,-1.3083906,-0.39157173,0.11968904,-0.61522055,1.5379986,-0.6506765
0.0,-0.1,1.2,-0.5235987755982988,-0.5235987755982988,0,-0.19434202,-0.8246968,-2.137904,0.10139974,1.6186769,0.44997382,-0.40011802,-0.90559286,-1.326317,-0.3875138,0.08767267,-0.5943494,1.5344918,-0.5105419
0.0,-0.1,1.2,-0.5235987755982988,-0.5235987755982988,0,-0.34026217,-0.7442558,-2.0899386,0.08133681,1.4500818,-0.10915761,0.21954171,-0.9021203,-1.3133711,-0.38351634,0.106957175,-0.58092153,1.5401354,-0.6504793
0.0,-0.1,1.2,-0.5235987755982988,-0.5235987755982988,0,-0.1661363,-0.891124,-2.0768652,0.09641108,1.9649569,-0.74509573,-0.42087796,-0.90131456,-1.3136189,-0.38566318,0.09050862,-0.6281941,1.5442269,-0.4157927
0.0,-0.1,1.2,-0.5235987755982988,-0.5235987755982988,0,-0.14887956,-0.8020302,-2.2967792,0.16038808,1.4671607,-0.51274043,-0.29086593,-0.8946059,-1.3267213,-0.3989196,0.08950355,-0.56139183,1.539249,-0.62110883
0.0,-0.1,1.2,-0.5235987755982988,-0.5235987755982988,0,-0.1219093,-0.8377532,-2.2774792,0.033467107,1.7812319,-0.30518535,-0.4010168,-0.8775308,-1.3234247,-0.38726592,0.11240417,-0.54448026,1.5374991,-0.4496418
0.0,-0.1,1.2,-0.5235987755982988,-0.5235987755982988,0,-0.064677805,-0.79931355,-2.310762,0.14802437,1.8948997,0.26453725,-0.13855699,-0.9247768,-1.3139384,-0.4133394,0.08701015,-0.5842152,1.5539877,-0.4461507
0.0,-0.1,1.2,-0.5235987755982988,-0.5235987755982988,0,-0.17330801,-0.8270485,-2.1438465,-0.1408078,1.7468983,0.7866462,-0.501237,-0.9245076,-1.318625,-0.40118712,0.08997354,-0.55703753,1.5512143,-0.5316722
0.0,-0.1,1.2,-0.5235987755982988,-0.5235987755982988,0,-0.23059161,-0.78267765,-2.1889327,-0.038569428,1.6190517,0.06279064,-0.43919215,-0.9367181,-1.303338,-0.368401,0.11001074,-0.53908277,1.5487468,-0.6780821
0.0,-0.1,1.2,-0.5235987755982988,-0.5235987755982988,0,-0.058735155,-0.9981655,-2.1889336,0.021312641,1.2621875,0.15875345,-0.27071846,-0.91652596,-1.2968965,-0.3228372,0.11308977,-0.5700272,1.5526507,-0.35737166
0.0,-0.1,1.2,-0.5235987755982988,-0.5235987755982988,0,-0.18613148,-0.92798287,-2.0152404,0.12080147,1.685649,0.95200324,-0.10468503,-0.91346586,-1.3148531,-0.3904903,0.08102058,-0.6130435,1.540844,-0.3797807
0.0,-0.1,1.2,-0.5235987755982988,-0.5235987755982988,0,-0.3656156,-0.77766305,-2.022428,0.3436331,1.3869555,1.1179738,-0.1844851,-0.91692996,-1.3412584,-0.3905971,0.1189138,-0.55269283,1.5504078,-0.4116846
0.0,-0.1,1.2,-0.5235987755982988,-0.5235987755982988,0,-0.24654676,-0.7764344,-2.1469347,0.23540322,1.765897,-0.8098581,-0.8571541,-0.90407383,-1.3495431,-0.3783297,0.10354003,-0.5702262,1.5469258,-0.73015726
0.0,-0.1,1.2,-0.5235987755982988,-0.5235987755982988,0,-0.1307923,-0.84028316,-2.2195191,-0.2333326,1.5135304,-0.0887334,-0.38007203,-0.92378205,-1.3176826,-0.3436481,0.09562808,-0.5938197,1.5304266,-0.5803033
0.0,-0.1,1.2,-0.5235987755982988,-0.5235987755982988,0,-0.26783383,-0.8065604,-2.1394567,-0.099403284,1.626853,0.19169536,-0.14323491,-0.93775886,-1.31611,-0.36752096,0.1077426,-0.5110837,1.5537692,-0.5553816
0.0,-0.1,1.2,-0.5235987755982988,-0.5235987755982988,0,-0.18394142,-0.83420074,-2.1601157,-0.35414806,1.9472147,-0.53625727,-0.4740848,-0.9221999,-1.3217968,-0.38893595,0.09578056,-0.5772127,1.5438384,-0.39093372
0.0,-0.1,1.2,-0.5235987755982988,-0.5235987755982988,0,-0.18923886,-0.81436986,-2.1484501,-0.23675059,1.5469413,0.04878413,-0.2638543,-0.9160181,-1.327339,-0.39332294,0.103934914,-0.5392789,1.552282,-0.37800363
0.0,-0.1,1.2,-0.5235987755982988,-0.5235987755982988,0,-0.05897382,-0.8839966,-2.202358,-0.025877386,1.4026617,0.24744993,-0.74170893,-0.9309154,-1.3036216,-0.38721633,0.11904997,-0.5928425,1.5466313,-0.65631366
0.0,-0.1,1.2,-0.5235987755982988,-0.5235987755982988,0,-0.19565018,-0.8189067,-2.1044834,0.10190329,1.6131629,-0.24370913,-0.23398201,-0.89209026,-1.3522696,-0.3744989,0.106773406,-0.59007025,1.5523583,-0.306986
0.0,-0.1,1.2,-0.5235987755982988,-0.5235987755982988,0,-0.18596676,-0.8554165,-2.1334178,-0.030644407,1.6901954,-0.19279772,-0.45647502,-0.93387485,-1.303038,-0.35219255,0.110098094,-0.56930816,1.5687692,-0.49744013
0.0,-0.1,1.2,-0.5235987755982988,-0.5235987755982988,0,-0.2714934,-0.7957412,-2.1095157,0.0896285,1.7446883,-0.6701172,-0.34086284,-0.8982318,-1.3267138,-0.40727195,0.09553454,-0.55053115,1.5404875,-0.5018301
0.0,-0.1,1.2,-0.5235987755982988,-0.5235987755982988,0,-0.266472,-0.87568,-2.1331522,0.24853353,1.6879961,-0.014737011,-0.13279662,-0.9164092,-1.2998664,-0.33510557,0.102880314,-0.5883698,1.5466539,-0.6873209
0.0,-0.1,1.2,-0.5235987755982988,-0.5235987755982988,0,-0.21259718,-0.80210847,-2.198791,-0.12459978,1.8080109,0.019734707,-0.5130742,-0.90908843,-1.3147218,-0.33202738,0.105872,-0.5756149,1.563407,-0.6048948
0.0,-0.1,1.2,-0.5235987755982988,-0.5235987755982988,0,-0.15692936,-0.83498085,-2.2390862,-0.030301917,1.6074935,-0.5455429,-0.71298957,-0.91724294,-1.2923819,-0.37301016,0.10766084,-0.5442335,1.5553926,-0.5411821
0.0,-0.1,1.2,-0.5235987755982988,-0.5235987755982988,0,-0.22475642,-0.85324365,-2.1066062,0.065045066,1.4505984,0.047264338,-0.041142397,-0.9133547,-1.3380845,-0.31687668,0.11688241,-0.5632288,1.5622029,-0.49030814
0.0,-0.1,1.2,-0.5235987755982988,-0.5235987755982988,0,-0.10105697,-0.8821528,-2.1656795,-0.112074144,1.4100198,-0.29628834,-0.38166395,-0.9208038,-1.3180207,-0.36886963,0.11050279,-0.61519986,1.5338317,-0.49837455
0.0,-0.1,1.2,-0.5235987755982988,-0.5235987755982988,0,-0.3072221,-0.6380135,-2.3085968,-0.0004948084,1.8423531,0.25508565,-0.8819898,-0.9041127,-1.2950144,-0.35834047,0.10871993,-0.60030943,1.5400536,-0.5771958
0.0,-0.1,1.2,-0.5235987755982988,-0.5235987755982988,0,-0.1230702,-0.8141211,-2.248383,-0.072373696,1.5650741,-0.4499572,-0.20302074,-0.9220075,-1.2914624,-0.37623608,0.090697706,-0.612403,1.5448006,-0.49383524
0.0,-0.1,1.2,-0.5235987755982988,-0.5235987755982988,0,-0.1398692,-0.9212392,-2.154593,0.110061936,2.0046906,0.13168281,-0.74667996,-0.9231784,-1.3163785,-0.34100902,0.10390268,-0.57342756,1.5334302,-0.54694873
0.0,-0.1,1.2,-0.5235987755982988,-0.5235987755982988,0,-0.1647762,-0.86492825,-2.1804037,0.1279906,1.4313488,-0.20342608,-0.558402,-0.9257567,-1.2911619,-0.3766503,0.105497934,-0.59168136,1.5393457,-0.64047635
0.0,-0.1,1.2,-0.5235987755982988,-0.5235987755982988,0,-0.09804564,-0.8659451,-2.2113311,0.12465858,1.649725,0.28185827,-0.17767328,-0.93919235,-1.3135417,-0.3986755,0.102308035,-0.5394839,1.5329059,-0.624173
0.0,-0.1,1.2,-0.5235987755982988,-0.5235987755982988,0,-0.13212109,-0.8218719,-2.2540686,0.14010939,1.4016459,-0.28055248,-0.2666197,-0.9248068,-1.3168957,-0.3495863,0.10602429,-0.58440536,1.5517979,-0.5253526
0.0,-0.1,1.2,-0.5235987755982988,-0.5235987755982988,0,-0.1736823,-0.7741276,-2.2166603,0.13708948,1.6974044,0.42067778,-0.07989982,-0.9440055,-1.3162484,-0.3988544,0.09709796,-0.52799815,1.5439222,-0.4526079
0.0,-0.1,1.2,-0.5235987755982988,-0.5235987755982988,0,-0.18037564,-0.8266224,-2.216024,-0.10212376,1.5117917,-0.27851912,0.055788532,-0.92757124,-1.2956605,-0.3377732,0.11352793,-0.5851152,1.543773,-0.5053889
0.0,-0.1,1.2,-0.5235987755982988,-0.5235987755982988,0,-0.15122092,-0.80042356,-2.2139268,0.13722001,2.0204048,-1.060518,-0.40784907,-0.9072032,-1.3206111,-0.42675364,0.10599193,-0.5309809,1.5502558,-0.6081078
0.0,-0.1,1.2,-0.5235987755982988,-0.5235987755982988,0,-0.2674181,-0.6884361,-2.2320654,0.04355941,1.8276776,0.10229233,-0.17255726,-0.9031935,-1.3293598,-0.36075994,0.10268002,-0.57431763,1.5508087,-0.51585734
0.0,-0.1,1.2,-0.5235987755982988,-0.5235987755982988,0,-0.16587313,-0.84045386,-2.103457,0.08290695,1.7856247,-0.43061027,-0.51900774,-0.9219226,-1.3167114,-0.39128911,0.110248655,-0.61450416,1.5484506,-0.43120933
0.0,-0.1,1.2,-0.5235987755982988,-0.5235987755982988,0,-0.2930055,-0.7593478,-2.1205513,0.1411314,1.5308087,-0.6066107,-0.81972986,-0.91148025,-1.3070619,-0.37796825,0.11186373,-0.5811348,1.532289,-0.5821481
0.0,-0.1,1.2,-0.5235987755982988,-0.5235987755982988,0,-0.02662719,-0.8757461,-2.2830667,-0.1920834,1.4579248,0.16323298,-0.6621131,-0.90460104,-1.3135124,-0.40491667,0.10577017,-0.5768644,1.5378472,-0.5599466
0.0,-0.1,1.2,-0.5235987755982988,-0.5235987755982988,0,-0.17567167,-0.7563706,-2.312606,0.14427492,1.843937,1.3297219,-0.5659363,-0.91940665,-1.2873538,-0.4100383,0.08839853,-0.58288103,1.5509146,-0.56707096
0.0,-0.1,1.2,-0.5235987755982988,-0.5235987755982988,0,-0.28607103,-0.71767396,-2.1969917,0.04984531,1.6805182,0.23750055,-0.26781613,-0.9277878,-1.2836545,-0.41574496,0.09902193,-0.59637356,1.5373739,-0.29196745
0.0,-0.1,1.2,-0.5235987755982988,-0.5235987755982988,0,-0.30393592,-0.75926423,-2.1208146,-0.002548317,1.6036972,0.18345043,-0.5323538,-0.91291296,-1.303987,-0.38856423,0.08992892,-0.5283315,1.5468731,-0.58345664
0.0,-0.1,1.2,-0.5235987755982988,-0.5235987755982988,0,-0.17091997,-0.7645963,-2.249791,-0.16433918,1.9467975,1.3702935,-0.36495435,-0.91611224,-1.3085102,-0.4182867,0.103606,-0.5953349,1.5374815,-0.6015817
0.0,-0.1,1.2,-0.5235987755982988,-0.5235987755982988,0,-0.22381783,-0.88054156,-2.212525,0.30468786,1.5256772,-0.069372356,-0.19436663,-0.89845407,-1.3275534,-0.33313945,0.12395139,-0.59040457,1.5417033,-0.6207169
0.0,-0.1,1.2,-0.5235987755982988,-0.5235987755982988,0,-0.14065169,-0.80785066,-2.225557,-0.10250277,1.4799848,0.37963238,-0.1905317,-0.92380637,-1.3207994,-0.3881317,0.11507688,-0.5533763,1.5413578,-0.5604655
0.0,-0.1,1.2,-0.5235987755982988,-0.5235987755982988,0,-0.1904594,-0.7819888,-2.2124338,0.012130648,1.6402531,0.7098097,-0.5793475,-0.9092025,-1.2785922,-0.40694404,0.10901088,-0.60979766,1.5492481,-0.69176364
0.0,-0.1,1.2,-0.5235987755982988,-0.5235987755982988,0,-0.087696426,-0.8626297,-2.258358,-0.10673782,1.9164038,0.12651902,-0.30158484,-0.92490137,-1.3220762,-0.33588895,0.116508774,-0.54893184,1.5612773,-0.67309415
0.0,-0.1,1.2,-0.5235987755982988,-0.5235987755982988,0,-0.13541292,-0.90386355,-2.0937552,-0.17337748,1.9400855,-0.39284912,-0.46824214,-0.9346696,-1.3143395,-0.37263075,0.09571271,-0.5782147,1.5318136,-0.54420364
0.0,-0.1,1.2,-0.5235987755982988,-0.5235987755982988,0,-0.25958002,-0.6903779,-2.223354,0.09061946,1.3456471,0.63339585,-0.18195479,-0.8966083,-1.3180948,-0.38948578,0.10678065,-0.6241869,1.5408937,-0.3755888
0.0,-0.1,1.2,-0.5235987755982988,-0.5235987755982988,0,-0.29213014,-0.7472429,-2.1361506,0.1721099,1.76244,-0.166284,-0.56346256,-0.93506193,-1.3152801,-0.38467056,0.08832563,-0.5258255,1.5429327,-0.41950738
0.0,-0.1,1.2,-0.5235987755982988,-0.5235987755982988,0,-0.1194422,-0.9067025,-2.0879228,-0.020033926,1.4839808,-0.3492513,-0.41637683,-0.914149,-1.3211478,-0.36376768,0.10229798,-0.60484654,1.5416759,-0.6617408
0.0,-0.1,1.2,-0.5235987755982988,-0.5235987755982988,0,-0.18201157,-0.8198809,-2.1686263,-0.0680222,1.6990099,0.044564486,-0.7931306,-0.91567427,-1.3135003,-0.3709695,0.09328451,-0.57897663,1.544051,-0.79343784
0.0,-0.1,1.2,-0.5235987755982988,-0.5235987755982988,0,-0.15267822,-0.8327328,-2.2150202,0.029600881,1.5507894,0.25918844,-0.7962478,-0.91628337,-1.319928,-0.34092876,0.096014865,-0.57470065,1.5451316,-0.47679415
0.0,-0.1,1.2,-0.5235987755982988,-0.5235987755982988,0,-0.26368895,-0.80153567,-2.0666265,-0.01388826,1.5829827,0.17572676,-0.36508864,-0.9327622,-1.3219832,-0.39530677,0.09309734,-0.5703272,1.5462271,-0.45393994
0.0,-0.1,1.2,-0.5235987755982988,-0.5235987755982988,0,-0.08886849,-0.89510643,-2.144799,-0.26013613,1.6410747,-1.0611243,-0.32410678,-0.9027605,-1.3303543,-0.37570277,0.083752885,-0.59681857,1.5412014,-0.41007805
0.0,-0.1,1.2,-0.5235987755982988,-0.5235987755982988,0,-0.05849964,-0.86949974,-2.222929,-0.18814161,1.914854,1.3388585,-0.7288855,-0.8898337,-1.3307624,-0.38517126,0.11681506,-0.5771857,1.5600498,-0.5761689
0.0,-0.1,1.2,-0.5235987755982988,-0.5235987755982988,0,-0.14038676,-0.85467356,-2.2084236,-0.21584652,1.5998418,0.37303224,-0.40823564,-0.89335555,-1.2697614,-0.40715572,0.08169329,-0.5929705,1.5412424,-0.41745916
0.0,-0.1,1.2,-0.5235987755982988,-0.5235987755982988,0,-0.14181209,-0.8597559,-2.1526597,-0.076249585,1.6470189,-0.42698735,-0.3599031,-0.90344834,-1.3149214,-0.40111175,0.10289291,-0.5312085,1.5321989,-0.5349634
0.0,-0.1,1.2,-0.5235987755982988,-0.5235987755982988,0,-0.20483978,-0.89894044,-2.1081376,0.18061998,1.3498642,0.27806652,-0.43544367,-0.9116158,-1.3039737,-0.3533882,0.09315464,-0.6127675,1.5242976,-0.74711156
0.0,-0.1,1.2,-0.5235987755982988,-0.5235987755982988,0,-0.29111132,-0.7243157,-2.15227,0.1166722,1.5473955,0.029904224,-0.13267195,-0.9044508,-1.3758109,-0.35467735,0.11563395,-0.55577016,1.5196985,-0.57903355
0.0,-0.1,1.2,-0.5235987755982988,-0.5235987755982988,0,-0.1942952,-0.8257818,-2.1768994,0.201008,1.7270977,-0.79447746,-0.5138391,-0.9144134,-1.3215841,-0.3813354,0.107580386,-0.54926836,1.5454624,-0.645054
0.0,-0.1,1.2,-0.5235987755982988,-0.5235987755982988,0,-0.21034351,-0.80132353,-2.1617103,-0.1382662,1.4106036,0.036081564,-0.33606088,-0.91421556,-1.3135422,-0.37644315,0.09645017,-0.59578097,1.5384802,-0.65277845
0.0,-0.1,1.2,-0.5235987755982988,-0.5235987755982988,0,-0.19550918,-0.8710832,-2.1724606,0.13737477,1.4070961,0.76087123,-0.432254,-0.9280944,-1.3127365,-0.3376877,0.107643016,-0.540633,1.5231364,-0.5152969
0.0,-0.1,1.2,-0.5235987755982988,-0.5235987755982988,0,-0.1552741,-0.8706878,-2.1336935,-0.23129994,1.8324432,-0.320405,-0.30353004,-0.94141567,-1.2996764,-0.37483785,0.099462785,-0.6178752,1.522755,-0.46166357
0.0,-0.1,1.2,-0.5235987755982988,-0.5235987755982988,0,-0.22612393,-0.8117277,-2.1648147,0.24114633,1.6519483,0.4907045,-0.3057605,-0.9213329,-1.3128849,-0.38669506,0.08686691,-0.59007853,1.5195591,-0.4867198
0.0,-0.1,1.2,-0.5235987755982988,-0.5235987755982988,0,-0.47756085,-0.75116104,-2.0741804,-0.06527116,1.946585,0.40473363,-0.18701574,-0.9151368,-1.3082676,-0.3143867,0.1118888,-0.56459063,1.555682,-0.6264961
0.0,-0.1,1.2,-0.5235987755982988,-0.5235987755982988,0,-0.19332114,-0.8171362,-2.192921,0.16380765,1.4591873,0.03869602,-0.20351434,-0.92384946,-1.347193,-0.35935384,0.10456321,-0.58583546,1.5489506,-0.40954342
0.0,-0.1,1.2,-0.5235987755982988,-0.5235987755982988,0,-0.116996795,-0.88821816,-2.1940994,0.121497415,1.5259525,-0.5660264,-0.014758884,-0.8859961,-1.3304718,-0.3659701,0.09042327,-0.5792267,1.5468735,-0.52775294
0.0,-0.1,1.2,-0.5235987755982988,-0.5235987755982988,0,-0.1662751,-0.86728007,-2.1939156,0.17545924,1.3576303,-0.6547346,-0.30474907,-0.9172706,-1.3000087,-0.38026604,0.08775507,-0.54062474,1.5376158,-0.38803694
0.0,-0.1,1.2,-0.5235987755982988,-0.5235987755982988,0,-0.21587391,-0.78540623,-2.2311866,0.32587904,1.4845122,-0.0771381,-0.038946077,-0.9114621,-1.3272974,-0.3771199,0.10267572,-0.5750947,1.5212139,-0.6504305
0.0,-0.1,1.2,-0.5235987755982988,-0.5235987755982988,0,-0.3087385,-0.7849083,-2.0816498,-0.07530321,1.414636,-0.42058223,-0.10388595,-0.9097813,-1.3418392,-0.35447642,0.09385332,-0.58102727,1.5420786,-0.42636654
0.0,-0.1,1.2,-0.5235987755982988,-0.5235987755982988,0,-0.24122447,-0.83553374,-2.0839155,0.02945939,1.4932919,0.46174175,-0.2713351,-0.9295676,-1.3084133,-0.40003583,0.08975087,-0.54401547,1.5386742,-0.38141894
0.0,-0.1,1.2,-0.5235987755982988,-0.5235987755982988,0,-0.3864068,-0.7650792,-2.0069005,0.02763741,1.3699275,-0.15541245,0.19394433,-0.90808904,-1.3123077,-0.4109504,0.10268623,-0.5706645,1.5509759,-0.36881068
0.0,-0.1,1.2,-0.5235987755982988,-0.5235987755982988,0,-0.123623565,-0.88313454,-2.194371,0.1215105,1.6007324,-1.059449,-0.48076805,-0.9337224,-1.3047534,-0.3858663,0.104466386,-0.5535131,1.5396489,-0.48210245
0.0,-0.1,1.2,-0.5235987755982988,-0.5235987755982988,0,-0.20477009,-0.7780005,-2.2093725,-0.03138791,1.529138,-0.46532008,-0.24180126,-0.90573174,-1.2959583,-0.4113291,0.10118438,-0.54786974,1.5496202,-0.5904288
0.0,-0.1,1.2,-0.5235987755982988,-0.5235987755982988,0,-0.26473105,-0.77147675,-2.1573896,-0.14471588,1.9235554,0.57686585,-0.51834637,-0.88011456,-1.3021502,-0.40280366,0.094635636,-0.5591555,1.5454346,-0.2524269
0.0,-0.1,1.2,-0.5235987755982988,-0.5235987755982988,0,-0.25490612,-0.7108419,-2.2598224,-0.11707937,1.7499534,-0.05363199,-0.5235702,-0.9169964,-1.2937657,-0.39825323,0.111101255,-0.56410694,1.5388823,-0.4919095
0.0,-0.1,1.2,-0.5235987755982988,-0.5235987755982988,0,-0.30582407,-0.85579276,-1.9490757,0.053069353,1.6572453,-0.30251414,-0.23290493,-0.92693985,-1.3089069,-0.40446383,0.09130896,-0.55675936,1.5406241,-0.403652
0.0,-0.1,1.2,-0.5235987755982988,-0.5235987755982988,0,-0.027434826,-0.9397385,-2.2144156,0.012423281,1.6914669,-0.9904082,-0.2751983,-0.9330535,-1.3196018,-0.3864228,0.10767483,-0.53089786,1.5436686,-0.5166903
0.0,-0.1,1.2,-0.5235987755982988,-0.5235987755982988,0,-0.32836658,-0.8436898,-1.9869559,-0.1574005,1.738121,-0.06715589,-0.35363534,-0.91448784,-1.2909782,-0.39179626,0.09073352,-0.6060745,1.5319682,-0.5470709
0.0,-0.1,1.2,-0.5235987755982988,-0.5235987755982988,0,-0.114668876,-0.9253057,-2.1769059,0.25340003,1.8043182,-0.5249001,-0.40335163,-0.92047435,-1.3160456,-0.37114507,0.11164065,-0.60794085,1.523487,-0.59906745
0.0,-0.1,1.2,-0.5235987755982988,-0.5235987755982988,0,-0.16672993,-0.8362064,-2.1780775,-0.015124877,1.6526362,0.6174216,-0.1943934,-0.9048997,-1.3241872,-0.32830638,0.111006595,-0.62846744,1.544045,-0.4589483
0.0,-0.1,1.2,-0.5235987755982988,-0.5235987755982988,0,-0.22993174,-0.9381432,-1.9830903,-0.04694004,1.717112,-0.5741942,-0.5769882,-0.9255088,-1.2866362,-0.3663601,0.11407179,-0.57961863,1.5434515,-0.5736237
0.0,-0.1,1.2,-0.5235987755982988,-0.5235987755982988,0,-0.2815853,-0.8453743,-2.1090493,0.2948394,1.4345307,-0.6181022,-0.5225313,-0.88889575,-1.3235546,-0.3720732,0.103184104,-0.56311595,1.5383986,-0.6083573
0.0,-0.1,1.2,-0.5235987755982988,-0.5235987755982988,0,-0.1327659,-0.9312056,-2.0228224,-0.08864342,1.6747962,-0.2958829,-0.44224572,-0.9222074,-1.324248,-0.36489215,0.122858405,-0.58001494,1.5608815,-0.63862866
0.0,-0.1,1.2,-0.5235987755982988,-0.5235987755982988,0,-0.22252196,-0.8084661,-2.1906087,0.08915305,1.6377395,1.0475127,-0.5745793,-0.9212051,-1.2875335,-0.35942152,0.090172395,-0.5957135,1.5619795,-0.49531806
0.0,-0.1,1.2,-0.5235987755982988,-0.5235987755982988,0,-0.19435877,-0.86819506,-2.0808625,0.020507786,1.5122519,0.021057269,-0.3592491,-0.89535856,-1.3189741,-0.38464943,0.10037541,-0.5404375,1.5529925,-0.4119344
0.0,-0.1,1.2,-0.5235987755982988,-0.5235987755982988,0,-0.33745748,-0.7587457,-2.0805519,0.017000822,1.6487068,-0.011254063,-0.48264402,-0.89649945,-1.305106,-0.3786647,0.0909633,-0.5868966,1.5559638,-0.5144283
0.0,-0.1,1.2,-0.5235987755982988,-0.5235987755982988,0,-0.24863443,-0.80517745,-2.1093125,0.028328475,1.526782,0.963718,-0.12663461,-0.94338924,-1.2970585,-0.40249753,0.11936634,-0.55621475,1.5360348,-0.42110202
0.0,-0.1,1.2,-0.5235987755982988,-0.5235987755982988,0,-0.2515034,-0.8430187,-2.0567605,-0.024358759,1.898562,1.115466,-0.58875155,-0.9207254,-1.2738699,-0.41169146,0.10261167,-0.5972287,1.5479194,-0.5847416
0.0,-0.1,1.2,-0.5235987755982988,-0.5235987755982988,0,-0.2819762,-0.80979395,-2.130482,-0.2559631,1.4742591,0.8197478,-0.5875648,-0.93307513,-1.312759,-0.3499492,0.08941568,-0.57977366,1.5449094,-0.63229394
0.0,-0.1,1.2,-0.5235987755982988,-0.5235987755982988,0,-0.28747582,-0.7087696,-2.2295647,0.31217623,1.6271574,-0.39886707,0.154256,-0.8860393,-1.308609,-0.38283017,0.10549682,-0.5860089,1.5396129,-0.44255584
0.0,-0.1,1.2,-0.5235987755982988,-0.5235987755982988,0,-0.22797099,-0.8418317,-2.1068227,-0.28042716,1.4034289,0.069509864,-0.6967626,-0.92101926,-1.3294181,-0.36209005,0.083140366,-0.57278615,1.5209327,-0.5015074
0.0,-0.1,1.2,-0.5235987755982988,-0.5235987755982988,0,-0.11836964,-0.906648,-2.1680887,0.11068493,1.5120482,-0.46213862,-0.381323,-0.91913134,-1.3197919,-0.3769686,0.09483897,-0.5548335,1.5484389,-0.45046455
0.0,-0.1,1.2,-0.5235987755982988,-0.5235987755982988,0,-0.18564492,-0.8407848,-2.1423206,-0.09269265,1.0599202,0.37097842,-0.33950472,-0.93482476,-1.3001639,-0.3877431,0.10840903,-0.5684824,1.5301846,-0.5124393
0.0,-0.1,1.2,-0.5235987755982988,-0.5235987755982988,0,-0.08334403,-0.772041,-2.4243178,0.270708,1.4415587,0.68658483,-0.50537413,-0.934381,-1.3048352,-0.36352378,0.09993097,-0.5553667,1.5541005,-0.34026214
0.0,-0.1,1.2,-0.5235987755982988,-0.5235987755982988,0,-0.18637417,-0.81336135,-2.181726,0.050318677,1.4091048,-0.66836154,-0.48264325,-0.92693216,-1.3168801,-0.38028598,0.10032971,-0.5373413,1.5355278,-0.5593018
0.0,-0.1,1.2,-0.5235987755982988,-0.5235987755982988,0,-0.2485771,-0.75956863,-2.2044463,-0.04692847,1.6674243,0.50950724,-0.045121145,-0.89529556,-1.3311856,-0.33430073,0.109160475,-0.6029412,1.5073308,-0.59879035
0.0,-0.1,1.2,-0.5235987755982988,-0.5235987755982988,0,-0.13385536,-0.85660946,-2.2217884,-0.20952797,1.3195572,0.5563404,-0.19824891,-0.9088425,-1.2773879,-0.38045913,0.110516906,-0.576285,1.5492891,-0.74120694
0.0,-0.1,1.2,-0.5235987755982988,-0.5235987755982988,0,-0.4203655,-0.7841374,-2.0836225,-0.3421177,1.6254927,0.129366,-0.43419683,-0.89235705,-1.3133572,-0.37452084,0.113884605,-0.57239145,1.5496159,-0.5080189
0.0,-0.1,1.2,-0.5235987755982988,-0.5235987755982988,0,-0.18863507,-0.90728354,-2.1198754,0.12787053,1.3344882,-0.3748749,-0.40160906,-0.92306757,-1.3152072,-0.34680727,0.100723535,-0.58443654,1.5573713,-0.5477869
0.0,-0.1,1.2,-0.5235987755982988,-0.5235987755982988,0,-0.120183766,-0.822165,-2.2269745,-0.16473226,1.4938316,-0.044533506,-0.2635283,-0.91023535,-1.3161491,-0.41785854,0.1036933,-0.5305573,1.5302948,-0.4824262
0.0,-0.1,1.2,-0.5235987755982988,-0.5235987755982988,0,-0.24435829,-0.7564672,-2.2334263,-0.022203928,1.8675201,0.961992,-0.2563726,-0.87981766,-1.3085457,-0.34118587,0.10838412,-0.56661,1.5411743,-0.4627901
0.0,-0.1,1.2,-0.5235987755982988,-0.5235987755982988,0,-0.20413269,-0.75025415,-2.2362175,0.0037417288,1.6731786,1.0690523,-0.41414765,-0.9275382,-1.288371,-0.4090217,0.094420105,-0.5347096,1.552347,-0.5115668
0.0,-0.1,1.2,-0.5235987755982988,-0.5235987755982988,0,-0.26552457,-0.8148171,-2.0892484,0.032337565,1.7971649,0.8055929,-0.6266245,-0.9285597,-1.2952172,-0.38924348,0.1022776,-0.54671705,1.5478023,-0.6257905
0.0,-0.1,1.2,-0.5235987755982988,-0.5235987755982988,0,-0.13235812,-0.82877916,-2.2315054,-0.17331883,1.9081384,0.17389765,-0.42385048,-0.94142205,-1.3400686,-0.33138245,0.100244544,-0.52634627,1.551631,-0.34031764
0.0,-0.1,1.2,-0.5235987755982988,-0.5235987755982988,0,-0.1417414,-0.848275,-2.233196,-0.13278262,1.8705746,0.16711456,-0.3703339,-0.89482826,-1.301815,-0.33325437,0.097004175,-0.6020579,1.5366206,-0.5379894
0.0,-0.1,1.2,-0.5235987755982988,-0.5235987755982988,0,-0.29294232,-0.8011861,-2.1152916,-0.047837276,1.8326312,0.06974209,-0.5873553,-0.89563715,-1.3118296,-0.37911767,0.09960096,-0.5426622,1.5060402,-0.66613483
0.0,-0.1,1.2,-0.5235987755982988,-0.5235987755982988,0,-0.14135246,-0.80257016,-2.2679307,-0.16555053,1.7241893,-0.15109679,-0.6721826,-0.9198057,-1.2746526,-0.39677092,0.113249585,-0.5705647,1.5425175,-0.39151186
0.0,-0.1,1.2,-0.5235987755982988,-0.5235987755982988,0,-0.1674976,-0.83462405,-2.1901245,-0.26845533,1.2792429,0.030349042,-0.37678552,-0.8819935,-1.3281997,-0.3492617,0.091737114,-0.591261,1.5365462,-0.6048573
0.0,-0.1,1.2,-0.5235987755982988,-0.5235987755982988,0,-0.11263058,-0.9063299,-2.181258,0.0077269073,1.7101251,-1.0459023,-0.5094903,-0.8862109,-1.3183217,-0.35209548,0.095708594,-0.58512044,1.5436375,-0.3808627
0.0,-0.1,1.2,-0.5235987755982988,-0.5235987755982988,0,-0.22871558,-0.89491224,-2.0312269,0.05660062,1.425354,-0.4034784,-0.5975323,-0.94594395,-1.3069614,-0.3389943,0.098793335,-0.57849395,1.5351571,-0.56761616
0.0,-0.1,1.2,-0.5235987755982988,-0.5235987755982988,0,-0.118701145,-0.80841154,-2.3093045,0.2449921,1.3589754,0.24918944,-0.47710297,-0.9327593,-1.3087343,-0.38194212,0.104095444,-0.5630992,1.5441507,-0.51192373
0.0,-0.1,1.2,-0.5235987755982988,-0.5235987755982988,0,-0.26559705,-0.82421994,-2.131252,0.22051038,1.5701096,-0.5427433,-0.42818427,-0.9165332,-1.2833146,-0.3681891,0.11910218,-0.57626265,1.5398997,-0.48525202
0.0,-0.1,1.2,-0.5235987755982988,-0.5235987755982988,0,-0.14840035,-0.80626065,-2.2401707,-0.0071021984,1.556303,0.9919184,-0.7701235,-0.9112308,-1.2944862,-0.38279885,0.10483001,-0.55898744,1.5608323,-0.5918113
0.0,-0.1,1.2,-0.5235987755982988,-0.5235987755982988,0,-0.16624922,-0.80191964,-2.2290256,0.058094203,1.9636148,-0.23503643,-0.0060648015,-0.9303365,-1.2669117,-0.39869824,0.1045719,-0.5804086,1.5383086,-0.56392336
0.0,-0.1,1.2,-0.5235987755982988,-0.5235987755982988,0,-0.1718845,-0.86038435,-2.2043138,0.20069943,1.5557504,-0.45184427,-0.2534038,-0.92487353,-1.2954545,-0.3350884,0.096751936,-0.6117146,1.5445414,-0.48123816
0.0,-0.1,1.2,-0.5235987755982988,-0.5235987755982988,0,-0.1557549,-0.8727856,-2.2048092,0.27382305,1.7291172,-1.099918,-0.16269013,-0.9579182,-1.2820511,-0.35974687,0.121040575,-0.61862713,1.542118,-0.5820264
0.0,-0.1,1.2,-0.5235987755982988,-0.5235987755982988,0,-0.17165563,-0.7926182,-2.2549422,0.081775755,1.5916264,0.7551259,-0.27310762,-0.9057526,-1.2999227,-0.36987737,0.114134215,-0.5520546,1.5356969,-0.5088488
0.0,-0.1,1.2,-0.5235987755982988,-0.5235987755982988,0,-0.105551645,-0.8876934,-2.2037032,-0.22206871,1.6494999,0.8158852,0.10587269,-0.92625034,-1.3122675,-0.34110513,0.093344614,-0.55983686,1.538521,-0.419685
0.0,-0.1,1.2,-0.5235987755982988,-0.5235987755982988,0,-0.27127868,-0.8091915,-2.1426919,-0.39047298,1.6295558,-0.65351355,-0.19761151,-0.9217388,-1.2823792,-0.4139941,0.10256618,-0.6011765,1.5636342,-0.50904983
0.0,-0.1,1.2,-0.5235987755982988,-0.5235987755982988,0,-0.19769642,-0.85504174,-2.107851,0.102050826,1.7786285,-1.5164288,-0.40789112,-0.88738483,-1.3591148,-0.3194145,0.11926927,-0.6269752,1.5525585,-0.58739716
0.0,-0.1,1.2,-0.5235987755982988,-0.5235987755982988,0,-0.113828264,-0.8971008,-2.1573734,-0.11121413,1.109883,-1.2055565,-1.034461,-0.9300703,-1.3428832,-0.34209028,0.11684099,-0.5803994,1.5215081,-0.5929051
0.0,-0.1,1.2,-0.5235987755982988,-0.5235987755982988,0,-0.23680505,-0.9220426,-2.1214852,0.29123795,1.2440567,-1.4649774,-0.4204188,-0.9183866,-1.3344232,-0.3197149,0.1078123,-0.58086926,1.5614486,-0.49891105
0.0,-0.1,1.2,-0.5235987755982988,-0.5235987755982988,0,-0.41687533,-0.8445903,-1.9399137,-0.41638303,1.858246,-0.9957193,-0.2351182,-0.9480661,-1.3399951,-0.39450005,0.091333345,-0.5526558,1.5189636,-0.4258558
0.0,-0.1,1.2,-0.5235987755982988,-0.5235987755982988,0,-0.41687533,-0.8445903,-1.9399137,-0.41638303,1.858246,-0.9957193,-0.2351182,-0.9480661,-1.3399951,-0.39450005,0.091333345,-0.5526558,1.5189636,-0.4258558
0.0,-0.1,1.2,-0.5235987755982988,-0.5235987755982988,0,-0.41687533,-0.8445903,-1.9399137,-0.41638303,1.858246,-0.9957193,-0.2351182,-0.9480661,-1.3399951,-0.39450005,0.091333345,-0.5526558,1.5189636,-0.4258558
0.0,-0.1,1.2,-0.5235987755982988,-0.5235987755982988,0,-0.29320937,-0.8315017,-1.9220494,-0.14351693,1.671102,-1.3982074,-0.687063,-0.96190983,-1.3136408,-0.4439996,0.10206611,-0.5359425,1.5673004,-0.46428245
0.0,-0.1,1.2,-0.5235987755982988,-0.5235987755982988,0,-0.29320937,-0.8315017,-1.9220494,-0.14351693,1.671102,-1.3982074,-0.687063,-0.96190983,-1.3136408,-0.4439996,0.10206611,-0.5359425,1.5673004,-0.46428245
0.0,-0.1,1.2,-0.5235987755982988,-0.5235987755982988,0,-0.29320937,-0.8315017,-1.9220494,-0.14351693,1.671102,-1.3982074,-0.687063,-0.96190983,-1.3136408,-0.4439996,0.10206611,-0.5359425,1.5673004,-0.46428245
0.0,-0.1,1.2,-0.5235987755982988,-0.5235987755982988,0,-0.31492507,-0.95525706,-1.9642688,-0.3368561,1.6940444,-1.532997,-0.33774298,-0.90024596,-1.3485118,-0.3685264,0.11513622,-0.54829144,1.5507684,-0.41954458
0.0,-0.1,1.2,-0.5235987755982988,-0.5235987755982988,0,-0.31492507,-0.95525706,-1.9642688,-0.3368561,1.6940444,-1.532997,-0.33774298,-0.90024596,-1.3485118,-0.3685264,0.11513622,-0.54829144,1.5507684,-0.41954458
0.0,-0.1,1.2,-0.5235987755982988,-0.5235987755982988,0,-0.31492507,-0.95525706,-1.9642688,-0.3368561,1.6940444,-1.532997,-0.33774298,-0.90024596,-1.3485118,-0.3685264,0.11513622,-0.54829144,1.5507684,-0.41954458
0.0,-0.1,1.2,-0.5235987755982988,-0.5235987755982988,0,-0.37446782,-0.8521378,-2.1636531,-0.053278558,1.6252236,-1.2419031,-0.48871732,-0.9237891,-1.2890222,-0.28101033,0.106372915,-0.5480084,1.5486726,-0.35359308
0.0,-0.1,1.2,-0.5235987755982988,-0.5235987755982988,0,-0.37446782,-0.8521378,-2.1636531,-0.053278558,1.6252236,-1.2419031,-0.48871732,-0.9237891,-1.2890222,-0.28101033,0.106372915,-0.5480084,1.5486726,-0.35359308
0.0,-0.1,1.2,-0.5235987755982988,-0.5235987755982988,0,-0.37446782,-0.8521378,-2.1636531,-0.053278558,1.6252236,-1.2419031,-0.48871732,-0.9237891,-1.2890222,-0.28101033,0.106372915,-0.5480084,1.5486726,-0.35359308
0.0,-0.1,1.2,-0.5235987755982988,-0.5235987755982988,0,-0.37446782,-0.8521378,-2.1636531,-0.053278558,1.6252236,-1.2419031,-0.48871732,-0.9237891,-1.2890222,-0.28101033,0.106372915,-0.5480084,1.5486726,-0.35359308
0.0,-0.1,1.2,-0.5235987755982988,-0.5235987755982988,0,-0.33319244,-0.91523093,-2.08399,-0.20693718,1.5686466,-1.1450036,-0.49682692,-0.8895423,-1.3029405,-0.3750128,0.094631575,-0.49669597,1.512753,-0.69772106
0.0,-0.1,1.2,-0.5235987755982988,-0.5235987755982988,0,-0.33319244,-0.91523093,-2.08399,-0.20693718,1.5686466,-1.1450036,-0.49682692,-0.8895423,-1.3029405,-0.3750128,0.094631575,-0.49669597,1.512753,-0.69772106
0.0,-0.1,1.2,-0.5235987755982988,-0.5235987755982988,0,-0.33319244,-0.91523093,-2.08399,-0.20693718,1.5686466,-1.1450036,-0.49682692,-0.8895423,-1.3029405,-0.3750128,0.094631575,-0.49669597,1.512753,-0.69772106
0.0,-0.1,1.2,-0.5235987755982988,-0.5235987755982988,0,-0.38937148,-0.9361427,-1.9447494,-0.12843765,1.2679989,-1.4699976,-0.11477016,-0.93054134,-1.2838145,-0.31492376,0.09993905,-0.60007334,1.5592124,-0.3035362
0.0,-0.1,1.2,-0.5235987755982988,-0.5235987755982988,0,-0.38937148,-0.9361427,-1.9447494,-0.12843765,1.2679989,-1.4699976,-0.11477016,-0.93054134,-1.2838145,-0.31492376,0.09993905,-0.60007334,1.5592124,-0.3035362
0.0,-0.1,1.2,-0.5235987755982988,-0.5235987755982988,0,-0.38937148,-0.9361427,-1.9447494,-0.12843765,1.2679989,-1.4699976,-0.11477016,-0.93054134,-1.2838145,-0.31492376,0.09993905,-0.60007334,1.5592124,-0.3035362
0.0,-0.1,1.2,-0.5235987755982988,-0.5235987755982988,0,-0.38937148,-0.9361427,-1.9447494,-0.12843765,1.2679989,-1.4699976,-0.11477016,-0.93054134,-1.2838145,-0.31492376,0.09993905,-0.60007334,1.5592124,-0.3035362
0.0,-0.1,1.2,-0.5235987755982988,-0.5235987755982988,0,-0.38484684,-0.90153223,-1.995976,-0.19974296,1.4635102,-1.3937231,-0.0920457,-0.90077454,-1.3143834,-0.4081024,0.12479126,-0.5747317,1.5577258,-0.6701959
0.0,-0.1,1.2,-0.5235987755982988,-0.5235987755982988,0,-0.38484684,-0.90153223,-1.995976,-0.19974296,1.4635102,-1.3937231,-0.0920457,-0.90077454,-1.3143834,-0.4081024,0.12479126,-0.5747317,1.5577258,-0.6701959
0.0,-0.1,1.2,-0.5235987755982988,-0.5235987755982988,0,-0.38484684,-0.90153223,-1.995976,-0.19974296,1.4635102,-1.3937231,-0.0920457,-0.90077454,-1.3143834,-0.4081024,0.12479126,-0.5747317,1.5577258,-0.6701959
0.0,-0.1,1.2,-0.5235987755982988,-0.5235987755982988,0,-0.38484684,-0.90153223,-1.995976,-0.19974296,1.4635102,-1.3937231,-0.0920457,-0.90077454,-1.3143834,-0.4081024,0.12479126,-0.5747317,1.5577258,-0.6701959
0.0,-0.1,1.2,-0.5235987755982988,-0.5235987755982988,0,-0.35930243,-0.9092013,-1.8782337,-0.3067477,1.634205,-1.203351,-0.45548195,-0.91090673,-1.326898,-0.43021625,0.112910725,-0.6053817,1.5574548,-0.56723183
0.0,-0.1,1.2,-0.5235987755982988,-0.5235987755982988,0,-0.35930243,-0.9092013,-1.8782337,-0.3067477,1.634205,-1.203351,-0.45548195,-0.91090673,-1.326898,-0.43021625,0.112910725,-0.6053817,1.5574548,-0.56723183
0.0,-0.1,1.2,-0.5235987755982988,-0.5235987755982988,0,-0.35930243,-0.9092013,-1.8782337,-0.3067477,1.634205,-1.203351,-0.45548195,-0.91090673,-1.326898,-0.43021625,0.112910725,-0.6053817,1.5574548,-0.56723183
0.0,-0.1,1.2,-0.5235987755982988,-0.5235987755982988,0,-0.3568433,-0.87633836,-2.016547,-0.31348914,1.7431209,-1.0983348,-0.40794173,-0.88744766,-1.3239331,-0.37709865,0.105493635,-0.5195902,1.544565,-0.5843964
0.0,-0.1,1.2,-0.5235987755982988,-0.5235987755982988,0,-0.3568433,-0.87633836,-2.016547,-0.31348914,1.7431209,-1.0983348,-0.40794173,-0.88744766,-1.3239331,-0.37709865,0.105493635,-0.5195902,1.544565,-0.5843964
0.0,-0.1,1.2,-0.5235987755982988,-0.5235987755982988,0,-0.3568433,-0.87633836,-2.016547,-0.31348914,1.7431209,-1.0983348,-0.40794173,-0.88744766,-1.3239331,-0.37709865,0.105493635,-0.5195902,1.544565,-0.5843964
0.0,-0.1,1.2,-0.5235987755982988,-0.5235987755982988,0,-0.3568433,-0.87633836,-2.016547,-0.31348914,1.7431209,-1.0983348,-0.40794173,-0.88744766,-1.3239331,-0.37709865,0.105493635,-0.5195902,1.544565,-0.5843964
0.0,-0.1,1.2,-0.5235987755982988,-0.5235987755982988,0,-0.41774312,-0.95331573,-1.8571018,-0.5153413,1.7685924,-0.90359104,-0.37347728,-0.9018926,-1.3082799,-0.36521316,0.09763892,-0.522401,1.5343056,-0.60459095
