sanky1234/BimanualDexCatch/isaacgymenvs/cem_results/May31/football_pose_0.0_0.0_0.9_-0.5235987755982988_0.5235987755982988_0_2025-05-31.csv
x,y,z,roll,pitch,yaw,robot1/joint1,robot1/joint2,robot1/joint3,robot1/joint4,robot1/joint5,robot1/joint6,robot1/joint7,robot2/joint1,robot2/joint2,robot2/joint3,robot2/joint4,robot2/joint5,robot2/joint6,robot2/joint7
0.0,0.0,0.9,-0.5235987755982988,0.5235987755982988,0,-0.82110703,-1.2235456,-1.8129953,0.03077266,-0.049661137,1.4939561,-0.09785072,1.1542292,-0.80855435,1.2922661,0.39680395,-0.023711426,1.5259801,0.6558647
0.0,0.0,0.9,-0.5235987755982988,0.5235987755982988,0,-0.88932383,-1.2232662,-1.8261658,0.045013834,-0.027488086,1.4882456,-0.01650045,1.2215093,-0.7780482,1.3714671,0.37248364,-0.06633142,1.5106949,0.8679192
0.0,0.0,0.9,-0.5235987755982988,0.5235987755982988,0,-0.8534748,-1.2539974,-1.8321055,0.0030202246,-0.027570369,1.5082288,-0.044931155,1.1561701,-0.8700331,1.4304508,0.34611586,-0.05049176,1.4998883,0.9488932
0.0,0.0,0.9,-0.5235987755982988,0.5235987755982988,0,-0.8868199,-1.1642208,-1.8397787,0.047380775,-0.039575785,1.485791,-0.040355187,1.3032304,-0.75671583,1.3959495,0.30241984,-0.100987405,1.5081325,0.7589143
0.0,0.0,0.9,-0.5235987755982988,0.5235987755982988,0,-0.8663182,-1.1516907,-1.8233027,0.02863926,-0.02654198,1.4850606,-0.100398056,1.3552582,-0.78673804,1.346444,0.32751107,-0.056221273,1.461562,0.5594041
0.0,0.0,0.9,-0.5235987755982988,0.5235987755982988,0,-0.8856163,-1.1730726,-1.837894,0.04179468,-0.03935962,1.4989388,-0.15968336,1.2558409,-0.7426932,1.3835372,0.3966672,-0.15305705,1.5289595,0.5876661
0.0,0.0,0.9,-0.5235987755982988,0.5235987755982988,0,-0.8513137,-1.2494819,-1.8311449,0.055458367,-0.037632275,1.484799,-0.066644736,1.2331424,-0.83230555,1.2262272,0.39252952,-0.053337533,1.5494971,0.2755952
0.0,0.0,0.9,-0.5235987755982988,0.5235987755982988,0,-0.8630631,-1.2013314,-1.8390301,0.041695435,-0.020252243,1.4916232,-0.1214022,1.244963,-0.82835025,1.2837522,0.38343525,0.009046557,1.5041271,0.8822459
0.0,0.0,0.9,-0.5235987755982988,0.5235987755982988,0,-0.81724316,-1.0738959,-1.8161209,0.080232866,-0.03827906,1.5064312,-0.07725912,1.2524699,-0.89323723,1.3332871,0.3676714,-0.046362687,1.5245554,1.0340791
0.0,0.0,0.9,-0.5235987755982988,0.5235987755982988,0,-0.8952235,-1.1528846,-1.8264822,0.05630152,-0.028964493,1.4989011,-0.05600576,1.2038106,-0.77462995,1.364465,0.42237234,0.008878351,1.5091949,0.5592892
0.0,0.0,0.9,-0.5235987755982988,0.5235987755982988,0,-0.8736961,-1.3221983,-1.8212414,0.030508915,-0.031441204,1.4962339,-0.06857938,1.2503902,-0.85665786,1.2291374,0.37664482,0.05988001,1.4645408,0.69752526
0.0,0.0,0.9,-0.5235987755982988,0.5235987755982988,0,-0.87704164,-1.1706607,-1.8220901,0.04771151,-0.052410893,1.4781607,-0.032773133,1.2046641,-0.7836735,1.2578012,0.44392452,-0.01079111,1.4983965,0.8080444
0.0,0.0,0.9,-0.5235987755982988,0.5235987755982988,0,-0.87727654,-1.3386279,-1.8300194,0.017726688,-0.03304262,1.4858117,-0.04645864,1.2098023,-0.78281033,1.4055502,0.35117483,-0.116647534,1.5157291,0.81138736
0.0,0.0,0.9,-0.5235987755982988,0.5235987755982988,0,-0.8994925,-1.1727436,-1.8194175,0.07443415,-0.03758801,1.4830033,-0.04896451,1.2269094,-0.81158876,1.3954923,0.3772435,-0.15261069,1.5077066,1.0384719
0.0,0.0,0.9,-0.5235987755982988,0.5235987755982988,0,-0.8619517,-1.3385913,-1.8193741,0.06088965,-0.029320857,1.4935143,-0.2304412,1.2401553,-0.84800035,1.4503989,0.29601,-0.11257756,1.512592,0.6689992
0.0,0.0,0.9,-0.5235987755982988,0.5235987755982988,0,-0.8524051,-1.1723628,-1.8294028,0.051150735,-0.030993493,1.4885706,-0.09616156,1.1619699,-0.82227254,1.4381098,0.3273077,-0.03319946,1.4899315,0.8012273
0.0,0.0,0.9,-0.5235987755982988,0.5235987755982988,0,-0.85370684,-1.2309235,-1.8186222,0.043842334,-0.044908673,1.49586,-0.2111157,1.2129996,-0.8418043,1.2809718,0.33384013,-0.0074864374,1.491854,0.43787602
0.0,0.0,0.9,-0.5235987755982988,0.5235987755982988,0,-0.85570556,-1.2311128,-1.8142781,0.0357799,-0.04796131,1.478838,-0.117967844,1.0882815,-0.8862909,1.3520676,0.3976031,-0.014809618,1.478874,0.7070216
0.0,0.0,0.9,-0.5235987755982988,0.5235987755982988,0,-0.8487165,-1.1798086,-1.8343077,0.054461483,-0.03770902,1.483378,-0.21323386,1.1945302,-0.76969284,1.4131293,0.4288073,-0.12077393,1.5069174,1.000762
0.0,0.0,0.9,-0.5235987755982988,0.5235987755982988,0,-0.82799196,-1.2298824,-1.8389138,0.060707066,-0.046046313,1.4939561,-0.1645897,1.2461528,-0.80253965,1.3126564,0.38682014,-0.040587366,1.482906,0.6470938
0.0,0.0,0.9,-0.5235987755982988,0.5235987755982988,0,-0.8600543,-1.2196511,-1.8306304,0.015395816,-0.03328688,1.4937626,-0.12936482,1.2391008,-0.7674949,1.4410601,0.30033398,-0.040854577,1.5177363,0.8121838
0.0,0.0,0.9,-0.5235987755982988,0.5235987755982988,0,-0.84338456,-1.315339,-1.8243192,0.05639127,-0.043213435,1.4930024,-0.22495793,1.2216271,-0.798671,1.4076165,0.2905537,0.012324784,1.476215,1.0969702
0.0,0.0,0.9,-0.5235987755982988,0.5235987755982988,0,-0.83974457,-1.2013532,-1.814841,0.07407922,-0.035156764,1.4804531,-0.13701165,1.2746171,-0.7958141,1.2887083,0.5308785,-0.1471119,1.4921255,0.9318717
0.0,0.0,0.9,-0.5235987755982988,0.5235987755982988,0,-0.83989215,-1.219161,-1.8116878,0.010316852,-0.034758836,1.4807988,-0.016222488,1.1996303,-0.8815288,1.4106841,0.32892275,-0.10274423,1.5074896,0.65077037
0.0,0.0,0.9,-0.5235987755982988,0.5235987755982988,0,-0.89426714,-1.2809664,-1.8205326,0.047473036,-0.031600043,1.4876189,-0.077959344,1.1941284,-0.8913056,1.4108183,0.39766997,-0.14045143,1.4874268,0.48422632
0.0,0.0,0.9,-0.5235987755982988,0.5235987755982988,0,-0.8389498,-1.1979028,-1.8381206,0.0746249,-0.042607732,1.4928303,-0.13476112,1.1624097,-0.8567976,1.367314,0.37843344,-0.03788911,1.5056118,0.5074167
0.0,0.0,0.9,-0.5235987755982988,0.5235987755982988,0,-0.86830324,-1.2127433,-1.8446454,0.030981224,-0.039678376,1.4875665,-0.08101085,1.0874287,-0.7443885,1.412436,0.40968764,0.034895085,1.4711167,0.85459596
0.0,0.0,0.9,-0.5235987755982988,0.5235987755982988,0,-0.9693475,-1.2577493,-1.8183204,0.038917616,-0.02576483,1.4925375,0.022942932,1.2187719,-0.78711146,1.3274022,0.41405752,0.00398158,1.5198321,0.9085209
0.0,0.0,0.9,-0.5235987755982988,0.5235987755982988,0,-0.88310575,-1.3148978,-1.8193947,0.03651023,-0.041680984,1.4661778,-0.14549847,1.2566525,-0.7745255,1.2631123,0.36732116,0.011974509,1.4835125,0.53516746
0.0,0.0,0.9,-0.5235987755982988,0.5235987755982988,0,-0.9116157,-1.2493913,-1.83899,0.07421285,-0.042420033,1.4840415,-0.095147595,1.1692556,-0.8316498,1.437572,0.32794368,-0.015244766,1.5023087,0.716908
0.0,0.0,0.9,-0.5235987755982988,0.5235987755982988,0,-0.9321569,-1.2588978,-1.8256762,0.04961134,-0.04474671,1.4999708,-0.057336587,1.1859081,-0.76429707,1.3447045,0.406261,-0.047629446,1.5167284,0.40325394
0.0,0.0,0.9,-0.5235987755982988,0.5235987755982988,0,-0.92470604,-1.3120637,-1.8182636,0.02599316,-0.038676295,1.5016764,-0.09329761,1.2762438,-0.79685825,1.3387532,0.37518552,-0.11906856,1.5087788,1.1533359
0.0,0.0,0.9,-0.5235987755982988,0.5235987755982988,0,-0.8633797,-1.2408863,-1.7974675,0.052005723,-0.033671636,1.4839643,-0.16751729,1.1797398,-0.8344506,1.1701739,0.46767235,0.045594666,1.5232157,0.7778119
0.0,0.0,0.9,-0.5235987755982988,0.5235987755982988,0,-0.91956776,-1.1697285,-1.822598,0.049543794,-0.048425116,1.4842707,-0.15560172,1.1115112,-0.78879344,1.2478622,0.41366133,0.076015785,1.523198,0.71829355
0.0,0.0,0.9,-0.5235987755982988,0.5235987755982988,0,-0.8588279,-1.2974362,-1.8225234,0.060686182,-0.02502552,1.4857512,-0.062033065,1.083966,-0.9362509,1.3329456,0.38417315,0.02713992,1.478617,0.6351556
0.0,0.0,0.9,-0.5235987755982988,0.5235987755982988,0,-0.81612813,-1.2194648,-1.8282155,0.04039853,-0.03586861,1.4906882,-0.14091834,1.1416361,-0.7469337,1.3575307,0.39241153,-0.017516717,1.4792446,0.84128666
0.0,0.0,0.9,-0.5235987755982988,0.5235987755982988,0,-0.79378504,-1.2594268,-1.8418434,0.06350536,-0.025516735,1.4938682,-0.07438805,1.1977183,-0.7868453,1.4884185,0.27542675,-0.07292571,1.554678,0.9032529
0.0,0.0,0.9,-0.5235987755982988,0.5235987755982988,0,-0.8398897,-1.2359272,-1.8255689,0.02834358,-0.037451275,1.4858578,-0.06181494,1.1778771,-0.80634373,1.3798323,0.37573993,-0.06266601,1.5113168,1.0271574
0.0,0.0,0.9,-0.5235987755982988,0.5235987755982988,0,-0.87009066,-1.2684022,-1.8314837,0.044744935,-0.03283537,1.4726406,-0.17960994,1.2223871,-0.733964,1.404006,0.34974307,-0.071853906,1.5075756,0.96494806
0.0,0.0,0.9,-0.5235987755982988,0.5235987755982988,0,-0.84741294,-1.1940302,-1.814624,0.04742804,-0.03324783,1.4760302,-0.11534249,1.2893848,-0.7599458,1.356273,0.32214394,-0.033357378,1.5399895,0.9542803
0.0,0.0,0.9,-0.5235987755982988,0.5235987755982988,0,-0.8965939,-1.2166554,-1.8371072,0.037977323,-0.02918099,1.4837158,-0.047571708,1.1908892,-0.85234463,1.3141501,0.41271752,-0.03560309,1.53723,0.79055166
0.0,0.0,0.9,-0.5235987755982988,0.5235987755982988,0,-0.85893947,-1.2539002,-1.8248112,0.019571234,-0.027302949,1.5005367,-0.06532205,1.3024868,-0.88375306,1.3101555,0.41869667,-0.12255783,1.5191653,0.98343617
0.0,0.0,0.9,-0.5235987755982988,0.5235987755982988,0,-0.899206,-1.3228691,-1.8302191,0.040018044,-0.045955252,1.4773532,-0.12866774,1.3313365,-0.8073009,1.3953773,0.38864708,-0.15801576,1.4932619,0.683177
0.0,0.0,0.9,-0.5235987755982988,0.5235987755982988,0,-0.93146646,-1.3163903,-1.8284136,0.062785454,-0.031961497,1.4960549,-0.14945894,1.2329139,-0.7803762,1.3238369,0.39048573,-0.047442004,1.4998815,0.8905806
0.0,0.0,0.9,-0.5235987755982988,0.5235987755982988,0,-0.90867615,-1.2207016,-1.8167306,0.04821139,-0.030359225,1.4830804,-0.046520952,1.1907861,-0.9140333,1.3465277,0.35795304,-0.0640766,1.530286,0.76194376
0.0,0.0,0.9,-0.5235987755982988,0.5235987755982988,0,-0.8288067,-1.2338921,-1.8257585,0.06838546,-0.038669355,1.4876492,-0.09734336,1.21268,-0.8326951,1.4438139,0.34734422,-0.101050176,1.5280403,0.8963064
0.0,0.0,0.9,-0.5235987755982988,0.5235987755982988,0,-0.90486574,-1.247171,-1.8273177,0.054050054,-0.033808704,1.4732785,-0.107860886,1.1748451,-0.87768996,1.4728884,0.3257677,-0.04382628,1.4937897,0.69995075
0.0,0.0,0.9,-0.5235987755982988,0.5235987755982988,0,-0.87798005,-1.241826,-1.816287,0.026183633,-0.02694382,1.4817332,-0.048744075,1.2476289,-0.86723614,1.3847619,0.32338288,-0.054586466,1.5114081,0.80838704
0.0,0.0,0.9,-0.5235987755982988,0.5235987755982988,0,-0.9127938,-1.2724215,-1.8001167,0.041723628,-0.02931768,1.5013583,-0.08836776,1.1804321,-0.84260523,1.2872415,0.45622617,-0.0112887435,1.4948857,0.81185526
0.0,0.0,0.9,-0.5235987755982988,0.5235987755982988,0,-0.90663,-1.2273068,-1.8138394,0.05448507,-0.022432052,1.4839228,-0.06445032,1.1877509,-0.85727286,1.376395,0.43309864,-0.04608789,1.4806621,0.8770368
0.0,0.0,0.9,-0.5235987755982988,0.5235987755982988,0,-0.9004571,-1.244866,-1.822255,0.046280608,-0.033916637,1.477222,-0.21225409,1.17565,-0.89549226,1.375856,0.34062514,0.027348308,1.5066954,0.47520742
0.0,0.0,0.9,-0.5235987755982988,0.5235987755982988,0,-0.92520446,-1.3010789,-1.8246856,0.07946757,-0.044558782,1.479325,-0.1680787,1.1628329,-0.74618745,1.3390685,0.38118866,0.0061958055,1.5110495,0.8666237
0.0,0.0,0.9,-0.5235987755982988,0.5235987755982988,0,-0.8918295,-1.2241163,-1.819958,0.05974441,-0.05967452,1.4801933,-0.16917345,1.1323551,-0.86616206,1.3561395,0.44186962,-0.04310916,1.5160171,0.5263827
0.0,0.0,0.9,-0.5235987755982988,0.5235987755982988,0,-0.8286937,-1.2256923,-1.8090371,0.061606377,-0.031080937,1.4827604,-0.06307777,1.2463888,-0.8746353,1.3320444,0.30576846,0.004809208,1.5373718,0.6938941
0.0,0.0,0.9,-0.5235987755982988,0.5235987755982988,0,-0.9130707,-1.2822924,-1.8406868,0.06808862,-0.029602945,1.4833897,-0.145157,1.2843859,-0.8156525,1.2431899,0.47051722,-0.0475634,1.5174285,0.9588844
0.0,0.0,0.9,-0.5235987755982988,0.5235987755982988,0,-0.85305065,-1.261638,-1.8064814,0.039878882,-0.03469959,1.481217,-0.14417548,1.1577208,-0.84967345,1.3424575,0.40747568,-0.028517583,1.5056318,0.9142923
0.0,0.0,0.9,-0.5235987755982988,0.5235987755982988,0,-0.8667358,-1.1849508,-1.8179541,0.06522125,-0.04671466,1.4953367,-0.14337109,1.1874297,-0.8031559,1.3152033,0.3662646,0.06682117,1.5374441,0.9814617
0.0,0.0,0.9,-0.5235987755982988,0.5235987755982988,0,-0.85040385,-1.2846853,-1.818484,0.056270774,-0.025908224,1.4927093,-0.122652315,1.2309971,-0.8064318,1.3227072,0.34638724,-0.040394966,1.5169803,0.5924361
0.0,0.0,0.9,-0.5235987755982988,0.5235987755982988,0,-0.91559696,-1.3102355,-1.815326,0.019063793,-0.036420994,1.483489,-0.16662188,1.1365764,-0.8445651,1.3717898,0.4228004,-0.07232496,1.49003,0.57164013
0.0,0.0,0.9,-0.5235987755982988,0.5235987755982988,0,-0.82483417,-1.2410865,-1.8201473,0.0591352,-0.055436026,1.4984268,-0.06292959,1.2598406,-0.8531493,1.3937184,0.3824735,-0.13570134,1.510537,0.6687114
0.0,0.0,0.9,-0.5235987755982988,0.5235987755982988,0,-0.8607354,-1.3590747,-1.8192154,0.054643434,-0.032239553,1.4895984,-0.13119167,1.1897272,-0.86818826,1.2705059,0.356996,0.0142088,1.5189339,0.7895782
0.0,0.0,0.9,-0.5235987755982988,0.5235987755982988,0,-0.84343505,-1.3135467,-1.8277707,0.0332776,-0.03764479,1.4861096,-0.14632167,1.2384567,-0.82543886,1.4202778,0.27326572,-0.021908283,1.4827052,0.5326881
0.0,0.0,0.9,-0.5235987755982988,0.5235987755982988,0,-0.8288996,-1.2573773,-1.8229448,0.049675472,-0.041046716,1.4830096,-0.054718837,1.0930244,-0.7228478,1.4300503,0.37123853,-0.081202805,1.51457,0.7828757
0.0,0.0,0.9,-0.5235987755982988,0.5235987755982988,0,-0.83683765,-1.1695856,-1.8556676,0.047351684,-0.03496472,1.4913629,-0.12416388,1.1692286,-0.8747691,1.3608818,0.45540142,-0.049504668,1.5064987,0.8364433
0.0,0.0,0.9,-0.5235987755982988,0.5235987755982988,0,-0.83916813,-1.2175292,-1.8215787,0.059738446,-0.04432702,1.5031718,-0.17994712,1.1789293,-0.89710766,1.5026115,0.31840572,-0.11219183,1.4920592,0.47645196
0.0,0.0,0.9,-0.5235987755982988,0.5235987755982988,0,-0.94553024,-1.219064,-1.8323563,0.043009136,-0.036402535,1.4917582,-0.092635676,1.1193583,-0.9135049,1.3370051,0.39355844,-0.017234026,1.5270439,0.6998884
0.0,0.0,0.9,-0.5235987755982988,0.5235987755982988,0,-0.9312747,-1.222968,-1.805071,0.080990665,-0.038301986,1.5009462,-0.1261937,1.2254922,-0.81375486,1.423445,0.45569703,-0.12595278,1.4760956,0.8062523
0.0,0.0,0.9,-0.5235987755982988,0.5235987755982988,0,-0.86754745,-1.2835255,-1.8184981,0.013942399,-0.03910832,1.4842496,-0.061178446,1.1272577,-0.8463562,1.361722,0.40777647,0.00244878,1.4678196,0.7254149
0.0,0.0,0.9,-0.5235987755982988,0.5235987755982988,0,-0.88792217,-1.282184,-1.8325919,0.042681642,-0.040150125,1.5004977,-0.032233108,1.2093519,-0.8220321,1.3770505,0.38554567,-0.068803094,1.5148853,0.88700634
0.0,0.0,0.9,-0.5235987755982988,0.5235987755982988,0,-0.85367215,-1.253617,-1.81778,0.017187076,-0.0307467,1.4850264,-0.060036764,1.2035819,-0.8648053,1.3728769,0.34132972,-0.03318947,1.539454,0.65969354
0.0,0.0,0.9,-0.5235987755982988,0.5235987755982988,0,-0.91622704,-1.2651154,-1.8104753,0.07765193,-0.024881406,1.4759699,-0.18429016,1.2291721,-0.8338025,1.3289936,0.39871913,-0.020725846,1.498402,0.8173226
0.0,0.0,0.9,-0.5235987755982988,0.5235987755982988,0,-0.93702173,-1.259282,-1.8265302,0.054558575,-0.03547509,1.4941162,-0.12530167,1.1227748,-0.7281198,1.5112206,0.25514495,0.10114017,1.4750725,0.5525084
0.0,0.0,0.9,-0.5235987755982988,0.5235987755982988,0,-0.8473482,-1.2358238,-1.8217778,0.061604302,-0.03699108,1.4915085,-0.11891649,1.1763293,-0.8582452,1.2747549,0.3897377,0.066279285,1.5068604,0.9236998
0.0,0.0,0.9,-0.5235987755982988,0.5235987755982988,0,-0.83686477,-1.2414486,-1.8200892,0.057051655,-0.03484904,1.4841987,-0.19101413,1.2063701,-0.79860383,1.3513144,0.35088402,-0.017531833,1.5199459,1.0643042
0.0,0.0,0.9,-0.5235987755982988,0.5235987755982988,0,-0.8180661,-1.217745,-1.8199595,0.03701782,-0.031071838,1.4811451,-0.0069733,1.1596471,-0.8760765,1.4516625,0.29147163,-0.0043683085,1.463987,0.5290891
0.0,0.0,0.9,-0.5235987755982988,0.5235987755982988,0,-0.8730247,-1.2337586,-1.8329207,0.011178417,-0.039900657,1.4865414,-0.14083636,1.2056516,-0.8276439,1.4136097,0.36447427,-0.13821083,1.5216941,0.44749254
0.0,0.0,0.9,-0.5235987755982988,0.5235987755982988,0,-0.8801397,-1.4048136,-1.816853,0.040939093,-0.04304881,1.4777637,-0.037610862,1.2594492,-0.8760591,1.2625028,0.43114245,-0.06161408,1.459026,0.45909965
0.0,0.0,0.9,-0.5235987755982988,0.5235987755982988,0,-0.82628703,-1.2847481,-1.8184806,0.039023943,-0.050169,1.4836262,-0.15412357,1.181812,-0.79748875,1.3914468,0.31288674,-0.051835943,1.520719,0.803796
0.0,0.0,0.9,-0.5235987755982988,0.5235987755982988,0,-0.98866963,-1.3022709,-1.8085196,0.044779606,-0.045690395,1.4824226,-0.08425389,1.3202913,-0.72315246,1.3492633,0.36942118,-0.052358616,1.5182233,1.0387696
0.0,0.0,0.9,-0.5235987755982988,0.5235987755982988,0,-0.86589015,-1.2312775,-1.8484211,0.04143786,-0.050320867,1.469363,-0.19307129,1.0915314,-0.83315384,1.2233057,0.3705922,0.17236304,1.5139022,0.5475361
0.0,0.0,0.9,-0.5235987755982988,0.5235987755982988,0,-0.9730155,-1.3031635,-1.8283741,0.05137479,-0.03182822,1.4972448,-0.167397,1.1747298,-0.8338759,1.5429239,0.32030573,-0.07317404,1.5142542,0.85579574
0.0,0.0,0.9,-0.5235987755982988,0.5235987755982988,0,-0.8873107,-1.241939,-1.8327123,0.05574838,-0.04919428,1.4827474,-0.03149232,1.2357398,-0.839122,1.4216694,0.3623373,-0.08987113,1.4862015,0.608613
0.0,0.0,0.9,-0.5235987755982988,0.5235987755982988,0,-0.8607544,-1.1743536,-1.8290907,0.086292796,-0.049862526,1.4689285,-0.030756954,1.1845781,-0.75401103,1.4278237,0.30653062,-0.037997507,1.5196412,0.64507115
0.0,0.0,0.9,-0.5235987755982988,0.5235987755982988,0,-0.99082315,-1.3204063,-1.8167626,0.04294478,-0.04047675,1.4967518,-0.06664558,1.2063252,-0.7602328,1.4228089,0.37438342,-0.041041255,1.5047861,0.5944016
0.0,0.0,0.9,-0.5235987755982988,0.5235987755982988,0,-0.87037873,-1.2727988,-1.8179337,0.051616643,-0.033867434,1.4889065,-0.19058101,1.3264484,-0.91072553,1.3355188,0.42435002,-0.16884829,1.5110159,0.6754145
0.0,0.0,0.9,-0.5235987755982988,0.5235987755982988,0,-0.8214761,-1.2238566,-1.830429,0.035121985,-0.033872742,1.5005466,-0.15983921,1.1971155,-0.95840144,1.3803809,0.3107445,0.016366376,1.4936203,0.43705797
0.0,0.0,0.9,-0.5235987755982988,0.5235987755982988,0,-0.91529226,-1.4018443,-1.8376431,0.07225643,-0.035739873,1.4773682,-0.119234845,1.1151811,-0.8251437,1.3867532,0.383948,0.037431285,1.4967113,0.8420035
0.0,0.0,0.9,-0.5235987755982988,0.5235987755982988,0,-0.9001516,-1.3003005,-1.8189831,0.04204162,-0.040085174,1.4823661,-0.08603584,1.2484063,-0.84333915,1.3112941,0.362246,-0.022612568,1.5120533,0.58223295
0.0,0.0,0.9,-0.5235987755982988,0.5235987755982988,0,-0.91078293,-1.2600621,-1.8079469,0.038380623,-0.0245117,1.4836873,-0.07291669,1.1421869,-0.8022236,1.4605403,0.36622897,-0.013258592,1.4606388,0.9527832
0.0,0.0,0.9,-0.5235987755982988,0.5235987755982988,0,-0.8977016,-1.2090306,-1.814151,0.04202734,-0.022134917,1.4864818,0.004960093,1.2411503,-0.9105223,1.3169146,0.4411545,-0.029169377,1.5286031,0.807733
0.0,0.0,0.9,-0.5235987755982988,0.5235987755982988,0,-0.9205766,-1.2444675,-1.8058859,0.053892348,-0.039911896,1.4794397,-0.09190922,1.1694722,-0.75368434,1.4509532,0.40893686,-0.049622465,1.4792325,0.7922085
0.0,0.0,0.9,-0.5235987755982988,0.5235987755982988,0,-0.92328477,-1.2554262,-1.8167871,0.07339144,-0.037118133,1.4944525,-0.17884617,1.1629834,-0.82854754,1.4099429,0.38005558,-0.033640496,1.5401236,0.6770121
0.0,0.0,0.9,-0.5235987755982988,0.5235987755982988,0,-0.83872426,-1.2251127,-1.8150713,0.06460549,-0.03107798,1.491838,-0.18442777,1.167284,-0.76190543,1.2809821,0.44885457,-0.043849993,1.5377614,0.81598115
0.0,0.0,0.9,-0.5235987755982988,0.5235987755982988,0,-0.85300267,-1.2532225,-1.8052417,0.04237378,-0.032651152,1.4639275,-0.24716826,1.1835394,-0.72572714,1.3900762,0.3561404,-0.018728312,1.4954456,0.5353855
0.0,0.0,0.9,-0.5235987755982988,0.5235987755982988,0,-0.9124437,-1.2937874,-1.8199041,0.10262227,-0.050057627,1.481646,-0.09516181,1.2494347,-0.8380192,1.3474696,0.35153544,0.0405957,1.4726137,0.53608483
0.0,0.0,0.9,-0.5235987755982988,0.5235987755982988,0,-0.83955884,-1.2284906,-1.8268485,0.065257,-0.04254592,1.4760255,0.008994527,1.1120124,-0.77692,1.4009585,0.35569817,-0.021327255,1.511229,0.6163891
0.0,0.0,0.9,-0.5235987755982988,0.5235987755982988,0,-0.948307,-1.3246099,-1.83046,0.021282256,-0.04314111,1.4828085,-0.15967302,1.1844441,-0.7954365,1.4402664,0.39865956,-0.0664804,1.4460409,0.36349696
0.0,0.0,0.9,-0.5235987755982988,0.5235987755982988,0,-0.84554476,-1.1680518,-1.8083824,0.022501543,-0.022009918,1.4934314,-0.111732304,1.0997651,-0.83626086,1.3742406,0.39087316,-0.012462021,1.511058,0.8298652
0.0,0.0,0.9,-0.5235987755982988,0.5235987755982988,0,-0.89075524,-1.2215928,-1.8254547,0.068501376,-0.045366403,1.4868642,-0.11308903,1.1336224,-0.8017059,1.3280772,0.39959353,0.0011457264,1.5397866,0.85675675
0.0,0.0,0.9,-0.5235987755982988,0.5235987755982988,0,-0.87953025,-1.218809,-1.8146083,0.060796432,-0.040122587,1.5023544,-0.06726073,1.2614185,-0.7753249,1.2685738,0.3811997,-0.0314816,1.501127,0.47226864
0.0,0.0,0.9,-0.5235987755982988,0.5235987755982988,0,-0.8006023,-1.2091556,-1.8325238,0.05424662,-0.028532064,1.4913279,-0.07432528,1.1042954,-0.8096994,1.3520987,0.37677655,0.037581258,1.5118749,0.66764235
0.0,0.0,0.9,-0.5235987755982988,0.5235987755982988,0,-0.8909524,-1.243429,-1.8318949,0.024483856,-0.044946104,1.4942874,-0.14017557,1.3254595,-0.88338315,1.4145837,0.28944477,-0.05642934,1.507712,0.7790887
0.0,0.0,0.9,-0.5235987755982988,0.5235987755982988,0,-0.8106771,-1.2442287,-1.8402988,0.05630575,-0.047605,1.4849718,-0.07288627,1.1330907,-0.7425386,1.441899,0.34882495,-0.07615385,1.5158879,0.7701232
0.0,0.0,0.9,-0.5235987755982988,0.5235987755982988,0,-0.9202782,-1.3888179,-1.8316188,0.06785441,-0.03956545,1.4902091,-0.15409021,1.201415,-0.8018892,1.2121067,0.47120926,-0.011988494,1.4988436,0.74893993
0.0,0.0,0.9,-0.5235987755982988,0.5235987755982988,0,-0.9777263,-1.3116051,-1.8244958,0.04842135,-0.035691313,1.4911548,-0.06652302,1.1967429,-0.82602876,1.3881425,0.37322694,-0.004686953,1.4844791,0.84686005
0.0,0.0,0.9,-0.5235987755982988,0.5235987755982988,0,-0.8594928,-1.2085893,-1.8366532,0.06450767,-0.037873868,1.4974236,-0.22320908,1.2727404,-0.8637799,1.3403083,0.28505465,0.0570953,1.5163311,0.47661573
0.0,0.0,0.9,-0.5235987755982988,0.5235987755982988,0,-0.88109136,-1.3028162,-1.8165685,0.044509362,-0.037207168,1.4917439,-0.10574797,1.1767253,-0.87278444,1.3007408,0.4198007,0.0504715,1.455948,0.549707
0.0,0.0,0.9,-0.5235987755982988,0.5235987755982988,0,-0.7940347,-1.1453737,-1.8406391,0.060135443,-0.03814524,1.4851503,-0.06603839,1.2465463,-0.8743031,1.3201222,0.38109738,-0.05025663,1.5122328,0.6653876
0.0,0.0,0.9,-0.5235987755982988,0.5235987755982988,0,-0.9144787,-1.227773,-1.824228,0.059105635,-0.049060054,1.4806567,-0.14578032,1.300207,-0.78230727,1.3166316,0.41052234,-0.039458618,1.4664617,0.89145607
0.0,0.0,0.9,-0.5235987755982988,0.5235987755982988,0,-0.88264155,-1.1726563,-1.8067286,0.056079738,-0.017321415,1.4886374,-0.010411742,1.1152197,-0.799613,1.3300773,0.47924784,-0.0061172773,1.5376794,0.9075452
0.0,0.0,0.9,-0.5235987755982988,0.5235987755982988,0,-0.9472224,-1.2915248,-1.8179804,0.06701192,-0.042702977,1.4956623,-0.11286786,1.2004056,-0.76623845,1.3344052,0.35364613,0.0355775,1.5003928,0.7126228
0.0,0.0,0.9,-0.5235987755982988,0.5235987755982988,0,-0.88304126,-1.2590235,-1.8180712,0.05899658,-0.032323807,1.4861058,-0.09027789,1.1666405,-0.8234712,1.4325956,0.28423223,0.11224234,1.461617,0.7836482
0.0,0.0,0.9,-0.5235987755982988,0.5235987755982988,0,-0.8892827,-1.1785489,-1.835464,0.0746555,-0.041713472,1.4862292,-0.20853189,1.1945496,-0.84941643,1.3692375,0.4061343,0.022999493,1.4804496,0.6140737
0.0,0.0,0.9,-0.5235987755982988,0.5235987755982988,0,-0.9255508,-1.299281,-1.8168674,0.057945322,-0.02864614,1.4705886,-0.12165724,1.2094393,-0.76619154,1.4423889,0.30178493,-0.045950096,1.5060738,0.3976078
0.0,0.0,0.9,-0.5235987755982988,0.5235987755982988,0,-0.83426845,-1.2288322,-1.8408729,0.049884662,-0.027088616,1.4872892,-0.13301443,1.1703387,-0.799615,1.4877218,0.3184491,-0.113638826,1.504104,0.43798792
0.0,0.0,0.9,-0.5235987755982988,0.5235987755982988,0,-0.8638818,-1.2398317,-1.8412255,0.04749198,-0.042834334,1.4786388,-0.08894605,1.2082279,-0.8325392,1.3741126,0.37624863,-0.07735863,1.5100452,0.45393747
0.0,0.0,0.9,-0.5235987755982988,0.5235987755982988,0,-0.93570983,-1.263532,-1.8411205,0.05156162,-0.041792292,1.4997817,-0.10461525,1.228612,-0.7611549,1.5027729,0.3246487,-0.17224778,1.5290636,0.65810597
0.0,0.0,0.9,-0.5235987755982988,0.5235987755982988,0,-0.888206,-1.2992786,-1.8285942,0.07266193,-0.043251485,1.480732,-0.16730422,1.1681536,-0.8358319,1.4146072,0.3461006,-0.052579634,1.5412728,0.77825683
0.0,0.0,0.9,-0.5235987755982988,0.5235987755982988,0,-0.8204205,-1.25864,-1.8289297,0.06166679,-0.035546727,1.488267,-0.11659812,1.2317108,-0.89513534,1.4212153,0.29883057,-0.008257166,1.4771323,0.6277976
0.0,0.0,0.9,-0.5235987755982988,0.5235987755982988,0,-0.89979714,-1.2095429,-1.8268434,0.07204098,-0.047871042,1.4782448,-0.13052723,1.2750275,-0.77302617,1.3829039,0.33553863,-0.07842741,1.4997654,0.6078576
0.0,0.0,0.9,-0.5235987755982988,0.5235987755982988,0,-0.9022103,-1.3783898,-1.8291837,0.010382265,-0.0337741,1.4948646,-0.10836865,1.1659203,-0.82531005,1.3064783,0.48009622,-0.14466411,1.4811289,1.0115383
0.0,0.0,0.9,-0.5235987755982988,0.5235987755982988,0,-0.87480825,-1.1759725,-1.801591,0.051106714,-0.04142963,1.4799899,-0.038404096,1.1757916,-0.7951988,1.3177184,0.35355657,0.10614145,1.4733013,0.30576363
0.0,0.0,0.9,-0.5235987755982988,0.5235987755982988,0,-0.9176868,-1.2849983,-1.8348674,0.022341644,-0.030977087,1.5040525,-0.113062926,1.2541658,-0.7620247,1.4703872,0.31079102,-0.09685435,1.4853735,0.53476286
0.0,0.0,0.9,-0.5235987755982988,0.5235987755982988,0,-0.8522901,-1.2652308,-1.8411809,0.037632134,-0.035450097,1.4761616,-0.09116507,1.2251829,-0.8554532,1.1401244,0.44583622,0.053003866,1.5090257,0.58151776
0.0,0.0,0.9,-0.5235987755982988,0.5235987755982988,0,-0.9708869,-1.3502047,-1.8197451,0.08227312,-0.023346463,1.4868642,-0.15195891,1.1215572,-0.8168356,1.4289163,0.28677464,0.17368402,1.5058546,0.50877386
0.0,0.0,0.9,-0.5235987755982988,0.5235987755982988,0,-0.85821056,-1.2205894,-1.8238991,0.045268804,-0.02439907,1.5034244,-0.033100277,1.2242409,-0.76086706,1.4433653,0.35170385,-0.07663965,1.4965105,0.6807862
0.0,0.0,0.9,-0.5235987755982988,0.5235987755982988,0,-0.8976757,-1.2488394,-1.8040841,0.04542854,-0.038695008,1.4886594,-0.1630955,1.216273,-0.91443145,1.3811882,0.3134868,0.08188296,1.5053405,0.81291884
0.0,0.0,0.9,-0.5235987755982988,0.5235987755982988,0,-0.88598067,-1.3041825,-1.8310015,0.059931997,-0.029506912,1.4854218,-0.108225696,1.2065443,-0.78432727,1.343553,0.38892415,-0.0070910743,1.4889731,0.7660647
0.0,0.0,0.9,-0.5235987755982988,0.5235987755982988,0,-0.9198917,-1.2234716,-1.8255283,0.066539824,-0.037262347,1.4839764,-0.09230181,1.1601567,-0.77104914,1.4704863,0.3343935,-0.0039354875,1.516284,0.68908656
0.0,0.0,0.9,-0.5235987755982988,0.5235987755982988,0,-0.8366415,-1.2111224,-1.8298274,0.0557296,-0.037229467,1.4725467,-0.06300012,1.2389414,-0.8209391,1.4679433,0.33383584,-0.11452182,1.5095417,0.7670484
0.0,0.0,0.9,-0.5235987755982988,0.5235987755982988,0,-0.824796,-1.3190941,-1.8154299,0.044920452,-0.02878649,1.4922384,-0.19730471,1.1225197,-0.83543414,1.3225436,0.4172162,-0.025273895,1.5032642,0.8406705
0.0,0.0,0.9,-0.5235987755982988,0.5235987755982988,0,-0.91072536,-1.2668138,-1.8352292,0.06541104,-0.035951838,1.5080218,-0.15140533,1.3062446,-0.73675257,1.3328686,0.4609519,-0.12604803,1.5064864,0.93918914
0.0,0.0,0.9,-0.5235987755982988,0.5235987755982988,0,-0.9371557,-1.2669237,-1.8117832,0.05945015,-0.032589022,1.4891162,-0.08470623,1.1659507,-0.8676813,1.4602731,0.42606804,-0.094464734,1.4872296,0.88765264
0.0,0.0,0.9,-0.5235987755982988,0.5235987755982988,0,-0.8081786,-1.2005044,-1.8452047,0.05491871,-0.037596855,1.4990913,-0.07976799,1.1977541,-0.75413233,1.4459143,0.33022624,-0.05603326,1.5278065,0.5997677
0.0,0.0,0.9,-0.5235987755982988,0.5235987755982988,0,-0.85300845,-1.2260025,-1.826408,0.032385644,-0.038516242,1.4779212,-0.116565995,1.1914755,-0.85533637,1.4245671,0.35551152,-0.047213137,1.5328906,0.5018905
0.0,0.0,0.9,-0.5235987755982988,0.5235987755982988,0,-0.87181944,-1.3111761,-1.841482,0.049852856,-0.04801573,1.497279,-0.07474592,1.2403771,-0.7573043,1.3791035,0.39178225,-0.086329795,1.4924418,0.5931861
0.0,0.0,0.9,-0.5235987755982988,0.5235987755982988,0,-0.8978042,-1.2851621,-1.8196129,0.06053922,-0.04736045,1.4781717,-0.16011639,1.1507646,-0.8371918,1.336202,0.36550474,0.03519526,1.5113372,0.61050284
0.0,0.0,0.9,-0.5235987755982988,0.5235987755982988,0,-0.95420486,-1.2914993,-1.8444014,0.04106917,-0.04003666,1.4880329,-0.081054255,1.2933531,-0.8925502,1.3110682,0.35500714,-0.00304176,1.5220401,0.6753386
0.0,0.0,0.9,-0.5235987755982988,0.5235987755982988,0,-0.93909156,-1.2202597,-1.8040814,0.06295019,-0.040626798,1.5015627,-0.112043135,1.2022884,-0.73623925,1.3463131,0.35098767,0.08895005,1.5072312,0.5418632
0.0,0.0,0.9,-0.5235987755982988,0.5235987755982988,0,-0.8972814,-1.1945133,-1.8130372,0.08578463,-0.036174957,1.4739175,-0.11198514,1.1300843,-0.8026325,1.4696645,0.33039793,-0.04269693,1.5177867,0.8608809
0.0,0.0,0.9,-0.5235987755982988,0.5235987755982988,0,-0.91272545,-1.2733964,-1.8265978,0.061240796,-0.05716831,1.489661,-0.051343948,1.2261652,-0.89283407,1.3174299,0.41057017,-0.07087814,1.5490472,0.7659873
0.0,0.0,0.9,-0.5235987755982988,0.5235987755982988,0,-0.8925268,-1.3086219,-1.8287128,0.05381763,-0.039348707,1.4686005,-0.13311286,1.0921582,-0.9114502,1.3317399,0.35495937,0.07135559,1.5165491,0.87869793
0.0,0.0,0.9,-0.5235987755982988,0.5235987755982988,0,-0.8695618,-1.2161018,-1.8105532,0.06807301,-0.035426926,1.4958261,-0.103388056,1.1873658,-0.7965317,1.3902309,0.40869296,-0.014209806,1.507307,0.78944224
0.0,0.0,0.9,-0.5235987755982988,0.5235987755982988,0,-0.8723074,-1.2797874,-1.8353686,0.05689305,-0.034892496,1.4885545,-0.03596805,1.356819,-0.8187205,1.2971019,0.35093608,-0.03387398,1.4974381,0.6700769
0.0,0.0,0.9,-0.5235987755982988,0.5235987755982988,0,-0.92135507,-1.208245,-1.82139,0.06186777,-0.019343559,1.4856671,-0.21922603,1.2888216,-0.7718138,1.3623062,0.34735274,-0.06416893,1.5063115,0.55974984
0.0,0.0,0.9,-0.5235987755982988,0.5235987755982988,0,-0.8662176,-1.2653884,-1.8398962,0.05247861,-0.027727999,1.4964851,-0.14194547,1.195389,-0.8067528,1.3870169,0.3863756,-0.08458564,1.507947,0.59846085
0.0,0.0,0.9,-0.5235987755982988,0.5235987755982988,0,-0.90106195,-1.2260828,-1.8204064,0.03505367,-0.03961559,1.499601,-0.08939567,1.1673725,-0.8132877,1.3705688,0.3444087,0.059505336,1.4873734,0.8282421
0.0,0.0,0.9,-0.5235987755982988,0.5235987755982988,0,-0.908721,-1.3125851,-1.8297238,0.052598447,-0.040602207,1.4842129,-0.120631464,1.2278465,-0.80676895,1.4324301,0.4027307,-0.1366234,1.50477,0.903581
0.0,0.0,0.9,-0.5235987755982988,0.5235987755982988,0,-0.9113241,-1.3013384,-1.8108041,0.01865676,-0.030680439,1.5026717,-0.075133674,1.2402847,-0.8429207,1.3647557,0.35132006,0.011767917,1.5020757,0.58090895
0.0,0.0,0.9,-0.5235987755982988,0.5235987755982988,0,-0.8651232,-1.235975,-1.8309531,0.07662218,-0.020837888,1.491123,-0.1020931,1.2171377,-0.8630137,1.3311623,0.40835348,-0.06502137,1.5397302,0.63357097
0.0,0.0,0.9,-0.5235987755982988,0.5235987755982988,0,-0.83599687,-1.2097602,-1.8238437,0.04964088,-0.03281489,1.4947964,-0.12793437,1.1895586,-0.9204224,1.3264928,0.35241377,0.06637082,1.5129685,0.5706368
0.0,0.0,0.9,-0.5235987755982988,0.5235987755982988,0,-0.9306125,-1.2122717,-1.8092395,0.028384455,-0.0493182,1.47945,-0.12476402,1.2316896,-0.82669157,1.2832012,0.38986012,0.04783043,1.5232126,0.7690738
0.0,0.0,0.9,-0.5235987755982988,0.5235987755982988,0,-0.8741157,-1.2932034,-1.8275276,0.054224256,-0.042711362,1.4973259,-0.07298367,1.0705698,-0.8056065,1.4527923,0.2540569,0.043548975,1.5481484,0.47070238
0.0,0.0,0.9,-0.5235987755982988,0.5235987755982988,0,-0.93451065,-1.302139,-1.8335743,0.051760964,-0.052400332,1.4869403,-0.15915826,1.2178754,-0.9215654,1.3148743,0.34398967,0.09752668,1.5151166,0.788606
0.0,0.0,0.9,-0.5235987755982988,0.5235987755982988,0,-0.94326574,-1.259733,-1.830444,0.05528257,-0.03934226,1.4770956,-0.12885308,1.302708,-0.80793536,1.3534378,0.4153914,-0.028886395,1.4618442,0.62087715
0.0,0.0,0.9,-0.5235987755982988,0.5235987755982988,0,-0.93745613,-1.2126421,-1.8278043,0.07781554,-0.031851374,1.4691594,-0.082803845,1.3193388,-0.90229285,1.4070665,0.32469597,-0.081066445,1.4889235,0.59233534
0.0,0.0,0.9,-0.5235987755982988,0.5235987755982988,0,-0.8494126,-1.284179,-1.8256664,0.04441932,-0.030545183,1.4760228,-0.051083565,1.1701539,-0.7401843,1.5349468,0.33216324,-0.13896482,1.5064119,0.85205394
0.0,0.0,0.9,-0.5235987755982988,0.5235987755982988,0,-0.88569736,-1.2184474,-1.8391478,0.04905924,-0.04349456,1.4854544,-0.07000256,1.2784824,-0.7911769,1.3528539,0.39536008,-0.027857251,1.5035286,0.70412743
0.0,0.0,0.9,-0.5235987755982988,0.5235987755982988,0,-0.9245216,-1.2593596,-1.8322805,0.03427102,-0.027711835,1.4883313,-0.027854253,1.1836144,-0.85504496,1.4414387,0.37591323,-0.12307577,1.5036216,0.6115769
0.0,0.0,0.9,-0.5235987755982988,0.5235987755982988,0,-0.91748655,-1.2183987,-1.8220434,0.074672006,-0.03950221,1.4929903,-0.118465535,1.1055899,-0.86939657,1.4096657,0.37942377,0.043171797,1.5271204,0.646628
0.0,0.0,0.9,-0.5235987755982988,0.5235987755982988,0,-0.94337183,-1.2060232,-1.8310679,0.045774106,-0.04070059,1.4830204,-0.06483379,1.1766818,-0.7956186,1.3878572,0.3503129,0.021470372,1.5258993,0.6516348
0.0,0.0,0.9,-0.5235987755982988,0.5235987755982988,0,-0.9521377,-1.3477004,-1.817371,0.056233194,-0.032693565,1.4760824,-0.07155475,1.247648,-0.86673874,1.2900238,0.37911674,0.04403293,1.5152246,0.8455175
0.0,0.0,0.9,-0.5235987755982988,0.5235987755982988,0,-0.90557027,-1.309538,-1.8095648,0.047161527,-0.04930697,1.4917972,-0.069086395,1.2461162,-0.81156844,1.419982,0.41263548,-0.103402466,1.4881656,0.80748147
0.0,0.0,0.9,-0.5235987755982988,0.5235987755982988,0,-0.85752314,-1.4003695,-1.8174714,0.053438716,-0.03720917,1.4887003,-0.101617314,1.2237259,-0.85890824,1.3964626,0.37421012,-0.112643786,1.4987084,0.8043612
0.0,0.0,0.9,-0.5235987755982988,0.5235987755982988,0,-0.96484584,-1.3160757,-1.8257418,0.046407904,-0.039241947,1.4961922,-0.15112892,1.2273228,-0.7792961,1.428328,0.38205555,-0.09478358,1.5156245,0.83006144
0.0,0.0,0.9,-0.5235987755982988,0.5235987755982988,0,-0.8645247,-1.2596239,-1.8330452,0.062963314,-0.04879463,1.4858544,-0.09827378,1.2226429,-0.8571289,1.4079425,0.32043535,-0.055775277,1.5231739,0.48053306
0.0,0.0,0.9,-0.5235987755982988,0.5235987755982988,0,-0.8428755,-1.1883588,-1.8210459,0.021158963,-0.043885212,1.4776125,0.008982311,1.203077,-0.84487194,1.287426,0.4002409,0.0017783504,1.5474617,0.8364537
0.0,0.0,0.9,-0.5235987755982988,0.5235987755982988,0,-0.8828357,-1.2187321,-1.8194883,0.06377246,-0.034962483,1.4883237,-0.13230729,1.2791938,-0.8519777,1.2366602,0.4263316,-0.015397828,1.520977,0.644297
0.0,0.0,0.9,-0.5235987755982988,0.5235987755982988,0,-0.9823548,-1.2083347,-1.8438038,0.057379045,-0.039664518,1.4921415,-0.13373773,1.115571,-0.7149929,1.4523182,0.3647002,0.09356843,1.5003753,0.6237882
0.0,0.0,0.9,-0.5235987755982988,0.5235987755982988,0,-0.85697895,-1.2812985,-1.8186164,0.032344714,-0.04056405,1.4879602,-0.07430133,1.1959469,-0.8370117,1.2942002,0.38764417,-0.0008261494,1.5314305,0.6181622
0.0,0.0,0.9,-0.5235987755982988,0.5235987755982988,0,-0.9005751,-1.2457265,-1.819519,0.09398068,-0.038263667,1.4889282,-0.1367519,1.154082,-0.742201,1.4101361,0.40980422,-0.08484875,1.4796258,0.5908814
0.0,0.0,0.9,-0.5235987755982988,0.5235987755982988,0,-0.88774234,-1.2894797,-1.8148865,0.04558871,-0.03277053,1.4933249,0.0038886687,1.2326487,-0.8574595,1.3831735,0.35238242,-0.02871272,1.5033938,0.46985734
0.0,0.0,0.9,-0.5235987755982988,0.5235987755982988,0,-0.87205154,-1.2562598,-1.817132,0.04947235,-0.042164687,1.4874452,-0.15831077,1.2611921,-0.76511246,1.3575855,0.3560862,-0.04258987,1.521445,0.5213272
0.0,0.0,0.9,-0.5235987755982988,0.5235987755982988,0,-0.8609456,-1.2415395,-1.8138695,0.081532195,-0.026247328,1.5067028,-0.0734758,1.211593,-0.7879835,1.338991,0.3170151,0.038285512,1.5133239,1.071024
0.0,0.0,0.9,-0.5235987755982988,0.5235987755982988,0,-0.857517,-1.2305853,-1.8142766,0.053049855,-0.025121069,1.4778237,-0.015175897,1.2154213,-0.86709297,1.5402578,0.32525167,-0.1101272,1.5371608,0.9113032
0.0,0.0,0.9,-0.5235987755982988,0.5235987755982988,0,-0.94494367,-1.2318807,-1.8162842,0.039761238,-0.043631308,1.4782815,-0.19915017,1.2858646,-0.7928478,1.3686448,0.42734486,-0.117919885,1.4921298,0.5880948
0.0,0.0,0.9,-0.5235987755982988,0.5235987755982988,0,-0.9000123,-1.3112692,-1.8088863,0.045161474,-0.036069006,1.5019933,-0.049119506,1.1781658,-0.7961471,1.4825243,0.3546538,-0.11588127,1.5036322,0.5198113
0.0,0.0,0.9,-0.5235987755982988,0.5235987755982988,0,-0.90926427,-1.2546788,-1.82729,0.030690145,-0.034557924,1.4893283,-0.09833229,1.2534702,-0.79119426,1.4244375,0.29547715,-0.068745315,1.497783,0.36921376
0.0,0.0,0.9,-0.5235987755982988,0.5235987755982988,0,-0.86364704,-1.2806443,-1.8205665,0.04573137,-0.06271873,1.4854622,-0.14886677,1.1277268,-0.8474553,1.4530187,0.40216243,-0.043938406,1.5058717,0.8280946
0.0,0.0,0.9,-0.5235987755982988,0.5235987755982988,0,-0.9254039,-1.2725465,-1.8146286,0.049904987,-0.039289348,1.4799339,-0.17537732,1.2407811,-0.8284047,1.3273246,0.41253632,-0.0001439048,1.5315353,0.84139615
0.0,0.0,0.9,-0.5235987755982988,0.5235987755982988,0,-0.9875437,-1.255181,-1.8373383,0.06690045,-0.04469671,1.4859579,-0.005476379,1.2377372,-0.79393125,1.2961575,0.42248172,0.0045522833,1.529164,0.8445635
0.0,0.0,0.9,-0.5235987755982988,0.5235987755982988,0,-0.8966378,-1.2803237,-1.8345822,0.057107683,-0.03900841,1.4893869,-0.045564547,1.298573,-0.8009029,1.4721797,0.29981944,-0.074100785,1.4966253,0.7012727
0.0,0.0,0.9,-0.5235987755982988,0.5235987755982988,0,-0.8780305,-1.3289872,-1.8277117,0.06572546,-0.05653786,1.4843878,-0.118878685,1.1533822,-0.8102312,1.4818972,0.3310698,0.017299466,1.4768873,0.68393177
0.0,0.0,0.9,-0.5235987755982988,0.5235987755982988,0,-0.8930444,-1.2042729,-1.8246878,0.055641346,-0.04391051,1.4934206,-0.20401315,1.1930901,-0.82183844,1.5269854,0.34942216,-0.10135368,1.4949976,0.7378597
0.0,0.0,0.9,-0.5235987755982988,0.5235987755982988,0,-0.9340044,-1.2192265,-1.8155673,0.031001342,-0.030910393,1.5009235,-0.06612487,1.2006116,-0.73474866,1.4879135,0.3083218,-0.015064139,1.4991603,0.9270959
0.0,0.0,0.9,-0.5235987755982988,0.5235987755982988,0,-0.89552164,-1.2042258,-1.8387389,0.056622952,-0.0265885,1.5023804,-0.08565101,1.1549611,-0.7336718,1.3402982,0.421666,0.016028885,1.514802,0.64028203
0.0,0.0,0.9,-0.5235987755982988,0.5235987755982988,0,-0.84606075,-1.230487,-1.8351551,0.06370261,-0.024716202,1.4714824,-0.069030836,1.2319915,-0.7597974,1.4499439,0.2856878,0.003842857,1.4925736,0.50249684
0.0,0.0,0.9,-0.5235987755982988,0.5235987755982988,0,-0.9723628,-1.2172555,-1.8055801,0.040960394,-0.035450764,1.4756075,-0.1510681,1.3166667,-0.75820285,1.219353,0.42742628,0.03528589,1.5047197,0.6787852
0.0,0.0,0.9,-0.5235987755982988,0.5235987755982988,0,-0.89401174,-1.1534111,-1.8167807,0.045809045,-0.041999437,1.4950445,-0.018444361,1.2163548,-0.7553353,1.3833683,0.39197797,-0.01240348,1.5147411,0.8076151
0.0,0.0,0.9,-0.5235987755982988,0.5235987755982988,0,-0.93586826,-1.2423437,-1.8231708,0.043566715,-0.046744753,1.4728118,-0.019294677,1.1261692,-0.81885415,1.3344669,0.38452923,0.078887865,1.4902984,0.59589636
0.0,0.0,0.9,-0.5235987755982988,0.5235987755982988,0,-0.8942043,-1.2852234,-1.8366034,0.05052553,-0.03958539,1.4974688,-0.11102857,1.1223783,-0.73360175,1.5606515,0.30172205,-0.08096555,1.5005033,0.6553476
0.0,0.0,0.9,-0.5235987755982988,0.5235987755982988,0,-0.8999244,-1.3684281,-1.8219784,0.0436507,-0.025376545,1.4937974,-0.17551771,1.2670757,-0.8623284,1.2643228,0.3970788,-0.04162268,1.5163221,0.8337543
0.0,0.0,0.9,-0.5235987755982988,0.5235987755982988,0,-0.9687761,-1.2990023,-1.8338773,0.048674397,-0.046940506,1.495411,-0.020231776,1.1873635,-0.8253491,1.358882,0.3730714,-0.051130854,1.5114607,0.525313
0.0,0.0,0.9,-0.5235987755982988,0.5235987755982988,0,-0.88537806,-1.2771622,-1.8255051,0.047957726,-0.022535287,1.4881557,-0.14203815,1.1429793,-0.84749275,1.4903438,0.35819218,-0.048542704,1.4722215,0.66962403
0.0,0.0,0.9,-0.5235987755982988,0.5235987755982988,0,-0.8793215,-1.2966535,-1.8307619,0.07094496,-0.021487944,1.4902074,-0.061231744,1.3200792,-0.77820593,1.3528059,0.34884593,-0.016300539,1.4656721,0.90675664
0.0,0.0,0.9,-0.5235987755982988,0.5235987755982988,0,-0.9166937,-1.2336715,-1.8241181,0.059093967,-0.03957301,1.4835181,-0.052810755,1.2346348,-0.8259333,1.4485095,0.45622432,-0.061005823,1.478517,0.79452956
0.0,0.0,0.9,-0.5235987755982988,0.5235987755982988,0,-0.8327221,-1.2373766,-1.8218092,0.053263035,-0.03965309,1.4886525,-0.1075665,1.1128633,-0.7938607,1.507746,0.36857262,-0.06870632,1.4865239,1.0392334
0.0,0.0,0.9,-0.5235987755982988,0.5235987755982988,0,-0.8539665,-1.2607616,-1.8356996,0.056757454,-0.03719894,1.4849721,-0.2362638,1.0632439,-0.8328077,1.52359,0.33191413,-0.105475396,1.5223957,0.71506274
0.0,0.0,0.9,-0.5235987755982988,0.5235987755982988,0,-0.932303,-1.3209983,-1.8136474,0.07455788,-0.031170432,1.4773555,-0.11873689,1.2364463,-0.8346684,1.3582615,0.33519673,0.022713445,1.5224742,0.84231764
0.0,0.0,0.9,-0.5235987755982988,0.5235987755982988,0,-0.8957461,-1.2830124,-1.813834,0.06676332,-0.037302256,1.4772004,-0.046522908,1.1451697,-0.76995444,1.4606053,0.42593125,-0.1004927,1.5159565,0.91448987
0.0,0.0,0.9,-0.5235987755982988,0.5235987755982988,0,-0.8807587,-1.2651776,-1.84009,0.04799945,-0.033538815,1.4972506,-0.13751255,1.201616,-0.82261324,1.387252,0.41937315,-0.05221637,1.5127007,0.87502724
0.0,0.0,0.9,-0.5235987755982988,0.5235987755982988,0,-0.9001003,-1.2483255,-1.8415533,0.060285624,-0.052934762,1.4885814,-0.071559876,1.2683021,-0.8021837,1.3132617,0.42058513,0.015870405,1.5258435,0.60118407
0.0,0.0,0.9,-0.5235987755982988,0.5235987755982988,0,-0.96410453,-1.362352,-1.8246388,0.071580276,-0.057597198,1.4920504,-0.087372534,1.2254125,-0.78921354,1.4172783,0.36571172,-0.030239558,1.5225224,0.6279134
0.0,0.0,0.9,-0.5235987755982988,0.5235987755982988,0,-0.7985283,-1.2459263,-1.8355346,0.07390192,-0.04234262,1.487287,-0.045401536,1.2394329,-0.8227685,1.3214654,0.3762876,0.010745564,1.5138329,0.71749663
0.0,0.0,0.9,-0.5235987755982988,0.5235987755982988,0,-0.84631705,-1.1910238,-1.8375188,0.039987892,-0.034693323,1.493152,-0.016569462,1.3150058,-0.7870838,1.4051863,0.3072917,0.011304177,1.4845974,0.69860137
0.0,0.0,0.9,-0.5235987755982988,0.5235987755982988,0,-0.94255495,-1.2038742,-1.8218755,0.04946147,-0.02887689,1.4806293,-0.11040635,1.1998216,-0.90493524,1.3839369,0.3106597,0.06962997,1.4985102,0.6536328
0.0,0.0,0.9,-0.5235987755982988,0.5235987755982988,0,-0.9066079,-1.2393764,-1.8416501,0.0713597,-0.034142315,1.4951899,-0.15540929,1.1630573,-0.8540244,1.4185059,0.47955912,-0.11620114,1.4555702,0.7429814
0.0,0.0,0.9,-0.5235987755982988,0.5235987755982988,0,-0.794821,-1.2336993,-1.831938,0.066700466,-0.05142112,1.4989916,-0.10009638,1.1352026,-0.7677469,1.4725126,0.28113756,-0.037380315,1.5280511,0.5470832
0.0,0.0,0.9,-0.5235987755982988,0.5235987755982988,0,-0.8991277,-1.2197255,-1.8227544,0.05486223,-0.038166437,1.4787277,-0.107561626,1.181963,-0.8186375,1.3955451,0.37011942,-0.055374075,1.4977745,0.7351407
0.0,0.0,0.9,-0.5235987755982988,0.5235987755982988,0,-0.87872374,-1.2255745,-1.8261815,0.08444727,-0.035454325,1.4940187,-0.12279223,1.1641473,-0.72070867,1.4729968,0.40548015,-0.10059248,1.4827634,0.82487595
0.0,0.0,0.9,-0.5235987755982988,0.5235987755982988,0,-0.8606849,-1.2857627,-1.8134996,0.03508579,-0.024063867,1.4901751,-0.15960282,1.3693737,-0.8411175,1.4739108,0.3467251,-0.17358658,1.4767218,0.6638572
0.0,0.0,0.9,-0.5235987755982988,0.5235987755982988,0,-0.8558738,-1.3309795,-1.8409939,0.027501991,-0.037601896,1.4929012,-0.15668692,1.2377561,-0.8227497,1.4295216,0.31785527,-0.101919085,1.4870024,0.24102707
0.0,0.0,0.9,-0.5235987755982988,0.5235987755982988,0,-0.8842313,-1.2068216,-1.8278052,0.056806315,-0.051762167,1.481468,-0.06305234,1.2861593,-0.81759286,1.3594785,0.32076293,-0.015035737,1.5285225,0.7691769
0.0,0.0,0.9,-0.5235987755982988,0.5235987755982988,0,-0.8707684,-1.1693951,-1.8247241,0.05111681,-0.036044974,1.4873192,-0.08827749,1.1446574,-0.82463366,1.4364616,0.34425032,0.09584773,1.5128913,0.7018383
0.0,0.0,0.9,-0.5235987755982988,0.5235987755982988,0,-0.9208527,-1.4100688,-1.8253837,0.07770285,-0.030857487,1.4886804,-0.1539382,1.2196246,-0.8443233,1.3953615,0.34689912,-0.07796389,1.524647,0.6353699
0.0,0.0,0.9,-0.5235987755982988,0.5235987755982988,0,-0.90637267,-1.2389492,-1.8247262,0.038263943,-0.041156247,1.4798602,-0.115623325,1.1240212,-0.8167456,1.4652514,0.36608428,-0.09151047,1.4902664,0.45602304
0.0,0.0,0.9,-0.5235987755982988,0.5235987755982988,0,-0.90735304,-1.2325234,-1.8321191,0.041690387,-0.033925552,1.5009377,-0.09564902,1.1721295,-0.7381364,1.3563839,0.46529487,-0.022620153,1.4874183,0.87269664
0.0,0.0,0.9,-0.5235987755982988,0.5235987755982988,0,-0.910039,-1.3062572,-1.822564,0.088309154,-0.03516798,1.4872077,-0.09777843,1.199986,-0.8625664,1.4887323,0.30491027,-0.025207767,1.5102636,0.7716497
0.0,0.0,0.9,-0.5235987755982988,0.5235987755982988,0,-0.97403795,-1.2617745,-1.8360033,0.025657762,-0.04821518,1.5005658,-0.12405765,1.135329,-0.88830763,1.4234408,0.44057044,-0.058090642,1.5457147,0.9403792
0.0,0.0,0.9,-0.5235987755982988,0.5235987755982988,0,-0.90132904,-1.35208,-1.8150791,0.053879403,-0.054747984,1.479424,-0.14667043,1.2030921,-0.78499573,1.4618193,0.31869188,-0.032116573,1.5079415,0.8899915
0.0,0.0,0.9,-0.5235987755982988,0.5235987755982988,0,-0.84598756,-1.2404692,-1.8221072,0.048926543,-0.025293907,1.4999139,-0.109365895,1.17331,-0.8555744,1.3050653,0.46410915,0.021896698,1.4976795,0.7526777
0.0,0.0,0.9,-0.5235987755982988,0.5235987755982988,0,-0.8798399,-1.2840286,-1.8242537,0.07031161,-0.03401689,1.4920995,-0.021392608,1.2985972,-0.75144523,1.3446405,0.35903016,0.023800513,1.4639361,0.6446124
0.0,0.0,0.9,-0.5235987755982988,0.5235987755982988,0,-0.8628567,-1.3048931,-1.8322823,0.07335718,-0.039255295,1.4991904,-0.10079891,1.2193339,-0.82783926,1.3370223,0.41628468,-0.0316702,1.5010448,0.5856881
0.0,0.0,0.9,-0.5235987755982988,0.5235987755982988,0,-0.9261457,-1.2465625,-1.8185335,0.066440105,-0.043503992,1.5053008,-0.14116606,1.257943,-0.7670955,1.430179,0.38240254,-0.06617781,1.4949675,0.7044692
0.0,0.0,0.9,-0.5235987755982988,0.5235987755982988,0,-0.88398755,-1.2511457,-1.8282712,0.092712976,-0.04160273,1.4975678,-0.14905357,1.2435087,-0.8501904,1.46227,0.36722037,-0.03800627,1.5149282,0.82530737
0.0,0.0,0.9,-0.5235987755982988,0.5235987755982988,0,-0.8677707,-1.3225824,-1.8343873,0.079619445,-0.051428054,1.5018897,-0.034823343,1.2206963,-0.8299998,1.4561968,0.30392343,-0.012392502,1.4958184,1.0491253
0.0,0.0,0.9,-0.5235987755982988,0.5235987755982988,0,-0.91425014,-1.2990413,-1.8131698,0.04364023,-0.028209368,1.475759,-0.170563,1.250693,-0.85734713,1.2608132,0.3903978,0.05048112,1.5561858,0.85334945
0.0,0.0,0.9,-0.5235987755982988,0.5235987755982988,0,-0.828675,-1.1896796,-1.8267013,0.05600916,-0.04388076,1.491782,-0.0882672,1.253756,-0.9120193,1.3888654,0.34264013,0.034098063,1.4911399,0.80274576
0.0,0.0,0.9,-0.5235987755982988,0.5235987755982988,0,-0.8985393,-1.2607754,-1.8175656,0.06328882,-0.0478147,1.4766512,-0.11609113,1.1861459,-0.78938144,1.2491996,0.47850978,0.0347797,1.5077847,0.8572602
0.0,0.0,0.9,-0.5235987755982988,0.5235987755982988,0,-0.94304717,-1.1884948,-1.8194493,0.07590341,-0.03287381,1.4876195,-0.050459083,1.2664084,-0.87462187,1.4381211,0.3269902,-0.025431102,1.512601,0.8282774
0.0,0.0,0.9,-0.5235987755982988,0.5235987755982988,0,-0.9302164,-1.2392012,-1.8437599,0.071571834,-0.045655172,1.4984307,-0.15671565,1.1501817,-0.8433412,1.4406075,0.48900515,-0.14165974,1.4845152,0.8162169
0.0,0.0,0.9,-0.5235987755982988,0.5235987755982988,0,-0.86033684,-1.2397182,-1.8138132,0.052860573,-0.037536994,1.492162,-0.045506045,1.1963689,-0.80634075,1.4600782,0.3534442,-0.08895561,1.4835043,0.2867901
0.0,0.0,0.9,-0.5235987755982988,0.5235987755982988,0,-0.91790324,-1.1749527,-1.8358438,0.027629325,-0.042300295,1.4848071,-0.11046991,1.3439951,-0.85595083,1.2472646,0.46369058,-0.017739618,1.5066301,0.6203022
0.0,0.0,0.9,-0.5235987755982988,0.5235987755982988,0,-0.92020917,-1.293606,-1.824671,0.061825555,-0.04639633,1.4911851,-0.06376949,1.2942578,-0.8314068,1.4235564,0.34682187,-0.040583193,1.5243074,0.699675
0.0,0.0,0.9,-0.5235987755982988,0.5235987755982988,0,-0.87226415,-1.2744211,-1.833306,0.040017948,-0.03916094,1.4896023,-0.14433518,1.2598038,-0.7031819,1.3797915,0.44217283,-0.07517914,1.4920253,0.6031859
0.0,0.0,0.9,-0.5235987755982988,0.5235987755982988,0,-0.85320216,-1.2190921,-1.8396349,0.071974434,-0.03353631,1.4833146,-0.057565298,1.2481349,-0.7758353,1.4015125,0.40016478,-0.052022807,1.5291202,0.8400955
0.0,0.0,0.9,-0.5235987755982988,0.5235987755982988,0,-0.8527169,-1.2063394,-1.8251374,0.06075063,-0.046121873,1.4781971,-0.13343075,1.300185,-0.8471379,1.3439541,0.3695745,0.0109703345,1.5226015,0.87282264
0.0,0.0,0.9,-0.5235987755982988,0.5235987755982988,0,-0.8319033,-1.2096444,-1.8405272,0.0682763,-0.041984275,1.4935845,-0.10173205,1.2779076,-0.7492397,1.3787422,0.38784486,-0.041542083,1.5172131,1.0700711
0.0,0.0,0.9,-0.5235987755982988,0.5235987755982988,0,-0.82662696,-1.2758598,-1.8299025,0.05958127,-0.037657328,1.4810024,-0.1282131,1.1815313,-0.7962293,1.3243988,0.40417975,0.05668258,1.5057997,0.76826894
0.0,0.0,0.9,-0.5235987755982988,0.5235987755982988,0,-0.82142514,-1.2699271,-1.8208246,0.05007738,-0.041476198,1.4935119,-0.07770993,1.1855081,-0.8815945,1.4513608,0.36075434,-0.0040463693,1.5055673,0.6335583
0.0,0.0,0.9,-0.5235987755982988,0.5235987755982988,0,-0.85851735,-1.243439,-1.835942,0.08149407,-0.044884074,1.4810262,-0.083482295,1.1614393,-0.79064137,1.2837831,0.39364845,0.107150294,1.5293437,0.6520425
0.0,0.0,0.9,-0.5235987755982988,0.5235987755982988,0,-0.8304762,-1.2854095,-1.8173939,0.059011396,-0.05200654,1.4799943,-0.12349008,1.0764959,-0.74890155,1.5759032,0.41412407,-0.12621333,1.4621772,0.5782916
0.0,0.0,0.9,-0.5235987755982988,0.5235987755982988,0,-0.90763706,-1.2360159,-1.8278855,0.033618852,-0.039284643,1.4721347,-0.06808408,1.1872948,-0.82848674,1.3958039,0.3502563,0.13058904,1.4999194,0.8460084
0.0,0.0,0.9,-0.5235987755982988,0.5235987755982988,0,-0.86618316,-1.1732427,-1.8202593,0.06596436,-0.02833018,1.4856241,-0.18087457,1.1795566,-0.7529192,1.4719399,0.3829657,-0.0819214,1.4955212,0.50083196
0.0,0.0,0.9,-0.5235987755982988,0.5235987755982988,0,-0.87330246,-1.1475557,-1.8282475,0.06761272,-0.022356808,1.4805701,-0.013527118,1.1371189,-0.8000945,1.2757671,0.44203338,0.00661757,1.546574,0.95140946
0.0,0.0,0.9,-0.5235987755982988,0.5235987755982988,0,-0.9080603,-1.28418,-1.8258328,0.06655536,-0.03438075,1.4697107,-0.04754728,1.2595118,-0.7011501,1.3983585,0.34000143,-0.037665363,1.5128573,0.82175493
0.0,0.0,0.9,-0.5235987755982988,0.5235987755982988,0,-0.8119608,-1.2205454,-1.8299063,0.04960155,-0.041967697,1.4644756,-0.13558728,1.143433,-0.8004987,1.1810924,0.446053,0.06755942,1.5232992,0.6484229
0.0,0.0,0.9,-0.5235987755982988,0.5235987755982988,0,-0.90923226,-1.2675526,-1.817855,0.056474924,-0.046011988,1.4953592,-0.17806207,1.3396137,-0.81913763,1.3230948,0.30831897,-0.03131538,1.5554789,0.5926108
0.0,0.0,0.9,-0.5235987755982988,0.5235987755982988,0,-0.9532135,-1.2642258,-1.814158,0.063876666,-0.039114397,1.4918737,-0.09873694,1.257367,-0.88528854,1.2556864,0.5117501,-0.04765992,1.5118643,0.4753083
0.0,0.0,0.9,-0.5235987755982988,0.5235987755982988,0,-0.9570341,-1.2532582,-1.8205801,0.05185,-0.043406934,1.4902378,-0.0817663,1.2540725,-0.8335622,1.2434814,0.46797815,0.013069893,1.4808143,0.5423488
0.0,0.0,0.9,-0.5235987755982988,0.5235987755982988,0,-0.88672674,-1.255005,-1.8221889,0.056068942,-0.03270609,1.502414,-0.119946636,1.2091914,-0.849179,1.3732728,0.38249883,-0.008948692,1.4948224,0.98252904
0.0,0.0,0.9,-0.5235987755982988,0.5235987755982988,0,-0.8827119,-1.2477847,-1.805178,0.015225425,-0.04367557,1.4728823,-0.12188965,1.302141,-0.8602237,1.408704,0.33880523,-0.10356248,1.5034667,0.660313
0.0,0.0,0.9,-0.5235987755982988,0.5235987755982988,0,-0.9762448,-1.3370804,-1.8154967,0.07422434,-0.039266776,1.4938768,-0.10646251,1.2659838,-0.83580756,1.3122455,0.45033228,-0.04927794,1.5140821,0.90474164
0.0,0.0,0.9,-0.5235987755982988,0.5235987755982988,0,-0.9150082,-1.2447193,-1.8126447,0.03672561,-0.028393416,1.493634,-0.10865293,1.2666067,-0.874652,1.205198,0.4045729,0.10553793,1.5254103,0.3830364
0.0,0.0,0.9,-0.5235987755982988,0.5235987755982988,0,-0.8794175,-1.4036897,-1.8193765,0.085917115,-0.03926043,1.4931531,-0.09277813,1.2039449,-0.81895775,1.5005587,0.32524204,-0.038707808,1.5166148,0.7958069
0.0,0.0,0.9,-0.5235987755982988,0.5235987755982988,0,-0.85935044,-1.2811205,-1.8289994,0.06410361,-0.038185615,1.4986876,-0.07379173,1.181275,-0.7907536,1.3049784,0.45916593,-0.029109983,1.5045147,0.47602546
0.0,0.0,0.9,-0.5235987755982988,0.5235987755982988,0,-1.0070901,-1.4207748,-1.831841,0.061530683,-0.033469107,1.4956336,-0.11731882,1.0956289,-0.7615711,1.6931096,0.5416347,-0.31409755,1.5377431,0.7798934
0.0,0.0,0.9,-0.5235987755982988,0.5235987755982988,0,-1.0070901,-1.4207748,-1.831841,0.061530683,-0.033469107,1.4956336,-0.11731882,1.0956289,-0.7615711,1.6931096,0.5416347,-0.31409755,1.5377431,0.7798934
0.0,0.0,0.9,-0.5235987755982988,0.5235987755982988,0,-1.0070901,-1.4207748,-1.831841,0.061530683,-0.033469107,1.4956336,-0.11731882,1.0956289,-0.7615711,1.6931096,0.5416347,-0.31409755,1.5377431,0.7798934
0.0,0.0,0.9,-0.5235987755982988,0.5235987755982988,0,-1.0070901,-1.4207748,-1.831841,0.061530683,-0.033469107,1.4956336,-0.11731882,1.0956289,-0.7615711,1.6931096,0.5416347,-0.31409755,1.5377431,0.7798934
0.0,0.0,0.9,-0.5235987755982988,0.5235987755982988,0,-1.0070901,-1.4207748,-1.831841,0.061530683,-0.033469107,1.4956336,-0.11731882,1.0956289,-0.7615711,1.6931096,0.5416347,-0.31409755,1.5377431,0.7798934
0.0,0.0,0.9,-0.5235987755982988,0.5235987755982988,0,-1.0070901,-1.4207748,-1.831841,0.061530683,-0.033469107,1.4956336,-0.11731882,1.0956289,-0.7615711,1.6931096,0.5416347,-0.31409755,1.5377431,0.7798934
0.0,0.0,0.9,-0.5235987755982988,0.5235987755982988,0,-1.0070901,-1.4207748,-1.831841,0.061530683,-0.033469107,1.4956336,-0.11731882,1.0956289,-0.7615711,1.6931096,0.5416347,-0.31409755,1.5377431,0.7798934
0.0,0.0,0.9,-0.5235987755982988,0.5235987755982988,0,-1.0070901,-1.4207748,-1.831841,0.061530683,-0.033469107,1.4956336,-0.11731882,1.0956289,-0.7615711,1.6931096,0.5416347,-0.31409755,1.5377431,0.7798934
0.0,0.0,0.9,-0.5235987755982988,0.5235987755982988,0,-0.98635674,-1.3702587,-1.8232409,0.050626703,-0.03864992,1.4789027,-0.14252472,1.0852475,-0.83069766,1.4237076,0.38201845,-0.057087317,1.5277591,0.295277
0.0,0.0,0.9,-0.5235987755982988,0.5235987755982988,0,-0.98635674,-1.3702587,-1.8232409,0.050626703,-0.03864992,1.4789027,-0.14252472,1.0852475,-0.83069766,1.4237076,0.38201845,-0.057087317,1.5277591,0.295277
0.0,0.0,0.9,-0.5235987755982988,0.5235987755982988,0,-0.98635674,-1.3702587,-1.8232409,0.050626703,-0.03864992,1.4789027,-0.14252472,1.0852475,-0.83069766,1.4237076,0.38201845,-0.057087317,1.5277591,0.295277
0.0,0.0,0.9,-0.5235987755982988,0.5235987755982988,0,-0.98635674,-1.3702587,-1.8232409,0.050626703,-0.03864992,1.4789027,-0.14252472,1.0852475,-0.83069766,1.4237076,0.38201845,-0.057087317,1.5277591,0.295277
0.0,0.0,0.9,-0.5235987755982988,0.5235987755982988,0,-0.98635674,-1.3702587,-1.8232409,0.050626703,-0.03864992,1.4789027,-0.14252472,1.0852475,-0.83069766,1.4237076,0.38201845,-0.057087317,1.5277591,0.295277
0.0,0.0,0.9,-0.5235987755982988,0.5235987755982988,0,-0.98635674,-1.3702587,-1.8232409,0.050626703,-0.03864992,1.4789027,-0.14252472,1.0852475,-0.83069766,1.4237076,0.38201845,-0.057087317,1.5277591,0.295277
0.0,0.0,0.9,-0.5235987755982988,0.5235987755982988,0,-0.98635674,-1.3702587,-1.8232409,0.050626703,-0.03864992,1.4789027,-0.14252472,1.0852475,-0.83069766,1.4237076,0.38201845,-0.057087317,1.5277591,0.295277
0.0,0.0,0.9,-0.5235987755982988,0.5235987755982988,0,-0.98635674,-1.3702587,-1.8232409,0.050626703,-0.03864992,1.4789027,-0.14252472,1.0852475,-0.83069766,1.4237076,0.38201845,-0.057087317,1.5277591,0.295277
0.0,0.0,0.9,-0.5235987755982988,0.5235987755982988,0,-0.9210602,-1.3624951,-1.8201706,0.022350106,-0.038419902,1.4860028,-0.025590014,1.1711482,-0.8305687,1.3953241,0.4196955,-0.06257341,1.513743,0.9609128
0.0,0.0,0.9,-0.5235987755982988,0.5235987755982988,0,-0.9210602,-1.3624951,-1.8201706,0.022350106,-0.038419902,1.4860028,-0.025590014,1.1711482,-0.8305687,1.3953241,0.4196955,-0.06257341,1.513743,0.9609128
0.0,0.0,0.9,-0.5235987755982988,0.5235987755982988,0,-0.9210602,-1.3624951,-1.8201706,0.022350106,-0.038419902,1.4860028,-0.025590014,1.1711482,-0.8305687,1.3953241,0.4196955,-0.06257341,1.513743,0.9609128
0.0,0.0,0.9,-0.5235987755982988,0.5235987755982988,0,-0.9210602,-1.3624951,-1.8201706,0.022350106,-0.038419902,1.4860028,-0.025590014,1.1711482,-0.8305687,1.3953241,0.4196955,-0.06257341,1.513743,0.9609128
0.0,0.0,0.9,-0.5235987755982988,0.5235987755982988,0,-0.9210602,-1.3624951,-1.8201706,0.022350106,-0.038419902,1.4860028,-0.025590014,1.1711482,-0.8305687,1.3953241,0.4196955,-0.06257341,1.513743,0.9609128
0.0,0.0,0.9,-0.5235987755982988,0.5235987755982988,0,-0.9210602,-1.3624951,-1.8201706,0.022350106,-0.038419902,1.4860028,-0.025590014,1.1711482,-0.8305687,1.3953241,0.4196955,-0.06257341,1.513743,0.9609128
0.0,0.0,0.9,-0.5235987755982988,0.5235987755982988,0,-0.9210602,-1.3624951,-1.8201706,0.022350106,-0.038419902,1.4860028,-0.025590014,1.1711482,-0.8305687,1.3953241,0.4196955,-0.06257341,1.513743,0.9609128
0.0,0.0,0.9,-0.5235987755982988,0.5235987755982988,0,-0.9210602,-1.3624951,-1.8201706,0.022350106,-0.038419902,1.4860028,-0.025590014,1.1711482,-0.8305687,1.3953241,0.4196955,-0.06257341,1.513743,0.9609128
0.0,0.0,0.9,-0.5235987755982988,0.5235987755982988,0,-0.86824095,-1.3183763,-1.819462,0.03596514,-0.050725814,1.4799455,-0.17627141,1.1393055,-0.7036186,1.4254258,0.437402,-0.12779956,1.5042984,0.5513389
0.0,0.0,0.9,-0.5235987755982988,0.5235987755982988,0,-0.86824095,-1.3183763,-1.819462,0.03596514,-0.050725814,1.4799455,-0.17627141,1.1393055,-0.7036186,1.4254258,0.437402,-0.12779956,1.5042984,0.5513389
0.0,0.0,0.9,-0.5235987755982988,0.5235987755982988,0,-0.86824095,-1.3183763,-1.819462,0.03596514,-0.050725814,1.4799455,-0.17627141,1.1393055,-0.7036186,1.4254258,0.437402,-0.12779956,1.5042984,0.5513389
0.0,0.0,0.9,-0.5235987755982988,0.5235987755982988,0,-0.86824095,-1.3183763,-1.819462,0.03596514,-0.050725814,1.4799455,-0.17627141,1.1393055,-0.7036186,1.4254258,0.437402,-0.12779956,1.5042984,0.5513389
0.0,0.0,0.9,-0.5235987755982988,0.5235987755982988,0,-0.86824095,-1.3183763,-1.819462,0.03596514,-0.050725814,1.4799455,-0.17627141,1.1393055,-0.7036186,1.4254258,0.437402,-0.12779956,1.5042984,0.5513389
0.0,0.0,0.9,-0.5235987755982988,0.5235987755982988,0,-0.86824095,-1.3183763,-1.819462,0.03596514,-0.050725814,1.4799455,-0.17627141,1.1393055,-0.7036186,1.4254258,0.437402,-0.12779956,1.5042984,0.5513389
0.0,0.0,0.9,-0.5235987755982988,0.5235987755982988,0,-0.86824095,-1.3183763,-1.819462,0.03596514,-0.050725814,1.4799455,-0.17627141,1.1393055,-0.7036186,1.4254258,0.437402,-0.12779956,1.5042984,0.5513389
0.0,0.0,0.9,-0.5235987755982988,0.5235987755982988,0,-1.0054253,-1.3221698,-1.8337361,0.025855815,-0.039292555,1.4809543,-0.030733982,1.2349608,-0.8482356,1.4622221,0.52828896,-0.13494743,1.469223,0.8855075
