sanky1234/BimanualDexCatch/isaacgymenvs/cem_results/May31/football_pose_0.0_-0.1_1.0_0.0_-0.5235987755982988_0_2025-05-31.csv
x,y,z,roll,pitch,yaw,robot1/joint1,robot1/joint2,robot1/joint3,robot1/joint4,robot1/joint5,robot1/joint6,robot1/joint7,robot2/joint1,robot2/joint2,robot2/joint3,robot2/joint4,robot2/joint5,robot2/joint6,robot2/joint7
0.0,-0.1,1.0,0.0,-0.5235987755982988,0,0.4630321,-0.98882407,-2.6323702,0.7877984,-0.6732935,1.109348,-0.045203567,-0.2704746,-0.75548506,1.5627421,1.2958553,0.28855258,1.5476797,-2.181202
0.0,-0.1,1.0,0.0,-0.5235987755982988,0,0.4083293,-0.98966616,-2.5939896,0.8412544,-1.3342289,1.0932465,-0.13889487,-0.24593918,-0.7436493,1.5261414,1.266369,0.29001305,1.5451484,-2.0793262
0.0,-0.1,1.0,0.0,-0.5235987755982988,0,0.44869602,-0.968741,-2.6385615,0.8754348,-1.3706267,0.9233848,0.06986753,-0.2122025,-0.72520417,1.5383219,1.3084111,0.2991136,1.5331693,-2.2337377
0.0,-0.1,1.0,0.0,-0.5235987755982988,0,0.4095798,-0.9891071,-2.563593,0.76948196,-0.6861603,1.0758609,0.6593666,-0.33984706,-0.73533785,1.5127655,1.2696167,0.28551704,1.542874,-2.2813606
0.0,-0.1,1.0,0.0,-0.5235987755982988,0,0.40816107,-0.9276102,-2.642753,0.8233036,-0.8349049,0.98772585,0.43349814,-0.31032905,-0.7256186,1.5169924,1.2985171,0.30516714,1.5398766,-2.3723001
0.0,-0.1,1.0,0.0,-0.5235987755982988,0,0.31883878,-0.97454095,-2.5411572,0.7854573,-0.7811649,0.98729277,0.44778192,-0.29536834,-0.70515686,1.4727637,1.2716244,0.27417043,1.5455462,-2.5126066
0.0,-0.1,1.0,0.0,-0.5235987755982988,0,0.38542515,-1.0130501,-2.544905,0.97790515,-0.71781397,1.2120907,0.83868486,-0.23866908,-0.72219884,1.5610656,1.2696363,0.29481468,1.5498278,-2.2366319
0.0,-0.1,1.0,0.0,-0.5235987755982988,0,0.41229302,-0.98373306,-2.6750195,0.76224816,-1.4812201,1.0024981,-0.15726222,-0.302789,-0.72247404,1.5212204,1.30699,0.23628685,1.5382919,-2.2533004
0.0,-0.1,1.0,0.0,-0.5235987755982988,0,0.43608522,-0.99846953,-2.6996698,0.745009,-1.3040348,0.89240956,0.724583,-0.22977333,-0.72787875,1.5229666,1.3266872,0.25201857,1.5361465,-2.488561
0.0,-0.1,1.0,0.0,-0.5235987755982988,0,0.42063347,-0.97177273,-2.532797,0.966397,-1.5852277,1.1492795,0.38491377,-0.311514,-0.68879014,1.551374,1.3078697,0.31209746,1.5369073,-2.1481
0.0,-0.1,1.0,0.0,-0.5235987755982988,0,0.43567458,-0.9903715,-2.6015232,0.8898328,-0.43408304,1.4896969,-0.054432385,-0.2904581,-0.73716736,1.5126249,1.303402,0.25658008,1.5385097,-2.3411162
0.0,-0.1,1.0,0.0,-0.5235987755982988,0,0.38031095,-0.9975685,-2.5378628,0.7373999,-0.62269926,1.0882045,0.11336494,-0.2793121,-0.74002665,1.4848828,1.2978145,0.2952686,1.539221,-2.1598935
0.0,-0.1,1.0,0.0,-0.5235987755982988,0,0.3319879,-0.9805378,-2.5356836,0.70952207,-1.2891682,0.9172984,0.3197569,-0.2943101,-0.7186169,1.5291613,1.2986324,0.24698931,1.5373747,-2.7042487
0.0,-0.1,1.0,0.0,-0.5235987755982988,0,0.4002993,-0.99499005,-2.5747943,0.6000721,-1.6169856,1.4027411,0.88551265,-0.26426286,-0.7197609,1.5553255,1.3080599,0.2582459,1.5410414,-2.3695717
0.0,-0.1,1.0,0.0,-0.5235987755982988,0,0.3673715,-0.98103666,-2.50397,0.9459042,-0.15961996,1.0740042,0.18143888,-0.3212349,-0.7574961,1.52025,1.3148849,0.26696286,1.5408809,-2.4149697
0.0,-0.1,1.0,0.0,-0.5235987755982988,0,0.38298178,-0.99961597,-2.6058588,1.0319052,-0.7620743,1.2348053,0.44796506,-0.22202447,-0.71176034,1.4974091,1.2942251,0.26460192,1.5413272,-2.356084
0.0,-0.1,1.0,0.0,-0.5235987755982988,0,0.35732713,-0.9761372,-2.5739455,0.66113794,-0.49360198,0.93874466,-0.28469753,-0.34356952,-0.7269071,1.51713,1.2825365,0.27436647,1.532723,-2.7033072
0.0,-0.1,1.0,0.0,-0.5235987755982988,0,0.46708268,-0.9663925,-2.6387303,0.5592913,-0.826934,1.4493008,0.071639396,-0.30741084,-0.7010251,1.522927,1.2892592,0.24407157,1.5420371,-2.0159793
0.0,-0.1,1.0,0.0,-0.5235987755982988,0,0.4102736,-0.9749784,-2.6431224,0.7182888,-1.8904366,1.3135464,0.31710252,-0.2771931,-0.713407,1.5096972,1.3146188,0.27988812,1.5419067,-2.1056104
0.0,-0.1,1.0,0.0,-0.5235987755982988,0,0.39204904,-0.9543012,-2.5843468,0.5357396,-0.2947693,1.312202,0.3732846,-0.36864117,-0.73474723,1.5541108,1.2893071,0.23713425,1.5447849,-2.120897
0.0,-0.1,1.0,0.0,-0.5235987755982988,0,0.34696668,-0.9578635,-2.4479566,0.7436719,-1.2819346,1.3177625,-0.12422367,-0.34441566,-0.72017395,1.520938,1.2685462,0.26970643,1.5317849,-2.1769338
0.0,-0.1,1.0,0.0,-0.5235987755982988,0,0.43676296,-0.9466945,-2.5586927,0.7549106,-1.0313323,1.3765595,0.48056284,-0.3170244,-0.7320681,1.5505943,1.2852397,0.2855413,1.5425532,-2.048878
0.0,-0.1,1.0,0.0,-0.5235987755982988,0,0.4232429,-0.97332907,-2.4471235,0.84287626,-0.753203,1.0998453,0.052880086,-0.3060538,-0.7489866,1.5309541,1.2758864,0.26324078,1.5477022,-2.5016034
0.0,-0.1,1.0,0.0,-0.5235987755982988,0,0.42519343,-0.96764183,-2.5709338,0.6418788,-1.0154876,0.97304857,0.6190819,-0.29634866,-0.7407052,1.5221915,1.312343,0.27751595,1.5473126,-2.5059385
0.0,-0.1,1.0,0.0,-0.5235987755982988,0,0.42875677,-0.9667617,-2.5175886,0.6948947,-0.68117344,0.72168666,0.35998303,-0.27537718,-0.71166635,1.494073,1.2738485,0.28362554,1.5424881,-2.379391
0.0,-0.1,1.0,0.0,-0.5235987755982988,0,0.4452856,-0.9920962,-2.5061996,0.96545744,-0.4106578,1.1662053,0.20701371,-0.314854,-0.72791374,1.5401517,1.3175071,0.2873124,1.5452087,-2.3779564
0.0,-0.1,1.0,0.0,-0.5235987755982988,0,0.36702007,-0.9519045,-2.488308,0.6792383,-0.98228574,0.9794768,0.17411281,-0.31281406,-0.7180984,1.469587,1.2758946,0.259783,1.5421896,-2.2011786
0.0,-0.1,1.0,0.0,-0.5235987755982988,0,0.3574081,-0.97627133,-2.5257618,0.74193853,-2.0219965,0.91992486,0.28482482,-0.18253492,-0.7422816,1.5275451,1.3119454,0.26957485,1.5432556,-2.4988143
0.0,-0.1,1.0,0.0,-0.5235987755982988,0,0.48157898,-0.96166766,-2.563476,0.86664987,-1.8387161,1.3336712,-0.01805196,-0.2931001,-0.71763456,1.5086253,1.3282266,0.28918228,1.5348635,-2.6472821
0.0,-0.1,1.0,0.0,-0.5235987755982988,0,0.33852598,-0.98716164,-2.5344915,0.6243052,-1.975255,0.7219312,0.20816046,-0.32446587,-0.719204,1.5181797,1.2857703,0.2714675,1.5472183,-2.2798877
0.0,-0.1,1.0,0.0,-0.5235987755982988,0,0.42316204,-0.945902,-2.5477576,0.9360767,-0.44637364,1.0727677,0.40556014,-0.36868334,-0.7589418,1.5168438,1.2962997,0.27213186,1.5401034,-2.109985
0.0,-0.1,1.0,0.0,-0.5235987755982988,0,0.4006595,-0.9919788,-2.5240343,0.6062444,-1.0002662,1.1869022,0.38089594,-0.2860716,-0.7082379,1.5217272,1.2777776,0.28230932,1.5396848,-2.2118034
0.0,-0.1,1.0,0.0,-0.5235987755982988,0,0.36436576,-0.9374741,-2.5768218,0.7215065,-1.8371952,1.1431642,0.10136462,-0.30402055,-0.7557267,1.5402069,1.3082601,0.28140435,1.537002,-2.3908951
0.0,-0.1,1.0,0.0,-0.5235987755982988,0,0.37996814,-0.9621651,-2.5310388,0.6651103,-1.2725506,1.3000726,0.294905,-0.2872701,-0.74353755,1.4924757,1.2663735,0.27270865,1.554713,-2.2502222
0.0,-0.1,1.0,0.0,-0.5235987755982988,0,0.36079058,-0.9705045,-2.5725741,0.7469616,-0.36722624,1.1592227,-0.021784555,-0.29093418,-0.75391304,1.4746732,1.327451,0.26432863,1.5446353,-2.3496628
0.0,-0.1,1.0,0.0,-0.5235987755982988,0,0.4652151,-0.97892964,-2.574024,1.0051658,-0.7722965,0.7540913,0.5412665,-0.25969094,-0.7328595,1.5445604,1.2502185,0.3194842,1.5358553,-1.8921739
0.0,-0.1,1.0,0.0,-0.5235987755982988,0,0.3650171,-0.9747141,-2.519813,0.81841236,-1.741534,1.0523455,0.45506355,-0.35656464,-0.73503673,1.5320458,1.2381682,0.27237836,1.5432999,-2.4800277
0.0,-0.1,1.0,0.0,-0.5235987755982988,0,0.402149,-0.9511742,-2.5732002,0.72178185,-0.4913149,1.1167798,0.14506494,-0.34449685,-0.7598605,1.525955,1.3038638,0.26872307,1.5418305,-2.4210484
0.0,-0.1,1.0,0.0,-0.5235987755982988,0,0.40476558,-0.9758384,-2.5632935,0.590832,-0.3900497,0.84150904,-0.15966046,-0.3252951,-0.7211521,1.5322304,1.2861111,0.3013621,1.5330205,-2.6196895
0.0,-0.1,1.0,0.0,-0.5235987755982988,0,0.37984413,-0.9436186,-2.5869694,0.76628625,-1.1532801,1.0112063,0.2837843,-0.28954872,-0.7097306,1.5681132,1.2859855,0.27085033,1.5490934,-2.5993955
0.0,-0.1,1.0,0.0,-0.5235987755982988,0,0.38703385,-0.93778163,-2.6030762,0.67081654,-1.3335177,0.65311337,0.7170673,-0.2728386,-0.73165375,1.5674818,1.2829343,0.25797588,1.5424602,-2.6222196
0.0,-0.1,1.0,0.0,-0.5235987755982988,0,0.38861305,-0.94750637,-2.5687613,0.6064311,-1.1034075,1.301916,0.18563166,-0.31474733,-0.7394603,1.5115094,1.2386585,0.3071102,1.5458705,-2.127994
0.0,-0.1,1.0,0.0,-0.5235987755982988,0,0.4061703,-0.97270745,-2.5947216,0.9214807,-1.0793084,1.4338275,0.1082142,-0.2809666,-0.7152625,1.4973654,1.306504,0.25291997,1.5480514,-2.539629
0.0,-0.1,1.0,0.0,-0.5235987755982988,0,0.38947898,-0.95751345,-2.5425603,0.82015973,-0.8654901,0.4950047,0.28553873,-0.26299876,-0.717926,1.5463809,1.2974483,0.3210087,1.5268981,-2.580843
0.0,-0.1,1.0,0.0,-0.5235987755982988,0,0.36030403,-0.96918505,-2.5575354,0.72829044,-1.6238712,1.3450851,0.46744144,-0.27893937,-0.74678874,1.5169898,1.3071265,0.23426358,1.5403594,-2.1174088
0.0,-0.1,1.0,0.0,-0.5235987755982988,0,0.34942865,-0.9557091,-2.5691645,0.81461257,-1.255407,1.105008,0.5785942,-0.3115275,-0.7522352,1.4830991,1.2666383,0.25262207,1.5420932,-2.2268345
0.0,-0.1,1.0,0.0,-0.5235987755982988,0,0.3683715,-0.94231147,-2.5449948,0.8269856,-1.2569509,0.7139289,-0.19725588,-0.33157572,-0.72556716,1.4926406,1.2606276,0.26996943,1.5395133,-2.403938
0.0,-0.1,1.0,0.0,-0.5235987755982988,0,0.40282932,-0.9367978,-2.6109762,0.66614956,-1.8757772,1.2312863,0.15802117,-0.350753,-0.7693442,1.5412456,1.2827973,0.3111243,1.5398945,-2.3793716
0.0,-0.1,1.0,0.0,-0.5235987755982988,0,0.44417283,-1.0147085,-2.5691452,0.73307055,0.063466474,1.1535128,0.757992,-0.26832575,-0.7429089,1.5543284,1.2824905,0.2552074,1.5313625,-2.4086754
0.0,-0.1,1.0,0.0,-0.5235987755982988,0,0.3371929,-0.98656,-2.5055964,0.74603456,-2.01479,1.057149,0.25107938,-0.2740963,-0.73549163,1.4863164,1.2783633,0.25160614,1.5466785,-2.4882143
0.0,-0.1,1.0,0.0,-0.5235987755982988,0,0.4000901,-0.9718528,-2.6044042,0.5277776,-2.0044596,0.79522884,0.17333655,-0.25165713,-0.72918385,1.492275,1.2940799,0.27711987,1.5477595,-2.4247868
0.0,-0.1,1.0,0.0,-0.5235987755982988,0,0.42099145,-0.96521056,-2.5889482,0.6821458,-1.4463129,0.94946456,-0.28962192,-0.28114626,-0.71610767,1.510543,1.2758597,0.25827405,1.5422075,-2.3966086
0.0,-0.1,1.0,0.0,-0.5235987755982988,0,0.42856735,-0.9646197,-2.5931926,0.9572291,-0.79611886,0.82191664,0.81594414,-0.33017042,-0.71927494,1.4995455,1.2592555,0.25846657,1.5374048,-2.4372025
0.0,-0.1,1.0,0.0,-0.5235987755982988,0,0.44099745,-0.9808012,-2.632557,0.6327721,-0.41239062,1.2146305,-0.24452548,-0.30173665,-0.7219065,1.5545393,1.2570734,0.2545609,1.5472637,-2.4612105
0.0,-0.1,1.0,0.0,-0.5235987755982988,0,0.3432425,-0.97306037,-2.6008587,0.60839444,-2.1219707,1.2986869,0.49719882,-0.28082144,-0.71044874,1.4649881,1.307205,0.25057226,1.5367391,-2.4564526
0.0,-0.1,1.0,0.0,-0.5235987755982988,0,0.34627903,-0.9654617,-2.5132182,0.807208,-0.58085936,0.9847504,0.59586245,-0.29149136,-0.72198045,1.4973963,1.3055905,0.28245005,1.5500245,-2.6860528
0.0,-0.1,1.0,0.0,-0.5235987755982988,0,0.3688036,-0.97906363,-2.6024704,0.61604685,-2.0057874,1.0934639,0.3446697,-0.33464682,-0.7528073,1.5756271,1.2859224,0.221686,1.5471632,-2.1057904
0.0,-0.1,1.0,0.0,-0.5235987755982988,0,0.38650677,-0.9786084,-2.4899702,0.7859962,-1.1067324,1.1099651,0.2664114,-0.2833154,-0.7193503,1.5587944,1.3178493,0.26187894,1.5429704,-2.232491
0.0,-0.1,1.0,0.0,-0.5235987755982988,0,0.41413146,-0.96565515,-2.5670862,0.7736014,-1.132089,1.2120078,0.44238135,-0.2750512,-0.70515376,1.5345719,1.3061178,0.29090184,1.534744,-2.254451
0.0,-0.1,1.0,0.0,-0.5235987755982988,0,0.4771104,-0.9868736,-2.5908442,0.781654,-1.0794634,1.194681,0.5233869,-0.27253243,-0.71658653,1.463734,1.2889937,0.25509727,1.5419189,-1.8881153
0.0,-0.1,1.0,0.0,-0.5235987755982988,0,0.4478268,-0.982193,-2.6476312,0.8679152,-0.4681566,0.80449057,0.31839085,-0.27324358,-0.7557817,1.5339397,1.2835277,0.2714692,1.5457765,-2.239078
0.0,-0.1,1.0,0.0,-0.5235987755982988,0,0.37079632,-0.9437251,-2.5998592,0.906569,-2.0481424,1.0113186,0.27393836,-0.35373405,-0.76761645,1.5203136,1.313879,0.2741428,1.5362253,-2.595787
0.0,-0.1,1.0,0.0,-0.5235987755982988,0,0.42317384,-0.9617658,-2.6086564,0.9370241,-1.1207132,0.8299106,-0.03230251,-0.3189976,-0.7758386,1.5679767,1.2976662,0.29809427,1.5351437,-2.387083
0.0,-0.1,1.0,0.0,-0.5235987755982988,0,0.4640274,-0.95736295,-2.6187885,0.88412464,-1.263515,0.56914645,0.95636034,-0.36409986,-0.75990236,1.4812365,1.2765936,0.25154182,1.5324485,-2.0639968
0.0,-0.1,1.0,0.0,-0.5235987755982988,0,0.36752182,-0.96290654,-2.5958889,0.80160654,-0.9813562,1.2200437,0.25860417,-0.2846895,-0.70811445,1.5163171,1.3003662,0.22943212,1.5418961,-2.4697967
0.0,-0.1,1.0,0.0,-0.5235987755982988,0,0.38727105,-1.0295354,-2.5165355,0.7890408,-0.8637085,0.77693367,0.17428553,-0.24464405,-0.7073993,1.5188055,1.2430439,0.27402455,1.5404735,-2.5159194
0.0,-0.1,1.0,0.0,-0.5235987755982988,0,0.41990137,-0.97126794,-2.5566952,0.7913843,-0.78151274,0.93614626,-0.45602494,-0.2983316,-0.71048915,1.5182341,1.300178,0.25500336,1.5387164,-2.3923385
0.0,-0.1,1.0,0.0,-0.5235987755982988,0,0.2786062,-0.9249045,-2.4750216,0.81751126,-0.96204144,1.0804076,0.10501235,-0.2539098,-0.71402645,1.5238255,1.2808192,0.28989765,1.5346504,-2.3905718
0.0,-0.1,1.0,0.0,-0.5235987755982988,0,0.4934467,-0.9774427,-2.6195319,0.7851509,-1.5406786,1.017245,0.08802457,-0.29121917,-0.7211885,1.501502,1.2696952,0.28707308,1.5466311,-2.5107634
0.0,-0.1,1.0,0.0,-0.5235987755982988,0,0.41252217,-0.9647451,-2.5907698,0.7387929,-1.2881651,1.1511259,0.11281219,-0.2932609,-0.7456741,1.5286058,1.3010373,0.31877363,1.5377524,-2.501466
0.0,-0.1,1.0,0.0,-0.5235987755982988,0,0.3804086,-0.9758922,-2.5176318,0.6738902,-1.3794127,0.79825,0.28890666,-0.26699027,-0.7560846,1.542028,1.312221,0.26813182,1.5373797,-2.1587956
0.0,-0.1,1.0,0.0,-0.5235987755982988,0,0.35094544,-0.96496403,-2.561349,0.69240826,-0.36824995,1.3158375,-0.12808762,-0.2944865,-0.72408074,1.4855078,1.2740949,0.25278336,1.5447588,-2.086044
0.0,-0.1,1.0,0.0,-0.5235987755982988,0,0.4277133,-0.97876525,-2.5982218,0.75169426,-0.8281623,1.2608588,0.24134064,-0.31578898,-0.7218673,1.5106927,1.2804905,0.29933983,1.5322255,-2.3928652
0.0,-0.1,1.0,0.0,-0.5235987755982988,0,0.46384513,-0.98158115,-2.5572338,0.79915076,-1.4809804,1.1301695,0.5672257,-0.32054186,-0.71728474,1.486606,1.3148422,0.2703137,1.5386829,-2.2028189
0.0,-0.1,1.0,0.0,-0.5235987755982988,0,0.46713415,-0.981229,-2.5731032,0.7439072,-1.232603,1.2750217,0.52031714,-0.266916,-0.7196586,1.493675,1.276546,0.3182632,1.5336273,-2.4864047
0.0,-0.1,1.0,0.0,-0.5235987755982988,0,0.44156444,-1.0032941,-2.5821445,0.92079234,-1.6803675,1.0113335,0.48026597,-0.27842712,-0.7173097,1.4712093,1.2753587,0.27541053,1.5427871,-2.5797698
0.0,-0.1,1.0,0.0,-0.5235987755982988,0,0.458955,-1.0041517,-2.5184324,0.8460097,-2.005512,1.4352207,0.36036372,-0.24918704,-0.7290126,1.5521324,1.3132421,0.27951962,1.5423365,-2.1607366
0.0,-0.1,1.0,0.0,-0.5235987755982988,0,0.4137747,-0.98087627,-2.5524457,0.77335554,-0.35286242,0.6687666,0.098075606,-0.24580209,-0.721374,1.5037874,1.2486641,0.28841275,1.5421073,-2.3253534
0.0,-0.1,1.0,0.0,-0.5235987755982988,0,0.37799183,-0.973033,-2.5306304,0.84732145,-0.6571078,1.3214622,0.3545538,-0.2890551,-0.7252217,1.4976476,1.2816956,0.31733367,1.531859,-2.2412014
0.0,-0.1,1.0,0.0,-0.5235987755982988,0,0.38181862,-0.9616027,-2.5561762,0.62124485,-1.0945132,0.7155241,-0.6199712,-0.3225404,-0.7062274,1.5291955,1.2920402,0.2575717,1.539197,-1.9066314
0.0,-0.1,1.0,0.0,-0.5235987755982988,0,0.39036548,-0.96335286,-2.5470302,0.89394695,-0.95867324,0.54005,0.20969918,-0.31754452,-0.75208765,1.5435363,1.304011,0.28325513,1.5370858,-2.3622718
0.0,-0.1,1.0,0.0,-0.5235987755982988,0,0.37889946,-0.9830192,-2.538249,0.9421868,-1.3808137,1.2686677,0.18090554,-0.30922326,-0.7399089,1.4889375,1.2947761,0.27023324,1.5378093,-2.44312
0.0,-0.1,1.0,0.0,-0.5235987755982988,0,0.44855312,-0.9630277,-2.588631,0.96767306,-1.0546467,0.95904106,0.21974374,-0.305762,-0.7323797,1.5485935,1.333628,0.2611623,1.542407,-2.199522
0.0,-0.1,1.0,0.0,-0.5235987755982988,0,0.4690052,-0.96239877,-2.6980245,1.0006757,-1.0272698,0.89687175,-0.10436606,-0.27681264,-0.7389994,1.5521039,1.3028853,0.2659747,1.5374932,-2.0541537
0.0,-0.1,1.0,0.0,-0.5235987755982988,0,0.43832397,-0.95525575,-2.5863984,0.79805744,-0.9137648,1.241335,-0.24606213,-0.27564177,-0.70648354,1.5714395,1.2711364,0.27551004,1.5465647,-2.318794
0.0,-0.1,1.0,0.0,-0.5235987755982988,0,0.3952181,-0.98155695,-2.5180216,0.72841513,-1.3667698,1.1699169,0.56317645,-0.3036753,-0.7371117,1.5097888,1.2986665,0.27064353,1.5509244,-2.3775055
0.0,-0.1,1.0,0.0,-0.5235987755982988,0,0.459624,-0.97732055,-2.6173463,0.81735384,-1.495384,1.1323495,-0.1890493,-0.274296,-0.75114584,1.5692406,1.2752962,0.21932721,1.5457579,-2.0556672
0.0,-0.1,1.0,0.0,-0.5235987755982988,0,0.37101954,-0.93182373,-2.517844,0.98505497,-0.94668555,1.2260904,-0.07705424,-0.25928044,-0.73673856,1.5286324,1.3124633,0.30077618,1.5443443,-2.3848867
0.0,-0.1,1.0,0.0,-0.5235987755982988,0,0.51369995,-0.98930687,-2.657216,0.8297827,-0.42685688,0.784431,0.10732185,-0.3277605,-0.723541,1.4747055,1.2925345,0.25284156,1.5457876,-2.1667843
0.0,-0.1,1.0,0.0,-0.5235987755982988,0,0.3857891,-0.95188403,-2.6001506,0.83976376,-1.1234376,1.1481012,0.328495,-0.26641807,-0.7294441,1.5456909,1.2941078,0.23075728,1.5482625,-2.3136806
0.0,-0.1,1.0,0.0,-0.5235987755982988,0,0.49349594,-0.9920373,-2.6447504,0.898308,-1.5213889,1.3349781,0.20417929,-0.2900267,-0.7276294,1.4908109,1.3358026,0.2822932,1.5375154,-2.366647
0.0,-0.1,1.0,0.0,-0.5235987755982988,0,0.39651093,-0.9677907,-2.607161,0.8404351,-1.4262127,1.1305224,0.31382704,-0.3535358,-0.73656154,1.479892,1.2960271,0.27987972,1.5324835,-2.5072594
0.0,-0.1,1.0,0.0,-0.5235987755982988,0,0.4750168,-0.97592294,-2.6154015,0.83166116,-0.58450735,0.926518,-0.12174602,-0.27216464,-0.7111343,1.5925436,1.3035886,0.27916616,1.5402286,-2.2359128
0.0,-0.1,1.0,0.0,-0.5235987755982988,0,0.46148393,-0.93256503,-2.642622,0.8293983,-1.2112651,0.91828734,0.509631,-0.28873715,-0.71004707,1.579578,1.2759835,0.2707548,1.5522616,-2.0984669
0.0,-0.1,1.0,0.0,-0.5235987755982988,0,0.40136197,-0.9405092,-2.57717,0.9318859,-1.0667918,1.0802904,-0.19877274,-0.32562655,-0.7144939,1.5315998,1.2594974,0.29116315,1.540046,-2.218857
0.0,-0.1,1.0,0.0,-0.5235987755982988,0,0.44986448,-1.023462,-2.628544,0.8576409,-1.4950743,1.1172923,0.27965617,-0.3473878,-0.7394626,1.5166212,1.2673831,0.24745081,1.5338666,-2.254244
0.0,-0.1,1.0,0.0,-0.5235987755982988,0,0.41002354,-0.9683457,-2.6165469,0.91522676,-0.7539524,0.525444,0.38995758,-0.3723859,-0.7304756,1.5235056,1.2778511,0.32932398,1.5421797,-2.435937
0.0,-0.1,1.0,0.0,-0.5235987755982988,0,0.419313,-0.9767416,-2.6206071,0.6404267,-1.3073497,0.62001324,0.38374674,-0.2856636,-0.74239916,1.514032,1.3027347,0.2299099,1.5407375,-1.9766178
0.0,-0.1,1.0,0.0,-0.5235987755982988,0,0.33192772,-0.95586485,-2.603328,0.8140379,-1.5944872,1.1543521,0.32157952,-0.25703263,-0.73561347,1.5503057,1.2603958,0.24576564,1.5332179,-2.2772913
0.0,-0.1,1.0,0.0,-0.5235987755982988,0,0.44186485,-0.99567926,-2.5838494,0.90037435,-0.5985886,1.0996033,0.52932096,-0.3402516,-0.7519601,1.5294688,1.2679671,0.2896,1.5427923,-2.1735256
0.0,-0.1,1.0,0.0,-0.5235987755982988,0,0.44877803,-0.9925959,-2.5799744,0.8982943,-1.5584263,0.76332515,0.601924,-0.25311846,-0.7404975,1.4818904,1.3024752,0.27349582,1.5498188,-2.2676957
0.0,-0.1,1.0,0.0,-0.5235987755982988,0,0.4216181,-0.9510544,-2.6067092,0.8577183,-0.705893,0.8816708,0.8372483,-0.31319588,-0.7352165,1.5721279,1.3055925,0.22479758,1.5381454,-2.4861588
0.0,-0.1,1.0,0.0,-0.5235987755982988,0,0.40887874,-0.96294034,-2.5990634,0.7926828,-1.0753798,0.692213,0.50493574,-0.3308036,-0.7301545,1.4759526,1.2327671,0.2791357,1.542224,-2.0691175
0.0,-0.1,1.0,0.0,-0.5235987755982988,0,0.3789579,-0.9716968,-2.6107943,0.68691593,-1.3115833,1.0893633,0.22424701,-0.29948452,-0.75269455,1.4840177,1.2753391,0.28797945,1.5324982,-2.2920125
0.0,-0.1,1.0,0.0,-0.5235987755982988,0,0.3778719,-0.99679273,-2.4650505,0.8539628,-0.91278446,1.2244143,0.5878608,-0.32977387,-0.7440902,1.5157408,1.2884789,0.26696843,1.5402042,-2.333975
0.0,-0.1,1.0,0.0,-0.5235987755982988,0,0.37054998,-0.9489162,-2.6180356,0.616216,-0.8332008,0.72845066,-0.040901564,-0.3610908,-0.7461806,1.5115279,1.2965754,0.25106755,1.5395007,-2.4221878
0.0,-0.1,1.0,0.0,-0.5235987755982988,0,0.39296708,-0.98949957,-2.5832224,1.0121292,-0.87679225,1.1158726,0.48614606,-0.29133385,-0.7371389,1.5329021,1.2690846,0.24918333,1.543821,-1.9194695
0.0,-0.1,1.0,0.0,-0.5235987755982988,0,0.3360281,-0.97427857,-2.5432696,0.904102,-0.67701685,1.4250214,0.10167752,-0.22800443,-0.7523741,1.5619931,1.2795985,0.267024,1.5458946,-2.2389765
0.0,-0.1,1.0,0.0,-0.5235987755982988,0,0.46507934,-1.0104004,-2.5725143,0.82841235,-0.0062081795,1.308738,0.5617878,-0.3122361,-0.72187537,1.5137904,1.3019873,0.24809334,1.5498506,-2.1759546
0.0,-0.1,1.0,0.0,-0.5235987755982988,0,0.3593365,-0.9546506,-2.5438514,1.0903388,-0.6997863,0.75666606,0.08212489,-0.23393653,-0.73318523,1.558715,1.2655799,0.25886172,1.5459586,-2.1238363
0.0,-0.1,1.0,0.0,-0.5235987755982988,0,0.42395195,-0.9565451,-2.5997884,0.7868744,-1.3180665,0.62815046,0.6672253,-0.30266663,-0.71817726,1.5023121,1.2725631,0.2634622,1.546512,-2.0928874
0.0,-0.1,1.0,0.0,-0.5235987755982988,0,0.38642573,-0.98046136,-2.5719955,0.9879323,-1.0216484,0.95688856,0.4997081,-0.24596865,-0.748052,1.5100116,1.2525654,0.2897328,1.5445493,-2.3677113
0.0,-0.1,1.0,0.0,-0.5235987755982988,0,0.38965705,-0.9763517,-2.5570872,0.8941403,-0.2721533,1.5115163,0.17297405,-0.34428555,-0.7379055,1.5641606,1.3103446,0.2730375,1.5271735,-2.1059563
0.0,-0.1,1.0,0.0,-0.5235987755982988,0,0.3122562,-0.9635834,-2.508029,0.60135865,-0.6598654,0.9521355,-0.041552745,-0.3000597,-0.7462583,1.5017864,1.2829367,0.23527473,1.5351934,-2.2023597
0.0,-0.1,1.0,0.0,-0.5235987755982988,0,0.47851253,-0.96111155,-2.6379387,1.0879248,-0.4987328,1.3405585,-0.09531771,-0.3223109,-0.71984565,1.5050199,1.3020176,0.24525008,1.5465939,-2.0050347
0.0,-0.1,1.0,0.0,-0.5235987755982988,0,0.37867168,-0.9563816,-2.5675604,1.0809611,-0.70258147,1.2065843,0.31815067,-0.26307002,-0.73689866,1.4898387,1.2576487,0.27358466,1.5416155,-2.183677
0.0,-0.1,1.0,0.0,-0.5235987755982988,0,0.4291234,-0.97076654,-2.6338484,0.8361509,-1.4179066,0.7660605,0.7676264,-0.2295184,-0.74670774,1.4570974,1.3067569,0.2988651,1.5358049,-1.8684795
0.0,-0.1,1.0,0.0,-0.5235987755982988,0,0.43632275,-1.0099119,-2.590998,0.8670155,-0.98805016,0.9509609,0.29626793,-0.25451288,-0.7216209,1.5285069,1.2711356,0.2744146,1.5402031,-2.015776
0.0,-0.1,1.0,0.0,-0.5235987755982988,0,0.4882229,-0.9848053,-2.684535,0.76177174,-1.1493567,1.2030165,0.2605662,-0.23640265,-0.7219044,1.508613,1.2849277,0.26052088,1.539628,-2.3886125
0.0,-0.1,1.0,0.0,-0.5235987755982988,0,0.38014954,-0.9128906,-2.5772486,0.628646,-0.95459974,1.437086,0.09747686,-0.35537457,-0.7025819,1.5516846,1.2696215,0.2645451,1.5375235,-2.1782408
0.0,-0.1,1.0,0.0,-0.5235987755982988,0,0.36456153,-0.9340217,-2.5944014,0.7020908,-1.3581825,0.73605484,0.4393559,-0.29556233,-0.73955613,1.5396918,1.3081028,0.3056505,1.5467203,-1.9141698
0.0,-0.1,1.0,0.0,-0.5235987755982988,0,0.39370456,-0.96943206,-2.5953474,0.8125147,-1.7082689,1.1305202,0.080926046,-0.3181919,-0.74624234,1.4767885,1.289544,0.29106748,1.5346925,-2.1880944
0.0,-0.1,1.0,0.0,-0.5235987755982988,0,0.43945158,-1.0035384,-2.578693,0.7587183,-1.5927758,1.3275137,0.18944946,-0.3709435,-0.7267347,1.5547038,1.2534226,0.27367023,1.5395033,-2.178162
0.0,-0.1,1.0,0.0,-0.5235987755982988,0,0.39124915,-0.95188373,-2.5902328,0.7573529,-1.8949759,0.99601513,-0.6316278,-0.27791947,-0.7166779,1.5231086,1.314637,0.28033835,1.5410179,-1.9181695
0.0,-0.1,1.0,0.0,-0.5235987755982988,0,0.3916397,-0.9544933,-2.6585808,0.7378213,-1.698397,1.0190576,0.38692284,-0.31681684,-0.73018944,1.5446948,1.3151885,0.2730763,1.5411558,-2.2632647
0.0,-0.1,1.0,0.0,-0.5235987755982988,0,0.39276475,-0.91785085,-2.6503572,0.8396766,-0.9155454,0.8953377,0.11279646,-0.27450317,-0.7405016,1.485384,1.3131982,0.2980045,1.5400658,-2.040468
0.0,-0.1,1.0,0.0,-0.5235987755982988,0,0.39719826,-0.9784737,-2.6041944,0.8716139,-0.7880067,1.2634488,0.19648583,-0.28238893,-0.7191358,1.4991829,1.283193,0.29112113,1.5407457,-2.3370245
0.0,-0.1,1.0,0.0,-0.5235987755982988,0,0.34807524,-0.95825255,-2.541489,0.95878124,-1.3795393,1.1341155,-0.15549757,-0.25713438,-0.68783164,1.5067704,1.315077,0.24514554,1.5365661,-2.4958339
0.0,-0.1,1.0,0.0,-0.5235987755982988,0,0.4419883,-1.0059975,-2.6110454,0.7013785,-2.040748,1.2031412,0.48158976,-0.2539712,-0.7273881,1.5257312,1.2815757,0.3228823,1.5377705,-2.3629386
0.0,-0.1,1.0,0.0,-0.5235987755982988,0,0.34475654,-0.97271854,-2.6161182,0.7146526,-1.262803,1.258183,0.3073437,-0.3285142,-0.7008937,1.5173202,1.2939942,0.2725293,1.541333,-1.9313718
0.0,-0.1,1.0,0.0,-0.5235987755982988,0,0.38812324,-0.9920109,-2.589118,0.5988379,-0.8654825,1.3426754,0.36837602,-0.32567587,-0.7231928,1.513863,1.286887,0.27284798,1.539501,-1.9679132
0.0,-0.1,1.0,0.0,-0.5235987755982988,0,0.43147874,-0.9640374,-2.6142747,0.73058677,-1.1008607,1.3486797,-0.015893942,-0.22613065,-0.7389663,1.5213325,1.2971916,0.26513198,1.5391896,-2.3877695
0.0,-0.1,1.0,0.0,-0.5235987755982988,0,0.4340589,-0.9735483,-2.6645164,0.83819187,-0.96343046,1.345064,0.2668578,-0.2595429,-0.7285914,1.5208513,1.2747422,0.25191185,1.5424882,-2.4400175
0.0,-0.1,1.0,0.0,-0.5235987755982988,0,0.35404438,-0.9522861,-2.6124392,0.7831938,-1.2551292,1.2528793,0.48826906,-0.2595997,-0.69702166,1.52717,1.2874471,0.2749053,1.5282423,-2.400788
0.0,-0.1,1.0,0.0,-0.5235987755982988,0,0.47642595,-0.95305693,-2.5664477,0.5957356,-1.2917179,0.8907123,0.11020251,-0.3087483,-0.68657553,1.5455797,1.2799215,0.29418752,1.5423176,-2.4500778
0.0,-0.1,1.0,0.0,-0.5235987755982988,0,0.35245246,-0.9353734,-2.5533178,0.4340669,-1.0953026,1.1398182,0.43916926,-0.2830985,-0.72710955,1.5469697,1.2358735,0.2972657,1.5454216,-2.4948144
0.0,-0.1,1.0,0.0,-0.5235987755982988,0,0.3640936,-0.98996085,-2.5991938,0.9261135,-0.3773067,1.2266409,0.046667043,-0.34552217,-0.72718114,1.5458155,1.2994016,0.25733215,1.5455284,-2.3925803
0.0,-0.1,1.0,0.0,-0.5235987755982988,0,0.43531346,-0.9427954,-2.5570216,0.7070699,-1.3339537,1.3225132,0.65263337,-0.2846674,-0.7318801,1.500356,1.2702115,0.25881597,1.5441939,-2.1641016
0.0,-0.1,1.0,0.0,-0.5235987755982988,0,0.36617202,-1.0292522,-2.5561106,0.77933526,-0.81495935,0.8783937,0.22938454,-0.23769549,-0.69405216,1.5197153,1.3076795,0.28264168,1.5389609,-2.2860823
0.0,-0.1,1.0,0.0,-0.5235987755982988,0,0.35912076,-0.9795187,-2.5928278,0.35826612,-0.789812,1.0572745,0.1550032,-0.38033468,-0.72874284,1.5832676,1.2719234,0.28932902,1.5395637,-2.3942506
0.0,-0.1,1.0,0.0,-0.5235987755982988,0,0.41422936,-1.0048637,-2.566989,0.6571117,-1.1258372,1.151853,0.21255459,-0.33444473,-0.7351234,1.4754684,1.3140037,0.25985155,1.5414598,-2.3425937
0.0,-0.1,1.0,0.0,-0.5235987755982988,0,0.36315903,-0.9749366,-2.655224,0.6559235,-0.83719575,0.87844634,0.26151767,-0.32774687,-0.73831517,1.5293223,1.2478498,0.24454689,1.5296837,-2.1321425
0.0,-0.1,1.0,0.0,-0.5235987755982988,0,0.41096178,-0.9746369,-2.6148684,0.518463,-1.1504318,1.2075734,0.49826485,-0.3509162,-0.73332477,1.5821368,1.3204215,0.2764734,1.5369515,-2.2755811
0.0,-0.1,1.0,0.0,-0.5235987755982988,0,0.34854344,-0.9721145,-2.5515108,0.69475615,-1.333959,1.262801,0.1534123,-0.27833274,-0.71438706,1.5133773,1.3206093,0.25131094,1.5350456,-2.577932
0.0,-0.1,1.0,0.0,-0.5235987755982988,0,0.40263283,-0.97966987,-2.4967217,0.83881265,-0.8068914,1.172229,0.2919807,-0.2577913,-0.74657744,1.5100676,1.2733209,0.28420565,1.5320463,-2.3794725
0.0,-0.1,1.0,0.0,-0.5235987755982988,0,0.31092283,-0.99334663,-2.6041481,0.6043538,-1.1105835,0.9303218,0.6663876,-0.23612693,-0.7480715,1.4884495,1.2964828,0.27299342,1.5376004,-2.705267
0.0,-0.1,1.0,0.0,-0.5235987755982988,0,0.34734693,-0.9397756,-2.56556,0.8219054,-1.2147559,1.1212889,0.44817385,-0.27221006,-0.73096794,1.5171582,1.2663783,0.30121133,1.5400273,-2.4514122
0.0,-0.1,1.0,0.0,-0.5235987755982988,0,0.3627206,-0.9231207,-2.5416114,1.0622745,-0.9692287,1.1350138,0.11445025,-0.31522325,-0.7319655,1.4458158,1.2758979,0.26597422,1.5366108,-2.4780247
0.0,-0.1,1.0,0.0,-0.5235987755982988,0,0.37156385,-0.96127135,-2.5897424,0.46666,-1.2105299,1.2400143,0.05581117,-0.350137,-0.7395757,1.5031315,1.2557687,0.28173804,1.5394424,-2.7861798
0.0,-0.1,1.0,0.0,-0.5235987755982988,0,0.3737629,-0.97735107,-2.6052294,0.75152355,-1.7445595,1.260854,0.048647713,-0.3021986,-0.72014993,1.4713328,1.2877525,0.2569353,1.5374771,-2.3105416
0.0,-0.1,1.0,0.0,-0.5235987755982988,0,0.3928365,-0.99410397,-2.5950375,0.59454215,-1.2014724,1.1604072,-0.10582726,-0.3077257,-0.7174722,1.5106128,1.2891424,0.2774123,1.5468346,-2.130357
0.0,-0.1,1.0,0.0,-0.5235987755982988,0,0.37686312,-0.91946626,-2.6930227,0.84270674,-0.692765,1.148232,-0.11150476,-0.30856767,-0.7444942,1.5546461,1.3479987,0.26650557,1.547389,-2.486521
0.0,-0.1,1.0,0.0,-0.5235987755982988,0,0.33286983,-0.989829,-2.5026748,0.9801739,-1.3358123,1.131076,0.19356439,-0.35983083,-0.7532131,1.4900618,1.252081,0.2539515,1.5426484,-2.1385288
0.0,-0.1,1.0,0.0,-0.5235987755982988,0,0.41314068,-1.0057359,-2.601079,0.72579384,-0.3751816,0.9337818,0.26858953,-0.35208312,-0.7252975,1.53704,1.2700229,0.285831,1.5406297,-2.5421152
0.0,-0.1,1.0,0.0,-0.5235987755982988,0,0.4414157,-0.9623347,-2.5955267,0.7736582,-1.7933753,1.2222507,0.0016783542,-0.3216744,-0.7178641,1.5270764,1.3046792,0.31744125,1.5402721,-2.499182
0.0,-0.1,1.0,0.0,-0.5235987755982988,0,0.39676934,-0.9131819,-2.5375187,0.85569435,-0.48962817,1.0937742,0.29699057,-0.32419688,-0.7389342,1.5193598,1.2972925,0.27249637,1.5376962,-2.1787665
0.0,-0.1,1.0,0.0,-0.5235987755982988,0,0.3803197,-0.97541,-2.5722706,0.76310474,-1.2105335,1.2393383,0.13424309,-0.30304787,-0.72804403,1.5011835,1.2994157,0.25953224,1.540424,-2.438822
0.0,-0.1,1.0,0.0,-0.5235987755982988,0,0.33717737,-0.96428937,-2.4401257,0.8402348,-1.022926,1.0019448,-0.050855175,-0.30405352,-0.7475361,1.4732187,1.2634077,0.28045967,1.5394479,-2.1147766
0.0,-0.1,1.0,0.0,-0.5235987755982988,0,0.36376533,-0.96181935,-2.4781134,0.96371794,-1.156858,1.3735995,0.076513015,-0.26482013,-0.75993264,1.547412,1.3287308,0.2574629,1.5354887,-2.2820325
0.0,-0.1,1.0,0.0,-0.5235987755982988,0,0.42154065,-0.9548903,-2.561234,0.87933296,-1.150556,1.0109614,0.42374355,-0.1990907,-0.7075296,1.5100144,1.2821963,0.27596813,1.5518868,-2.1040468
0.0,-0.1,1.0,0.0,-0.5235987755982988,0,0.3411144,-0.9989827,-2.4395335,0.74124646,-0.831716,0.7804734,-0.029535292,-0.31638747,-0.7432475,1.4971234,1.3082327,0.28110623,1.5405762,-2.4955263
0.0,-0.1,1.0,0.0,-0.5235987755982988,0,0.36283213,-0.96489084,-2.4482505,0.9892919,-1.6898272,1.0258957,0.5482435,-0.34191945,-0.69549656,1.5311378,1.3050259,0.24826775,1.5345777,-2.5156882
0.0,-0.1,1.0,0.0,-0.5235987755982988,0,0.31265092,-0.9805791,-2.5045884,0.8506118,0.035586424,1.3880441,0.85505104,-0.30228123,-0.72349566,1.5516131,1.2667276,0.2587709,1.5417145,-2.369722
0.0,-0.1,1.0,0.0,-0.5235987755982988,0,0.48925552,-1.0168856,-2.6192214,0.920385,-0.8205213,1.1248358,0.11215639,-0.278748,-0.7556241,1.50312,1.3050762,0.2872046,1.5482532,-2.0876474
0.0,-0.1,1.0,0.0,-0.5235987755982988,0,0.3816251,-0.955027,-2.6155725,0.71994364,-0.6064748,1.3783247,-0.07008827,-0.32196665,-0.751374,1.4985609,1.2923089,0.26919252,1.5361006,-2.0980077
0.0,-0.1,1.0,0.0,-0.5235987755982988,0,0.36506492,-0.93472934,-2.6039999,0.6508424,-1.2462939,1.222454,0.4492807,-0.34615746,-0.74423313,1.5054369,1.3031211,0.26858285,1.5408778,-2.0772734
0.0,-0.1,1.0,0.0,-0.5235987755982988,0,0.4745231,-0.98239905,-2.665641,0.61241645,-1.1286592,1.2783543,0.5223435,-0.22739996,-0.7344339,1.5037208,1.2542475,0.28129107,1.5437999,-2.03237
0.0,-0.1,1.0,0.0,-0.5235987755982988,0,0.404898,-0.9720843,-2.6539578,1.0279452,-0.97863203,0.95651966,0.050100308,-0.24194014,-0.71500474,1.5468355,1.2638901,0.26165265,1.541238,-2.2009828
0.0,-0.1,1.0,0.0,-0.5235987755982988,0,0.5096642,-0.9717529,-2.6799924,1.115187,-0.7819793,0.77017367,0.36698258,-0.3129825,-0.72519267,1.5493041,1.3189458,0.31958982,1.5417786,-2.0383596
0.0,-0.1,1.0,0.0,-0.5235987755982988,0,0.43406537,-0.9718357,-2.641599,1.1084564,-0.44563815,1.024939,0.3373239,-0.31058258,-0.7392612,1.509822,1.2901335,0.2770198,1.5428644,-2.4504097
0.0,-0.1,1.0,0.0,-0.5235987755982988,0,0.39300025,-0.9390365,-2.6242948,0.7554786,-0.12839411,1.0543404,0.7247103,-0.29296467,-0.72172993,1.539907,1.3136925,0.28022844,1.5350229,-2.1382031
0.0,-0.1,1.0,0.0,-0.5235987755982988,0,0.34073722,-0.9622136,-2.5552213,0.74255997,-0.8821561,0.8738283,0.23354086,-0.3164067,-0.76597273,1.4851716,1.3163248,0.27415153,1.5452049,-2.2513406
0.0,-0.1,1.0,0.0,-0.5235987755982988,0,0.48456773,-0.9997369,-2.611712,1.001695,-1.3482529,0.9576555,0.6894041,-0.33759713,-0.7154483,1.5531447,1.3356692,0.27312765,1.5494982,-2.1783402
0.0,-0.1,1.0,0.0,-0.5235987755982988,0,0.39819238,-0.94688904,-2.640859,0.9451598,-0.6274084,0.7162463,0.34104332,-0.28770286,-0.73739284,1.4998106,1.3154113,0.26457497,1.5412726,-2.1910186
0.0,-0.1,1.0,0.0,-0.5235987755982988,0,0.36919075,-0.91669166,-2.5443978,1.0114257,-1.6247447,1.111297,0.5555135,-0.3203572,-0.69210106,1.4881659,1.2760521,0.24492407,1.5449771,-1.8618131
0.0,-0.1,1.0,0.0,-0.5235987755982988,0,0.35610792,-0.9483633,-2.5824933,0.65165037,-0.91665536,0.48592782,-0.055856645,-0.31691772,-0.73417383,1.500024,1.3136345,0.25654045,1.5503619,-2.6092257
0.0,-0.1,1.0,0.0,-0.5235987755982988,0,0.40255016,-0.97108173,-2.5782897,0.82533145,-0.75234556,1.1006346,0.27725518,-0.31737342,-0.75192034,1.4905372,1.294002,0.25477883,1.5443312,-2.2486122
0.0,-0.1,1.0,0.0,-0.5235987755982988,0,0.44258547,-0.9653206,-2.627602,0.94237286,-1.4571539,1.1169636,0.5320656,-0.29341733,-0.7232453,1.5153201,1.2974969,0.29671317,1.5455179,-2.1281674
0.0,-0.1,1.0,0.0,-0.5235987755982988,0,0.41327742,-1.0213289,-2.6157446,0.79542696,-0.47713825,1.1956223,0.77113324,-0.31475565,-0.73597,1.5143359,1.2779742,0.32561582,1.5386218,-2.2719178
0.0,-0.1,1.0,0.0,-0.5235987755982988,0,0.41431576,-0.9979063,-2.5138662,1.0092727,-0.3379216,1.0188389,0.14617337,-0.34932363,-0.7561795,1.5285075,1.2926942,0.30110562,1.5405619,-2.2871344
0.0,-0.1,1.0,0.0,-0.5235987755982988,0,0.3897566,-0.96737033,-2.6298738,1.0594581,-1.1284363,1.1994601,0.25330207,-0.26958674,-0.7202646,1.5355312,1.2668977,0.24980101,1.5452485,-2.3979688
0.0,-0.1,1.0,0.0,-0.5235987755982988,0,0.38143063,-0.9858014,-2.6025488,0.72124267,-0.7085889,0.6455392,0.28700393,-0.2673332,-0.7307747,1.5383936,1.3019357,0.29954678,1.5426695,-2.5321355
0.0,-0.1,1.0,0.0,-0.5235987755982988,0,0.44304162,-0.9767749,-2.6180859,0.9236652,-1.2802799,1.2190691,0.5000534,-0.24459425,-0.73203295,1.51023,1.3078915,0.24917424,1.5440005,-2.103821
0.0,-0.1,1.0,0.0,-0.5235987755982988,0,0.3798802,-0.9574135,-2.6111116,0.7227162,-1.8052348,1.2697924,-0.24943925,-0.29316673,-0.72836506,1.5556512,1.2732482,0.2543235,1.5347611,-2.1346486
0.0,-0.1,1.0,0.0,-0.5235987755982988,0,0.39815557,-0.952413,-2.5843782,0.8753944,-0.9929534,1.3062828,0.01398211,-0.36421952,-0.76006985,1.4223727,1.2364303,0.28694615,1.5425932,-2.287314
0.0,-0.1,1.0,0.0,-0.5235987755982988,0,0.37708974,-0.98347074,-2.565306,0.8890633,-1.4526366,1.1453758,1.018193,-0.28128955,-0.7377583,1.4864216,1.2966012,0.30820462,1.5380139,-2.424061
0.0,-0.1,1.0,0.0,-0.5235987755982988,0,0.43256262,-0.9932594,-2.6464572,0.7992206,-1.2986864,1.0380151,0.10467475,-0.32347205,-0.70861816,1.4537534,1.308495,0.28306228,1.5421654,-2.4760616
0.0,-0.1,1.0,0.0,-0.5235987755982988,0,0.4592489,-0.9838783,-2.5736358,0.7582984,-1.1384507,1.2826055,0.13899085,-0.33549887,-0.70498383,1.50979,1.3058504,0.26141107,1.5412235,-2.3031976
0.0,-0.1,1.0,0.0,-0.5235987755982988,0,0.43108147,-0.9645214,-2.6162107,0.714935,-1.4314213,1.1124835,0.15987208,-0.30703261,-0.7506712,1.549755,1.3194683,0.24739844,1.5413799,-1.7112136
0.0,-0.1,1.0,0.0,-0.5235987755982988,0,0.38762864,-0.9944215,-2.601503,0.69383645,-0.8989532,1.0762044,-0.14358021,-0.2940323,-0.7391793,1.5389346,1.2799671,0.2731497,1.5477034,-2.2753642
0.0,-0.1,1.0,0.0,-0.5235987755982988,0,0.4108005,-1.0048571,-2.5635655,0.7138804,-0.97774184,1.0640352,0.22051527,-0.24948332,-0.73274225,1.4950657,1.3036345,0.27465072,1.536029,-2.040775
0.0,-0.1,1.0,0.0,-0.5235987755982988,0,0.39694571,-0.97119695,-2.6030936,0.83622766,-1.267328,0.725588,0.108225524,-0.28101423,-0.7371672,1.5835013,1.2898823,0.2725947,1.5396142,-2.096487
0.0,-0.1,1.0,0.0,-0.5235987755982988,0,0.4095305,-0.98837596,-2.573685,1.21076,-1.0700495,0.7459706,0.24781834,-0.26944643,-0.7297555,1.4817668,1.3244907,0.2800965,1.5381446,-2.3203855
0.0,-0.1,1.0,0.0,-0.5235987755982988,0,0.39278135,-0.9629114,-2.6018403,0.7386863,-1.1075658,1.024284,0.85947394,-0.2682126,-0.73488915,1.4822854,1.3032588,0.24691804,1.5336189,-1.983261
0.0,-0.1,1.0,0.0,-0.5235987755982988,0,0.35694048,-0.9732851,-2.5559921,0.64065766,-0.7632324,1.0111161,0.7282761,-0.34006774,-0.739469,1.4758562,1.3113854,0.23995353,1.5382998,-2.4131148
0.0,-0.1,1.0,0.0,-0.5235987755982988,0,0.31825468,-0.98782444,-2.5422873,0.8066909,-1.3683937,1.2413023,0.479913,-0.3143605,-0.69718844,1.4858088,1.268648,0.26362774,1.549214,-2.459084
0.0,-0.1,1.0,0.0,-0.5235987755982988,0,0.39729327,-0.99162704,-2.6420941,0.6812568,-0.83475345,1.2811621,0.19580685,-0.33849323,-0.7241308,1.5555727,1.2915089,0.28388533,1.5421908,-2.2715778
0.0,-0.1,1.0,0.0,-0.5235987755982988,0,0.34278575,-0.9935793,-2.5059302,0.72912973,-0.8803551,1.1785269,0.60521805,-0.34383982,-0.7075525,1.513846,1.2549859,0.27681807,1.5316894,-2.1399317
0.0,-0.1,1.0,0.0,-0.5235987755982988,0,0.411702,-0.95403785,-2.5934184,0.73473185,-1.1887035,1.4036295,-0.17906728,-0.2480913,-0.70297277,1.5739413,1.2816111,0.29899207,1.5465096,-2.1356463
0.0,-0.1,1.0,0.0,-0.5235987755982988,0,0.48994192,-0.9622473,-2.5729287,0.5164331,-0.8721787,1.3878555,-0.18048199,-0.33797115,-0.73971224,1.4878677,1.2568989,0.28582844,1.5457733,-2.324555
0.0,-0.1,1.0,0.0,-0.5235987755982988,0,0.36887646,-0.95746386,-2.6215107,0.8251523,-1.7689898,1.3156106,0.11363716,-0.3158149,-0.72223645,1.4896605,1.309097,0.266813,1.5354896,-2.5913148
0.0,-0.1,1.0,0.0,-0.5235987755982988,0,0.41891885,-0.9882716,-2.571805,0.59018356,-1.5823885,1.339142,0.5004245,-0.27301913,-0.7325522,1.5308988,1.281723,0.27158302,1.5404909,-2.3006585
0.0,-0.1,1.0,0.0,-0.5235987755982988,0,0.33912534,-0.9454225,-2.600288,0.69418794,-1.6048651,1.4488561,0.10914268,-0.2832137,-0.73773533,1.5133271,1.3183424,0.24546352,1.5415945,-2.2723875
0.0,-0.1,1.0,0.0,-0.5235987755982988,0,0.31146157,-1.0049608,-2.5745635,0.49353355,-1.432405,1.3240105,-0.13517678,-0.251115,-0.7417104,1.4460659,1.3177433,0.2822635,1.54798,-2.271726
0.0,-0.1,1.0,0.0,-0.5235987755982988,0,0.40718627,-1.0028378,-2.5308723,0.8843393,-0.94191396,0.851903,0.3403743,-0.3248444,-0.6946232,1.4642612,1.3031911,0.2830509,1.5356042,-2.4300833
0.0,-0.1,1.0,0.0,-0.5235987755982988,0,0.42614058,-0.9726896,-2.614037,0.64077944,-1.1277567,1.2507541,0.30216622,-0.3443709,-0.700505,1.5122212,1.2800698,0.2680466,1.5409968,-2.2361333
0.0,-0.1,1.0,0.0,-0.5235987755982988,0,0.41054386,-0.9848285,-2.6373863,0.8004194,-1.622707,1.3811855,0.65394306,-0.260977,-0.71201324,1.5584284,1.2760457,0.29254603,1.5474339,-2.1067529
0.0,-0.1,1.0,0.0,-0.5235987755982988,0,0.40070727,-0.9647975,-2.5225036,0.8321174,-1.1545514,1.3119366,0.017981712,-0.3201187,-0.720525,1.5579786,1.2692868,0.27854764,1.5316504,-2.6658964
0.0,-0.1,1.0,0.0,-0.5235987755982988,0,0.43953103,-0.9868188,-2.534841,0.73017246,-0.96247756,0.9842439,0.34031546,-0.30997756,-0.7235802,1.5590568,1.3179945,0.27715746,1.5392323,-2.3717203
0.0,-0.1,1.0,0.0,-0.5235987755982988,0,0.39106154,-0.9883397,-2.5320718,0.83818495,-1.2282432,1.2642561,-0.11814037,-0.27747712,-0.730695,1.5333179,1.2643586,0.29055887,1.5374833,-2.2743604
0.0,-0.1,1.0,0.0,-0.5235987755982988,0,0.35134026,-0.94971645,-2.53262,0.81229585,-1.1668507,1.1388052,0.22483815,-0.28256285,-0.7322721,1.5300592,1.3224337,0.27334774,1.5491271,-2.4710402
0.0,-0.1,1.0,0.0,-0.5235987755982988,0,0.3641769,-0.97192985,-2.6292305,0.8504345,-1.5873768,1.0336459,-0.1323701,-0.32802442,-0.7600849,1.5531704,1.2976108,0.26891536,1.5511463,-2.3238087
0.0,-0.1,1.0,0.0,-0.5235987755982988,0,0.39017016,-1.020174,-2.5592937,0.69694984,-1.2893968,1.1851467,0.2960114,-0.26300305,-0.73860365,1.4913865,1.3355572,0.26867422,1.5416595,-2.024689
0.0,-0.1,1.0,0.0,-0.5235987755982988,0,0.37748876,-0.98475045,-2.6376035,0.8999821,-1.469533,1.2512019,0.5056005,-0.30406404,-0.77099836,1.5306133,1.3088357,0.2726311,1.5342394,-2.6315582
0.0,-0.1,1.0,0.0,-0.5235987755982988,0,0.4173171,-0.97568995,-2.6709108,0.7555266,-1.1575334,1.2899289,0.11271473,-0.28105858,-0.7311483,1.5321121,1.3151364,0.2610368,1.5349716,-2.276093
0.0,-0.1,1.0,0.0,-0.5235987755982988,0,0.32790244,-0.96584153,-2.6177032,0.7143934,-1.2611895,1.176714,0.1568154,-0.29780638,-0.7510116,1.5128589,1.2990408,0.2659524,1.5417602,-2.3882353
0.0,-0.1,1.0,0.0,-0.5235987755982988,0,0.38471586,-0.97341686,-2.5586798,0.7890259,-1.2793182,1.3745067,0.21588281,-0.21504483,-0.71903646,1.5508177,1.2868882,0.22098199,1.5448081,-2.5418108
0.0,-0.1,1.0,0.0,-0.5235987755982988,0,0.3832411,-0.980911,-2.5923033,0.8358641,-1.3365655,1.2629114,0.23488818,-0.35227287,-0.7378847,1.5129571,1.2648956,0.25568095,1.5470412,-2.6154263
0.0,-0.1,1.0,0.0,-0.5235987755982988,0,0.42072186,-0.97739375,-2.6372578,1.0195029,-0.6297942,0.85839087,0.08899713,-0.29827073,-0.74345756,1.4997911,1.3139303,0.27361986,1.5444816,-2.2001448
0.0,-0.1,1.0,0.0,-0.5235987755982988,0,0.39862767,-0.9505022,-2.6012938,0.97939575,-0.9008904,1.028662,0.45026463,-0.32603014,-0.740581,1.4823312,1.294359,0.26417336,1.5443691,-2.2507815
0.0,-0.1,1.0,0.0,-0.5235987755982988,0,0.33718193,-0.9843763,-2.5556288,0.8734454,-1.4033943,1.210627,-0.20650704,-0.24818039,-0.74425393,1.498051,1.2719653,0.239445,1.5344485,-1.8074764
0.0,-0.1,1.0,0.0,-0.5235987755982988,0,0.39076644,-0.98343396,-2.5355625,0.97826034,-0.7847163,0.85646623,0.14884605,-0.35204408,-0.718734,1.5234195,1.2809424,0.25282344,1.5453824,-2.0558019
0.0,-0.1,1.0,0.0,-0.5235987755982988,0,0.4645142,-0.9719519,-2.6584067,0.91303456,-1.7783703,1.4241766,-0.16719586,-0.30396715,-0.7343335,1.5061975,1.2882038,0.31464306,1.5401309,-2.3397162
0.0,-0.1,1.0,0.0,-0.5235987755982988,0,0.4543433,-0.9869171,-2.6289706,0.8644091,-2.127211,1.4464918,0.17370592,-0.28676552,-0.71437716,1.5226998,1.2759606,0.2861721,1.535214,-2.1646788
0.0,-0.1,1.0,0.0,-0.5235987755982988,0,0.52859247,-0.9903521,-2.6973414,0.9900772,-1.5334556,1.101721,0.22097409,-0.31276098,-0.71806085,1.4967065,1.3347487,0.2742144,1.5337359,-1.981585
0.0,-0.1,1.0,0.0,-0.5235987755982988,0,0.32986334,-0.9803036,-2.5549724,1.0829058,-1.6686788,1.1819271,0.10531349,-0.24407963,-0.73094773,1.5356925,1.2983862,0.31342757,1.5466205,-2.191649
0.0,-0.1,1.0,0.0,-0.5235987755982988,0,0.3097333,-0.9914421,-2.5203247,0.7389172,-0.88669467,0.746269,0.060097896,-0.25348374,-0.7389485,1.526771,1.3155154,0.30354363,1.5455534,-2.3361375
0.0,-0.1,1.0,0.0,-0.5235987755982988,0,0.3317819,-0.96478385,-2.5302906,0.88741153,-1.1565148,1.0356468,0.7665003,-0.29411367,-0.7451978,1.4858416,1.2955872,0.2573765,1.5458137,-2.2587094
0.0,-0.1,1.0,0.0,-0.5235987755982988,0,0.33824357,-0.97782445,-2.5645988,0.72411,-1.3162191,1.211582,0.28101683,-0.3571718,-0.7374996,1.5305314,1.2629808,0.2787117,1.5352607,-2.4094462
0.0,-0.1,1.0,0.0,-0.5235987755982988,0,0.41706303,-0.9647303,-2.5666056,0.7759142,-1.407526,1.2933137,-0.30741015,-0.3231198,-0.775551,1.5429609,1.3127121,0.27914914,1.543702,-2.0397007
0.0,-0.1,1.0,0.0,-0.5235987755982988,0,0.3415482,-0.96242607,-2.524957,0.570175,-0.9132014,1.3028655,0.04673591,-0.29212448,-0.68472993,1.5338259,1.2795893,0.29462638,1.5404919,-2.3638964
0.0,-0.1,1.0,0.0,-0.5235987755982988,0,0.3344587,-0.9823046,-2.5661535,0.55462456,-0.5923439,1.3126314,0.47591442,-0.29617476,-0.7208148,1.4631671,1.3015584,0.2814422,1.5404267,-2.3323617
0.0,-0.1,1.0,0.0,-0.5235987755982988,0,0.33052096,-0.9831756,-2.6037586,0.80757254,-1.5299494,1.1090363,0.6430612,-0.31091878,-0.7443853,1.5585454,1.3152812,0.30965352,1.5413915,-2.3949196
0.0,-0.1,1.0,0.0,-0.5235987755982988,0,0.4349568,-0.97036815,-2.604452,1.0781132,-2.018632,1.4478325,0.10429284,-0.36284176,-0.72096175,1.5307819,1.2822126,0.30375528,1.5318912,-2.3747425
0.0,-0.1,1.0,0.0,-0.5235987755982988,0,0.39340073,-0.9567595,-2.548606,1.0538998,-1.5662377,1.3208971,0.048123695,-0.32826555,-0.74840623,1.5463868,1.2781795,0.2749346,1.5495794,-2.3783307
0.0,-0.1,1.0,0.0,-0.5235987755982988,0,0.4121981,-0.9920771,-2.5842702,0.806693,-1.0379376,1.4039848,-0.07791413,-0.23704213,-0.7423946,1.4680613,1.30458,0.28346294,1.5400221,-2.313145
0.0,-0.1,1.0,0.0,-0.5235987755982988,0,0.30136824,-0.9471279,-2.5160854,0.94541705,-1.6000654,1.1605723,0.54106385,-0.27682298,-0.7256366,1.5246544,1.2747937,0.27399772,1.5443444,-2.0574281
0.0,-0.1,1.0,0.0,-0.5235987755982988,0,0.3362441,-0.9443497,-2.5618129,0.79423577,-1.2966591,1.1322161,0.50900686,-0.3241224,-0.7139605,1.5404791,1.3260096,0.25640154,1.530694,-2.2180939
0.0,-0.1,1.0,0.0,-0.5235987755982988,0,0.38282165,-0.9782051,-2.5738595,0.8453621,-1.7989097,1.4551667,0.1105545,-0.2631203,-0.67691964,1.5060917,1.2705828,0.2882327,1.537545,-1.9681479
0.0,-0.1,1.0,0.0,-0.5235987755982988,0,0.35842767,-0.93927747,-2.6512728,0.45484197,-1.3184253,1.417406,0.53257716,-0.3348151,-0.7371084,1.5195271,1.2748483,0.27185255,1.5477722,-2.1810517
0.0,-0.1,1.0,0.0,-0.5235987755982988,0,0.33555594,-0.94538337,-2.5165434,0.6546756,-0.8433289,1.485669,-0.5229325,-0.29727823,-0.7511524,1.5123777,1.3040376,0.25214732,1.5494848,-2.3123837
0.0,-0.1,1.0,0.0,-0.5235987755982988,0,0.39331353,-1.0191592,-2.5680883,0.4302139,-1.0198656,1.4077271,0.3211572,-0.27309024,-0.7189607,1.4969555,1.2713741,0.26553735,1.5378333,-2.3264496
0.0,-0.1,1.0,0.0,-0.5235987755982988,0,0.3780462,-0.94237953,-2.6815178,0.86253935,-1.9907646,1.4830135,0.261982,-0.36856163,-0.767643,1.5502266,1.3014536,0.26765856,1.541671,-2.6148946
0.0,-0.1,1.0,0.0,-0.5235987755982988,0,0.33015504,-0.99648017,-2.515103,0.7681752,-0.58912116,0.9010198,0.3714928,-0.40652782,-0.7422176,1.4680272,1.2825631,0.26387924,1.5431696,-2.470973
0.0,-0.1,1.0,0.0,-0.5235987755982988,0,0.50452286,-0.94015926,-2.5000942,0.97821593,-1.1282996,1.4198545,0.12220472,-0.26678854,-0.7187395,1.4816464,1.2859674,0.2944944,1.5417844,-2.064192
0.0,-0.1,1.0,0.0,-0.5235987755982988,0,0.3497371,-0.99156344,-2.660826,0.51196355,-0.69128907,1.3638759,0.7271801,-0.23735136,-0.7040022,1.5080519,1.2822806,0.2665319,1.5376233,-2.7096357
0.0,-0.1,1.0,0.0,-0.5235987755982988,0,0.40700334,-0.937928,-2.59676,0.65366006,-0.99059194,1.3548918,0.34946218,-0.29275197,-0.757257,1.5323006,1.3191411,0.26092523,1.5408056,-2.2084174
0.0,-0.1,1.0,0.0,-0.5235987755982988,0,0.3497812,-0.9450376,-2.5472815,0.5930018,-0.8988347,1.4652663,-0.0604459,-0.3072544,-0.72591007,1.4817168,1.2869917,0.2849557,1.5416833,-2.0899162
0.0,-0.1,1.0,0.0,-0.5235987755982988,0,0.37968016,-0.9667433,-2.45449,0.8526757,-1.4180505,1.3979137,0.23546356,-0.31619504,-0.7187621,1.5406029,1.3046798,0.24327147,1.5355076,-2.028882
0.0,-0.1,1.0,0.0,-0.5235987755982988,0,0.44370744,-0.97882795,-2.6102445,0.7935161,-1.5614604,1.3252349,-0.20227015,-0.30381966,-0.7436025,1.5131502,1.3092602,0.25375015,1.5402249,-2.156026
0.0,-0.1,1.0,0.0,-0.5235987755982988,0,0.41175708,-0.95615065,-2.5158584,0.7261727,-1.4594392,1.5596807,0.27033025,-0.34410685,-0.7048183,1.50885,1.3232749,0.22476378,1.5309796,-2.0599203
0.0,-0.1,1.0,0.0,-0.5235987755982988,0,0.44890004,-0.991741,-2.6347919,0.8032629,-1.6896741,1.4467915,0.9117913,-0.28476533,-0.734917,1.4996799,1.2943755,0.26386842,1.5320767,-2.2617018
0.0,-0.1,1.0,0.0,-0.5235987755982988,0,0.37796947,-0.94420385,-2.591204,0.70869386,-1.4893777,1.4369503,0.646103,-0.30722553,-0.7289501,1.460612,1.2851908,0.2745502,1.5317247,-2.383533
0.0,-0.1,1.0,0.0,-0.5235987755982988,0,0.40432826,-0.9763469,-2.4638534,0.96991676,-1.0855435,1.4580327,0.22653358,-0.38499734,-0.7386694,1.5224137,1.2954245,0.26888743,1.5445056,-2.4131672
0.0,-0.1,1.0,0.0,-0.5235987755982988,0,0.40423137,-0.9367572,-2.5757513,0.7080234,-1.5038289,1.3881313,-0.015800364,-0.24827681,-0.70625985,1.4943745,1.3271182,0.31590697,1.5430623,-2.5386658
0.0,-0.1,1.0,0.0,-0.5235987755982988,0,0.36078927,-0.92730415,-2.6166008,0.6501422,-1.3712562,1.4813589,0.56987363,-0.35307294,-0.71142495,1.5217335,1.2921772,0.28767532,1.5449682,-2.5728624
0.0,-0.1,1.0,0.0,-0.5235987755982988,0,0.31229097,-0.9801831,-2.5808437,0.42108515,-1.0819573,1.5461397,-0.12457643,-0.29783326,-0.7519074,1.455313,1.3132772,0.28477144,1.5410992,-1.9735258
0.0,-0.1,1.0,0.0,-0.5235987755982988,0,0.31229097,-0.9801831,-2.5808437,0.42108515,-1.0819573,1.5461397,-0.12457643,-0.29783326,-0.7519074,1.455313,1.3132772,0.28477144,1.5410992,-1.9735258
0.0,-0.1,1.0,0.0,-0.5235987755982988,0,0.31229097,-0.9801831,-2.5808437,0.42108515,-1.0819573,1.5461397,-0.12457643,-0.29783326,-0.7519074,1.455313,1.3132772,0.28477144,1.5410992,-1.9735258
0.0,-0.1,1.0,0.0,-0.5235987755982988,0,0.31229097,-0.9801831,-2.5808437,0.42108515,-1.0819573,1.5461397,-0.12457643,-0.29783326,-0.7519074,1.455313,1.3132772,0.28477144,1.5410992,-1.9735258
0.0,-0.1,1.0,0.0,-0.5235987755982988,0,0.31229097,-0.9801831,-2.5808437,0.42108515,-1.0819573,1.5461397,-0.12457643,-0.29783326,-0.7519074,1.455313,1.3132772,0.28477144,1.5410992,-1.9735258
0.0,-0.1,1.0,0.0,-0.5235987755982988,0,0.31229097,-0.9801831,-2.5808437,0.42108515,-1.0819573,1.5461397,-0.12457643,-0.29783326,-0.7519074,1.455313,1.3132772,0.28477144,1.5410992,-1.9735258
0.0,-0.1,1.0,0.0,-0.5235987755982988,0,0.31229097,-0.9801831,-2.5808437,0.42108515,-1.0819573,1.5461397,-0.12457643,-0.29783326,-0.7519074,1.455313,1.3132772,0.28477144,1.5410992,-1.9735258
0.0,-0.1,1.0,0.0,-0.5235987755982988,0,0.36060396,-0.9632441,-2.5365312,0.7318554,-1.4218296,1.5118529,0.7339994,-0.28984585,-0.7128966,1.5189257,1.302363,0.27983078,1.5375574,-2.2417681
0.0,-0.1,1.0,0.0,-0.5235987755982988,0,0.36060396,-0.9632441,-2.5365312,0.7318554,-1.4218296,1.5118529,0.7339994,-0.28984585,-0.7128966,1.5189257,1.302363,0.27983078,1.5375574,-2.2417681
0.0,-0.1,1.0,0.0,-0.5235987755982988,0,0.36060396,-0.9632441,-2.5365312,0.7318554,-1.4218296,1.5118529,0.7339994,-0.28984585,-0.7128966,1.5189257,1.302363,0.27983078,1.5375574,-2.2417681
0.0,-0.1,1.0,0.0,-0.5235987755982988,0,0.36060396,-0.9632441,-2.5365312,0.7318554,-1.4218296,1.5118529,0.7339994,-0.28984585,-0.7128966,1.5189257,1.302363,0.27983078,1.5375574,-2.2417681
0.0,-0.1,1.0,0.0,-0.5235987755982988,0,0.36060396,-0.9632441,-2.5365312,0.7318554,-1.4218296,1.5118529,0.7339994,-0.28984585,-0.7128966,1.5189257,1.302363,0.27983078,1.5375574,-2.2417681
0.0,-0.1,1.0,0.0,-0.5235987755982988,0,0.36060396,-0.9632441,-2.5365312,0.7318554,-1.4218296,1.5118529,0.7339994,-0.28984585,-0.7128966,1.5189257,1.302363,0.27983078,1.5375574,-2.2417681
0.0,-0.1,1.0,0.0,-0.5235987755982988,0,0.36060396,-0.9632441,-2.5365312,0.7318554,-1.4218296,1.5118529,0.7339994,-0.28984585,-0.7128966,1.5189257,1.302363,0.27983078,1.5375574,-2.2417681
0.0,-0.1,1.0,0.0,-0.5235987755982988,0,0.36060396,-0.9632441,-2.5365312,0.7318554,-1.4218296,1.5118529,0.7339994,-0.28984585,-0.7128966,1.5189257,1.302363,0.27983078,1.5375574,-2.2417681
0.0,-0.1,1.0,0.0,-0.5235987755982988,0,0.3347133,-0.9747036,-2.4784005,0.71837944,-1.1259259,1.4252176,0.4393289,-0.2555035,-0.7178119,1.5410529,1.2257524,0.28349957,1.5404091,-2.3431935
0.0,-0.1,1.0,0.0,-0.5235987755982988,0,0.3347133,-0.9747036,-2.4784005,0.71837944,-1.1259259,1.4252176,0.4393289,-0.2555035,-0.7178119,1.5410529,1.2257524,0.28349957,1.5404091,-2.3431935
0.0,-0.1,1.0,0.0,-0.5235987755982988,0,0.3347133,-0.9747036,-2.4784005,0.71837944,-1.1259259,1.4252176,0.4393289,-0.2555035,-0.7178119,1.5410529,1.2257524,0.28349957,1.5404091,-2.3431935
0.0,-0.1,1.0,0.0,-0.5235987755982988,0,0.3347133,-0.9747036,-2.4784005,0.71837944,-1.1259259,1.4252176,0.4393289,-0.2555035,-0.7178119,1.5410529,1.2257524,0.28349957,1.5404091,-2.3431935
0.0,-0.1,1.0,0.0,-0.5235987755982988,0,0.3347133,-0.9747036,-2.4784005,0.71837944,-1.1259259,1.4252176,0.4393289,-0.2555035,-0.7178119,1.5410529,1.2257524,0.28349957,1.5404091,-2.3431935
0.0,-0.1,1.0,0.0,-0.5235987755982988,0,0.3347133,-0.9747036,-2.4784005,0.71837944,-1.1259259,1.4252176,0.4393289,-0.2555035,-0.7178119,1.5410529,1.2257524,0.28349957,1.5404091,-2.3431935
0.0,-0.1,1.0,0.0,-0.5235987755982988,0,0.3347133,-0.9747036,-2.4784005,0.71837944,-1.1259259,1.4252176,0.4393289,-0.2555035,-0.7178119,1.5410529,1.2257524,0.28349957,1.5404091,-2.3431935
0.0,-0.1,1.0,0.0,-0.5235987755982988,0,0.39806563,-0.93653184,-2.628796,0.50036496,-1.0478275,1.5482218,0.4488273,-0.33068246,-0.7426117,1.5111536,1.2741714,0.22554858,1.5350317,-2.757321
0.0,-0.1,1.0,0.0,-0.5235987755982988,0,0.39806563,-0.93653184,-2.628796,0.50036496,-1.0478275,1.5482218,0.4488273,-0.33068246,-0.7426117,1.5111536,1.2741714,0.22554858,1.5350317,-2.757321
0.0,-0.1,1.0,0.0,-0.5235987755982988,0,0.39806563,-0.93653184,-2.628796,0.50036496,-1.0478275,1.5482218,0.4488273,-0.33068246,-0.7426117,1.5111536,1.2741714,0.22554858,1.5350317,-2.757321
0.0,-0.1,1.0,0.0,-0.5235987755982988,0,0.39806563,-0.93653184,-2.628796,0.50036496,-1.0478275,1.5482218,0.4488273,-0.33068246,-0.7426117,1.5111536,1.2741714,0.22554858,1.5350317,-2.757321
0.0,-0.1,1.0,0.0,-0.5235987755982988,0,0.39806563,-0.93653184,-2.628796,0.50036496,-1.0478275,1.5482218,0.4488273,-0.33068246,-0.7426117,1.5111536,1.2741714,0.22554858,1.5350317,-2.757321
0.0,-0.1,1.0,0.0,-0.5235987755982988,0,0.39806563,-0.93653184,-2.628796,0.50036496,-1.0478275,1.5482218,0.4488273,-0.33068246,-0.7426117,1.5111536,1.2741714,0.22554858,1.5350317,-2.757321
0.0,-0.1,1.0,0.0,-0.5235987755982988,0,0.39806563,-0.93653184,-2.628796,0.50036496,-1.0478275,1.5482218,0.4488273,-0.33068246,-0.7426117,1.5111536,1.2741714,0.22554858,1.5350317,-2.757321
0.0,-0.1,1.0,0.0,-0.5235987755982988,0,0.39806563,-0.93653184,-2.628796,0.50036496,-1.0478275,1.5482218,0.4488273,-0.33068246,-0.7426117,1.5111536,1.2741714,0.22554858,1.5350317,-2.757321
0.0,-0.1,1.0,0.0,-0.5235987755982988,0,0.3374232,-0.94132984,-2.6607728,0.48252153,-1.0250353,1.524365,0.5151881,-0.1908861,-0.7511592,1.5109518,1.2773327,0.22936162,1.5335387,-2.2387812
0.0,-0.1,1.0,0.0,-0.5235987755982988,0,0.3374232,-0.94132984,-2.6607728,0.48252153,-1.0250353,1.524365,0.5151881,-0.1908861,-0.7511592,1.5109518,1.2773327,0.22936162,1.5335387,-2.2387812
