sanky1234/BimanualDexCatch/isaacgymenvs/cem_results/May31/football_pose_0.2_0.1_0.8_0.0_0.0_0_2025-05-31.csv
x,y,z,roll,pitch,yaw,robot1/joint1,robot1/joint2,robot1/joint3,robot1/joint4,robot1/joint5,robot1/joint6,robot1/joint7,robot2/joint1,robot2/joint2,robot2/joint3,robot2/joint4,robot2/joint5,robot2/joint6,robot2/joint7
0.2,0.1,0.8,0.0,0.0,0,-0.94141996,1.4390742,-0.5929591,-0.17539786,-0.22993633,1.5109229,0.39603105,1.1208211,0.29440746,0.6529834,1.2010641,-0.29399744,0.23970412,-0.38003525
0.2,0.1,0.8,0.0,0.0,0,-0.9133388,1.3995215,-0.6098549,-0.19136594,-0.18970907,1.5337131,0.30938146,1.1146573,0.31112057,0.57210165,1.1848205,-0.10262138,0.23851521,-0.58813286
0.2,0.1,0.8,0.0,0.0,0,-0.8863535,1.4145626,-0.59764004,-0.1876242,-0.20056053,1.5287777,0.25364643,1.1188316,0.3033218,0.61235833,1.1793089,-0.2724378,0.24516419,-0.44822603
0.2,0.1,0.8,0.0,0.0,0,-0.9086854,1.4140486,-0.6031468,-0.1856054,-0.21116567,1.5330744,0.3351487,1.0906384,0.2849345,0.6146704,1.1927632,-0.20447454,0.20463523,-0.6579522
0.2,0.1,0.8,0.0,0.0,0,-0.9279294,1.4023072,-0.5748654,-0.1567641,-0.22419134,1.5214881,0.31046912,1.1717305,0.3029799,0.56461316,1.2037368,-0.12675777,0.20688786,-0.8174766
0.2,0.1,0.8,0.0,0.0,0,-0.9216298,1.417297,-0.58069384,-0.22001967,-0.20752552,1.533531,0.29891914,1.111907,0.29717982,0.6270016,1.1923167,-0.21857189,0.23105626,-0.77465844
0.2,0.1,0.8,0.0,0.0,0,-0.9106626,1.4431533,-0.602277,-0.22506265,-0.1690509,1.5376997,0.32459423,1.0885894,0.31927356,0.6211417,1.1657884,-0.131509,0.30067414,-0.56160945
0.2,0.1,0.8,0.0,0.0,0,-0.9165967,1.4039131,-0.6005567,-0.24810432,-0.20350537,1.5212094,0.4912849,1.1070961,0.3066905,0.55824727,1.1799467,-0.13062468,0.2274792,-0.64302623
0.2,0.1,0.8,0.0,0.0,0,-0.9140462,1.4432249,-0.59392977,-0.23448662,-0.2183512,1.5497247,0.3380408,1.0776597,0.31792948,0.59703135,1.2095373,-0.10196342,0.21060544,-0.4987615
0.2,0.1,0.8,0.0,0.0,0,-0.922055,1.4283108,-0.6009486,-0.16875993,-0.20407419,1.5249914,0.21845445,1.0850599,0.2606836,0.56588787,1.1930088,-0.27256814,0.22001997,-0.72119385
0.2,0.1,0.8,0.0,0.0,0,-0.923741,1.4287014,-0.59012306,-0.19947545,-0.20152043,1.5511686,0.28209117,1.0993016,0.30229214,0.61283576,1.1790776,-0.14479195,0.22313985,-0.92977667
0.2,0.1,0.8,0.0,0.0,0,-0.92638034,1.4252508,-0.60275227,-0.16223645,-0.2232489,1.5132535,0.26203033,1.0694844,0.26933298,0.593231,1.1842208,-0.2667339,0.19552633,-0.6410524
0.2,0.1,0.8,0.0,0.0,0,-0.9256697,1.4053446,-0.58813584,-0.20099536,-0.22243588,1.5427965,0.35314032,1.0740362,0.2706706,0.60529995,1.1835479,-0.16210683,0.21652216,-0.88118935
0.2,0.1,0.8,0.0,0.0,0,-0.92929816,1.4514959,-0.5791855,-0.17847453,-0.23365854,1.522334,0.2717627,1.1191459,0.2830753,0.5976539,1.21148,-0.2617378,0.18149993,-0.7392421
0.2,0.1,0.8,0.0,0.0,0,-0.91256624,1.429703,-0.58464813,-0.2288776,-0.20830022,1.538521,0.35119453,1.1096162,0.30962598,0.6177856,1.2083308,-0.17558086,0.2160325,-0.67278266
0.2,0.1,0.8,0.0,0.0,0,-0.9031237,1.4317111,-0.57915616,-0.20915233,-0.20444052,1.5372406,0.25762618,1.0593425,0.32017055,0.6025816,1.1819499,-0.22561625,0.2332236,-0.49112922
0.2,0.1,0.8,0.0,0.0,0,-0.92437506,1.4500191,-0.58675283,-0.1848557,-0.20185181,1.5463793,0.40094203,1.0673133,0.29876542,0.5940539,1.189372,-0.10678905,0.20133753,-0.9881754
0.2,0.1,0.8,0.0,0.0,0,-0.8934165,1.4339582,-0.5751128,-0.18471925,-0.18262452,1.5143366,0.35203224,1.0721909,0.33353472,0.5666699,1.1858399,-0.14706047,0.19691014,-0.5640539
0.2,0.1,0.8,0.0,0.0,0,-0.9215883,1.4093535,-0.58999884,-0.22571474,-0.19432457,1.5266802,0.44895452,1.0903757,0.3454689,0.6128912,1.2052183,-0.19714943,0.18409343,-0.5235932
0.2,0.1,0.8,0.0,0.0,0,-0.9191731,1.4317725,-0.6180651,-0.17598231,-0.20742503,1.5289122,0.22048667,1.1228842,0.29613787,0.60157657,1.20854,-0.21057849,0.22225952,-0.79648095
0.2,0.1,0.8,0.0,0.0,0,-0.9129377,1.426324,-0.5990151,-0.24619213,-0.19141571,1.5365851,0.29386786,0.97567946,0.3367813,0.6189888,1.2089005,-0.21145764,0.20029925,-0.52720433
0.2,0.1,0.8,0.0,0.0,0,-0.93323594,1.4255239,-0.5975107,-0.21891327,-0.21621653,1.527348,0.32684308,1.1283619,0.2769678,0.5714081,1.1773887,-0.24093464,0.20866045,-0.98339516
0.2,0.1,0.8,0.0,0.0,0,-0.9071894,1.4411824,-0.5998974,-0.17219684,-0.23490635,1.5392293,0.31152412,1.0696434,0.3276424,0.60911274,1.1681842,-0.23372625,0.22313888,-0.7171772
0.2,0.1,0.8,0.0,0.0,0,-0.91282666,1.4243921,-0.56674504,-0.22889835,-0.22149536,1.5410813,0.32495078,1.0836816,0.33337307,0.6222788,1.1899225,-0.2363995,0.25689438,-0.82822025
0.2,0.1,0.8,0.0,0.0,0,-0.9158494,1.4179524,-0.58601105,-0.20806597,-0.21446587,1.547273,0.23081475,1.0672809,0.3403231,0.5747446,1.1737512,-0.2580256,0.2583601,-0.5633147
0.2,0.1,0.8,0.0,0.0,0,-0.9197937,1.425544,-0.59192365,-0.20927602,-0.2081989,1.5609918,0.17628314,1.1430465,0.27363738,0.63155484,1.1823522,-0.26793826,0.25321716,-0.50901026
0.2,0.1,0.8,0.0,0.0,0,-0.9194118,1.416602,-0.5811619,-0.17862871,-0.20294446,1.551274,0.22991803,1.0562046,0.30928725,0.5997726,1.183941,-0.20609216,0.24818115,-0.4815717
0.2,0.1,0.8,0.0,0.0,0,-0.9221758,1.4058619,-0.58429044,-0.18488577,-0.21617296,1.5267445,0.26689762,1.0755639,0.28773636,0.53242385,1.1855122,-0.1844507,0.2559289,-0.63297164
0.2,0.1,0.8,0.0,0.0,0,-0.9201332,1.4331963,-0.5844984,-0.23090021,-0.17069218,1.5354811,0.30141756,1.0636753,0.3172527,0.65280145,1.1866596,-0.19573449,0.24127932,-0.58611584
0.2,0.1,0.8,0.0,0.0,0,-0.90247416,1.434567,-0.596081,-0.20718442,-0.20472205,1.5289171,0.37460104,1.0846876,0.3256484,0.60057753,1.1976196,-0.12234979,0.23806632,-0.7146849
0.2,0.1,0.8,0.0,0.0,0,-0.9273325,1.4270288,-0.5938814,-0.21347632,-0.18783754,1.5212513,0.31932014,1.1139976,0.29222012,0.5880228,1.2129996,-0.3733006,0.20915958,-1.0251274
0.2,0.1,0.8,0.0,0.0,0,-0.91495943,1.4031099,-0.5816545,-0.21840626,-0.23690079,1.5246584,0.40964928,1.0648804,0.31029564,0.5757026,1.1815099,-0.046371136,0.24784254,-0.9945909
0.2,0.1,0.8,0.0,0.0,0,-0.91958535,1.4211065,-0.57827675,-0.241601,-0.18154924,1.5433317,0.34576938,1.072804,0.3277603,0.5447373,1.1883639,-0.19926317,0.20872788,-0.6595498
0.2,0.1,0.8,0.0,0.0,0,-0.9184962,1.4354078,-0.59230673,-0.17018008,-0.2373082,1.5197037,0.24343188,1.0888131,0.27787068,0.60806686,1.174954,-0.3064084,0.23485604,-0.79529256
0.2,0.1,0.8,0.0,0.0,0,-0.9207447,1.4624469,-0.5837285,-0.19499464,-0.19407393,1.5326194,0.27787906,1.0374157,0.3007482,0.6238733,1.1781992,-0.2475253,0.2255691,-0.5622923
0.2,0.1,0.8,0.0,0.0,0,-0.9296507,1.4180992,-0.58782345,-0.21078514,-0.17383644,1.5346419,0.26955506,1.1113763,0.32615077,0.60717046,1.1898934,-0.26712188,0.21885458,-0.6988851
0.2,0.1,0.8,0.0,0.0,0,-0.939503,1.4359316,-0.5929325,-0.20639388,-0.21368812,1.526648,0.28307927,1.0818679,0.3047033,0.6008874,1.1998979,-0.27456796,0.20235977,-0.94977176
0.2,0.1,0.8,0.0,0.0,0,-0.89939296,1.4145341,-0.6017322,-0.1768059,-0.23540978,1.5501283,0.2549635,1.0960094,0.3056975,0.5969001,1.1845813,-0.24342361,0.20225073,-0.7297522
0.2,0.1,0.8,0.0,0.0,0,-0.89317816,1.4151255,-0.59354764,-0.19239427,-0.18603566,1.5125823,0.3280502,1.0338696,0.32884598,0.6255675,1.1886548,-0.30337626,0.20250398,-0.9098676
0.2,0.1,0.8,0.0,0.0,0,-0.9285965,1.4148031,-0.5676125,-0.21653096,-0.2124543,1.5388945,0.30145967,1.1349872,0.29966643,0.57266575,1.1578088,-0.20903711,0.26430532,-0.73474854
0.2,0.1,0.8,0.0,0.0,0,-0.90010756,1.4483528,-0.58234996,-0.21158396,-0.19391957,1.5401957,0.3287918,1.0531919,0.2894794,0.62136,1.176535,-0.12280481,0.2631012,-0.6759584
0.2,0.1,0.8,0.0,0.0,0,-0.92749465,1.4439409,-0.61173004,-0.22301641,-0.24072166,1.5428298,0.30924222,1.1060307,0.28986686,0.5268055,1.1965481,-0.18795772,0.18893336,-0.87913233
0.2,0.1,0.8,0.0,0.0,0,-0.9063556,1.4202856,-0.5912741,-0.23077308,-0.21296258,1.5385416,0.37003788,1.0591354,0.32352236,0.6137412,1.1740744,-0.19571216,0.26753372,-0.7302453
0.2,0.1,0.8,0.0,0.0,0,-0.92221636,1.4347775,-0.6080173,-0.20787054,-0.21600904,1.5403725,0.3395119,1.081604,0.31364283,0.6314204,1.2063141,-0.14873607,0.21784641,-0.7002792
0.2,0.1,0.8,0.0,0.0,0,-0.9086092,1.449782,-0.6066519,-0.20509647,-0.20378035,1.5357586,0.34816658,1.0349158,0.32357398,0.6364013,1.1874018,-0.2752801,0.19874047,-0.7319275
0.2,0.1,0.8,0.0,0.0,0,-0.933347,1.4366512,-0.5886159,-0.18620843,-0.22963054,1.5191044,0.27311805,1.0934522,0.28414556,0.5666056,1.2121189,-0.17107329,0.17292058,-0.46784166
0.2,0.1,0.8,0.0,0.0,0,-0.94032794,1.4050242,-0.5967732,-0.19862153,-0.21314037,1.53061,0.33612177,1.0594378,0.30071986,0.58132887,1.1376684,-0.2810531,0.23636274,-0.6609362
0.2,0.1,0.8,0.0,0.0,0,-0.92292213,1.4297096,-0.58982134,-0.20749137,-0.2277167,1.5279402,0.3202827,1.0780481,0.27591878,0.6159704,1.1458715,-0.24256016,0.23761418,-0.87954915
0.2,0.1,0.8,0.0,0.0,0,-0.94561934,1.4202836,-0.59105414,-0.23961115,-0.18017587,1.5279397,0.23943369,1.0933064,0.30039328,0.561325,1.1873881,-0.18610927,0.24058446,-0.894153
0.2,0.1,0.8,0.0,0.0,0,-0.93551505,1.4054626,-0.60868734,-0.19528013,-0.18244869,1.5328189,0.23340467,1.0857216,0.31166908,0.6309048,1.2252449,-0.20715258,0.2135651,-0.9422663
0.2,0.1,0.8,0.0,0.0,0,-0.9058467,1.4357497,-0.5897749,-0.21711804,-0.20156278,1.5160949,0.35982826,1.0117161,0.3137416,0.6048571,1.202061,-0.13287021,0.18944995,-0.75620914
0.2,0.1,0.8,0.0,0.0,0,-0.91802096,1.4231147,-0.5683709,-0.19985975,-0.1999171,1.5216436,0.3318778,1.1002587,0.32148892,0.6081388,1.1879641,-0.35473737,0.20022397,-0.7766455
0.2,0.1,0.8,0.0,0.0,0,-0.94232273,1.4173748,-0.57158005,-0.23035142,-0.21890149,1.5405098,0.3291698,1.1363446,0.25927627,0.6035882,1.1936042,-0.25589576,0.24389355,-0.47113627
0.2,0.1,0.8,0.0,0.0,0,-0.9260227,1.4022038,-0.58304745,-0.19925912,-0.22443944,1.5367587,0.27740738,1.0945992,0.32122695,0.6160952,1.1945562,-0.13316007,0.24900308,-0.88816154
0.2,0.1,0.8,0.0,0.0,0,-0.92851603,1.4152846,-0.58553267,-0.18474956,-0.17722887,1.5342066,0.3709121,1.0773478,0.35367465,0.6028818,1.1769615,-0.3394956,0.18350898,-0.77132314
0.2,0.1,0.8,0.0,0.0,0,-0.9481723,1.4221672,-0.60535043,-0.19924805,-0.20596932,1.5344486,0.30529463,1.0742902,0.25384915,0.5886357,1.2202002,-0.17099759,0.22415945,-0.37106955
0.2,0.1,0.8,0.0,0.0,0,-0.9223452,1.4187707,-0.5948512,-0.201458,-0.19553278,1.5283672,0.2548657,1.0475638,0.28848085,0.54960483,1.1841688,-0.18714163,0.25777015,-0.65828925
0.2,0.1,0.8,0.0,0.0,0,-0.9255268,1.4378667,-0.5991116,-0.22874753,-0.21943511,1.5474943,0.30316028,1.0876715,0.27463847,0.58582264,1.1690922,-0.24310894,0.18857826,-0.91756094
0.2,0.1,0.8,0.0,0.0,0,-0.9336696,1.4232776,-0.58910894,-0.17972018,-0.17835869,1.508528,0.33397964,1.1274681,0.30389935,0.57415265,1.195632,-0.27660546,0.21239032,-0.58736354
0.2,0.1,0.8,0.0,0.0,0,-0.919985,1.399135,-0.58271796,-0.2122038,-0.18149784,1.5342535,0.33115008,1.1380284,0.3014337,0.5817982,1.2149681,-0.20941043,0.22382861,-0.69219744
0.2,0.1,0.8,0.0,0.0,0,-0.9330172,1.4125754,-0.59391505,-0.2137728,-0.2141794,1.5493398,0.3056405,1.0950308,0.29260513,0.6382731,1.2092313,-0.20776103,0.22162491,-0.65508527
0.2,0.1,0.8,0.0,0.0,0,-0.90920514,1.4109823,-0.59358364,-0.19596696,-0.2111647,1.5289696,0.30524218,1.0495209,0.2932216,0.5546641,1.191588,-0.08886014,0.20195879,-0.9585622
0.2,0.1,0.8,0.0,0.0,0,-0.89648306,1.4378499,-0.6041676,-0.18473166,-0.23010059,1.543541,0.24688627,1.0584954,0.3140224,0.5866625,1.1979439,-0.28181672,0.18253365,-0.53667533
0.2,0.1,0.8,0.0,0.0,0,-0.93659925,1.4213921,-0.6140126,-0.16898479,-0.19825746,1.5416691,0.31342328,1.1084614,0.2919614,0.5647428,1.1809812,-0.20780633,0.17321658,-0.82080275
0.2,0.1,0.8,0.0,0.0,0,-0.9267024,1.4215269,-0.5856835,-0.19871679,-0.21039613,1.5398091,0.31920403,1.0859376,0.32527167,0.59809256,1.2052851,-0.26979432,0.21025786,-0.737916
0.2,0.1,0.8,0.0,0.0,0,-0.91898704,1.4021544,-0.5782761,-0.20490853,-0.22765553,1.5476279,0.32957104,1.0523195,0.29441255,0.6170959,1.1777525,-0.18559414,0.23998176,-0.4220956
0.2,0.1,0.8,0.0,0.0,0,-0.9432756,1.4277352,-0.5732583,-0.23075093,-0.189353,1.5172368,0.39077485,1.0535473,0.34948593,0.5998556,1.1921511,-0.1424263,0.2146819,-0.7280656
0.2,0.1,0.8,0.0,0.0,0,-0.9042881,1.432578,-0.58316267,-0.21658055,-0.19043729,1.510478,0.3712378,1.0498706,0.35568544,0.5474589,1.192408,-0.17886811,0.21925159,-0.7498136
0.2,0.1,0.8,0.0,0.0,0,-0.90412873,1.429553,-0.5643976,-0.20227446,-0.19051456,1.526126,0.31090838,1.0503563,0.29584426,0.58957154,1.2013668,-0.14944701,0.19364794,-0.8675872
0.2,0.1,0.8,0.0,0.0,0,-0.93954724,1.4125094,-0.5991408,-0.20643647,-0.20379543,1.5309876,0.34432045,1.0843465,0.26270157,0.6053033,1.1758616,-0.22135662,0.26259598,-0.49465105
0.2,0.1,0.8,0.0,0.0,0,-0.9379147,1.4071106,-0.61175764,-0.20774548,-0.19530003,1.5396723,0.30575526,1.0902977,0.299096,0.59417146,1.2056676,-0.29538226,0.1756331,-0.70271385
0.2,0.1,0.8,0.0,0.0,0,-0.9238796,1.4487424,-0.5868328,-0.22290608,-0.21096563,1.5385703,0.31068924,1.0727079,0.2856135,0.5665633,1.2067611,-0.18669915,0.21709117,-0.87529945
0.2,0.1,0.8,0.0,0.0,0,-0.9194031,1.4309324,-0.5972341,-0.18198907,-0.18837734,1.5536505,0.15940979,1.1110954,0.2502096,0.56653714,1.1862974,-0.22222355,0.25949758,-0.7804585
0.2,0.1,0.8,0.0,0.0,0,-0.92206293,1.4027,-0.59852874,-0.19391711,-0.2097589,1.5285968,0.24754962,1.063026,0.285637,0.5779888,1.1919504,-0.19357647,0.2442866,-0.74452454
0.2,0.1,0.8,0.0,0.0,0,-0.92147577,1.432139,-0.57939297,-0.20401986,-0.23414645,1.5381869,0.27524456,1.0695425,0.2521469,0.5618568,1.20852,-0.2588587,0.21377356,-0.65904635
0.2,0.1,0.8,0.0,0.0,0,-0.91775167,1.4593765,-0.5919448,-0.22425133,-0.20169137,1.5567043,0.2939693,1.0588381,0.3374967,0.5448415,1.1882809,-0.1383034,0.2388238,-1.0329846
0.2,0.1,0.8,0.0,0.0,0,-0.9337882,1.4320285,-0.5894476,-0.22407125,-0.1910241,1.5493315,0.30023107,1.0339798,0.28451926,0.60565615,1.1776896,-0.20914382,0.28650206,-0.6219237
0.2,0.1,0.8,0.0,0.0,0,-0.939993,1.4169286,-0.5763076,-0.19335213,-0.22130151,1.5293926,0.29256055,1.1124011,0.31832242,0.5532914,1.17856,-0.24490424,0.20961516,-0.6423723
0.2,0.1,0.8,0.0,0.0,0,-0.9219367,1.4342815,-0.585219,-0.23277465,-0.2208146,1.5527018,0.32828382,1.0208772,0.29936013,0.5985791,1.1859685,-0.19248521,0.22194988,-0.79627526
0.2,0.1,0.8,0.0,0.0,0,-0.92561585,1.4161919,-0.59254134,-0.18567371,-0.2028559,1.5358152,0.20761037,1.0786544,0.27814808,0.5476425,1.1868871,-0.20561244,0.21170752,-0.65039295
0.2,0.1,0.8,0.0,0.0,0,-0.8993685,1.4433149,-0.5831653,-0.20250297,-0.20380072,1.52725,0.26884243,1.0413669,0.28136644,0.56529284,1.1707207,-0.24049917,0.2159817,-0.51562065
0.2,0.1,0.8,0.0,0.0,0,-0.9469817,1.4058622,-0.5806595,-0.19690003,-0.19974837,1.5297662,0.28025287,1.0983338,0.32406583,0.5558449,1.1750772,-0.2301004,0.23398119,-0.3690348
0.2,0.1,0.8,0.0,0.0,0,-0.91686726,1.4407142,-0.5812351,-0.21095079,-0.17518404,1.5255613,0.31445903,1.0612352,0.32866785,0.58613104,1.1763031,-0.19510879,0.22615086,-0.8066146
0.2,0.1,0.8,0.0,0.0,0,-0.92954695,1.4168789,-0.5732343,-0.19415966,-0.22209352,1.5292611,0.27899915,1.1291105,0.27765822,0.5655148,1.1751478,-0.21917517,0.21872416,-0.85146016
0.2,0.1,0.8,0.0,0.0,0,-0.93692553,1.4362487,-0.5977432,-0.20899743,-0.1863562,1.5323436,0.28361574,1.0903716,0.28246883,0.553718,1.1924028,-0.19445698,0.25853872,-0.7535268
0.2,0.1,0.8,0.0,0.0,0,-0.94765925,1.4188906,-0.5925418,-0.21015663,-0.19436696,1.5334711,0.3559,1.1317476,0.31292742,0.5312734,1.1910359,-0.2986671,0.20548189,-0.44292367
0.2,0.1,0.8,0.0,0.0,0,-0.913569,1.4482638,-0.58924127,-0.2227152,-0.21469931,1.5299007,0.28203455,1.0954205,0.29263625,0.58983284,1.2116793,-0.14525941,0.2114863,-0.49417663
0.2,0.1,0.8,0.0,0.0,0,-0.91420466,1.4218282,-0.58423704,-0.23166935,-0.19022506,1.5138144,0.40390235,1.100455,0.341561,0.5504451,1.1836718,-0.31043968,0.19305217,-0.9023266
0.2,0.1,0.8,0.0,0.0,0,-0.91943794,1.4157207,-0.57521564,-0.22500344,-0.1893052,1.5373755,0.31379354,1.1473854,0.2961121,0.5673707,1.2023114,-0.34480688,0.22183983,-0.5570102
0.2,0.1,0.8,0.0,0.0,0,-0.9271263,1.4116341,-0.57614875,-0.22447012,-0.18446626,1.517799,0.36564702,1.1029954,0.30180967,0.58185625,1.1938676,-0.2165503,0.23687313,-0.47404432
0.2,0.1,0.8,0.0,0.0,0,-0.93540555,1.4307857,-0.57308143,-0.23304968,-0.20793287,1.5424486,0.3566889,1.0401549,0.30196315,0.6037125,1.186746,-0.3166082,0.21989219,-0.8078498
0.2,0.1,0.8,0.0,0.0,0,-0.92816234,1.4181254,-0.57663035,-0.20090304,-0.23102348,1.5108576,0.30994627,1.0386081,0.32852504,0.5684281,1.1994468,-0.11086896,0.15600581,-0.97034824
0.2,0.1,0.8,0.0,0.0,0,-0.9011278,1.4273463,-0.58326155,-0.20487712,-0.23844992,1.5219342,0.26342893,1.0676572,0.32571843,0.60203373,1.1890819,-0.27722073,0.20616257,-0.6573445
0.2,0.1,0.8,0.0,0.0,0,-0.9226586,1.4028094,-0.5965449,-0.19404991,-0.21228401,1.5458158,0.39979434,1.103687,0.26763758,0.57074565,1.1630167,-0.14563052,0.21726584,-0.7714337
0.2,0.1,0.8,0.0,0.0,0,-0.9275824,1.4227409,-0.59576464,-0.17860313,-0.2171875,1.5379958,0.30645517,1.0962943,0.26782852,0.5925184,1.1824493,-0.27910286,0.21624346,-0.833198
0.2,0.1,0.8,0.0,0.0,0,-0.91305,1.4234513,-0.5945224,-0.18949996,-0.19779241,1.5267199,0.3996287,1.1451545,0.32315114,0.5754831,1.1566906,-0.3204099,0.25656894,-0.802493
0.2,0.1,0.8,0.0,0.0,0,-0.9166181,1.4378,-0.5809607,-0.22862527,-0.18892466,1.5124595,0.39803693,1.1136035,0.29289722,0.55355895,1.1259921,-0.3442968,0.24611022,-0.8235231
0.2,0.1,0.8,0.0,0.0,0,-0.915625,1.4220585,-0.60073847,-0.19498087,-0.21885337,1.5445496,0.23918153,1.0889843,0.28387016,0.6011025,1.2132804,-0.23368026,0.17328466,-0.5900552
0.2,0.1,0.8,0.0,0.0,0,-0.9345472,1.423371,-0.58248454,-0.26220518,-0.19791754,1.5629305,0.35710603,1.0157497,0.33028346,0.5367833,1.1467673,-0.23845159,0.23659272,-0.42438096
0.2,0.1,0.8,0.0,0.0,0,-0.90805143,1.4193077,-0.6020466,-0.20866716,-0.23578915,1.5428113,0.30682307,1.0687385,0.33789393,0.5595891,1.1856455,-0.18918173,0.20703527,-0.8825969
0.2,0.1,0.8,0.0,0.0,0,-0.951248,1.4026437,-0.5859815,-0.18550484,-0.20069584,1.5266639,0.31218606,1.0963296,0.29735124,0.60216105,1.2019194,-0.24075428,0.22519301,-0.9550664
0.2,0.1,0.8,0.0,0.0,0,-0.9151976,1.4209403,-0.56434417,-0.22403194,-0.21188797,1.5331478,0.30460578,1.0424532,0.28030875,0.5850973,1.1959285,-0.16723278,0.23683803,-0.6943271
0.2,0.1,0.8,0.0,0.0,0,-0.9317892,1.4184722,-0.62778616,-0.22592632,-0.20614551,1.5246227,0.46022394,1.1110655,0.3152898,0.53685033,1.1741047,-0.22772011,0.20779777,-0.73389584
0.2,0.1,0.8,0.0,0.0,0,-0.92594004,1.4304935,-0.5974092,-0.22215612,-0.18945716,1.5222465,0.30482236,1.03312,0.30606028,0.6004117,1.1959106,-0.13719442,0.24085097,-0.74058974
0.2,0.1,0.8,0.0,0.0,0,-0.90006775,1.3996984,-0.5800831,-0.20031548,-0.18715556,1.5271893,0.231796,1.1090703,0.31680104,0.6025057,1.1945627,-0.30028212,0.23244739,-0.804168
0.2,0.1,0.8,0.0,0.0,0,-0.92783177,1.4270953,-0.59933716,-0.20996836,-0.18185087,1.5250041,0.2732357,1.1279293,0.26800656,0.5165555,1.1776879,-0.24141733,0.24215092,-0.8841986
0.2,0.1,0.8,0.0,0.0,0,-0.911907,1.4543945,-0.5845066,-0.20838922,-0.20261829,1.546719,0.29625946,1.1104838,0.32746422,0.5412949,1.1828202,-0.21300271,0.19747573,-0.75948256
0.2,0.1,0.8,0.0,0.0,0,-0.9291199,1.4085145,-0.5797501,-0.22570002,-0.15925889,1.5279337,0.35265023,1.0716107,0.32745197,0.5251993,1.1684728,-0.18058962,0.20798713,-0.65667224
0.2,0.1,0.8,0.0,0.0,0,-0.9141831,1.444707,-0.5776078,-0.19587122,-0.21384133,1.5295309,0.23631495,1.1652309,0.30469614,0.5549251,1.1881567,-0.25605205,0.25336048,-0.6402592
0.2,0.1,0.8,0.0,0.0,0,-0.9321646,1.4383674,-0.592362,-0.24055262,-0.23411234,1.5453773,0.3948759,1.1320707,0.30662632,0.6008586,1.2008989,-0.27642068,0.22786796,-0.6868041
0.2,0.1,0.8,0.0,0.0,0,-0.9369113,1.4005926,-0.5959125,-0.19758558,-0.20310019,1.5116901,0.37179887,1.0881438,0.28082064,0.57862186,1.2075806,-0.17212427,0.21619868,-0.6290791
0.2,0.1,0.8,0.0,0.0,0,-0.9215219,1.4489493,-0.6004039,-0.20016237,-0.16535324,1.5441597,0.24930848,1.0195725,0.27268213,0.5763756,1.185865,-0.23276512,0.24605584,-0.56031173
0.2,0.1,0.8,0.0,0.0,0,-0.9165353,1.4326411,-0.6087119,-0.18378723,-0.2402784,1.5366137,0.23035476,1.084825,0.29131147,0.541733,1.2054858,-0.18199062,0.20566504,-0.8178986
0.2,0.1,0.8,0.0,0.0,0,-0.92395747,1.439888,-0.5952619,-0.2348061,-0.18931653,1.5340194,0.36974484,1.0933568,0.2516674,0.5689052,1.2100626,-0.16759259,0.20106447,-0.9328442
0.2,0.1,0.8,0.0,0.0,0,-0.9086361,1.4720354,-0.5916095,-0.21751715,-0.20157512,1.5292152,0.30233872,1.0276313,0.29241812,0.5835989,1.1889616,-0.2264516,0.2556519,-0.887141
0.2,0.1,0.8,0.0,0.0,0,-0.9316776,1.4320743,-0.5717975,-0.19991343,-0.23139459,1.5288807,0.36440292,1.0628505,0.3053886,0.608348,1.1996926,-0.16647944,0.22957395,-0.6250865
0.2,0.1,0.8,0.0,0.0,0,-0.92013156,1.4225491,-0.5686144,-0.22775733,-0.22199328,1.5509384,0.3125835,1.100238,0.3238661,0.55522233,1.176516,-0.4185504,0.21526365,-0.67804724
0.2,0.1,0.8,0.0,0.0,0,-0.9298063,1.4032332,-0.6041478,-0.20207007,-0.21435255,1.5396825,0.3246232,1.0966189,0.2933461,0.5120324,1.144273,-0.17952512,0.20671,-0.80882424
0.2,0.1,0.8,0.0,0.0,0,-0.91089875,1.404481,-0.572772,-0.21089375,-0.21164721,1.5556829,0.19683437,1.0760608,0.3052499,0.58621186,1.1642609,-0.20454589,0.22202101,-0.9006952
0.2,0.1,0.8,0.0,0.0,0,-0.9238406,1.4229791,-0.5921215,-0.22726005,-0.1982545,1.5490003,0.2979984,1.0833145,0.31291217,0.6010053,1.1857293,-0.27715468,0.23597169,-0.6736273
0.2,0.1,0.8,0.0,0.0,0,-0.90733826,1.433186,-0.6101955,-0.20760877,-0.17068431,1.556714,0.24740946,1.0631357,0.34511346,0.58135974,1.2062562,-0.23485234,0.18786813,-0.70321107
0.2,0.1,0.8,0.0,0.0,0,-0.936344,1.4264677,-0.5930575,-0.20717764,-0.21125855,1.5551653,0.33012247,1.1026707,0.25619328,0.5994395,1.2151319,-0.25770786,0.23197778,-0.6585361
0.2,0.1,0.8,0.0,0.0,0,-0.90813166,1.4294968,-0.5916009,-0.19057985,-0.1784885,1.5033875,0.29964122,1.11406,0.29348165,0.5855937,1.1901312,-0.28936744,0.2380108,-0.5080263
0.2,0.1,0.8,0.0,0.0,0,-0.9218804,1.4349372,-0.59297895,-0.19360027,-0.18416238,1.5270765,0.30761606,1.0744098,0.31358233,0.5534026,1.1776888,-0.12498254,0.20785621,-0.8328118
0.2,0.1,0.8,0.0,0.0,0,-0.9128973,1.4444052,-0.59905136,-0.2083842,-0.22931333,1.536955,0.32258028,1.127011,0.28284404,0.56723005,1.1748141,-0.3178887,0.23485112,-0.8904995
0.2,0.1,0.8,0.0,0.0,0,-0.92892337,1.4489396,-0.58953047,-0.21911034,-0.1731021,1.5357435,0.293231,1.072209,0.30493826,0.6135124,1.2107682,-0.19207095,0.21194437,-0.858572
0.2,0.1,0.8,0.0,0.0,0,-0.9303491,1.430012,-0.58852446,-0.22017814,-0.22508663,1.5515648,0.28842953,1.1328884,0.30379754,0.54633754,1.1939907,-0.35245547,0.20241663,-0.96556586
0.2,0.1,0.8,0.0,0.0,0,-0.93187046,1.4068097,-0.5920158,-0.19481133,-0.19304593,1.5348891,0.26230624,1.0572314,0.30094522,0.5728794,1.1732818,-0.28001204,0.20658554,-0.8908929
0.2,0.1,0.8,0.0,0.0,0,-0.9228994,1.4501106,-0.5964487,-0.23712508,-0.17478941,1.5658755,0.30079466,1.0971451,0.26469466,0.606552,1.2062513,-0.22735995,0.21415533,-0.9043265
0.2,0.1,0.8,0.0,0.0,0,-0.91026145,1.4020867,-0.59262025,-0.18523777,-0.2056759,1.5340066,0.24144672,1.0840538,0.31365058,0.59945846,1.1944296,-0.15260005,0.24172339,-0.7932119
0.2,0.1,0.8,0.0,0.0,0,-0.90687025,1.4624816,-0.60409,-0.20408344,-0.24350488,1.5346673,0.28738317,1.0221155,0.29157764,0.59232175,1.1725949,-0.22490458,0.25316462,-0.68190104
0.2,0.1,0.8,0.0,0.0,0,-0.92559135,1.4264531,-0.5884903,-0.20473489,-0.1895708,1.5220456,0.28485686,1.0765998,0.33202702,0.54751915,1.1884747,-0.2769398,0.20589478,-0.5817626
0.2,0.1,0.8,0.0,0.0,0,-0.9211603,1.4385022,-0.60595876,-0.21063964,-0.15939492,1.5193267,0.33304548,1.026267,0.29362684,0.56042296,1.1946744,-0.16244322,0.21428737,-0.7261032
0.2,0.1,0.8,0.0,0.0,0,-0.9241926,1.4535055,-0.59443456,-0.20999567,-0.19774391,1.5247458,0.34980017,1.0807459,0.27350506,0.5736125,1.2010025,-0.2651305,0.22145785,-0.45877784
0.2,0.1,0.8,0.0,0.0,0,-0.9182518,1.4508379,-0.60106546,-0.19756153,-0.1879379,1.5328789,0.2860081,1.1206083,0.3033178,0.5536355,1.1790817,-0.30829653,0.22629742,-0.6380029
0.2,0.1,0.8,0.0,0.0,0,-0.9234997,1.4350932,-0.5867137,-0.21365225,-0.21406841,1.5291762,0.2947042,1.0525616,0.29574913,0.5645802,1.1916838,-0.2336,0.22643808,-0.59923834
0.2,0.1,0.8,0.0,0.0,0,-0.9117868,1.3949467,-0.58917844,-0.24266419,-0.18931507,1.544078,0.21757327,1.125653,0.2851561,0.5487593,1.1816368,-0.25371087,0.23688811,-0.8271653
0.2,0.1,0.8,0.0,0.0,0,-0.9254009,1.4274676,-0.6091993,-0.21332583,-0.23441988,1.5395561,0.31250787,1.0684154,0.32434526,0.5234354,1.2041091,-0.1808414,0.174609,-0.7049975
0.2,0.1,0.8,0.0,0.0,0,-0.9289829,1.4002529,-0.5922622,-0.1767198,-0.2502724,1.5298038,0.20514265,1.0773463,0.31246355,0.52354217,1.1849817,-0.23709032,0.17299125,-0.5741399
0.2,0.1,0.8,0.0,0.0,0,-0.9134859,1.4272096,-0.5861645,-0.17064165,-0.22479752,1.5310409,0.25892293,1.0380985,0.28900862,0.5673388,1.1876137,-0.2939897,0.24599051,-0.85277814
0.2,0.1,0.8,0.0,0.0,0,-0.92321914,1.442167,-0.5849164,-0.21130495,-0.22451617,1.5282856,0.29519898,1.0536734,0.309744,0.58757496,1.1865865,-0.1697398,0.24342683,-0.6674995
0.2,0.1,0.8,0.0,0.0,0,-0.90098554,1.4390109,-0.58815664,-0.17052673,-0.20318508,1.5111862,0.3176714,1.0315641,0.29446438,0.5882241,1.2164752,-0.16882733,0.17313962,-0.8163116
0.2,0.1,0.8,0.0,0.0,0,-0.9227905,1.440807,-0.5701232,-0.20847674,-0.19101207,1.5388983,0.2749818,1.0229766,0.27445036,0.6136153,1.1809129,-0.23765081,0.23632489,-0.9528482
0.2,0.1,0.8,0.0,0.0,0,-0.9257364,1.4159756,-0.5717919,-0.21606751,-0.21386948,1.5321865,0.32630777,1.0916902,0.2975695,0.55803305,1.2119025,-0.25152406,0.18468271,-0.7419529
0.2,0.1,0.8,0.0,0.0,0,-0.9002985,1.4621135,-0.60960597,-0.20310572,-0.18028305,1.5255852,0.30240336,1.0814598,0.3136466,0.60052645,1.1962938,-0.36866206,0.20780306,-0.5419278
0.2,0.1,0.8,0.0,0.0,0,-0.9213321,1.4176748,-0.59541965,-0.20351054,-0.23431398,1.544241,0.23982835,1.0249825,0.28311715,0.6097877,1.1865215,-0.3165755,0.27137238,-0.7991139
0.2,0.1,0.8,0.0,0.0,0,-0.9129898,1.4249284,-0.57084346,-0.2054715,-0.18773875,1.5462184,0.22748466,0.9925268,0.33841646,0.58003294,1.1825178,-0.12323926,0.24410772,-0.62620145
0.2,0.1,0.8,0.0,0.0,0,-0.92593366,1.418176,-0.5701234,-0.21214554,-0.22512254,1.5229927,0.32415056,1.092396,0.28496525,0.5789847,1.2141308,-0.17790206,0.2039884,-0.8422967
0.2,0.1,0.8,0.0,0.0,0,-0.9202762,1.4147047,-0.59943265,-0.19621123,-0.22132947,1.5301602,0.2516222,1.1118982,0.28904867,0.5826858,1.163771,-0.29747188,0.2686077,-0.5906514
0.2,0.1,0.8,0.0,0.0,0,-0.93813866,1.413452,-0.5813403,-0.23725489,-0.22320542,1.5484529,0.31215596,1.0598747,0.30927637,0.55942035,1.1716892,-0.2408088,0.23201802,-0.8828114
0.2,0.1,0.8,0.0,0.0,0,-0.92163324,1.4238822,-0.5626483,-0.22044565,-0.21497849,1.5261788,0.32128227,1.1265528,0.29060397,0.63473046,1.2071793,-0.23694398,0.23397142,-0.7034968
0.2,0.1,0.8,0.0,0.0,0,-0.9077536,1.4421848,-0.6015251,-0.23185453,-0.19428574,1.5495039,0.31321746,1.0836378,0.356279,0.5677476,1.179882,-0.15091975,0.22635072,-0.52498215
0.2,0.1,0.8,0.0,0.0,0,-0.9235866,1.4264183,-0.5975685,-0.1982151,-0.20499372,1.5534048,0.22339267,1.091627,0.29978555,0.59070677,1.1946354,-0.1968261,0.2064993,-0.59990644
0.2,0.1,0.8,0.0,0.0,0,-0.93727374,1.4199471,-0.5885647,-0.21515863,-0.21490553,1.5297062,0.34678552,1.0650208,0.28215477,0.59817743,1.2107406,-0.28015614,0.22231586,-0.66435957
0.2,0.1,0.8,0.0,0.0,0,-0.9090156,1.4278502,-0.5869368,-0.17508171,-0.18919352,1.5169274,0.31472284,1.086766,0.31087244,0.5648184,1.1753291,-0.22242126,0.2129325,-0.6814072
0.2,0.1,0.8,0.0,0.0,0,-0.92937785,1.4371705,-0.6084678,-0.21840383,-0.18863703,1.5376005,0.35063303,1.0941797,0.3062959,0.57400197,1.1857584,-0.29278308,0.21226485,-0.67516834
0.2,0.1,0.8,0.0,0.0,0,-0.9104143,1.412846,-0.5792667,-0.19189374,-0.2252126,1.5194329,0.25188607,1.0475246,0.31319535,0.5820125,1.1695676,-0.20231079,0.23612036,-1.0141132
0.2,0.1,0.8,0.0,0.0,0,-0.93492717,1.4193056,-0.5978963,-0.20579289,-0.22399206,1.5396657,0.30997843,1.0292617,0.28787825,0.632904,1.194635,-0.2275049,0.21100035,-0.9550707
0.2,0.1,0.8,0.0,0.0,0,-0.91093826,1.4303548,-0.5767623,-0.22073683,-0.21906118,1.5274993,0.35812125,1.0696721,0.2665977,0.60325086,1.1969938,-0.19463761,0.24915646,-0.665649
0.2,0.1,0.8,0.0,0.0,0,-0.9066388,1.4404047,-0.58099884,-0.22181262,-0.19045833,1.5403938,0.32040384,1.1317539,0.2740304,0.55113393,1.1936579,-0.25622237,0.21845077,-0.8129241
0.2,0.1,0.8,0.0,0.0,0,-0.9029442,1.4426626,-0.5910654,-0.21920753,-0.20523141,1.5158464,0.35981143,1.101645,0.32973942,0.569116,1.1413023,-0.34882504,0.25276735,-0.6985747
0.2,0.1,0.8,0.0,0.0,0,-0.8916099,1.4472306,-0.61247253,-0.19571133,-0.24181451,1.5177852,0.30123526,1.089472,0.3324333,0.554593,1.1831076,-0.25660548,0.23496906,-0.7604226
0.2,0.1,0.8,0.0,0.0,0,-0.9099889,1.4259801,-0.5929652,-0.18795918,-0.20150279,1.5372287,0.25811502,1.0455893,0.28448132,0.5592837,1.2096118,-0.19126888,0.2449243,-0.69891953
0.2,0.1,0.8,0.0,0.0,0,-0.9198317,1.4255286,-0.6153328,-0.22235127,-0.17388731,1.5401138,0.2971369,1.0492176,0.25973716,0.56441516,1.1725825,-0.19333309,0.19617584,-0.6599784
0.2,0.1,0.8,0.0,0.0,0,-0.91848093,1.420146,-0.5926364,-0.2134655,-0.1688059,1.5450071,0.27656183,1.1015241,0.30585998,0.5425738,1.2023739,-0.21078585,0.1811836,-0.7185768
0.2,0.1,0.8,0.0,0.0,0,-0.9205476,1.442801,-0.58251524,-0.23603535,-0.20039183,1.5269332,0.3474373,1.1093212,0.3008493,0.5370718,1.1744735,-0.15500449,0.22638215,-0.6196364
0.2,0.1,0.8,0.0,0.0,0,-0.9175211,1.4489661,-0.5921771,-0.20828754,-0.2093373,1.5410733,0.30067945,1.0285454,0.33000594,0.53947014,1.1943932,-0.19346084,0.1857488,-0.8545589
0.2,0.1,0.8,0.0,0.0,0,-0.91011417,1.4243927,-0.606493,-0.23106317,-0.18871142,1.5272181,0.35640052,1.066524,0.31187093,0.56657994,1.1783142,-0.26749027,0.23153909,-0.7321199
0.2,0.1,0.8,0.0,0.0,0,-0.9341122,1.4471347,-0.58218515,-0.21102628,-0.20294799,1.5371141,0.24359113,1.0155869,0.27191746,0.569651,1.1815736,-0.19278063,0.24489272,-0.6305568
0.2,0.1,0.8,0.0,0.0,0,-0.9083878,1.4187365,-0.6027207,-0.19478749,-0.21489193,1.5365525,0.20542559,1.0933111,0.3126582,0.52053934,1.1832496,-0.2860534,0.22556977,-0.4953601
0.2,0.1,0.8,0.0,0.0,0,-0.9055437,1.4476926,-0.6015752,-0.25389197,-0.18032101,1.5389625,0.42064872,1.0927602,0.32019442,0.5316,1.1890483,-0.2693339,0.23898825,-0.70734036
0.2,0.1,0.8,0.0,0.0,0,-0.89659584,1.4395205,-0.5924897,-0.21985538,-0.20530663,1.52767,0.32444373,1.114918,0.3155462,0.5896679,1.18686,-0.21413897,0.24728785,-0.68733555
0.2,0.1,0.8,0.0,0.0,0,-0.9102459,1.433432,-0.5977736,-0.22174345,-0.22070886,1.532217,0.3580516,1.072124,0.30164707,0.57116187,1.1945148,-0.11989277,0.2469298,-0.6123978
0.2,0.1,0.8,0.0,0.0,0,-0.8997511,1.4079278,-0.59194213,-0.17947257,-0.24954264,1.5524465,0.31900755,1.1460551,0.28578272,0.6017483,1.2215172,-0.1715884,0.20761682,-0.9094044
0.2,0.1,0.8,0.0,0.0,0,-0.9106226,1.443293,-0.61595666,-0.19736831,-0.18682651,1.5379936,0.26092273,1.0727901,0.30070966,0.62625295,1.2142849,-0.24626549,0.21735318,-0.45907563
0.2,0.1,0.8,0.0,0.0,0,-0.89776313,1.4418412,-0.59029883,-0.17702211,-0.18464212,1.5289526,0.32584846,1.0866163,0.28701803,0.6328312,1.1990148,-0.19289508,0.26438183,-0.77426106
0.2,0.1,0.8,0.0,0.0,0,-0.938683,1.4409454,-0.59115463,-0.2263492,-0.21488158,1.529754,0.35228002,1.0901865,0.2901429,0.5097644,1.1917318,-0.27801365,0.22927262,-0.570335
0.2,0.1,0.8,0.0,0.0,0,-0.9307408,1.4405981,-0.59255725,-0.22004354,-0.22420043,1.5297792,0.3723516,1.1277717,0.30048338,0.58379,1.2101022,-0.22403072,0.24253987,-0.39213157
0.2,0.1,0.8,0.0,0.0,0,-0.92554796,1.4097986,-0.599561,-0.17277043,-0.21712811,1.5380303,0.112211406,1.1342779,0.28389648,0.6029206,1.1948993,-0.17360717,0.24997938,-0.7704098
0.2,0.1,0.8,0.0,0.0,0,-0.9364309,1.4066662,-0.60287297,-0.18398586,-0.21078818,1.5433964,0.16558248,1.0442653,0.311578,0.64374906,1.1766014,-0.25497326,0.25366983,-0.826622
0.2,0.1,0.8,0.0,0.0,0,-0.8939051,1.4191658,-0.6010127,-0.21062149,-0.18871345,1.5292088,0.3221381,1.108364,0.30627486,0.546759,1.2232498,-0.14159523,0.18439578,-0.4756281
0.2,0.1,0.8,0.0,0.0,0,-0.9161722,1.4269801,-0.5943386,-0.19324425,-0.17459962,1.5275236,0.31361535,1.0272241,0.32373142,0.57890356,1.2172445,-0.100580126,0.20038968,-0.38546407
0.2,0.1,0.8,0.0,0.0,0,-0.90592015,1.453522,-0.59656435,-0.23824015,-0.16920511,1.5373499,0.36528915,1.1303297,0.26410264,0.5727103,1.1888037,-0.22958995,0.20825185,-0.69301474
0.2,0.1,0.8,0.0,0.0,0,-0.903403,1.4295818,-0.5709689,-0.2244863,-0.17952837,1.5345008,0.35145298,1.0464374,0.29217795,0.62251294,1.1779168,-0.32779372,0.25928494,-1.0393499
0.2,0.1,0.8,0.0,0.0,0,-0.93526137,1.4342339,-0.5976633,-0.22145835,-0.24665429,1.5614932,0.3246368,1.0404725,0.28732938,0.57107335,1.1994796,-0.13695379,0.24429028,-1.0608321
0.2,0.1,0.8,0.0,0.0,0,-0.93383926,1.4279125,-0.5777647,-0.22465175,-0.20883627,1.5515066,0.37445238,1.0463854,0.33555403,0.58739215,1.1759037,-0.20456222,0.2000256,-0.71462405
0.2,0.1,0.8,0.0,0.0,0,-0.89032286,1.4605181,-0.5954843,-0.18885748,-0.16654986,1.503495,0.3188944,1.0400857,0.28443548,0.59034324,1.2007179,-0.2793196,0.22421847,-0.7058136
0.2,0.1,0.8,0.0,0.0,0,-0.92235744,1.4290242,-0.58444154,-0.23488049,-0.17193823,1.5404608,0.3150788,1.122346,0.33575478,0.56289625,1.1776446,-0.09791654,0.25640824,-0.5934562
0.2,0.1,0.8,0.0,0.0,0,-0.9244225,1.4372921,-0.5954881,-0.2351768,-0.18771143,1.550439,0.36201742,1.0886929,0.28363764,0.5977188,1.1807827,-0.15480967,0.23068763,-0.64864117
0.2,0.1,0.8,0.0,0.0,0,-0.9239844,1.4130586,-0.6068066,-0.16008066,-0.23354368,1.5445738,0.23003934,1.0378263,0.3207305,0.5741734,1.1941636,-0.17504339,0.19216703,-0.8748652
0.2,0.1,0.8,0.0,0.0,0,-0.91845685,1.3988178,-0.59358215,-0.2026752,-0.22009706,1.5399563,0.30349118,1.038503,0.31126934,0.5634461,1.1841437,-0.1609047,0.24819452,-0.5293901
0.2,0.1,0.8,0.0,0.0,0,-0.90139985,1.4267337,-0.58281785,-0.21689273,-0.19160406,1.5394347,0.28970432,1.070621,0.3053452,0.5891565,1.1920395,-0.23206235,0.25152478,-0.66503
0.2,0.1,0.8,0.0,0.0,0,-0.91561407,1.4289428,-0.56909823,-0.19209577,-0.21098138,1.536969,0.25507355,1.1089165,0.31401175,0.53457946,1.1940873,-0.2122732,0.21169057,-0.49410787
0.2,0.1,0.8,0.0,0.0,0,-0.8973181,1.4328929,-0.5891468,-0.17256413,-0.16120219,1.5351645,0.2174379,1.0945845,0.33209857,0.5836276,1.2005409,-0.19723064,0.24143459,-0.73648715
0.2,0.1,0.8,0.0,0.0,0,-0.9382861,1.424344,-0.6003834,-0.22557552,-0.20066428,1.5203106,0.38911402,1.1241293,0.32872117,0.62366533,1.1989348,-0.23415925,0.22712319,-0.43253013
0.2,0.1,0.8,0.0,0.0,0,-0.9060875,1.4270856,-0.5758094,-0.21614715,-0.18837158,1.531127,0.27413544,1.1511574,0.28210276,0.5895465,1.201237,-0.31777436,0.26071137,-0.7812712
0.2,0.1,0.8,0.0,0.0,0,-0.9419286,1.4190035,-0.577852,-0.22414808,-0.17276835,1.5335537,0.2761436,1.0733063,0.29230437,0.6125283,1.2030638,-0.2602954,0.24447706,-0.74829113
0.2,0.1,0.8,0.0,0.0,0,-0.913421,1.4308243,-0.55745906,-0.21969599,-0.2332443,1.5435771,0.29674813,1.0474873,0.28139785,0.55146915,1.1918333,-0.22757286,0.21816824,-0.84035087
0.2,0.1,0.8,0.0,0.0,0,-0.9161113,1.4193666,-0.58688897,-0.22045083,-0.1826625,1.5312238,0.3337812,1.1404223,0.32874274,0.5607018,1.1979816,-0.30345067,0.22397847,-0.6788246
0.2,0.1,0.8,0.0,0.0,0,-0.90408164,1.4195073,-0.59120786,-0.1857511,-0.22533396,1.5423307,0.26045012,1.0916234,0.27618513,0.5819697,1.191852,-0.08566382,0.24855627,-0.6618473
0.2,0.1,0.8,0.0,0.0,0,-0.9235247,1.3913227,-0.5883125,-0.21162096,-0.1762904,1.5143541,0.4054388,1.1078236,0.3151278,0.6092175,1.1820861,-0.22711785,0.2614383,-0.74450874
0.2,0.1,0.8,0.0,0.0,0,-0.89909315,1.4262612,-0.5990329,-0.22634618,-0.21817122,1.541519,0.39260855,1.0736818,0.32462215,0.5492224,1.1940322,-0.16845338,0.23499501,-0.8485919
0.2,0.1,0.8,0.0,0.0,0,-0.92639095,1.430007,-0.6023678,-0.22297494,-0.18713936,1.5531119,0.286977,1.0879755,0.30037972,0.5455006,1.1791189,-0.060805134,0.24984294,-0.74191225
0.2,0.1,0.8,0.0,0.0,0,-0.928,1.4301795,-0.5832549,-0.21089911,-0.19064777,1.5384971,0.27094728,1.0226483,0.27947077,0.549264,1.1847942,-0.16839384,0.21514419,-0.9835373
0.2,0.1,0.8,0.0,0.0,0,-0.93951684,1.4430593,-0.582776,-0.22036785,-0.21854761,1.5505897,0.2557405,1.0720217,0.26480705,0.54958063,1.172698,-0.30489835,0.22647828,-0.59050345
0.2,0.1,0.8,0.0,0.0,0,-0.9218094,1.431783,-0.58997405,-0.21256593,-0.19596395,1.5229139,0.33012667,1.061673,0.3045591,0.55707157,1.212638,-0.21365865,0.19836842,-0.52243394
0.2,0.1,0.8,0.0,0.0,0,-0.923668,1.4109168,-0.57509726,-0.1643249,-0.20903322,1.5379483,0.2704982,1.1020327,0.31416872,0.6007742,1.1697114,-0.23132992,0.26038808,-0.5632902
0.2,0.1,0.8,0.0,0.0,0,-0.9333671,1.4316065,-0.5901392,-0.20525834,-0.19781718,1.5468814,0.30307192,1.0742724,0.26936385,0.60497904,1.1975393,-0.20020531,0.18238407,-0.88609403
0.2,0.1,0.8,0.0,0.0,0,-0.93248504,1.4267966,-0.61420876,-0.22187263,-0.17753594,1.5252934,0.35701668,1.073156,0.33827895,0.57545394,1.1987691,-0.36789915,0.20898443,-0.7667896
0.2,0.1,0.8,0.0,0.0,0,-0.9103775,1.436378,-0.5820215,-0.23792365,-0.2048,1.5324951,0.4415371,1.0690225,0.30453652,0.6082773,1.2060452,-0.13246344,0.2579577,-0.5417964
0.2,0.1,0.8,0.0,0.0,0,-0.9048919,1.4225295,-0.6005854,-0.19933745,-0.17938618,1.510623,0.30227038,1.0411137,0.32143292,0.55805504,1.1857868,-0.09704724,0.2168541,-0.88690084
0.2,0.1,0.8,0.0,0.0,0,-0.91626143,1.4258918,-0.59871674,-0.19469424,-0.20833196,1.5362087,0.32641107,1.0599544,0.3196042,0.59347844,1.1800052,-0.19121324,0.22075272,-1.0044644
0.2,0.1,0.8,0.0,0.0,0,-0.90399367,1.423677,-0.6010015,-0.15653028,-0.19711478,1.5207057,0.18012251,1.0765843,0.28580022,0.60015315,1.2065805,-0.19531004,0.24274616,-0.7674388
0.2,0.1,0.8,0.0,0.0,0,-0.92585474,1.4392405,-0.5952125,-0.24334003,-0.20064306,1.5316684,0.3963484,1.0678301,0.28225553,0.5690492,1.1835133,-0.2154045,0.18539569,-0.71797127
0.2,0.1,0.8,0.0,0.0,0,-0.9392057,1.4127452,-0.59797627,-0.21200463,-0.20410061,1.5266633,0.34798324,1.059077,0.32980442,0.57034695,1.1764059,-0.23675734,0.22729795,-0.56050456
0.2,0.1,0.8,0.0,0.0,0,-0.9253063,1.4213678,-0.6108117,-0.21326073,-0.19379249,1.5403433,0.28515738,1.1626962,0.28219655,0.5461299,1.1949935,-0.1530514,0.23879477,-0.7419308
0.2,0.1,0.8,0.0,0.0,0,-0.9346855,1.4395003,-0.58429986,-0.20940676,-0.20635119,1.5232718,0.3308656,1.0875555,0.31379357,0.5897849,1.1950269,-0.18335973,0.28665578,-0.520195
0.2,0.1,0.8,0.0,0.0,0,-0.91931754,1.4105417,-0.57970434,-0.23025432,-0.20228298,1.5309796,0.32621095,1.0260862,0.3150225,0.61111265,1.1916533,-0.14628252,0.24261642,-1.1078233
0.2,0.1,0.8,0.0,0.0,0,-0.93244594,1.4410553,-0.59279513,-0.22609386,-0.2067966,1.5446723,0.36839247,1.0780833,0.29448467,0.60497296,1.2042706,-0.08227036,0.21675545,-0.9890427
0.2,0.1,0.8,0.0,0.0,0,-0.9428326,1.4342324,-0.5858094,-0.23972301,-0.20663285,1.5264925,0.37209454,1.115538,0.30608428,0.5970002,1.2072345,-0.35148007,0.22336413,-0.74495834
0.2,0.1,0.8,0.0,0.0,0,-0.9192785,1.3911343,-0.6193278,-0.19754171,-0.21754879,1.5357592,0.34875768,1.0453342,0.3063359,0.6151585,1.1941646,-0.2630441,0.24067909,-0.6596948
0.2,0.1,0.8,0.0,0.0,0,-0.907858,1.4313699,-0.57791543,-0.20560408,-0.22370645,1.5353459,0.2938347,1.1039805,0.28952634,0.58687353,1.2065432,-0.15234193,0.22761102,-0.7101611
0.2,0.1,0.8,0.0,0.0,0,-0.9204233,1.4401796,-0.59424853,-0.2171469,-0.1921616,1.5180743,0.29700196,1.0518847,0.3106965,0.5959513,1.1715249,-0.11045883,0.28445843,-0.634644
0.2,0.1,0.8,0.0,0.0,0,-0.9260415,1.413953,-0.56658125,-0.17946403,-0.21701178,1.5130584,0.29444864,1.0854645,0.30161884,0.6222762,1.2197709,-0.24164465,0.22455955,-0.95535934
0.2,0.1,0.8,0.0,0.0,0,-0.9101539,1.4305931,-0.59943956,-0.20234616,-0.17136216,1.5501826,0.2593595,1.1111972,0.2776845,0.5447226,1.1685659,-0.30114394,0.26352495,-0.489666
0.2,0.1,0.8,0.0,0.0,0,-0.93002015,1.4438994,-0.588209,-0.22050703,-0.18466915,1.5182801,0.36805367,1.0822045,0.289618,0.5723609,1.1985401,-0.22920491,0.19053766,-1.0206687
0.2,0.1,0.8,0.0,0.0,0,-0.9219305,1.4306834,-0.5856524,-0.20747435,-0.21149333,1.5231516,0.3187097,1.0722697,0.3010146,0.5836716,1.198011,-0.1937039,0.23530978,-0.4706069
0.2,0.1,0.8,0.0,0.0,0,-0.93383,1.4406341,-0.60229844,-0.22076307,-0.19777976,1.5382942,0.33184963,1.1382264,0.30609033,0.54899734,1.1874479,-0.1674296,0.2598784,-0.44778562
0.2,0.1,0.8,0.0,0.0,0,-0.91979474,1.4244162,-0.5887967,-0.17889898,-0.20156373,1.5391906,0.24336697,1.110868,0.29154575,0.5796328,1.1828995,-0.3147836,0.20418607,-0.74939054
0.2,0.1,0.8,0.0,0.0,0,-0.9314034,1.4363998,-0.584877,-0.21731442,-0.21704216,1.5424757,0.32084686,1.1104039,0.30684474,0.56714195,1.1859834,-0.23342943,0.24352227,-0.48241425
0.2,0.1,0.8,0.0,0.0,0,-0.9173625,1.43152,-0.5974728,-0.19611716,-0.1909138,1.5429717,0.30424002,1.0868073,0.3234385,0.5960077,1.1547037,-0.33581647,0.24376725,-0.7212171
0.2,0.1,0.8,0.0,0.0,0,-0.9123336,1.4376057,-0.601294,-0.21444225,-0.20494483,1.5474188,0.2992345,1.100396,0.3381917,0.59998226,1.2021662,-0.28768933,0.20867759,-0.44757974
0.2,0.1,0.8,0.0,0.0,0,-0.9087641,1.4256853,-0.59741104,-0.2246674,-0.18372707,1.5548006,0.2985208,1.1085601,0.3011645,0.6144543,1.1841944,-0.22854638,0.26473397,-1.053158
0.2,0.1,0.8,0.0,0.0,0,-0.8835182,1.4304897,-0.5822785,-0.1971504,-0.24174489,1.5376575,0.21838877,1.0568736,0.32165045,0.5895284,1.1637999,-0.27656126,0.23689714,-0.57625073
0.2,0.1,0.8,0.0,0.0,0,-0.90685517,1.4363589,-0.61249846,-0.19032416,-0.21667892,1.5283607,0.26084784,1.0445364,0.32177243,0.5365496,1.2004024,-0.1781609,0.19065456,-0.99767375
0.2,0.1,0.8,0.0,0.0,0,-0.90627074,1.4333277,-0.57262045,-0.20838042,-0.23821083,1.5395921,0.29547757,1.0600071,0.3057563,0.5779327,1.1772,-0.22675496,0.26891688,-0.6232028
0.2,0.1,0.8,0.0,0.0,0,-0.9173727,1.419518,-0.59362555,-0.20893797,-0.22449943,1.5363677,0.25450847,1.0709448,0.29790986,0.57116157,1.1753865,-0.27564135,0.22359896,-0.5524412
0.2,0.1,0.8,0.0,0.0,0,-0.9294773,1.4045916,-0.59531224,-0.1796054,-0.2653706,1.5410146,0.25353438,1.0996748,0.2559962,0.59178907,1.1797122,-0.12481813,0.25529283,-0.7236324
0.2,0.1,0.8,0.0,0.0,0,-0.94059896,1.4285214,-0.59470356,-0.22265412,-0.22795717,1.5592158,0.27161753,1.0545545,0.27353024,0.5943118,1.1751423,-0.3459181,0.23775205,-0.6680705
0.2,0.1,0.8,0.0,0.0,0,-0.9217076,1.4336481,-0.5790689,-0.23011945,-0.18913135,1.5317109,0.3255203,1.0990709,0.29394704,0.5768938,1.1753898,-0.2066586,0.2342235,-0.64111507
0.2,0.1,0.8,0.0,0.0,0,-0.93439734,1.426519,-0.6083635,-0.21907824,-0.20172629,1.5295804,0.28175133,1.1346956,0.308029,0.59021926,1.1789216,-0.2579949,0.27440298,-0.5878427
0.2,0.1,0.8,0.0,0.0,0,-0.90175635,1.415228,-0.611664,-0.1795251,-0.21799755,1.5286169,0.22802134,1.113043,0.2882019,0.59509075,1.1830354,-0.32595313,0.26438358,-0.68630934
0.2,0.1,0.8,0.0,0.0,0,-0.9176288,1.4423867,-0.58670336,-0.19834347,-0.17616954,1.5287248,0.30425632,1.0908751,0.29888895,0.60378194,1.196392,-0.18757561,0.2538087,-0.8067197
0.2,0.1,0.8,0.0,0.0,0,-0.9050296,1.4142358,-0.5908641,-0.1625548,-0.25214717,1.5180588,0.17279167,1.101007,0.30853623,0.5837205,1.1963509,-0.28235632,0.26842955,-0.48997757
0.2,0.1,0.8,0.0,0.0,0,-0.9329162,1.4064279,-0.5840088,-0.20001893,-0.2161939,1.5263634,0.33144638,1.1114974,0.32095537,0.5514091,1.1703317,-0.21134323,0.21218713,-0.8744388
0.2,0.1,0.8,0.0,0.0,0,-0.9140266,1.4222322,-0.6010387,-0.21183072,-0.21940856,1.5215262,0.37302086,1.0296721,0.31318116,0.586697,1.2069197,-0.210508,0.18193442,-0.8841868
0.2,0.1,0.8,0.0,0.0,0,-0.9020578,1.4361379,-0.58604306,-0.20060314,-0.20354854,1.5358487,0.2882058,1.1141831,0.26046512,0.546865,1.1870894,-0.1743024,0.19677262,-0.6734971
0.2,0.1,0.8,0.0,0.0,0,-0.91812795,1.432523,-0.5753836,-0.21391061,-0.22286366,1.5279541,0.2726861,1.0861441,0.28466237,0.5455711,1.1866747,-0.1861644,0.1942181,-0.7257872
0.2,0.1,0.8,0.0,0.0,0,-0.9319833,1.4045614,-0.5845175,-0.18673746,-0.2078331,1.5229481,0.25851935,1.0487834,0.28165147,0.61140805,1.1918976,-0.21987692,0.26518166,-0.76548624
0.2,0.1,0.8,0.0,0.0,0,-0.9368707,1.4232484,-0.5884504,-0.23231582,-0.20441203,1.5140442,0.2654258,1.1860462,0.26271033,0.57592016,1.2148554,-0.17977588,0.17136568,-0.7796318
0.2,0.1,0.8,0.0,0.0,0,-0.9065752,1.4334904,-0.5898834,-0.19240193,-0.19530055,1.5206373,0.2569528,1.0650415,0.3181547,0.5924615,1.1900643,-0.16798292,0.19657925,-0.68962747
0.2,0.1,0.8,0.0,0.0,0,-0.97427756,1.4107243,-0.6064626,-0.18894781,-0.24117583,1.5239117,0.35725582,1.0859715,0.27085906,0.6250853,1.1944839,-0.20863518,0.26915556,-0.73777294
0.2,0.1,0.8,0.0,0.0,0,-0.9105805,1.4232836,-0.5816316,-0.20928018,-0.23309547,1.5462282,0.27913693,1.0624614,0.2967133,0.61047107,1.186369,-0.22272234,0.24796535,-0.5066258
0.2,0.1,0.8,0.0,0.0,0,-0.9167194,1.4142871,-0.573087,-0.22156984,-0.19908153,1.5355629,0.2676563,1.098048,0.34068266,0.54092616,1.1601609,-0.21302345,0.21412858,-0.9275366
0.2,0.1,0.8,0.0,0.0,0,-0.93655854,1.4417521,-0.59251267,-0.20601363,-0.21113268,1.5269063,0.3315453,1.0440172,0.27900112,0.5863318,1.1867112,-0.20922278,0.26705626,-0.39162886
0.2,0.1,0.8,0.0,0.0,0,-0.9264726,1.4248134,-0.60320145,-0.18008338,-0.22280596,1.5227959,0.28044152,1.0241545,0.32029027,0.56413186,1.1956156,-0.15524955,0.20621257,-0.660555
0.2,0.1,0.8,0.0,0.0,0,-0.92965364,1.42979,-0.5969044,-0.18026297,-0.18862623,1.5376002,0.19575682,1.0601254,0.28888243,0.56457156,1.2055414,-0.23470855,0.17240135,-0.8727953
0.2,0.1,0.8,0.0,0.0,0,-0.92965364,1.42979,-0.5969044,-0.18026297,-0.18862623,1.5376002,0.19575682,1.0601254,0.28888243,0.56457156,1.2055414,-0.23470855,0.17240135,-0.8727953
0.2,0.1,0.8,0.0,0.0,0,-0.92965364,1.42979,-0.5969044,-0.18026297,-0.18862623,1.5376002,0.19575682,1.0601254,0.28888243,0.56457156,1.2055414,-0.23470855,0.17240135,-0.8727953
0.2,0.1,0.8,0.0,0.0,0,-0.92965364,1.42979,-0.5969044,-0.18026297,-0.18862623,1.5376002,0.19575682,1.0601254,0.28888243,0.56457156,1.2055414,-0.23470855,0.17240135,-0.8727953
0.2,0.1,0.8,0.0,0.0,0,-0.92965364,1.42979,-0.5969044,-0.18026297,-0.18862623,1.5376002,0.19575682,1.0601254,0.28888243,0.56457156,1.2055414,-0.23470855,0.17240135,-0.8727953
0.2,0.1,0.8,0.0,0.0,0,-0.92965364,1.42979,-0.5969044,-0.18026297,-0.18862623,1.5376002,0.19575682,1.0601254,0.28888243,0.56457156,1.2055414,-0.23470855,0.17240135,-0.8727953
0.2,0.1,0.8,0.0,0.0,0,-0.92965364,1.42979,-0.5969044,-0.18026297,-0.18862623,1.5376002,0.19575682,1.0601254,0.28888243,0.56457156,1.2055414,-0.23470855,0.17240135,-0.8727953
0.2,0.1,0.8,0.0,0.0,0,-0.92965364,1.42979,-0.5969044,-0.18026297,-0.18862623,1.5376002,0.19575682,1.0601254,0.28888243,0.56457156,1.2055414,-0.23470855,0.17240135,-0.8727953
0.2,0.1,0.8,0.0,0.0,0,-0.9296622,1.445535,-0.5963662,-0.15069632,-0.2190207,1.5157106,0.15498932,1.1522644,0.36506185,0.604772,1.223235,-0.068363756,0.23024179,-0.20162714
0.2,0.1,0.8,0.0,0.0,0,-0.9296622,1.445535,-0.5963662,-0.15069632,-0.2190207,1.5157106,0.15498932,1.1522644,0.36506185,0.604772,1.223235,-0.068363756,0.23024179,-0.20162714
0.2,0.1,0.8,0.0,0.0,0,-0.9296622,1.445535,-0.5963662,-0.15069632,-0.2190207,1.5157106,0.15498932,1.1522644,0.36506185,0.604772,1.223235,-0.068363756,0.23024179,-0.20162714
0.2,0.1,0.8,0.0,0.0,0,-0.9296622,1.445535,-0.5963662,-0.15069632,-0.2190207,1.5157106,0.15498932,1.1522644,0.36506185,0.604772,1.223235,-0.068363756,0.23024179,-0.20162714
0.2,0.1,0.8,0.0,0.0,0,-0.9296622,1.445535,-0.5963662,-0.15069632,-0.2190207,1.5157106,0.15498932,1.1522644,0.36506185,0.604772,1.223235,-0.068363756,0.23024179,-0.20162714
0.2,0.1,0.8,0.0,0.0,0,-0.9296622,1.445535,-0.5963662,-0.15069632,-0.2190207,1.5157106,0.15498932,1.1522644,0.36506185,0.604772,1.223235,-0.068363756,0.23024179,-0.20162714
0.2,0.1,0.8,0.0,0.0,0,-0.9296622,1.445535,-0.5963662,-0.15069632,-0.2190207,1.5157106,0.15498932,1.1522644,0.36506185,0.604772,1.223235,-0.068363756,0.23024179,-0.20162714
0.2,0.1,0.8,0.0,0.0,0,-0.9296622,1.445535,-0.5963662,-0.15069632,-0.2190207,1.5157106,0.15498932,1.1522644,0.36506185,0.604772,1.223235,-0.068363756,0.23024179,-0.20162714
0.2,0.1,0.8,0.0,0.0,0,-0.925011,1.4189022,-0.61258894,-0.20833492,-0.21192326,1.5227504,0.31735215,1.0711838,0.2792809,0.50699735,1.2086941,-0.16441977,0.20835154,-0.74870086
0.2,0.1,0.8,0.0,0.0,0,-0.925011,1.4189022,-0.61258894,-0.20833492,-0.21192326,1.5227504,0.31735215,1.0711838,0.2792809,0.50699735,1.2086941,-0.16441977,0.20835154,-0.74870086
0.2,0.1,0.8,0.0,0.0,0,-0.925011,1.4189022,-0.61258894,-0.20833492,-0.21192326,1.5227504,0.31735215,1.0711838,0.2792809,0.50699735,1.2086941,-0.16441977,0.20835154,-0.74870086
0.2,0.1,0.8,0.0,0.0,0,-0.925011,1.4189022,-0.61258894,-0.20833492,-0.21192326,1.5227504,0.31735215,1.0711838,0.2792809,0.50699735,1.2086941,-0.16441977,0.20835154,-0.74870086
0.2,0.1,0.8,0.0,0.0,0,-0.925011,1.4189022,-0.61258894,-0.20833492,-0.21192326,1.5227504,0.31735215,1.0711838,0.2792809,0.50699735,1.2086941,-0.16441977,0.20835154,-0.74870086
0.2,0.1,0.8,0.0,0.0,0,-0.925011,1.4189022,-0.61258894,-0.20833492,-0.21192326,1.5227504,0.31735215,1.0711838,0.2792809,0.50699735,1.2086941,-0.16441977,0.20835154,-0.74870086
0.2,0.1,0.8,0.0,0.0,0,-0.925011,1.4189022,-0.61258894,-0.20833492,-0.21192326,1.5227504,0.31735215,1.0711838,0.2792809,0.50699735,1.2086941,-0.16441977,0.20835154,-0.74870086
0.2,0.1,0.8,0.0,0.0,0,-0.925011,1.4189022,-0.61258894,-0.20833492,-0.21192326,1.5227504,0.31735215,1.0711838,0.2792809,0.50699735,1.2086941,-0.16441977,0.20835154,-0.74870086
0.2,0.1,0.8,0.0,0.0,0,-0.8801504,1.4277115,-0.5809164,-0.16791423,-0.18891995,1.5331675,0.16901693,1.1070043,0.2691581,0.59033334,1.1956717,-0.25974435,0.18775932,-0.84183335
0.2,0.1,0.8,0.0,0.0,0,-0.8801504,1.4277115,-0.5809164,-0.16791423,-0.18891995,1.5331675,0.16901693,1.1070043,0.2691581,0.59033334,1.1956717,-0.25974435,0.18775932,-0.84183335
0.2,0.1,0.8,0.0,0.0,0,-0.8801504,1.4277115,-0.5809164,-0.16791423,-0.18891995,1.5331675,0.16901693,1.1070043,0.2691581,0.59033334,1.1956717,-0.25974435,0.18775932,-0.84183335
0.2,0.1,0.8,0.0,0.0,0,-0.8801504,1.4277115,-0.5809164,-0.16791423,-0.18891995,1.5331675,0.16901693,1.1070043,0.2691581,0.59033334,1.1956717,-0.25974435,0.18775932,-0.84183335
0.2,0.1,0.8,0.0,0.0,0,-0.8801504,1.4277115,-0.5809164,-0.16791423,-0.18891995,1.5331675,0.16901693,1.1070043,0.2691581,0.59033334,1.1956717,-0.25974435,0.18775932,-0.84183335
0.2,0.1,0.8,0.0,0.0,0,-0.8801504,1.4277115,-0.5809164,-0.16791423,-0.18891995,1.5331675,0.16901693,1.1070043,0.2691581,0.59033334,1.1956717,-0.25974435,0.18775932,-0.84183335
0.2,0.1,0.8,0.0,0.0,0,-0.8801504,1.4277115,-0.5809164,-0.16791423,-0.18891995,1.5331675,0.16901693,1.1070043,0.2691581,0.59033334,1.1956717,-0.25974435,0.18775932,-0.84183335
0.2,0.1,0.8,0.0,0.0,0,-0.8801504,1.4277115,-0.5809164,-0.16791423,-0.18891995,1.5331675,0.16901693,1.1070043,0.2691581,0.59033334,1.1956717,-0.25974435,0.18775932,-0.84183335
