sanky1234/BimanualDexCatch/isaacgymenvs/cem_results/May31/football_pose_0.2_0.0_1.5_0.0_0.0_0_2025-06-03.csv
x,y,z,roll,pitch,yaw,robot1/joint1,robot1/joint2,robot1/joint3,robot1/joint4,robot1/joint5,robot1/joint6,robot1/joint7,robot2/joint1,robot2/joint2,robot2/joint3,robot2/joint4,robot2/joint5,robot2/joint6,robot2/joint7
0.2,0.0,1.5,0.0,0.0,0,-0.856765,-1.0735079,-1.163586,-0.38882357,0.6577348,0.9056377,1.0876744,-0.39704815,-1.45596,0.57158744,-1.03685,0.84729695,-0.1359339,1.1956252
0.2,0.0,1.5,0.0,0.0,0,-0.86996734,-1.0736766,-1.1756082,-0.3784613,0.6458064,0.9129586,1.1290646,-0.3983475,-1.451075,0.5600191,-1.0411226,0.8957796,-0.16875517,1.1935441
0.2,0.0,1.5,0.0,0.0,0,-0.86038566,-1.0681169,-1.1697621,-0.3765481,0.6596211,0.91412,1.0874258,-0.39621553,-1.4520453,0.5754606,-1.0362563,0.8833378,-0.1735575,1.2347461
0.2,0.0,1.5,0.0,0.0,0,-0.86931103,-1.0768476,-1.1562343,-0.3778322,0.65062153,0.93708336,1.0677357,-0.3948208,-1.4511192,0.57474494,-1.0348527,0.86172825,-0.18234514,1.2029713
0.2,0.0,1.5,0.0,0.0,0,-0.8694199,-1.0590072,-1.1567543,-0.37886417,0.6446068,0.9211511,1.0349715,-0.39300913,-1.4511899,0.56198114,-1.0364697,0.8600455,-0.15266906,1.2127368
0.2,0.0,1.5,0.0,0.0,0,-0.874433,-1.0793351,-1.1735543,-0.38452974,0.65435123,0.92060316,1.0867705,-0.39838496,-1.4522995,0.56994957,-1.0375918,0.88978696,-0.14451037,1.2147673
0.2,0.0,1.5,0.0,0.0,0,-0.8568923,-1.0850152,-1.1475822,-0.37155038,0.6460832,0.9178628,1.0303262,-0.3961812,-1.4527901,0.56148183,-1.0422186,0.9008719,-0.14524421,1.2089839
0.2,0.0,1.5,0.0,0.0,0,-0.87192327,-1.0820245,-1.1589305,-0.38102278,0.6243273,0.89113617,1.0887346,-0.39867643,-1.4516295,0.5694416,-1.0368434,0.8896302,-0.18203324,1.1989517
0.2,0.0,1.5,0.0,0.0,0,-0.87154627,-1.0875568,-1.1580195,-0.37922123,0.64704454,0.9243352,1.0528585,-0.39859182,-1.4547435,0.55916315,-1.0414875,0.87598056,-0.14934976,1.1875402
0.2,0.0,1.5,0.0,0.0,0,-0.87421274,-1.071047,-1.1667943,-0.36956835,0.6503235,0.9315387,1.0929006,-0.393096,-1.4517356,0.5600806,-1.0406771,0.8654538,-0.16282131,1.1786525
0.2,0.0,1.5,0.0,0.0,0,-0.87014854,-1.074689,-1.1572546,-0.37545225,0.631467,0.9241845,1.0988947,-0.39800057,-1.4530407,0.5775645,-1.0396725,0.8514609,-0.15175427,1.204764
0.2,0.0,1.5,0.0,0.0,0,-0.8851778,-1.0920192,-1.1585089,-0.3750914,0.6561071,0.88456714,1.0789812,-0.39868143,-1.4529866,0.5609918,-1.0365335,0.88456225,-0.17824946,1.2083361
0.2,0.0,1.5,0.0,0.0,0,-0.8554243,-1.0603275,-1.1734347,-0.37630814,0.6427849,0.9278551,1.0760329,-0.39724204,-1.4506916,0.5673605,-1.040127,0.8978915,-0.16121188,1.2118388
0.2,0.0,1.5,0.0,0.0,0,-0.8842026,-1.0602949,-1.1677384,-0.37023324,0.6690202,0.8981248,1.0385311,-0.39872903,-1.4516355,0.5717958,-1.0362448,0.89059854,-0.14577557,1.1949149
0.2,0.0,1.5,0.0,0.0,0,-0.8786105,-1.1043277,-1.1733205,-0.3769022,0.6587525,0.9177996,1.0216194,-0.39977375,-1.4525926,0.5665501,-1.0398239,0.8701228,-0.15858084,1.1909293
0.2,0.0,1.5,0.0,0.0,0,-0.87899053,-1.0791762,-1.1648954,-0.36882526,0.6669624,0.8937955,1.0641509,-0.3982918,-1.4496449,0.56468076,-1.039768,0.8739304,-0.18809138,1.2146345
0.2,0.0,1.5,0.0,0.0,0,-0.862228,-1.0703614,-1.1574274,-0.38289866,0.65279835,0.9037118,1.0925517,-0.3971976,-1.4510617,0.5490771,-1.0365148,0.8820184,-0.17541689,1.1939782
0.2,0.0,1.5,0.0,0.0,0,-0.86181504,-1.0720639,-1.1597149,-0.3671125,0.66425884,0.92281604,1.0417219,-0.39010286,-1.445942,0.5667265,-1.0404451,0.83659863,-0.1754718,1.202468
0.2,0.0,1.5,0.0,0.0,0,-0.8713063,-1.0674502,-1.1576701,-0.37338188,0.63703734,0.89739734,1.0571852,-0.39452127,-1.4519023,0.5591766,-1.0354544,0.9345368,-0.15942922,1.2125992
0.2,0.0,1.5,0.0,0.0,0,-0.86745536,-1.093392,-1.1595637,-0.36559853,0.6573048,0.9414314,1.0354601,-0.39833924,-1.4509643,0.57390505,-1.0420985,0.8915979,-0.1398431,1.2145251
0.2,0.0,1.5,0.0,0.0,0,-0.8888684,-1.0595345,-1.1627935,-0.3824062,0.6250566,0.91037816,1.1092755,-0.39170024,-1.4521295,0.5702622,-1.039339,0.8636964,-0.13436775,1.2021403
0.2,0.0,1.5,0.0,0.0,0,-0.8859539,-1.0899608,-1.1678604,-0.3764413,0.6521616,0.9169475,1.0794476,-0.3922896,-1.4521179,0.56067,-1.0387989,0.8933147,-0.19415326,1.191977
0.2,0.0,1.5,0.0,0.0,0,-0.8707651,-1.0622362,-1.1494118,-0.37104517,0.6324283,0.90191156,1.0080035,-0.40000907,-1.4548318,0.5655328,-1.034954,0.8970227,-0.14019403,1.2189442
0.2,0.0,1.5,0.0,0.0,0,-0.8721334,-1.0861875,-1.1671637,-0.3504104,0.65034556,0.8914786,1.1143293,-0.40366498,-1.4490523,0.5664341,-1.0403577,0.88817286,-0.15840009,1.2195643
0.2,0.0,1.5,0.0,0.0,0,-0.87830436,-1.0389974,-1.154828,-0.37560728,0.6395009,0.9108513,1.0224713,-0.39985114,-1.4520768,0.55497503,-1.0453122,0.8627111,-0.17409207,1.1969764
0.2,0.0,1.5,0.0,0.0,0,-0.8584796,-1.0812593,-1.1643786,-0.3698162,0.6192495,0.95166254,1.0754571,-0.395141,-1.4522102,0.5649739,-1.0409344,0.8673553,-0.18060952,1.2142092
0.2,0.0,1.5,0.0,0.0,0,-0.8764849,-1.0530674,-1.1762726,-0.36916777,0.6398735,0.9087896,1.1033016,-0.39551136,-1.4530442,0.5743468,-1.0349433,0.8802058,-0.16521963,1.1968352
0.2,0.0,1.5,0.0,0.0,0,-0.88449013,-1.0886822,-1.1689861,-0.37161836,0.63916945,0.9105979,1.0750103,-0.3953191,-1.4506897,0.5562544,-1.0392492,0.91741633,-0.16295005,1.2041848
0.2,0.0,1.5,0.0,0.0,0,-0.864132,-1.077174,-1.1555957,-0.37789735,0.6292085,0.92022234,1.072507,-0.3981115,-1.4510517,0.56873214,-1.037613,0.883655,-0.13728976,1.2030983
0.2,0.0,1.5,0.0,0.0,0,-0.86772156,-1.0821589,-1.1653751,-0.3657906,0.64429325,0.9344069,1.0432044,-0.39410707,-1.4526521,0.56739116,-1.0372815,0.92034817,-0.16110824,1.1921608
0.2,0.0,1.5,0.0,0.0,0,-0.88152015,-1.0668801,-1.1569406,-0.38284767,0.6417911,0.89451486,1.0682193,-0.40223178,-1.451835,0.55716944,-1.0405161,0.8733036,-0.14525262,1.2111169
0.2,0.0,1.5,0.0,0.0,0,-0.8564516,-1.0529747,-1.170862,-0.3721768,0.63481444,0.9305905,1.059616,-0.39494044,-1.4525447,0.55810165,-1.0384039,0.9016468,-0.14908801,1.2170118
0.2,0.0,1.5,0.0,0.0,0,-0.87604356,-1.063048,-1.1637229,-0.38381624,0.6444976,0.92444,1.061145,-0.39182964,-1.456421,0.5679658,-1.0413738,0.8550551,-0.14641377,1.1998583
0.2,0.0,1.5,0.0,0.0,0,-0.90000564,-1.072963,-1.165411,-0.37029764,0.66322625,0.9327154,1.0511448,-0.39616928,-1.4550989,0.5620669,-1.0397024,0.88058233,-0.16641364,1.2097683
0.2,0.0,1.5,0.0,0.0,0,-0.8732842,-1.0808003,-1.1618141,-0.3811414,0.6416343,0.9278172,1.0513593,-0.3947117,-1.4504476,0.58043814,-1.0403503,0.87158525,-0.15376176,1.1737598
0.2,0.0,1.5,0.0,0.0,0,-0.862713,-1.0767412,-1.1665195,-0.37922633,0.63496804,0.9221395,1.1028324,-0.3924669,-1.4501177,0.5622352,-1.0401647,0.87869126,-0.17308976,1.1996613
0.2,0.0,1.5,0.0,0.0,0,-0.8684411,-1.0857264,-1.1663387,-0.37965637,0.6395433,0.94741726,1.0266699,-0.39468628,-1.4531327,0.55549717,-1.0426341,0.89728814,-0.17591141,1.2148604
0.2,0.0,1.5,0.0,0.0,0,-0.878082,-1.0794749,-1.158241,-0.37336162,0.6440899,0.9379197,1.0665927,-0.40001303,-1.4514204,0.56748396,-1.0371016,0.8751844,-0.15780178,1.1859503
0.2,0.0,1.5,0.0,0.0,0,-0.85061526,-1.1013769,-1.167346,-0.37991285,0.6503794,0.94184726,1.0913243,-0.39932758,-1.4517171,0.56063336,-1.0363834,0.86339366,-0.15852241,1.211718
0.2,0.0,1.5,0.0,0.0,0,-0.8651377,-1.0618432,-1.1668342,-0.37573895,0.656242,0.934458,1.0833912,-0.39942375,-1.4485208,0.55041766,-1.0392772,0.89307064,-0.16499367,1.204691
0.2,0.0,1.5,0.0,0.0,0,-0.88319504,-1.0744169,-1.1763558,-0.38177365,0.6399378,0.9173718,1.0144312,-0.39955193,-1.4510343,0.54559135,-1.0443771,0.8871187,-0.18280956,1.1938539
0.2,0.0,1.5,0.0,0.0,0,-0.8627634,-1.0554447,-1.1535876,-0.36910304,0.6572255,0.9113766,1.0183787,-0.39667484,-1.4509269,0.5660467,-1.0395826,0.90180916,-0.14328721,1.1809084
0.2,0.0,1.5,0.0,0.0,0,-0.88613224,-1.0861205,-1.1546504,-0.37778267,0.6349731,0.92240536,1.0532818,-0.3976329,-1.4508975,0.5685113,-1.0374359,0.88963413,-0.17860183,1.1999984
0.2,0.0,1.5,0.0,0.0,0,-0.88937646,-1.050309,-1.1722711,-0.37825564,0.6550225,0.9035864,1.091108,-0.3975234,-1.4483745,0.56685215,-1.0402814,0.88473105,-0.15488477,1.2137202
0.2,0.0,1.5,0.0,0.0,0,-0.8737382,-1.0827904,-1.1649028,-0.3647317,0.6530793,0.9128814,1.0746812,-0.40187633,-1.4520793,0.5746161,-1.0394748,0.8688235,-0.14363281,1.1897066
0.2,0.0,1.5,0.0,0.0,0,-0.885627,-1.0578998,-1.1648299,-0.37121066,0.6445496,0.929447,1.0657051,-0.39713034,-1.452967,0.56518734,-1.0370648,0.8826597,-0.12284709,1.227161
0.2,0.0,1.5,0.0,0.0,0,-0.87398493,-1.0617878,-1.1581919,-0.37654006,0.64006853,0.91480154,1.0390369,-0.39773166,-1.4519906,0.5595335,-1.0414091,0.8668738,-0.1425422,1.226266
0.2,0.0,1.5,0.0,0.0,0,-0.8853673,-1.114268,-1.1614144,-0.3792874,0.63334024,0.9170255,1.0569315,-0.3942567,-1.4538231,0.5771534,-1.0392324,0.88325083,-0.16794547,1.1997021
0.2,0.0,1.5,0.0,0.0,0,-0.88797,-1.0702145,-1.1582876,-0.39039236,0.61691797,0.910569,1.0658655,-0.39445212,-1.4510345,0.5707303,-1.0386351,0.87025195,-0.16237704,1.2099566
0.2,0.0,1.5,0.0,0.0,0,-0.8608133,-1.0966008,-1.1565977,-0.36943614,0.6487162,0.93624395,1.0615277,-0.39426553,-1.4495958,0.5631922,-1.0370495,0.86410296,-0.1469637,1.2092029
0.2,0.0,1.5,0.0,0.0,0,-0.881118,-1.0921024,-1.1725426,-0.38307828,0.63374066,0.94020647,1.0573158,-0.40062833,-1.4545672,0.57956016,-1.0373397,0.9062652,-0.13509637,1.2193449
0.2,0.0,1.5,0.0,0.0,0,-0.87562835,-1.0652783,-1.1519946,-0.37888202,0.6426388,0.9100326,1.045019,-0.39219865,-1.4512852,0.56579053,-1.0411073,0.8852592,-0.16143242,1.1725584
0.2,0.0,1.5,0.0,0.0,0,-0.8750257,-1.088913,-1.1565868,-0.3786187,0.64861846,0.91433346,1.0527502,-0.39459154,-1.4519447,0.56019545,-1.0434992,0.87327605,-0.15331188,1.2098722
0.2,0.0,1.5,0.0,0.0,0,-0.85145617,-1.0764579,-1.162159,-0.37758014,0.6422694,0.9229061,1.0335455,-0.3980692,-1.4535048,0.5717463,-1.040555,0.8907176,-0.15094577,1.1992573
0.2,0.0,1.5,0.0,0.0,0,-0.8919148,-1.0548656,-1.1610137,-0.36694562,0.63628983,0.891397,1.0418929,-0.40353948,-1.4504085,0.56549144,-1.0452243,0.88260466,-0.14167686,1.2034643
0.2,0.0,1.5,0.0,0.0,0,-0.87250364,-1.092634,-1.1683804,-0.37912422,0.6282643,0.9342996,1.104929,-0.39400294,-1.4526888,0.5567559,-1.0399994,0.87570816,-0.1572697,1.1837518
0.2,0.0,1.5,0.0,0.0,0,-0.85901797,-1.0834391,-1.1564164,-0.37517032,0.6649111,0.91577286,1.0153579,-0.40008962,-1.4510673,0.5697639,-1.0417229,0.88548,-0.16531171,1.1982982
0.2,0.0,1.5,0.0,0.0,0,-0.8805886,-1.0762827,-1.1604478,-0.3808187,0.6366377,0.91441464,1.1087052,-0.39489502,-1.4503219,0.56675524,-1.0421835,0.9032111,-0.11890469,1.1927187
0.2,0.0,1.5,0.0,0.0,0,-0.881057,-1.0745819,-1.1744632,-0.36775684,0.6499065,0.94655037,1.0676972,-0.39662057,-1.4502318,0.5672688,-1.0379671,0.8846351,-0.13211653,1.2197319
0.2,0.0,1.5,0.0,0.0,0,-0.86536175,-1.0848793,-1.1686448,-0.3670682,0.65624404,0.929752,1.1041662,-0.40010753,-1.4522692,0.579079,-1.0342063,0.8757739,-0.18059726,1.224007
0.2,0.0,1.5,0.0,0.0,0,-0.8659829,-1.0838453,-1.1656728,-0.38119695,0.6487327,0.9012357,1.0805289,-0.40001532,-1.453457,0.55002207,-1.041713,0.90025586,-0.15842004,1.2086465
0.2,0.0,1.5,0.0,0.0,0,-0.89634556,-1.0530387,-1.1625928,-0.34979582,0.6481046,0.903174,1.0697825,-0.39730462,-1.4528064,0.56826705,-1.0399663,0.87953794,-0.13328126,1.2102748
0.2,0.0,1.5,0.0,0.0,0,-0.89947444,-1.0797077,-1.1746395,-0.37137523,0.6202336,0.9462333,1.0674553,-0.3947485,-1.4538431,0.55945665,-1.0334911,0.8707148,-0.16636018,1.1908982
0.2,0.0,1.5,0.0,0.0,0,-0.8765152,-1.0996773,-1.1547285,-0.36151165,0.6502875,0.9289854,1.0727828,-0.39201078,-1.451098,0.56446755,-1.0404603,0.8629209,-0.14877352,1.1874429
0.2,0.0,1.5,0.0,0.0,0,-0.8724118,-1.0766284,-1.1605506,-0.37971202,0.6511091,0.9192557,1.0416641,-0.39209983,-1.4528036,0.56647485,-1.041008,0.8560027,-0.13909979,1.1932921
0.2,0.0,1.5,0.0,0.0,0,-0.86430174,-1.0739244,-1.1576262,-0.36987385,0.64037704,0.9037698,1.0923144,-0.39390925,-1.4511889,0.5600812,-1.0350147,0.88123876,-0.14646499,1.2156533
0.2,0.0,1.5,0.0,0.0,0,-0.8881744,-1.0928383,-1.1717992,-0.36038122,0.6408886,0.9272748,1.056773,-0.39791507,-1.4535576,0.5558885,-1.0381478,0.8695342,-0.17773096,1.2026936
0.2,0.0,1.5,0.0,0.0,0,-0.8899484,-1.0581716,-1.1781294,-0.3814698,0.63615143,0.9064256,1.1174113,-0.39343354,-1.4507027,0.56087804,-1.0354475,0.84864134,-0.14280048,1.2208803
0.2,0.0,1.5,0.0,0.0,0,-0.8558481,-1.0636228,-1.1683493,-0.375028,0.6600308,0.9205975,1.0798188,-0.39868736,-1.4506968,0.5643808,-1.0439266,0.86832273,-0.15369056,1.1938733
0.2,0.0,1.5,0.0,0.0,0,-0.89272803,-1.0584891,-1.1686906,-0.36257118,0.65037227,0.88588184,1.0275873,-0.3951136,-1.4511694,0.5687598,-1.0414361,0.8663011,-0.16158953,1.2030163
0.2,0.0,1.5,0.0,0.0,0,-0.8685378,-1.0861673,-1.1564527,-0.37691164,0.6335607,0.9220363,1.0641193,-0.3955351,-1.4516743,0.57478034,-1.0352228,0.90319467,-0.16351767,1.2015245
0.2,0.0,1.5,0.0,0.0,0,-0.86235696,-1.0434729,-1.164224,-0.39517957,0.65379715,0.9193989,1.0351812,-0.39517578,-1.4505844,0.54661155,-1.0351838,0.91458327,-0.14065118,1.1975818
0.2,0.0,1.5,0.0,0.0,0,-0.86706334,-1.0652515,-1.1475286,-0.3802162,0.6406667,0.88988084,1.0450684,-0.39649782,-1.4518716,0.553474,-1.0397168,0.88585746,-0.141682,1.2085329
0.2,0.0,1.5,0.0,0.0,0,-0.872692,-1.083969,-1.176786,-0.37787223,0.65280014,0.9325084,1.0775039,-0.40491736,-1.4523652,0.5628806,-1.0419093,0.8717683,-0.14637445,1.1982646
0.2,0.0,1.5,0.0,0.0,0,-0.87535584,-1.089728,-1.1706402,-0.37863797,0.64193106,0.93853205,1.057229,-0.39615348,-1.4538221,0.5765111,-1.0361259,0.87211883,-0.14622447,1.202616
0.2,0.0,1.5,0.0,0.0,0,-0.8574571,-1.0812639,-1.1747715,-0.3772449,0.65257156,0.89335495,1.102643,-0.39649284,-1.4519657,0.5761339,-1.0337995,0.88237953,-0.15201598,1.2168633
0.2,0.0,1.5,0.0,0.0,0,-0.85071665,-1.0667591,-1.1729409,-0.36595944,0.65597886,0.9027437,1.0578068,-0.39755177,-1.4510273,0.5876173,-1.0389293,0.8846767,-0.1519991,1.2191509
0.2,0.0,1.5,0.0,0.0,0,-0.87483215,-1.0824617,-1.1529299,-0.38596568,0.6258374,0.86409366,1.0692339,-0.39450628,-1.450869,0.563242,-1.0407796,0.8597899,-0.15040219,1.2188095
0.2,0.0,1.5,0.0,0.0,0,-0.86354053,-1.064566,-1.1626244,-0.37116393,0.64386255,0.92462033,1.0697275,-0.39320618,-1.4506531,0.57169193,-1.037465,0.9055021,-0.14400052,1.191735
0.2,0.0,1.5,0.0,0.0,0,-0.8908188,-1.0819429,-1.163248,-0.37194863,0.63852996,0.9091275,1.0438294,-0.3947249,-1.451818,0.5647129,-1.037167,0.9203367,-0.18230471,1.2165533
0.2,0.0,1.5,0.0,0.0,0,-0.8840424,-1.1077404,-1.1689816,-0.37153935,0.64423335,0.9311209,1.0874206,-0.39571416,-1.4547647,0.5629121,-1.0393119,0.87274075,-0.16852938,1.1944852
0.2,0.0,1.5,0.0,0.0,0,-0.8693459,-1.0876967,-1.1586186,-0.36260518,0.62524486,0.9311831,1.0768121,-0.39850822,-1.4511105,0.5630577,-1.0393676,0.8447611,-0.1674279,1.207634
0.2,0.0,1.5,0.0,0.0,0,-0.87820864,-1.0766513,-1.1762062,-0.37302965,0.6588428,0.9160892,1.1248887,-0.3974769,-1.4513404,0.5599667,-1.0365236,0.8686179,-0.15998176,1.2019964
0.2,0.0,1.5,0.0,0.0,0,-0.876333,-1.0692722,-1.1834098,-0.3914583,0.62833256,0.9401763,1.085478,-0.39431453,-1.4543047,0.5670188,-1.0385901,0.8715136,-0.12635711,1.2227993
0.2,0.0,1.5,0.0,0.0,0,-0.8817152,-1.0554289,-1.177246,-0.37068594,0.6465488,0.9214459,1.0780932,-0.39817318,-1.4521273,0.5730131,-1.035914,0.8748418,-0.15369098,1.2130514
0.2,0.0,1.5,0.0,0.0,0,-0.876635,-1.0604602,-1.1529272,-0.37343138,0.6324301,0.9471826,1.0845536,-0.39759767,-1.4480455,0.5772639,-1.0432767,0.8654943,-0.17797844,1.2149271
0.2,0.0,1.5,0.0,0.0,0,-0.8798049,-1.0891919,-1.1690079,-0.3691619,0.6274317,0.9196913,1.081706,-0.3975871,-1.4533374,0.56766784,-1.0346943,0.90268326,-0.16865638,1.2232871
0.2,0.0,1.5,0.0,0.0,0,-0.86302024,-1.0677913,-1.157233,-0.37111527,0.6406564,0.922575,1.0837952,-0.3909677,-1.4519378,0.56520754,-1.0350428,0.8678998,-0.15502134,1.223419
0.2,0.0,1.5,0.0,0.0,0,-0.88163006,-1.101703,-1.1785698,-0.38933703,0.6434415,0.909686,1.0268037,-0.39592814,-1.4539785,0.55645245,-1.0420862,0.8942824,-0.16886045,1.1964849
0.2,0.0,1.5,0.0,0.0,0,-0.86850804,-1.0965778,-1.1669995,-0.36530122,0.6594578,0.90952444,1.0246187,-0.39461607,-1.4517151,0.5695168,-1.0392742,0.8926199,-0.17085224,1.2036269
0.2,0.0,1.5,0.0,0.0,0,-0.8696347,-1.088391,-1.1657823,-0.381317,0.6450449,0.91355056,1.0830415,-0.3998279,-1.4528853,0.5667213,-1.0381649,0.8844824,-0.16973808,1.1855552
0.2,0.0,1.5,0.0,0.0,0,-0.8544066,-1.1052331,-1.1493132,-0.375259,0.62045527,0.9097255,1.073755,-0.39229092,-1.4498222,0.56676,-1.043244,0.891738,-0.15147492,1.2295382
0.2,0.0,1.5,0.0,0.0,0,-0.8731489,-1.0582666,-1.1677188,-0.3619191,0.626494,0.91868013,1.0538298,-0.3975603,-1.4498737,0.5680519,-1.0378726,0.884355,-0.17753518,1.2139161
0.2,0.0,1.5,0.0,0.0,0,-0.87940884,-1.0748135,-1.1685759,-0.38125095,0.6408023,0.92593455,1.0862315,-0.3932479,-1.4510272,0.564926,-1.0377189,0.88948256,-0.14858748,1.2076753
0.2,0.0,1.5,0.0,0.0,0,-0.8659828,-1.073487,-1.162146,-0.3727897,0.65436906,0.915896,1.0079954,-0.39496022,-1.4495733,0.56680983,-1.0354578,0.8789719,-0.17868592,1.2223704
0.2,0.0,1.5,0.0,0.0,0,-0.8645517,-1.0651214,-1.1607287,-0.38904053,0.65050846,0.9012166,1.0654644,-0.40015262,-1.4509009,0.56052184,-1.0413074,0.90531737,-0.145108,1.201091
0.2,0.0,1.5,0.0,0.0,0,-0.8439537,-1.0812995,-1.1551405,-0.38054806,0.6488715,0.9292119,1.0521944,-0.3980616,-1.4498332,0.5720984,-1.038891,0.88180906,-0.15669365,1.190239
0.2,0.0,1.5,0.0,0.0,0,-0.8776793,-1.0598058,-1.1698289,-0.37099886,0.64630824,0.9290676,1.0420575,-0.39841348,-1.4515812,0.5610665,-1.038895,0.8764748,-0.17790732,1.2111887
0.2,0.0,1.5,0.0,0.0,0,-0.8758874,-1.084618,-1.1687104,-0.38637215,0.65309805,0.90718484,1.0538117,-0.39187914,-1.454252,0.56600523,-1.0408828,0.86795324,-0.18061674,1.1965116
0.2,0.0,1.5,0.0,0.0,0,-0.87461317,-1.064668,-1.1639479,-0.37898996,0.6369914,0.8866774,1.1314324,-0.40290663,-1.4490582,0.5573527,-1.0407078,0.8786726,-0.17009243,1.194873
0.2,0.0,1.5,0.0,0.0,0,-0.8675535,-1.0911062,-1.163605,-0.37185028,0.64657676,0.90630484,1.1079283,-0.40347728,-1.4500781,0.59226036,-1.03779,0.8952139,-0.16451745,1.2008864
0.2,0.0,1.5,0.0,0.0,0,-0.8671292,-1.0896119,-1.1538395,-0.37091145,0.6199421,0.93298656,1.0818195,-0.3936329,-1.4486164,0.5582321,-1.0381179,0.87838227,-0.15354483,1.1971663
0.2,0.0,1.5,0.0,0.0,0,-0.87696457,-1.0680144,-1.1653371,-0.37194532,0.6341899,0.91814804,1.0457643,-0.3990386,-1.4452684,0.56335694,-1.0420074,0.8635619,-0.15107952,1.1961102
0.2,0.0,1.5,0.0,0.0,0,-0.88773066,-1.0759934,-1.16317,-0.36459854,0.62362045,0.89009637,1.0702977,-0.39842716,-1.4539948,0.5675075,-1.0403608,0.8768387,-0.15480222,1.1798792
0.2,0.0,1.5,0.0,0.0,0,-0.87743247,-1.0691473,-1.1712683,-0.37943932,0.659169,0.94175035,1.0550028,-0.39830965,-1.4513367,0.5515751,-1.040629,0.8798947,-0.16644244,1.2024313
0.2,0.0,1.5,0.0,0.0,0,-0.8700665,-1.0753139,-1.176943,-0.3668749,0.63957775,0.93087745,1.0825158,-0.39705276,-1.4525145,0.5702138,-1.0394073,0.8949268,-0.14859237,1.2183602
0.2,0.0,1.5,0.0,0.0,0,-0.869604,-1.0800349,-1.1690861,-0.36289608,0.64825183,0.9128513,1.0787731,-0.39874476,-1.4517831,0.5724924,-1.0394226,0.8910028,-0.17602757,1.2172993
0.2,0.0,1.5,0.0,0.0,0,-0.89203626,-1.0732872,-1.1517775,-0.37001267,0.64436406,0.89017177,1.0336378,-0.3964043,-1.4519199,0.57479936,-1.0351418,0.8849328,-0.1713039,1.19037
0.2,0.0,1.5,0.0,0.0,0,-0.86528116,-1.0670283,-1.1616752,-0.36761147,0.6514966,0.8958469,1.023967,-0.3957184,-1.4524294,0.56539357,-1.0373317,0.87424695,-0.1664094,1.2192599
0.2,0.0,1.5,0.0,0.0,0,-0.8594236,-1.062654,-1.168254,-0.3749221,0.6346743,0.9021079,1.0492164,-0.40039575,-1.4543226,0.5603327,-1.0408233,0.8810926,-0.16186202,1.1951793
0.2,0.0,1.5,0.0,0.0,0,-0.88326216,-1.0665003,-1.1800046,-0.36329323,0.6413012,0.91924477,1.0970114,-0.39785764,-1.4541681,0.5660426,-1.0380186,0.9020069,-0.14284597,1.1805769
0.2,0.0,1.5,0.0,0.0,0,-0.8778581,-1.0794034,-1.1642066,-0.37909195,0.63985276,0.91624457,1.0419974,-0.39684948,-1.4470229,0.5861596,-1.0411754,0.898546,-0.16802056,1.2192614
0.2,0.0,1.5,0.0,0.0,0,-0.86153084,-1.0795009,-1.1758244,-0.37585238,0.65141857,0.92524827,1.0343186,-0.40177903,-1.4518229,0.5715579,-1.0402287,0.8609952,-0.15571564,1.2126427
0.2,0.0,1.5,0.0,0.0,0,-0.8834753,-1.0769242,-1.1700273,-0.36637858,0.6403585,0.90480703,1.0434277,-0.40021315,-1.4523776,0.55600834,-1.0420178,0.8925967,-0.14336054,1.214287
0.2,0.0,1.5,0.0,0.0,0,-0.88525593,-1.0709151,-1.1765133,-0.3752276,0.66087514,0.9022075,1.0758175,-0.4043348,-1.4497375,0.5727388,-1.0387237,0.8616894,-0.17240284,1.2083842
0.2,0.0,1.5,0.0,0.0,0,-0.8705601,-1.0732564,-1.1693903,-0.37549323,0.6489419,0.9141302,1.0557019,-0.39592093,-1.4508499,0.5700907,-1.0419468,0.8608679,-0.14407994,1.2093197
0.2,0.0,1.5,0.0,0.0,0,-0.8822299,-1.0786824,-1.1871723,-0.3702462,0.63813484,0.94621176,1.0677733,-0.40185317,-1.454359,0.56148946,-1.0361793,0.86898196,-0.149437,1.2345037
0.2,0.0,1.5,0.0,0.0,0,-0.871319,-1.0773726,-1.1660743,-0.37403512,0.6337917,0.91022754,1.1084914,-0.3928638,-1.4514921,0.5674612,-1.0423723,0.84999555,-0.15324377,1.2069061
0.2,0.0,1.5,0.0,0.0,0,-0.8518196,-1.0744319,-1.1627046,-0.3770853,0.6351896,0.91189915,1.0551292,-0.3978644,-1.4519073,0.5536762,-1.0400602,0.9133567,-0.15094014,1.2072012
0.2,0.0,1.5,0.0,0.0,0,-0.8609576,-1.0684549,-1.166306,-0.371246,0.6321906,0.94087964,1.0958005,-0.39530906,-1.4526293,0.56189555,-1.0321736,0.89181703,-0.14445472,1.2274767
0.2,0.0,1.5,0.0,0.0,0,-0.88707656,-1.0760032,-1.1602877,-0.36402324,0.6338862,0.90153503,1.097948,-0.39329267,-1.4526896,0.56862605,-1.0342816,0.8874238,-0.16917416,1.2150929
0.2,0.0,1.5,0.0,0.0,0,-0.8649682,-1.0929223,-1.1609262,-0.37873405,0.6346811,0.91009885,1.1583211,-0.39879373,-1.4481758,0.56710005,-1.0357919,0.87034553,-0.16793892,1.2068284
0.2,0.0,1.5,0.0,0.0,0,-0.8663513,-1.1032296,-1.1540056,-0.37184295,0.663994,0.89545375,1.0316033,-0.39260772,-1.4506596,0.57911855,-1.0373025,0.8819256,-0.15018214,1.2039198
0.2,0.0,1.5,0.0,0.0,0,-0.87756556,-1.0761207,-1.1772854,-0.36966565,0.6287493,0.9546841,1.0028135,-0.3959542,-1.453965,0.56530976,-1.0428724,0.89541155,-0.1442532,1.1907281
0.2,0.0,1.5,0.0,0.0,0,-0.8754984,-1.0907376,-1.1527529,-0.36829728,0.64695674,0.8903548,1.1094908,-0.38944238,-1.4550371,0.57268864,-1.0458454,0.87006783,-0.12130831,1.213719
0.2,0.0,1.5,0.0,0.0,0,-0.87756884,-1.0872494,-1.1676751,-0.36755544,0.6507,0.91992414,1.092449,-0.3952803,-1.4476395,0.5624423,-1.040809,0.8837386,-0.14655662,1.2162077
0.2,0.0,1.5,0.0,0.0,0,-0.87212133,-1.081548,-1.164806,-0.3685558,0.6379573,0.89944136,1.0502881,-0.39831075,-1.4520344,0.5640571,-1.0333372,0.88076913,-0.1537257,1.2163528
0.2,0.0,1.5,0.0,0.0,0,-0.8536068,-1.0804595,-1.1675613,-0.37775207,0.66138375,0.8721063,1.108874,-0.39942014,-1.4495918,0.5733834,-1.0414182,0.8858849,-0.14262871,1.2088774
0.2,0.0,1.5,0.0,0.0,0,-0.8797435,-1.0870962,-1.1688626,-0.37271824,0.65627116,0.9216169,1.0451661,-0.3949056,-1.4522392,0.575608,-1.036898,0.8850247,-0.15519127,1.1970752
0.2,0.0,1.5,0.0,0.0,0,-0.8600913,-1.0663974,-1.1718533,-0.3728926,0.6234067,0.9470755,1.1008345,-0.39673585,-1.4541894,0.54623437,-1.0372499,0.88572913,-0.16796398,1.2138447
0.2,0.0,1.5,0.0,0.0,0,-0.87105983,-1.0722564,-1.1620927,-0.36942017,0.6526831,0.93131983,1.06857,-0.397295,-1.4504087,0.55853206,-1.0396146,0.87476367,-0.15443957,1.2065914
0.2,0.0,1.5,0.0,0.0,0,-0.871826,-1.0926226,-1.1680487,-0.36666456,0.6419438,0.92285204,1.0583949,-0.3999107,-1.4541303,0.5616002,-1.0394439,0.8551116,-0.13707182,1.2054542
0.2,0.0,1.5,0.0,0.0,0,-0.8703251,-1.0886256,-1.1635714,-0.37230256,0.64381146,0.92758167,1.0241023,-0.39944118,-1.4502159,0.5818362,-1.0398567,0.8780783,-0.1606059,1.2040817
0.2,0.0,1.5,0.0,0.0,0,-0.88455224,-1.0973176,-1.1720518,-0.3663351,0.646979,0.9288968,1.0617375,-0.39595473,-1.4510076,0.557239,-1.0378529,0.8900668,-0.15112475,1.2031344
0.2,0.0,1.5,0.0,0.0,0,-0.87829655,-1.0647331,-1.1582917,-0.37353197,0.6371943,0.9073691,1.0156481,-0.39641714,-1.448864,0.56554145,-1.0403243,0.88292056,-0.16706833,1.1886373
0.2,0.0,1.5,0.0,0.0,0,-0.8749818,-1.0603294,-1.1611806,-0.38128477,0.6429717,0.9112585,1.0538734,-0.3954485,-1.4505397,0.5491603,-1.0391793,0.904116,-0.15840888,1.2161424
0.2,0.0,1.5,0.0,0.0,0,-0.8718869,-1.0759676,-1.1739554,-0.3728487,0.6478841,0.9382013,1.0456411,-0.39751267,-1.4506314,0.576444,-1.0394206,0.87211525,-0.152995,1.2284153
0.2,0.0,1.5,0.0,0.0,0,-0.87086445,-1.0843146,-1.165081,-0.3815014,0.659328,0.945338,1.0267088,-0.399083,-1.451003,0.5574652,-1.0403645,0.8969948,-0.16586646,1.192737
0.2,0.0,1.5,0.0,0.0,0,-0.87509143,-1.0850265,-1.1715798,-0.37124786,0.64004326,0.88042665,1.0744885,-0.39426893,-1.4503906,0.5846132,-1.0363753,0.8717115,-0.15742785,1.2347137
0.2,0.0,1.5,0.0,0.0,0,-0.8837567,-1.0973448,-1.1760054,-0.37573183,0.64285856,0.8951317,0.9940487,-0.39800534,-1.4474608,0.5549143,-1.038818,0.8917228,-0.1790648,1.1852831
0.2,0.0,1.5,0.0,0.0,0,-0.8636196,-1.0778128,-1.171654,-0.3621028,0.6387416,0.9163987,1.0537981,-0.3910473,-1.4492747,0.5760248,-1.0398178,0.9018249,-0.16039848,1.2035502
0.2,0.0,1.5,0.0,0.0,0,-0.8648325,-1.0687685,-1.150049,-0.37924802,0.6152736,0.9031324,1.1032279,-0.3935315,-1.453434,0.562636,-1.0367832,0.9123544,-0.1265783,1.225208
0.2,0.0,1.5,0.0,0.0,0,-0.8774372,-1.0803124,-1.1684623,-0.37919676,0.6480729,0.910007,1.0485795,-0.39289132,-1.4523371,0.5809062,-1.0362353,0.8742204,-0.18163045,1.1959174
0.2,0.0,1.5,0.0,0.0,0,-0.86155224,-1.0944421,-1.161356,-0.3667941,0.6482601,0.9169983,1.0901015,-0.39419794,-1.4527366,0.5524921,-1.0402259,0.87429494,-0.16616902,1.2189593
0.2,0.0,1.5,0.0,0.0,0,-0.8513825,-1.0757109,-1.161943,-0.3782076,0.647672,0.8935483,1.096826,-0.39357442,-1.4529794,0.56510127,-1.0357767,0.8708191,-0.15798394,1.1934521
0.2,0.0,1.5,0.0,0.0,0,-0.89517814,-1.0958623,-1.1759306,-0.36098352,0.65145445,0.91449153,1.0673915,-0.39879194,-1.454873,0.5665044,-1.0423489,0.87830305,-0.13571703,1.2225808
0.2,0.0,1.5,0.0,0.0,0,-0.8716762,-1.0662518,-1.1672224,-0.37795565,0.6568349,0.8986704,1.0223595,-0.3960543,-1.4502045,0.5693329,-1.0359776,0.8764366,-0.12172573,1.2085328
0.2,0.0,1.5,0.0,0.0,0,-0.8759073,-1.0973605,-1.1689279,-0.37256142,0.63862264,0.9066173,1.0778934,-0.39386466,-1.4497672,0.5770653,-1.0405407,0.87013406,-0.15113561,1.2042902
0.2,0.0,1.5,0.0,0.0,0,-0.8861252,-1.0927421,-1.1525569,-0.35610193,0.64948756,0.8806318,1.0350882,-0.39341652,-1.4500495,0.5575015,-1.0383817,0.89652723,-0.14420536,1.2152308
0.2,0.0,1.5,0.0,0.0,0,-0.86685497,-1.0685533,-1.1640246,-0.38277543,0.6368689,0.9039078,1.022191,-0.40004635,-1.4539467,0.5663784,-1.042093,0.91680986,-0.15810369,1.2112093
0.2,0.0,1.5,0.0,0.0,0,-0.857344,-1.0902443,-1.1627426,-0.38690192,0.6484422,0.9297082,1.032358,-0.40037826,-1.4494445,0.5725977,-1.032331,0.895625,-0.17193465,1.2115992
0.2,0.0,1.5,0.0,0.0,0,-0.8573809,-1.0839106,-1.1695905,-0.37779883,0.63771725,0.92831534,1.0858712,-0.39865905,-1.4501379,0.5625076,-1.0383879,0.8898731,-0.12926435,1.198845
0.2,0.0,1.5,0.0,0.0,0,-0.8789476,-1.0872673,-1.1635144,-0.3725241,0.62764376,0.9049084,1.0711839,-0.39840627,-1.4492851,0.57669944,-1.0398282,0.8696538,-0.11837344,1.1927968
0.2,0.0,1.5,0.0,0.0,0,-0.87487537,-1.0778478,-1.1623884,-0.3685011,0.6276901,0.93734,1.0255619,-0.39163125,-1.4480628,0.5661079,-1.0375681,0.85728276,-0.1590319,1.2311152
0.2,0.0,1.5,0.0,0.0,0,-0.86781126,-1.0560626,-1.1710798,-0.38642853,0.6557039,0.9329235,1.0123341,-0.39963734,-1.4543889,0.5660147,-1.0382644,0.8900795,-0.18325582,1.1954951
0.2,0.0,1.5,0.0,0.0,0,-0.87544876,-1.083946,-1.1654886,-0.36636975,0.6544969,0.89790034,1.0074358,-0.39709064,-1.4556329,0.56155837,-1.0390847,0.8932368,-0.15914533,1.1888177
0.2,0.0,1.5,0.0,0.0,0,-0.85907716,-1.0824206,-1.1622599,-0.36538547,0.65384996,0.94007117,1.0409992,-0.3989843,-1.451281,0.5687601,-1.0423462,0.88472795,-0.13838607,1.2274239
0.2,0.0,1.5,0.0,0.0,0,-0.87787086,-1.077887,-1.1597419,-0.3615016,0.64584696,0.9190855,1.0605216,-0.3916635,-1.4528495,0.5661975,-1.039545,0.889791,-0.17024034,1.2129198
0.2,0.0,1.5,0.0,0.0,0,-0.8821785,-1.0738975,-1.1651481,-0.37547818,0.6532745,0.895454,1.0440073,-0.39565885,-1.4542822,0.57223105,-1.0392069,0.9074183,-0.12622325,1.211316
0.2,0.0,1.5,0.0,0.0,0,-0.875479,-1.0829688,-1.1646777,-0.372682,0.62841874,0.8966455,1.0480567,-0.39984238,-1.4498026,0.5598158,-1.0369358,0.8780074,-0.16599467,1.2037611
0.2,0.0,1.5,0.0,0.0,0,-0.87060356,-1.0626265,-1.1674118,-0.36950466,0.6558906,0.9211501,1.071208,-0.39558938,-1.4526218,0.56517655,-1.0364822,0.8681009,-0.15363872,1.203524
0.2,0.0,1.5,0.0,0.0,0,-0.88101286,-1.0754296,-1.168881,-0.38022324,0.6294732,0.93994623,1.0264055,-0.396751,-1.4488256,0.5709856,-1.0400243,0.8776706,-0.1753028,1.1990142
0.2,0.0,1.5,0.0,0.0,0,-0.8734764,-1.0615925,-1.1749339,-0.37837967,0.6511757,0.9037556,1.0646164,-0.40223175,-1.4536242,0.56442076,-1.0381693,0.88781923,-0.12873425,1.2073948
0.2,0.0,1.5,0.0,0.0,0,-0.88486964,-1.0599407,-1.1616117,-0.3780628,0.6395625,0.8730899,0.99786544,-0.400192,-1.4504167,0.57060254,-1.0366206,0.87335277,-0.15785633,1.2232511
0.2,0.0,1.5,0.0,0.0,0,-0.8859277,-1.0955889,-1.17795,-0.3725147,0.64406925,0.92242295,1.0808439,-0.39887673,-1.452635,0.5715977,-1.036242,0.90245134,-0.17664011,1.2004443
0.2,0.0,1.5,0.0,0.0,0,-0.8881694,-1.0771394,-1.1727104,-0.37372878,0.6294859,0.90556383,1.0419887,-0.39444342,-1.4510359,0.56155735,-1.0381954,0.872535,-0.15905365,1.2095828
0.2,0.0,1.5,0.0,0.0,0,-0.86427003,-1.0908827,-1.1678264,-0.3713894,0.6422036,0.92040944,1.0909275,-0.39221418,-1.4528228,0.5692086,-1.0337534,0.86206937,-0.15460494,1.1996882
0.2,0.0,1.5,0.0,0.0,0,-0.8651461,-1.0778593,-1.1859932,-0.3755611,0.64865494,0.927167,1.0111854,-0.40392894,-1.4550644,0.572057,-1.039492,0.8630789,-0.17712197,1.2039101
0.2,0.0,1.5,0.0,0.0,0,-0.86652356,-1.073465,-1.165679,-0.3802114,0.6532757,0.88108915,1.0387089,-0.39827037,-1.45095,0.5700282,-1.0414894,0.893717,-0.14160739,1.189531
0.2,0.0,1.5,0.0,0.0,0,-0.85253954,-1.0861595,-1.1637133,-0.37995467,0.6500011,0.9224659,1.0278449,-0.39621842,-1.4526623,0.5566228,-1.0387648,0.8755418,-0.18016724,1.2079489
0.2,0.0,1.5,0.0,0.0,0,-0.88833547,-1.0778822,-1.1724174,-0.37456703,0.61894935,0.93028796,1.0696777,-0.3956276,-1.4506985,0.56297463,-1.0372769,0.91162145,-0.1526655,1.2001414
0.2,0.0,1.5,0.0,0.0,0,-0.84954965,-1.0686063,-1.184156,-0.38736597,0.6244283,0.9226979,1.1093211,-0.4006865,-1.4541094,0.56160975,-1.0416664,0.8948565,-0.16613793,1.1955469
0.2,0.0,1.5,0.0,0.0,0,-0.8863902,-1.0698613,-1.1573987,-0.36523166,0.63682336,0.89145845,1.0681577,-0.39336225,-1.4533854,0.5629769,-1.0357776,0.85777146,-0.14928266,1.2067819
0.2,0.0,1.5,0.0,0.0,0,-0.8724367,-1.0590123,-1.1674114,-0.38074562,0.64708215,0.8836283,1.0570343,-0.3993253,-1.4496359,0.55247414,-1.0398048,0.9225745,-0.1473562,1.217055
0.2,0.0,1.5,0.0,0.0,0,-0.8882279,-1.0636269,-1.1871927,-0.37580967,0.64292496,0.899674,1.1109385,-0.3966522,-1.4513277,0.5624739,-1.0347103,0.8834526,-0.16663755,1.1970078
0.2,0.0,1.5,0.0,0.0,0,-0.86446553,-1.0736866,-1.1757838,-0.37036648,0.6421548,0.863089,1.1270335,-0.39899224,-1.4537467,0.56196123,-1.0372376,0.88936365,-0.14484774,1.200946
0.2,0.0,1.5,0.0,0.0,0,-0.8631389,-1.0634087,-1.1641033,-0.39399558,0.6489041,0.9094622,1.0503435,-0.39893612,-1.4502105,0.55404127,-1.0375307,0.88527435,-0.16497284,1.2143568
0.2,0.0,1.5,0.0,0.0,0,-0.8605333,-1.1108565,-1.1684635,-0.37244973,0.64408714,0.9347533,1.0496874,-0.39560992,-1.4487312,0.56369925,-1.0343711,0.89281064,-0.18714339,1.2025974
0.2,0.0,1.5,0.0,0.0,0,-0.88217264,-1.1016512,-1.1640726,-0.37086102,0.6583095,0.92126197,1.040354,-0.3933031,-1.4478132,0.5560445,-1.0384794,0.9021024,-0.16810943,1.2123654
0.2,0.0,1.5,0.0,0.0,0,-0.88263154,-1.0797042,-1.1698457,-0.37723595,0.65624464,0.94300574,1.0115696,-0.39232937,-1.4491678,0.57063705,-1.0415586,0.86823326,-0.1694346,1.199897
0.2,0.0,1.5,0.0,0.0,0,-0.87090653,-1.0831854,-1.1542248,-0.3710684,0.6368026,0.8746052,1.0174801,-0.39937764,-1.4519516,0.5698469,-1.0345093,0.8809657,-0.14586504,1.2079445
0.2,0.0,1.5,0.0,0.0,0,-0.88726956,-1.0808954,-1.1706072,-0.38006502,0.64041066,0.90994537,1.0795362,-0.39421004,-1.4517109,0.5636772,-1.043627,0.89113295,-0.17227797,1.2044648
0.2,0.0,1.5,0.0,0.0,0,-0.8722221,-1.1164494,-1.1599364,-0.37011155,0.6507192,0.9059076,1.0289519,-0.3929223,-1.4509856,0.56940985,-1.0449052,0.872231,-0.13683233,1.1894199
0.2,0.0,1.5,0.0,0.0,0,-0.85403216,-1.0800804,-1.168301,-0.37944722,0.63591766,0.92098,1.135705,-0.39561728,-1.4556917,0.57314044,-1.0331817,0.8523695,-0.16993304,1.1837655
0.2,0.0,1.5,0.0,0.0,0,-0.8716028,-1.0740803,-1.1648756,-0.36368632,0.6358438,0.89195853,1.0031896,-0.39593267,-1.4502118,0.57228297,-1.0398065,0.902584,-0.15408033,1.2133143
0.2,0.0,1.5,0.0,0.0,0,-0.85659236,-1.0981554,-1.1714562,-0.3677417,0.62267244,0.93576026,1.0535979,-0.3980293,-1.4525799,0.57677865,-1.0402302,0.885365,-0.13630421,1.1823487
0.2,0.0,1.5,0.0,0.0,0,-0.881762,-1.0907289,-1.1587136,-0.3655352,0.64502734,0.88966745,1.0504366,-0.39226115,-1.4513661,0.57477725,-1.0398138,0.8891282,-0.1507244,1.2147982
0.2,0.0,1.5,0.0,0.0,0,-0.8692526,-1.0859637,-1.1632364,-0.361242,0.6484346,0.8735473,1.0344245,-0.39620188,-1.4542296,0.57310927,-1.0390574,0.86001986,-0.1629674,1.2116338
0.2,0.0,1.5,0.0,0.0,0,-0.8715246,-1.1041278,-1.1564541,-0.37004507,0.6387754,0.91514915,1.054191,-0.39803985,-1.4506217,0.5661909,-1.0377597,0.87053984,-0.16615738,1.2108058
0.2,0.0,1.5,0.0,0.0,0,-0.8752985,-1.0730065,-1.1696627,-0.36616597,0.65512556,0.92950827,0.9753885,-0.39440084,-1.4533602,0.5640022,-1.0410533,0.88543725,-0.14870808,1.1920276
0.2,0.0,1.5,0.0,0.0,0,-0.87419266,-1.0807452,-1.168617,-0.381217,0.6327518,0.94050616,1.0483114,-0.3990267,-1.4480872,0.5548595,-1.0387975,0.8892304,-0.18474574,1.1849494
0.2,0.0,1.5,0.0,0.0,0,-0.8815855,-1.0671198,-1.1825054,-0.38401017,0.63675296,0.91218245,1.1111583,-0.3978062,-1.4521921,0.56307036,-1.0399625,0.894303,-0.15107284,1.2070918
0.2,0.0,1.5,0.0,0.0,0,-0.87226033,-1.0616856,-1.162006,-0.37724614,0.6387406,0.88659024,1.0649613,-0.3947899,-1.4515307,0.5672449,-1.0344533,0.8874495,-0.14567557,1.2092875
0.2,0.0,1.5,0.0,0.0,0,-0.8718087,-1.0760275,-1.1525419,-0.38137951,0.63874716,0.88946784,1.0715332,-0.39829525,-1.4479575,0.555528,-1.0434269,0.8890117,-0.16603711,1.2043227
0.2,0.0,1.5,0.0,0.0,0,-0.8687887,-1.0844032,-1.1502243,-0.36822486,0.6370288,0.8895887,1.0696229,-0.3898039,-1.4530094,0.5490621,-1.038477,0.8666076,-0.17102493,1.2036635
0.2,0.0,1.5,0.0,0.0,0,-0.8504012,-1.0624872,-1.1702764,-0.37220365,0.6278663,0.9228501,1.0530689,-0.40042412,-1.4524422,0.56372464,-1.0398318,0.8679503,-0.15546677,1.2110862
0.2,0.0,1.5,0.0,0.0,0,-0.8723448,-1.1129631,-1.1600876,-0.3728973,0.6562401,0.90869313,1.0891719,-0.39470938,-1.4555733,0.569485,-1.043122,0.8758051,-0.1884339,1.2024051
0.2,0.0,1.5,0.0,0.0,0,-0.87714124,-1.0604979,-1.1589344,-0.3603185,0.63612485,0.9390658,1.015985,-0.39605874,-1.452654,0.55567074,-1.0377518,0.88837343,-0.16569702,1.2079498
0.2,0.0,1.5,0.0,0.0,0,-0.8758252,-1.0746047,-1.1581817,-0.37886485,0.63061243,0.91000473,1.0622655,-0.38850826,-1.451819,0.55665356,-1.0381087,0.90932167,-0.13710693,1.215582
0.2,0.0,1.5,0.0,0.0,0,-0.84873015,-1.1004916,-1.1604289,-0.3770573,0.63502866,0.92042756,1.0487527,-0.3963007,-1.4496208,0.5664883,-1.0359181,0.9091373,-0.16454096,1.2083304
0.2,0.0,1.5,0.0,0.0,0,-0.8641054,-1.0861816,-1.1712908,-0.38826582,0.65506667,0.90109825,1.0419701,-0.3964645,-1.4511755,0.572566,-1.0383406,0.9021624,-0.14245516,1.2006446
0.2,0.0,1.5,0.0,0.0,0,-0.867359,-1.1203841,-1.1785117,-0.37671852,0.64341503,0.8941038,1.0304979,-0.3941492,-1.4536315,0.574389,-1.0405228,0.87729025,-0.15458593,1.2210214
0.2,0.0,1.5,0.0,0.0,0,-0.8733579,-1.0749058,-1.1704416,-0.3785019,0.6590826,0.86052275,1.0476843,-0.39850304,-1.4537584,0.57711387,-1.0370339,0.87982434,-0.14252378,1.2136517
0.2,0.0,1.5,0.0,0.0,0,-0.8762457,-1.086939,-1.1613237,-0.37124822,0.618536,0.88177377,1.0852493,-0.39881614,-1.4500252,0.5724021,-1.0399939,0.8741919,-0.17296997,1.2252454
0.2,0.0,1.5,0.0,0.0,0,-0.8627882,-1.0722301,-1.1636714,-0.37381127,0.62992024,0.93868977,1.0551268,-0.40052247,-1.4502081,0.5660657,-1.0388243,0.8571963,-0.15493135,1.2065356
0.2,0.0,1.5,0.0,0.0,0,-0.88012844,-1.0998913,-1.1694243,-0.37755677,0.64472944,0.9002322,1.0616671,-0.39814848,-1.450105,0.57210296,-1.0403616,0.8997327,-0.16171671,1.2056388
0.2,0.0,1.5,0.0,0.0,0,-0.9013906,-1.0799747,-1.1685413,-0.36693743,0.6269915,0.9120835,1.0248255,-0.39873925,-1.4531093,0.55913645,-1.0396413,0.91176295,-0.13991952,1.2144339
0.2,0.0,1.5,0.0,0.0,0,-0.885291,-1.0984254,-1.1705908,-0.3586631,0.6398411,0.9166383,1.055584,-0.39946184,-1.4515109,0.57522666,-1.042254,0.8825831,-0.15853511,1.1872263
0.2,0.0,1.5,0.0,0.0,0,-0.8835866,-1.1134121,-1.1771401,-0.3759304,0.6318678,0.92106575,1.1136601,-0.39472693,-1.4484078,0.58268356,-1.0407223,0.8742263,-0.1560312,1.1993972
0.2,0.0,1.5,0.0,0.0,0,-0.8600951,-1.093331,-1.1620322,-0.36399385,0.6326695,0.9460284,1.0862023,-0.39678034,-1.452991,0.55952483,-1.037427,0.8572831,-0.19145437,1.2132779
0.2,0.0,1.5,0.0,0.0,0,-0.8541708,-1.0550722,-1.1783115,-0.37099743,0.6594441,0.90309095,1.0446445,-0.39970496,-1.452926,0.563464,-1.0410932,0.8630854,-0.14501944,1.2063054
0.2,0.0,1.5,0.0,0.0,0,-0.8635889,-1.0949178,-1.1644975,-0.373849,0.63566816,0.90599567,1.0253676,-0.39970526,-1.4523684,0.5578833,-1.033211,0.89663863,-0.18539956,1.2035675
0.2,0.0,1.5,0.0,0.0,0,-0.8553748,-1.0778639,-1.1636223,-0.3714677,0.6265236,0.92823106,1.0596806,-0.39999673,-1.4526479,0.5624923,-1.0389047,0.86651117,-0.12573871,1.2305872
0.2,0.0,1.5,0.0,0.0,0,-0.8669799,-1.0679597,-1.1646835,-0.37304845,0.65024334,0.902589,1.0376637,-0.39597023,-1.4512596,0.5641342,-1.0385005,0.9061136,-0.16101694,1.2051873
0.2,0.0,1.5,0.0,0.0,0,-0.881359,-1.0746979,-1.1700844,-0.3688349,0.64427656,0.89391774,0.97493964,-0.39584494,-1.4539447,0.57817006,-1.0362804,0.87651116,-0.14689581,1.214001
0.2,0.0,1.5,0.0,0.0,0,-0.85560507,-1.0783306,-1.1799272,-0.37168193,0.6450835,0.9055146,1.0600579,-0.39395112,-1.455029,0.570782,-1.033733,0.8838405,-0.15292685,1.1864004
0.2,0.0,1.5,0.0,0.0,0,-0.8555553,-1.0670161,-1.186934,-0.38419816,0.64602435,0.93678844,1.0484197,-0.3980943,-1.4546665,0.5608645,-1.0384684,0.88106936,-0.1249505,1.1984305
0.2,0.0,1.5,0.0,0.0,0,-0.8718344,-1.0756828,-1.163152,-0.3738803,0.6443901,0.91233337,0.98835903,-0.39975783,-1.4520177,0.56316304,-1.0406141,0.87518674,-0.13620415,1.2065153
0.2,0.0,1.5,0.0,0.0,0,-0.8541664,-1.0750583,-1.1599308,-0.36831364,0.6507487,0.91074616,1.0352844,-0.3968738,-1.451026,0.56289345,-1.0412483,0.8796407,-0.17537816,1.1990565
0.2,0.0,1.5,0.0,0.0,0,-0.86135066,-1.0884236,-1.1676723,-0.37482452,0.6474036,0.8889716,1.0523524,-0.38985267,-1.4522529,0.57421035,-1.0377873,0.85942155,-0.16302027,1.2114055
0.2,0.0,1.5,0.0,0.0,0,-0.8758024,-1.0837207,-1.1714154,-0.3641541,0.64182746,0.9343429,1.088092,-0.39276457,-1.4495934,0.56770575,-1.035819,0.9069065,-0.1757788,1.2148619
0.2,0.0,1.5,0.0,0.0,0,-0.89051414,-1.0855919,-1.1598618,-0.36850175,0.6336322,0.8927182,1.0756638,-0.39316663,-1.452669,0.5673087,-1.042763,0.8875835,-0.15352163,1.2125578
0.2,0.0,1.5,0.0,0.0,0,-0.8775823,-1.0982599,-1.183776,-0.3680844,0.66124827,0.9496952,1.0534608,-0.39198413,-1.4533901,0.5667114,-1.0402172,0.885949,-0.1659524,1.1983185
0.2,0.0,1.5,0.0,0.0,0,-0.87428236,-1.0682106,-1.1802098,-0.3712597,0.6432269,0.910677,1.0424445,-0.39961576,-1.4516743,0.5607107,-1.03819,0.86285394,-0.1611929,1.2212139
0.2,0.0,1.5,0.0,0.0,0,-0.87407917,-1.0748541,-1.171606,-0.37916395,0.6453157,0.952206,0.99007523,-0.3941712,-1.4505004,0.5704373,-1.0382423,0.84958357,-0.18647845,1.2099584
0.2,0.0,1.5,0.0,0.0,0,-0.8757243,-1.0991344,-1.1721525,-0.3786957,0.63411087,0.92841446,1.0431448,-0.3990096,-1.4492298,0.562388,-1.0411352,0.8934893,-0.15256228,1.2144862
0.2,0.0,1.5,0.0,0.0,0,-0.83842963,-1.0821623,-1.1754159,-0.37225896,0.6589062,0.89495885,1.093448,-0.39649707,-1.4500816,0.5685706,-1.0427195,0.8914894,-0.13891032,1.2139729
0.2,0.0,1.5,0.0,0.0,0,-0.856128,-1.0815094,-1.1787441,-0.37059942,0.6344808,0.93874556,1.1173717,-0.3993606,-1.4514059,0.5587944,-1.0402815,0.9139657,-0.13969274,1.2135917
0.2,0.0,1.5,0.0,0.0,0,-0.88015187,-1.0756644,-1.1760162,-0.38165405,0.6296729,0.9092105,1.1082357,-0.3960365,-1.4523233,0.5615517,-1.0390279,0.88000023,-0.1575549,1.1943069
0.2,0.0,1.5,0.0,0.0,0,-0.84867173,-1.0619655,-1.1827282,-0.3776539,0.65436584,0.9301303,1.0671661,-0.39265,-1.4488243,0.5641969,-1.0362897,0.89009744,-0.16397215,1.222233
0.2,0.0,1.5,0.0,0.0,0,-0.8642089,-1.0852455,-1.1670643,-0.37531748,0.63247263,0.91725516,1.0972522,-0.39102164,-1.4497625,0.5822246,-1.0385861,0.8537154,-0.14928006,1.188079
0.2,0.0,1.5,0.0,0.0,0,-0.88425314,-1.080691,-1.1599652,-0.37375802,0.6301912,0.88513756,1.0463295,-0.3989497,-1.4545527,0.5541062,-1.0385838,0.8869561,-0.17082559,1.2096207
0.2,0.0,1.5,0.0,0.0,0,-0.86223274,-1.0652131,-1.1651559,-0.37109727,0.64707077,0.93681717,1.0559757,-0.3980246,-1.4540071,0.54763526,-1.03872,0.8668833,-0.17093045,1.2204071
0.2,0.0,1.5,0.0,0.0,0,-0.8929873,-1.0445904,-1.1756536,-0.3705975,0.6586507,0.88085073,1.1070812,-0.38930848,-1.4497229,0.56647974,-1.0441451,0.8460525,-0.12799452,1.2108033
0.2,0.0,1.5,0.0,0.0,0,-0.8811748,-1.0894903,-1.1771092,-0.37832314,0.6294523,0.91573095,1.045708,-0.3954213,-1.4522959,0.5728043,-1.0378574,0.8832225,-0.14083484,1.2125535
0.2,0.0,1.5,0.0,0.0,0,-0.8715147,-1.0785174,-1.1745946,-0.36837178,0.6308777,0.89123434,1.0385796,-0.39245227,-1.4536128,0.56334406,-1.0409199,0.87702703,-0.13513464,1.1932919
0.2,0.0,1.5,0.0,0.0,0,-0.8782564,-1.074927,-1.1706415,-0.37190482,0.6508492,0.89705396,1.0308722,-0.3964513,-1.4518534,0.5673523,-1.0401204,0.90800244,-0.16224635,1.1993963
0.2,0.0,1.5,0.0,0.0,0,-0.86967915,-1.0832741,-1.15824,-0.3758976,0.6380391,0.89197206,1.1027715,-0.39755628,-1.4511235,0.5553616,-1.0387005,0.8947523,-0.12756614,1.2052766
0.2,0.0,1.5,0.0,0.0,0,-0.8646564,-1.091954,-1.1779895,-0.37841254,0.65695924,0.9013405,1.0456371,-0.3969902,-1.4526795,0.56193626,-1.0382884,0.8819577,-0.15878855,1.2146908
0.2,0.0,1.5,0.0,0.0,0,-0.8683765,-1.0924503,-1.1699167,-0.36308596,0.64053035,0.91237545,1.041473,-0.39761588,-1.4527473,0.5756655,-1.0411327,0.8715141,-0.17659551,1.1983738
0.2,0.0,1.5,0.0,0.0,0,-0.8734737,-1.0502361,-1.1607581,-0.36803296,0.64592713,0.8675003,1.0577588,-0.40339583,-1.4571999,0.5602618,-1.0393701,0.8488522,-0.14849041,1.2030753
0.2,0.0,1.5,0.0,0.0,0,-0.8624576,-1.0804397,-1.1699479,-0.37284532,0.61925656,0.9363925,1.0332087,-0.40155977,-1.4521528,0.56307244,-1.036564,0.8895614,-0.15473396,1.2051721
0.2,0.0,1.5,0.0,0.0,0,-0.8841963,-1.0794969,-1.1713849,-0.36678076,0.6340247,0.89281255,1.0223653,-0.3959029,-1.4518181,0.57223034,-1.0372046,0.90275544,-0.15158336,1.2151939
0.2,0.0,1.5,0.0,0.0,0,-0.8646839,-1.0902231,-1.1637169,-0.37116626,0.6439244,0.8851295,0.98878294,-0.3980965,-1.4535439,0.5611968,-1.0399628,0.90759027,-0.16872418,1.2016116
0.2,0.0,1.5,0.0,0.0,0,-0.8711808,-1.0526117,-1.1688155,-0.3609384,0.64240944,0.9194544,1.041201,-0.4000637,-1.4518421,0.563066,-1.0423944,0.8806174,-0.153276,1.1965804
0.2,0.0,1.5,0.0,0.0,0,-0.85729325,-1.0731634,-1.1708133,-0.36776248,0.6464386,0.930724,1.0487205,-0.39244747,-1.4514831,0.560709,-1.0395622,0.8841101,-0.14542696,1.2154614
0.2,0.0,1.5,0.0,0.0,0,-0.86781335,-1.0727482,-1.1769842,-0.3839526,0.64181703,0.9074716,1.0654378,-0.39911336,-1.4519902,0.55902576,-1.0397139,0.89046156,-0.15397997,1.2103704
0.2,0.0,1.5,0.0,0.0,0,-0.87244517,-1.0954541,-1.1899482,-0.36732167,0.63949907,0.9262652,1.0790143,-0.3939315,-1.4494088,0.5788871,-1.0429631,0.9155349,-0.13462216,1.2124875
0.2,0.0,1.5,0.0,0.0,0,-0.86208284,-1.0481853,-1.1708664,-0.3628489,0.64427215,0.929306,1.0635461,-0.39158157,-1.4535489,0.55409867,-1.0375866,0.8856168,-0.15343721,1.2063756
0.2,0.0,1.5,0.0,0.0,0,-0.85693455,-1.0834402,-1.1645994,-0.36707193,0.63827485,0.8809653,1.0604345,-0.39540446,-1.4545279,0.5660347,-1.0356712,0.89031965,-0.15264904,1.1932896
0.2,0.0,1.5,0.0,0.0,0,-0.878297,-1.0723131,-1.1771554,-0.37680355,0.64302963,0.91997737,1.0403035,-0.3933184,-1.4536979,0.5672076,-1.0376902,0.8695325,-0.13448203,1.1934503
0.2,0.0,1.5,0.0,0.0,0,-0.84914035,-1.0887903,-1.1608627,-0.37810853,0.64284873,0.92704487,1.0442775,-0.3934647,-1.4504932,0.55919755,-1.0388336,0.8805205,-0.14340182,1.2163826
0.2,0.0,1.5,0.0,0.0,0,-0.87584746,-1.0995728,-1.1746142,-0.3747735,0.64917105,0.9046063,1.0205156,-0.39707747,-1.4523276,0.56733274,-1.0389124,0.90799654,-0.15310809,1.198653
0.2,0.0,1.5,0.0,0.0,0,-0.88369334,-1.0912825,-1.1855724,-0.37409082,0.655064,0.9099615,0.9926038,-0.3906749,-1.4493695,0.57216364,-1.0406668,0.9016311,-0.15694067,1.193779
0.2,0.0,1.5,0.0,0.0,0,-0.86904263,-1.0630835,-1.157394,-0.3760471,0.6685042,0.9090308,1.1357652,-0.40191555,-1.4512203,0.56085634,-1.0368057,0.87582546,-0.1832832,1.1822013
0.2,0.0,1.5,0.0,0.0,0,-0.8537848,-1.077622,-1.1563787,-0.37620968,0.65050983,0.87507945,1.1051785,-0.4022758,-1.4508219,0.56525433,-1.0377845,0.86127615,-0.14387986,1.2053561
0.2,0.0,1.5,0.0,0.0,0,-0.87980044,-1.0580406,-1.1535308,-0.36233225,0.6371337,0.9211674,1.0696558,-0.39804274,-1.4522469,0.5657964,-1.0418497,0.8900506,-0.17600836,1.1921675
0.2,0.0,1.5,0.0,0.0,0,-0.87980044,-1.0580406,-1.1535308,-0.36233225,0.6371337,0.9211674,1.0696558,-0.39804274,-1.4522469,0.5657964,-1.0418497,0.8900506,-0.17600836,1.1921675
0.2,0.0,1.5,0.0,0.0,0,-0.87980044,-1.0580406,-1.1535308,-0.36233225,0.6371337,0.9211674,1.0696558,-0.39804274,-1.4522469,0.5657964,-1.0418497,0.8900506,-0.17600836,1.1921675
0.2,0.0,1.5,0.0,0.0,0,-0.87980044,-1.0580406,-1.1535308,-0.36233225,0.6371337,0.9211674,1.0696558,-0.39804274,-1.4522469,0.5657964,-1.0418497,0.8900506,-0.17600836,1.1921675
0.2,0.0,1.5,0.0,0.0,0,-0.87980044,-1.0580406,-1.1535308,-0.36233225,0.6371337,0.9211674,1.0696558,-0.39804274,-1.4522469,0.5657964,-1.0418497,0.8900506,-0.17600836,1.1921675
0.2,0.0,1.5,0.0,0.0,0,-0.87980044,-1.0580406,-1.1535308,-0.36233225,0.6371337,0.9211674,1.0696558,-0.39804274,-1.4522469,0.5657964,-1.0418497,0.8900506,-0.17600836,1.1921675
0.2,0.0,1.5,0.0,0.0,0,-0.8501256,-1.0622507,-1.1691658,-0.38110334,0.6434121,0.9331462,1.1000085,-0.40179834,-1.4587679,0.5605972,-1.0412128,0.86416876,-0.17599832,1.1981446
0.2,0.0,1.5,0.0,0.0,0,-0.8501256,-1.0622507,-1.1691658,-0.38110334,0.6434121,0.9331462,1.1000085,-0.40179834,-1.4587679,0.5605972,-1.0412128,0.86416876,-0.17599832,1.1981446
0.2,0.0,1.5,0.0,0.0,0,-0.8501256,-1.0622507,-1.1691658,-0.38110334,0.6434121,0.9331462,1.1000085,-0.40179834,-1.4587679,0.5605972,-1.0412128,0.86416876,-0.17599832,1.1981446
0.2,0.0,1.5,0.0,0.0,0,-0.8501256,-1.0622507,-1.1691658,-0.38110334,0.6434121,0.9331462,1.1000085,-0.40179834,-1.4587679,0.5605972,-1.0412128,0.86416876,-0.17599832,1.1981446
0.2,0.0,1.5,0.0,0.0,0,-0.8501256,-1.0622507,-1.1691658,-0.38110334,0.6434121,0.9331462,1.1000085,-0.40179834,-1.4587679,0.5605972,-1.0412128,0.86416876,-0.17599832,1.1981446
0.2,0.0,1.5,0.0,0.0,0,-0.8501256,-1.0622507,-1.1691658,-0.38110334,0.6434121,0.9331462,1.1000085,-0.40179834,-1.4587679,0.5605972,-1.0412128,0.86416876,-0.17599832,1.1981446
0.2,0.0,1.5,0.0,0.0,0,-0.8768986,-1.0955443,-1.1474503,-0.36743158,0.6685368,0.9424956,1.0991359,-0.39355376,-1.4483215,0.5567026,-1.041086,0.88407004,-0.17825475,1.2009279
0.2,0.0,1.5,0.0,0.0,0,-0.8768986,-1.0955443,-1.1474503,-0.36743158,0.6685368,0.9424956,1.0991359,-0.39355376,-1.4483215,0.5567026,-1.041086,0.88407004,-0.17825475,1.2009279
0.2,0.0,1.5,0.0,0.0,0,-0.8768986,-1.0955443,-1.1474503,-0.36743158,0.6685368,0.9424956,1.0991359,-0.39355376,-1.4483215,0.5567026,-1.041086,0.88407004,-0.17825475,1.2009279
0.2,0.0,1.5,0.0,0.0,0,-0.8768986,-1.0955443,-1.1474503,-0.36743158,0.6685368,0.9424956,1.0991359,-0.39355376,-1.4483215,0.5567026,-1.041086,0.88407004,-0.17825475,1.2009279
0.2,0.0,1.5,0.0,0.0,0,-0.8768986,-1.0955443,-1.1474503,-0.36743158,0.6685368,0.9424956,1.0991359,-0.39355376,-1.4483215,0.5567026,-1.041086,0.88407004,-0.17825475,1.2009279
0.2,0.0,1.5,0.0,0.0,0,-0.8768986,-1.0955443,-1.1474503,-0.36743158,0.6685368,0.9424956,1.0991359,-0.39355376,-1.4483215,0.5567026,-1.041086,0.88407004,-0.17825475,1.2009279
0.2,0.0,1.5,0.0,0.0,0,-0.9012692,-1.0407928,-1.1557858,-0.37815753,0.6427102,0.9354377,1.1379118,-0.39790204,-1.4537827,0.5797347,-1.0385603,0.9254368,-0.20071533,1.2071339
0.2,0.0,1.5,0.0,0.0,0,-0.9012692,-1.0407928,-1.1557858,-0.37815753,0.6427102,0.9354377,1.1379118,-0.39790204,-1.4537827,0.5797347,-1.0385603,0.9254368,-0.20071533,1.2071339
0.2,0.0,1.5,0.0,0.0,0,-0.9012692,-1.0407928,-1.1557858,-0.37815753,0.6427102,0.9354377,1.1379118,-0.39790204,-1.4537827,0.5797347,-1.0385603,0.9254368,-0.20071533,1.2071339
0.2,0.0,1.5,0.0,0.0,0,-0.9012692,-1.0407928,-1.1557858,-0.37815753,0.6427102,0.9354377,1.1379118,-0.39790204,-1.4537827,0.5797347,-1.0385603,0.9254368,-0.20071533,1.2071339
0.2,0.0,1.5,0.0,0.0,0,-0.9012692,-1.0407928,-1.1557858,-0.37815753,0.6427102,0.9354377,1.1379118,-0.39790204,-1.4537827,0.5797347,-1.0385603,0.9254368,-0.20071533,1.2071339
0.2,0.0,1.5,0.0,0.0,0,-0.9012692,-1.0407928,-1.1557858,-0.37815753,0.6427102,0.9354377,1.1379118,-0.39790204,-1.4537827,0.5797347,-1.0385603,0.9254368,-0.20071533,1.2071339
0.2,0.0,1.5,0.0,0.0,0,-0.87327373,-1.0712973,-1.1878933,-0.36758718,0.6364185,0.8649598,1.1045953,-0.39319658,-1.4507843,0.5746946,-1.0406328,0.90567166,-0.14275335,1.2220246
0.2,0.0,1.5,0.0,0.0,0,-0.87327373,-1.0712973,-1.1878933,-0.36758718,0.6364185,0.8649598,1.1045953,-0.39319658,-1.4507843,0.5746946,-1.0406328,0.90567166,-0.14275335,1.2220246
0.2,0.0,1.5,0.0,0.0,0,-0.87327373,-1.0712973,-1.1878933,-0.36758718,0.6364185,0.8649598,1.1045953,-0.39319658,-1.4507843,0.5746946,-1.0406328,0.90567166,-0.14275335,1.2220246
0.2,0.0,1.5,0.0,0.0,0,-0.87327373,-1.0712973,-1.1878933,-0.36758718,0.6364185,0.8649598,1.1045953,-0.39319658,-1.4507843,0.5746946,-1.0406328,0.90567166,-0.14275335,1.2220246
0.2,0.0,1.5,0.0,0.0,0,-0.87327373,-1.0712973,-1.1878933,-0.36758718,0.6364185,0.8649598,1.1045953,-0.39319658,-1.4507843,0.5746946,-1.0406328,0.90567166,-0.14275335,1.2220246
0.2,0.0,1.5,0.0,0.0,0,-0.87327373,-1.0712973,-1.1878933,-0.36758718,0.6364185,0.8649598,1.1045953,-0.39319658,-1.4507843,0.5746946,-1.0406328,0.90567166,-0.14275335,1.2220246
0.2,0.0,1.5,0.0,0.0,0,-0.83939254,-1.0627642,-1.1782577,-0.36651012,0.6537401,0.89036447,1.0866731,-0.4007208,-1.4553227,0.5666015,-1.0332907,0.862731,-0.15973479,1.2074738
0.2,0.0,1.5,0.0,0.0,0,-0.83939254,-1.0627642,-1.1782577,-0.36651012,0.6537401,0.89036447,1.0866731,-0.4007208,-1.4553227,0.5666015,-1.0332907,0.862731,-0.15973479,1.2074738
