sanky1234/BimanualDexCatch/isaacgymenvs/cem_results/May31/football_pose_0.0_-0.1_1.5_0.5235987755982988_-0.5235987755982988_0_2025-05-31.csv
x,y,z,roll,pitch,yaw,robot1/joint1,robot1/joint2,robot1/joint3,robot1/joint4,robot1/joint5,robot1/joint6,robot1/joint7,robot2/joint1,robot2/joint2,robot2/joint3,robot2/joint4,robot2/joint5,robot2/joint6,robot2/joint7
0.0,-0.1,1.5,0.5235987755982988,-0.5235987755982988,0,-1.0488712,0.4839335,-0.88278633,0.33275568,-0.4281881,1.3937573,-0.59610367,-0.43569416,-1.6150284,-0.083663106,-0.537,0.34715924,0.1730336,-1.7752756
0.0,-0.1,1.5,0.5235987755982988,-0.5235987755982988,0,-1.0374213,0.5128715,-0.868075,0.34417674,-0.40077505,1.380351,-0.40805945,-0.42223862,-1.6200603,-0.095293425,-0.53609765,0.3791803,0.21028866,-1.737288
0.0,-0.1,1.5,0.5235987755982988,-0.5235987755982988,0,-1.0617744,0.4501807,-0.85884774,0.29950023,-0.5739737,1.388697,-0.5434521,-0.4357096,-1.625527,-0.08801823,-0.54454005,0.37376553,0.1687467,-1.7204027
0.0,-0.1,1.5,0.5235987755982988,-0.5235987755982988,0,-1.03256,0.50552434,-0.8378136,0.34943983,-0.4038305,1.3907021,-0.276043,-0.42943043,-1.6179844,-0.0839146,-0.5439415,0.28516945,0.15343176,-1.7367494
0.0,-0.1,1.5,0.5235987755982988,-0.5235987755982988,0,-1.045605,0.42732972,-0.8296668,0.31693047,-0.41272935,1.3639433,-0.30540717,-0.42138532,-1.6309261,-0.08937578,-0.54919034,0.2993869,0.15067829,-1.7718065
0.0,-0.1,1.5,0.5235987755982988,-0.5235987755982988,0,-1.0504895,0.5103112,-0.80702364,0.3349566,-0.43819636,1.3741176,-0.42743894,-0.41910642,-1.6195424,-0.08551339,-0.53730315,0.36292934,0.16676359,-1.7174749
0.0,-0.1,1.5,0.5235987755982988,-0.5235987755982988,0,-1.0596286,0.52031016,-0.814239,0.31665915,-0.37407014,1.4056597,-0.45240596,-0.42125973,-1.6187998,-0.093601845,-0.5474288,0.27933565,0.1924347,-1.6938245
0.0,-0.1,1.5,0.5235987755982988,-0.5235987755982988,0,-1.0677166,0.51688045,-0.81004626,0.33215725,-0.5474351,1.3879516,-0.3024955,-0.43066603,-1.622973,-0.09957991,-0.5596877,0.35504898,0.1669579,-1.697313
0.0,-0.1,1.5,0.5235987755982988,-0.5235987755982988,0,-1.0809162,0.4941842,-0.796564,0.3422633,-0.5226643,1.435846,-0.44377178,-0.4370796,-1.6231143,-0.090119526,-0.54944247,0.30753168,0.16713648,-1.7112877
0.0,-0.1,1.5,0.5235987755982988,-0.5235987755982988,0,-1.0728252,0.45794523,-0.79622304,0.30050325,-0.43596995,1.3860878,-0.47607648,-0.42016447,-1.62268,-0.08409205,-0.5424842,0.3474071,0.17384471,-1.7536312
0.0,-0.1,1.5,0.5235987755982988,-0.5235987755982988,0,-1.0261295,0.4365956,-0.8089947,0.33836964,-0.3891503,1.4575827,-0.3653005,-0.41543418,-1.6209906,-0.09049657,-0.53700244,0.32437262,0.16729444,-1.7312554
0.0,-0.1,1.5,0.5235987755982988,-0.5235987755982988,0,-1.0315765,0.5211521,-0.8909381,0.32359803,-0.44887376,1.4040065,-0.4135641,-0.42085153,-1.6315488,-0.089926094,-0.5462487,0.33576477,0.19487698,-1.7481111
0.0,-0.1,1.5,0.5235987755982988,-0.5235987755982988,0,-1.0619396,0.431101,-0.80828863,0.326476,-0.5109134,1.3309379,-0.353464,-0.42689174,-1.6223642,-0.09342732,-0.54031795,0.3720315,0.17798808,-1.7813909
0.0,-0.1,1.5,0.5235987755982988,-0.5235987755982988,0,-1.0628527,0.4858856,-0.8261394,0.3405982,-0.5132009,1.4107846,-0.47426063,-0.43646216,-1.6229237,-0.0892879,-0.54342437,0.32860592,0.18126008,-1.7125227
0.0,-0.1,1.5,0.5235987755982988,-0.5235987755982988,0,-1.0106558,0.53091973,-0.6575111,0.300677,-0.47839782,1.407753,-0.43850932,-0.42435172,-1.6221104,-0.08136446,-0.5417194,0.35227272,0.17312995,-1.6818694
0.0,-0.1,1.5,0.5235987755982988,-0.5235987755982988,0,-1.0484616,0.44808033,-0.80492467,0.28630954,-0.3537936,1.4184016,-0.40167457,-0.42620555,-1.6313052,-0.084982604,-0.5495161,0.39720288,0.184061,-1.7770287
0.0,-0.1,1.5,0.5235987755982988,-0.5235987755982988,0,-1.0342338,0.48989508,-0.8286454,0.30725428,-0.4106323,1.3944218,-0.5016359,-0.43340594,-1.6211755,-0.08691871,-0.5518547,0.38991925,0.18165234,-1.7515631
0.0,-0.1,1.5,0.5235987755982988,-0.5235987755982988,0,-1.0381174,0.47977072,-0.8539403,0.3024587,-0.3032128,1.3688067,-0.5470858,-0.44338706,-1.6168655,-0.0904628,-0.5390517,0.335556,0.17309998,-1.7303604
0.0,-0.1,1.5,0.5235987755982988,-0.5235987755982988,0,-1.0174555,0.5483589,-0.7315754,0.3424147,-0.36998776,1.3570898,-0.43389824,-0.41969958,-1.6211249,-0.096281335,-0.5443481,0.3336973,0.14847924,-1.7807552
0.0,-0.1,1.5,0.5235987755982988,-0.5235987755982988,0,-1.0522207,0.41385067,-0.7386604,0.33891132,-0.56322813,1.3286805,-0.43491086,-0.41530555,-1.6298871,-0.0819442,-0.54768467,0.3227875,0.17853764,-1.7696499
0.0,-0.1,1.5,0.5235987755982988,-0.5235987755982988,0,-1.0398642,0.48108044,-0.81181467,0.27825263,-0.39067382,1.3759532,-0.44033238,-0.42659172,-1.6182207,-0.08875367,-0.54666525,0.2864641,0.19211406,-1.7678895
0.0,-0.1,1.5,0.5235987755982988,-0.5235987755982988,0,-1.0219238,0.54978245,-0.75367147,0.3214191,-0.43891835,1.4234719,-0.41939056,-0.43340996,-1.6270922,-0.083657,-0.55341333,0.35151514,0.2018724,-1.7504857
0.0,-0.1,1.5,0.5235987755982988,-0.5235987755982988,0,-1.0385249,0.5158406,-0.77002716,0.2681325,-0.3668757,1.3806859,-0.32399303,-0.4130722,-1.6214623,-0.08770086,-0.5513996,0.33564988,0.16453232,-1.7100362
0.0,-0.1,1.5,0.5235987755982988,-0.5235987755982988,0,-1.0336919,0.5113008,-0.7573301,0.33725274,-0.4610957,1.4148296,-0.51804715,-0.42216152,-1.6257665,-0.088451505,-0.54577106,0.33819813,0.17881195,-1.7215931
0.0,-0.1,1.5,0.5235987755982988,-0.5235987755982988,0,-1.0687248,0.48577332,-0.6456099,0.30986124,-0.47420257,1.4364476,-0.3758128,-0.41775563,-1.6242853,-0.09367702,-0.55287325,0.37382445,0.16320953,-1.6883998
0.0,-0.1,1.5,0.5235987755982988,-0.5235987755982988,0,-1.0465267,0.5571916,-0.7414527,0.29706648,-0.35022786,1.3472452,-0.24505748,-0.42610374,-1.6296699,-0.09046462,-0.54637927,0.3234195,0.1696806,-1.7365572
0.0,-0.1,1.5,0.5235987755982988,-0.5235987755982988,0,-0.9879352,0.52989995,-0.85314924,0.36072478,-0.4330491,1.3427123,-0.4611943,-0.4205403,-1.6253278,-0.086890124,-0.5415852,0.34924927,0.20193279,-1.7152878
0.0,-0.1,1.5,0.5235987755982988,-0.5235987755982988,0,-1.0481224,0.47847462,-0.81854296,0.3328977,-0.44023845,1.4004341,-0.42963734,-0.42632565,-1.6286105,-0.087015726,-0.5482899,0.37105453,0.1901654,-1.721753
0.0,-0.1,1.5,0.5235987755982988,-0.5235987755982988,0,-1.0244756,0.4875473,-0.7179274,0.315966,-0.5281215,1.4226048,-0.50883543,-0.42135644,-1.6207435,-0.09082535,-0.54776764,0.3813252,0.20111306,-1.7278519
0.0,-0.1,1.5,0.5235987755982988,-0.5235987755982988,0,-1.0381154,0.5754787,-0.8087179,0.28794366,-0.4820293,1.4372742,-0.2553697,-0.4214898,-1.6196042,-0.084843464,-0.5605227,0.3071539,0.13524428,-1.7053138
0.0,-0.1,1.5,0.5235987755982988,-0.5235987755982988,0,-1.0631485,0.35776025,-0.8041843,0.31586817,-0.3557422,1.395012,-0.32813808,-0.42345828,-1.6206189,-0.09004657,-0.53592074,0.34458205,0.17829165,-1.7244167
0.0,-0.1,1.5,0.5235987755982988,-0.5235987755982988,0,-1.0407697,0.49496248,-0.7644009,0.29979646,-0.43325675,1.4436138,-0.4740616,-0.4187083,-1.6213183,-0.08883062,-0.5434953,0.40675476,0.16228022,-1.722107
0.0,-0.1,1.5,0.5235987755982988,-0.5235987755982988,0,-1.0214195,0.496995,-0.8001697,0.30322638,-0.41306427,1.3824763,-0.4752959,-0.42697,-1.6253186,-0.08416236,-0.53672117,0.41740507,0.17542067,-1.7317147
0.0,-0.1,1.5,0.5235987755982988,-0.5235987755982988,0,-1.0410517,0.4895019,-0.7992671,0.30701613,-0.33293313,1.3992383,-0.3070997,-0.42554012,-1.6225669,-0.08787821,-0.55059546,0.31700715,0.15251404,-1.7315402
0.0,-0.1,1.5,0.5235987755982988,-0.5235987755982988,0,-1.052423,0.516228,-0.78193396,0.29988283,-0.44195652,1.4020032,-0.49633425,-0.42275885,-1.6226287,-0.092405,-0.5474612,0.29711264,0.1683634,-1.8115112
0.0,-0.1,1.5,0.5235987755982988,-0.5235987755982988,0,-0.9917138,0.52958703,-0.84567636,0.32989958,-0.39252323,1.3448206,-0.33938834,-0.42112097,-1.6189693,-0.09051446,-0.54384685,0.36654526,0.14792879,-1.6735477
0.0,-0.1,1.5,0.5235987755982988,-0.5235987755982988,0,-1.0548053,0.48365533,-0.7553232,0.33843827,-0.52179044,1.3089894,-0.3413268,-0.43062788,-1.6179658,-0.08814815,-0.54240614,0.29654953,0.17267337,-1.7147434
0.0,-0.1,1.5,0.5235987755982988,-0.5235987755982988,0,-1.0207223,0.4301798,-0.77459097,0.29798067,-0.33890408,1.3383049,-0.39333138,-0.4241014,-1.623905,-0.09105788,-0.5454735,0.33744746,0.18974315,-1.7638255
0.0,-0.1,1.5,0.5235987755982988,-0.5235987755982988,0,-1.0165206,0.5193234,-0.8238373,0.30850035,-0.46630117,1.4879655,-0.43517795,-0.41766328,-1.6294985,-0.08569084,-0.54873556,0.3113488,0.15113446,-1.7075822
0.0,-0.1,1.5,0.5235987755982988,-0.5235987755982988,0,-1.0358256,0.46932018,-0.7776837,0.2924232,-0.4453131,1.3295019,-0.38936517,-0.42913824,-1.6085116,-0.09450108,-0.5435846,0.28415042,0.16326635,-1.7334771
0.0,-0.1,1.5,0.5235987755982988,-0.5235987755982988,0,-1.0263455,0.52179676,-0.7818538,0.32665798,-0.4405771,1.3945991,-0.3225845,-0.42880014,-1.6245236,-0.087433845,-0.5348328,0.34624952,0.14500254,-1.7581203
0.0,-0.1,1.5,0.5235987755982988,-0.5235987755982988,0,-1.0309219,0.4875917,-0.7608594,0.26742864,-0.359668,1.4369303,-0.37299532,-0.41680905,-1.637364,-0.08786614,-0.5436795,0.35472074,0.16864724,-1.7424831
0.0,-0.1,1.5,0.5235987755982988,-0.5235987755982988,0,-1.0413905,0.4659265,-0.7250679,0.3441495,-0.48987097,1.4230248,-0.40730107,-0.41586992,-1.6303765,-0.09117509,-0.5516683,0.40664503,0.17850104,-1.7494873
0.0,-0.1,1.5,0.5235987755982988,-0.5235987755982988,0,-1.014681,0.43847188,-0.76914424,0.2916981,-0.49038732,1.3641267,-0.39944988,-0.42931992,-1.6236953,-0.09303213,-0.5373366,0.280401,0.16835015,-1.727462
0.0,-0.1,1.5,0.5235987755982988,-0.5235987755982988,0,-1.0364337,0.47208315,-0.8076027,0.3343031,-0.49441907,1.4381043,-0.4327269,-0.423418,-1.6264905,-0.09610824,-0.54425955,0.33919963,0.17411348,-1.6949003
0.0,-0.1,1.5,0.5235987755982988,-0.5235987755982988,0,-1.04504,0.52010626,-0.80452627,0.32985687,-0.60567844,1.3930887,-0.42859137,-0.42614296,-1.6149808,-0.08834776,-0.551526,0.31269425,0.16528043,-1.7791629
0.0,-0.1,1.5,0.5235987755982988,-0.5235987755982988,0,-1.0187627,0.4488939,-0.7682606,0.29752216,-0.46733773,1.3760384,-0.38039538,-0.4295088,-1.6215266,-0.08326678,-0.54183596,0.3334757,0.14935482,-1.7710397
0.0,-0.1,1.5,0.5235987755982988,-0.5235987755982988,0,-1.0546035,0.52778935,-0.74041253,0.2823581,-0.44496018,1.3764566,-0.43265206,-0.42566258,-1.614301,-0.09366098,-0.5388591,0.2664678,0.20413867,-1.749219
0.0,-0.1,1.5,0.5235987755982988,-0.5235987755982988,0,-1.0609897,0.48554355,-0.72953326,0.27737975,-0.5225408,1.4029138,-0.40824804,-0.4224572,-1.6224581,-0.08495867,-0.5446296,0.38193575,0.1933755,-1.7336057
0.0,-0.1,1.5,0.5235987755982988,-0.5235987755982988,0,-1.0526216,0.47314793,-0.7292893,0.30778217,-0.46281803,1.4537574,-0.3923735,-0.41856334,-1.6292464,-0.08902051,-0.5406389,0.33125374,0.17666972,-1.69886
0.0,-0.1,1.5,0.5235987755982988,-0.5235987755982988,0,-1.0678817,0.5035526,-0.8094649,0.31812948,-0.44240522,1.3995258,-0.39012718,-0.42887223,-1.6275579,-0.08673764,-0.54834783,0.34412956,0.16095532,-1.7117653
0.0,-0.1,1.5,0.5235987755982988,-0.5235987755982988,0,-1.0445871,0.48437932,-0.8102599,0.2857137,-0.48874465,1.3933262,-0.32168266,-0.4324556,-1.6267,-0.0838034,-0.54025984,0.35283354,0.14660737,-1.7235777
0.0,-0.1,1.5,0.5235987755982988,-0.5235987755982988,0,-1.0830274,0.51502603,-0.7671662,0.3020195,-0.34806386,1.4359254,-0.48241484,-0.4192099,-1.611146,-0.09126647,-0.54434687,0.3892302,0.21687138,-1.7380137
0.0,-0.1,1.5,0.5235987755982988,-0.5235987755982988,0,-1.0244606,0.43560493,-0.81050193,0.32191163,-0.37153667,1.4228688,-0.49944088,-0.42624536,-1.6266606,-0.09008012,-0.549102,0.3207287,0.18014039,-1.7549211
0.0,-0.1,1.5,0.5235987755982988,-0.5235987755982988,0,-1.0603333,0.5152641,-0.8589593,0.28732944,-0.4015945,1.356899,-0.3970407,-0.43649969,-1.6286651,-0.08848888,-0.54220754,0.3238088,0.18867946,-1.6913893
0.0,-0.1,1.5,0.5235987755982988,-0.5235987755982988,0,-1.0540583,0.4565018,-0.72335947,0.32380214,-0.5270264,1.3733611,-0.41750458,-0.42853692,-1.6191167,-0.080048256,-0.5472861,0.33245093,0.17479178,-1.6909734
0.0,-0.1,1.5,0.5235987755982988,-0.5235987755982988,0,-1.0425917,0.52560216,-0.8074582,0.30667108,-0.4320749,1.390932,-0.4714501,-0.42610198,-1.6210322,-0.08159219,-0.53450835,0.3140536,0.16405168,-1.8347288
0.0,-0.1,1.5,0.5235987755982988,-0.5235987755982988,0,-1.0397626,0.48040888,-0.7864956,0.3195554,-0.442727,1.3796408,-0.464711,-0.4350029,-1.6161032,-0.08732422,-0.5437043,0.37219596,0.1662921,-1.7865459
0.0,-0.1,1.5,0.5235987755982988,-0.5235987755982988,0,-1.052424,0.45320588,-0.775389,0.3134907,-0.55471045,1.417574,-0.40914777,-0.4313604,-1.6241913,-0.08759489,-0.5483363,0.31708604,0.20084986,-1.7240607
0.0,-0.1,1.5,0.5235987755982988,-0.5235987755982988,0,-1.0664502,0.4563327,-0.7902921,0.34452727,-0.30197158,1.4206036,-0.33899423,-0.42726013,-1.624686,-0.09157816,-0.5519498,0.2850634,0.1994012,-1.8037815
0.0,-0.1,1.5,0.5235987755982988,-0.5235987755982988,0,-0.9961561,0.4141379,-0.8264824,0.32714382,-0.5296285,1.4462013,-0.449642,-0.42428124,-1.6218553,-0.086684994,-0.54091907,0.3117191,0.16887963,-1.6965443
0.0,-0.1,1.5,0.5235987755982988,-0.5235987755982988,0,-1.0670209,0.45086107,-0.75689626,0.29932892,-0.33677426,1.4217864,-0.2706877,-0.42520055,-1.6208377,-0.08981661,-0.5448647,0.35771534,0.17851551,-1.7441103
0.0,-0.1,1.5,0.5235987755982988,-0.5235987755982988,0,-1.0762601,0.5426548,-0.8313458,0.3225545,-0.34428468,1.4239553,-0.39798084,-0.41391987,-1.6235719,-0.08567581,-0.5418552,0.27073514,0.1841656,-1.7437159
0.0,-0.1,1.5,0.5235987755982988,-0.5235987755982988,0,-1.0316875,0.49151543,-0.80600816,0.3330674,-0.49450013,1.451109,-0.47706336,-0.42748058,-1.6229703,-0.086239554,-0.54158545,0.35370108,0.17499484,-1.722362
0.0,-0.1,1.5,0.5235987755982988,-0.5235987755982988,0,-1.0418042,0.447322,-0.7442769,0.31983215,-0.4428393,1.4128358,-0.3925596,-0.41421577,-1.6281097,-0.07951191,-0.5375994,0.30254173,0.16788583,-1.7545999
0.0,-0.1,1.5,0.5235987755982988,-0.5235987755982988,0,-1.0690806,0.5379036,-0.8309574,0.28638944,-0.44775665,1.4192442,-0.40585005,-0.41710562,-1.6195887,-0.08614575,-0.5414821,0.40839642,0.169659,-1.7526318
0.0,-0.1,1.5,0.5235987755982988,-0.5235987755982988,0,-1.0654794,0.45500678,-0.78274614,0.30994013,-0.34245923,1.3965248,-0.3447455,-0.43395817,-1.6168479,-0.091690995,-0.5379881,0.33582664,0.15457653,-1.6955283
0.0,-0.1,1.5,0.5235987755982988,-0.5235987755982988,0,-1.0600873,0.5022245,-0.8130586,0.3360908,-0.4312852,1.3321689,-0.47763872,-0.41732264,-1.6249797,-0.093237266,-0.54250705,0.3296754,0.19853644,-1.6736906
0.0,-0.1,1.5,0.5235987755982988,-0.5235987755982988,0,-1.0518277,0.46461177,-0.8842743,0.28958663,-0.60295874,1.3766394,-0.43586937,-0.43444183,-1.6243304,-0.08986194,-0.54435575,0.32478645,0.15782908,-1.6652275
0.0,-0.1,1.5,0.5235987755982988,-0.5235987755982988,0,-1.0524665,0.42478427,-0.77292264,0.32484686,-0.38090944,1.4164214,-0.42188048,-0.42090222,-1.6280766,-0.08637983,-0.54678595,0.33592975,0.19548878,-1.7826856
0.0,-0.1,1.5,0.5235987755982988,-0.5235987755982988,0,-1.0378201,0.502657,-0.8778972,0.34486037,-0.44478336,1.339159,-0.40578198,-0.4214662,-1.6183254,-0.08452016,-0.5445227,0.27227718,0.18376146,-1.742696
0.0,-0.1,1.5,0.5235987755982988,-0.5235987755982988,0,-1.0447806,0.53705716,-0.8370131,0.336333,-0.5163244,1.3573818,-0.4495886,-0.42910025,-1.6209774,-0.086474076,-0.5382804,0.31103233,0.15051,-1.7902908
0.0,-0.1,1.5,0.5235987755982988,-0.5235987755982988,0,-1.0450063,0.5326623,-0.820076,0.2831692,-0.5012358,1.4130447,-0.42345676,-0.41385484,-1.6201766,-0.08008915,-0.53578234,0.2852238,0.1610818,-1.7237589
0.0,-0.1,1.5,0.5235987755982988,-0.5235987755982988,0,-1.0741417,0.5035543,-0.7753392,0.31317103,-0.56055826,1.3868376,-0.40202153,-0.4326023,-1.6253551,-0.08716259,-0.5482368,0.29976478,0.16949528,-1.7474668
0.0,-0.1,1.5,0.5235987755982988,-0.5235987755982988,0,-1.0224105,0.51978207,-0.8920268,0.30463326,-0.49579063,1.3974121,-0.45081505,-0.432947,-1.6312414,-0.08106127,-0.5326783,0.3440897,0.1631705,-1.7437006
0.0,-0.1,1.5,0.5235987755982988,-0.5235987755982988,0,-1.0456477,0.5282234,-0.8108986,0.3160813,-0.48969826,1.391051,-0.55003273,-0.41349718,-1.6230382,-0.09525275,-0.5406969,0.3686725,0.14921886,-1.7580447
0.0,-0.1,1.5,0.5235987755982988,-0.5235987755982988,0,-1.0001514,0.5231914,-0.87763315,0.31095493,-0.5138632,1.5205412,-0.40782797,-0.42217007,-1.6243908,-0.090494625,-0.5475254,0.34935242,0.20347047,-1.6958394
0.0,-0.1,1.5,0.5235987755982988,-0.5235987755982988,0,-1.0503197,0.421912,-0.74357355,0.29672268,-0.47781745,1.4149655,-0.5028003,-0.4250158,-1.624115,-0.09710849,-0.55713415,0.30050084,0.18256642,-1.7401186
0.0,-0.1,1.5,0.5235987755982988,-0.5235987755982988,0,-1.0489718,0.47960705,-0.8354811,0.2970533,-0.41701165,1.3850167,-0.36243132,-0.41953403,-1.6166404,-0.09176228,-0.5445559,0.35799912,0.17706722,-1.8235871
0.0,-0.1,1.5,0.5235987755982988,-0.5235987755982988,0,-1.0562122,0.48020422,-0.82156265,0.29100195,-0.52050054,1.4646955,-0.43337777,-0.43326834,-1.6225867,-0.087500185,-0.5506531,0.38482174,0.14379366,-1.721045
0.0,-0.1,1.5,0.5235987755982988,-0.5235987755982988,0,-1.0617254,0.53672993,-0.85018235,0.3158301,-0.5039977,1.4210906,-0.4754377,-0.43263954,-1.623204,-0.089173466,-0.5425753,0.33788002,0.17899689,-1.7508216
0.0,-0.1,1.5,0.5235987755982988,-0.5235987755982988,0,-1.0432987,0.50839674,-0.84918815,0.29467857,-0.43162718,1.3784522,-0.3716602,-0.41801882,-1.620424,-0.08440598,-0.54197615,0.2742787,0.16135365,-1.7967737
0.0,-0.1,1.5,0.5235987755982988,-0.5235987755982988,0,-1.0847809,0.5433248,-0.86616445,0.29657736,-0.403825,1.4400556,-0.41429755,-0.43667352,-1.6154233,-0.08508951,-0.5474905,0.39261365,0.15955785,-1.7245187
0.0,-0.1,1.5,0.5235987755982988,-0.5235987755982988,0,-1.061232,0.4756085,-0.80347866,0.32701337,-0.532936,1.4049944,-0.45920599,-0.41502303,-1.623374,-0.09043813,-0.5297054,0.3648002,0.14300594,-1.7639956
0.0,-0.1,1.5,0.5235987755982988,-0.5235987755982988,0,-1.0375128,0.4180475,-0.7757382,0.3237489,-0.47978875,1.3838097,-0.449206,-0.41603684,-1.6247779,-0.09587255,-0.54137015,0.35685852,0.14653164,-1.7364296
0.0,-0.1,1.5,0.5235987755982988,-0.5235987755982988,0,-1.0592486,0.44624266,-0.87165207,0.30879554,-0.42842886,1.4142584,-0.36003876,-0.42846608,-1.6225998,-0.08671094,-0.54810256,0.33087727,0.16534194,-1.7138166
0.0,-0.1,1.5,0.5235987755982988,-0.5235987755982988,0,-1.0996059,0.43410447,-0.85946155,0.28722414,-0.45010382,1.379868,-0.2738852,-0.42817962,-1.6224859,-0.08660967,-0.54247576,0.30697975,0.14029133,-1.7447637
0.0,-0.1,1.5,0.5235987755982988,-0.5235987755982988,0,-1.0579469,0.56248796,-0.8857875,0.34259292,-0.56458485,1.4347423,-0.35006818,-0.44090164,-1.6306448,-0.08990661,-0.53748673,0.3589162,0.19168745,-1.7756411
0.0,-0.1,1.5,0.5235987755982988,-0.5235987755982988,0,-1.0437045,0.4213601,-0.82433015,0.3091649,-0.45871276,1.3988701,-0.48359612,-0.41828597,-1.6225414,-0.09578615,-0.5481959,0.39794618,0.17877518,-1.7104297
0.0,-0.1,1.5,0.5235987755982988,-0.5235987755982988,0,-1.0523814,0.5303673,-0.88117445,0.29947716,-0.47857684,1.4345045,-0.41417378,-0.41485116,-1.6207042,-0.09005697,-0.5383804,0.3591648,0.18412927,-1.7309626
0.0,-0.1,1.5,0.5235987755982988,-0.5235987755982988,0,-1.042458,0.4461448,-0.8156718,0.31643447,-0.5150665,1.4239613,-0.33545277,-0.41627043,-1.620836,-0.08522278,-0.53869665,0.33303082,0.19360632,-1.7953572
0.0,-0.1,1.5,0.5235987755982988,-0.5235987755982988,0,-1.035544,0.47354525,-0.8562443,0.30220917,-0.5158681,1.3461355,-0.43228015,-0.4331787,-1.6272112,-0.09305685,-0.5438599,0.2966762,0.14708897,-1.7070324
0.0,-0.1,1.5,0.5235987755982988,-0.5235987755982988,0,-1.0521783,0.4659663,-0.85822237,0.34902605,-0.49371085,1.4444524,-0.37092832,-0.4244625,-1.6277208,-0.088455185,-0.54325175,0.33117324,0.15798031,-1.7752672
0.0,-0.1,1.5,0.5235987755982988,-0.5235987755982988,0,-1.0669926,0.3786836,-0.79473346,0.33434317,-0.49788496,1.4195261,-0.43357715,-0.41424534,-1.6195647,-0.095090516,-0.539021,0.29522926,0.14901493,-1.7012275
0.0,-0.1,1.5,0.5235987755982988,-0.5235987755982988,0,-1.0413787,0.43520012,-0.7354977,0.26727858,-0.4719138,1.4188248,-0.34989965,-0.41901925,-1.6247687,-0.085326806,-0.540767,0.3327812,0.19480138,-1.8031777
0.0,-0.1,1.5,0.5235987755982988,-0.5235987755982988,0,-1.0416814,0.47049165,-0.7821164,0.300716,-0.40298563,1.3773278,-0.30779073,-0.4228936,-1.6135973,-0.08775468,-0.54739755,0.36825457,0.1881554,-1.7849479
0.0,-0.1,1.5,0.5235987755982988,-0.5235987755982988,0,-1.0677012,0.46557942,-0.77792364,0.27992967,-0.40165758,1.3701519,-0.35205778,-0.42948124,-1.6232344,-0.087229654,-0.5341507,0.32927683,0.19151092,-1.733453
0.0,-0.1,1.5,0.5235987755982988,-0.5235987755982988,0,-1.0119644,0.4888623,-0.7054497,0.35627833,-0.4581278,1.3462434,-0.49906504,-0.42310083,-1.6184112,-0.094396755,-0.5357432,0.38423118,0.20505154,-1.7343268
0.0,-0.1,1.5,0.5235987755982988,-0.5235987755982988,0,-1.090294,0.44476613,-0.8236043,0.27814195,-0.44474095,1.326847,-0.4444409,-0.4251604,-1.6157806,-0.08092432,-0.54096407,0.4035535,0.1981756,-1.7131065
0.0,-0.1,1.5,0.5235987755982988,-0.5235987755982988,0,-1.0272889,0.4844051,-0.78399384,0.32669604,-0.4903958,1.3841789,-0.33918428,-0.43760172,-1.6144135,-0.08569415,-0.5404208,0.41025826,0.17436956,-1.7429247
0.0,-0.1,1.5,0.5235987755982988,-0.5235987755982988,0,-1.05265,0.52088416,-0.7291877,0.3264592,-0.35553333,1.3976246,-0.50426185,-0.41443402,-1.6110737,-0.08373155,-0.5455871,0.3368773,0.16258194,-1.6312336
0.0,-0.1,1.5,0.5235987755982988,-0.5235987755982988,0,-1.0592812,0.489004,-0.7064816,0.31290352,-0.36259928,1.4186319,-0.4260121,-0.42041403,-1.6255716,-0.0813649,-0.5453323,0.32789376,0.17667194,-1.759005
0.0,-0.1,1.5,0.5235987755982988,-0.5235987755982988,0,-1.0458409,0.46559784,-0.7579836,0.3183062,-0.3373254,1.352736,-0.42811054,-0.40331075,-1.6247748,-0.091918,-0.551572,0.33231574,0.18040673,-1.7309536
0.0,-0.1,1.5,0.5235987755982988,-0.5235987755982988,0,-1.0318581,0.44018772,-0.79869294,0.331983,-0.49912792,1.3878586,-0.29928312,-0.43024966,-1.6233101,-0.08524716,-0.5389782,0.28602147,0.21329665,-1.6823335
0.0,-0.1,1.5,0.5235987755982988,-0.5235987755982988,0,-1.0165862,0.46193707,-0.7672759,0.2956726,-0.2805884,1.3678764,-0.45349556,-0.42070708,-1.6274829,-0.08564862,-0.5516912,0.33078548,0.18757647,-1.748367
0.0,-0.1,1.5,0.5235987755982988,-0.5235987755982988,0,-1.0505955,0.4762956,-0.7783948,0.29470506,-0.37597463,1.3617159,-0.48110828,-0.41179836,-1.6177675,-0.09160067,-0.5474345,0.32437593,0.20511456,-1.7532767
0.0,-0.1,1.5,0.5235987755982988,-0.5235987755982988,0,-1.0243417,0.44209146,-0.8418229,0.28472796,-0.47166777,1.3988367,-0.3334319,-0.42760977,-1.6134846,-0.09278476,-0.5556627,0.33296865,0.17459881,-1.7713668
0.0,-0.1,1.5,0.5235987755982988,-0.5235987755982988,0,-1.064259,0.46738094,-0.82940996,0.29120547,-0.45683983,1.3388325,-0.34753436,-0.42843252,-1.6233526,-0.08208894,-0.5449785,0.36711714,0.1685652,-1.7219955
0.0,-0.1,1.5,0.5235987755982988,-0.5235987755982988,0,-1.0337068,0.5767154,-0.7642106,0.34822544,-0.35319117,1.365496,-0.484906,-0.4168565,-1.6266072,-0.09528245,-0.5458522,0.33561763,0.16853677,-1.7307267
0.0,-0.1,1.5,0.5235987755982988,-0.5235987755982988,0,-1.04798,0.6231439,-0.782348,0.30907103,-0.46016523,1.3973218,-0.4787384,-0.42924228,-1.6300541,-0.08809505,-0.54211366,0.34577554,0.1680032,-1.7606317
0.0,-0.1,1.5,0.5235987755982988,-0.5235987755982988,0,-1.0349878,0.55829406,-0.759826,0.34202856,-0.34928343,1.4542321,-0.47773033,-0.41396415,-1.6208692,-0.08494919,-0.5466088,0.39680216,0.17159988,-1.7310668
0.0,-0.1,1.5,0.5235987755982988,-0.5235987755982988,0,-1.0307678,0.512292,-0.74101496,0.3091993,-0.32915843,1.3182576,-0.3779851,-0.41778454,-1.6251899,-0.078360654,-0.5378033,0.32830256,0.14065094,-1.6630809
0.0,-0.1,1.5,0.5235987755982988,-0.5235987755982988,0,-1.0465336,0.55116487,-0.7412889,0.31301528,-0.46882212,1.4439207,-0.41566968,-0.43403634,-1.6209928,-0.08616813,-0.5408984,0.37431133,0.17783359,-1.795806
0.0,-0.1,1.5,0.5235987755982988,-0.5235987755982988,0,-1.0329176,0.5125846,-0.7888693,0.27871856,-0.40712354,1.4150405,-0.50949585,-0.42180654,-1.6257149,-0.095560566,-0.54887605,0.31892434,0.18465033,-1.7071642
0.0,-0.1,1.5,0.5235987755982988,-0.5235987755982988,0,-1.0175258,0.4822937,-0.7997263,0.3244266,-0.43676564,1.3695325,-0.42701524,-0.42695785,-1.6230761,-0.089062184,-0.54488975,0.29103762,0.18831034,-1.7468823
0.0,-0.1,1.5,0.5235987755982988,-0.5235987755982988,0,-1.0918394,0.5457021,-0.7344587,0.32888138,-0.35163605,1.4020282,-0.37956467,-0.42763963,-1.6222613,-0.08955437,-0.54227114,0.35437274,0.16762798,-1.7372798
0.0,-0.1,1.5,0.5235987755982988,-0.5235987755982988,0,-1.0140706,0.4858694,-0.7881647,0.2944615,-0.48512247,1.436565,-0.4712143,-0.4253339,-1.6308715,-0.093128964,-0.5425931,0.2708046,0.1659284,-1.7334576
0.0,-0.1,1.5,0.5235987755982988,-0.5235987755982988,0,-1.0510465,0.4652403,-0.82440555,0.25741553,-0.33914337,1.4144367,-0.38860604,-0.4337233,-1.6311213,-0.08615933,-0.5409343,0.31507456,0.20275338,-1.7524382
0.0,-0.1,1.5,0.5235987755982988,-0.5235987755982988,0,-1.0433983,0.49450362,-0.6987744,0.34245157,-0.4303782,1.4196897,-0.3672085,-0.42161614,-1.6229036,-0.08932924,-0.5459477,0.37441528,0.14646068,-1.744199
0.0,-0.1,1.5,0.5235987755982988,-0.5235987755982988,0,-1.0406574,0.52380556,-0.8878843,0.29860592,-0.49355033,1.3798574,-0.24526271,-0.42366338,-1.618362,-0.09182655,-0.53497314,0.3442107,0.12696011,-1.6736745
0.0,-0.1,1.5,0.5235987755982988,-0.5235987755982988,0,-1.0505106,0.50446546,-0.7267807,0.3542986,-0.46896324,1.4985802,-0.3291087,-0.43321338,-1.620933,-0.089628555,-0.5460721,0.34175774,0.17883405,-1.6992284
0.0,-0.1,1.5,0.5235987755982988,-0.5235987755982988,0,-1.0472001,0.5331728,-0.75422096,0.29555556,-0.48647645,1.4429812,-0.32972965,-0.42926165,-1.6188655,-0.08758416,-0.543988,0.30932945,0.15570457,-1.738732
0.0,-0.1,1.5,0.5235987755982988,-0.5235987755982988,0,-1.0346967,0.50219136,-0.78405106,0.31207788,-0.2994985,1.4331743,-0.46504432,-0.4299643,-1.6229289,-0.08786128,-0.5359592,0.31441638,0.18498167,-1.7142437
0.0,-0.1,1.5,0.5235987755982988,-0.5235987755982988,0,-1.0467039,0.42884338,-0.75053185,0.3439709,-0.48258588,1.407406,-0.4591026,-0.43402377,-1.6249127,-0.08631738,-0.5437803,0.32973263,0.16888896,-1.8121114
0.0,-0.1,1.5,0.5235987755982988,-0.5235987755982988,0,-1.0409775,0.5482955,-0.7846871,0.339659,-0.41123536,1.3875897,-0.321657,-0.420088,-1.6209556,-0.087245256,-0.537638,0.28086978,0.1599564,-1.6650949
0.0,-0.1,1.5,0.5235987755982988,-0.5235987755982988,0,-1.0623695,0.49003002,-0.798849,0.25921777,-0.51905787,1.3813182,-0.45828164,-0.43392882,-1.6281391,-0.08596078,-0.53952956,0.35231495,0.16050306,-1.7314459
0.0,-0.1,1.5,0.5235987755982988,-0.5235987755982988,0,-1.0408708,0.48246664,-0.8062853,0.3223985,-0.46543053,1.4023805,-0.36685243,-0.41807047,-1.6287404,-0.09181844,-0.5509822,0.32246754,0.16878447,-1.6515614
0.0,-0.1,1.5,0.5235987755982988,-0.5235987755982988,0,-1.0559616,0.48380986,-0.7839523,0.30767307,-0.42097944,1.4065225,-0.39211252,-0.42208174,-1.6317741,-0.09284886,-0.54295677,0.3188347,0.17371364,-1.7583784
0.0,-0.1,1.5,0.5235987755982988,-0.5235987755982988,0,-1.053741,0.52828044,-0.76680124,0.2891444,-0.44476083,1.3685025,-0.41183573,-0.42230716,-1.6225067,-0.086997464,-0.54834896,0.31706285,0.2194521,-1.7495023
0.0,-0.1,1.5,0.5235987755982988,-0.5235987755982988,0,-1.0558065,0.41853166,-0.82785314,0.2650946,-0.47604224,1.3499818,-0.31711027,-0.42388636,-1.6206812,-0.08983562,-0.54335743,0.3035575,0.16440569,-1.8273677
0.0,-0.1,1.5,0.5235987755982988,-0.5235987755982988,0,-1.0283464,0.45303318,-0.7479657,0.29914853,-0.43925244,1.440428,-0.4377655,-0.42684674,-1.6205246,-0.07877874,-0.5379178,0.332743,0.16454425,-1.7604893
0.0,-0.1,1.5,0.5235987755982988,-0.5235987755982988,0,-1.0426711,0.52552843,-0.8008368,0.33940613,-0.39439887,1.4087774,-0.47849223,-0.43489206,-1.6174247,-0.08892804,-0.5464452,0.3952354,0.17077763,-1.717465
0.0,-0.1,1.5,0.5235987755982988,-0.5235987755982988,0,-1.0405173,0.45343542,-0.84513855,0.33200318,-0.34408504,1.3802803,-0.2536392,-0.42208475,-1.6262362,-0.081755325,-0.53908527,0.3572092,0.16798446,-1.7460648
0.0,-0.1,1.5,0.5235987755982988,-0.5235987755982988,0,-1.0442479,0.5219105,-0.76335496,0.3236244,-0.52427566,1.4247891,-0.5101822,-0.43197668,-1.6237066,-0.09084414,-0.55193263,0.32055742,0.19482335,-1.7048554
0.0,-0.1,1.5,0.5235987755982988,-0.5235987755982988,0,-1.0188531,0.44307175,-0.8193277,0.3362479,-0.54832625,1.3681253,-0.49057442,-0.42435724,-1.6215336,-0.08025781,-0.5458846,0.3489465,0.19313672,-1.723217
0.0,-0.1,1.5,0.5235987755982988,-0.5235987755982988,0,-1.0803902,0.5014022,-0.70439696,0.31023794,-0.5484095,1.4384052,-0.39149493,-0.43404594,-1.6270803,-0.09276163,-0.55181986,0.3041975,0.21101284,-1.8063148
0.0,-0.1,1.5,0.5235987755982988,-0.5235987755982988,0,-1.0126952,0.49595985,-0.8606262,0.35256743,-0.3246465,1.3760366,-0.46698728,-0.4223612,-1.626391,-0.086219005,-0.54549336,0.35129845,0.1462227,-1.6328537
0.0,-0.1,1.5,0.5235987755982988,-0.5235987755982988,0,-1.0380338,0.52665496,-0.7825237,0.30602908,-0.38340864,1.4620978,-0.44905594,-0.42430195,-1.6256719,-0.0855431,-0.54662555,0.33029607,0.17789279,-1.6707125
0.0,-0.1,1.5,0.5235987755982988,-0.5235987755982988,0,-1.0259595,0.46858135,-0.8763872,0.2757272,-0.46279788,1.3587776,-0.40049294,-0.4267809,-1.6272588,-0.081523664,-0.5442644,0.33205232,0.17603482,-1.7159413
0.0,-0.1,1.5,0.5235987755982988,-0.5235987755982988,0,-1.0582112,0.4949006,-0.8402443,0.3167,-0.43828008,1.4283184,-0.3127006,-0.42428172,-1.6264057,-0.091650635,-0.5454804,0.35045478,0.11961686,-1.7114825
0.0,-0.1,1.5,0.5235987755982988,-0.5235987755982988,0,-1.034029,0.49519205,-0.8282266,0.33039853,-0.38949168,1.4843367,-0.32622,-0.41554096,-1.6228119,-0.088859014,-0.5552196,0.32644206,0.17095752,-1.7128851
0.0,-0.1,1.5,0.5235987755982988,-0.5235987755982988,0,-1.0917691,0.48846465,-0.7267481,0.30958965,-0.41228646,1.4293373,-0.38764066,-0.42613316,-1.627437,-0.087280765,-0.54145813,0.30031526,0.16772452,-1.7477607
0.0,-0.1,1.5,0.5235987755982988,-0.5235987755982988,0,-1.0558901,0.42984524,-0.8310274,0.31052062,-0.38058436,1.4649101,-0.49022773,-0.4289502,-1.6299149,-0.08716653,-0.5410826,0.31363484,0.19676639,-1.7053763
0.0,-0.1,1.5,0.5235987755982988,-0.5235987755982988,0,-1.0867057,0.4719185,-0.80149245,0.31193295,-0.48538056,1.3531072,-0.45848712,-0.4182499,-1.6245292,-0.092582166,-0.5468005,0.42307207,0.15578437,-1.817454
0.0,-0.1,1.5,0.5235987755982988,-0.5235987755982988,0,-1.0670013,0.4268721,-0.7571198,0.29140547,-0.47445717,1.4751242,-0.4018725,-0.42139354,-1.6275396,-0.087030955,-0.5435219,0.32533866,0.18349771,-1.6623025
0.0,-0.1,1.5,0.5235987755982988,-0.5235987755982988,0,-1.0563126,0.50077915,-0.78926224,0.35878482,-0.36667812,1.395185,-0.27836975,-0.422709,-1.627489,-0.0938817,-0.54543877,0.28805366,0.17653115,-1.7183002
0.0,-0.1,1.5,0.5235987755982988,-0.5235987755982988,0,-1.0616851,0.47886044,-0.84732413,0.29675832,-0.534286,1.3680578,-0.24864386,-0.4277125,-1.6293352,-0.08665052,-0.5399509,0.3328908,0.18627524,-1.6595634
0.0,-0.1,1.5,0.5235987755982988,-0.5235987755982988,0,-1.0588671,0.5166478,-0.848606,0.29292846,-0.5092427,1.405964,-0.4062529,-0.42854324,-1.6331961,-0.09367416,-0.55490756,0.355764,0.16884992,-1.6938472
0.0,-0.1,1.5,0.5235987755982988,-0.5235987755982988,0,-1.0821247,0.5023775,-0.71204245,0.3303585,-0.52516294,1.4053023,-0.52542394,-0.42955697,-1.6229696,-0.087125614,-0.5385203,0.33035523,0.18696517,-1.7352451
0.0,-0.1,1.5,0.5235987755982988,-0.5235987755982988,0,-1.074954,0.4666213,-0.7082542,0.3219974,-0.5592393,1.3478532,-0.3834347,-0.4141075,-1.6321708,-0.08383138,-0.5512268,0.34643787,0.18281367,-1.7101072
0.0,-0.1,1.5,0.5235987755982988,-0.5235987755982988,0,-1.0409622,0.5101419,-0.7563594,0.33393222,-0.51580364,1.4562786,-0.35667264,-0.42774025,-1.6176733,-0.09021802,-0.54223543,0.3867859,0.14961556,-1.7663419
0.0,-0.1,1.5,0.5235987755982988,-0.5235987755982988,0,-1.0513448,0.44393885,-0.7250121,0.3174239,-0.3848566,1.3784062,-0.39713827,-0.42558193,-1.624114,-0.08461085,-0.5434893,0.3473851,0.15839048,-1.7204529
0.0,-0.1,1.5,0.5235987755982988,-0.5235987755982988,0,-1.0508738,0.47449282,-0.7564809,0.29324207,-0.33445892,1.4737382,-0.49619156,-0.41243595,-1.6169931,-0.09004096,-0.5448166,0.3573095,0.16199014,-1.7240627
0.0,-0.1,1.5,0.5235987755982988,-0.5235987755982988,0,-1.0563068,0.45427486,-0.87942255,0.28693038,-0.44919503,1.4115149,-0.35301813,-0.417986,-1.6279807,-0.08667191,-0.54885143,0.38522485,0.20922232,-1.7441012
0.0,-0.1,1.5,0.5235987755982988,-0.5235987755982988,0,-1.0199587,0.53112215,-0.90191126,0.29429746,-0.5551751,1.35901,-0.40144014,-0.4243196,-1.6229141,-0.076907024,-0.5395069,0.3686997,0.16567692,-1.7584746
0.0,-0.1,1.5,0.5235987755982988,-0.5235987755982988,0,-1.0735736,0.5924575,-0.7036905,0.31140235,-0.5120305,1.4036642,-0.21706301,-0.42111745,-1.6211096,-0.09103784,-0.54909414,0.35710537,0.18682778,-1.8086447
0.0,-0.1,1.5,0.5235987755982988,-0.5235987755982988,0,-1.0606997,0.4384424,-0.71337074,0.30287218,-0.5082146,1.4360074,-0.42509282,-0.4280965,-1.6188422,-0.08542647,-0.5541761,0.31200862,0.15773852,-1.7341219
0.0,-0.1,1.5,0.5235987755982988,-0.5235987755982988,0,-1.0513225,0.46823308,-0.77796906,0.2806924,-0.4690562,1.3415961,-0.476716,-0.42168954,-1.6192744,-0.0888369,-0.5385649,0.37023005,0.15845418,-1.7353963
0.0,-0.1,1.5,0.5235987755982988,-0.5235987755982988,0,-1.053696,0.57889,-0.84329635,0.34810254,-0.46195337,1.4779574,-0.42149928,-0.42959824,-1.6255308,-0.08382716,-0.5383097,0.36274537,0.1658186,-1.8024801
0.0,-0.1,1.5,0.5235987755982988,-0.5235987755982988,0,-1.0658388,0.42392915,-0.7228572,0.28991646,-0.3861698,1.400835,-0.5262018,-0.42433587,-1.6166862,-0.08580418,-0.53384686,0.33170548,0.15541881,-1.857525
0.0,-0.1,1.5,0.5235987755982988,-0.5235987755982988,0,-1.0338053,0.43539354,-0.81534386,0.3367752,-0.46616936,1.3768603,-0.46197098,-0.41567954,-1.619209,-0.08289725,-0.5383188,0.37292105,0.16544455,-1.7585351
0.0,-0.1,1.5,0.5235987755982988,-0.5235987755982988,0,-1.0161834,0.4812672,-0.80185926,0.3227334,-0.33666128,1.4770024,-0.5000131,-0.43097562,-1.6210517,-0.086297385,-0.5499269,0.32834417,0.20431243,-1.7836245
0.0,-0.1,1.5,0.5235987755982988,-0.5235987755982988,0,-1.031816,0.5429667,-0.77885705,0.36219874,-0.4955822,1.4108064,-0.3647991,-0.4161723,-1.6221726,-0.090048455,-0.53661615,0.3572503,0.20184316,-1.7629495
0.0,-0.1,1.5,0.5235987755982988,-0.5235987755982988,0,-1.0418861,0.47653294,-0.783473,0.34847525,-0.37783542,1.4116529,-0.36714226,-0.4285709,-1.6210604,-0.08959001,-0.54174376,0.27886587,0.18435687,-1.7373365
0.0,-0.1,1.5,0.5235987755982988,-0.5235987755982988,0,-1.0422866,0.51954544,-0.785812,0.33830297,-0.4242101,1.447747,-0.4737006,-0.42825153,-1.6286781,-0.080054194,-0.53593564,0.36708257,0.15595435,-1.7409627
0.0,-0.1,1.5,0.5235987755982988,-0.5235987755982988,0,-1.0520693,0.48569766,-0.78634584,0.3320113,-0.48866558,1.4362547,-0.4218281,-0.42996648,-1.6194756,-0.090124816,-0.5389735,0.29094917,0.1657528,-1.7295285
0.0,-0.1,1.5,0.5235987755982988,-0.5235987755982988,0,-1.0601783,0.54931015,-0.7284927,0.33470201,-0.39787847,1.3852093,-0.27545813,-0.42143095,-1.6308669,-0.090660006,-0.53539777,0.28941217,0.15817986,-1.7415243
0.0,-0.1,1.5,0.5235987755982988,-0.5235987755982988,0,-1.0482266,0.4770222,-0.7493629,0.30450478,-0.5114198,1.3745896,-0.49072534,-0.42013356,-1.6272599,-0.096702315,-0.54129696,0.41167217,0.16137053,-1.8138453
0.0,-0.1,1.5,0.5235987755982988,-0.5235987755982988,0,-1.0268674,0.445938,-0.75274354,0.30305356,-0.4924855,1.4104671,-0.37401876,-0.43496168,-1.6234298,-0.091730125,-0.5423711,0.362519,0.16313419,-1.7049971
0.0,-0.1,1.5,0.5235987755982988,-0.5235987755982988,0,-1.0188317,0.52691174,-0.8312102,0.30469742,-0.45678663,1.3581798,-0.41568023,-0.42734545,-1.6203036,-0.08473462,-0.54793566,0.31563658,0.18380801,-1.779951
0.0,-0.1,1.5,0.5235987755982988,-0.5235987755982988,0,-1.0730132,0.47026533,-0.7865601,0.35085168,-0.44730198,1.3929524,-0.4616506,-0.41969448,-1.6272055,-0.08928404,-0.5385336,0.41888395,0.15979466,-1.7385249
0.0,-0.1,1.5,0.5235987755982988,-0.5235987755982988,0,-1.0522003,0.43531653,-0.78777355,0.2882633,-0.43020505,1.3931106,-0.373135,-0.41775927,-1.6196774,-0.09385658,-0.5495677,0.3270077,0.1840235,-1.6984928
0.0,-0.1,1.5,0.5235987755982988,-0.5235987755982988,0,-1.0620955,0.44632623,-0.81361836,0.31853196,-0.4603423,1.4687587,-0.4286444,-0.42089477,-1.6184007,-0.08770992,-0.5467788,0.32474634,0.1632755,-1.7132213
0.0,-0.1,1.5,0.5235987755982988,-0.5235987755982988,0,-1.0590156,0.50300676,-0.82690835,0.3313272,-0.4765985,1.4090486,-0.49819264,-0.41806048,-1.622995,-0.08314761,-0.55606467,0.3236119,0.16811442,-1.7496387
0.0,-0.1,1.5,0.5235987755982988,-0.5235987755982988,0,-1.0229053,0.4940694,-0.7959413,0.32003945,-0.5031033,1.4660113,-0.4562368,-0.42234316,-1.6141487,-0.091577984,-0.55069923,0.37838927,0.20252338,-1.7142843
0.0,-0.1,1.5,0.5235987755982988,-0.5235987755982988,0,-1.0288502,0.49058813,-0.8104534,0.31276056,-0.5095349,1.4448323,-0.36060825,-0.42817155,-1.6264911,-0.08603287,-0.54342234,0.34331712,0.15672012,-1.7479154
0.0,-0.1,1.5,0.5235987755982988,-0.5235987755982988,0,-1.0591204,0.49151847,-0.79199153,0.34264207,-0.44915095,1.4153332,-0.3660252,-0.42510355,-1.6213148,-0.089168414,-0.5428825,0.31376353,0.1566254,-1.6759032
0.0,-0.1,1.5,0.5235987755982988,-0.5235987755982988,0,-1.0487058,0.47244605,-0.7949214,0.30463907,-0.35893288,1.4619721,-0.43914554,-0.4260486,-1.6276352,-0.08648104,-0.5402894,0.32929265,0.17279653,-1.7355719
0.0,-0.1,1.5,0.5235987755982988,-0.5235987755982988,0,-1.0198691,0.4440055,-0.8670882,0.3242111,-0.501203,1.4429461,-0.40083733,-0.4203008,-1.6241628,-0.09241875,-0.54819566,0.38945505,0.19674344,-1.702658
0.0,-0.1,1.5,0.5235987755982988,-0.5235987755982988,0,-1.0190549,0.46598816,-0.824724,0.32594422,-0.37682134,1.4344008,-0.53516084,-0.43071547,-1.6298243,-0.08326821,-0.54563445,0.33432707,0.18197776,-1.6989607
0.0,-0.1,1.5,0.5235987755982988,-0.5235987755982988,0,-1.0434749,0.5451001,-0.8118666,0.31317976,-0.3801643,1.4518394,-0.559301,-0.4251533,-1.623092,-0.08715917,-0.54218256,0.36032042,0.16212128,-1.7799261
0.0,-0.1,1.5,0.5235987755982988,-0.5235987755982988,0,-1.0843374,0.50311536,-0.8472925,0.32719252,-0.5598728,1.3330319,-0.38898247,-0.4258588,-1.6235414,-0.086466745,-0.5441816,0.35818076,0.17045376,-1.7183335
0.0,-0.1,1.5,0.5235987755982988,-0.5235987755982988,0,-1.0428869,0.50141466,-0.817116,0.31968927,-0.42139232,1.4178742,-0.45224476,-0.41991425,-1.6180782,-0.09583556,-0.5439764,0.37840685,0.16366383,-1.7048684
0.0,-0.1,1.5,0.5235987755982988,-0.5235987755982988,0,-1.045858,0.46839845,-0.7297319,0.33374533,-0.40867347,1.4289033,-0.31956834,-0.4381866,-1.6239239,-0.08901762,-0.54146224,0.322794,0.17928515,-1.7500787
0.0,-0.1,1.5,0.5235987755982988,-0.5235987755982988,0,-1.0431161,0.44418186,-0.7902898,0.32602727,-0.4172449,1.4095899,-0.42880788,-0.42294636,-1.6277463,-0.08588322,-0.5437477,0.34890917,0.1867286,-1.7887752
0.0,-0.1,1.5,0.5235987755982988,-0.5235987755982988,0,-1.0461456,0.52173895,-0.8151841,0.34316075,-0.41646037,1.354988,-0.44075784,-0.41704974,-1.62882,-0.09186125,-0.5457004,0.3584595,0.16665748,-1.7354364
0.0,-0.1,1.5,0.5235987755982988,-0.5235987755982988,0,-1.0313548,0.41960406,-0.813807,0.2906772,-0.3604906,1.3901268,-0.42364055,-0.43020836,-1.6216997,-0.09255278,-0.5456599,0.33627325,0.14098771,-1.686302
0.0,-0.1,1.5,0.5235987755982988,-0.5235987755982988,0,-1.0242591,0.42902014,-0.778901,0.2962796,-0.42869207,1.3963405,-0.43585655,-0.41676307,-1.6164141,-0.085885175,-0.5458356,0.3186704,0.1619776,-1.7414466
0.0,-0.1,1.5,0.5235987755982988,-0.5235987755982988,0,-1.0462568,0.45871514,-0.7851168,0.30878374,-0.4472652,1.394529,-0.44196415,-0.42462912,-1.625359,-0.093917795,-0.548201,0.39936593,0.16447908,-1.7910901
0.0,-0.1,1.5,0.5235987755982988,-0.5235987755982988,0,-1.0495044,0.49608865,-0.85682815,0.27295524,-0.2918094,1.4338413,-0.4729137,-0.41853854,-1.6253526,-0.080371775,-0.5498573,0.3344832,0.17566122,-1.7669642
0.0,-0.1,1.5,0.5235987755982988,-0.5235987755982988,0,-1.0281242,0.4595353,-0.86454886,0.3090193,-0.36821347,1.4305109,-0.4531862,-0.41468552,-1.628125,-0.0884827,-0.5467951,0.32589316,0.21279028,-1.7294136
0.0,-0.1,1.5,0.5235987755982988,-0.5235987755982988,0,-1.049254,0.47399092,-0.84225947,0.29398167,-0.39437082,1.43366,-0.45500937,-0.43274426,-1.6193961,-0.083598904,-0.5356699,0.35047284,0.15772465,-1.6995802
0.0,-0.1,1.5,0.5235987755982988,-0.5235987755982988,0,-1.0343186,0.5149601,-0.86571896,0.3405608,-0.4234505,1.4122705,-0.46036875,-0.42687178,-1.6246899,-0.08569529,-0.544496,0.2985534,0.19303426,-1.6687971
0.0,-0.1,1.5,0.5235987755982988,-0.5235987755982988,0,-1.0474178,0.47324157,-0.780731,0.33682662,-0.48506105,1.412794,-0.5101093,-0.42354625,-1.6281286,-0.086530216,-0.5512522,0.34084097,0.17443793,-1.7009763
0.0,-0.1,1.5,0.5235987755982988,-0.5235987755982988,0,-1.0587924,0.45963496,-0.7853309,0.34632793,-0.49726108,1.4316014,-0.47479185,-0.4188478,-1.6212809,-0.08632142,-0.53434265,0.27701175,0.17269142,-1.7485765
0.0,-0.1,1.5,0.5235987755982988,-0.5235987755982988,0,-1.0473225,0.52145845,-0.85813886,0.27235284,-0.45175463,1.320444,-0.5345788,-0.42967018,-1.6237832,-0.08976809,-0.5505805,0.35092416,0.19550662,-1.7592181
0.0,-0.1,1.5,0.5235987755982988,-0.5235987755982988,0,-1.0104798,0.5146819,-0.8145102,0.34900302,-0.27380386,1.4114182,-0.21293831,-0.4271124,-1.6195282,-0.087999225,-0.54816395,0.32040042,0.20689009,-1.7493867
0.0,-0.1,1.5,0.5235987755982988,-0.5235987755982988,0,-1.0571942,0.49671453,-0.8321683,0.32059237,-0.4750384,1.4119765,-0.39858705,-0.42545757,-1.6189944,-0.09577538,-0.5487578,0.34193754,0.163916,-1.7440225
0.0,-0.1,1.5,0.5235987755982988,-0.5235987755982988,0,-1.0604682,0.45706657,-0.78035045,0.26728675,-0.5047736,1.3841752,-0.42012313,-0.43115148,-1.6235999,-0.0858235,-0.54852015,0.31064805,0.1998621,-1.7001342
0.0,-0.1,1.5,0.5235987755982988,-0.5235987755982988,0,-1.0446755,0.40966192,-0.76034725,0.3339226,-0.48945773,1.3829874,-0.4055456,-0.4153299,-1.6174809,-0.08572703,-0.54891795,0.35217103,0.15770997,-1.715928
0.0,-0.1,1.5,0.5235987755982988,-0.5235987755982988,0,-1.0630242,0.49129403,-0.8081174,0.30779287,-0.5143899,1.4505471,-0.28637454,-0.42912954,-1.6281655,-0.08890272,-0.5477806,0.28220594,0.13866982,-1.6864836
0.0,-0.1,1.5,0.5235987755982988,-0.5235987755982988,0,-1.0246209,0.41971195,-0.80678946,0.3224151,-0.40967318,1.4189473,-0.37018612,-0.42205843,-1.6290802,-0.08901678,-0.5459427,0.41007343,0.16142929,-1.7540812
0.0,-0.1,1.5,0.5235987755982988,-0.5235987755982988,0,-1.0708416,0.4421023,-0.7705047,0.3090234,-0.54822826,1.3496978,-0.41040984,-0.4304457,-1.6320423,-0.089891925,-0.5383208,0.36721018,0.1590313,-1.8035363
0.0,-0.1,1.5,0.5235987755982988,-0.5235987755982988,0,-1.0974058,0.47275755,-0.7818677,0.3507169,-0.4690227,1.3755978,-0.3512449,-0.41865614,-1.6190721,-0.09434467,-0.5503296,0.3332607,0.20238727,-1.7955067
0.0,-0.1,1.5,0.5235987755982988,-0.5235987755982988,0,-1.0505459,0.50036037,-0.84647804,0.28078127,-0.4573642,1.3935853,-0.41124827,-0.4305271,-1.6200757,-0.09653363,-0.54365367,0.30643192,0.16323058,-1.7561988
0.0,-0.1,1.5,0.5235987755982988,-0.5235987755982988,0,-1.0601906,0.50405633,-0.8478497,0.28923312,-0.3981756,1.4181315,-0.4559156,-0.43078473,-1.6250647,-0.09134429,-0.5394221,0.32361737,0.14221233,-1.7277392
0.0,-0.1,1.5,0.5235987755982988,-0.5235987755982988,0,-1.0469803,0.53769535,-0.90357774,0.3032242,-0.45760167,1.4549651,-0.38097277,-0.43182817,-1.6306814,-0.0853207,-0.5292684,0.37466258,0.192404,-1.7086989
0.0,-0.1,1.5,0.5235987755982988,-0.5235987755982988,0,-1.0613366,0.41815466,-0.788078,0.3430806,-0.49743447,1.3925614,-0.40117297,-0.4169376,-1.6252685,-0.08893132,-0.5478742,0.3134298,0.17110449,-1.6861085
0.0,-0.1,1.5,0.5235987755982988,-0.5235987755982988,0,-1.0649674,0.46707457,-0.8332051,0.28594005,-0.45623282,1.4409662,-0.3970719,-0.41698244,-1.6175317,-0.08788348,-0.5447994,0.32043114,0.19146074,-1.7589586
0.0,-0.1,1.5,0.5235987755982988,-0.5235987755982988,0,-1.083313,0.48152763,-0.78560996,0.29494083,-0.47036365,1.4618293,-0.32247278,-0.4193626,-1.6209686,-0.08436349,-0.54491067,0.32101598,0.19027677,-1.7630266
0.0,-0.1,1.5,0.5235987755982988,-0.5235987755982988,0,-1.0465106,0.4388645,-0.8572128,0.28012362,-0.40234345,1.3988343,-0.4256794,-0.42425257,-1.6218858,-0.08799695,-0.54855037,0.4102697,0.1635309,-1.7630858
0.0,-0.1,1.5,0.5235987755982988,-0.5235987755982988,0,-1.0474333,0.48873675,-0.8031165,0.33818394,-0.4994704,1.4385554,-0.47846514,-0.42416954,-1.6301285,-0.084288724,-0.5515756,0.33348867,0.125866,-1.7550422
0.0,-0.1,1.5,0.5235987755982988,-0.5235987755982988,0,-1.0493463,0.46722522,-0.90865797,0.3054007,-0.47614247,1.4468724,-0.31838182,-0.42751962,-1.6244049,-0.091013744,-0.54636264,0.3026147,0.17888963,-1.7484447
0.0,-0.1,1.5,0.5235987755982988,-0.5235987755982988,0,-1.0310347,0.40945613,-0.88313866,0.280211,-0.58634603,1.4004363,-0.4313569,-0.43253338,-1.6201712,-0.09013178,-0.53296614,0.3647047,0.16839169,-1.7387118
0.0,-0.1,1.5,0.5235987755982988,-0.5235987755982988,0,-1.0899235,0.4531819,-0.7348904,0.30254817,-0.50204825,1.400548,-0.45310932,-0.42904714,-1.6174523,-0.09611845,-0.5396985,0.36098284,0.19236387,-1.7521969
0.0,-0.1,1.5,0.5235987755982988,-0.5235987755982988,0,-1.0599164,0.40710005,-0.82182366,0.294769,-0.40499625,1.3773661,-0.39282078,-0.42517152,-1.6184077,-0.096376546,-0.53603685,0.32724676,0.13777074,-1.7854652
0.0,-0.1,1.5,0.5235987755982988,-0.5235987755982988,0,-1.0729729,0.48076755,-0.8576309,0.29646233,-0.4425575,1.3942398,-0.5176051,-0.4283037,-1.6324342,-0.078540884,-0.5368985,0.33576334,0.12243876,-1.7481394
0.0,-0.1,1.5,0.5235987755982988,-0.5235987755982988,0,-1.028051,0.40179992,-0.8267635,0.25495243,-0.4449969,1.4146004,-0.4475154,-0.42205533,-1.6242337,-0.08999506,-0.5517633,0.35366175,0.14559436,-1.7297164
0.0,-0.1,1.5,0.5235987755982988,-0.5235987755982988,0,-1.0784855,0.44305304,-0.84103847,0.30852053,-0.4953082,1.4524769,-0.29715702,-0.41654265,-1.6211691,-0.0897175,-0.5413764,0.35067454,0.17190933,-1.7622597
0.0,-0.1,1.5,0.5235987755982988,-0.5235987755982988,0,-1.0562434,0.42051038,-0.82808584,0.34153217,-0.44821987,1.4146855,-0.40893567,-0.42636722,-1.6209166,-0.092377745,-0.5499883,0.30061132,0.18245643,-1.7089435
0.0,-0.1,1.5,0.5235987755982988,-0.5235987755982988,0,-1.0638171,0.4492558,-0.8722426,0.34229735,-0.43486714,1.3804384,-0.42790437,-0.41995275,-1.6209466,-0.093329005,-0.54304075,0.29680717,0.13979357,-1.7024711
0.0,-0.1,1.5,0.5235987755982988,-0.5235987755982988,0,-1.016722,0.466208,-0.75393075,0.32712296,-0.3834171,1.3800883,-0.3324452,-0.42602935,-1.6320336,-0.09755168,-0.5420734,0.37650436,0.18369739,-1.7060095
0.0,-0.1,1.5,0.5235987755982988,-0.5235987755982988,0,-1.0548377,0.54995817,-0.76522577,0.3182332,-0.5302258,1.3743906,-0.2949982,-0.4194853,-1.6265843,-0.09322743,-0.54701483,0.3125636,0.16337821,-1.679171
0.0,-0.1,1.5,0.5235987755982988,-0.5235987755982988,0,-1.0249375,0.54538596,-0.7732948,0.28296277,-0.46917942,1.4684335,-0.39785713,-0.42659497,-1.6256179,-0.096725605,-0.54379976,0.31475127,0.15887696,-1.674813
0.0,-0.1,1.5,0.5235987755982988,-0.5235987755982988,0,-1.0373936,0.4969467,-0.77873147,0.29929626,-0.5043506,1.4104521,-0.3583552,-0.4197324,-1.6272082,-0.0897241,-0.54120713,0.39493167,0.18683381,-1.7712388
0.0,-0.1,1.5,0.5235987755982988,-0.5235987755982988,0,-1.0094168,0.5039837,-0.8185321,0.34126908,-0.3810462,1.4295379,-0.48503566,-0.41954902,-1.6222187,-0.08548568,-0.5435897,0.3654431,0.17196347,-1.7233692
0.0,-0.1,1.5,0.5235987755982988,-0.5235987755982988,0,-1.0295669,0.44934714,-0.7293277,0.33586377,-0.34699932,1.357505,-0.3363955,-0.41404572,-1.6274401,-0.08578325,-0.5419021,0.31594378,0.19303069,-1.7360148
0.0,-0.1,1.5,0.5235987755982988,-0.5235987755982988,0,-1.0658307,0.4597461,-0.74259007,0.27130166,-0.5014134,1.4118204,-0.3232795,-0.4237897,-1.6262267,-0.086198,-0.53801847,0.3201561,0.15596515,-1.7260001
0.0,-0.1,1.5,0.5235987755982988,-0.5235987755982988,0,-1.0341278,0.472817,-0.82061505,0.302097,-0.3848876,1.416288,-0.43511277,-0.4128458,-1.6250724,-0.08551788,-0.55127907,0.3886096,0.15101936,-1.730072
0.0,-0.1,1.5,0.5235987755982988,-0.5235987755982988,0,-1.0290575,0.4654222,-0.79566604,0.32223,-0.4180785,1.4351078,-0.44751135,-0.4184352,-1.6272954,-0.089412324,-0.55193377,0.27406293,0.18093798,-1.7653272
0.0,-0.1,1.5,0.5235987755982988,-0.5235987755982988,0,-1.0525472,0.44068462,-0.80514276,0.24714695,-0.4741487,1.3804426,-0.48815453,-0.4229839,-1.6151185,-0.08547823,-0.546162,0.3839936,0.17422812,-1.7485278
0.0,-0.1,1.5,0.5235987755982988,-0.5235987755982988,0,-1.053604,0.46796265,-0.79674894,0.28557438,-0.46604612,1.4223422,-0.4394217,-0.41642243,-1.6191416,-0.086245775,-0.5382952,0.37349987,0.16311912,-1.7238047
0.0,-0.1,1.5,0.5235987755982988,-0.5235987755982988,0,-1.0358349,0.4744565,-0.78873855,0.25913072,-0.55984956,1.4444679,-0.29119232,-0.42432588,-1.6275011,-0.08847106,-0.5358537,0.381972,0.1830588,-1.7289761
0.0,-0.1,1.5,0.5235987755982988,-0.5235987755982988,0,-1.0706568,0.5133065,-0.77904725,0.30641603,-0.52779627,1.3944175,-0.37489763,-0.42507547,-1.6264646,-0.08978487,-0.5446351,0.37875903,0.1480838,-1.7657777
0.0,-0.1,1.5,0.5235987755982988,-0.5235987755982988,0,-1.0470035,0.5044008,-0.8049973,0.3138936,-0.5178548,1.3790939,-0.39513966,-0.4259412,-1.6213459,-0.084364206,-0.55008525,0.31635576,0.1997806,-1.7248907
0.0,-0.1,1.5,0.5235987755982988,-0.5235987755982988,0,-1.0661172,0.518864,-0.8584862,0.2893093,-0.37564743,1.3590043,-0.5381271,-0.41815192,-1.6330309,-0.087548055,-0.54068196,0.35159403,0.16538906,-1.6586374
0.0,-0.1,1.5,0.5235987755982988,-0.5235987755982988,0,-1.0572916,0.48400044,-0.8059215,0.32568595,-0.52784014,1.372965,-0.30172718,-0.41876802,-1.6225672,-0.08400413,-0.5396379,0.31428322,0.16985203,-1.7758067
0.0,-0.1,1.5,0.5235987755982988,-0.5235987755982988,0,-1.0366714,0.43305975,-0.83885455,0.29583275,-0.39000028,1.4403859,-0.3544196,-0.4170313,-1.6222565,-0.086041175,-0.5448274,0.30385518,0.16154759,-1.6891754
0.0,-0.1,1.5,0.5235987755982988,-0.5235987755982988,0,-1.0345875,0.5027684,-0.8469393,0.30164045,-0.4996035,1.4279692,-0.44728908,-0.41841462,-1.6205176,-0.09146802,-0.54540956,0.41277623,0.16909638,-1.7733471
0.0,-0.1,1.5,0.5235987755982988,-0.5235987755982988,0,-1.0619903,0.51549685,-0.794025,0.34455416,-0.5677003,1.4124329,-0.4425872,-0.42198223,-1.6310182,-0.08533889,-0.5399101,0.32382864,0.1872097,-1.7722396
0.0,-0.1,1.5,0.5235987755982988,-0.5235987755982988,0,-1.0563308,0.5158121,-0.83012825,0.35470778,-0.438785,1.4237005,-0.35102636,-0.4239048,-1.6267377,-0.08465419,-0.5417027,0.40840787,0.18239209,-1.6836262
0.0,-0.1,1.5,0.5235987755982988,-0.5235987755982988,0,-1.0324943,0.50315,-0.8317226,0.35864297,-0.39888903,1.4185143,-0.44617316,-0.41683373,-1.6260399,-0.08951309,-0.55196625,0.3305438,0.1726087,-1.7026972
0.0,-0.1,1.5,0.5235987755982988,-0.5235987755982988,0,-1.0597209,0.51474774,-0.8681191,0.308664,-0.40146393,1.3997821,-0.2624389,-0.41625506,-1.6237698,-0.09070935,-0.54983634,0.37441328,0.16181757,-1.7044979
0.0,-0.1,1.5,0.5235987755982988,-0.5235987755982988,0,-1.0453503,0.41732982,-0.7810401,0.3262548,-0.4411842,1.4166099,-0.42561507,-0.4165914,-1.6138283,-0.08438781,-0.5454213,0.29803148,0.15203242,-1.7270436
0.0,-0.1,1.5,0.5235987755982988,-0.5235987755982988,0,-1.0417686,0.43227336,-0.8451896,0.30636954,-0.39784956,1.3890748,-0.3630725,-0.42414153,-1.6227452,-0.093579605,-0.543225,0.30951807,0.15331592,-1.7066967
0.0,-0.1,1.5,0.5235987755982988,-0.5235987755982988,0,-1.0515767,0.5054219,-0.72140676,0.3431739,-0.4735737,1.4664214,-0.37326902,-0.43211153,-1.619449,-0.09289101,-0.5469146,0.3084338,0.1719165,-1.6591624
0.0,-0.1,1.5,0.5235987755982988,-0.5235987755982988,0,-1.0443215,0.48781058,-0.76027834,0.32419392,-0.3880673,1.3866032,-0.45227778,-0.42252046,-1.6238235,-0.09061152,-0.553188,0.393588,0.13274342,-1.7602823
0.0,-0.1,1.5,0.5235987755982988,-0.5235987755982988,0,-1.0507762,0.51038414,-0.77985215,0.33567214,-0.46876368,1.4170611,-0.3833985,-0.41802585,-1.6189706,-0.08614865,-0.53940463,0.35979316,0.13465856,-1.7661916
0.0,-0.1,1.5,0.5235987755982988,-0.5235987755982988,0,-1.065622,0.44614974,-0.70475465,0.33727625,-0.5345835,1.3971997,-0.43080032,-0.41106403,-1.6275403,-0.090854205,-0.5435499,0.27637485,0.17325653,-1.7251825
0.0,-0.1,1.5,0.5235987755982988,-0.5235987755982988,0,-1.0382662,0.4888169,-0.81140757,0.32604048,-0.32926276,1.3631377,-0.31094208,-0.42415604,-1.6313373,-0.08997464,-0.54859453,0.37969154,0.15800063,-1.728494
0.0,-0.1,1.5,0.5235987755982988,-0.5235987755982988,0,-1.0486182,0.51185614,-0.83421844,0.31066313,-0.44130805,1.3792642,-0.5060215,-0.43461046,-1.6247114,-0.090569824,-0.54396373,0.38325396,0.21424955,-1.6741891
0.0,-0.1,1.5,0.5235987755982988,-0.5235987755982988,0,-1.0754507,0.49472153,-0.78329057,0.32117367,-0.36765182,1.4646637,-0.4169158,-0.42254013,-1.618899,-0.09396404,-0.53541857,0.38003123,0.181206,-1.7261865
0.0,-0.1,1.5,0.5235987755982988,-0.5235987755982988,0,-1.1010659,0.5253561,-0.79899037,0.33342302,-0.43773356,1.3785884,-0.34837532,-0.42773068,-1.6284287,-0.086959556,-0.5453459,0.3543771,0.16643977,-1.7518765
0.0,-0.1,1.5,0.5235987755982988,-0.5235987755982988,0,-1.0605556,0.5198102,-0.7956156,0.31762785,-0.438783,1.3892732,-0.4038291,-0.421111,-1.6225466,-0.088904366,-0.5469709,0.2956638,0.19708279,-1.7490014
0.0,-0.1,1.5,0.5235987755982988,-0.5235987755982988,0,-1.0802476,0.47043863,-0.76201034,0.34059805,-0.45950443,1.3846579,-0.39712545,-0.41460764,-1.6217006,-0.078988165,-0.54118586,0.34391856,0.2032136,-1.6695876
0.0,-0.1,1.5,0.5235987755982988,-0.5235987755982988,0,-1.0559193,0.50078505,-0.8459117,0.32195437,-0.40929997,1.4056963,-0.43207034,-0.41722676,-1.6259478,-0.08850399,-0.54868335,0.3081382,0.18514702,-1.7376037
0.0,-0.1,1.5,0.5235987755982988,-0.5235987755982988,0,-1.0668457,0.4765867,-0.7373838,0.2884106,-0.46141878,1.3138884,-0.2714318,-0.43089065,-1.6265987,-0.08633257,-0.53892887,0.3590883,0.17840523,-1.7570872
0.0,-0.1,1.5,0.5235987755982988,-0.5235987755982988,0,-1.0668457,0.4765867,-0.7373838,0.2884106,-0.46141878,1.3138884,-0.2714318,-0.43089065,-1.6265987,-0.08633257,-0.53892887,0.3590883,0.17840523,-1.7570872
0.0,-0.1,1.5,0.5235987755982988,-0.5235987755982988,0,-1.0668457,0.4765867,-0.7373838,0.2884106,-0.46141878,1.3138884,-0.2714318,-0.43089065,-1.6265987,-0.08633257,-0.53892887,0.3590883,0.17840523,-1.7570872
0.0,-0.1,1.5,0.5235987755982988,-0.5235987755982988,0,-1.0668457,0.4765867,-0.7373838,0.2884106,-0.46141878,1.3138884,-0.2714318,-0.43089065,-1.6265987,-0.08633257,-0.53892887,0.3590883,0.17840523,-1.7570872
0.0,-0.1,1.5,0.5235987755982988,-0.5235987755982988,0,-1.0668457,0.4765867,-0.7373838,0.2884106,-0.46141878,1.3138884,-0.2714318,-0.43089065,-1.6265987,-0.08633257,-0.53892887,0.3590883,0.17840523,-1.7570872
0.0,-0.1,1.5,0.5235987755982988,-0.5235987755982988,0,-1.0846676,0.5197785,-0.8732226,0.35798782,-0.445726,1.358859,-0.338886,-0.40973935,-1.6260866,-0.09071053,-0.53827107,0.3240743,0.16293433,-1.7040043
0.0,-0.1,1.5,0.5235987755982988,-0.5235987755982988,0,-1.0846676,0.5197785,-0.8732226,0.35798782,-0.445726,1.358859,-0.338886,-0.40973935,-1.6260866,-0.09071053,-0.53827107,0.3240743,0.16293433,-1.7040043
0.0,-0.1,1.5,0.5235987755982988,-0.5235987755982988,0,-1.0846676,0.5197785,-0.8732226,0.35798782,-0.445726,1.358859,-0.338886,-0.40973935,-1.6260866,-0.09071053,-0.53827107,0.3240743,0.16293433,-1.7040043
0.0,-0.1,1.5,0.5235987755982988,-0.5235987755982988,0,-1.0846676,0.5197785,-0.8732226,0.35798782,-0.445726,1.358859,-0.338886,-0.40973935,-1.6260866,-0.09071053,-0.53827107,0.3240743,0.16293433,-1.7040043
0.0,-0.1,1.5,0.5235987755982988,-0.5235987755982988,0,-1.0846676,0.5197785,-0.8732226,0.35798782,-0.445726,1.358859,-0.338886,-0.40973935,-1.6260866,-0.09071053,-0.53827107,0.3240743,0.16293433,-1.7040043
0.0,-0.1,1.5,0.5235987755982988,-0.5235987755982988,0,-1.0371916,0.42597204,-0.8507607,0.3297566,-0.46980903,1.3469884,-0.50654083,-0.42772546,-1.6123853,-0.0914655,-0.54600215,0.2950456,0.14052449,-1.7068325
0.0,-0.1,1.5,0.5235987755982988,-0.5235987755982988,0,-1.0371916,0.42597204,-0.8507607,0.3297566,-0.46980903,1.3469884,-0.50654083,-0.42772546,-1.6123853,-0.0914655,-0.54600215,0.2950456,0.14052449,-1.7068325
0.0,-0.1,1.5,0.5235987755982988,-0.5235987755982988,0,-1.0371916,0.42597204,-0.8507607,0.3297566,-0.46980903,1.3469884,-0.50654083,-0.42772546,-1.6123853,-0.0914655,-0.54600215,0.2950456,0.14052449,-1.7068325
0.0,-0.1,1.5,0.5235987755982988,-0.5235987755982988,0,-1.0371916,0.42597204,-0.8507607,0.3297566,-0.46980903,1.3469884,-0.50654083,-0.42772546,-1.6123853,-0.0914655,-0.54600215,0.2950456,0.14052449,-1.7068325
0.0,-0.1,1.5,0.5235987755982988,-0.5235987755982988,0,-1.0371916,0.42597204,-0.8507607,0.3297566,-0.46980903,1.3469884,-0.50654083,-0.42772546,-1.6123853,-0.0914655,-0.54600215,0.2950456,0.14052449,-1.7068325
0.0,-0.1,1.5,0.5235987755982988,-0.5235987755982988,0,-1.0639205,0.49598077,-0.8790906,0.33988464,-0.5312616,1.4340189,-0.30673537,-0.42401865,-1.6213626,-0.07956488,-0.54206854,0.37344077,0.17571951,-1.6780032
0.0,-0.1,1.5,0.5235987755982988,-0.5235987755982988,0,-1.0639205,0.49598077,-0.8790906,0.33988464,-0.5312616,1.4340189,-0.30673537,-0.42401865,-1.6213626,-0.07956488,-0.54206854,0.37344077,0.17571951,-1.6780032
0.0,-0.1,1.5,0.5235987755982988,-0.5235987755982988,0,-1.0639205,0.49598077,-0.8790906,0.33988464,-0.5312616,1.4340189,-0.30673537,-0.42401865,-1.6213626,-0.07956488,-0.54206854,0.37344077,0.17571951,-1.6780032
0.0,-0.1,1.5,0.5235987755982988,-0.5235987755982988,0,-1.0639205,0.49598077,-0.8790906,0.33988464,-0.5312616,1.4340189,-0.30673537,-0.42401865,-1.6213626,-0.07956488,-0.54206854,0.37344077,0.17571951,-1.6780032
0.0,-0.1,1.5,0.5235987755982988,-0.5235987755982988,0,-1.0639205,0.49598077,-0.8790906,0.33988464,-0.5312616,1.4340189,-0.30673537,-0.42401865,-1.6213626,-0.07956488,-0.54206854,0.37344077,0.17571951,-1.6780032
0.0,-0.1,1.5,0.5235987755982988,-0.5235987755982988,0,-1.0482802,0.4616779,-0.8932752,0.28580096,-0.28310728,1.3652725,-0.42423177,-0.42736813,-1.63087,-0.09249705,-0.5489006,0.33220932,0.14054304,-1.7770852
0.0,-0.1,1.5,0.5235987755982988,-0.5235987755982988,0,-1.0482802,0.4616779,-0.8932752,0.28580096,-0.28310728,1.3652725,-0.42423177,-0.42736813,-1.63087,-0.09249705,-0.5489006,0.33220932,0.14054304,-1.7770852
0.0,-0.1,1.5,0.5235987755982988,-0.5235987755982988,0,-1.0482802,0.4616779,-0.8932752,0.28580096,-0.28310728,1.3652725,-0.42423177,-0.42736813,-1.63087,-0.09249705,-0.5489006,0.33220932,0.14054304,-1.7770852
0.0,-0.1,1.5,0.5235987755982988,-0.5235987755982988,0,-1.0482802,0.4616779,-0.8932752,0.28580096,-0.28310728,1.3652725,-0.42423177,-0.42736813,-1.63087,-0.09249705,-0.5489006,0.33220932,0.14054304,-1.7770852
0.0,-0.1,1.5,0.5235987755982988,-0.5235987755982988,0,-1.0482802,0.4616779,-0.8932752,0.28580096,-0.28310728,1.3652725,-0.42423177,-0.42736813,-1.63087,-0.09249705,-0.5489006,0.33220932,0.14054304,-1.7770852
0.0,-0.1,1.5,0.5235987755982988,-0.5235987755982988,0,-1.0370455,0.5198054,-0.8590289,0.35819685,-0.3914887,1.4317102,-0.47778338,-0.43103656,-1.6254668,-0.094227344,-0.5454458,0.37181956,0.1832018,-1.7377145
0.0,-0.1,1.5,0.5235987755982988,-0.5235987755982988,0,-1.0370455,0.5198054,-0.8590289,0.35819685,-0.3914887,1.4317102,-0.47778338,-0.43103656,-1.6254668,-0.094227344,-0.5454458,0.37181956,0.1832018,-1.7377145
0.0,-0.1,1.5,0.5235987755982988,-0.5235987755982988,0,-1.0370455,0.5198054,-0.8590289,0.35819685,-0.3914887,1.4317102,-0.47778338,-0.43103656,-1.6254668,-0.094227344,-0.5454458,0.37181956,0.1832018,-1.7377145
0.0,-0.1,1.5,0.5235987755982988,-0.5235987755982988,0,-1.0370455,0.5198054,-0.8590289,0.35819685,-0.3914887,1.4317102,-0.47778338,-0.43103656,-1.6254668,-0.094227344,-0.5454458,0.37181956,0.1832018,-1.7377145
0.0,-0.1,1.5,0.5235987755982988,-0.5235987755982988,0,-1.0370455,0.5198054,-0.8590289,0.35819685,-0.3914887,1.4317102,-0.47778338,-0.43103656,-1.6254668,-0.094227344,-0.5454458,0.37181956,0.1832018,-1.7377145
0.0,-0.1,1.5,0.5235987755982988,-0.5235987755982988,0,-1.0764894,0.4588659,-0.75420463,0.3523217,-0.5160002,1.4506631,-0.32169646,-0.41678348,-1.6242567,-0.093707934,-0.53524595,0.3197865,0.1407067,-1.7132233
0.0,-0.1,1.5,0.5235987755982988,-0.5235987755982988,0,-1.0764894,0.4588659,-0.75420463,0.3523217,-0.5160002,1.4506631,-0.32169646,-0.41678348,-1.6242567,-0.093707934,-0.53524595,0.3197865,0.1407067,-1.7132233
