sanky1234/BimanualDexCatch/isaacgymenvs/cem_results/May31/football_pose_0.0_-0.1_1.0_0.5235987755982988_-0.5235987755982988_0_2025-05-31.csv
x,y,z,roll,pitch,yaw,robot1/joint1,robot1/joint2,robot1/joint3,robot1/joint4,robot1/joint5,robot1/joint6,robot1/joint7,robot2/joint1,robot2/joint2,robot2/joint3,robot2/joint4,robot2/joint5,robot2/joint6,robot2/joint7
0.0,-0.1,1.0,0.5235987755982988,-0.5235987755982988,0,0.32638088,-0.8549836,-2.6933756,0.5768103,-0.23783083,0.75395805,0.8577541,-0.10153266,-0.6698171,1.5255886,1.333062,0.3225376,1.4960672,0.545044
0.0,-0.1,1.0,0.5235987755982988,-0.5235987755982988,0,0.39291272,-0.86590147,-2.6853974,0.96785223,-0.4927928,0.47110394,1.3301388,-0.1127621,-0.61105967,1.4965767,1.3318266,0.23455574,1.5003113,0.2721375
0.0,-0.1,1.0,0.5235987755982988,-0.5235987755982988,0,0.33276927,-0.8746371,-2.6925862,0.7915543,-0.33868375,0.5790232,0.37723392,-0.09497819,-0.64694285,1.495691,1.3336391,0.26194817,1.4884454,0.34366536
0.0,-0.1,1.0,0.5235987755982988,-0.5235987755982988,0,0.36063984,-0.8642284,-2.6792636,1.2668978,-0.15376359,0.57089555,0.73973745,-0.12998661,-0.6352966,1.5073147,1.3398328,0.16285115,1.5272785,0.0928632
0.0,-0.1,1.0,0.5235987755982988,-0.5235987755982988,0,0.3733859,-0.8593133,-2.7107856,0.66868824,-0.38409552,0.42563397,0.59962994,-0.08548454,-0.6450155,1.4787098,1.3298309,0.25501624,1.4972053,0.47114608
0.0,-0.1,1.0,0.5235987755982988,-0.5235987755982988,0,0.43163988,-0.8820181,-2.7407722,0.9538929,-0.48175135,0.53119963,0.34568903,-0.10895728,-0.6412242,1.5221081,1.3337203,0.23865667,1.5160195,0.27723724
0.0,-0.1,1.0,0.5235987755982988,-0.5235987755982988,0,0.37789065,-0.87623286,-2.6845863,0.95248044,-0.36315456,0.58822215,-0.49135363,-0.075896,-0.6471715,1.5071616,1.3395253,0.20442645,1.4948474,-0.09172776
0.0,-0.1,1.0,0.5235987755982988,-0.5235987755982988,0,0.33726704,-0.8694961,-2.722263,0.6840072,-0.3325904,0.68312496,0.52951443,-0.08984662,-0.68629473,1.4994887,1.3371705,0.23105575,1.5113107,0.4236978
0.0,-0.1,1.0,0.5235987755982988,-0.5235987755982988,0,0.30720422,-0.865029,-2.647403,0.62083435,-0.37267488,0.5100025,0.21820714,-0.09262268,-0.6480429,1.5098727,1.3350285,0.26108885,1.4881164,0.32980213
0.0,-0.1,1.0,0.5235987755982988,-0.5235987755982988,0,0.38735163,-0.8778176,-2.723711,0.70166445,-0.42298445,0.71657825,0.69683594,-0.08479702,-0.643057,1.504235,1.3352098,0.20574747,1.5366701,0.40654284
0.0,-0.1,1.0,0.5235987755982988,-0.5235987755982988,0,0.39055085,-0.8650557,-2.7311747,0.65266883,-0.1832725,0.88155353,0.8383747,-0.0945553,-0.63927436,1.5064701,1.3372244,0.22399807,1.5030836,0.5043468
0.0,-0.1,1.0,0.5235987755982988,-0.5235987755982988,0,0.33847982,-0.847209,-2.683785,0.6754041,-0.23642758,0.25124437,-0.77599084,-0.080045044,-0.6414669,1.4808979,1.3379462,0.2700259,1.5153137,0.41002756
0.0,-0.1,1.0,0.5235987755982988,-0.5235987755982988,0,0.36141995,-0.8792401,-2.6968112,0.8053562,-0.085145004,0.67398673,0.3235387,-0.112536095,-0.63944465,1.497198,1.3327771,0.2779812,1.5074533,0.4612733
0.0,-0.1,1.0,0.5235987755982988,-0.5235987755982988,0,0.3103396,-0.85410404,-2.651021,0.73430973,-0.40456426,0.6752591,0.86902946,-0.09885696,-0.6428697,1.5088304,1.3360443,0.2592106,1.5043818,0.38331553
0.0,-0.1,1.0,0.5235987755982988,-0.5235987755982988,0,0.41709146,-0.85284585,-2.7514963,0.970995,-0.39622438,0.19489172,0.20519926,-0.10109564,-0.6541065,1.4930265,1.3326666,0.30280867,1.5002694,0.059902612
0.0,-0.1,1.0,0.5235987755982988,-0.5235987755982988,0,0.31557316,-0.8715961,-2.6678212,1.0077224,-0.3967337,0.5476706,0.9001634,-0.097707145,-0.6480947,1.4946568,1.3412392,0.1270629,1.5149018,0.05724905
0.0,-0.1,1.0,0.5235987755982988,-0.5235987755982988,0,0.37513575,-0.85778856,-2.730429,1.0693188,-0.3775057,0.69461226,0.48671463,-0.107651666,-0.637364,1.4817091,1.3415945,0.24000038,1.4963408,0.15585616
0.0,-0.1,1.0,0.5235987755982988,-0.5235987755982988,0,0.31768656,-0.8502178,-2.7195919,0.7118314,-0.47871396,0.52914095,0.14602546,-0.1011251,-0.63597673,1.4761715,1.3366555,0.29621458,1.516814,0.10879774
0.0,-0.1,1.0,0.5235987755982988,-0.5235987755982988,0,0.40564126,-0.86417943,-2.731799,0.83117896,-0.5469413,0.74599767,1.0155851,-0.10350685,-0.641292,1.5013986,1.3385273,0.23337696,1.524326,-0.06121227
0.0,-0.1,1.0,0.5235987755982988,-0.5235987755982988,0,0.34961328,-0.879222,-2.6854634,0.66674507,-0.2918044,0.77353317,-1.1391046,-0.089556396,-0.6434363,1.5058796,1.3318883,0.20221591,1.5089846,0.012289884
0.0,-0.1,1.0,0.5235987755982988,-0.5235987755982988,0,0.3679219,-0.8797363,-2.7004452,0.78361005,-0.042526454,0.55912864,0.35158092,-0.087708145,-0.6324027,1.4765799,1.3407977,0.14874227,1.5124239,0.57933134
0.0,-0.1,1.0,0.5235987755982988,-0.5235987755982988,0,0.36954027,-0.85824835,-2.6963897,0.8414021,-0.27042082,0.59920967,0.4642093,-0.087348625,-0.6459921,1.4767803,1.3419402,0.27015886,1.508699,0.42790902
0.0,-0.1,1.0,0.5235987755982988,-0.5235987755982988,0,0.35998204,-0.8703655,-2.6893065,0.4554203,-0.44493988,0.27235994,0.47344062,-0.095029645,-0.6614113,1.4950594,1.3408788,0.31296158,1.5087705,0.3462114
0.0,-0.1,1.0,0.5235987755982988,-0.5235987755982988,0,0.36424682,-0.856743,-2.6944296,0.9396635,-0.3511302,0.33725533,1.3479253,-0.09356028,-0.6320109,1.5058241,1.3391372,0.26742068,1.5024296,-0.20395468
0.0,-0.1,1.0,0.5235987755982988,-0.5235987755982988,0,0.35575992,-0.8705165,-2.6954882,1.0034344,-0.3341894,0.33612165,0.8759604,-0.10376035,-0.6269361,1.477597,1.338358,0.17756252,1.4982836,0.35953626
0.0,-0.1,1.0,0.5235987755982988,-0.5235987755982988,0,0.36584085,-0.8476064,-2.7098644,0.7796256,-0.11480871,0.6136959,0.61416835,-0.108933516,-0.6307268,1.4581695,1.3389324,0.2061751,1.5148071,0.17620638
0.0,-0.1,1.0,0.5235987755982988,-0.5235987755982988,0,0.35992074,-0.8568332,-2.6805832,1.0672226,-0.21948911,0.3571426,0.07847306,-0.1427408,-0.63628405,1.4852718,1.3295467,0.22828811,1.5001713,0.4700079
0.0,-0.1,1.0,0.5235987755982988,-0.5235987755982988,0,0.36286163,-0.86711854,-2.7052748,0.80384517,-0.45367613,0.25406203,-0.41928726,-0.08462284,-0.642241,1.5241551,1.3367162,0.29779285,1.5084126,0.12496656
0.0,-0.1,1.0,0.5235987755982988,-0.5235987755982988,0,0.36643663,-0.8586951,-2.779367,0.4731001,-0.4003984,0.27836052,0.59213275,-0.053930335,-0.6509154,1.5154715,1.3244832,0.15344194,1.4906472,0.52988726
0.0,-0.1,1.0,0.5235987755982988,-0.5235987755982988,0,0.36995682,-0.8902472,-2.752923,0.98468465,-0.3646723,0.33511752,1.2865905,-0.08362546,-0.6036205,1.5083652,1.3349137,0.2677458,1.4929465,0.36403653
0.0,-0.1,1.0,0.5235987755982988,-0.5235987755982988,0,0.29806876,-0.8527317,-2.6721594,0.91472614,-0.27253708,1.0100011,0.24221446,-0.097984396,-0.6422974,1.4578607,1.3334513,0.19378915,1.5267602,0.1378841
0.0,-0.1,1.0,0.5235987755982988,-0.5235987755982988,0,0.35042572,-0.8507179,-2.6670086,0.63734335,-0.6723288,0.29492837,0.31526557,-0.12019358,-0.64010084,1.5055175,1.344041,0.28604046,1.502322,0.15529004
0.0,-0.1,1.0,0.5235987755982988,-0.5235987755982988,0,0.3936932,-0.86491615,-2.7458227,0.6124877,-0.25406522,0.43534943,1.3077344,-0.1035633,-0.6510667,1.5158979,1.332804,0.2582336,1.4989609,0.16237716
0.0,-0.1,1.0,0.5235987755982988,-0.5235987755982988,0,0.38680157,-0.8689694,-2.746822,0.8943335,-0.33892283,0.66803193,-0.27203792,-0.106300734,-0.6425584,1.5005227,1.3424672,0.19092518,1.4971951,0.27323595
0.0,-0.1,1.0,0.5235987755982988,-0.5235987755982988,0,0.3822666,-0.87794644,-2.6929152,0.78666687,-0.3853315,0.58836365,0.24102643,-0.11989839,-0.62882376,1.5036099,1.3415805,0.20997426,1.5434688,0.46535605
0.0,-0.1,1.0,0.5235987755982988,-0.5235987755982988,0,0.37011105,-0.9107904,-2.734476,1.0204015,-0.37316954,0.71783125,0.023638306,-0.09724664,-0.6334273,1.4900261,1.3384656,0.19554433,1.5382327,0.3155508
0.0,-0.1,1.0,0.5235987755982988,-0.5235987755982988,0,0.36823273,-0.8665674,-2.68839,0.9026105,-0.28447047,0.08710027,0.98646754,-0.10850766,-0.62777936,1.5178283,1.3336241,0.2137493,1.5463445,0.49996346
0.0,-0.1,1.0,0.5235987755982988,-0.5235987755982988,0,0.39977357,-0.86360824,-2.7576308,1.0158447,-0.43619266,0.18382499,0.7989315,-0.08779665,-0.6446968,1.4851749,1.3440183,0.2567709,1.5180463,0.08260005
0.0,-0.1,1.0,0.5235987755982988,-0.5235987755982988,0,0.32666516,-0.858721,-2.7278435,0.9482472,-0.28194475,0.30527914,0.26514333,-0.12489926,-0.645555,1.4814705,1.3339045,0.24796155,1.5049454,0.33236605
0.0,-0.1,1.0,0.5235987755982988,-0.5235987755982988,0,0.35061967,-0.8306046,-2.745433,0.73695046,-0.26247454,0.35869095,1.0153289,-0.07995261,-0.6606255,1.512218,1.3362198,0.22518311,1.5077119,0.14434479
0.0,-0.1,1.0,0.5235987755982988,-0.5235987755982988,0,0.38385746,-0.8635056,-2.734331,0.78848505,-0.1899609,0.3631154,-0.021096606,-0.12902537,-0.6467986,1.5195823,1.3389148,0.19089916,1.5322037,0.34890854
0.0,-0.1,1.0,0.5235987755982988,-0.5235987755982988,0,0.38324612,-0.85846037,-2.7655334,0.7834227,-0.18361658,0.67536485,0.5711939,-0.080813535,-0.6127995,1.513018,1.3344507,0.30581573,1.507662,-0.022344453
0.0,-0.1,1.0,0.5235987755982988,-0.5235987755982988,0,0.32200944,-0.8701013,-2.7269146,0.5895162,-0.44759145,0.7041973,0.5778565,-0.06664391,-0.63541794,1.491823,1.3424885,0.2816501,1.5084158,0.033122525
0.0,-0.1,1.0,0.5235987755982988,-0.5235987755982988,0,0.33245945,-0.8555645,-2.6531909,0.76630604,-0.5196526,0.21510491,0.16771492,-0.13325326,-0.61858726,1.5237771,1.3439071,0.2991293,1.5200094,0.39123493
0.0,-0.1,1.0,0.5235987755982988,-0.5235987755982988,0,0.36439803,-0.85943794,-2.7157705,0.7652258,-0.37719315,0.5639777,-0.19904397,-0.11720485,-0.62860316,1.4965299,1.341002,0.2391415,1.4924754,0.27965495
0.0,-0.1,1.0,0.5235987755982988,-0.5235987755982988,0,0.34088516,-0.8465425,-2.6829264,0.8086229,-0.24007115,0.9517058,0.17894433,-0.08439846,-0.65156204,1.5071539,1.3301663,0.24717055,1.4894385,-0.07251533
0.0,-0.1,1.0,0.5235987755982988,-0.5235987755982988,0,0.321275,-0.8704602,-2.6930678,0.6067491,-0.23719591,0.74581414,0.9562398,-0.10527473,-0.64175975,1.4991754,1.3392192,0.17467909,1.5035509,0.5372441
0.0,-0.1,1.0,0.5235987755982988,-0.5235987755982988,0,0.3474432,-0.8628265,-2.7101204,1.1289073,-0.30693114,0.41326103,0.4871789,-0.095639676,-0.65745723,1.5175959,1.3424737,0.25933087,1.5240154,0.13181062
0.0,-0.1,1.0,0.5235987755982988,-0.5235987755982988,0,0.3835123,-0.8642163,-2.745795,0.9936296,-0.41728115,0.3989725,0.24762854,-0.120285206,-0.61837286,1.5234646,1.3301115,0.25377277,1.5310581,0.49112335
0.0,-0.1,1.0,0.5235987755982988,-0.5235987755982988,0,0.33717665,-0.8888476,-2.6792479,1.1319203,-0.25098312,0.32573453,0.37342682,-0.114792325,-0.6140078,1.481382,1.3408512,0.24616891,1.5181512,0.28263524
0.0,-0.1,1.0,0.5235987755982988,-0.5235987755982988,0,0.30939698,-0.84851426,-2.7132843,0.524791,-0.25791708,0.43374154,-0.122377194,-0.12950546,-0.6461915,1.4775467,1.3339947,0.2955888,1.5264624,0.08663273
0.0,-0.1,1.0,0.5235987755982988,-0.5235987755982988,0,0.33517534,-0.8832284,-2.6735625,0.74886554,-0.32349506,0.2875963,-0.64843285,-0.085249364,-0.63060457,1.4677421,1.3351474,0.2032863,1.5158194,0.19399543
0.0,-0.1,1.0,0.5235987755982988,-0.5235987755982988,0,0.26267236,-0.8692908,-2.6348562,0.8525958,-0.59196156,0.64662856,0.49886432,-0.11652014,-0.6450566,1.4720219,1.3362491,0.29360119,1.5150748,-0.07540141
0.0,-0.1,1.0,0.5235987755982988,-0.5235987755982988,0,0.355159,-0.83780646,-2.7458189,0.5613701,-0.37942025,0.14599954,0.28462067,-0.10376436,-0.62798274,1.4717783,1.3367884,0.22652104,1.5276495,0.2510243
0.0,-0.1,1.0,0.5235987755982988,-0.5235987755982988,0,0.37690523,-0.8669548,-2.7119129,0.72273034,-0.23519635,0.9196078,0.39176938,-0.121649854,-0.6395401,1.4802847,1.3388263,0.26411593,1.4984587,0.14332253
0.0,-0.1,1.0,0.5235987755982988,-0.5235987755982988,0,0.39846635,-0.87799495,-2.747878,0.9334532,-0.4265136,0.22803348,0.94032955,-0.10894944,-0.6243777,1.5178282,1.33139,0.27232143,1.5421069,0.021320026
0.0,-0.1,1.0,0.5235987755982988,-0.5235987755982988,0,0.3459549,-0.8647659,-2.6790478,0.9061427,-0.31532198,0.43059665,1.347102,-0.12219463,-0.6160927,1.4951302,1.3390548,0.21174099,1.4882904,0.16335095
0.0,-0.1,1.0,0.5235987755982988,-0.5235987755982988,0,0.38445872,-0.8572305,-2.7286148,0.8802082,-0.39925084,0.88661134,-0.19111103,-0.10975488,-0.6022885,1.4962773,1.3422855,0.25346434,1.5009295,0.20178121
0.0,-0.1,1.0,0.5235987755982988,-0.5235987755982988,0,0.37313554,-0.8654767,-2.7433848,0.96392804,-0.2517385,0.23700586,-0.27683097,-0.07891209,-0.63509476,1.5069057,1.3438597,0.2539196,1.5127056,0.13037652
0.0,-0.1,1.0,0.5235987755982988,-0.5235987755982988,0,0.37202471,-0.8776019,-2.6834297,0.7481751,-0.36419192,0.7089744,0.3227445,-0.11552597,-0.64970726,1.4934618,1.343095,0.21230721,1.5043708,0.4495346
0.0,-0.1,1.0,0.5235987755982988,-0.5235987755982988,0,0.35104644,-0.8675241,-2.70946,0.9549469,-0.4703992,1.090227,-0.3900841,-0.07750879,-0.6348099,1.5023578,1.3464953,0.16828611,1.5335655,0.5685782
0.0,-0.1,1.0,0.5235987755982988,-0.5235987755982988,0,0.41242686,-0.82903653,-2.733693,0.66966414,-0.25544792,0.24711977,-0.28870356,-0.08188208,-0.6526354,1.4908135,1.3348268,0.23022698,1.5602362,-0.12442296
0.0,-0.1,1.0,0.5235987755982988,-0.5235987755982988,0,0.36801076,-0.8630473,-2.7017457,0.9997711,-0.114271134,0.7135333,0.8811401,-0.10920384,-0.62880385,1.4878789,1.3305008,0.29012635,1.535876,0.11956646
0.0,-0.1,1.0,0.5235987755982988,-0.5235987755982988,0,0.408121,-0.86594236,-2.7506704,0.8637006,-0.37254494,0.45613018,-0.33784175,-0.090110555,-0.652361,1.5018157,1.3336388,0.21359162,1.5157889,0.21175905
0.0,-0.1,1.0,0.5235987755982988,-0.5235987755982988,0,0.35706043,-0.8415572,-2.7088277,0.75747204,-0.30398807,0.9066968,0.23339567,-0.13361326,-0.63798255,1.484777,1.3387468,0.23255128,1.5278727,0.30937704
0.0,-0.1,1.0,0.5235987755982988,-0.5235987755982988,0,0.37502357,-0.8841835,-2.684211,0.7924796,0.03357617,0.3981798,0.42869788,-0.10956442,-0.6302288,1.4899374,1.3313217,0.19720878,1.5434353,0.100367844
0.0,-0.1,1.0,0.5235987755982988,-0.5235987755982988,0,0.3746979,-0.85613096,-2.719262,0.9122063,-0.40402612,0.7826508,-0.63701254,-0.089226715,-0.635291,1.477124,1.3440013,0.23713076,1.4896417,0.102973595
0.0,-0.1,1.0,0.5235987755982988,-0.5235987755982988,0,0.35952795,-0.8727921,-2.705435,0.9361108,-0.44013914,1.0181335,0.26626045,-0.107350565,-0.61252344,1.5035758,1.3393003,0.22560558,1.5275265,0.28509197
0.0,-0.1,1.0,0.5235987755982988,-0.5235987755982988,0,0.35797346,-0.86441314,-2.6982179,0.80977863,-0.53583056,0.5655492,0.7510795,-0.13552558,-0.6132717,1.5099263,1.3402202,0.16100779,1.4952205,0.17784466
0.0,-0.1,1.0,0.5235987755982988,-0.5235987755982988,0,0.3443858,-0.8434406,-2.7432902,0.84586424,-0.2796803,0.6405905,0.3545007,-0.08805507,-0.6423627,1.494182,1.3415854,0.23869762,1.4995885,0.40871018
0.0,-0.1,1.0,0.5235987755982988,-0.5235987755982988,0,0.35681948,-0.8706306,-2.7070928,0.6542898,-0.3116898,0.10752236,-0.065657035,-0.10065462,-0.60971564,1.4913057,1.3400133,0.21883692,1.4871042,0.15488507
0.0,-0.1,1.0,0.5235987755982988,-0.5235987755982988,0,0.3515206,-0.8949969,-2.7148964,0.8359843,-0.24843585,0.4599079,0.27307278,-0.084177725,-0.6389154,1.4730276,1.336614,0.1936801,1.5211138,0.3169775
0.0,-0.1,1.0,0.5235987755982988,-0.5235987755982988,0,0.30697295,-0.8631065,-2.7300885,0.8605525,-0.27454823,0.43825284,-0.7354437,-0.10366933,-0.61629736,1.5225327,1.3439968,0.27459624,1.5247178,0.27328113
0.0,-0.1,1.0,0.5235987755982988,-0.5235987755982988,0,0.3623671,-0.8491543,-2.688528,1.0392958,-0.33091655,0.65931237,0.32773408,-0.091708876,-0.645679,1.4814289,1.3419876,0.2280666,1.507347,0.13909851
0.0,-0.1,1.0,0.5235987755982988,-0.5235987755982988,0,0.35683936,-0.837322,-2.6828077,0.8917776,-0.47196725,0.14510569,0.5404613,-0.100234255,-0.6420851,1.4888533,1.3358313,0.25884804,1.514262,0.073914215
0.0,-0.1,1.0,0.5235987755982988,-0.5235987755982988,0,0.34561005,-0.85132605,-2.7294593,0.7241897,-0.37290946,0.054425534,-0.23510914,-0.08613559,-0.62568706,1.5089309,1.3281194,0.23528346,1.478181,0.1699272
0.0,-0.1,1.0,0.5235987755982988,-0.5235987755982988,0,0.36044097,-0.86013067,-2.718361,0.84723395,-0.231007,0.3782125,-0.16565813,-0.116508156,-0.64138603,1.4969118,1.3331228,0.23332968,1.5288606,0.29393265
0.0,-0.1,1.0,0.5235987755982988,-0.5235987755982988,0,0.3502931,-0.8712532,-2.6942606,0.8597795,-0.19939332,0.5579714,0.68715274,-0.10923752,-0.60793453,1.5068654,1.3366634,0.21317498,1.5283779,0.23246917
0.0,-0.1,1.0,0.5235987755982988,-0.5235987755982988,0,0.2910755,-0.8653236,-2.7083597,0.84112465,-0.2982677,0.64385366,0.28759396,-0.10260021,-0.64155984,1.4987179,1.3392097,0.25415397,1.4955379,0.45712867
0.0,-0.1,1.0,0.5235987755982988,-0.5235987755982988,0,0.3462196,-0.8682552,-2.7319937,0.7510469,-0.18852755,0.24584587,0.57397795,-0.10057875,-0.6048486,1.4965373,1.3368415,0.22444895,1.5145385,0.48241022
0.0,-0.1,1.0,0.5235987755982988,-0.5235987755982988,0,0.3224187,-0.8448561,-2.711297,0.67550427,-0.19816567,0.69656885,0.9218463,-0.11444949,-0.65151525,1.4708834,1.341535,0.21142298,1.5200337,0.17999338
0.0,-0.1,1.0,0.5235987755982988,-0.5235987755982988,0,0.30796987,-0.8506387,-2.7268004,0.62051713,-0.38775477,0.229086,0.4750216,-0.08506317,-0.6034641,1.4995081,1.3356584,0.29314017,1.497265,0.061138485
0.0,-0.1,1.0,0.5235987755982988,-0.5235987755982988,0,0.3515559,-0.88212746,-2.7076118,0.89017886,-0.39788207,0.65181726,0.63309604,-0.10583009,-0.61131865,1.5107044,1.3390875,0.237958,1.4856868,0.12097267
0.0,-0.1,1.0,0.5235987755982988,-0.5235987755982988,0,0.31377774,-0.8643318,-2.6905177,0.7066082,-0.16424626,0.48612735,-0.51314384,-0.107123256,-0.62436485,1.481462,1.3330847,0.16842817,1.5022438,0.3218496
0.0,-0.1,1.0,0.5235987755982988,-0.5235987755982988,0,0.2985835,-0.84097546,-2.672016,0.65816903,-0.36226693,0.41595677,0.03545403,-0.08311121,-0.61247575,1.4909295,1.3333566,0.2942739,1.4934549,0.25187486
0.0,-0.1,1.0,0.5235987755982988,-0.5235987755982988,0,0.34147733,-0.88505477,-2.6774464,0.85614496,-0.18059997,0.5569435,0.60897976,-0.093482256,-0.59914124,1.5004467,1.3405913,0.26083958,1.5051863,0.29613018
0.0,-0.1,1.0,0.5235987755982988,-0.5235987755982988,0,0.3331486,-0.8440095,-2.734986,0.5607928,-0.20913054,0.08674231,0.24400888,-0.09934207,-0.5896757,1.4724497,1.3381066,0.21366177,1.5092524,0.2823631
0.0,-0.1,1.0,0.5235987755982988,-0.5235987755982988,0,0.3043576,-0.8326706,-2.7505586,0.918096,-0.33944258,0.2856235,0.119708195,-0.123455785,-0.6421883,1.4924687,1.3374808,0.23235591,1.5232258,0.0894818
0.0,-0.1,1.0,0.5235987755982988,-0.5235987755982988,0,0.36751387,-0.8648124,-2.714486,0.6647445,-0.3851851,0.8308268,-0.111373715,-0.10406151,-0.6041162,1.4851924,1.3315301,0.2552271,1.5024288,0.11407939
0.0,-0.1,1.0,0.5235987755982988,-0.5235987755982988,0,0.35807577,-0.84453285,-2.735685,0.5927345,-0.3822821,0.80618376,0.2634077,-0.08025674,-0.63511485,1.4633316,1.3303354,0.22105761,1.5398685,0.046065282
0.0,-0.1,1.0,0.5235987755982988,-0.5235987755982988,0,0.31966412,-0.8508349,-2.7532504,0.69599414,-0.50333834,0.6115032,0.61581707,-0.120060384,-0.6072141,1.4968928,1.336101,0.3085448,1.5228478,0.21702443
0.0,-0.1,1.0,0.5235987755982988,-0.5235987755982988,0,0.3221263,-0.8602848,-2.6809535,0.76182497,-0.31072322,0.47164926,0.8857556,-0.07861511,-0.6113564,1.5036381,1.3307564,0.2162275,1.4872625,0.25082162
0.0,-0.1,1.0,0.5235987755982988,-0.5235987755982988,0,0.37058464,-0.86305285,-2.7403579,0.72811973,-0.36685857,0.39185187,1.4980648,-0.08388293,-0.6255321,1.4824686,1.334223,0.22211452,1.5143114,0.32888234
0.0,-0.1,1.0,0.5235987755982988,-0.5235987755982988,0,0.36006716,-0.85861343,-2.7336333,0.7138202,-0.17952281,0.5524941,0.76574045,-0.09847406,-0.61629856,1.4780619,1.3278391,0.18576247,1.5100311,0.21799552
0.0,-0.1,1.0,0.5235987755982988,-0.5235987755982988,0,0.38561365,-0.86591935,-2.7435627,0.8913117,-0.3027043,0.7432328,0.9442299,-0.076530546,-0.6198409,1.4971057,1.3380264,0.20105782,1.5114723,0.105262704
0.0,-0.1,1.0,0.5235987755982988,-0.5235987755982988,0,0.32409626,-0.8764158,-2.6599717,0.64706093,-0.5023395,0.66151845,-0.29567835,-0.08716156,-0.6127832,1.50145,1.3211834,0.17968258,1.5044276,-0.0013143611
0.0,-0.1,1.0,0.5235987755982988,-0.5235987755982988,0,0.3299297,-0.8757879,-2.7227435,0.6812908,-0.4340011,0.5494206,-0.06349041,-0.10337041,-0.619046,1.4984957,1.3351997,0.23078598,1.4743838,0.38987488
0.0,-0.1,1.0,0.5235987755982988,-0.5235987755982988,0,0.32468346,-0.86515015,-2.674171,0.9216351,-0.22360058,0.22595246,0.3080331,-0.09922301,-0.597436,1.4863942,1.3430915,0.25103793,1.4994999,0.48396862
0.0,-0.1,1.0,0.5235987755982988,-0.5235987755982988,0,0.3054933,-0.8499689,-2.7083745,0.85750335,-0.20056087,0.4189301,1.1276013,-0.08134309,-0.5963689,1.4902272,1.3366492,0.22546475,1.4914763,0.38597277
0.0,-0.1,1.0,0.5235987755982988,-0.5235987755982988,0,0.32175973,-0.8297158,-2.7453458,0.5274739,-0.34199628,0.36432877,0.6660705,-0.09828383,-0.63510597,1.499733,1.3413728,0.33108035,1.5231243,0.1930073
0.0,-0.1,1.0,0.5235987755982988,-0.5235987755982988,0,0.33345008,-0.8724833,-2.7207303,0.8417879,-0.3176276,0.3777553,-0.28433475,-0.12141416,-0.61290216,1.5144812,1.3290975,0.19461402,1.4923117,0.26243424
0.0,-0.1,1.0,0.5235987755982988,-0.5235987755982988,0,0.3323229,-0.8579963,-2.7182024,0.9053838,-0.2579803,0.1633261,0.68880546,-0.12586577,-0.62774867,1.48777,1.3370156,0.20704015,1.5319103,0.21328293
0.0,-0.1,1.0,0.5235987755982988,-0.5235987755982988,0,0.30012506,-0.8666033,-2.6655433,0.79901385,-0.15292908,0.055359695,0.006732998,-0.09761885,-0.5788862,1.4800634,1.3375807,0.15467283,1.5350845,0.24313213
0.0,-0.1,1.0,0.5235987755982988,-0.5235987755982988,0,0.3528478,-0.8864815,-2.7049685,0.72136426,-0.20540914,0.5803873,1.2334231,-0.07406506,-0.6175489,1.4831432,1.331947,0.23349358,1.508638,0.6132811
0.0,-0.1,1.0,0.5235987755982988,-0.5235987755982988,0,0.41208383,-0.9033274,-2.7350335,1.0838748,-0.45347875,0.72640526,0.36840376,-0.100216515,-0.6121747,1.4948008,1.3315707,0.2982451,1.5014093,0.026030546
0.0,-0.1,1.0,0.5235987755982988,-0.5235987755982988,0,0.32064736,-0.88219154,-2.7121377,0.46676806,-0.2548268,0.28016073,-0.54864657,-0.11119928,-0.61615497,1.4933324,1.3362857,0.19264714,1.5437622,0.5735107
0.0,-0.1,1.0,0.5235987755982988,-0.5235987755982988,0,0.3803371,-0.865878,-2.7492783,0.71003336,-0.15861137,0.3834066,0.27096552,-0.111493856,-0.6374061,1.5154712,1.3404626,0.19772096,1.5145185,0.270465
0.0,-0.1,1.0,0.5235987755982988,-0.5235987755982988,0,0.32611302,-0.87246853,-2.6897724,0.75847495,-0.19901532,0.4142193,0.20309424,-0.12869877,-0.600896,1.4855314,1.334672,0.22954628,1.5031302,0.1887472
0.0,-0.1,1.0,0.5235987755982988,-0.5235987755982988,0,0.34923714,-0.8592633,-2.6768954,0.8232989,-0.34030044,0.89414924,-0.46520782,-0.11417499,-0.61713415,1.489391,1.3366889,0.2726335,1.5050806,0.1680224
0.0,-0.1,1.0,0.5235987755982988,-0.5235987755982988,0,0.3409463,-0.8648796,-2.737732,0.6016161,-0.23449442,0.41699412,0.6078469,-0.09637944,-0.6183064,1.5104216,1.3374053,0.18259504,1.5085763,0.14741372
0.0,-0.1,1.0,0.5235987755982988,-0.5235987755982988,0,0.3936761,-0.843089,-2.7601,0.7750657,-0.21632704,0.54096943,-0.8246805,-0.0889585,-0.6589022,1.499177,1.3339888,0.21750124,1.5365252,0.29585984
0.0,-0.1,1.0,0.5235987755982988,-0.5235987755982988,0,0.3942903,-0.868011,-2.7644925,0.73873365,-0.17634149,0.98133785,0.5189381,-0.10075795,-0.5840262,1.5179553,1.3311167,0.21904373,1.511858,0.06529705
0.0,-0.1,1.0,0.5235987755982988,-0.5235987755982988,0,0.30780548,-0.84720117,-2.7275722,0.9467414,-0.21303989,0.3092418,0.7021339,-0.10939923,-0.5965467,1.4873402,1.3434929,0.18750015,1.525893,0.38561517
0.0,-0.1,1.0,0.5235987755982988,-0.5235987755982988,0,0.39291057,-0.8918283,-2.7020226,0.99347144,-0.47987184,0.54096764,0.12716427,-0.088980824,-0.63591903,1.5088336,1.3351281,0.27122846,1.5109668,-0.041286275
0.0,-0.1,1.0,0.5235987755982988,-0.5235987755982988,0,0.33011967,-0.87883586,-2.709477,0.926491,-0.16270389,0.95746267,0.49288803,-0.103732854,-0.61082274,1.4895221,1.3445643,0.2082637,1.525316,0.1001168
0.0,-0.1,1.0,0.5235987755982988,-0.5235987755982988,0,0.27560204,-0.8381252,-2.6670094,0.76845586,-0.46974894,0.33822098,1.1105015,-0.11775864,-0.614151,1.5365082,1.3307381,0.1963373,1.5086541,0.43642172
0.0,-0.1,1.0,0.5235987755982988,-0.5235987755982988,0,0.30528587,-0.8393642,-2.7040308,0.8166129,-0.35295153,0.45407742,0.7650841,-0.12975906,-0.6244575,1.4858396,1.3371542,0.27126107,1.5025508,0.27335343
0.0,-0.1,1.0,0.5235987755982988,-0.5235987755982988,0,0.30500662,-0.87291026,-2.668879,0.6712842,-0.34774494,0.64325565,0.4221159,-0.1011158,-0.59361917,1.5016623,1.3357139,0.27618697,1.4974416,0.4430957
0.0,-0.1,1.0,0.5235987755982988,-0.5235987755982988,0,0.3606684,-0.86805737,-2.7329674,0.75200874,-0.29536134,0.64457166,0.34345096,-0.09103307,-0.6159733,1.5186661,1.3236355,0.25202262,1.4859459,0.36176768
0.0,-0.1,1.0,0.5235987755982988,-0.5235987755982988,0,0.30617288,-0.87197775,-2.6449084,0.7353957,-0.3498779,0.60094017,-0.80402535,-0.07413482,-0.6168542,1.4795445,1.3398978,0.2627674,1.5172415,0.12804037
0.0,-0.1,1.0,0.5235987755982988,-0.5235987755982988,0,0.3582176,-0.88923085,-2.7200372,0.64908683,-0.19698729,0.426175,0.12627052,-0.10085848,-0.6459675,1.5105354,1.3376426,0.19229509,1.5191537,0.3311583
0.0,-0.1,1.0,0.5235987755982988,-0.5235987755982988,0,0.35347238,-0.852745,-2.7349248,1.0291504,-0.21909042,0.18794023,0.13570055,-0.1015874,-0.6130033,1.5104448,1.3391938,0.19289194,1.5273356,0.24930559
0.0,-0.1,1.0,0.5235987755982988,-0.5235987755982988,0,0.32803044,-0.8712462,-2.720663,1.0497035,-0.08435416,0.93054044,0.18853036,-0.08921351,-0.61424655,1.4834399,1.3401873,0.26824808,1.5149951,0.24958543
0.0,-0.1,1.0,0.5235987755982988,-0.5235987755982988,0,0.383171,-0.8550556,-2.7779486,0.8711789,-0.29623166,0.30330744,0.85134673,-0.09980176,-0.5880157,1.5199122,1.3370218,0.27120283,1.5071384,0.08278606
0.0,-0.1,1.0,0.5235987755982988,-0.5235987755982988,0,0.31446573,-0.81791514,-2.7076993,0.7227561,-0.22199115,0.8915273,-0.92637694,-0.08844599,-0.6558889,1.4758059,1.3411793,0.21442227,1.5238403,0.4396666
0.0,-0.1,1.0,0.5235987755982988,-0.5235987755982988,0,0.3727788,-0.86949927,-2.7336893,0.6282435,-0.2949559,0.46546066,-0.33122528,-0.08706886,-0.59374607,1.492866,1.328288,0.27907732,1.4860849,0.054343898
0.0,-0.1,1.0,0.5235987755982988,-0.5235987755982988,0,0.3584856,-0.8591506,-2.7463737,0.9111333,-0.30517936,0.9259975,-1.2919402,-0.10512984,-0.5941436,1.5109998,1.3333493,0.19478454,1.5302799,0.16967471
0.0,-0.1,1.0,0.5235987755982988,-0.5235987755982988,0,0.35316435,-0.8765518,-2.7072012,1.0480862,-0.13447684,0.3843543,0.9783432,-0.116687834,-0.6167094,1.5001312,1.3339119,0.30959612,1.555331,0.18475461
0.0,-0.1,1.0,0.5235987755982988,-0.5235987755982988,0,0.3530344,-0.8763281,-2.730196,0.672757,-0.4291587,0.10377719,0.6835914,-0.14053218,-0.5872776,1.5039157,1.3376366,0.22529675,1.5059164,0.28371742
0.0,-0.1,1.0,0.5235987755982988,-0.5235987755982988,0,0.3326491,-0.85971105,-2.686414,0.95252895,-0.4601081,0.28790486,0.5302792,-0.0728977,-0.59112537,1.5089602,1.3236085,0.24791272,1.5080354,0.3425275
0.0,-0.1,1.0,0.5235987755982988,-0.5235987755982988,0,0.3255067,-0.8561443,-2.6664534,1.0798538,-0.46437016,0.23382308,0.5753844,-0.14206262,-0.6174515,1.4934949,1.3413191,0.21902741,1.4990689,0.6308068
0.0,-0.1,1.0,0.5235987755982988,-0.5235987755982988,0,0.31228504,-0.8840775,-2.6947238,0.67173797,-0.20308855,0.72712713,0.5710352,-0.09774984,-0.5989241,1.51201,1.3337463,0.2433105,1.4983188,0.29008082
0.0,-0.1,1.0,0.5235987755982988,-0.5235987755982988,0,0.2543521,-0.82025707,-2.724463,0.7451767,-0.368839,0.07895851,0.448937,-0.060059693,-0.6005745,1.5013006,1.3352306,0.3297722,1.5064799,0.16993433
0.0,-0.1,1.0,0.5235987755982988,-0.5235987755982988,0,0.32567924,-0.85201305,-2.7160144,0.8816573,-0.26230678,0.8166587,0.16713247,-0.09555215,-0.6066597,1.4861056,1.3417948,0.31160688,1.5132782,0.17420387
0.0,-0.1,1.0,0.5235987755982988,-0.5235987755982988,0,0.262782,-0.8348226,-2.6931121,0.828846,-0.3075999,0.44960016,-0.07608136,-0.10587307,-0.6218067,1.5288881,1.3418443,0.29154855,1.5214369,0.23775417
0.0,-0.1,1.0,0.5235987755982988,-0.5235987755982988,0,0.3773498,-0.8803992,-2.7103186,0.72483426,-0.18597499,0.42899573,0.41228902,-0.11503001,-0.6372602,1.4665976,1.336979,0.22164947,1.5094483,0.07378194
0.0,-0.1,1.0,0.5235987755982988,-0.5235987755982988,0,0.39242145,-0.8814496,-2.7434475,0.9808715,-0.33718857,0.25478593,0.36103997,-0.05267897,-0.6288573,1.4830511,1.3280874,0.29625866,1.5001836,0.22439162
0.0,-0.1,1.0,0.5235987755982988,-0.5235987755982988,0,0.35320738,-0.87869126,-2.7366905,0.7498884,-0.2823293,0.9231486,0.5399446,-0.106328905,-0.5932202,1.4838327,1.333667,0.24831447,1.4860884,0.17155573
0.0,-0.1,1.0,0.5235987755982988,-0.5235987755982988,0,0.31416875,-0.83626366,-2.7270212,0.79297894,-0.2133208,0.33577526,1.6533054,-0.084997244,-0.62070084,1.5061275,1.3340142,0.14742486,1.5244019,0.2699179
0.0,-0.1,1.0,0.5235987755982988,-0.5235987755982988,0,0.32197884,-0.8490932,-2.7202585,0.7155579,-0.28819513,0.03912527,0.71887606,-0.11409053,-0.5979448,1.5132922,1.3339596,0.27846077,1.5167639,0.5573138
0.0,-0.1,1.0,0.5235987755982988,-0.5235987755982988,0,0.36446747,-0.87312806,-2.7098825,0.8690725,-0.38157892,0.6557892,-0.29449752,-0.11792663,-0.6057426,1.5068882,1.3360515,0.27498856,1.503065,0.2221085
0.0,-0.1,1.0,0.5235987755982988,-0.5235987755982988,0,0.32722625,-0.84335107,-2.724317,0.81008923,-0.05374459,0.9245862,-0.3906872,-0.08951031,-0.601211,1.5061024,1.3406037,0.25741187,1.5124657,0.2913171
0.0,-0.1,1.0,0.5235987755982988,-0.5235987755982988,0,0.35763794,-0.8717412,-2.7590024,0.71198463,-0.3611247,0.4316062,-0.67312825,-0.09482586,-0.62339336,1.5075887,1.3351012,0.21891825,1.4974573,0.4134469
0.0,-0.1,1.0,0.5235987755982988,-0.5235987755982988,0,0.2771798,-0.83415794,-2.6983316,0.74977344,-0.34727284,-0.20940773,0.4782889,-0.14196877,-0.6149567,1.4919306,1.3379021,0.29038095,1.5406718,0.27881923
0.0,-0.1,1.0,0.5235987755982988,-0.5235987755982988,0,0.3460095,-0.89764,-2.6974702,0.6521013,-0.38377005,0.18997446,0.16796347,-0.0900857,-0.60598344,1.4835188,1.3457084,0.175508,1.5044057,-0.21900968
0.0,-0.1,1.0,0.5235987755982988,-0.5235987755982988,0,0.29507965,-0.8496846,-2.6542308,0.85356176,-0.45446295,0.45479354,0.3735024,-0.086337656,-0.5977604,1.4845296,1.3341646,0.20839126,1.4822375,0.33512712
0.0,-0.1,1.0,0.5235987755982988,-0.5235987755982988,0,0.31190708,-0.86492085,-2.7043557,0.8082988,-0.5637573,0.81848806,1.90152,-0.059120774,-0.60140073,1.4948264,1.3346357,0.23895197,1.5103304,0.13130374
0.0,-0.1,1.0,0.5235987755982988,-0.5235987755982988,0,0.30029318,-0.85846454,-2.7002292,0.74319524,-0.39577118,0.26220158,0.5981538,-0.12304971,-0.60679144,1.4819856,1.340444,0.1835621,1.5020313,0.6979131
0.0,-0.1,1.0,0.5235987755982988,-0.5235987755982988,0,0.31479126,-0.87504333,-2.672409,1.0026265,-0.49873507,0.80670935,1.1407831,-0.08729808,-0.6287917,1.4795983,1.3449892,0.23716506,1.5441355,0.4924862
0.0,-0.1,1.0,0.5235987755982988,-0.5235987755982988,0,0.30739665,-0.8437967,-2.7195756,0.6158064,-0.32020625,0.65501344,1.3827206,-0.10250711,-0.5715531,1.5041369,1.3353394,0.2747874,1.5230165,0.36947772
0.0,-0.1,1.0,0.5235987755982988,-0.5235987755982988,0,0.361887,-0.8842601,-2.7512922,0.5253827,-0.15236485,0.4694125,1.7297559,-0.16443199,-0.6105842,1.5072619,1.3354899,0.24900585,1.4837717,0.24604894
0.0,-0.1,1.0,0.5235987755982988,-0.5235987755982988,0,0.3189069,-0.8381879,-2.709416,0.69265467,-0.3459617,0.87142026,0.9265692,-0.10421317,-0.61745274,1.4724761,1.3441219,0.26105833,1.5433159,0.12935679
0.0,-0.1,1.0,0.5235987755982988,-0.5235987755982988,0,0.29500282,-0.8606714,-2.685636,0.68917453,-0.38458303,0.83945435,0.5256511,-0.08063151,-0.60262954,1.5064743,1.339546,0.20856073,1.5079533,0.41384217
0.0,-0.1,1.0,0.5235987755982988,-0.5235987755982988,0,0.35180882,-0.8632421,-2.746411,0.70472056,-0.3160125,0.3805377,1.3314339,-0.07516601,-0.61277705,1.490143,1.3441392,0.19829307,1.5402864,0.4823161
0.0,-0.1,1.0,0.5235987755982988,-0.5235987755982988,0,0.30993304,-0.8382948,-2.6788664,1.0611968,-0.06825414,0.46388432,0.58556104,-0.0803592,-0.58025074,1.5023155,1.3374693,0.16536461,1.5386546,0.27229127
0.0,-0.1,1.0,0.5235987755982988,-0.5235987755982988,0,0.32485822,-0.8616996,-2.709079,0.77183974,-0.22683465,0.21401586,-0.76246864,-0.10331327,-0.59745735,1.4932326,1.3440652,0.19966973,1.5091213,0.30030614
0.0,-0.1,1.0,0.5235987755982988,-0.5235987755982988,0,0.31936568,-0.8659825,-2.7038448,0.5908709,-0.34964,0.15200788,0.47637486,-0.08895493,-0.58876497,1.5044818,1.3385569,0.19788049,1.5150086,0.020809414
0.0,-0.1,1.0,0.5235987755982988,-0.5235987755982988,0,0.37556806,-0.87600297,-2.7547865,0.5113461,-0.34050626,0.28317213,0.066698514,-0.07312335,-0.62089425,1.4969993,1.3375834,0.14393698,1.5199158,0.14182018
0.0,-0.1,1.0,0.5235987755982988,-0.5235987755982988,0,0.3503658,-0.84011275,-2.7315836,0.73282665,-0.4253004,1.0985309,-0.4686369,-0.08749666,-0.62906003,1.4928256,1.329728,0.19613682,1.5307888,-0.004289837
0.0,-0.1,1.0,0.5235987755982988,-0.5235987755982988,0,0.36287895,-0.8676944,-2.7255697,0.5848963,-0.2675348,0.36071137,1.1631799,-0.09029729,-0.5660279,1.522386,1.3324628,0.27380487,1.5147972,0.38784596
0.0,-0.1,1.0,0.5235987755982988,-0.5235987755982988,0,0.30519614,-0.8543445,-2.6877944,0.95684034,-0.31613144,0.64803445,-0.08428841,-0.097820126,-0.57884336,1.5075791,1.328359,0.19032383,1.5044948,0.33323064
0.0,-0.1,1.0,0.5235987755982988,-0.5235987755982988,0,0.37279433,-0.86220354,-2.7405179,0.8532649,-0.33305538,0.72953725,1.8084856,-0.101936445,-0.58248156,1.5210844,1.3344725,0.21180032,1.5069225,0.33560976
0.0,-0.1,1.0,0.5235987755982988,-0.5235987755982988,0,0.35695493,-0.8720303,-2.7295105,0.8923273,-0.44851294,1.0748022,0.4192975,-0.09885116,-0.615487,1.4862459,1.3404725,0.25886968,1.5116851,-0.04041195
0.0,-0.1,1.0,0.5235987755982988,-0.5235987755982988,0,0.34816533,-0.86052364,-2.7358274,0.89668506,-0.34138933,0.42877093,0.13445048,-0.062980056,-0.6219204,1.5296754,1.3367854,0.24828982,1.5492885,0.009082791
0.0,-0.1,1.0,0.5235987755982988,-0.5235987755982988,0,0.36785045,-0.85326946,-2.7377234,0.77085245,-0.33293572,0.78839296,0.16478662,-0.12663981,-0.62732935,1.4968699,1.334726,0.20034845,1.5177487,0.178114
0.0,-0.1,1.0,0.5235987755982988,-0.5235987755982988,0,0.36701798,-0.85575366,-2.683481,0.5080151,-0.11685072,0.40646008,-0.244127,-0.099048845,-0.62211597,1.5045376,1.3447455,0.32223767,1.4952294,0.25622702
0.0,-0.1,1.0,0.5235987755982988,-0.5235987755982988,0,0.414622,-0.8509506,-2.7595973,1.0811057,-0.084390104,0.6669402,-0.10920534,-0.1469905,-0.5829726,1.5142622,1.3269932,0.23211388,1.5155002,0.27878046
0.0,-0.1,1.0,0.5235987755982988,-0.5235987755982988,0,0.32244754,-0.8327964,-2.6905794,0.83788717,-0.486562,0.12786572,-0.36502817,-0.13229018,-0.64574754,1.5165763,1.3373245,0.2799672,1.5240594,0.6449149
0.0,-0.1,1.0,0.5235987755982988,-0.5235987755982988,0,0.37859777,-0.8830775,-2.6851954,0.94475275,-0.16531774,0.21095732,0.55206037,-0.099574685,-0.644267,1.5171721,1.3358078,0.23179652,1.4940623,0.21368107
0.0,-0.1,1.0,0.5235987755982988,-0.5235987755982988,0,0.38958687,-0.862386,-2.7082598,0.7523312,-0.5452226,0.4169949,0.6194047,-0.07182875,-0.64055,1.5032402,1.3340902,0.30725783,1.5349016,0.13089229
0.0,-0.1,1.0,0.5235987755982988,-0.5235987755982988,0,0.38884565,-0.86609864,-2.7345378,0.7320168,-0.35639587,0.5326536,0.9903033,-0.07190974,-0.6535778,1.4858799,1.3320428,0.21850587,1.5215815,0.06806928
0.0,-0.1,1.0,0.5235987755982988,-0.5235987755982988,0,0.36092484,-0.8731448,-2.7141376,0.7736071,-0.18967168,0.3950591,1.1681544,-0.095755406,-0.66507214,1.480409,1.3331453,0.20723139,1.5132527,0.46210343
0.0,-0.1,1.0,0.5235987755982988,-0.5235987755982988,0,0.33931273,-0.87314886,-2.7978768,0.85678464,-0.33122513,0.17658988,0.25632647,-0.06311712,-0.63154864,1.4748299,1.3365233,0.2180979,1.4820893,0.26648903
0.0,-0.1,1.0,0.5235987755982988,-0.5235987755982988,0,0.31767857,-0.8773915,-2.7213898,0.6802867,-0.4324154,0.5929956,-0.26357517,-0.087549135,-0.6717469,1.5185431,1.3350338,0.25043666,1.4963888,0.30475703
0.0,-0.1,1.0,0.5235987755982988,-0.5235987755982988,0,0.3637211,-0.8815694,-2.7215195,0.59151083,-0.57047933,0.69001895,0.39608806,-0.085168846,-0.6242083,1.4871813,1.3315412,0.23118259,1.4617624,0.30324644
0.0,-0.1,1.0,0.5235987755982988,-0.5235987755982988,0,0.31238124,-0.8645534,-2.6813514,0.6877669,-0.16889681,0.70940214,0.8055427,-0.075931095,-0.6589411,1.4975561,1.334183,0.19442979,1.4864997,0.4520533
0.0,-0.1,1.0,0.5235987755982988,-0.5235987755982988,0,0.31901038,-0.8603978,-2.712448,0.89704156,-0.35300192,0.37960353,0.36737594,-0.12685579,-0.6585408,1.4861085,1.3371441,0.29676327,1.4960822,0.038372606
0.0,-0.1,1.0,0.5235987755982988,-0.5235987755982988,0,0.44188198,-0.88901275,-2.7548294,1.0150892,-0.37672603,0.83444595,0.5300972,-0.11183502,-0.6714653,1.519241,1.3377104,0.26821566,1.533431,0.39914864
0.0,-0.1,1.0,0.5235987755982988,-0.5235987755982988,0,0.33251023,-0.8699059,-2.6792927,0.6069651,-0.38670015,-0.12926562,0.5103902,-0.11483952,-0.6382264,1.4651688,1.3340579,0.22667792,1.5038886,0.3958275
0.0,-0.1,1.0,0.5235987755982988,-0.5235987755982988,0,0.39527702,-0.8683955,-2.717353,0.7225329,-0.43572173,0.6494484,0.4163462,-0.10381549,-0.659978,1.4904586,1.334879,0.23756504,1.5273992,0.35653988
0.0,-0.1,1.0,0.5235987755982988,-0.5235987755982988,0,0.263435,-0.843275,-2.6592505,0.84763813,-0.21117716,0.38797724,0.6313037,-0.09104864,-0.65219784,1.5082954,1.331457,0.242774,1.5568731,0.40283543
0.0,-0.1,1.0,0.5235987755982988,-0.5235987755982988,0,0.3318564,-0.8622298,-2.6331995,0.7124739,-0.33772165,0.9405299,0.074118495,-0.13197528,-0.66425407,1.4726211,1.3376225,0.21285488,1.5229111,0.080509454
0.0,-0.1,1.0,0.5235987755982988,-0.5235987755982988,0,0.35384315,-0.8730341,-2.6893523,0.7970769,-0.415232,0.40548497,0.76174086,-0.096214,-0.6210258,1.5005298,1.3300036,0.14947598,1.519618,0.44658598
0.0,-0.1,1.0,0.5235987755982988,-0.5235987755982988,0,0.26929584,-0.8726115,-2.6833184,0.73043466,-0.19062714,1.2796968,-0.6097066,-0.09345397,-0.65014166,1.505846,1.328607,0.22914083,1.4938232,0.24785222
0.0,-0.1,1.0,0.5235987755982988,-0.5235987755982988,0,0.37395164,-0.87458426,-2.674732,1.152765,-0.4660458,0.93132603,0.9181702,-0.102259874,-0.6345115,1.4913092,1.3322225,0.26392508,1.5077871,0.08095632
0.0,-0.1,1.0,0.5235987755982988,-0.5235987755982988,0,0.33572233,-0.83998096,-2.7491326,1.0980092,-0.5320096,0.57409716,0.6567409,-0.08857665,-0.6410784,1.5180075,1.333408,0.25333577,1.5014958,-0.015715238
0.0,-0.1,1.0,0.5235987755982988,-0.5235987755982988,0,0.36633042,-0.8414724,-2.7385874,0.71774054,-0.2997189,1.1100218,0.846275,-0.06518267,-0.6128342,1.4858902,1.3313977,0.2687457,1.5315874,0.18245968
0.0,-0.1,1.0,0.5235987755982988,-0.5235987755982988,0,0.29881734,-0.85452473,-2.6762335,0.8970464,-0.041540913,0.5494067,-0.24678504,-0.05080641,-0.6126196,1.5060257,1.3388042,0.24906963,1.4864165,0.21044467
0.0,-0.1,1.0,0.5235987755982988,-0.5235987755982988,0,0.2993757,-0.88212484,-2.6791449,0.7572819,-0.43773887,0.8778743,0.76967007,-0.1013046,-0.65387636,1.4983121,1.3304813,0.26004034,1.5022109,0.19532353
0.0,-0.1,1.0,0.5235987755982988,-0.5235987755982988,0,0.33841598,-0.88890564,-2.6948884,0.8409033,-0.20431513,0.34340727,-0.19617392,-0.10031663,-0.5933216,1.5078312,1.3384765,0.25982407,1.5271997,0.17321101
0.0,-0.1,1.0,0.5235987755982988,-0.5235987755982988,0,0.36376467,-0.8893498,-2.7073534,0.8292724,-0.28187755,0.895881,-0.2795075,-0.10005003,-0.6077041,1.5031552,1.3272425,0.25874206,1.5104703,0.17550065
0.0,-0.1,1.0,0.5235987755982988,-0.5235987755982988,0,0.37202296,-0.86546636,-2.7140262,0.80186886,-0.48945946,0.8134874,0.698697,-0.07846623,-0.65718246,1.5110737,1.3376067,0.2666583,1.5019435,-0.13075444
0.0,-0.1,1.0,0.5235987755982988,-0.5235987755982988,0,0.331651,-0.8575977,-2.7402751,0.61619765,-0.18473001,0.91099674,-0.6317459,-0.10478647,-0.63373643,1.506931,1.3341303,0.22455457,1.5243138,0.1442537
0.0,-0.1,1.0,0.5235987755982988,-0.5235987755982988,0,0.31302863,-0.8750135,-2.6915023,1.0046908,-0.1864186,0.9619632,-0.39162633,-0.084917404,-0.6469425,1.4918278,1.3293104,0.22189547,1.5062621,0.31181926
0.0,-0.1,1.0,0.5235987755982988,-0.5235987755982988,0,0.3273376,-0.8449197,-2.6854866,0.84393775,-0.5255354,0.3320992,0.8451979,-0.11199179,-0.63582206,1.4924396,1.3371762,0.23500262,1.4957688,-0.22725447
0.0,-0.1,1.0,0.5235987755982988,-0.5235987755982988,0,0.27229333,-0.8488635,-2.7337646,0.39828148,-0.27747306,0.43873343,0.91512954,-0.10760095,-0.63628054,1.4746742,1.3421668,0.2527774,1.4952048,0.2948511
0.0,-0.1,1.0,0.5235987755982988,-0.5235987755982988,0,0.3475486,-0.8744682,-2.692459,0.73246425,0.0026402737,0.3955433,0.56399244,-0.08168609,-0.6439801,1.5006664,1.336576,0.28000557,1.534374,0.13526495
0.0,-0.1,1.0,0.5235987755982988,-0.5235987755982988,0,0.3644614,-0.86709493,-2.7120423,0.8250848,-0.349424,0.15552267,-0.5200909,-0.11678357,-0.62796414,1.4559847,1.3416696,0.15587366,1.5259016,0.035916846
0.0,-0.1,1.0,0.5235987755982988,-0.5235987755982988,0,0.3170901,-0.86860037,-2.6638308,0.5337568,-0.33154806,0.3928178,0.40521327,-0.07446384,-0.63381755,1.5028757,1.3356161,0.23553753,1.5193018,0.53247577
0.0,-0.1,1.0,0.5235987755982988,-0.5235987755982988,0,0.27140692,-0.8634112,-2.6838381,0.6313753,-0.4166696,0.49235478,0.8633666,-0.09204359,-0.6415127,1.4990236,1.3389447,0.20350434,1.5229689,0.3144664
0.0,-0.1,1.0,0.5235987755982988,-0.5235987755982988,0,0.3650877,-0.8680308,-2.7335877,1.0531621,-0.275694,0.8113418,0.43153626,-0.10120635,-0.64303404,1.4921485,1.3398992,0.3035592,1.5101292,0.030365344
0.0,-0.1,1.0,0.5235987755982988,-0.5235987755982988,0,0.38471186,-0.873292,-2.7049177,1.119663,-0.5037033,0.4843293,0.21045743,-0.13095792,-0.63095367,1.4732203,1.3284545,0.23068075,1.5109121,0.06499306
0.0,-0.1,1.0,0.5235987755982988,-0.5235987755982988,0,0.3547854,-0.8687967,-2.7369356,0.5872001,-0.5003976,0.28262955,-0.5477979,-0.13183703,-0.6382208,1.5099713,1.3306648,0.20988627,1.5447022,0.29701933
0.0,-0.1,1.0,0.5235987755982988,-0.5235987755982988,0,0.32862827,-0.8901934,-2.6782,0.56980824,-0.47808728,0.2866637,-0.19855852,-0.10355823,-0.65367293,1.5173247,1.3366406,0.19227651,1.5131274,0.25382313
0.0,-0.1,1.0,0.5235987755982988,-0.5235987755982988,0,0.3182576,-0.8627766,-2.6505349,0.76658267,-0.17337808,0.6704748,0.22891112,-0.14443006,-0.64938897,1.5126587,1.3372653,0.1770792,1.5559387,0.06611022
0.0,-0.1,1.0,0.5235987755982988,-0.5235987755982988,0,0.30021706,-0.86299086,-2.6791909,0.47886434,-0.41415796,0.60753727,0.2544738,-0.09304061,-0.6619366,1.4880285,1.3346946,0.1566989,1.533113,0.21193509
0.0,-0.1,1.0,0.5235987755982988,-0.5235987755982988,0,0.32928145,-0.88664854,-2.738919,0.56709677,-0.24845296,0.33343434,0.39477855,-0.07153477,-0.63641536,1.4930061,1.3333639,0.25491086,1.5129339,0.47811544
0.0,-0.1,1.0,0.5235987755982988,-0.5235987755982988,0,0.31308138,-0.8328015,-2.659821,1.0022267,-0.22930214,0.47197664,0.68020874,-0.08231534,-0.61852956,1.470255,1.334386,0.24984707,1.5199962,0.1897812
0.0,-0.1,1.0,0.5235987755982988,-0.5235987755982988,0,0.33047605,-0.85165536,-2.700932,1.0252372,-0.17449374,1.0493314,0.4363482,-0.10372635,-0.67042315,1.493895,1.3369626,0.24908018,1.5450245,0.5540874
0.0,-0.1,1.0,0.5235987755982988,-0.5235987755982988,0,0.34286985,-0.86129177,-2.6814342,0.75003576,-0.2702102,0.6554804,0.19414815,-0.10533753,-0.6658458,1.5201527,1.3402358,0.319542,1.4950409,0.021904478
0.0,-0.1,1.0,0.5235987755982988,-0.5235987755982988,0,0.32681924,-0.86020637,-2.7198932,0.9819961,-0.31449518,0.67952913,0.05390634,-0.113497384,-0.6321147,1.5039034,1.3385835,0.24021737,1.5148383,-0.0038683882
0.0,-0.1,1.0,0.5235987755982988,-0.5235987755982988,0,0.34587604,-0.85618716,-2.7174428,0.898144,-0.24408321,0.7262217,0.27065337,-0.10668785,-0.6294224,1.4892755,1.336732,0.23727416,1.5230563,0.21552376
0.0,-0.1,1.0,0.5235987755982988,-0.5235987755982988,0,0.3352343,-0.8720067,-2.6749778,0.6999294,-0.36612338,0.1595744,1.1115557,-0.12843034,-0.64658237,1.497427,1.3338131,0.22647081,1.504112,0.36757663
0.0,-0.1,1.0,0.5235987755982988,-0.5235987755982988,0,0.30641368,-0.8773968,-2.679617,0.958769,-0.20660399,0.7184502,-0.05924402,-0.13314109,-0.6196581,1.4789445,1.3347343,0.21123476,1.5174338,-0.09182544
0.0,-0.1,1.0,0.5235987755982988,-0.5235987755982988,0,0.36166707,-0.8656215,-2.7231083,0.63885486,-0.37078258,1.0674194,-0.14911385,-0.089510605,-0.6230629,1.4986428,1.3333607,0.2709865,1.5431408,0.17494664
0.0,-0.1,1.0,0.5235987755982988,-0.5235987755982988,0,0.32974735,-0.8548652,-2.707035,0.9667966,-0.4984699,0.19403964,-0.3635272,-0.08568977,-0.6222377,1.5042374,1.3455154,0.25994644,1.4929446,0.43779406
0.0,-0.1,1.0,0.5235987755982988,-0.5235987755982988,0,0.38115945,-0.8406531,-2.7278202,0.925617,-0.29801306,0.5596303,0.41964427,-0.107551716,-0.6379367,1.4864211,1.3370429,0.271746,1.5365427,0.40555358
0.0,-0.1,1.0,0.5235987755982988,-0.5235987755982988,0,0.34036312,-0.8818805,-2.7165294,0.62389964,-0.17008147,0.39123547,0.027365841,-0.07531167,-0.6218742,1.4852685,1.345125,0.1966027,1.4689972,-0.069071084
0.0,-0.1,1.0,0.5235987755982988,-0.5235987755982988,0,0.37989148,-0.8595011,-2.7467546,0.7989235,-0.30657926,0.4893835,-0.34483933,-0.09991479,-0.6280335,1.5082092,1.3392506,0.27182406,1.5188533,0.21372029
0.0,-0.1,1.0,0.5235987755982988,-0.5235987755982988,0,0.33842015,-0.8625793,-2.7176268,0.798023,-0.039566856,1.2155064,0.64039165,-0.10317645,-0.6268319,1.4802274,1.3379647,0.27308452,1.4952636,0.14108388
0.0,-0.1,1.0,0.5235987755982988,-0.5235987755982988,0,0.35085544,-0.8707087,-2.74524,0.9031166,-0.473098,0.35441113,1.4888836,-0.12110145,-0.6371312,1.491966,1.3324996,0.23324752,1.5045855,0.22961257
0.0,-0.1,1.0,0.5235987755982988,-0.5235987755982988,0,0.30617562,-0.85057735,-2.6785755,0.88590133,-0.23170799,0.6129672,0.6208995,-0.12300413,-0.5990655,1.5050814,1.3311797,0.25156254,1.518178,0.32397902
0.0,-0.1,1.0,0.5235987755982988,-0.5235987755982988,0,0.30148157,-0.86426204,-2.7108867,0.7950024,-0.31685993,0.31128696,0.5484329,-0.108194895,-0.61875844,1.5156846,1.3372929,0.28829318,1.489704,0.31248212
0.0,-0.1,1.0,0.5235987755982988,-0.5235987755982988,0,0.32762977,-0.8579537,-2.6883597,0.6376281,-0.3584351,0.3903752,0.48221505,-0.12575664,-0.6179132,1.5107093,1.3409379,0.2274827,1.5020298,0.31949404
0.0,-0.1,1.0,0.5235987755982988,-0.5235987755982988,0,0.2787501,-0.8638535,-2.7635741,0.5387839,-0.25574136,0.38507953,-0.42469725,-0.10924919,-0.5664675,1.5098128,1.3310269,0.24541669,1.5385547,0.25337064
0.0,-0.1,1.0,0.5235987755982988,-0.5235987755982988,0,0.3319611,-0.8580821,-2.691804,0.9015772,-0.20077528,0.4078473,1.5295463,-0.082637034,-0.6199832,1.5054802,1.3356104,0.20217745,1.5487009,0.00027528196
0.0,-0.1,1.0,0.5235987755982988,-0.5235987755982988,0,0.38918093,-0.8440935,-2.7391593,1.114112,-0.28342575,0.82286257,0.24410012,-0.12182612,-0.62465715,1.4898827,1.3362347,0.19901885,1.5304095,-0.098635785
0.0,-0.1,1.0,0.5235987755982988,-0.5235987755982988,0,0.3340771,-0.853712,-2.746599,0.52646613,-0.25528768,0.36772686,0.38353905,-0.112204984,-0.6492918,1.5133095,1.3406831,0.22317187,1.5172356,0.17182694
0.0,-0.1,1.0,0.5235987755982988,-0.5235987755982988,0,0.3483396,-0.8613628,-2.7460644,0.6905803,-0.30647275,0.3268485,0.6417597,-0.14587413,-0.6481789,1.5094312,1.3420149,0.19222738,1.5191299,0.27335018
0.0,-0.1,1.0,0.5235987755982988,-0.5235987755982988,0,0.3484215,-0.86105275,-2.7428942,0.80782944,-0.36069474,0.70998764,-0.7479458,-0.07817542,-0.61456794,1.4825886,1.3433393,0.27367607,1.4925349,0.23460606
0.0,-0.1,1.0,0.5235987755982988,-0.5235987755982988,0,0.33444422,-0.8702974,-2.705231,0.8728787,-0.32628235,1.1679754,0.39941424,-0.09099877,-0.59237444,1.4916729,1.340712,0.18863627,1.5197085,0.38323814
0.0,-0.1,1.0,0.5235987755982988,-0.5235987755982988,0,0.27708286,-0.8777835,-2.686904,0.7308527,-0.37623352,0.3460337,0.568973,-0.09251276,-0.6025098,1.4962661,1.345708,0.2672,1.4951979,0.19311517
0.0,-0.1,1.0,0.5235987755982988,-0.5235987755982988,0,0.3275933,-0.87946737,-2.7227266,0.5200061,-0.34984168,0.62354034,0.7769051,-0.09087322,-0.60347354,1.4989321,1.3327488,0.24629633,1.4970337,0.019065805
0.0,-0.1,1.0,0.5235987755982988,-0.5235987755982988,0,0.27689752,-0.86813325,-2.6784706,0.6742956,-0.35270652,0.75182045,-0.2814945,-0.10852095,-0.59949386,1.5125645,1.3330948,0.29723743,1.5214571,0.3523141
0.0,-0.1,1.0,0.5235987755982988,-0.5235987755982988,0,0.32044807,-0.8355189,-2.7059233,0.76613575,-0.5298895,0.475044,0.9336183,-0.07019743,-0.640362,1.5079697,1.3259048,0.22246702,1.5433055,0.43028903
0.0,-0.1,1.0,0.5235987755982988,-0.5235987755982988,0,0.31807858,-0.8688178,-2.6949213,0.7405204,-0.27317977,0.5095058,0.2709409,-0.08656523,-0.58641547,1.4737091,1.3342203,0.2612297,1.4929109,0.09667421
0.0,-0.1,1.0,0.5235987755982988,-0.5235987755982988,0,0.30871657,-0.88025105,-2.7079504,0.75467294,-0.4280406,0.6029776,-0.29884994,-0.10240988,-0.6451582,1.47719,1.3395278,0.22532016,1.5340825,0.40679651
0.0,-0.1,1.0,0.5235987755982988,-0.5235987755982988,0,0.26988286,-0.84592855,-2.7027698,0.91596913,-0.1602469,0.8396653,0.7280322,-0.09744196,-0.6001202,1.4963964,1.3371215,0.22617699,1.5289425,0.46657497
0.0,-0.1,1.0,0.5235987755982988,-0.5235987755982988,0,0.23166384,-0.8371776,-2.627561,0.8486707,-0.34736934,0.64443415,-0.11096953,-0.07284413,-0.5970784,1.5170239,1.3341558,0.19338486,1.5449891,0.33330387
0.0,-0.1,1.0,0.5235987755982988,-0.5235987755982988,0,0.3342608,-0.87564826,-2.6901944,0.77952677,-0.23049778,0.5317813,0.35296327,-0.086046495,-0.6232603,1.533515,1.3424195,0.30020356,1.5296704,0.18576391
0.0,-0.1,1.0,0.5235987755982988,-0.5235987755982988,0,0.36227587,-0.8449841,-2.751854,1.1789166,-0.70771116,0.25585726,-0.06515463,-0.09825777,-0.62729776,1.505246,1.3453537,0.2315503,1.5233022,0.28878272
0.0,-0.1,1.0,0.5235987755982988,-0.5235987755982988,0,0.3270577,-0.8537561,-2.7205982,0.8666313,-0.27467576,0.63917804,-0.3847513,-0.09144373,-0.62827617,1.5311791,1.3433005,0.21018708,1.5304866,0.10466587
0.0,-0.1,1.0,0.5235987755982988,-0.5235987755982988,0,0.30562174,-0.8540308,-2.7027116,1.0198002,-0.35934195,0.5108146,0.86147916,-0.094368905,-0.5871318,1.5169593,1.3337274,0.23214713,1.5321076,0.21597166
0.0,-0.1,1.0,0.5235987755982988,-0.5235987755982988,0,0.339361,-0.8865071,-2.7251532,1.0563025,-0.2034667,0.57192177,0.70612824,-0.09364515,-0.5861984,1.4773433,1.3387474,0.25851637,1.5428946,0.13477175
0.0,-0.1,1.0,0.5235987755982988,-0.5235987755982988,0,0.30753198,-0.8606506,-2.7220936,0.35549742,-0.42903763,0.26063338,0.78876626,-0.06931545,-0.62327516,1.4882518,1.3329124,0.24256156,1.4910432,0.64781445
0.0,-0.1,1.0,0.5235987755982988,-0.5235987755982988,0,0.36721206,-0.8704919,-2.7168832,0.634148,-0.31430343,0.8068214,-0.13804528,-0.113275,-0.61252177,1.5060619,1.3371096,0.24566488,1.5197467,0.4431009
0.0,-0.1,1.0,0.5235987755982988,-0.5235987755982988,0,0.2952222,-0.84370035,-2.7251127,0.66135037,-0.35561162,0.946315,0.75121295,-0.09555238,-0.5887889,1.5048654,1.3381603,0.26672307,1.5275658,0.35541084
0.0,-0.1,1.0,0.5235987755982988,-0.5235987755982988,0,0.28791335,-0.82880706,-2.6651216,0.49392846,-0.23246482,1.1016719,0.4171281,-0.099160105,-0.6217333,1.491072,1.3379685,0.26443747,1.5199394,0.2584133
0.0,-0.1,1.0,0.5235987755982988,-0.5235987755982988,0,0.32952848,-0.8278998,-2.7462192,0.49741155,-0.22740062,0.82484317,0.5075658,-0.09242229,-0.5916922,1.5097703,1.3334216,0.19211325,1.5000488,0.2562737
0.0,-0.1,1.0,0.5235987755982988,-0.5235987755982988,0,0.34111825,-0.8610648,-2.7578094,0.42436814,-0.11845066,1.0441601,0.035159145,-0.08829811,-0.6320597,1.4628417,1.3369454,0.17504196,1.4915006,0.26347724
0.0,-0.1,1.0,0.5235987755982988,-0.5235987755982988,0,0.2997085,-0.8570364,-2.6667461,0.8166158,-0.306852,0.59437,0.49432635,-0.11464024,-0.6388951,1.489283,1.3352543,0.24431935,1.4939193,0.2048331
0.0,-0.1,1.0,0.5235987755982988,-0.5235987755982988,0,0.31888235,-0.84930515,-2.6641264,0.70315987,-0.21775387,0.51121104,0.36767247,-0.11604404,-0.6476766,1.4914056,1.3353554,0.23085403,1.5210173,0.21808316
0.0,-0.1,1.0,0.5235987755982988,-0.5235987755982988,0,0.35024527,-0.8532713,-2.7182837,0.5959694,-0.3158002,0.5688428,0.052317552,-0.115794,-0.65084445,1.5179368,1.3311595,0.19096759,1.5169492,0.2692014
0.0,-0.1,1.0,0.5235987755982988,-0.5235987755982988,0,0.3122452,-0.85893714,-2.7249434,0.7702959,-0.17390633,0.4114469,0.56043476,-0.09686402,-0.6218465,1.4757553,1.3368211,0.15512715,1.5167984,0.31406397
0.0,-0.1,1.0,0.5235987755982988,-0.5235987755982988,0,0.30036414,-0.8533632,-2.7026196,0.5962913,-0.5308173,0.876683,0.13006312,-0.116683744,-0.6033699,1.493763,1.3325254,0.18268071,1.5279164,0.3231128
0.0,-0.1,1.0,0.5235987755982988,-0.5235987755982988,0,0.34719327,-0.85645545,-2.7261064,0.5667448,-0.24359566,0.8666767,0.12649381,-0.12067192,-0.5764219,1.5113709,1.3398452,0.25688973,1.4828836,0.30881628
0.0,-0.1,1.0,0.5235987755982988,-0.5235987755982988,0,0.22714472,-0.8342981,-2.6972413,0.56437683,-0.5186692,1.0189983,0.14264376,-0.1155202,-0.60177046,1.5198278,1.3394029,0.18506311,1.5208045,0.3152682
0.0,-0.1,1.0,0.5235987755982988,-0.5235987755982988,0,0.22714472,-0.8342981,-2.6972413,0.56437683,-0.5186692,1.0189983,0.14264376,-0.1155202,-0.60177046,1.5198278,1.3394029,0.18506311,1.5208045,0.3152682
0.0,-0.1,1.0,0.5235987755982988,-0.5235987755982988,0,0.22714472,-0.8342981,-2.6972413,0.56437683,-0.5186692,1.0189983,0.14264376,-0.1155202,-0.60177046,1.5198278,1.3394029,0.18506311,1.5208045,0.3152682
0.0,-0.1,1.0,0.5235987755982988,-0.5235987755982988,0,0.22714472,-0.8342981,-2.6972413,0.56437683,-0.5186692,1.0189983,0.14264376,-0.1155202,-0.60177046,1.5198278,1.3394029,0.18506311,1.5208045,0.3152682
0.0,-0.1,1.0,0.5235987755982988,-0.5235987755982988,0,0.22714472,-0.8342981,-2.6972413,0.56437683,-0.5186692,1.0189983,0.14264376,-0.1155202,-0.60177046,1.5198278,1.3394029,0.18506311,1.5208045,0.3152682
0.0,-0.1,1.0,0.5235987755982988,-0.5235987755982988,0,0.22714472,-0.8342981,-2.6972413,0.56437683,-0.5186692,1.0189983,0.14264376,-0.1155202,-0.60177046,1.5198278,1.3394029,0.18506311,1.5208045,0.3152682
0.0,-0.1,1.0,0.5235987755982988,-0.5235987755982988,0,0.22714472,-0.8342981,-2.6972413,0.56437683,-0.5186692,1.0189983,0.14264376,-0.1155202,-0.60177046,1.5198278,1.3394029,0.18506311,1.5208045,0.3152682
0.0,-0.1,1.0,0.5235987755982988,-0.5235987755982988,0,0.22714472,-0.8342981,-2.6972413,0.56437683,-0.5186692,1.0189983,0.14264376,-0.1155202,-0.60177046,1.5198278,1.3394029,0.18506311,1.5208045,0.3152682
0.0,-0.1,1.0,0.5235987755982988,-0.5235987755982988,0,0.22714472,-0.8342981,-2.6972413,0.56437683,-0.5186692,1.0189983,0.14264376,-0.1155202,-0.60177046,1.5198278,1.3394029,0.18506311,1.5208045,0.3152682
0.0,-0.1,1.0,0.5235987755982988,-0.5235987755982988,0,0.32705286,-0.86619854,-2.7213383,0.9680169,-0.24370693,0.2591295,-0.17060079,-0.0658719,-0.59061503,1.4967585,1.3403006,0.29558584,1.4813248,0.3512308
0.0,-0.1,1.0,0.5235987755982988,-0.5235987755982988,0,0.32705286,-0.86619854,-2.7213383,0.9680169,-0.24370693,0.2591295,-0.17060079,-0.0658719,-0.59061503,1.4967585,1.3403006,0.29558584,1.4813248,0.3512308
0.0,-0.1,1.0,0.5235987755982988,-0.5235987755982988,0,0.32705286,-0.86619854,-2.7213383,0.9680169,-0.24370693,0.2591295,-0.17060079,-0.0658719,-0.59061503,1.4967585,1.3403006,0.29558584,1.4813248,0.3512308
0.0,-0.1,1.0,0.5235987755982988,-0.5235987755982988,0,0.32705286,-0.86619854,-2.7213383,0.9680169,-0.24370693,0.2591295,-0.17060079,-0.0658719,-0.59061503,1.4967585,1.3403006,0.29558584,1.4813248,0.3512308
0.0,-0.1,1.0,0.5235987755982988,-0.5235987755982988,0,0.32705286,-0.86619854,-2.7213383,0.9680169,-0.24370693,0.2591295,-0.17060079,-0.0658719,-0.59061503,1.4967585,1.3403006,0.29558584,1.4813248,0.3512308
0.0,-0.1,1.0,0.5235987755982988,-0.5235987755982988,0,0.32705286,-0.86619854,-2.7213383,0.9680169,-0.24370693,0.2591295,-0.17060079,-0.0658719,-0.59061503,1.4967585,1.3403006,0.29558584,1.4813248,0.3512308
0.0,-0.1,1.0,0.5235987755982988,-0.5235987755982988,0,0.32705286,-0.86619854,-2.7213383,0.9680169,-0.24370693,0.2591295,-0.17060079,-0.0658719,-0.59061503,1.4967585,1.3403006,0.29558584,1.4813248,0.3512308
0.0,-0.1,1.0,0.5235987755982988,-0.5235987755982988,0,0.32705286,-0.86619854,-2.7213383,0.9680169,-0.24370693,0.2591295,-0.17060079,-0.0658719,-0.59061503,1.4967585,1.3403006,0.29558584,1.4813248,0.3512308
0.0,-0.1,1.0,0.5235987755982988,-0.5235987755982988,0,0.042769987,-0.86119014,-2.6308775,0.22564149,-0.24188648,0.5023392,1.1285216,-0.13785118,-0.6707064,1.4950272,1.3347284,0.41029754,1.492988,0.6840505
0.0,-0.1,1.0,0.5235987755982988,-0.5235987755982988,0,0.042769987,-0.86119014,-2.6308775,0.22564149,-0.24188648,0.5023392,1.1285216,-0.13785118,-0.6707064,1.4950272,1.3347284,0.41029754,1.492988,0.6840505
0.0,-0.1,1.0,0.5235987755982988,-0.5235987755982988,0,0.042769987,-0.86119014,-2.6308775,0.22564149,-0.24188648,0.5023392,1.1285216,-0.13785118,-0.6707064,1.4950272,1.3347284,0.41029754,1.492988,0.6840505
0.0,-0.1,1.0,0.5235987755982988,-0.5235987755982988,0,0.042769987,-0.86119014,-2.6308775,0.22564149,-0.24188648,0.5023392,1.1285216,-0.13785118,-0.6707064,1.4950272,1.3347284,0.41029754,1.492988,0.6840505
0.0,-0.1,1.0,0.5235987755982988,-0.5235987755982988,0,0.042769987,-0.86119014,-2.6308775,0.22564149,-0.24188648,0.5023392,1.1285216,-0.13785118,-0.6707064,1.4950272,1.3347284,0.41029754,1.492988,0.6840505
0.0,-0.1,1.0,0.5235987755982988,-0.5235987755982988,0,0.042769987,-0.86119014,-2.6308775,0.22564149,-0.24188648,0.5023392,1.1285216,-0.13785118,-0.6707064,1.4950272,1.3347284,0.41029754,1.492988,0.6840505
0.0,-0.1,1.0,0.5235987755982988,-0.5235987755982988,0,0.042769987,-0.86119014,-2.6308775,0.22564149,-0.24188648,0.5023392,1.1285216,-0.13785118,-0.6707064,1.4950272,1.3347284,0.41029754,1.492988,0.6840505
0.0,-0.1,1.0,0.5235987755982988,-0.5235987755982988,0,0.042769987,-0.86119014,-2.6308775,0.22564149,-0.24188648,0.5023392,1.1285216,-0.13785118,-0.6707064,1.4950272,1.3347284,0.41029754,1.492988,0.6840505
0.0,-0.1,1.0,0.5235987755982988,-0.5235987755982988,0,0.042769987,-0.86119014,-2.6308775,0.22564149,-0.24188648,0.5023392,1.1285216,-0.13785118,-0.6707064,1.4950272,1.3347284,0.41029754,1.492988,0.6840505
0.0,-0.1,1.0,0.5235987755982988,-0.5235987755982988,0,0.08397729,-0.8603713,-2.7154627,0.6807979,-0.25651938,0.27052417,0.13931607,-0.11283133,-0.61228424,1.4780811,1.3387618,0.22346644,1.4770511,0.49738044
0.0,-0.1,1.0,0.5235987755982988,-0.5235987755982988,0,0.08397729,-0.8603713,-2.7154627,0.6807979,-0.25651938,0.27052417,0.13931607,-0.11283133,-0.61228424,1.4780811,1.3387618,0.22346644,1.4770511,0.49738044
0.0,-0.1,1.0,0.5235987755982988,-0.5235987755982988,0,0.08397729,-0.8603713,-2.7154627,0.6807979,-0.25651938,0.27052417,0.13931607,-0.11283133,-0.61228424,1.4780811,1.3387618,0.22346644,1.4770511,0.49738044
0.0,-0.1,1.0,0.5235987755982988,-0.5235987755982988,0,0.08397729,-0.8603713,-2.7154627,0.6807979,-0.25651938,0.27052417,0.13931607,-0.11283133,-0.61228424,1.4780811,1.3387618,0.22346644,1.4770511,0.49738044
0.0,-0.1,1.0,0.5235987755982988,-0.5235987755982988,0,0.08397729,-0.8603713,-2.7154627,0.6807979,-0.25651938,0.27052417,0.13931607,-0.11283133,-0.61228424,1.4780811,1.3387618,0.22346644,1.4770511,0.49738044
0.0,-0.1,1.0,0.5235987755982988,-0.5235987755982988,0,0.08397729,-0.8603713,-2.7154627,0.6807979,-0.25651938,0.27052417,0.13931607,-0.11283133,-0.61228424,1.4780811,1.3387618,0.22346644,1.4770511,0.49738044
