sanky1234/BimanualDexCatch/isaacgymenvs/cem_results/May31/football_pose_0.0_-0.1_1.2999999999999998_0.5235987755982988_0.5235987755982988_0_2025-05-31.csv
x,y,z,roll,pitch,yaw,robot1/joint1,robot1/joint2,robot1/joint3,robot1/joint4,robot1/joint5,robot1/joint6,robot1/joint7,robot2/joint1,robot2/joint2,robot2/joint3,robot2/joint4,robot2/joint5,robot2/joint6,robot2/joint7
0.0,-0.1,1.2999999999999998,0.5235987755982988,0.5235987755982988,0,-0.9481314,-1.0048299,-1.6038531,-0.58432037,0.02400221,0.5827139,-0.09070439,-0.005291983,-1.242008,0.95821863,-0.47746897,-0.51424915,-1.0228118,1.0786219
0.0,-0.1,1.2999999999999998,0.5235987755982988,0.5235987755982988,0,-1.0251789,-1.0870117,-1.6731559,-0.35360932,-0.031917978,-0.015913205,0.2872666,-0.23324299,-1.0095857,1.0140578,-0.25413573,-1.0394117,-0.37520427,1.5332711
0.0,-0.1,1.2999999999999998,0.5235987755982988,0.5235987755982988,0,-0.83150053,-1.0838249,-1.7591181,-0.6158244,-0.14737734,0.24034402,0.17734864,-0.17818402,-1.1140274,0.879827,-0.28557476,-0.77780807,-0.59184813,0.33725575
0.0,-0.1,1.2999999999999998,0.5235987755982988,0.5235987755982988,0,-0.91321754,-1.0949792,-1.748963,-0.6188414,0.009911215,0.45667848,0.64117056,-0.16044177,-1.0309106,0.9554317,-0.29653248,-0.36932003,0.058193672,1.0476713
0.0,-0.1,1.2999999999999998,0.5235987755982988,0.5235987755982988,0,-0.8352546,-1.0307827,-1.6296395,-0.6003139,0.30948913,0.44775364,0.23799352,-0.21263188,-0.95270056,0.9305544,-0.30143642,-0.6591712,-0.008433531,0.5702481
0.0,-0.1,1.2999999999999998,0.5235987755982988,0.5235987755982988,0,-0.9696118,-1.0735577,-1.6567,-0.6163504,-0.33403188,0.39149392,0.03515774,0.12520023,-1.1136509,1.0809015,-0.30242935,-0.5734623,-0.6168227,2.172117
0.0,-0.1,1.2999999999999998,0.5235987755982988,0.5235987755982988,0,-0.8631892,-0.9401672,-1.8482494,-0.6110704,0.4656668,0.5638885,0.013556881,-0.122801475,-0.8850982,0.90916777,-0.30131984,-0.6674806,-0.093683116,1.8117718
0.0,-0.1,1.2999999999999998,0.5235987755982988,0.5235987755982988,0,-0.80263907,-1.058384,-1.6864984,-0.6217026,0.63977987,0.32072088,0.28828636,-0.27152184,-0.9430104,0.99231225,-0.16993718,-0.88815945,-0.6253359,1.1334996
0.0,-0.1,1.2999999999999998,0.5235987755982988,0.5235987755982988,0,-1.0014831,-1.1569618,-1.6521984,-0.5523708,0.6156989,0.44758257,-0.13086943,-0.08701594,-1.146604,1.0000274,-0.20025551,-0.8420139,-0.1103836,1.2351067
0.0,-0.1,1.2999999999999998,0.5235987755982988,0.5235987755982988,0,-0.86801505,-0.96626925,-1.5919635,-0.5313642,0.3196295,0.5903958,0.34206572,0.034203682,-1.0903324,1.0304142,-0.28222737,-0.19453607,-0.88655096,1.3529729
0.0,-0.1,1.2999999999999998,0.5235987755982988,0.5235987755982988,0,-1.0717252,-0.90097225,-1.6144189,-0.38285825,0.18180974,0.1585005,0.3118378,0.10277448,-1.0716779,1.0118198,-0.41401806,-1.3513145,-0.556912,0.97647244
0.0,-0.1,1.2999999999999998,0.5235987755982988,0.5235987755982988,0,-0.7236222,-0.9205409,-1.8245862,-0.4518828,0.97421587,0.6438184,0.26516038,-0.24803707,-1.0668861,1.0361025,-0.3647989,-1.1328458,-0.69150484,0.62079036
0.0,-0.1,1.2999999999999998,0.5235987755982988,0.5235987755982988,0,-1.0224949,-1.0402055,-1.6493465,-0.48557493,0.723748,0.34140152,0.02078773,-0.040490013,-1.1156986,0.96185076,-0.32854584,-1.1970758,-0.0082607,0.8962042
0.0,-0.1,1.2999999999999998,0.5235987755982988,0.5235987755982988,0,-0.52922344,-0.92630994,-1.7184122,-0.53071505,-0.67191136,0.716964,0.24857038,-0.102433965,-0.9780954,1.0027434,-0.32742774,-0.37309963,-0.42314485,0.79434794
0.0,-0.1,1.2999999999999998,0.5235987755982988,0.5235987755982988,0,-1.0246223,-0.9454014,-1.6662704,-0.3990155,0.61416173,0.62780356,0.21931398,-0.13188538,-0.69722366,0.87107533,-0.29908708,-0.6983977,-0.18292446,1.012151
0.0,-0.1,1.2999999999999998,0.5235987755982988,0.5235987755982988,0,-1.055301,-0.93407845,-1.545346,-0.573578,0.5866452,0.4740652,0.119007014,0.12147941,-1.207586,1.0264683,-0.27265248,-0.05541896,-0.29023397,2.0743191
0.0,-0.1,1.2999999999999998,0.5235987755982988,0.5235987755982988,0,-0.7401344,-0.8640677,-1.68927,-0.38360527,-0.1383581,0.58588916,0.3849234,-0.090953544,-0.96115386,0.87793964,-0.33406058,-0.88494533,-1.0839238,1.6588136
0.0,-0.1,1.2999999999999998,0.5235987755982988,0.5235987755982988,0,-1.0533912,-0.9248092,-1.8878313,-0.45902997,1.2087208,0.26343435,0.20379852,-0.027536318,-1.099582,0.89984334,-0.32613766,-1.2385093,-0.27770466,2.176602
0.0,-0.1,1.2999999999999998,0.5235987755982988,0.5235987755982988,0,-0.5402569,-0.7830392,-1.7229992,-0.56655324,-0.2494641,0.66134,0.27318284,0.21644372,-0.89271307,1.0340934,-0.35378096,-0.7638923,-0.58345115,1.2593448
0.0,-0.1,1.2999999999999998,0.5235987755982988,0.5235987755982988,0,-0.44408515,-1.1223328,-1.5802449,-0.68171054,0.029865872,0.041315895,0.14375028,-0.35198405,-0.9912707,0.85614246,-0.20938493,-0.98074144,-0.7003204,0.108670026
0.0,-0.1,1.2999999999999998,0.5235987755982988,0.5235987755982988,0,-0.81954736,-1.0248393,-1.5545788,-0.7078678,0.7390118,0.24111573,0.1078907,-0.09948894,-1.1049032,0.9613062,-0.26026535,-0.81676716,-0.83926916,2.047492
0.0,-0.1,1.2999999999999998,0.5235987755982988,0.5235987755982988,0,-0.83176893,-1.141841,-1.5592432,-0.4774106,1.3505522,0.3582337,0.14106005,-0.14999115,-0.9918457,0.7129587,-0.1932411,-0.4424316,-0.061473403,1.3594702
0.0,-0.1,1.2999999999999998,0.5235987755982988,0.5235987755982988,0,-0.7609574,-1.208985,-1.4424472,-0.58180195,0.25826567,0.68084556,0.41300195,-0.24437486,-0.87769526,1.0639205,-0.44308895,-0.80554175,-0.7521688,1.344666
0.0,-0.1,1.2999999999999998,0.5235987755982988,0.5235987755982988,0,-0.61704934,-0.8556757,-1.6699163,-0.37197357,0.37582484,-0.0760977,-0.15600915,-0.16239983,-1.1470835,0.976319,-0.48861188,-1.3053015,-0.83247316,0.8526935
0.0,-0.1,1.2999999999999998,0.5235987755982988,0.5235987755982988,0,-0.90603954,-1.1820246,-1.5344237,-0.73415846,0.56792176,0.44026765,0.6395362,0.096369386,-1.0274903,1.0350915,-0.3420877,-1.1930139,-1.4179348,1.534676
0.0,-0.1,1.2999999999999998,0.5235987755982988,0.5235987755982988,0,-1.026451,-1.0505518,-1.6968584,-0.36406502,0.82351106,0.29318932,0.37703332,-0.3384596,-0.9908835,1.0245659,-0.44506443,-0.7731409,-0.59827524,1.6878451
0.0,-0.1,1.2999999999999998,0.5235987755982988,0.5235987755982988,0,-1.0677859,-1.1150184,-1.5498257,-0.39579672,0.7661466,0.4020675,0.17283677,-0.14290097,-1.0206648,1.0122274,-0.3333508,-0.5139059,-0.4423253,0.96354073
0.0,-0.1,1.2999999999999998,0.5235987755982988,0.5235987755982988,0,-1.1296533,-1.0626279,-1.4402511,-0.6191922,0.5363314,0.4336503,0.45397332,0.07059258,-1.1409059,0.9805229,-0.32400563,-0.845968,-0.17970829,1.8513043
0.0,-0.1,1.2999999999999998,0.5235987755982988,0.5235987755982988,0,-0.9756142,-1.0638849,-1.7898631,-0.5923123,0.65819126,0.3411201,0.103916414,-0.047823522,-0.9990189,0.9104499,-0.3796126,-1.2202319,-0.790637,1.5866603
0.0,-0.1,1.2999999999999998,0.5235987755982988,0.5235987755982988,0,-1.0955216,-1.1358491,-1.6091888,-0.2867033,1.1666263,0.010222142,-0.024362732,-0.15531096,-1.0582267,0.8259534,-0.35739386,-0.5071072,-0.25078604,0.7728729
0.0,-0.1,1.2999999999999998,0.5235987755982988,0.5235987755982988,0,-1.0180142,-0.8864405,-1.6672099,-0.5301938,-0.56822073,0.12429071,0.6287998,-0.077276565,-1.0612662,0.9447884,-0.5725897,-0.20576648,-0.4314003,1.1518978
0.0,-0.1,1.2999999999999998,0.5235987755982988,0.5235987755982988,0,-0.993087,-1.1809618,-1.6531633,-0.52221185,0.22812313,0.4312644,-0.21188262,-0.06680898,-1.02569,0.92350644,-0.3786322,-0.12957227,-0.57057905,1.1707159
0.0,-0.1,1.2999999999999998,0.5235987755982988,0.5235987755982988,0,-0.7635886,-0.8888053,-1.7183477,-0.54591984,-0.21515101,0.35604244,0.7638353,-0.14881271,-1.2461073,1.1320964,-0.23204401,-0.7446256,-0.5323156,0.6426386
0.0,-0.1,1.2999999999999998,0.5235987755982988,0.5235987755982988,0,-0.86026657,-0.9763945,-1.5939677,-0.46957043,-0.5569349,0.45272148,-0.0055436254,-0.1880394,-0.88430005,1.0310663,-0.4375645,-0.5360261,-0.83167654,0.7747407
0.0,-0.1,1.2999999999999998,0.5235987755982988,0.5235987755982988,0,-0.755195,-0.8534465,-1.5915779,-0.6560774,0.8414208,0.22851114,0.25836977,-0.05463492,-1.0977358,0.8843604,-0.38417828,-0.62393564,-0.13322727,0.9220918
0.0,-0.1,1.2999999999999998,0.5235987755982988,0.5235987755982988,0,-0.72607267,-0.99306273,-1.7662977,-0.5295903,0.74665976,0.570208,0.041850783,-0.12538181,-0.8773665,0.93500924,-0.27534652,0.02837469,-0.6879364,0.84680974
0.0,-0.1,1.2999999999999998,0.5235987755982988,0.5235987755982988,0,-0.8466466,-0.99108696,-1.5002078,-0.5130692,0.95378536,0.34641358,0.26737997,-0.15948522,-0.9403462,0.8524197,-0.31376165,-0.2892461,-0.26764432,1.535896
0.0,-0.1,1.2999999999999998,0.5235987755982988,0.5235987755982988,0,-1.047389,-0.95802563,-1.7021016,-0.42470247,0.46410465,0.15208258,0.15500373,-0.063600115,-1.069496,1.081384,-0.4026261,-0.6782222,-0.82918495,0.73995626
0.0,-0.1,1.2999999999999998,0.5235987755982988,0.5235987755982988,0,-0.7216377,-0.9844306,-1.583243,-0.49323508,-0.10381088,0.61708224,0.28577894,-0.14614905,-1.0117619,1.0189003,-0.29057178,-1.046882,-0.6849328,1.1809186
0.0,-0.1,1.2999999999999998,0.5235987755982988,0.5235987755982988,0,-0.8377112,-1.0188867,-1.7135534,-0.4949243,-0.60313314,0.3292732,0.17297909,-0.20276962,-0.9255994,0.94228756,-0.41180432,-0.4844723,-0.30539998,1.5297465
0.0,-0.1,1.2999999999999998,0.5235987755982988,0.5235987755982988,0,-0.98566663,-0.93011767,-1.3745337,-0.31646284,0.8996209,0.339198,0.5012952,-0.20665438,-1.0976931,1.0851618,-0.38669342,-1.1095506,-0.4013773,1.1643931
0.0,-0.1,1.2999999999999998,0.5235987755982988,0.5235987755982988,0,-1.0124937,-1.0911678,-1.5661485,-0.46771365,0.8803319,0.48987305,0.37037185,-0.04114932,-0.9551859,0.83147967,-0.42840847,-0.021984823,-1.0513635,1.2251164
0.0,-0.1,1.2999999999999998,0.5235987755982988,0.5235987755982988,0,-0.8889777,-0.9118682,-2.0005927,-0.5777397,0.843171,0.6061879,0.24339792,-0.21212448,-1.144735,0.92338204,-0.15424085,-0.62479895,-0.991279,1.7488891
0.0,-0.1,1.2999999999999998,0.5235987755982988,0.5235987755982988,0,-0.9823514,-1.0495112,-1.5885519,-0.5647845,0.48091084,0.1834343,0.106583804,0.11448157,-1.0357999,0.89636195,-0.4232061,-0.22664268,-0.28663757,0.85270983
0.0,-0.1,1.2999999999999998,0.5235987755982988,0.5235987755982988,0,-0.48319826,-0.90741974,-1.8104584,-0.40385145,-0.44489127,0.27552283,-0.27212682,-0.22415337,-1.0588416,1.0349686,-0.37462375,-0.73012096,-0.5327232,0.101991765
0.0,-0.1,1.2999999999999998,0.5235987755982988,0.5235987755982988,0,-0.8628864,-1.0399711,-1.4139819,-0.6409247,0.57814187,0.43393388,0.31868276,-0.16610783,-1.1646575,1.0046332,-0.56190896,-0.38471028,-0.15761833,2.1798222
0.0,-0.1,1.2999999999999998,0.5235987755982988,0.5235987755982988,0,-0.7178476,-0.9687815,-1.6881415,-0.4771082,0.89883757,0.34689108,0.3845734,-0.2525869,-0.7473748,0.94173425,-0.43970406,-0.04618305,-0.79154986,0.6343764
0.0,-0.1,1.2999999999999998,0.5235987755982988,0.5235987755982988,0,-0.8770021,-1.0130218,-1.6888336,-0.5819689,0.11134168,0.025220055,-0.07938941,0.068916686,-1.1872717,0.9686665,-0.3917235,-1.4264594,-0.7555243,1.6159155
0.0,-0.1,1.2999999999999998,0.5235987755982988,0.5235987755982988,0,-0.7295825,-0.8448286,-1.566683,-0.39087695,0.17354576,0.49427387,0.32833114,0.041817166,-1.0710797,0.80804557,-0.29923764,-0.4740358,-0.043600734,1.4632837
0.0,-0.1,1.2999999999999998,0.5235987755982988,0.5235987755982988,0,-1.1010162,-1.031109,-1.7580422,-0.36174706,0.9641996,0.37641123,0.6631186,-0.33407316,-1.1386775,1.0613756,-0.35890478,-0.29316145,-1.0058526,1.5497787
0.0,-0.1,1.2999999999999998,0.5235987755982988,0.5235987755982988,0,-0.9426791,-1.0542402,-1.6162256,-0.47482285,-0.16015309,0.113720275,0.623017,-0.032519147,-1.0037661,0.954192,-0.360114,-0.8838884,-0.45944685,0.91252303
0.0,-0.1,1.2999999999999998,0.5235987755982988,0.5235987755982988,0,-0.7051392,-0.8922812,-1.7092686,-0.76950675,0.96605176,0.49457183,0.66659105,-0.1585787,-0.94609135,1.0346515,-0.664794,-0.26979282,-0.42054558,1.0368578
0.0,-0.1,1.2999999999999998,0.5235987755982988,0.5235987755982988,0,-0.8643784,-1.0782644,-1.6562754,-0.54104793,0.09983758,0.3940999,0.35244328,-0.18203275,-0.9541003,1.0416555,-0.36314186,-0.4612526,-0.48632413,1.3625035
0.0,-0.1,1.2999999999999998,0.5235987755982988,0.5235987755982988,0,-0.7875981,-1.0286487,-1.6363772,-0.55454904,0.8759193,0.20726338,0.33279455,-0.34445632,-1.0031905,0.8768752,-0.27748138,-1.4413929,-0.9293942,1.7093217
0.0,-0.1,1.2999999999999998,0.5235987755982988,0.5235987755982988,0,-0.88903856,-1.0673395,-1.4094831,0.004365071,1.270785,0.3415293,0.59057784,-0.06034444,-1.0734258,0.8707909,-0.35305712,-0.97426796,-0.40595657,1.6056713
0.0,-0.1,1.2999999999999998,0.5235987755982988,0.5235987755982988,0,-0.89654267,-1.044059,-1.5258163,-0.5314393,0.40023395,0.5145944,0.35857132,-0.24504481,-1.0640948,0.8320731,-0.25807002,-0.73801106,-0.46418333,1.2466143
0.0,-0.1,1.2999999999999998,0.5235987755982988,0.5235987755982988,0,-0.7088483,-1.0227785,-1.5911357,-0.42947558,0.5368109,0.06908744,0.36467975,-0.22136503,-0.692304,1.0977491,-0.4015984,-0.90951574,-0.7217297,1.130318
0.0,-0.1,1.2999999999999998,0.5235987755982988,0.5235987755982988,0,-0.97569126,-1.1846546,-1.4864327,-0.58341366,0.008705513,0.44120952,0.068140626,-0.028380416,-0.99932444,1.0578009,-0.37699226,-0.73249954,-0.42431104,0.5513882
0.0,-0.1,1.2999999999999998,0.5235987755982988,0.5235987755982988,0,-0.9738198,-1.1027019,-1.5906801,-0.51302767,0.46866927,0.20622021,0.008254051,0.16041146,-0.841965,1.0232459,-0.5506734,-0.8541609,-0.12680043,0.71469414
0.0,-0.1,1.2999999999999998,0.5235987755982988,0.5235987755982988,0,-0.84465635,-1.0688704,-1.5513556,-0.46918544,0.16156292,0.44616163,0.5014639,-0.46945384,-0.9644218,0.86446166,-0.36018226,-0.9350604,0.16676855,0.9970381
0.0,-0.1,1.2999999999999998,0.5235987755982988,0.5235987755982988,0,-0.9167273,-1.0559703,-1.5372201,-0.69423527,0.712658,0.3337665,0.117959365,-0.10320179,-1.073081,0.97455513,-0.4472847,-0.9059131,-0.7592542,1.7236278
0.0,-0.1,1.2999999999999998,0.5235987755982988,0.5235987755982988,0,-0.3808378,-0.9950589,-1.482529,-0.39368567,1.4455568,0.77776617,0.28338695,0.028054703,-0.88300383,0.95568764,-0.36463454,-1.0909542,0.4595565,1.2879553
0.0,-0.1,1.2999999999999998,0.5235987755982988,0.5235987755982988,0,-0.89777946,-0.9440533,-1.6564643,-0.46238226,1.151546,0.39146847,0.16390029,-0.30562192,-1.20094,0.9391172,-0.57294357,-0.11923255,-0.5030188,0.8331507
0.0,-0.1,1.2999999999999998,0.5235987755982988,0.5235987755982988,0,-0.92642933,-1.0305191,-1.6267482,-0.714578,0.4216121,0.27841023,0.16725032,-0.035960462,-1.1582776,0.9732102,-0.3169987,-0.1890252,-0.24233249,1.176455
0.0,-0.1,1.2999999999999998,0.5235987755982988,0.5235987755982988,0,-0.6882859,-1.1266243,-1.4913607,-0.54857725,0.37743533,0.4239472,0.123664595,-0.2788723,-1.0866992,1.1041458,-0.51492554,-0.7169863,-0.7845532,1.1019319
0.0,-0.1,1.2999999999999998,0.5235987755982988,0.5235987755982988,0,-0.91945714,-0.8956902,-1.5128205,-0.4762435,1.0839785,0.5152776,0.20204426,-0.03730174,-1.0544811,0.9503509,-0.42767584,-0.863968,-0.4831587,0.70633155
0.0,-0.1,1.2999999999999998,0.5235987755982988,0.5235987755982988,0,-0.88266546,-0.9632382,-1.5130756,-0.55562055,0.265975,0.32039544,0.008349127,-0.1615841,-1.1597353,1.0423294,-0.39204592,-0.301524,-0.6169678,1.1399944
0.0,-0.1,1.2999999999999998,0.5235987755982988,0.5235987755982988,0,-0.7794559,-0.9698231,-1.8490402,-0.8913359,0.772475,0.4208907,0.46426415,-0.11938156,-1.1045986,1.0419328,-0.48882666,-0.5264564,-0.52927154,1.4755268
0.0,-0.1,1.2999999999999998,0.5235987755982988,0.5235987755982988,0,-0.59121275,-0.9371295,-1.6982404,0.0013955068,-0.26394403,0.40388077,0.33720312,-0.22786991,-1.0615494,0.8718824,-0.3711383,-0.5460089,-0.39185724,0.6670656
0.0,-0.1,1.2999999999999998,0.5235987755982988,0.5235987755982988,0,-0.85038036,-1.054342,-1.76962,-0.7558111,0.14146501,0.34944448,0.08717115,-0.080463454,-1.0027494,1.0277195,-0.27548662,-0.5406678,-0.7356663,1.5965929
0.0,-0.1,1.2999999999999998,0.5235987755982988,0.5235987755982988,0,-0.82545525,-0.7932793,-1.7038791,-0.57705104,0.5168596,0.3443979,0.2766103,-0.025562642,-1.04968,0.86469364,-0.3374283,-0.46596003,-0.14050667,1.2252446
0.0,-0.1,1.2999999999999998,0.5235987755982988,0.5235987755982988,0,-0.88229436,-1.1452736,-1.5107493,-0.5037349,0.5167833,0.54387856,0.03525344,-0.1935796,-1.0302622,0.9816641,-0.31726405,-0.86955047,-0.24000208,1.5632355
0.0,-0.1,1.2999999999999998,0.5235987755982988,0.5235987755982988,0,-0.7892172,-1.2929516,-1.5389249,-0.7923197,0.5355793,0.7180522,0.18514778,-0.27751383,-1.0107869,1.0170172,-0.35710073,-0.6415435,-1.228753,1.3874046
0.0,-0.1,1.2999999999999998,0.5235987755982988,0.5235987755982988,0,-1.0096104,-1.0335718,-1.5950096,-0.32713637,0.69125813,0.27169,-0.026351523,-0.37211162,-1.1169952,0.88647354,-0.17257902,-0.15339504,-0.7770749,1.073319
0.0,-0.1,1.2999999999999998,0.5235987755982988,0.5235987755982988,0,-0.7732506,-1.1377578,-1.7009577,-0.66119134,1.0469464,0.1802717,-0.4142115,-0.36325544,-1.0406187,0.9323253,-0.41710103,-1.0360302,-0.763692,0.21087573
0.0,-0.1,1.2999999999999998,0.5235987755982988,0.5235987755982988,0,-0.826159,-0.9701053,-1.637256,-0.69796574,0.93129593,0.5546078,0.12913072,0.0055859247,-1.0433704,0.91550535,-0.37058505,-0.9025308,-0.5671306,1.8760779
0.0,-0.1,1.2999999999999998,0.5235987755982988,0.5235987755982988,0,-0.894523,-1.1183554,-1.6042837,-0.53675675,-0.085209414,0.11919183,0.22234274,-0.20858723,-1.2123041,1.0319393,-0.29215172,-0.3148527,-0.39939415,1.5853491
0.0,-0.1,1.2999999999999998,0.5235987755982988,0.5235987755982988,0,-0.79530394,-0.87153876,-1.604033,-0.4247232,0.2957721,0.16845016,0.18669252,-0.041469723,-1.1024326,0.97869414,-0.29346138,-0.3658567,-0.2232911,1.0727264
0.0,-0.1,1.2999999999999998,0.5235987755982988,0.5235987755982988,0,-0.8501302,-0.98930067,-1.7693163,-0.7768494,0.37150064,0.5001165,0.037162315,-0.10716709,-1.117192,1.0433348,-0.3203181,-0.6913928,-0.096158676,0.6899691
0.0,-0.1,1.2999999999999998,0.5235987755982988,0.5235987755982988,0,-0.99284536,-1.1024666,-1.7456912,-0.72381955,0.40615827,0.7537645,0.13780618,-0.051959507,-1.0432463,1.0717976,-0.33266577,0.16044803,-0.31660548,0.69798523
0.0,-0.1,1.2999999999999998,0.5235987755982988,0.5235987755982988,0,-0.7701128,-0.90708804,-1.5762547,-0.47425985,0.8990365,0.5650102,0.4571032,-0.23219544,-0.8812345,1.044921,-0.24837855,-0.5086954,-1.1293656,1.4665291
0.0,-0.1,1.2999999999999998,0.5235987755982988,0.5235987755982988,0,-0.95606,-0.98918146,-1.6087135,-0.25254485,1.6160105,-0.07283185,0.16871607,-0.29143652,-0.8267587,1.0955157,-0.3710461,-1.1502371,-0.42047068,1.0881177
0.0,-0.1,1.2999999999999998,0.5235987755982988,0.5235987755982988,0,-0.7754915,-1.1707917,-1.4159193,-0.33351257,1.6991017,0.037531417,0.19619416,-0.4202963,-1.0367812,0.97967994,-0.18175042,-0.2707548,-0.83582246,1.3434095
0.0,-0.1,1.2999999999999998,0.5235987755982988,0.5235987755982988,0,-0.84733444,-1.074063,-1.7019681,-0.72381943,0.5268463,0.65247005,0.03550426,-0.17074014,-1.0516276,0.8333948,-0.26759344,-0.6073249,-0.71450984,2.243316
0.0,-0.1,1.2999999999999998,0.5235987755982988,0.5235987755982988,0,-0.7403318,-1.2521015,-1.3359619,-0.46185628,0.7365798,0.32951516,0.051911417,-0.35072333,-0.87218946,0.9469526,-0.54071665,-0.5784396,-0.9192684,1.178442
0.0,-0.1,1.2999999999999998,0.5235987755982988,0.5235987755982988,0,-0.91617846,-1.0220101,-1.4283094,-0.58272105,0.38872877,0.23300882,0.006523241,-0.057653442,-0.94859207,0.89062864,-0.6268372,-0.578193,-1.0944685,0.92414916
0.0,-0.1,1.2999999999999998,0.5235987755982988,0.5235987755982988,0,-0.8713047,-1.0770172,-1.5067091,-0.72426564,0.26005915,0.16100818,-0.18006764,0.038504235,-0.9172727,1.0556369,-0.33902866,-0.2311449,-0.28918794,0.48189718
0.0,-0.1,1.2999999999999998,0.5235987755982988,0.5235987755982988,0,-0.9663574,-0.9589329,-1.7074363,-0.57952416,1.2822821,0.22058532,0.243599,-0.122543655,-1.1416152,1.0383612,-0.28520447,-1.3387027,-0.39094952,0.5677992
0.0,-0.1,1.2999999999999998,0.5235987755982988,0.5235987755982988,0,-0.754647,-0.9418314,-1.717833,-0.6648181,-0.3866317,0.511292,-0.13733838,-0.20613773,-1.1451818,1.111432,-0.40603313,-0.7543553,-0.5212265,0.61020446
0.0,-0.1,1.2999999999999998,0.5235987755982988,0.5235987755982988,0,-0.99989307,-1.193531,-1.6691098,-0.48412892,1.2451992,0.072948664,0.14460424,-0.23099546,-1.1565465,0.9997154,-0.48886284,-1.0618194,-1.1179183,0.18867452
0.0,-0.1,1.2999999999999998,0.5235987755982988,0.5235987755982988,0,-0.814487,-1.0377829,-1.4838539,-0.43923986,1.1249589,0.26980665,0.052713346,-0.27108225,-0.9836714,0.96421945,-0.18538354,-0.92120814,-0.41229355,1.1959089
0.0,-0.1,1.2999999999999998,0.5235987755982988,0.5235987755982988,0,-0.7653514,-1.0537432,-1.5204754,-0.46237007,1.7427471,0.041272894,0.5219771,-0.37731388,-0.9986192,0.98925376,-0.37105882,-0.55999756,0.039797515,0.7683882
0.0,-0.1,1.2999999999999998,0.5235987755982988,0.5235987755982988,0,-0.82553226,-1.1768459,-1.6617832,-0.6819613,-0.24302399,0.4959334,0.4114186,-0.09148714,-0.8981678,0.95065117,-0.41007662,-0.2363617,0.1571116,1.3813057
0.0,-0.1,1.2999999999999998,0.5235987755982988,0.5235987755982988,0,-0.57186794,-0.88636166,-1.8537089,-0.4955197,0.86301666,0.10094995,0.43060118,-0.163848,-0.8824244,1.0629704,-0.308589,-0.69597244,-0.19464177,1.525473
0.0,-0.1,1.2999999999999998,0.5235987755982988,0.5235987755982988,0,-0.86729145,-1.0364268,-1.7825652,-0.5898311,0.9680361,0.8200797,0.028373735,-0.29619482,-1.1390532,1.0464419,-0.55332214,-1.0488889,-0.7137604,1.2427822
0.0,-0.1,1.2999999999999998,0.5235987755982988,0.5235987755982988,0,-0.8102014,-0.896996,-1.6679761,-0.42720455,0.28221846,0.22115718,0.58353996,-0.1762401,-1.1711963,0.943532,-0.33387637,-0.2267059,0.1423429,1.0273306
0.0,-0.1,1.2999999999999998,0.5235987755982988,0.5235987755982988,0,-0.8693049,-1.0777597,-1.809197,-0.7383518,0.163043,0.45777076,-0.016947249,-0.039065138,-0.93548137,1.0201191,-0.24085611,-0.6131707,-0.9567782,0.1856714
0.0,-0.1,1.2999999999999998,0.5235987755982988,0.5235987755982988,0,-0.6133652,-0.9587739,-1.6500436,-0.45381284,0.06389888,0.27613917,0.32929152,-0.28033578,-1.065174,0.97765064,-0.2701545,-0.47606996,0.13825032,1.6319314
0.0,-0.1,1.2999999999999998,0.5235987755982988,0.5235987755982988,0,-0.9025455,-1.0319337,-1.7640772,-0.65644777,0.7848005,0.7334024,0.45396918,-0.117508106,-0.8869419,1.0373273,-0.3313356,-0.6145425,-0.4863616,1.6520377
0.0,-0.1,1.2999999999999998,0.5235987755982988,0.5235987755982988,0,-1.2448965,-1.0470929,-1.4715904,-0.39633426,0.58561254,0.2576394,0.32972804,-0.07189514,-1.0282749,1.0052819,-0.4629071,-0.82130975,-0.057625696,1.7519497
0.0,-0.1,1.2999999999999998,0.5235987755982988,0.5235987755982988,0,-0.8082249,-0.9194878,-1.663859,-0.6640116,0.8152978,0.28794855,0.33864364,0.0061267493,-1.0337666,1.0064955,-0.2192582,0.2760395,-0.39663935,0.744327
0.0,-0.1,1.2999999999999998,0.5235987755982988,0.5235987755982988,0,-0.99793464,-1.080633,-1.6989433,-0.48517695,0.50555676,0.20472498,0.19375098,0.009300073,-0.9930006,0.8905416,-0.23111205,-0.03903986,-0.6129441,1.2970171
0.0,-0.1,1.2999999999999998,0.5235987755982988,0.5235987755982988,0,-0.6861188,-1.1436335,-1.4729791,-0.6296772,0.5358085,0.38615733,0.15496126,-0.23578922,-0.88753945,1.0962974,-0.15751031,-0.91039795,-0.44729614,1.183299
0.0,-0.1,1.2999999999999998,0.5235987755982988,0.5235987755982988,0,-0.94787693,-0.9753843,-1.5441287,-0.5202727,0.8434284,0.5398475,0.7268937,-0.02760548,-1.0721616,1.0270194,-0.2506486,-1.0049076,-0.6564838,1.5789416
0.0,-0.1,1.2999999999999998,0.5235987755982988,0.5235987755982988,0,-0.8889468,-1.1267098,-1.4471546,-0.6910312,0.3075179,0.25959986,-0.15413418,-0.019950053,-1.0698389,0.9290529,-0.17853987,-0.9179403,-0.20998958,1.2402447
0.0,-0.1,1.2999999999999998,0.5235987755982988,0.5235987755982988,0,-0.4923987,-1.0862393,-1.3081379,-0.6340651,0.03288952,0.47982767,0.34436324,-0.10449091,-1.1095799,1.0117419,-0.3552168,-0.6787093,-0.4972749,1.3061738
0.0,-0.1,1.2999999999999998,0.5235987755982988,0.5235987755982988,0,-0.81130075,-1.0087916,-1.7026328,-0.79720706,0.83959275,0.6990571,-0.023404507,-0.07729038,-1.0295982,1.037957,-0.39211854,-0.6486309,-0.14549549,1.7783611
0.0,-0.1,1.2999999999999998,0.5235987755982988,0.5235987755982988,0,-0.7607107,-0.9557822,-1.7600675,-0.4112567,1.5232491,0.42126626,0.007878974,-0.22016141,-0.99779505,1.0228933,-0.2763552,-0.97901446,-0.66736186,0.6026044
0.0,-0.1,1.2999999999999998,0.5235987755982988,0.5235987755982988,0,-0.74632585,-0.9369036,-1.6381084,-0.7294191,0.526476,0.36483985,0.08500386,-0.03881342,-1.1521986,0.8894729,-0.30087116,0.122734986,-0.78296113,0.7531112
0.0,-0.1,1.2999999999999998,0.5235987755982988,0.5235987755982988,0,-0.7767134,-1.1213553,-1.5587816,-0.57076216,-0.1707235,0.06386568,0.17049102,-0.14805946,-0.8464668,1.0644962,-0.25518462,-0.03305203,-0.87398005,0.14032017
0.0,-0.1,1.2999999999999998,0.5235987755982988,0.5235987755982988,0,-0.8893537,-1.1328526,-1.7760565,-0.7135417,1.0318128,0.26253057,0.07513188,-0.040462796,-0.982557,1.1030413,-0.34824756,-0.3479777,0.38862026,1.3466684
0.0,-0.1,1.2999999999999998,0.5235987755982988,0.5235987755982988,0,-0.8902736,-1.0745946,-1.5462236,-0.37591064,0.5832122,-0.10520969,0.0996863,-0.30662656,-0.9513911,1.0752847,-0.26475376,-0.7548541,-0.8141438,1.8797659
0.0,-0.1,1.2999999999999998,0.5235987755982988,0.5235987755982988,0,-0.8493736,-1.1112385,-1.6477287,-0.7695467,0.49379018,0.107583635,0.3192701,-0.07881155,-0.97551835,0.98332185,-0.49014246,-0.63810706,-0.17156827,0.6834239
0.0,-0.1,1.2999999999999998,0.5235987755982988,0.5235987755982988,0,-0.78176975,-0.9854391,-1.5366446,-0.68536186,0.75909656,0.49291125,0.31366068,-0.030556198,-0.94771606,1.0281073,-0.3722693,-0.55189127,-0.047450032,1.2995975
0.0,-0.1,1.2999999999999998,0.5235987755982988,0.5235987755982988,0,-0.9437615,-0.9011399,-1.7012706,-0.71204823,-0.17009123,0.58814085,0.08033078,-0.06266103,-0.9751295,1.1288756,-0.34076273,-0.80647236,-0.9618814,0.92302793
0.0,-0.1,1.2999999999999998,0.5235987755982988,0.5235987755982988,0,-0.86647505,-1.1299134,-1.724789,-0.7115741,1.0566895,0.6053131,0.36385092,-0.116485804,-1.0233222,1.0537442,-0.40054598,-1.5217278,-0.43116045,1.818938
0.0,-0.1,1.2999999999999998,0.5235987755982988,0.5235987755982988,0,-0.81566924,-1.1113662,-1.36415,-0.45357797,0.5158914,0.08474364,0.12737204,-0.11771107,-1.0389988,0.9410143,-0.27491996,-0.43976092,-1.529598,1.8013939
0.0,-0.1,1.2999999999999998,0.5235987755982988,0.5235987755982988,0,-0.6648655,-0.98938274,-1.6963822,-0.5186658,0.8198535,0.6337543,0.088032484,-0.17405832,-0.94003147,1.0275149,-0.49034926,-1.4141153,-0.72041684,0.7313845
0.0,-0.1,1.2999999999999998,0.5235987755982988,0.5235987755982988,0,-0.9068891,-0.94185793,-1.50671,-0.45482174,0.79635155,0.37298742,-0.0370978,0.0896284,-0.7847118,1.0226762,-0.44560358,-1.3286864,0.01830607,0.92992675
0.0,-0.1,1.2999999999999998,0.5235987755982988,0.5235987755982988,0,-0.86066586,-0.95256907,-1.4752227,-0.5207102,0.5207739,0.44556987,0.1535414,-0.17685387,-1.1579978,1.0846848,-0.3748357,-1.0783064,-0.5346898,1.3425202
0.0,-0.1,1.2999999999999998,0.5235987755982988,0.5235987755982988,0,-0.8872752,-1.0908655,-1.4265895,-0.62782043,0.51788294,0.41963506,0.16449377,-0.04616285,-1.032438,1.1169956,-0.40088177,-0.403236,-0.6713209,1.0531611
0.0,-0.1,1.2999999999999998,0.5235987755982988,0.5235987755982988,0,-0.8179581,-1.0569335,-1.5252309,-0.7302147,1.3106421,0.85841674,0.035244565,-0.076695114,-1.0337503,0.95644104,-0.46728468,-1.6683288,-0.43693742,1.2632451
0.0,-0.1,1.2999999999999998,0.5235987755982988,0.5235987755982988,0,-1.0009738,-1.0773196,-1.5828006,-0.350415,1.0365455,0.06592764,0.13627692,-0.320797,-1.0577686,1.0119071,-0.34156272,-0.767685,-0.4752574,0.45304444
0.0,-0.1,1.2999999999999998,0.5235987755982988,0.5235987755982988,0,-0.62338346,-0.9660253,-1.6513786,-0.15898037,0.76287675,0.41453812,0.06459882,-0.107226685,-0.9281049,0.9640047,-0.42506576,-1.0974874,-0.8139974,1.3775638
0.0,-0.1,1.2999999999999998,0.5235987755982988,0.5235987755982988,0,-0.93017113,-1.1032192,-1.3443444,-0.539809,0.45413026,0.4787135,0.18744902,-0.12568404,-1.0333285,0.91063166,-0.4125975,-0.8173796,-0.92895275,0.50842345
0.0,-0.1,1.2999999999999998,0.5235987755982988,0.5235987755982988,0,-0.7943704,-0.98194414,-1.6282331,-0.7176204,1.1414067,0.6409614,0.051546536,-0.1607227,-1.0626831,0.94574,-0.45905137,-0.6745122,-1.1005076,0.9789408
0.0,-0.1,1.2999999999999998,0.5235987755982988,0.5235987755982988,0,-0.7948884,-1.1034535,-1.4617897,-0.76969635,1.1528976,0.50815284,0.57708526,-0.23322803,-1.1310407,0.98113644,-0.5269369,-0.6282773,-0.6868613,1.4102542
0.0,-0.1,1.2999999999999998,0.5235987755982988,0.5235987755982988,0,-0.8476063,-1.1980753,-1.371679,-0.6030544,0.7939922,0.2484994,0.3821576,-0.082481205,-0.9951468,0.8167576,-0.39415675,-0.3381088,0.06277811,0.4485156
0.0,-0.1,1.2999999999999998,0.5235987755982988,0.5235987755982988,0,-0.87011695,-0.95662564,-1.7098674,-0.5168014,0.927729,0.11408237,0.4140541,-0.06301969,-0.8499676,0.85455734,-0.20223671,-1.2026346,-0.4285855,1.2876221
0.0,-0.1,1.2999999999999998,0.5235987755982988,0.5235987755982988,0,-0.9723657,-0.9042716,-1.7015436,-0.48001787,0.78391415,0.35090253,0.46446833,-0.18384165,-1.0476402,0.9475609,-0.2439343,-0.015673783,-0.5133613,2.254712
0.0,-0.1,1.2999999999999998,0.5235987755982988,0.5235987755982988,0,-1.0047795,-1.140446,-1.3366354,-0.21183106,0.26842,-0.105540134,0.42868418,-0.21498336,-0.9708264,1.1808785,-0.3128343,-0.83599246,-0.17721099,1.128042
0.0,-0.1,1.2999999999999998,0.5235987755982988,0.5235987755982988,0,-0.8874238,-0.87926036,-1.6945038,-0.420574,0.80098873,0.17067501,0.5569112,0.15167426,-0.8490716,0.68185955,-0.35425195,-0.14113148,-0.56796193,1.027912
0.0,-0.1,1.2999999999999998,0.5235987755982988,0.5235987755982988,0,-0.7868768,-0.89236796,-1.6596799,-0.34432435,0.72313756,0.59128946,0.39241126,-0.2509563,-1.07721,0.9546873,-0.4385336,-1.0151675,-0.22057073,0.7498091
0.0,-0.1,1.2999999999999998,0.5235987755982988,0.5235987755982988,0,-1.230168,-0.99904656,-1.6796998,-0.25422928,0.038437895,0.30124867,0.109554656,-0.08755405,-0.8473901,1.0676272,-0.1929979,0.055848427,-0.37446296,1.0056815
0.0,-0.1,1.2999999999999998,0.5235987755982988,0.5235987755982988,0,-0.92946714,-1.0513601,-1.7716484,-0.5422049,1.1526037,0.23243397,0.3550509,-0.16779765,-0.95675886,0.9830589,-0.39218682,-0.37962055,-0.14879929,1.3773183
0.0,-0.1,1.2999999999999998,0.5235987755982988,0.5235987755982988,0,-0.5850199,-0.9772926,-1.7084125,-0.5869739,0.41577438,0.80004454,0.54521924,-0.2440081,-1.024347,1.0956134,-0.2267585,-0.5884677,-0.30071065,1.2836698
0.0,-0.1,1.2999999999999998,0.5235987755982988,0.5235987755982988,0,-0.6726711,-0.9974384,-1.3821063,-0.39216366,1.2148533,0.40529078,0.28390324,-0.15309796,-0.9667398,0.8885611,-0.3945455,-0.8606585,-0.32619113,1.237602
0.0,-0.1,1.2999999999999998,0.5235987755982988,0.5235987755982988,0,-0.6274631,-1.029026,-1.2996899,-0.6296188,-0.07569255,0.39473462,0.16245626,-0.22072896,-1.0267509,0.82650113,-0.5077454,-0.61289257,-0.24246782,1.7869407
0.0,-0.1,1.2999999999999998,0.5235987755982988,0.5235987755982988,0,-0.8153013,-1.0723611,-1.498303,-0.449906,0.2901181,0.2544468,0.04268879,-0.28971267,-0.9593857,0.9418349,-0.4161538,-1.0384271,-0.67980415,2.3135717
0.0,-0.1,1.2999999999999998,0.5235987755982988,0.5235987755982988,0,-0.82395476,-1.0477431,-1.700026,-0.71792096,0.64114434,0.21902187,0.07427864,-0.044999696,-1.024254,1.0141387,-0.3040403,-0.16646957,-0.54251754,1.1174368
0.0,-0.1,1.2999999999999998,0.5235987755982988,0.5235987755982988,0,-0.63298434,-0.951168,-1.63876,-0.46606153,0.46684253,0.30631995,0.14220665,-0.12530883,-1.0461001,0.9059323,-0.30601627,-0.566714,-0.52770203,1.4305143
0.0,-0.1,1.2999999999999998,0.5235987755982988,0.5235987755982988,0,-1.055992,-1.0319214,-1.6071229,-0.28068894,-0.16792083,0.20725912,0.015200265,-0.08937388,-0.9897545,1.0190672,-0.39747956,-0.63447833,-0.8131704,0.92573494
0.0,-0.1,1.2999999999999998,0.5235987755982988,0.5235987755982988,0,-0.8928441,-1.0492485,-1.5315493,-0.635443,0.15360871,0.46592253,0.044425044,-0.039157707,-1.1754978,0.9406757,-0.21486843,-0.5796445,-1.1290067,1.505973
0.0,-0.1,1.2999999999999998,0.5235987755982988,0.5235987755982988,0,-0.60976094,-1.0327604,-1.5858066,-0.55600417,0.6040434,0.25546598,0.28205732,-0.3068822,-1.023577,0.9109591,-0.6091436,-1.0074908,-0.66530824,0.3182534
0.0,-0.1,1.2999999999999998,0.5235987755982988,0.5235987755982988,0,-0.7479223,-1.114039,-1.4306823,-0.75723976,0.8090117,0.071589954,0.22955567,-0.07899772,-1.1298337,0.9096517,-0.24635632,-1.5990382,-0.49590847,1.3491421
0.0,-0.1,1.2999999999999998,0.5235987755982988,0.5235987755982988,0,-0.69086266,-1.0762203,-1.5942957,-0.6679457,0.32818633,0.52882016,0.06765999,-0.28098708,-0.94837886,1.076533,-0.3238674,-0.50070184,-0.6612681,1.5948081
0.0,-0.1,1.2999999999999998,0.5235987755982988,0.5235987755982988,0,-0.7696437,-1.0095817,-1.4936604,-0.5452457,0.5496311,0.7531178,0.3194721,-0.029193502,-1.0290028,1.0307475,-0.29950452,-0.5758382,-0.7564759,0.7552678
0.0,-0.1,1.2999999999999998,0.5235987755982988,0.5235987755982988,0,-0.6655906,-1.0085775,-1.806326,-0.8908423,0.44054317,0.21483542,-0.021110553,-0.1858658,-1.156351,1.1183308,-0.4651938,-0.46062055,-0.67814994,1.5222774
0.0,-0.1,1.2999999999999998,0.5235987755982988,0.5235987755982988,0,-0.8362846,-0.98809826,-1.70194,-0.5159606,0.30965784,0.18173243,0.03633863,-0.19105607,-0.93731683,0.95042723,-0.28932282,-0.6708175,-1.0285238,1.0726868
0.0,-0.1,1.2999999999999998,0.5235987755982988,0.5235987755982988,0,-0.8771328,-1.0294707,-1.6657603,-0.572931,0.24592161,-0.013808254,0.2751639,-0.038583517,-1.0342197,0.9977768,-0.37175095,-0.05648821,-0.87446934,1.0746669
0.0,-0.1,1.2999999999999998,0.5235987755982988,0.5235987755982988,0,-0.7667295,-1.066791,-1.4609852,-0.49833715,0.18979396,0.45514446,0.58536196,-0.14189559,-1.0018077,0.9005749,-0.39921087,-0.5738641,-0.550445,0.97072744
0.0,-0.1,1.2999999999999998,0.5235987755982988,0.5235987755982988,0,-0.8441775,-1.1506567,-1.6739035,-0.69045764,0.054728452,-0.11630352,0.116476305,-0.24836266,-1.1880994,1.0201775,-0.49094707,-0.6819679,-0.44544116,1.5846472
0.0,-0.1,1.2999999999999998,0.5235987755982988,0.5235987755982988,0,-0.947165,-1.131373,-1.5427828,-0.4707619,0.9586808,0.2312074,0.096350275,-0.056878317,-0.8131165,0.88328314,-0.44047982,-1.2886089,-0.34032306,-0.043001655
0.0,-0.1,1.2999999999999998,0.5235987755982988,0.5235987755982988,0,-0.7318871,-0.9458363,-1.5125867,-0.60575557,0.36773056,0.4881253,0.21575518,-0.23132086,-1.1027677,1.0470607,-0.22295994,-1.0645281,0.15766725,0.2526184
0.0,-0.1,1.2999999999999998,0.5235987755982988,0.5235987755982988,0,-1.0738304,-1.0180961,-1.6071154,-0.33439508,0.28232473,0.01569663,0.33542112,-0.096203804,-1.1558157,0.874904,-0.481509,-0.5747548,-1.0533345,1.3219831
0.0,-0.1,1.2999999999999998,0.5235987755982988,0.5235987755982988,0,-0.7342039,-1.0072789,-1.6077706,-0.45015752,1.2766296,0.09957201,0.789511,-0.11311802,-0.82656455,1.0296872,-0.22097027,-0.6994253,-0.44116852,1.3540794
0.0,-0.1,1.2999999999999998,0.5235987755982988,0.5235987755982988,0,-0.7840744,-0.9344655,-1.5699533,-0.57917744,0.70002776,0.52798784,0.23934634,-0.20080256,-1.0804696,0.8736624,-0.35698768,-0.472349,-0.5865411,1.6981728
0.0,-0.1,1.2999999999999998,0.5235987755982988,0.5235987755982988,0,-0.9783002,-0.9395716,-1.5191938,-0.41271716,0.8251575,0.43387282,-0.067236885,-0.25568038,-0.9834904,0.950862,-0.46111095,-1.3292576,-0.7299828,1.0311532
0.0,-0.1,1.2999999999999998,0.5235987755982988,0.5235987755982988,0,-0.6140659,-1.0121053,-1.5560272,-0.29429632,0.22447792,0.036817845,0.055476397,-0.28417632,-0.94202363,0.8746012,-0.101178244,-0.64340115,-0.65641636,1.1797622
0.0,-0.1,1.2999999999999998,0.5235987755982988,0.5235987755982988,0,-0.9486261,-1.001034,-1.7702338,-0.55999464,1.3857837,0.5785451,0.32482696,-0.22431993,-1.184123,1.0445501,-0.3479144,-1.502593,0.20378892,0.89295703
0.0,-0.1,1.2999999999999998,0.5235987755982988,0.5235987755982988,0,-0.8974564,-1.1598176,-1.5218539,-0.60309064,0.13779052,0.5073646,-0.10406675,-0.16830218,-0.9697281,0.93049806,-0.29534727,-0.59050894,-0.107747726,1.2311573
0.0,-0.1,1.2999999999999998,0.5235987755982988,0.5235987755982988,0,-0.65581816,-0.9355148,-1.5439223,-0.62558436,0.6885758,0.2982834,0.35404,-0.29331556,-1.0844636,0.9896472,-0.33564597,-0.6050762,-0.5217993,1.4475428
0.0,-0.1,1.2999999999999998,0.5235987755982988,0.5235987755982988,0,-0.8976127,-1.0528873,-1.6013283,-0.5057504,1.3332953,0.2836905,0.19025284,-0.15448786,-0.9553945,0.8699231,-0.13686594,-0.46715713,-0.5235663,1.4027436
0.0,-0.1,1.2999999999999998,0.5235987755982988,0.5235987755982988,0,-0.81436247,-1.0554614,-1.6204089,-0.51688427,0.8302053,0.48199713,0.2268645,-0.08922133,-0.85173714,0.8454986,-0.31784424,-1.1916653,-0.26702842,2.0184765
0.0,-0.1,1.2999999999999998,0.5235987755982988,0.5235987755982988,0,-0.63123006,-0.93423265,-1.5823977,-0.47841024,1.0405049,0.394897,0.17668474,-0.194941,-1.1268712,0.9326583,-0.3607827,-0.73832476,-0.018045925,1.4212102
0.0,-0.1,1.2999999999999998,0.5235987755982988,0.5235987755982988,0,-0.698329,-1.0805377,-1.4490256,-0.5045364,0.96265244,0.5827775,0.4382476,-0.13797474,-1.0085858,0.92425424,-0.30622125,-0.9164537,0.1535272,0.63396454
0.0,-0.1,1.2999999999999998,0.5235987755982988,0.5235987755982988,0,-0.51740116,-1.0051905,-1.5744472,-0.3969432,1.3140873,0.57879347,0.371663,-0.11926519,-1.1049609,1.0372324,-0.2313385,-0.4308983,-0.9411538,1.0256523
0.0,-0.1,1.2999999999999998,0.5235987755982988,0.5235987755982988,0,-0.8753733,-0.9325522,-1.6184546,-0.55156934,0.432291,0.108795725,0.3431301,-0.14067046,-1.0653008,0.8917597,-0.33975083,-0.7875504,-0.29060048,1.0304974
0.0,-0.1,1.2999999999999998,0.5235987755982988,0.5235987755982988,0,-0.85138553,-1.0015476,-1.5847545,-0.36303365,0.63303584,0.34943,0.6958866,-0.35969788,-1.047175,0.95476216,-0.3402661,-1.0629867,-0.59435254,1.1719335
0.0,-0.1,1.2999999999999998,0.5235987755982988,0.5235987755982988,0,-0.6993045,-0.91405433,-1.6664627,-0.4786684,0.5063731,0.2296108,0.042343237,-0.019491458,-0.9657489,0.93483967,-0.31941852,-0.42929068,-0.59696394,1.8668263
0.0,-0.1,1.2999999999999998,0.5235987755982988,0.5235987755982988,0,-0.8080538,-1.0831115,-1.6327835,-0.5827477,0.7393741,-0.04797745,-0.07222077,-0.27901497,-1.008189,1.0108835,-0.4634772,-0.11232845,-0.4880195,1.7059767
0.0,-0.1,1.2999999999999998,0.5235987755982988,0.5235987755982988,0,-0.7931997,-0.98841345,-1.640661,-0.6346046,0.90953845,0.17672756,0.14929776,-0.1573877,-1.0753181,0.9599133,-0.2844744,-0.54075646,-0.21725027,0.93762326
0.0,-0.1,1.2999999999999998,0.5235987755982988,0.5235987755982988,0,-0.7088713,-0.9149584,-1.6605989,-0.49924445,0.54257286,0.27335683,0.51055646,-0.2998667,-1.0320339,0.8543209,-0.25097215,-0.54501295,-0.55279166,0.7494377
0.0,-0.1,1.2999999999999998,0.5235987755982988,0.5235987755982988,0,-1.1010175,-1.0208279,-1.4674804,-0.46246463,0.8303374,0.5936387,0.13245922,-0.15613568,-0.9596448,1.0106179,-0.22677614,-0.2040474,-0.12240881,1.7560493
0.0,-0.1,1.2999999999999998,0.5235987755982988,0.5235987755982988,0,-0.72772276,-1.0237904,-1.6660495,-0.56862605,1.2136065,0.7214949,0.7250422,-0.36826086,-0.99842143,1.0229788,-0.4996789,0.11136715,-0.831846,2.5574243
0.0,-0.1,1.2999999999999998,0.5235987755982988,0.5235987755982988,0,-0.95128983,-1.0538588,-1.6114295,-0.5284269,1.3692545,0.34735578,0.0052033416,-0.0076721087,-0.8709461,0.9558636,-0.26237994,-0.5494764,-0.39405426,1.0349677
0.0,-0.1,1.2999999999999998,0.5235987755982988,0.5235987755982988,0,-0.84000385,-1.029619,-1.7144018,-0.6121879,1.5612297,0.1077541,0.43779776,-0.19418891,-1.003293,1.0484576,-0.42085615,0.20555992,-0.9164448,1.1981205
0.0,-0.1,1.2999999999999998,0.5235987755982988,0.5235987755982988,0,-0.88003,-1.0727293,-1.5536536,-0.6306675,0.85719454,0.45779088,0.29341793,-0.066480994,-0.88956577,1.0479325,-0.34886286,-0.9887092,-0.74783486,1.4997526
0.0,-0.1,1.2999999999999998,0.5235987755982988,0.5235987755982988,0,-0.8664561,-1.1345752,-1.3785222,-0.616209,0.3424373,0.47444952,-0.1112454,-0.1304249,-0.8572429,0.953455,-0.4608734,-0.18664268,0.24463648,1.4362965
0.0,-0.1,1.2999999999999998,0.5235987755982988,0.5235987755982988,0,-0.74619806,-1.008616,-1.5243586,-0.54406625,0.03880635,0.2576395,0.13097794,-0.1954877,-1.0098376,1.2343147,-0.6085401,-0.08527346,-0.6337246,1.2060972
0.0,-0.1,1.2999999999999998,0.5235987755982988,0.5235987755982988,0,-0.6738723,-1.0686352,-1.5096415,-0.59770465,0.66137815,0.44489992,0.42726493,-0.23215424,-0.8740089,0.9374407,-0.36659408,-0.6183856,-0.3512473,1.6502062
0.0,-0.1,1.2999999999999998,0.5235987755982988,0.5235987755982988,0,-0.6878174,-0.9410838,-1.5290515,-0.5787143,1.0432845,0.17478229,0.2168765,-0.05644139,-0.8438049,0.9038002,-0.42673278,-1.3780477,-0.6484188,1.4270397
0.0,-0.1,1.2999999999999998,0.5235987755982988,0.5235987755982988,0,-0.78497183,-1.0233028,-1.5953728,-0.68263173,1.0545692,0.51166713,0.17433117,-0.09009572,-0.8459484,0.97313815,-0.36579907,-0.6475581,0.32471693,1.2068158
0.0,-0.1,1.2999999999999998,0.5235987755982988,0.5235987755982988,0,-0.9565308,-0.99673814,-1.6201961,-0.3914078,0.4853819,-0.024549074,0.3246733,-0.293115,-1.1163684,1.1133428,-0.3322429,-0.7409818,-0.5516346,1.2677652
0.0,-0.1,1.2999999999999998,0.5235987755982988,0.5235987755982988,0,-0.7427513,-1.1862017,-1.368732,-0.71376127,0.9181653,0.7490224,0.18416885,-0.15785988,-1.0450902,1.0229647,-0.30205044,-0.40238786,-0.3212507,1.2900879
0.0,-0.1,1.2999999999999998,0.5235987755982988,0.5235987755982988,0,-0.8122196,-1.2090139,-1.6974926,-0.77601296,1.0149841,0.15114456,0.14165552,-0.05106969,-0.87362087,0.9154145,-0.30079684,-0.15716311,-0.47476488,1.4271725
0.0,-0.1,1.2999999999999998,0.5235987755982988,0.5235987755982988,0,-0.89668655,-1.0539465,-1.4894328,-0.34741372,0.43451,0.14009917,-0.13096213,-0.27481782,-1.0274261,0.94974893,-0.30585018,-0.07306593,-0.48932308,1.3196149
0.0,-0.1,1.2999999999999998,0.5235987755982988,0.5235987755982988,0,-0.6985019,-1.1801577,-1.4382998,-0.7434382,0.95026535,0.41855532,0.17015532,-0.060011048,-0.8620635,0.8969647,-0.30531043,-0.60691124,-1.0675496,0.84854275
0.0,-0.1,1.2999999999999998,0.5235987755982988,0.5235987755982988,0,-0.609411,-1.0639033,-1.4823864,-0.53263533,0.8423664,0.29993019,0.02005142,-0.120502196,-0.8542535,0.9631321,-0.39260745,-1.3238884,-0.65328634,1.4630259
0.0,-0.1,1.2999999999999998,0.5235987755982988,0.5235987755982988,0,-0.6379296,-1.04164,-1.6883509,-0.66885513,-0.38649717,0.16988194,0.4429029,-0.14541773,-0.8372386,0.95762926,-0.40135056,-0.9917837,-0.15578693,0.6723193
0.0,-0.1,1.2999999999999998,0.5235987755982988,0.5235987755982988,0,-0.9006042,-0.96245486,-1.6778857,-0.45308292,1.0288231,0.53384745,0.131359,-0.026768861,-0.92725587,0.95480347,-0.3739833,-1.0190294,-0.46987426,1.7077575
0.0,-0.1,1.2999999999999998,0.5235987755982988,0.5235987755982988,0,-1.0895238,-1.0915715,-1.5805931,-0.46881086,0.3054124,0.4683015,0.07695848,-0.086374246,-1.0299127,1.0428011,-0.16900337,0.23418176,0.07641467,2.0329146
0.0,-0.1,1.2999999999999998,0.5235987755982988,0.5235987755982988,0,-0.7764012,-0.98981243,-1.5556889,-0.6307663,-0.32800677,0.28248844,0.25550506,-0.20156749,-1.0459311,0.9950678,-0.3199811,-0.82326585,-0.5357972,1.3485202
0.0,-0.1,1.2999999999999998,0.5235987755982988,0.5235987755982988,0,-0.75352687,-1.0254995,-1.4806871,-0.5942012,-0.19231842,0.29128963,0.3820294,-0.22133118,-1.1301519,0.95985746,-0.38854763,-0.48622954,-0.72419286,1.2683495
0.0,-0.1,1.2999999999999998,0.5235987755982988,0.5235987755982988,0,-0.90354127,-1.0546223,-1.6721153,-0.5827809,0.9243,0.065201946,0.2771246,-0.13160305,-0.9557217,0.8703301,-0.373894,-1.0958761,-0.42541575,1.4961191
0.0,-0.1,1.2999999999999998,0.5235987755982988,0.5235987755982988,0,-0.89322317,-1.0196877,-1.458993,-0.43549448,0.63592136,0.07323314,-0.13097364,-0.27808425,-1.172779,1.134308,-0.29434043,-0.5033962,-0.29556417,1.2276673
0.0,-0.1,1.2999999999999998,0.5235987755982988,0.5235987755982988,0,-0.72852284,-1.1235933,-1.3938977,-0.56126815,0.36718458,0.62587833,0.49390534,-0.38001916,-1.057258,1.0068681,-0.42435184,-0.7685894,-0.7398761,0.9475499
0.0,-0.1,1.2999999999999998,0.5235987755982988,0.5235987755982988,0,-0.8219447,-1.0009406,-1.5066055,-0.41468987,0.56729865,0.030173216,0.35874867,-0.19671685,-0.96771556,0.92919743,-0.43351218,0.08384759,-0.16491894,1.2067928
0.0,-0.1,1.2999999999999998,0.5235987755982988,0.5235987755982988,0,-0.95446247,-1.1149107,-1.567778,-0.58415574,0.5927373,0.28540272,0.115683444,-0.19000337,-1.083094,1.0887558,-0.2283682,-1.1527554,-0.36696434,1.6517012
0.0,-0.1,1.2999999999999998,0.5235987755982988,0.5235987755982988,0,-1.0595262,-1.0173453,-1.6537353,-0.4772304,0.9198378,0.25848317,-0.14159371,-0.17993522,-0.93471736,1.0295964,-0.41967356,0.14754283,-0.4271442,2.0651076
0.0,-0.1,1.2999999999999998,0.5235987755982988,0.5235987755982988,0,-0.81761914,-0.9831268,-1.6009117,-0.5806186,0.9664195,0.3063967,0.29273054,-0.2103806,-1.0854503,1.0710282,-0.33098876,-0.8736574,-0.39052945,1.719128
0.0,-0.1,1.2999999999999998,0.5235987755982988,0.5235987755982988,0,-0.89769137,-1.0321311,-1.5810784,-0.44288597,0.8577226,0.3208309,0.14235896,-0.24881183,-0.96639746,0.9865186,-0.2803935,-0.29528505,-0.3866506,1.1518892
0.0,-0.1,1.2999999999999998,0.5235987755982988,0.5235987755982988,0,-0.94190377,-1.1639129,-1.6044827,-0.58515817,0.9511806,0.11410167,0.42476034,-0.20969096,-1.0840483,0.9553096,-0.30228946,-0.23763591,-0.059100546,1.0741109
0.0,-0.1,1.2999999999999998,0.5235987755982988,0.5235987755982988,0,-0.74320674,-1.0593431,-1.7175984,-0.77926517,0.61424243,0.508436,-0.25331563,-0.11642037,-0.84711975,1.0169287,-0.31851524,-0.20881565,-0.57994187,1.9819816
0.0,-0.1,1.2999999999999998,0.5235987755982988,0.5235987755982988,0,-0.8206946,-0.92477703,-1.743381,-0.5174294,0.7566335,-0.16641474,0.19894621,-0.2977451,-0.9508637,1.0865958,-0.467926,-0.7018929,-0.1534877,1.0451365
0.0,-0.1,1.2999999999999998,0.5235987755982988,0.5235987755982988,0,-0.9009675,-0.9161525,-1.8326705,-0.52204156,1.3160757,0.53785425,0.30891222,-0.3248481,-1.1458329,0.86532325,-0.43077254,0.06780671,-0.35732877,1.1657186
0.0,-0.1,1.2999999999999998,0.5235987755982988,0.5235987755982988,0,-0.6431154,-1.0142837,-1.4755194,-0.6228846,0.93426305,0.4336594,-0.152266,-0.025432397,-0.7810633,1.0619802,-0.43403748,-1.3380969,-0.21404383,0.7973628
0.0,-0.1,1.2999999999999998,0.5235987755982988,0.5235987755982988,0,-0.8469423,-1.0927973,-1.3752029,-0.37157795,0.684518,0.37580642,0.13892175,-0.35181803,-1.1914515,0.93633056,-0.2821975,-0.08157778,-0.66397345,0.8211711
0.0,-0.1,1.2999999999999998,0.5235987755982988,0.5235987755982988,0,-0.7943162,-1.06487,-1.6482767,-0.68688357,0.6835793,0.6274906,0.55587286,-0.3772495,-1.0913626,0.99535125,-0.4710964,-1.2556309,-0.15649435,1.1636386
0.0,-0.1,1.2999999999999998,0.5235987755982988,0.5235987755982988,0,-0.80855465,-1.0257586,-1.5599805,-0.61314845,0.486669,0.25078082,0.43409824,-0.18678072,-1.0599352,0.95522475,-0.34717432,-0.46686554,0.28398874,1.3189598
0.0,-0.1,1.2999999999999998,0.5235987755982988,0.5235987755982988,0,-0.7630857,-1.1273282,-1.3362353,-0.40367803,1.1426029,0.4341383,-0.23804934,-0.21061336,-1.0174663,1.0444504,-0.40059385,-1.0060935,-0.2822503,1.7527647
0.0,-0.1,1.2999999999999998,0.5235987755982988,0.5235987755982988,0,-1.0750184,-1.066513,-1.4485955,-0.57043064,0.5484493,0.6480328,0.32723576,-0.10083933,-0.93900824,1.0394151,-0.29172006,-0.33637524,-0.8241334,1.7232627
0.0,-0.1,1.2999999999999998,0.5235987755982988,0.5235987755982988,0,-0.69025815,-1.075917,-1.4303753,-0.635631,1.1491895,0.98846763,0.13511741,0.0061970083,-0.76935256,1.0494913,-0.33688676,0.10443352,-0.53084075,1.3913908
0.0,-0.1,1.2999999999999998,0.5235987755982988,0.5235987755982988,0,-0.7346071,-1.1997572,-1.5585532,-0.8661324,0.6305604,0.19190976,0.46737775,-0.31610805,-1.0422918,1.06106,-0.37135813,-1.3688134,0.19398807,1.552188
0.0,-0.1,1.2999999999999998,0.5235987755982988,0.5235987755982988,0,-0.41996142,-0.9324613,-1.6579055,-0.58188903,0.34438774,0.5681747,0.5972169,-0.12950867,-0.91527504,0.9955844,-0.45148835,-0.38884276,-0.2951591,1.5003146
0.0,-0.1,1.2999999999999998,0.5235987755982988,0.5235987755982988,0,-0.832509,-1.0048134,-1.6205952,-0.5610999,0.44056225,0.15224761,0.10032107,-0.14481828,-0.94850665,1.0043681,-0.38509843,-0.86594355,-0.85198116,0.8185809
0.0,-0.1,1.2999999999999998,0.5235987755982988,0.5235987755982988,0,-0.66866636,-1.0035386,-1.5844771,-0.7596387,0.9549521,0.19710407,0.34689158,-0.16299167,-0.8729627,0.98487884,-0.37616864,-0.9560416,-1.1184644,0.40454656
0.0,-0.1,1.2999999999999998,0.5235987755982988,0.5235987755982988,0,-0.84020317,-1.0183337,-1.5614874,-0.4801678,0.2759585,0.17226884,0.22887646,-0.24187164,-0.99061286,0.9473265,-0.2854966,-0.5863514,-0.5487392,1.3889313
0.0,-0.1,1.2999999999999998,0.5235987755982988,0.5235987755982988,0,-0.9006941,-1.0303725,-1.7262831,-0.55069,-0.6343112,0.14888649,0.4487838,-0.17630197,-0.8912566,0.9825323,-0.45119768,-0.3800159,-0.052001346,1.4786125
0.0,-0.1,1.2999999999999998,0.5235987755982988,0.5235987755982988,0,-0.642502,-1.0453169,-1.4993861,-0.6671057,0.28085434,0.3842763,-0.004115436,-0.37354827,-1.0153621,1.0169764,-0.55905384,-0.24401535,-0.87775046,1.8030857
0.0,-0.1,1.2999999999999998,0.5235987755982988,0.5235987755982988,0,-0.6596028,-0.9468493,-1.6182326,-0.6262452,-0.14766479,0.20925225,0.43514377,-0.21173772,-1.1015323,0.9764226,-0.18151285,-0.19991013,-0.8743602,0.07513603
0.0,-0.1,1.2999999999999998,0.5235987755982988,0.5235987755982988,0,-0.74198794,-1.1594269,-1.2928551,-0.55092716,0.054342788,0.30765215,0.1506887,-0.18905838,-0.92760307,1.0247973,-0.36075908,-0.15981232,-1.2702584,1.0521275
0.0,-0.1,1.2999999999999998,0.5235987755982988,0.5235987755982988,0,-0.6761695,-1.0200627,-1.5005443,-0.5757747,-0.23391272,0.048011333,0.03306432,-0.082127884,-0.87130964,1.0165795,-0.2149966,-0.65206105,-0.0491878,1.1002922
0.0,-0.1,1.2999999999999998,0.5235987755982988,0.5235987755982988,0,-0.9394365,-0.98388284,-1.6986742,-0.45368633,0.77562475,-0.14114244,-0.12409041,-0.07254842,-0.8446662,1.0555396,-0.21776587,-0.14485067,-0.58531135,0.9303793
0.0,-0.1,1.2999999999999998,0.5235987755982988,0.5235987755982988,0,-0.82803756,-1.0493591,-1.5115805,-0.52710754,0.64584655,0.19734447,0.3625054,-0.16386399,-0.98411244,0.9613983,-0.30339596,-0.5026371,-0.6868278,1.7595968
0.0,-0.1,1.2999999999999998,0.5235987755982988,0.5235987755982988,0,-0.7604001,-0.9359929,-1.6438094,-0.5721934,0.6712114,0.33651656,0.10071975,-0.0648634,-0.84201396,0.8927733,-0.37558052,-1.1617099,-0.016724827,1.4408321
0.0,-0.1,1.2999999999999998,0.5235987755982988,0.5235987755982988,0,-0.8513911,-1.0266235,-1.4460528,-0.42295486,-0.21108404,0.26705748,0.0045591802,-0.18931435,-0.98670256,1.092698,-0.28081465,-1.0191808,-0.85120624,0.9977502
0.0,-0.1,1.2999999999999998,0.5235987755982988,0.5235987755982988,0,-0.84638923,-1.0756919,-1.482638,-0.32488284,1.2964654,0.17977697,-0.24688256,-0.063637584,-0.8251764,0.9037243,-0.22040866,-0.6558682,-0.26734763,1.5352395
0.0,-0.1,1.2999999999999998,0.5235987755982988,0.5235987755982988,0,-0.78295624,-0.96946466,-1.6019703,-0.32612807,0.6010325,0.5997156,-0.04387024,0.08195674,-0.7897683,1.0924278,-0.3257152,-0.49392927,-0.60576993,1.7619696
0.0,-0.1,1.2999999999999998,0.5235987755982988,0.5235987755982988,0,-0.9033485,-1.0925922,-1.3380558,-0.26644593,0.29960904,0.36881456,0.32040513,-0.07128287,-0.8489437,1.2071261,-0.33967385,-0.19170016,-0.32754627,1.1172371
0.0,-0.1,1.2999999999999998,0.5235987755982988,0.5235987755982988,0,-0.9746449,-0.9431199,-1.5832905,-0.48270708,-0.15952483,0.47229224,-0.075650536,-0.23498385,-1.0294207,0.8514797,-0.11826557,-0.51898575,-0.72734237,1.067152
0.0,-0.1,1.2999999999999998,0.5235987755982988,0.5235987755982988,0,-0.5644984,-0.98149407,-1.5612504,-0.46962944,1.1776179,0.46504366,0.374131,-0.26208457,-0.91581017,0.9677545,-0.42669737,-0.5455926,-0.5883019,1.0783094
0.0,-0.1,1.2999999999999998,0.5235987755982988,0.5235987755982988,0,-0.6657004,-0.9060035,-1.7633326,-0.67914474,0.09920543,0.66583025,0.28129944,-0.4336841,-1.2022883,0.8422428,-0.30080107,0.19406338,0.008315842,1.0774194
0.0,-0.1,1.2999999999999998,0.5235987755982988,0.5235987755982988,0,-0.9536543,-1.0590776,-1.5713307,-0.44702384,0.013626456,0.29379565,0.49037895,-0.2831115,-1.2316259,1.0641816,-0.41441277,-0.05004156,-0.27975932,1.1792147
0.0,-0.1,1.2999999999999998,0.5235987755982988,0.5235987755982988,0,-0.8873978,-0.8838897,-1.6343787,-0.6090707,-0.32196486,0.42739943,0.20354466,-0.28168792,-1.1291565,1.1384611,-0.56785303,-0.72505236,-0.6911942,1.4271404
0.0,-0.1,1.2999999999999998,0.5235987755982988,0.5235987755982988,0,-0.8881999,-0.97140795,-1.7166632,-0.6953052,0.6713035,0.3094834,0.51369256,-0.29753023,-1.3706003,0.970143,-0.3422946,-0.5401174,-0.94973314,1.1537575
0.0,-0.1,1.2999999999999998,0.5235987755982988,0.5235987755982988,0,-0.60723513,-0.97424024,-1.636299,-0.36010116,0.9227617,0.628115,0.12396012,-0.13135529,-0.7871527,0.94177735,-0.39366865,-0.80267173,-0.66458154,0.8606421
0.0,-0.1,1.2999999999999998,0.5235987755982988,0.5235987755982988,0,-0.9156911,-1.0851809,-1.4989083,-0.35273865,0.27197433,0.42202583,0.0065863198,-0.20754841,-1.0874553,0.9004633,-0.30471292,-0.95423603,-0.38308787,0.8813904
0.0,-0.1,1.2999999999999998,0.5235987755982988,0.5235987755982988,0,-0.8695977,-1.1325445,-1.7035928,-0.56935644,0.6608556,0.15172566,0.60540724,-0.18296388,-0.97697985,1.0211735,-0.35371843,-0.7224837,-0.8430486,1.3237551
0.0,-0.1,1.2999999999999998,0.5235987755982988,0.5235987755982988,0,-1.0850282,-1.1874986,-1.429955,-0.53919286,-0.12991814,0.69935083,0.41954112,-0.084373794,-0.98387015,1.1460102,-0.2962872,-0.70162857,-0.4459994,0.41738942
0.0,-0.1,1.2999999999999998,0.5235987755982988,0.5235987755982988,0,-0.84030557,-0.9553905,-1.4179351,-0.55426043,0.06660576,0.33649042,0.3143031,-0.28339082,-1.2217973,0.9669159,-0.5777493,-1.1943659,-0.50767064,1.3545448
0.0,-0.1,1.2999999999999998,0.5235987755982988,0.5235987755982988,0,-0.86362404,-1.0222429,-1.3772017,-0.58848614,-0.48219872,0.52749634,0.3847256,-0.14238882,-0.9973427,0.8592625,-0.40276405,-0.6547892,-0.7164396,1.8057678
0.0,-0.1,1.2999999999999998,0.5235987755982988,0.5235987755982988,0,-0.92464733,-1.0114678,-1.7757705,-0.6548754,-0.078283995,0.2610216,0.07900312,0.063089795,-1.0827924,0.89366955,-0.1409707,-0.875066,-0.3814729,1.3864654
0.0,-0.1,1.2999999999999998,0.5235987755982988,0.5235987755982988,0,-1.1092185,-1.150708,-1.7114211,-0.53690803,0.2637304,0.48725665,0.16285685,0.060468577,-1.044702,1.1017579,-0.28282487,-1.2005441,-0.7246024,0.222174
0.0,-0.1,1.2999999999999998,0.5235987755982988,0.5235987755982988,0,-0.94912475,-1.0500491,-1.7694726,-0.4498519,1.0276932,0.36442134,0.4792999,-0.121708184,-1.1723835,0.96974725,-0.42067045,-0.5043503,-0.7511468,1.1163845
0.0,-0.1,1.2999999999999998,0.5235987755982988,0.5235987755982988,0,-1.0724509,-1.0625292,-1.698524,-0.45194072,0.28466105,0.4309543,0.29010412,0.018987933,-1.0917037,1.0197208,-0.50487274,-1.5307682,-0.46257776,2.3118854
0.0,-0.1,1.2999999999999998,0.5235987755982988,0.5235987755982988,0,-0.7036233,-0.95099765,-1.7172276,-0.4886191,0.6524611,0.24693775,0.40986457,-0.1489642,-1.1214886,0.9822118,-0.40094155,0.066507146,-0.025315728,1.884622
0.0,-0.1,1.2999999999999998,0.5235987755982988,0.5235987755982988,0,-0.90177417,-1.0300528,-1.8929145,-0.59067184,0.8688702,0.9314249,0.06410718,-0.21156687,-1.1152081,1.0208689,-0.64547753,-0.87847394,-0.7327604,1.7674838
0.0,-0.1,1.2999999999999998,0.5235987755982988,0.5235987755982988,0,-0.9643954,-1.0749187,-1.6651701,-0.45280302,0.30086604,-0.012835307,0.66625464,-0.19713399,-1.0986456,0.995541,-0.40178806,-1.4499046,0.23952943,1.0633333
0.0,-0.1,1.2999999999999998,0.5235987755982988,0.5235987755982988,0,-0.96750546,-1.0331063,-1.4993852,-0.6269926,0.36492714,0.529541,0.46982634,-0.04791071,-1.0612689,1.0310634,-0.35576305,-1.3960948,-0.46219984,0.7211002
0.0,-0.1,1.2999999999999998,0.5235987755982988,0.5235987755982988,0,-0.8807516,-1.2014483,-1.5911795,-0.40117708,0.79681337,0.41137695,0.18782468,-0.4338397,-0.8401694,0.9888433,-0.33790094,0.23644513,-0.26443347,0.89002085
0.0,-0.1,1.2999999999999998,0.5235987755982988,0.5235987755982988,0,-0.8536945,-1.2276182,-1.5019022,-0.47827658,1.5142913,1.0224626,0.18633512,0.11330656,-1.0652986,1.0088866,-0.3123149,-0.7149269,-0.0716565,1.0619044
0.0,-0.1,1.2999999999999998,0.5235987755982988,0.5235987755982988,0,-0.8789416,-1.1196018,-1.5568208,-0.52830064,0.3616453,0.51879495,0.61852443,-0.0781632,-0.7621636,0.93771845,-0.4258402,0.37771067,-0.46475217,1.4626238
0.0,-0.1,1.2999999999999998,0.5235987755982988,0.5235987755982988,0,-0.9479953,-1.3234751,-1.6870421,-0.55380195,0.060307067,0.43154007,0.12882578,-0.17250726,-1.2649215,0.98851025,-0.34731564,-0.50489134,-0.459033,1.4485168
0.0,-0.1,1.2999999999999998,0.5235987755982988,0.5235987755982988,0,-0.75007236,-1.1045299,-1.7234205,-0.63762426,-0.10339332,0.6322682,0.4786506,-0.11087066,-1.1527182,0.9941928,-0.35713026,0.035119265,-0.1315024,0.90309644
0.0,-0.1,1.2999999999999998,0.5235987755982988,0.5235987755982988,0,-0.90230584,-1.0564756,-1.691306,-0.57030916,-0.67463166,0.3590732,0.22550961,0.09612155,-1.0159687,1.0440955,-0.47545117,-0.976111,0.11431556,1.2276659
0.0,-0.1,1.2999999999999998,0.5235987755982988,0.5235987755982988,0,-1.3235834,-0.86194396,-1.7528498,0.08194022,0.7618408,0.093464136,0.057974398,0.010937175,-1.3335555,1.0849228,-0.19457994,-0.63560957,-0.3390089,1.3812202
0.0,-0.1,1.2999999999999998,0.5235987755982988,0.5235987755982988,0,-1.3235834,-0.86194396,-1.7528498,0.08194022,0.7618408,0.093464136,0.057974398,0.010937175,-1.3335555,1.0849228,-0.19457994,-0.63560957,-0.3390089,1.3812202
0.0,-0.1,1.2999999999999998,0.5235987755982988,0.5235987755982988,0,-1.3235834,-0.86194396,-1.7528498,0.08194022,0.7618408,0.093464136,0.057974398,0.010937175,-1.3335555,1.0849228,-0.19457994,-0.63560957,-0.3390089,1.3812202
0.0,-0.1,1.2999999999999998,0.5235987755982988,0.5235987755982988,0,-1.3235834,-0.86194396,-1.7528498,0.08194022,0.7618408,0.093464136,0.057974398,0.010937175,-1.3335555,1.0849228,-0.19457994,-0.63560957,-0.3390089,1.3812202
0.0,-0.1,1.2999999999999998,0.5235987755982988,0.5235987755982988,0,-1.3235834,-0.86194396,-1.7528498,0.08194022,0.7618408,0.093464136,0.057974398,0.010937175,-1.3335555,1.0849228,-0.19457994,-0.63560957,-0.3390089,1.3812202
0.0,-0.1,1.2999999999999998,0.5235987755982988,0.5235987755982988,0,-0.8083321,-1.2161794,-1.815495,-0.6157402,0.8334517,0.7078999,-0.0005667145,0.0050013084,-1.4978514,1.0333033,-0.40092212,-0.5854152,-1.1538408,0.5145965
0.0,-0.1,1.2999999999999998,0.5235987755982988,0.5235987755982988,0,-0.8083321,-1.2161794,-1.815495,-0.6157402,0.8334517,0.7078999,-0.0005667145,0.0050013084,-1.4978514,1.0333033,-0.40092212,-0.5854152,-1.1538408,0.5145965
0.0,-0.1,1.2999999999999998,0.5235987755982988,0.5235987755982988,0,-0.8083321,-1.2161794,-1.815495,-0.6157402,0.8334517,0.7078999,-0.0005667145,0.0050013084,-1.4978514,1.0333033,-0.40092212,-0.5854152,-1.1538408,0.5145965
0.0,-0.1,1.2999999999999998,0.5235987755982988,0.5235987755982988,0,-0.8083321,-1.2161794,-1.815495,-0.6157402,0.8334517,0.7078999,-0.0005667145,0.0050013084,-1.4978514,1.0333033,-0.40092212,-0.5854152,-1.1538408,0.5145965
0.0,-0.1,1.2999999999999998,0.5235987755982988,0.5235987755982988,0,-0.8083321,-1.2161794,-1.815495,-0.6157402,0.8334517,0.7078999,-0.0005667145,0.0050013084,-1.4978514,1.0333033,-0.40092212,-0.5854152,-1.1538408,0.5145965
0.0,-0.1,1.2999999999999998,0.5235987755982988,0.5235987755982988,0,-0.8083321,-1.2161794,-1.815495,-0.6157402,0.8334517,0.7078999,-0.0005667145,0.0050013084,-1.4978514,1.0333033,-0.40092212,-0.5854152,-1.1538408,0.5145965
0.0,-0.1,1.2999999999999998,0.5235987755982988,0.5235987755982988,0,-0.9866729,-1.111403,-1.9536508,-0.35772195,0.9948723,0.35282236,0.2960822,0.031184219,-1.3978181,0.99192894,-0.45571977,-0.7273572,-0.3017972,1.5747952
0.0,-0.1,1.2999999999999998,0.5235987755982988,0.5235987755982988,0,-0.9866729,-1.111403,-1.9536508,-0.35772195,0.9948723,0.35282236,0.2960822,0.031184219,-1.3978181,0.99192894,-0.45571977,-0.7273572,-0.3017972,1.5747952
0.0,-0.1,1.2999999999999998,0.5235987755982988,0.5235987755982988,0,-0.9866729,-1.111403,-1.9536508,-0.35772195,0.9948723,0.35282236,0.2960822,0.031184219,-1.3978181,0.99192894,-0.45571977,-0.7273572,-0.3017972,1.5747952
0.0,-0.1,1.2999999999999998,0.5235987755982988,0.5235987755982988,0,-0.9866729,-1.111403,-1.9536508,-0.35772195,0.9948723,0.35282236,0.2960822,0.031184219,-1.3978181,0.99192894,-0.45571977,-0.7273572,-0.3017972,1.5747952
0.0,-0.1,1.2999999999999998,0.5235987755982988,0.5235987755982988,0,-0.9866729,-1.111403,-1.9536508,-0.35772195,0.9948723,0.35282236,0.2960822,0.031184219,-1.3978181,0.99192894,-0.45571977,-0.7273572,-0.3017972,1.5747952
0.0,-0.1,1.2999999999999998,0.5235987755982988,0.5235987755982988,0,-0.9866729,-1.111403,-1.9536508,-0.35772195,0.9948723,0.35282236,0.2960822,0.031184219,-1.3978181,0.99192894,-0.45571977,-0.7273572,-0.3017972,1.5747952
0.0,-0.1,1.2999999999999998,0.5235987755982988,0.5235987755982988,0,-0.96247876,-0.9487753,-1.8850625,-0.58985436,-0.013012834,0.68839,0.17243573,0.09111981,-1.3361233,1.0951566,-0.43389502,0.10240962,-0.9487376,1.4635358
0.0,-0.1,1.2999999999999998,0.5235987755982988,0.5235987755982988,0,-0.96247876,-0.9487753,-1.8850625,-0.58985436,-0.013012834,0.68839,0.17243573,0.09111981,-1.3361233,1.0951566,-0.43389502,0.10240962,-0.9487376,1.4635358
0.0,-0.1,1.2999999999999998,0.5235987755982988,0.5235987755982988,0,-0.96247876,-0.9487753,-1.8850625,-0.58985436,-0.013012834,0.68839,0.17243573,0.09111981,-1.3361233,1.0951566,-0.43389502,0.10240962,-0.9487376,1.4635358
0.0,-0.1,1.2999999999999998,0.5235987755982988,0.5235987755982988,0,-0.96247876,-0.9487753,-1.8850625,-0.58985436,-0.013012834,0.68839,0.17243573,0.09111981,-1.3361233,1.0951566,-0.43389502,0.10240962,-0.9487376,1.4635358
0.0,-0.1,1.2999999999999998,0.5235987755982988,0.5235987755982988,0,-0.96247876,-0.9487753,-1.8850625,-0.58985436,-0.013012834,0.68839,0.17243573,0.09111981,-1.3361233,1.0951566,-0.43389502,0.10240962,-0.9487376,1.4635358
0.0,-0.1,1.2999999999999998,0.5235987755982988,0.5235987755982988,0,-0.975443,-1.113091,-1.6110653,-0.37444463,-0.16438024,-0.059301797,0.46473208,-0.097085,-1.0915495,1.0150954,-0.298583,-0.72949696,-0.4535704,1.093901
0.0,-0.1,1.2999999999999998,0.5235987755982988,0.5235987755982988,0,-0.975443,-1.113091,-1.6110653,-0.37444463,-0.16438024,-0.059301797,0.46473208,-0.097085,-1.0915495,1.0150954,-0.298583,-0.72949696,-0.4535704,1.093901
0.0,-0.1,1.2999999999999998,0.5235987755982988,0.5235987755982988,0,-0.975443,-1.113091,-1.6110653,-0.37444463,-0.16438024,-0.059301797,0.46473208,-0.097085,-1.0915495,1.0150954,-0.298583,-0.72949696,-0.4535704,1.093901
0.0,-0.1,1.2999999999999998,0.5235987755982988,0.5235987755982988,0,-0.975443,-1.113091,-1.6110653,-0.37444463,-0.16438024,-0.059301797,0.46473208,-0.097085,-1.0915495,1.0150954,-0.298583,-0.72949696,-0.4535704,1.093901
0.0,-0.1,1.2999999999999998,0.5235987755982988,0.5235987755982988,0,-0.975443,-1.113091,-1.6110653,-0.37444463,-0.16438024,-0.059301797,0.46473208,-0.097085,-1.0915495,1.0150954,-0.298583,-0.72949696,-0.4535704,1.093901
0.0,-0.1,1.2999999999999998,0.5235987755982988,0.5235987755982988,0,-0.75861084,-1.1929607,-2.0277305,-0.72276247,0.7549694,0.3007993,0.7666704,0.19020377,-1.4250408,0.86798924,-0.4683976,-0.16164605,-0.16256717,1.7591547
0.0,-0.1,1.2999999999999998,0.5235987755982988,0.5235987755982988,0,-0.75861084,-1.1929607,-2.0277305,-0.72276247,0.7549694,0.3007993,0.7666704,0.19020377,-1.4250408,0.86798924,-0.4683976,-0.16164605,-0.16256717,1.7591547
0.0,-0.1,1.2999999999999998,0.5235987755982988,0.5235987755982988,0,-0.34817463,-1.2698243,-1.428902,-1.1414031,-0.5457383,0.4921838,0.26583308,-0.16481994,-1.3696712,0.9136803,-0.3694737,-0.8831996,-0.46782514,1.4852227
0.0,-0.1,1.2999999999999998,0.5235987755982988,0.5235987755982988,0,-0.34817463,-1.2698243,-1.428902,-1.1414031,-0.5457383,0.4921838,0.26583308,-0.16481994,-1.3696712,0.9136803,-0.3694737,-0.8831996,-0.46782514,1.4852227
0.0,-0.1,1.2999999999999998,0.5235987755982988,0.5235987755982988,0,-0.34817463,-1.2698243,-1.428902,-1.1414031,-0.5457383,0.4921838,0.26583308,-0.16481994,-1.3696712,0.9136803,-0.3694737,-0.8831996,-0.46782514,1.4852227
