sanky1234/BimanualDexCatch/isaacgymenvs/cem_results/May31/football_pose_0.2_0.1_1.2999999999999998_0.0_0.0_0_2025-06-03.csv
x,y,z,roll,pitch,yaw,robot1/joint1,robot1/joint2,robot1/joint3,robot1/joint4,robot1/joint5,robot1/joint6,robot1/joint7,robot2/joint1,robot2/joint2,robot2/joint3,robot2/joint4,robot2/joint5,robot2/joint6,robot2/joint7
0.2,0.1,1.2999999999999998,0.0,0.0,0,-1.0297079,0.19781326,-1.287796,-0.058189142,-0.32410595,0.27389225,-0.14720851,1.4559067,0.6295445,1.2422816,0.4131766,1.007219,0.8626372,-0.5430889
0.2,0.1,1.2999999999999998,0.0,0.0,0,-1.0195334,0.19941011,-1.2959459,-0.056664634,-0.297093,0.26531526,-0.17515218,1.4240584,0.70036614,1.2200191,0.4123071,0.9342796,0.89348316,-0.5550005
0.2,0.1,1.2999999999999998,0.0,0.0,0,-1.0303167,0.19921978,-1.3026813,-0.059635386,-0.33876896,0.26866844,-0.23881032,1.4387338,0.58984846,1.2298057,0.41842362,1.0127121,0.86585957,-0.53650886
0.2,0.1,1.2999999999999998,0.0,0.0,0,-1.0310585,0.19689067,-1.2933235,-0.055784576,-0.31721932,0.2648835,-0.27024767,1.4495511,0.67510086,1.2144899,0.41962323,0.8616591,0.86580575,-0.46990103
0.2,0.1,1.2999999999999998,0.0,0.0,0,-1.0125641,0.19860955,-1.2866735,-0.053025555,-0.33334023,0.26614678,-0.28122553,1.4525427,0.5943281,1.227881,0.4005989,0.922192,0.8968325,-0.4912508
0.2,0.1,1.2999999999999998,0.0,0.0,0,-1.0140505,0.19358568,-1.287396,-0.059004914,-0.29876062,0.26227504,-0.26751614,1.4537437,0.60803354,1.240934,0.39600942,0.9417028,0.8808158,-0.5537138
0.2,0.1,1.2999999999999998,0.0,0.0,0,-1.0394391,0.20035994,-1.313529,-0.059927035,-0.30516556,0.2672337,-0.2830419,1.4661677,0.6664468,1.2174928,0.4208956,0.9388344,0.8734179,-0.59482133
0.2,0.1,1.2999999999999998,0.0,0.0,0,-1.0070168,0.19686311,-1.3160931,-0.056507416,-0.3355911,0.27614486,-0.28446966,1.4328306,0.62667626,1.2458625,0.41509357,0.95422506,0.84465915,-0.34756163
0.2,0.1,1.2999999999999998,0.0,0.0,0,-1.0232582,0.19750954,-1.278419,-0.057526965,-0.3069923,0.27186933,-0.23174217,1.4692471,0.7379817,1.2274468,0.40256184,0.8881969,0.86820877,-0.5727463
0.2,0.1,1.2999999999999998,0.0,0.0,0,-1.0184002,0.192688,-1.2919877,-0.057766102,-0.33267954,0.2627616,-0.26139948,1.4325521,0.69101596,1.2225269,0.40683308,0.91903466,0.8738246,-0.64421135
0.2,0.1,1.2999999999999998,0.0,0.0,0,-1.0212517,0.1960806,-1.2964767,-0.061551422,-0.34070054,0.25981107,-0.21508498,1.4316194,0.7028872,1.2396615,0.41125962,0.97453094,0.8899666,-0.73051524
0.2,0.1,1.2999999999999998,0.0,0.0,0,-1.0105082,0.19624726,-1.3163786,-0.057984747,-0.3460325,0.27288526,-0.19051582,1.4516289,0.61883634,1.2174075,0.4093598,0.9246369,0.87187344,-0.5396672
0.2,0.1,1.2999999999999998,0.0,0.0,0,-1.0060031,0.19972445,-1.3133252,-0.05684084,-0.31016174,0.265971,-0.25296858,1.4554002,0.7707326,1.2371513,0.40312693,0.9184202,0.8452556,-0.51062775
0.2,0.1,1.2999999999999998,0.0,0.0,0,-1.0281206,0.19047998,-1.3094628,-0.054563735,-0.3243435,0.2629315,-0.2239169,1.4466003,0.64627683,1.2056296,0.42581844,0.9580342,0.8797467,-0.5501323
0.2,0.1,1.2999999999999998,0.0,0.0,0,-1.0179709,0.19348441,-1.2986624,-0.06368816,-0.31273443,0.2635858,-0.21352962,1.4210838,0.6843227,1.2284359,0.40566176,0.92062193,0.8920487,-0.5942157
0.2,0.1,1.2999999999999998,0.0,0.0,0,-1.0165399,0.19452037,-1.302549,-0.058261406,-0.31948754,0.276881,-0.2705888,1.429958,0.5187656,1.2358979,0.42996418,1.0175335,0.8638968,-0.5421534
0.2,0.1,1.2999999999999998,0.0,0.0,0,-1.0371236,0.19499803,-1.3129824,-0.05545818,-0.3156619,0.27189645,-0.25346154,1.4608451,0.61693907,1.2437687,0.4117045,0.9765891,0.86771137,-0.6243938
0.2,0.1,1.2999999999999998,0.0,0.0,0,-1.0011293,0.19702813,-1.3225586,-0.06191336,-0.31232682,0.27176166,-0.18262741,1.4491006,0.72676474,1.2354066,0.393843,0.92563397,0.89353156,-0.5183412
0.2,0.1,1.2999999999999998,0.0,0.0,0,-1.0187429,0.1937176,-1.3083167,-0.056826714,-0.33486375,0.26937553,-0.24180993,1.4369864,0.65640783,1.2362312,0.4202544,0.95608795,0.88920546,-0.4835424
0.2,0.1,1.2999999999999998,0.0,0.0,0,-1.015621,0.20202827,-1.2928014,-0.05801446,-0.32508636,0.26487878,-0.19458579,1.4651119,0.6759758,1.2261617,0.40308183,0.8677211,0.8309233,-0.51958776
0.2,0.1,1.2999999999999998,0.0,0.0,0,-1.0275185,0.1937908,-1.2958031,-0.06224854,-0.25600737,0.26865572,-0.20827955,1.4699935,0.62359893,1.2188846,0.4008458,0.8748995,0.8597171,-0.6285422
0.2,0.1,1.2999999999999998,0.0,0.0,0,-1.0273818,0.19669618,-1.3127478,-0.060913283,-0.35580638,0.27128989,-0.24906814,1.4344416,0.6622625,1.2391903,0.42107344,0.89957565,0.85216206,-0.54147613
0.2,0.1,1.2999999999999998,0.0,0.0,0,-1.02437,0.1917623,-1.293111,-0.05633387,-0.37278754,0.2631319,-0.23000152,1.4191415,0.6203164,1.2339891,0.42205223,0.99448675,0.8757346,-0.44267452
0.2,0.1,1.2999999999999998,0.0,0.0,0,-1.0132902,0.19417076,-1.3068501,-0.06101712,-0.32823318,0.27399966,-0.22140846,1.4636672,0.6260681,1.2267195,0.42568105,0.97294325,0.85962796,-0.5897085
0.2,0.1,1.2999999999999998,0.0,0.0,0,-1.0088272,0.19921795,-1.2959836,-0.057334177,-0.33658025,0.27049914,-0.23382644,1.4680213,0.65845746,1.2273663,0.413119,1.0049353,0.87581843,-0.50527614
0.2,0.1,1.2999999999999998,0.0,0.0,0,-1.0228341,0.19795592,-1.2950745,-0.0551925,-0.37337992,0.26774305,-0.19539388,1.4191985,0.6865812,1.2336495,0.42297056,0.85832554,0.83976436,-0.39945552
0.2,0.1,1.2999999999999998,0.0,0.0,0,-1.0086164,0.19512673,-1.2954695,-0.056925233,-0.31273443,0.26087362,-0.18633741,1.4278003,0.73953027,1.2200038,0.40740752,0.90947706,0.89696896,-0.70060945
0.2,0.1,1.2999999999999998,0.0,0.0,0,-1.0300272,0.20004214,-1.2845516,-0.06332317,-0.33958206,0.2754351,-0.24744691,1.4464926,0.6314516,1.2203453,0.4154869,1.0045456,0.87572396,-0.54526347
0.2,0.1,1.2999999999999998,0.0,0.0,0,-1.0290035,0.1946204,-1.2950609,-0.057776507,-0.34127507,0.26733315,-0.19555348,1.4367129,0.65217453,1.2259612,0.41230392,0.93534285,0.87695456,-0.5255677
0.2,0.1,1.2999999999999998,0.0,0.0,0,-1.0191302,0.19529925,-1.298716,-0.05239929,-0.3111313,0.27497226,-0.27024886,1.4262531,0.67991465,1.2515637,0.40884948,0.9842884,0.8707423,-0.46060583
0.2,0.1,1.2999999999999998,0.0,0.0,0,-1.0240799,0.19673827,-1.2901267,-0.058583938,-0.33647332,0.26945063,-0.22697093,1.4223847,0.70417136,1.2279198,0.41518888,0.907172,0.8623884,-0.64116526
0.2,0.1,1.2999999999999998,0.0,0.0,0,-1.0242763,0.19319357,-1.2982144,-0.06263333,-0.30989632,0.27774948,-0.26884094,1.4385678,0.7171237,1.2246498,0.4060281,0.96546537,0.8885462,-0.6523042
0.2,0.1,1.2999999999999998,0.0,0.0,0,-1.0334758,0.19500518,-1.3156776,-0.05678676,-0.33604613,0.25997874,-0.3026592,1.4355136,0.6682952,1.2430204,0.41468725,0.99659777,0.88941836,-0.49036416
0.2,0.1,1.2999999999999998,0.0,0.0,0,-1.0075483,0.19459604,-1.3030399,-0.05904044,-0.3058874,0.26217753,-0.23550247,1.4417646,0.5143217,1.2451675,0.4234446,0.97559714,0.8606076,-0.6218827
0.2,0.1,1.2999999999999998,0.0,0.0,0,-1.0214521,0.19689992,-1.3029674,-0.061794486,-0.3761629,0.26557454,-0.16683687,1.4445518,0.54649746,1.2146456,0.40883005,1.0713506,0.84807265,-0.36440405
0.2,0.1,1.2999999999999998,0.0,0.0,0,-1.0289712,0.19991735,-1.2979354,-0.05949087,-0.35487524,0.2645643,-0.25874647,1.4212432,0.68306583,1.2396427,0.41222963,0.9932937,0.85084254,-0.5363998
0.2,0.1,1.2999999999999998,0.0,0.0,0,-1.0176989,0.19533823,-1.2969271,-0.05541996,-0.31061798,0.26831195,-0.20741059,1.4261056,0.7491532,1.2372656,0.42025238,0.9289881,0.870591,-0.5769821
0.2,0.1,1.2999999999999998,0.0,0.0,0,-1.0220754,0.19689164,-1.2976311,-0.058302354,-0.30954176,0.25629392,-0.23766617,1.4648683,0.66922855,1.2270336,0.42556316,0.96205884,0.8522226,-0.53538996
0.2,0.1,1.2999999999999998,0.0,0.0,0,-1.0199555,0.19581659,-1.2957469,-0.061009124,-0.34060475,0.26954,-0.29101723,1.4271314,0.5975937,1.228493,0.4096862,0.86745787,0.83575,-0.5270138
0.2,0.1,1.2999999999999998,0.0,0.0,0,-1.0265864,0.19629337,-1.2812508,-0.049346276,-0.3411211,0.2698673,-0.1969747,1.4203919,0.6621806,1.2340866,0.410416,0.9856315,0.87238795,-0.460987
0.2,0.1,1.2999999999999998,0.0,0.0,0,-1.0090362,0.19858232,-1.3107096,-0.059926286,-0.3545715,0.26579395,-0.23196188,1.4058707,0.77010506,1.230506,0.4180716,0.8156023,0.85763615,-0.37602672
0.2,0.1,1.2999999999999998,0.0,0.0,0,-1.0238091,0.19323419,-1.2917054,-0.056237437,-0.28864035,0.2826795,-0.20403051,1.4288079,0.5364354,1.2411522,0.41178033,0.9787452,0.8679008,-0.44037786
0.2,0.1,1.2999999999999998,0.0,0.0,0,-1.0006607,0.19083995,-1.3106148,-0.05476673,-0.31360555,0.266962,-0.22986895,1.454232,0.73932785,1.229205,0.42256686,1.021994,0.89246637,-0.5215693
0.2,0.1,1.2999999999999998,0.0,0.0,0,-1.0477202,0.19726834,-1.2773548,-0.06050482,-0.3487618,0.265869,-0.13720308,1.4465524,0.76145,1.2340555,0.4072044,0.9475197,0.88189864,-0.59051764
0.2,0.1,1.2999999999999998,0.0,0.0,0,-1.0115383,0.19318277,-1.2917663,-0.052649166,-0.33431938,0.26862344,-0.24197929,1.4104195,0.7047226,1.2365128,0.42164224,0.93232405,0.8702987,-0.54652226
0.2,0.1,1.2999999999999998,0.0,0.0,0,-1.025255,0.19665253,-1.2894963,-0.057813816,-0.32654563,0.2678051,-0.20819783,1.4537342,0.72476345,1.2332636,0.42708302,0.98617774,0.8540622,-0.57672375
0.2,0.1,1.2999999999999998,0.0,0.0,0,-1.0191866,0.19837858,-1.2853837,-0.062341478,-0.3099776,0.2676402,-0.24112263,1.4630901,0.6822475,1.2251185,0.39910302,0.9275379,0.82785326,-0.5101141
0.2,0.1,1.2999999999999998,0.0,0.0,0,-1.0502468,0.19437292,-1.3212777,-0.050077368,-0.3496866,0.27170518,-0.20953417,1.4273062,0.6477711,1.2273968,0.41418475,0.94954824,0.8700833,-0.6057562
0.2,0.1,1.2999999999999998,0.0,0.0,0,-1.026425,0.19544661,-1.2862538,-0.058746018,-0.3257143,0.26803687,-0.23843578,1.4367205,0.7552964,1.2470725,0.40909812,0.93107665,0.84560764,-0.5049817
0.2,0.1,1.2999999999999998,0.0,0.0,0,-1.0120145,0.19643429,-1.3102887,-0.060800727,-0.31389946,0.27415314,-0.23216836,1.4381607,0.6674954,1.2249888,0.40841103,0.96098775,0.8807224,-0.4499668
0.2,0.1,1.2999999999999998,0.0,0.0,0,-1.0247993,0.19697192,-1.3232586,-0.0648023,-0.3253983,0.279988,-0.28834134,1.4616432,0.73879534,1.2267586,0.39873353,0.95775944,0.85326993,-0.47029144
0.2,0.1,1.2999999999999998,0.0,0.0,0,-1.032461,0.19472966,-1.3061732,-0.055132076,-0.30587178,0.27441236,-0.2816465,1.4343556,0.56061625,1.238885,0.42152333,0.9336709,0.8479482,-0.36321363
0.2,0.1,1.2999999999999998,0.0,0.0,0,-1.0194559,0.19561458,-1.2992219,-0.0533666,-0.30750307,0.26459762,-0.29443687,1.4307369,0.7390096,1.2409855,0.41320792,0.89055747,0.8380145,-0.5362323
0.2,0.1,1.2999999999999998,0.0,0.0,0,-1.0059367,0.1978843,-1.2899075,-0.06273556,-0.37925583,0.27030438,-0.2123571,1.4383696,0.5615782,1.235017,0.4091237,0.96321696,0.856999,-0.4561673
0.2,0.1,1.2999999999999998,0.0,0.0,0,-1.0383427,0.19924727,-1.28598,-0.05539583,-0.31720564,0.27199396,-0.22305806,1.4362292,0.73183066,1.2412698,0.41261825,0.95390415,0.8395749,-0.5053686
0.2,0.1,1.2999999999999998,0.0,0.0,0,-1.0319935,0.19425611,-1.2857957,-0.062800266,-0.30057842,0.27721927,-0.31018838,1.4625685,0.7334331,1.2305229,0.4125199,1.0103861,0.83631015,-0.5189705
0.2,0.1,1.2999999999999998,0.0,0.0,0,-1.0345002,0.19480644,-1.3026426,-0.058612656,-0.31992966,0.2752887,-0.25459626,1.4393883,0.53944576,1.2228026,0.41578662,0.9395979,0.8341362,-0.38445854
0.2,0.1,1.2999999999999998,0.0,0.0,0,-1.0033095,0.19919537,-1.3121082,-0.060989793,-0.28642666,0.27129716,-0.2229269,1.4127932,0.65073675,1.2283583,0.40568203,0.9250706,0.89454216,-0.6686743
0.2,0.1,1.2999999999999998,0.0,0.0,0,-1.0202698,0.19498496,-1.2945783,-0.05467138,-0.28899375,0.26635775,-0.17944287,1.4454318,0.5225442,1.2182293,0.43195897,1.0023339,0.8564096,-0.53650343
0.2,0.1,1.2999999999999998,0.0,0.0,0,-1.0058408,0.19441459,-1.3046956,-0.056252833,-0.31576362,0.26960018,-0.19009581,1.4054558,0.8248057,1.2391019,0.4118156,0.899828,0.87357754,-0.5420398
0.2,0.1,1.2999999999999998,0.0,0.0,0,-1.0115672,0.19594766,-1.2964017,-0.05950115,-0.30733934,0.26330253,-0.27202252,1.4338887,0.7149137,1.224707,0.40307915,0.88733363,0.8680837,-0.48507953
0.2,0.1,1.2999999999999998,0.0,0.0,0,-1.0104975,0.1976925,-1.288365,-0.056013413,-0.3441082,0.2686907,-0.2483458,1.4496741,0.6114971,1.253048,0.40701738,0.9452972,0.8504045,-0.6013636
0.2,0.1,1.2999999999999998,0.0,0.0,0,-1.0328205,0.1970862,-1.2950476,-0.05729375,-0.33987394,0.26403093,-0.18746914,1.4419624,0.65048987,1.238885,0.42480677,0.9838553,0.8627779,-0.58716065
0.2,0.1,1.2999999999999998,0.0,0.0,0,-1.0251877,0.19543533,-1.2973051,-0.059688,-0.33983025,0.27061585,-0.18156517,1.4291499,0.52455145,1.2211802,0.4282287,1.023722,0.8584438,-0.41220784
0.2,0.1,1.2999999999999998,0.0,0.0,0,-1.0134192,0.19430387,-1.294723,-0.059306767,-0.30178854,0.26890504,-0.25962496,1.4214975,0.7330897,1.2238393,0.41982302,0.9538903,0.8731926,-0.7213495
0.2,0.1,1.2999999999999998,0.0,0.0,0,-1.0212244,0.19619471,-1.2957536,-0.057465266,-0.3398238,0.2767046,-0.22707003,1.4346529,0.5959125,1.2330513,0.41228336,0.9671415,0.8667814,-0.7173176
0.2,0.1,1.2999999999999998,0.0,0.0,0,-1.0078202,0.19488485,-1.2978885,-0.059614595,-0.2984727,0.27604246,-0.2340928,1.4352196,0.66099155,1.2279886,0.41184032,0.96797127,0.85557276,-0.55813575
0.2,0.1,1.2999999999999998,0.0,0.0,0,-1.012844,0.19348978,-1.2926536,-0.06289212,-0.32847553,0.25970078,-0.29512334,1.4335473,0.55186266,1.2339697,0.4158235,0.9540413,0.86304736,-0.53304523
0.2,0.1,1.2999999999999998,0.0,0.0,0,-1.023949,0.19304131,-1.3125459,-0.0639706,-0.35931408,0.26561642,-0.24569172,1.4277949,0.60361594,1.2301873,0.42635664,0.9247425,0.88132125,-0.77892303
0.2,0.1,1.2999999999999998,0.0,0.0,0,-1.0281934,0.19766383,-1.294482,-0.060751006,-0.33810425,0.27247283,-0.20269962,1.4497534,0.6609184,1.226893,0.41987857,0.96893156,0.86438286,-0.6213269
0.2,0.1,1.2999999999999998,0.0,0.0,0,-1.021085,0.19924128,-1.2847229,-0.057630885,-0.31371677,0.26997945,-0.2511095,1.4623293,0.85454625,1.2199402,0.39199767,0.946236,0.86670065,-0.54949045
0.2,0.1,1.2999999999999998,0.0,0.0,0,-1.0148706,0.20311637,-1.2982291,-0.056804575,-0.34318376,0.27556366,-0.16650963,1.4148339,0.5358738,1.2146642,0.42744878,1.0515636,0.88119584,-0.52099025
0.2,0.1,1.2999999999999998,0.0,0.0,0,-1.0052087,0.19176126,-1.3048283,-0.05771776,-0.34746584,0.2728474,-0.24184644,1.4476343,0.7660144,1.2319756,0.40921816,0.96150625,0.8636458,-0.5155378
0.2,0.1,1.2999999999999998,0.0,0.0,0,-1.0121868,0.19688895,-1.2966216,-0.057160914,-0.30099687,0.2614683,-0.23201576,1.4630046,0.6219495,1.2245502,0.4045459,1.0197718,0.89008385,-0.6266346
0.2,0.1,1.2999999999999998,0.0,0.0,0,-1.0277508,0.1935498,-1.2884947,-0.057503514,-0.2821677,0.27009776,-0.22222069,1.415525,0.61596245,1.2262725,0.40838,0.8966521,0.8515177,-0.524796
0.2,0.1,1.2999999999999998,0.0,0.0,0,-1.0204594,0.19483939,-1.2871519,-0.0647313,-0.33905816,0.26264918,-0.29298905,1.4422178,0.72858226,1.2231239,0.40774882,1.0363696,0.9109587,-0.4838596
0.2,0.1,1.2999999999999998,0.0,0.0,0,-1.0039139,0.19496807,-1.3026862,-0.05483542,-0.34117496,0.26770613,-0.24856761,1.433749,0.67749596,1.2350113,0.40843338,0.95261854,0.84767354,-0.5054518
0.2,0.1,1.2999999999999998,0.0,0.0,0,-1.0228281,0.19614048,-1.3026441,-0.05846768,-0.31181392,0.267652,-0.332766,1.429685,0.6364797,1.2217399,0.420444,0.9750435,0.8646212,-0.3936303
0.2,0.1,1.2999999999999998,0.0,0.0,0,-1.0277072,0.1987529,-1.3108908,-0.058234684,-0.33142236,0.25423655,-0.23840465,1.4632201,0.66197115,1.2406701,0.3994795,0.9518154,0.8873304,-0.5936313
0.2,0.1,1.2999999999999998,0.0,0.0,0,-1.023404,0.19989075,-1.3064492,-0.05919739,-0.28435385,0.27938104,-0.29247546,1.4616276,0.62843657,1.2294707,0.41790134,1.0403459,0.84478295,-0.4889568
0.2,0.1,1.2999999999999998,0.0,0.0,0,-1.0171454,0.19566928,-1.2991259,-0.058386993,-0.3274912,0.26553133,-0.20253313,1.4562589,0.6815446,1.2319912,0.4031917,0.99919987,0.90199584,-0.5623117
0.2,0.1,1.2999999999999998,0.0,0.0,0,-1.0105962,0.19318505,-1.3002083,-0.057866544,-0.31529167,0.26891094,-0.21931846,1.4207995,0.78437376,1.222046,0.4154763,0.96295804,0.8913071,-0.6048939
0.2,0.1,1.2999999999999998,0.0,0.0,0,-1.0128223,0.1947788,-1.317021,-0.059209425,-0.30850342,0.28760356,-0.1817494,1.4293981,0.73437214,1.2337149,0.43107608,0.91981554,0.841206,-0.4219783
0.2,0.1,1.2999999999999998,0.0,0.0,0,-1.0209357,0.19306213,-1.2814406,-0.05719592,-0.34483087,0.2678285,-0.1599794,1.4616284,0.819922,1.2193516,0.41245982,0.9549889,0.8666115,-0.44190654
0.2,0.1,1.2999999999999998,0.0,0.0,0,-1.0181314,0.19750169,-1.3097882,-0.05768099,-0.34249967,0.2752742,-0.20667657,1.441947,0.6800183,1.2210228,0.4012773,0.8954279,0.8451881,-0.61669827
0.2,0.1,1.2999999999999998,0.0,0.0,0,-1.02203,0.19818792,-1.2913677,-0.058568507,-0.31660745,0.27043602,-0.233828,1.3993782,0.71654016,1.2259414,0.41913125,0.93872386,0.87361413,-0.58271056
0.2,0.1,1.2999999999999998,0.0,0.0,0,-1.0321732,0.19752507,-1.2882038,-0.060465973,-0.32629165,0.2731502,-0.18175307,1.4395599,0.6686332,1.2188456,0.4121743,0.9368124,0.8577985,-0.60721034
0.2,0.1,1.2999999999999998,0.0,0.0,0,-1.0199015,0.20052738,-1.2822837,-0.06145818,-0.31184405,0.27378297,-0.25146422,1.4317201,0.7084459,1.2238286,0.4142612,0.9570528,0.866603,-0.6356548
0.2,0.1,1.2999999999999998,0.0,0.0,0,-1.0069444,0.19757105,-1.3129983,-0.057770405,-0.3340493,0.27478996,-0.20831099,1.4506263,0.5656547,1.2265326,0.41072038,0.93283945,0.8517407,-0.63040096
0.2,0.1,1.2999999999999998,0.0,0.0,0,-1.00663,0.19686851,-1.2953026,-0.05351999,-0.3156115,0.26523975,-0.18523422,1.4676044,0.70542926,1.2196854,0.4111843,0.99923795,0.8362813,-0.48205703
0.2,0.1,1.2999999999999998,0.0,0.0,0,-1.0210283,0.19965523,-1.2976937,-0.060809843,-0.33946642,0.26672307,-0.2156549,1.4461718,0.6399109,1.2310482,0.40495694,0.9819963,0.8546073,-0.46722904
0.2,0.1,1.2999999999999998,0.0,0.0,0,-1.0190855,0.19625658,-1.290606,-0.06236693,-0.33446354,0.27682236,-0.25801224,1.4549599,0.71593565,1.229342,0.42601687,0.9969047,0.81929964,-0.51630867
0.2,0.1,1.2999999999999998,0.0,0.0,0,-1.0162238,0.19636531,-1.306206,-0.057363596,-0.2993003,0.26683006,-0.21073657,1.4552083,0.7444548,1.2334657,0.4159095,0.91404414,0.8497558,-0.61487216
0.2,0.1,1.2999999999999998,0.0,0.0,0,-1.0146924,0.19546746,-1.2996441,-0.05899439,-0.33549875,0.273012,-0.25455916,1.4513518,0.6352185,1.233497,0.40501276,0.9625142,0.86646914,-0.61998683
0.2,0.1,1.2999999999999998,0.0,0.0,0,-1.0168579,0.19579896,-1.3009958,-0.056901395,-0.3243948,0.2509428,-0.17715584,1.4556508,0.6994382,1.226014,0.4165736,0.9772386,0.8781101,-0.5416417
0.2,0.1,1.2999999999999998,0.0,0.0,0,-1.0194813,0.1915699,-1.2815379,-0.05313319,-0.31114233,0.2599036,-0.23275827,1.4482433,0.5791112,1.2340592,0.41407737,0.9084032,0.8217816,-0.4875449
0.2,0.1,1.2999999999999998,0.0,0.0,0,-1.0135479,0.19181696,-1.3009893,-0.053170595,-0.30556008,0.26080298,-0.20836847,1.4515141,0.7253214,1.2322603,0.41125602,0.986673,0.9019018,-0.5625943
0.2,0.1,1.2999999999999998,0.0,0.0,0,-0.9941288,0.19609125,-1.3006235,-0.065565996,-0.300253,0.27568135,-0.21394089,1.4320983,0.65661854,1.2199191,0.41110566,0.9991768,0.8488718,-0.5456511
0.2,0.1,1.2999999999999998,0.0,0.0,0,-1.0153427,0.19515362,-1.2993239,-0.055228584,-0.3689225,0.26339638,-0.19853802,1.4388534,0.6236807,1.2314026,0.4031819,0.9814086,0.8558344,-0.45423278
0.2,0.1,1.2999999999999998,0.0,0.0,0,-1.0184733,0.19651845,-1.314604,-0.060802728,-0.324966,0.27869576,-0.23814058,1.4273931,0.58671284,1.2244078,0.41499534,0.9660423,0.85721,-0.5255428
0.2,0.1,1.2999999999999998,0.0,0.0,0,-1.0338113,0.20059107,-1.2800751,-0.057175394,-0.31467068,0.2547293,-0.28801063,1.4390314,0.62156,1.2249119,0.40951198,0.9413812,0.86134815,-0.6524703
0.2,0.1,1.2999999999999998,0.0,0.0,0,-1.0272404,0.19167155,-1.3020782,-0.05689876,-0.31611228,0.2729329,-0.24657793,1.4393188,0.5773072,1.2342036,0.41731924,0.97840667,0.86902577,-0.54180557
0.2,0.1,1.2999999999999998,0.0,0.0,0,-1.0345354,0.19588809,-1.2816261,-0.05641857,-0.32053465,0.25979137,-0.28124708,1.4463015,0.65372103,1.2267996,0.413051,0.93820983,0.8500487,-0.5535592
0.2,0.1,1.2999999999999998,0.0,0.0,0,-1.0124272,0.19216487,-1.2841386,-0.05807478,-0.35145506,0.26259252,-0.2141567,1.4374145,0.6610431,1.2392374,0.40766945,0.98460543,0.8833417,-0.5716034
0.2,0.1,1.2999999999999998,0.0,0.0,0,-1.0175978,0.195257,-1.2970339,-0.05793513,-0.31672895,0.27403638,-0.15316279,1.4217612,0.6518033,1.2430801,0.422989,0.98940444,0.88739425,-0.68636817
0.2,0.1,1.2999999999999998,0.0,0.0,0,-1.0013285,0.19807751,-1.3092543,-0.058710583,-0.32276097,0.26562035,-0.25181362,1.4581114,0.6603869,1.2413195,0.4086871,1.0213816,0.8359974,-0.34267607
0.2,0.1,1.2999999999999998,0.0,0.0,0,-1.0091519,0.19569132,-1.3075118,-0.057623625,-0.30764556,0.26697028,-0.19752127,1.4201325,0.72043324,1.2255024,0.4022578,0.9379183,0.8988708,-0.47480813
0.2,0.1,1.2999999999999998,0.0,0.0,0,-1.0050987,0.19150344,-1.3060577,-0.06101552,-0.318802,0.26695797,-0.26493022,1.4137297,0.71325994,1.2220346,0.42771763,0.94048494,0.8584249,-0.6454245
0.2,0.1,1.2999999999999998,0.0,0.0,0,-1.0071754,0.19791773,-1.2991722,-0.060695007,-0.3129672,0.267391,-0.2798554,1.4245884,0.7078346,1.2212466,0.41108942,0.987162,0.886113,-0.53084093
0.2,0.1,1.2999999999999998,0.0,0.0,0,-1.0370828,0.1973195,-1.3021593,-0.058149073,-0.32940012,0.2718975,-0.23414318,1.4627708,0.66733176,1.2245274,0.41012597,1.0070505,0.8755249,-0.40867195
0.2,0.1,1.2999999999999998,0.0,0.0,0,-1.0079677,0.19555338,-1.2943466,-0.05693841,-0.32854474,0.2756399,-0.26702908,1.4357291,0.65750885,1.2345471,0.40976986,1.0252057,0.8640618,-0.4275833
0.2,0.1,1.2999999999999998,0.0,0.0,0,-1.0081463,0.19194709,-1.3069669,-0.062159788,-0.28213695,0.2562433,-0.30306545,1.4538192,0.62522924,1.2314857,0.4209648,0.9708734,0.8600976,-0.563491
0.2,0.1,1.2999999999999998,0.0,0.0,0,-1.0149925,0.19704093,-1.2901365,-0.056714065,-0.27520373,0.26944426,-0.2075376,1.4273472,0.7012392,1.2271569,0.40642792,0.94579035,0.8528068,-0.57909274
0.2,0.1,1.2999999999999998,0.0,0.0,0,-1.0225165,0.19509402,-1.3007138,-0.057847753,-0.32061002,0.26608324,-0.24813914,1.4609792,0.71177006,1.2411351,0.42623883,1.0637541,0.8604014,-0.6132669
0.2,0.1,1.2999999999999998,0.0,0.0,0,-1.0271022,0.1964463,-1.2940797,-0.058747493,-0.33409485,0.2711388,-0.19429445,1.4768952,0.78061897,1.2212317,0.415866,0.9276102,0.8382718,-0.6443644
0.2,0.1,1.2999999999999998,0.0,0.0,0,-1.0282552,0.19622323,-1.3074906,-0.05666517,-0.3343539,0.26798037,-0.1724175,1.4479932,0.5857168,1.2396947,0.41176555,0.9790072,0.8676536,-0.45555606
0.2,0.1,1.2999999999999998,0.0,0.0,0,-1.0328631,0.19005126,-1.3122056,-0.059484866,-0.34451795,0.2714456,-0.18021154,1.4300902,0.74192196,1.2276796,0.4116221,0.94644684,0.86349916,-0.6143996
0.2,0.1,1.2999999999999998,0.0,0.0,0,-1.0187683,0.19573739,-1.2769711,-0.058099277,-0.33923027,0.26147953,-0.2323237,1.4328555,0.72341156,1.2252166,0.42033833,0.9480837,0.8369138,-0.63409865
0.2,0.1,1.2999999999999998,0.0,0.0,0,-1.0167887,0.19857267,-1.2997243,-0.057213813,-0.33181024,0.27219623,-0.18354896,1.4285283,0.6322572,1.2274264,0.414588,1.0252823,0.88484174,-0.61763954
0.2,0.1,1.2999999999999998,0.0,0.0,0,-1.023969,0.19883287,-1.2915888,-0.06040087,-0.34920806,0.25997767,-0.21646576,1.4325618,0.7393365,1.2369232,0.41135088,0.87565744,0.82490927,-0.45391035
0.2,0.1,1.2999999999999998,0.0,0.0,0,-0.99927384,0.19637978,-1.3024249,-0.05825828,-0.30257317,0.2653953,-0.17186567,1.4511154,0.6450581,1.232061,0.40717825,0.97224885,0.87213016,-0.57956386
0.2,0.1,1.2999999999999998,0.0,0.0,0,-1.015982,0.1949124,-1.310981,-0.059494577,-0.31933904,0.2712351,-0.22175883,1.4433789,0.63282937,1.2234963,0.40864,0.9424354,0.86284906,-0.5656676
0.2,0.1,1.2999999999999998,0.0,0.0,0,-1.0064859,0.19436154,-1.3127551,-0.055127088,-0.3327765,0.2785452,-0.3062732,1.407226,0.68953425,1.2403705,0.433317,1.0107768,0.85167557,-0.41258636
0.2,0.1,1.2999999999999998,0.0,0.0,0,-1.0140445,0.19274944,-1.3139588,-0.05728137,-0.33641544,0.27306473,-0.1723415,1.4487875,0.6822066,1.2225913,0.40426755,0.997175,0.8782689,-0.45330316
0.2,0.1,1.2999999999999998,0.0,0.0,0,-1.0126667,0.19476093,-1.3044312,-0.053434223,-0.32324636,0.26638404,-0.17789432,1.4338962,0.73080486,1.228681,0.42075804,0.98435944,0.8748783,-0.6091843
0.2,0.1,1.2999999999999998,0.0,0.0,0,-1.0290139,0.19417135,-1.2983865,-0.05481081,-0.325652,0.27884734,-0.19111404,1.4599742,0.7900518,1.2198087,0.41782585,0.9047248,0.8465579,-0.4417511
0.2,0.1,1.2999999999999998,0.0,0.0,0,-1.0164179,0.19650659,-1.3019611,-0.054032423,-0.31674418,0.26889947,-0.20177604,1.4062515,0.63329715,1.2401881,0.425527,0.9714127,0.8566798,-0.6109928
0.2,0.1,1.2999999999999998,0.0,0.0,0,-1.0121896,0.19674727,-1.3115872,-0.06271777,-0.33764064,0.26172972,-0.23149648,1.4537423,0.63270414,1.2358363,0.40658745,0.9547094,0.84759814,-0.56043136
0.2,0.1,1.2999999999999998,0.0,0.0,0,-1.0250845,0.1969363,-1.2900788,-0.055981096,-0.3274559,0.26801997,-0.19352409,1.4279293,0.6605105,1.2277685,0.41831264,0.98691326,0.85495645,-0.5916733
0.2,0.1,1.2999999999999998,0.0,0.0,0,-1.0244498,0.19400525,-1.2888815,-0.059267048,-0.3291036,0.25881308,-0.16713609,1.4366949,0.63759995,1.2425108,0.4177612,0.960898,0.87283295,-0.60216963
0.2,0.1,1.2999999999999998,0.0,0.0,0,-1.0169752,0.19918042,-1.2953926,-0.05988679,-0.3127048,0.2703568,-0.21511252,1.4604232,0.6043444,1.2369714,0.41016805,1.0369068,0.8569275,-0.5688316
0.2,0.1,1.2999999999999998,0.0,0.0,0,-1.0046651,0.19461173,-1.2976876,-0.062617026,-0.35718566,0.27382562,-0.2312657,1.4375662,0.5984454,1.2238858,0.39823982,0.8727871,0.82580924,-0.5443666
0.2,0.1,1.2999999999999998,0.0,0.0,0,-1.0132674,0.19845219,-1.2914498,-0.055634383,-0.30580595,0.28472367,-0.23363702,1.4414134,0.5066632,1.2357315,0.41466284,0.9644546,0.86144286,-0.6910879
0.2,0.1,1.2999999999999998,0.0,0.0,0,-1.0301342,0.19664402,-1.2861112,-0.05541236,-0.31034696,0.26899114,-0.20280463,1.4551259,0.5533895,1.2291267,0.4112563,0.99521565,0.8915165,-0.79256606
0.2,0.1,1.2999999999999998,0.0,0.0,0,-1.0239877,0.19715346,-1.3082017,-0.056400713,-0.30694267,0.26220903,-0.23035528,1.4510835,0.6432252,1.245103,0.40891123,0.9762289,0.86902255,-0.5713298
0.2,0.1,1.2999999999999998,0.0,0.0,0,-1.0359842,0.19161795,-1.2962171,-0.057973824,-0.3466804,0.2781756,-0.20872664,1.4477456,0.62886864,1.2250133,0.41610435,1.0029147,0.87278026,-0.61759174
0.2,0.1,1.2999999999999998,0.0,0.0,0,-1.0174311,0.19130477,-1.2845671,-0.06327639,-0.30713692,0.27713197,-0.25133052,1.4602875,0.61140764,1.2315738,0.40681097,0.95768124,0.84099823,-0.56198376
0.2,0.1,1.2999999999999998,0.0,0.0,0,-1.0284971,0.19613563,-1.2880061,-0.056685094,-0.32024252,0.2776855,-0.31198192,1.4199102,0.693236,1.2154453,0.40426868,0.93418765,0.8731121,-0.569301
0.2,0.1,1.2999999999999998,0.0,0.0,0,-1.0378008,0.19226518,-1.3113548,-0.0592273,-0.2818483,0.26895514,-0.22309075,1.4452726,0.7714696,1.244396,0.42794454,0.99621797,0.86250335,-0.5943178
0.2,0.1,1.2999999999999998,0.0,0.0,0,-1.0021671,0.19250824,-1.2964771,-0.058168653,-0.32766,0.26790762,-0.25791582,1.4504002,0.65328026,1.2267061,0.41086155,1.0005172,0.87417454,-0.64953357
0.2,0.1,1.2999999999999998,0.0,0.0,0,-1.0087682,0.1958572,-1.2976086,-0.057408974,-0.32801652,0.27666575,-0.21638748,1.4761134,0.6452985,1.2225897,0.41206208,0.99263495,0.84642744,-0.6384817
0.2,0.1,1.2999999999999998,0.0,0.0,0,-1.0080955,0.19619144,-1.303806,-0.05824623,-0.31376866,0.26723227,-0.23288584,1.4500945,0.69914144,1.2211264,0.40913108,1.0099982,0.85896236,-0.3946245
0.2,0.1,1.2999999999999998,0.0,0.0,0,-1.0134947,0.19191453,-1.2986225,-0.057597917,-0.3185141,0.261349,-0.27317694,1.4129479,0.600618,1.2233087,0.42372403,0.97837067,0.8757073,-0.6329538
0.2,0.1,1.2999999999999998,0.0,0.0,0,-1.0065364,0.19113623,-1.2987323,-0.060478475,-0.3498117,0.25712392,-0.22518754,1.4172174,0.67336744,1.2397134,0.41975522,0.9277181,0.8475339,-0.56573206
0.2,0.1,1.2999999999999998,0.0,0.0,0,-1.0415195,0.19737908,-1.2989062,-0.0627269,-0.2832491,0.2809908,-0.24279879,1.4273747,0.6562122,1.2378331,0.42525363,1.0099523,0.86823004,-0.61056286
0.2,0.1,1.2999999999999998,0.0,0.0,0,-1.0193437,0.19765867,-1.27847,-0.06127405,-0.3466834,0.2648067,-0.19699313,1.42421,0.61611265,1.2400218,0.41004515,1.0598302,0.8770423,-0.5077514
0.2,0.1,1.2999999999999998,0.0,0.0,0,-1.0313284,0.19439727,-1.2835891,-0.058422472,-0.3074566,0.2747487,-0.15456915,1.4207642,0.62734103,1.2608911,0.39848483,0.967351,0.86289567,-0.49688923
0.2,0.1,1.2999999999999998,0.0,0.0,0,-1.0103073,0.19610137,-1.2913449,-0.05890173,-0.32404608,0.27576923,-0.15591308,1.4556065,0.64982873,1.2265781,0.40383506,1.0267572,0.8508578,-0.47216046
0.2,0.1,1.2999999999999998,0.0,0.0,0,-1.020609,0.19328699,-1.3013716,-0.05099957,-0.29042602,0.26059598,-0.24311379,1.4279,0.5798017,1.231605,0.40711755,0.9277105,0.8493882,-0.6500191
0.2,0.1,1.2999999999999998,0.0,0.0,0,-0.9959437,0.19658618,-1.2964263,-0.05929331,-0.3187404,0.27389213,-0.29917565,1.4381208,0.6793363,1.2215378,0.41911718,0.939321,0.8406517,-0.6697336
0.2,0.1,1.2999999999999998,0.0,0.0,0,-1.0197042,0.19595414,-1.2829479,-0.056515243,-0.2725418,0.26281202,-0.22941673,1.4245574,0.62617046,1.23047,0.425493,1.0361799,0.8389752,-0.51797146
0.2,0.1,1.2999999999999998,0.0,0.0,0,-1.0132574,0.19668522,-1.2993634,-0.05584064,-0.32912,0.26571247,-0.23101366,1.4330958,0.74349964,1.2231771,0.40815684,0.9462073,0.85985243,-0.6230308
0.2,0.1,1.2999999999999998,0.0,0.0,0,-1.0321364,0.19400087,-1.2983818,-0.06206762,-0.29439986,0.28224903,-0.2767346,1.4258661,0.58579737,1.2302833,0.414492,0.95680684,0.86126083,-0.67036957
0.2,0.1,1.2999999999999998,0.0,0.0,0,-1.0303208,0.19301778,-1.2864476,-0.06317727,-0.32685626,0.26640576,-0.23227744,1.4262745,0.6076441,1.2341388,0.40690032,0.9683982,0.8690419,-0.50253314
0.2,0.1,1.2999999999999998,0.0,0.0,0,-1.0271229,0.19590786,-1.3000989,-0.059870906,-0.34571278,0.26746285,-0.24206077,1.4428365,0.61632854,1.2316906,0.41300768,0.9444892,0.8255818,-0.5294462
0.2,0.1,1.2999999999999998,0.0,0.0,0,-1.0238777,0.19729146,-1.284493,-0.061522383,-0.35573775,0.26776722,-0.2374428,1.4485898,0.5779719,1.2300977,0.4124792,0.99717945,0.8238621,-0.49658135
0.2,0.1,1.2999999999999998,0.0,0.0,0,-1.0255083,0.19504216,-1.3003504,-0.059994522,-0.30651754,0.27694795,-0.2223842,1.4485974,0.5298973,1.2369783,0.411609,0.95021236,0.85092366,-0.69264835
0.2,0.1,1.2999999999999998,0.0,0.0,0,-1.0202392,0.19738375,-1.2974265,-0.05717729,-0.31839898,0.26487795,-0.23954532,1.421436,0.60387814,1.2230418,0.42783552,1.0432827,0.8585755,-0.60434955
0.2,0.1,1.2999999999999998,0.0,0.0,0,-1.0015388,0.18908662,-1.3014444,-0.054000363,-0.3501121,0.28017125,-0.1679766,1.4460657,0.7869664,1.233773,0.41907477,1.0009873,0.85831153,-0.6714699
0.2,0.1,1.2999999999999998,0.0,0.0,0,-1.0105623,0.19434649,-1.3022817,-0.056392852,-0.32716036,0.25687134,-0.28640237,1.4321992,0.5423188,1.2289498,0.42452255,1.0521429,0.8428689,-0.45317224
0.2,0.1,1.2999999999999998,0.0,0.0,0,-1.0261068,0.19220069,-1.2840545,-0.05804488,-0.351771,0.26584974,-0.1765769,1.4376928,0.62023675,1.2411077,0.4059672,1.0254097,0.8415102,-0.47065613
0.2,0.1,1.2999999999999998,0.0,0.0,0,-1.0133964,0.19835305,-1.2975464,-0.05839295,-0.3494542,0.27358702,-0.23799492,1.4213834,0.71816605,1.2261627,0.41970298,0.9280818,0.82931983,-0.48651224
0.2,0.1,1.2999999999999998,0.0,0.0,0,-1.0144632,0.19800955,-1.3078641,-0.05604511,-0.29058805,0.2684344,-0.20754763,1.4576027,0.62029225,1.2230783,0.4029802,0.9961429,0.8729899,-0.62063164
0.2,0.1,1.2999999999999998,0.0,0.0,0,-1.0159986,0.19545315,-1.2842425,-0.05861934,-0.31088307,0.26818055,-0.22894289,1.4466335,0.66292065,1.2276286,0.41302082,1.0151778,0.853115,-0.66437596
0.2,0.1,1.2999999999999998,0.0,0.0,0,-1.0162592,0.19237958,-1.3016227,-0.057643957,-0.33128676,0.26965168,-0.23033118,1.4268316,0.6996218,1.2288636,0.40884462,0.9320046,0.8541361,-0.57779443
0.2,0.1,1.2999999999999998,0.0,0.0,0,-1.0194217,0.200268,-1.2907404,-0.062160585,-0.31035632,0.26652718,-0.26450205,1.3944769,0.69553053,1.2284409,0.4251282,0.9743558,0.8626238,-0.5777521
0.2,0.1,1.2999999999999998,0.0,0.0,0,-1.0268829,0.19539523,-1.291831,-0.05475144,-0.33110788,0.270022,-0.27537206,1.4817146,0.71952194,1.2319744,0.40595627,1.0552336,0.85028386,-0.4480832
0.2,0.1,1.2999999999999998,0.0,0.0,0,-1.0090767,0.193118,-1.2936053,-0.058589872,-0.33074945,0.26010564,-0.23087567,1.4303886,0.6703098,1.2383721,0.42332911,0.9409619,0.8280863,-0.5943925
0.2,0.1,1.2999999999999998,0.0,0.0,0,-1.0390807,0.19875775,-1.2862612,-0.049570434,-0.28167114,0.26039603,-0.21708564,1.431914,0.6455631,1.2234434,0.40637866,0.9585165,0.8886803,-0.62309736
0.2,0.1,1.2999999999999998,0.0,0.0,0,-1.0244291,0.1975616,-1.2949243,-0.05494408,-0.34184447,0.25861436,-0.26684484,1.4347283,0.76483005,1.2264857,0.4100642,0.96819836,0.8738693,-0.5092371
0.2,0.1,1.2999999999999998,0.0,0.0,0,-0.9998504,0.19326715,-1.3107449,-0.058990378,-0.30711877,0.26656023,-0.31512097,1.4289418,0.6022441,1.2162263,0.39695778,0.98895687,0.88966846,-0.58398765
0.2,0.1,1.2999999999999998,0.0,0.0,0,-1.0341595,0.19365628,-1.2854264,-0.057100877,-0.32412082,0.27040213,-0.23818578,1.4319341,0.63014007,1.2410827,0.41300628,0.9953986,0.86711884,-0.63675493
0.2,0.1,1.2999999999999998,0.0,0.0,0,-1.0211107,0.19674283,-1.2923878,-0.053203247,-0.32069308,0.27443063,-0.27460852,1.4265609,0.60661983,1.2241294,0.41365805,0.9748908,0.85719436,-0.5407091
0.2,0.1,1.2999999999999998,0.0,0.0,0,-1.0281743,0.19850978,-1.2793559,-0.05842142,-0.3214265,0.27429256,-0.17797132,1.4505408,0.5919246,1.2266754,0.40797234,1.0056326,0.8382258,-0.4752685
0.2,0.1,1.2999999999999998,0.0,0.0,0,-1.0295469,0.19037868,-1.2714032,-0.058311272,-0.34455058,0.27069154,-0.23074713,1.4470155,0.8214196,1.2296479,0.41836864,1.0700601,0.87714905,-0.57783777
0.2,0.1,1.2999999999999998,0.0,0.0,0,-1.0342592,0.19404346,-1.3098922,-0.05481513,-0.31672707,0.25804874,-0.26463643,1.4053233,0.56400776,1.224638,0.40509924,0.8281588,0.8426093,-0.5791228
0.2,0.1,1.2999999999999998,0.0,0.0,0,-1.029504,0.18864119,-1.2708348,-0.05507909,-0.2893861,0.26560783,-0.27981812,1.4370421,0.5686647,1.2307546,0.41093856,1.0326275,0.8499753,-0.4221194
0.2,0.1,1.2999999999999998,0.0,0.0,0,-1.0375925,0.20275721,-1.2892485,-0.063098356,-0.3254513,0.2675601,-0.2493218,1.4457054,0.6437118,1.2389579,0.40213975,1.0062233,0.8439916,-0.52429
0.2,0.1,1.2999999999999998,0.0,0.0,0,-1.0295196,0.20214386,-1.3044924,-0.061628778,-0.3723414,0.2666311,-0.21087141,1.4256438,0.67515343,1.2377083,0.4077365,1.0593647,0.8751328,-0.4616575
0.2,0.1,1.2999999999999998,0.0,0.0,0,-1.0432149,0.19590637,-1.304695,-0.055489797,-0.32885897,0.2681481,-0.27748036,1.4409281,0.6512161,1.2369268,0.4274785,0.9324263,0.85723966,-0.7928521
0.2,0.1,1.2999999999999998,0.0,0.0,0,-1.0045614,0.19583446,-1.2831309,-0.057301518,-0.332023,0.2699549,-0.26655307,1.4045582,0.6456258,1.2368581,0.4181265,0.9873467,0.8412943,-0.43350992
0.2,0.1,1.2999999999999998,0.0,0.0,0,-1.0204327,0.19941106,-1.2974081,-0.05887547,-0.29662842,0.27256453,-0.17968728,1.479009,0.6459744,1.233415,0.41625974,1.0774711,0.8403515,-0.5505662
0.2,0.1,1.2999999999999998,0.0,0.0,0,-1.0074459,0.19669698,-1.303505,-0.05747963,-0.35685176,0.27017254,-0.21577191,1.4410794,0.72863287,1.2286721,0.41731733,0.975825,0.82962537,-0.5712868
0.2,0.1,1.2999999999999998,0.0,0.0,0,-1.0365849,0.19866674,-1.2745185,-0.05608625,-0.29048687,0.2726172,-0.235814,1.4416068,0.65752435,1.2393026,0.39959717,0.95015615,0.8445629,-0.5800548
0.2,0.1,1.2999999999999998,0.0,0.0,0,-1.0181348,0.1964328,-1.2835305,-0.060553484,-0.34796256,0.2630918,-0.25747523,1.4424028,0.65753675,1.2411631,0.41157246,0.9962571,0.8536528,-0.62966216
0.2,0.1,1.2999999999999998,0.0,0.0,0,-1.0203209,0.19716094,-1.2921878,-0.055454385,-0.34209087,0.27610323,-0.21729483,1.4333812,0.5460902,1.2276386,0.39841586,0.9514101,0.86261606,-0.62563777
0.2,0.1,1.2999999999999998,0.0,0.0,0,-1.0116305,0.19543883,-1.3132955,-0.058359616,-0.32143474,0.27154636,-0.22606029,1.4272052,0.70855606,1.2226449,0.41110307,0.98202205,0.8845806,-0.70898545
0.2,0.1,1.2999999999999998,0.0,0.0,0,-1.0207862,0.19884762,-1.3144372,-0.05529815,-0.30752647,0.2653863,-0.2233005,1.4486848,0.63418174,1.2449093,0.40887868,1.0566356,0.88217825,-0.55615777
0.2,0.1,1.2999999999999998,0.0,0.0,0,-1.0111941,0.19477737,-1.2961394,-0.05760728,-0.33624342,0.2638025,-0.15659505,1.4155862,0.7067305,1.2327754,0.4143943,0.97420996,0.8544883,-0.59772104
0.2,0.1,1.2999999999999998,0.0,0.0,0,-1.0366871,0.20125769,-1.3131174,-0.06213835,-0.33907858,0.26913935,-0.20585673,1.4583228,0.6653982,1.2213287,0.4247946,1.0478292,0.84444606,-0.5184727
0.2,0.1,1.2999999999999998,0.0,0.0,0,-1.0228211,0.19967565,-1.306181,-0.05795664,-0.31085378,0.26685816,-0.23093873,1.438787,0.758425,1.2264143,0.42948443,1.0166097,0.84329045,-0.48705742
0.2,0.1,1.2999999999999998,0.0,0.0,0,-1.0390855,0.19633679,-1.3133564,-0.05694872,-0.32140726,0.26022723,-0.16073076,1.4586271,0.5050359,1.237374,0.43046048,0.95381624,0.8367812,-0.768969
0.2,0.1,1.2999999999999998,0.0,0.0,0,-1.0081826,0.1998451,-1.3007964,-0.056230836,-0.3277776,0.2736845,-0.16200253,1.4367027,0.7556403,1.2382898,0.39989704,0.94578135,0.8485064,-0.58058774
0.2,0.1,1.2999999999999998,0.0,0.0,0,-1.0361389,0.19786572,-1.2676667,-0.06257648,-0.30687717,0.26679635,-0.30051222,1.426964,0.67684036,1.2322103,0.42213356,1.0189277,0.85218537,-0.5567983
0.2,0.1,1.2999999999999998,0.0,0.0,0,-1.0214511,0.1963455,-1.280884,-0.056642745,-0.34088746,0.26440904,-0.2399912,1.4213549,0.6363475,1.2407511,0.40583932,1.0212865,0.8494566,-0.4573223
0.2,0.1,1.2999999999999998,0.0,0.0,0,-1.0236983,0.19465369,-1.293846,-0.058690984,-0.3394005,0.26930445,-0.24879026,1.418452,0.58813924,1.2504485,0.40828398,1.011919,0.8677139,-0.6007539
0.2,0.1,1.2999999999999998,0.0,0.0,0,-1.0304241,0.19921255,-1.2972444,-0.05958228,-0.30025098,0.26856986,-0.20787044,1.4196924,0.56011575,1.2424275,0.40858576,0.9857806,0.86340564,-0.5642557
0.2,0.1,1.2999999999999998,0.0,0.0,0,-1.0321282,0.19721116,-1.2876819,-0.059059516,-0.27435386,0.2686125,-0.26773003,1.4236976,0.676835,1.2389915,0.4304563,1.0229921,0.8370245,-0.55090296
0.2,0.1,1.2999999999999998,0.0,0.0,0,-1.0248004,0.19645537,-1.2780437,-0.06377476,-0.3278896,0.27446496,-0.25269717,1.4323057,0.72875524,1.2317632,0.41283864,0.95927966,0.8231537,-0.5148546
0.2,0.1,1.2999999999999998,0.0,0.0,0,-1.0301653,0.19766557,-1.2938417,-0.06026325,-0.31346133,0.26106423,-0.19207387,1.4437289,0.6630478,1.2401365,0.41049358,0.9953906,0.84985554,-0.5565326
0.2,0.1,1.2999999999999998,0.0,0.0,0,-1.0104768,0.19722903,-1.3046998,-0.057080574,-0.34515277,0.26619333,-0.21128201,1.4483049,0.6476878,1.2331026,0.41151696,0.9662372,0.83454233,-0.6618174
0.2,0.1,1.2999999999999998,0.0,0.0,0,-1.0115407,0.19772036,-1.2983916,-0.057482287,-0.3582527,0.27260414,-0.23052102,1.416951,0.6695916,1.2405732,0.40504465,1.0045385,0.85028666,-0.5427253
0.2,0.1,1.2999999999999998,0.0,0.0,0,-1.0098062,0.19373426,-1.3115066,-0.055313922,-0.3159504,0.2670142,-0.31295562,1.4530375,0.6726292,1.2225604,0.4131225,1.0168632,0.84890455,-0.6425873
0.2,0.1,1.2999999999999998,0.0,0.0,0,-1.0134377,0.1989679,-1.297958,-0.05962805,-0.33730784,0.2717619,-0.23682128,1.458165,0.80485344,1.2186788,0.41053593,0.99921685,0.86218745,-0.7643299
0.2,0.1,1.2999999999999998,0.0,0.0,0,-1.0263361,0.19629699,-1.277671,-0.058411863,-0.33054733,0.26445624,-0.24119243,1.45152,0.7444068,1.2364789,0.42415687,1.0752503,0.85452646,-0.6809232
0.2,0.1,1.2999999999999998,0.0,0.0,0,-1.0038033,0.19543451,-1.2960202,-0.057405524,-0.310733,0.2718013,-0.19327988,1.4464097,0.6952658,1.221722,0.41524816,0.9868066,0.8277315,-0.6476109
0.2,0.1,1.2999999999999998,0.0,0.0,0,-1.014203,0.20026118,-1.2806646,-0.0640094,-0.3409854,0.280986,-0.22462675,1.4423206,0.6204013,1.230389,0.4039272,1.000915,0.84174716,-0.5603299
0.2,0.1,1.2999999999999998,0.0,0.0,0,-1.0123799,0.19261703,-1.3020834,-0.06300018,-0.32244915,0.2655951,-0.23048618,1.4226776,0.64242274,1.2466884,0.42154256,1.0733315,0.87980586,-0.6266083
0.2,0.1,1.2999999999999998,0.0,0.0,0,-1.0229745,0.19499691,-1.2892249,-0.0596263,-0.32047105,0.26960728,-0.17917527,1.4194812,0.6369066,1.2153553,0.39696997,0.9329108,0.8635442,-0.5667226
0.2,0.1,1.2999999999999998,0.0,0.0,0,-1.025443,0.19775388,-1.2831821,-0.060922127,-0.2554143,0.26898852,-0.22723079,1.4168198,0.68898374,1.2318869,0.4284374,1.0491998,0.87091094,-0.700631
0.2,0.1,1.2999999999999998,0.0,0.0,0,-1.012738,0.19390124,-1.2827555,-0.056205705,-0.34423488,0.25205025,-0.20286584,1.4464557,0.6020499,1.2108265,0.41581514,0.9357387,0.8305923,-0.7730576
0.2,0.1,1.2999999999999998,0.0,0.0,0,-1.0096989,0.19485709,-1.2860305,-0.058625676,-0.31536353,0.2671684,-0.24686307,1.4423157,0.6632706,1.231391,0.39625424,0.9774743,0.8525096,-0.49159232
0.2,0.1,1.2999999999999998,0.0,0.0,0,-1.0166422,0.19583464,-1.2919528,-0.061816588,-0.29619938,0.2679686,-0.3207106,1.4368125,0.7051798,1.235322,0.40269116,0.9629089,0.8333813,-0.47744805
0.2,0.1,1.2999999999999998,0.0,0.0,0,-0.99295634,0.1952423,-1.2939909,-0.058225863,-0.34311035,0.26791385,-0.19942853,1.4511415,0.64223766,1.2135382,0.39123276,0.9677702,0.85438126,-0.6154666
0.2,0.1,1.2999999999999998,0.0,0.0,0,-1.0320828,0.19618574,-1.302407,-0.051627845,-0.30760697,0.26444727,-0.28575066,1.4472404,0.7039607,1.2388034,0.4083284,0.97725207,0.8505119,-0.65645975
0.2,0.1,1.2999999999999998,0.0,0.0,0,-0.9941065,0.19871287,-1.304779,-0.058353607,-0.2936352,0.272626,-0.17158385,1.4445405,0.73157996,1.2423391,0.41395092,1.0502048,0.8510812,-0.6165951
0.2,0.1,1.2999999999999998,0.0,0.0,0,-1.0139341,0.19048233,-1.2808148,-0.05992342,-0.28630033,0.27250236,-0.25413665,1.4282867,0.72061384,1.2365736,0.41467962,0.97059935,0.83431447,-0.69133
0.2,0.1,1.2999999999999998,0.0,0.0,0,-1.0243223,0.1938994,-1.3043234,-0.05281228,-0.292847,0.26899728,-0.26299226,1.4353673,0.6668811,1.232342,0.40604213,1.0567739,0.89140666,-0.52524376
0.2,0.1,1.2999999999999998,0.0,0.0,0,-1.0058407,0.19805093,-1.2815841,-0.06583565,-0.32946274,0.28196245,-0.27568075,1.4202709,0.61542445,1.2305074,0.39899492,0.98914057,0.8584205,-0.537778
0.2,0.1,1.2999999999999998,0.0,0.0,0,-1.0267265,0.19591391,-1.2956773,-0.0520024,-0.30765373,0.26433852,-0.29439324,1.4473766,0.74281013,1.2282221,0.41300637,0.99767977,0.84708285,-0.6095394
0.2,0.1,1.2999999999999998,0.0,0.0,0,-1.026491,0.19390053,-1.2786912,-0.058634277,-0.2966062,0.26538804,-0.25184855,1.4310604,0.7152294,1.2276032,0.41678336,0.9430752,0.82651126,-0.39909473
0.2,0.1,1.2999999999999998,0.0,0.0,0,-1.031093,0.20105463,-1.3172134,-0.05766162,-0.32735342,0.2527035,-0.2409548,1.4227264,0.5900201,1.2324398,0.40144452,0.980414,0.85925275,-0.5811226
0.2,0.1,1.2999999999999998,0.0,0.0,0,-1.0363181,0.19729081,-1.3095958,-0.059935708,-0.35406014,0.2631821,-0.25181764,1.4196682,0.70853984,1.2265097,0.41465035,0.99160415,0.8404563,-0.6308046
0.2,0.1,1.2999999999999998,0.0,0.0,0,-1.0125899,0.1953954,-1.293794,-0.056568604,-0.31277663,0.25921223,-0.30996162,1.4262533,0.72019285,1.2248092,0.4098622,1.0110885,0.8543807,-0.58797234
0.2,0.1,1.2999999999999998,0.0,0.0,0,-1.0165378,0.19464459,-1.2863501,-0.05620677,-0.3271752,0.26052958,-0.25329408,1.4186993,0.71643454,1.2267904,0.406807,1.0776986,0.89216137,-0.5264112
0.2,0.1,1.2999999999999998,0.0,0.0,0,-1.008803,0.19976184,-1.2789311,-0.058398742,-0.30222517,0.27865735,-0.23881383,1.4368563,0.64100444,1.2256762,0.4017899,1.0125059,0.8145693,-0.3883086
0.2,0.1,1.2999999999999998,0.0,0.0,0,-1.0178914,0.19672161,-1.29268,-0.06360523,-0.3332335,0.27632788,-0.22500223,1.4288701,0.7433643,1.2317152,0.4128776,1.028812,0.8531312,-0.58802444
0.2,0.1,1.2999999999999998,0.0,0.0,0,-1.02619,0.19817486,-1.3005724,-0.05796117,-0.32881927,0.27165315,-0.20633061,1.4122658,0.6783833,1.2482628,0.40505707,0.95339435,0.83462065,-0.61914796
0.2,0.1,1.2999999999999998,0.0,0.0,0,-1.0117048,0.1913424,-1.2930475,-0.059446845,-0.30240905,0.27900267,-0.2312376,1.3951433,0.56741095,1.2225263,0.42046943,0.98581636,0.8436989,-0.5325913
0.2,0.1,1.2999999999999998,0.0,0.0,0,-1.0118815,0.1971138,-1.298491,-0.054962836,-0.3269387,0.27389923,-0.22573331,1.4296595,0.5420495,1.2135047,0.39794892,1.0052866,0.87020093,-0.5778842
0.2,0.1,1.2999999999999998,0.0,0.0,0,-1.0212822,0.19394836,-1.2937498,-0.05805478,-0.31339344,0.26321945,-0.18715975,1.4315965,0.554984,1.2368503,0.40225545,1.0159582,0.86978835,-0.6381482
0.2,0.1,1.2999999999999998,0.0,0.0,0,-0.9943111,0.196532,-1.2907219,-0.055471566,-0.31826806,0.26797533,-0.30327693,1.4475027,0.6834863,1.212842,0.41288832,1.0343214,0.8416551,-0.5435422
0.2,0.1,1.2999999999999998,0.0,0.0,0,-1.0137486,0.19397199,-1.2927461,-0.054258816,-0.3214127,0.27389356,-0.20389576,1.4314053,0.6054162,1.2324865,0.41538706,1.0275832,0.8572703,-0.685989
0.2,0.1,1.2999999999999998,0.0,0.0,0,-1.0197066,0.19864415,-1.2930753,-0.060622454,-0.33213562,0.257483,-0.22787742,1.4371039,0.66155577,1.2251499,0.415324,1.0483474,0.8650817,-0.65511245
0.2,0.1,1.2999999999999998,0.0,0.0,0,-1.0295589,0.19568446,-1.2814413,-0.056971435,-0.30574018,0.27480483,-0.21308774,1.4202979,0.7622088,1.2362652,0.42219526,1.0711919,0.85234225,-0.64853346
0.2,0.1,1.2999999999999998,0.0,0.0,0,-1.0158762,0.19863804,-1.295057,-0.056297418,-0.30959275,0.27685294,-0.19284299,1.4363434,0.7417251,1.2374481,0.3965508,0.96903414,0.8473862,-0.60982823
0.2,0.1,1.2999999999999998,0.0,0.0,0,-1.0033317,0.19556932,-1.2967862,-0.055782754,-0.32720852,0.26783445,-0.24588154,1.4288013,0.7435827,1.2197646,0.4095753,1.03315,0.8685022,-0.6663688
0.2,0.1,1.2999999999999998,0.0,0.0,0,-1.0057788,0.19544211,-1.289922,-0.058007877,-0.32891375,0.2632199,-0.26329815,1.431751,0.65498555,1.2304633,0.40559518,1.0108345,0.8697952,-0.6716192
0.2,0.1,1.2999999999999998,0.0,0.0,0,-1.0183605,0.19839373,-1.2829869,-0.062006775,-0.32940573,0.2670143,-0.2694312,1.4328697,0.6824926,1.2330008,0.40808663,1.0371114,0.8609821,-0.69289804
0.2,0.1,1.2999999999999998,0.0,0.0,0,-1.0226307,0.1940825,-1.2786107,-0.061445825,-0.33760935,0.25768012,-0.22015123,1.4361558,0.6787883,1.230846,0.41059047,1.0224485,0.8397659,-0.5679932
0.2,0.1,1.2999999999999998,0.0,0.0,0,-1.0184542,0.19948743,-1.2733718,-0.055881474,-0.3069509,0.2581415,-0.29573378,1.4312005,0.6560246,1.2265232,0.40173224,1.0179597,0.8472582,-0.48495346
0.2,0.1,1.2999999999999998,0.0,0.0,0,-1.0296905,0.1961589,-1.2980222,-0.056141235,-0.292342,0.27758643,-0.2831336,1.4418266,0.5476727,1.221156,0.39286122,0.97896886,0.8596852,-0.74213225
0.2,0.1,1.2999999999999998,0.0,0.0,0,-1.017963,0.19397396,-1.2858131,-0.05703934,-0.33416057,0.26939517,-0.26625896,1.4342511,0.6691876,1.2430962,0.40740788,1.0446506,0.85473204,-0.691321
0.2,0.1,1.2999999999999998,0.0,0.0,0,-1.0317708,0.19188866,-1.3186487,-0.056144994,-0.30541372,0.26504415,-0.23711221,1.4345951,0.59086394,1.2363718,0.39418334,0.99100906,0.8451371,-0.54742926
0.2,0.1,1.2999999999999998,0.0,0.0,0,-1.0450205,0.19433074,-1.3069404,-0.056113534,-0.32240662,0.2591809,-0.22186865,1.4517201,0.6868554,1.221936,0.40727112,1.068403,0.8592037,-0.69851154
0.2,0.1,1.2999999999999998,0.0,0.0,0,-1.0176896,0.1956892,-1.2747612,-0.05967859,-0.29283217,0.26193386,-0.23699762,1.4412135,0.75650644,1.2312938,0.4135806,1.1335282,0.8802389,-0.63274235
0.2,0.1,1.2999999999999998,0.0,0.0,0,-1.0481799,0.1997427,-1.323403,-0.05559364,-0.30457762,0.26348627,-0.17585574,1.4404399,0.63345194,1.2294797,0.39383075,1.0028514,0.8841044,-0.63204944
0.2,0.1,1.2999999999999998,0.0,0.0,0,-1.0132393,0.19985802,-1.2920856,-0.054676596,-0.2945587,0.26505914,-0.24157907,1.4216205,0.751547,1.2366973,0.40963414,1.0502053,0.84620196,-0.5879888
0.2,0.1,1.2999999999999998,0.0,0.0,0,-1.0316719,0.19411467,-1.3118045,-0.05639672,-0.34294316,0.25442514,-0.2326154,1.4261115,0.7045879,1.2220193,0.3993562,1.0361328,0.8751478,-0.6634269
0.2,0.1,1.2999999999999998,0.0,0.0,0,-1.0437285,0.19255462,-1.3045835,-0.05556103,-0.34519234,0.27450633,-0.117074504,1.4617121,0.73322606,1.2272438,0.4086644,1.0552654,0.8853441,-0.7589208
0.2,0.1,1.2999999999999998,0.0,0.0,0,-1.0450008,0.19794244,-1.3070773,-0.06604446,-0.3006172,0.26727334,-0.19441962,1.4090946,0.6446114,1.228273,0.42396498,1.0263895,0.8732043,-0.6654944
0.2,0.1,1.2999999999999998,0.0,0.0,0,-1.0235542,0.1953704,-1.2940972,-0.057036597,-0.33797702,0.2649211,-0.25276053,1.4383646,0.7138976,1.2208002,0.39751625,1.079303,0.874342,-0.512746
0.2,0.1,1.2999999999999998,0.0,0.0,0,-1.0442439,0.19666375,-1.297748,-0.055431325,-0.34843367,0.2692614,-0.21827075,1.4501249,0.597574,1.2211181,0.41811895,1.094885,0.8422613,-0.67350966
0.2,0.1,1.2999999999999998,0.0,0.0,0,-1.0260512,0.19511846,-1.3044192,-0.0605307,-0.32321188,0.2787514,-0.23473878,1.4532472,0.6642826,1.2380943,0.41344017,1.0278646,0.8478603,-0.650989
0.2,0.1,1.2999999999999998,0.0,0.0,0,-1.0522159,0.19632386,-1.2960321,-0.06186709,-0.3284304,0.26919973,-0.2529366,1.434098,0.59449995,1.2252651,0.40717968,1.0159212,0.84287685,-0.41585433
0.2,0.1,1.2999999999999998,0.0,0.0,0,-1.0144129,0.19637327,-1.2974551,-0.057891313,-0.2999142,0.2691163,-0.24670602,1.4585941,0.7097228,1.2329112,0.41281104,0.9759834,0.8695392,-0.58853287
0.2,0.1,1.2999999999999998,0.0,0.0,0,-1.0418764,0.19567914,-1.3159815,-0.057084076,-0.34216434,0.26523736,-0.23723803,1.4319285,0.72719747,1.2286546,0.42419776,1.015711,0.88323265,-0.773179
0.2,0.1,1.2999999999999998,0.0,0.0,0,-1.0418764,0.19567914,-1.3159815,-0.057084076,-0.34216434,0.26523736,-0.23723803,1.4319285,0.72719747,1.2286546,0.42419776,1.015711,0.88323265,-0.773179
0.2,0.1,1.2999999999999998,0.0,0.0,0,-1.0418764,0.19567914,-1.3159815,-0.057084076,-0.34216434,0.26523736,-0.23723803,1.4319285,0.72719747,1.2286546,0.42419776,1.015711,0.88323265,-0.773179
0.2,0.1,1.2999999999999998,0.0,0.0,0,-1.0418764,0.19567914,-1.3159815,-0.057084076,-0.34216434,0.26523736,-0.23723803,1.4319285,0.72719747,1.2286546,0.42419776,1.015711,0.88323265,-0.773179
0.2,0.1,1.2999999999999998,0.0,0.0,0,-1.0418764,0.19567914,-1.3159815,-0.057084076,-0.34216434,0.26523736,-0.23723803,1.4319285,0.72719747,1.2286546,0.42419776,1.015711,0.88323265,-0.773179
0.2,0.1,1.2999999999999998,0.0,0.0,0,-1.0418764,0.19567914,-1.3159815,-0.057084076,-0.34216434,0.26523736,-0.23723803,1.4319285,0.72719747,1.2286546,0.42419776,1.015711,0.88323265,-0.773179
0.2,0.1,1.2999999999999998,0.0,0.0,0,-1.0418764,0.19567914,-1.3159815,-0.057084076,-0.34216434,0.26523736,-0.23723803,1.4319285,0.72719747,1.2286546,0.42419776,1.015711,0.88323265,-0.773179
0.2,0.1,1.2999999999999998,0.0,0.0,0,-1.0418764,0.19567914,-1.3159815,-0.057084076,-0.34216434,0.26523736,-0.23723803,1.4319285,0.72719747,1.2286546,0.42419776,1.015711,0.88323265,-0.773179
0.2,0.1,1.2999999999999998,0.0,0.0,0,-1.0522159,0.19632386,-1.2960321,-0.06186709,-0.3284304,0.26919973,-0.2529366,1.434098,0.59449995,1.2252651,0.40717968,1.0159212,0.84287685,-0.41585433
0.2,0.1,1.2999999999999998,0.0,0.0,0,-1.0522159,0.19632386,-1.2960321,-0.06186709,-0.3284304,0.26919973,-0.2529366,1.434098,0.59449995,1.2252651,0.40717968,1.0159212,0.84287685,-0.41585433
0.2,0.1,1.2999999999999998,0.0,0.0,0,-1.0522159,0.19632386,-1.2960321,-0.06186709,-0.3284304,0.26919973,-0.2529366,1.434098,0.59449995,1.2252651,0.40717968,1.0159212,0.84287685,-0.41585433
0.2,0.1,1.2999999999999998,0.0,0.0,0,-1.0522159,0.19632386,-1.2960321,-0.06186709,-0.3284304,0.26919973,-0.2529366,1.434098,0.59449995,1.2252651,0.40717968,1.0159212,0.84287685,-0.41585433
0.2,0.1,1.2999999999999998,0.0,0.0,0,-1.0522159,0.19632386,-1.2960321,-0.06186709,-0.3284304,0.26919973,-0.2529366,1.434098,0.59449995,1.2252651,0.40717968,1.0159212,0.84287685,-0.41585433
0.2,0.1,1.2999999999999998,0.0,0.0,0,-1.0522159,0.19632386,-1.2960321,-0.06186709,-0.3284304,0.26919973,-0.2529366,1.434098,0.59449995,1.2252651,0.40717968,1.0159212,0.84287685,-0.41585433
0.2,0.1,1.2999999999999998,0.0,0.0,0,-1.0522159,0.19632386,-1.2960321,-0.06186709,-0.3284304,0.26919973,-0.2529366,1.434098,0.59449995,1.2252651,0.40717968,1.0159212,0.84287685,-0.41585433
0.2,0.1,1.2999999999999998,0.0,0.0,0,-1.0522159,0.19632386,-1.2960321,-0.06186709,-0.3284304,0.26919973,-0.2529366,1.434098,0.59449995,1.2252651,0.40717968,1.0159212,0.84287685,-0.41585433
0.2,0.1,1.2999999999999998,0.0,0.0,0,-1.0438808,0.19539827,-1.3018024,-0.059400182,-0.34127298,0.27875146,-0.28978696,1.4637886,0.74786913,1.2248011,0.413816,1.0068313,0.831231,-0.62720984
0.2,0.1,1.2999999999999998,0.0,0.0,0,-1.0438808,0.19539827,-1.3018024,-0.059400182,-0.34127298,0.27875146,-0.28978696,1.4637886,0.74786913,1.2248011,0.413816,1.0068313,0.831231,-0.62720984
0.2,0.1,1.2999999999999998,0.0,0.0,0,-1.0438808,0.19539827,-1.3018024,-0.059400182,-0.34127298,0.27875146,-0.28978696,1.4637886,0.74786913,1.2248011,0.413816,1.0068313,0.831231,-0.62720984
0.2,0.1,1.2999999999999998,0.0,0.0,0,-1.0438808,0.19539827,-1.3018024,-0.059400182,-0.34127298,0.27875146,-0.28978696,1.4637886,0.74786913,1.2248011,0.413816,1.0068313,0.831231,-0.62720984
0.2,0.1,1.2999999999999998,0.0,0.0,0,-1.0438808,0.19539827,-1.3018024,-0.059400182,-0.34127298,0.27875146,-0.28978696,1.4637886,0.74786913,1.2248011,0.413816,1.0068313,0.831231,-0.62720984
0.2,0.1,1.2999999999999998,0.0,0.0,0,-1.0438808,0.19539827,-1.3018024,-0.059400182,-0.34127298,0.27875146,-0.28978696,1.4637886,0.74786913,1.2248011,0.413816,1.0068313,0.831231,-0.62720984
0.2,0.1,1.2999999999999998,0.0,0.0,0,-1.0438808,0.19539827,-1.3018024,-0.059400182,-0.34127298,0.27875146,-0.28978696,1.4637886,0.74786913,1.2248011,0.413816,1.0068313,0.831231,-0.62720984
0.2,0.1,1.2999999999999998,0.0,0.0,0,-1.0438808,0.19539827,-1.3018024,-0.059400182,-0.34127298,0.27875146,-0.28978696,1.4637886,0.74786913,1.2248011,0.413816,1.0068313,0.831231,-0.62720984
0.2,0.1,1.2999999999999998,0.0,0.0,0,-1.0351405,0.19506207,-1.3123329,-0.05476172,-0.30692875,0.27597958,-0.21236464,1.4001515,0.7645988,1.2224163,0.40938875,0.8333612,0.8831345,-0.6646963
0.2,0.1,1.2999999999999998,0.0,0.0,0,-1.0351405,0.19506207,-1.3123329,-0.05476172,-0.30692875,0.27597958,-0.21236464,1.4001515,0.7645988,1.2224163,0.40938875,0.8333612,0.8831345,-0.6646963
0.2,0.1,1.2999999999999998,0.0,0.0,0,-1.0351405,0.19506207,-1.3123329,-0.05476172,-0.30692875,0.27597958,-0.21236464,1.4001515,0.7645988,1.2224163,0.40938875,0.8333612,0.8831345,-0.6646963
0.2,0.1,1.2999999999999998,0.0,0.0,0,-1.0351405,0.19506207,-1.3123329,-0.05476172,-0.30692875,0.27597958,-0.21236464,1.4001515,0.7645988,1.2224163,0.40938875,0.8333612,0.8831345,-0.6646963
0.2,0.1,1.2999999999999998,0.0,0.0,0,-1.0351405,0.19506207,-1.3123329,-0.05476172,-0.30692875,0.27597958,-0.21236464,1.4001515,0.7645988,1.2224163,0.40938875,0.8333612,0.8831345,-0.6646963
0.2,0.1,1.2999999999999998,0.0,0.0,0,-1.0351405,0.19506207,-1.3123329,-0.05476172,-0.30692875,0.27597958,-0.21236464,1.4001515,0.7645988,1.2224163,0.40938875,0.8333612,0.8831345,-0.6646963
0.2,0.1,1.2999999999999998,0.0,0.0,0,-1.0351405,0.19506207,-1.3123329,-0.05476172,-0.30692875,0.27597958,-0.21236464,1.4001515,0.7645988,1.2224163,0.40938875,0.8333612,0.8831345,-0.6646963
0.2,0.1,1.2999999999999998,0.0,0.0,0,-1.0351405,0.19506207,-1.3123329,-0.05476172,-0.30692875,0.27597958,-0.21236464,1.4001515,0.7645988,1.2224163,0.40938875,0.8333612,0.8831345,-0.6646963
