sanky1234/BimanualDexCatch/isaacgymenvs/cem_results/May31/football_pose_0.4_0.0_1.0_0.0_0.0_0_2025-05-31.csv
x,y,z,roll,pitch,yaw,robot1/joint1,robot1/joint2,robot1/joint3,robot1/joint4,robot1/joint5,robot1/joint6,robot1/joint7,robot2/joint1,robot2/joint2,robot2/joint3,robot2/joint4,robot2/joint5,robot2/joint6,robot2/joint7
0.4,0.0,1.0,0.0,0.0,0,-2.04398,0.8851961,-0.6312397,-0.45932305,0.715188,1.2732686,0.7496013,1.6642307,0.96408784,-0.28972733,-0.09428602,1.3619899,1.3760662,0.068566635
0.4,0.0,1.0,0.0,0.0,0,-2.0592651,0.9304337,-0.6064149,-0.39027503,0.6615811,1.2359802,0.82096916,1.640799,1.0109568,-0.29320502,-0.10526412,1.6218952,1.413647,0.105652854
0.4,0.0,1.0,0.0,0.0,0,-1.989848,0.90986717,-0.59044707,-0.57917684,0.73779076,1.2112815,0.68022186,1.6962873,1.0010166,-0.497374,-0.14201842,1.3782787,1.5020021,0.08434129
0.4,0.0,1.0,0.0,0.0,0,-1.9887797,0.92518204,-0.62156236,-0.53927004,0.7140712,1.2003702,0.53066564,1.6307456,0.9833241,-0.32128906,-0.08779164,1.6348932,1.3839797,0.093317024
0.4,0.0,1.0,0.0,0.0,0,-1.9839746,0.9086714,-0.6642201,-0.44732574,0.7244356,1.2072906,0.71070015,1.6758754,0.9894287,-0.38007307,-0.10037315,1.4526013,1.4296945,0.1633523
0.4,0.0,1.0,0.0,0.0,0,-2.1619115,0.9125861,-0.5975479,-0.42855775,0.690017,1.2172408,0.816716,1.6342777,0.9403546,-0.136405,-0.11621237,1.3287088,1.4471484,0.09932888
0.4,0.0,1.0,0.0,0.0,0,-2.1780355,0.93658686,-0.57894045,-0.3658831,0.6565937,1.2067819,0.83136845,1.7564912,0.97290146,-0.14258367,-0.09911545,1.5340697,1.3644725,0.19611016
0.4,0.0,1.0,0.0,0.0,0,-2.1456895,0.90486735,-0.6341077,-0.4643142,0.7881275,1.2073461,0.6422138,1.7019514,0.98367697,-0.20664707,-0.13874182,1.4204729,1.4991456,0.069401026
0.4,0.0,1.0,0.0,0.0,0,-2.0739658,0.88741213,-0.67591816,-0.452091,0.75527537,1.2134026,0.73509526,1.7963216,0.97113585,-0.25159815,-0.076551355,1.4656291,1.479601,0.120001055
0.4,0.0,1.0,0.0,0.0,0,-2.0856237,0.8852135,-0.6701887,-0.45580497,0.75960016,1.218894,0.76350886,1.6424987,0.92249507,-0.17937502,-0.1370712,1.5493084,1.3946317,0.0860878
0.4,0.0,1.0,0.0,0.0,0,-2.062655,0.94400996,-0.6876285,-0.40630135,0.732801,1.2145915,0.714348,1.8543848,0.98308074,-0.21657987,-0.10914017,1.1809641,1.4950527,0.14080356
0.4,0.0,1.0,0.0,0.0,0,-2.0992854,0.9375387,-0.641407,-0.38188446,0.6966996,1.2007377,0.6142016,1.7912369,0.93401164,-0.31373584,-0.093629666,1.4083024,1.3760214,0.12049354
0.4,0.0,1.0,0.0,0.0,0,-2.0261292,0.8391173,-0.71046484,-0.46713537,0.7016432,1.1657138,0.62096864,1.6669773,0.94662076,-0.14103848,-0.08866946,1.5753139,1.3408989,-0.017874736
0.4,0.0,1.0,0.0,0.0,0,-1.9529731,0.8609438,-0.5441359,-0.51194954,0.70315284,1.2065169,0.73718506,1.7461513,1.0400231,-0.3581527,-0.09319713,1.3354244,1.3503333,0.12567121
0.4,0.0,1.0,0.0,0.0,0,-2.0996754,0.8726121,-0.59976906,-0.38229418,0.6897495,1.2086508,0.8908738,1.7180004,0.9917623,-0.15308268,-0.13155335,1.2909704,1.4325966,0.033744417
0.4,0.0,1.0,0.0,0.0,0,-2.1250298,0.9480968,-0.65001434,-0.43917695,0.76435804,1.2677493,0.5981103,1.7312348,0.987384,-0.20279457,-0.10403637,1.5819901,1.3856043,0.0719651
0.4,0.0,1.0,0.0,0.0,0,-1.9395689,0.93179435,-0.6158349,-0.39978346,0.77927184,1.231144,0.6066523,1.660884,0.9434167,-0.49545863,-0.055668194,1.3074325,1.4121519,0.08424862
0.4,0.0,1.0,0.0,0.0,0,-2.1039097,0.9004329,-0.6755328,-0.4642471,0.75619394,1.2189596,0.6866614,1.8151602,1.0169493,-0.22658028,-0.11884853,1.5487927,1.3727027,0.1437965
0.4,0.0,1.0,0.0,0.0,0,-2.00043,0.92139053,-0.6293704,-0.406858,0.73499435,1.2069837,0.7999206,1.6011146,0.9969659,-0.32000834,-0.09686595,1.5199909,1.4160881,0.08575404
0.4,0.0,1.0,0.0,0.0,0,-2.0281773,0.89180386,-0.6975351,-0.5249757,0.7731344,1.1461651,0.78424096,1.7016288,1.0015193,-0.17162757,-0.12815127,1.3054715,1.4944139,0.06444176
0.4,0.0,1.0,0.0,0.0,0,-2.0438676,0.8885052,-0.67903197,-0.41489065,0.70125663,1.1727359,0.5805797,1.6888949,1.0056204,-0.15933344,-0.12208427,1.5974569,1.3388366,0.053432535
0.4,0.0,1.0,0.0,0.0,0,-2.1004324,0.90028787,-0.67796904,-0.39881316,0.73742104,1.240304,0.7105784,1.7556808,0.986812,-0.2571034,-0.09500817,1.4208776,1.4618814,0.07896238
0.4,0.0,1.0,0.0,0.0,0,-1.9785821,0.9426496,-0.5789847,-0.4877915,0.77306867,1.2249324,0.5922676,1.6813184,1.0168121,-0.3845607,-0.09153227,1.3725293,1.4075441,0.13497956
0.4,0.0,1.0,0.0,0.0,0,-2.114593,0.9081148,-0.65320206,-0.47381687,0.7622237,1.2200329,0.7943013,1.6118667,0.96598643,-0.1569393,-0.10693844,1.5146307,1.4032503,0.05198418
0.4,0.0,1.0,0.0,0.0,0,-2.1020703,0.9618218,-0.61029536,-0.48189923,0.784618,1.1992185,0.7516008,1.7140771,0.96141917,-0.29359972,-0.12572362,1.4689056,1.3903247,0.042589784
0.4,0.0,1.0,0.0,0.0,0,-2.0989447,0.9218099,-0.61897665,-0.44859517,0.713582,1.1646168,0.54703665,1.7563287,0.97041947,-0.30578494,-0.10551318,1.4267962,1.442771,0.050063465
0.4,0.0,1.0,0.0,0.0,0,-2.0036664,0.9272943,-0.6742268,-0.41476592,0.6598013,1.1985259,0.73323077,1.7963482,1.0348526,-0.24335285,-0.097432725,1.5496697,1.3591937,0.0531378
0.4,0.0,1.0,0.0,0.0,0,-2.0731332,0.9148416,-0.6733282,-0.3946454,0.68455493,1.2328596,0.6806648,1.769016,1.0062913,-0.32970276,-0.14114366,1.5873715,1.4401815,0.13337244
0.4,0.0,1.0,0.0,0.0,0,-2.0499063,0.8873852,-0.6884908,-0.4971964,0.757134,1.2514554,0.6728232,1.710256,0.9703828,-0.23656128,-0.12112375,1.3337679,1.4500873,0.072421245
0.4,0.0,1.0,0.0,0.0,0,-2.1123805,0.93895537,-0.6133756,-0.49679393,0.7691523,1.2659438,0.57329273,1.8706497,1.0254514,-0.35151616,-0.14115772,1.4552689,1.4247903,0.10608831
0.4,0.0,1.0,0.0,0.0,0,-2.0152676,0.90613294,-0.69548887,-0.49349827,0.668739,1.2203455,0.601591,1.6831777,0.9304784,-0.39338383,-0.10604603,1.4369203,1.491979,0.056008704
0.4,0.0,1.0,0.0,0.0,0,-2.083362,0.9055272,-0.63824904,-0.41216698,0.7170771,1.2675062,0.6926046,1.7701492,1.0350878,-0.2244256,-0.13078073,1.3648298,1.5226767,0.12647253
0.4,0.0,1.0,0.0,0.0,0,-1.917609,0.93191797,-0.64463,-0.43994382,0.80022794,1.2153586,0.76508033,1.5535283,0.9820056,-0.33230096,-0.08271103,1.2529911,1.3997737,0.050918546
0.4,0.0,1.0,0.0,0.0,0,-2.046342,0.94268435,-0.6914719,-0.4482803,0.6648052,1.3187181,0.5910583,1.7713726,0.9517094,-0.3772214,-0.11397433,1.3973678,1.4093852,0.13216968
0.4,0.0,1.0,0.0,0.0,0,-1.9077333,0.8961212,-0.65316284,-0.49343306,0.736234,1.2264456,0.7695941,1.6091708,1.0291922,-0.34491187,-0.12258747,1.3289962,1.3645189,0.12892152
0.4,0.0,1.0,0.0,0.0,0,-2.0778034,0.89478827,-0.6532403,-0.43836156,0.7627519,1.1715868,0.52832997,1.7437601,1.0087485,-0.23750044,-0.1156203,1.3770093,1.4279563,0.11225461
0.4,0.0,1.0,0.0,0.0,0,-2.130389,0.8764336,-0.58666855,-0.37842473,0.74543154,1.2377145,0.6742757,1.7271802,0.9787152,-0.24964985,-0.12103471,1.6289947,1.3410077,0.10079723
0.4,0.0,1.0,0.0,0.0,0,-2.0918722,0.91871196,-0.6195284,-0.40472528,0.71693516,1.2146243,0.68581545,1.6459434,0.9396297,-0.30327648,-0.11008479,1.369631,1.463092,0.14913552
0.4,0.0,1.0,0.0,0.0,0,-1.905142,0.8961004,-0.66111934,-0.4341104,0.7715877,1.2030702,0.71096647,1.6493242,0.98565555,-0.4535643,-0.12797706,1.331569,1.4279251,0.11013113
0.4,0.0,1.0,0.0,0.0,0,-2.0763237,0.99243015,-0.6651362,-0.52433133,0.7531563,1.2077527,0.74846315,1.7252725,1.0033349,-0.12148029,-0.08983186,1.3120518,1.3611025,0.1695248
0.4,0.0,1.0,0.0,0.0,0,-2.0913253,0.8413777,-0.6137765,-0.4219882,0.7398464,1.2248152,0.6897299,1.7331891,0.9700065,-0.41378126,-0.10407619,1.5299006,1.5130278,0.1621806
0.4,0.0,1.0,0.0,0.0,0,-2.1115837,0.88668525,-0.5944663,-0.37928537,0.75679874,1.2470324,0.724416,1.7556909,1.0172077,-0.2572482,-0.12899715,1.4224666,1.3872232,0.11230439
0.4,0.0,1.0,0.0,0.0,0,-2.080891,0.9661082,-0.6555619,-0.4094351,0.7544392,1.2838843,0.65424675,1.7081727,0.9053704,-0.30628636,-0.12773502,1.241254,1.4382116,0.12367467
0.4,0.0,1.0,0.0,0.0,0,-2.068146,0.8989923,-0.6639238,-0.43441507,0.6879771,1.2713352,0.7348788,1.638706,0.9952254,-0.18485531,-0.08721313,1.5758532,1.3838582,0.107754365
0.4,0.0,1.0,0.0,0.0,0,-2.0793009,0.9363005,-0.65781236,-0.40219092,0.7327681,1.2442077,0.6649427,1.7241786,1.0347548,-0.19473903,-0.08971114,1.5020735,1.4141774,0.12706138
0.4,0.0,1.0,0.0,0.0,0,-2.0772746,0.9201054,-0.6406626,-0.41572833,0.70548314,1.2303289,0.62374157,1.6525865,1.0266811,-0.22298634,-0.14715023,1.3752676,1.4509687,0.08694197
0.4,0.0,1.0,0.0,0.0,0,-2.0649343,0.9127513,-0.62152046,-0.46673992,0.739501,1.1937664,0.6102958,1.7007664,0.9930244,-0.29773113,-0.12599307,1.4975381,1.3919784,0.033402555
0.4,0.0,1.0,0.0,0.0,0,-2.0577645,0.9097436,-0.6335276,-0.5079183,0.6601861,1.1747905,0.6396147,1.6786575,1.0074639,-0.2863577,-0.12844275,1.4111888,1.4901143,0.11842635
0.4,0.0,1.0,0.0,0.0,0,-2.0502856,0.9651304,-0.6004112,-0.5380426,0.7469663,1.186256,0.68928695,1.6263762,0.9822619,-0.25338802,-0.0948928,1.3465608,1.4251232,0.1430769
0.4,0.0,1.0,0.0,0.0,0,-2.009706,0.9393918,-0.5339275,-0.47422323,0.7211654,1.2029778,0.8347347,1.6504273,1.0104033,-0.28189477,-0.09852337,1.2944913,1.2866448,0.04817947
0.4,0.0,1.0,0.0,0.0,0,-2.1002698,0.9478235,-0.60018533,-0.5310255,0.79945284,1.2468725,0.60488063,1.6450472,0.9662954,-0.283966,-0.10740533,1.4872148,1.4039441,0.16501033
0.4,0.0,1.0,0.0,0.0,0,-2.0330527,0.91268367,-0.65963006,-0.43833542,0.7654218,1.1640232,0.8886032,1.6046185,1.0004379,-0.130653,-0.06435442,1.3509055,1.3988982,0.11412458
0.4,0.0,1.0,0.0,0.0,0,-2.0859768,0.9468177,-0.59394646,-0.43564534,0.6768636,1.1900567,0.7139242,1.7284403,0.99936944,-0.26772854,-0.16324101,1.3268877,1.3919702,0.062639646
0.4,0.0,1.0,0.0,0.0,0,-2.025741,0.87737215,-0.6889154,-0.40998638,0.80071676,1.2244443,0.7481751,1.6784333,1.0607623,-0.15580182,-0.100781366,1.4406248,1.4234154,0.09951682
0.4,0.0,1.0,0.0,0.0,0,-2.0435731,0.88135856,-0.633727,-0.48436263,0.69577837,1.2472733,0.6050518,1.758049,0.96719855,-0.40873888,-0.11126981,1.4802167,1.4159887,0.05971003
0.4,0.0,1.0,0.0,0.0,0,-2.018013,0.90435404,-0.6485635,-0.45922285,0.7280936,1.2033439,0.647964,1.7019354,1.0032138,-0.2264942,-0.098735735,1.486799,1.3169985,0.097303644
0.4,0.0,1.0,0.0,0.0,0,-1.9979532,0.93734074,-0.67603076,-0.52035874,0.7167853,1.1590998,0.72587204,1.6532618,1.0012457,-0.27038935,-0.079965524,1.5991209,1.4054856,0.078743264
0.4,0.0,1.0,0.0,0.0,0,-2.00023,0.9107025,-0.6366156,-0.5265201,0.7060653,1.257187,0.51709706,1.7058123,1.0049982,-0.37790307,-0.09004102,1.5336568,1.4093535,0.079817764
0.4,0.0,1.0,0.0,0.0,0,-2.0767937,0.88089186,-0.5901676,-0.47650763,0.73522615,1.2599266,0.68383193,1.6991526,0.9624672,-0.31369433,-0.13334557,1.5931745,1.327226,0.13522089
0.4,0.0,1.0,0.0,0.0,0,-1.9667132,0.9690985,-0.6667818,-0.44491318,0.6828332,1.2312095,0.6677163,1.7094263,1.015872,-0.23327574,-0.09233397,1.3367229,1.3565351,0.17917271
0.4,0.0,1.0,0.0,0.0,0,-1.9756638,0.8948901,-0.6176579,-0.4473465,0.71539956,1.2264144,0.72890127,1.652519,0.9917834,-0.25303662,-0.08628875,1.2189717,1.4060767,0.056564335
0.4,0.0,1.0,0.0,0.0,0,-1.9180229,0.96675456,-0.70027333,-0.5272953,0.6795891,1.2262778,0.64211917,1.5656843,1.0319844,-0.33066365,-0.124586836,1.4154817,1.4643059,0.12193191
0.4,0.0,1.0,0.0,0.0,0,-2.0204346,0.90785176,-0.67336315,-0.4543169,0.70884705,1.2316614,0.8399561,1.8031129,1.0156181,-0.43132922,-0.06857659,1.5046829,1.4920461,0.10739457
0.4,0.0,1.0,0.0,0.0,0,-1.9661049,0.90336597,-0.6466231,-0.4406481,0.74644905,1.2746605,0.6285965,1.6449677,0.9954972,-0.40033546,-0.16093408,1.3942113,1.3922333,-0.02847844
0.4,0.0,1.0,0.0,0.0,0,-2.0191112,0.9264955,-0.5904049,-0.50176513,0.70340383,1.1866306,0.6543468,1.6821793,0.9970034,-0.3825984,-0.11080835,1.5138667,1.4645085,0.04613067
0.4,0.0,1.0,0.0,0.0,0,-2.016917,0.9083523,-0.6258099,-0.42056006,0.7195863,1.2746458,0.67430437,1.5908226,0.99958074,-0.28771955,-0.08211912,1.6411365,1.4466395,0.052814353
0.4,0.0,1.0,0.0,0.0,0,-1.9399917,0.88587064,-0.64459306,-0.49465886,0.7005292,1.190145,0.74500823,1.6341406,1.0063041,-0.3151217,-0.08201962,1.6498101,1.3385549,0.04931554
0.4,0.0,1.0,0.0,0.0,0,-2.036417,0.9175571,-0.62004805,-0.46707168,0.7715022,1.1699057,0.6805201,1.6603243,1.0058692,-0.28723416,-0.075690754,1.606812,1.3808305,0.15263923
0.4,0.0,1.0,0.0,0.0,0,-2.0215797,0.9716084,-0.67820364,-0.46782246,0.7834952,1.1893035,0.64201015,1.7142823,1.0262078,-0.30345255,-0.06066748,1.5936075,1.4084107,0.0066628004
0.4,0.0,1.0,0.0,0.0,0,-2.0619693,0.8860348,-0.59062076,-0.3914271,0.7467932,1.2719136,0.75344163,1.69251,0.9452287,-0.36783814,-0.09669596,1.4920757,1.3289298,0.0782866
0.4,0.0,1.0,0.0,0.0,0,-2.0539417,0.88891155,-0.58446753,-0.45616105,0.73615986,1.2661942,0.65501624,1.7150507,0.9648496,-0.36564374,-0.116669714,1.2460512,1.4683663,0.1029647
0.4,0.0,1.0,0.0,0.0,0,-2.0311005,0.91846853,-0.62514526,-0.4023141,0.66687036,1.1969324,0.5761327,1.6783942,1.0155332,-0.27674064,-0.12625252,1.4721268,1.3757827,0.11400047
0.4,0.0,1.0,0.0,0.0,0,-1.9506048,0.90615916,-0.70360345,-0.46119392,0.72692895,1.2091141,0.66206884,1.6518362,0.9672226,-0.30421913,-0.1143173,1.362871,1.3374672,0.18845394
0.4,0.0,1.0,0.0,0.0,0,-1.9800004,0.9108506,-0.65541416,-0.48402107,0.77722555,1.2531118,0.5954789,1.634048,0.9959733,-0.32542017,-0.09360703,1.345844,1.4153194,0.06778575
0.4,0.0,1.0,0.0,0.0,0,-2.0243292,0.8738845,-0.6266488,-0.42473504,0.76546866,1.2524873,0.6690109,1.5184385,0.9734093,-0.07059448,-0.07526547,1.1911663,1.3584112,0.10680619
0.4,0.0,1.0,0.0,0.0,0,-1.9877255,0.87180364,-0.6226757,-0.36020923,0.7150498,1.1742342,0.70887643,1.6720412,0.98282784,-0.40278876,-0.12993228,1.3265579,1.4517155,0.12913364
0.4,0.0,1.0,0.0,0.0,0,-1.979753,0.92198116,-0.65049416,-0.45130572,0.756019,1.1786646,0.59956497,1.6788279,0.9962441,-0.4160963,-0.09540672,1.5174068,1.4759616,0.061341163
0.4,0.0,1.0,0.0,0.0,0,-2.0110912,0.9476417,-0.5787251,-0.46539247,0.7024275,1.19282,0.8598667,1.5656401,0.9774758,-0.22877023,-0.066776596,1.2791258,1.3630588,0.09632211
0.4,0.0,1.0,0.0,0.0,0,-1.9973166,0.93798983,-0.6541038,-0.4321436,0.8178653,1.2272656,0.7407347,1.7076279,0.97379297,-0.36340603,-0.050696608,1.4360247,1.3570079,0.096703716
0.4,0.0,1.0,0.0,0.0,0,-1.9501321,0.93114793,-0.65978503,-0.42491737,0.6763074,1.210501,0.6677626,1.6818308,0.9847253,-0.3274913,-0.08033903,1.2416636,1.407252,0.12084009
0.4,0.0,1.0,0.0,0.0,0,-1.9949046,0.9279574,-0.58714265,-0.4630139,0.7066261,1.1659758,0.6831699,1.6209899,1.0179062,-0.32002816,-0.099563256,1.3852026,1.4281319,0.12973186
0.4,0.0,1.0,0.0,0.0,0,-2.0548575,0.9349892,-0.61957884,-0.34550604,0.7620658,1.2690144,0.63303894,1.7093848,1.0181302,-0.3164829,-0.14869109,1.3665854,1.378773,0.054287195
0.4,0.0,1.0,0.0,0.0,0,-1.9908153,0.95418364,-0.6770071,-0.5117641,0.6678411,1.2937443,0.85490906,1.7058042,1.0276152,-0.2471213,-0.07096973,1.352848,1.463825,0.16388412
0.4,0.0,1.0,0.0,0.0,0,-2.0187528,0.85378426,-0.5987199,-0.38170704,0.7498544,1.2224098,0.6865536,1.7217065,1.0339987,-0.31967604,-0.07926996,1.4473152,1.432956,0.07288169
0.4,0.0,1.0,0.0,0.0,0,-2.0395422,0.9471299,-0.6108905,-0.46205118,0.8057343,1.2651076,0.6137162,1.7017548,0.98385966,-0.3784718,-0.0925033,1.5325156,1.3535025,0.046303745
0.4,0.0,1.0,0.0,0.0,0,-2.0203412,0.9325707,-0.60301876,-0.46091083,0.7674963,1.2564265,0.636262,1.6394224,1.0157477,-0.19024548,-0.10216771,1.3801756,1.264487,0.22293703
0.4,0.0,1.0,0.0,0.0,0,-2.1430907,0.88330805,-0.6257377,-0.48350486,0.7170142,1.2078186,0.6586473,1.6533753,0.97448635,-0.09935062,-0.11092368,1.4648166,1.4251745,0.11805293
0.4,0.0,1.0,0.0,0.0,0,-2.1795912,0.87419957,-0.6000998,-0.3483714,0.7396628,1.2158839,0.73072994,1.7320976,0.98006815,-0.09417457,-0.13207126,1.6092601,1.3603877,0.10070491
0.4,0.0,1.0,0.0,0.0,0,-2.163366,0.9042081,-0.65851855,-0.42636403,0.7609219,1.2228506,0.5972286,1.6903954,0.9348349,-0.2348176,-0.10347174,1.3786511,1.5300624,0.16344574
0.4,0.0,1.0,0.0,0.0,0,-2.1104188,0.92971444,-0.7202452,-0.42967877,0.7132703,1.2624962,0.8125689,1.6629655,0.9591502,-0.14016025,-0.11965953,1.5034006,1.4215381,0.09261182
0.4,0.0,1.0,0.0,0.0,0,-2.1429446,0.92397505,-0.6540259,-0.49861002,0.7017279,1.2051083,0.8339813,1.7134188,0.9785247,-0.21410786,-0.14042106,1.4510324,1.5127287,0.15618302
0.4,0.0,1.0,0.0,0.0,0,-2.1439219,0.9051165,-0.65221524,-0.34351382,0.78290987,1.2140992,0.69801414,1.6797552,0.909676,-0.12788567,-0.09868484,1.4956106,1.3414321,0.1395749
0.4,0.0,1.0,0.0,0.0,0,-2.1101122,0.9804941,-0.62790096,-0.46853533,0.63491917,1.2595009,0.68548304,1.7049196,0.9817481,-0.25645828,-0.12294936,1.4860675,1.4648026,0.090090856
0.4,0.0,1.0,0.0,0.0,0,-2.144539,0.93806046,-0.65686333,-0.46913192,0.73074955,1.2371756,0.8574275,1.7139571,0.9244902,-0.18733881,-0.1069049,1.3964591,1.4034169,0.07891191
0.4,0.0,1.0,0.0,0.0,0,-2.1539464,0.9274976,-0.64182323,-0.47094712,0.6971573,1.2617395,0.7986541,1.7810056,0.98217356,-0.3070666,-0.10163585,1.5675105,1.5253841,0.13920766
0.4,0.0,1.0,0.0,0.0,0,-2.1434174,0.946435,-0.6485555,-0.46880177,0.7887915,1.177198,0.73475635,1.648471,0.97006375,-0.15372613,-0.1226733,1.4180886,1.4841083,0.15414155
0.4,0.0,1.0,0.0,0.0,0,-2.1035433,0.8697065,-0.67388004,-0.4237929,0.75859034,1.2310154,0.7245333,1.7544464,0.9866905,-0.19411424,-0.10204447,1.5080094,1.4365565,0.033492982
0.4,0.0,1.0,0.0,0.0,0,-2.1069663,0.92695695,-0.6688484,-0.54812026,0.7612431,1.2380677,0.6886596,1.7200062,0.98794556,-0.090984024,-0.107298665,1.3982637,1.3683882,0.06737564
0.4,0.0,1.0,0.0,0.0,0,-2.1108968,0.941256,-0.66437733,-0.4822614,0.7215671,1.2591804,0.61921215,1.6886953,0.97817194,-0.10627271,-0.11309864,1.3373078,1.3795815,0.0933846
0.4,0.0,1.0,0.0,0.0,0,-2.1079721,0.9348861,-0.6545007,-0.4448858,0.76439387,1.2083615,0.763515,1.6485236,0.9785326,-0.09862724,-0.09277694,1.3488461,1.4150606,0.05163546
0.4,0.0,1.0,0.0,0.0,0,-2.178069,0.92095256,-0.58251923,-0.38769585,0.6579105,1.306619,0.7517488,1.6966156,0.969284,-0.25932932,-0.11559052,1.4817142,1.4906795,0.113262884
0.4,0.0,1.0,0.0,0.0,0,-2.083812,0.89866614,-0.6371463,-0.45003957,0.6157446,1.2056824,0.6938932,1.6165774,0.96443665,-0.13630122,-0.10715669,1.4325225,1.4174036,0.07156633
0.4,0.0,1.0,0.0,0.0,0,-2.1521604,0.9314415,-0.6125369,-0.43228114,0.7250277,1.2825148,0.69381696,1.7081144,1.0012074,-0.13093567,-0.08139581,1.5070453,1.4207262,0.105963774
0.4,0.0,1.0,0.0,0.0,0,-2.0744302,0.9159665,-0.6650123,-0.36479393,0.7528338,1.2265499,0.6176163,1.6341615,1.009014,-0.11738761,-0.110168144,1.4490169,1.417912,0.14303355
0.4,0.0,1.0,0.0,0.0,0,-2.1017973,0.9144711,-0.6714479,-0.4214667,0.7498235,1.2014893,0.6769385,1.7979648,0.9780553,-0.22693335,-0.13094889,1.3971763,1.360094,0.06710955
0.4,0.0,1.0,0.0,0.0,0,-2.1235416,0.8954482,-0.649678,-0.5087416,0.81815255,1.2476873,0.741775,1.7102029,1.0034848,-0.14215644,-0.13568987,1.3644861,1.4488846,0.048265174
0.4,0.0,1.0,0.0,0.0,0,-2.093651,0.8896289,-0.6906191,-0.43878168,0.7452782,1.1725498,0.71598434,1.7809132,0.9722098,-0.2181335,-0.08863358,1.4624408,1.3792763,0.115173675
0.4,0.0,1.0,0.0,0.0,0,-2.0962994,0.91863644,-0.6232521,-0.4678659,0.6679149,1.2468365,0.7266117,1.7556074,0.9938633,-0.21791026,-0.1307299,1.3793348,1.457019,0.061669156
0.4,0.0,1.0,0.0,0.0,0,-2.0904598,0.93190813,-0.63741976,-0.4955752,0.6790481,1.2271622,0.594766,1.6138681,0.9408112,-0.109302185,-0.06831198,1.2644675,1.4272192,0.096153125
0.4,0.0,1.0,0.0,0.0,0,-2.0413232,0.9162193,-0.7464346,-0.47675228,0.735668,1.1957008,0.66270816,1.7366905,0.9748084,-0.3232166,-0.117749065,1.5541724,1.4852331,0.07385564
0.4,0.0,1.0,0.0,0.0,0,-2.0777142,0.8880104,-0.6591666,-0.40828755,0.6952664,1.2004591,0.7408059,1.7343501,1.0359806,-0.11925221,-0.08208663,1.4494005,1.4714725,0.10617849
0.4,0.0,1.0,0.0,0.0,0,-2.1084063,0.9139904,-0.637543,-0.4008904,0.7924851,1.2043881,0.7562303,1.6489652,0.9696401,-0.22171596,-0.117073104,1.4230969,1.4626769,0.055494227
0.4,0.0,1.0,0.0,0.0,0,-2.0688152,0.89779234,-0.684755,-0.4395298,0.68096554,1.2669019,0.648345,1.8000529,1.0102051,-0.13300964,-0.07093642,1.2771194,1.492676,0.13442789
0.4,0.0,1.0,0.0,0.0,0,-2.0705636,0.8708241,-0.7257714,-0.43399134,0.76650405,1.2666368,0.7378303,1.7048643,0.9842474,-0.1838506,-0.11008824,1.451672,1.3998474,0.086476
0.4,0.0,1.0,0.0,0.0,0,-2.1374817,0.94172883,-0.6240674,-0.45603737,0.724918,1.2615095,0.5915819,1.6792548,1.0135425,-0.16354568,-0.09833686,1.5139931,1.4668003,0.08480427
0.4,0.0,1.0,0.0,0.0,0,-2.117321,0.9246817,-0.5985108,-0.41933408,0.7556473,1.1702197,0.67938656,1.6467947,0.96877193,-0.1926105,-0.08626646,1.3929987,1.45318,0.117637284
0.4,0.0,1.0,0.0,0.0,0,-2.0705156,0.9464459,-0.694561,-0.4635077,0.77768934,1.2249529,0.7192876,1.6584369,0.9021149,-0.33506605,-0.108325966,1.2666727,1.43003,0.136599
0.4,0.0,1.0,0.0,0.0,0,-2.0612617,1.0018684,-0.69076,-0.4387609,0.7497767,1.2106278,0.6001294,1.6766748,0.9907105,-0.23345666,-0.1211744,1.4588188,1.4487993,0.11289513
0.4,0.0,1.0,0.0,0.0,0,-2.1048172,0.9191248,-0.6065196,-0.5214545,0.72275734,1.2379164,0.80096334,1.6981202,1.0288315,-0.25794795,-0.10078614,1.6028707,1.4953095,0.043240532
0.4,0.0,1.0,0.0,0.0,0,-2.1078396,0.923777,-0.6369464,-0.4475528,0.7709251,1.1825405,0.7006195,1.7186117,1.0016803,-0.22118232,-0.13329868,1.7077129,1.4027312,0.06631261
0.4,0.0,1.0,0.0,0.0,0,-2.0651822,0.90915406,-0.67348254,-0.49062163,0.73618466,1.2362051,0.6348767,1.7587699,0.9944141,-0.1963444,-0.101912946,1.3994238,1.3806064,0.108426765
0.4,0.0,1.0,0.0,0.0,0,-2.1476915,0.922547,-0.5815944,-0.47352746,0.7185223,1.229636,0.9737565,1.6892011,0.9726933,-0.2622967,-0.11141911,1.3873613,1.4740151,0.068483695
0.4,0.0,1.0,0.0,0.0,0,-2.094817,0.8745364,-0.60685235,-0.4974235,0.7896804,1.2225746,0.6153196,1.7940065,0.9947767,-0.23583864,-0.09837594,1.3964189,1.3871506,0.083132
0.4,0.0,1.0,0.0,0.0,0,-2.0964866,0.9480857,-0.60106987,-0.4066834,0.64879745,1.1912144,0.60467136,1.7525623,0.9758958,-0.31718653,-0.096324585,1.522713,1.4092834,0.11359685
0.4,0.0,1.0,0.0,0.0,0,-2.1341949,0.8932292,-0.5832929,-0.4851988,0.8008522,1.1875333,0.7201272,1.7055316,1.0320427,-0.16977632,-0.12917161,1.5281123,1.4178011,0.04764104
0.4,0.0,1.0,0.0,0.0,0,-2.1213055,0.89545125,-0.6176423,-0.39557195,0.6799906,1.2525184,0.78541535,1.6679987,0.98520714,-0.17326662,-0.09543888,1.4097698,1.4247371,0.10915666
0.4,0.0,1.0,0.0,0.0,0,-2.1114256,0.93042463,-0.6167844,-0.53455085,0.7002568,1.2085205,0.77561206,1.7562414,1.0001204,-0.21920998,-0.04223867,1.5423113,1.431685,0.11674674
0.4,0.0,1.0,0.0,0.0,0,-2.121662,0.94126827,-0.60373724,-0.4381024,0.77449167,1.2216462,0.8094404,1.6716033,0.9792467,-0.24703373,-0.1253378,1.4901129,1.4301558,0.0931608
0.4,0.0,1.0,0.0,0.0,0,-2.073062,0.91259205,-0.72622776,-0.43094876,0.81608254,1.2444105,0.7958851,1.7155042,1.0309922,-0.27367207,-0.112888575,1.549811,1.516267,0.12454005
0.4,0.0,1.0,0.0,0.0,0,-2.0847154,0.9089454,-0.65463275,-0.4267519,0.75113237,1.2251091,0.72163063,1.6558694,0.9980492,-0.16642769,-0.12366832,1.3918923,1.4154693,0.03545182
0.4,0.0,1.0,0.0,0.0,0,-2.1262264,0.9258889,-0.603925,-0.53748804,0.75239724,1.2089698,0.7195224,1.7314497,1.0261222,-0.14784257,-0.09034842,1.5422722,1.372603,0.049111094
0.4,0.0,1.0,0.0,0.0,0,-2.0998185,0.9275225,-0.60942924,-0.38523912,0.74330837,1.2106072,0.6564534,1.7032806,0.9427517,-0.29710642,-0.12849313,1.569909,1.3725767,0.14341493
0.4,0.0,1.0,0.0,0.0,0,-2.1010647,0.93656784,-0.6274667,-0.40184692,0.7369979,1.2104732,0.61199343,1.6193944,1.0188848,-0.2562763,-0.11746802,1.4285369,1.5139574,0.120848574
0.4,0.0,1.0,0.0,0.0,0,-2.0778904,0.94668245,-0.671577,-0.50992304,0.72789294,1.1881597,0.7449879,1.6992168,1.0102018,-0.21581034,-0.07031478,1.502695,1.477261,0.18219434
0.4,0.0,1.0,0.0,0.0,0,-2.1075935,0.91827303,-0.5673824,-0.4183568,0.6718045,1.2237,0.7226651,1.6885569,1.0012796,-0.21931484,-0.10609485,1.6131017,1.3521478,0.15383784
0.4,0.0,1.0,0.0,0.0,0,-2.0733662,0.9648293,-0.65408766,-0.4550758,0.72152776,1.2802536,0.7234662,1.6591475,0.9747517,-0.2018339,-0.08332766,1.3412685,1.4553704,0.09895735
0.4,0.0,1.0,0.0,0.0,0,-2.0751083,0.89604795,-0.66702014,-0.48080355,0.79552263,1.1867924,0.6467068,1.8300904,0.9841666,-0.34460503,-0.08499774,1.4694945,1.4152302,0.08707587
0.4,0.0,1.0,0.0,0.0,0,-2.0863287,0.96256685,-0.65388775,-0.44375265,0.7537511,1.2195507,0.67543703,1.6270118,0.976745,-0.16549589,-0.09067313,1.4901581,1.3753053,0.13562638
0.4,0.0,1.0,0.0,0.0,0,-2.15087,0.9339587,-0.5545644,-0.40417004,0.7580149,1.2514266,0.795609,1.6705728,0.9955297,-0.20548277,-0.08467137,1.4502172,1.452712,0.13780265
0.4,0.0,1.0,0.0,0.0,0,-2.0359285,0.9344963,-0.6753468,-0.5154498,0.6488307,1.2258335,0.79235876,1.7672669,1.0388725,-0.1733013,-0.096931376,1.5599968,1.3547361,0.113958105
0.4,0.0,1.0,0.0,0.0,0,-2.000426,0.8010805,-0.64917076,-0.45149058,0.61364156,1.2327818,0.62245095,1.7906461,0.9904084,-0.26438543,-0.12509143,1.3271447,1.3698536,0.055333573
0.4,0.0,1.0,0.0,0.0,0,-2.082143,0.94356114,-0.65343183,-0.40309936,0.72850335,1.2295464,0.7009185,1.743384,0.9762657,-0.17682399,-0.036935613,1.3845153,1.4151722,0.04289736
0.4,0.0,1.0,0.0,0.0,0,-2.0708504,0.9201535,-0.66401404,-0.44953692,0.7686603,1.2308477,0.6480432,1.6939331,0.92874825,-0.32189727,-0.14928015,1.3046093,1.3946543,0.11894896
0.4,0.0,1.0,0.0,0.0,0,-2.0501986,0.9076806,-0.6601675,-0.4756023,0.71403366,1.2211059,0.7549845,1.7136098,1.028963,-0.113527484,-0.10613286,1.4524214,1.3412141,0.09832795
0.4,0.0,1.0,0.0,0.0,0,-2.0699492,0.93961257,-0.6513127,-0.3559914,0.74716085,1.19564,0.8073718,1.6952957,0.9964449,-0.07429131,-0.08342015,1.1607413,1.4096633,0.11719619
0.4,0.0,1.0,0.0,0.0,0,-2.101027,0.84709793,-0.6201366,-0.39202985,0.7813591,1.2301614,0.61552167,1.6704714,1.014595,-0.095403895,-0.115565695,1.5110544,1.2937975,0.103432424
0.4,0.0,1.0,0.0,0.0,0,-2.134173,0.908497,-0.5914168,-0.40156972,0.7930211,1.2477217,0.615297,1.7227267,1.0110924,-0.18814674,-0.12273644,1.3460027,1.4622992,0.10832868
0.4,0.0,1.0,0.0,0.0,0,-2.0049088,0.8657907,-0.6847325,-0.3882881,0.6989778,1.222412,0.7130792,1.7849152,1.0143085,-0.16586193,-0.10095384,1.2490581,1.4668086,0.081703484
0.4,0.0,1.0,0.0,0.0,0,-2.106705,0.89948696,-0.5625894,-0.48114526,0.66434914,1.2431643,0.64547235,1.7815776,1.0280838,-0.263638,-0.094149314,1.3641441,1.4393983,0.11067968
0.4,0.0,1.0,0.0,0.0,0,-1.9644713,0.94796044,-0.659226,-0.42648366,0.7409598,1.268885,0.654634,1.7093148,1.0162421,-0.38777134,-0.09339113,1.5349,1.3847387,0.14614771
0.4,0.0,1.0,0.0,0.0,0,-2.0576906,0.8730144,-0.6199925,-0.36195883,0.6339866,1.1992353,0.7845232,1.705212,0.96210074,-0.23914722,-0.07294172,1.3529212,1.3546408,0.08492047
0.4,0.0,1.0,0.0,0.0,0,-2.0972383,0.9048869,-0.62848425,-0.34653327,0.8128766,1.1938761,0.5838917,1.74772,0.9863212,-0.27804455,-0.15094605,1.4008379,1.3671861,0.099434495
0.4,0.0,1.0,0.0,0.0,0,-1.9874701,0.8929969,-0.7062161,-0.48241824,0.705377,1.1675378,0.7733372,1.7564294,0.9442457,-0.40745044,-0.120559394,1.4825001,1.3643545,0.12755965
0.4,0.0,1.0,0.0,0.0,0,-2.0598602,0.9310231,-0.66784436,-0.539276,0.7723158,1.1995578,0.79777825,1.7159001,1.0397732,-0.20694715,-0.12428691,1.6202595,1.3710688,0.06768005
0.4,0.0,1.0,0.0,0.0,0,-2.144803,0.91651773,-0.5454143,-0.51917607,0.731739,1.2419535,0.6521451,1.6308838,0.99641263,-0.20694189,-0.09743769,1.5102901,1.4381009,0.06388784
0.4,0.0,1.0,0.0,0.0,0,-2.0549452,0.9402328,-0.59160745,-0.46956995,0.74359065,1.1754283,0.84148526,1.6859751,0.99399537,-0.28538567,-0.09499253,1.326257,1.4842678,0.07575807
0.4,0.0,1.0,0.0,0.0,0,-2.0525744,0.90409327,-0.6293109,-0.48316726,0.7051321,1.1867009,0.6957118,1.7644749,0.9748729,-0.1961924,-0.12783869,1.2066733,1.3524696,0.0957338
0.4,0.0,1.0,0.0,0.0,0,-2.0476856,0.89411235,-0.66981363,-0.43938312,0.7769927,1.21429,0.62049323,1.7017998,0.9909606,-0.26541272,-0.10986253,1.5465611,1.4087443,0.11819446
0.4,0.0,1.0,0.0,0.0,0,-2.0922434,0.9065055,-0.6407884,-0.474572,0.77592236,1.2539853,0.6255108,1.7451864,1.0090282,-0.31245703,-0.13802706,1.4524167,1.4423313,0.048959557
0.4,0.0,1.0,0.0,0.0,0,-2.0144818,0.88230735,-0.68069565,-0.42285118,0.74861085,1.2077658,0.7185204,1.7681314,0.96886903,-0.27654132,-0.09965993,1.331648,1.4032823,0.030093638
0.4,0.0,1.0,0.0,0.0,0,-2.053308,0.92830384,-0.65709853,-0.4351411,0.6913044,1.2347113,0.7435274,1.7787349,1.0592161,-0.2376918,-0.112237826,1.5385854,1.4397683,0.10501182
0.4,0.0,1.0,0.0,0.0,0,-2.0509224,0.9338623,-0.65521544,-0.45264292,0.7057674,1.2576305,0.7651913,1.7225674,0.9905917,-0.17051113,-0.11771169,1.3638155,1.3580747,0.13936564
0.4,0.0,1.0,0.0,0.0,0,-1.9949028,0.8560436,-0.65890217,-0.4329881,0.6802429,1.2433143,0.68625945,1.6464983,1.0083495,-0.12430538,-0.107831135,1.2922529,1.4154913,0.07396334
0.4,0.0,1.0,0.0,0.0,0,-2.057786,0.86443645,-0.6287217,-0.3992684,0.70247626,1.2318007,0.5875788,1.6969781,1.0184476,-0.25135145,-0.07944193,1.3882723,1.4477714,0.059856776
0.4,0.0,1.0,0.0,0.0,0,-2.043936,0.85891104,-0.6012712,-0.42750707,0.7720544,1.2596494,0.6952976,1.7059516,1.0125865,-0.33649787,-0.11512242,1.3920182,1.4868062,0.11675395
0.4,0.0,1.0,0.0,0.0,0,-2.038301,0.91878563,-0.65611476,-0.46931073,0.76113397,1.1845889,0.73355925,1.7316575,1.024143,-0.22516885,-0.07230307,1.4495944,1.5063499,0.14592233
0.4,0.0,1.0,0.0,0.0,0,-2.082779,0.9144247,-0.6267145,-0.39547458,0.733911,1.2261639,0.6502905,1.6326844,0.95868266,-0.2217111,-0.14076753,1.3097472,1.3742857,0.16417019
0.4,0.0,1.0,0.0,0.0,0,-2.08188,0.9383969,-0.6062912,-0.4412259,0.665152,1.2582971,0.66023743,1.674414,0.9985581,-0.20742996,-0.09440306,1.3842044,1.405317,0.07980694
0.4,0.0,1.0,0.0,0.0,0,-2.064446,0.92075783,-0.6467015,-0.4733673,0.7508269,1.2388208,0.79320824,1.8009174,0.9799452,-0.38982025,-0.116571866,1.381919,1.4213024,0.12603416
0.4,0.0,1.0,0.0,0.0,0,-2.0163162,0.9334227,-0.6884657,-0.48760545,0.75556123,1.202275,0.5402198,1.7081317,0.9513888,-0.33445042,-0.10478379,1.4734035,1.3444915,0.07127634
0.4,0.0,1.0,0.0,0.0,0,-2.0291665,0.92327535,-0.6210526,-0.42261225,0.8024828,1.2347227,0.7968932,1.6682893,0.9712801,-0.30543718,-0.11298129,1.2200358,1.4401289,0.06789302
0.4,0.0,1.0,0.0,0.0,0,-1.997539,0.932828,-0.6070839,-0.4464695,0.7883577,1.2437217,0.87925225,1.8060315,1.0042702,-0.38943595,-0.07948528,1.224459,1.3434558,0.04386489
0.4,0.0,1.0,0.0,0.0,0,-2.1368172,0.91235375,-0.55118316,-0.3899904,0.81914514,1.2484158,0.6799225,1.699955,1.0273391,-0.20966013,-0.14410293,1.3826402,1.3870155,0.061847746
0.4,0.0,1.0,0.0,0.0,0,-2.1005948,0.8773143,-0.5675376,-0.3822497,0.7167589,1.2511975,0.6685748,1.7753643,0.9775446,-0.39879224,-0.0842333,1.5228122,1.4013203,0.12874423
0.4,0.0,1.0,0.0,0.0,0,-2.0546174,0.9556941,-0.6559471,-0.48040602,0.74851185,1.2920682,0.7606936,1.7388475,1.0057203,-0.34435108,-0.067280546,1.6798533,1.3709257,0.028457472
0.4,0.0,1.0,0.0,0.0,0,-2.01615,0.86404127,-0.60974693,-0.43975213,0.73359734,1.1865654,0.6282218,1.6955818,1.004929,-0.18750805,-0.11001135,1.2897304,1.3867857,0.15093003
0.4,0.0,1.0,0.0,0.0,0,-2.034772,0.9185841,-0.5792305,-0.37085184,0.81945515,1.221472,0.54872453,1.7134603,1.0145967,-0.45901272,-0.085900575,1.3584185,1.5194347,0.09690213
0.4,0.0,1.0,0.0,0.0,0,-2.0670485,0.9221179,-0.6452924,-0.4326307,0.8154792,1.1805981,0.74970275,1.7006559,0.96467006,-0.29875892,-0.088290334,1.3697397,1.3929737,0.04184581
0.4,0.0,1.0,0.0,0.0,0,-2.096612,0.91501105,-0.5681554,-0.3898179,0.74292123,1.2421753,0.7744728,1.7932363,1.030799,-0.20181236,-0.11940266,1.2451466,1.3717244,0.12085997
0.4,0.0,1.0,0.0,0.0,0,-2.0529706,0.93448365,-0.6292675,-0.39326754,0.8420188,1.2044033,0.68689567,1.5846766,0.9643749,-0.23103128,-0.10639739,1.4923542,1.42982,0.14168687
0.4,0.0,1.0,0.0,0.0,0,-2.0684881,0.9217915,-0.64791447,-0.48201916,0.8062987,1.2698324,0.6407938,1.7001121,1.0223866,-0.24809045,-0.13770033,1.4038496,1.3940222,0.04584933
0.4,0.0,1.0,0.0,0.0,0,-2.0518146,0.91912526,-0.594379,-0.4962555,0.75852454,1.1805884,0.66835976,1.7182003,1.0416731,-0.30738238,-0.13409565,1.4138718,1.46906,0.06488832
0.4,0.0,1.0,0.0,0.0,0,-2.0643575,0.9223729,-0.6269629,-0.4472185,0.7668903,1.237353,0.6507043,1.7738191,0.96380097,-0.42513505,-0.10282596,1.4303881,1.4331955,0.18905741
0.4,0.0,1.0,0.0,0.0,0,-2.0291848,0.98679376,-0.6353151,-0.55908215,0.7272722,1.1899362,0.59290135,1.6848228,1.0177029,-0.18869947,-0.091305055,1.2862866,1.4008311,0.15170538
0.4,0.0,1.0,0.0,0.0,0,-2.0617793,0.9421145,-0.6285369,-0.45211375,0.7381839,1.234668,0.64216834,1.7540445,0.9928915,-0.35548866,-0.07942957,1.353896,1.5361078,0.03961291
0.4,0.0,1.0,0.0,0.0,0,-2.0597665,0.9401567,-0.6565747,-0.40971106,0.7127975,1.2855833,0.8699904,1.7558128,0.97902364,-0.34709835,-0.06567193,1.5425143,1.3666443,0.07068457
0.4,0.0,1.0,0.0,0.0,0,-2.042725,0.88534355,-0.6257564,-0.4508074,0.73624015,1.2207406,0.6657651,1.7779926,0.97991365,-0.30392885,-0.07946283,1.4164486,1.311994,0.1501525
0.4,0.0,1.0,0.0,0.0,0,-2.0475996,0.8903219,-0.624813,-0.3933932,0.6721298,1.2063642,0.775953,1.7031258,0.9850091,-0.30933562,-0.07847989,1.4212003,1.4218025,0.05791325
0.4,0.0,1.0,0.0,0.0,0,-1.9665629,0.93808436,-0.68555784,-0.4871305,0.74960524,1.2327456,0.7746821,1.7133698,1.0099393,-0.26599044,-0.096706934,1.298293,1.3466523,-0.025798243
0.4,0.0,1.0,0.0,0.0,0,-2.0360243,0.9031655,-0.6304542,-0.44157982,0.7337203,1.1931378,0.74059176,1.6796988,1.015487,-0.28353685,-0.10838514,1.3422097,1.5360792,0.16115029
0.4,0.0,1.0,0.0,0.0,0,-2.0550458,0.947021,-0.5943342,-0.48018053,0.75577146,1.2104701,0.5181072,1.7100289,1.0045505,-0.3691921,-0.13478874,1.558793,1.4167337,0.13920194
0.4,0.0,1.0,0.0,0.0,0,-2.013455,0.8935442,-0.6658865,-0.43036342,0.7513917,1.2362043,0.6977426,1.783853,0.96900433,-0.31694356,-0.05253633,1.336076,1.4393318,0.14913101
0.4,0.0,1.0,0.0,0.0,0,-2.0412593,0.922957,-0.6272475,-0.47948986,0.7795619,1.197856,0.75136924,1.681473,0.97042155,-0.2780787,-0.097474225,1.3275313,1.4329957,0.08413778
0.4,0.0,1.0,0.0,0.0,0,-1.9578182,0.9424972,-0.75491047,-0.4580311,0.7518278,1.1810166,0.62773836,1.6527909,0.9767583,-0.23947953,-0.07891541,1.359192,1.3822309,0.089317314
0.4,0.0,1.0,0.0,0.0,0,-2.0760756,0.9202136,-0.5932198,-0.41514176,0.73542756,1.2210447,0.7927245,1.7356546,1.0018295,-0.33583105,-0.09437912,1.5119758,1.3839811,0.15122083
0.4,0.0,1.0,0.0,0.0,0,-2.0096457,0.95773125,-0.6762148,-0.43251306,0.74369496,1.2333748,0.6504534,1.7825338,0.9926368,-0.42214218,-0.11625685,1.3155196,1.4918922,0.13123284
0.4,0.0,1.0,0.0,0.0,0,-2.0506895,0.93219453,-0.6313872,-0.413693,0.7545969,1.2522231,0.7634812,1.7208709,1.0017916,-0.326569,-0.13647087,1.3399376,1.4338106,0.11894672
0.4,0.0,1.0,0.0,0.0,0,-2.047428,0.93759984,-0.61538136,-0.42069718,0.77492535,1.2135694,0.710636,1.6997124,0.9910007,-0.36535415,-0.11992157,1.2986789,1.5069296,0.09969517
0.4,0.0,1.0,0.0,0.0,0,-2.002525,0.8800811,-0.6628955,-0.3764919,0.7396613,1.218364,0.7187128,1.6466141,1.0336615,-0.27824822,-0.13030455,1.4219531,1.4269793,0.106258415
0.4,0.0,1.0,0.0,0.0,0,-2.0537648,0.9230116,-0.6017464,-0.49895248,0.7987107,1.1930664,0.64529157,1.6999983,0.9553857,-0.23792902,-0.11257575,1.3177642,1.2747691,0.18224286
0.4,0.0,1.0,0.0,0.0,0,-2.0462599,0.94819784,-0.6090312,-0.46584642,0.74200517,1.2033732,0.48930174,1.693056,0.99019134,-0.28228375,-0.12627597,1.3415121,1.3404554,0.031298343
0.4,0.0,1.0,0.0,0.0,0,-2.033347,0.94424,-0.5993913,-0.46266603,0.70799744,1.1661377,0.80317104,1.6528287,1.0221729,-0.26563266,-0.13952228,1.3397785,1.4488044,0.17529151
0.4,0.0,1.0,0.0,0.0,0,-2.0410953,0.9146449,-0.65178305,-0.4122869,0.76461905,1.2732632,0.7687635,1.6890689,1.0465136,-0.29052618,-0.12889475,1.5011396,1.43615,0.12078565
0.4,0.0,1.0,0.0,0.0,0,-2.021074,0.91509414,-0.57976437,-0.43047276,0.76704067,1.264153,0.7583468,1.6950411,1.0185899,-0.3151191,-0.07938816,1.1583056,1.4593365,0.14952534
0.4,0.0,1.0,0.0,0.0,0,-2.0023534,0.9154264,-0.67802817,-0.39238444,0.6878249,1.2807171,0.8489541,1.7156782,1.0079439,-0.3857304,-0.123102136,1.5087115,1.4179435,0.105729446
0.4,0.0,1.0,0.0,0.0,0,-1.9868741,0.9163388,-0.6638713,-0.34008938,0.7322738,1.2172831,0.6992042,1.6274103,0.9815431,-0.2296032,-0.112284765,1.2143213,1.3972288,0.10788697
0.4,0.0,1.0,0.0,0.0,0,-1.9875478,0.92215854,-0.6610134,-0.46756178,0.78587264,1.2669625,0.65044016,1.7459877,1.0871505,-0.21486837,-0.09470342,1.3196251,1.4710249,0.089445435
0.4,0.0,1.0,0.0,0.0,0,-1.9589157,0.90836334,-0.6868898,-0.49723563,0.7585791,1.186276,0.67362666,1.7831699,0.9875462,-0.29599637,-0.106009975,1.1128916,1.3535714,0.1155684
0.4,0.0,1.0,0.0,0.0,0,-2.024174,0.9531693,-0.6268315,-0.45947936,0.6668061,1.2710983,0.78202474,1.6258515,1.0122843,-0.2155462,-0.121757664,1.2993568,1.4301616,0.15453887
0.4,0.0,1.0,0.0,0.0,0,-2.0015237,0.92415273,-0.6688953,-0.4494111,0.7537119,1.2402264,0.67985076,1.6763656,1.0201756,-0.27323645,-0.124875166,1.3599818,1.3792443,0.06599196
0.4,0.0,1.0,0.0,0.0,0,-2.030694,0.93768305,-0.6139039,-0.42589527,0.7141611,1.2283144,0.5645986,1.7167692,1.0160812,-0.3373238,-0.048049927,1.6083783,1.3646873,0.06973542
0.4,0.0,1.0,0.0,0.0,0,-1.9512068,0.96330446,-0.7334287,-0.46569481,0.69657385,1.241913,0.7798869,1.7078688,1.0203749,-0.3310329,-0.12103914,1.388544,1.4015951,0.122806124
0.4,0.0,1.0,0.0,0.0,0,-2.0714188,0.9033344,-0.5400461,-0.46689358,0.75012016,1.2780032,0.6929178,1.7202595,0.9727685,-0.33309785,-0.10577156,1.3086529,1.3586316,0.08226548
0.4,0.0,1.0,0.0,0.0,0,-2.1801794,0.9058997,-0.64961,-0.45087853,0.78175825,1.1649529,0.73618275,1.702354,0.96929455,-0.102675445,-0.07233074,1.7172526,1.4665515,0.14810844
0.4,0.0,1.0,0.0,0.0,0,-2.1323225,0.93849754,-0.67212987,-0.4506806,0.7235019,1.1930741,0.8518128,1.6124789,0.9688301,-0.13824505,-0.12453809,1.4729081,1.4893749,0.06582748
0.4,0.0,1.0,0.0,0.0,0,-2.1595876,0.9743694,-0.6527521,-0.44880146,0.75119615,1.2444837,0.57137066,1.6079998,0.9448324,-0.05665941,-0.09428195,1.3392284,1.4161122,0.10998187
0.4,0.0,1.0,0.0,0.0,0,-2.17563,0.879193,-0.61992913,-0.31861368,0.7564288,1.2289252,0.48677453,1.6332564,0.9794318,-0.20757544,-0.15797421,1.5828032,1.5003816,0.14374901
0.4,0.0,1.0,0.0,0.0,0,-2.2088065,0.9029033,-0.59035677,-0.35696083,0.79209596,1.2084256,0.7381904,1.7005266,0.92576355,-0.20004645,-0.10852886,1.3657153,1.4206822,0.09130196
0.4,0.0,1.0,0.0,0.0,0,-2.116314,0.9331331,-0.6561063,-0.49905628,0.7145256,1.1694373,0.79744923,1.6980295,0.97620887,-0.24933064,-0.11263401,1.4754022,1.554955,0.045449212
0.4,0.0,1.0,0.0,0.0,0,-2.1478794,0.8939701,-0.60516196,-0.4868217,0.6590615,1.1946552,0.5258939,1.7618493,0.9818932,-0.18457745,-0.14989114,1.4645888,1.3978058,0.021264588
0.4,0.0,1.0,0.0,0.0,0,-2.078034,0.90846074,-0.6884451,-0.44142437,0.8054838,1.2098345,0.5676033,1.8177669,0.99359417,-0.23563002,-0.104639895,1.3710194,1.4954094,0.13252419
0.4,0.0,1.0,0.0,0.0,0,-2.1197762,0.90522015,-0.63980573,-0.4283695,0.7667555,1.1531715,0.6896054,1.7952918,0.9607258,-0.30490094,-0.08430769,1.6568421,1.4272958,0.1436577
0.4,0.0,1.0,0.0,0.0,0,-2.1790054,0.86520016,-0.5665717,-0.4168812,0.7158196,1.2244836,0.7502165,1.643167,0.9614282,-0.12655579,-0.118404396,1.4572134,1.413087,0.033544626
0.4,0.0,1.0,0.0,0.0,0,-2.077787,0.8768096,-0.6695492,-0.43212843,0.73727584,1.204112,0.82316023,1.7542481,1.0054358,-0.07880877,-0.10955014,1.4457674,1.3030148,0.0079671275
0.4,0.0,1.0,0.0,0.0,0,-2.1629922,0.96994966,-0.57143164,-0.4670569,0.75898767,1.2367554,0.7408903,1.7448887,0.9281673,-0.24722593,-0.13098241,1.4134929,1.3892,0.082373954
0.4,0.0,1.0,0.0,0.0,0,-2.1298866,0.9660163,-0.65671825,-0.42840797,0.79883987,1.2476579,0.67095494,1.6463902,1.0588416,-0.05816371,-0.10408681,1.527313,1.4937488,0.10014494
0.4,0.0,1.0,0.0,0.0,0,-2.1114724,0.9572272,-0.6573441,-0.42409274,0.77506083,1.1846778,0.6765805,1.6789109,1.0093789,-0.17502746,-0.108750455,1.495809,1.4620949,0.091729075
0.4,0.0,1.0,0.0,0.0,0,-2.0445142,0.92575073,-0.6225817,-0.3832566,0.70489687,1.232427,0.70274043,1.7268478,1.0112664,-0.12978749,-0.0962742,1.4039422,1.3121701,0.09197901
0.4,0.0,1.0,0.0,0.0,0,-2.1561384,0.9309566,-0.56956446,-0.49228117,0.68494517,1.2846255,0.6443367,1.803234,0.9761822,-0.1942138,-0.09115939,1.3033111,1.4468902,0.11500397
0.4,0.0,1.0,0.0,0.0,0,-2.0976522,0.94958603,-0.6293929,-0.5264918,0.7237512,1.1357893,0.76009476,1.7794495,0.97996664,-0.19217175,-0.11801101,1.408489,1.3358119,0.09812169
0.4,0.0,1.0,0.0,0.0,0,-2.085436,0.8942959,-0.60479385,-0.44964805,0.7366415,1.2286277,0.72380567,1.7939633,0.969562,-0.2636019,-0.11210977,1.3086916,1.4205824,0.078536615
0.4,0.0,1.0,0.0,0.0,0,-2.1126556,0.89819646,-0.5806159,-0.44272062,0.7821826,1.1726036,0.6283807,1.6966215,0.9475151,-0.1323931,-0.10555086,1.2623807,1.3484433,0.076721005
0.4,0.0,1.0,0.0,0.0,0,-2.0694861,0.9431357,-0.6529739,-0.4983157,0.7177117,1.2004396,0.5527327,1.748551,1.013539,-0.13931908,-0.08476011,1.3710245,1.4467286,0.111826606
0.4,0.0,1.0,0.0,0.0,0,-2.0978317,0.9010815,-0.61439407,-0.48706388,0.7342886,1.2544749,0.7377721,1.7582754,1.0140309,-0.22321482,-0.09326064,1.4347216,1.4451056,0.073457606
0.4,0.0,1.0,0.0,0.0,0,-2.071436,0.90297467,-0.5693235,-0.4651612,0.7246348,1.2598052,0.6909282,1.7982856,1.027459,-0.25805348,-0.117664896,1.3747424,1.4220761,0.13080184
0.4,0.0,1.0,0.0,0.0,0,-2.0992522,0.8904324,-0.5966098,-0.49981594,0.71297944,1.2759675,0.75466925,1.801608,0.96011585,-0.2666207,-0.106181726,1.2463498,1.3895822,0.06280354
0.4,0.0,1.0,0.0,0.0,0,-2.0214024,0.98328054,-0.6975926,-0.46207288,0.7809375,1.2054505,0.8331459,1.7585341,1.0379546,-0.18367685,-0.079261005,1.3944247,1.3954651,0.0854898
0.4,0.0,1.0,0.0,0.0,0,-2.0434763,0.89047086,-0.63398844,-0.43054816,0.6802263,1.2255743,0.49356896,1.7667145,0.9647458,-0.3247346,-0.09291701,1.2904491,1.4499655,0.09338579
0.4,0.0,1.0,0.0,0.0,0,-2.03057,0.8483561,-0.6037657,-0.3969969,0.69765437,1.2101157,0.6927444,1.8300796,1.0484058,-0.244724,-0.12324765,1.3385321,1.3886853,0.1496308
0.4,0.0,1.0,0.0,0.0,0,-2.0227218,0.95995384,-0.64737827,-0.4401159,0.67366934,1.2056229,0.6938917,1.7522013,0.9586217,-0.284389,-0.096747175,1.3365221,1.2718282,0.047716487
0.4,0.0,1.0,0.0,0.0,0,-2.0320024,0.8637536,-0.60007674,-0.38717532,0.73198056,1.188188,0.7383384,1.7365572,1.0176806,-0.27151248,-0.12682006,1.2885865,1.4389265,0.12508427
0.4,0.0,1.0,0.0,0.0,0,-2.0104928,0.9493215,-0.6152016,-0.46176282,0.7946941,1.2284999,0.80369204,1.745818,0.98573947,-0.3386779,-0.12197742,1.223584,1.360653,0.086924195
0.4,0.0,1.0,0.0,0.0,0,-2.0198598,0.9633816,-0.6607779,-0.449812,0.8015457,1.22693,0.77530795,1.7407162,1.009273,-0.25396,-0.116369516,1.2921926,1.392997,0.12855639
0.4,0.0,1.0,0.0,0.0,0,-1.9992054,0.91139644,-0.6585772,-0.36864913,0.7990317,1.2698977,0.63306963,1.6907302,0.98631614,-0.24009153,-0.12103493,1.2234879,1.3343602,0.19676544
0.4,0.0,1.0,0.0,0.0,0,-1.9408822,0.950848,-0.6758197,-0.5064569,0.6201889,1.2604076,0.611971,1.7499015,0.98321795,-0.36981928,-0.07844056,1.2260754,1.4137241,0.17393269
0.4,0.0,1.0,0.0,0.0,0,-1.9899818,0.93374693,-0.64155835,-0.4479104,0.7865363,1.2052392,0.6656012,1.662744,1.0056014,-0.16772814,-0.10639305,1.2210742,1.3249347,0.14457807
0.4,0.0,1.0,0.0,0.0,0,-2.212769,0.9404438,-0.6106267,-0.41797286,0.74585634,1.269173,0.65643877,1.715284,1.020006,-0.02018749,-0.12860653,1.5562779,1.461434,0.041507013
0.4,0.0,1.0,0.0,0.0,0,-2.1242385,0.8801104,-0.6161408,-0.3711962,0.80110556,1.2243854,0.7949885,1.755436,0.9641665,-0.117758706,-0.081183754,1.3555607,1.4168987,0.16574454
0.4,0.0,1.0,0.0,0.0,0,-2.060232,0.8832601,-0.6071587,-0.41854486,0.78953755,1.1677758,0.70918447,1.8494074,1.0248067,-0.27185076,-0.12813538,1.3883324,1.429333,0.044365264
0.4,0.0,1.0,0.0,0.0,0,-2.1440566,0.9155342,-0.5538765,-0.5030686,0.74698323,1.2725004,0.7342234,1.770542,0.97437197,-0.15180607,-0.10045538,1.1407912,1.4100956,0.05194525
0.4,0.0,1.0,0.0,0.0,0,-2.0550294,0.93770874,-0.6707989,-0.43559736,0.7513758,1.1943914,0.72564584,1.8636681,0.9722047,-0.46112347,-0.13286547,1.4231528,1.4345084,0.09388855
0.4,0.0,1.0,0.0,0.0,0,-2.0682707,0.9172597,-0.61010647,-0.4680507,0.65342456,1.2242297,0.69514924,1.7906597,1.0172032,-0.18717347,-0.120432094,1.293922,1.4017221,0.10204529
0.4,0.0,1.0,0.0,0.0,0,-1.9968714,0.9413519,-0.6589937,-0.4939931,0.73999447,1.2127144,0.6939366,1.7465107,1.0110636,-0.1757548,-0.07487304,1.2622343,1.3350517,0.033733744
0.4,0.0,1.0,0.0,0.0,0,-2.0570452,0.92829794,-0.5947645,-0.50727296,0.641276,1.2425474,0.76342964,1.7804558,0.9980443,-0.2553473,-0.13321927,1.1597801,1.4268639,0.08812704
0.4,0.0,1.0,0.0,0.0,0,-2.0748491,0.93004423,-0.591202,-0.42172346,0.7512946,1.2146745,0.71250767,1.8395114,0.99922574,-0.3507052,-0.11167922,1.3107764,1.438797,0.17871438
0.4,0.0,1.0,0.0,0.0,0,-2.0978224,0.9523458,-0.5599143,-0.46220466,0.7907502,1.2313533,0.74460524,1.7422817,1.0082613,-0.20615199,-0.102091685,1.2730422,1.2970303,0.06494041
0.4,0.0,1.0,0.0,0.0,0,-1.7929416,0.9923298,-0.68036413,-0.3482204,0.7316805,1.1824346,0.70602167,1.5782794,0.95489997,-0.55750924,-0.1163069,1.1737034,1.4358867,0.07627227
0.4,0.0,1.0,0.0,0.0,0,-1.7929416,0.9923298,-0.68036413,-0.3482204,0.7316805,1.1824346,0.70602167,1.5782794,0.95489997,-0.55750924,-0.1163069,1.1737034,1.4358867,0.07627227
0.4,0.0,1.0,0.0,0.0,0,-1.7929416,0.9923298,-0.68036413,-0.3482204,0.7316805,1.1824346,0.70602167,1.5782794,0.95489997,-0.55750924,-0.1163069,1.1737034,1.4358867,0.07627227
0.4,0.0,1.0,0.0,0.0,0,-1.7929416,0.9923298,-0.68036413,-0.3482204,0.7316805,1.1824346,0.70602167,1.5782794,0.95489997,-0.55750924,-0.1163069,1.1737034,1.4358867,0.07627227
0.4,0.0,1.0,0.0,0.0,0,-1.7929416,0.9923298,-0.68036413,-0.3482204,0.7316805,1.1824346,0.70602167,1.5782794,0.95489997,-0.55750924,-0.1163069,1.1737034,1.4358867,0.07627227
0.4,0.0,1.0,0.0,0.0,0,-1.7929416,0.9923298,-0.68036413,-0.3482204,0.7316805,1.1824346,0.70602167,1.5782794,0.95489997,-0.55750924,-0.1163069,1.1737034,1.4358867,0.07627227
0.4,0.0,1.0,0.0,0.0,0,-1.7929416,0.9923298,-0.68036413,-0.3482204,0.7316805,1.1824346,0.70602167,1.5782794,0.95489997,-0.55750924,-0.1163069,1.1737034,1.4358867,0.07627227
0.4,0.0,1.0,0.0,0.0,0,-1.7929416,0.9923298,-0.68036413,-0.3482204,0.7316805,1.1824346,0.70602167,1.5782794,0.95489997,-0.55750924,-0.1163069,1.1737034,1.4358867,0.07627227
0.4,0.0,1.0,0.0,0.0,0,-1.7929416,0.9923298,-0.68036413,-0.3482204,0.7316805,1.1824346,0.70602167,1.5782794,0.95489997,-0.55750924,-0.1163069,1.1737034,1.4358867,0.07627227
0.4,0.0,1.0,0.0,0.0,0,-2.006284,0.9107776,-0.6113571,-0.42002568,0.7255805,1.2013243,0.50146556,1.8203099,1.006176,-0.39920184,-0.120194845,1.1826192,1.4563764,0.0913618
0.4,0.0,1.0,0.0,0.0,0,-2.006284,0.9107776,-0.6113571,-0.42002568,0.7255805,1.2013243,0.50146556,1.8203099,1.006176,-0.39920184,-0.120194845,1.1826192,1.4563764,0.0913618
0.4,0.0,1.0,0.0,0.0,0,-2.006284,0.9107776,-0.6113571,-0.42002568,0.7255805,1.2013243,0.50146556,1.8203099,1.006176,-0.39920184,-0.120194845,1.1826192,1.4563764,0.0913618
0.4,0.0,1.0,0.0,0.0,0,-2.006284,0.9107776,-0.6113571,-0.42002568,0.7255805,1.2013243,0.50146556,1.8203099,1.006176,-0.39920184,-0.120194845,1.1826192,1.4563764,0.0913618
0.4,0.0,1.0,0.0,0.0,0,-2.006284,0.9107776,-0.6113571,-0.42002568,0.7255805,1.2013243,0.50146556,1.8203099,1.006176,-0.39920184,-0.120194845,1.1826192,1.4563764,0.0913618
0.4,0.0,1.0,0.0,0.0,0,-2.006284,0.9107776,-0.6113571,-0.42002568,0.7255805,1.2013243,0.50146556,1.8203099,1.006176,-0.39920184,-0.120194845,1.1826192,1.4563764,0.0913618
0.4,0.0,1.0,0.0,0.0,0,-2.006284,0.9107776,-0.6113571,-0.42002568,0.7255805,1.2013243,0.50146556,1.8203099,1.006176,-0.39920184,-0.120194845,1.1826192,1.4563764,0.0913618
0.4,0.0,1.0,0.0,0.0,0,-2.006284,0.9107776,-0.6113571,-0.42002568,0.7255805,1.2013243,0.50146556,1.8203099,1.006176,-0.39920184,-0.120194845,1.1826192,1.4563764,0.0913618
0.4,0.0,1.0,0.0,0.0,0,-2.006284,0.9107776,-0.6113571,-0.42002568,0.7255805,1.2013243,0.50146556,1.8203099,1.006176,-0.39920184,-0.120194845,1.1826192,1.4563764,0.0913618
0.4,0.0,1.0,0.0,0.0,0,-1.9869041,0.9279578,-0.64218295,-0.4667975,0.7425152,1.1729584,0.7189023,1.7717713,1.0423152,-0.26256505,-0.14998704,1.347665,1.3200101,0.1391876
0.4,0.0,1.0,0.0,0.0,0,-1.9869041,0.9279578,-0.64218295,-0.4667975,0.7425152,1.1729584,0.7189023,1.7717713,1.0423152,-0.26256505,-0.14998704,1.347665,1.3200101,0.1391876
0.4,0.0,1.0,0.0,0.0,0,-1.9869041,0.9279578,-0.64218295,-0.4667975,0.7425152,1.1729584,0.7189023,1.7717713,1.0423152,-0.26256505,-0.14998704,1.347665,1.3200101,0.1391876
0.4,0.0,1.0,0.0,0.0,0,-1.9869041,0.9279578,-0.64218295,-0.4667975,0.7425152,1.1729584,0.7189023,1.7717713,1.0423152,-0.26256505,-0.14998704,1.347665,1.3200101,0.1391876
0.4,0.0,1.0,0.0,0.0,0,-1.9869041,0.9279578,-0.64218295,-0.4667975,0.7425152,1.1729584,0.7189023,1.7717713,1.0423152,-0.26256505,-0.14998704,1.347665,1.3200101,0.1391876
0.4,0.0,1.0,0.0,0.0,0,-1.9869041,0.9279578,-0.64218295,-0.4667975,0.7425152,1.1729584,0.7189023,1.7717713,1.0423152,-0.26256505,-0.14998704,1.347665,1.3200101,0.1391876
0.4,0.0,1.0,0.0,0.0,0,-1.9869041,0.9279578,-0.64218295,-0.4667975,0.7425152,1.1729584,0.7189023,1.7717713,1.0423152,-0.26256505,-0.14998704,1.347665,1.3200101,0.1391876
0.4,0.0,1.0,0.0,0.0,0,-1.9869041,0.9279578,-0.64218295,-0.4667975,0.7425152,1.1729584,0.7189023,1.7717713,1.0423152,-0.26256505,-0.14998704,1.347665,1.3200101,0.1391876
0.4,0.0,1.0,0.0,0.0,0,-1.9869041,0.9279578,-0.64218295,-0.4667975,0.7425152,1.1729584,0.7189023,1.7717713,1.0423152,-0.26256505,-0.14998704,1.347665,1.3200101,0.1391876
0.4,0.0,1.0,0.0,0.0,0,-1.9969734,0.8838916,-0.62720454,-0.39174116,0.7419353,1.2129176,0.7377308,1.7867782,0.99439365,-0.32607678,-0.09036094,1.3410646,1.3220285,0.16170536
0.4,0.0,1.0,0.0,0.0,0,-1.9969734,0.8838916,-0.62720454,-0.39174116,0.7419353,1.2129176,0.7377308,1.7867782,0.99439365,-0.32607678,-0.09036094,1.3410646,1.3220285,0.16170536
0.4,0.0,1.0,0.0,0.0,0,-1.9969734,0.8838916,-0.62720454,-0.39174116,0.7419353,1.2129176,0.7377308,1.7867782,0.99439365,-0.32607678,-0.09036094,1.3410646,1.3220285,0.16170536
0.4,0.0,1.0,0.0,0.0,0,-1.9969734,0.8838916,-0.62720454,-0.39174116,0.7419353,1.2129176,0.7377308,1.7867782,0.99439365,-0.32607678,-0.09036094,1.3410646,1.3220285,0.16170536
0.4,0.0,1.0,0.0,0.0,0,-1.9969734,0.8838916,-0.62720454,-0.39174116,0.7419353,1.2129176,0.7377308,1.7867782,0.99439365,-0.32607678,-0.09036094,1.3410646,1.3220285,0.16170536
