sanky1234/BimanualDexCatch/isaacgymenvs/cem_results/May31/football_pose_0.1_0.1_1.2999999999999998_0.0_0.0_0_2025-05-31.csv
x,y,z,roll,pitch,yaw,robot1/joint1,robot1/joint2,robot1/joint3,robot1/joint4,robot1/joint5,robot1/joint6,robot1/joint7,robot2/joint1,robot2/joint2,robot2/joint3,robot2/joint4,robot2/joint5,robot2/joint6,robot2/joint7
0.1,0.1,1.2999999999999998,0.0,0.0,0,0.566132,-1.283474,0.0051155775,-0.4776033,-0.5815465,0.27218303,0.68940485,1.1094406,-0.46120882,1.5382718,-0.29926342,-0.15166467,0.6923725,-0.026298262
0.1,0.1,1.2999999999999998,0.0,0.0,0,0.5558931,-1.2822244,-0.027129656,-0.46596953,-0.29574844,0.21273528,0.6133218,1.1237898,-0.49767253,1.5380081,-0.34773418,-0.057365194,0.6948949,0.15591691
0.1,0.1,1.2999999999999998,0.0,0.0,0,0.5638635,-1.2861242,0.019089494,-0.4602603,-0.751207,0.35274702,0.42958328,1.1563206,-0.52508026,1.5375773,-0.36545563,-0.06149758,0.73210657,0.31744692
0.1,0.1,1.2999999999999998,0.0,0.0,0,0.63740134,-1.2856721,0.15892698,-0.47893053,0.27372545,0.300569,0.7944718,1.1033349,-0.5719838,1.5424701,-0.37864435,-0.12643863,0.6784931,0.1190743
0.1,0.1,1.2999999999999998,0.0,0.0,0,0.5747773,-1.2802647,-0.017184837,-0.4573103,1.1338876,0.43651173,0.5931149,1.1465329,-0.5703957,1.4875245,-0.30237204,-0.1978842,0.69702977,0.027604293
0.1,0.1,1.2999999999999998,0.0,0.0,0,0.5574898,-1.2729669,0.009782263,-0.46496746,0.53600603,0.36000457,0.57216763,1.1258923,-0.60511744,1.5253649,-0.36135787,-0.15392934,0.67461866,0.026089218
0.1,0.1,1.2999999999999998,0.0,0.0,0,0.5724994,-1.2816606,-0.00081286335,-0.45903185,-1.3519841,0.4498875,0.30093673,1.1145872,-0.528159,1.5320786,-0.3614568,-0.011522019,0.6813209,0.00531981
0.1,0.1,1.2999999999999998,0.0,0.0,0,0.57530606,-1.2807385,0.027641365,-0.47021374,0.06088683,0.23201819,0.71067643,1.1610959,-0.5919409,1.5448167,-0.35935172,-0.122755066,0.6491073,-0.025592359
0.1,0.1,1.2999999999999998,0.0,0.0,0,0.58198136,-1.2871685,0.009850949,-0.4628976,-0.66453683,0.3436811,0.270485,1.1314116,-0.53431493,1.5228668,-0.35762897,-0.04313981,0.6810982,0.2526418
0.1,0.1,1.2999999999999998,0.0,0.0,0,0.56815726,-1.2822669,-0.01667525,-0.45401397,-0.08487547,0.43899044,0.44951984,1.1003404,-0.55616254,1.5065522,-0.33134052,-0.051063687,0.6640656,0.21121497
0.1,0.1,1.2999999999999998,0.0,0.0,0,0.5682399,-1.2851795,-0.008610996,-0.46472037,-0.7263176,0.4955832,0.3869525,1.1068263,-0.50168,1.5678464,-0.36645228,-0.112607725,0.712253,0.2071071
0.1,0.1,1.2999999999999998,0.0,0.0,0,0.5793897,-1.2792634,0.042195648,-0.4473953,-0.35370734,0.38997123,0.24991556,1.1227877,-0.5381131,1.5153712,-0.36887836,-0.014422789,0.68961686,0.2755486
0.1,0.1,1.2999999999999998,0.0,0.0,0,0.5893864,-1.2808728,-0.010781138,-0.4656734,0.21539463,0.05235389,0.6172725,1.1044365,-0.6319752,1.4646857,-0.3033678,-0.15013161,0.67875576,0.43132803
0.1,0.1,1.2999999999999998,0.0,0.0,0,0.58253074,-1.2814654,0.0004919405,-0.4559914,0.046708856,0.3698189,0.5057221,1.1195819,-0.42869255,1.5327104,-0.30383742,-0.092360534,0.6737681,0.060685225
0.1,0.1,1.2999999999999998,0.0,0.0,0,0.5508031,-1.2852553,-0.07701102,-0.4694272,-0.512785,0.43378285,0.34617445,1.1089665,-0.5687902,1.4931533,-0.30343807,-0.11383405,0.6305642,0.07322129
0.1,0.1,1.2999999999999998,0.0,0.0,0,0.5855816,-1.2926166,-0.002076569,-0.44550586,0.93035966,0.5573088,0.48361585,1.1443355,-0.56339425,1.5721184,-0.37696552,-0.073401645,0.7040175,0.21053961
0.1,0.1,1.2999999999999998,0.0,0.0,0,0.5642552,-1.2852538,-0.040197313,-0.4692797,0.10926378,0.2964907,0.22111186,1.1313337,-0.6032177,1.5838468,-0.38909644,-0.14156371,0.72015744,0.5299082
0.1,0.1,1.2999999999999998,0.0,0.0,0,0.6114272,-1.2899222,0.05062058,-0.4612549,-0.4135233,0.3384647,0.2514748,1.0892113,-0.6400836,1.4985542,-0.32992634,-0.05685531,0.67255896,-0.03247344
0.1,0.1,1.2999999999999998,0.0,0.0,0,0.5612971,-1.2752681,-0.0016965582,-0.47004673,-0.57581997,0.24964882,0.08767999,1.0916893,-0.58535457,1.5290089,-0.34186584,-0.13387382,0.68497664,0.51968133
0.1,0.1,1.2999999999999998,0.0,0.0,0,0.62645483,-1.2790353,0.059405953,-0.47065762,-0.9309102,0.32016456,0.66837347,1.1235855,-0.5086982,1.5523773,-0.31739298,-0.09995055,0.65036774,0.21672153
0.1,0.1,1.2999999999999998,0.0,0.0,0,0.5846311,-1.2853516,0.039947983,-0.45474803,0.2703033,0.44952682,0.34575957,1.1047589,-0.5942213,1.5046035,-0.37365827,-0.08017304,0.7220481,0.42567274
0.1,0.1,1.2999999999999998,0.0,0.0,0,0.5902994,-1.2775638,-0.0368559,-0.45696887,0.44820097,0.36861515,0.20175809,1.1387609,-0.541459,1.576738,-0.34439963,-0.07547553,0.67625856,0.37651435
0.1,0.1,1.2999999999999998,0.0,0.0,0,0.62850755,-1.2832953,0.029937016,-0.47139305,-0.38535264,0.2934865,0.053492445,1.1362929,-0.5824973,1.5519378,-0.3211523,-0.11260249,0.64746964,0.016322097
0.1,0.1,1.2999999999999998,0.0,0.0,0,0.56842715,-1.2844973,-0.13009368,-0.4724402,0.09174411,0.18407391,0.4894486,1.0753411,-0.49031237,1.4873103,-0.29575247,0.040543724,0.68455565,0.16012624
0.1,0.1,1.2999999999999998,0.0,0.0,0,0.65082455,-1.2870868,0.019347174,-0.4630494,-0.7885179,0.48113307,0.42470843,1.1016921,-0.7255514,1.505142,-0.36667508,-0.05237119,0.68304205,0.3065704
0.1,0.1,1.2999999999999998,0.0,0.0,0,0.66171145,-1.2884322,0.028005702,-0.48056373,0.088047005,0.2625289,0.74109745,1.1156567,-0.6539162,1.5435917,-0.3427306,-0.010652719,0.7136061,0.20943956
0.1,0.1,1.2999999999999998,0.0,0.0,0,0.48467663,-1.2864784,0.16517043,-0.4655797,0.3508921,0.2886025,0.2589419,1.1017197,-0.43223396,1.4794644,-0.40548056,-0.028748248,0.6817197,0.13209483
0.1,0.1,1.2999999999999998,0.0,0.0,0,0.41107345,-1.2813426,0.12279797,-0.44838643,-0.5399269,0.20068687,0.36445925,1.0737295,-0.4388869,1.5073916,-0.42057154,0.013281612,0.69747645,0.07950752
0.1,0.1,1.2999999999999998,0.0,0.0,0,0.47141945,-1.286195,0.16598429,-0.47106117,0.27174142,0.24129784,0.5465134,1.0898541,-0.42238456,1.579679,-0.41687196,-0.0012814049,0.6990343,0.31130663
0.1,0.1,1.2999999999999998,0.0,0.0,0,0.39507443,-1.2863047,0.040643882,-0.4634429,0.54687893,0.14597353,0.66728514,1.1098901,-0.42709115,1.5173303,-0.34574977,-0.049757984,0.67778015,0.13782895
0.1,0.1,1.2999999999999998,0.0,0.0,0,0.48176733,-1.286285,0.12974876,-0.4612705,-0.24988095,0.18752505,0.14855325,1.1178834,-0.39299077,1.477599,-0.38317144,-0.10871763,0.743539,0.3609741
0.1,0.1,1.2999999999999998,0.0,0.0,0,0.46879193,-1.2881233,0.061955497,-0.45442402,0.67182577,0.33573002,0.43330312,1.0801169,-0.53501993,1.3822945,-0.34844527,-0.013160456,0.7014459,0.91944855
0.1,0.1,1.2999999999999998,0.0,0.0,0,0.47181112,-1.2785527,0.039115474,-0.4537846,-0.0648379,0.53855747,0.40088502,1.1252553,-0.47471708,1.526757,-0.39230233,-0.07881076,0.68668467,0.052981567
0.1,0.1,1.2999999999999998,0.0,0.0,0,0.4894098,-1.2803018,0.11091269,-0.4695374,0.14507946,0.25423265,0.74074334,1.1034029,-0.45099676,1.5031397,-0.39045438,-0.12495966,0.7093014,0.36056122
0.1,0.1,1.2999999999999998,0.0,0.0,0,0.4255278,-1.280646,0.012663402,-0.4561423,0.21041529,0.30308002,0.35833353,1.1132165,-0.43681136,1.3872421,-0.30283815,-0.003502089,0.65557307,0.56000423
0.1,0.1,1.2999999999999998,0.0,0.0,0,0.4953039,-1.2755759,0.07134271,-0.46718496,-1.2902354,0.43223694,0.40953508,1.1351458,-0.40830722,1.5111965,-0.28749642,-0.08620442,0.68818915,0.009123801
0.1,0.1,1.2999999999999998,0.0,0.0,0,0.4380228,-1.2785345,0.054461934,-0.47047347,-1.0893737,0.32869264,0.40037495,1.1418688,-0.44683403,1.4492885,-0.3768895,-0.12233435,0.72109246,0.20287809
0.1,0.1,1.2999999999999998,0.0,0.0,0,0.46039376,-1.2861917,0.04015237,-0.46227583,-0.5548462,0.38953587,0.32160395,1.1165867,-0.46225262,1.510836,-0.39655566,-0.099486925,0.6999663,0.23083144
0.1,0.1,1.2999999999999998,0.0,0.0,0,0.50263804,-1.2937577,0.112026826,-0.4702421,0.37970176,0.4506201,0.44614327,1.1080128,-0.6391347,1.5804622,-0.36278868,-0.053216405,0.6615023,0.20212317
0.1,0.1,1.2999999999999998,0.0,0.0,0,0.47840217,-1.2802559,0.1125999,-0.4689583,-0.11027825,0.38097328,0.5390544,1.1054989,-0.5869966,1.50384,-0.44895214,-0.13951011,0.7039551,-0.25047615
0.1,0.1,1.2999999999999998,0.0,0.0,0,0.450588,-1.2818294,-0.022565734,-0.4660763,0.45228332,0.55786365,0.3266543,1.0742418,-0.46969447,1.4859387,-0.39146578,-0.036335606,0.6936488,0.21508087
0.1,0.1,1.2999999999999998,0.0,0.0,0,0.48846877,-1.2904547,0.080641754,-0.47387135,-0.91681063,0.50613624,0.50364065,1.0890534,-0.59197986,1.379769,-0.31259927,-0.07207947,0.7036118,0.056583118
0.1,0.1,1.2999999999999998,0.0,0.0,0,0.47457272,-1.2899376,0.049845964,-0.45533395,-0.6012844,0.3161286,0.57869875,1.1182468,-0.51081634,1.4922267,-0.384521,-0.027791046,0.6615089,0.06895064
0.1,0.1,1.2999999999999998,0.0,0.0,0,0.45368373,-1.2871634,-0.0054677785,-0.4657467,-0.0029113882,0.2422334,0.1472677,1.1272116,-0.4399902,1.5873843,-0.36209163,-0.08372379,0.62429464,0.38324147
0.1,0.1,1.2999999999999998,0.0,0.0,0,0.54943776,-1.2746482,0.16041173,-0.46573257,-0.15935838,0.35733035,0.67429024,1.051658,-0.42586023,1.4317354,-0.2683473,-0.0021226278,0.6828068,0.225114
0.1,0.1,1.2999999999999998,0.0,0.0,0,0.46903777,-1.287828,-0.0010505688,-0.4778227,-0.7396971,0.33373478,0.5129049,1.0762564,-0.6018398,1.490256,-0.39245424,-0.11723248,0.66446245,0.27451926
0.1,0.1,1.2999999999999998,0.0,0.0,0,0.4657354,-1.2922113,0.02100712,-0.45159534,-1.7645618,0.095446184,0.53233856,1.1373061,-0.549112,1.4071546,-0.30887413,-0.08858037,0.6928158,0.5505925
0.1,0.1,1.2999999999999998,0.0,0.0,0,0.44611844,-1.2828344,-0.020243078,-0.46131197,0.3613836,0.047983855,0.54830027,1.137908,-0.4650567,1.5347013,-0.397495,-0.058075115,0.7048949,0.01567969
0.1,0.1,1.2999999999999998,0.0,0.0,0,0.49600548,-1.2939565,0.08227997,-0.47303033,-1.0257902,0.45379514,0.55616647,1.0894694,-0.4844792,1.5752475,-0.4382423,-0.10247591,0.7305615,0.23730592
0.1,0.1,1.2999999999999998,0.0,0.0,0,0.52942276,-1.2848067,0.047306627,-0.46990314,0.34592265,0.36121538,0.4231585,1.114696,-0.4789259,1.5005322,-0.3006994,-0.016039714,0.69906723,-0.10782577
0.1,0.1,1.2999999999999998,0.0,0.0,0,0.4671855,-1.2913022,0.03826849,-0.47471252,-0.816849,0.3471987,0.41904348,1.1021622,-0.5039046,1.5347781,-0.42043662,-0.063724846,0.70277715,0.41836298
0.1,0.1,1.2999999999999998,0.0,0.0,0,0.4973413,-1.2879537,0.082747586,-0.4646664,0.4744799,0.37252268,0.55426157,1.1045604,-0.5216193,1.530083,-0.4293813,-0.047533408,0.71855545,0.14754409
0.1,0.1,1.2999999999999998,0.0,0.0,0,0.43592146,-1.287857,-0.019459417,-0.46605945,1.0760652,0.3823295,0.42902032,1.1378163,-0.48580068,1.5038769,-0.38677937,-0.11757575,0.721552,0.22820467
0.1,0.1,1.2999999999999998,0.0,0.0,0,0.4777775,-1.2819922,0.017313268,-0.4638237,0.22651015,0.31516057,0.35041422,1.1439521,-0.55505437,1.5188478,-0.392097,-0.124094695,0.6721128,0.16780496
0.1,0.1,1.2999999999999998,0.0,0.0,0,0.4735651,-1.2900168,0.044925522,-0.4576388,0.5656251,0.38191473,0.60792226,1.1553472,-0.48716924,1.5530257,-0.3962429,-0.13316415,0.6935778,0.07856574
0.1,0.1,1.2999999999999998,0.0,0.0,0,0.4387052,-1.2844942,-0.04309278,-0.46451303,0.4083048,0.23018391,0.16976805,1.132165,-0.57220393,1.5164578,-0.3872634,-0.13059965,0.68688554,0.22547825
0.1,0.1,1.2999999999999998,0.0,0.0,0,0.46223584,-1.2864591,0.027330307,-0.4712832,0.48872083,0.6699755,0.5624355,1.1291895,-0.51515776,1.5475028,-0.4197047,-0.018354725,0.68406844,0.08697305
0.1,0.1,1.2999999999999998,0.0,0.0,0,0.52645826,-1.2824335,0.13894215,-0.47365674,-0.98669237,0.2950362,0.51862997,1.1062799,-0.59653217,1.5131475,-0.43837047,-0.078662425,0.7290528,0.19073477
0.1,0.1,1.2999999999999998,0.0,0.0,0,0.4929539,-1.2952068,0.08850843,-0.4525514,0.051057562,0.31902322,0.6259766,1.1425891,-0.6337183,1.4996443,-0.4458295,-0.09179578,0.7239072,0.016704848
0.1,0.1,1.2999999999999998,0.0,0.0,0,0.5105511,-1.2811843,0.100173295,-0.46153024,-0.03667232,0.35197663,0.17006479,1.1362946,-0.49363974,1.533002,-0.35031953,-0.11571502,0.6322235,0.39862254
0.1,0.1,1.2999999999999998,0.0,0.0,0,0.52106047,-1.2888571,0.03318907,-0.46809584,0.8775171,0.22396977,0.20271017,1.1113853,-0.6041922,1.4710788,-0.2620924,-0.081082076,0.6763316,0.08507206
0.1,0.1,1.2999999999999998,0.0,0.0,0,0.538652,-1.2793201,0.13987856,-0.4618577,-0.16569634,0.4171699,0.47891843,1.0924834,-0.6272265,1.3872331,-0.3196584,-0.1336721,0.68774974,-0.22159857
0.1,0.1,1.2999999999999998,0.0,0.0,0,0.46539786,-1.281991,-0.008189593,-0.4806699,-0.45582062,0.35616294,0.42204088,1.1013354,-0.54761106,1.50938,-0.3998486,-0.11109359,0.7003288,0.1747524
0.1,0.1,1.2999999999999998,0.0,0.0,0,0.5045738,-1.2802665,0.082696065,-0.46279028,-0.16852793,0.24750514,0.29022706,1.0993938,-0.5964542,1.4991038,-0.4141631,0.015174994,0.7117773,0.4909784
0.1,0.1,1.2999999999999998,0.0,0.0,0,0.53819746,-1.2889923,0.16504298,-0.45369565,-0.3504395,0.34398708,0.45014375,1.1366286,-0.5229868,1.5571283,-0.4441603,-0.07577362,0.72124255,-0.035683222
0.1,0.1,1.2999999999999998,0.0,0.0,0,0.45505816,-1.2915326,-0.07979707,-0.45038635,-0.7726736,0.328833,0.4931248,1.1161938,-0.5772774,1.529761,-0.398063,-0.037731096,0.68051934,0.21602134
0.1,0.1,1.2999999999999998,0.0,0.0,0,0.5031902,-1.2912687,0.060580023,-0.4734136,1.1183945,0.36429983,0.52262163,1.1359425,-0.53611284,1.5388901,-0.3939335,-0.030809926,0.67043567,0.43381003
0.1,0.1,1.2999999999999998,0.0,0.0,0,0.47370797,-1.2804977,0.0130003765,-0.46133745,0.0029516183,0.13657738,0.37835374,1.0991244,-0.4929523,1.4907337,-0.36398232,0.0075479574,0.6826158,0.37308294
0.1,0.1,1.2999999999999998,0.0,0.0,0,0.49080613,-1.2906258,0.053833652,-0.4794146,-0.5451793,0.3209463,0.11546097,1.1087325,-0.5908166,1.5605541,-0.43500173,-0.09096723,0.7059559,0.46228024
0.1,0.1,1.2999999999999998,0.0,0.0,0,0.5516802,-1.2806515,0.16304952,-0.46915376,-0.2387048,0.35786253,0.8714344,1.1192706,-0.518608,1.5123577,-0.36852404,-0.07739228,0.63926256,0.21957566
0.1,0.1,1.2999999999999998,0.0,0.0,0,0.48136076,-1.2857513,0.0431234,-0.47150877,0.17187054,0.4615374,0.31435278,1.1133295,-0.62354934,1.5397707,-0.43747482,-0.14984968,0.70438766,0.078806
0.1,0.1,1.2999999999999998,0.0,0.0,0,0.5330045,-1.2780988,0.17878626,-0.46674934,-0.36275056,0.33480936,0.6435772,1.1501862,-0.4330444,1.5465692,-0.41161627,-0.058546785,0.7291334,0.33519992
0.1,0.1,1.2999999999999998,0.0,0.0,0,0.4875542,-1.2842585,0.04000296,-0.45850706,-1.0470458,0.27951342,0.58771646,1.1706283,-0.5798825,1.5493413,-0.41699505,-0.04431019,0.70202756,0.13921648
0.1,0.1,1.2999999999999998,0.0,0.0,0,0.4849677,-1.282337,0.00942641,-0.45543355,-0.89096886,0.21376579,0.7212052,1.1154386,-0.58403283,1.5441675,-0.4283936,-0.18630034,0.73621017,-0.06557296
0.1,0.1,1.2999999999999998,0.0,0.0,0,0.48711264,-1.2785785,0.07095212,-0.4712848,-0.26302096,0.25508377,0.9117754,1.1388599,-0.609649,1.4326415,-0.37226924,-0.07202981,0.6791038,0.1994442
0.1,0.1,1.2999999999999998,0.0,0.0,0,0.4716205,-1.2878453,0.021090752,-0.46117517,0.051396467,0.43556646,0.42610487,1.0887487,-0.45200258,1.5744817,-0.38616562,-0.04291509,0.66584617,0.6504591
0.1,0.1,1.2999999999999998,0.0,0.0,0,0.5054122,-1.2927773,0.08952469,-0.4569414,-0.033910852,0.30299363,0.36896312,1.1288041,-0.48928025,1.5032527,-0.38176575,-0.09289586,0.667482,0.030909544
0.1,0.1,1.2999999999999998,0.0,0.0,0,0.50826466,-1.2824056,0.0525636,-0.47124457,-0.72456586,0.28428498,0.5513228,1.089457,-0.48980945,1.5129,-0.3644285,-0.107657,0.7231437,0.2917846
0.1,0.1,1.2999999999999998,0.0,0.0,0,0.51171,-1.2832773,0.08061841,-0.4596998,-1.1465472,0.25792944,0.7640306,1.1199431,-0.56123006,1.534257,-0.41257045,-0.029506711,0.68018353,0.2966164
0.1,0.1,1.2999999999999998,0.0,0.0,0,0.49172595,-1.2915677,0.054374993,-0.4711322,-0.34871107,0.2430086,0.06730893,1.1470538,-0.48128808,1.5201745,-0.40102285,-0.042273443,0.73398817,0.35055804
0.1,0.1,1.2999999999999998,0.0,0.0,0,0.50936985,-1.2854862,0.056223415,-0.47030035,-0.25916943,0.2835448,0.56057376,1.1113023,-0.60784096,1.5138795,-0.39937565,0.035788663,0.6629023,0.24965653
0.1,0.1,1.2999999999999998,0.0,0.0,0,0.48836404,-1.2815088,-0.01366324,-0.46204367,0.8853607,0.44069192,1.005022,1.1203222,-0.5161234,1.5272121,-0.34961084,-0.06095013,0.63651365,0.18822432
0.1,0.1,1.2999999999999998,0.0,0.0,0,0.51943964,-1.2841582,0.1330865,-0.45580322,0.01741608,0.41597554,0.28704533,1.1376722,-0.48275927,1.555107,-0.38405165,-0.10630447,0.65762514,0.1545347
0.1,0.1,1.2999999999999998,0.0,0.0,0,0.48676252,-1.280361,0.05845484,-0.47404894,-0.18940252,0.34107322,0.6038352,1.125695,-0.5893015,1.534941,-0.43356505,0.019485405,0.70684654,0.3216317
0.1,0.1,1.2999999999999998,0.0,0.0,0,0.54009444,-1.285927,0.12590913,-0.46655303,-1.5832908,0.26686987,0.43145537,1.1448193,-0.46370864,1.495663,-0.3872314,-0.09200334,0.71585053,0.030402608
0.1,0.1,1.2999999999999998,0.0,0.0,0,0.46716696,-1.2891651,-0.05286698,-0.47797456,-0.4881044,0.1797837,0.5324206,1.1315646,-0.5902299,1.4970449,-0.38914922,-0.07777479,0.7071236,0.25052848
0.1,0.1,1.2999999999999998,0.0,0.0,0,0.4919127,-1.2873666,0.06321228,-0.4774229,0.422426,0.31348428,0.4862692,1.1147028,-0.62362415,1.4915977,-0.38592574,-0.08976324,0.6586788,0.48040846
0.1,0.1,1.2999999999999998,0.0,0.0,0,0.4920898,-1.2752932,0.07425294,-0.4803974,0.2507162,0.28329864,0.4357454,1.1159478,-0.63964945,1.4566804,-0.38728878,-0.10824996,0.67103827,0.23644455
0.1,0.1,1.2999999999999998,0.0,0.0,0,0.48258194,-1.2874827,0.0027156677,-0.4751044,-0.44862688,0.13751909,0.35640416,1.1174335,-0.5313755,1.4752029,-0.37900177,-0.04967502,0.67937124,0.02485242
0.1,0.1,1.2999999999999998,0.0,0.0,0,0.52424514,-1.2892499,0.08754271,-0.47008544,-0.8294901,0.16630718,0.49788442,1.1273557,-0.37730595,1.5613651,-0.3908342,0.0084901275,0.7024599,0.014076403
0.1,0.1,1.2999999999999998,0.0,0.0,0,0.50404733,-1.2775493,0.0829309,-0.4671906,0.66896456,0.25269678,0.4623675,1.1217933,-0.66578394,1.4791409,-0.41946265,-0.067580186,0.6705506,-0.12238452
0.1,0.1,1.2999999999999998,0.0,0.0,0,0.47790328,-1.2848144,0.027338354,-0.46155554,-0.71498036,0.14366788,0.6085852,1.1329898,-0.5771019,1.4999595,-0.38003835,-0.02651368,0.64543414,0.09807891
0.1,0.1,1.2999999999999998,0.0,0.0,0,0.4944595,-1.2809672,0.06777384,-0.45502123,0.29539758,0.23547085,0.35778892,1.1057662,-0.61507726,1.489586,-0.41231707,-0.0045672455,0.70018107,0.3747059
0.1,0.1,1.2999999999999998,0.0,0.0,0,0.5279461,-1.284937,0.09810542,-0.4775114,-1.207649,0.34344336,0.95661956,1.0786797,-0.56402254,1.4370263,-0.3510722,-0.10306366,0.70829076,0.41316986
0.1,0.1,1.2999999999999998,0.0,0.0,0,0.49154437,-1.2842085,0.019124929,-0.47215194,-1.0954831,0.089977704,0.43716267,1.0619788,-0.5680859,1.4955286,-0.39487794,-0.10066909,0.7143902,0.35825923
0.1,0.1,1.2999999999999998,0.0,0.0,0,0.50816154,-1.2849907,0.092822194,-0.47136435,-0.42747125,0.12718272,0.53057474,1.1373688,-0.5327434,1.4921409,-0.3989064,-0.055115957,0.68870795,-0.012166794
0.1,0.1,1.2999999999999998,0.0,0.0,0,0.5243461,-1.280213,0.07194559,-0.47401905,0.40659562,0.3086363,0.5227915,1.1087605,-0.5460109,1.5305208,-0.38143387,-0.10008239,0.6623076,0.19936173
0.1,0.1,1.2999999999999998,0.0,0.0,0,0.58598334,-1.284339,0.15859625,-0.47378367,-0.64305586,0.32079792,0.58128375,1.1049932,-0.8152022,1.5090536,-0.45384374,0.006166827,0.71264374,0.5409511
0.1,0.1,1.2999999999999998,0.0,0.0,0,0.5143426,-1.2829134,0.10246867,-0.4582034,-0.68839705,0.5566957,-0.18892024,1.1294258,-0.56054854,1.5323739,-0.399084,-0.12907565,0.6821808,0.34196547
0.1,0.1,1.2999999999999998,0.0,0.0,0,0.50058264,-1.2845392,0.054473065,-0.4672552,-0.17249888,0.07253467,0.41759473,1.0686444,-0.41222346,1.560344,-0.3589234,-0.13820833,0.6791748,0.28866407
0.1,0.1,1.2999999999999998,0.0,0.0,0,0.5490507,-1.2868602,0.14165108,-0.45814306,-0.5418784,0.23463961,0.59514576,1.1047637,-0.50172687,1.4451373,-0.36897907,-0.10396482,0.6920215,0.13665824
0.1,0.1,1.2999999999999998,0.0,0.0,0,0.5288197,-1.2919987,0.092601225,-0.4574768,-1.0414745,0.24457498,0.72604513,1.0739487,-0.54644525,1.5073386,-0.40659156,-0.053490985,0.67894787,0.08196327
0.1,0.1,1.2999999999999998,0.0,0.0,0,0.50391364,-1.2874585,0.07053759,-0.46287924,-0.2621798,0.28564885,0.27118883,1.1735666,-0.6334316,1.5026687,-0.38519442,-0.06383988,0.6973176,0.27343085
0.1,0.1,1.2999999999999998,0.0,0.0,0,0.48061314,-1.2869436,-0.01635095,-0.4749036,-0.16459897,0.07343932,0.17809276,1.089749,-0.5523887,1.4920926,-0.40486893,-0.012558267,0.6879388,-0.07853039
0.1,0.1,1.2999999999999998,0.0,0.0,0,0.49641094,-1.2824719,0.024146706,-0.47349435,-0.34620342,0.30393705,0.40009955,1.1014316,-0.5541624,1.5661335,-0.43943107,-0.059252676,0.6896043,-0.042321928
0.1,0.1,1.2999999999999998,0.0,0.0,0,0.45383286,-1.2872857,-0.062952116,-0.46042904,-0.4801288,0.29366007,0.61333025,1.0793314,-0.5855207,1.5092252,-0.41611207,-0.10670137,0.7264229,0.1260665
0.1,0.1,1.2999999999999998,0.0,0.0,0,0.47042534,-1.288738,-0.0016987053,-0.45803428,0.5063009,0.25110993,0.48529288,1.1127074,-0.6546091,1.5005625,-0.4099468,-0.058620922,0.6921666,0.40244466
0.1,0.1,1.2999999999999998,0.0,0.0,0,0.49804202,-1.2904598,0.054931365,-0.45639303,0.16319652,0.31093255,0.33646873,1.1465986,-0.5050245,1.5599606,-0.41466987,0.03615458,0.7209375,0.13510215
0.1,0.1,1.2999999999999998,0.0,0.0,0,0.51241106,-1.2880865,0.07160452,-0.45538595,0.026569182,0.14013547,0.22560585,1.109908,-0.5076733,1.5496777,-0.37816688,-0.11654539,0.64632636,0.18322289
0.1,0.1,1.2999999999999998,0.0,0.0,0,0.52835846,-1.2890847,0.080322266,-0.46666068,-1.8390265,0.39332816,0.72328293,1.1141999,-0.56731987,1.5098698,-0.38154495,0.030318597,0.6517856,0.22809455
0.1,0.1,1.2999999999999998,0.0,0.0,0,0.49936852,-1.2839761,0.009867246,-0.45818466,0.08162514,0.35938388,0.5220863,1.1397485,-0.5630068,1.5190469,-0.3862353,0.0014322168,0.68241173,0.17793219
0.1,0.1,1.2999999999999998,0.0,0.0,0,0.4875146,-1.2719859,0.016542664,-0.47438538,-0.8053532,0.3359657,0.7996245,1.1159439,-0.4831225,1.474433,-0.35934147,-0.042266548,0.6824114,0.07833762
0.1,0.1,1.2999999999999998,0.0,0.0,0,0.4967899,-1.2828358,0.042500746,-0.46255258,0.34033722,0.38611743,0.6266192,1.1143539,-0.581099,1.5160068,-0.41745332,-0.06387973,0.7089205,0.0134145515
0.1,0.1,1.2999999999999998,0.0,0.0,0,0.4915762,-1.2945544,0.0006154399,-0.4635099,-0.465363,0.29070404,0.20905653,1.1185066,-0.4869417,1.5392792,-0.3820767,-0.023399621,0.6914469,0.4096975
0.1,0.1,1.2999999999999998,0.0,0.0,0,0.50274026,-1.291046,0.052830353,-0.47730657,0.17839174,0.3496431,0.4659337,1.1305485,-0.6064427,1.5833894,-0.43274903,-0.048591815,0.71347874,0.27434817
0.1,0.1,1.2999999999999998,0.0,0.0,0,0.47907093,-1.279548,-0.029485516,-0.48138747,-0.5046015,0.41753447,0.37087768,1.067194,-0.58941156,1.5245736,-0.4034183,-0.09789213,0.6593542,-0.013147505
0.1,0.1,1.2999999999999998,0.0,0.0,0,0.48245192,-1.2814943,-0.032146804,-0.47143546,0.42018983,0.3690585,0.6353025,1.1191541,-0.535701,1.5849624,-0.38748774,-0.126204,0.6358936,0.07258624
0.1,0.1,1.2999999999999998,0.0,0.0,0,0.4874509,-1.281347,-0.013107748,-0.4721565,-0.26994324,0.22471641,0.5191482,1.0938362,-0.6810495,1.506804,-0.41712713,-0.03261293,0.6553424,0.016004575
0.1,0.1,1.2999999999999998,0.0,0.0,0,0.53903586,-1.2749867,0.099768534,-0.47550765,0.5509252,0.074534304,0.42085692,1.1377232,-0.5908829,1.5089155,-0.40646803,-0.017545134,0.6729365,-0.007660727
0.1,0.1,1.2999999999999998,0.0,0.0,0,0.53718936,-1.2864796,0.10596817,-0.46055496,0.06947307,0.40472028,0.567771,1.1026043,-0.52832365,1.5659108,-0.4003013,-0.048213955,0.6676162,0.5268232
0.1,0.1,1.2999999999999998,0.0,0.0,0,0.55199385,-1.2912775,0.06495127,-0.46106365,0.243387,0.30298507,0.62804955,1.0956595,-0.53447956,1.537774,-0.40754744,-0.03149988,0.73736006,0.55979854
0.1,0.1,1.2999999999999998,0.0,0.0,0,0.530299,-1.2858043,0.052631166,-0.4590602,-1.3800217,0.40378645,0.30763367,1.1459646,-0.5069866,1.5403966,-0.3611705,-0.028098078,0.6718519,0.283632
0.1,0.1,1.2999999999999998,0.0,0.0,0,0.57279366,-1.2842939,0.1292895,-0.4649692,-0.45281285,0.3066512,0.043662716,1.13414,-0.521702,1.5005319,-0.34224406,-0.029464304,0.6130304,-0.0066942507
0.1,0.1,1.2999999999999998,0.0,0.0,0,0.529371,-1.2944008,0.05470987,-0.46903098,-0.28642175,0.44007108,0.11215318,1.1393974,-0.5415408,1.5614909,-0.38209832,-0.05572543,0.66200227,0.104489625
0.1,0.1,1.2999999999999998,0.0,0.0,0,0.5168691,-1.2888474,0.065852016,-0.45813444,-0.12678443,0.3794667,0.576454,1.130379,-0.5286926,1.5520939,-0.3982447,-0.08536782,0.7011878,0.29780406
0.1,0.1,1.2999999999999998,0.0,0.0,0,0.49374625,-1.2782754,0.02814588,-0.4738481,0.13196848,0.34934115,0.54311955,1.1094525,-0.581395,1.4770323,-0.37238896,-0.076141976,0.6877117,0.45002985
0.1,0.1,1.2999999999999998,0.0,0.0,0,0.5014847,-1.2881929,-0.017742464,-0.46483454,-0.120282635,0.37598214,0.37170345,1.1246995,-0.5586811,1.5634786,-0.3823805,-0.15919237,0.6936073,0.32944685
0.1,0.1,1.2999999999999998,0.0,0.0,0,0.48852658,-1.2872722,0.011653702,-0.47253603,0.45902705,0.41142547,0.41579354,1.1248245,-0.58369553,1.5072227,-0.38099897,-0.027884664,0.64785737,0.28209874
0.1,0.1,1.2999999999999998,0.0,0.0,0,0.53836375,-1.2787478,0.098473266,-0.45863268,0.5163903,0.3284008,0.6200194,1.1404504,-0.53902256,1.4733634,-0.35478887,-0.105053924,0.69799566,0.31916013
0.1,0.1,1.2999999999999998,0.0,0.0,0,0.5391333,-1.2846984,0.09367045,-0.47029105,-0.724349,0.34707385,0.7176877,1.1294883,-0.49764994,1.529835,-0.35690087,-0.030680321,0.64142025,0.29365942
0.1,0.1,1.2999999999999998,0.0,0.0,0,0.5164942,-1.2822833,0.06504203,-0.4698696,-0.5993497,0.40358204,0.5626199,1.0980629,-0.5322782,1.5415848,-0.39315686,-0.056664966,0.6717796,0.2416591
0.1,0.1,1.2999999999999998,0.0,0.0,0,0.5037969,-1.2871039,-0.022455495,-0.48215476,-1.0720268,0.25302526,0.7369526,1.0974672,-0.53362554,1.5140755,-0.3716124,-0.07114674,0.68965673,0.27479178
0.1,0.1,1.2999999999999998,0.0,0.0,0,0.51243925,-1.2859598,0.07069588,-0.46655872,-0.73364043,0.26567838,0.42052665,1.133649,-0.57161707,1.4969763,-0.3842068,-0.08995911,0.6889881,0.20811588
0.1,0.1,1.2999999999999998,0.0,0.0,0,0.54797107,-1.2815754,0.079955034,-0.46560445,0.86079097,0.254713,0.50630873,1.1170706,-0.48489845,1.5196147,-0.35639986,-0.08356962,0.62415934,0.33872238
0.1,0.1,1.2999999999999998,0.0,0.0,0,0.51821893,-1.2845961,0.01865627,-0.48313636,0.059616122,0.3154136,0.5062792,1.1268233,-0.6347803,1.503052,-0.37899962,-0.093126275,0.6952527,0.47101477
0.1,0.1,1.2999999999999998,0.0,0.0,0,0.5127052,-1.2859193,0.052923463,-0.46721187,-0.0823716,0.29676372,0.35085404,1.0907191,-0.64161587,1.5084354,-0.42195058,-0.041071586,0.710521,0.47822723
0.1,0.1,1.2999999999999998,0.0,0.0,0,0.48890325,-1.2779506,0.026289416,-0.4735523,0.08610947,0.3073853,0.50478584,1.1067629,-0.54823554,1.5563196,-0.41687813,0.013932289,0.6895865,0.24804631
0.1,0.1,1.2999999999999998,0.0,0.0,0,0.5650928,-1.2846502,0.13338473,-0.47340795,-0.6129521,0.1735543,0.5621962,1.1156546,-0.56968373,1.5482122,-0.4338639,-0.018673634,0.74561226,0.12905237
0.1,0.1,1.2999999999999998,0.0,0.0,0,0.53474826,-1.2873654,0.06252682,-0.44318938,-0.8786927,0.26214874,0.3408788,1.1616602,-0.5199221,1.4696925,-0.32326907,-0.05008225,0.65138185,0.22148073
0.1,0.1,1.2999999999999998,0.0,0.0,0,0.5062314,-1.2787131,0.017148532,-0.47500002,-0.6002715,0.23202826,0.5947074,1.120468,-0.5819682,1.5096132,-0.38139492,0.015982602,0.6778349,0.4122736
0.1,0.1,1.2999999999999998,0.0,0.0,0,0.5173331,-1.2852049,0.06222581,-0.45269197,0.18542865,0.30792332,0.5244739,1.124333,-0.44203463,1.5271356,-0.35967514,-0.0009467961,0.66165817,0.11454771
0.1,0.1,1.2999999999999998,0.0,0.0,0,0.5580238,-1.2811787,0.12895684,-0.45997337,0.42935106,0.31734613,0.13503641,1.1105008,-0.3886239,1.5175251,-0.33181635,-0.11879989,0.67683214,0.13116914
0.1,0.1,1.2999999999999998,0.0,0.0,0,0.49445927,-1.2836719,-0.021531062,-0.47871044,-0.6863724,0.23958285,0.62195736,1.1109823,-0.5408657,1.5274882,-0.37335354,-0.05874334,0.684422,0.34565625
0.1,0.1,1.2999999999999998,0.0,0.0,0,0.5146572,-1.2834338,0.045301937,-0.45764408,-0.51627195,0.30830815,0.5604066,1.1002806,-0.5130363,1.4997402,-0.39239794,0.0672016,0.69554836,0.029194308
0.1,0.1,1.2999999999999998,0.0,0.0,0,0.54805094,-1.281216,0.13450827,-0.4828345,-0.3917181,0.41088334,0.7329521,1.1325663,-0.59704405,1.4923507,-0.4041786,-0.06336504,0.7057545,0.21151249
0.1,0.1,1.2999999999999998,0.0,0.0,0,0.5388268,-1.2850072,0.07539394,-0.46365252,-0.086596236,0.32932946,0.47846583,1.1509134,-0.55609167,1.4885783,-0.34237152,-0.09563179,0.66503894,0.3676476
0.1,0.1,1.2999999999999998,0.0,0.0,0,0.5015587,-1.27903,0.0055238935,-0.46085024,-0.55723375,0.3875933,0.37602583,1.0813004,-0.6264277,1.5420165,-0.4311186,-0.086114585,0.66849667,0.063760385
0.1,0.1,1.2999999999999998,0.0,0.0,0,0.5125064,-1.290061,0.036358003,-0.47625354,1.0039752,0.3902898,0.30309907,1.0785185,-0.620053,1.5607733,-0.45092314,-0.100253664,0.69622415,-0.083475456
0.1,0.1,1.2999999999999998,0.0,0.0,0,0.50147164,-1.2819309,0.024583232,-0.45215762,-0.34693417,0.038352523,0.40552852,1.1262224,-0.62636477,1.515738,-0.37972555,-0.15956734,0.65797347,0.22880755
0.1,0.1,1.2999999999999998,0.0,0.0,0,0.52011806,-1.2855598,0.075319245,-0.4660867,0.67970574,0.3308019,0.69961697,1.1336524,-0.49354076,1.5226511,-0.35785976,-0.06662883,0.6571052,0.28587586
0.1,0.1,1.2999999999999998,0.0,0.0,0,0.52018636,-1.2820685,0.07006377,-0.46127415,-0.6042254,0.40633085,0.7756099,1.0901977,-0.5958989,1.5324696,-0.40371454,-0.1090321,0.65438926,0.18074986
0.1,0.1,1.2999999999999998,0.0,0.0,0,0.5334315,-1.2885908,0.07177154,-0.47121057,-0.867446,0.18296434,0.6373709,1.1222188,-0.5067222,1.5237032,-0.38210422,-0.083936684,0.66116565,-0.050037604
0.1,0.1,1.2999999999999998,0.0,0.0,0,0.49769345,-1.2809223,-0.024704581,-0.45865232,-0.49141824,0.23779814,0.6603313,1.1099885,-0.6324487,1.4537233,-0.35728544,-0.19953385,0.70508677,0.30827606
0.1,0.1,1.2999999999999998,0.0,0.0,0,0.5009952,-1.275644,0.0004683052,-0.47035515,0.04615041,0.1960567,0.6145142,1.0902056,-0.46494046,1.4698418,-0.29844892,-0.10156135,0.7013322,0.27001485
0.1,0.1,1.2999999999999998,0.0,0.0,0,0.5471791,-1.2842631,0.120614566,-0.45576733,-0.89722085,0.44884554,0.40861988,1.0591476,-0.573105,1.5676558,-0.4297859,-0.04824531,0.6666504,0.1796973
0.1,0.1,1.2999999999999998,0.0,0.0,0,0.50461555,-1.281858,-0.013734261,-0.46679544,-0.7298842,0.19220398,0.37811577,1.1209397,-0.49015096,1.5449177,-0.38789424,-0.01333775,0.6637996,0.08399545
0.1,0.1,1.2999999999999998,0.0,0.0,0,0.5384606,-1.2897829,0.071190335,-0.4725772,-0.84228235,0.24040282,0.5076621,1.1086371,-0.54042566,1.6024767,-0.43848747,-0.022707239,0.7218845,0.23660752
0.1,0.1,1.2999999999999998,0.0,0.0,0,0.51479673,-1.2855753,0.018770922,-0.45955485,0.5985307,0.30031613,0.37315324,1.1130749,-0.5280231,1.5251108,-0.37165892,-0.13626486,0.65544146,0.003962239
0.1,0.1,1.2999999999999998,0.0,0.0,0,0.5551212,-1.2872862,0.10352771,-0.46214354,0.66747254,0.33523554,0.4403131,1.0884798,-0.51260304,1.5064647,-0.3421279,-0.19831203,0.70248204,0.33677834
0.1,0.1,1.2999999999999998,0.0,0.0,0,0.50682265,-1.2870355,0.025085425,-0.46169338,-0.892886,0.17572594,0.376611,1.091057,-0.49579832,1.5426875,-0.38406965,-0.08716646,0.72644854,0.46054482
0.1,0.1,1.2999999999999998,0.0,0.0,0,0.51783097,-1.2832114,0.041462425,-0.4640296,0.50291073,0.3459001,0.60944355,1.1527596,-0.58753854,1.5513387,-0.36682323,-0.15266663,0.67417234,0.2522855
0.1,0.1,1.2999999999999998,0.0,0.0,0,0.5181737,-1.2972989,0.03411051,-0.4702237,0.4474692,0.461037,0.31646043,1.0879989,-0.5402818,1.5466319,-0.40427878,-0.13890263,0.69034815,0.13140048
0.1,0.1,1.2999999999999998,0.0,0.0,0,0.5407721,-1.282197,0.08948823,-0.44934002,0.73552686,0.16598716,0.10270916,1.132331,-0.41398734,1.5201545,-0.3360792,-0.0659422,0.65895456,0.23930116
0.1,0.1,1.2999999999999998,0.0,0.0,0,0.50936145,-1.2817576,0.015211508,-0.46903554,0.2603822,0.26812142,0.8489822,1.1000671,-0.50771147,1.532192,-0.37295982,-0.08610007,0.7150654,0.41802588
0.1,0.1,1.2999999999999998,0.0,0.0,0,0.5158851,-1.2759701,0.04338229,-0.4641879,-0.06905606,0.23001589,0.6438607,1.1329595,-0.31223357,1.5847933,-0.35413152,-0.07243625,0.7153569,0.21644406
0.1,0.1,1.2999999999999998,0.0,0.0,0,0.51401234,-1.277385,0.057419714,-0.46828488,-0.8912374,0.3276868,0.76017165,1.1248883,-0.53832173,1.5090224,-0.39609095,-0.020235984,0.68464124,-0.057296593
0.1,0.1,1.2999999999999998,0.0,0.0,0,0.52539253,-1.2749529,0.04625375,-0.45620668,-0.55894405,0.30721253,0.9938734,1.0885067,-0.5329163,1.541809,-0.3930032,-0.02597484,0.6957549,0.41398063
0.1,0.1,1.2999999999999998,0.0,0.0,0,0.5618152,-1.2940724,0.09855783,-0.46045426,-0.34834546,0.32530758,0.84249055,1.1061083,-0.62311155,1.5213809,-0.40624425,-0.08941598,0.6768333,0.119453356
0.1,0.1,1.2999999999999998,0.0,0.0,0,0.5058513,-1.2876419,0.02424546,-0.4612655,-0.38902032,0.38947636,0.48359254,1.1357697,-0.44661474,1.5325711,-0.3586307,-0.011590365,0.6722638,0.4186374
0.1,0.1,1.2999999999999998,0.0,0.0,0,0.527449,-1.2869109,0.08277045,-0.4668791,-0.5647345,0.3980358,0.27859387,1.1165698,-0.60945636,1.451853,-0.37934718,-0.10764535,0.700643,0.20477308
0.1,0.1,1.2999999999999998,0.0,0.0,0,0.5271944,-1.2948684,0.025080899,-0.47058648,-0.20793462,0.27601117,0.40570727,1.114227,-0.49984455,1.5311823,-0.37804404,-0.012196859,0.6758056,0.11850567
0.1,0.1,1.2999999999999998,0.0,0.0,0,0.52296954,-1.2804817,0.044820882,-0.4710966,0.19002664,0.4994025,0.719841,1.1029159,-0.5332183,1.5276561,-0.381589,-0.029303266,0.6886591,0.40824074
0.1,0.1,1.2999999999999998,0.0,0.0,0,0.5181804,-1.2874229,0.029524751,-0.4621506,-0.100194536,0.20326507,0.5086095,1.1072327,-0.45069557,1.5709525,-0.39641443,-0.023200868,0.69565046,-0.017705545
0.1,0.1,1.2999999999999998,0.0,0.0,0,0.52624613,-1.2836311,0.046344586,-0.45990342,0.58483946,0.36945832,0.62240803,1.0754763,-0.5566053,1.492117,-0.3958123,0.03287973,0.7257868,0.48076254
0.1,0.1,1.2999999999999998,0.0,0.0,0,0.5170397,-1.2859288,0.029529605,-0.48311535,0.35596353,0.16443074,0.64082175,1.1320502,-0.663387,1.543963,-0.424647,-0.024589283,0.7106755,0.3418736
0.1,0.1,1.2999999999999998,0.0,0.0,0,0.5303204,-1.2853407,0.05604212,-0.45711553,-0.5901369,0.2758143,0.5727821,1.121846,-0.6269583,1.5295137,-0.38492465,-0.1374371,0.6454883,0.18856072
0.1,0.1,1.2999999999999998,0.0,0.0,0,0.5648877,-1.2836092,0.10581861,-0.48386344,0.43252477,0.27668095,0.5199284,1.1390213,-0.53463686,1.5880969,-0.39939195,-0.04635916,0.6843538,0.12029401
0.1,0.1,1.2999999999999998,0.0,0.0,0,0.49634978,-1.284972,-0.007923976,-0.4517014,-0.7446154,0.31145644,0.6228525,1.0906448,-0.61744696,1.5241985,-0.39049506,-0.07726372,0.671152,0.3532366
0.1,0.1,1.2999999999999998,0.0,0.0,0,0.5619428,-1.2808578,0.13306765,-0.46157587,0.68695056,0.41648042,0.55509794,1.0768361,-0.5670628,1.5773784,-0.40822747,-0.16497551,0.66471684,0.19353655
0.1,0.1,1.2999999999999998,0.0,0.0,0,0.53118247,-1.2872549,0.0453535,-0.4659021,0.59247994,0.48252082,0.2453173,1.1245698,-0.43516162,1.5417169,-0.34530932,0.0005137315,0.65495175,0.3040712
0.1,0.1,1.2999999999999998,0.0,0.0,0,0.52686775,-1.2935063,0.027167035,-0.45407546,-0.23732215,0.21096364,0.38749865,1.0916706,-0.4973908,1.4831344,-0.35765892,-0.040096514,0.72416204,0.47730243
0.1,0.1,1.2999999999999998,0.0,0.0,0,0.5347966,-1.2892339,0.013861976,-0.4807283,-0.9517946,0.38651708,0.57831466,1.1293899,-0.5585985,1.5165045,-0.41462332,0.005088695,0.7067114,0.071319535
0.1,0.1,1.2999999999999998,0.0,0.0,0,0.52950644,-1.2711432,0.02023978,-0.46620467,-0.96244055,0.3780987,0.47301105,1.105109,-0.5945049,1.5086858,-0.3918176,-0.07108176,0.6803586,0.17520031
0.1,0.1,1.2999999999999998,0.0,0.0,0,0.5370225,-1.29309,0.030853659,-0.45754257,-0.9895875,0.34917742,0.654464,1.0862471,-0.62933093,1.5200632,-0.369726,-0.16356717,0.65392095,0.5609022
0.1,0.1,1.2999999999999998,0.0,0.0,0,0.5261841,-1.2886842,0.034387946,-0.46031016,0.1195453,0.14979544,0.2812578,1.0896542,-0.5704318,1.5857713,-0.42499235,-0.0522477,0.71136755,0.34070393
0.1,0.1,1.2999999999999998,0.0,0.0,0,0.5348853,-1.2874395,0.05395843,-0.45853335,-0.29465836,0.36268425,0.35388485,1.1318669,-0.6481609,1.4688468,-0.39846498,-0.07693484,0.691343,-0.052974075
0.1,0.1,1.2999999999999998,0.0,0.0,0,0.53938603,-1.2804351,0.075321585,-0.46396616,-0.61188513,0.44006872,0.3954499,1.110662,-0.5833942,1.5433167,-0.38052294,-0.12643112,0.67483133,0.5396966
0.1,0.1,1.2999999999999998,0.0,0.0,0,0.55120903,-1.2774259,0.10418319,-0.4753877,-0.33400193,0.32956138,0.77954936,1.1048118,-0.5390046,1.5873032,-0.4365132,-0.04318826,0.69551235,-0.31112352
0.1,0.1,1.2999999999999998,0.0,0.0,0,0.56072533,-1.2834169,0.12003097,-0.47077835,0.0053725345,0.38793418,0.4104642,1.1025077,-0.539061,1.492388,-0.36767614,-0.052463666,0.67441666,0.3301226
0.1,0.1,1.2999999999999998,0.0,0.0,0,0.537313,-1.2860186,0.09688114,-0.4592061,-0.20767874,0.36910105,0.58946365,1.1167237,-0.65465695,1.5125382,-0.40694323,-0.019619677,0.6777503,0.34306484
0.1,0.1,1.2999999999999998,0.0,0.0,0,0.5497501,-1.2809896,0.09196711,-0.4627033,-0.854611,0.34866214,0.41167232,1.1039197,-0.6235822,1.4774054,-0.38176626,-0.07095965,0.668799,0.1855302
0.1,0.1,1.2999999999999998,0.0,0.0,0,0.5485081,-1.2826245,0.073900394,-0.46712655,0.1621716,0.4133713,0.5138283,1.1224275,-0.5377376,1.520213,-0.37471777,-0.09978811,0.7228038,0.5526559
0.1,0.1,1.2999999999999998,0.0,0.0,0,0.5593545,-1.2765417,0.10878699,-0.48039111,-0.41387063,0.54771197,0.19929494,1.1211126,-0.6077087,1.5007343,-0.38324985,-0.107579224,0.6764387,0.11361262
0.1,0.1,1.2999999999999998,0.0,0.0,0,0.53678244,-1.282472,0.013910412,-0.44831362,-0.36036158,0.4195067,0.6191536,1.1108814,-0.5637054,1.453848,-0.3615184,-0.018208703,0.7243011,0.37943915
0.1,0.1,1.2999999999999998,0.0,0.0,0,0.4961536,-1.2826499,-0.01866857,-0.45988056,-0.7520354,0.35888696,0.49849913,1.0977079,-0.6532516,1.4761773,-0.3788317,-0.10607331,0.68876123,0.29590467
0.1,0.1,1.2999999999999998,0.0,0.0,0,0.54102606,-1.2798718,0.06457764,-0.4497064,0.07380427,0.07255345,0.49013773,1.1209322,-0.57170606,1.4585801,-0.35505688,-0.075526476,0.69096106,0.2188656
0.1,0.1,1.2999999999999998,0.0,0.0,0,0.52226466,-1.2856989,-0.0005343761,-0.48392558,-0.83687353,0.18586537,0.26123783,1.0555861,-0.52702075,1.5615422,-0.4129362,-0.0837895,0.6927321,0.04513224
0.1,0.1,1.2999999999999998,0.0,0.0,0,0.57031685,-1.2803417,0.12998985,-0.45851076,-0.46933997,0.20928378,0.69519895,1.1114902,-0.47962943,1.5737046,-0.39243805,-0.080200866,0.7233126,0.56388175
0.1,0.1,1.2999999999999998,0.0,0.0,0,0.5491064,-1.288674,0.08834451,-0.44650215,0.48405343,0.29308364,0.4717728,1.1131272,-0.5944275,1.5086932,-0.40687037,-0.019719606,0.6967463,0.20084885
0.1,0.1,1.2999999999999998,0.0,0.0,0,0.54280764,-1.28835,0.024701305,-0.45330167,-0.20829129,0.17767756,0.5759874,1.1243886,-0.54880875,1.5619935,-0.40098426,-0.048070587,0.67610586,0.19416878
0.1,0.1,1.2999999999999998,0.0,0.0,0,0.5341599,-1.2769825,0.03571394,-0.45998523,-0.7591988,0.2984717,0.43492877,1.131281,-0.531685,1.5281355,-0.34540802,-0.080327675,0.6142872,0.13318884
0.1,0.1,1.2999999999999998,0.0,0.0,0,0.5654344,-1.29216,0.075508036,-0.4614504,0.34926456,0.4400494,0.56265384,1.122413,-0.5328164,1.4978058,-0.3858737,-0.091324896,0.6952334,0.017632704
0.1,0.1,1.2999999999999998,0.0,0.0,0,0.5463431,-1.2821903,-0.013495396,-0.46028477,-0.9686456,0.26267916,0.21226463,1.0834519,-0.62461764,1.5298389,-0.3931288,-0.14401236,0.6851254,0.35498518
0.1,0.1,1.2999999999999998,0.0,0.0,0,0.5680665,-1.2822875,0.07592445,-0.46941692,0.34503192,0.34383217,0.4449914,1.091307,-0.54938185,1.5459789,-0.36160636,-0.10515507,0.6286781,0.1647081
0.1,0.1,1.2999999999999998,0.0,0.0,0,0.54127544,-1.2814504,0.07105346,-0.4790542,-0.30910194,0.12750323,0.43886843,1.1248833,-0.53882354,1.4731302,-0.34171772,-0.046602122,0.6419357,0.20357123
0.1,0.1,1.2999999999999998,0.0,0.0,0,0.5576004,-1.269858,0.10551453,-0.4649221,-0.89814496,0.3820062,0.40398946,1.0743089,-0.5879043,1.5215417,-0.37084937,-0.114479505,0.66098577,0.4694742
0.1,0.1,1.2999999999999998,0.0,0.0,0,0.5001552,-1.2802693,-0.019199567,-0.4556019,-0.79922444,0.38689327,0.35820156,1.0568912,-0.5973087,1.5106492,-0.41342664,0.037944574,0.70527345,0.3286127
0.1,0.1,1.2999999999999998,0.0,0.0,0,0.5614593,-1.2776978,0.094968945,-0.45222652,0.35377467,0.29627782,0.22050014,1.0834894,-0.5314459,1.5134461,-0.38955352,-0.11672325,0.7006497,0.013115084
0.1,0.1,1.2999999999999998,0.0,0.0,0,0.55060947,-1.2858618,0.09214712,-0.46277258,0.5575321,0.3113525,0.2053952,1.0980937,-0.57022125,1.5043287,-0.419793,-0.037329417,0.722943,-0.06544589
0.1,0.1,1.2999999999999998,0.0,0.0,0,0.5399946,-1.2776088,0.052687652,-0.4613573,-0.16573481,0.25342062,0.5252896,1.0892355,-0.53687155,1.4614156,-0.31852615,-0.13971995,0.682221,0.27916038
0.1,0.1,1.2999999999999998,0.0,0.0,0,0.55298656,-1.2830651,0.08840267,-0.4472138,-0.6497422,0.1471786,0.71114904,1.1071608,-0.6376131,1.422033,-0.36648998,-0.08586971,0.697804,0.021248188
0.1,0.1,1.2999999999999998,0.0,0.0,0,0.5256792,-1.2812843,-0.017412044,-0.46798074,-0.3556705,0.26382565,0.566801,1.1223898,-0.5667191,1.535691,-0.39751276,0.01758216,0.6738315,-0.07480165
0.1,0.1,1.2999999999999998,0.0,0.0,0,0.5255762,-1.2751322,0.037103742,-0.45955724,0.7444841,0.19848552,0.3385274,1.1015743,-0.57055736,1.5255457,-0.40313336,-0.00027162358,0.7045867,0.19115192
0.1,0.1,1.2999999999999998,0.0,0.0,0,0.5532863,-1.2875907,0.090636,-0.46351406,-0.09396451,0.5604662,0.37334925,1.1321483,-0.5029464,1.5286273,-0.39562732,0.04710623,0.69648445,0.0024367175
0.1,0.1,1.2999999999999998,0.0,0.0,0,0.5684502,-1.2919512,0.08454914,-0.4652835,0.61219615,0.24923539,0.8811487,1.1384046,-0.64261574,1.5553842,-0.398762,-0.068715185,0.6754142,0.30965766
0.1,0.1,1.2999999999999998,0.0,0.0,0,0.56886035,-1.2849386,0.07822955,-0.46128306,-0.8930394,0.35662028,0.45810255,1.1369245,-0.6177595,1.5606338,-0.3868155,-0.16529255,0.6967669,0.39008117
0.1,0.1,1.2999999999999998,0.0,0.0,0,0.5764858,-1.2899537,0.060586877,-0.46578854,-1.4542105,0.37611708,0.5441504,1.1062006,-0.5127373,1.5386288,-0.38127068,-0.13696274,0.6907225,0.16865419
0.1,0.1,1.2999999999999998,0.0,0.0,0,0.5379739,-1.2937372,0.0036838371,-0.46781048,-0.9182709,0.46925855,0.34332046,1.1665542,-0.63652456,1.4757922,-0.3505488,-0.07889023,0.697385,0.26808518
0.1,0.1,1.2999999999999998,0.0,0.0,0,0.55133057,-1.275265,0.032977358,-0.4652788,0.38026774,0.08596101,0.5945411,1.1017479,-0.54639226,1.4898691,-0.34654626,-0.014294681,0.6544927,0.08855911
0.1,0.1,1.2999999999999998,0.0,0.0,0,0.5773051,-1.2827137,0.060142633,-0.4514828,-0.39557204,0.2867069,0.15629528,1.1043422,-0.66489136,1.5305667,-0.42126283,0.0052621393,0.7019759,0.39277065
0.1,0.1,1.2999999999999998,0.0,0.0,0,0.5562797,-1.2797066,0.078081764,-0.46920797,-0.59698296,0.33924735,0.51584154,1.1041098,-0.5522088,1.5012525,-0.37851524,-0.008560415,0.65027195,-0.083839886
0.1,0.1,1.2999999999999998,0.0,0.0,0,0.54114544,-1.2799008,0.04904577,-0.46314824,-0.123546,0.31420726,0.5701642,1.1009756,-0.5621319,1.5520337,-0.39573905,-0.16555694,0.7354216,0.29405323
0.1,0.1,1.2999999999999998,0.0,0.0,0,0.5579941,-1.2942796,0.06907879,-0.43584052,-0.32379702,0.23353739,0.49729896,1.0938513,-0.48553187,1.5205021,-0.374674,-0.017072866,0.6879187,0.021142587
0.1,0.1,1.2999999999999998,0.0,0.0,0,0.56558394,-1.2751338,0.10342201,-0.4682741,-0.87876236,0.18617406,0.20339282,1.1138412,-0.49058768,1.5204992,-0.374082,-0.07056586,0.7143349,0.21317172
0.1,0.1,1.2999999999999998,0.0,0.0,0,0.5606478,-1.2870522,0.070267804,-0.46688968,0.11377425,0.24094991,0.5705967,1.0827113,-0.493025,1.524006,-0.35807258,-0.09973579,0.68099284,0.41519955
0.1,0.1,1.2999999999999998,0.0,0.0,0,0.51911396,-1.2836419,0.021985073,-0.47315365,-1.2881006,0.2668154,0.3604754,1.0963808,-0.5237035,1.5536734,-0.3923017,-0.050063577,0.704986,0.44580495
0.1,0.1,1.2999999999999998,0.0,0.0,0,0.60002226,-1.2850659,0.09682504,-0.47724807,-1.0076488,0.19208887,0.5922926,1.1026613,-0.6214558,1.5398391,-0.42657748,-0.026100785,0.7191481,0.2723335
0.1,0.1,1.2999999999999998,0.0,0.0,0,0.55975276,-1.2895238,0.034873024,-0.4519801,-0.2551522,0.33907998,0.43267816,1.0860682,-0.39563218,1.5213302,-0.3001273,-0.06661585,0.70503885,0.61221105
0.1,0.1,1.2999999999999998,0.0,0.0,0,0.523514,-1.2853918,0.033050377,-0.4511799,0.42793328,0.21201155,0.54563814,1.1369627,-0.60109895,1.4846653,-0.36288044,-0.04004622,0.6610831,0.046989027
0.1,0.1,1.2999999999999998,0.0,0.0,0,0.5414659,-1.2804683,0.03170671,-0.46192473,0.2606086,0.23824547,0.3807129,1.1004591,-0.67841226,1.5068674,-0.3969349,-0.10237396,0.7095355,0.25800672
0.1,0.1,1.2999999999999998,0.0,0.0,0,0.57722753,-1.286719,0.09720761,-0.46554706,-1.0988665,0.23859146,0.48037714,1.1168652,-0.52099097,1.5245123,-0.37116307,-0.016759682,0.6667525,0.14876775
0.1,0.1,1.2999999999999998,0.0,0.0,0,0.5513338,-1.2886797,-0.0026116888,-0.4683416,0.88731664,0.43849722,0.56906486,1.101549,-0.66618174,1.4876118,-0.35621703,-0.045053914,0.6181387,0.33962247
0.1,0.1,1.2999999999999998,0.0,0.0,0,0.5079591,-1.2882606,-0.04308383,-0.46782833,0.25530946,0.3469001,0.29242554,1.0977538,-0.56488085,1.504033,-0.38273427,-0.049895946,0.72175777,-0.026211316
0.1,0.1,1.2999999999999998,0.0,0.0,0,0.5465173,-1.2861744,0.0054065227,-0.4670123,-0.791241,0.2100413,0.2651894,1.1270554,-0.55796677,1.4518509,-0.3404118,-0.030325973,0.7135724,0.38680327
0.1,0.1,1.2999999999999998,0.0,0.0,0,0.57528275,-1.2844933,0.07560737,-0.48277488,0.5428908,0.11484907,0.3855418,1.1007081,-0.5949621,1.5141977,-0.3957841,-0.051554147,0.6942174,0.078208625
0.1,0.1,1.2999999999999998,0.0,0.0,0,0.5430391,-1.2721851,0.020608839,-0.46835798,-0.4783739,0.17117248,0.6079062,1.0892075,-0.51653045,1.5681401,-0.36455682,-0.17711851,0.6758371,0.19196196
0.1,0.1,1.2999999999999998,0.0,0.0,0,0.5521837,-1.2750175,0.038571745,-0.4621163,-0.21309581,0.2963122,0.43702796,1.1038711,-0.48428982,1.5800114,-0.38516903,0.008499671,0.69035816,0.5263901
0.1,0.1,1.2999999999999998,0.0,0.0,0,0.5410659,-1.2805231,-0.032467917,-0.4640798,0.0027051175,0.18099065,0.5783279,1.0885546,-0.45489737,1.4731157,-0.2622565,-9.88622e-05,0.7023709,0.39074242
0.1,0.1,1.2999999999999998,0.0,0.0,0,0.5710556,-1.2805614,0.06644498,-0.46501136,-0.4494299,0.27020591,0.47199118,1.1091565,-0.54118955,1.4765424,-0.31899998,-0.122425444,0.67214555,0.44534364
0.1,0.1,1.2999999999999998,0.0,0.0,0,0.5637763,-1.281712,0.09010926,-0.46273965,-0.47702304,0.15784346,0.30635417,1.1148586,-0.60784644,1.5259931,-0.39282548,-0.084751084,0.7173523,0.27870154
0.1,0.1,1.2999999999999998,0.0,0.0,0,0.5383384,-1.2879527,0.042087972,-0.4481424,-0.26839164,0.26017997,0.6374002,1.1280607,-0.599373,1.5245286,-0.37404898,0.019388957,0.6706063,0.12005877
0.1,0.1,1.2999999999999998,0.0,0.0,0,0.5768843,-1.282839,0.038995154,-0.46457392,-1.1701919,0.29060626,0.50480545,1.1005332,-0.51560843,1.5083693,-0.33749005,-0.116015084,0.6633529,0.22879885
0.1,0.1,1.2999999999999998,0.0,0.0,0,0.5515402,-1.2799844,-0.012657009,-0.45348847,-1.1280811,0.5881935,0.3750364,1.0832769,-0.60903245,1.5386456,-0.39701134,-0.046951614,0.67636734,0.27925918
0.1,0.1,1.2999999999999998,0.0,0.0,0,0.5726296,-1.2806655,0.038666654,-0.4538845,0.10289884,0.20649979,0.43017766,1.1228409,-0.41924065,1.5051718,-0.2952495,-0.0871218,0.6550997,0.22278962
0.1,0.1,1.2999999999999998,0.0,0.0,0,0.53346634,-1.2792597,-0.06692073,-0.47692233,-0.21112594,0.40125117,0.495683,1.1123031,-0.62442315,1.5350027,-0.33632106,-0.118481055,0.6541445,0.010406387
0.1,0.1,1.2999999999999998,0.0,0.0,0,0.5868642,-1.2806329,0.034956973,-0.46427226,0.33894426,0.11284231,0.64131105,1.0857984,-0.46373776,1.5729431,-0.3423714,-0.06314667,0.67953247,0.2708747
0.1,0.1,1.2999999999999998,0.0,0.0,0,0.55651474,-1.2750169,0.034068905,-0.44540864,1.1531508,0.3118885,0.55707395,1.138098,-0.5991444,1.4970291,-0.34343696,-0.16967463,0.69321805,0.18739508
0.1,0.1,1.2999999999999998,0.0,0.0,0,0.5830599,-1.2865955,0.04670404,-0.46364295,-0.5171162,0.3770553,0.3317424,1.1002227,-0.53376466,1.5242577,-0.34933752,-0.14657305,0.6595085,0.06952893
0.1,0.1,1.2999999999999998,0.0,0.0,0,0.538755,-1.2882584,-0.091077685,-0.4693973,-0.057236165,0.16222097,0.3975793,1.1226374,-0.45135868,1.5261664,-0.3100231,-0.037499815,0.69220054,0.40833414
0.1,0.1,1.2999999999999998,0.0,0.0,0,0.58136886,-1.2819352,0.049712863,-0.46555224,-0.5617406,0.5011095,0.19471851,1.1213129,-0.5470346,1.5149263,-0.34843585,0.043205272,0.6604397,0.30004725
0.1,0.1,1.2999999999999998,0.0,0.0,0,0.58716166,-1.2851393,0.042850528,-0.4708953,-0.29064307,0.36002392,0.5346179,1.1109332,-0.66910076,1.4944041,-0.3510818,-0.085248135,0.67195475,0.017280405
0.1,0.1,1.2999999999999998,0.0,0.0,0,0.56740254,-1.2869375,-0.011986605,-0.4630172,-0.39279193,0.30653843,0.71758556,1.1038381,-0.5343572,1.5195694,-0.35722277,-0.06582652,0.7212005,0.172653
0.1,0.1,1.2999999999999998,0.0,0.0,0,0.54802465,-1.2901859,-0.04867789,-0.4531569,-0.46136963,0.2571284,0.8157359,1.0734683,-0.6064587,1.5310376,-0.40034497,-0.0538048,0.6845625,0.155261
0.1,0.1,1.2999999999999998,0.0,0.0,0,0.5925932,-1.2797225,0.053314086,-0.46405876,0.118373886,0.32209516,0.5213794,1.1398481,-0.57766837,1.4951441,-0.3297561,-0.053107515,0.6438905,0.045180514
0.1,0.1,1.2999999999999998,0.0,0.0,0,0.5814845,-1.2799,0.018601099,-0.45719692,-0.3188182,0.45780522,0.8125789,1.1175823,-0.6075934,1.5292846,-0.39040196,-0.08276275,0.71135503,0.33447558
0.1,0.1,1.2999999999999998,0.0,0.0,0,0.6186511,-1.2815435,0.03847598,-0.4850537,-0.04671098,0.4876629,0.49801362,1.1383718,-0.6022318,1.5134473,-0.3509164,-0.025092466,0.6599712,0.30928507
0.1,0.1,1.2999999999999998,0.0,0.0,0,0.4781044,-1.2907442,0.029775232,-0.46209234,-0.514926,0.14147985,0.24983878,1.1611894,-0.49315017,1.4974413,-0.37946203,-0.11218097,0.7125034,0.15008453
0.1,0.1,1.2999999999999998,0.0,0.0,0,0.4781044,-1.2907442,0.029775232,-0.46209234,-0.514926,0.14147985,0.24983878,1.1611894,-0.49315017,1.4974413,-0.37946203,-0.11218097,0.7125034,0.15008453
0.1,0.1,1.2999999999999998,0.0,0.0,0,0.4781044,-1.2907442,0.029775232,-0.46209234,-0.514926,0.14147985,0.24983878,1.1611894,-0.49315017,1.4974413,-0.37946203,-0.11218097,0.7125034,0.15008453
0.1,0.1,1.2999999999999998,0.0,0.0,0,0.4781044,-1.2907442,0.029775232,-0.46209234,-0.514926,0.14147985,0.24983878,1.1611894,-0.49315017,1.4974413,-0.37946203,-0.11218097,0.7125034,0.15008453
0.1,0.1,1.2999999999999998,0.0,0.0,0,0.4781044,-1.2907442,0.029775232,-0.46209234,-0.514926,0.14147985,0.24983878,1.1611894,-0.49315017,1.4974413,-0.37946203,-0.11218097,0.7125034,0.15008453
0.1,0.1,1.2999999999999998,0.0,0.0,0,0.4781044,-1.2907442,0.029775232,-0.46209234,-0.514926,0.14147985,0.24983878,1.1611894,-0.49315017,1.4974413,-0.37946203,-0.11218097,0.7125034,0.15008453
0.1,0.1,1.2999999999999998,0.0,0.0,0,0.4781044,-1.2907442,0.029775232,-0.46209234,-0.514926,0.14147985,0.24983878,1.1611894,-0.49315017,1.4974413,-0.37946203,-0.11218097,0.7125034,0.15008453
0.1,0.1,1.2999999999999998,0.0,0.0,0,0.4781044,-1.2907442,0.029775232,-0.46209234,-0.514926,0.14147985,0.24983878,1.1611894,-0.49315017,1.4974413,-0.37946203,-0.11218097,0.7125034,0.15008453
0.1,0.1,1.2999999999999998,0.0,0.0,0,0.42787388,-1.2801671,0.056392066,-0.45474994,0.43179125,0.432322,0.70737976,1.1073244,-0.39298266,1.5009837,-0.37458387,-0.12445834,0.6460199,0.00945919
0.1,0.1,1.2999999999999998,0.0,0.0,0,0.42787388,-1.2801671,0.056392066,-0.45474994,0.43179125,0.432322,0.70737976,1.1073244,-0.39298266,1.5009837,-0.37458387,-0.12445834,0.6460199,0.00945919
0.1,0.1,1.2999999999999998,0.0,0.0,0,0.42787388,-1.2801671,0.056392066,-0.45474994,0.43179125,0.432322,0.70737976,1.1073244,-0.39298266,1.5009837,-0.37458387,-0.12445834,0.6460199,0.00945919
0.1,0.1,1.2999999999999998,0.0,0.0,0,0.42787388,-1.2801671,0.056392066,-0.45474994,0.43179125,0.432322,0.70737976,1.1073244,-0.39298266,1.5009837,-0.37458387,-0.12445834,0.6460199,0.00945919
0.1,0.1,1.2999999999999998,0.0,0.0,0,0.42787388,-1.2801671,0.056392066,-0.45474994,0.43179125,0.432322,0.70737976,1.1073244,-0.39298266,1.5009837,-0.37458387,-0.12445834,0.6460199,0.00945919
0.1,0.1,1.2999999999999998,0.0,0.0,0,0.42787388,-1.2801671,0.056392066,-0.45474994,0.43179125,0.432322,0.70737976,1.1073244,-0.39298266,1.5009837,-0.37458387,-0.12445834,0.6460199,0.00945919
0.1,0.1,1.2999999999999998,0.0,0.0,0,0.42787388,-1.2801671,0.056392066,-0.45474994,0.43179125,0.432322,0.70737976,1.1073244,-0.39298266,1.5009837,-0.37458387,-0.12445834,0.6460199,0.00945919
0.1,0.1,1.2999999999999998,0.0,0.0,0,0.42787388,-1.2801671,0.056392066,-0.45474994,0.43179125,0.432322,0.70737976,1.1073244,-0.39298266,1.5009837,-0.37458387,-0.12445834,0.6460199,0.00945919
0.1,0.1,1.2999999999999998,0.0,0.0,0,0.6360831,-1.2867862,-0.1277719,-0.46783182,0.40039995,0.38642737,0.419736,1.1243634,-0.6374891,1.4551789,-0.17574322,-0.05693469,0.6565838,0.43514824
0.1,0.1,1.2999999999999998,0.0,0.0,0,0.6360831,-1.2867862,-0.1277719,-0.46783182,0.40039995,0.38642737,0.419736,1.1243634,-0.6374891,1.4551789,-0.17574322,-0.05693469,0.6565838,0.43514824
0.1,0.1,1.2999999999999998,0.0,0.0,0,0.6360831,-1.2867862,-0.1277719,-0.46783182,0.40039995,0.38642737,0.419736,1.1243634,-0.6374891,1.4551789,-0.17574322,-0.05693469,0.6565838,0.43514824
0.1,0.1,1.2999999999999998,0.0,0.0,0,0.6360831,-1.2867862,-0.1277719,-0.46783182,0.40039995,0.38642737,0.419736,1.1243634,-0.6374891,1.4551789,-0.17574322,-0.05693469,0.6565838,0.43514824
0.1,0.1,1.2999999999999998,0.0,0.0,0,0.6360831,-1.2867862,-0.1277719,-0.46783182,0.40039995,0.38642737,0.419736,1.1243634,-0.6374891,1.4551789,-0.17574322,-0.05693469,0.6565838,0.43514824
0.1,0.1,1.2999999999999998,0.0,0.0,0,0.6360831,-1.2867862,-0.1277719,-0.46783182,0.40039995,0.38642737,0.419736,1.1243634,-0.6374891,1.4551789,-0.17574322,-0.05693469,0.6565838,0.43514824
0.1,0.1,1.2999999999999998,0.0,0.0,0,0.6360831,-1.2867862,-0.1277719,-0.46783182,0.40039995,0.38642737,0.419736,1.1243634,-0.6374891,1.4551789,-0.17574322,-0.05693469,0.6565838,0.43514824
0.1,0.1,1.2999999999999998,0.0,0.0,0,0.6488838,-1.2791519,-0.07724315,-0.4683992,-0.5060294,0.28946427,0.3952945,1.0965438,-0.44856864,1.5202761,-0.1666223,-0.004478886,0.63119817,-0.0488051
0.1,0.1,1.2999999999999998,0.0,0.0,0,0.6488838,-1.2791519,-0.07724315,-0.4683992,-0.5060294,0.28946427,0.3952945,1.0965438,-0.44856864,1.5202761,-0.1666223,-0.004478886,0.63119817,-0.0488051
0.1,0.1,1.2999999999999998,0.0,0.0,0,0.6488838,-1.2791519,-0.07724315,-0.4683992,-0.5060294,0.28946427,0.3952945,1.0965438,-0.44856864,1.5202761,-0.1666223,-0.004478886,0.63119817,-0.0488051
0.1,0.1,1.2999999999999998,0.0,0.0,0,0.6488838,-1.2791519,-0.07724315,-0.4683992,-0.5060294,0.28946427,0.3952945,1.0965438,-0.44856864,1.5202761,-0.1666223,-0.004478886,0.63119817,-0.0488051
0.1,0.1,1.2999999999999998,0.0,0.0,0,0.6488838,-1.2791519,-0.07724315,-0.4683992,-0.5060294,0.28946427,0.3952945,1.0965438,-0.44856864,1.5202761,-0.1666223,-0.004478886,0.63119817,-0.0488051
0.1,0.1,1.2999999999999998,0.0,0.0,0,0.6488838,-1.2791519,-0.07724315,-0.4683992,-0.5060294,0.28946427,0.3952945,1.0965438,-0.44856864,1.5202761,-0.1666223,-0.004478886,0.63119817,-0.0488051
0.1,0.1,1.2999999999999998,0.0,0.0,0,0.6488838,-1.2791519,-0.07724315,-0.4683992,-0.5060294,0.28946427,0.3952945,1.0965438,-0.44856864,1.5202761,-0.1666223,-0.004478886,0.63119817,-0.0488051
0.1,0.1,1.2999999999999998,0.0,0.0,0,0.6488838,-1.2791519,-0.07724315,-0.4683992,-0.5060294,0.28946427,0.3952945,1.0965438,-0.44856864,1.5202761,-0.1666223,-0.004478886,0.63119817,-0.0488051
0.1,0.1,1.2999999999999998,0.0,0.0,0,0.6711465,-1.2920299,-0.033432573,-0.46759847,-0.7458242,0.20461278,0.026337728,1.1809418,-0.32187814,1.5265615,-0.1842297,-0.15636449,0.58851194,-0.08838936
