sanky1234/BimanualDexCatch/isaacgymenvs/cem_results/May31/football_pose_0.0_-0.1_1.0_0.5235987755982988_0.0_0_2025-05-31.csv
x,y,z,roll,pitch,yaw,robot1/joint1,robot1/joint2,robot1/joint3,robot1/joint4,robot1/joint5,robot1/joint6,robot1/joint7,robot2/joint1,robot2/joint2,robot2/joint3,robot2/joint4,robot2/joint5,robot2/joint6,robot2/joint7
0.0,-0.1,1.0,0.5235987755982988,0.0,0,-0.0760941,-0.4321294,-2.785066,0.51590747,-1.9191395,-0.098294735,-0.6013611,-0.09247113,-0.45884323,1.4642427,1.3181933,0.16515243,1.5653541,0.15833212
0.0,-0.1,1.0,0.5235987755982988,0.0,0,-0.14833562,-0.3911586,-2.816336,0.50372183,-1.298972,-0.09325805,1.6641718,-0.053506535,-0.44446307,1.4105313,1.3070172,0.17899016,1.5513968,-0.6780141
0.0,-0.1,1.0,0.5235987755982988,0.0,0,-0.10460138,-0.32360816,-2.8533783,0.5847462,-1.4475391,-0.10280224,0.24057165,-0.06473269,-0.44703576,1.4896451,1.3336813,0.19801138,1.5535301,0.5408842
0.0,-0.1,1.0,0.5235987755982988,0.0,0,-0.17817743,-0.4376886,-2.7990189,0.5415336,-1.0922155,-0.1479538,0.9078319,-0.014701334,-0.459987,1.5341079,1.3215637,0.19806291,1.5469581,0.33785746
0.0,-0.1,1.0,0.5235987755982988,0.0,0,-0.07808402,-0.40635467,-2.835263,0.52009314,-1.3456906,-0.15874077,0.22226848,-0.05229854,-0.44099268,1.5169064,1.323307,0.16137789,1.5674559,-1.4942739
0.0,-0.1,1.0,0.5235987755982988,0.0,0,-0.10535396,-0.39443523,-2.741957,0.5833201,-1.2316597,-0.19699913,1.1909139,-0.05945668,-0.43469855,1.516847,1.3040974,0.17811175,1.5657932,-0.10654212
0.0,-0.1,1.0,0.5235987755982988,0.0,0,-0.21373932,-0.38459715,-2.7687817,0.50009,-1.3789123,-0.10291988,0.45526296,-0.045669373,-0.44898853,1.5403398,1.3074446,0.17134702,1.5638734,0.84843874
0.0,-0.1,1.0,0.5235987755982988,0.0,0,-0.014478739,-0.4198821,-2.7608113,0.5734364,-1.2116497,-0.031816974,1.338684,-0.042501993,-0.43115798,1.4983643,1.29672,0.18436873,1.553773,-0.55134207
0.0,-0.1,1.0,0.5235987755982988,0.0,0,-0.13463263,-0.35235614,-2.8945498,0.5493383,-1.5406135,-0.27720365,0.91935897,-0.032570366,-0.47519442,1.5068442,1.3181387,0.17495038,1.5445539,-0.16541828
0.0,-0.1,1.0,0.5235987755982988,0.0,0,-0.15521654,-0.46318796,-2.7677045,0.49864924,-1.1524482,-0.1588128,-0.45205528,-0.04697121,-0.47808713,1.530963,1.3231632,0.16525795,1.5626727,-0.75438726
0.0,-0.1,1.0,0.5235987755982988,0.0,0,-0.023990232,-0.53258455,-2.7676833,0.53328454,-1.0763735,-0.06653498,0.32831177,-0.018995887,-0.45219487,1.5223296,1.3296381,0.18262558,1.5543927,-0.6538079
0.0,-0.1,1.0,0.5235987755982988,0.0,0,0.051980276,-0.38732618,-2.8026793,0.56819326,-1.2549957,-0.05903446,0.16179879,-0.0762261,-0.4239272,1.4555883,1.2989297,0.19125491,1.5639814,-0.90013117
0.0,-0.1,1.0,0.5235987755982988,0.0,0,-0.031512063,-0.34730074,-2.8642533,0.58212465,-1.0704453,-0.055132166,0.21798338,-0.067338936,-0.45530605,1.5262308,1.3179696,0.16924417,1.5601907,-0.9288471
0.0,-0.1,1.0,0.5235987755982988,0.0,0,0.00782793,-0.4828392,-2.773505,0.5423892,-1.4604924,-0.10783054,0.5595945,-0.064169355,-0.43784657,1.5476528,1.3040712,0.18080898,1.5593935,0.13788335
0.0,-0.1,1.0,0.5235987755982988,0.0,0,-0.107823305,-0.45533046,-2.8385506,0.51940453,-1.288231,-0.19617625,-0.21608432,-0.023784105,-0.44542027,1.4864758,1.3430668,0.18157816,1.5547093,-0.9717908
0.0,-0.1,1.0,0.5235987755982988,0.0,0,-0.09965926,-0.4769748,-2.772845,0.5296831,-1.1066734,-0.11323009,-0.3104989,-0.03679757,-0.4624871,1.4811248,1.3280475,0.16477242,1.5472059,1.7317244
0.0,-0.1,1.0,0.5235987755982988,0.0,0,-0.20396972,-0.35869032,-2.8229299,0.5361385,-1.4910585,-0.10051534,0.99043703,-0.07279083,-0.45234182,1.4908855,1.3184634,0.1897857,1.5486245,-0.41353172
0.0,-0.1,1.0,0.5235987755982988,0.0,0,-0.09536927,-0.40061015,-2.8185813,0.50110734,-1.3242133,-0.14887625,0.043005913,-0.047775608,-0.436347,1.5090144,1.3329219,0.21193315,1.5530843,-0.7065647
0.0,-0.1,1.0,0.5235987755982988,0.0,0,0.09298814,-0.4793038,-2.8735247,0.5643261,-1.2764922,-0.12263352,-0.19289368,-0.061392043,-0.43976858,1.5403163,1.320502,0.17000781,1.5384531,-0.6757186
0.0,-0.1,1.0,0.5235987755982988,0.0,0,-0.11793836,-0.3942576,-2.8747103,0.51251227,-1.1101855,-0.01120622,-0.024627138,-0.054309417,-0.4648674,1.5577153,1.3241773,0.17243943,1.5453365,-0.89381766
0.0,-0.1,1.0,0.5235987755982988,0.0,0,-0.06787742,-0.4446768,-2.7933,0.52939475,-1.2203199,-0.18320663,0.092181556,-0.023303501,-0.4204208,1.476283,1.3227004,0.17214367,1.5552121,-0.32258216
0.0,-0.1,1.0,0.5235987755982988,0.0,0,-0.13771273,-0.41453794,-2.7172413,0.49900255,-1.5242457,-0.065386705,0.53739274,-0.07803481,-0.4543585,1.5361781,1.2955248,0.1852942,1.5593231,-0.8003729
0.0,-0.1,1.0,0.5235987755982988,0.0,0,-0.19641122,-0.399035,-2.772049,0.5158202,-1.3791829,-0.13986516,0.39199662,-0.030795367,-0.44347036,1.565639,1.3411937,0.16764255,1.563945,-0.909817
0.0,-0.1,1.0,0.5235987755982988,0.0,0,-0.058028135,-0.41795972,-2.812501,0.55981755,-1.4312166,-0.08967064,0.33296478,-0.0034045915,-0.42849407,1.5740447,1.308159,0.19641456,1.5653222,-0.93826574
0.0,-0.1,1.0,0.5235987755982988,0.0,0,-0.051882688,-0.35433647,-2.8012948,0.6383797,-1.3709236,-0.12360078,0.39356434,-0.028135315,-0.4539713,1.5727168,1.2976729,0.19963565,1.5628905,-0.81395996
0.0,-0.1,1.0,0.5235987755982988,0.0,0,-0.21802202,-0.35271809,-2.7871187,0.5235904,-1.6882379,-0.16024974,0.87372893,-0.058714755,-0.4536799,1.4386861,1.3124095,0.2201994,1.5520399,-0.77913946
0.0,-0.1,1.0,0.5235987755982988,0.0,0,-0.073322415,-0.482886,-2.770594,0.55666125,-1.028387,0.009669919,0.3275481,-0.026833553,-0.45883873,1.5680277,1.3184927,0.21073717,1.5685472,-0.5387503
0.0,-0.1,1.0,0.5235987755982988,0.0,0,-0.14406836,-0.45678458,-2.8357291,0.51695937,-1.0126046,-0.20153335,-0.0026217636,-0.00729767,-0.46938744,1.6113585,1.2992288,0.19715683,1.5590259,-0.28941536
0.0,-0.1,1.0,0.5235987755982988,0.0,0,-0.050312124,-0.3428695,-2.854368,0.5733513,-1.5531123,-0.06846236,0.96723795,-0.096194774,-0.45627496,1.5087936,1.3079207,0.1734745,1.5611473,0.100214824
0.0,-0.1,1.0,0.5235987755982988,0.0,0,-0.14171717,-0.31395626,-2.8392184,0.5654336,-1.2297897,-0.033014487,1.3040233,-0.031107333,-0.4323786,1.5070403,1.3243994,0.19701107,1.539103,-0.96027124
0.0,-0.1,1.0,0.5235987755982988,0.0,0,-0.038672466,-0.39109227,-2.8582385,0.5536587,-1.1055918,-0.08128866,0.27278733,-0.069322444,-0.46140063,1.5376924,1.300371,0.16972096,1.5604384,-0.7948635
0.0,-0.1,1.0,0.5235987755982988,0.0,0,-0.14747737,-0.29580495,-2.900881,0.56925094,-1.2664801,-0.05179647,0.19029947,-0.019177813,-0.43538237,1.5212076,1.3122019,0.2004336,1.5522122,-0.74087375
0.0,-0.1,1.0,0.5235987755982988,0.0,0,-0.033895213,-0.36545762,-2.8598886,0.55141,-1.1851643,-0.16753265,0.15843093,-0.08374339,-0.4460626,1.4872011,1.3131623,0.16938786,1.5669931,-0.7377096
0.0,-0.1,1.0,0.5235987755982988,0.0,0,-0.06506486,-0.44081175,-2.7674704,0.5171595,-1.3278918,-0.14337097,0.17570399,-0.04051958,-0.456267,1.5594307,1.311488,0.18693432,1.5590894,-0.87022185
0.0,-0.1,1.0,0.5235987755982988,0.0,0,-0.019108264,-0.4532045,-2.7987828,0.54159325,-1.1091915,-0.1424609,0.7041466,-0.043913275,-0.4277142,1.5584157,1.322047,0.15797113,1.5575609,0.5257742
0.0,-0.1,1.0,0.5235987755982988,0.0,0,-0.12366765,-0.3776659,-2.7517607,0.5356839,-1.5866587,-0.16231391,0.99586046,-0.07395553,-0.44379386,1.5537937,1.3109645,0.18860474,1.5525521,-0.73542327
0.0,-0.1,1.0,0.5235987755982988,0.0,0,-0.06854813,-0.39790598,-2.8329835,0.5207224,-1.4353752,-0.19013853,-0.03801247,-0.0663068,-0.46759316,1.5043031,1.3190613,0.14440657,1.549811,-0.6677169
0.0,-0.1,1.0,0.5235987755982988,0.0,0,-0.21392195,-0.35095423,-2.8344803,0.5397823,-1.1559933,-0.12666789,1.400034,-0.04437231,-0.46798715,1.4888797,1.3337094,0.15314394,1.5387061,-0.8849838
0.0,-0.1,1.0,0.5235987755982988,0.0,0,0.010836097,-0.41514948,-2.820861,0.54278183,-1.3115008,-0.17877658,0.26779705,-0.08157859,-0.4601079,1.5775628,1.3154473,0.18878163,1.5658647,-0.81495655
0.0,-0.1,1.0,0.5235987755982988,0.0,0,-0.14602265,-0.45986342,-2.7736776,0.52588016,-1.2080501,-0.21608008,0.8043596,-0.0117195705,-0.4536714,1.5960757,1.3013963,0.19269009,1.5524837,-0.714799
0.0,-0.1,1.0,0.5235987755982988,0.0,0,-0.07232393,-0.38156927,-2.7922122,0.56096107,-1.6412451,-0.09257339,0.3138414,-0.09861496,-0.46444425,1.4873092,1.3098782,0.12982634,1.5617971,-0.64646727
0.0,-0.1,1.0,0.5235987755982988,0.0,0,-0.058556255,-0.4434712,-2.7605512,0.5396348,-1.2375194,-0.059884816,0.50277245,-0.07996851,-0.46591654,1.4449854,1.3245517,0.20455639,1.5659496,0.14028856
0.0,-0.1,1.0,0.5235987755982988,0.0,0,-0.17984934,-0.43197888,-2.8166807,0.5378891,-0.98492795,-0.1739873,0.6596137,-0.019404365,-0.4572006,1.5404166,1.3202329,0.1926465,1.5343817,-0.7564012
0.0,-0.1,1.0,0.5235987755982988,0.0,0,-0.008600439,-0.4576121,-2.7998703,0.5478645,-1.2545366,-0.034603495,-0.09806955,-0.06241995,-0.45036623,1.520143,1.3251905,0.1645754,1.5473613,-0.38396847
0.0,-0.1,1.0,0.5235987755982988,0.0,0,-0.03527714,-0.3638357,-2.8495278,0.54372746,-1.3488456,-0.15607417,-0.47703323,-0.103172764,-0.45310864,1.5105011,1.3181233,0.18601449,1.5571467,-0.60752404
0.0,-0.1,1.0,0.5235987755982988,0.0,0,-0.07219712,-0.36196458,-2.8406901,0.5500199,-1.3572382,-0.20172204,0.11566099,-0.017395893,-0.4502276,1.530411,1.3345418,0.17859265,1.5428027,-0.79433185
0.0,-0.1,1.0,0.5235987755982988,0.0,0,-0.22411208,-0.33605936,-2.8726332,0.5690233,-1.4723942,-0.1255429,0.5737831,-0.077247135,-0.46628696,1.5481894,1.3114462,0.1765189,1.5551535,0.19260733
0.0,-0.1,1.0,0.5235987755982988,0.0,0,-0.13337092,-0.41875294,-2.7798765,0.50637805,-1.4588407,-0.28237262,0.43615136,-0.11818738,-0.44999078,1.5157017,1.3027637,0.16963995,1.5617489,0.0073067215
0.0,-0.1,1.0,0.5235987755982988,0.0,0,-0.0914295,-0.49411502,-2.794196,0.54328835,-1.28426,-0.0796587,0.62680155,-0.071718946,-0.43977505,1.4877279,1.3132164,0.18610367,1.5419813,-2.2474563
0.0,-0.1,1.0,0.5235987755982988,0.0,0,-0.26800668,-0.29403952,-2.8217173,0.6304122,-1.2640498,-0.35855037,0.081702955,-0.0028397634,-0.45646855,1.4806064,1.3238941,0.16629992,1.5382166,0.15229854
0.0,-0.1,1.0,0.5235987755982988,0.0,0,-0.24140564,-0.353285,-2.7999604,0.56357664,-1.3564807,-0.23873834,1.1888895,-0.039989144,-0.43805897,1.5069896,1.2988883,0.18524756,1.557393,0.42732584
0.0,-0.1,1.0,0.5235987755982988,0.0,0,-0.09662877,-0.4483253,-2.6717014,0.5636534,-1.3132023,-0.18232334,0.17228425,-0.09182815,-0.44451112,1.5109642,1.3011283,0.19577973,1.5618026,-0.42945072
0.0,-0.1,1.0,0.5235987755982988,0.0,0,-0.051309,-0.41451398,-2.8754964,0.53905755,-1.0450532,-0.16793256,0.30238858,-0.053501353,-0.4496705,1.5146769,1.3231835,0.15943037,1.550232,-0.5051403
0.0,-0.1,1.0,0.5235987755982988,0.0,0,-0.22189726,-0.40491885,-2.844066,0.4873249,-1.5693837,-0.16163914,0.16764097,-0.09114126,-0.46488893,1.5752908,1.3249569,0.18342969,1.548671,-0.507225
0.0,-0.1,1.0,0.5235987755982988,0.0,0,-0.14441176,-0.35366228,-2.791072,0.58482987,-1.1970472,-0.020687798,-0.063488424,-0.03988311,-0.43451688,1.5824435,1.314798,0.15151618,1.5443628,-0.54438394
0.0,-0.1,1.0,0.5235987755982988,0.0,0,-0.08593656,-0.35681778,-2.8556213,0.5441956,-1.3145384,-0.17460835,-0.54095197,-0.090014875,-0.44971368,1.4889722,1.2973135,0.19074182,1.5571594,-1.5029231
0.0,-0.1,1.0,0.5235987755982988,0.0,0,-0.198895,-0.41128466,-2.841825,0.49760348,-1.3164673,-0.06288799,0.26414335,-0.06492089,-0.44030467,1.5427037,1.3129137,0.20497002,1.5434332,-2.5030847
0.0,-0.1,1.0,0.5235987755982988,0.0,0,-0.10802473,-0.42838624,-2.8468394,0.52575666,-1.4582886,-0.32850248,0.70105344,-0.08022727,-0.46228117,1.5907246,1.3201966,0.15451632,1.5570384,0.63243306
0.0,-0.1,1.0,0.5235987755982988,0.0,0,-0.19433676,-0.38747895,-2.9039772,0.5183478,-1.4510639,-0.110956565,-0.15690838,-0.060123913,-0.43893757,1.600529,1.3200705,0.17772664,1.5485208,-2.0088282
0.0,-0.1,1.0,0.5235987755982988,0.0,0,0.022849236,-0.455994,-2.8180256,0.54931325,-1.327756,-0.16676019,0.5256101,-0.07873983,-0.4279851,1.4624853,1.3162514,0.17289469,1.5560603,0.017278956
0.0,-0.1,1.0,0.5235987755982988,0.0,0,-0.14119673,-0.36644286,-2.8745694,0.5070269,-1.2168629,-0.008275253,0.2938419,-0.076629765,-0.4459334,1.5192504,1.3404902,0.17398858,1.5602548,-0.54642475
0.0,-0.1,1.0,0.5235987755982988,0.0,0,-0.0750101,-0.3944585,-2.8281221,0.53230965,-1.437606,-0.058424946,-0.1860331,-0.065946296,-0.44701856,1.4909856,1.3226593,0.1851287,1.5568968,0.066355586
0.0,-0.1,1.0,0.5235987755982988,0.0,0,-0.23100246,-0.4467658,-2.731187,0.4934912,-1.3249758,-0.1660046,-0.7487929,-0.0438344,-0.44524282,1.4400349,1.2998205,0.17853779,1.5682638,0.34025
0.0,-0.1,1.0,0.5235987755982988,0.0,0,-0.09365348,-0.35166654,-2.8201668,0.5631742,-1.475716,-0.08232031,0.5740007,-0.04817881,-0.47263628,1.5376843,1.3121321,0.16345839,1.5539122,0.37188795
0.0,-0.1,1.0,0.5235987755982988,0.0,0,-0.0900576,-0.40463033,-2.7848709,0.5289197,-1.8073536,-0.05083996,0.34305087,-0.0643145,-0.44940904,1.5664629,1.3184471,0.17751253,1.552439,-0.37600267
0.0,-0.1,1.0,0.5235987755982988,0.0,0,-0.1999102,-0.39615095,-2.8449626,0.5228502,-1.3447652,-0.3644218,0.28486443,-0.042639002,-0.4576096,1.5369643,1.31753,0.19467683,1.5639094,-1.7195362
0.0,-0.1,1.0,0.5235987755982988,0.0,0,-0.041708343,-0.46835327,-2.8027854,0.49619794,-1.4450608,-0.1614253,1.308815,-0.06060938,-0.43528408,1.5118793,1.3254584,0.16604485,1.560602,-0.27246904
0.0,-0.1,1.0,0.5235987755982988,0.0,0,-0.18647696,-0.41779372,-2.8143811,0.5014404,-1.1159679,-0.23564322,-0.4022397,-0.10214531,-0.44396186,1.550027,1.2951654,0.16394615,1.5578367,-0.5700932
0.0,-0.1,1.0,0.5235987755982988,0.0,0,-0.114806056,-0.3495353,-2.8407483,0.5301711,-1.6071877,-0.12890087,-0.45961127,-0.08326905,-0.44278368,1.5329157,1.3199062,0.18762764,1.551058,-0.631562
0.0,-0.1,1.0,0.5235987755982988,0.0,0,-0.042982854,-0.38753712,-2.8147943,0.5751493,-1.2117963,-0.16535193,0.102149986,-0.05968853,-0.44726315,1.4830581,1.3146018,0.20079416,1.548915,1.2304703
0.0,-0.1,1.0,0.5235987755982988,0.0,0,-0.09288818,-0.380344,-2.7583756,0.57746714,-1.630744,-0.02422485,-0.12983057,-0.088831306,-0.4698668,1.5546235,1.3081099,0.15712863,1.5517066,1.2403932
0.0,-0.1,1.0,0.5235987755982988,0.0,0,-0.10904198,-0.43096095,-2.7201016,0.5600527,-1.3623471,-0.20406412,0.15095761,-0.051335324,-0.45714018,1.5015656,1.3074279,0.18643734,1.5707223,1.0993087
0.0,-0.1,1.0,0.5235987755982988,0.0,0,-0.113723,-0.3397448,-2.814405,0.6022982,-1.2341903,-0.092758775,0.5204665,-0.07302134,-0.44899085,1.5150894,1.317947,0.16089034,1.5456166,0.9658075
0.0,-0.1,1.0,0.5235987755982988,0.0,0,-0.030679554,-0.44381875,-2.8113434,0.5311894,-1.6494701,-0.19208962,-0.10305642,-0.11776328,-0.45102936,1.5571649,1.3073137,0.17737813,1.5637683,1.3214116
0.0,-0.1,1.0,0.5235987755982988,0.0,0,-0.059997074,-0.42922905,-2.8381736,0.5119591,-1.6991229,-0.21553424,1.1062196,-0.068186924,-0.45142856,1.5399045,1.3062104,0.17064594,1.554406,-3.1046999
0.0,-0.1,1.0,0.5235987755982988,0.0,0,-0.12033726,-0.4083718,-2.8255167,0.4999133,-1.3620194,-0.12333482,-0.28802177,-0.09014794,-0.43879506,1.4876506,1.3122741,0.16104549,1.557909,-0.15207903
0.0,-0.1,1.0,0.5235987755982988,0.0,0,-0.072650455,-0.45401257,-2.8770852,0.5060245,-1.2297513,-0.20605719,0.5493262,-0.026435101,-0.44239384,1.5303216,1.3146211,0.18331906,1.5620648,0.17110427
0.0,-0.1,1.0,0.5235987755982988,0.0,0,-0.034365352,-0.48003447,-2.7550895,0.50984794,-1.7268994,-0.07550717,0.5982972,-0.047078043,-0.46722448,1.4711243,1.3128505,0.1771962,1.5496055,0.037765335
0.0,-0.1,1.0,0.5235987755982988,0.0,0,-0.114388816,-0.31680587,-2.7856545,0.6107408,-1.5195692,-0.090184875,0.0008425901,-0.051199038,-0.43900022,1.486947,1.2960982,0.1889609,1.5488882,0.14452234
0.0,-0.1,1.0,0.5235987755982988,0.0,0,-0.29665792,-0.383066,-2.7738552,0.5226489,-1.4017667,-0.17025241,0.3577083,-0.07091966,-0.44049677,1.4972605,1.3196263,0.17188618,1.5300157,0.023632932
0.0,-0.1,1.0,0.5235987755982988,0.0,0,-0.019012652,-0.50263536,-2.7721674,0.53756475,-1.1466912,-0.15350014,0.7360904,-0.1023149,-0.449215,1.5839237,1.3112637,0.18076071,1.5504626,0.40844262
0.0,-0.1,1.0,0.5235987755982988,0.0,0,-0.17162386,-0.38051122,-2.8151703,0.54823875,-1.1285305,-0.0876514,0.78084666,-0.06559536,-0.43836167,1.5058666,1.3277767,0.1867188,1.5547416,0.59042263
0.0,-0.1,1.0,0.5235987755982988,0.0,0,-0.1884271,-0.40715164,-2.8396862,0.48808423,-1.295717,-0.11298368,0.2486509,-0.10911549,-0.44176576,1.442227,1.3150338,0.14844319,1.55912,-1.7250184
0.0,-0.1,1.0,0.5235987755982988,0.0,0,0.025976248,-0.51649827,-2.8216624,0.5164041,-1.1722091,-0.11605989,0.54797155,-0.0755397,-0.44524905,1.4772149,1.313777,0.20165427,1.5502689,0.24866973
0.0,-0.1,1.0,0.5235987755982988,0.0,0,-0.24428174,-0.37260142,-2.734506,0.5499084,-1.031552,0.0407235,-0.31508362,-0.061405517,-0.4461389,1.5952708,1.3238947,0.19956028,1.5574821,0.7472875
0.0,-0.1,1.0,0.5235987755982988,0.0,0,-0.07575213,-0.4289072,-2.850562,0.5205004,-1.2244343,-0.19489327,-0.45805517,-0.039578732,-0.40915418,1.5010854,1.3053988,0.17329827,1.5585018,-3.0249314
0.0,-0.1,1.0,0.5235987755982988,0.0,0,-0.10374946,-0.4142183,-2.7672005,0.5235692,-1.610816,-0.13036852,-0.82627946,-0.07563426,-0.43204433,1.5091478,1.3036382,0.1805184,1.5544584,0.013972024
0.0,-0.1,1.0,0.5235987755982988,0.0,0,-0.08646801,-0.32321155,-2.8914926,0.5720142,-1.5932674,-0.09340265,-0.66087097,-0.06492278,-0.426366,1.5366721,1.3088347,0.18479408,1.5486593,-0.17292075
0.0,-0.1,1.0,0.5235987755982988,0.0,0,-0.0471249,-0.38721514,-2.8373506,0.5638758,-1.3821096,-0.14101082,0.7011174,-0.020688703,-0.45270494,1.5362991,1.3054003,0.19397555,1.5524433,0.04437492
0.0,-0.1,1.0,0.5235987755982988,0.0,0,-0.08251551,-0.46266502,-2.8227065,0.4959578,-1.1716086,-0.050737463,0.33757165,-0.10796414,-0.45402044,1.5190716,1.3066893,0.16281357,1.5567259,0.5534951
0.0,-0.1,1.0,0.5235987755982988,0.0,0,-0.07486888,-0.46877986,-2.865777,0.5645946,-1.1879498,0.00053813076,1.0878329,-0.040804874,-0.4613593,1.501383,1.3216132,0.18834814,1.5441849,-2.9231708
0.0,-0.1,1.0,0.5235987755982988,0.0,0,-0.14695267,-0.44899306,-2.810133,0.575184,-1.2382687,-0.12569802,1.5317961,-0.024840523,-0.4515797,1.5064648,1.3244226,0.17354846,1.5470619,0.51766366
0.0,-0.1,1.0,0.5235987755982988,0.0,0,-0.09692513,-0.53240705,-2.8447485,0.5207787,-1.2190609,-0.21245226,0.5144378,-0.055928808,-0.44812083,1.478202,1.3101542,0.18439704,1.5546107,-0.1796772
0.0,-0.1,1.0,0.5235987755982988,0.0,0,-0.052107684,-0.4489045,-2.8377342,0.5462629,-1.2322807,-0.08640296,0.9009327,-0.019865276,-0.44598123,1.4924675,1.3160739,0.19905299,1.5678294,0.44701976
0.0,-0.1,1.0,0.5235987755982988,0.0,0,-0.119964704,-0.51518726,-2.7280827,0.5220272,-1.6586457,-0.17503977,-0.3955842,-0.06511122,-0.45180103,1.5029371,1.3143487,0.17785034,1.5604991,-1.1014374
0.0,-0.1,1.0,0.5235987755982988,0.0,0,-0.092178255,-0.52463883,-2.840803,0.49391466,-1.3065047,-0.020103814,0.79658777,-0.096221656,-0.43781334,1.628413,1.3053573,0.15369125,1.5442832,-0.022712737
0.0,-0.1,1.0,0.5235987755982988,0.0,0,-0.013215406,-0.5118552,-2.8350732,0.5638693,-1.2519722,-0.051606014,0.6503121,-0.079666436,-0.43052006,1.5225629,1.3156472,0.16305836,1.5557497,0.27954596
0.0,-0.1,1.0,0.5235987755982988,0.0,0,-0.0885622,-0.5132317,-2.8211265,0.501409,-1.440051,-0.08447676,0.5149731,-0.06477631,-0.46036196,1.5458183,1.3243117,0.1578201,1.5477598,-1.7458085
0.0,-0.1,1.0,0.5235987755982988,0.0,0,-0.20062448,-0.45200732,-2.8382442,0.55893505,-1.4253857,-0.10178076,0.58606327,-0.021850938,-0.44734767,1.4104973,1.3120699,0.14680521,1.561028,-0.71363604
0.0,-0.1,1.0,0.5235987755982988,0.0,0,-0.10018199,-0.44960272,-2.7750247,0.58024275,-1.0780264,-0.16147994,0.2653349,-0.056937747,-0.44185054,1.5410442,1.3153648,0.17954472,1.5591977,-0.7887977
0.0,-0.1,1.0,0.5235987755982988,0.0,0,-0.12597235,-0.47604406,-2.764807,0.51539695,-1.1749125,-0.066747256,-0.6001468,-0.02227705,-0.45656845,1.5522243,1.3106015,0.17025013,1.5649366,-0.9444701
0.0,-0.1,1.0,0.5235987755982988,0.0,0,-0.065649554,-0.5221588,-2.821106,0.5187392,-1.3707914,-0.18432443,0.067149736,-0.054729804,-0.44842544,1.5583928,1.3019491,0.16884962,1.5537481,-0.27594355
0.0,-0.1,1.0,0.5235987755982988,0.0,0,-0.2945661,-0.38876718,-2.783672,0.58862054,-1.1784,-0.13040471,-0.36449146,-0.071646966,-0.43784657,1.5964075,1.3082738,0.18253328,1.5566628,-3.0448077
0.0,-0.1,1.0,0.5235987755982988,0.0,0,-0.2235441,-0.37582108,-2.8413887,0.56547874,-1.1850157,-0.0745163,0.10591886,-0.051212408,-0.4495493,1.6045735,1.3197587,0.1763501,1.558593,-0.7986612
0.0,-0.1,1.0,0.5235987755982988,0.0,0,-0.18407705,-0.40649158,-2.8292904,0.5684805,-1.3972363,-0.07939245,0.25197077,-0.07658869,-0.4547647,1.5375627,1.3315778,0.18035688,1.5637696,-1.3917242
0.0,-0.1,1.0,0.5235987755982988,0.0,0,-0.18047512,-0.37488434,-2.7510948,0.5912124,-1.4397852,-0.036765013,-0.36034584,-0.09915547,-0.46125105,1.5588528,1.3142463,0.19153278,1.5516095,0.3793132
0.0,-0.1,1.0,0.5235987755982988,0.0,0,-0.058213297,-0.3739724,-2.7974598,0.5697605,-1.3064404,-0.23431231,0.18365134,-0.09995463,-0.44917455,1.460879,1.3172985,0.19037677,1.5669655,1.8351218
0.0,-0.1,1.0,0.5235987755982988,0.0,0,-0.20021664,-0.40238017,-2.7934167,0.59045154,-0.9609952,-0.03255413,0.22323531,-0.06924123,-0.4556165,1.6134559,1.3189228,0.17245664,1.5487657,-0.70433694
0.0,-0.1,1.0,0.5235987755982988,0.0,0,-0.104398675,-0.4398701,-2.7671459,0.5314744,-1.4736589,-0.21213074,1.275038,-0.044410966,-0.45229387,1.4936008,1.3008797,0.18087247,1.5561224,0.04299096
0.0,-0.1,1.0,0.5235987755982988,0.0,0,-0.06581415,-0.45427263,-2.706304,0.56902516,-1.5799693,-0.16946976,0.21674915,-0.03812692,-0.43828493,1.587233,1.3194869,0.20907696,1.5579462,0.6033056
0.0,-0.1,1.0,0.5235987755982988,0.0,0,-0.0046912613,-0.43890718,-2.8777032,0.57742286,-1.081337,-0.054763813,0.08810901,0.0017812137,-0.45588765,1.4970022,1.3272066,0.17335074,1.5669829,-1.9548258
0.0,-0.1,1.0,0.5235987755982988,0.0,0,-0.04328713,-0.46327522,-2.8289921,0.5168631,-1.1243973,-0.1604513,0.015327139,-0.09788749,-0.45576888,1.5318289,1.3157631,0.19110031,1.5530452,-0.96352744
0.0,-0.1,1.0,0.5235987755982988,0.0,0,0.032079913,-0.46427843,-2.8157053,0.49327806,-1.5367454,-0.16247347,0.15860866,-0.015051347,-0.43353683,1.4508883,1.3349098,0.21010964,1.5536597,-1.029693
0.0,-0.1,1.0,0.5235987755982988,0.0,0,-0.16302662,-0.4222592,-2.7328813,0.55547434,-1.4005935,-0.17053622,0.11239493,-0.0824751,-0.43868247,1.5469624,1.3105049,0.15545727,1.5535593,-1.5078185
0.0,-0.1,1.0,0.5235987755982988,0.0,0,0.0038362145,-0.33670837,-2.8685286,0.6109921,-1.2809553,-0.11330003,0.41263837,-0.051635273,-0.47535226,1.5030997,1.3226638,0.1937057,1.5459985,-0.99587774
0.0,-0.1,1.0,0.5235987755982988,0.0,0,-0.32386768,-0.50437886,-2.8237357,0.48913,-1.2564803,-0.17199595,1.0357518,-0.06691433,-0.4459764,1.5218686,1.3003603,0.1917244,1.5488796,0.03884694
0.0,-0.1,1.0,0.5235987755982988,0.0,0,-0.1539273,-0.40592584,-2.8209412,0.5136587,-1.3979974,-0.10485766,0.6395731,-0.08961125,-0.45420712,1.48738,1.3314464,0.1668171,1.5478431,0.244605
0.0,-0.1,1.0,0.5235987755982988,0.0,0,-0.11918529,-0.40028986,-2.8249812,0.53589284,-1.2478273,-0.09776472,0.63771397,-0.07930702,-0.45190117,1.4941983,1.3258705,0.20112492,1.5547025,0.226326
0.0,-0.1,1.0,0.5235987755982988,0.0,0,-0.109137,-0.37020734,-2.8137765,0.5505373,-1.3980191,-0.122599185,1.1559298,-0.008661627,-0.46706873,1.519662,1.3000585,0.19648379,1.5669944,0.21812841
0.0,-0.1,1.0,0.5235987755982988,0.0,0,-0.17425632,-0.3801165,-2.7841768,0.5574496,-1.542358,-0.132789,0.039017618,-0.06469231,-0.44347376,1.4922957,1.311542,0.15753058,1.5504774,0.6030348
0.0,-0.1,1.0,0.5235987755982988,0.0,0,-0.041157734,-0.45373744,-2.807056,0.5842241,-1.2853369,-0.10633921,1.5859134,-0.050393898,-0.4589168,1.4480021,1.2870077,0.18677175,1.5537204,-1.8680122
0.0,-0.1,1.0,0.5235987755982988,0.0,0,-0.092357665,-0.35881087,-2.8312209,0.5598421,-1.5583652,-0.06693904,0.41051552,-0.054632656,-0.46700445,1.5821187,1.3265822,0.1814849,1.5520378,-0.29921606
0.0,-0.1,1.0,0.5235987755982988,0.0,0,-0.10051799,-0.5894446,-2.7477455,0.5360966,-1.1475697,-0.11946757,0.6962536,-0.04252434,-0.42702124,1.5261358,1.3152485,0.19347931,1.5513359,0.86145955
0.0,-0.1,1.0,0.5235987755982988,0.0,0,-0.0704462,-0.4387724,-2.8378475,0.53989166,-1.1048132,-0.103823565,0.22517115,-0.08754971,-0.44139,1.5165564,1.3207572,0.19239399,1.5625423,-1.6033756
0.0,-0.1,1.0,0.5235987755982988,0.0,0,-0.11985949,-0.38421485,-2.7787726,0.5889308,-1.3453553,-0.043837514,0.99643326,-0.04448624,-0.4565079,1.5560372,1.3181796,0.16277753,1.5576708,-1.356136
0.0,-0.1,1.0,0.5235987755982988,0.0,0,-0.061345804,-0.46620756,-2.8643649,0.5487548,-1.1662701,-0.14316837,-0.44543603,-0.027964901,-0.42887893,1.4643447,1.2961498,0.13674988,1.5572708,0.32592124
0.0,-0.1,1.0,0.5235987755982988,0.0,0,-0.18071993,-0.43343657,-2.7334688,0.5403602,-1.4277053,-0.20286924,-0.023398539,-0.043889523,-0.4586116,1.4920471,1.3256749,0.20119567,1.5538104,0.10876483
0.0,-0.1,1.0,0.5235987755982988,0.0,0,0.0778065,-0.47311923,-2.7573884,0.5858867,-1.5384921,-0.22318724,0.96654415,-0.06691024,-0.48184934,1.4980913,1.311533,0.21147521,1.5674665,-1.5657063
0.0,-0.1,1.0,0.5235987755982988,0.0,0,-0.12116706,-0.36607984,-2.8167803,0.5933734,-1.1836436,-0.22165355,0.6759033,-0.03351955,-0.45379567,1.5616868,1.2946987,0.22801094,1.5521797,0.07333742
0.0,-0.1,1.0,0.5235987755982988,0.0,0,-0.06427781,-0.4752477,-2.8295596,0.52680254,-1.4777504,-0.070064865,0.10031401,-0.052630853,-0.468625,1.4528776,1.3200626,0.1846422,1.5580398,1.1225866
0.0,-0.1,1.0,0.5235987755982988,0.0,0,-0.19990286,-0.35425943,-2.746788,0.5628432,-1.379939,-0.01793421,-0.02457132,-0.08796016,-0.45085183,1.5340624,1.3438461,0.18279693,1.5486069,-0.0355243
0.0,-0.1,1.0,0.5235987755982988,0.0,0,-0.12037259,-0.48604643,-2.6959221,0.5468649,-1.0144012,-0.051861677,1.6903269,-0.03121499,-0.47266343,1.4869276,1.2954422,0.20728916,1.5552609,-0.1372908
0.0,-0.1,1.0,0.5235987755982988,0.0,0,-0.1145944,-0.45506296,-2.752282,0.5863125,-1.521494,-0.1423138,-0.40255755,-0.08426202,-0.4426771,1.5672654,1.328459,0.18069649,1.5552654,0.95192415
0.0,-0.1,1.0,0.5235987755982988,0.0,0,-0.17286046,-0.3544975,-2.7694297,0.5669635,-1.4932181,-0.2179119,0.8750472,-0.05635753,-0.43267423,1.4819274,1.3268503,0.17828971,1.5452965,-1.5244375
0.0,-0.1,1.0,0.5235987755982988,0.0,0,-0.037115503,-0.52560794,-2.7371492,0.5208991,-1.2321571,-0.12187455,0.8878976,-0.0666961,-0.4553395,1.5269481,1.3153367,0.20716518,1.5462973,-2.170204
0.0,-0.1,1.0,0.5235987755982988,0.0,0,-0.20294464,-0.37804666,-2.7895763,0.55741584,-1.4894454,-0.1268277,0.86290294,-0.03824271,-0.43805,1.561692,1.306819,0.16587977,1.5581013,-2.2379773
0.0,-0.1,1.0,0.5235987755982988,0.0,0,-0.11278244,-0.37772772,-2.8783994,0.5444059,-1.4555124,-0.16352734,0.45917037,-0.05654324,-0.44918978,1.5021273,1.3081015,0.17203452,1.5523812,-1.681481
0.0,-0.1,1.0,0.5235987755982988,0.0,0,-0.09370924,-0.41499487,-2.7674713,0.54211783,-1.3967066,-0.18167686,0.96267056,-0.08206141,-0.45336896,1.5602653,1.3134235,0.18393652,1.5590227,0.01945426
0.0,-0.1,1.0,0.5235987755982988,0.0,0,-0.13636553,-0.38107595,-2.8234372,0.5694892,-0.95009506,-0.13897443,0.28128028,-0.032923903,-0.43858698,1.4247022,1.3143549,0.17522235,1.5625839,0.24521942
0.0,-0.1,1.0,0.5235987755982988,0.0,0,-0.14660233,-0.43431583,-2.8637931,0.53376627,-1.3117611,-0.19526054,0.22924705,0.0035044816,-0.44375867,1.6024425,1.2877471,0.15367937,1.5582895,1.078534
0.0,-0.1,1.0,0.5235987755982988,0.0,0,-0.17786054,-0.39811015,-2.8163695,0.56461823,-1.2268821,-0.06374028,0.33946857,-0.04220812,-0.46290126,1.5373763,1.3210902,0.16986291,1.5476431,-2.123819
0.0,-0.1,1.0,0.5235987755982988,0.0,0,-0.25987643,-0.36176515,-2.798436,0.5510382,-1.5782964,-0.1492616,-0.28027034,-0.070045926,-0.44340074,1.5207658,1.3143567,0.16791013,1.5536797,0.05674922
0.0,-0.1,1.0,0.5235987755982988,0.0,0,-0.18245424,-0.40579757,-2.8159056,0.5445374,-1.4024678,-0.18035075,-0.15228492,-0.04626699,-0.46030286,1.4793365,1.3161243,0.1752553,1.5380715,0.5817423
0.0,-0.1,1.0,0.5235987755982988,0.0,0,-0.14544731,-0.4196455,-2.8500712,0.5278191,-1.440482,-0.19003493,-0.82565403,-0.044796374,-0.45100793,1.5301236,1.3048666,0.17824943,1.5492997,-1.802517
0.0,-0.1,1.0,0.5235987755982988,0.0,0,-0.108292446,-0.51378447,-2.7526488,0.51350725,-1.0971768,-0.19010478,0.7294422,-0.06691056,-0.42873323,1.4808049,1.3067944,0.1902015,1.542289,-2.6247168
0.0,-0.1,1.0,0.5235987755982988,0.0,0,-0.13020733,-0.39992863,-2.8244996,0.532466,-1.1851637,-0.14482935,0.40941656,-0.08975188,-0.4433115,1.5505785,1.3049581,0.19201472,1.5644156,-1.2069007
0.0,-0.1,1.0,0.5235987755982988,0.0,0,-0.13771373,-0.38852954,-2.810206,0.5616893,-1.1677992,-0.1680119,-0.69763213,-0.072838545,-0.4592861,1.4710499,1.2861526,0.15360132,1.5527976,-0.17175248
0.0,-0.1,1.0,0.5235987755982988,0.0,0,-0.13851282,-0.4398152,-2.8071349,0.50301504,-1.4427291,-0.15111472,0.041190695,-0.07248262,-0.4602328,1.4400812,1.3259751,0.1942195,1.5493164,0.78592026
0.0,-0.1,1.0,0.5235987755982988,0.0,0,-0.23982385,-0.4352208,-2.8206666,0.46519613,-1.3378205,-0.20562656,0.4225585,-0.056534875,-0.45037168,1.5464435,1.3089894,0.14262614,1.5626895,-0.19730352
0.0,-0.1,1.0,0.5235987755982988,0.0,0,-0.19104283,-0.4383932,-2.7580192,0.5222,-1.5915695,-0.21088573,0.94825155,-0.027745664,-0.43620536,1.5501535,1.3236164,0.17907901,1.5621709,-2.3567433
0.0,-0.1,1.0,0.5235987755982988,0.0,0,0.026697874,-0.45336482,-2.822215,0.5749045,-1.2867627,0.026569327,0.12548664,-0.090899676,-0.45303226,1.5162342,1.2846881,0.160567,1.5529071,-1.4891334
0.0,-0.1,1.0,0.5235987755982988,0.0,0,-0.046016343,-0.38484275,-2.8063734,0.55363244,-1.4990406,-0.16973999,0.352056,-0.05885001,-0.43451715,1.4708986,1.3240538,0.21339475,1.553557,-1.7107102
0.0,-0.1,1.0,0.5235987755982988,0.0,0,-0.1854647,-0.3582732,-2.7795002,0.5843108,-1.2571254,-0.023392363,0.94511515,-0.08791572,-0.4546199,1.500516,1.3236973,0.15926339,1.547761,0.48065796
0.0,-0.1,1.0,0.5235987755982988,0.0,0,-0.10350756,-0.3362215,-2.8594625,0.5637125,-1.4743073,-0.15490638,-0.9200853,-0.060450938,-0.43264943,1.510077,1.3108326,0.2068375,1.560535,-1.6775492
0.0,-0.1,1.0,0.5235987755982988,0.0,0,-0.1564273,-0.36918643,-2.8731883,0.5895214,-0.9150859,-0.17302226,1.1403809,-0.05694666,-0.442607,1.5032952,1.306395,0.19385299,1.5446082,-1.8089396
0.0,-0.1,1.0,0.5235987755982988,0.0,0,-0.066574916,-0.43223852,-2.849009,0.53174406,-1.1690462,-0.12212034,-0.8614649,-0.083860025,-0.4430954,1.4877273,1.3119096,0.18140012,1.55876,0.6297497
0.0,-0.1,1.0,0.5235987755982988,0.0,0,-0.19421738,-0.3431302,-2.71196,0.5846386,-1.5622656,-0.14057519,0.700716,-0.07513726,-0.4583334,1.5575564,1.3045176,0.19553575,1.5484937,-0.05303688
0.0,-0.1,1.0,0.5235987755982988,0.0,0,-0.048561387,-0.4859596,-2.7804084,0.522617,-1.2249316,-0.06714644,-0.71136034,-0.061838333,-0.4409311,1.4774823,1.3323454,0.21159618,1.5442159,0.07848667
0.0,-0.1,1.0,0.5235987755982988,0.0,0,-0.16406052,-0.49869505,-2.7973871,0.5676486,-1.4044721,-0.06743349,0.88201356,-0.08525328,-0.43527347,1.4676985,1.2989879,0.19271554,1.5365969,-1.5533885
0.0,-0.1,1.0,0.5235987755982988,0.0,0,-0.24922588,-0.4537849,-2.7553878,0.5420945,-1.2941566,-0.111449204,0.32206568,-0.05249939,-0.44813806,1.4859265,1.3052716,0.1724347,1.5524234,1.6717271
0.0,-0.1,1.0,0.5235987755982988,0.0,0,0.10230695,-0.5739416,-2.8660314,0.5577806,-1.3592724,-0.23997238,0.71095824,-0.04903575,-0.46237305,1.5445102,1.316058,0.16649638,1.5668131,-1.4555725
0.0,-0.1,1.0,0.5235987755982988,0.0,0,-0.07405053,-0.50221044,-2.7574716,0.54944664,-1.328506,-0.14499234,0.012645566,-0.092518024,-0.457931,1.5469497,1.328862,0.20710386,1.5525396,0.8541481
0.0,-0.1,1.0,0.5235987755982988,0.0,0,-0.10881575,-0.45082855,-2.813881,0.5428284,-1.6026917,-0.29683778,0.45572883,-0.01598162,-0.4599687,1.4596101,1.3072821,0.17927985,1.5460297,-2.2477207
0.0,-0.1,1.0,0.5235987755982988,0.0,0,-0.14236796,-0.5435849,-2.8010488,0.55767965,-1.3611314,-0.06731075,1.4445101,-0.050185673,-0.43635026,1.4784279,1.3100735,0.14309311,1.549922,-1.5929391
0.0,-0.1,1.0,0.5235987755982988,0.0,0,-0.12875444,-0.6107369,-2.8553643,0.48488817,-1.303204,-0.21732368,0.9906086,-0.069990255,-0.4305054,1.6306586,1.3280914,0.17537919,1.5457263,-1.3321698
0.0,-0.1,1.0,0.5235987755982988,0.0,0,-0.17384705,-0.4988304,-2.7966046,0.51365846,-1.4427644,-0.07602626,-0.6030989,-0.09648357,-0.4595992,1.5086617,1.3222902,0.1999715,1.5463175,-1.0032839
0.0,-0.1,1.0,0.5235987755982988,0.0,0,-0.27389547,-0.4445974,-2.836019,0.51321906,-1.4981693,-0.088707365,0.28919002,-0.04419964,-0.47772738,1.5118285,1.3172014,0.20960599,1.5628757,0.21952498
0.0,-0.1,1.0,0.5235987755982988,0.0,0,-0.18741614,-0.41292804,-2.8001037,0.5377312,-1.2565871,-0.24553433,0.7643804,-0.10913309,-0.46579984,1.5228333,1.3062698,0.19585681,1.5489726,-2.3204772
0.0,-0.1,1.0,0.5235987755982988,0.0,0,-0.13097648,-0.4016983,-2.7653573,0.56697154,-1.4571377,-0.27329904,0.31234282,1.4901537e-05,-0.43218634,1.4959464,1.3210557,0.19153261,1.556236,0.7169394
0.0,-0.1,1.0,0.5235987755982988,0.0,0,-0.012505623,-0.5308586,-2.907244,0.48570248,-1.3474207,-0.060361452,0.91901624,-0.02453611,-0.44352886,1.4833181,1.291078,0.15051906,1.5571346,-0.5960441
0.0,-0.1,1.0,0.5235987755982988,0.0,0,-0.19130424,-0.4584395,-2.851817,0.5343728,-1.2279214,-0.13622425,0.6165764,-0.07244824,-0.47070628,1.4639999,1.3164321,0.17700684,1.5565795,-1.5371335
0.0,-0.1,1.0,0.5235987755982988,0.0,0,0.1011592,-0.53767186,-2.8343792,0.51848036,-1.5287389,-0.079712026,1.358523,-0.06520449,-0.43965408,1.4597033,1.3253065,0.1855821,1.5557642,-0.75243133
0.0,-0.1,1.0,0.5235987755982988,0.0,0,-0.010533602,-0.5152796,-2.773777,0.5860998,-1.4493666,-0.26284575,0.6207463,-0.07899755,-0.46426383,1.5602154,1.3137379,0.19640411,1.5706292,-0.7569303
0.0,-0.1,1.0,0.5235987755982988,0.0,0,-0.043462407,-0.4348144,-2.8142204,0.5289425,-1.5963241,-0.20593959,0.80593306,-0.061308295,-0.44496965,1.5256041,1.3145776,0.20219983,1.5682974,-1.5953195
0.0,-0.1,1.0,0.5235987755982988,0.0,0,-0.13471644,-0.41705996,-2.8103058,0.4858181,-1.2918128,-0.11114425,-0.63846123,-0.07712029,-0.4659962,1.5580261,1.3098918,0.18626449,1.555182,-2.4199104
0.0,-0.1,1.0,0.5235987755982988,0.0,0,-0.14575844,-0.4338137,-2.7849293,0.5643411,-1.2069681,-0.222028,0.99003285,-0.04118955,-0.43852472,1.484662,1.3027433,0.16228932,1.542098,-1.9597735
0.0,-0.1,1.0,0.5235987755982988,0.0,0,-0.036458872,-0.5163132,-2.8220026,0.553991,-1.1230484,-0.025319178,0.20685484,-0.017707834,-0.43021694,1.54645,1.3154262,0.20903304,1.5562522,-0.4056269
0.0,-0.1,1.0,0.5235987755982988,0.0,0,0.05370101,-0.4947753,-2.8246522,0.5190108,-1.6841178,-0.10005756,1.3485934,-0.09362982,-0.43862528,1.5203165,1.320893,0.19351251,1.5534544,-1.5714947
0.0,-0.1,1.0,0.5235987755982988,0.0,0,-0.17660937,-0.42387298,-2.7418497,0.54760224,-1.2756053,-0.20310739,0.17197306,-0.039370943,-0.44952965,1.521091,1.3141831,0.19573316,1.5648487,1.5104649
0.0,-0.1,1.0,0.5235987755982988,0.0,0,0.028759783,-0.48580647,-2.8100276,0.5804591,-1.7763225,-0.12980875,1.1527009,-0.043542914,-0.46078798,1.5071495,1.3010277,0.20160517,1.5572355,-2.1901808
0.0,-0.1,1.0,0.5235987755982988,0.0,0,-0.111548156,-0.44719782,-2.787565,0.5886359,-1.2308358,-0.029352842,0.5430099,-0.08414382,-0.4560372,1.591751,1.3173717,0.17892149,1.5555675,-1.2713199
0.0,-0.1,1.0,0.5235987755982988,0.0,0,-0.1313634,-0.41465464,-2.8027952,0.5490984,-1.5014124,-0.103241846,0.6934832,-0.0700515,-0.45174962,1.5056732,1.3209507,0.17635839,1.5551713,-0.03710969
0.0,-0.1,1.0,0.5235987755982988,0.0,0,-0.096597634,-0.40401566,-2.8514194,0.5482334,-1.4141252,-0.053639602,0.14951545,-0.039740954,-0.44622195,1.5076188,1.3068087,0.17038736,1.5483767,-0.15899044
0.0,-0.1,1.0,0.5235987755982988,0.0,0,0.015460689,-0.53618646,-2.8311992,0.5191707,-1.4193046,-0.11753642,0.5430997,-0.04677882,-0.43621925,1.5172757,1.3060958,0.18757686,1.5607187,0.048666652
0.0,-0.1,1.0,0.5235987755982988,0.0,0,-0.2599992,-0.42453533,-2.7646823,0.5609122,-1.3964406,-0.09979624,0.017591521,-0.06786221,-0.44532147,1.5234523,1.3224814,0.17721654,1.553522,-1.9596927
0.0,-0.1,1.0,0.5235987755982988,0.0,0,-0.12436254,-0.44148827,-2.8013625,0.54639035,-0.9926548,-0.13002849,-0.13186245,-0.06120247,-0.43073395,1.5263916,1.3188986,0.20320478,1.5570962,-1.0717256
0.0,-0.1,1.0,0.5235987755982988,0.0,0,-0.05183547,-0.40835443,-2.8102496,0.5400815,-1.5653341,-0.047631267,0.25287557,-0.08062069,-0.46240693,1.4348909,1.311784,0.18436845,1.5499538,0.44298398
0.0,-0.1,1.0,0.5235987755982988,0.0,0,-0.120394565,-0.3367607,-2.8689604,0.5878696,-1.6455134,-0.09597611,0.13534313,-0.061897628,-0.451423,1.5945661,1.3074663,0.20859247,1.5564793,1.6779743
0.0,-0.1,1.0,0.5235987755982988,0.0,0,-0.09119179,-0.4410653,-2.8251374,0.5151332,-1.3563856,-0.02242391,-0.011283425,-0.065801345,-0.449159,1.5048817,1.3000208,0.22226326,1.5455421,0.24163732
0.0,-0.1,1.0,0.5235987755982988,0.0,0,-0.22088727,-0.4129403,-2.7931328,0.5905387,-0.9779157,-0.1469601,-0.26993057,-0.06270099,-0.45108953,1.667412,1.3343508,0.19437805,1.5503327,-1.2806927
0.0,-0.1,1.0,0.5235987755982988,0.0,0,-0.0379141,-0.40104595,-2.8413541,0.5622424,-1.2074925,-0.08159361,1.2075348,-0.052268032,-0.43693048,1.4920036,1.3241558,0.18249148,1.5564898,-2.9067454
0.0,-0.1,1.0,0.5235987755982988,0.0,0,-0.2874735,-0.4023131,-2.7939699,0.5035185,-1.4550561,-0.033585016,1.4613749,-0.031283595,-0.44503358,1.4796828,1.3142262,0.19912167,1.5527804,-2.2848268
0.0,-0.1,1.0,0.5235987755982988,0.0,0,-0.27501535,-0.4201981,-2.84998,0.5023243,-1.2291267,-0.121304534,0.6474495,-0.02571753,-0.43569157,1.5437415,1.3201222,0.21163173,1.5568104,-0.8955552
0.0,-0.1,1.0,0.5235987755982988,0.0,0,-0.05974313,-0.48264438,-2.8152318,0.5256385,-1.2365369,-0.22381173,-0.27905363,-0.05789612,-0.43846926,1.5288082,1.3193375,0.1525214,1.5561465,-0.95429146
0.0,-0.1,1.0,0.5235987755982988,0.0,0,-0.055207085,-0.5424135,-2.7617784,0.50227326,-1.0986085,-0.07181265,-0.15434663,-0.05906616,-0.44475767,1.4472747,1.3074756,0.18779677,1.5626808,0.6608408
0.0,-0.1,1.0,0.5235987755982988,0.0,0,-0.05652036,-0.44434485,-2.8598547,0.5334941,-1.4720945,-0.10593245,0.08841803,-0.03499504,-0.42361113,1.5541254,1.3248615,0.17832084,1.5561723,-1.6787828
0.0,-0.1,1.0,0.5235987755982988,0.0,0,-0.17309213,-0.37988868,-2.7731848,0.54210544,-1.2993028,-0.16708636,-0.5228411,-0.043191556,-0.45376423,1.556406,1.3262321,0.21186885,1.5440816,-0.005500005
0.0,-0.1,1.0,0.5235987755982988,0.0,0,-0.21600953,-0.47519478,-2.7758322,0.5127344,-1.0568178,-0.114475474,0.41056082,-0.043927476,-0.45516875,1.5477144,1.3279486,0.15868111,1.5424862,-2.8741105
0.0,-0.1,1.0,0.5235987755982988,0.0,0,-0.15282017,-0.3429485,-2.8245142,0.5803821,-1.3756568,-0.18218853,0.59452903,-0.07835964,-0.44398996,1.5079219,1.3265815,0.18230887,1.5461034,0.592782
0.0,-0.1,1.0,0.5235987755982988,0.0,0,-0.012446097,-0.38945708,-2.9000719,0.6241091,-1.2950612,-0.06434345,-0.427364,-0.059755232,-0.4626937,1.5536071,1.3054674,0.18074296,1.5616808,-2.6460955
0.0,-0.1,1.0,0.5235987755982988,0.0,0,0.041010994,-0.4720664,-2.844496,0.5671996,-1.370792,-0.1852507,-0.1868351,0.005129227,-0.44867793,1.462533,1.3011992,0.20061353,1.5544299,-3.0649047
0.0,-0.1,1.0,0.5235987755982988,0.0,0,-0.093295656,-0.45126468,-2.8619757,0.5199241,-1.3561515,-0.18193442,0.8544221,-0.07580006,-0.44439024,1.5609694,1.2876482,0.1600991,1.5590029,0.93778497
0.0,-0.1,1.0,0.5235987755982988,0.0,0,-0.14682417,-0.3850368,-2.820589,0.5315411,-1.269211,-0.037523277,0.53132915,-0.06565967,-0.42956185,1.5273216,1.3003635,0.15808201,1.5614542,-2.9946313
0.0,-0.1,1.0,0.5235987755982988,0.0,0,-0.18466696,-0.4306334,-2.829802,0.5346187,-1.0967921,-0.2022071,0.3238994,-0.10664009,-0.44146302,1.5693952,1.3208972,0.16298181,1.550819,-2.0837612
0.0,-0.1,1.0,0.5235987755982988,0.0,0,-0.20225313,-0.40681595,-2.7232819,0.50736415,-1.5216944,-0.09975687,0.6633639,-0.08885644,-0.43060154,1.4854636,1.3065802,0.2283751,1.5614496,0.42779776
0.0,-0.1,1.0,0.5235987755982988,0.0,0,-0.103103384,-0.539095,-2.7199526,0.5440933,-1.3397863,-0.023418717,0.4529083,-0.027298978,-0.46320564,1.4750185,1.3222407,0.16403003,1.5631367,-2.0543299
0.0,-0.1,1.0,0.5235987755982988,0.0,0,-0.05889892,-0.53418136,-2.7742143,0.54145455,-1.5050147,-0.15660925,0.952371,-0.00032168606,-0.45122784,1.5931381,1.3229914,0.16849256,1.5416595,-1.7588639
0.0,-0.1,1.0,0.5235987755982988,0.0,0,-0.20964552,-0.5181956,-2.8587837,0.5328481,-0.94707465,-0.070305176,0.5413061,-0.058735106,-0.43896225,1.4075491,1.3164359,0.18234001,1.545345,-0.83508795
0.0,-0.1,1.0,0.5235987755982988,0.0,0,-0.16251685,-0.39745,-2.8410854,0.57252383,-1.5440215,-0.16615003,0.5069741,-0.053270735,-0.44923136,1.5044907,1.3187326,0.17669226,1.5694215,-0.8980852
0.0,-0.1,1.0,0.5235987755982988,0.0,0,-0.10121241,-0.48319277,-2.7592025,0.57349366,-1.2495275,-0.19778743,-0.2266831,-0.04117457,-0.45837012,1.5459127,1.3189553,0.13628131,1.5424093,-2.2191617
0.0,-0.1,1.0,0.5235987755982988,0.0,0,-0.30853388,-0.4228265,-2.7715006,0.57940954,-1.2928123,-0.05666141,0.39221528,-0.019350989,-0.4263027,1.4571023,1.3058419,0.18298286,1.5567575,-2.432687
0.0,-0.1,1.0,0.5235987755982988,0.0,0,-0.09495182,-0.4487806,-2.8300166,0.5603195,-0.93173987,-0.025943032,0.19668736,-0.07663162,-0.43368927,1.5808244,1.3095678,0.18993007,1.563482,-1.8745298
0.0,-0.1,1.0,0.5235987755982988,0.0,0,-0.09941246,-0.51202416,-2.7445316,0.55231553,-1.252534,-0.19817325,-0.07688283,-0.10299594,-0.43812612,1.4841086,1.3310224,0.19113341,1.5553834,-2.5546763
0.0,-0.1,1.0,0.5235987755982988,0.0,0,-0.093827985,-0.50253916,-2.8091924,0.5443867,-1.5704277,-0.07643641,-0.6042391,-0.03886054,-0.44948104,1.5253325,1.3095722,0.16163199,1.5612863,-2.7649174
0.0,-0.1,1.0,0.5235987755982988,0.0,0,-0.1331287,-0.48542416,-2.7995934,0.5191831,-1.1334141,-0.098170586,0.28630772,-0.0600293,-0.4485247,1.5312201,1.3108107,0.21880032,1.5507659,-1.0559006
0.0,-0.1,1.0,0.5235987755982988,0.0,0,-0.18869548,-0.4404577,-2.8128605,0.5645604,-1.4639311,-0.16486177,0.32110295,-0.05234074,-0.45663342,1.5419612,1.3156992,0.1988491,1.5541941,-1.6874415
0.0,-0.1,1.0,0.5235987755982988,0.0,0,-0.14293906,-0.51623344,-2.797826,0.51441973,-1.4804187,-0.18143353,0.5382304,-0.049637012,-0.44581246,1.4869397,1.3055617,0.1569897,1.5471576,-0.76857275
0.0,-0.1,1.0,0.5235987755982988,0.0,0,-0.10427338,-0.5178278,-2.832052,0.55768764,-1.3913519,-0.11908725,-0.05730641,-0.05213802,-0.46866712,1.5443166,1.3365571,0.17775111,1.5504968,-1.928481
0.0,-0.1,1.0,0.5235987755982988,0.0,0,0.015638487,-0.5216428,-2.8490963,0.57180524,-1.4112607,-0.15549138,0.8177379,-0.07394061,-0.44733185,1.5022256,1.2951651,0.20487694,1.5529014,-2.1739514
0.0,-0.1,1.0,0.5235987755982988,0.0,0,-0.10538982,-0.4241608,-2.8690193,0.54377854,-1.4827195,-0.211234,-0.23992208,-0.067840494,-0.4671904,1.5290983,1.3205851,0.19084555,1.5547025,-2.438442
0.0,-0.1,1.0,0.5235987755982988,0.0,0,-0.1241831,-0.4971261,-2.7861385,0.5230907,-1.2347267,-0.101654276,1.1623925,-0.052435994,-0.4483369,1.4937334,1.2995684,0.17383172,1.5554887,1.6072301
0.0,-0.1,1.0,0.5235987755982988,0.0,0,-0.05992439,-0.41129577,-2.8584113,0.56169134,-1.3910931,-0.10505921,1.1362219,-0.021280307,-0.4356931,1.4481038,1.3113844,0.16591911,1.5431979,-1.4911145
0.0,-0.1,1.0,0.5235987755982988,0.0,0,-0.08882476,-0.47079846,-2.8311858,0.5221999,-1.4522169,-0.18357085,0.58152395,-0.07032498,-0.437215,1.5878811,1.2885896,0.19511384,1.5603544,-2.5747094
0.0,-0.1,1.0,0.5235987755982988,0.0,0,-0.1678074,-0.45305914,-2.8403742,0.52479774,-1.203377,-0.04891252,-0.1800105,-0.0526072,-0.45852447,1.5258027,1.3104,0.13920684,1.5616322,-2.0595324
0.0,-0.1,1.0,0.5235987755982988,0.0,0,-0.18546619,-0.39422265,-2.8045857,0.5327292,-1.5898248,-0.20884478,-0.22285324,-0.11451173,-0.44068077,1.5763162,1.3096027,0.19713941,1.5482523,-0.91267616
0.0,-0.1,1.0,0.5235987755982988,0.0,0,-0.16314071,-0.47810313,-2.7870424,0.5615766,-1.4450514,-0.12614049,-0.03436805,0.0053990483,-0.42886636,1.5815727,1.3050222,0.1818904,1.5447177,-2.6513662
0.0,-0.1,1.0,0.5235987755982988,0.0,0,-0.27567568,-0.40184733,-2.8090115,0.5416451,-1.7406559,-0.24180594,-0.14794332,-0.045626674,-0.46211734,1.5358874,1.3184223,0.16358824,1.5555187,-3.0355866
0.0,-0.1,1.0,0.5235987755982988,0.0,0,-0.08997584,-0.4533473,-2.6944678,0.5589435,-1.6470131,-0.15095225,1.4152145,-0.06496458,-0.4600033,1.4832807,1.3051628,0.1979411,1.5562075,-1.6163857
0.0,-0.1,1.0,0.5235987755982988,0.0,0,-0.15356189,-0.4239737,-2.8720214,0.5273709,-1.2537477,-0.07479903,-0.607315,-0.05631224,-0.44832453,1.5897567,1.29263,0.19417304,1.5632643,-2.217563
0.0,-0.1,1.0,0.5235987755982988,0.0,0,-0.23556925,-0.35179135,-2.7745087,0.57479405,-1.2048972,-0.002276805,0.1744347,-0.03556737,-0.44200918,1.537983,1.3144667,0.2011314,1.5548463,-1.0367991
0.0,-0.1,1.0,0.5235987755982988,0.0,0,-0.041726116,-0.50064164,-2.7989264,0.5314043,-1.667759,-0.1921734,0.38534394,-0.121311635,-0.44491577,1.4581019,1.3125925,0.18117878,1.5623513,-1.7186842
0.0,-0.1,1.0,0.5235987755982988,0.0,0,-0.093223535,-0.42091373,-2.7650652,0.520493,-1.6019235,-0.07472247,0.78062963,-0.048387278,-0.4176647,1.5278823,1.3227649,0.22035019,1.5639594,-1.8112047
0.0,-0.1,1.0,0.5235987755982988,0.0,0,-0.10576687,-0.46307856,-2.8198805,0.5187192,-1.0588546,-0.1057339,0.77962863,-0.06069055,-0.43033692,1.5074955,1.3202686,0.15767652,1.5665187,-2.8042192
0.0,-0.1,1.0,0.5235987755982988,0.0,0,-0.022447748,-0.50310516,-2.8314786,0.5061435,-1.4204366,-0.18405503,0.6127051,-0.07974561,-0.46583652,1.5295206,1.3265691,0.18509522,1.5453393,-3.0369737
0.0,-0.1,1.0,0.5235987755982988,0.0,0,-0.08602007,-0.40513206,-2.8522737,0.57443047,-1.3160365,-0.18690586,-0.07899225,-0.033343434,-0.46019042,1.4329906,1.3265964,0.19089027,1.5696659,-1.8617349
0.0,-0.1,1.0,0.5235987755982988,0.0,0,-0.008919042,-0.43394572,-2.8284395,0.5587082,-1.1541339,-0.08062872,-0.56495273,-0.07052517,-0.4504322,1.5411979,1.3345019,0.20591135,1.5455152,-2.5672448
0.0,-0.1,1.0,0.5235987755982988,0.0,0,-0.0781268,-0.383845,-2.8197567,0.57275283,-1.5289596,-0.22803491,0.9077968,-0.14826068,-0.45853463,1.5126318,1.3219446,0.2066293,1.5669123,-2.561173
0.0,-0.1,1.0,0.5235987755982988,0.0,0,-0.11231175,-0.50653815,-2.8308759,0.4645412,-1.187894,-0.17250349,1.1817392,-0.06332317,-0.44886118,1.4670595,1.3377677,0.16375433,1.5517551,-2.9163313
0.0,-0.1,1.0,0.5235987755982988,0.0,0,-0.095352694,-0.4735589,-2.8548663,0.5297431,-1.2185074,-0.10588904,0.725192,-0.08975329,-0.45282876,1.4878213,1.3117262,0.16534713,1.5458015,-2.1087549
0.0,-0.1,1.0,0.5235987755982988,0.0,0,-0.11117698,-0.42254853,-2.7885945,0.5351085,-1.6023381,-0.105250396,0.7563227,-0.06543913,-0.41565418,1.4817495,1.3041012,0.2010155,1.5627427,0.5796192
0.0,-0.1,1.0,0.5235987755982988,0.0,0,-0.11688629,-0.47801226,-2.8157222,0.54003716,-1.2979804,-0.20023824,0.13109596,-0.091055654,-0.43957156,1.5261781,1.2925005,0.19232412,1.5608168,-2.4355302
0.0,-0.1,1.0,0.5235987755982988,0.0,0,-0.097491905,-0.44034907,-2.7845728,0.50492936,-1.5017468,0.012081011,1.6375757,-0.052154582,-0.427006,1.5244888,1.3103062,0.16044259,1.5574864,-2.2498426
0.0,-0.1,1.0,0.5235987755982988,0.0,0,-0.106265426,-0.42530638,-2.8431652,0.5520498,-1.2213991,-0.17311996,-0.6107181,-0.074752994,-0.43696088,1.5206171,1.3319397,0.19694981,1.5596552,-2.2885113
0.0,-0.1,1.0,0.5235987755982988,0.0,0,-0.16304491,-0.3892575,-2.842351,0.5530544,-1.057774,-0.19348417,1.1171721,-0.07084789,-0.4335327,1.4943548,1.2933743,0.16710842,1.5437176,-3.1265066
0.0,-0.1,1.0,0.5235987755982988,0.0,0,-0.10907426,-0.4708991,-2.9178925,0.5360153,-1.1011865,-0.09076815,0.6265913,-0.045894682,-0.43602926,1.4731934,1.3393937,0.16318709,1.5573839,-1.7324378
0.0,-0.1,1.0,0.5235987755982988,0.0,0,-0.08752582,-0.40153092,-2.812529,0.5917387,-1.4849069,-0.04861152,-0.18053117,-0.07591519,-0.4422433,1.5033336,1.3017694,0.20180191,1.5560753,-2.546459
0.0,-0.1,1.0,0.5235987755982988,0.0,0,-0.22336721,-0.4710847,-2.840526,0.52319664,-1.3873601,-0.08653948,-0.8443129,-0.053436544,-0.43944654,1.5671636,1.3236845,0.14947605,1.5469699,-1.9037442
0.0,-0.1,1.0,0.5235987755982988,0.0,0,-0.16323234,-0.4496038,-2.80521,0.53704745,-1.2159252,-0.036108557,-0.07950881,-0.054631803,-0.4587325,1.5586885,1.2971414,0.20198447,1.5706116,-1.9532307
0.0,-0.1,1.0,0.5235987755982988,0.0,0,-0.11295277,-0.38096285,-2.7700837,0.5754487,-1.6058519,-0.13335238,-0.20184128,-0.06725927,-0.4374294,1.5063815,1.3367201,0.18023126,1.5638616,-1.561936
0.0,-0.1,1.0,0.5235987755982988,0.0,0,-0.10981044,-0.41443604,-2.840306,0.56855273,-1.5517178,-0.27854395,-0.23099855,-0.051116817,-0.45649052,1.5158572,1.3091509,0.1899051,1.5606306,-1.9684732
0.0,-0.1,1.0,0.5235987755982988,0.0,0,-0.09712217,-0.4038722,-2.8167777,0.55173016,-1.3493582,-0.04093384,0.29136017,-0.049513217,-0.46116787,1.5395781,1.3174952,0.19158988,1.5671238,0.3849273
0.0,-0.1,1.0,0.5235987755982988,0.0,0,0.07490937,-0.47968844,-2.8423748,0.5990666,-1.5233794,-0.16104077,0.047511395,-0.061064083,-0.43318266,1.5172882,1.3080924,0.1783981,1.5574834,0.92389023
0.0,-0.1,1.0,0.5235987755982988,0.0,0,-0.10618316,-0.48368403,-2.8651502,0.5290637,-1.2898295,-0.13988014,0.841795,-0.04784554,-0.46157673,1.5901897,1.3157693,0.16471528,1.569659,-2.217153
0.0,-0.1,1.0,0.5235987755982988,0.0,0,-0.037818983,-0.4636541,-2.8794134,0.5411772,-1.3224044,-0.1444384,0.98201156,-0.057978317,-0.4309125,1.4213897,1.2876624,0.16610476,1.55838,-2.2926238
0.0,-0.1,1.0,0.5235987755982988,0.0,0,-0.1504597,-0.47715822,-2.8040025,0.55586725,-0.92640233,-0.031331766,0.84685564,-0.043789092,-0.43051293,1.5447334,1.3188628,0.19034877,1.5608839,-2.142531
0.0,-0.1,1.0,0.5235987755982988,0.0,0,-0.18773758,-0.38735428,-2.7720888,0.62038624,-1.0759456,-0.10723435,-0.48208454,-0.009738921,-0.46429113,1.5139092,1.3434728,0.1807823,1.5546798,-1.9661436
0.0,-0.1,1.0,0.5235987755982988,0.0,0,-0.008985897,-0.513114,-2.7185292,0.5389256,-1.5514942,-0.051325712,0.94055766,-0.11646924,-0.43716776,1.5275029,1.305247,0.1664414,1.5591857,-1.8933383
0.0,-0.1,1.0,0.5235987755982988,0.0,0,-0.008985897,-0.513114,-2.7185292,0.5389256,-1.5514942,-0.051325712,0.94055766,-0.11646924,-0.43716776,1.5275029,1.305247,0.1664414,1.5591857,-1.8933383
0.0,-0.1,1.0,0.5235987755982988,0.0,0,-0.008985897,-0.513114,-2.7185292,0.5389256,-1.5514942,-0.051325712,0.94055766,-0.11646924,-0.43716776,1.5275029,1.305247,0.1664414,1.5591857,-1.8933383
0.0,-0.1,1.0,0.5235987755982988,0.0,0,-0.008985897,-0.513114,-2.7185292,0.5389256,-1.5514942,-0.051325712,0.94055766,-0.11646924,-0.43716776,1.5275029,1.305247,0.1664414,1.5591857,-1.8933383
0.0,-0.1,1.0,0.5235987755982988,0.0,0,-0.008985897,-0.513114,-2.7185292,0.5389256,-1.5514942,-0.051325712,0.94055766,-0.11646924,-0.43716776,1.5275029,1.305247,0.1664414,1.5591857,-1.8933383
0.0,-0.1,1.0,0.5235987755982988,0.0,0,-0.008985897,-0.513114,-2.7185292,0.5389256,-1.5514942,-0.051325712,0.94055766,-0.11646924,-0.43716776,1.5275029,1.305247,0.1664414,1.5591857,-1.8933383
0.0,-0.1,1.0,0.5235987755982988,0.0,0,-0.15352418,-0.41594917,-2.7652981,0.5688427,-1.294292,-0.17864434,0.11315334,-0.048998866,-0.44124773,1.5398834,1.3367931,0.21443968,1.5631255,-2.2049496
0.0,-0.1,1.0,0.5235987755982988,0.0,0,-0.15352418,-0.41594917,-2.7652981,0.5688427,-1.294292,-0.17864434,0.11315334,-0.048998866,-0.44124773,1.5398834,1.3367931,0.21443968,1.5631255,-2.2049496
0.0,-0.1,1.0,0.5235987755982988,0.0,0,-0.15352418,-0.41594917,-2.7652981,0.5688427,-1.294292,-0.17864434,0.11315334,-0.048998866,-0.44124773,1.5398834,1.3367931,0.21443968,1.5631255,-2.2049496
0.0,-0.1,1.0,0.5235987755982988,0.0,0,-0.15352418,-0.41594917,-2.7652981,0.5688427,-1.294292,-0.17864434,0.11315334,-0.048998866,-0.44124773,1.5398834,1.3367931,0.21443968,1.5631255,-2.2049496
0.0,-0.1,1.0,0.5235987755982988,0.0,0,-0.15352418,-0.41594917,-2.7652981,0.5688427,-1.294292,-0.17864434,0.11315334,-0.048998866,-0.44124773,1.5398834,1.3367931,0.21443968,1.5631255,-2.2049496
0.0,-0.1,1.0,0.5235987755982988,0.0,0,-0.21539187,-0.52045435,-2.808265,0.49532965,-0.99031407,-0.10051431,-0.34542066,-0.06897288,-0.44658723,1.5257163,1.3163636,0.18425223,1.546097,-2.0198607
0.0,-0.1,1.0,0.5235987755982988,0.0,0,-0.21539187,-0.52045435,-2.808265,0.49532965,-0.99031407,-0.10051431,-0.34542066,-0.06897288,-0.44658723,1.5257163,1.3163636,0.18425223,1.546097,-2.0198607
0.0,-0.1,1.0,0.5235987755982988,0.0,0,-0.21539187,-0.52045435,-2.808265,0.49532965,-0.99031407,-0.10051431,-0.34542066,-0.06897288,-0.44658723,1.5257163,1.3163636,0.18425223,1.546097,-2.0198607
0.0,-0.1,1.0,0.5235987755982988,0.0,0,-0.21539187,-0.52045435,-2.808265,0.49532965,-0.99031407,-0.10051431,-0.34542066,-0.06897288,-0.44658723,1.5257163,1.3163636,0.18425223,1.546097,-2.0198607
0.0,-0.1,1.0,0.5235987755982988,0.0,0,-0.21539187,-0.52045435,-2.808265,0.49532965,-0.99031407,-0.10051431,-0.34542066,-0.06897288,-0.44658723,1.5257163,1.3163636,0.18425223,1.546097,-2.0198607
0.0,-0.1,1.0,0.5235987755982988,0.0,0,-0.21539187,-0.52045435,-2.808265,0.49532965,-0.99031407,-0.10051431,-0.34542066,-0.06897288,-0.44658723,1.5257163,1.3163636,0.18425223,1.546097,-2.0198607
0.0,-0.1,1.0,0.5235987755982988,0.0,0,-0.21539187,-0.52045435,-2.808265,0.49532965,-0.99031407,-0.10051431,-0.34542066,-0.06897288,-0.44658723,1.5257163,1.3163636,0.18425223,1.546097,-2.0198607
0.0,-0.1,1.0,0.5235987755982988,0.0,0,-0.2130819,-0.42837504,-2.755941,0.53685206,-1.2645962,-0.2904236,-0.0014239312,-0.061469853,-0.48599723,1.4418067,1.319535,0.20658427,1.5540423,-2.952142
0.0,-0.1,1.0,0.5235987755982988,0.0,0,-0.2130819,-0.42837504,-2.755941,0.53685206,-1.2645962,-0.2904236,-0.0014239312,-0.061469853,-0.48599723,1.4418067,1.319535,0.20658427,1.5540423,-2.952142
0.0,-0.1,1.0,0.5235987755982988,0.0,0,-0.2130819,-0.42837504,-2.755941,0.53685206,-1.2645962,-0.2904236,-0.0014239312,-0.061469853,-0.48599723,1.4418067,1.319535,0.20658427,1.5540423,-2.952142
0.0,-0.1,1.0,0.5235987755982988,0.0,0,-0.2130819,-0.42837504,-2.755941,0.53685206,-1.2645962,-0.2904236,-0.0014239312,-0.061469853,-0.48599723,1.4418067,1.319535,0.20658427,1.5540423,-2.952142
0.0,-0.1,1.0,0.5235987755982988,0.0,0,-0.2130819,-0.42837504,-2.755941,0.53685206,-1.2645962,-0.2904236,-0.0014239312,-0.061469853,-0.48599723,1.4418067,1.319535,0.20658427,1.5540423,-2.952142
0.0,-0.1,1.0,0.5235987755982988,0.0,0,-0.2130819,-0.42837504,-2.755941,0.53685206,-1.2645962,-0.2904236,-0.0014239312,-0.061469853,-0.48599723,1.4418067,1.319535,0.20658427,1.5540423,-2.952142
0.0,-0.1,1.0,0.5235987755982988,0.0,0,-0.17009556,-0.6670434,-2.694757,0.4605133,-1.0121286,-0.17018075,0.25035796,-0.041462652,-0.4410523,1.5718817,1.3085351,0.18229808,1.568726,-3.137094
0.0,-0.1,1.0,0.5235987755982988,0.0,0,-0.17009556,-0.6670434,-2.694757,0.4605133,-1.0121286,-0.17018075,0.25035796,-0.041462652,-0.4410523,1.5718817,1.3085351,0.18229808,1.568726,-3.137094
0.0,-0.1,1.0,0.5235987755982988,0.0,0,-0.17009556,-0.6670434,-2.694757,0.4605133,-1.0121286,-0.17018075,0.25035796,-0.041462652,-0.4410523,1.5718817,1.3085351,0.18229808,1.568726,-3.137094
0.0,-0.1,1.0,0.5235987755982988,0.0,0,-0.17009556,-0.6670434,-2.694757,0.4605133,-1.0121286,-0.17018075,0.25035796,-0.041462652,-0.4410523,1.5718817,1.3085351,0.18229808,1.568726,-3.137094
0.0,-0.1,1.0,0.5235987755982988,0.0,0,-0.17009556,-0.6670434,-2.694757,0.4605133,-1.0121286,-0.17018075,0.25035796,-0.041462652,-0.4410523,1.5718817,1.3085351,0.18229808,1.568726,-3.137094
0.0,-0.1,1.0,0.5235987755982988,0.0,0,-0.17009556,-0.6670434,-2.694757,0.4605133,-1.0121286,-0.17018075,0.25035796,-0.041462652,-0.4410523,1.5718817,1.3085351,0.18229808,1.568726,-3.137094
0.0,-0.1,1.0,0.5235987755982988,0.0,0,-0.11284054,-0.4995034,-2.7946427,0.5144327,-1.2469282,-0.20197125,1.2289418,-0.016299436,-0.45064527,1.4961157,1.3395767,0.19586132,1.5481695,-2.0723734
0.0,-0.1,1.0,0.5235987755982988,0.0,0,-0.11284054,-0.4995034,-2.7946427,0.5144327,-1.2469282,-0.20197125,1.2289418,-0.016299436,-0.45064527,1.4961157,1.3395767,0.19586132,1.5481695,-2.0723734
