sanky1234/BimanualDexCatch/isaacgymenvs/cem_results/May31/football_pose_0.30000000000000004_0.1_1.2999999999999998_0.0_0.0_0_2025-05-31.csv
x,y,z,roll,pitch,yaw,robot1/joint1,robot1/joint2,robot1/joint3,robot1/joint4,robot1/joint5,robot1/joint6,robot1/joint7,robot2/joint1,robot2/joint2,robot2/joint3,robot2/joint4,robot2/joint5,robot2/joint6,robot2/joint7
0.30000000000000004,0.1,1.2999999999999998,0.0,0.0,0,-0.90061194,0.39769882,-1.303137,-0.31395566,-0.51898867,0.6215277,-0.792091,1.8756094,0.8597643,0.92405593,-0.22871594,0.26809305,1.0240936,0.0500918
0.30000000000000004,0.1,1.2999999999999998,0.0,0.0,0,-0.90750533,0.40900028,-1.3069279,-0.31526923,-0.44820908,0.6474546,-0.78825206,1.8872702,0.7681465,0.93627006,-0.22303681,0.39380738,1.0528185,0.19253425
0.30000000000000004,0.1,1.2999999999999998,0.0,0.0,0,-0.91751695,0.41386858,-1.2769929,-0.30905655,-0.45093656,0.6162564,-0.66376543,1.8753496,0.8131939,0.9276924,-0.20697872,0.396008,1.0622737,0.25409156
0.30000000000000004,0.1,1.2999999999999998,0.0,0.0,0,-0.9226653,0.4292766,-1.3090644,-0.3134172,-0.52165353,0.6320931,-0.8337257,1.8683153,0.7748779,0.9458243,-0.18759234,0.29234016,0.9963649,0.26642087
0.30000000000000004,0.1,1.2999999999999998,0.0,0.0,0,-0.91338855,0.39138904,-1.2841958,-0.3197753,-0.47426507,0.58846605,-0.80448675,1.8627678,0.80800706,0.9317813,-0.25030997,0.22462003,1.0636975,0.18405882
0.30000000000000004,0.1,1.2999999999999998,0.0,0.0,0,-0.90743333,0.39709762,-1.2995394,-0.30970687,-0.51140183,0.6369463,-0.63824236,1.8857177,0.85275763,0.9845693,-0.19540203,0.40954036,1.0240134,-0.10299329
0.30000000000000004,0.1,1.2999999999999998,0.0,0.0,0,-0.90909874,0.40637654,-1.2819253,-0.32235816,-0.5738856,0.62035936,-0.67674303,1.8607655,0.8424755,0.9406762,-0.20835778,0.21814251,1.0179551,0.20928966
0.30000000000000004,0.1,1.2999999999999998,0.0,0.0,0,-0.8982247,0.3953734,-1.2972806,-0.31648654,-0.44917125,0.6238688,-0.8023239,1.902905,0.8048779,0.95157474,-0.2169097,0.33127245,1.012975,0.2587549
0.30000000000000004,0.1,1.2999999999999998,0.0,0.0,0,-0.9055028,0.3920372,-1.2957246,-0.3234186,-0.46592852,0.62294966,-0.7858736,1.8843569,0.818835,0.9626271,-0.22727396,0.22892615,1.0048703,0.25935364
0.30000000000000004,0.1,1.2999999999999998,0.0,0.0,0,-0.90981627,0.40224358,-1.2842861,-0.31957507,-0.54440266,0.6220334,-0.75313425,1.8855351,0.8605346,0.9535465,-0.19728932,0.31912148,1.0363003,0.22171521
0.30000000000000004,0.1,1.2999999999999998,0.0,0.0,0,-0.9007937,0.39127272,-1.286578,-0.3163436,-0.5121112,0.61906815,-0.68171483,1.8751783,0.8167782,0.95138174,-0.19458184,0.22670309,1.018932,0.13300803
0.30000000000000004,0.1,1.2999999999999998,0.0,0.0,0,-0.91086113,0.40339082,-1.2951344,-0.31283453,-0.47735196,0.62435913,-0.88753414,1.8672673,0.81825656,0.9369018,-0.22186631,0.40115777,1.033933,0.062940024
0.30000000000000004,0.1,1.2999999999999998,0.0,0.0,0,-0.9055328,0.4189527,-1.2930876,-0.31185794,-0.4607757,0.6224268,-0.6353278,1.8747544,0.8494569,0.96870655,-0.22332114,0.3770425,1.0083501,0.33753416
0.30000000000000004,0.1,1.2999999999999998,0.0,0.0,0,-0.90752333,0.3947919,-1.281799,-0.3251142,-0.47508875,0.6148384,-0.7130138,1.8697749,0.82856566,0.9526793,-0.19943002,0.36236498,0.97423536,0.25934032
0.30000000000000004,0.1,1.2999999999999998,0.0,0.0,0,-0.9128218,0.3980803,-1.295391,-0.3159208,-0.5390936,0.62925696,-0.8247541,1.8788968,0.85603243,0.9711768,-0.1869381,0.3592094,1.0077512,0.1973517
0.30000000000000004,0.1,1.2999999999999998,0.0,0.0,0,-0.9039713,0.4013831,-1.294414,-0.31338388,-0.52441406,0.60931975,-0.72798944,1.8790023,0.7960948,0.9291683,-0.20511591,0.35291436,1.0474868,0.16351514
0.30000000000000004,0.1,1.2999999999999998,0.0,0.0,0,-0.94230586,0.39870688,-1.2962687,-0.31694186,-0.45257443,0.6385844,-0.8324175,1.867424,0.7888731,0.9249098,-0.23466618,0.2560108,1.0007919,0.3415031
0.30000000000000004,0.1,1.2999999999999998,0.0,0.0,0,-0.90007854,0.38441572,-1.3089474,-0.3167181,-0.52326465,0.6213737,-0.7610464,1.8729149,0.8161495,0.94594634,-0.22039838,0.25055307,1.0235852,0.09621328
0.30000000000000004,0.1,1.2999999999999998,0.0,0.0,0,-0.884363,0.38743308,-1.315134,-0.31440565,-0.48013073,0.64282936,-0.7872251,1.8631408,0.80450386,0.9165543,-0.19409399,0.33904982,0.9929749,0.16698219
0.30000000000000004,0.1,1.2999999999999998,0.0,0.0,0,-0.91460454,0.38120133,-1.2973504,-0.31370494,-0.51447386,0.6134595,-0.80472916,1.9016871,0.79031885,0.93180615,-0.18485507,0.33393106,0.9710421,0.0458081
0.30000000000000004,0.1,1.2999999999999998,0.0,0.0,0,-0.9095561,0.40841323,-1.2989753,-0.31322846,-0.4895003,0.59637976,-0.7388115,1.8704405,0.84136534,0.9589375,-0.26002246,0.34879613,1.0233269,0.27948567
0.30000000000000004,0.1,1.2999999999999998,0.0,0.0,0,-0.9205459,0.3950458,-1.3214915,-0.32952634,-0.50401473,0.63919264,-0.69385177,1.8766998,0.79528975,0.9319064,-0.26053247,0.35641855,1.0120211,0.036569025
0.30000000000000004,0.1,1.2999999999999998,0.0,0.0,0,-0.91346043,0.42054373,-1.2868952,-0.3173824,-0.5342769,0.6253321,-0.6636408,1.8871591,0.8085516,0.95177156,-0.14791624,0.3091206,1.0170702,-0.049461845
0.30000000000000004,0.1,1.2999999999999998,0.0,0.0,0,-0.9070352,0.41345885,-1.2995081,-0.31536388,-0.473258,0.62084025,-0.70640856,1.8548276,0.8354555,0.95501286,-0.18287702,0.3665056,1.0094156,0.21844658
0.30000000000000004,0.1,1.2999999999999998,0.0,0.0,0,-0.9126958,0.40984157,-1.2914147,-0.31829616,-0.5205613,0.642791,-0.72691345,1.8782912,0.83548254,0.9507361,-0.17784742,0.29460457,1.0819117,0.27245897
0.30000000000000004,0.1,1.2999999999999998,0.0,0.0,0,-0.92199105,0.39960298,-1.280542,-0.316822,-0.49485093,0.6433122,-0.6952843,1.8876096,0.8084718,0.92876697,-0.17228518,0.25414518,1.0186393,0.14796168
0.30000000000000004,0.1,1.2999999999999998,0.0,0.0,0,-0.9028328,0.39537057,-1.3202763,-0.3139536,-0.42084602,0.6324703,-0.78042334,1.8890302,0.81317693,0.94876814,-0.20140891,0.3003285,1.0569494,0.12713785
0.30000000000000004,0.1,1.2999999999999998,0.0,0.0,0,-0.93118995,0.41600737,-1.2969112,-0.3148667,-0.50381994,0.6227855,-0.62458205,1.8762257,0.85209,0.90993744,-0.14906785,0.38608924,1.0517851,0.09119058
0.30000000000000004,0.1,1.2999999999999998,0.0,0.0,0,-0.90823513,0.40623733,-1.3065377,-0.31078616,-0.4726843,0.61359364,-0.6417645,1.8866459,0.81209606,0.9252935,-0.19274385,0.33198255,1.0807877,0.251503
0.30000000000000004,0.1,1.2999999999999998,0.0,0.0,0,-0.9093986,0.40055567,-1.2931036,-0.3108372,-0.52132505,0.63776314,-0.7428145,1.8822819,0.83335423,0.96627533,-0.19722398,0.3297535,1.0171741,0.30779907
0.30000000000000004,0.1,1.2999999999999998,0.0,0.0,0,-0.9114446,0.4176547,-1.2947041,-0.32441992,-0.49397433,0.6369026,-0.6404143,1.8773504,0.8417776,0.9494403,-0.19842435,0.27273968,1.0335954,0.17656238
0.30000000000000004,0.1,1.2999999999999998,0.0,0.0,0,-0.92321706,0.41547415,-1.292257,-0.31361833,-0.46183577,0.6061779,-0.6865462,1.8647933,0.8849515,0.94079,-0.22914086,0.3837204,1.0690515,0.046102718
0.30000000000000004,0.1,1.2999999999999998,0.0,0.0,0,-0.9225719,0.42001092,-1.267187,-0.31565294,-0.46830204,0.5964634,-0.6220371,1.8887092,0.8227901,0.93669766,-0.20491178,0.2954701,1.0300701,0.08310109
0.30000000000000004,0.1,1.2999999999999998,0.0,0.0,0,-0.9170723,0.3892472,-1.2976669,-0.32293653,-0.47883227,0.60306764,-0.6464033,1.8671501,0.7921576,0.9410661,-0.15969509,0.37989825,1.023513,0.11986172
0.30000000000000004,0.1,1.2999999999999998,0.0,0.0,0,-0.9208347,0.4037948,-1.2976105,-0.309642,-0.4836702,0.5995908,-0.72348934,1.872874,0.84857535,0.91746986,-0.21135315,0.37967443,1.0113945,0.1269743
0.30000000000000004,0.1,1.2999999999999998,0.0,0.0,0,-0.9161829,0.39124218,-1.2796566,-0.31824037,-0.5146731,0.6216343,-0.8549508,1.8872124,0.8326917,0.9241748,-0.2138209,0.28471902,1.0637645,0.3073893
0.30000000000000004,0.1,1.2999999999999998,0.0,0.0,0,-0.89473796,0.39058033,-1.3116636,-0.30902693,-0.48454577,0.62136114,-0.70355356,1.8785914,0.82132995,0.94474983,-0.18451495,0.36971557,1.0331607,0.17651132
0.30000000000000004,0.1,1.2999999999999998,0.0,0.0,0,-0.9250084,0.40221393,-1.2999741,-0.313966,-0.46256775,0.60829145,-0.8637074,1.8768584,0.8354966,0.9473299,-0.18704338,0.34832704,1.0792516,0.3020792
0.30000000000000004,0.1,1.2999999999999998,0.0,0.0,0,-0.91551983,0.41058692,-1.2830772,-0.32012865,-0.48116675,0.65119886,-0.75452477,1.8782109,0.874749,0.93349004,-0.21008824,0.2508209,1.0006459,0.07281396
0.30000000000000004,0.1,1.2999999999999998,0.0,0.0,0,-0.9274255,0.40862876,-1.2895538,-0.30875945,-0.5225502,0.62469876,-0.8291333,1.8765448,0.8332754,0.93892974,-0.21149518,0.25199443,1.0139133,0.31152582
0.30000000000000004,0.1,1.2999999999999998,0.0,0.0,0,-0.90927386,0.39115328,-1.2958573,-0.30666614,-0.50483,0.60510063,-0.73384386,1.8684298,0.80079424,0.9399556,-0.17820221,0.32234818,1.0604928,0.28557914
0.30000000000000004,0.1,1.2999999999999998,0.0,0.0,0,-0.9093649,0.40967256,-1.3194674,-0.31172237,-0.52222663,0.5918282,-0.69942147,1.8822473,0.82838106,0.9467076,-0.2102087,0.36696145,1.0116274,0.052619442
0.30000000000000004,0.1,1.2999999999999998,0.0,0.0,0,-0.92702675,0.40401566,-1.2905809,-0.3196842,-0.46596995,0.60656756,-0.74379444,1.88748,0.85658526,0.94014186,-0.17065804,0.31602988,0.9925968,0.39744022
0.30000000000000004,0.1,1.2999999999999998,0.0,0.0,0,-0.91843575,0.3775594,-1.2715257,-0.31476188,-0.49124444,0.6267289,-0.63352346,1.8735695,0.8240117,0.91171026,-0.22801927,0.29246384,1.0272951,0.1313043
0.30000000000000004,0.1,1.2999999999999998,0.0,0.0,0,-0.92162246,0.39742884,-1.2951467,-0.32145464,-0.44226763,0.60634416,-0.7510253,1.8938018,0.80613875,0.96124434,-0.1962711,0.2737189,1.0270214,0.15623432
0.30000000000000004,0.1,1.2999999999999998,0.0,0.0,0,-0.89678556,0.39001885,-1.3166177,-0.31975037,-0.50737774,0.6271285,-0.7210432,1.8625853,0.7768213,0.95414126,-0.18298078,0.3864511,1.055036,0.15684132
0.30000000000000004,0.1,1.2999999999999998,0.0,0.0,0,-0.9160728,0.39927146,-1.3011217,-0.31079438,-0.51128155,0.641556,-0.78970015,1.8596151,0.8468364,0.9287743,-0.22670987,0.32740358,1.0701774,0.121683784
0.30000000000000004,0.1,1.2999999999999998,0.0,0.0,0,-0.91205823,0.39832774,-1.282308,-0.3138789,-0.48485664,0.59015,-0.6541375,1.8736159,0.8425806,0.97690785,-0.20353732,0.30281112,1.0133579,0.21522287
0.30000000000000004,0.1,1.2999999999999998,0.0,0.0,0,-0.89884037,0.40105507,-1.2737832,-0.30963036,-0.44251627,0.62283355,-0.69155484,1.8649064,0.8226694,0.9477086,-0.20742472,0.3890077,1.0442789,0.29131657
0.30000000000000004,0.1,1.2999999999999998,0.0,0.0,0,-0.9072144,0.3880893,-1.2892101,-0.32915494,-0.49380848,0.6160061,-0.82278126,1.8791778,0.76689327,0.91445863,-0.19131176,0.32509214,1.0413808,0.17240815
0.30000000000000004,0.1,1.2999999999999998,0.0,0.0,0,-0.9004815,0.39532274,-1.3016341,-0.31133106,-0.51865405,0.6030784,-0.7397205,1.879402,0.8138176,0.95405775,-0.18636495,0.3120614,1.046426,-0.12036804
0.30000000000000004,0.1,1.2999999999999998,0.0,0.0,0,-0.92163354,0.4075101,-1.3167745,-0.31991586,-0.5237753,0.60560143,-0.7655331,1.8834908,0.8080535,0.9640844,-0.17857583,0.28675485,1.0185122,0.15956633
0.30000000000000004,0.1,1.2999999999999998,0.0,0.0,0,-0.90777445,0.4074685,-1.2994099,-0.31877607,-0.4531786,0.6253093,-0.6471069,1.8792931,0.8194355,0.9213758,-0.19224642,0.24364443,1.1065016,0.10561608
0.30000000000000004,0.1,1.2999999999999998,0.0,0.0,0,-0.92712843,0.40738928,-1.3028609,-0.32668605,-0.48116904,0.6208799,-0.69380635,1.8823969,0.7831778,0.9372721,-0.18783481,0.32654664,1.0507907,0.15200013
0.30000000000000004,0.1,1.2999999999999998,0.0,0.0,0,-0.9094236,0.39869627,-1.2930294,-0.33031267,-0.48896307,0.58945626,-0.73069024,1.87775,0.8510075,0.9250829,-0.20246688,0.34078336,0.9529707,0.1509993
0.30000000000000004,0.1,1.2999999999999998,0.0,0.0,0,-0.9074601,0.40569225,-1.3080776,-0.33054107,-0.50057447,0.6367596,-0.6931602,1.876539,0.82098484,0.91205573,-0.219805,0.29903567,1.0840837,0.2484021
0.30000000000000004,0.1,1.2999999999999998,0.0,0.0,0,-0.92458427,0.41116908,-1.3038359,-0.3172863,-0.4841959,0.61276054,-0.7620919,1.8771544,0.7989001,0.9434595,-0.1952032,0.38372624,1.0005245,0.00062425365
0.30000000000000004,0.1,1.2999999999999998,0.0,0.0,0,-0.91408664,0.38458177,-1.2913951,-0.32533705,-0.46845013,0.59918886,-0.8003182,1.8688436,0.8400053,0.936282,-0.2639712,0.31415302,1.0036036,0.07788887
0.30000000000000004,0.1,1.2999999999999998,0.0,0.0,0,-0.91984326,0.40292937,-1.280827,-0.33210903,-0.4378174,0.61840266,-0.77530944,1.8702986,0.83685005,0.92990273,-0.2752414,0.2981014,1.0708389,0.3063182
0.30000000000000004,0.1,1.2999999999999998,0.0,0.0,0,-0.9113648,0.4241468,-1.2952976,-0.31192702,-0.50119555,0.60678786,-0.82256573,1.8755529,0.7924426,0.95292354,-0.19638526,0.28735232,1.0428767,0.33700854
0.30000000000000004,0.1,1.2999999999999998,0.0,0.0,0,-0.9031266,0.4178802,-1.2946278,-0.2933151,-0.4822269,0.6436684,-0.8138406,1.883158,0.83157146,0.9364067,-0.22578976,0.31875223,1.0517727,0.044880375
0.30000000000000004,0.1,1.2999999999999998,0.0,0.0,0,-0.9194842,0.42136812,-1.2821018,-0.30988163,-0.4731746,0.6327626,-0.7039074,1.8790295,0.8117991,0.9500068,-0.14295805,0.368005,1.0480291,-0.10251797
0.30000000000000004,0.1,1.2999999999999998,0.0,0.0,0,-0.91609776,0.41318604,-1.2785579,-0.31903157,-0.4902795,0.6553973,-0.69840217,1.8907132,0.82281995,0.9312141,-0.20963402,0.357849,1.0504973,0.20222853
0.30000000000000004,0.1,1.2999999999999998,0.0,0.0,0,-0.9046912,0.4118619,-1.2950711,-0.32173875,-0.48986363,0.6352172,-0.62217146,1.8655581,0.86100304,0.9067813,-0.1735921,0.32686114,1.063906,0.1813738
0.30000000000000004,0.1,1.2999999999999998,0.0,0.0,0,-0.90778196,0.4059396,-1.3060997,-0.32099935,-0.55868787,0.6058232,-0.6515972,1.8763084,0.81343853,0.9175369,-0.16237748,0.32582375,1.03452,0.17810482
0.30000000000000004,0.1,1.2999999999999998,0.0,0.0,0,-0.9197978,0.39124498,-1.3106909,-0.3149798,-0.50624883,0.6298826,-0.81097955,1.8716007,0.8123991,0.93032306,-0.17397533,0.25633645,1.0649564,0.19491203
0.30000000000000004,0.1,1.2999999999999998,0.0,0.0,0,-0.9067335,0.39793143,-1.2973199,-0.32180297,-0.48553693,0.668831,-0.7288515,1.874614,0.7920221,0.9330524,-0.13989316,0.29092497,0.9718915,0.26069438
0.30000000000000004,0.1,1.2999999999999998,0.0,0.0,0,-0.9265819,0.38585177,-1.2812957,-0.3121747,-0.5162995,0.63854605,-0.7616941,1.8847141,0.81910944,0.9493317,-0.17902714,0.34608853,1.044472,0.07542521
0.30000000000000004,0.1,1.2999999999999998,0.0,0.0,0,-0.90920264,0.41136584,-1.3123963,-0.31205946,-0.5104406,0.62490475,-0.7957408,1.8823316,0.84043294,0.9403877,-0.22696954,0.2008299,1.0851923,0.20791891
0.30000000000000004,0.1,1.2999999999999998,0.0,0.0,0,-0.90861446,0.41317526,-1.307851,-0.31628177,-0.48437694,0.6391796,-0.80281883,1.8730283,0.8494539,0.9516462,-0.19306509,0.3828374,1.0202792,0.16142924
0.30000000000000004,0.1,1.2999999999999998,0.0,0.0,0,-0.9059052,0.40550312,-1.2803955,-0.31734762,-0.49522212,0.6262757,-0.48531362,1.8565216,0.83500284,0.9407573,-0.2002059,0.3610792,1.0495597,0.27965808
0.30000000000000004,0.1,1.2999999999999998,0.0,0.0,0,-0.9109929,0.4083001,-1.3076451,-0.3086085,-0.52066904,0.616509,-0.81538457,1.8779231,0.8222143,0.9332428,-0.19862783,0.3630488,1.0563275,-0.050697915
0.30000000000000004,0.1,1.2999999999999998,0.0,0.0,0,-0.93023795,0.42143297,-1.2981832,-0.3207658,-0.5166506,0.61990464,-0.7222329,1.8711059,0.8150012,0.94546664,-0.19976701,0.30519402,1.0503652,0.1613941
0.30000000000000004,0.1,1.2999999999999998,0.0,0.0,0,-0.9227247,0.39635232,-1.2908224,-0.31840906,-0.49833578,0.6333857,-0.7520297,1.8810685,0.7988925,0.92833817,-0.20011306,0.21818946,1.0541015,0.22826654
0.30000000000000004,0.1,1.2999999999999998,0.0,0.0,0,-0.9114286,0.41442028,-1.2932457,-0.31577277,-0.5151676,0.6120774,-0.7043068,1.8900844,0.821413,0.9520096,-0.21548547,0.37691522,1.0185353,0.17394193
0.30000000000000004,0.1,1.2999999999999998,0.0,0.0,0,-0.90835917,0.3853922,-1.2918223,-0.33246994,-0.4711799,0.6402493,-0.7181587,1.8806279,0.8154449,0.9467256,-0.19584547,0.37042922,1.0243989,0.050043564
0.30000000000000004,0.1,1.2999999999999998,0.0,0.0,0,-0.9295037,0.3915613,-1.2898813,-0.3098284,-0.4868511,0.6146091,-0.8542469,1.8874477,0.8271175,0.95855606,-0.18904704,0.2715536,1.010521,0.2240802
0.30000000000000004,0.1,1.2999999999999998,0.0,0.0,0,-0.91944957,0.37858364,-1.286345,-0.3162325,-0.48246258,0.6279177,-0.8831212,1.8605806,0.8169761,0.9257074,-0.18638808,0.26813573,1.0782316,0.32006195
0.30000000000000004,0.1,1.2999999999999998,0.0,0.0,0,-0.9091275,0.39547512,-1.2997344,-0.3177045,-0.52297163,0.62128544,-0.77125454,1.8881989,0.8215545,0.9292596,-0.23233311,0.35907915,1.0560946,0.03573748
0.30000000000000004,0.1,1.2999999999999998,0.0,0.0,0,-0.9280871,0.41763675,-1.2818475,-0.30795872,-0.46978715,0.6460188,-0.8452411,1.8701062,0.80471945,0.98501116,-0.21430467,0.25460875,1.0274339,0.12506956
0.30000000000000004,0.1,1.2999999999999998,0.0,0.0,0,-0.9209423,0.37957636,-1.2858636,-0.31661722,-0.47884396,0.61554855,-0.6819346,1.893765,0.8112183,0.90727276,-0.22239053,0.31491277,1.0557274,0.1543039
0.30000000000000004,0.1,1.2999999999999998,0.0,0.0,0,-0.92282736,0.3969596,-1.2850842,-0.30958617,-0.5329831,0.6425813,-0.7444748,1.8971295,0.8333948,0.9281996,-0.21076433,0.35347515,1.0685853,0.14885986
0.30000000000000004,0.1,1.2999999999999998,0.0,0.0,0,-0.9070531,0.3963609,-1.3022829,-0.3132258,-0.5083432,0.5964566,-0.90724045,1.8634442,0.78807247,0.94494224,-0.19008803,0.40015805,1.0532955,-0.018141046
0.30000000000000004,0.1,1.2999999999999998,0.0,0.0,0,-0.9059943,0.39621082,-1.2721375,-0.32041055,-0.49396363,0.62342066,-0.7932387,1.8758125,0.82069856,0.91475976,-0.24726367,0.43986857,1.0640587,0.22142467
0.30000000000000004,0.1,1.2999999999999998,0.0,0.0,0,-0.90434957,0.40863785,-1.3086162,-0.313441,-0.50294703,0.63953185,-0.73616403,1.8768408,0.85830456,0.96419674,-0.19007613,0.34209538,1.0619671,0.2007512
0.30000000000000004,0.1,1.2999999999999998,0.0,0.0,0,-0.9377069,0.38628656,-1.2803621,-0.31842396,-0.49543634,0.61094254,-0.83436835,1.8826816,0.83317256,0.9480456,-0.19045287,0.2757626,0.995981,0.29848275
0.30000000000000004,0.1,1.2999999999999998,0.0,0.0,0,-0.9031587,0.40954784,-1.2944716,-0.31272626,-0.45618114,0.59575385,-0.7364956,1.865836,0.8366493,0.969502,-0.21084356,0.32645658,1.0379684,0.16247982
0.30000000000000004,0.1,1.2999999999999998,0.0,0.0,0,-0.9131246,0.38316593,-1.2850001,-0.3257532,-0.5040772,0.641326,-0.66874254,1.8754416,0.7988875,0.93167996,-0.18162477,0.33326244,1.0442815,-0.020374645
0.30000000000000004,0.1,1.2999999999999998,0.0,0.0,0,-0.9139015,0.39916757,-1.3034055,-0.3231685,-0.45723346,0.62042385,-0.84272,1.8782367,0.8537423,0.98543084,-0.21460932,0.31680122,1.0283554,0.24724297
0.30000000000000004,0.1,1.2999999999999998,0.0,0.0,0,-0.90485847,0.39669833,-1.2977399,-0.32200462,-0.50458276,0.62367934,-0.8122152,1.873212,0.75970024,0.9063813,-0.21059895,0.34907413,1.0542563,0.14009684
0.30000000000000004,0.1,1.2999999999999998,0.0,0.0,0,-0.91393256,0.41575602,-1.3033708,-0.31983265,-0.47719887,0.620401,-0.78384143,1.8563485,0.7948194,0.9454526,-0.21783452,0.21776617,1.0427333,0.40575394
0.30000000000000004,0.1,1.2999999999999998,0.0,0.0,0,-0.9116613,0.40947506,-1.2916645,-0.32175604,-0.51559347,0.61914593,-0.62543976,1.873754,0.8115664,0.9195769,-0.20535375,0.2728991,1.0301142,0.26013312
0.30000000000000004,0.1,1.2999999999999998,0.0,0.0,0,-0.9122904,0.41130325,-1.3044972,-0.32342592,-0.52116215,0.6099435,-0.7151824,1.8779051,0.8133183,0.93693227,-0.2345289,0.29041886,1.0339539,0.246577
0.30000000000000004,0.1,1.2999999999999998,0.0,0.0,0,-0.91155094,0.3968962,-1.3134778,-0.31690517,-0.49528414,0.63796467,-0.8609611,1.8642954,0.79055405,0.93582326,-0.20538709,0.21260983,1.0213325,0.1252903
0.30000000000000004,0.1,1.2999999999999998,0.0,0.0,0,-0.90853864,0.39240798,-1.3028574,-0.31274074,-0.4610696,0.63884073,-0.6835028,1.8951323,0.80871046,0.93639255,-0.17831093,0.1962159,0.99087286,0.38574013
0.30000000000000004,0.1,1.2999999999999998,0.0,0.0,0,-0.9276942,0.40452197,-1.2990983,-0.32184523,-0.51742643,0.6175012,-0.79818493,1.8773907,0.8074271,0.99742055,-0.20748346,0.25725922,1.0175674,0.009881152
0.30000000000000004,0.1,1.2999999999999998,0.0,0.0,0,-0.907876,0.3952682,-1.307119,-0.3086926,-0.52726364,0.60470295,-0.8244295,1.8765402,0.7957035,0.9485485,-0.22531483,0.39950055,1.0598968,-0.0016868013
0.30000000000000004,0.1,1.2999999999999998,0.0,0.0,0,-0.9266769,0.41647395,-1.2924213,-0.32183373,-0.46069035,0.6254898,-0.72320944,1.8667018,0.80593306,0.95837635,-0.19752967,0.33588016,1.0566118,0.05238713
0.30000000000000004,0.1,1.2999999999999998,0.0,0.0,0,-0.9140551,0.40726256,-1.2973307,-0.31970942,-0.40603328,0.63523257,-0.64847654,1.8732511,0.78548914,0.93319225,-0.1878985,0.3043611,1.0722617,0.22869284
0.30000000000000004,0.1,1.2999999999999998,0.0,0.0,0,-0.9108696,0.41765836,-1.2797983,-0.30845702,-0.47421628,0.61504096,-0.6306672,1.8598698,0.8078767,0.94534445,-0.19631965,0.3036953,1.1231687,-0.07434079
0.30000000000000004,0.1,1.2999999999999998,0.0,0.0,0,-0.8927385,0.4137761,-1.3217393,-0.3081338,-0.49096313,0.6245463,-0.85327566,1.8657988,0.82940286,0.9680741,-0.21602032,0.22994149,1.0785886,0.122020125
0.30000000000000004,0.1,1.2999999999999998,0.0,0.0,0,-0.9201755,0.40500167,-1.2988046,-0.3199655,-0.44277373,0.64348334,-0.7804513,1.8743454,0.79253554,0.96964186,-0.21396165,0.24368273,1.056443,0.21172154
0.30000000000000004,0.1,1.2999999999999998,0.0,0.0,0,-0.912196,0.3973712,-1.3003567,-0.31595972,-0.51795214,0.5916648,-0.79115176,1.8807865,0.7893562,0.9442433,-0.1932146,0.35091722,1.0600088,0.22424902
0.30000000000000004,0.1,1.2999999999999998,0.0,0.0,0,-0.91176456,0.3885445,-1.2757485,-0.31059042,-0.4559102,0.61553824,-0.7220966,1.8913897,0.85199684,0.93384737,-0.19042727,0.31440204,1.0364739,0.037014995
0.30000000000000004,0.1,1.2999999999999998,0.0,0.0,0,-0.9242446,0.40348232,-1.2822503,-0.30872712,-0.49284625,0.6351272,-0.7300123,1.8783785,0.81207436,0.95284164,-0.19789477,0.31827685,1.0458207,0.24801444
0.30000000000000004,0.1,1.2999999999999998,0.0,0.0,0,-0.91300046,0.41190422,-1.2986506,-0.3123274,-0.55916786,0.6214519,-0.7599192,1.8690182,0.80549234,0.98611385,-0.20154896,0.30599084,1.0051439,0.25455734
0.30000000000000004,0.1,1.2999999999999998,0.0,0.0,0,-0.8987942,0.39023113,-1.2935759,-0.32475975,-0.48721024,0.60471916,-0.8233042,1.8762954,0.8038095,0.9236022,-0.16876373,0.4228265,1.0456662,-0.05165412
0.30000000000000004,0.1,1.2999999999999998,0.0,0.0,0,-0.9110478,0.39705357,-1.2871313,-0.31295583,-0.49820155,0.6573045,-0.7292931,1.874964,0.7611957,0.92577446,-0.21659629,0.25656748,1.0598444,0.10723212
0.30000000000000004,0.1,1.2999999999999998,0.0,0.0,0,-0.9058861,0.3888465,-1.2876016,-0.310673,-0.47846988,0.63012207,-0.7166654,1.8533841,0.8183858,0.9430912,-0.19268294,0.25446546,1.0854386,0.29334676
0.30000000000000004,0.1,1.2999999999999998,0.0,0.0,0,-0.9214203,0.4102753,-1.2697964,-0.3199164,-0.5321899,0.63863736,-0.8590134,1.8712788,0.7795445,0.93411887,-0.16941182,0.36912295,1.0015182,0.17494121
0.30000000000000004,0.1,1.2999999999999998,0.0,0.0,0,-0.93236834,0.38823196,-1.2819991,-0.323994,-0.47453126,0.60678124,-0.7979378,1.8980215,0.7851078,0.9315018,-0.21436572,0.3366749,1.0607105,0.19380628
0.30000000000000004,0.1,1.2999999999999998,0.0,0.0,0,-0.91395235,0.41574475,-1.2806798,-0.3291722,-0.46358767,0.61699086,-0.73249876,1.8810427,0.86162025,0.95097053,-0.22198382,0.42723903,1.0258106,0.1614711
0.30000000000000004,0.1,1.2999999999999998,0.0,0.0,0,-0.9302619,0.4132211,-1.294804,-0.3089977,-0.51392835,0.6289316,-0.7920342,1.8687636,0.80223423,0.955154,-0.15658486,0.20852914,1.0730093,0.17401405
0.30000000000000004,0.1,1.2999999999999998,0.0,0.0,0,-0.91051316,0.4099293,-1.3028085,-0.31248972,-0.4455566,0.61481017,-0.74764663,1.8821803,0.8524459,0.95668733,-0.18871756,0.34634236,1.0767418,0.22407019
0.30000000000000004,0.1,1.2999999999999998,0.0,0.0,0,-0.908457,0.38878533,-1.2793604,-0.3221381,-0.51471007,0.62997967,-0.7290716,1.8879621,0.8083815,0.9485164,-0.17384805,0.3400631,1.0832368,0.13200478
0.30000000000000004,0.1,1.2999999999999998,0.0,0.0,0,-0.9106383,0.41138926,-1.2941619,-0.321321,-0.46597308,0.6117882,-0.6825856,1.8766223,0.80698156,0.9133663,-0.17533353,0.36219108,1.0634981,0.2302725
0.30000000000000004,0.1,1.2999999999999998,0.0,0.0,0,-0.90199256,0.41702044,-1.3093523,-0.3150419,-0.43279997,0.61462384,-0.6104827,1.8681561,0.847872,0.9590925,-0.20455544,0.342737,1.0607846,0.014813027
0.30000000000000004,0.1,1.2999999999999998,0.0,0.0,0,-0.92056215,0.4016625,-1.2830919,-0.3169655,-0.48164847,0.6246714,-0.69641274,1.8667102,0.7790224,0.93183166,-0.20871994,0.3722226,1.0544184,0.07590903
0.30000000000000004,0.1,1.2999999999999998,0.0,0.0,0,-0.9229687,0.38871357,-1.2944653,-0.31247607,-0.45835322,0.6047358,-0.6529106,1.8662504,0.82656884,0.93405664,-0.15957609,0.33162358,1.0507066,0.07331315
0.30000000000000004,0.1,1.2999999999999998,0.0,0.0,0,-0.913872,0.40268022,-1.2922649,-0.30873883,-0.45595038,0.62799066,-0.68553555,1.8672203,0.834442,0.96264774,-0.17790392,0.31592217,1.0394716,0.1415821
0.30000000000000004,0.1,1.2999999999999998,0.0,0.0,0,-0.9238837,0.41239467,-1.2948887,-0.31696847,-0.47871807,0.65440947,-0.6253475,1.8869207,0.84738576,0.9236475,-0.16271172,0.2854362,1.0317048,0.015426715
0.30000000000000004,0.1,1.2999999999999998,0.0,0.0,0,-0.90465134,0.3829422,-1.2842189,-0.30436543,-0.46909466,0.6370448,-0.73746467,1.871537,0.7954179,0.8986903,-0.13665774,0.25879282,1.0582769,0.10189455
0.30000000000000004,0.1,1.2999999999999998,0.0,0.0,0,-0.9073081,0.4003643,-1.2797192,-0.3207555,-0.44016656,0.65224254,-0.77809036,1.865932,0.7612234,0.9055651,-0.20078045,0.25924802,1.0824745,0.29101467
0.30000000000000004,0.1,1.2999999999999998,0.0,0.0,0,-0.92405665,0.40018418,-1.3029708,-0.3147312,-0.5051192,0.6142582,-0.9448551,1.8744149,0.79834247,0.92116547,-0.182481,0.28024122,1.0859859,0.13115467
0.30000000000000004,0.1,1.2999999999999998,0.0,0.0,0,-0.90651184,0.40316197,-1.2833437,-0.3109979,-0.50489545,0.6242804,-0.8322562,1.869587,0.80353373,0.93086416,-0.19532377,0.3508117,1.0540807,0.17786765
0.30000000000000004,0.1,1.2999999999999998,0.0,0.0,0,-0.9184796,0.40760142,-1.2857909,-0.3218656,-0.43131953,0.63156915,-0.89528257,1.8671176,0.7864486,0.95013124,-0.20255944,0.32067913,0.98577744,0.19569701
0.30000000000000004,0.1,1.2999999999999998,0.0,0.0,0,-0.89267206,0.41642493,-1.3191621,-0.31173462,-0.48155335,0.59960043,-0.7151633,1.8777037,0.8043322,0.9263597,-0.20133704,0.16671713,1.090616,0.12731057
0.30000000000000004,0.1,1.2999999999999998,0.0,0.0,0,-0.91809505,0.40401527,-1.2947131,-0.32248458,-0.44961205,0.6122774,-0.79417485,1.8636373,0.8015019,0.9313511,-0.17752773,0.26888812,1.0481471,0.08581138
0.30000000000000004,0.1,1.2999999999999998,0.0,0.0,0,-0.9145441,0.39413035,-1.2872213,-0.3152133,-0.4858283,0.6186984,-0.79239225,1.8669585,0.7799987,0.9723098,-0.18900305,0.24732614,1.0010457,0.21710223
0.30000000000000004,0.1,1.2999999999999998,0.0,0.0,0,-0.9209058,0.40406102,-1.2818244,-0.3090468,-0.49474803,0.61373043,-0.726428,1.8750983,0.8338444,0.92021435,-0.18709305,0.31916013,1.0541618,0.22041732
0.30000000000000004,0.1,1.2999999999999998,0.0,0.0,0,-0.9041361,0.41988552,-1.309536,-0.32309234,-0.48386893,0.60869944,-0.7957449,1.8807112,0.80986625,0.90253437,-0.17400372,0.25023654,1.0335553,0.17148872
0.30000000000000004,0.1,1.2999999999999998,0.0,0.0,0,-0.91734153,0.40842694,-1.2874258,-0.30536428,-0.5578709,0.63363916,-0.79500204,1.8984165,0.8410273,0.9404832,-0.19107415,0.3111235,1.0337751,0.15757826
0.30000000000000004,0.1,1.2999999999999998,0.0,0.0,0,-0.90047437,0.39834404,-1.2913293,-0.3178476,-0.5017485,0.6084978,-0.68616897,1.8781322,0.8165891,0.9377868,-0.18470296,0.31032953,1.0234497,0.14860077
0.30000000000000004,0.1,1.2999999999999998,0.0,0.0,0,-0.9090688,0.39150918,-1.3018,-0.32244602,-0.43806344,0.6379732,-0.68578273,1.8912055,0.7928354,0.92950714,-0.17602661,0.35251915,1.0296263,0.16775753
0.30000000000000004,0.1,1.2999999999999998,0.0,0.0,0,-0.91543275,0.40650398,-1.2843937,-0.31445855,-0.4485043,0.6229273,-0.67185825,1.8807554,0.8263111,0.9429174,-0.15711425,0.22755745,1.0262421,0.17718683
0.30000000000000004,0.1,1.2999999999999998,0.0,0.0,0,-0.92007333,0.41638976,-1.298811,-0.3176717,-0.49708012,0.624271,-0.6217515,1.8930433,0.80143005,0.94882673,-0.22826849,0.2868789,1.0371512,0.1604725
0.30000000000000004,0.1,1.2999999999999998,0.0,0.0,0,-0.91809684,0.40430367,-1.3048681,-0.3078433,-0.4896584,0.61946017,-0.847154,1.8810251,0.80387026,0.9402107,-0.18834826,0.36509672,1.0457962,0.12895003
0.30000000000000004,0.1,1.2999999999999998,0.0,0.0,0,-0.9015932,0.40706232,-1.3065345,-0.30973792,-0.4674151,0.6261786,-0.6522095,1.8727108,0.8453639,0.95037645,-0.21168342,0.30917284,1.0625371,0.3495781
0.30000000000000004,0.1,1.2999999999999998,0.0,0.0,0,-0.92347723,0.3815875,-1.2904029,-0.30847317,-0.47360897,0.6137229,-0.6140511,1.8634814,0.8188695,0.9246717,-0.20309877,0.30857757,1.1093341,0.13908422
0.30000000000000004,0.1,1.2999999999999998,0.0,0.0,0,-0.914346,0.39564487,-1.2860885,-0.31020215,-0.5040087,0.6234089,-0.7871783,1.8718089,0.81074387,0.9381246,-0.1759453,0.27231935,1.0448874,0.22667581
0.30000000000000004,0.1,1.2999999999999998,0.0,0.0,0,-0.90763134,0.40190443,-1.3148144,-0.3219832,-0.4753205,0.6017145,-0.81173784,1.8738589,0.8143852,0.901822,-0.18800789,0.25211307,1.0653228,0.28893074
0.30000000000000004,0.1,1.2999999999999998,0.0,0.0,0,-0.9068479,0.39983225,-1.2959179,-0.31598702,-0.50566405,0.635218,-0.7701764,1.8734308,0.79400885,0.91469735,-0.23709927,0.37308884,1.0830537,0.08550747
0.30000000000000004,0.1,1.2999999999999998,0.0,0.0,0,-0.9216117,0.40069726,-1.2941024,-0.31179345,-0.46717206,0.6425318,-0.7581244,1.8781767,0.8063072,0.93810886,-0.16338797,0.21201079,1.06721,0.51618654
0.30000000000000004,0.1,1.2999999999999998,0.0,0.0,0,-0.91765535,0.4144969,-1.3049585,-0.31951335,-0.4875607,0.6190149,-0.7458789,1.8762934,0.82365257,0.92104346,-0.212658,0.24733949,1.0726485,0.20660804
0.30000000000000004,0.1,1.2999999999999998,0.0,0.0,0,-0.914556,0.38741848,-1.2779305,-0.31161162,-0.41381648,0.6498768,-0.6629088,1.8625602,0.7768331,0.9553115,-0.19582526,0.3443783,1.0526043,0.042549573
0.30000000000000004,0.1,1.2999999999999998,0.0,0.0,0,-0.91454506,0.40242618,-1.3040316,-0.32025146,-0.49882945,0.64157254,-0.81004286,1.8755926,0.83026075,0.95085645,-0.18421227,0.271762,1.0588125,0.071280815
0.30000000000000004,0.1,1.2999999999999998,0.0,0.0,0,-0.90845704,0.40466708,-1.3068508,-0.31304023,-0.5038334,0.6116279,-0.6860937,1.8835737,0.8511602,0.96372926,-0.20635991,0.35384208,1.0465448,0.18110564
0.30000000000000004,0.1,1.2999999999999998,0.0,0.0,0,-0.91893816,0.42301637,-1.2803811,-0.3076451,-0.45651704,0.6000297,-0.76418966,1.872309,0.81529194,0.9428254,-0.18665312,0.37936375,1.0408068,0.18414144
0.30000000000000004,0.1,1.2999999999999998,0.0,0.0,0,-0.9172806,0.4137635,-1.27818,-0.32612386,-0.51598024,0.6053229,-0.8396391,1.8793724,0.7912679,0.95816827,-0.20088445,0.24597514,1.0065522,0.3367719
0.30000000000000004,0.1,1.2999999999999998,0.0,0.0,0,-0.9153837,0.40248954,-1.3145101,-0.31306136,-0.49878457,0.6302186,-0.6685663,1.8709948,0.7820837,0.9588351,-0.1820555,0.3337446,1.0289158,0.15705001
0.30000000000000004,0.1,1.2999999999999998,0.0,0.0,0,-0.9121575,0.4164028,-1.2844471,-0.317357,-0.5464442,0.6283482,-0.6161899,1.8872668,0.8404608,0.9343415,-0.18385144,0.24195246,0.99225473,0.20768125
0.30000000000000004,0.1,1.2999999999999998,0.0,0.0,0,-0.9244757,0.40888345,-1.2828375,-0.3195982,-0.500964,0.6310456,-0.7616475,1.8899966,0.82198757,0.9272714,-0.19668311,0.3215353,1.030901,0.06932501
0.30000000000000004,0.1,1.2999999999999998,0.0,0.0,0,-0.915463,0.40858826,-1.2686658,-0.31661052,-0.494149,0.61423546,-0.6866036,1.8726158,0.87195766,0.9306043,-0.21616401,0.3054257,1.0200716,0.33216226
0.30000000000000004,0.1,1.2999999999999998,0.0,0.0,0,-0.9249636,0.42061913,-1.3050948,-0.31797963,-0.46246302,0.6016541,-0.61245865,1.8713454,0.8200535,0.90892327,-0.19175158,0.38599586,1.0645152,0.22178088
0.30000000000000004,0.1,1.2999999999999998,0.0,0.0,0,-0.90470546,0.40388283,-1.3101712,-0.3125866,-0.48027334,0.62337685,-0.6396062,1.8669803,0.84095377,0.94844437,-0.17711477,0.19857962,1.033675,0.29258975
0.30000000000000004,0.1,1.2999999999999998,0.0,0.0,0,-0.8922302,0.42321452,-1.3036456,-0.32432672,-0.5229517,0.62730557,-0.6262895,1.8669103,0.77748746,0.9152931,-0.24313568,0.34410292,1.0418848,0.086761124
0.30000000000000004,0.1,1.2999999999999998,0.0,0.0,0,-0.9091889,0.40345466,-1.2660393,-0.31876186,-0.46107218,0.63109046,-0.68679786,1.8729364,0.7891714,0.933951,-0.20589814,0.19466212,1.004675,0.1627948
0.30000000000000004,0.1,1.2999999999999998,0.0,0.0,0,-0.91306376,0.39439958,-1.3038422,-0.30912453,-0.44984844,0.6181428,-0.6245793,1.8632677,0.8110679,0.95349956,-0.19826268,0.24986488,1.0356181,0.1410822
0.30000000000000004,0.1,1.2999999999999998,0.0,0.0,0,-0.9328407,0.42169356,-1.2916502,-0.31864998,-0.4627253,0.62290066,-0.68803626,1.9013882,0.8386858,0.92190725,-0.19160987,0.3436713,1.0180233,0.0015789305
0.30000000000000004,0.1,1.2999999999999998,0.0,0.0,0,-0.9160971,0.4094043,-1.290289,-0.3259274,-0.5062667,0.6251063,-0.87497145,1.8687414,0.81912345,0.9421627,-0.22500223,0.3504722,1.0364931,0.13060218
0.30000000000000004,0.1,1.2999999999999998,0.0,0.0,0,-0.9040452,0.40921247,-1.3069162,-0.30708283,-0.45991668,0.64045405,-0.7415849,1.8887244,0.8307485,0.9164363,-0.20563367,0.3305881,1.0598947,0.09725126
0.30000000000000004,0.1,1.2999999999999998,0.0,0.0,0,-0.92181104,0.3896996,-1.3054975,-0.31347033,-0.44714573,0.60392463,-0.6892444,1.8672563,0.8155733,0.95143867,-0.17626165,0.3576812,1.06094,0.18678054
0.30000000000000004,0.1,1.2999999999999998,0.0,0.0,0,-0.9032106,0.3986088,-1.2842226,-0.31942207,-0.49509418,0.6553472,-0.6482056,1.8636092,0.8382526,0.94631433,-0.2014802,0.28475776,1.0627671,-0.012844093
0.30000000000000004,0.1,1.2999999999999998,0.0,0.0,0,-0.9013023,0.40495473,-1.3155822,-0.3224511,-0.51633674,0.6451176,-0.73749983,1.8677835,0.7944969,0.9363768,-0.19586106,0.32596877,1.0207944,0.15196703
0.30000000000000004,0.1,1.2999999999999998,0.0,0.0,0,-0.91969484,0.3939677,-1.3057437,-0.3143373,-0.43566543,0.61362916,-0.82585126,1.8636628,0.7859536,0.9671245,-0.19501896,0.27457425,1.008744,0.16143079
0.30000000000000004,0.1,1.2999999999999998,0.0,0.0,0,-0.897909,0.41259792,-1.30435,-0.31294692,-0.49305895,0.6350242,-0.5456864,1.890865,0.8322026,0.93382055,-0.21057223,0.37334225,1.0147684,0.21597323
0.30000000000000004,0.1,1.2999999999999998,0.0,0.0,0,-0.9296293,0.4072668,-1.2795444,-0.31468096,-0.53821176,0.63341415,-0.7988726,1.8926394,0.81457275,0.92646825,-0.20378335,0.38972706,1.0492921,0.09088354
0.30000000000000004,0.1,1.2999999999999998,0.0,0.0,0,-0.9231412,0.40264902,-1.289372,-0.31001085,-0.4517646,0.6127059,-0.816228,1.8764741,0.8523424,0.9348377,-0.20227674,0.31171834,1.0445482,0.09943967
0.30000000000000004,0.1,1.2999999999999998,0.0,0.0,0,-0.9112173,0.42215583,-1.2930182,-0.3206043,-0.4801966,0.6470055,-0.703885,1.8873675,0.7862782,0.91228265,-0.23501231,0.30092695,1.045843,-0.03750715
0.30000000000000004,0.1,1.2999999999999998,0.0,0.0,0,-0.91746813,0.39054227,-1.2982948,-0.3181866,-0.50643283,0.6095673,-0.73613906,1.874809,0.855519,0.9761886,-0.19399464,0.31522453,1.083595,0.12312225
0.30000000000000004,0.1,1.2999999999999998,0.0,0.0,0,-0.922782,0.41210923,-1.2737817,-0.32022062,-0.48680073,0.6087995,-0.7112455,1.8686816,0.8583735,0.9463343,-0.19553055,0.27623463,1.0698215,0.26981542
0.30000000000000004,0.1,1.2999999999999998,0.0,0.0,0,-0.9177861,0.40853798,-1.3121332,-0.31652057,-0.4562771,0.6176255,-0.71036434,1.8776537,0.8107513,0.94907075,-0.19137312,0.32142767,1.0406332,0.17071149
0.30000000000000004,0.1,1.2999999999999998,0.0,0.0,0,-0.92572176,0.41856802,-1.2999657,-0.302818,-0.4958415,0.62185895,-0.7733739,1.8886794,0.8202281,0.9106794,-0.21517643,0.24793671,1.0389216,0.30317873
0.30000000000000004,0.1,1.2999999999999998,0.0,0.0,0,-0.9088915,0.40102816,-1.2909206,-0.31480303,-0.49533314,0.61515176,-0.753914,1.8698559,0.8363833,0.9273378,-0.19637075,0.35706028,1.0562339,0.035703853
0.30000000000000004,0.1,1.2999999999999998,0.0,0.0,0,-0.9300723,0.39242554,-1.2725676,-0.32596505,-0.49422926,0.6387883,-0.844804,1.8833089,0.8059456,0.94193995,-0.18867467,0.32682356,1.0255814,0.15267476
0.30000000000000004,0.1,1.2999999999999998,0.0,0.0,0,-0.918056,0.42688057,-1.2886647,-0.31592983,-0.45808816,0.6097205,-0.7966435,1.8824468,0.88850015,0.90900123,-0.18844558,0.3423445,1.0751374,0.23418994
0.30000000000000004,0.1,1.2999999999999998,0.0,0.0,0,-0.9186537,0.3929441,-1.2951834,-0.31564373,-0.4914107,0.6348085,-0.8066739,1.8911549,0.8139554,0.9410153,-0.22012626,0.3714984,1.0947789,0.2390667
0.30000000000000004,0.1,1.2999999999999998,0.0,0.0,0,-0.9247255,0.40113786,-1.297683,-0.31562802,-0.47265008,0.64512414,-0.6896049,1.885927,0.85521775,0.925461,-0.16169669,0.40379396,1.0508847,0.16676581
0.30000000000000004,0.1,1.2999999999999998,0.0,0.0,0,-0.91442233,0.40385547,-1.3073789,-0.31579134,-0.47028548,0.607258,-0.7367949,1.8654962,0.8159034,0.95283407,-0.18589272,0.3782842,0.9966004,0.12058551
0.30000000000000004,0.1,1.2999999999999998,0.0,0.0,0,-0.90637827,0.40593445,-1.2865138,-0.3090086,-0.46827507,0.61220604,-0.8130249,1.8732742,0.7813212,0.9217012,-0.19327326,0.30463138,1.0228204,0.25584137
0.30000000000000004,0.1,1.2999999999999998,0.0,0.0,0,-0.9056718,0.3901352,-1.2977003,-0.31033662,-0.4578744,0.62036234,-0.6514014,1.8708068,0.87168086,0.9361324,-0.17114061,0.3451893,1.0264808,0.095989406
0.30000000000000004,0.1,1.2999999999999998,0.0,0.0,0,-0.9118963,0.39957857,-1.2985377,-0.3194374,-0.5041301,0.60555804,-0.70953655,1.8682712,0.8199456,0.93554133,-0.18446225,0.27433905,1.0023123,0.121209934
0.30000000000000004,0.1,1.2999999999999998,0.0,0.0,0,-0.9041477,0.42019138,-1.3111527,-0.31685278,-0.50492823,0.63015586,-0.73159736,1.8650396,0.8360193,0.95358664,-0.17884597,0.29756692,1.0120947,0.17904669
0.30000000000000004,0.1,1.2999999999999998,0.0,0.0,0,-0.9247073,0.41088307,-1.2849145,-0.31771687,-0.47677597,0.6128742,-0.7533337,1.8942176,0.7837833,0.88000673,-0.20921516,0.2256169,1.0432577,0.27858177
0.30000000000000004,0.1,1.2999999999999998,0.0,0.0,0,-0.9295546,0.40168685,-1.3033582,-0.31838667,-0.4781361,0.6046761,-0.7702772,1.871384,0.7701592,0.95757943,-0.19483888,0.29464528,1.0710495,0.12516649
0.30000000000000004,0.1,1.2999999999999998,0.0,0.0,0,-0.9065164,0.41253108,-1.3054717,-0.3137749,-0.5000836,0.6045325,-0.75908285,1.8740077,0.8258653,0.9384458,-0.21931513,0.20316401,1.0586078,0.09600723
0.30000000000000004,0.1,1.2999999999999998,0.0,0.0,0,-0.9166082,0.4282344,-1.2880974,-0.3084781,-0.47397304,0.6203005,-0.7227967,1.862815,0.78001255,0.9380064,-0.1950057,0.30863422,1.0258026,0.051914286
0.30000000000000004,0.1,1.2999999999999998,0.0,0.0,0,-0.9144102,0.3977046,-1.2935203,-0.31609964,-0.4992237,0.630845,-0.8281033,1.877055,0.79170465,0.9458934,-0.21089062,0.35180318,1.0411239,0.29841495
0.30000000000000004,0.1,1.2999999999999998,0.0,0.0,0,-0.901733,0.40474838,-1.3095307,-0.30710417,-0.4967315,0.63036793,-0.92125595,1.8797553,0.7667109,0.9331997,-0.16080585,0.31104484,1.032694,0.2116292
0.30000000000000004,0.1,1.2999999999999998,0.0,0.0,0,-0.91914046,0.39763254,-1.2619877,-0.31540263,-0.49423045,0.6245579,-0.81686515,1.883444,0.79404795,0.95406646,-0.20862441,0.29647395,1.0492648,0.3659469
0.30000000000000004,0.1,1.2999999999999998,0.0,0.0,0,-0.8999546,0.39053932,-1.2997787,-0.318907,-0.50383264,0.62259394,-0.6842585,1.8552085,0.8024661,0.92742485,-0.1772398,0.2975778,1.0561308,0.09741591
0.30000000000000004,0.1,1.2999999999999998,0.0,0.0,0,-0.91553533,0.4077228,-1.3049902,-0.3190987,-0.49185604,0.6338663,-0.7367478,1.8764986,0.81732446,0.95672417,-0.16473764,0.17134981,1.0915171,0.19772717
0.30000000000000004,0.1,1.2999999999999998,0.0,0.0,0,-0.9078631,0.40005973,-1.2936394,-0.32459456,-0.49818286,0.63048595,-0.7783998,1.8716509,0.8257743,0.9182517,-0.17788927,0.34181213,1.0834316,0.2132938
0.30000000000000004,0.1,1.2999999999999998,0.0,0.0,0,-0.9146549,0.40798402,-1.2981932,-0.31490433,-0.4711693,0.6287329,-0.6453661,1.8755672,0.77590334,0.9449115,-0.20637837,0.31287384,1.0406309,0.23111704
0.30000000000000004,0.1,1.2999999999999998,0.0,0.0,0,-0.9086731,0.3984879,-1.3027431,-0.3129329,-0.5123951,0.64150125,-0.76408815,1.887045,0.7978375,0.94451886,-0.22945783,0.2992158,1.047854,0.13354282
0.30000000000000004,0.1,1.2999999999999998,0.0,0.0,0,-0.9413665,0.41008112,-1.2824165,-0.32017457,-0.47427195,0.6353895,-0.70389706,1.8759514,0.8352039,0.93975025,-0.21551807,0.3164138,1.0354528,0.17313989
0.30000000000000004,0.1,1.2999999999999998,0.0,0.0,0,-0.9107207,0.38616407,-1.2820846,-0.32542852,-0.5023897,0.62318677,-0.8361738,1.8513161,0.7604426,0.9594442,-0.23931195,0.37729138,1.0086975,0.15623707
0.30000000000000004,0.1,1.2999999999999998,0.0,0.0,0,-0.92200154,0.37700912,-1.2833484,-0.31533235,-0.4642278,0.6163538,-0.7322572,1.8759962,0.82099384,0.90474975,-0.17476174,0.34709132,1.0496373,0.07644922
0.30000000000000004,0.1,1.2999999999999998,0.0,0.0,0,-0.9170088,0.39868844,-1.3042972,-0.32262808,-0.48050663,0.6115906,-0.79987776,1.8766956,0.83508945,0.9398457,-0.20831181,0.3171281,1.0856266,0.18259363
0.30000000000000004,0.1,1.2999999999999998,0.0,0.0,0,-0.8997569,0.39718464,-1.2973626,-0.31081435,-0.53999925,0.6442355,-0.78658324,1.873216,0.8030262,0.94861954,-0.22621125,0.20702103,1.0457778,0.2858779
0.30000000000000004,0.1,1.2999999999999998,0.0,0.0,0,-0.9146934,0.4208632,-1.2695346,-0.31719828,-0.49837556,0.6188528,-0.75438136,1.8534294,0.81763977,0.93575346,-0.19421124,0.25990337,1.0299541,0.04195274
0.30000000000000004,0.1,1.2999999999999998,0.0,0.0,0,-0.91932213,0.39062044,-1.2822361,-0.32109532,-0.48520947,0.61927474,-0.7503835,1.8761344,0.8021565,0.92020565,-0.19427837,0.2834985,1.051355,0.46015584
0.30000000000000004,0.1,1.2999999999999998,0.0,0.0,0,-0.9089412,0.40382358,-1.2707926,-0.31835622,-0.46681437,0.6246527,-0.7739364,1.8847516,0.8014442,0.944246,-0.21641481,0.2900757,1.0235411,0.10792252
0.30000000000000004,0.1,1.2999999999999998,0.0,0.0,0,-0.9233925,0.4023537,-1.2949239,-0.31181175,-0.461073,0.6366874,-0.7192085,1.8883611,0.78576034,0.91352373,-0.15251598,0.3152891,1.0445399,0.017640132
0.30000000000000004,0.1,1.2999999999999998,0.0,0.0,0,-0.91008574,0.4155607,-1.3070931,-0.31733632,-0.51462483,0.6247466,-0.6867591,1.8895202,0.834799,0.9275048,-0.211919,0.27430227,1.0455418,0.23051676
0.30000000000000004,0.1,1.2999999999999998,0.0,0.0,0,-0.91104597,0.40669885,-1.2822703,-0.31525606,-0.4859601,0.61239344,-0.6637395,1.8924743,0.83448446,0.9233614,-0.21593007,0.36863554,0.97542197,0.3706796
0.30000000000000004,0.1,1.2999999999999998,0.0,0.0,0,-0.9172124,0.40811118,-1.3102287,-0.31913072,-0.45875403,0.59901756,-0.73878413,1.8736486,0.81755286,0.93782455,-0.19814645,0.32165536,1.0437189,0.0086346045
0.30000000000000004,0.1,1.2999999999999998,0.0,0.0,0,-0.9111585,0.4202476,-1.2987956,-0.3073746,-0.5371886,0.63035494,-0.861382,1.884159,0.8122961,0.95474446,-0.20512533,0.23994412,1.0355914,0.25717804
0.30000000000000004,0.1,1.2999999999999998,0.0,0.0,0,-0.90087587,0.41096535,-1.3001328,-0.3209922,-0.53750086,0.6252016,-0.67171955,1.8711926,0.82852936,0.90383816,-0.19951859,0.31863186,1.071164,0.41658485
0.30000000000000004,0.1,1.2999999999999998,0.0,0.0,0,-0.9179889,0.38424033,-1.2849764,-0.32069987,-0.4729506,0.61857986,-0.72331077,1.8806609,0.8234678,0.93256754,-0.20849009,0.21849044,1.0647898,0.1713738
0.30000000000000004,0.1,1.2999999999999998,0.0,0.0,0,-0.9113669,0.39488852,-1.3003736,-0.30991074,-0.497943,0.6164966,-0.8025856,1.8768017,0.835397,0.93032426,-0.17870334,0.3102641,1.0229994,0.23766874
0.30000000000000004,0.1,1.2999999999999998,0.0,0.0,0,-0.91171503,0.40668562,-1.3087285,-0.31506157,-0.49074382,0.6057836,-0.791707,1.8624511,0.8138466,0.94946307,-0.21065278,0.29975677,1.0372906,0.20543808
0.30000000000000004,0.1,1.2999999999999998,0.0,0.0,0,-0.9089263,0.41213134,-1.3024893,-0.30351937,-0.49401417,0.60398865,-0.60618603,1.8735328,0.8392444,0.951158,-0.20124656,0.3198271,0.9831755,0.13420129
0.30000000000000004,0.1,1.2999999999999998,0.0,0.0,0,-0.90897226,0.41340837,-1.3173611,-0.31916234,-0.4756586,0.6046324,-0.7466692,1.8832302,0.81267595,0.94379836,-0.21993972,0.35900143,1.0350999,0.14892294
0.30000000000000004,0.1,1.2999999999999998,0.0,0.0,0,-0.92100936,0.40308645,-1.2883393,-0.30569452,-0.4548149,0.6067543,-0.798322,1.8697683,0.8097389,0.9485979,-0.20135923,0.3913274,1.0076083,0.2029426
0.30000000000000004,0.1,1.2999999999999998,0.0,0.0,0,-0.9029305,0.40239123,-1.2975109,-0.316954,-0.51030105,0.645846,-0.7417051,1.8715864,0.81586653,0.9806219,-0.19994275,0.33588767,1.0176684,-0.069141015
0.30000000000000004,0.1,1.2999999999999998,0.0,0.0,0,-0.9149908,0.41037884,-1.2950853,-0.30977497,-0.5351464,0.6208321,-0.80555665,1.8710335,0.7974088,0.9345003,-0.16216922,0.282176,1.0115808,0.09609322
0.30000000000000004,0.1,1.2999999999999998,0.0,0.0,0,-0.90376425,0.38713008,-1.297258,-0.3169597,-0.4898915,0.6309901,-0.8039955,1.8630723,0.82503664,0.93152326,-0.19783449,0.32258916,1.0250822,0.101948164
0.30000000000000004,0.1,1.2999999999999998,0.0,0.0,0,-0.9193534,0.39871237,-1.2796847,-0.32924932,-0.49024168,0.62462956,-0.80620325,1.882367,0.77818704,0.9545933,-0.21672082,0.27378592,1.0154213,0.025883636
0.30000000000000004,0.1,1.2999999999999998,0.0,0.0,0,-0.91519815,0.40011182,-1.2763866,-0.3166192,-0.49160603,0.61455876,-0.59846693,1.8737253,0.8394109,0.95578283,-0.24260885,0.24667536,1.0062083,0.18919507
0.30000000000000004,0.1,1.2999999999999998,0.0,0.0,0,-0.9180427,0.38100266,-1.3106625,-0.31772923,-0.4770171,0.5986605,-0.76150304,1.8749068,0.8082601,0.92958516,-0.18111724,0.42663348,1.041338,0.011564118
0.30000000000000004,0.1,1.2999999999999998,0.0,0.0,0,-0.92295474,0.41841057,-1.3015624,-0.32093626,-0.5101114,0.6199253,-0.8316085,1.8879079,0.85051507,0.9288146,-0.21497746,0.36015633,1.0282558,0.039578672
0.30000000000000004,0.1,1.2999999999999998,0.0,0.0,0,-0.90134346,0.39801428,-1.2986524,-0.3047651,-0.49236766,0.5929431,-0.742489,1.8723872,0.78858167,0.97646797,-0.2266833,0.2920219,1.03838,0.22043045
0.30000000000000004,0.1,1.2999999999999998,0.0,0.0,0,-0.91529095,0.38938087,-1.29599,-0.3239482,-0.47863963,0.6369406,-0.61747277,1.8782654,0.813582,0.9386529,-0.19579478,0.35833773,1.0167899,0.2083301
0.30000000000000004,0.1,1.2999999999999998,0.0,0.0,0,-0.9070163,0.40217817,-1.3067576,-0.30937004,-0.5150645,0.62675816,-0.77124393,1.8701332,0.81530106,0.94893295,-0.22371909,0.2657252,1.0123694,0.18711242
0.30000000000000004,0.1,1.2999999999999998,0.0,0.0,0,-0.9071167,0.38970506,-1.314115,-0.3100859,-0.48585352,0.61962783,-0.77209383,1.874662,0.83413,0.943024,-0.20351759,0.35731837,1.0737243,0.3078758
0.30000000000000004,0.1,1.2999999999999998,0.0,0.0,0,-0.91497797,0.3994625,-1.2905697,-0.31700236,-0.5111546,0.6272015,-0.7271586,1.8730956,0.8618724,0.93362176,-0.22088023,0.3117486,1.0151039,0.16789795
0.30000000000000004,0.1,1.2999999999999998,0.0,0.0,0,-0.92926264,0.40309265,-1.2954904,-0.33109498,-0.46581155,0.6066268,-0.7649194,1.8871034,0.7824647,0.93232465,-0.22297668,0.25106457,0.9997949,0.16830167
0.30000000000000004,0.1,1.2999999999999998,0.0,0.0,0,-0.9254421,0.39069897,-1.285476,-0.3111085,-0.4559861,0.62792945,-0.73894817,1.8794038,0.75263697,0.9367681,-0.19624572,0.32542825,1.0156182,0.13029689
0.30000000000000004,0.1,1.2999999999999998,0.0,0.0,0,-0.9049369,0.40099114,-1.2967869,-0.32050043,-0.50416267,0.6230458,-0.7272312,1.8698083,0.84288234,0.92972475,-0.21667139,0.2624845,1.0387129,0.07128041
0.30000000000000004,0.1,1.2999999999999998,0.0,0.0,0,-0.90951145,0.40756,-1.2943891,-0.3085085,-0.48668212,0.6205191,-0.7768859,1.8607702,0.7661739,0.9462158,-0.19857797,0.39910364,1.0195001,0.114323355
0.30000000000000004,0.1,1.2999999999999998,0.0,0.0,0,-0.9075785,0.39640146,-1.3011916,-0.3142533,-0.48412725,0.5911737,-0.6351973,1.8527992,0.85379565,0.9332461,-0.21181059,0.32128954,1.0056882,0.19557115
0.30000000000000004,0.1,1.2999999999999998,0.0,0.0,0,-0.91234595,0.39453015,-1.294382,-0.31403416,-0.44700295,0.6076867,-0.6063592,1.8633938,0.7855545,0.95018303,-0.23661435,0.23004793,1.0653925,0.1516408
0.30000000000000004,0.1,1.2999999999999998,0.0,0.0,0,-0.9106013,0.38102016,-1.2904813,-0.32795396,-0.50233203,0.63578033,-0.8106227,1.8789753,0.8203667,0.9127808,-0.19514471,0.31249657,1.052124,0.23893945
0.30000000000000004,0.1,1.2999999999999998,0.0,0.0,0,-0.90404624,0.39180052,-1.2940042,-0.3048426,-0.56591123,0.6157551,-0.8023445,1.8665677,0.8220853,0.9247843,-0.18562192,0.30119953,1.0083077,0.12728542
0.30000000000000004,0.1,1.2999999999999998,0.0,0.0,0,-0.90733093,0.40219745,-1.3128934,-0.31474227,-0.51485986,0.6139917,-0.83006245,1.8638391,0.78314024,0.9372829,-0.20452376,0.24548759,1.070173,0.12567782
0.30000000000000004,0.1,1.2999999999999998,0.0,0.0,0,-0.90256226,0.37993026,-1.2818946,-0.31968907,-0.49215093,0.6302654,-0.784643,1.8738635,0.76055896,0.93318737,-0.22777067,0.3066549,0.9565678,0.349683
0.30000000000000004,0.1,1.2999999999999998,0.0,0.0,0,-0.91982794,0.4141164,-1.2956547,-0.31693843,-0.49737388,0.6090834,-0.801046,1.8687669,0.8192721,0.97155863,-0.16266716,0.33964962,1.0915097,0.09856337
0.30000000000000004,0.1,1.2999999999999998,0.0,0.0,0,-0.9028868,0.4025331,-1.2857788,-0.31687728,-0.52328056,0.6385625,-0.7308795,1.8630828,0.79598874,0.93984693,-0.1803315,0.30089006,1.0570544,0.11670286
0.30000000000000004,0.1,1.2999999999999998,0.0,0.0,0,-0.910917,0.3849205,-1.3126947,-0.31475255,-0.47534442,0.60378647,-0.77980584,1.8706083,0.8207617,0.98585373,-0.16903765,0.3165665,1.0796045,0.14867173
0.30000000000000004,0.1,1.2999999999999998,0.0,0.0,0,-0.9206119,0.39327967,-1.252815,-0.2997258,-0.4539994,0.63341874,-0.6037417,1.877441,0.828554,0.9341072,-0.17563635,0.3047532,1.0892817,0.179865
0.30000000000000004,0.1,1.2999999999999998,0.0,0.0,0,-0.9136599,0.40419787,-1.3093599,-0.3230187,-0.44946685,0.6113206,-0.7435166,1.8675805,0.8182331,0.95333827,-0.2410947,0.28447852,1.0838939,0.25087205
0.30000000000000004,0.1,1.2999999999999998,0.0,0.0,0,-0.9239647,0.4138286,-1.2689689,-0.31877887,-0.5257139,0.6141429,-0.7168412,1.8783357,0.7921623,0.9442762,-0.2117263,0.21736053,1.0130624,0.27396137
0.30000000000000004,0.1,1.2999999999999998,0.0,0.0,0,-0.9064111,0.41599804,-1.2975157,-0.31836957,-0.5090872,0.6416894,-0.6819047,1.8476515,0.79059166,0.9225579,-0.18567461,0.31115746,1.0384917,0.2375733
0.30000000000000004,0.1,1.2999999999999998,0.0,0.0,0,-0.91349435,0.3975518,-1.2901387,-0.3180104,-0.44952592,0.6201001,-0.6988944,1.8667644,0.8319602,0.94528437,-0.19450778,0.3195284,1.0383549,0.34023798
0.30000000000000004,0.1,1.2999999999999998,0.0,0.0,0,-0.9024296,0.4166605,-1.316335,-0.29999015,-0.4805477,0.6293796,-0.7623636,1.8989824,0.83992124,0.94801307,-0.19637607,0.2538428,1.0092504,0.027412748
0.30000000000000004,0.1,1.2999999999999998,0.0,0.0,0,-0.8938606,0.39830106,-1.3025831,-0.32705286,-0.50388795,0.61215365,-0.7428838,1.8992265,0.8368235,0.8959426,-0.1917037,0.30052745,1.0050286,0.041307833
0.30000000000000004,0.1,1.2999999999999998,0.0,0.0,0,-0.90326875,0.40604997,-1.3055873,-0.3287347,-0.47360307,0.6082253,-0.75432026,1.8746736,0.8375423,0.92236215,-0.18145566,0.37849435,1.0239432,0.14490739
0.30000000000000004,0.1,1.2999999999999998,0.0,0.0,0,-0.90357983,0.39376435,-1.298043,-0.30838004,-0.52066624,0.6333757,-0.7517876,1.884557,0.8633458,0.9147295,-0.2061053,0.42440602,1.0506903,0.21420664
0.30000000000000004,0.1,1.2999999999999998,0.0,0.0,0,-0.90758413,0.41817486,-1.3147705,-0.31616306,-0.48283947,0.6129139,-0.78452784,1.8763974,0.84285384,0.931739,-0.19568974,0.25134733,1.0343888,0.12892084
0.30000000000000004,0.1,1.2999999999999998,0.0,0.0,0,-0.9026727,0.3923324,-1.3031926,-0.319301,-0.47105065,0.6328579,-0.80219495,1.8704201,0.8286373,0.9254154,-0.21485215,0.29850093,1.0746524,0.07281552
0.30000000000000004,0.1,1.2999999999999998,0.0,0.0,0,-0.912005,0.40121228,-1.2761449,-0.309473,-0.47228777,0.6144107,-0.6508779,1.8800422,0.8174015,0.9464016,-0.22525147,0.34075093,1.0022963,0.13335074
0.30000000000000004,0.1,1.2999999999999998,0.0,0.0,0,-0.90405434,0.40508455,-1.2905607,-0.32232738,-0.4570662,0.62213737,-0.78748393,1.86255,0.81058085,0.9722517,-0.20713401,0.27402842,0.98580635,0.27595702
0.30000000000000004,0.1,1.2999999999999998,0.0,0.0,0,-0.928471,0.3955811,-1.2803706,-0.31440088,-0.5089868,0.6067665,-0.7289275,1.8739341,0.82196873,0.96190476,-0.21847913,0.3030035,1.0159628,0.19748294
0.30000000000000004,0.1,1.2999999999999998,0.0,0.0,0,-0.9230778,0.39691496,-1.3016201,-0.32173243,-0.43681172,0.63992363,-0.8001732,1.8930353,0.81668854,0.9526247,-0.20280297,0.30799776,1.0114384,0.036291815
0.30000000000000004,0.1,1.2999999999999998,0.0,0.0,0,-0.91444075,0.40718406,-1.2783554,-0.31989235,-0.46356204,0.63124806,-0.7213375,1.8675321,0.81200844,0.93010604,-0.21694596,0.5035862,1.0278031,0.15677805
0.30000000000000004,0.1,1.2999999999999998,0.0,0.0,0,-0.9395386,0.40339842,-1.3328644,-0.32817897,-0.45032555,0.6117275,-0.5524125,1.8787725,0.862822,0.9236211,-0.25906473,0.44566187,1.0805005,0.35937354
0.30000000000000004,0.1,1.2999999999999998,0.0,0.0,0,-0.9395386,0.40339842,-1.3328644,-0.32817897,-0.45032555,0.6117275,-0.5524125,1.8787725,0.862822,0.9236211,-0.25906473,0.44566187,1.0805005,0.35937354
0.30000000000000004,0.1,1.2999999999999998,0.0,0.0,0,-0.9395386,0.40339842,-1.3328644,-0.32817897,-0.45032555,0.6117275,-0.5524125,1.8787725,0.862822,0.9236211,-0.25906473,0.44566187,1.0805005,0.35937354
0.30000000000000004,0.1,1.2999999999999998,0.0,0.0,0,-0.9395386,0.40339842,-1.3328644,-0.32817897,-0.45032555,0.6117275,-0.5524125,1.8787725,0.862822,0.9236211,-0.25906473,0.44566187,1.0805005,0.35937354
0.30000000000000004,0.1,1.2999999999999998,0.0,0.0,0,-0.9395386,0.40339842,-1.3328644,-0.32817897,-0.45032555,0.6117275,-0.5524125,1.8787725,0.862822,0.9236211,-0.25906473,0.44566187,1.0805005,0.35937354
0.30000000000000004,0.1,1.2999999999999998,0.0,0.0,0,-0.9395386,0.40339842,-1.3328644,-0.32817897,-0.45032555,0.6117275,-0.5524125,1.8787725,0.862822,0.9236211,-0.25906473,0.44566187,1.0805005,0.35937354
0.30000000000000004,0.1,1.2999999999999998,0.0,0.0,0,-0.9395386,0.40339842,-1.3328644,-0.32817897,-0.45032555,0.6117275,-0.5524125,1.8787725,0.862822,0.9236211,-0.25906473,0.44566187,1.0805005,0.35937354
0.30000000000000004,0.1,1.2999999999999998,0.0,0.0,0,-0.9395386,0.40339842,-1.3328644,-0.32817897,-0.45032555,0.6117275,-0.5524125,1.8787725,0.862822,0.9236211,-0.25906473,0.44566187,1.0805005,0.35937354
0.30000000000000004,0.1,1.2999999999999998,0.0,0.0,0,-0.9039857,0.39004737,-1.2737489,-0.32151106,-0.44812614,0.6314248,-0.79151917,1.8613776,0.8534055,0.9269172,-0.19641177,0.32784322,0.99576706,0.24860394
0.30000000000000004,0.1,1.2999999999999998,0.0,0.0,0,-0.9039857,0.39004737,-1.2737489,-0.32151106,-0.44812614,0.6314248,-0.79151917,1.8613776,0.8534055,0.9269172,-0.19641177,0.32784322,0.99576706,0.24860394
0.30000000000000004,0.1,1.2999999999999998,0.0,0.0,0,-0.9039857,0.39004737,-1.2737489,-0.32151106,-0.44812614,0.6314248,-0.79151917,1.8613776,0.8534055,0.9269172,-0.19641177,0.32784322,0.99576706,0.24860394
0.30000000000000004,0.1,1.2999999999999998,0.0,0.0,0,-0.9039857,0.39004737,-1.2737489,-0.32151106,-0.44812614,0.6314248,-0.79151917,1.8613776,0.8534055,0.9269172,-0.19641177,0.32784322,0.99576706,0.24860394
0.30000000000000004,0.1,1.2999999999999998,0.0,0.0,0,-0.9039857,0.39004737,-1.2737489,-0.32151106,-0.44812614,0.6314248,-0.79151917,1.8613776,0.8534055,0.9269172,-0.19641177,0.32784322,0.99576706,0.24860394
0.30000000000000004,0.1,1.2999999999999998,0.0,0.0,0,-0.9039857,0.39004737,-1.2737489,-0.32151106,-0.44812614,0.6314248,-0.79151917,1.8613776,0.8534055,0.9269172,-0.19641177,0.32784322,0.99576706,0.24860394
0.30000000000000004,0.1,1.2999999999999998,0.0,0.0,0,-0.9039857,0.39004737,-1.2737489,-0.32151106,-0.44812614,0.6314248,-0.79151917,1.8613776,0.8534055,0.9269172,-0.19641177,0.32784322,0.99576706,0.24860394
0.30000000000000004,0.1,1.2999999999999998,0.0,0.0,0,-0.9039857,0.39004737,-1.2737489,-0.32151106,-0.44812614,0.6314248,-0.79151917,1.8613776,0.8534055,0.9269172,-0.19641177,0.32784322,0.99576706,0.24860394
0.30000000000000004,0.1,1.2999999999999998,0.0,0.0,0,-0.92367405,0.37956268,-1.2803329,-0.3106708,-0.51208115,0.6086059,-0.7271155,1.8716741,0.80777633,0.95703954,-0.20926562,0.33953577,1.0134891,0.11436619
0.30000000000000004,0.1,1.2999999999999998,0.0,0.0,0,-0.92367405,0.37956268,-1.2803329,-0.3106708,-0.51208115,0.6086059,-0.7271155,1.8716741,0.80777633,0.95703954,-0.20926562,0.33953577,1.0134891,0.11436619
0.30000000000000004,0.1,1.2999999999999998,0.0,0.0,0,-0.92367405,0.37956268,-1.2803329,-0.3106708,-0.51208115,0.6086059,-0.7271155,1.8716741,0.80777633,0.95703954,-0.20926562,0.33953577,1.0134891,0.11436619
0.30000000000000004,0.1,1.2999999999999998,0.0,0.0,0,-0.92367405,0.37956268,-1.2803329,-0.3106708,-0.51208115,0.6086059,-0.7271155,1.8716741,0.80777633,0.95703954,-0.20926562,0.33953577,1.0134891,0.11436619
0.30000000000000004,0.1,1.2999999999999998,0.0,0.0,0,-0.92367405,0.37956268,-1.2803329,-0.3106708,-0.51208115,0.6086059,-0.7271155,1.8716741,0.80777633,0.95703954,-0.20926562,0.33953577,1.0134891,0.11436619
0.30000000000000004,0.1,1.2999999999999998,0.0,0.0,0,-0.92367405,0.37956268,-1.2803329,-0.3106708,-0.51208115,0.6086059,-0.7271155,1.8716741,0.80777633,0.95703954,-0.20926562,0.33953577,1.0134891,0.11436619
0.30000000000000004,0.1,1.2999999999999998,0.0,0.0,0,-0.92367405,0.37956268,-1.2803329,-0.3106708,-0.51208115,0.6086059,-0.7271155,1.8716741,0.80777633,0.95703954,-0.20926562,0.33953577,1.0134891,0.11436619
0.30000000000000004,0.1,1.2999999999999998,0.0,0.0,0,-0.92367405,0.37956268,-1.2803329,-0.3106708,-0.51208115,0.6086059,-0.7271155,1.8716741,0.80777633,0.95703954,-0.20926562,0.33953577,1.0134891,0.11436619
0.30000000000000004,0.1,1.2999999999999998,0.0,0.0,0,-0.9230778,0.39691496,-1.3016201,-0.32173243,-0.43681172,0.63992363,-0.8001732,1.8930353,0.81668854,0.9526247,-0.20280297,0.30799776,1.0114384,0.036291815
0.30000000000000004,0.1,1.2999999999999998,0.0,0.0,0,-0.9230778,0.39691496,-1.3016201,-0.32173243,-0.43681172,0.63992363,-0.8001732,1.8930353,0.81668854,0.9526247,-0.20280297,0.30799776,1.0114384,0.036291815
0.30000000000000004,0.1,1.2999999999999998,0.0,0.0,0,-0.9230778,0.39691496,-1.3016201,-0.32173243,-0.43681172,0.63992363,-0.8001732,1.8930353,0.81668854,0.9526247,-0.20280297,0.30799776,1.0114384,0.036291815
0.30000000000000004,0.1,1.2999999999999998,0.0,0.0,0,-0.9230778,0.39691496,-1.3016201,-0.32173243,-0.43681172,0.63992363,-0.8001732,1.8930353,0.81668854,0.9526247,-0.20280297,0.30799776,1.0114384,0.036291815
0.30000000000000004,0.1,1.2999999999999998,0.0,0.0,0,-0.9230778,0.39691496,-1.3016201,-0.32173243,-0.43681172,0.63992363,-0.8001732,1.8930353,0.81668854,0.9526247,-0.20280297,0.30799776,1.0114384,0.036291815
0.30000000000000004,0.1,1.2999999999999998,0.0,0.0,0,-0.9230778,0.39691496,-1.3016201,-0.32173243,-0.43681172,0.63992363,-0.8001732,1.8930353,0.81668854,0.9526247,-0.20280297,0.30799776,1.0114384,0.036291815
0.30000000000000004,0.1,1.2999999999999998,0.0,0.0,0,-0.9230778,0.39691496,-1.3016201,-0.32173243,-0.43681172,0.63992363,-0.8001732,1.8930353,0.81668854,0.9526247,-0.20280297,0.30799776,1.0114384,0.036291815
0.30000000000000004,0.1,1.2999999999999998,0.0,0.0,0,-0.9175604,0.39713266,-1.2947421,-0.3140194,-0.5209209,0.59843534,-0.77443993,1.8811743,0.8106917,0.920354,-0.19685988,0.37745088,1.0334219,0.44704238
