sanky1234/BimanualDexCatch/isaacgymenvs/cem_results/May31/football_pose_0.1_0.0_0.9_0.0_0.0_0_2025-05-31.csv
x,y,z,roll,pitch,yaw,robot1/joint1,robot1/joint2,robot1/joint3,robot1/joint4,robot1/joint5,robot1/joint6,robot1/joint7,robot2/joint1,robot2/joint2,robot2/joint3,robot2/joint4,robot2/joint5,robot2/joint6,robot2/joint7
0.1,0.0,0.9,0.0,0.0,0,-1.5386661,1.6801109,-1.0784887,-0.0976556,-0.09385096,1.5410703,-1.5006429,1.1807421,-0.9997226,0.7626576,0.83618486,0.26733044,1.1099449,1.0210177
0.1,0.0,0.9,0.0,0.0,0,-1.4671572,1.647386,-1.04403,-0.10068723,-0.13372643,1.5489609,-1.2383319,1.2272134,-1.0196439,0.7452313,0.93074405,0.27853692,1.0344743,1.3131188
0.1,0.0,0.9,0.0,0.0,0,-1.6713398,1.6448587,-1.0752795,-0.120743744,-0.06482709,1.5562394,-1.4091724,1.169286,-0.9696585,0.69577605,0.8751286,0.26788083,1.1382334,0.6516251
0.1,0.0,0.9,0.0,0.0,0,-1.5886779,1.7290314,-1.1034161,-0.078245856,-0.1552247,1.5622822,-1.6378603,1.2037873,-0.99253637,0.6982982,0.86891633,0.15577593,1.2466648,0.57841647
0.1,0.0,0.9,0.0,0.0,0,-1.6070719,1.7288798,-1.059802,-0.109470986,-0.05478686,1.5512731,-1.3140585,1.0828555,-1.0072608,0.81457597,0.82267135,0.24151754,1.1362685,1.0821774
0.1,0.0,0.9,0.0,0.0,0,-1.5693144,1.7472011,-1.0544088,-0.10157835,-0.15872729,1.5529335,-1.4843771,1.2158761,-0.98994726,0.84320015,0.76794297,0.28742725,1.0668343,0.9909549
0.1,0.0,0.9,0.0,0.0,0,-1.5499772,1.6360508,-1.0862243,-0.089314975,-0.08494606,1.5450919,-1.2759175,1.1802661,-0.98929703,0.8935844,0.88911355,0.20665622,0.9700928,0.8965727
0.1,0.0,0.9,0.0,0.0,0,-1.5968603,1.6963173,-1.0651067,-0.06579809,-0.14963436,1.5550296,-1.3712589,1.1646668,-1.0183545,0.7678188,0.8261873,0.27344722,1.1588088,1.0791906
0.1,0.0,0.9,0.0,0.0,0,-1.515128,1.7106934,-1.0822932,-0.075675786,-0.096033186,1.537038,-1.5336357,1.1585953,-1.0006193,0.7677343,0.7905371,0.25394398,1.2481682,0.84235364
0.1,0.0,0.9,0.0,0.0,0,-1.6114643,1.749953,-1.0607388,-0.06524975,-0.13166144,1.5510391,-1.6926672,1.1702831,-1.0405074,0.82500803,0.8945714,0.13102956,1.2221742,0.8904126
0.1,0.0,0.9,0.0,0.0,0,-1.5829513,1.7168869,-1.0694778,-0.10692011,-0.13665028,1.5164202,-1.8616686,1.1734997,-0.96926206,0.6599991,0.9237594,0.2917225,1.0514103,0.9093842
0.1,0.0,0.9,0.0,0.0,0,-1.5723118,1.6665989,-1.0635393,-0.10096289,-0.17805307,1.5356312,-1.4763286,1.256916,-0.97689795,0.73857194,0.92929316,0.20770152,1.004679,0.9417445
0.1,0.0,0.9,0.0,0.0,0,-1.5124915,1.7049234,-1.0990181,-0.12653673,-0.116693705,1.5633082,-1.3884617,1.2168498,-1.0136955,0.7789888,0.77117974,0.1721202,1.2184626,0.7558574
0.1,0.0,0.9,0.0,0.0,0,-1.4287373,1.735039,-1.0580652,-0.09233766,-0.12185432,1.5527431,-1.7668262,1.105152,-0.96693695,0.7514212,0.8730432,0.2677902,1.1370611,0.8695603
0.1,0.0,0.9,0.0,0.0,0,-1.6418507,1.656945,-1.0556678,-0.10806579,-0.1159177,1.5612822,-1.4597198,1.231943,-1.025252,0.8504599,0.74219733,0.26177907,1.0564357,1.3135247
0.1,0.0,0.9,0.0,0.0,0,-1.631497,1.6515689,-1.058433,-0.08989673,-0.16028422,1.5543795,-1.2036356,1.1611345,-0.87999296,0.790598,0.9368218,0.19486098,1.0515573,1.104186
0.1,0.0,0.9,0.0,0.0,0,-1.5639699,1.6865742,-1.0801786,-0.12953056,-0.055397484,1.5407615,-1.6158013,1.2430944,-1.0039464,0.80131423,0.85986924,0.15450494,1.1718236,1.0557787
0.1,0.0,0.9,0.0,0.0,0,-1.5183525,1.7741567,-1.0571963,-0.1414571,-0.15790765,1.5374488,-1.8686495,1.1734271,-0.8934474,0.7895122,0.8262591,0.25631595,0.9691982,0.9929672
0.1,0.0,0.9,0.0,0.0,0,-1.6169846,1.6869514,-1.0614076,-0.104031764,-0.12893778,1.5503141,-1.4302526,1.1886069,-1.0001701,0.69200397,0.8524967,0.17500776,1.0897331,0.97149616
0.1,0.0,0.9,0.0,0.0,0,-1.6190666,1.505629,-1.0604675,-0.073415816,-0.08427936,1.541986,-1.5639015,1.2047004,-0.9878425,0.6896798,0.8886432,0.1977525,1.1520665,0.7496249
0.1,0.0,0.9,0.0,0.0,0,-1.6331183,1.6532526,-1.0861754,-0.06988092,-0.103845656,1.5558624,-1.7147571,1.2215286,-1.0177354,0.7859037,0.92620826,0.118818566,0.996568,0.46777773
0.1,0.0,0.9,0.0,0.0,0,-1.6114589,1.6592282,-1.0801308,-0.12910303,-0.096570015,1.5334471,-1.6115807,1.2160625,-1.0807079,0.74291193,0.8615921,0.19012353,1.2110165,0.8003482
0.1,0.0,0.9,0.0,0.0,0,-1.6398417,1.6051515,-1.0813465,-0.09305352,-0.17629541,1.559166,-1.5469029,1.2058183,-1.0583072,0.72109246,0.73192585,0.22887903,1.3149619,0.55582076
0.1,0.0,0.9,0.0,0.0,0,-1.5187788,1.6936933,-1.0429745,-0.08839903,-0.118976414,1.5429395,-1.5497642,1.1464069,-1.0025637,0.8190215,0.85293436,0.21648487,1.0545228,0.7368552
0.1,0.0,0.9,0.0,0.0,0,-1.5635439,1.6246254,-1.0721977,-0.096905485,-0.12271165,1.5487912,-1.382149,1.1574293,-1.0679057,0.76201797,0.8628626,0.21939203,1.1072488,0.80035025
0.1,0.0,0.9,0.0,0.0,0,-1.5337362,1.6863014,-1.0814158,-0.091265984,-0.14490989,1.5317428,-1.5201168,1.1940894,-0.9920182,0.7755604,0.9228044,0.22892666,0.9133583,1.0083209
0.1,0.0,0.9,0.0,0.0,0,-1.4757551,1.6345139,-1.087683,-0.09288509,-0.12912008,1.5570132,-1.4129068,1.2276739,-1.0490685,0.72666866,0.90557224,0.3150657,0.93636304,1.4424493
0.1,0.0,0.9,0.0,0.0,0,-1.4743818,1.6052755,-1.0584085,-0.093516134,-0.12801369,1.5498129,-1.6049116,1.2025341,-1.0158529,0.74478173,0.9164789,0.20029974,1.0710155,0.8534156
0.1,0.0,0.9,0.0,0.0,0,-1.5401884,1.6595496,-1.0783077,-0.11726196,-0.13556457,1.537619,-1.5702224,1.1577673,-0.9726944,0.8041363,0.8573751,0.22073239,0.8765819,0.9248291
0.1,0.0,0.9,0.0,0.0,0,-1.5367342,1.7216218,-1.0677645,-0.090750605,-0.096766725,1.5303196,-1.4510386,1.1479063,-1.0327858,0.8276316,0.83434266,0.19772151,1.1728138,0.793495
0.1,0.0,0.9,0.0,0.0,0,-1.6027842,1.6320785,-1.0821855,-0.08682791,-0.11121403,1.5415894,-1.2297727,1.1934947,-1.0299286,0.7605492,0.8336918,0.20430389,1.1165987,0.97789854
0.1,0.0,0.9,0.0,0.0,0,-1.5824001,1.6807569,-1.063534,-0.15999986,-0.14760931,1.5364879,-1.5965058,1.1124635,-1.0731194,0.72995216,0.9079364,0.2410384,1.052094,0.9680675
0.1,0.0,0.9,0.0,0.0,0,-1.5040183,1.6791508,-1.0760486,-0.079669125,-0.12162758,1.5171366,-1.5030321,1.1598258,-1.03263,0.86502934,0.70866275,0.24795303,1.1829091,1.1131883
0.1,0.0,0.9,0.0,0.0,0,-1.4953545,1.708768,-1.0644699,-0.114796676,-0.12188513,1.552895,-1.4544034,1.169447,-0.9967035,0.85470474,0.80474323,0.22819278,1.0731778,1.0365607
0.1,0.0,0.9,0.0,0.0,0,-1.4928229,1.737772,-1.0645365,-0.12173111,-0.13249601,1.5513448,-1.5562041,1.1679622,-1.0085315,0.7896389,0.81151485,0.22394978,1.1833266,0.80597126
0.1,0.0,0.9,0.0,0.0,0,-1.5454248,1.6905595,-1.0418726,-0.12072788,-0.12426211,1.5529863,-1.7062904,1.2016227,-0.96618634,0.74831355,0.88567466,0.18202378,1.0778875,0.5976691
0.1,0.0,0.9,0.0,0.0,0,-1.5617673,1.7476647,-1.0921905,-0.13708887,-0.06417913,1.5477934,-1.3635032,1.2330542,-0.9950686,0.75356066,0.8556851,0.16553286,1.0425818,0.84270716
0.1,0.0,0.9,0.0,0.0,0,-1.5944744,1.6948247,-1.0644194,-0.13084778,-0.12318719,1.5465814,-1.6143279,1.0849752,-1.0711081,0.71372426,0.8043168,0.24963541,1.1408858,0.8471585
0.1,0.0,0.9,0.0,0.0,0,-1.4661764,1.6479058,-1.0673578,-0.06073845,-0.13610922,1.5224149,-1.793422,1.2944796,-0.9913369,0.7059333,0.81710434,0.23503137,1.084892,0.8855217
0.1,0.0,0.9,0.0,0.0,0,-1.4781046,1.6621497,-1.0797313,-0.12321891,-0.14503027,1.5438759,-1.6665069,1.2338228,-1.0799372,0.8174153,0.84949493,0.24059783,1.0560762,0.9711079
0.1,0.0,0.9,0.0,0.0,0,-1.501361,1.6351936,-1.056218,-0.17487517,-0.09297737,1.5431373,-1.5166066,1.1699166,-0.9885356,0.66942817,0.886182,0.21963939,1.1428276,1.01387
0.1,0.0,0.9,0.0,0.0,0,-1.5597668,1.623318,-1.0729151,-0.10752574,-0.14954859,1.552562,-1.6245786,1.1729378,-1.0313882,0.8091534,0.75627714,0.20373383,1.204115,0.63194156
0.1,0.0,0.9,0.0,0.0,0,-1.6090674,1.6795073,-1.0864375,-0.1308258,-0.11914501,1.5503672,-1.5751888,1.2430155,-0.9950502,0.6918975,0.88870686,0.21842656,1.1320908,1.2202415
0.1,0.0,0.9,0.0,0.0,0,-1.491897,1.6823676,-1.0641681,-0.103240445,-0.10544943,1.534844,-1.8044617,1.2276167,-1.0116653,0.76181144,0.88557136,0.19687793,1.0671924,1.030574
0.1,0.0,0.9,0.0,0.0,0,-1.5592709,1.6020693,-1.0525603,-0.18623905,-0.09608184,1.5590912,-1.4857537,1.1282905,-1.0184252,0.81771404,0.8457319,0.18189952,0.97972673,0.87604934
0.1,0.0,0.9,0.0,0.0,0,-1.527547,1.6561335,-1.0553086,-0.1251853,-0.14141066,1.5518684,-1.6287493,1.1570798,-1.0227529,0.7770072,0.90174633,0.23901904,1.1019233,0.9340091
0.1,0.0,0.9,0.0,0.0,0,-1.4985576,1.7406573,-1.0685346,-0.10523326,-0.1261434,1.556712,-1.5928205,1.1762006,-1.0519903,0.7788984,0.80773735,0.20243108,1.1882616,1.0384398
0.1,0.0,0.9,0.0,0.0,0,-1.5617511,1.6570787,-1.0690116,-0.1086464,-0.061821733,1.557297,-1.5197047,1.1484079,-0.98042387,0.8377492,0.8709787,0.15729022,1.1589707,1.0055144
0.1,0.0,0.9,0.0,0.0,0,-1.5106839,1.6541728,-1.08181,-0.122812614,-0.15731092,1.5613773,-1.802033,1.1871454,-0.9851858,0.72734517,0.8246147,0.31553257,1.0608616,0.6981842
0.1,0.0,0.9,0.0,0.0,0,-1.5916733,1.6614923,-1.0905272,-0.1312124,-0.108168,1.5638789,-1.7186997,1.1256827,-1.0120353,0.6926441,0.8148618,0.35845432,1.1409403,0.7350821
0.1,0.0,0.9,0.0,0.0,0,-1.4457504,1.5621547,-1.0865461,-0.09764114,-0.065285265,1.5540222,-1.4199004,1.1687399,-1.0256287,0.7631585,0.8914156,0.25434217,1.1248374,0.69161624
0.1,0.0,0.9,0.0,0.0,0,-1.5028841,1.7274657,-1.0565603,-0.102921836,-0.07950779,1.557203,-1.7430378,1.1577306,-1.0574315,0.86001945,0.8048232,0.24011846,1.1055522,0.7364668
0.1,0.0,0.9,0.0,0.0,0,-1.4974622,1.6364098,-1.0601436,-0.13689214,-0.13466276,1.5451741,-1.5228529,1.200786,-0.952472,0.82125765,0.816699,0.14680566,1.1096178,0.8849727
0.1,0.0,0.9,0.0,0.0,0,-1.4884659,1.6436329,-1.0476573,-0.06667216,-0.1548311,1.5580121,-1.552169,1.2408881,-0.9888752,0.77546245,0.7952735,0.21860582,1.1263479,0.82305574
0.1,0.0,0.9,0.0,0.0,0,-1.4434292,1.5773177,-1.025308,-0.16711743,-0.084395826,1.5274156,-1.8612568,1.1873082,-1.0176988,0.7809818,0.8827366,0.17739512,1.127158,0.92222065
0.1,0.0,0.9,0.0,0.0,0,-1.472664,1.7141844,-1.068902,-0.19064417,-0.1193504,1.5487733,-1.6171733,1.1667113,-1.0533785,0.74247813,0.8350214,0.24590115,1.1080453,0.79559785
0.1,0.0,0.9,0.0,0.0,0,-1.4981204,1.6128048,-1.0909444,-0.09734964,-0.05580651,1.5178466,-1.6687976,1.2304506,-0.97376835,0.6917392,0.9288099,0.24828272,0.9860791,1.0069282
0.1,0.0,0.9,0.0,0.0,0,-1.5639511,1.7128218,-1.0614092,-0.07551833,-0.16510507,1.5586131,-1.4144222,1.2227181,-1.0287931,0.773488,0.8766684,0.14836659,0.98652905,0.7228191
0.1,0.0,0.9,0.0,0.0,0,-1.5249145,1.8003821,-1.0735333,-0.09598875,-0.1398524,1.5631123,-1.5211143,1.2043874,-1.0297431,0.8222988,0.7619522,0.1813668,1.2037137,0.7795723
0.1,0.0,0.9,0.0,0.0,0,-1.5147787,1.6100916,-1.0741589,-0.18565269,-0.10052908,1.5272402,-1.6315378,1.1740453,-0.97325534,0.7487933,0.8855191,0.21136346,1.0616415,1.4701437
0.1,0.0,0.9,0.0,0.0,0,-1.4030964,1.5967523,-1.0853354,-0.08546309,-0.1152853,1.5406442,-1.5705386,1.1490322,-1.0428321,0.8332885,0.8767878,0.22648974,1.1770062,0.99202675
0.1,0.0,0.9,0.0,0.0,0,-1.4367008,1.7521087,-1.0777183,-0.11478221,-0.16361424,1.5371407,-1.4389393,1.2122453,-1.0279449,0.79140496,0.81489295,0.24066077,1.0930579,0.9642308
0.1,0.0,0.9,0.0,0.0,0,-1.5893283,1.6427492,-1.0569468,-0.110820405,-0.080713764,1.5594689,-1.4212267,1.2254956,-0.96993876,0.7628473,0.8954156,0.12649775,1.1443529,0.7157454
0.1,0.0,0.9,0.0,0.0,0,-1.4959441,1.5962646,-1.0682428,-0.14283714,-0.060393292,1.563971,-1.301424,1.1768299,-0.9843149,0.749564,0.86577266,0.26497218,1.0651923,1.0699258
0.1,0.0,0.9,0.0,0.0,0,-1.5139118,1.6380026,-1.0800807,-0.14268865,-0.114879094,1.5349041,-1.5610865,1.1566732,-1.0539612,0.843366,0.8342484,0.17865129,1.200579,0.79096454
0.1,0.0,0.9,0.0,0.0,0,-1.5518547,1.6816949,-1.0657624,-0.07471056,-0.13604234,1.542672,-1.5120583,1.1789895,-1.0631446,0.8055443,0.8664108,0.2495311,1.0166758,1.0793067
0.1,0.0,0.9,0.0,0.0,0,-1.5781438,1.6463087,-1.0713493,-0.09324208,-0.05755552,1.5236647,-1.8893229,1.2170784,-1.0380441,0.6918619,0.8525562,0.28400835,1.0727742,0.8608153
0.1,0.0,0.9,0.0,0.0,0,-1.4464657,1.5542004,-1.0568802,-0.123343326,-0.15275289,1.538357,-1.5546575,1.1893569,-1.0480151,0.6634656,0.9371571,0.29716024,1.1108364,1.1751753
0.1,0.0,0.9,0.0,0.0,0,-1.5910293,1.620582,-1.0580999,-0.09063259,-0.14741819,1.556552,-1.4073688,1.1842549,-1.0803225,0.77536243,0.8220438,0.30178142,1.1069071,0.5945689
0.1,0.0,0.9,0.0,0.0,0,-1.4878964,1.5239254,-1.083036,-0.14462022,-0.24326716,1.5466394,-1.5608205,1.1861326,-0.973693,0.78222924,0.8493842,0.20151085,1.1846291,0.83815813
0.1,0.0,0.9,0.0,0.0,0,-1.5939547,1.5678993,-1.0737413,-0.10350196,-0.11196631,1.5430024,-1.7097524,1.2585253,-0.99503046,0.83538103,0.8756584,0.2024989,0.9770466,0.78395003
0.1,0.0,0.9,0.0,0.0,0,-1.4695066,1.7018377,-1.0344439,-0.115079276,-0.19473101,1.5495002,-1.6795694,1.1719505,-0.9915155,0.69326323,0.914106,0.23158331,1.1434816,0.9368382
0.1,0.0,0.9,0.0,0.0,0,-1.4842904,1.6852129,-1.043501,-0.10434473,-0.14382863,1.5460148,-1.4660858,1.1505625,-1.0605141,0.78374535,0.8135503,0.19767947,1.158253,1.3111123
0.1,0.0,0.9,0.0,0.0,0,-1.5420997,1.6434242,-1.0433326,-0.11543948,-0.07244088,1.5325058,-1.8922907,1.1749948,-1.0112358,0.7782103,0.93593884,0.20143853,1.0577109,0.8611703
0.1,0.0,0.9,0.0,0.0,0,-1.4664192,1.7064657,-1.0612408,-0.10738004,-0.09728693,1.5320445,-1.3397552,1.2054942,-0.99393505,0.730564,0.830004,0.23946217,1.1680899,1.3830746
0.1,0.0,0.9,0.0,0.0,0,-1.4798903,1.6822883,-1.0789375,-0.17157434,-0.10289477,1.5433241,-1.475204,1.2528259,-1.0260489,0.7460233,0.87780267,0.18289468,1.024178,0.8301671
0.1,0.0,0.9,0.0,0.0,0,-1.5619557,1.6956351,-1.0878693,-0.122003436,-0.09343117,1.5334011,-1.3880111,1.1692805,-1.0419497,0.8192125,0.75792813,0.1873465,1.2250322,0.56348026
0.1,0.0,0.9,0.0,0.0,0,-1.5644344,1.6251209,-1.0577302,-0.095675096,-0.09401675,1.5347443,-1.6055446,1.2047353,-0.9935605,0.77016056,0.84248537,0.20617677,1.0297209,0.7917989
0.1,0.0,0.9,0.0,0.0,0,-1.5251505,1.6270878,-1.0485268,-0.118312,-0.123496026,1.5494494,-1.4426423,1.1894277,-0.9108763,0.7735524,0.8091022,0.17930779,1.1000285,0.96891075
0.1,0.0,0.9,0.0,0.0,0,-1.4477164,1.637145,-1.0387917,-0.09931153,-0.0996576,1.5361551,-1.4031686,1.1782396,-1.0117724,0.7874553,0.8667691,0.2149894,1.0089684,0.91264546
0.1,0.0,0.9,0.0,0.0,0,-1.5917423,1.7577003,-1.0840765,-0.0792989,-0.1277254,1.5376395,-1.3821071,1.2313782,-1.049883,0.7922938,0.83642226,0.176752,1.1583499,0.98182285
0.1,0.0,0.9,0.0,0.0,0,-1.4855403,1.6169032,-1.0565374,-0.096277036,-0.14393349,1.5516582,-1.538462,1.1823897,-1.0244144,0.8049398,0.8433481,0.15285037,1.1709857,1.3082888
0.1,0.0,0.9,0.0,0.0,0,-1.5610334,1.629894,-1.0527962,-0.085556895,-0.12466882,1.5400659,-1.6692793,1.1737212,-1.0056502,0.7727337,0.87775356,0.18046236,1.0893058,1.0240927
0.1,0.0,0.9,0.0,0.0,0,-1.5532258,1.6954622,-1.0560728,-0.16830657,-0.10038197,1.5559816,-1.7729876,1.2334995,-1.0143203,0.7226885,0.8810771,0.19389188,1.0124259,1.0844365
0.1,0.0,0.9,0.0,0.0,0,-1.4567231,1.681062,-1.0780766,-0.09973001,-0.15381701,1.5404937,-1.8071548,1.2116914,-1.0263081,0.7339725,0.92874885,0.22231176,1.0749682,1.2192681
0.1,0.0,0.9,0.0,0.0,0,-1.4654088,1.6046909,-1.0589352,-0.18238756,-0.13835399,1.5489106,-1.4346398,1.1416458,-0.98745066,0.7211979,0.9041767,0.22543617,1.1194644,0.78885883
0.1,0.0,0.9,0.0,0.0,0,-1.4203728,1.6330371,-1.0944704,-0.119399115,-0.14377359,1.5617048,-2.047625,1.1385694,-1.027173,0.8602572,0.87558514,0.1731512,1.2156433,1.3039411
0.1,0.0,0.9,0.0,0.0,0,-1.4714235,1.6909859,-1.0669096,-0.11511447,-0.07815415,1.560687,-1.550224,1.1850028,-1.0697715,0.72536325,0.8594766,0.21022001,1.1905417,0.68214095
0.1,0.0,0.9,0.0,0.0,0,-1.4436908,1.720008,-1.0815637,-0.09804296,-0.16497497,1.5547928,-1.8401358,1.1109409,-1.0269281,0.8478147,0.96256626,0.24322712,1.030359,1.0677066
0.1,0.0,0.9,0.0,0.0,0,-1.4490988,1.6597639,-1.0405151,-0.117572375,-0.13261686,1.5621551,-1.8718727,1.1579064,-0.9970564,0.8053706,0.8428146,0.22196563,1.1178906,1.0279542
0.1,0.0,0.9,0.0,0.0,0,-1.3790717,1.7308105,-1.0710261,-0.09692686,-0.10543302,1.5540707,-1.3537333,1.1933125,-0.99931985,0.8303224,0.9303025,0.20112987,0.95569074,1.1880585
0.1,0.0,0.9,0.0,0.0,0,-1.3743032,1.7324497,-1.0857679,-0.1025098,-0.18300511,1.5575466,-1.5601084,1.1588149,-1.0564107,0.764304,0.8666574,0.2599564,1.1410965,0.8542292
0.1,0.0,0.9,0.0,0.0,0,-1.4343202,1.6792015,-1.0624671,-0.09175278,-0.06967868,1.5515982,-1.6570706,1.2313278,-1.0104076,0.706048,0.85998774,0.23544306,1.1672114,0.96758825
0.1,0.0,0.9,0.0,0.0,0,-1.4538281,1.6461618,-1.080441,-0.06934786,-0.14653908,1.5545436,-1.4027836,1.1556156,-0.98842686,0.84220207,0.9258502,0.17382874,1.1535197,0.9730337
0.1,0.0,0.9,0.0,0.0,0,-1.4127835,1.7125969,-1.0932994,-0.10378373,-0.13094015,1.5563722,-1.7090329,1.1995475,-0.99413097,0.8078517,0.8696389,0.22795835,0.99577487,0.7685151
0.1,0.0,0.9,0.0,0.0,0,-1.3715594,1.7340837,-1.0862162,-0.107002735,-0.17686634,1.556532,-1.2428229,1.181481,-0.94318616,0.78631055,0.8212659,0.17911133,1.1309636,0.85439116
0.1,0.0,0.9,0.0,0.0,0,-1.5105401,1.5812752,-1.0634501,-0.11034776,-0.19892828,1.5388253,-1.4898324,1.1838712,-1.038038,0.77690923,0.8679093,0.27238965,1.0896499,1.0223391
0.1,0.0,0.9,0.0,0.0,0,-1.4332179,1.6663613,-1.0505137,-0.074406005,-0.12626769,1.5300128,-1.4763366,1.1376607,-1.0955547,0.8514259,0.81067264,0.23588917,1.1700726,0.797918
0.1,0.0,0.9,0.0,0.0,0,-1.4214909,1.7482136,-1.0633564,-0.089943096,-0.13553844,1.5552102,-1.6882952,1.2004215,-0.998376,0.7071069,0.98978007,0.21637054,1.0077524,0.5893806
0.1,0.0,0.9,0.0,0.0,0,-1.416262,1.6774912,-1.0477523,-0.08468731,-0.10206319,1.5462039,-2.0763602,1.1687711,-1.0536631,0.8318397,0.852642,0.26192734,1.1292797,1.1720525
0.1,0.0,0.9,0.0,0.0,0,-1.4828709,1.5673394,-1.0965481,-0.13500601,-0.15624878,1.5577793,-1.3357661,1.1337628,-0.96019125,0.8461063,0.8122082,0.25121522,1.0323678,0.86340785
0.1,0.0,0.9,0.0,0.0,0,-1.3609349,1.6686038,-1.0640109,-0.15628353,-0.10806466,1.5484236,-1.389604,1.2078145,-0.9096158,0.7770686,0.88821656,0.18495937,0.9466822,1.1873826
0.1,0.0,0.9,0.0,0.0,0,-1.4454685,1.632032,-1.0804586,-0.10088113,-0.16122046,1.5506212,-1.3658024,1.170967,-0.9656289,0.8218551,0.8568532,0.22628951,0.99859697,0.96348786
0.1,0.0,0.9,0.0,0.0,0,-1.4561427,1.632787,-1.0680636,-0.09788497,-0.13313022,1.5589818,-1.355815,1.1729486,-1.0544683,0.7376269,0.8584429,0.30056262,1.0920902,0.90531904
0.1,0.0,0.9,0.0,0.0,0,-1.4364564,1.5893959,-1.0649302,-0.09718778,-0.18080746,1.5635561,-1.5133786,1.1459954,-1.0377699,0.876171,0.92013043,0.23084469,1.0913315,1.0267577
0.1,0.0,0.9,0.0,0.0,0,-1.5216168,1.6871142,-1.0753732,-0.11996675,-0.09428201,1.5513207,-1.3004274,1.205562,-1.0353454,0.83147347,0.85807145,0.18372323,1.1252067,1.1086684
0.1,0.0,0.9,0.0,0.0,0,-1.5867335,1.5912352,-1.0623013,-0.05710224,-0.12751591,1.567931,-1.4810455,1.2185929,-1.0440246,0.7043643,0.8572834,0.20254734,1.1316612,0.8299315
0.1,0.0,0.9,0.0,0.0,0,-1.3971045,1.6781408,-1.08002,-0.13169546,-0.12723504,1.5629474,-1.6470802,1.1736058,-1.0061718,0.8302828,0.8273136,0.20469086,1.1472996,0.7712392
0.1,0.0,0.9,0.0,0.0,0,-1.4163234,1.6446489,-1.0535369,-0.16984123,-0.116414666,1.5350127,-1.5248406,1.2094817,-0.933665,0.74790585,0.8888857,0.17823014,1.1322626,0.99873936
0.1,0.0,0.9,0.0,0.0,0,-1.50985,1.6125453,-1.0756196,-0.09134504,-0.1575604,1.5453157,-1.6466088,1.2203114,-1.0770979,0.896295,0.8224591,0.19009265,1.0438042,0.9948686
0.1,0.0,0.9,0.0,0.0,0,-1.4253725,1.70841,-1.0706946,-0.09968551,-0.16873454,1.5559433,-1.4357591,1.2187232,-0.99492013,0.7487423,0.86443967,0.30292976,0.92279476,0.8623791
0.1,0.0,0.9,0.0,0.0,0,-1.4091988,1.7031051,-1.0606211,-0.096095726,-0.14985593,1.5357634,-1.4821657,1.1682109,-1.0156089,0.85451114,0.87358564,0.26154843,0.9769653,0.8304347
0.1,0.0,0.9,0.0,0.0,0,-1.5020773,1.6105751,-1.0870304,-0.15144642,-0.12024918,1.5560644,-1.5896314,1.1874206,-1.0066556,0.73280835,0.89983475,0.274829,1.0734619,0.7110769
0.1,0.0,0.9,0.0,0.0,0,-1.4467335,1.5985712,-1.0776327,-0.124308065,-0.14017011,1.5451157,-1.4104313,1.1813978,-1.073361,0.8210898,0.90562946,0.2403466,1.0638156,0.67688096
0.1,0.0,0.9,0.0,0.0,0,-1.6270987,1.6426232,-1.0628165,-0.10754087,-0.12644197,1.5400512,-1.6180781,1.2025536,-0.9682162,0.7332486,0.83156776,0.1867046,0.9631697,0.8990912
0.1,0.0,0.9,0.0,0.0,0,-1.547033,1.6699581,-1.05698,-0.11418299,-0.14282693,1.5637908,-1.2471355,1.1770408,-1.0075773,0.8390059,0.8121289,0.20944522,1.0374035,0.7770242
0.1,0.0,0.9,0.0,0.0,0,-1.5987217,1.6280116,-1.0485445,-0.0951926,-0.080068946,1.5194025,-1.2541686,1.1663942,-0.9347571,0.7601315,0.8825166,0.22638433,0.97858196,0.90666914
0.1,0.0,0.9,0.0,0.0,0,-1.5108281,1.6955352,-1.0623814,-0.22715305,-0.099661805,1.5484911,-1.7222079,1.183355,-0.97793096,0.8095418,0.8080809,0.21628313,0.9482523,0.93920624
0.1,0.0,0.9,0.0,0.0,0,-1.4204937,1.6699395,-1.0556327,-0.086816356,-0.10564635,1.5519359,-1.7943442,1.2754266,-1.0075959,0.74815506,0.99256015,0.17365773,1.1130255,0.98278165
0.1,0.0,0.9,0.0,0.0,0,-1.4596802,1.6735141,-1.0806549,-0.10312059,-0.102028385,1.5650468,-1.6077102,1.1227071,-0.9824114,0.7502721,0.8241777,0.22451288,1.1171255,0.6651938
0.1,0.0,0.9,0.0,0.0,0,-1.4983069,1.5554625,-1.0958444,-0.12051894,-0.1447411,1.5304383,-1.6754785,1.1649834,-1.0192597,0.7732699,0.88461626,0.1803953,1.0987736,1.0233859
0.1,0.0,0.9,0.0,0.0,0,-1.5266001,1.6672729,-1.0714489,-0.08777483,-0.11590451,1.5626944,-1.6333169,1.1960996,-1.0065684,0.8793921,0.79399043,0.19777498,1.0401027,1.2011504
0.1,0.0,0.9,0.0,0.0,0,-1.4472737,1.6344118,-1.0567033,-0.09502904,-0.10982187,1.5526348,-1.4078659,1.1618634,-0.9043053,0.767177,0.8607756,0.22640142,1.0705812,0.85324836
0.1,0.0,0.9,0.0,0.0,0,-1.6083703,1.625356,-1.0706841,-0.08887675,-0.12106909,1.5423487,-1.5327089,1.2087036,-1.0454971,0.7734925,0.8174274,0.2216594,1.0984124,0.9703158
0.1,0.0,0.9,0.0,0.0,0,-1.4556491,1.6796503,-1.0712539,-0.08615279,-0.13004056,1.5500005,-1.3774806,1.1745272,-1.0021409,0.7498879,0.85710645,0.23185833,1.0773115,0.959819
0.1,0.0,0.9,0.0,0.0,0,-1.4366516,1.6750318,-1.0820185,-0.14576015,-0.13552086,1.56966,-1.0810605,1.1675808,-0.9890693,0.7395753,0.8992479,0.2526127,1.0687152,1.1625644
0.1,0.0,0.9,0.0,0.0,0,-1.4688823,1.6290258,-1.0574886,-0.098755084,-0.20523062,1.539781,-1.7540979,1.1729798,-1.0189122,0.78622353,0.8500389,0.18822376,1.1891623,1.0564637
0.1,0.0,0.9,0.0,0.0,0,-1.4604268,1.590556,-1.0176057,-0.12242619,-0.13086867,1.5381067,-1.5079051,1.1968423,-1.0112346,0.72505254,0.90890485,0.20074445,1.0734235,0.692793
0.1,0.0,0.9,0.0,0.0,0,-1.540987,1.5835735,-1.0582132,-0.07811709,-0.11819851,1.5647871,-1.6444213,1.1939303,-0.98645854,0.76991814,0.89786375,0.13699265,1.1254418,1.063706
0.1,0.0,0.9,0.0,0.0,0,-1.5698932,1.5849421,-1.0656066,-0.12127044,-0.119571105,1.5361485,-1.8795397,1.2319828,-1.0276947,0.7987577,0.9361414,0.10907334,1.0873574,1.300444
0.1,0.0,0.9,0.0,0.0,0,-1.5278083,1.6545507,-1.0852624,-0.0821824,-0.074815296,1.5540868,-1.6797335,1.2410543,-0.97233766,0.64073807,0.8846536,0.2381584,1.0530896,0.5471877
0.1,0.0,0.9,0.0,0.0,0,-1.4403319,1.6533117,-1.0510554,-0.14442487,-0.065975234,1.5667031,-1.8041377,1.2313058,-0.9839003,0.78070253,0.86811906,0.13529754,0.9319732,1.0174574
0.1,0.0,0.9,0.0,0.0,0,-1.4264992,1.6628097,-1.0511012,-0.11611257,-0.14324178,1.5291651,-1.5845399,1.2076657,-0.95469415,0.7238468,0.85539716,0.1600613,1.2156571,0.9545087
0.1,0.0,0.9,0.0,0.0,0,-1.464998,1.6389503,-1.0692914,-0.13769306,-0.12666926,1.5636215,-1.7009768,1.2129997,-0.97133046,0.64986265,0.9240082,0.19881235,1.0580266,0.78585845
0.1,0.0,0.9,0.0,0.0,0,-1.6065675,1.6452358,-1.0682279,-0.13254684,-0.10758443,1.5392041,-1.5607831,1.1206182,-0.9862737,0.7499036,0.84533435,0.19778293,1.1891459,1.1488986
0.1,0.0,0.9,0.0,0.0,0,-1.6357287,1.6186882,-1.070895,-0.085400574,-0.1601433,1.5569298,-1.4849416,1.2204058,-1.0048708,0.7020646,0.81963915,0.17803517,1.1839617,1.1470497
0.1,0.0,0.9,0.0,0.0,0,-1.5585588,1.6506461,-1.0247575,-0.11432083,-0.13354869,1.541338,-1.3773209,1.1802324,-1.0162809,0.783477,0.82572967,0.20036134,1.1892661,1.0768762
0.1,0.0,0.9,0.0,0.0,0,-1.6077588,1.5776113,-1.0451605,-0.11543334,-0.068913996,1.5398177,-1.7886403,1.2059078,-0.9739099,0.797459,0.8925859,0.18992053,1.0202543,1.1993201
0.1,0.0,0.9,0.0,0.0,0,-1.3287933,1.75839,-1.0851061,-0.100970685,-0.03273242,1.5319434,-1.2213744,1.1812456,-1.0296801,0.78640985,0.9153347,0.25720376,1.0531088,0.9781052
0.1,0.0,0.9,0.0,0.0,0,-1.6026962,1.6732476,-1.0583158,-0.11360782,-0.12350832,1.5579941,-1.3857529,1.1456736,-0.9581089,0.7619201,0.8571134,0.11958158,1.1793228,1.0371028
0.1,0.0,0.9,0.0,0.0,0,-1.3202355,1.8105817,-1.0620767,-0.11447881,-0.119938225,1.5572174,-1.453014,1.2593534,-1.0092304,0.7487371,0.8402112,0.24880737,1.0815418,0.9869683
0.1,0.0,0.9,0.0,0.0,0,-1.6960207,1.7247232,-1.0508734,-0.12737204,-0.12273812,1.5464233,-1.6863568,1.1857097,-0.9669368,0.76676065,0.87313485,0.19894949,1.087695,0.72407603
0.1,0.0,0.9,0.0,0.0,0,-1.6313952,1.6737266,-1.0725248,-0.093604684,-0.12753396,1.5389256,-1.8326597,1.2404048,-1.017903,0.74901766,0.87681085,0.26203892,1.0286888,1.2781035
0.1,0.0,0.9,0.0,0.0,0,-1.6902539,1.6969022,-1.0572311,-0.08251225,-0.109099515,1.531921,-1.726582,1.170111,-0.9625654,0.75755775,0.846388,0.24663512,1.0551875,0.67125905
0.1,0.0,0.9,0.0,0.0,0,-1.6309109,1.6567436,-1.0986598,-0.10045264,-0.050642524,1.5484151,-1.5762196,1.2212708,-1.0054085,0.88130367,0.7901756,0.24015002,1.0680704,1.127232
0.1,0.0,0.9,0.0,0.0,0,-1.6516752,1.7799963,-1.0725778,-0.09177513,-0.13976347,1.531366,-1.4687213,1.2289475,-1.0718223,0.79224944,0.8403637,0.12994643,1.0987734,0.8545836
0.1,0.0,0.9,0.0,0.0,0,-1.6033633,1.7133968,-1.082155,-0.10615103,-0.106034264,1.5366452,-1.6322043,1.1539934,-1.0579547,0.7068663,0.9353413,0.23249881,1.2415981,1.2551425
0.1,0.0,0.9,0.0,0.0,0,-1.6687616,1.745527,-1.0508794,-0.075449035,-0.08775988,1.5427397,-1.7340827,1.1493615,-0.97913957,0.8775749,0.7457601,0.2997455,1.0739576,0.9074983
0.1,0.0,0.9,0.0,0.0,0,-1.6955014,1.670511,-1.0613639,-0.12000358,-0.114586204,1.5666353,-1.8025292,1.1711283,-1.0553802,0.7978564,0.8667058,0.20861337,1.092551,1.2431673
0.1,0.0,0.9,0.0,0.0,0,-1.5439075,1.711887,-1.1082033,-0.07279072,-0.13626163,1.5357444,-1.439081,1.2371701,-0.94501984,0.8602121,0.76438385,0.16265741,1.0915157,0.81457174
0.1,0.0,0.9,0.0,0.0,0,-1.5639349,1.7036773,-1.0415177,-0.08026779,-0.13753916,1.5563871,-1.8730786,1.189477,-1.0329987,0.81712025,0.75206447,0.236816,1.1881683,1.0055721
0.1,0.0,0.9,0.0,0.0,0,-1.6719056,1.6683798,-1.0433306,-0.10189551,-0.17530352,1.5549899,-1.6081071,1.1417319,-1.0368052,0.77450395,0.82631963,0.19360687,1.2506412,0.57826525
0.1,0.0,0.9,0.0,0.0,0,-1.7501804,1.6316899,-1.0625899,-0.061709266,-0.055580147,1.5486236,-1.5977525,1.1761009,-0.990209,0.7022632,0.8947382,0.2545249,1.113024,0.8013093
0.1,0.0,0.9,0.0,0.0,0,-1.663532,1.642533,-1.043284,-0.107823476,-0.07903577,1.5624928,-1.7658199,1.1798418,-1.001736,0.9127663,0.8527959,0.18590513,1.096371,1.0172232
0.1,0.0,0.9,0.0,0.0,0,-1.5903156,1.7053764,-1.062932,-0.094394885,-0.15493657,1.5556233,-1.6244756,1.1677392,-0.98063374,0.7400958,0.88692945,0.21943288,1.1690311,0.9274169
0.1,0.0,0.9,0.0,0.0,0,-1.6028,1.6507292,-1.0597429,-0.08770889,-0.13596784,1.5285791,-1.8842206,1.1791202,-1.0281925,0.76734394,0.82404244,0.17677042,1.0888085,0.9470049
0.1,0.0,0.9,0.0,0.0,0,-1.5738957,1.7227093,-1.0641387,-0.10923778,-0.16401847,1.5432397,-1.620758,1.2248998,-1.0342662,0.74743855,0.9129483,0.21448915,1.0074255,0.33257005
0.1,0.0,0.9,0.0,0.0,0,-1.604777,1.7414882,-1.0699272,-0.09913675,-0.11713514,1.5651562,-1.6571051,1.1971543,-0.9765809,0.7691296,0.8430318,0.24227883,1.0034302,1.2943969
0.1,0.0,0.9,0.0,0.0,0,-1.5794457,1.7624078,-1.054859,-0.060036942,-0.10519433,1.5391312,-1.5579138,1.2251158,-1.0396267,0.8001947,0.896875,0.17841686,1.0125334,1.1279247
0.1,0.0,0.9,0.0,0.0,0,-1.5815067,1.7622889,-1.0649593,-0.11111722,-0.09824708,1.5500581,-1.8408775,1.1420871,-0.97993773,0.7006698,0.8662063,0.21592684,1.256368,1.3502845
0.1,0.0,0.9,0.0,0.0,0,-1.6172123,1.6650561,-1.0537437,-0.07728865,-0.10194855,1.5446469,-1.3604826,1.204266,-0.98744357,0.7524798,0.89589,0.26388,0.9335991,1.0271947
0.1,0.0,0.9,0.0,0.0,0,-1.6168846,1.7284527,-1.0950998,-0.10594314,-0.122583844,1.5491194,-1.9371635,1.1823292,-0.9210913,0.82051957,0.830183,0.1789398,1.1213765,1.264204
0.1,0.0,0.9,0.0,0.0,0,-1.5036982,1.7058821,-1.108283,-0.09877871,-0.060438406,1.5540471,-1.6313944,1.2050695,-1.0359651,0.86868507,0.88825166,0.19133835,1.0892705,0.8782826
0.1,0.0,0.9,0.0,0.0,0,-1.6331937,1.695633,-1.0752531,-0.08639548,-0.16566248,1.5454674,-1.2790624,1.1718017,-0.98135316,0.8133687,0.8466308,0.13679878,1.0647799,0.7954208
0.1,0.0,0.9,0.0,0.0,0,-1.7150671,1.6886744,-1.0846407,-0.10061635,-0.13714404,1.536183,-1.4058444,1.2064736,-1.1193084,0.8506829,0.8559092,0.25661305,1.0098268,0.74789
0.1,0.0,0.9,0.0,0.0,0,-1.6491971,1.6783266,-1.0592213,-0.14514004,-0.13994956,1.5660084,-1.2214775,1.1802189,-0.98432046,0.7948668,0.8520535,0.28660202,1.001624,1.071023
0.1,0.0,0.9,0.0,0.0,0,-1.6164417,1.7109704,-1.0830185,-0.120705955,-0.1763845,1.5622188,-1.6990607,1.1611278,-1.0086114,0.7528571,0.87618464,0.16351087,1.0319011,0.91571146
0.1,0.0,0.9,0.0,0.0,0,-1.6071414,1.6676843,-1.0538217,-0.09069678,-0.09584982,1.5413123,-1.8600082,1.1456357,-1.0829699,0.8297474,0.890298,0.2365797,1.0885394,0.98572385
0.1,0.0,0.9,0.0,0.0,0,-1.5918736,1.6311398,-1.1020035,-0.088108614,-0.101606876,1.5568103,-1.375752,1.1256607,-1.0271939,0.8442432,0.77867216,0.27823305,1.1458852,0.7555749
0.1,0.0,0.9,0.0,0.0,0,-1.5301893,1.6344448,-1.0816667,-0.10138361,-0.11484872,1.5453486,-1.4396421,1.0913224,-0.96183145,0.78300595,0.917105,0.3113409,1.017516,1.0352048
0.1,0.0,0.9,0.0,0.0,0,-1.6112282,1.7074481,-1.0701368,-0.14505559,-0.06536134,1.5623289,-1.8976127,1.2136561,-1.0353105,0.6962054,0.81058073,0.27714115,1.1243557,0.82843196
0.1,0.0,0.9,0.0,0.0,0,-1.6755033,1.6372398,-1.0388874,-0.088299066,-0.1736091,1.5421225,-1.4562278,1.215162,-1.0427071,0.76166046,0.9866876,0.2522045,0.96236193,0.9659324
0.1,0.0,0.9,0.0,0.0,0,-1.5145439,1.7881882,-1.0883845,-0.10467107,-0.13628843,1.5536121,-1.6895368,1.125495,-1.0280236,0.7436141,0.8340891,0.27126536,1.1121905,0.90015745
0.1,0.0,0.9,0.0,0.0,0,-1.5964277,1.6878399,-1.0513835,-0.10359887,-0.09553516,1.5559393,-1.5350324,1.1614738,-1.0225972,0.8348336,0.84721935,0.25845048,1.0462595,0.7098134
0.1,0.0,0.9,0.0,0.0,0,-1.612694,1.7282634,-1.0767174,-0.105781674,-0.1531385,1.5392494,-1.8700706,1.1963109,-0.99965566,0.78706294,0.9042863,0.23684841,0.99332064,1.0186044
0.1,0.0,0.9,0.0,0.0,0,-1.5526147,1.7486197,-1.0481682,-0.11269069,-0.11531812,1.5348558,-2.1363175,1.2434264,-0.98612374,0.6376321,0.9445631,0.26866987,1.1042147,0.7470915
0.1,0.0,0.9,0.0,0.0,0,-1.5771369,1.703624,-1.073682,-0.11464569,-0.08771769,1.5422369,-1.27933,1.15859,-1.0200691,0.7777589,0.8353148,0.19879046,1.1158473,0.51771516
0.1,0.0,0.9,0.0,0.0,0,-1.6013434,1.6885151,-1.055478,-0.121668205,-0.14691325,1.5587007,-1.3927081,1.2192594,-1.0784211,0.7245293,0.8938957,0.1823531,1.0412755,0.8927667
0.1,0.0,0.9,0.0,0.0,0,-1.5630478,1.651202,-1.077157,-0.12415718,-0.12373433,1.5455085,-1.4154507,1.2000141,-0.99367005,0.8346621,0.7933043,0.2619553,1.0336899,1.3378016
0.1,0.0,0.9,0.0,0.0,0,-1.6426371,1.628655,-1.0842835,-0.10535603,-0.15016758,1.5434572,-1.3849771,1.1633252,-0.9706121,0.7540919,0.8714309,0.22967573,1.1323729,0.91124874
0.1,0.0,0.9,0.0,0.0,0,-1.5590371,1.6917926,-1.0612146,-0.119748324,-0.075808056,1.5684519,-1.1635551,1.1520612,-1.0875206,0.783755,0.83240694,0.21289565,1.1846476,0.90994936
0.1,0.0,0.9,0.0,0.0,0,-1.5070457,1.6215967,-1.0523494,-0.14927123,-0.11438713,1.5477135,-1.8412291,1.2193846,-1.0134488,0.8697416,0.84284526,0.17424463,1.0759773,0.95411247
0.1,0.0,0.9,0.0,0.0,0,-1.5841312,1.4622983,-1.0596819,-0.11032645,-0.12339193,1.5447894,-1.6047302,1.2279752,-1.0657829,0.8310516,0.9053399,0.2545371,0.9180523,0.8928948
0.1,0.0,0.9,0.0,0.0,0,-1.4672086,1.7713367,-1.070838,-0.089975394,-0.14049819,1.5573941,-1.4458734,1.159478,-0.9743617,0.7580083,0.8762087,0.22493514,1.1199105,1.0969689
0.1,0.0,0.9,0.0,0.0,0,-1.6314088,1.6603997,-1.0359874,-0.1416934,-0.108628064,1.5465711,-1.4707537,1.1449552,-1.0371456,0.83381987,0.8024415,0.14361544,1.1288329,0.8808288
0.1,0.0,0.9,0.0,0.0,0,-1.595563,1.6913879,-1.0788192,-0.11927493,-0.10775057,1.552431,-1.563988,1.2112987,-1.019491,0.6813119,0.8885487,0.2862303,1.0667031,0.5455309
0.1,0.0,0.9,0.0,0.0,0,-1.6026671,1.7033337,-1.0793809,-0.12929654,-0.11679463,1.5499785,-1.3181779,1.1693466,-1.0163597,0.7795339,0.89764625,0.27347678,0.9519986,0.9053213
0.1,0.0,0.9,0.0,0.0,0,-1.5655593,1.6640114,-1.0737413,-0.15827543,-0.093856014,1.5567962,-1.5002582,1.2222998,-0.999918,0.7368336,0.8381161,0.20574206,1.0025197,1.2942533
0.1,0.0,0.9,0.0,0.0,0,-1.5912268,1.6530551,-1.0771742,-0.069642626,-0.13829084,1.5555736,-1.4357668,1.2116188,-1.024685,0.654098,0.91822577,0.23578006,1.0592234,1.2940702
0.1,0.0,0.9,0.0,0.0,0,-1.6070071,1.6433275,-1.0713459,-0.11483446,-0.12642135,1.5473572,-1.743119,1.1814703,-1.0418576,0.78559893,0.8789765,0.2671068,1.0628259,0.79464936
0.1,0.0,0.9,0.0,0.0,0,-1.6082046,1.6845249,-1.0766267,-0.115024224,-0.056827724,1.5526556,-1.3462577,1.2121668,-1.0307876,0.8243508,0.9215284,0.22519879,0.90770596,1.610183
0.1,0.0,0.9,0.0,0.0,0,-1.5737625,1.637071,-1.0509655,-0.102662615,-0.13710079,1.5430632,-1.461401,1.1459094,-0.9959953,0.77997726,0.9421937,0.31419685,0.99349034,1.0757438
0.1,0.0,0.9,0.0,0.0,0,-1.5585704,1.7787447,-1.0627171,-0.1196769,-0.0739706,1.5532432,-1.5249021,1.1914728,-1.0366349,0.82639086,0.8311219,0.22483319,1.0427865,0.7420362
0.1,0.0,0.9,0.0,0.0,0,-1.5354965,1.6626879,-1.0583955,-0.079072595,-0.093516685,1.5335829,-1.6465908,1.2257885,-1.0064499,0.7812531,0.80597126,0.22180755,1.1075627,1.0482922
0.1,0.0,0.9,0.0,0.0,0,-1.567463,1.7296792,-1.0463694,-0.08016932,-0.13924402,1.5548627,-1.6962686,1.1935563,-1.0296338,0.7555871,0.77080053,0.22748609,1.2442502,0.8061518
0.1,0.0,0.9,0.0,0.0,0,-1.6010207,1.6911298,-1.0726488,-0.103548236,-0.11264503,1.553465,-1.4007107,1.2229116,-0.9555059,0.764493,0.86471814,0.17340755,1.0807768,1.0731703
0.1,0.0,0.9,0.0,0.0,0,-1.4728315,1.7434992,-1.050621,-0.09123879,-0.13763155,1.555017,-1.7544886,1.215506,-1.0314171,0.801586,0.87343,0.20715292,1.1685088,1.0862132
0.1,0.0,0.9,0.0,0.0,0,-1.5746669,1.4396671,-1.0820229,-0.10125324,-0.13535455,1.5525403,-1.4871963,1.2471936,-1.0674973,0.7082895,0.9202968,0.22665645,1.112654,1.0672264
0.1,0.0,0.9,0.0,0.0,0,-1.6843303,1.6341096,-1.0750432,-0.09480696,-0.14699106,1.5362728,-1.5455668,1.1713575,-0.985802,0.85526603,0.8726645,0.16962586,1.035153,0.72861975
0.1,0.0,0.9,0.0,0.0,0,-1.6484233,1.6872736,-1.0749048,-0.12323272,-0.05010374,1.5495857,-1.6270837,1.224667,-0.9933668,0.73494524,0.8463692,0.24533017,1.0180147,1.0344898
0.1,0.0,0.9,0.0,0.0,0,-1.5136285,1.6623411,-1.0552642,-0.09558968,-0.041862424,1.5614866,-1.7369944,1.1643667,-0.9337605,0.7012476,0.82565206,0.24628514,1.2081447,0.91807204
0.1,0.0,0.9,0.0,0.0,0,-1.698092,1.5921713,-1.0794287,-0.08019266,-0.10493889,1.5497608,-1.3950113,1.2374551,-0.9277125,0.72520715,0.8913155,0.13533239,1.076897,0.89361924
0.1,0.0,0.9,0.0,0.0,0,-1.529721,1.5966077,-1.0763122,-0.09650075,-0.07613038,1.5351416,-1.5525513,1.1891595,-1.058989,0.76135373,0.89449424,0.2650443,0.9442561,0.71345127
0.1,0.0,0.9,0.0,0.0,0,-1.4196811,1.7143475,-1.078234,-0.07603681,-0.15710776,1.558607,-1.4142065,1.189207,-1.0023644,0.7869258,0.9230981,0.23801519,1.1662399,1.2942187
0.1,0.0,0.9,0.0,0.0,0,-1.5594637,1.6892364,-1.0575781,-0.13210087,-0.09283286,1.5404663,-1.8365784,1.1564416,-1.0360153,0.7544004,0.9185616,0.2547439,1.0200474,0.7872148
0.1,0.0,0.9,0.0,0.0,0,-1.5719867,1.4833567,-1.0663494,-0.0671406,-0.15517627,1.5489954,-1.8546299,1.1637444,-0.9843646,0.8176599,0.84166986,0.20073467,1.1833633,0.93690115
0.1,0.0,0.9,0.0,0.0,0,-1.4873161,1.6949049,-1.0486656,-0.05838557,-0.17797081,1.536082,-1.4889123,1.1351442,-0.9520996,0.7569002,0.9379372,0.27925467,1.0613849,0.7776977
0.1,0.0,0.9,0.0,0.0,0,-1.5922908,1.6546086,-1.0551783,-0.10640422,-0.14641868,1.5533096,-1.8867362,1.1531587,-1.0417136,0.78059393,0.81199265,0.18516198,1.066397,1.1154538
0.1,0.0,0.9,0.0,0.0,0,-1.4850671,1.6421862,-1.043612,-0.08687342,-0.06424568,1.5330266,-1.4856428,1.2096725,-0.9357475,0.6908377,0.8512232,0.22061338,1.1722296,0.9609065
0.1,0.0,0.9,0.0,0.0,0,-1.5776657,1.630757,-1.0710704,-0.15026361,-0.10928684,1.545237,-1.5887676,1.2004756,-1.0985773,0.8351179,0.8165571,0.2514579,1.0655824,1.1251057
0.1,0.0,0.9,0.0,0.0,0,-1.5356752,1.5930481,-1.0703709,-0.10135654,-0.17769991,1.5497028,-1.4130532,1.184395,-1.0087352,0.81395227,0.8513195,0.25918108,1.0192995,0.91617817
0.1,0.0,0.9,0.0,0.0,0,-1.5473969,1.6518164,-1.0742961,-0.091270134,-0.10318497,1.5474688,-1.7746133,1.1841317,-1.0272659,0.73668367,0.8861264,0.21708748,1.114185,0.876788
0.1,0.0,0.9,0.0,0.0,0,-1.5235976,1.69683,-1.0701776,-0.108460516,-0.05515751,1.5634991,-1.2869718,1.1786084,-0.98969686,0.7333116,0.8705493,0.26398036,1.0902847,0.90365803
0.1,0.0,0.9,0.0,0.0,0,-1.4908184,1.667236,-1.0752666,-0.11559714,-0.10621691,1.5590152,-1.7317256,1.2031703,-1.0157598,0.78353876,0.8456931,0.22084896,1.1269819,1.0200733
0.1,0.0,0.9,0.0,0.0,0,-1.5665385,1.6638896,-1.0804962,-0.09364959,-0.057889268,1.5328289,-1.3266442,1.1344697,-0.97698843,0.8716193,0.8416644,0.17755365,1.0283368,0.94842875
0.1,0.0,0.9,0.0,0.0,0,-1.520109,1.6456122,-1.0804627,-0.052305605,-0.16382816,1.54785,-1.73626,1.2044836,-1.0989484,0.85010266,0.8797827,0.2593626,1.0514343,1.0782151
0.1,0.0,0.9,0.0,0.0,0,-1.5481228,1.6673101,-1.061942,-0.09043493,-0.1379288,1.541686,-1.3124644,1.2230371,-0.9571636,0.8260214,0.82442284,0.2164243,1.0330093,0.8118056
0.1,0.0,0.9,0.0,0.0,0,-1.5115124,1.6970637,-1.04922,-0.09285224,-0.16161822,1.5406092,-1.4393266,1.1777743,-0.93303204,0.79342276,0.876117,0.15374984,1.1273675,1.100449
0.1,0.0,0.9,0.0,0.0,0,-1.5545324,1.4729397,-1.0940982,-0.12262312,-0.08725871,1.5614367,-1.4197708,1.1641252,-1.0850977,0.84268117,0.90576154,0.22690935,0.9945882,1.0545183
0.1,0.0,0.9,0.0,0.0,0,-1.6056782,1.6175449,-1.0598781,-0.08815604,-0.13331956,1.5368834,-1.7021183,1.1842958,-1.0188942,0.80577934,0.8078669,0.24036567,1.1101305,0.8533163
0.1,0.0,0.9,0.0,0.0,0,-1.5087156,1.7092154,-1.0695889,-0.101658076,-0.15779895,1.5365031,-1.6884228,1.217178,-1.0094378,0.8153253,0.8058612,0.2850531,1.0140857,1.1110519
0.1,0.0,0.9,0.0,0.0,0,-1.5165136,1.6816616,-1.0446838,-0.10970883,-0.101268426,1.5365053,-1.498916,1.1481999,-1.0390844,0.8706771,0.8667194,0.22053526,1.0612184,1.0091076
0.1,0.0,0.9,0.0,0.0,0,-1.5368041,1.7140801,-1.0815271,-0.12498656,-0.08949332,1.5623156,-1.2051668,1.2567922,-0.97194135,0.73581266,0.8579271,0.16564196,1.0752703,1.0878807
0.1,0.0,0.9,0.0,0.0,0,-1.5922588,1.6274769,-1.0864313,-0.062278215,-0.16778699,1.5373735,-1.4053956,1.2289546,-1.010989,0.68225807,0.8497645,0.21752134,1.0944418,0.8747912
0.1,0.0,0.9,0.0,0.0,0,-1.6305996,1.7272614,-1.0731744,-0.08044659,-0.16318214,1.5454029,-1.4871162,1.1790897,-0.9960423,0.8257797,0.7890159,0.1623074,1.1424206,1.0141085
0.1,0.0,0.9,0.0,0.0,0,-1.437071,1.8066214,-1.0517005,-0.10818324,-0.123535894,1.5641136,-1.6118422,1.1759146,-0.99224746,0.7317212,0.9081121,0.21120079,1.1755184,0.70108414
0.1,0.0,0.9,0.0,0.0,0,-1.5162284,1.7951591,-1.0629382,-0.075698204,-0.098933995,1.5418456,-1.5659575,1.2220281,-1.0393555,0.8654431,0.8378824,0.21594785,1.0217222,1.2833997
0.1,0.0,0.9,0.0,0.0,0,-1.6933656,1.7133412,-1.0586231,-0.14108889,-0.14077255,1.5476867,-1.5025401,1.1852105,-1.0680208,0.6643943,0.9435648,0.17999786,1.2184473,0.99717647
0.1,0.0,0.9,0.0,0.0,0,-1.5211879,1.6213722,-1.0653456,-0.14227755,-0.08551873,1.5500995,-1.6591184,1.2930126,-1.0976179,0.81140107,0.870259,0.15592262,0.94783854,0.76363015
0.1,0.0,0.9,0.0,0.0,0,-1.4793551,1.622602,-1.0756886,-0.08137102,-0.15407993,1.5444982,-1.781394,1.2048411,-1.0184277,0.75169796,0.8448448,0.16474284,1.1488649,0.815472
0.1,0.0,0.9,0.0,0.0,0,-1.5032347,1.5801388,-1.0743927,-0.11591317,-0.114966586,1.543556,-1.2937762,1.2154298,-0.97642773,0.87224287,0.91073364,0.16122882,1.0515876,1.1130098
0.1,0.0,0.9,0.0,0.0,0,-1.5358715,1.627382,-1.0496486,-0.117530644,-0.17670308,1.5492545,-1.7594401,1.1630937,-0.99167705,0.5918182,0.8969142,0.24221835,1.1874608,0.83445644
0.1,0.0,0.9,0.0,0.0,0,-1.519017,1.6464024,-1.0669653,-0.07933672,-0.09634635,1.559031,-1.2085799,1.2902453,-1.0091474,0.7504824,0.9160402,0.21681884,1.0498971,1.3880469
0.1,0.0,0.9,0.0,0.0,0,-1.5511247,1.670971,-1.0623723,-0.13145629,-0.06283136,1.5641589,-1.4019494,1.1567515,-0.9769461,0.76911765,0.861871,0.15453917,1.0677503,0.73828274
0.1,0.0,0.9,0.0,0.0,0,-1.4788055,1.6587607,-1.0708146,-0.12749624,-0.16968115,1.5648658,-1.7032039,1.1653824,-1.0591681,0.88630366,0.85309565,0.22445989,1.0279,1.1518358
0.1,0.0,0.9,0.0,0.0,0,-1.5331081,1.6656481,-1.0516311,-0.06323512,-0.14997584,1.548064,-1.8626393,1.2262468,-0.9110547,0.8018901,0.7835147,0.26642033,1.0537758,0.8833348
0.1,0.0,0.9,0.0,0.0,0,-1.4828018,1.6769204,-1.0815309,-0.119252056,-0.06817367,1.534407,-1.5305861,1.1844956,-1.0389804,0.7649904,0.8809738,0.26391378,1.0999961,0.8522238
0.1,0.0,0.9,0.0,0.0,0,-1.6411152,1.6354954,-1.0531536,-0.050213944,-0.15215296,1.5507962,-1.8238912,1.2768487,-0.96434456,0.76386267,0.77702904,0.22411926,1.0457275,0.96165687
0.1,0.0,0.9,0.0,0.0,0,-1.4370803,1.7544799,-1.0563076,-0.10225603,-0.0972906,1.5437834,-1.610699,1.166011,-1.0552791,0.8208265,0.94873405,0.21780421,1.0819732,0.9942256
0.1,0.0,0.9,0.0,0.0,0,-1.6059648,1.5751364,-1.0558237,-0.13259122,-0.13031563,1.5386955,-1.8989885,1.1982418,-1.0148462,0.7336401,0.85297954,0.25964394,1.1077592,0.7997667
0.1,0.0,0.9,0.0,0.0,0,-1.4500757,1.6195847,-1.0603482,-0.06353061,-0.103063956,1.5217102,-1.6798068,1.1857152,-0.97730476,0.80685633,0.83698165,0.22991417,1.1068277,1.0483495
0.1,0.0,0.9,0.0,0.0,0,-1.6833032,1.5097107,-1.072745,-0.12866679,-0.1302324,1.5676364,-1.6656435,1.1553254,-0.9840984,0.7007866,0.8649594,0.23007494,1.0506513,1.0661486
0.1,0.0,0.9,0.0,0.0,0,-1.647333,1.5936666,-1.0795577,-0.065831386,-0.16316912,1.5335256,-1.1416076,1.2375776,-1.0462502,0.7135094,0.824538,0.19000885,1.228226,1.0499717
0.1,0.0,0.9,0.0,0.0,0,-1.5217123,1.6209809,-1.0632248,-0.09899831,-0.116366684,1.5412621,-1.616089,1.138379,-1.0833515,0.7413067,0.94018745,0.29035532,1.186701,1.0438514
0.1,0.0,0.9,0.0,0.0,0,-1.4003509,1.6762124,-1.07118,-0.0946629,-0.049415186,1.5487738,-1.7866523,1.1273437,-0.93430054,0.77585304,0.8894416,0.1952363,1.2073891,0.8039174
0.1,0.0,0.9,0.0,0.0,0,-1.5716046,1.5443084,-1.0708333,-0.09819912,-0.12027611,1.5505027,-1.8510021,1.1498759,-1.0958854,0.74397403,0.9260207,0.28876472,1.0343317,0.9576728
0.1,0.0,0.9,0.0,0.0,0,-1.5193206,1.6329852,-1.0725749,-0.14196096,-0.039933614,1.5322577,-1.7503839,1.1352199,-0.9798463,0.82391834,0.9598675,0.1686795,0.9826844,1.343227
0.1,0.0,0.9,0.0,0.0,0,-1.5994762,1.6684169,-1.0727011,-0.0911107,-0.21720271,1.5581411,-1.6038634,1.1998557,-0.9790093,0.834336,0.83951837,0.12527218,1.0466995,0.8712886
0.1,0.0,0.9,0.0,0.0,0,-1.5381418,1.6877433,-1.0866104,-0.073752075,-0.07349318,1.5480709,-1.8858635,1.1367457,-1.0775523,0.74890673,0.9183244,0.1980327,1.1563115,0.89997923
0.1,0.0,0.9,0.0,0.0,0,-1.5979805,1.6897122,-1.0649122,-0.10656141,-0.12880728,1.5412687,-1.3986284,1.2107862,-1.0156015,0.6622848,0.8752769,0.14270593,1.107114,1.0836363
0.1,0.0,0.9,0.0,0.0,0,-1.5972208,1.6925634,-1.0554417,-0.10692149,-0.20171724,1.5530021,-1.4746593,1.1223341,-0.9882671,0.79067385,0.8417869,0.14004782,1.1661664,0.998819
0.1,0.0,0.9,0.0,0.0,0,-1.6439561,1.5501252,-1.060131,-0.12648608,-0.13662988,1.5498959,-1.7686193,1.1510432,-1.039902,0.72561884,0.90618485,0.28111106,1.058952,0.8623631
0.1,0.0,0.9,0.0,0.0,0,-1.6731507,1.6875845,-1.0545788,-0.10800956,-0.084268,1.5669975,-1.6242938,1.1811888,-0.9434056,0.76568574,0.8549608,0.2755274,1.0591352,1.1274238
0.1,0.0,0.9,0.0,0.0,0,-1.6568618,1.6690037,-1.0627851,-0.09688425,-0.18220347,1.5367018,-1.4879968,1.1629776,-1.0137631,0.7419505,0.86841553,0.25945622,1.161253,1.2622961
0.1,0.0,0.9,0.0,0.0,0,-1.689001,1.7313147,-1.0822122,-0.11645902,-0.13687083,1.5500662,-1.4504462,1.2590035,-1.0762111,0.68505687,0.9523706,0.20030993,1.129365,0.79742247
0.1,0.0,0.9,0.0,0.0,0,-1.7360744,1.7362206,-1.0573525,-0.11461039,-0.1508151,1.5607424,-1.6439258,1.1590344,-0.96103114,0.71653473,0.952263,0.15205051,1.1519798,0.83838856
0.1,0.0,0.9,0.0,0.0,0,-1.5244734,1.7249637,-1.0557822,-0.11173966,-0.11191256,1.5540584,-1.3721254,1.2062384,-0.97406995,0.7782297,0.86574775,0.17441238,1.0842165,0.9468077
0.1,0.0,0.9,0.0,0.0,0,-1.5244734,1.7249637,-1.0557822,-0.11173966,-0.11191256,1.5540584,-1.3721254,1.2062384,-0.97406995,0.7782297,0.86574775,0.17441238,1.0842165,0.9468077
0.1,0.0,0.9,0.0,0.0,0,-1.5244734,1.7249637,-1.0557822,-0.11173966,-0.11191256,1.5540584,-1.3721254,1.2062384,-0.97406995,0.7782297,0.86574775,0.17441238,1.0842165,0.9468077
0.1,0.0,0.9,0.0,0.0,0,-1.5244734,1.7249637,-1.0557822,-0.11173966,-0.11191256,1.5540584,-1.3721254,1.2062384,-0.97406995,0.7782297,0.86574775,0.17441238,1.0842165,0.9468077
0.1,0.0,0.9,0.0,0.0,0,-1.5244734,1.7249637,-1.0557822,-0.11173966,-0.11191256,1.5540584,-1.3721254,1.2062384,-0.97406995,0.7782297,0.86574775,0.17441238,1.0842165,0.9468077
0.1,0.0,0.9,0.0,0.0,0,-1.5244734,1.7249637,-1.0557822,-0.11173966,-0.11191256,1.5540584,-1.3721254,1.2062384,-0.97406995,0.7782297,0.86574775,0.17441238,1.0842165,0.9468077
0.1,0.0,0.9,0.0,0.0,0,-1.5244734,1.7249637,-1.0557822,-0.11173966,-0.11191256,1.5540584,-1.3721254,1.2062384,-0.97406995,0.7782297,0.86574775,0.17441238,1.0842165,0.9468077
0.1,0.0,0.9,0.0,0.0,0,-1.5244734,1.7249637,-1.0557822,-0.11173966,-0.11191256,1.5540584,-1.3721254,1.2062384,-0.97406995,0.7782297,0.86574775,0.17441238,1.0842165,0.9468077
0.1,0.0,0.9,0.0,0.0,0,-1.4418598,1.6586543,-1.0430934,-0.11589222,-0.08146929,1.5515116,-1.570827,1.1241843,-1.0394751,0.72390944,1.002063,0.19443485,1.159419,0.6794146
0.1,0.0,0.9,0.0,0.0,0,-1.4418598,1.6586543,-1.0430934,-0.11589222,-0.08146929,1.5515116,-1.570827,1.1241843,-1.0394751,0.72390944,1.002063,0.19443485,1.159419,0.6794146
0.1,0.0,0.9,0.0,0.0,0,-1.4418598,1.6586543,-1.0430934,-0.11589222,-0.08146929,1.5515116,-1.570827,1.1241843,-1.0394751,0.72390944,1.002063,0.19443485,1.159419,0.6794146
0.1,0.0,0.9,0.0,0.0,0,-1.4418598,1.6586543,-1.0430934,-0.11589222,-0.08146929,1.5515116,-1.570827,1.1241843,-1.0394751,0.72390944,1.002063,0.19443485,1.159419,0.6794146
0.1,0.0,0.9,0.0,0.0,0,-1.4418598,1.6586543,-1.0430934,-0.11589222,-0.08146929,1.5515116,-1.570827,1.1241843,-1.0394751,0.72390944,1.002063,0.19443485,1.159419,0.6794146
0.1,0.0,0.9,0.0,0.0,0,-1.4418598,1.6586543,-1.0430934,-0.11589222,-0.08146929,1.5515116,-1.570827,1.1241843,-1.0394751,0.72390944,1.002063,0.19443485,1.159419,0.6794146
0.1,0.0,0.9,0.0,0.0,0,-1.4418598,1.6586543,-1.0430934,-0.11589222,-0.08146929,1.5515116,-1.570827,1.1241843,-1.0394751,0.72390944,1.002063,0.19443485,1.159419,0.6794146
0.1,0.0,0.9,0.0,0.0,0,-1.4418598,1.6586543,-1.0430934,-0.11589222,-0.08146929,1.5515116,-1.570827,1.1241843,-1.0394751,0.72390944,1.002063,0.19443485,1.159419,0.6794146
0.1,0.0,0.9,0.0,0.0,0,-1.2125479,1.6428634,-1.0859075,-0.07154376,-0.19534464,1.5177734,-1.6237661,1.2119058,-1.0175502,0.9599576,1.0282078,0.094968,0.7997434,0.55063003
0.1,0.0,0.9,0.0,0.0,0,-1.2125479,1.6428634,-1.0859075,-0.07154376,-0.19534464,1.5177734,-1.6237661,1.2119058,-1.0175502,0.9599576,1.0282078,0.094968,0.7997434,0.55063003
0.1,0.0,0.9,0.0,0.0,0,-1.2125479,1.6428634,-1.0859075,-0.07154376,-0.19534464,1.5177734,-1.6237661,1.2119058,-1.0175502,0.9599576,1.0282078,0.094968,0.7997434,0.55063003
0.1,0.0,0.9,0.0,0.0,0,-1.2125479,1.6428634,-1.0859075,-0.07154376,-0.19534464,1.5177734,-1.6237661,1.2119058,-1.0175502,0.9599576,1.0282078,0.094968,0.7997434,0.55063003
0.1,0.0,0.9,0.0,0.0,0,-1.2125479,1.6428634,-1.0859075,-0.07154376,-0.19534464,1.5177734,-1.6237661,1.2119058,-1.0175502,0.9599576,1.0282078,0.094968,0.7997434,0.55063003
0.1,0.0,0.9,0.0,0.0,0,-1.2125479,1.6428634,-1.0859075,-0.07154376,-0.19534464,1.5177734,-1.6237661,1.2119058,-1.0175502,0.9599576,1.0282078,0.094968,0.7997434,0.55063003
0.1,0.0,0.9,0.0,0.0,0,-1.2125479,1.6428634,-1.0859075,-0.07154376,-0.19534464,1.5177734,-1.6237661,1.2119058,-1.0175502,0.9599576,1.0282078,0.094968,0.7997434,0.55063003
0.1,0.0,0.9,0.0,0.0,0,-1.3798802,1.7514833,-1.06344,-0.09779139,-0.106857635,1.5608488,-1.6826553,1.1666044,-1.0094043,0.85372317,0.90597296,0.16244434,1.1428927,1.0886172
0.1,0.0,0.9,0.0,0.0,0,-1.3798802,1.7514833,-1.06344,-0.09779139,-0.106857635,1.5608488,-1.6826553,1.1666044,-1.0094043,0.85372317,0.90597296,0.16244434,1.1428927,1.0886172
0.1,0.0,0.9,0.0,0.0,0,-1.3798802,1.7514833,-1.06344,-0.09779139,-0.106857635,1.5608488,-1.6826553,1.1666044,-1.0094043,0.85372317,0.90597296,0.16244434,1.1428927,1.0886172
0.1,0.0,0.9,0.0,0.0,0,-1.3798802,1.7514833,-1.06344,-0.09779139,-0.106857635,1.5608488,-1.6826553,1.1666044,-1.0094043,0.85372317,0.90597296,0.16244434,1.1428927,1.0886172
0.1,0.0,0.9,0.0,0.0,0,-1.3798802,1.7514833,-1.06344,-0.09779139,-0.106857635,1.5608488,-1.6826553,1.1666044,-1.0094043,0.85372317,0.90597296,0.16244434,1.1428927,1.0886172
0.1,0.0,0.9,0.0,0.0,0,-1.3798802,1.7514833,-1.06344,-0.09779139,-0.106857635,1.5608488,-1.6826553,1.1666044,-1.0094043,0.85372317,0.90597296,0.16244434,1.1428927,1.0886172
0.1,0.0,0.9,0.0,0.0,0,-1.3798802,1.7514833,-1.06344,-0.09779139,-0.106857635,1.5608488,-1.6826553,1.1666044,-1.0094043,0.85372317,0.90597296,0.16244434,1.1428927,1.0886172
0.1,0.0,0.9,0.0,0.0,0,-1.3798802,1.7514833,-1.06344,-0.09779139,-0.106857635,1.5608488,-1.6826553,1.1666044,-1.0094043,0.85372317,0.90597296,0.16244434,1.1428927,1.0886172
0.1,0.0,0.9,0.0,0.0,0,-1.4892925,1.5965297,-1.058763,-0.09115733,-0.14826478,1.5430984,-1.6187972,1.1880443,-0.9784531,0.7346981,0.95453894,0.16677731,1.1091663,1.0826161
