sanky1234/BimanualDexCatch/isaacgymenvs/cem_results/May31/football_pose_0.0_0.0_1.0_0.0_-0.5235987755982988_0_2025-05-31.csv
x,y,z,roll,pitch,yaw,robot1/joint1,robot1/joint2,robot1/joint3,robot1/joint4,robot1/joint5,robot1/joint6,robot1/joint7,robot2/joint1,robot2/joint2,robot2/joint3,robot2/joint4,robot2/joint5,robot2/joint6,robot2/joint7
0.0,0.0,1.0,0.0,-0.5235987755982988,0,0.28571,-0.98256564,2.8467422,0.16856906,-0.34673518,1.5429814,-0.330557,-1.9182894,-1.3153921,-1.0283321,1.0582417,-0.044800747,1.1872253,-1.4662858
0.0,0.0,1.0,0.0,-0.5235987755982988,0,0.33735725,-0.98790675,2.8467388,0.19841109,-0.32310185,1.5585747,-0.55440074,-1.9297403,-1.3103632,-1.046729,1.093008,-0.029938208,1.1983105,-1.5259387
0.0,0.0,1.0,0.0,-0.5235987755982988,0,0.3211743,-0.99667376,2.8311124,0.19333448,-0.30689996,1.5473326,-0.66028166,-1.9311972,-1.3251133,-1.0259887,1.076926,-0.026480025,1.2170271,-1.5000893
0.0,0.0,1.0,0.0,-0.5235987755982988,0,0.32981393,-0.9941712,2.8381498,0.18881796,-0.30160898,1.5443748,-0.210497,-1.9158003,-1.3264909,-1.0523462,1.1028575,-0.055873804,1.2201624,-1.5665182
0.0,0.0,1.0,0.0,-0.5235987755982988,0,0.32613352,-0.9928974,2.8293347,0.18519521,-0.28554425,1.5485129,-0.7044692,-1.9167374,-1.3184516,-1.0437026,1.086963,-0.029850975,1.206817,-1.4603692
0.0,0.0,1.0,0.0,-0.5235987755982988,0,0.30648145,-0.99658924,2.8320456,0.17674713,-0.29615083,1.5372957,-0.7406894,-1.9354142,-1.3337892,-1.0576854,1.0870652,-0.046283238,1.2100317,-1.6315371
0.0,0.0,1.0,0.0,-0.5235987755982988,0,0.32007155,-0.9897357,2.840473,0.18774347,-0.32286268,1.5400448,-0.5255498,-1.9262711,-1.306018,-1.0379076,1.1107403,-0.04459632,1.2075366,-1.5126095
0.0,0.0,1.0,0.0,-0.5235987755982988,0,0.3005638,-0.9923777,2.824699,0.16833682,-0.31965455,1.5562716,-0.07824579,-1.9184538,-1.3035408,-1.0304258,1.0681913,-0.054345332,1.1943991,-1.5588572
0.0,0.0,1.0,0.0,-0.5235987755982988,0,0.29699358,-0.98654556,2.8269207,0.17297527,-0.31147256,1.5643337,-0.7041247,-1.9139541,-1.3021173,-1.0244849,1.096688,-0.037630074,1.2032588,-1.4951502
0.0,0.0,1.0,0.0,-0.5235987755982988,0,0.32152763,-0.99526614,2.8280818,0.1827573,-0.33865497,1.5474174,-0.5931806,-1.9180092,-1.328025,-1.0422994,1.1089551,-0.04768291,1.212978,-1.4465817
0.0,0.0,1.0,0.0,-0.5235987755982988,0,0.31157312,-0.98642236,2.848004,0.1611794,-0.33830693,1.5577477,-0.62507516,-1.9124073,-1.3064518,-1.0385168,1.0742391,-0.040700275,1.2145633,-1.5207515
0.0,0.0,1.0,0.0,-0.5235987755982988,0,0.30759057,-0.99327624,2.8374424,0.18076421,-0.32235056,1.5434636,-0.4187244,-1.9238535,-1.3107011,-1.0470655,1.0948222,-0.058695406,1.2149174,-1.6507707
0.0,0.0,1.0,0.0,-0.5235987755982988,0,0.3264004,-0.9917662,2.8461275,0.17675467,-0.28546122,1.5520406,-0.43105507,-1.9178838,-1.3413637,-1.0328269,1.0769639,-0.051726636,1.222928,-1.5288675
0.0,0.0,1.0,0.0,-0.5235987755982988,0,0.31362924,-0.9915008,2.8446875,0.18574592,-0.32228082,1.5576895,-0.42560694,-1.9255105,-1.3172513,-1.0465894,1.0644902,-0.03337846,1.1986161,-1.4563633
0.0,0.0,1.0,0.0,-0.5235987755982988,0,0.35164317,-0.9884407,2.8315136,0.18437496,-0.32645202,1.5547361,-0.35231644,-1.9272063,-1.306989,-1.0104187,1.0890384,-0.038480565,1.2256051,-1.4907175
0.0,0.0,1.0,0.0,-0.5235987755982988,0,0.30424953,-0.9886039,2.8254797,0.17683317,-0.31045392,1.554154,-0.37307143,-1.9206053,-1.331935,-1.0226132,1.0648547,-0.054761603,1.2057251,-1.4931687
0.0,0.0,1.0,0.0,-0.5235987755982988,0,0.29921976,-0.9959336,2.8666139,0.16457869,-0.32618994,1.5534105,-0.42576683,-1.9358355,-1.3162327,-1.0502298,1.0837697,-0.05145498,1.1955087,-1.6227788
0.0,0.0,1.0,0.0,-0.5235987755982988,0,0.3187156,-0.98165005,2.852162,0.18518423,-0.31222615,1.5523162,-0.34129557,-1.9251537,-1.3313959,-1.0354719,1.0704988,-0.049766976,1.2013592,-1.6618751
0.0,0.0,1.0,0.0,-0.5235987755982988,0,0.32961884,-0.9950279,2.8179624,0.19677557,-0.29186365,1.5488724,-0.5473267,-1.9400167,-1.3407055,-1.0407641,1.1174619,-0.050590247,1.2159247,-1.5976946
0.0,0.0,1.0,0.0,-0.5235987755982988,0,0.311467,-0.99980885,2.8404257,0.18872426,-0.3010596,1.5497823,-0.2940881,-1.9292458,-1.3458017,-1.0395555,1.1135689,-0.054099303,1.1911894,-1.697397
0.0,0.0,1.0,0.0,-0.5235987755982988,0,0.31027737,-0.9850986,2.835461,0.18228106,-0.32148466,1.562355,-0.585347,-1.9161942,-1.3411934,-1.0252897,1.0621382,-0.062711,1.1902373,-1.6627902
0.0,0.0,1.0,0.0,-0.5235987755982988,0,0.32041284,-0.9850724,2.8330681,0.19151025,-0.2657376,1.5564121,-0.48290262,-1.922277,-1.3231634,-1.0332361,1.0630105,-0.04315427,1.2321259,-1.5072514
0.0,0.0,1.0,0.0,-0.5235987755982988,0,0.3058121,-0.99123645,2.8337336,0.17343308,-0.3155934,1.5478964,-0.50530565,-1.9248536,-1.3137268,-1.0324383,1.09049,-0.046249334,1.1983882,-1.296858
0.0,0.0,1.0,0.0,-0.5235987755982988,0,0.32102266,-1.0025693,2.8473284,0.1802935,-0.31615782,1.5511247,-0.6187878,-1.9251319,-1.3149855,-1.0336647,1.107426,-0.028386662,1.2145289,-1.4305272
0.0,0.0,1.0,0.0,-0.5235987755982988,0,0.32210648,-0.99523485,2.826041,0.17932275,-0.31700101,1.5495397,-0.37723288,-1.9324533,-1.3444726,-1.0304745,1.1114546,-0.057897963,1.2142295,-1.5339803
0.0,0.0,1.0,0.0,-0.5235987755982988,0,0.32119116,-0.9874033,2.839238,0.18518808,-0.29596138,1.5514905,-0.8686942,-1.90995,-1.3664842,-1.0242051,1.0764381,-0.045971762,1.2009839,-1.6326811
0.0,0.0,1.0,0.0,-0.5235987755982988,0,0.31213245,-0.9914973,2.8284216,0.17312087,-0.33676928,1.5558494,-0.60499036,-1.9160061,-1.3418778,-1.0291115,1.0739112,-0.054056685,1.1902986,-1.4848181
0.0,0.0,1.0,0.0,-0.5235987755982988,0,0.30392703,-0.9964978,2.8477097,0.16325161,-0.2993978,1.5434408,-0.51264745,-1.9290354,-1.3310627,-1.0369692,1.0800045,-0.042060513,1.1918141,-1.4658703
0.0,0.0,1.0,0.0,-0.5235987755982988,0,0.3029323,-0.9779269,2.842186,0.17385063,-0.3251377,1.559775,-0.39969653,-1.931812,-1.3086051,-1.0447086,1.0753676,-0.04178164,1.2001407,-1.7235593
0.0,0.0,1.0,0.0,-0.5235987755982988,0,0.31858027,-0.9822473,2.832519,0.17896695,-0.29433805,1.5460134,-0.7675894,-1.9252446,-1.3222637,-1.0371323,1.0874568,-0.033815008,1.2093709,-1.64885
0.0,0.0,1.0,0.0,-0.5235987755982988,0,0.31950858,-0.9929595,2.8410647,0.17530087,-0.28983742,1.5397861,-0.5395205,-1.9259611,-1.2995847,-1.0275072,1.0931178,-0.039494712,1.2139457,-1.4887757
0.0,0.0,1.0,0.0,-0.5235987755982988,0,0.31789923,-0.9937111,2.8413026,0.18593197,-0.30528376,1.5543028,-0.5989262,-1.929409,-1.319951,-1.0321,1.0693377,-0.008224957,1.1877437,-1.4457974
0.0,0.0,1.0,0.0,-0.5235987755982988,0,0.32005867,-0.99241686,2.842631,0.19234687,-0.29650643,1.5416777,-0.59252346,-1.9317735,-1.3262583,-1.0236304,1.0743002,-0.020546675,1.1938678,-1.4871678
0.0,0.0,1.0,0.0,-0.5235987755982988,0,0.31361583,-0.99126947,2.8349147,0.18540658,-0.32991624,1.5395738,-0.43956405,-1.9251369,-1.3446952,-1.0337671,1.0691924,-0.057037644,1.2109418,-1.5779909
0.0,0.0,1.0,0.0,-0.5235987755982988,0,0.29590896,-0.99083066,2.8273075,0.16953854,-0.31179997,1.5536213,-0.43445456,-1.9190508,-1.3422835,-1.0370907,1.0744435,-0.0388629,1.2136234,-1.5217565
0.0,0.0,1.0,0.0,-0.5235987755982988,0,0.3117732,-0.9904203,2.823858,0.17540419,-0.3074445,1.5481331,-0.7427135,-1.9353266,-1.3555841,-1.0322862,1.0708332,-0.041110218,1.1993399,-1.5319495
0.0,0.0,1.0,0.0,-0.5235987755982988,0,0.3141452,-0.99115366,2.838235,0.18173586,-0.30689985,1.5419815,-0.2799094,-1.9321202,-1.3048297,-1.0431422,1.081559,-0.029147852,1.2293895,-1.4899445
0.0,0.0,1.0,0.0,-0.5235987755982988,0,0.32958078,-1.0014327,2.848771,0.17616905,-0.29717916,1.5512986,-0.54399794,-1.9260775,-1.3132871,-1.0189943,1.0975504,-0.036279265,1.1914355,-1.4145083
0.0,0.0,1.0,0.0,-0.5235987755982988,0,0.31409553,-0.9905736,2.8287652,0.20050545,-0.30943736,1.5418205,-0.76849335,-1.9214422,-1.3158113,-1.032361,1.0729653,-0.031815942,1.2129059,-1.4853766
0.0,0.0,1.0,0.0,-0.5235987755982988,0,0.31504324,-0.9931318,2.8348336,0.18242219,-0.3070597,1.5553094,-0.48881382,-1.9193517,-1.3187298,-1.0361536,1.0848591,-0.04438621,1.2095715,-1.5039542
0.0,0.0,1.0,0.0,-0.5235987755982988,0,0.31956485,-0.99168533,2.8345854,0.17763107,-0.3051589,1.5445683,-0.48733446,-1.918303,-1.3100779,-1.040577,1.082829,-0.030251905,1.2165401,-1.5500213
0.0,0.0,1.0,0.0,-0.5235987755982988,0,0.30670938,-0.9868315,2.8303394,0.17711253,-0.2847032,1.5565227,-0.6288394,-1.9280394,-1.3304065,-1.041615,1.0975319,-0.04377254,1.2018154,-1.5071973
0.0,0.0,1.0,0.0,-0.5235987755982988,0,0.32354555,-0.9894497,2.8402417,0.19660495,-0.33513027,1.5370563,-0.39146194,-1.9202871,-1.3181176,-1.0389943,1.067093,-0.029415518,1.2081821,-1.6153041
0.0,0.0,1.0,0.0,-0.5235987755982988,0,0.3017236,-0.9895209,2.8181398,0.1679882,-0.2958221,1.5560689,-0.2970729,-1.9255786,-1.291645,-1.0304935,1.0803967,-0.04962934,1.2071238,-1.3482255
0.0,0.0,1.0,0.0,-0.5235987755982988,0,0.325738,-0.9926643,2.8364134,0.18049479,-0.324172,1.537439,-0.40324172,-1.9254968,-1.3234955,-1.0338502,1.0811474,-0.05493309,1.2422357,-1.5030456
0.0,0.0,1.0,0.0,-0.5235987755982988,0,0.32614893,-0.98470485,2.8191936,0.19496797,-0.32687676,1.5489329,-0.43302307,-1.9320307,-1.3341036,-1.0435977,1.1148238,-0.055013224,1.2018509,-1.5659926
0.0,0.0,1.0,0.0,-0.5235987755982988,0,0.30674353,-0.9901137,2.8126566,0.18020493,-0.33118212,1.540622,-0.59766203,-1.9370877,-1.3020034,-1.0437652,1.0927874,-0.033830237,1.2035817,-1.5455267
0.0,0.0,1.0,0.0,-0.5235987755982988,0,0.30960876,-0.99088883,2.8302815,0.17753935,-0.33294395,1.5612898,-0.6994778,-1.9198738,-1.3476484,-1.0392145,1.084924,-0.041663866,1.2016762,-1.6376022
0.0,0.0,1.0,0.0,-0.5235987755982988,0,0.30352995,-0.99257696,2.8404999,0.16590704,-0.35054028,1.554333,-0.7812274,-1.928889,-1.3286397,-1.0296001,1.0774806,-0.05630175,1.2048894,-1.6263833
0.0,0.0,1.0,0.0,-0.5235987755982988,0,0.32875535,-0.98402447,2.8224428,0.1845495,-0.31137386,1.5480767,-0.44302323,-1.9322544,-1.33106,-1.0527875,1.1074425,-0.052313477,1.2088553,-1.6755345
0.0,0.0,1.0,0.0,-0.5235987755982988,0,0.30554765,-0.99167335,2.8339918,0.1833752,-0.3187158,1.5590142,-0.48192406,-1.9231997,-1.3429918,-1.046118,1.1112151,-0.05047825,1.2070138,-1.4986446
0.0,0.0,1.0,0.0,-0.5235987755982988,0,0.31262615,-0.98859525,2.8356187,0.18283412,-0.31057325,1.5581248,-0.21663643,-1.9124459,-1.3365185,-1.0345954,1.0542651,-0.05405334,1.2438009,-1.538922
0.0,0.0,1.0,0.0,-0.5235987755982988,0,0.3231996,-0.9922706,2.8279366,0.17827287,-0.30238777,1.5564823,-0.46424666,-1.9218136,-1.3491349,-1.0367297,1.1012263,-0.054452885,1.2271839,-1.5612504
0.0,0.0,1.0,0.0,-0.5235987755982988,0,0.32200816,-0.99726105,2.8540416,0.17804025,-0.2922538,1.5506234,-0.4401743,-1.9224836,-1.3417088,-1.0361644,1.0691024,-0.04010423,1.2133315,-1.5480705
0.0,0.0,1.0,0.0,-0.5235987755982988,0,0.32869744,-0.9924465,2.8314302,0.1784695,-0.27705318,1.5442467,-0.7509086,-1.9135783,-1.3377113,-1.028175,1.092944,-0.04883541,1.2071958,-1.4528397
0.0,0.0,1.0,0.0,-0.5235987755982988,0,0.311246,-0.9899299,2.831669,0.16534503,-0.31058025,1.5531287,-0.720795,-1.9336977,-1.3229747,-1.0417012,1.0750116,-0.04108575,1.2168416,-1.5256324
0.0,0.0,1.0,0.0,-0.5235987755982988,0,0.3231223,-0.99385184,2.8540525,0.1822383,-0.31776193,1.5525573,-0.5132187,-1.9211309,-1.3518739,-1.0378612,1.0885645,-0.048961937,1.2254113,-1.2219033
0.0,0.0,1.0,0.0,-0.5235987755982988,0,0.31339794,-0.98061025,2.828425,0.18323998,-0.32611892,1.5593075,-0.28725293,-1.9131659,-1.3177803,-1.0326496,1.0955856,-0.062307242,1.2103175,-1.5705768
0.0,0.0,1.0,0.0,-0.5235987755982988,0,0.29704282,-0.98838145,2.8401299,0.18348856,-0.33350226,1.5588548,-0.47421917,-1.9317696,-1.323827,-1.0402843,1.0592122,-0.02698437,1.1961788,-1.5945256
0.0,0.0,1.0,0.0,-0.5235987755982988,0,0.32651624,-0.997851,2.840687,0.16851181,-0.3009683,1.5428199,-0.29157394,-1.9283713,-1.309563,-1.03978,1.0767535,-0.044294383,1.2103573,-1.5873524
0.0,0.0,1.0,0.0,-0.5235987755982988,0,0.30651656,-0.98805606,2.839782,0.17052159,-0.29952088,1.5490246,-0.784114,-1.9287026,-1.3162569,-1.0411229,1.0664313,-0.04850892,1.2241566,-1.576738
0.0,0.0,1.0,0.0,-0.5235987755982988,0,0.326669,-0.9955181,2.8455992,0.18058527,-0.33119446,1.5446613,-0.44085133,-1.9228163,-1.326474,-1.0373013,1.1080158,-0.05045123,1.2158242,-1.5085768
0.0,0.0,1.0,0.0,-0.5235987755982988,0,0.3189707,-0.99604917,2.8315554,0.18320644,-0.33773294,1.5465673,-0.2290356,-1.9352536,-1.3248343,-1.0528599,1.0987663,-0.026866363,1.2145092,-1.5676761
0.0,0.0,1.0,0.0,-0.5235987755982988,0,0.3185348,-0.9890243,2.8222353,0.18856137,-0.36789083,1.5569592,-0.55832386,-1.9348223,-1.3255103,-1.0442263,1.1024026,-0.05559187,1.2135043,-1.5852135
0.0,0.0,1.0,0.0,-0.5235987755982988,0,0.31553847,-0.9960736,2.8298333,0.17159575,-0.30990517,1.546219,-0.22760622,-1.9265648,-1.3421853,-1.0480782,1.0979078,-0.029110568,1.1789258,-1.5139096
0.0,0.0,1.0,0.0,-0.5235987755982988,0,0.31292382,-0.98340815,2.8382316,0.1844772,-0.31378126,1.541214,-0.6182522,-1.9130753,-1.3323405,-1.0357924,1.0646676,-0.012638902,1.1973484,-1.3934532
0.0,0.0,1.0,0.0,-0.5235987755982988,0,0.31387877,-0.98963743,2.8566327,0.18817401,-0.29384494,1.5516406,-0.53562397,-1.9186012,-1.321097,-1.029169,1.086508,-0.04442883,1.1800125,-1.4760853
0.0,0.0,1.0,0.0,-0.5235987755982988,0,0.30168724,-0.9912622,2.8463588,0.17707475,-0.32411793,1.5587797,-0.5902993,-1.925895,-1.3109108,-1.0309666,1.1024965,-0.051042795,1.2278947,-1.4635004
0.0,0.0,1.0,0.0,-0.5235987755982988,0,0.34335613,-0.99542135,2.8373475,0.17309523,-0.318835,1.5579886,-0.33032292,-1.9174025,-1.3060488,-1.0441172,1.09987,-0.046273258,1.1965698,-1.5386915
0.0,0.0,1.0,0.0,-0.5235987755982988,0,0.3215736,-0.9903985,2.845142,0.17721313,-0.3281682,1.5420196,-0.70942885,-1.9222827,-1.3170323,-1.0433345,1.0880103,-0.0208719,1.1941411,-1.4760746
0.0,0.0,1.0,0.0,-0.5235987755982988,0,0.32801908,-0.985324,2.838445,0.17327806,-0.29030034,1.5502259,-0.75659996,-1.9257646,-1.329376,-1.0406327,1.0916862,-0.031732854,1.2082694,-1.5713203
0.0,0.0,1.0,0.0,-0.5235987755982988,0,0.32725176,-0.9978965,2.8305573,0.16948907,-0.30338395,1.560678,-0.5775351,-1.9220134,-1.3248107,-1.0379791,1.0952849,-0.036559988,1.2020022,-1.5674704
0.0,0.0,1.0,0.0,-0.5235987755982988,0,0.3246276,-0.9914902,2.842217,0.17192006,-0.29976478,1.5456921,-0.4602602,-1.9204676,-1.3293039,-1.0297973,1.0947001,-0.048439994,1.2063503,-1.473109
0.0,0.0,1.0,0.0,-0.5235987755982988,0,0.31318864,-0.9807221,2.8380642,0.1684151,-0.30141684,1.5566179,-0.81393147,-1.9291382,-1.3287842,-1.0293034,1.0728064,-0.043636825,1.2070389,-1.4398017
0.0,0.0,1.0,0.0,-0.5235987755982988,0,0.30968487,-0.9890638,2.838569,0.15756674,-0.30518687,1.5551614,-0.5982755,-1.9283848,-1.3343736,-1.0449002,1.0686333,-0.052472137,1.2079793,-1.5824394
0.0,0.0,1.0,0.0,-0.5235987755982988,0,0.30768985,-0.9892208,2.8347774,0.15502656,-0.3168639,1.5549612,-0.48461613,-1.9198976,-1.3473245,-1.0188287,1.0739715,-0.06524239,1.2305622,-1.4347302
0.0,0.0,1.0,0.0,-0.5235987755982988,0,0.30585557,-0.9939757,2.8409944,0.17323497,-0.31417522,1.5579127,-0.2775049,-1.9251559,-1.3369483,-1.0366868,1.0695629,-0.044949166,1.1848639,-1.4317956
0.0,0.0,1.0,0.0,-0.5235987755982988,0,0.32086962,-0.9981417,2.8269503,0.1683141,-0.3425005,1.5563836,-0.7166153,-1.9271629,-1.328743,-1.028905,1.0577722,-0.030959664,1.2225479,-1.6937292
0.0,0.0,1.0,0.0,-0.5235987755982988,0,0.31998962,-0.9873596,2.8300908,0.15665059,-0.28853688,1.5511432,-0.46947208,-1.9216198,-1.3297526,-1.0415583,1.0555215,-0.04495923,1.2080648,-1.6257342
0.0,0.0,1.0,0.0,-0.5235987755982988,0,0.31282791,-0.99546915,2.8398077,0.16823582,-0.29155472,1.5549093,-0.6239668,-1.9169225,-1.3240529,-1.0298059,1.0699806,-0.024364997,1.199995,-1.4660257
0.0,0.0,1.0,0.0,-0.5235987755982988,0,0.32138497,-0.9995649,2.845612,0.14634249,-0.29892784,1.5490031,-0.50783324,-1.915202,-1.3372809,-1.0329435,1.0985141,-0.048721638,1.1983569,-1.5508072
0.0,0.0,1.0,0.0,-0.5235987755982988,0,0.32652053,-0.99348885,2.8514893,0.14350839,-0.2634394,1.5541604,-0.30161172,-1.9241812,-1.3355528,-1.0330515,1.0662183,-0.047095772,1.2073188,-1.5627584
0.0,0.0,1.0,0.0,-0.5235987755982988,0,0.33057252,-0.99343145,2.8477285,0.1489397,-0.3005088,1.5625118,-0.6168378,-1.9235991,-1.3232037,-1.0360425,1.0663016,-0.017860962,1.196954,-1.5648586
0.0,0.0,1.0,0.0,-0.5235987755982988,0,0.31844664,-0.99057555,2.829297,0.1737999,-0.30537266,1.5529705,-0.5860921,-1.9161962,-1.344225,-1.0332875,1.0940509,-0.054150365,1.1987911,-1.5291382
0.0,0.0,1.0,0.0,-0.5235987755982988,0,0.31149894,-0.99797577,2.844787,0.18717386,-0.34353623,1.5389655,-0.6008206,-1.929669,-1.3287606,-1.0267856,1.0870459,-0.046154,1.2131648,-1.5590774
0.0,0.0,1.0,0.0,-0.5235987755982988,0,0.32162037,-0.99197024,2.8365963,0.20765635,-0.30559006,1.5523232,-0.43570843,-1.9282072,-1.323147,-1.0260478,1.0984591,-0.037417054,1.2041404,-1.5266196
0.0,0.0,1.0,0.0,-0.5235987755982988,0,0.31816405,-0.98665905,2.8490148,0.205151,-0.36362752,1.547915,-0.48445973,-1.9174922,-1.3380225,-1.0326917,1.0964046,-0.049546264,1.1895504,-1.3576441
0.0,0.0,1.0,0.0,-0.5235987755982988,0,0.30831164,-0.9932183,2.856259,0.18953504,-0.32214624,1.5412052,-0.46816057,-1.9162428,-1.3540093,-1.0240065,1.0780083,-0.04677168,1.2209966,-1.3988997
0.0,0.0,1.0,0.0,-0.5235987755982988,0,0.3081727,-0.9921967,2.8203819,0.19702512,-0.32211405,1.5447215,-0.46968302,-1.9273374,-1.3280449,-1.0353644,1.094537,-0.04389207,1.2223263,-1.4721025
0.0,0.0,1.0,0.0,-0.5235987755982988,0,0.30716884,-0.9973996,2.8525772,0.18298079,-0.33322287,1.5524162,-0.5094714,-1.9281756,-1.3423289,-1.0248412,1.0805943,-0.050539993,1.2175652,-1.5051564
0.0,0.0,1.0,0.0,-0.5235987755982988,0,0.32830662,-0.9929933,2.846034,0.17951176,-0.31223428,1.5424565,-0.5148692,-1.9228603,-1.341563,-1.0356668,1.0883858,-0.032925554,1.2056857,-1.5471973
0.0,0.0,1.0,0.0,-0.5235987755982988,0,0.29570195,-0.9802327,2.8144937,0.20734002,-0.3297016,1.5440629,-0.65604347,-1.9260674,-1.3308101,-1.0375553,1.0837216,-0.050284807,1.2004951,-1.5629569
0.0,0.0,1.0,0.0,-0.5235987755982988,0,0.31954896,-0.99614453,2.833984,0.18010613,-0.3052846,1.5478028,-0.6593813,-1.9139465,-1.3354216,-1.0378506,1.0678988,-0.04713405,1.2272843,-1.5038912
0.0,0.0,1.0,0.0,-0.5235987755982988,0,0.31454334,-0.992117,2.826763,0.20361443,-0.31602582,1.5504152,-0.3587889,-1.9225967,-1.3455995,-1.0344237,1.0753708,-0.037383877,1.223928,-1.575296
0.0,0.0,1.0,0.0,-0.5235987755982988,0,0.30536976,-0.986141,2.8273299,0.1944128,-0.3321417,1.5502379,-0.5482544,-1.9200084,-1.3131835,-1.0401351,1.0732205,-0.041559707,1.2272836,-1.5901016
0.0,0.0,1.0,0.0,-0.5235987755982988,0,0.3000437,-0.9913961,2.849501,0.1850291,-0.2907191,1.5476079,-0.37236452,-1.9277128,-1.3233732,-1.0378848,1.0823171,-0.03737119,1.2161763,-1.6008304
0.0,0.0,1.0,0.0,-0.5235987755982988,0,0.3225151,-0.9911946,2.8437245,0.17980902,-0.32324052,1.5491178,-0.47375572,-1.9273549,-1.3481032,-1.0358887,1.0822866,-0.056485917,1.2254261,-1.5813084
0.0,0.0,1.0,0.0,-0.5235987755982988,0,0.29246438,-0.9968333,2.8342552,0.19218959,-0.32115126,1.5518295,-0.45405838,-1.928671,-1.3332072,-1.0482616,1.0908623,-0.058675617,1.2112497,-1.5052493
0.0,0.0,1.0,0.0,-0.5235987755982988,0,0.3221665,-0.9885498,2.8312674,0.16924612,-0.32345062,1.5513173,-0.3305187,-1.9232452,-1.3467956,-1.0248557,1.0819284,-0.04367028,1.2178446,-1.4736245
0.0,0.0,1.0,0.0,-0.5235987755982988,0,0.31488574,-0.9952292,2.8355129,0.18910782,-0.2925616,1.5518693,-0.3817382,-1.9261088,-1.3276302,-1.0304512,1.0845717,-0.050998773,1.1835345,-1.8605574
0.0,0.0,1.0,0.0,-0.5235987755982988,0,0.3170733,-0.9927357,2.8385856,0.18811096,-0.3728856,1.5560637,-0.37804827,-1.9205537,-1.3337692,-1.0267583,1.0818459,-0.05195777,1.199796,-1.5895054
0.0,0.0,1.0,0.0,-0.5235987755982988,0,0.32063642,-0.99121565,2.854416,0.18910956,-0.33244076,1.5463009,-0.43411547,-1.9204026,-1.3345534,-1.0367914,1.0910004,-0.049314197,1.2205657,-1.4248224
0.0,0.0,1.0,0.0,-0.5235987755982988,0,0.31915966,-0.99233574,2.8426511,0.1953843,-0.2696376,1.5538651,-0.6381204,-1.914448,-1.3163042,-1.035452,1.0935482,-0.031698417,1.2161858,-1.6284037
0.0,0.0,1.0,0.0,-0.5235987755982988,0,0.30923265,-0.99524647,2.8464737,0.1848558,-0.315563,1.5414604,-0.77033967,-1.9089469,-1.3089877,-1.0295823,1.0870281,-0.05072599,1.211195,-1.4569997
0.0,0.0,1.0,0.0,-0.5235987755982988,0,0.32331777,-0.9996566,2.8394895,0.17737687,-0.29432276,1.5511887,-0.374851,-1.9231344,-1.3165525,-1.0369473,1.080352,-0.05142103,1.2136372,-1.6603297
0.0,0.0,1.0,0.0,-0.5235987755982988,0,0.30827442,-0.98950356,2.8429544,0.18484741,-0.29528782,1.5398078,-0.6671516,-1.9311644,-1.3398572,-1.0347477,1.0850506,-0.039156962,1.2063318,-1.4282069
0.0,0.0,1.0,0.0,-0.5235987755982988,0,0.31640887,-0.99177396,2.8392477,0.19171251,-0.29748866,1.5457684,-0.41872224,-1.9266983,-1.3361548,-1.0379622,1.0854917,-0.04255376,1.2196243,-1.5363795
0.0,0.0,1.0,0.0,-0.5235987755982988,0,0.30854583,-0.99726087,2.822496,0.20093285,-0.3151204,1.5454527,-0.37074468,-1.9264207,-1.3429096,-1.0277027,1.0633959,-0.030290317,1.2058302,-1.5425775
0.0,0.0,1.0,0.0,-0.5235987755982988,0,0.31252706,-0.99769664,2.8456008,0.17965631,-0.3007894,1.5637885,-0.5962688,-1.9203745,-1.3411461,-1.044704,1.0980074,-0.058261942,1.2062535,-1.4807925
0.0,0.0,1.0,0.0,-0.5235987755982988,0,0.31675202,-0.99433964,2.8348546,0.19417216,-0.36003947,1.5467287,-0.49631017,-1.9178011,-1.3257662,-1.0358192,1.0729464,-0.041666277,1.2052168,-1.6022307
0.0,0.0,1.0,0.0,-0.5235987755982988,0,0.32391432,-0.9886461,2.853714,0.16797268,-0.3248724,1.5504675,-0.41989475,-1.9179761,-1.3517178,-1.0294017,1.0819869,-0.036260057,1.2268691,-1.5085168
0.0,0.0,1.0,0.0,-0.5235987755982988,0,0.3217978,-0.9914679,2.8343623,0.18281402,-0.2902603,1.5488168,-0.4811383,-1.9229543,-1.306487,-1.0324697,1.0749891,-0.04412681,1.2147293,-1.6489899
0.0,0.0,1.0,0.0,-0.5235987755982988,0,0.3319379,-0.992335,2.839414,0.18416476,-0.27569294,1.5398026,-0.6309702,-1.9292394,-1.3479655,-1.0299622,1.080718,-0.04402261,1.2170329,-1.4764141
0.0,0.0,1.0,0.0,-0.5235987755982988,0,0.33530748,-0.9995587,2.8427858,0.1971361,-0.26612455,1.543413,-0.20534122,-1.9211334,-1.344397,-1.0272577,1.0693595,-0.03176885,1.1983865,-1.583883
0.0,0.0,1.0,0.0,-0.5235987755982988,0,0.3113334,-0.9891352,2.843677,0.18846166,-0.30493644,1.5466906,-0.34361356,-1.9241288,-1.3525269,-1.045261,1.079752,-0.036308102,1.2386719,-1.6708484
0.0,0.0,1.0,0.0,-0.5235987755982988,0,0.3161745,-0.9882977,2.8326242,0.18989691,-0.281883,1.5362564,-0.40379137,-1.9256692,-1.334644,-1.0328776,1.0785749,-0.034701627,1.2010496,-1.4358242
0.0,0.0,1.0,0.0,-0.5235987755982988,0,0.32103884,-0.99507743,2.841105,0.18577553,-0.32964152,1.5332328,-0.421529,-1.9212604,-1.3499372,-1.0355903,1.0666599,-0.031636298,1.1965982,-1.4177799
0.0,0.0,1.0,0.0,-0.5235987755982988,0,0.30843812,-0.9906358,2.835561,0.18123451,-0.29969296,1.5438782,-0.70719916,-1.9249381,-1.3558036,-1.0368367,1.071619,-0.03071205,1.1973974,-1.5498682
0.0,0.0,1.0,0.0,-0.5235987755982988,0,0.32294616,-0.99578255,2.8472812,0.18129103,-0.32703212,1.5493921,-0.37286407,-1.935708,-1.3457671,-1.0186231,1.1021092,-0.04184873,1.2079312,-1.6718348
0.0,0.0,1.0,0.0,-0.5235987755982988,0,0.30270618,-0.9966563,2.8360548,0.1926676,-0.32264602,1.5516281,-0.51030594,-1.9161853,-1.333983,-1.0399616,1.097662,-0.0410337,1.2159317,-1.603543
0.0,0.0,1.0,0.0,-0.5235987755982988,0,0.2925093,-0.98992807,2.8378143,0.19576317,-0.32196468,1.5388252,-0.348251,-1.9083115,-1.3488951,-1.0314946,1.0889194,-0.05393543,1.2161442,-1.5758562
0.0,0.0,1.0,0.0,-0.5235987755982988,0,0.31523597,-0.9900216,2.8271928,0.18661952,-0.3351041,1.5648776,-0.5045199,-1.9268428,-1.3215607,-1.0442607,1.0897706,-0.055399828,1.2005745,-1.6601446
0.0,0.0,1.0,0.0,-0.5235987755982988,0,0.30296296,-0.9970818,2.8474703,0.1733891,-0.2928393,1.5521139,-0.5711432,-1.9188571,-1.3383218,-1.0286558,1.0887259,-0.04112502,1.227475,-1.5955362
0.0,0.0,1.0,0.0,-0.5235987755982988,0,0.3060209,-0.99630696,2.8499448,0.18391055,-0.3376489,1.5553535,-0.30181053,-1.9221481,-1.3455147,-1.0373443,1.0939064,-0.03855669,1.2256017,-1.5930694
0.0,0.0,1.0,0.0,-0.5235987755982988,0,0.29268086,-0.99777853,2.8317387,0.19266008,-0.31395334,1.547121,-0.50853467,-1.9244797,-1.3351438,-1.0341455,1.08494,-0.046763152,1.2091875,-1.6095059
0.0,0.0,1.0,0.0,-0.5235987755982988,0,0.31186455,-0.9895606,2.8481772,0.18701513,-0.3506867,1.556739,-0.32406107,-1.9238888,-1.3017814,-1.0450989,1.0661888,-0.038477447,1.2279022,-1.7241778
0.0,0.0,1.0,0.0,-0.5235987755982988,0,0.29610163,-0.99656945,2.8477292,0.18207484,-0.29468867,1.5549247,-0.5769607,-1.9345471,-1.3298163,-1.0429066,1.0828025,-0.05427874,1.209735,-1.6472638
0.0,0.0,1.0,0.0,-0.5235987755982988,0,0.32215726,-1.0001347,2.8342645,0.17981103,-0.31795934,1.5482956,-0.27833453,-1.924202,-1.3416328,-1.0323635,1.0967512,-0.05393135,1.221906,-1.6014787
0.0,0.0,1.0,0.0,-0.5235987755982988,0,0.30538258,-0.99359816,2.8343654,0.16949472,-0.2983496,1.5569859,-0.6895221,-1.9151819,-1.3389541,-1.0340317,1.0974481,-0.039548527,1.2135056,-1.3944514
0.0,0.0,1.0,0.0,-0.5235987755982988,0,0.2980774,-0.99373007,2.8408449,0.18736917,-0.308031,1.5480058,-0.28231233,-1.9106064,-1.3440164,-1.0521619,1.0757496,-0.03740472,1.22372,-1.4840611
0.0,0.0,1.0,0.0,-0.5235987755982988,0,0.32379228,-0.99581695,2.8448672,0.1841355,-0.31950036,1.5274681,-0.60060406,-1.9141078,-1.3085917,-1.041196,1.0845996,-0.056923218,1.2044128,-1.7102201
0.0,0.0,1.0,0.0,-0.5235987755982988,0,0.3096794,-0.9935715,2.8344235,0.18582627,-0.31304803,1.5524117,-0.20009467,-1.9255272,-1.3254231,-1.0250815,1.0846031,-0.038482934,1.2232211,-1.5484396
0.0,0.0,1.0,0.0,-0.5235987755982988,0,0.31592152,-0.9948677,2.8511276,0.18902919,-0.28435087,1.5423512,-0.55758435,-1.9211292,-1.3160396,-1.0279531,1.0847487,-0.052905858,1.2036388,-1.6650279
0.0,0.0,1.0,0.0,-0.5235987755982988,0,0.2990279,-0.9950646,2.8457685,0.19973849,-0.30356166,1.5473502,-0.2187184,-1.9285314,-1.3302263,-1.0446986,1.1006697,-0.035348658,1.1835016,-1.5505004
0.0,0.0,1.0,0.0,-0.5235987755982988,0,0.302866,-0.9908644,2.8370898,0.20023888,-0.2979485,1.5613235,-0.58461833,-1.9260675,-1.3406042,-1.0288166,1.0662435,-0.029393654,1.2144268,-1.4532713
0.0,0.0,1.0,0.0,-0.5235987755982988,0,0.30751356,-0.9914427,2.8371468,0.17682812,-0.30972075,1.5598893,-0.5945809,-1.9167407,-1.3290673,-1.0222576,1.0714158,-0.04884314,1.2185421,-1.5442618
0.0,0.0,1.0,0.0,-0.5235987755982988,0,0.32298955,-0.990801,2.834944,0.18274218,-0.32252148,1.5484849,-0.74389124,-1.9206455,-1.3107877,-1.0237553,1.0872443,-0.04128364,1.1950318,-1.4946617
0.0,0.0,1.0,0.0,-0.5235987755982988,0,0.30437225,-0.98898435,2.8395426,0.18069969,-0.29380655,1.5464612,-0.3176021,-1.9203091,-1.3078479,-1.036498,1.079813,-0.045936402,1.1943749,-1.6391418
0.0,0.0,1.0,0.0,-0.5235987755982988,0,0.31949842,-0.99288106,2.8610106,0.1696177,-0.29796132,1.554913,-0.34148797,-1.924539,-1.3201038,-1.0345893,1.0849936,-0.029126761,1.2039716,-1.4283462
0.0,0.0,1.0,0.0,-0.5235987755982988,0,0.32601857,-0.99248594,2.840774,0.19321749,-0.3072694,1.5515397,-0.653413,-1.9128422,-1.3246651,-1.0189732,1.1079557,-0.03822166,1.1908618,-1.5421897
0.0,0.0,1.0,0.0,-0.5235987755982988,0,0.3074216,-0.99901307,2.8415844,0.1688324,-0.33908564,1.5472897,-0.40237346,-1.9189347,-1.3448385,-1.0361747,1.0893027,-0.036790732,1.1891733,-1.417495
0.0,0.0,1.0,0.0,-0.5235987755982988,0,0.30609885,-1.000367,2.8420026,0.16763201,-0.32467204,1.5383536,-0.4142981,-1.9160943,-1.3312486,-1.0440704,1.0843743,-0.044753395,1.2005364,-1.5317348
0.0,0.0,1.0,0.0,-0.5235987755982988,0,0.31417844,-0.9965442,2.8367927,0.16804878,-0.3406682,1.5601008,-0.27396178,-1.9184829,-1.3424473,-1.0267888,1.074444,-0.057364557,1.2177174,-1.6564814
0.0,0.0,1.0,0.0,-0.5235987755982988,0,0.29820403,-0.99086934,2.8614259,0.17616652,-0.34679082,1.5534494,-0.49089292,-1.9171773,-1.32898,-1.0202657,1.0905873,-0.042207714,1.2184814,-1.625154
0.0,0.0,1.0,0.0,-0.5235987755982988,0,0.3025179,-0.99143046,2.838224,0.18610716,-0.29583964,1.5528035,-0.34217075,-1.9325905,-1.3424634,-1.0397279,1.0799322,-0.043880884,1.211226,-1.6785569
0.0,0.0,1.0,0.0,-0.5235987755982988,0,0.29558212,-0.9947165,2.8357205,0.17927231,-0.31629324,1.5397177,-0.24058065,-1.9247653,-1.3146929,-1.0213184,1.0747737,-0.0513858,1.2186568,-1.467344
0.0,0.0,1.0,0.0,-0.5235987755982988,0,0.30347803,-0.9888504,2.8359041,0.1815332,-0.3037455,1.541883,-0.5037259,-1.9280452,-1.3350614,-1.0262978,1.0780027,-0.05974342,1.2177364,-1.5480722
0.0,0.0,1.0,0.0,-0.5235987755982988,0,0.29879418,-0.9943257,2.8325615,0.1789791,-0.30639437,1.5549308,-0.39799172,-1.913402,-1.3572716,-1.0140033,1.0900029,-0.045148052,1.2157433,-1.5972116
0.0,0.0,1.0,0.0,-0.5235987755982988,0,0.29361683,-0.9892857,2.8378978,0.19111106,-0.30280364,1.5532386,-0.74919134,-1.909866,-1.3325498,-1.0351214,1.0975124,-0.04595944,1.1872256,-1.5956775
0.0,0.0,1.0,0.0,-0.5235987755982988,0,0.30839857,-0.9869762,2.8368418,0.17626342,-0.32990664,1.5611681,-0.617701,-1.9243373,-1.3336014,-1.0343955,1.0891409,-0.056867417,1.2129502,-1.6454058
0.0,0.0,1.0,0.0,-0.5235987755982988,0,0.31129226,-0.98635757,2.8375483,0.17594065,-0.28102514,1.5404298,-0.49720398,-1.916385,-1.3145127,-1.0317165,1.073767,-0.03908721,1.2084681,-1.6167892
0.0,0.0,1.0,0.0,-0.5235987755982988,0,0.30222556,-0.9902673,2.8360944,0.18315448,-0.27767688,1.5526261,-0.42784047,-1.9218197,-1.3318143,-1.0359218,1.079275,-0.044578888,1.2147946,-1.5223374
0.0,0.0,1.0,0.0,-0.5235987755982988,0,0.30753064,-0.98734164,2.8241265,0.18033183,-0.32260805,1.5521511,-0.37782055,-1.9040895,-1.3185049,-1.041322,1.0782466,-0.052477397,1.2035565,-1.6005684
0.0,0.0,1.0,0.0,-0.5235987755982988,0,0.32464072,-0.994598,2.8375487,0.17527804,-0.28814065,1.5484655,-0.7466059,-1.9153676,-1.3456217,-1.0304992,1.0901375,-0.040307015,1.1938487,-1.5568857
0.0,0.0,1.0,0.0,-0.5235987755982988,0,0.3179369,-0.99324214,2.8348157,0.18375564,-0.298108,1.5625302,-0.53616315,-1.9325049,-1.3308576,-1.0300838,1.0884401,-0.05442082,1.2134616,-1.5607525
0.0,0.0,1.0,0.0,-0.5235987755982988,0,0.31127518,-0.98070306,2.8440788,0.17271014,-0.30553466,1.5430049,-0.4537669,-1.9155899,-1.3079493,-1.0348065,1.0854286,-0.050558385,1.2187476,-1.6572616
0.0,0.0,1.0,0.0,-0.5235987755982988,0,0.31875873,-0.9926901,2.8370914,0.18101701,-0.29412046,1.5436187,-0.35211977,-1.9255044,-1.3350215,-1.0273612,1.0729365,-0.033917546,1.1982296,-1.6372235
0.0,0.0,1.0,0.0,-0.5235987755982988,0,0.3170324,-0.9844321,2.8563688,0.1841237,-0.3236826,1.550505,-0.7058822,-1.9186115,-1.3319352,-1.040744,1.0821522,-0.032555617,1.2037736,-1.5341164
0.0,0.0,1.0,0.0,-0.5235987755982988,0,0.30411503,-0.9875216,2.8364534,0.1785561,-0.34371972,1.5614916,-0.6315918,-1.9302176,-1.3122004,-1.0381188,1.0814366,-0.055296443,1.2384056,-1.5958087
0.0,0.0,1.0,0.0,-0.5235987755982988,0,0.3151979,-0.9945103,2.833601,0.18427153,-0.31955856,1.557326,-0.45155728,-1.9348142,-1.3188145,-1.0354995,1.0778556,-0.032577172,1.2276313,-1.5072889
0.0,0.0,1.0,0.0,-0.5235987755982988,0,0.31393048,-0.9887603,2.8248274,0.17523897,-0.33130988,1.5499493,-0.46415374,-1.9247302,-1.3102645,-1.0268908,1.088123,-0.037789702,1.2096115,-1.6326958
0.0,0.0,1.0,0.0,-0.5235987755982988,0,0.31152332,-0.98949206,2.8422854,0.17225862,-0.3238471,1.5474601,-0.7843973,-1.9351474,-1.3357015,-1.0276043,1.0891556,-0.028758287,1.2167,-1.5659125
0.0,0.0,1.0,0.0,-0.5235987755982988,0,0.31239304,-0.99412924,2.8401253,0.1975672,-0.33231953,1.5490904,-0.6830485,-1.9328123,-1.3139503,-1.0375545,1.0855285,-0.03790608,1.2054348,-1.5896556
0.0,0.0,1.0,0.0,-0.5235987755982988,0,0.33237594,-0.9963047,2.8281975,0.17399293,-0.30509645,1.549409,-0.32253066,-1.937799,-1.3087127,-1.0508921,1.1066653,-0.04464117,1.18861,-1.5853069
0.0,0.0,1.0,0.0,-0.5235987755982988,0,0.32125086,-0.993853,2.851814,0.18070535,-0.32886502,1.5465231,-0.47120488,-1.9148973,-1.328555,-1.0370872,1.084065,-0.047503725,1.2190783,-1.3630601
0.0,0.0,1.0,0.0,-0.5235987755982988,0,0.30858785,-1.0001819,2.8355267,0.19475189,-0.3099837,1.5552243,-0.38578552,-1.9271777,-1.325471,-1.0393687,1.0804616,-0.035506204,1.1982527,-1.6157039
0.0,0.0,1.0,0.0,-0.5235987755982988,0,0.30557802,-0.9762118,2.8287704,0.18167856,-0.2950809,1.5493604,-0.44701567,-1.9271127,-1.3040737,-1.0503523,1.0788876,-0.04235179,1.1918887,-1.4194789
0.0,0.0,1.0,0.0,-0.5235987755982988,0,0.30676743,-0.9931809,2.8429756,0.1805006,-0.29553005,1.5518736,-0.5858247,-1.9216312,-1.3321288,-1.0310575,1.0777148,-0.03706796,1.2051427,-1.5419638
0.0,0.0,1.0,0.0,-0.5235987755982988,0,0.31963328,-0.9853838,2.8197033,0.20792875,-0.2992662,1.5459031,-0.5607998,-1.9374262,-1.304168,-1.0242866,1.0898283,-0.050673805,1.2183831,-1.6123849
0.0,0.0,1.0,0.0,-0.5235987755982988,0,0.30497882,-0.98821676,2.8411725,0.2036878,-0.33836386,1.5504775,-0.37915564,-1.9237328,-1.3269297,-1.0426943,1.0713526,-0.027952507,1.1964382,-1.5922885
0.0,0.0,1.0,0.0,-0.5235987755982988,0,0.3160845,-0.98322,2.8513916,0.1919623,-0.31075615,1.5519775,-0.37030885,-1.9254986,-1.317914,-1.0325483,1.0808688,-0.05029284,1.1943505,-1.5724953
0.0,0.0,1.0,0.0,-0.5235987755982988,0,0.30131543,-0.9916778,2.8267045,0.18754089,-0.34061188,1.5459098,-0.5768032,-1.9270891,-1.3302594,-1.038663,1.069855,-0.054062817,1.2368041,-1.5808218
0.0,0.0,1.0,0.0,-0.5235987755982988,0,0.31567296,-0.99160105,2.8324068,0.18750364,-0.2753326,1.5490638,-0.31418055,-1.9362017,-1.3092164,-1.0332112,1.0880876,-0.032626726,1.2143439,-1.5038882
0.0,0.0,1.0,0.0,-0.5235987755982988,0,0.32565808,-0.99716085,2.838241,0.19330452,-0.32878926,1.5394589,-0.5022445,-1.9191426,-1.3314723,-1.032426,1.0865581,-0.05840356,1.2183319,-1.6265893
0.0,0.0,1.0,0.0,-0.5235987755982988,0,0.3065928,-0.9860061,2.8451421,0.18375228,-0.33216757,1.5487542,-0.25995517,-1.9215485,-1.3138149,-1.0259281,1.0899585,-0.036989648,1.2055805,-1.479375
0.0,0.0,1.0,0.0,-0.5235987755982988,0,0.3044098,-0.99099296,2.8386805,0.17826922,-0.30965793,1.5431154,-0.55899096,-1.924991,-1.3213036,-1.0357264,1.0919808,-0.046886377,1.2109399,-1.4806889
0.0,0.0,1.0,0.0,-0.5235987755982988,0,0.31819913,-0.9958779,2.8317695,0.17962024,-0.30257922,1.5455543,-0.39033082,-1.9136342,-1.3091408,-1.0498654,1.0955476,-0.05061214,1.1997247,-1.7941685
0.0,0.0,1.0,0.0,-0.5235987755982988,0,0.32261828,-0.99529517,2.8382497,0.17085038,-0.34242588,1.5445528,-0.35383376,-1.9201264,-1.2961327,-1.0345222,1.0822331,-0.05195144,1.2143077,-1.4468198
0.0,0.0,1.0,0.0,-0.5235987755982988,0,0.30763182,-0.9931178,2.8374898,0.19134891,-0.28972143,1.5450178,-0.44114232,-1.9164492,-1.3423398,-1.025278,1.0685772,-0.041603565,1.194586,-1.4607542
0.0,0.0,1.0,0.0,-0.5235987755982988,0,0.3181334,-1.0035793,2.850217,0.1795897,-0.32288665,1.5502334,-0.5414304,-1.9194399,-1.3458204,-1.0437809,1.0886436,-0.03854876,1.1981124,-1.526455
0.0,0.0,1.0,0.0,-0.5235987755982988,0,0.31411615,-0.9936021,2.8325214,0.18990599,-0.29847062,1.5484413,-0.43326947,-1.9258094,-1.3390825,-1.0367616,1.0741736,-0.041512825,1.2143581,-1.5466018
0.0,0.0,1.0,0.0,-0.5235987755982988,0,0.31630862,-0.9932517,2.8457417,0.1881269,-0.341546,1.5387111,-0.47572544,-1.920496,-1.3366351,-1.0255005,1.07427,-0.0372268,1.221261,-1.4685445
0.0,0.0,1.0,0.0,-0.5235987755982988,0,0.32439357,-0.9938904,2.8413517,0.19383742,-0.32368964,1.537649,-0.30846286,-1.9199685,-1.3417557,-1.0432762,1.0648148,-0.04247961,1.2061182,-1.6016558
0.0,0.0,1.0,0.0,-0.5235987755982988,0,0.30737552,-0.9974884,2.8374126,0.19015612,-0.33206907,1.5506066,-0.46825007,-1.9218043,-1.3254393,-1.0442705,1.0630949,-0.020159563,1.2302012,-1.527786
0.0,0.0,1.0,0.0,-0.5235987755982988,0,0.31983176,-0.99858546,2.8348927,0.1816387,-0.32653296,1.5557455,-0.39709833,-1.9173832,-1.3177752,-1.047485,1.085238,-0.06822838,1.2049752,-1.617652
0.0,0.0,1.0,0.0,-0.5235987755982988,0,0.31371823,-0.99005985,2.8319068,0.18464857,-0.30954322,1.5533391,-0.38047996,-1.9277446,-1.3349168,-1.0248647,1.1020974,-0.038615525,1.2031459,-1.4905788
0.0,0.0,1.0,0.0,-0.5235987755982988,0,0.3201853,-0.9865539,2.8310373,0.17967342,-0.26464576,1.5305942,-0.5679059,-1.932026,-1.3527148,-1.0400696,1.0847248,-0.038790476,1.2207091,-1.5602725
0.0,0.0,1.0,0.0,-0.5235987755982988,0,0.33052942,-0.98592806,2.8390288,0.18101934,-0.28447163,1.5455244,-0.61244184,-1.9187871,-1.3263558,-1.035103,1.0768312,-0.06424307,1.1950128,-1.5369312
0.0,0.0,1.0,0.0,-0.5235987755982988,0,0.31082532,-0.9949307,2.8278024,0.17955764,-0.297577,1.5506889,-0.59537166,-1.9137237,-1.3567892,-1.0348525,1.0621812,-0.053475194,1.1994951,-1.6143514
0.0,0.0,1.0,0.0,-0.5235987755982988,0,0.32432383,-0.9981118,2.8344278,0.18393143,-0.28933325,1.546331,-0.4579704,-1.9298949,-1.3384724,-1.0406575,1.0807294,-0.046994466,1.2141162,-1.6289904
0.0,0.0,1.0,0.0,-0.5235987755982988,0,0.29390368,-0.9910335,2.8381546,0.17221661,-0.31238112,1.5385784,-0.70499486,-1.9195559,-1.3051775,-1.0352317,1.0862385,-0.056880813,1.2113597,-1.460541
0.0,0.0,1.0,0.0,-0.5235987755982988,0,0.30881742,-0.98806244,2.8500566,0.16199693,-0.31080347,1.5645417,-0.41786188,-1.9247823,-1.3144462,-1.0365767,1.0736346,-0.062151,1.2201544,-1.7302032
0.0,0.0,1.0,0.0,-0.5235987755982988,0,0.3002513,-0.988777,2.847379,0.18074717,-0.33346453,1.564386,-0.6211425,-1.9104074,-1.3185703,-1.031312,1.077658,-0.07783841,1.2105826,-1.6402547
0.0,0.0,1.0,0.0,-0.5235987755982988,0,0.3112784,-0.98618376,2.831384,0.18713161,-0.33257332,1.5382917,-0.4449846,-1.9319135,-1.32842,-1.0303466,1.0890956,-0.056822237,1.2148132,-1.6471376
0.0,0.0,1.0,0.0,-0.5235987755982988,0,0.31183964,-0.99032867,2.8330884,0.19571665,-0.32035434,1.5517683,-0.48027372,-1.915374,-1.3045104,-1.0350835,1.0779694,-0.03964483,1.2141615,-1.7610831
0.0,0.0,1.0,0.0,-0.5235987755982988,0,0.31679097,-0.99084735,2.8315961,0.17830563,-0.3467008,1.5491216,-0.47749585,-1.9331238,-1.3434793,-1.0403539,1.0905939,-0.038625244,1.2098029,-1.4194299
0.0,0.0,1.0,0.0,-0.5235987755982988,0,0.32266402,-0.9811997,2.848149,0.19398306,-0.37595907,1.55356,-0.6983638,-1.9279608,-1.3223957,-1.0339113,1.0873424,-0.049018864,1.2165285,-1.6625053
0.0,0.0,1.0,0.0,-0.5235987755982988,0,0.32041872,-0.9925353,2.8436859,0.1639224,-0.32587713,1.5632384,-0.5977602,-1.916345,-1.3218915,-1.0241305,1.0875773,-0.047204453,1.1948678,-1.5542345
0.0,0.0,1.0,0.0,-0.5235987755982988,0,0.3068004,-0.9982789,2.8539393,0.17882009,-0.26851305,1.5396311,-0.4996058,-1.9325536,-1.3467447,-1.0398896,1.1033874,-0.054275464,1.1962363,-1.6255966
0.0,0.0,1.0,0.0,-0.5235987755982988,0,0.31738487,-0.9852252,2.8336222,0.1764698,-0.34304732,1.5476375,-0.2579107,-1.9116273,-1.3111988,-1.0349352,1.0718625,-0.06226659,1.2114633,-1.5372409
0.0,0.0,1.0,0.0,-0.5235987755982988,0,0.32381243,-0.99131763,2.8264496,0.17184469,-0.29298595,1.5481774,-0.7230531,-1.9349458,-1.2991791,-1.0463964,1.0685992,-0.047980756,1.2077576,-1.4814342
0.0,0.0,1.0,0.0,-0.5235987755982988,0,0.31830454,-0.99159944,2.8372889,0.17788991,-0.2842052,1.5482894,-0.5032742,-1.9160435,-1.3313754,-1.0429343,1.0676644,-0.03260677,1.2289791,-1.5290265
0.0,0.0,1.0,0.0,-0.5235987755982988,0,0.29953304,-0.98940194,2.838723,0.17484333,-0.3435586,1.5483891,-0.6094923,-1.9225144,-1.2990566,-1.0290791,1.0644892,-0.046417102,1.2419568,-1.4405773
0.0,0.0,1.0,0.0,-0.5235987755982988,0,0.32357115,-0.9913873,2.8470075,0.17931879,-0.2925532,1.5674863,-0.7166024,-1.917608,-1.3260725,-1.0366554,1.0720124,-0.038024824,1.2229636,-1.6121179
0.0,0.0,1.0,0.0,-0.5235987755982988,0,0.31125328,-0.99150133,2.8407738,0.17890957,-0.31988454,1.5521959,-0.43717748,-1.9257249,-1.319764,-1.0354158,1.0723463,-0.014249386,1.1979439,-1.3910977
0.0,0.0,1.0,0.0,-0.5235987755982988,0,0.31323287,-0.98587835,2.8349242,0.17088154,-0.31052196,1.5474702,-0.64572835,-1.9111965,-1.3519523,-1.0244511,1.0895281,-0.03889963,1.1953949,-1.5909232
0.0,0.0,1.0,0.0,-0.5235987755982988,0,0.31784603,-0.98532784,2.833846,0.18199052,-0.35413566,1.5363698,-0.6090457,-1.9208745,-1.3366392,-1.0283701,1.0985172,-0.043592233,1.1807717,-1.6791655
0.0,0.0,1.0,0.0,-0.5235987755982988,0,0.32163465,-0.98782134,2.8324203,0.18559055,-0.28928363,1.5458403,-0.6639802,-1.9211116,-1.3308574,-1.026703,1.0795413,-0.05111274,1.2091432,-1.4733684
0.0,0.0,1.0,0.0,-0.5235987755982988,0,0.31737566,-0.9983086,2.8439574,0.18249962,-0.296203,1.5581958,-0.5624539,-1.927162,-1.3376896,-1.032349,1.0805693,-0.045965724,1.2238247,-1.4855407
0.0,0.0,1.0,0.0,-0.5235987755982988,0,0.30006707,-0.9861838,2.8359332,0.17839016,-0.2854248,1.5545986,-0.5360464,-1.9221648,-1.3543574,-1.0319253,1.0918626,-0.0366278,1.2099878,-1.6216435
0.0,0.0,1.0,0.0,-0.5235987755982988,0,0.31211793,-0.99142534,2.8363278,0.18905419,-0.31908056,1.5484623,-0.3886448,-1.9332609,-1.327857,-1.043474,1.1007919,-0.054102954,1.2007774,-1.7765155
0.0,0.0,1.0,0.0,-0.5235987755982988,0,0.32672718,-0.98974633,2.8475869,0.1937791,-0.3299887,1.5573052,-0.5459246,-1.92337,-1.3182067,-1.0416858,1.0768232,-0.036627434,1.2138414,-1.6119512
0.0,0.0,1.0,0.0,-0.5235987755982988,0,0.31209466,-0.988943,2.8369396,0.18668318,-0.3262608,1.5454372,-0.2739862,-1.9269094,-1.3138521,-1.0378807,1.0776256,-0.047322117,1.2278789,-1.7049137
0.0,0.0,1.0,0.0,-0.5235987755982988,0,0.33049884,-0.9962013,2.843844,0.18069118,-0.34368587,1.5462246,-0.31741187,-1.9181545,-1.3483166,-1.0342898,1.0682231,-0.033874247,1.2052735,-1.5007437
0.0,0.0,1.0,0.0,-0.5235987755982988,0,0.31517717,-0.9872101,2.8309155,0.19049188,-0.2826304,1.5568266,-0.18414362,-1.9212034,-1.3278084,-1.0354078,1.0777322,-0.051407706,1.2216045,-1.5750135
0.0,0.0,1.0,0.0,-0.5235987755982988,0,0.32679573,-0.98756534,2.8386333,0.18269561,-0.33925954,1.5484219,-0.48595276,-1.9190003,-1.3295552,-1.0427775,1.081855,-0.056092564,1.206309,-1.509063
0.0,0.0,1.0,0.0,-0.5235987755982988,0,0.30166608,-0.99210954,2.8391557,0.1829331,-0.35260335,1.5442265,-0.51921386,-1.9118649,-1.3037531,-1.0302131,1.080674,-0.050464,1.1892924,-1.7042675
0.0,0.0,1.0,0.0,-0.5235987755982988,0,0.30968472,-0.9801729,2.8381248,0.19260074,-0.32777095,1.5578423,-0.85750145,-1.9355807,-1.3125788,-1.030581,1.0771015,-0.018703377,1.1962947,-1.4504695
0.0,0.0,1.0,0.0,-0.5235987755982988,0,0.32029912,-0.99066126,2.8530424,0.18091947,-0.28817385,1.5523905,-0.493956,-1.913344,-1.3231696,-1.0206825,1.0703008,-0.05101795,1.2289507,-1.4030443
0.0,0.0,1.0,0.0,-0.5235987755982988,0,0.30514592,-0.99515045,2.850507,0.174056,-0.30999634,1.5411389,-0.27156574,-1.9281955,-1.3287657,-1.0329616,1.0791476,-0.050326955,1.213414,-1.7074744
0.0,0.0,1.0,0.0,-0.5235987755982988,0,0.3130867,-0.9988872,2.8566449,0.18910053,-0.32405934,1.5536463,-0.48028204,-1.9141443,-1.3352091,-1.0357189,1.0652092,-0.0340445,1.2084193,-1.5296111
0.0,0.0,1.0,0.0,-0.5235987755982988,0,0.3122861,-0.99352723,2.828452,0.1903308,-0.34632745,1.5592935,-0.45230412,-1.9307581,-1.3384259,-1.0399504,1.0617336,-0.035939243,1.238147,-1.5535026
0.0,0.0,1.0,0.0,-0.5235987755982988,0,0.31454167,-0.99487895,2.8258708,0.17647532,-0.3301585,1.548545,-0.5330739,-1.9254808,-1.3300719,-1.0232687,1.0778412,-0.046415646,1.2190846,-1.4463452
0.0,0.0,1.0,0.0,-0.5235987755982988,0,0.31665778,-0.987895,2.844191,0.1766447,-0.32998738,1.5599226,-0.22336908,-1.9317815,-1.3424897,-1.0226344,1.0765204,-0.047435936,1.1905181,-1.5329664
0.0,0.0,1.0,0.0,-0.5235987755982988,0,0.31733358,-0.9843204,2.837516,0.18888575,-0.32551083,1.5668887,-0.39247683,-1.9247124,-1.3439382,-1.0390893,1.06321,-0.052488297,1.219227,-1.63992
0.0,0.0,1.0,0.0,-0.5235987755982988,0,0.3302638,-0.9915944,2.8268287,0.18701181,-0.2924067,1.555926,-0.35976952,-1.930148,-1.3242028,-1.0244609,1.0822449,-0.04366191,1.2327504,-1.6066431
0.0,0.0,1.0,0.0,-0.5235987755982988,0,0.31630564,-0.9901983,2.8379908,0.17206204,-0.29799646,1.5528158,-0.42675394,-1.9330388,-1.3467495,-1.029576,1.0807928,-0.061709836,1.206273,-1.5938271
0.0,0.0,1.0,0.0,-0.5235987755982988,0,0.31680298,-0.9900012,2.840396,0.17613886,-0.3422379,1.5443376,-0.62738645,-1.9238359,-1.3185956,-1.0282954,1.0686014,-0.028922213,1.2047228,-1.5277646
0.0,0.0,1.0,0.0,-0.5235987755982988,0,0.31655803,-0.99250287,2.8428679,0.17082398,-0.30725616,1.55164,-0.5419311,-1.9146779,-1.3263869,-1.0425265,1.0726683,-0.038531866,1.2042546,-1.6200951
0.0,0.0,1.0,0.0,-0.5235987755982988,0,0.32248232,-0.99682355,2.8554385,0.1755737,-0.301827,1.5514528,-0.4072248,-1.9315484,-1.3363979,-1.0377129,1.0801522,-0.035951596,1.188192,-1.6310786
0.0,0.0,1.0,0.0,-0.5235987755982988,0,0.30975193,-0.9825441,2.853019,0.17445788,-0.29201078,1.5421312,-0.6896798,-1.9148515,-1.3029963,-1.0373998,1.1034904,-0.06580742,1.1958269,-1.7188659
0.0,0.0,1.0,0.0,-0.5235987755982988,0,0.3122721,-0.9881785,2.8427238,0.16548574,-0.29989955,1.5599813,-0.46505982,-1.9396787,-1.3480804,-1.0265502,1.0862333,-0.054643273,1.2118323,-1.4389368
0.0,0.0,1.0,0.0,-0.5235987755982988,0,0.32830644,-0.98850185,2.823645,0.18878353,-0.32224664,1.5552257,-0.5708954,-1.917031,-1.3379129,-1.0262328,1.0705372,-0.05261898,1.2176261,-1.4904581
0.0,0.0,1.0,0.0,-0.5235987755982988,0,0.31142557,-0.98990834,2.8331912,0.17286526,-0.33005464,1.5545816,-0.47247022,-1.9264584,-1.3362006,-1.0347102,1.0784544,-0.025515048,1.201313,-1.4468753
0.0,0.0,1.0,0.0,-0.5235987755982988,0,0.32662988,-0.98975384,2.8394928,0.18067804,-0.3177556,1.5472088,-0.5180468,-1.9105561,-1.3262663,-1.0380616,1.0719897,-0.050614238,1.2122662,-1.6138898
0.0,0.0,1.0,0.0,-0.5235987755982988,0,0.3121275,-0.9902773,2.8278468,0.17549895,-0.3373881,1.5522591,-0.6443595,-1.9243274,-1.3068703,-1.0328223,1.0801394,-0.043629363,1.2126386,-1.5823699
0.0,0.0,1.0,0.0,-0.5235987755982988,0,0.3195417,-0.99239594,2.8333616,0.18223387,-0.32830143,1.5627578,-0.54245216,-1.9170039,-1.3259246,-1.0443859,1.0763546,-0.037897386,1.1956466,-1.4457442
0.0,0.0,1.0,0.0,-0.5235987755982988,0,0.3015728,-0.99187744,2.8496103,0.17343841,-0.312775,1.5590404,-0.6416915,-1.9203082,-1.3400322,-1.0374789,1.0917912,-0.063939855,1.1961559,-1.592069
0.0,0.0,1.0,0.0,-0.5235987755982988,0,0.3215175,-0.99332356,2.844929,0.15750216,-0.32762513,1.5619044,-0.25348988,-1.9224218,-1.299814,-1.0252455,1.0701171,-0.036356892,1.1999733,-1.5815655
0.0,0.0,1.0,0.0,-0.5235987755982988,0,0.31943887,-0.9943893,2.8331943,0.16286534,-0.31901997,1.5593499,-0.30414155,-1.9236513,-1.3097367,-1.0366559,1.0776088,-0.038326513,1.2155448,-1.6133769
0.0,0.0,1.0,0.0,-0.5235987755982988,0,0.33064872,-0.99804914,2.831894,0.19235158,-0.30154315,1.5474789,-0.6493814,-1.9222176,-1.3467362,-1.0378675,1.0859827,-0.051172234,1.2170491,-1.3701483
0.0,0.0,1.0,0.0,-0.5235987755982988,0,0.32577163,-0.9891518,2.8348577,0.18245903,-0.35571483,1.5365026,-0.5247485,-1.9238777,-1.323033,-1.0380826,1.0893153,-0.032666247,1.2133169,-1.6090809
0.0,0.0,1.0,0.0,-0.5235987755982988,0,0.30867618,-0.99385667,2.833878,0.18640918,-0.29495287,1.5598152,-0.6048346,-1.9300878,-1.3363239,-1.0240651,1.0784533,-0.045115195,1.2220012,-1.5995697
0.0,0.0,1.0,0.0,-0.5235987755982988,0,0.29809794,-0.9909251,2.8477736,0.18419918,-0.31551874,1.5522199,-0.5170191,-1.9292792,-1.3371923,-1.0380661,1.0739546,-0.049213674,1.2145892,-1.4547368
0.0,0.0,1.0,0.0,-0.5235987755982988,0,0.29299533,-0.9961591,2.8383455,0.16462858,-0.30889118,1.5573786,-0.40360743,-1.9169742,-1.336268,-1.0424509,1.0776008,-0.052375317,1.1864746,-1.6367807
0.0,0.0,1.0,0.0,-0.5235987755982988,0,0.3136616,-0.9904205,2.8601282,0.1961109,-0.3040899,1.5460719,-0.47974494,-1.9093273,-1.3306171,-1.0198087,1.0847557,-0.0408633,1.1858394,-1.5627525
0.0,0.0,1.0,0.0,-0.5235987755982988,0,0.32100952,-0.9890161,2.8410797,0.18958706,-0.30901167,1.5402588,-0.34942585,-1.9253844,-1.3044668,-1.03313,1.0680155,-0.03867009,1.2124733,-1.6473857
0.0,0.0,1.0,0.0,-0.5235987755982988,0,0.30830014,-0.99620235,2.8323169,0.18798155,-0.31671065,1.5387416,-0.45963478,-1.9247205,-1.3493432,-1.038124,1.0944521,-0.05019927,1.2019628,-1.7008533
0.0,0.0,1.0,0.0,-0.5235987755982988,0,0.31727213,-0.99313086,2.8446758,0.18384203,-0.32185325,1.5409503,-0.537163,-1.925277,-1.3136207,-1.0260674,1.0897593,-0.052178554,1.2184477,-1.6036918
0.0,0.0,1.0,0.0,-0.5235987755982988,0,0.30301255,-0.99366724,2.8457108,0.18291292,-0.28643018,1.5407475,-0.37497082,-1.9280081,-1.3229394,-1.0494943,1.0749741,-0.053772632,1.2429414,-1.5530035
0.0,0.0,1.0,0.0,-0.5235987755982988,0,0.3039434,-0.98746485,2.8317149,0.16464198,-0.2665835,1.5486999,-0.7366464,-1.9233205,-1.3085345,-1.0448524,1.0696023,-0.03623458,1.2056726,-1.5493797
0.0,0.0,1.0,0.0,-0.5235987755982988,0,0.30109167,-0.9807928,2.8350503,0.18984607,-0.3326921,1.5501444,-0.59893715,-1.9129506,-1.3352636,-1.0279025,1.086283,-0.037097953,1.2114103,-1.5996864
0.0,0.0,1.0,0.0,-0.5235987755982988,0,0.30055994,-0.9907559,2.8553715,0.19129021,-0.33590943,1.5551068,-0.35504884,-1.9302161,-1.3158072,-1.0425841,1.0883505,-0.044238426,1.2087331,-1.6188527
0.0,0.0,1.0,0.0,-0.5235987755982988,0,0.3182551,-1.001992,2.8306344,0.21044096,-0.32711345,1.5517166,-0.49671978,-1.9203278,-1.3272327,-1.035977,1.0870248,-0.04278753,1.2052618,-1.5774406
0.0,0.0,1.0,0.0,-0.5235987755982988,0,0.2974956,-1.0031205,2.836419,0.19133683,-0.30972564,1.5473354,-0.35514852,-1.9247615,-1.3177072,-1.0363044,1.0894339,-0.02564988,1.2182002,-1.5685414
0.0,0.0,1.0,0.0,-0.5235987755982988,0,0.31117925,-0.9869504,2.8518808,0.18834178,-0.35371473,1.55354,-0.44682008,-1.9254168,-1.3301959,-1.0268774,1.0810797,-0.037463453,1.2002817,-1.5087875
0.0,0.0,1.0,0.0,-0.5235987755982988,0,0.29816344,-0.9961099,2.8342583,0.17840374,-0.32422256,1.5463536,-0.58967423,-1.9276365,-1.3276055,-1.0244336,1.0805202,-0.057123415,1.2279303,-1.553018
0.0,0.0,1.0,0.0,-0.5235987755982988,0,0.29816344,-0.9961099,2.8342583,0.17840374,-0.32422256,1.5463536,-0.58967423,-1.9276365,-1.3276055,-1.0244336,1.0805202,-0.057123415,1.2279303,-1.553018
0.0,0.0,1.0,0.0,-0.5235987755982988,0,0.29816344,-0.9961099,2.8342583,0.17840374,-0.32422256,1.5463536,-0.58967423,-1.9276365,-1.3276055,-1.0244336,1.0805202,-0.057123415,1.2279303,-1.553018
0.0,0.0,1.0,0.0,-0.5235987755982988,0,0.29816344,-0.9961099,2.8342583,0.17840374,-0.32422256,1.5463536,-0.58967423,-1.9276365,-1.3276055,-1.0244336,1.0805202,-0.057123415,1.2279303,-1.553018
0.0,0.0,1.0,0.0,-0.5235987755982988,0,0.29816344,-0.9961099,2.8342583,0.17840374,-0.32422256,1.5463536,-0.58967423,-1.9276365,-1.3276055,-1.0244336,1.0805202,-0.057123415,1.2279303,-1.553018
0.0,0.0,1.0,0.0,-0.5235987755982988,0,0.29816344,-0.9961099,2.8342583,0.17840374,-0.32422256,1.5463536,-0.58967423,-1.9276365,-1.3276055,-1.0244336,1.0805202,-0.057123415,1.2279303,-1.553018
0.0,0.0,1.0,0.0,-0.5235987755982988,0,0.30820873,-0.99306816,2.84537,0.18845591,-0.35624915,1.533399,-0.2947363,-1.9148955,-1.3438196,-1.0331773,1.082137,-0.04511446,1.2246511,-1.6676491
0.0,0.0,1.0,0.0,-0.5235987755982988,0,0.30820873,-0.99306816,2.84537,0.18845591,-0.35624915,1.533399,-0.2947363,-1.9148955,-1.3438196,-1.0331773,1.082137,-0.04511446,1.2246511,-1.6676491
0.0,0.0,1.0,0.0,-0.5235987755982988,0,0.30820873,-0.99306816,2.84537,0.18845591,-0.35624915,1.533399,-0.2947363,-1.9148955,-1.3438196,-1.0331773,1.082137,-0.04511446,1.2246511,-1.6676491
0.0,0.0,1.0,0.0,-0.5235987755982988,0,0.30820873,-0.99306816,2.84537,0.18845591,-0.35624915,1.533399,-0.2947363,-1.9148955,-1.3438196,-1.0331773,1.082137,-0.04511446,1.2246511,-1.6676491
0.0,0.0,1.0,0.0,-0.5235987755982988,0,0.30820873,-0.99306816,2.84537,0.18845591,-0.35624915,1.533399,-0.2947363,-1.9148955,-1.3438196,-1.0331773,1.082137,-0.04511446,1.2246511,-1.6676491
0.0,0.0,1.0,0.0,-0.5235987755982988,0,0.30820873,-0.99306816,2.84537,0.18845591,-0.35624915,1.533399,-0.2947363,-1.9148955,-1.3438196,-1.0331773,1.082137,-0.04511446,1.2246511,-1.6676491
0.0,0.0,1.0,0.0,-0.5235987755982988,0,0.30196273,-0.9823734,2.8342435,0.18475342,-0.27987516,1.54874,-0.3970913,-1.9347138,-1.3402865,-1.0354362,1.0826725,-0.044565484,1.2096889,-1.4073672
0.0,0.0,1.0,0.0,-0.5235987755982988,0,0.30196273,-0.9823734,2.8342435,0.18475342,-0.27987516,1.54874,-0.3970913,-1.9347138,-1.3402865,-1.0354362,1.0826725,-0.044565484,1.2096889,-1.4073672
0.0,0.0,1.0,0.0,-0.5235987755982988,0,0.30196273,-0.9823734,2.8342435,0.18475342,-0.27987516,1.54874,-0.3970913,-1.9347138,-1.3402865,-1.0354362,1.0826725,-0.044565484,1.2096889,-1.4073672
0.0,0.0,1.0,0.0,-0.5235987755982988,0,0.30196273,-0.9823734,2.8342435,0.18475342,-0.27987516,1.54874,-0.3970913,-1.9347138,-1.3402865,-1.0354362,1.0826725,-0.044565484,1.2096889,-1.4073672
0.0,0.0,1.0,0.0,-0.5235987755982988,0,0.30196273,-0.9823734,2.8342435,0.18475342,-0.27987516,1.54874,-0.3970913,-1.9347138,-1.3402865,-1.0354362,1.0826725,-0.044565484,1.2096889,-1.4073672
0.0,0.0,1.0,0.0,-0.5235987755982988,0,0.30196273,-0.9823734,2.8342435,0.18475342,-0.27987516,1.54874,-0.3970913,-1.9347138,-1.3402865,-1.0354362,1.0826725,-0.044565484,1.2096889,-1.4073672
0.0,0.0,1.0,0.0,-0.5235987755982988,0,0.32018295,-0.98975587,2.8452582,0.18407154,-0.2987815,1.5406991,-0.62715334,-1.914797,-1.3484869,-1.0274421,1.0738803,-0.048673246,1.2149707,-1.4947898
0.0,0.0,1.0,0.0,-0.5235987755982988,0,0.32018295,-0.98975587,2.8452582,0.18407154,-0.2987815,1.5406991,-0.62715334,-1.914797,-1.3484869,-1.0274421,1.0738803,-0.048673246,1.2149707,-1.4947898
0.0,0.0,1.0,0.0,-0.5235987755982988,0,0.32018295,-0.98975587,2.8452582,0.18407154,-0.2987815,1.5406991,-0.62715334,-1.914797,-1.3484869,-1.0274421,1.0738803,-0.048673246,1.2149707,-1.4947898
0.0,0.0,1.0,0.0,-0.5235987755982988,0,0.32018295,-0.98975587,2.8452582,0.18407154,-0.2987815,1.5406991,-0.62715334,-1.914797,-1.3484869,-1.0274421,1.0738803,-0.048673246,1.2149707,-1.4947898
0.0,0.0,1.0,0.0,-0.5235987755982988,0,0.32018295,-0.98975587,2.8452582,0.18407154,-0.2987815,1.5406991,-0.62715334,-1.914797,-1.3484869,-1.0274421,1.0738803,-0.048673246,1.2149707,-1.4947898
0.0,0.0,1.0,0.0,-0.5235987755982988,0,0.32018295,-0.98975587,2.8452582,0.18407154,-0.2987815,1.5406991,-0.62715334,-1.914797,-1.3484869,-1.0274421,1.0738803,-0.048673246,1.2149707,-1.4947898
0.0,0.0,1.0,0.0,-0.5235987755982988,0,0.3222772,-0.9846302,2.8257136,0.19447052,-0.3247544,1.5418999,-0.2689513,-1.9241879,-1.3099447,-1.0230315,1.0836695,-0.054650642,1.2291855,-1.6216927
0.0,0.0,1.0,0.0,-0.5235987755982988,0,0.3222772,-0.9846302,2.8257136,0.19447052,-0.3247544,1.5418999,-0.2689513,-1.9241879,-1.3099447,-1.0230315,1.0836695,-0.054650642,1.2291855,-1.6216927
0.0,0.0,1.0,0.0,-0.5235987755982988,0,0.3222772,-0.9846302,2.8257136,0.19447052,-0.3247544,1.5418999,-0.2689513,-1.9241879,-1.3099447,-1.0230315,1.0836695,-0.054650642,1.2291855,-1.6216927
0.0,0.0,1.0,0.0,-0.5235987755982988,0,0.3222772,-0.9846302,2.8257136,0.19447052,-0.3247544,1.5418999,-0.2689513,-1.9241879,-1.3099447,-1.0230315,1.0836695,-0.054650642,1.2291855,-1.6216927
0.0,0.0,1.0,0.0,-0.5235987755982988,0,0.3222772,-0.9846302,2.8257136,0.19447052,-0.3247544,1.5418999,-0.2689513,-1.9241879,-1.3099447,-1.0230315,1.0836695,-0.054650642,1.2291855,-1.6216927
0.0,0.0,1.0,0.0,-0.5235987755982988,0,0.3222772,-0.9846302,2.8257136,0.19447052,-0.3247544,1.5418999,-0.2689513,-1.9241879,-1.3099447,-1.0230315,1.0836695,-0.054650642,1.2291855,-1.6216927
0.0,0.0,1.0,0.0,-0.5235987755982988,0,0.31402725,-0.9869151,2.8423975,0.19099252,-0.31306985,1.5460203,-0.30806392,-1.9212457,-1.3115109,-1.0368842,1.0662739,-0.038137153,1.2374533,-1.4026701
0.0,0.0,1.0,0.0,-0.5235987755982988,0,0.31402725,-0.9869151,2.8423975,0.19099252,-0.31306985,1.5460203,-0.30806392,-1.9212457,-1.3115109,-1.0368842,1.0662739,-0.038137153,1.2374533,-1.4026701
