sanky1234/BimanualDexCatch/isaacgymenvs/cem_results/May31/football_pose_0.0_0.0_0.9_-0.5235987755982988_-0.5235987755982988_0_2025-05-31.csv
x,y,z,roll,pitch,yaw,robot1/joint1,robot1/joint2,robot1/joint3,robot1/joint4,robot1/joint5,robot1/joint6,robot1/joint7,robot2/joint1,robot2/joint2,robot2/joint3,robot2/joint4,robot2/joint5,robot2/joint6,robot2/joint7
0.0,0.0,0.9,-0.5235987755982988,-0.5235987755982988,0,0.86848915,-0.88384384,2.3281438,0.10596752,0.19832262,1.4980656,-0.21374866,1.2157072,-1.629446,0.29017898,0.9176326,-2.298834,-1.4946675,0.60573286
0.0,0.0,0.9,-0.5235987755982988,-0.5235987755982988,0,0.85729945,-0.85080045,2.2958548,0.07926295,0.17835434,1.4905814,-0.22783664,1.1875267,-1.6798673,0.2763974,1.0051615,-2.2697732,-1.4874539,0.5952609
0.0,0.0,0.9,-0.5235987755982988,-0.5235987755982988,0,0.8403332,-0.87476516,2.3256936,0.0706851,0.11582459,1.487227,-0.14187504,1.2022451,-1.5628781,0.21561748,1.0497364,-2.2934713,-1.4876809,0.58078736
0.0,0.0,0.9,-0.5235987755982988,-0.5235987755982988,0,0.85102665,-0.8652968,2.3278606,0.10156635,0.17321992,1.5037352,-0.21696788,1.1695482,-1.4723002,0.2753055,1.0470781,-2.2596166,-1.4978882,0.5643303
0.0,0.0,0.9,-0.5235987755982988,-0.5235987755982988,0,0.87698275,-0.83759683,2.31939,0.11717707,0.12318836,1.5037458,-0.2522517,1.2052382,-1.5361397,0.2583188,1.0065737,-2.2781034,-1.5103226,0.62044924
0.0,0.0,0.9,-0.5235987755982988,-0.5235987755982988,0,0.9006219,-0.9009303,2.3133237,0.07282427,0.121320404,1.4700495,-0.1709538,1.1685188,-1.5289601,0.22659425,1.0188825,-2.3060112,-1.5448229,0.60678524
0.0,0.0,0.9,-0.5235987755982988,-0.5235987755982988,0,0.8674698,-0.86404395,2.3117054,0.07690453,0.1466643,1.491901,-0.3377438,1.2066963,-1.5295945,0.33709916,0.94724417,-2.2462316,-1.507755,0.6871389
0.0,0.0,0.9,-0.5235987755982988,-0.5235987755982988,0,0.8560595,-0.8718659,2.3299906,0.09170387,0.14809959,1.485502,-0.19859232,1.2017478,-1.624365,0.28756872,1.0097537,-2.2772925,-1.4574847,0.7173486
0.0,0.0,0.9,-0.5235987755982988,-0.5235987755982988,0,0.8842434,-0.83784276,2.3159144,0.0926413,0.16786666,1.4926856,-0.22287276,1.1821226,-1.5633495,0.2279213,0.98280734,-2.275148,-1.5438976,0.6387578
0.0,0.0,0.9,-0.5235987755982988,-0.5235987755982988,0,0.9051378,-0.88352805,2.3097641,0.076989345,0.18575813,1.478237,-0.24806134,1.1958712,-1.4510401,0.2653947,1.0529939,-2.2819517,-1.5143621,0.6049267
0.0,0.0,0.9,-0.5235987755982988,-0.5235987755982988,0,0.89740705,-0.8761079,2.3179464,0.08114397,0.17873842,1.4647183,-0.26485187,1.1915827,-1.6962569,0.23144975,1.0050766,-2.2967496,-1.5173869,0.56142354
0.0,0.0,0.9,-0.5235987755982988,-0.5235987755982988,0,0.84706557,-0.838459,2.3004642,0.09901944,0.14388141,1.475239,-0.1735788,1.2041246,-1.5810294,0.16765419,1.0244929,-2.2832863,-1.4423367,0.5886765
0.0,0.0,0.9,-0.5235987755982988,-0.5235987755982988,0,0.87524927,-0.8444108,2.31873,0.09418568,0.17762898,1.491005,-0.25481144,1.1979661,-1.6421732,0.36446667,1.0491241,-2.2980502,-1.4956508,0.5695062
0.0,0.0,0.9,-0.5235987755982988,-0.5235987755982988,0,0.8839602,-0.9022937,2.3305945,0.066588,0.15880324,1.4841571,-0.16736016,1.2089819,-1.7166405,0.32601342,0.9861578,-2.3255002,-1.3968464,0.6028001
0.0,0.0,0.9,-0.5235987755982988,-0.5235987755982988,0,0.8347047,-0.8899158,2.2905462,0.09946298,0.16247252,1.4751848,-0.14736375,1.1856645,-1.4219159,0.1348733,1.0500171,-2.2961826,-1.5382537,0.67662835
0.0,0.0,0.9,-0.5235987755982988,-0.5235987755982988,0,0.8595366,-0.8740182,2.3187468,0.08778599,0.14793146,1.505345,-0.22857448,1.1950711,-1.5675523,0.2597424,1.0222372,-2.2964478,-1.495587,0.60637164
0.0,0.0,0.9,-0.5235987755982988,-0.5235987755982988,0,0.8742918,-0.9784335,2.319679,0.09265992,0.14699931,1.494433,-0.13227221,1.2276745,-1.6098238,0.14562787,1.0187238,-2.2665668,-1.4926863,0.64019936
0.0,0.0,0.9,-0.5235987755982988,-0.5235987755982988,0,0.90466475,-0.82274175,2.3272884,0.08878506,0.18017258,1.5182958,-0.20668946,1.1893184,-1.4778824,0.24275802,0.9735858,-2.2738335,-1.4922024,0.6094145
0.0,0.0,0.9,-0.5235987755982988,-0.5235987755982988,0,0.9044894,-0.8989301,2.313693,0.105780624,0.18382834,1.4807045,-0.24987806,1.2174147,-1.5728674,0.27721643,1.0202495,-2.2752542,-1.5142155,0.57974845
0.0,0.0,0.9,-0.5235987755982988,-0.5235987755982988,0,0.8725763,-0.8485095,2.3272104,0.08211892,0.17954738,1.4718382,-0.23966593,1.1881642,-1.5574671,0.18982056,1.0026948,-2.2859092,-1.5345846,0.591636
0.0,0.0,0.9,-0.5235987755982988,-0.5235987755982988,0,0.871679,-0.89496464,2.3150864,0.08776632,0.15180935,1.4857308,-0.27763,1.2112172,-1.6711264,0.2245355,0.95498544,-2.2782054,-1.5634767,0.69951206
0.0,0.0,0.9,-0.5235987755982988,-0.5235987755982988,0,0.8447608,-0.8943914,2.317193,0.09050784,0.20911333,1.4957169,-0.110848896,1.1909716,-1.5306063,0.3089004,1.0829589,-2.2350657,-1.451653,0.57541627
0.0,0.0,0.9,-0.5235987755982988,-0.5235987755982988,0,0.9010877,-0.8480654,2.2794588,0.101138756,0.16239068,1.4969472,-0.19951004,1.2044883,-1.5442784,0.30714166,1.1210388,-2.2875943,-1.4162325,0.5990886
0.0,0.0,0.9,-0.5235987755982988,-0.5235987755982988,0,0.9231316,-0.86121595,2.3199518,0.09264782,0.15022981,1.4963304,-0.15949665,1.2047265,-1.5053064,0.21232873,1.073724,-2.2602296,-1.5055205,0.67712843
0.0,0.0,0.9,-0.5235987755982988,-0.5235987755982988,0,0.8940261,-0.85239214,2.3261213,0.09204116,0.17835079,1.4955317,-0.16380547,1.175763,-1.6318755,0.20806794,1.065173,-2.238623,-1.4942255,0.61435616
0.0,0.0,0.9,-0.5235987755982988,-0.5235987755982988,0,0.9146763,-0.91832685,2.3134658,0.093075335,0.10732948,1.4927341,-0.20090924,1.186825,-1.58859,0.25799012,0.98276955,-2.2832968,-1.5250081,0.6370516
0.0,0.0,0.9,-0.5235987755982988,-0.5235987755982988,0,0.90233934,-0.8851235,2.3217955,0.090390176,0.17605592,1.488599,-0.21344717,1.1954719,-1.5805068,0.2555932,0.96943784,-2.2705362,-1.5672522,0.56953436
0.0,0.0,0.9,-0.5235987755982988,-0.5235987755982988,0,0.9205312,-0.85419476,2.3260171,0.103820875,0.07453065,1.4876953,-0.17961217,1.2329215,-1.5734186,0.35704464,0.93147,-2.3050754,-1.4987768,0.56065327
0.0,0.0,0.9,-0.5235987755982988,-0.5235987755982988,0,0.82006526,-0.9202402,2.3045447,0.079940476,0.14429753,1.4809463,-0.26712438,1.1886761,-1.5205594,0.22276562,0.9841884,-2.3059645,-1.4978484,0.6459785
0.0,0.0,0.9,-0.5235987755982988,-0.5235987755982988,0,0.879551,-0.87381476,2.3099637,0.08061922,0.17208992,1.5059551,-0.14253208,1.1991984,-1.5201083,0.27744225,1.0140399,-2.2876813,-1.5278182,0.56070614
0.0,0.0,0.9,-0.5235987755982988,-0.5235987755982988,0,0.9068809,-0.90561205,2.3302956,0.078339495,0.12590842,1.5047842,-0.20417668,1.2074724,-1.593476,0.23359849,0.98913264,-2.2954578,-1.53141,0.6549278
0.0,0.0,0.9,-0.5235987755982988,-0.5235987755982988,0,0.9368129,-0.89304346,2.3338656,0.08856509,0.15577513,1.4901989,-0.16925539,1.2014551,-1.5621754,0.31778744,0.9657851,-2.27445,-1.5115756,0.5966482
0.0,0.0,0.9,-0.5235987755982988,-0.5235987755982988,0,0.95996916,-0.93396986,2.340507,0.08717182,0.15966599,1.4782585,-0.14490734,1.2076199,-1.554525,0.29539698,1.0459583,-2.294643,-1.4681284,0.62327653
0.0,0.0,0.9,-0.5235987755982988,-0.5235987755982988,0,0.9199062,-0.8847997,2.3014815,0.09420519,0.15733477,1.4945488,-0.123293936,1.2146637,-1.6877346,0.24478905,1.0108197,-2.2792993,-1.5572248,0.6672135
0.0,0.0,0.9,-0.5235987755982988,-0.5235987755982988,0,0.9134399,-0.9353901,2.3123183,0.07694888,0.15521342,1.4941869,-0.19903693,1.1990355,-1.5252129,0.3239785,1.0038772,-2.28651,-1.5075129,0.55111176
0.0,0.0,0.9,-0.5235987755982988,-0.5235987755982988,0,0.8745662,-0.9251543,2.3219247,0.10569277,0.16741054,1.4965451,-0.32492608,1.1770025,-1.6607654,0.22100578,0.99535745,-2.3006117,-1.5000324,0.5515136
0.0,0.0,0.9,-0.5235987755982988,-0.5235987755982988,0,0.868381,-0.8301094,2.3317022,0.06845308,0.14604202,1.4819084,-0.29778364,1.2243941,-1.8024638,0.27045324,0.98372996,-2.2801082,-1.5504816,0.59495014
0.0,0.0,0.9,-0.5235987755982988,-0.5235987755982988,0,0.88271815,-0.93741846,2.3257189,0.08760973,0.17436837,1.4935966,-0.26066616,1.1614192,-1.6302569,0.19942094,1.1314805,-2.302768,-1.454762,0.62992716
0.0,0.0,0.9,-0.5235987755982988,-0.5235987755982988,0,0.84170884,-0.8580674,2.2928724,0.028832458,0.13397402,1.4816718,-0.22675553,1.1636907,-1.6410495,0.21824205,1.033738,-2.2952187,-1.4933454,0.61773425
0.0,0.0,0.9,-0.5235987755982988,-0.5235987755982988,0,0.9978304,-0.93027544,2.3043854,0.09471846,0.16128677,1.4833083,-0.23167093,1.2218165,-1.5657743,0.2737148,0.99824935,-2.3023996,-1.4394133,0.62054527
0.0,0.0,0.9,-0.5235987755982988,-0.5235987755982988,0,0.8764511,-0.96668065,2.312519,0.10355765,0.16175874,1.5131474,-0.18877327,1.2003837,-1.6455868,0.19531587,1.0556355,-2.2934763,-1.479687,0.608672
0.0,0.0,0.9,-0.5235987755982988,-0.5235987755982988,0,0.91512567,-0.94378865,2.32078,0.10800752,0.16147342,1.4973205,-0.17711443,1.1746075,-1.6371347,0.23734848,1.0129672,-2.2748106,-1.484963,0.5825464
0.0,0.0,0.9,-0.5235987755982988,-0.5235987755982988,0,0.87431145,-0.85805553,2.3070254,0.09430052,0.14561172,1.480574,-0.19580527,1.177433,-1.5345397,0.22819367,0.98622316,-2.3275068,-1.5146319,0.5860706
0.0,0.0,0.9,-0.5235987755982988,-0.5235987755982988,0,0.8669126,-0.81875426,2.3142564,0.092556335,0.17558973,1.50224,-0.15732019,1.1914798,-1.5481218,0.2481527,0.9985102,-2.2880569,-1.4694806,0.56998646
0.0,0.0,0.9,-0.5235987755982988,-0.5235987755982988,0,0.88210076,-0.9170209,2.3088465,0.106087476,0.16550374,1.4730731,-0.19603233,1.2004914,-1.6451924,0.34024754,0.9896896,-2.3090482,-1.4909184,0.5788365
0.0,0.0,0.9,-0.5235987755982988,-0.5235987755982988,0,0.8676223,-0.8662607,2.3291934,0.106942646,0.13941456,1.4647287,-0.29025885,1.2269726,-1.6419083,0.34500867,0.9750763,-2.306217,-1.5086486,0.51569384
0.0,0.0,0.9,-0.5235987755982988,-0.5235987755982988,0,0.8750137,-0.91257143,2.3142807,0.079946674,0.16364872,1.4924309,-0.21091267,1.2137034,-1.7021145,0.17845726,1.0077667,-2.2703032,-1.5438933,0.64372826
0.0,0.0,0.9,-0.5235987755982988,-0.5235987755982988,0,0.8734286,-0.9022342,2.3223736,0.08871883,0.17569394,1.4886146,-0.19365457,1.1958965,-1.5669229,0.30948293,0.9791155,-2.3147042,-1.4934807,0.6216285
0.0,0.0,0.9,-0.5235987755982988,-0.5235987755982988,0,0.84617907,-0.90449554,2.337977,0.080397695,0.21077965,1.4824133,-0.10249736,1.1774276,-1.7712635,0.2239022,1.0194046,-2.2582445,-1.4901813,0.5855352
0.0,0.0,0.9,-0.5235987755982988,-0.5235987755982988,0,0.90323913,-0.85274035,2.322278,0.061380986,0.19023478,1.4952863,-0.22089234,1.2066507,-1.6638452,0.29423565,0.9602379,-2.2764285,-1.51274,0.5665583
0.0,0.0,0.9,-0.5235987755982988,-0.5235987755982988,0,0.89647394,-0.8926893,2.2992642,0.071993865,0.1835458,1.4845872,-0.07538209,1.188577,-1.5779759,0.18567228,0.984008,-2.284591,-1.5341263,0.6113422
0.0,0.0,0.9,-0.5235987755982988,-0.5235987755982988,0,0.9080451,-0.9103194,2.3260036,0.08248681,0.17097734,1.4750938,-0.2354104,1.1996231,-1.5922146,0.22551884,0.96475035,-2.3030827,-1.5606853,0.59123254
0.0,0.0,0.9,-0.5235987755982988,-0.5235987755982988,0,0.92761844,-0.92752707,2.3399923,0.105967596,0.13511871,1.4863206,-0.23849718,1.2055787,-1.6263473,0.27840123,0.976176,-2.2969406,-1.5039597,0.6355773
0.0,0.0,0.9,-0.5235987755982988,-0.5235987755982988,0,0.88475907,-0.89616054,2.3478165,0.09705808,0.12944481,1.47886,-0.17211398,1.1734875,-1.582256,0.23109175,1.0732388,-2.3019903,-1.4661701,0.56409043
0.0,0.0,0.9,-0.5235987755982988,-0.5235987755982988,0,0.9290573,-0.87399924,2.3247287,0.07519047,0.18944688,1.5012975,-0.11703222,1.1805912,-1.5188649,0.27309975,0.9716619,-2.300517,-1.4518889,0.6098362
0.0,0.0,0.9,-0.5235987755982988,-0.5235987755982988,0,0.8666828,-0.8820072,2.301907,0.0864857,0.16250765,1.4740349,-0.19221057,1.2278008,-1.6353742,0.26991874,1.0062659,-2.3087375,-1.4794773,0.5620442
0.0,0.0,0.9,-0.5235987755982988,-0.5235987755982988,0,0.8755213,-0.8789848,2.3022053,0.08489681,0.15384415,1.4919327,-0.14402139,1.2285331,-1.5610626,0.21792878,1.0297871,-2.3028343,-1.4764144,0.5339815
0.0,0.0,0.9,-0.5235987755982988,-0.5235987755982988,0,0.87619954,-0.8693687,2.319617,0.08360028,0.1723069,1.4894161,-0.031380337,1.1669726,-1.5702118,0.23585723,1.0389997,-2.2801127,-1.4403605,0.6534198
0.0,0.0,0.9,-0.5235987755982988,-0.5235987755982988,0,0.8858769,-0.92597485,2.3315163,0.09392821,0.12337608,1.479076,-0.10738385,1.1887382,-1.5330501,0.30428413,0.95472,-2.3257089,-1.4814644,0.64549315
0.0,0.0,0.9,-0.5235987755982988,-0.5235987755982988,0,0.86202717,-0.9062122,2.3064008,0.061359584,0.17283827,1.5030174,-0.14550668,1.2006739,-1.6472533,0.21623777,0.99674326,-2.262098,-1.4510938,0.6234367
0.0,0.0,0.9,-0.5235987755982988,-0.5235987755982988,0,0.8754407,-0.9018468,2.3363335,0.109302625,0.15998384,1.4921193,-0.15450706,1.1800724,-1.5991085,0.29831976,1.0489486,-2.3406332,-1.5138118,0.5823483
0.0,0.0,0.9,-0.5235987755982988,-0.5235987755982988,0,0.9226278,-0.9062408,2.2792196,0.11698161,0.18594477,1.4872406,-0.18075658,1.1894795,-1.708285,0.2133056,1.0257951,-2.2786534,-1.518063,0.6163087
0.0,0.0,0.9,-0.5235987755982988,-0.5235987755982988,0,0.92192113,-0.8142223,2.328843,0.08943261,0.16331515,1.4709834,-0.2220959,1.2079084,-1.6224508,0.19036098,1.0113888,-2.2826366,-1.5636466,0.552127
0.0,0.0,0.9,-0.5235987755982988,-0.5235987755982988,0,0.8631766,-0.8677272,2.342815,0.06993288,0.13899735,1.4752959,-0.18401706,1.1902851,-1.6730838,0.19449991,1.0482112,-2.3007588,-1.4968934,0.6180787
0.0,0.0,0.9,-0.5235987755982988,-0.5235987755982988,0,0.87775224,-0.8697996,2.3402236,0.089655675,0.20269693,1.4983015,-0.17153758,1.1863744,-1.6471019,0.3684846,0.97871625,-2.2618809,-1.4445037,0.5731697
0.0,0.0,0.9,-0.5235987755982988,-0.5235987755982988,0,0.8889624,-0.95918435,2.3220234,0.098669685,0.16249534,1.49927,-0.19984767,1.2031298,-1.5380224,0.28755218,1.0005697,-2.2711368,-1.44877,0.6541346
0.0,0.0,0.9,-0.5235987755982988,-0.5235987755982988,0,0.8528293,-0.854546,2.3436956,0.08404532,0.106528476,1.4948618,-0.25895566,1.1631211,-1.5499164,0.21067242,0.9022454,-2.2668452,-1.537383,0.66243744
0.0,0.0,0.9,-0.5235987755982988,-0.5235987755982988,0,0.81553215,-0.9288817,2.3019702,0.08996661,0.1651205,1.4788285,-0.288552,1.1650875,-1.6349404,0.2346243,1.0223055,-2.2817726,-1.4610183,0.6246095
0.0,0.0,0.9,-0.5235987755982988,-0.5235987755982988,0,0.9053213,-0.8651819,2.3067293,0.07030749,0.16667289,1.4812468,-0.12862462,1.1724653,-1.6203047,0.28748843,1.0246001,-2.2741725,-1.4323348,0.60655427
0.0,0.0,0.9,-0.5235987755982988,-0.5235987755982988,0,0.85504913,-0.9622989,2.3379703,0.09550193,0.1745877,1.4742926,-0.263554,1.2201896,-1.5557257,0.25287846,0.9580625,-2.2698443,-1.455716,0.68236417
0.0,0.0,0.9,-0.5235987755982988,-0.5235987755982988,0,0.8914732,-0.88145024,2.3139188,0.08280133,0.17014103,1.5032945,-0.31841424,1.202282,-1.6575744,0.20992443,0.9032925,-2.2814407,-1.53331,0.57898504
0.0,0.0,0.9,-0.5235987755982988,-0.5235987755982988,0,0.8966827,-0.93208724,2.3175702,0.079242006,0.13780662,1.4864255,-0.18183418,1.2063534,-1.6155097,0.24429996,1.0114202,-2.275987,-1.4716524,0.6466079
0.0,0.0,0.9,-0.5235987755982988,-0.5235987755982988,0,0.89039195,-0.8609735,2.2977257,0.09758181,0.13122487,1.4845345,-0.15816087,1.170797,-1.613466,0.1778629,1.0021106,-2.28333,-1.535964,0.5740971
0.0,0.0,0.9,-0.5235987755982988,-0.5235987755982988,0,0.8567831,-0.89785594,2.3322377,0.08563013,0.12063549,1.4889936,-0.1662312,1.170385,-1.4706737,0.21108374,1.0513515,-2.295915,-1.4928162,0.66833085
0.0,0.0,0.9,-0.5235987755982988,-0.5235987755982988,0,0.8725961,-0.9292466,2.3282669,0.09515212,0.16902728,1.513096,-0.21946044,1.2155801,-1.7534583,0.24450818,1.0616252,-2.3072681,-1.4344511,0.5812725
0.0,0.0,0.9,-0.5235987755982988,-0.5235987755982988,0,0.90836215,-0.92294645,2.30267,0.074363835,0.1444275,1.5027936,-0.09282826,1.1788971,-1.6861815,0.17475319,0.98119867,-2.2905023,-1.4561734,0.65275687
0.0,0.0,0.9,-0.5235987755982988,-0.5235987755982988,0,0.9198906,-0.85065657,2.3016047,0.10544213,0.17627151,1.4696765,-0.25503457,1.2189828,-1.7702969,0.22228177,0.9765883,-2.3204637,-1.518713,0.5677462
0.0,0.0,0.9,-0.5235987755982988,-0.5235987755982988,0,0.83395964,-0.9249132,2.3166409,0.1162556,0.1449504,1.4694651,-0.14584371,1.1974175,-1.5941883,0.25148818,0.97523516,-2.2994685,-1.5372058,0.6323218
0.0,0.0,0.9,-0.5235987755982988,-0.5235987755982988,0,0.9097388,-0.87868184,2.325274,0.08413088,0.1530775,1.4992428,-0.06250698,1.2068558,-1.5550781,0.2787368,0.9802496,-2.2947087,-1.5527974,0.6806722
0.0,0.0,0.9,-0.5235987755982988,-0.5235987755982988,0,0.8892082,-0.8739859,2.3113737,0.08672097,0.11703926,1.5006564,-0.2215397,1.1999223,-1.5542172,0.2957323,1.0105187,-2.2690437,-1.4614675,0.5722121
0.0,0.0,0.9,-0.5235987755982988,-0.5235987755982988,0,0.8925133,-0.90727115,2.3016937,0.07263613,0.15687677,1.4817718,-0.31781295,1.1858913,-1.5589542,0.30323106,0.97160244,-2.2474883,-1.4983474,0.58146626
0.0,0.0,0.9,-0.5235987755982988,-0.5235987755982988,0,0.8287072,-0.88527673,2.3225646,0.076579615,0.18013583,1.4932805,-0.18170308,1.1856415,-1.6274371,0.24805658,1.0188531,-2.2508903,-1.4790975,0.6167884
0.0,0.0,0.9,-0.5235987755982988,-0.5235987755982988,0,0.8820834,-0.8784064,2.3270462,0.1038762,0.17051436,1.4929724,-0.16786486,1.1811125,-1.6066314,0.25480324,0.99815613,-2.2773871,-1.5035737,0.58502835
0.0,0.0,0.9,-0.5235987755982988,-0.5235987755982988,0,0.88259196,-0.932927,2.3465407,0.101506025,0.1593343,1.5042262,-0.2649415,1.1799703,-1.5878742,0.3255815,1.0257758,-2.2873654,-1.4764264,0.6856506
0.0,0.0,0.9,-0.5235987755982988,-0.5235987755982988,0,0.9013247,-0.89247495,2.338544,0.07336772,0.14880277,1.4950122,-0.17428547,1.1797634,-1.7724447,0.23202497,1.0646853,-2.2740786,-1.540941,0.5979042
0.0,0.0,0.9,-0.5235987755982988,-0.5235987755982988,0,0.91986096,-0.9276057,2.3230433,0.07317522,0.16368616,1.499445,-0.14624184,1.2219082,-1.6785787,0.2437765,0.9821138,-2.285839,-1.4625412,0.60293585
0.0,0.0,0.9,-0.5235987755982988,-0.5235987755982988,0,0.88950735,-0.8544737,2.3343718,0.07967685,0.13531277,1.4926034,-0.16803415,1.1898437,-1.7517173,0.2737647,1.0283946,-2.2711713,-1.4626615,0.60271776
0.0,0.0,0.9,-0.5235987755982988,-0.5235987755982988,0,0.85363567,-0.815401,2.3203268,0.08304284,0.13560244,1.4903485,-0.09868173,1.2470881,-1.5493901,0.27954316,1.0165443,-2.255165,-1.5386128,0.5646539
0.0,0.0,0.9,-0.5235987755982988,-0.5235987755982988,0,0.86586785,-0.8784563,2.3431497,0.09299968,0.15109695,1.479656,-0.3098646,1.2046471,-1.5531516,0.32736114,0.9009238,-2.2962182,-1.5260487,0.7091119
0.0,0.0,0.9,-0.5235987755982988,-0.5235987755982988,0,0.8937029,-0.92116696,2.3038971,0.08468331,0.13695516,1.4933044,-0.18759413,1.2078334,-1.5348567,0.22357075,1.0166031,-2.2748654,-1.5469047,0.5884267
0.0,0.0,0.9,-0.5235987755982988,-0.5235987755982988,0,0.8731252,-0.9031546,2.3450532,0.08874743,0.16981776,1.4907235,-0.26341152,1.171052,-1.4828255,0.27921116,0.97644144,-2.2754972,-1.505663,0.57264775
0.0,0.0,0.9,-0.5235987755982988,-0.5235987755982988,0,0.876167,-0.9169187,2.327643,0.10115389,0.15047692,1.4988885,-0.2842442,1.1987842,-1.5945867,0.24023536,1.0308435,-2.2954235,-1.543295,0.64200103
0.0,0.0,0.9,-0.5235987755982988,-0.5235987755982988,0,0.8646211,-0.87051994,2.3360019,0.08776182,0.20310268,1.4917238,-0.16350175,1.1896492,-1.5439887,0.3373103,0.9748207,-2.267877,-1.4938655,0.60366005
0.0,0.0,0.9,-0.5235987755982988,-0.5235987755982988,0,0.89998996,-0.8968155,2.3056324,0.082181625,0.12931657,1.4952371,-0.13537593,1.1665487,-1.5996265,0.26269594,1.0361556,-2.2925746,-1.4906691,0.6133518
0.0,0.0,0.9,-0.5235987755982988,-0.5235987755982988,0,0.9171007,-0.911565,2.3268003,0.09093028,0.12609749,1.5065017,-0.14000656,1.1926012,-1.5216078,0.2215681,1.002777,-2.2801723,-1.5016544,0.6331227
0.0,0.0,0.9,-0.5235987755982988,-0.5235987755982988,0,0.88594043,-0.8979803,2.3353527,0.08914397,0.14905453,1.4820865,-0.22299926,1.1971838,-1.6730516,0.24194595,1.0520653,-2.2784925,-1.4836869,0.67950267
0.0,0.0,0.9,-0.5235987755982988,-0.5235987755982988,0,0.8817177,-0.8713725,2.3331046,0.10515639,0.16673096,1.479621,-0.20265941,1.1920108,-1.5653771,0.20492665,0.94555855,-2.3031282,-1.5168456,0.6208516
0.0,0.0,0.9,-0.5235987755982988,-0.5235987755982988,0,0.8680532,-0.84267753,2.3133059,0.10251932,0.18573403,1.5171957,-0.23864977,1.1780744,-1.6236848,0.3393906,0.9267192,-2.2891676,-1.561288,0.5365653
0.0,0.0,0.9,-0.5235987755982988,-0.5235987755982988,0,0.9067785,-0.8996207,2.303366,0.11195456,0.15704502,1.5048071,-0.214646,1.2391598,-1.6859324,0.21065669,0.9539603,-2.2518818,-1.5023425,0.6318757
0.0,0.0,0.9,-0.5235987755982988,-0.5235987755982988,0,0.8832831,-0.9519753,2.3249567,0.073584944,0.16835909,1.482436,-0.2307675,1.2058572,-1.5901133,0.23289186,1.013759,-2.3140461,-1.5299512,0.63352454
0.0,0.0,0.9,-0.5235987755982988,-0.5235987755982988,0,0.86319387,-0.9157445,2.2864656,0.085209176,0.17496829,1.506636,-0.31776947,1.1897855,-1.6232734,0.24191017,0.9304851,-2.3049078,-1.5673571,0.60371995
0.0,0.0,0.9,-0.5235987755982988,-0.5235987755982988,0,0.862582,-0.85331964,2.3106816,0.08390424,0.17988722,1.4674704,-0.1373519,1.1768711,-1.4605024,0.26645365,1.016997,-2.3089669,-1.4358573,0.5498531
0.0,0.0,0.9,-0.5235987755982988,-0.5235987755982988,0,0.8630686,-0.8782866,2.3001509,0.09085038,0.17049156,1.475981,-0.10314368,1.2040635,-1.5471065,0.18054411,0.992067,-2.2779834,-1.4943455,0.5981546
0.0,0.0,0.9,-0.5235987755982988,-0.5235987755982988,0,0.84559035,-0.8841795,2.2812996,0.06528115,0.13600299,1.4998865,-0.22221746,1.2062856,-1.5906057,0.21512012,1.0078008,-2.2900786,-1.507643,0.5481994
0.0,0.0,0.9,-0.5235987755982988,-0.5235987755982988,0,0.9345117,-0.92561233,2.3152266,0.072187684,0.13774754,1.5008628,-0.16249807,1.2297636,-1.61332,0.2732001,1.0538769,-2.2993777,-1.4269774,0.6317795
0.0,0.0,0.9,-0.5235987755982988,-0.5235987755982988,0,0.82871455,-0.8864741,2.3301694,0.10600084,0.11826216,1.4980919,-0.16269471,1.1849436,-1.4727571,0.26572338,1.081281,-2.288703,-1.452741,0.6136768
0.0,0.0,0.9,-0.5235987755982988,-0.5235987755982988,0,0.8582471,-0.87928724,2.3206599,0.09057294,0.13833794,1.4762142,-0.17248628,1.2310486,-1.7520316,0.1801432,0.9605411,-2.3338337,-1.5387704,0.5988797
0.0,0.0,0.9,-0.5235987755982988,-0.5235987755982988,0,0.8669163,-0.9283342,2.3084927,0.08602331,0.18092874,1.4860884,-0.22094354,1.1904867,-1.5920959,0.2553002,0.9979491,-2.2877402,-1.4824952,0.57528675
0.0,0.0,0.9,-0.5235987755982988,-0.5235987755982988,0,0.8966709,-0.8714184,2.3169737,0.087717995,0.16907644,1.465799,-0.20876224,1.1970394,-1.577416,0.32041,0.95451427,-2.3238802,-1.5136101,0.63279516
0.0,0.0,0.9,-0.5235987755982988,-0.5235987755982988,0,0.8871331,-0.87946373,2.3243182,0.08479931,0.17362055,1.4959112,-0.24433129,1.1849316,-1.5119383,0.3080695,1.0234011,-2.3010492,-1.5108978,0.67767185
0.0,0.0,0.9,-0.5235987755982988,-0.5235987755982988,0,0.81610954,-0.884559,2.3411152,0.08592238,0.15931295,1.5010296,-0.11134579,1.1949914,-1.5519646,0.2114399,0.9794379,-2.3352852,-1.5565486,0.59257114
0.0,0.0,0.9,-0.5235987755982988,-0.5235987755982988,0,0.89066356,-0.8559482,2.275863,0.088726856,0.15636191,1.4995042,-0.16089004,1.2197002,-1.617426,0.15732567,1.0318766,-2.2952447,-1.555427,0.59428936
0.0,0.0,0.9,-0.5235987755982988,-0.5235987755982988,0,0.88459176,-0.85091203,2.3108475,0.07357123,0.15803236,1.5010281,-0.23732585,1.2010249,-1.6531069,0.24246527,1.0132287,-2.2988033,-1.5032865,0.6449293
0.0,0.0,0.9,-0.5235987755982988,-0.5235987755982988,0,0.91335297,-0.82363427,2.318856,0.09288906,0.19733948,1.4843508,-0.13849838,1.2128327,-1.5654937,0.23110601,0.9787635,-2.3120527,-1.5208812,0.63785964
0.0,0.0,0.9,-0.5235987755982988,-0.5235987755982988,0,0.84187627,-0.89164156,2.3192394,0.10640992,0.1739733,1.4892671,-0.24802272,1.2293508,-1.6317179,0.2969316,1.0212461,-2.2794764,-1.4846189,0.57791924
0.0,0.0,0.9,-0.5235987755982988,-0.5235987755982988,0,0.8692748,-0.90742326,2.3203464,0.10145867,0.1805942,1.5046428,-0.22850868,1.1784856,-1.5136393,0.27785847,1.0057619,-2.2752023,-1.498179,0.5974644
0.0,0.0,0.9,-0.5235987755982988,-0.5235987755982988,0,0.9107816,-0.9067334,2.2929785,0.08556084,0.15525517,1.5005103,-0.23475131,1.2372112,-1.6128154,0.25938728,1.0279917,-2.2922547,-1.485042,0.59039444
0.0,0.0,0.9,-0.5235987755982988,-0.5235987755982988,0,0.8905982,-0.8662761,2.302082,0.10338504,0.1501462,1.4879622,-0.19986318,1.2564132,-1.6567662,0.27855304,1.0403152,-2.2822702,-1.4690956,0.5608479
0.0,0.0,0.9,-0.5235987755982988,-0.5235987755982988,0,0.88916737,-0.9029294,2.295876,0.080069914,0.14756589,1.4973712,-0.19301991,1.2057679,-1.7081888,0.26355794,1.0390091,-2.3040411,-1.5130488,0.6530313
0.0,0.0,0.9,-0.5235987755982988,-0.5235987755982988,0,0.89431274,-0.89890754,2.2928975,0.08572969,0.14879134,1.5011712,-0.1594552,1.2088656,-1.5189216,0.29862162,1.0217103,-2.3047931,-1.5073435,0.59926987
0.0,0.0,0.9,-0.5235987755982988,-0.5235987755982988,0,0.87433845,-0.8811932,2.3285053,0.06830939,0.17228597,1.5149957,-0.13747323,1.1849855,-1.6044198,0.20913321,1.0950184,-2.2564523,-1.4719175,0.60809577
0.0,0.0,0.9,-0.5235987755982988,-0.5235987755982988,0,0.91816145,-0.87537587,2.320024,0.069019906,0.18440296,1.4684587,-0.23592485,1.2118324,-1.6740602,0.21698032,1.0067446,-2.3081713,-1.5207415,0.4940106
0.0,0.0,0.9,-0.5235987755982988,-0.5235987755982988,0,0.87345076,-0.8963969,2.2953358,0.07666175,0.15591551,1.4973692,-0.1726595,1.1841588,-1.6293466,0.21541113,1.1125648,-2.2945688,-1.483579,0.6024963
0.0,0.0,0.9,-0.5235987755982988,-0.5235987755982988,0,0.88797945,-0.92278594,2.2971663,0.102444135,0.1311919,1.4785441,-0.1723085,1.1912388,-1.6442088,0.31066412,1.0329406,-2.2732348,-1.4917521,0.58825666
0.0,0.0,0.9,-0.5235987755982988,-0.5235987755982988,0,0.9223882,-0.820623,2.327764,0.09590804,0.15634407,1.4896505,-0.21989454,1.2105556,-1.4819663,0.2979342,0.9922552,-2.2998726,-1.4991492,0.59903884
0.0,0.0,0.9,-0.5235987755982988,-0.5235987755982988,0,0.88620317,-0.8353058,2.3289647,0.114818186,0.1869719,1.4951077,-0.2713973,1.1818948,-1.7282424,0.20615321,1.0612898,-2.2905443,-1.525273,0.59960103
0.0,0.0,0.9,-0.5235987755982988,-0.5235987755982988,0,0.88271934,-0.8537865,2.316757,0.10908634,0.13940012,1.4906296,-0.1169997,1.1823404,-1.6094434,0.26387978,1.0387963,-2.300195,-1.5118753,0.58653456
0.0,0.0,0.9,-0.5235987755982988,-0.5235987755982988,0,0.9541772,-0.9309937,2.2964427,0.09714377,0.13473521,1.4826944,-0.25865725,1.1849152,-1.673095,0.22837785,1.0145527,-2.2653384,-1.5189133,0.63868916
0.0,0.0,0.9,-0.5235987755982988,-0.5235987755982988,0,0.88304967,-0.82052344,2.3148363,0.09206903,0.1511239,1.4719579,-0.29183728,1.2063527,-1.534331,0.29850373,0.96445423,-2.2955897,-1.531479,0.566556
0.0,0.0,0.9,-0.5235987755982988,-0.5235987755982988,0,0.9216282,-0.9295139,2.3078318,0.10245229,0.17103323,1.4873239,-0.2552891,1.2301522,-1.628438,0.29627335,1.0067127,-2.246438,-1.4780518,0.65043324
0.0,0.0,0.9,-0.5235987755982988,-0.5235987755982988,0,0.885484,-0.90350133,2.3187306,0.05898157,0.15961336,1.5089104,-0.23228239,1.1863233,-1.6566033,0.30875936,1.0404294,-2.3098516,-1.494567,0.65706754
0.0,0.0,0.9,-0.5235987755982988,-0.5235987755982988,0,0.8691464,-0.87064964,2.3130329,0.08386536,0.12991372,1.4947345,-0.25549418,1.2035495,-1.5905393,0.18571971,1.0333037,-2.2850819,-1.5550407,0.67583114
0.0,0.0,0.9,-0.5235987755982988,-0.5235987755982988,0,0.8433707,-0.9087067,2.3170946,0.08568313,0.1456555,1.4960293,-0.18736206,1.19157,-1.5551251,0.21821678,1.0093521,-2.2962017,-1.5178696,0.5920901
0.0,0.0,0.9,-0.5235987755982988,-0.5235987755982988,0,0.89100486,-0.82269865,2.3390896,0.09712258,0.14133978,1.4843191,-0.22644831,1.1804683,-1.4883139,0.21453457,1.0178907,-2.311488,-1.5111747,0.6156805
0.0,0.0,0.9,-0.5235987755982988,-0.5235987755982988,0,0.9462372,-0.81053597,2.2919185,0.071511194,0.14377688,1.497755,-0.113194235,1.1792853,-1.7208161,0.2200969,1.0280851,-2.2880461,-1.5086782,0.66740817
0.0,0.0,0.9,-0.5235987755982988,-0.5235987755982988,0,0.91117144,-0.90529245,2.3185906,0.095320895,0.18041323,1.4938236,-0.119035214,1.1993866,-1.5256318,0.3410681,0.9965423,-2.2904198,-1.504524,0.5416227
0.0,0.0,0.9,-0.5235987755982988,-0.5235987755982988,0,0.9323638,-0.88827306,2.281235,0.08249176,0.15195166,1.5018411,-0.15266046,1.1749353,-1.5813494,0.23565586,0.97960824,-2.270706,-1.5145482,0.5787669
0.0,0.0,0.9,-0.5235987755982988,-0.5235987755982988,0,0.92718595,-0.90504724,2.3189228,0.093080945,0.15603065,1.4974464,-0.1942849,1.1891414,-1.5797023,0.26375645,0.9357876,-2.2949958,-1.559191,0.6146873
0.0,0.0,0.9,-0.5235987755982988,-0.5235987755982988,0,0.9249636,-0.9658604,2.3109841,0.08330927,0.13637885,1.4933823,-0.30601966,1.195282,-1.6097342,0.19251266,1.0011945,-2.2621045,-1.5519654,0.64204407
0.0,0.0,0.9,-0.5235987755982988,-0.5235987755982988,0,0.9305504,-0.9068392,2.3306727,0.08095514,0.16705754,1.4933144,-0.19584218,1.2231458,-1.6329628,0.24308294,1.0770322,-2.294681,-1.5242603,0.6612055
0.0,0.0,0.9,-0.5235987755982988,-0.5235987755982988,0,0.8866411,-0.9560161,2.3155153,0.08108539,0.17126487,1.5098988,-0.17548718,1.2255229,-1.6140293,0.30705157,0.9300429,-2.3031344,-1.542277,0.572788
0.0,0.0,0.9,-0.5235987755982988,-0.5235987755982988,0,0.8501697,-0.87008315,2.3240285,0.084411696,0.111111626,1.5029229,-0.17923868,1.205413,-1.4834588,0.36101288,0.93833566,-2.284553,-1.4785789,0.5459717
0.0,0.0,0.9,-0.5235987755982988,-0.5235987755982988,0,0.86958146,-0.88579226,2.299987,0.10842292,0.12792553,1.4838845,-0.17494328,1.2173047,-1.6036786,0.26944134,1.0067754,-2.276311,-1.4745777,0.6359507
0.0,0.0,0.9,-0.5235987755982988,-0.5235987755982988,0,0.88779175,-0.8908607,2.2954106,0.090352684,0.119925454,1.503863,-0.25952333,1.1915839,-1.5999427,0.20915791,1.0510498,-2.2783742,-1.529029,0.65178895
0.0,0.0,0.9,-0.5235987755982988,-0.5235987755982988,0,0.90122277,-0.9274104,2.326435,0.07868175,0.14632635,1.473559,-0.26041806,1.1743296,-1.6112691,0.29632932,1.051927,-2.2779944,-1.5177071,0.52878463
0.0,0.0,0.9,-0.5235987755982988,-0.5235987755982988,0,0.88105977,-0.8758044,2.2958734,0.11170305,0.17596117,1.4878701,-0.19168387,1.1986063,-1.5667529,0.32687733,0.9783884,-2.2685103,-1.5137358,0.6510312
0.0,0.0,0.9,-0.5235987755982988,-0.5235987755982988,0,0.8510198,-0.9804213,2.3238595,0.09817026,0.13025203,1.4894537,-0.2472489,1.1948826,-1.6867443,0.2269624,0.9570323,-2.3127537,-1.5020356,0.5318196
0.0,0.0,0.9,-0.5235987755982988,-0.5235987755982988,0,0.91170216,-0.9404859,2.329604,0.078226544,0.16526349,1.5127574,-0.20230892,1.2184218,-1.549864,0.25415918,1.0352366,-2.2541523,-1.4700546,0.60357773
0.0,0.0,0.9,-0.5235987755982988,-0.5235987755982988,0,0.87379,-0.89696157,2.327985,0.09721675,0.17866296,1.4975792,-0.17539296,1.192827,-1.4898565,0.23403957,1.0030558,-2.2928348,-1.4711859,0.6077931
0.0,0.0,0.9,-0.5235987755982988,-0.5235987755982988,0,0.906878,-0.8647171,2.2952669,0.09267568,0.16921365,1.4884368,-0.16425693,1.1870921,-1.6066465,0.25986904,1.0328155,-2.2905407,-1.5110922,0.63934755
0.0,0.0,0.9,-0.5235987755982988,-0.5235987755982988,0,0.87664855,-0.8552982,2.296798,0.08416159,0.16529043,1.4903486,-0.28745463,1.1986172,-1.5678587,0.33070567,0.9882788,-2.3135924,-1.5139469,0.5847638
0.0,0.0,0.9,-0.5235987755982988,-0.5235987755982988,0,0.83077586,-0.8352198,2.309574,0.08311003,0.18044515,1.4986935,-0.21283175,1.1774218,-1.7556871,0.29413825,1.0554742,-2.2688043,-1.4682313,0.56919974
0.0,0.0,0.9,-0.5235987755982988,-0.5235987755982988,0,0.92064583,-0.81739825,2.3316185,0.09101073,0.16477183,1.4762133,-0.13772425,1.157441,-1.6726595,0.31668308,1.1076252,-2.2806509,-1.447214,0.55354095
0.0,0.0,0.9,-0.5235987755982988,-0.5235987755982988,0,0.92845213,-0.86200917,2.3260665,0.06597106,0.14060114,1.4767915,-0.17570366,1.1718148,-1.6765035,0.24664016,1.0076658,-2.277241,-1.496611,0.567775
0.0,0.0,0.9,-0.5235987755982988,-0.5235987755982988,0,0.93663794,-0.89615494,2.3145537,0.11082597,0.1209699,1.4930687,-0.14608516,1.1702639,-1.770665,0.33653423,1.0449213,-2.263643,-1.458009,0.5912754
0.0,0.0,0.9,-0.5235987755982988,-0.5235987755982988,0,0.87776315,-0.9169191,2.3255973,0.07694787,0.16532815,1.4709122,-0.23499377,1.2353917,-1.5487041,0.2802581,0.9601632,-2.2885034,-1.4947326,0.59799105
0.0,0.0,0.9,-0.5235987755982988,-0.5235987755982988,0,0.8942991,-0.8459251,2.3272405,0.08792004,0.17230196,1.4919578,-0.25198883,1.1336111,-1.6585486,0.25540823,1.0902218,-2.2668943,-1.4583511,0.55153596
0.0,0.0,0.9,-0.5235987755982988,-0.5235987755982988,0,0.87419903,-0.9500378,2.3417463,0.07140366,0.16327289,1.5007693,-0.26070294,1.2030249,-1.5677459,0.30776206,1.0194666,-2.3083658,-1.4769624,0.5732436
0.0,0.0,0.9,-0.5235987755982988,-0.5235987755982988,0,0.86295784,-0.9068278,2.343624,0.092934236,0.16350335,1.4896979,-0.14302754,1.2254032,-1.6659405,0.25160512,1.0933748,-2.2997417,-1.4449733,0.56110424
0.0,0.0,0.9,-0.5235987755982988,-0.5235987755982988,0,0.87321436,-0.91201353,2.342719,0.073455,0.13857125,1.4991221,-0.13208386,1.2245432,-1.6604689,0.27806568,0.9942156,-2.2895753,-1.4754493,0.6065133
0.0,0.0,0.9,-0.5235987755982988,-0.5235987755982988,0,0.89768225,-0.749229,2.2932887,0.09701335,0.16328266,1.4956768,-0.14976208,1.1912097,-1.5562867,0.35254908,0.98262113,-2.3265088,-1.5044461,0.60865575
0.0,0.0,0.9,-0.5235987755982988,-0.5235987755982988,0,0.89249164,-0.8656735,2.322078,0.020294962,0.20844887,1.5155245,-0.17055316,1.2265832,-1.5307134,0.23380308,0.9439965,-2.287552,-1.4610268,0.58306855
0.0,0.0,0.9,-0.5235987755982988,-0.5235987755982988,0,0.8605716,-0.90147525,2.3430912,0.06840785,0.15748578,1.5013144,-0.15177236,1.1611243,-1.6051039,0.33671394,1.0160803,-2.3243911,-1.4643061,0.5761414
0.0,0.0,0.9,-0.5235987755982988,-0.5235987755982988,0,0.8911709,-0.8707682,2.3203435,0.10364389,0.15401618,1.4864063,-0.14600763,1.153409,-1.5674304,0.35349867,1.0555991,-2.2874215,-1.4871514,0.5273472
0.0,0.0,0.9,-0.5235987755982988,-0.5235987755982988,0,0.8149239,-0.9794716,2.2995653,0.022650687,0.16769938,1.4700525,-0.24110413,1.1645423,-1.6223269,0.18037568,1.1255237,-2.2938952,-1.4620211,0.67254764
0.0,0.0,0.9,-0.5235987755982988,-0.5235987755982988,0,0.9055178,-0.9320337,2.3238316,0.090682924,0.13629419,1.4982982,-0.19393167,1.2040719,-1.5853285,0.34715313,1.0715195,-2.2832296,-1.4107056,0.5469164
0.0,0.0,0.9,-0.5235987755982988,-0.5235987755982988,0,0.9133778,-0.8925005,2.342751,0.095386125,0.14926511,1.4920788,-0.16823569,1.1937577,-1.729204,0.23215018,1.0465839,-2.2892454,-1.4679142,0.65110224
0.0,0.0,0.9,-0.5235987755982988,-0.5235987755982988,0,0.88400143,-0.8484195,2.3428025,0.07813687,0.12755112,1.4863355,-0.24311681,1.2213323,-1.51401,0.38846773,0.9785529,-2.3085637,-1.4731334,0.58927536
0.0,0.0,0.9,-0.5235987755982988,-0.5235987755982988,0,0.88377005,-0.8442797,2.340951,0.09049611,0.18046957,1.4750762,-0.23329757,1.2202495,-1.6236843,0.2502114,1.005089,-2.2986639,-1.4618564,0.4826632
0.0,0.0,0.9,-0.5235987755982988,-0.5235987755982988,0,0.9046519,-0.91372573,2.290002,0.10194986,0.18917967,1.4829506,-0.16615918,1.1907039,-1.494665,0.19341202,1.0156956,-2.283351,-1.5112575,0.58153087
0.0,0.0,0.9,-0.5235987755982988,-0.5235987755982988,0,0.87923115,-0.8620992,2.328417,0.076752834,0.11165978,1.5156702,-0.23218673,1.1958117,-1.527979,0.25904885,1.0721437,-2.2950745,-1.4870914,0.5759236
0.0,0.0,0.9,-0.5235987755982988,-0.5235987755982988,0,0.8610818,-0.9365807,2.305947,0.07011798,0.15031402,1.4891376,-0.18066958,1.1646464,-1.6471978,0.3315316,0.9693557,-2.301062,-1.4642892,0.63660777
0.0,0.0,0.9,-0.5235987755982988,-0.5235987755982988,0,0.85316277,-0.91178983,2.2900338,0.0793585,0.12325727,1.4983962,-0.08893221,1.1746018,-1.565988,0.31194568,1.0334502,-2.2927709,-1.4330298,0.5430118
0.0,0.0,0.9,-0.5235987755982988,-0.5235987755982988,0,0.863612,-0.8431773,2.3246217,0.08710656,0.14145064,1.4803092,-0.07420999,1.1980561,-1.6629149,0.29794902,1.1404929,-2.3093557,-1.4693471,0.5728951
0.0,0.0,0.9,-0.5235987755982988,-0.5235987755982988,0,0.90879375,-0.91645294,2.3068864,0.064907156,0.16679445,1.5236079,-0.11432358,1.1865053,-1.66951,0.29708144,0.9882369,-2.304126,-1.4264967,0.57519233
0.0,0.0,0.9,-0.5235987755982988,-0.5235987755982988,0,0.87259126,-0.87219876,2.3064897,0.08331222,0.12236103,1.5156274,-0.16930993,1.2190081,-1.5591649,0.2940437,1.041565,-2.2797394,-1.416408,0.6332974
0.0,0.0,0.9,-0.5235987755982988,-0.5235987755982988,0,0.87391734,-0.9612544,2.2895956,0.093401566,0.16978103,1.4973072,-0.2146313,1.2081137,-1.4879706,0.17942634,1.0109006,-2.3104422,-1.5114784,0.6654545
0.0,0.0,0.9,-0.5235987755982988,-0.5235987755982988,0,0.8603018,-0.9301008,2.3120224,0.091194786,0.09421132,1.4768877,-0.22452834,1.2040634,-1.4957925,0.21155438,1.0166699,-2.2901814,-1.4363548,0.57498425
0.0,0.0,0.9,-0.5235987755982988,-0.5235987755982988,0,0.86477095,-0.8739395,2.3254287,0.073363036,0.1552856,1.4849476,-0.21152104,1.2210422,-1.6484166,0.22965229,1.0404457,-2.283375,-1.471021,0.6032227
0.0,0.0,0.9,-0.5235987755982988,-0.5235987755982988,0,0.8556666,-0.9270292,2.3274329,0.0945719,0.14920434,1.5012605,-0.14302734,1.2112149,-1.6469448,0.27547494,0.98128664,-2.2875242,-1.4889537,0.62766725
0.0,0.0,0.9,-0.5235987755982988,-0.5235987755982988,0,0.90382904,-0.9111183,2.3372943,0.08818565,0.19720355,1.5131078,-0.20677625,1.217392,-1.6036019,0.25455913,1.0543588,-2.2936072,-1.4668777,0.5942624
0.0,0.0,0.9,-0.5235987755982988,-0.5235987755982988,0,0.85220194,-0.8271311,2.2807677,0.10316058,0.12601225,1.4934955,-0.16170046,1.1858464,-1.5436802,0.37853816,0.9887646,-2.2940474,-1.4630779,0.57735085
0.0,0.0,0.9,-0.5235987755982988,-0.5235987755982988,0,0.9120318,-0.9193049,2.316909,0.09799981,0.19878729,1.4961793,-0.27197096,1.2041522,-1.5842115,0.31602547,0.9693959,-2.2708056,-1.449729,0.5440257
0.0,0.0,0.9,-0.5235987755982988,-0.5235987755982988,0,0.8825799,-0.8084743,2.3264966,0.08485679,0.15187459,1.480086,-0.19430846,1.173398,-1.472644,0.33133835,1.0497642,-2.293389,-1.5024014,0.56068075
0.0,0.0,0.9,-0.5235987755982988,-0.5235987755982988,0,0.8971278,-0.9054431,2.2800708,0.08052944,0.17874083,1.4848953,-0.15366878,1.1803643,-1.5870017,0.13709754,1.0707384,-2.2971652,-1.5391505,0.5462281
0.0,0.0,0.9,-0.5235987755982988,-0.5235987755982988,0,0.9421518,-0.8971356,2.312926,0.08417616,0.19038443,1.5009694,-0.20338342,1.1577078,-1.5617588,0.28097993,0.97222257,-2.2718112,-1.5464185,0.5507596
0.0,0.0,0.9,-0.5235987755982988,-0.5235987755982988,0,0.88911444,-0.9196034,2.3091078,0.08481433,0.16253759,1.4892638,-0.20396839,1.2165412,-1.6084486,0.21569793,1.0267323,-2.3100717,-1.5192242,0.61292654
0.0,0.0,0.9,-0.5235987755982988,-0.5235987755982988,0,0.86214805,-0.9457936,2.3321452,0.08735903,0.15912953,1.4852374,-0.18738984,1.2053058,-1.6742979,0.29103592,1.0239688,-2.2800946,-1.4792012,0.6038067
0.0,0.0,0.9,-0.5235987755982988,-0.5235987755982988,0,0.9074497,-0.8834976,2.3191912,0.081122525,0.16513139,1.4881364,-0.14830005,1.1980065,-1.6013836,0.2745899,1.0368192,-2.2886667,-1.4712124,0.6703039
0.0,0.0,0.9,-0.5235987755982988,-0.5235987755982988,0,0.8679911,-0.89395195,2.3382363,0.0718997,0.12878123,1.5001545,-0.16145149,1.1847681,-1.5173798,0.2858748,0.92935383,-2.2890925,-1.5317658,0.7102823
0.0,0.0,0.9,-0.5235987755982988,-0.5235987755982988,0,0.8840146,-0.8920999,2.3038845,0.07727729,0.14227316,1.4874232,-0.19871253,1.1864811,-1.5869071,0.27133912,1.005262,-2.3186328,-1.5022376,0.59276694
0.0,0.0,0.9,-0.5235987755982988,-0.5235987755982988,0,0.9406271,-0.9305103,2.320809,0.0932661,0.19291522,1.513149,-0.249176,1.1845596,-1.5425156,0.29564896,1.0017022,-2.2604055,-1.5100273,0.5760989
0.0,0.0,0.9,-0.5235987755982988,-0.5235987755982988,0,0.8856339,-0.8866794,2.3067427,0.08638173,0.16920163,1.4863921,-0.2738416,1.2448593,-1.5717548,0.27234054,1.0360109,-2.26048,-1.4296215,0.5887756
0.0,0.0,0.9,-0.5235987755982988,-0.5235987755982988,0,0.8936114,-0.9257276,2.3090174,0.0662372,0.17548913,1.5047781,-0.102136075,1.224105,-1.5773405,0.31366098,1.0814472,-2.2944396,-1.4357285,0.5942664
0.0,0.0,0.9,-0.5235987755982988,-0.5235987755982988,0,0.8416794,-0.8487248,2.309443,0.10887167,0.17010881,1.4825656,-0.15972158,1.1905814,-1.5913917,0.20999421,1.0358814,-2.2922153,-1.5237126,0.58450806
0.0,0.0,0.9,-0.5235987755982988,-0.5235987755982988,0,0.88290477,-0.9729029,2.28704,0.106823206,0.13876417,1.507741,-0.2069947,1.1918808,-1.575797,0.35285878,1.0276221,-2.275141,-1.5002553,0.55936974
0.0,0.0,0.9,-0.5235987755982988,-0.5235987755982988,0,0.8964101,-0.96210045,2.3086615,0.11220688,0.17098594,1.4970974,-0.3176132,1.171839,-1.5953009,0.2119888,1.052512,-2.2988067,-1.5116483,0.59199715
0.0,0.0,0.9,-0.5235987755982988,-0.5235987755982988,0,0.9050553,-0.95805234,2.3118098,0.07558237,0.1487236,1.5075606,-0.25062543,1.1670654,-1.6534656,0.29803443,0.89049494,-2.268738,-1.5501573,0.7047199
0.0,0.0,0.9,-0.5235987755982988,-0.5235987755982988,0,0.850545,-0.9208034,2.3130279,0.084966496,0.15122001,1.4941688,-0.17820713,1.1865023,-1.5811648,0.26135936,0.98141915,-2.3137777,-1.5053129,0.5668984
0.0,0.0,0.9,-0.5235987755982988,-0.5235987755982988,0,0.8338136,-0.8932417,2.3154294,0.07744637,0.16253953,1.4923316,-0.20060427,1.2131317,-1.5593858,0.28674328,0.91294634,-2.3013382,-1.5596449,0.6529088
0.0,0.0,0.9,-0.5235987755982988,-0.5235987755982988,0,0.90538883,-0.8880534,2.3400893,0.10185491,0.17746611,1.5102676,-0.17557162,1.1943933,-1.549191,0.27051607,1.0597242,-2.3164623,-1.5181551,0.64819455
0.0,0.0,0.9,-0.5235987755982988,-0.5235987755982988,0,0.9166875,-0.91693324,2.3120148,0.08903082,0.19023627,1.5049995,-0.14738625,1.1850393,-1.7450274,0.24689065,1.0448847,-2.3284783,-1.5534655,0.6098574
0.0,0.0,0.9,-0.5235987755982988,-0.5235987755982988,0,0.9066125,-0.9447552,2.2933075,0.09623876,0.17599705,1.4967699,-0.11943834,1.2328352,-1.5373193,0.2916059,1.0974761,-2.288652,-1.4125562,0.6169905
0.0,0.0,0.9,-0.5235987755982988,-0.5235987755982988,0,0.89493644,-0.855453,2.3294113,0.102711,0.14045723,1.4676789,-0.18772049,1.1821212,-1.4560424,0.26639336,1.032339,-2.298509,-1.5372216,0.67444956
0.0,0.0,0.9,-0.5235987755982988,-0.5235987755982988,0,0.86963487,-0.9262412,2.3115954,0.064718954,0.100324765,1.491178,-0.1583159,1.2129079,-1.6095941,0.28509554,0.95705825,-2.3047862,-1.5388192,0.6006584
0.0,0.0,0.9,-0.5235987755982988,-0.5235987755982988,0,0.88804436,-0.8988836,2.3165157,0.07226416,0.13296585,1.511589,-0.17106625,1.2007216,-1.7016445,0.30657804,1.0596418,-2.3212812,-1.492865,0.6084126
0.0,0.0,0.9,-0.5235987755982988,-0.5235987755982988,0,0.9077723,-0.90468,2.3146524,0.07940489,0.15145555,1.5012784,-0.16856375,1.1851752,-1.6495163,0.18650924,1.0614538,-2.2926037,-1.515202,0.59852815
0.0,0.0,0.9,-0.5235987755982988,-0.5235987755982988,0,0.8802158,-0.94977534,2.3029633,0.096578196,0.16081138,1.4921769,-0.16387673,1.2040837,-1.6005119,0.21133381,1.054595,-2.3049455,-1.5144894,0.5391105
0.0,0.0,0.9,-0.5235987755982988,-0.5235987755982988,0,0.859529,-0.9410749,2.3315172,0.07279722,0.14104716,1.4900293,-0.1953785,1.1612988,-1.618301,0.24067621,1.0039335,-2.2973485,-1.4681649,0.56213725
0.0,0.0,0.9,-0.5235987755982988,-0.5235987755982988,0,0.9021258,-0.9304585,2.319506,0.097844295,0.16100675,1.4801729,-0.27201676,1.1659083,-1.6789868,0.29388088,1.0044903,-2.2588186,-1.4934956,0.6130922
0.0,0.0,0.9,-0.5235987755982988,-0.5235987755982988,0,0.91723984,-0.89899087,2.2921677,0.10700246,0.17032139,1.5005305,-0.20104475,1.1690743,-1.5356973,0.2671028,1.0125798,-2.289725,-1.5328906,0.58424056
0.0,0.0,0.9,-0.5235987755982988,-0.5235987755982988,0,0.8602601,-0.92674875,2.3177836,0.097808085,0.1612724,1.4731545,-0.16144179,1.1971757,-1.6318994,0.29550394,1.0036465,-2.3022683,-1.5257164,0.61887467
0.0,0.0,0.9,-0.5235987755982988,-0.5235987755982988,0,0.8619056,-0.93203366,2.3451114,0.10667815,0.17199056,1.4892172,-0.24390727,1.1859787,-1.6506537,0.2456884,1.0438778,-2.274547,-1.4836249,0.6610654
0.0,0.0,0.9,-0.5235987755982988,-0.5235987755982988,0,0.8947263,-0.8563824,2.2905955,0.09149089,0.121012,1.4883977,-0.2128421,1.2044544,-1.7178789,0.19263844,1.0165106,-2.2938359,-1.4736818,0.65876794
0.0,0.0,0.9,-0.5235987755982988,-0.5235987755982988,0,0.8571653,-0.9009185,2.3271286,0.09561727,0.15287088,1.4618948,-0.24762137,1.1878916,-1.6970104,0.22298206,1.0935773,-2.2927935,-1.4429433,0.58138573
0.0,0.0,0.9,-0.5235987755982988,-0.5235987755982988,0,0.8932405,-0.8927046,2.3083687,0.09673376,0.14836147,1.4987528,-0.24513884,1.2113262,-1.5949708,0.20911203,1.0670027,-2.3150244,-1.4796245,0.522059
0.0,0.0,0.9,-0.5235987755982988,-0.5235987755982988,0,0.8876581,-0.9069388,2.3141928,0.061920144,0.17512006,1.5004493,-0.16405623,1.1914483,-1.553472,0.22720176,1.1192954,-2.2700484,-1.4756322,0.572865
0.0,0.0,0.9,-0.5235987755982988,-0.5235987755982988,0,0.9055601,-0.9621347,2.281324,0.07239842,0.12915906,1.4760365,-0.206221,1.1877211,-1.612552,0.31881002,1.0499953,-2.3058815,-1.4340279,0.55203176
0.0,0.0,0.9,-0.5235987755982988,-0.5235987755982988,0,0.81663334,-0.9574928,2.2988482,0.096510276,0.16820717,1.4806479,-0.15796663,1.1968604,-1.5869204,0.25959224,1.0452068,-2.3535812,-1.4681727,0.59052277
0.0,0.0,0.9,-0.5235987755982988,-0.5235987755982988,0,0.8775287,-0.8697279,2.2896764,0.118837126,0.17136379,1.4980509,-0.17471123,1.2084154,-1.642601,0.26343948,1.0377067,-2.3522365,-1.4334352,0.6204287
0.0,0.0,0.9,-0.5235987755982988,-0.5235987755982988,0,0.86503714,-0.88269055,2.2983332,0.10317423,0.17650461,1.5074197,-0.23002015,1.2143406,-1.7055428,0.32824174,1.0708098,-2.2867503,-1.4354246,0.535447
0.0,0.0,0.9,-0.5235987755982988,-0.5235987755982988,0,0.88878417,-0.9333418,2.3086355,0.07707322,0.19646786,1.4891466,-0.23330623,1.1963048,-1.4356507,0.30432504,1.0891854,-2.3182623,-1.425429,0.62694615
0.0,0.0,0.9,-0.5235987755982988,-0.5235987755982988,0,0.8500691,-0.86841416,2.3177884,0.08041358,0.12791808,1.4770606,-0.24781409,1.2162048,-1.6930578,0.29864803,0.99482304,-2.2749631,-1.5153935,0.58553123
0.0,0.0,0.9,-0.5235987755982988,-0.5235987755982988,0,0.91350955,-0.91574174,2.2925622,0.1024599,0.15511051,1.4880172,-0.123193406,1.1922939,-1.5793688,0.31389418,1.0063809,-2.341619,-1.5477884,0.5377672
0.0,0.0,0.9,-0.5235987755982988,-0.5235987755982988,0,0.87910527,-0.8798632,2.3181667,0.11424345,0.15315405,1.4827348,-0.2052132,1.1579767,-1.5669746,0.2746077,1.0169647,-2.286417,-1.5102701,0.61557376
0.0,0.0,0.9,-0.5235987755982988,-0.5235987755982988,0,0.88043797,-0.9385022,2.3174393,0.078727745,0.12151917,1.4975746,-0.16934453,1.2038327,-1.5993658,0.19827344,1.0272675,-2.3030505,-1.551138,0.6403618
0.0,0.0,0.9,-0.5235987755982988,-0.5235987755982988,0,0.8734729,-0.8441009,2.285317,0.08249935,0.14819762,1.4834186,-0.20230074,1.2001488,-1.7435893,0.23401567,0.99220115,-2.2792597,-1.5382957,0.58407795
0.0,0.0,0.9,-0.5235987755982988,-0.5235987755982988,0,0.8750962,-0.8740595,2.321137,0.09784878,0.18041804,1.4961144,-0.21717092,1.1917107,-1.6597347,0.24457872,1.0165329,-2.2586238,-1.5329121,0.6134366
0.0,0.0,0.9,-0.5235987755982988,-0.5235987755982988,0,0.84530467,-0.87951696,2.3130133,0.05392298,0.13825086,1.4789937,-0.16344967,1.1940955,-1.6381344,0.24012327,0.93759197,-2.2554982,-1.5415891,0.5774984
0.0,0.0,0.9,-0.5235987755982988,-0.5235987755982988,0,0.90693283,-0.8703629,2.2985144,0.07179128,0.17965147,1.5026182,-0.13354471,1.1922249,-1.6043277,0.2615317,1.038003,-2.2805903,-1.4648004,0.5478206
0.0,0.0,0.9,-0.5235987755982988,-0.5235987755982988,0,0.9118138,-0.9107584,2.3208833,0.07984986,0.15110993,1.5232037,-0.17344983,1.2098523,-1.6225885,0.23294023,1.0281225,-2.2865238,-1.5191015,0.59985805
0.0,0.0,0.9,-0.5235987755982988,-0.5235987755982988,0,0.88702655,-0.86041564,2.3343673,0.09776876,0.15520838,1.510675,-0.15255412,1.1639826,-1.5236514,0.33758917,1.0281388,-2.2780821,-1.4366086,0.5618681
0.0,0.0,0.9,-0.5235987755982988,-0.5235987755982988,0,0.8892736,-0.9209376,2.3322344,0.1200229,0.17545937,1.4784464,-0.140359,1.1554558,-1.5891244,0.22270481,0.9760221,-2.294433,-1.5569834,0.6332314
0.0,0.0,0.9,-0.5235987755982988,-0.5235987755982988,0,0.84083635,-0.97080964,2.319802,0.08442669,0.13146468,1.4866087,-0.18751511,1.1657315,-1.692856,0.20155938,1.0598037,-2.266664,-1.469534,0.60138935
0.0,0.0,0.9,-0.5235987755982988,-0.5235987755982988,0,0.8928994,-0.8989828,2.3197193,0.086868644,0.18311946,1.4824634,-0.23045075,1.193727,-1.6298866,0.35347992,0.9981797,-2.2667644,-1.4801114,0.5864496
0.0,0.0,0.9,-0.5235987755982988,-0.5235987755982988,0,0.8659676,-0.90930766,2.3108525,0.117604814,0.1297488,1.4811292,-0.19168882,1.2028205,-1.6879412,0.34227207,0.9452096,-2.2845857,-1.5434396,0.53920746
0.0,0.0,0.9,-0.5235987755982988,-0.5235987755982988,0,0.88447756,-0.9148758,2.2990806,0.09479994,0.15131225,1.4989111,-0.20868865,1.1721791,-1.5948421,0.2973844,1.0462186,-2.3019805,-1.5033572,0.54885674
0.0,0.0,0.9,-0.5235987755982988,-0.5235987755982988,0,0.8444217,-0.8766406,2.3018072,0.09104933,0.15523466,1.48835,-0.12922955,1.1867876,-1.6547812,0.19734687,1.0448227,-2.2746706,-1.5143214,0.60719585
0.0,0.0,0.9,-0.5235987755982988,-0.5235987755982988,0,0.8816385,-0.84396565,2.2928166,0.097466506,0.155814,1.4929855,-0.14561814,1.2069395,-1.6330312,0.27884513,1.0591086,-2.2591949,-1.5118027,0.6564313
0.0,0.0,0.9,-0.5235987755982988,-0.5235987755982988,0,0.88049144,-0.906868,2.3194685,0.0941478,0.14928393,1.4860344,-0.17456046,1.2284633,-1.5055877,0.28392273,1.0128076,-2.2881575,-1.5189632,0.53691065
0.0,0.0,0.9,-0.5235987755982988,-0.5235987755982988,0,0.87375957,-0.8770766,2.315137,0.09495808,0.11630684,1.5050503,-0.1659081,1.1880211,-1.6072313,0.24034536,1.0990249,-2.2976427,-1.4901092,0.5512163
0.0,0.0,0.9,-0.5235987755982988,-0.5235987755982988,0,0.92554665,-0.9189319,2.289027,0.11960028,0.07947481,1.4758123,-0.17020628,1.206727,-1.5519203,0.28943256,0.9981445,-2.2758164,-1.4929454,0.590521
0.0,0.0,0.9,-0.5235987755982988,-0.5235987755982988,0,0.86295944,-0.9156142,2.3149927,0.08526604,0.17171861,1.4824133,-0.21838197,1.1802198,-1.6262199,0.27624145,1.0122244,-2.3115938,-1.5559293,0.62023306
0.0,0.0,0.9,-0.5235987755982988,-0.5235987755982988,0,0.9087928,-0.87201816,2.3104193,0.0665094,0.13016132,1.506364,-0.114838,1.193582,-1.6590523,0.23699929,1.012254,-2.2781174,-1.5023575,0.6709127
0.0,0.0,0.9,-0.5235987755982988,-0.5235987755982988,0,0.880486,-0.8820634,2.3305833,0.08613338,0.16205917,1.474943,-0.17737718,1.2018149,-1.5484011,0.31182915,1.0928774,-2.2972884,-1.4468142,0.5558138
0.0,0.0,0.9,-0.5235987755982988,-0.5235987755982988,0,0.857842,-0.9121003,2.3028815,0.063604355,0.17561181,1.5016277,-0.16827115,1.1832722,-1.6699606,0.27764565,1.0099196,-2.3127327,-1.5407782,0.54236865
0.0,0.0,0.9,-0.5235987755982988,-0.5235987755982988,0,0.8802215,-0.88378024,2.2995837,0.10742619,0.1473105,1.4970958,-0.22868524,1.2130793,-1.7578927,0.28539085,1.002055,-2.3032556,-1.503421,0.5923776
0.0,0.0,0.9,-0.5235987755982988,-0.5235987755982988,0,0.90868205,-0.90086216,2.3103037,0.080706716,0.15866514,1.4915209,-0.2616191,1.1971657,-1.625656,0.2190494,1.0432721,-2.2993796,-1.5436076,0.5217888
0.0,0.0,0.9,-0.5235987755982988,-0.5235987755982988,0,0.90027833,-0.9112143,2.3273075,0.08168913,0.16711259,1.4908054,-0.2451115,1.1856918,-1.544283,0.19907223,0.9972676,-2.3066278,-1.5683053,0.6556074
0.0,0.0,0.9,-0.5235987755982988,-0.5235987755982988,0,0.87483495,-0.8700463,2.3439233,0.11048547,0.15130138,1.4950173,-0.26683122,1.1996148,-1.6819174,0.28613767,1.0350237,-2.2872956,-1.4943773,0.6284031
0.0,0.0,0.9,-0.5235987755982988,-0.5235987755982988,0,0.8712949,-0.8746851,2.3077111,0.06996455,0.14070302,1.5050457,-0.23046218,1.2183924,-1.6897979,0.24188188,1.0662885,-2.302553,-1.451043,0.5797835
0.0,0.0,0.9,-0.5235987755982988,-0.5235987755982988,0,0.88942295,-0.88905454,2.3296113,0.086889036,0.15355195,1.4857011,-0.1381136,1.2016165,-1.6415591,0.39275342,1.0538121,-2.264,-1.4570391,0.57953566
0.0,0.0,0.9,-0.5235987755982988,-0.5235987755982988,0,0.87701035,-0.89982414,2.3116663,0.08918246,0.16983005,1.507316,-0.09309649,1.2107756,-1.5960827,0.26215577,0.99045014,-2.2930148,-1.4849943,0.59505546
0.0,0.0,0.9,-0.5235987755982988,-0.5235987755982988,0,0.8516924,-0.94784045,2.3073,0.121652715,0.1594136,1.4694211,-0.20411003,1.2202849,-1.6668738,0.29934278,1.0738477,-2.293739,-1.4561677,0.5275601
0.0,0.0,0.9,-0.5235987755982988,-0.5235987755982988,0,0.88443327,-0.8757449,2.327548,0.08569822,0.12823068,1.5090446,-0.1728572,1.2117572,-1.6369321,0.27915913,1.0126327,-2.2912066,-1.467043,0.6583186
0.0,0.0,0.9,-0.5235987755982988,-0.5235987755982988,0,0.87707233,-0.8952848,2.3032298,0.10753981,0.15148306,1.4973657,-0.17110598,1.1801798,-1.6735387,0.21951044,1.1052363,-2.2613895,-1.5070038,0.6019346
0.0,0.0,0.9,-0.5235987755982988,-0.5235987755982988,0,0.8814441,-0.89186,2.3091855,0.09373596,0.13824151,1.4722679,-0.1445601,1.1968498,-1.4635988,0.2762765,1.0668662,-2.286499,-1.4391307,0.63491553
0.0,0.0,0.9,-0.5235987755982988,-0.5235987755982988,0,0.8814441,-0.89186,2.3091855,0.09373596,0.13824151,1.4722679,-0.1445601,1.1968498,-1.4635988,0.2762765,1.0668662,-2.286499,-1.4391307,0.63491553
0.0,0.0,0.9,-0.5235987755982988,-0.5235987755982988,0,0.8814441,-0.89186,2.3091855,0.09373596,0.13824151,1.4722679,-0.1445601,1.1968498,-1.4635988,0.2762765,1.0668662,-2.286499,-1.4391307,0.63491553
0.0,0.0,0.9,-0.5235987755982988,-0.5235987755982988,0,0.8814441,-0.89186,2.3091855,0.09373596,0.13824151,1.4722679,-0.1445601,1.1968498,-1.4635988,0.2762765,1.0668662,-2.286499,-1.4391307,0.63491553
0.0,0.0,0.9,-0.5235987755982988,-0.5235987755982988,0,0.8814441,-0.89186,2.3091855,0.09373596,0.13824151,1.4722679,-0.1445601,1.1968498,-1.4635988,0.2762765,1.0668662,-2.286499,-1.4391307,0.63491553
0.0,0.0,0.9,-0.5235987755982988,-0.5235987755982988,0,0.8814441,-0.89186,2.3091855,0.09373596,0.13824151,1.4722679,-0.1445601,1.1968498,-1.4635988,0.2762765,1.0668662,-2.286499,-1.4391307,0.63491553
0.0,0.0,0.9,-0.5235987755982988,-0.5235987755982988,0,0.8814441,-0.89186,2.3091855,0.09373596,0.13824151,1.4722679,-0.1445601,1.1968498,-1.4635988,0.2762765,1.0668662,-2.286499,-1.4391307,0.63491553
0.0,0.0,0.9,-0.5235987755982988,-0.5235987755982988,0,0.8814441,-0.89186,2.3091855,0.09373596,0.13824151,1.4722679,-0.1445601,1.1968498,-1.4635988,0.2762765,1.0668662,-2.286499,-1.4391307,0.63491553
0.0,0.0,0.9,-0.5235987755982988,-0.5235987755982988,0,0.8814441,-0.89186,2.3091855,0.09373596,0.13824151,1.4722679,-0.1445601,1.1968498,-1.4635988,0.2762765,1.0668662,-2.286499,-1.4391307,0.63491553
0.0,0.0,0.9,-0.5235987755982988,-0.5235987755982988,0,0.8739113,-0.87609726,2.3335507,0.10212242,0.17043307,1.4878807,-0.17342924,1.1856807,-1.6154473,0.24388798,1.0802373,-2.3036277,-1.4883094,0.6030288
0.0,0.0,0.9,-0.5235987755982988,-0.5235987755982988,0,0.8739113,-0.87609726,2.3335507,0.10212242,0.17043307,1.4878807,-0.17342924,1.1856807,-1.6154473,0.24388798,1.0802373,-2.3036277,-1.4883094,0.6030288
0.0,0.0,0.9,-0.5235987755982988,-0.5235987755982988,0,0.8739113,-0.87609726,2.3335507,0.10212242,0.17043307,1.4878807,-0.17342924,1.1856807,-1.6154473,0.24388798,1.0802373,-2.3036277,-1.4883094,0.6030288
0.0,0.0,0.9,-0.5235987755982988,-0.5235987755982988,0,0.8739113,-0.87609726,2.3335507,0.10212242,0.17043307,1.4878807,-0.17342924,1.1856807,-1.6154473,0.24388798,1.0802373,-2.3036277,-1.4883094,0.6030288
0.0,0.0,0.9,-0.5235987755982988,-0.5235987755982988,0,0.8739113,-0.87609726,2.3335507,0.10212242,0.17043307,1.4878807,-0.17342924,1.1856807,-1.6154473,0.24388798,1.0802373,-2.3036277,-1.4883094,0.6030288
0.0,0.0,0.9,-0.5235987755982988,-0.5235987755982988,0,0.8739113,-0.87609726,2.3335507,0.10212242,0.17043307,1.4878807,-0.17342924,1.1856807,-1.6154473,0.24388798,1.0802373,-2.3036277,-1.4883094,0.6030288
0.0,0.0,0.9,-0.5235987755982988,-0.5235987755982988,0,0.8739113,-0.87609726,2.3335507,0.10212242,0.17043307,1.4878807,-0.17342924,1.1856807,-1.6154473,0.24388798,1.0802373,-2.3036277,-1.4883094,0.6030288
0.0,0.0,0.9,-0.5235987755982988,-0.5235987755982988,0,0.8739113,-0.87609726,2.3335507,0.10212242,0.17043307,1.4878807,-0.17342924,1.1856807,-1.6154473,0.24388798,1.0802373,-2.3036277,-1.4883094,0.6030288
0.0,0.0,0.9,-0.5235987755982988,-0.5235987755982988,0,0.8739113,-0.87609726,2.3335507,0.10212242,0.17043307,1.4878807,-0.17342924,1.1856807,-1.6154473,0.24388798,1.0802373,-2.3036277,-1.4883094,0.6030288
0.0,0.0,0.9,-0.5235987755982988,-0.5235987755982988,0,0.8944795,-0.9543482,2.3044758,0.11412607,0.18659428,1.496516,-0.25004032,1.2135686,-1.5940133,0.12479551,1.1196339,-2.2724383,-1.5234333,0.5414638
0.0,0.0,0.9,-0.5235987755982988,-0.5235987755982988,0,0.8944795,-0.9543482,2.3044758,0.11412607,0.18659428,1.496516,-0.25004032,1.2135686,-1.5940133,0.12479551,1.1196339,-2.2724383,-1.5234333,0.5414638
0.0,0.0,0.9,-0.5235987755982988,-0.5235987755982988,0,0.8944795,-0.9543482,2.3044758,0.11412607,0.18659428,1.496516,-0.25004032,1.2135686,-1.5940133,0.12479551,1.1196339,-2.2724383,-1.5234333,0.5414638
0.0,0.0,0.9,-0.5235987755982988,-0.5235987755982988,0,0.8944795,-0.9543482,2.3044758,0.11412607,0.18659428,1.496516,-0.25004032,1.2135686,-1.5940133,0.12479551,1.1196339,-2.2724383,-1.5234333,0.5414638
0.0,0.0,0.9,-0.5235987755982988,-0.5235987755982988,0,0.8944795,-0.9543482,2.3044758,0.11412607,0.18659428,1.496516,-0.25004032,1.2135686,-1.5940133,0.12479551,1.1196339,-2.2724383,-1.5234333,0.5414638
0.0,0.0,0.9,-0.5235987755982988,-0.5235987755982988,0,0.8944795,-0.9543482,2.3044758,0.11412607,0.18659428,1.496516,-0.25004032,1.2135686,-1.5940133,0.12479551,1.1196339,-2.2724383,-1.5234333,0.5414638
0.0,0.0,0.9,-0.5235987755982988,-0.5235987755982988,0,0.8944795,-0.9543482,2.3044758,0.11412607,0.18659428,1.496516,-0.25004032,1.2135686,-1.5940133,0.12479551,1.1196339,-2.2724383,-1.5234333,0.5414638
0.0,0.0,0.9,-0.5235987755982988,-0.5235987755982988,0,0.8944795,-0.9543482,2.3044758,0.11412607,0.18659428,1.496516,-0.25004032,1.2135686,-1.5940133,0.12479551,1.1196339,-2.2724383,-1.5234333,0.5414638
0.0,0.0,0.9,-0.5235987755982988,-0.5235987755982988,0,0.8944795,-0.9543482,2.3044758,0.11412607,0.18659428,1.496516,-0.25004032,1.2135686,-1.5940133,0.12479551,1.1196339,-2.2724383,-1.5234333,0.5414638
0.0,0.0,0.9,-0.5235987755982988,-0.5235987755982988,0,0.8749125,-0.8689358,2.315126,0.080820836,0.17238458,1.4986084,-0.13882422,1.1857947,-1.7250692,0.27925098,1.0628834,-2.2797968,-1.4717468,0.6289596
0.0,0.0,0.9,-0.5235987755982988,-0.5235987755982988,0,0.8749125,-0.8689358,2.315126,0.080820836,0.17238458,1.4986084,-0.13882422,1.1857947,-1.7250692,0.27925098,1.0628834,-2.2797968,-1.4717468,0.6289596
0.0,0.0,0.9,-0.5235987755982988,-0.5235987755982988,0,0.8749125,-0.8689358,2.315126,0.080820836,0.17238458,1.4986084,-0.13882422,1.1857947,-1.7250692,0.27925098,1.0628834,-2.2797968,-1.4717468,0.6289596
0.0,0.0,0.9,-0.5235987755982988,-0.5235987755982988,0,0.8749125,-0.8689358,2.315126,0.080820836,0.17238458,1.4986084,-0.13882422,1.1857947,-1.7250692,0.27925098,1.0628834,-2.2797968,-1.4717468,0.6289596
0.0,0.0,0.9,-0.5235987755982988,-0.5235987755982988,0,0.8749125,-0.8689358,2.315126,0.080820836,0.17238458,1.4986084,-0.13882422,1.1857947,-1.7250692,0.27925098,1.0628834,-2.2797968,-1.4717468,0.6289596
