sanky1234/BimanualDexCatch/isaacgymenvs/cem_results/May31/football_pose_0.0_0.0_1.1_-0.5235987755982988_0.5235987755982988_0_2025-05-31.csv
x,y,z,roll,pitch,yaw,robot1/joint1,robot1/joint2,robot1/joint3,robot1/joint4,robot1/joint5,robot1/joint6,robot1/joint7,robot2/joint1,robot2/joint2,robot2/joint3,robot2/joint4,robot2/joint5,robot2/joint6,robot2/joint7
0.0,0.0,1.1,-0.5235987755982988,0.5235987755982988,0,-0.17433654,-0.41088322,2.2823005,0.95357096,-1.2347085,0.1713138,1.3785028,-0.65269357,-1.2536508,-0.93126225,0.7866513,0.38994288,-0.46833542,-0.9279419
0.0,0.0,1.1,-0.5235987755982988,0.5235987755982988,0,0.021598684,-0.4088407,2.2682498,1.0433587,-1.3561224,0.2711501,1.5660009,-0.6857448,-0.8873432,-1.4355841,0.42748094,0.2814073,-0.2480058,-0.68356746
0.0,0.0,1.1,-0.5235987755982988,0.5235987755982988,0,0.058136504,-0.42647848,2.226865,1.0628862,-0.3139716,0.445404,0.12285259,-0.6532143,-1.1664,-0.7553643,0.3291183,1.3152896,-0.7810013,-0.52508837
0.0,0.0,1.1,-0.5235987755982988,0.5235987755982988,0,-0.24797979,-0.5738864,2.304327,0.8001995,-0.22456038,0.21033122,0.9118445,-0.65207165,-1.0077058,-1.2428952,0.6523063,1.1323245,-0.54637384,-0.17752306
0.0,0.0,1.1,-0.5235987755982988,0.5235987755982988,0,0.25639358,-0.5816042,2.2957857,1.1299115,-0.53544235,-0.20348054,1.5800843,-0.7348224,-1.0081574,-0.9298892,0.36420622,-2.396464,-0.6202884,-0.5083627
0.0,0.0,1.1,-0.5235987755982988,0.5235987755982988,0,0.31506422,-0.39508858,2.266708,0.96715873,-0.39820522,0.30656487,0.6430745,-0.78720045,-1.134199,-0.7294126,0.52724653,1.4644798,-0.49495006,-0.43046638
0.0,0.0,1.1,-0.5235987755982988,0.5235987755982988,0,0.06949754,-0.45792505,2.1741812,1.018461,-0.42634082,0.6438505,0.2169076,-0.56390655,-1.018224,-1.1719689,0.4015786,1.7963885,-0.39157504,-0.17519523
0.0,0.0,1.1,-0.5235987755982988,0.5235987755982988,0,0.00068305776,-0.4632682,2.2669773,0.8110998,-1.3009688,0.5304057,0.48606277,-0.63149786,-1.1879042,-0.971241,0.26657262,-0.021731602,-0.32768345,-0.38869482
0.0,0.0,1.1,-0.5235987755982988,0.5235987755982988,0,0.19919215,-0.42172003,2.3473182,0.71409214,0.066818446,-0.3354041,0.39891905,-0.7079555,-1.1195073,-0.54841876,0.7154756,1.6554649,-0.27350274,-0.83468944
0.0,0.0,1.1,-0.5235987755982988,0.5235987755982988,0,0.03876625,-0.36069033,2.430301,1.3309138,-0.644465,0.01909216,0.8266645,-0.57152647,-1.0606434,-1.1223563,0.5595107,0.13337007,-0.5928534,-0.5294767
0.0,0.0,1.1,-0.5235987755982988,0.5235987755982988,0,0.042187005,-0.54202396,2.3471742,0.97357965,-0.4863054,-0.03902171,0.7103835,-0.683537,-1.2305857,-0.5948366,0.4596685,0.40760708,-0.3381282,-0.38975984
0.0,0.0,1.1,-0.5235987755982988,0.5235987755982988,0,0.41602153,-0.3528956,2.3061442,1.1821307,-1.6659895,0.41305813,1.3408527,-0.7913822,-1.0527987,-1.0530801,0.56569016,0.84774196,-0.3765451,-0.6321198
0.0,0.0,1.1,-0.5235987755982988,0.5235987755982988,0,-0.17408048,-0.56840396,2.2949915,1.036804,-0.2534792,0.049749352,0.4540663,-0.69865793,-1.3594261,-0.6702344,0.49894312,1.3014693,-0.53305984,-0.619341
0.0,0.0,1.1,-0.5235987755982988,0.5235987755982988,0,0.036275644,-0.64718777,2.3565385,0.90551203,-0.80092305,0.2606092,1.514239,-0.64884216,-1.1009684,-0.100520104,0.5945684,-0.13076144,-0.2882702,-0.9136777
0.0,0.0,1.1,-0.5235987755982988,0.5235987755982988,0,0.08575537,-0.6159568,2.1907036,0.6988174,-0.7098319,-0.013286362,1.2257334,-0.6666294,-0.91861486,-1.164274,0.44009563,0.83389664,-0.56067526,-0.5505513
0.0,0.0,1.1,-0.5235987755982988,0.5235987755982988,0,0.21014963,-0.25366944,2.2616973,0.97772104,-1.1540326,-0.17536056,0.12933084,-0.78674686,-0.94918364,-1.2282256,0.73593503,1.1116672,-0.8030449,-0.6410537
0.0,0.0,1.1,-0.5235987755982988,0.5235987755982988,0,0.030200059,-0.40159893,2.2918901,0.94172084,-0.66354954,-0.26837564,0.1821442,-0.601045,-1.1543112,-0.83444643,0.6329792,0.31188723,-0.35158136,-0.5175377
0.0,0.0,1.1,-0.5235987755982988,0.5235987755982988,0,0.14076622,-0.47545242,2.362151,0.98437613,0.0381134,0.032621387,1.6846247,-0.8310945,-1.0938452,-0.9341139,0.29509774,-0.43150473,-0.63570136,-0.54274833
0.0,0.0,1.1,-0.5235987755982988,0.5235987755982988,0,0.124367975,-0.3955394,2.34613,1.1103486,-0.849411,0.40430865,0.68774724,-0.6398254,-1.1442604,-0.8264319,0.5032045,-0.1335601,-0.41803434,-0.2873258
0.0,0.0,1.1,-0.5235987755982988,0.5235987755982988,0,0.039728712,-0.54768455,2.302551,1.073133,-1.9460478,0.3300501,1.230032,-0.64962256,-1.1953068,-0.74814993,0.31282726,-0.051526334,-0.45045102,-0.39919156
0.0,0.0,1.1,-0.5235987755982988,0.5235987755982988,0,0.49025345,-0.4223368,2.3010957,1.2123443,-1.6845018,0.734343,0.13723435,-0.65009135,-1.0920513,-0.6502627,0.525089,-0.36374438,-0.82907104,-0.60206664
0.0,0.0,1.1,-0.5235987755982988,0.5235987755982988,0,-0.048288945,-0.53216636,2.404705,1.3587489,-0.709163,-0.5248236,1.3554417,-0.6258781,-0.885932,-1.3564154,0.50532395,0.07190233,-0.48692223,-0.5224684
0.0,0.0,1.1,-0.5235987755982988,0.5235987755982988,0,-0.037038013,-0.44826502,2.3255534,0.79096866,-0.84012824,0.73443305,0.6136766,-0.758253,-1.3182415,-0.7586982,0.6557944,-0.8017515,-0.51095146,-0.7968049
0.0,0.0,1.1,-0.5235987755982988,0.5235987755982988,0,-0.1454006,-0.66723,2.292899,0.6040398,-0.44293818,-0.30572188,0.46934724,-0.63570404,-1.2285357,-0.624774,0.42482936,0.13120702,-0.459038,-0.6509559
0.0,0.0,1.1,-0.5235987755982988,0.5235987755982988,0,0.18306701,-0.53260154,2.2203624,1.029136,-0.4089896,-0.21790673,0.8088043,-0.6559688,-0.76427037,-1.3171512,0.58362967,0.18150532,-0.44845793,-0.19907926
0.0,0.0,1.1,-0.5235987755982988,0.5235987755982988,0,-0.15121806,-0.53902775,2.2929585,0.7064486,-0.21829103,0.08000686,-0.50858897,-0.65342885,-1.1713424,-0.9730858,0.42499608,-0.8151123,-0.60161483,-0.4851295
0.0,0.0,1.1,-0.5235987755982988,0.5235987755982988,0,0.0036085304,-0.523761,2.4608045,1.0170126,-1.1465389,0.13344097,0.3262276,-0.5830073,-1.0333003,-0.57828313,0.4893048,1.1793394,-0.527472,-0.85729945
0.0,0.0,1.1,-0.5235987755982988,0.5235987755982988,0,-0.07750002,-0.48496106,2.3492186,0.587866,-2.0191584,0.022717847,0.919395,-0.7023569,-1.1137697,-1.0189737,0.54426193,1.1720182,-0.53005373,-0.6351525
0.0,0.0,1.1,-0.5235987755982988,0.5235987755982988,0,0.17603013,-0.42553082,2.3969157,1.1597431,-0.943836,-0.19803736,1.2005143,-0.6022648,-1.1736553,-0.36876836,0.5792774,1.6470851,-0.373595,-0.34136337
0.0,0.0,1.1,-0.5235987755982988,0.5235987755982988,0,-0.012376222,-0.4863136,2.250472,0.7768641,-1.8294226,0.4357004,0.954774,-0.73594755,-1.2964196,-0.6714773,0.2215914,0.606121,-0.3608217,-0.33603227
0.0,0.0,1.1,-0.5235987755982988,0.5235987755982988,0,0.040435947,-0.3784328,2.2560894,0.86084104,-0.011260057,0.58005035,0.5256301,-0.67375433,-1.2489234,-0.72480804,0.38644227,-0.7688371,-0.83388263,-0.49601132
0.0,0.0,1.1,-0.5235987755982988,0.5235987755982988,0,-0.112752415,-0.52355254,2.3142157,0.99316275,0.010741801,0.048759423,0.8148472,-0.5921123,-1.1019423,-0.9726564,0.5007108,0.51009464,-0.48726246,-0.11772301
0.0,0.0,1.1,-0.5235987755982988,0.5235987755982988,0,0.0889505,-0.37756905,2.257065,1.0489937,-1.2629267,-0.077425055,1.1976783,-0.6120608,-1.056071,-1.0839291,0.7228885,0.5657167,-0.5933424,-0.5954347
0.0,0.0,1.1,-0.5235987755982988,0.5235987755982988,0,-0.11542384,-0.43094397,2.4033308,0.9616321,-0.89773864,0.07770279,0.8000051,-0.59699863,-1.0240604,-1.1537137,0.5691412,-0.95947355,-0.48995575,-0.22313616
0.0,0.0,1.1,-0.5235987755982988,0.5235987755982988,0,0.56960124,-0.63598144,2.3273582,1.3401237,-1.3196666,0.18625452,1.1159793,-0.59230876,-0.9310193,-0.9348311,0.67805445,2.708846,-0.5792043,-0.9061859
0.0,0.0,1.1,-0.5235987755982988,0.5235987755982988,0,0.030517895,-0.5752292,2.3848953,1.0632714,-1.5039457,-0.36525774,-0.06453437,-0.6885341,-1.1464889,-0.4674387,0.5115888,0.5556762,-0.74925023,-0.6812694
0.0,0.0,1.1,-0.5235987755982988,0.5235987755982988,0,-0.17209658,-0.5133728,2.3823159,0.6376005,-0.5571736,0.74181104,1.0143731,-0.77362806,-1.3023463,-0.7954017,0.76578,1.3896192,-0.64682037,-0.34534848
0.0,0.0,1.1,-0.5235987755982988,0.5235987755982988,0,0.1140871,-0.36452875,2.3386087,1.1806277,0.06134548,0.093325414,2.3236897,-0.6581263,-1.2048539,-0.7489502,0.69368994,0.27961698,-0.59990805,-0.5207861
0.0,0.0,1.1,-0.5235987755982988,0.5235987755982988,0,-0.01925017,-0.53925157,2.3539083,0.7527904,-1.3965137,0.13428473,1.181763,-0.680767,-1.1765399,-0.38925475,0.67063266,2.0324266,-0.3525113,-0.53480434
0.0,0.0,1.1,-0.5235987755982988,0.5235987755982988,0,-0.1418124,-0.54419464,2.3272629,0.7519528,-0.3690973,0.36064804,0.67918015,-0.68040586,-1.222212,-0.74951804,0.6772109,-2.1497755,-0.8122454,-0.48175183
0.0,0.0,1.1,-0.5235987755982988,0.5235987755982988,0,-0.08397482,-0.580662,2.2638538,1.0126173,-0.8304898,-0.44968894,-0.34587583,-0.63860327,-1.1830434,-0.73603797,0.79592794,1.006944,-0.44314232,-0.29968098
0.0,0.0,1.1,-0.5235987755982988,0.5235987755982988,0,0.08941241,-0.43790567,2.2476616,0.6871775,-0.95253146,0.19272467,0.85836345,-0.75901335,-1.2836118,-0.811744,0.39126715,0.5103745,-0.4696494,-0.42915905
0.0,0.0,1.1,-0.5235987755982988,0.5235987755982988,0,0.16237791,-0.6737036,2.2953377,1.3842298,0.07816444,0.57216084,0.16585383,-0.53092164,-0.8978801,-1.0460187,0.68318766,0.04473378,-0.58953726,-0.33916518
0.0,0.0,1.1,-0.5235987755982988,0.5235987755982988,0,-0.026118752,-0.44525176,2.2194629,1.1560993,0.24158488,-0.16911578,0.7874284,-0.7196935,-1.3062792,-0.7256721,0.22465175,0.35047975,-0.22266462,-0.8036566
0.0,0.0,1.1,-0.5235987755982988,0.5235987755982988,0,0.12679595,-0.3944292,2.3018434,1.0867816,-0.94880074,0.12324856,0.42942375,-0.75892526,-0.79220724,-1.4641644,0.7466837,1.4428698,-0.45586538,-0.2417715
0.0,0.0,1.1,-0.5235987755982988,0.5235987755982988,0,-0.2956012,-0.7615241,2.3008616,1.1148117,0.20892373,-0.1800786,-0.051550202,-0.7468257,-1.32963,-0.56718045,0.5077968,1.6395696,-0.6927858,-0.62833095
0.0,0.0,1.1,-0.5235987755982988,0.5235987755982988,0,-0.019049587,-0.58553416,2.2093074,0.75992846,-1.0594039,-0.010001992,1.1801019,-0.7536898,-1.4117959,-0.3141418,0.6909619,0.2640756,-0.30575567,-0.53857005
0.0,0.0,1.1,-0.5235987755982988,0.5235987755982988,0,0.027568905,-0.626067,2.1789496,0.21519154,-0.43730223,-0.0098421145,0.044804044,-0.82507735,-1.1453855,-1.0538739,0.7011832,0.8702834,-0.4360509,-0.61964154
0.0,0.0,1.1,-0.5235987755982988,0.5235987755982988,0,0.07324491,-0.4940904,2.216736,1.0476266,-0.65699196,-0.044434376,1.026246,-0.61667883,-1.1489843,-0.7158259,0.27062365,1.357723,-0.45464465,-0.5859579
0.0,0.0,1.1,-0.5235987755982988,0.5235987755982988,0,0.23011477,-0.3666641,2.283532,0.82607186,-0.4031145,0.49265546,-0.22606897,-0.71531236,-1.1257292,-0.7439579,0.45624158,0.69211787,-0.4431721,-0.72306937
0.0,0.0,1.1,-0.5235987755982988,0.5235987755982988,0,-0.00036257575,-0.5105099,2.374758,0.6948519,-0.5384422,-0.06986069,1.0726076,-0.796382,-1.3693494,-0.27804187,0.45582157,1.1078314,-0.69401383,-0.6120139
0.0,0.0,1.1,-0.5235987755982988,0.5235987755982988,0,-0.24059631,-0.7671142,2.127194,1.059551,-0.22253391,0.06463883,0.69538647,-0.6955018,-1.2352084,-0.7606477,0.39702123,2.575296,-0.62909555,-0.27345297
0.0,0.0,1.1,-0.5235987755982988,0.5235987755982988,0,0.04763944,-0.48584795,2.3264725,0.8610697,-1.1836703,-0.22878386,0.5279879,-0.6602119,-1.0544715,-0.7888212,0.57129055,2.2394114,-0.50717616,-0.63332504
0.0,0.0,1.1,-0.5235987755982988,0.5235987755982988,0,0.15271534,-0.29306114,2.2551525,0.9359737,-0.5094704,0.966739,0.654091,-0.77301514,-1.3274632,-0.7500933,0.45344645,-0.60763603,-0.73240936,-0.503762
0.0,0.0,1.1,-0.5235987755982988,0.5235987755982988,0,0.071276404,-0.42491996,2.261331,0.7604544,-1.3043774,0.22865568,0.6292277,-0.6215201,-1.1810182,-0.4765735,0.4202539,1.0493182,-0.44445914,-0.052999876
0.0,0.0,1.1,-0.5235987755982988,0.5235987755982988,0,-0.037209183,-0.34527463,2.3753352,0.7574086,-0.577022,0.2765554,0.9778556,-0.5643276,-1.189196,-0.69131124,0.64400053,1.7107688,-0.66876775,-0.45912093
0.0,0.0,1.1,-0.5235987755982988,0.5235987755982988,0,0.06375995,-0.49105188,2.2922578,0.79822564,-1.2788043,-0.16526747,0.89215493,-0.708913,-1.0903045,-0.8670227,0.5262211,0.7552991,-0.6726879,-0.67796725
0.0,0.0,1.1,-0.5235987755982988,0.5235987755982988,0,0.08618795,-0.36081076,2.3161905,0.82285506,-0.6602041,0.57350737,-0.2638431,-0.7964209,-1.1445535,-0.9688563,0.8157361,0.7018056,-0.28479582,-0.32358512
0.0,0.0,1.1,-0.5235987755982988,0.5235987755982988,0,0.28990862,-0.4819923,2.2393916,1.2171879,-0.00637408,0.44487497,0.24152486,-0.639272,-0.917042,-1.1828622,0.562402,-0.43539408,-0.62290186,-0.562049
0.0,0.0,1.1,-0.5235987755982988,0.5235987755982988,0,-0.15591875,-0.54798317,2.3847878,0.49342555,-0.6855707,0.48374686,1.1102525,-0.6498304,-1.2514191,-0.6905031,0.59631556,0.021877185,-0.3618207,-0.42521575
0.0,0.0,1.1,-0.5235987755982988,0.5235987755982988,0,-0.2761691,-0.6901097,2.3948443,1.0113517,0.033715513,-0.36392173,1.0968057,-0.7186139,-1.1522429,-0.8874344,0.314886,1.085229,-0.5455944,-0.6977338
0.0,0.0,1.1,-0.5235987755982988,0.5235987755982988,0,0.06789141,-0.4575219,2.3307035,0.75662214,-0.46973515,0.5018959,0.5701583,-0.6297266,-1.061181,-0.9333356,0.1858882,-0.66678196,-0.5470429,-0.5253503
0.0,0.0,1.1,-0.5235987755982988,0.5235987755982988,0,0.06769409,-0.44841868,2.274291,0.70402396,-0.46959513,0.8349646,1.2317853,-0.6344814,-0.98580855,-1.1314905,0.49436563,1.0873821,-0.32647273,-0.833927
0.0,0.0,1.1,-0.5235987755982988,0.5235987755982988,0,0.33272806,-0.43021202,2.2227888,1.2022746,0.15349548,0.040045284,-0.34399965,-0.6683673,-1.1317887,-0.73478544,0.5403672,0.42210507,-0.6962434,-0.6172877
0.0,0.0,1.1,-0.5235987755982988,0.5235987755982988,0,0.028018765,-0.53725976,2.2012997,0.86074454,-1.0971582,0.2659587,1.7098421,-0.6622426,-1.1476648,-0.77932364,0.4657028,1.7195734,-0.766639,-0.54372334
0.0,0.0,1.1,-0.5235987755982988,0.5235987755982988,0,0.11468638,-0.3407427,2.3717093,1.0229107,-0.92327446,0.27707455,0.31437695,-0.7328639,-1.2607008,-0.59021056,0.5399566,-0.3294015,-0.49037462,-0.8270985
0.0,0.0,1.1,-0.5235987755982988,0.5235987755982988,0,-0.7594602,-0.4436535,2.4095647,0.40790978,-0.3972968,0.046329275,1.2390727,-0.6433416,-1.4562075,-1.3843446,0.503804,-0.047363333,-0.77435446,-0.5012159
0.0,0.0,1.1,-0.5235987755982988,0.5235987755982988,0,-0.28888497,-0.29773176,2.3737745,0.50925636,0.09516685,0.12364312,-1.446021,-0.6242888,-1.1942444,-1.5486499,0.42019114,1.3060553,-0.5765533,-0.2039844
0.0,0.0,1.1,-0.5235987755982988,0.5235987755982988,0,-0.22891265,-0.6074896,2.2429862,0.7804788,-0.11193476,0.5276982,0.5287135,-0.73839235,-1.3059224,-1.7038177,0.41618562,-0.26163507,-0.7484677,-0.2594868
0.0,0.0,1.1,-0.5235987755982988,0.5235987755982988,0,0.07712855,-0.25883663,2.304091,0.78763074,-0.69758755,0.15392995,0.6798159,-0.70191836,-1.2281836,-0.6815301,0.32832932,-0.055071414,-0.50758445,-0.45063007
0.0,0.0,1.1,-0.5235987755982988,0.5235987755982988,0,-0.4676607,-0.45460734,2.3747537,0.5123784,-1.208853,0.23416825,0.083237,-0.61846864,-1.2552766,-1.300347,0.73146963,-2.314958,-0.06706114,-0.32474986
0.0,0.0,1.1,-0.5235987755982988,0.5235987755982988,0,0.033298053,-0.48976913,2.387809,0.76392835,-0.5837572,0.63592166,1.0637586,-0.76215583,-1.2245085,-1.5886186,0.599857,0.8181293,-0.5069099,-0.7772112
0.0,0.0,1.1,-0.5235987755982988,0.5235987755982988,0,0.6292843,-0.36065137,2.2055993,0.5913377,-0.7971692,0.5578681,0.8809049,-0.6345154,-1.3398838,-1.27873,0.6271619,0.62629926,-0.620758,-0.54255766
0.0,0.0,1.1,-0.5235987755982988,0.5235987755982988,0,-0.03968143,-0.39890492,2.3175187,1.1178602,-1.5428522,0.6824889,0.29056963,-0.7883704,-0.9539043,-2.0468817,0.3989714,0.2535673,-0.48827627,-0.4904467
0.0,0.0,1.1,-0.5235987755982988,0.5235987755982988,0,0.097533636,-0.28050673,2.2974684,0.70687085,-0.7073062,0.22980927,0.43445796,-0.6950745,-1.2380127,-1.6102343,0.4805158,-0.58155733,-0.43970603,-0.45303923
0.0,0.0,1.1,-0.5235987755982988,0.5235987755982988,0,0.17884177,-0.4727608,2.3069034,0.60307515,-0.9548507,0.67383474,0.40372646,-0.6982535,-1.3960708,-1.3381219,0.36964497,0.7748098,-0.5956678,-0.42722216
0.0,0.0,1.1,-0.5235987755982988,0.5235987755982988,0,-0.16903056,-0.6965771,2.2337604,0.70714295,-0.14228654,0.22555487,1.3219012,-0.7636109,-1.3201371,-1.4454925,0.368332,1.3617815,-0.31595162,-0.75312936
0.0,0.0,1.1,-0.5235987755982988,0.5235987755982988,0,0.37505823,-0.40305,2.3194516,0.52538973,0.9795236,0.14414203,-0.15172018,-0.6088995,-1.3735591,-0.63400525,0.7134775,0.47919977,-0.41419917,-0.7954185
0.0,0.0,1.1,-0.5235987755982988,0.5235987755982988,0,0.13891234,-0.5981332,2.3229473,0.5273041,-0.20576543,0.09042824,1.8110789,-0.68016297,-1.1677389,-1.1530653,0.66057783,-0.16339737,-0.5187333,-0.30728325
0.0,0.0,1.1,-0.5235987755982988,0.5235987755982988,0,0.17877933,-0.5140177,2.3066518,0.54577506,-0.18600725,0.08593218,1.0515746,-0.69054747,-1.4542708,-1.3729578,0.36548275,0.939554,-0.6024816,-0.66067827
0.0,0.0,1.1,-0.5235987755982988,0.5235987755982988,0,-0.016884759,-0.5968557,2.335324,1.0773546,-1.1252561,0.17305577,0.52553016,-0.83475375,-1.2974892,-1.2635279,0.48088363,2.2216854,-0.44183445,-0.7009444
0.0,0.0,1.1,-0.5235987755982988,0.5235987755982988,0,0.07463069,-0.68628865,2.4923596,0.76998866,-0.428179,0.22442877,1.0783159,-0.795161,-0.577401,-1.2170048,0.12576085,0.24569982,-0.6025627,-0.4695152
0.0,0.0,1.1,-0.5235987755982988,0.5235987755982988,0,-0.7408006,-0.5795105,2.3120987,1.205356,-0.56370413,0.31340846,0.7077809,-0.62724924,-1.4557009,-1.0522436,0.568853,0.54860765,-0.39811638,-0.65797913
0.0,0.0,1.1,-0.5235987755982988,0.5235987755982988,0,-0.35239816,-0.34955648,2.3196898,1.204045,0.48857483,0.3034816,0.47095677,-0.5302038,-1.3071125,-1.1834443,0.6280478,1.0574485,-0.5068785,-0.4098747
0.0,0.0,1.1,-0.5235987755982988,0.5235987755982988,0,-0.621766,-0.44312793,2.4844291,0.86187744,-0.47227126,0.42618868,-0.19621223,-0.6299934,-1.2519444,-1.365569,0.54380697,0.8772134,-0.24552393,-0.85315686
0.0,0.0,1.1,-0.5235987755982988,0.5235987755982988,0,-0.35935536,-0.4013188,2.4133363,1.0956511,-1.3740317,-0.0024484114,1.114666,-0.66098547,-1.1854608,-1.4640985,0.4564025,0.7108964,-0.13314618,-0.8699658
0.0,0.0,1.1,-0.5235987755982988,0.5235987755982988,0,-0.52547425,-0.4473586,2.1930428,0.83010715,-0.47235942,-0.07406812,1.3654902,-0.7288989,-1.2063481,-1.3981782,0.4517058,0.07351838,-0.1541094,-0.49036834
0.0,0.0,1.1,-0.5235987755982988,0.5235987755982988,0,-0.36751673,-0.51309353,2.273888,1.0185363,-0.42207012,0.2443287,-0.25099713,-0.5823768,-1.171536,-1.2640009,0.6626,0.055749636,-0.4416079,-0.39488226
0.0,0.0,1.1,-0.5235987755982988,0.5235987755982988,0,-0.5335202,-0.5151775,2.4179099,0.91290784,-0.55858773,0.025089778,0.5929015,-0.5961639,-1.4468384,-1.0092095,0.6064967,0.106118925,-0.8015106,-0.62953794
0.0,0.0,1.1,-0.5235987755982988,0.5235987755982988,0,-0.08847202,-0.29362315,2.2646463,0.76587975,-1.5909585,-0.08275477,-0.019313352,-0.783345,-1.227745,-1.3730502,0.62332416,0.5333577,-0.35165796,-0.5023647
0.0,0.0,1.1,-0.5235987755982988,0.5235987755982988,0,-0.16392271,-0.40410334,2.3218427,1.0591877,-1.2742467,0.24729756,-0.11243531,-0.6672938,-0.9883276,-1.3746135,0.44535863,0.28715664,-0.72867334,-0.6510714
0.0,0.0,1.1,-0.5235987755982988,0.5235987755982988,0,-0.32303828,-0.3012077,2.3868072,0.7657923,-0.16189058,0.40145543,-0.37111473,-0.81172866,-1.4474286,-1.1192176,0.61705065,0.491488,-0.45120376,-0.5470877
0.0,0.0,1.1,-0.5235987755982988,0.5235987755982988,0,0.0725441,-0.4397072,2.2927916,0.87715113,-0.29961354,-0.17355677,0.12810957,-0.69398725,-0.9501743,-1.5877464,0.4688664,0.090387516,-0.6267952,-0.29248998
0.0,0.0,1.1,-0.5235987755982988,0.5235987755982988,0,-0.22629195,-0.26978827,2.367556,0.63904136,-1.4563729,0.018193949,-0.27988473,-0.714501,-1.3756953,-1.1396815,0.6587663,-0.8698579,-0.54447013,-0.682779
0.0,0.0,1.1,-0.5235987755982988,0.5235987755982988,0,-0.17346023,-0.3382924,2.210731,1.1578455,-0.5362278,0.17551504,0.48783934,-0.60760593,-1.2326351,-1.198469,0.43944028,0.87988937,-0.42989433,-0.54172
0.0,0.0,1.1,-0.5235987755982988,0.5235987755982988,0,-0.30300456,-0.52265954,2.317855,0.67474383,-1.3387803,-0.09827188,1.6831093,-0.64650303,-1.3496474,-0.848073,0.52374303,-0.17931576,-0.38225123,-0.45390132
0.0,0.0,1.1,-0.5235987755982988,0.5235987755982988,0,-0.25199372,-0.42936507,2.3439515,1.148254,-0.6243114,0.40053183,1.596634,-0.7119141,-1.5161347,-0.8975073,0.5795638,0.98996484,-0.48537254,-0.55896163
0.0,0.0,1.1,-0.5235987755982988,0.5235987755982988,0,-0.44447377,-0.50905365,2.2337422,0.93431526,-0.5740935,0.6435182,-0.06656796,-0.5896397,-1.3324233,-1.0551957,0.61790276,-0.5135803,-0.4829571,-0.35535327
0.0,0.0,1.1,-0.5235987755982988,0.5235987755982988,0,-0.20575763,-0.3602064,2.2456164,0.7328163,-0.9479628,0.14120273,0.2697629,-0.6160472,-1.1396254,-1.324463,0.54736185,1.9108638,-0.53384054,-0.39740577
0.0,0.0,1.1,-0.5235987755982988,0.5235987755982988,0,-0.4257253,-0.4277823,2.4364564,0.6996367,-0.32636505,0.27829406,0.09350365,-0.6697169,-1.2259809,-1.2374197,0.507627,-0.19991466,-0.34076715,-0.6832661
0.0,0.0,1.1,-0.5235987755982988,0.5235987755982988,0,-0.17665868,-0.29399228,2.297104,0.7764937,-1.0136776,0.5964551,0.61298203,-0.70732594,-1.1703691,-1.3266195,0.53216463,0.80136764,-0.54459757,-0.70117563
0.0,0.0,1.1,-0.5235987755982988,0.5235987755982988,0,0.18547751,-0.533333,2.2816844,0.8267432,-1.4667115,0.5253599,0.19899826,-0.71676725,-1.3090385,-0.5139722,0.47640547,1.6887591,-0.90121144,-0.71759313
0.0,0.0,1.1,-0.5235987755982988,0.5235987755982988,0,-0.18074983,-0.3507946,2.381943,0.9924328,0.05206623,-0.20710742,0.59439605,-0.7146935,-1.3020324,-1.0181304,0.81887466,1.8244715,-0.5375767,-0.3132368
0.0,0.0,1.1,-0.5235987755982988,0.5235987755982988,0,-0.27551454,-0.49525124,2.1343443,0.92031693,0.8837254,0.00817735,-0.08035511,-0.67306834,-1.4145082,-1.0070924,0.44079328,-0.19936252,-0.7683992,-0.36479482
0.0,0.0,1.1,-0.5235987755982988,0.5235987755982988,0,-0.11125648,-0.4473989,2.3938034,1.0113901,-0.33016896,0.7212385,0.6105741,-0.6230098,-1.5258596,-0.4097584,0.5824926,2.0377955,-0.5782573,-0.45566434
0.0,0.0,1.1,-0.5235987755982988,0.5235987755982988,0,-0.30010694,-0.2826351,2.326948,0.8637333,-0.90867746,0.09902504,-0.068673655,-0.7739719,-1.4068445,-1.1804506,0.5478001,-0.50963825,-0.49451447,-0.35311618
0.0,0.0,1.1,-0.5235987755982988,0.5235987755982988,0,-0.21172753,-0.44408903,2.341451,0.96031463,-0.5638036,0.4982882,-0.07514295,-0.71623063,-1.5601562,-0.83089924,0.43426487,-0.25955033,-0.8907687,-0.67602205
0.0,0.0,1.1,-0.5235987755982988,0.5235987755982988,0,-0.08826068,-0.47567207,2.343662,0.94760317,-1.2807944,0.23992686,1.1937951,-0.7616437,-1.1626328,-1.174506,0.49765632,-0.98368233,-0.63911587,-0.20159498
0.0,0.0,1.1,-0.5235987755982988,0.5235987755982988,0,-0.11588247,-0.36815456,2.2633567,1.1966491,-1.4076966,-0.009286051,-0.59559697,-0.5853965,-1.1274534,-1.2292612,0.4916228,-0.6491262,-0.7117247,-0.63015294
0.0,0.0,1.1,-0.5235987755982988,0.5235987755982988,0,-0.043467905,-0.3178873,2.3476553,0.70868963,-0.38402605,0.86637956,0.055111285,-0.7838898,-1.1699185,-1.2375482,0.58920664,0.8373141,-0.5482146,-0.5039091
0.0,0.0,1.1,-0.5235987755982988,0.5235987755982988,0,-0.13103391,-0.27202842,2.3624344,0.8651715,-1.0102941,0.05756634,0.4766798,-0.6098268,-1.2515363,-1.1323123,0.47370422,0.99463487,-0.7527268,-0.47688055
0.0,0.0,1.1,-0.5235987755982988,0.5235987755982988,0,-0.06572581,-0.2794556,2.2637324,1.0170965,-0.38816544,0.30589533,0.6923997,-0.6279146,-1.1359048,-1.3652451,0.5002899,1.0782994,-0.7007571,-0.6095778
0.0,0.0,1.1,-0.5235987755982988,0.5235987755982988,0,-0.64280844,-0.47471818,2.3296223,0.92333806,-1.7013593,0.8582675,0.48716283,-0.739435,-1.3380606,-1.1776012,0.6278863,0.42131537,-0.56691015,-0.3433272
0.0,0.0,1.1,-0.5235987755982988,0.5235987755982988,0,-0.28112498,-0.4590983,2.3625922,0.8106678,-1.9950243,0.47760844,1.026128,-0.7460911,-1.4588218,-0.9688836,0.43813804,0.6787635,-0.52165556,-0.2985715
0.0,0.0,1.1,-0.5235987755982988,0.5235987755982988,0,-0.3721479,-0.5125768,2.3111348,0.8847743,-0.7192959,0.29137915,1.0086977,-0.72283596,-1.3460577,-1.0922483,0.7611134,0.39405885,-0.6258363,-0.59685004
0.0,0.0,1.1,-0.5235987755982988,0.5235987755982988,0,-0.1486968,-0.32474452,2.2883096,0.8091691,-1.3741384,-0.09063799,0.7285327,-0.7852654,-1.2385602,-1.2092384,0.59617954,0.23864037,-0.69557554,-0.31042814
0.0,0.0,1.1,-0.5235987755982988,0.5235987755982988,0,-0.48977223,-0.5498291,2.3447654,0.9126483,-0.12876529,-0.1550238,0.30785388,-0.67427194,-1.1747751,-1.2506022,0.5233563,2.2886395,-0.61918384,-0.4919411
0.0,0.0,1.1,-0.5235987755982988,0.5235987755982988,0,-0.45172587,-0.59332216,2.3363695,1.1760696,-1.421498,0.15969117,-0.5880123,-0.7230523,-1.2581813,-1.1461021,0.6635046,1.4629507,-0.3123515,-0.37043294
0.0,0.0,1.1,-0.5235987755982988,0.5235987755982988,0,0.28557515,-0.6716703,2.2992485,0.97776866,-1.0744725,0.18440522,-0.11736409,-0.63645583,-0.4630164,-1.4901204,0.45819634,1.3402336,-0.57750386,-0.47385287
0.0,0.0,1.1,-0.5235987755982988,0.5235987755982988,0,-0.04436432,-0.4784699,2.3155673,0.7343434,-0.6846169,0.23687094,0.8925549,-0.75767785,-1.2621921,-0.90781486,0.389514,-0.3618846,-0.4618464,-0.60924333
0.0,0.0,1.1,-0.5235987755982988,0.5235987755982988,0,0.005390819,-0.56707734,2.1971247,0.89577794,-0.34178331,-0.009431142,1.156265,-0.667882,-0.98825544,-1.0708395,0.7233081,0.3764253,-0.42442894,-0.910099
0.0,0.0,1.1,-0.5235987755982988,0.5235987755982988,0,-0.12936933,-0.35339758,2.2550077,1.14518,0.030470489,-0.038777232,0.88350815,-0.7273311,-1.3505822,-1.0082067,0.91784036,1.4767119,-0.7157241,-0.39588386
0.0,0.0,1.1,-0.5235987755982988,0.5235987755982988,0,-0.21878894,-0.467943,2.2830234,0.7225652,-1.0193448,0.036529046,1.5246636,-0.6287098,-1.1297957,-1.3486768,0.49841577,0.6937039,-0.4983451,-0.52171636
0.0,0.0,1.1,-0.5235987755982988,0.5235987755982988,0,-0.27364892,-0.35872662,2.2843878,0.87579846,-0.988046,0.6117805,0.8646066,-0.73724705,-1.2119873,-1.3167566,0.48003173,-0.7132623,-0.44264993,-0.23296717
0.0,0.0,1.1,-0.5235987755982988,0.5235987755982988,0,-0.14963394,-0.33791298,2.243057,0.6421289,-1.5870013,0.19144848,0.62432647,-0.6716198,-1.51031,-0.8940068,0.70357764,1.8571769,-0.63723195,-0.3173134
0.0,0.0,1.1,-0.5235987755982988,0.5235987755982988,0,-0.19123733,-0.5364098,2.2084901,1.117871,-0.99995095,0.027262814,1.1572363,-0.721759,-1.2945269,-1.1355127,0.3554416,0.15907377,-0.43260244,-0.72304696
0.0,0.0,1.1,-0.5235987755982988,0.5235987755982988,0,0.31726667,-0.5101381,2.3124313,1.3956633,-1.2150105,-0.24575752,0.8023343,-0.67186034,-0.9115646,-1.3563693,0.4747958,-0.2481452,-0.7936935,-0.7038372
0.0,0.0,1.1,-0.5235987755982988,0.5235987755982988,0,-0.2752511,-0.489663,2.29698,0.857211,-1.1120868,0.20030068,1.7248698,-0.76214904,-1.2355833,-1.192652,0.610918,0.50357896,-0.16068561,-0.16032806
0.0,0.0,1.1,-0.5235987755982988,0.5235987755982988,0,-0.24183802,-0.41518164,2.3879209,1.0428356,-1.7875105,0.05126478,-1.4195334,-0.8306717,-1.4067178,-1.0408475,0.77463216,1.0069396,-0.8451678,-0.5883918
0.0,0.0,1.1,-0.5235987755982988,0.5235987755982988,0,-0.22271387,-0.5212879,2.2702272,0.72777593,-0.77002805,0.6205387,1.2505523,-0.6876834,-1.3803455,-0.89258313,0.4811487,0.66076714,-0.20507777,-0.34866422
0.0,0.0,1.1,-0.5235987755982988,0.5235987755982988,0,-0.05639006,-0.37283504,2.2607143,0.9859197,-0.35245597,0.07260296,0.0038435138,-0.7347148,-1.3871933,-0.9735449,0.6490922,1.6973943,-0.56976116,-0.3033371
0.0,0.0,1.1,-0.5235987755982988,0.5235987755982988,0,-0.2205786,-0.55541223,2.2109737,0.9276492,-1.1102486,0.18959364,0.5424715,-0.660258,-1.3006427,-1.0215672,0.5373017,0.20556101,-0.2427063,-0.47984266
0.0,0.0,1.1,-0.5235987755982988,0.5235987755982988,0,-0.19073771,-0.46808907,2.312739,1.0550194,-0.06284819,0.31453124,-0.39482358,-0.6237873,-1.1379869,-1.1718023,0.7122831,0.4224619,-0.42375284,-0.36760584
0.0,0.0,1.1,-0.5235987755982988,0.5235987755982988,0,-0.24359661,-0.5735115,2.347686,1.0190123,-1.3421495,0.13606595,1.0724347,-0.7739339,-1.513483,-0.8302635,0.61702716,0.17149213,-0.50353783,-0.8715807
0.0,0.0,1.1,-0.5235987755982988,0.5235987755982988,0,-0.2954578,-0.6594989,2.2523758,0.7581837,-0.5117169,0.36222935,-0.105803534,-0.6759358,-1.4485016,-0.7834733,0.42910844,0.19174512,-0.5117069,-0.1649549
0.0,0.0,1.1,-0.5235987755982988,0.5235987755982988,0,-0.09115809,-0.5073072,2.3335993,0.9454347,-0.23660937,-0.16889718,1.4125639,-0.7070604,-0.93769914,-1.263053,0.31006598,-0.30033782,-0.6821113,-0.7208067
0.0,0.0,1.1,-0.5235987755982988,0.5235987755982988,0,0.039031953,-0.34434396,2.2184396,0.8665306,-1.1823691,0.4536383,0.8074912,-0.68981,-1.15213,-1.0553497,0.6513574,1.1460183,-0.29482225,-0.9939162
0.0,0.0,1.1,-0.5235987755982988,0.5235987755982988,0,-0.51954335,-0.8371576,2.3371189,0.91521984,-0.4873278,-0.048810747,0.8194918,-0.7208141,-1.4161361,-0.8378322,0.45563376,-0.5418422,-0.5465891,-0.6358143
0.0,0.0,1.1,-0.5235987755982988,0.5235987755982988,0,-0.07517976,-0.35518736,2.2861667,0.6496243,-0.6175345,0.5491353,0.22334337,-0.7373157,-1.252002,-1.0960768,0.8067176,-0.7727589,-0.5715675,-0.53140765
0.0,0.0,1.1,-0.5235987755982988,0.5235987755982988,0,0.037338816,-0.4311662,2.4318888,0.9286328,-0.87976336,-0.23000573,-0.14866042,-0.7111083,-1.1866077,-0.78069353,0.51385176,0.60901487,-0.44333163,-0.32708168
0.0,0.0,1.1,-0.5235987755982988,0.5235987755982988,0,-0.22615023,-0.5263864,2.2806208,0.91471934,-0.38350403,0.20828986,0.7751506,-0.62335163,-1.2061644,-1.0774511,0.5110734,1.3521755,-0.6706996,-0.2231763
0.0,0.0,1.1,-0.5235987755982988,0.5235987755982988,0,-0.27852654,-0.45710215,2.3276272,0.97676766,-1.1836197,-0.15537125,1.1098207,-0.761905,-1.2022256,-1.1826777,0.5989663,-1.0875379,-0.27958286,-0.614976
0.0,0.0,1.1,-0.5235987755982988,0.5235987755982988,0,0.27657494,-0.6342359,2.2669168,1.1955308,-0.19318824,0.16520777,0.70670134,-0.77783996,-0.66178715,-1.3065053,0.5638245,0.98426557,-0.33796623,-0.47976738
0.0,0.0,1.1,-0.5235987755982988,0.5235987755982988,0,-0.19687484,-0.45571208,2.352588,0.6772232,-0.74776995,0.56433874,0.5323177,-0.67300236,-1.3318838,-0.89692694,0.6967944,1.9990038,-0.9037437,-1.0405157
0.0,0.0,1.1,-0.5235987755982988,0.5235987755982988,0,-0.37376976,-0.6983973,2.37468,0.46830937,-0.7382187,0.14882883,0.330494,-0.78280073,-1.2505012,-1.1305684,0.63332856,2.5811548,-0.5872162,-0.54071635
0.0,0.0,1.1,-0.5235987755982988,0.5235987755982988,0,0.25885707,-0.6216842,2.1696582,1.2077771,-1.4786233,0.5924444,0.2776943,-0.74794483,-1.4222618,-0.58796304,0.60077435,0.30770087,-0.51263756,-0.39822003
0.0,0.0,1.1,-0.5235987755982988,0.5235987755982988,0,0.20905283,-0.6008543,2.2946186,1.1865754,-1.1365249,0.090833314,0.31528017,-0.6739333,-0.95652443,-1.0172237,0.54647964,-0.6424484,-0.7977712,-0.95339125
0.0,0.0,1.1,-0.5235987755982988,0.5235987755982988,0,0.22381951,-0.4981551,2.2866821,0.93863636,-0.8665299,-0.2461335,1.228163,-0.7833094,-1.470928,-0.53398657,0.16992334,-0.47802055,-0.7521432,-0.2355514
0.0,0.0,1.1,-0.5235987755982988,0.5235987755982988,0,-0.23962604,-0.5373057,2.2680187,0.7892374,0.5803863,0.49253336,0.52791846,-0.5961772,-1.1036426,-1.2013757,0.5196928,0.024286244,-0.5082226,-0.48602617
0.0,0.0,1.1,-0.5235987755982988,0.5235987755982988,0,-0.444839,-0.67016333,2.345424,1.2456223,-0.7231097,0.32227793,1.0353787,-0.6584903,-1.0795236,-1.3166686,0.57966644,-0.5319425,-0.5497173,-0.70226735
0.0,0.0,1.1,-0.5235987755982988,0.5235987755982988,0,-0.32881352,-0.5547543,2.2375329,1.2044882,-1.0393159,-0.48299006,0.51532435,-0.7009389,-1.3413783,-0.89760935,0.5923416,-0.08946358,-0.62861407,-0.5682541
0.0,0.0,1.1,-0.5235987755982988,0.5235987755982988,0,0.2570078,-0.33127052,2.246288,1.112703,-0.7322927,0.2433853,0.096605845,-0.71562254,-0.9661597,-1.2048768,0.5388823,-0.33418792,-0.5996077,-0.51596063
0.0,0.0,1.1,-0.5235987755982988,0.5235987755982988,0,0.016436111,-0.47027156,2.3057516,1.2135137,-2.0748458,0.3320825,-0.4006411,-0.6860172,-1.2196118,-0.8967885,0.64261377,-0.59158915,-0.7318057,-0.657501
0.0,0.0,1.1,-0.5235987755982988,0.5235987755982988,0,-0.19838564,-0.4434073,2.4064195,0.9446614,-0.9904632,-0.021803234,1.2845478,-0.6684033,-1.0904939,-1.284154,0.61503637,0.3723494,-0.49768025,-0.49278396
0.0,0.0,1.1,-0.5235987755982988,0.5235987755982988,0,-0.16554505,-0.4824341,2.3040879,0.6659293,-0.3016548,0.22821401,0.89805007,-0.5182396,-1.0397768,-1.1807388,0.50520265,0.22406828,-0.45055273,-0.2876323
0.0,0.0,1.1,-0.5235987755982988,0.5235987755982988,0,0.65314394,-0.21545069,2.4058757,1.2144926,-1.5708264,-0.26359004,0.8317957,-0.8097679,-1.0088944,-1.0429742,0.43500888,0.6635901,-0.6094267,-0.65170556
0.0,0.0,1.1,-0.5235987755982988,0.5235987755982988,0,-0.16357206,-0.5105511,2.2745597,0.82728046,-0.44065922,0.93251485,1.729615,-0.7092575,-1.3079957,-0.99648035,0.39135003,-0.20777789,-0.6030843,-0.39558703
0.0,0.0,1.1,-0.5235987755982988,0.5235987755982988,0,0.3317226,-0.40238425,2.2236366,1.1032324,-1.5337297,-0.3460586,0.17070724,-0.69859165,-1.1210321,-0.87519985,0.48832443,-0.11387521,-0.64356846,-0.87125766
0.0,0.0,1.1,-0.5235987755982988,0.5235987755982988,0,-0.16141807,-0.58540744,2.3090153,0.5113598,-0.20040141,-0.18099329,1.2148504,-0.7491487,-1.415692,-0.7893095,0.6250149,1.2850591,-0.4835748,-0.4945605
0.0,0.0,1.1,-0.5235987755982988,0.5235987755982988,0,-0.15983495,-0.6147801,2.3491285,1.2511824,-0.33075333,0.16269527,0.48986825,-0.699847,-1.4529654,-0.7300927,0.3980195,-0.13808943,-0.3737829,-0.15284067
0.0,0.0,1.1,-0.5235987755982988,0.5235987755982988,0,-0.3203666,-0.58781296,2.3579895,0.8261912,-1.0915619,0.37831458,1.2902166,-0.7380962,-1.2256004,-1.0633297,0.7316911,0.18862343,-0.5291763,-0.64383876
0.0,0.0,1.1,-0.5235987755982988,0.5235987755982988,0,-0.27464548,-0.62673026,2.303669,1.2134497,-0.07811661,0.5226677,1.5362675,-0.79902524,-1.3045069,-0.9943764,0.66044766,-0.18974102,-0.49761134,-0.4997958
0.0,0.0,1.1,-0.5235987755982988,0.5235987755982988,0,-0.34013513,-0.6730617,2.18164,0.83800447,-0.006302152,-0.1405433,-0.34196332,-0.7526009,-1.190535,-1.1119848,0.5744958,-0.54600227,-0.21077831,-0.30940825
0.0,0.0,1.1,-0.5235987755982988,0.5235987755982988,0,-0.012328802,-0.3827268,2.2939332,0.9537675,-1.6064515,0.45122406,-0.69263965,-0.7101161,-1.2150481,-1.0754714,0.29189357,0.11391515,-0.5549562,-0.4833695
0.0,0.0,1.1,-0.5235987755982988,0.5235987755982988,0,-0.20049597,-0.41135004,2.2486951,1.131814,-0.14731908,0.14487603,-0.56298083,-0.65733343,-1.3090581,-0.916212,0.5618835,1.234571,-0.4912403,-0.42089722
0.0,0.0,1.1,-0.5235987755982988,0.5235987755982988,0,0.20735997,-0.46341398,2.3522577,1.0396127,-0.8420741,0.3321286,0.6538476,-0.7373193,-1.0181644,-0.9472412,0.60668087,-0.21015674,-0.39050588,-0.2711277
0.0,0.0,1.1,-0.5235987755982988,0.5235987755982988,0,0.4174784,-0.4294702,2.388849,1.2646399,-1.5865996,0.41603974,0.03463196,-0.655767,-0.8493179,-1.3027254,0.59041435,2.015378,-0.7605975,-0.4094833
0.0,0.0,1.1,-0.5235987755982988,0.5235987755982988,0,0.1771182,-0.47376046,2.3811514,0.8743332,-0.034425996,0.6403448,0.6672806,-0.725829,-0.63747066,-1.4486339,0.5130138,2.2434955,-0.5108278,-0.48915327
0.0,0.0,1.1,-0.5235987755982988,0.5235987755982988,0,-0.21142322,-0.50041986,2.397785,0.90197355,-1.4665271,0.1111837,0.5698328,-0.6697212,-1.2116816,-1.0122904,0.38534197,0.87742984,-0.74092126,-0.64171237
0.0,0.0,1.1,-0.5235987755982988,0.5235987755982988,0,-0.048582155,-0.38277668,2.2603643,1.3260567,-0.7556541,0.17166118,1.234099,-0.76674205,-1.1725214,-1.2036006,0.49933007,-0.7309418,-0.4666609,-0.6770661
0.0,0.0,1.1,-0.5235987755982988,0.5235987755982988,0,-0.1945547,-0.57797414,2.2863078,0.8314354,0.07569597,0.11632551,0.618094,-0.5965921,-1.0250154,-1.2759691,0.3984717,1.0752523,-0.38957477,-0.7368513
0.0,0.0,1.1,-0.5235987755982988,0.5235987755982988,0,-0.21999109,-0.5421866,2.3421898,0.60579365,-1.0201949,0.4030002,0.9943864,-0.6974822,-1.205932,-1.1190054,0.37021032,-0.29631588,-0.32635024,-0.34849513
0.0,0.0,1.1,-0.5235987755982988,0.5235987755982988,0,0.2900179,-0.61170995,2.306703,1.2166224,-0.9732092,-0.13037762,0.5771132,-0.71476746,-0.8325051,-1.15338,0.48344424,0.9000586,-0.5875223,-0.39985162
0.0,0.0,1.1,-0.5235987755982988,0.5235987755982988,0,0.0844455,-0.26155144,2.394569,1.2358463,-1.3105638,0.54992706,0.7924963,-0.7638098,-1.2829685,-0.99306566,0.43218684,1.0010401,-0.6042346,-0.56888723
0.0,0.0,1.1,-0.5235987755982988,0.5235987755982988,0,0.06901799,-0.46926373,2.2931273,0.89816105,0.029330328,0.16051918,0.90070146,-0.637533,-0.9570315,-1.1339668,0.41965288,1.5070676,-0.6099641,-0.49262336
0.0,0.0,1.1,-0.5235987755982988,0.5235987755982988,0,0.18643823,-0.39485067,2.2895873,0.7262633,-0.9322897,0.65693074,0.46272174,-0.71244127,-1.021309,-1.0805628,0.39845988,0.71595186,-0.7398037,-0.6160933
0.0,0.0,1.1,-0.5235987755982988,0.5235987755982988,0,-0.102664396,-0.34063664,2.3663948,0.68238294,-0.3737003,-0.097446725,-0.40884,-0.7296132,-0.8624962,-1.521516,0.3854059,-0.74433833,-0.26387367,-0.4714032
0.0,0.0,1.1,-0.5235987755982988,0.5235987755982988,0,-0.038382858,-0.49242908,2.2263513,0.80100894,-1.1588408,0.22845812,0.4785211,-0.7889604,-1.178754,-1.0604252,0.7171427,-0.38788888,-0.37127456,-0.61256015
0.0,0.0,1.1,-0.5235987755982988,0.5235987755982988,0,0.08697335,-0.3934963,2.4163175,1.188163,-0.645495,0.62603396,-0.6890743,-0.70782477,-1.0048441,-1.1825898,0.6595558,0.3429084,-0.2451856,-0.4977473
0.0,0.0,1.1,-0.5235987755982988,0.5235987755982988,0,-0.1564722,-0.44156212,2.3821185,0.7392418,-0.45399135,-0.11164967,1.4822819,-0.8144594,-1.4436848,-0.7549648,0.56298816,0.71455765,-0.55522037,-0.3723612
0.0,0.0,1.1,-0.5235987755982988,0.5235987755982988,0,0.06449171,-0.4008151,2.2725916,0.7333367,-1.0500245,0.06940151,0.47935545,-0.87693495,-0.88108915,-1.2498488,0.4782129,0.05341772,-0.45863095,-0.4970357
0.0,0.0,1.1,-0.5235987755982988,0.5235987755982988,0,-0.25429797,-0.76264286,2.355822,0.76849,-1.3006822,0.17477918,0.76501256,-0.99401265,-1.4600999,-0.8149457,0.9627413,0.69774497,-0.86000246,-0.31313986
0.0,0.0,1.1,-0.5235987755982988,0.5235987755982988,0,0.03903865,-0.16719832,2.3523066,0.8033187,-1.0083281,0.33193943,0.9206072,-0.7117966,-1.370016,-0.82998353,0.43776724,-0.22729838,-0.31975347,-0.21498378
0.0,0.0,1.1,-0.5235987755982988,0.5235987755982988,0,-0.1219494,-0.45995173,2.3827953,0.6712998,-0.5183929,-0.05126686,0.8802423,-0.70289457,-1.2530588,-0.8859324,0.37758073,0.30087835,-0.32748035,-0.8025385
0.0,0.0,1.1,-0.5235987755982988,0.5235987755982988,0,-0.09775673,-0.35262364,2.362004,1.2175567,-0.7844836,-0.5946588,0.8887441,-0.6555239,-1.0699323,-1.3174495,0.3319977,0.3439177,-0.42837,-0.4984784
0.0,0.0,1.1,-0.5235987755982988,0.5235987755982988,0,-0.070887774,-0.49301505,2.3622456,1.1933093,-0.32688132,0.34836513,0.52185696,-0.69820124,-1.3112001,-0.7813086,0.4792099,0.37091097,-0.46512303,-0.6684649
0.0,0.0,1.1,-0.5235987755982988,0.5235987755982988,0,-0.23919593,-0.57429624,2.4232404,0.82925594,-1.3209909,0.09712663,1.220695,-0.75384384,-1.1760435,-1.0019141,0.4881036,0.583594,-0.84005857,-0.63893396
0.0,0.0,1.1,-0.5235987755982988,0.5235987755982988,0,-0.0519884,-0.39642072,2.35231,0.79365826,-0.85898364,0.18186738,1.5930116,-0.8623967,-1.081669,-1.1621633,0.60440993,-0.5644317,-0.50752056,-0.39899856
0.0,0.0,1.1,-0.5235987755982988,0.5235987755982988,0,-0.13581194,-0.4080397,2.3444774,0.7340663,-1.5369946,-0.23224492,0.4232197,-0.6667956,-1.1490269,-1.1989058,0.32373857,-1.2259526,-0.67536306,-0.30897447
0.0,0.0,1.1,-0.5235987755982988,0.5235987755982988,0,0.13687585,-0.56374663,2.195581,1.136483,-0.70150274,0.16345052,1.4769976,-0.82871574,-1.2871932,-0.82584786,0.49575368,1.3860439,-0.5004011,-0.3106651
0.0,0.0,1.1,-0.5235987755982988,0.5235987755982988,0,-0.014587485,-0.41467273,2.3899112,0.39806288,-0.8554639,-0.288143,0.7158681,-0.7341126,-1.0607979,-1.147897,0.51863474,1.4289925,-0.9193062,-0.5439418
0.0,0.0,1.1,-0.5235987755982988,0.5235987755982988,0,0.022678748,-0.37765345,2.3761947,1.2627252,-0.55371654,0.32353574,0.010420039,-0.70625293,-1.1416692,-1.1179684,0.45419714,0.07584398,-0.8742258,-0.3565636
0.0,0.0,1.1,-0.5235987755982988,0.5235987755982988,0,0.06567351,-0.5484718,2.2961638,1.0300497,-1.5862696,0.09841674,0.6991705,-0.7537505,-1.005602,-1.0327069,0.48734373,1.4230238,-0.5155855,-0.17298563
0.0,0.0,1.1,-0.5235987755982988,0.5235987755982988,0,0.3049742,-0.49897838,2.3519897,1.3911752,-1.5677032,0.46065715,0.52122504,-0.74602395,-0.8944196,-1.2850591,0.44406646,-2.0046647,-0.53117007,-0.38816404
0.0,0.0,1.1,-0.5235987755982988,0.5235987755982988,0,-0.04551497,-0.44310325,2.3454638,0.7416474,-1.0350276,0.2847976,1.1562907,-0.6825561,-0.93888676,-1.28354,0.519357,-0.078297645,-0.27596363,-0.66535634
0.0,0.0,1.1,-0.5235987755982988,0.5235987755982988,0,-0.19090983,-0.6740979,2.2755847,0.9447935,-1.2403419,0.42091104,1.2064604,-0.8489778,-1.1315668,-1.1113693,0.36855754,1.924922,-0.37080234,-0.48895997
0.0,0.0,1.1,-0.5235987755982988,0.5235987755982988,0,0.016244354,-0.4202648,2.427875,0.6894458,-1.6738682,0.43199062,0.71744984,-0.8474937,-1.1211385,-0.91234624,0.62180907,0.41754928,-0.5869293,-0.39429477
0.0,0.0,1.1,-0.5235987755982988,0.5235987755982988,0,-0.14709961,-0.56556934,2.3285253,0.85683954,-0.89909005,0.27564022,0.54800254,-0.8281632,-1.1596079,-1.0382715,0.84665084,-0.59459174,-0.48011276,-0.25602028
0.0,0.0,1.1,-0.5235987755982988,0.5235987755982988,0,0.029541781,-0.6208413,2.3631191,1.4052668,0.64334655,0.45897916,0.6794586,-0.9380977,-1.126793,-1.0986149,0.39426976,1.5470365,-0.38057396,-0.67200345
0.0,0.0,1.1,-0.5235987755982988,0.5235987755982988,0,-0.023103943,-0.48159745,2.2869177,0.7945512,-1.7118307,-0.076150745,2.026886,-0.75915533,-1.2725078,-0.7967317,0.5586659,0.31926942,-0.37164292,-0.93912417
0.0,0.0,1.1,-0.5235987755982988,0.5235987755982988,0,-0.105965994,-0.566704,2.2504776,0.62028056,-0.0023368022,0.23656268,1.1645695,-0.79678905,-1.2632405,-0.89073896,0.61059785,0.7841563,-0.6569682,-0.44913584
0.0,0.0,1.1,-0.5235987755982988,0.5235987755982988,0,-0.15379559,-0.53146005,2.3133307,0.87573713,-1.0619785,-0.24504726,1.104073,-0.6841593,-1.1455154,-0.98994577,0.5340148,1.1619014,-0.36606786,-0.17912062
0.0,0.0,1.1,-0.5235987755982988,0.5235987755982988,0,-0.1040634,-0.50211823,2.4460397,0.99277747,-0.98172677,0.4461548,0.8628414,-0.82369286,-1.2110201,-0.842993,0.6480417,0.20069264,-0.47360846,-0.46255377
0.0,0.0,1.1,-0.5235987755982988,0.5235987755982988,0,0.87563616,-0.8119953,2.230476,0.516043,-0.22477017,0.53431916,0.25294462,-0.72513753,-1.1073134,-1.3487695,0.5015176,-1.1340415,-0.30831465,-0.5379625
0.0,0.0,1.1,-0.5235987755982988,0.5235987755982988,0,-0.29158553,-0.614802,2.3552775,0.7883131,-0.34223324,0.3487355,0.5860353,-0.7811861,-1.607372,-0.9686093,0.32753247,1.570243,-0.5935223,-0.4196487
0.0,0.0,1.1,-0.5235987755982988,0.5235987755982988,0,0.013017415,-0.5829024,2.297511,0.979631,-0.8637457,0.21806039,0.23992556,-0.57617116,-0.9561183,-1.1728413,0.29640773,1.4485029,-0.6027712,-0.65499204
0.0,0.0,1.1,-0.5235987755982988,0.5235987755982988,0,-0.13212194,-0.5994247,2.1975121,1.2564603,-0.87214214,-0.38216963,0.5583666,-0.62266326,-1.159676,-1.4167186,0.6810292,0.51970357,-0.51117367,-0.6533035
0.0,0.0,1.1,-0.5235987755982988,0.5235987755982988,0,-0.528752,-0.5441421,2.2645457,1.2274452,-0.81817406,-0.3847945,1.0428424,-0.6875286,-1.1283007,-1.456078,0.43045506,0.6652986,-0.54328537,-0.44482157
0.0,0.0,1.1,-0.5235987755982988,0.5235987755982988,0,-0.34828565,-0.28510323,2.2797313,0.4906737,0.1382048,-0.26814482,1.2262903,-0.73312265,-1.3497971,-1.4436948,0.503343,1.1241617,-0.4867548,-0.4995412
0.0,0.0,1.1,-0.5235987755982988,0.5235987755982988,0,0.12459209,-0.5101239,2.3076007,0.7821003,-0.7355188,0.3695685,1.4408653,-0.72038144,-1.1009214,-1.6219504,0.32105488,2.005979,-0.6021022,-0.5668435
0.0,0.0,1.1,-0.5235987755982988,0.5235987755982988,0,-0.18458319,-0.6563553,2.1956973,0.74511874,-0.28958622,-0.14198756,1.7078555,-0.6633983,-1.4140521,-1.151125,0.48602015,-0.81325895,-0.18409248,-0.7414231
0.0,0.0,1.1,-0.5235987755982988,0.5235987755982988,0,-0.42173767,-0.61108494,2.1361217,1.1756552,-0.3701876,0.14305429,1.2664131,-0.6799364,-1.4182445,-1.1356136,0.5238862,1.6340982,-0.56958735,-0.54331774
0.0,0.0,1.1,-0.5235987755982988,0.5235987755982988,0,0.26598608,-0.65572864,2.19062,0.9960515,-1.2400972,0.43864542,1.2514695,-0.8546081,-1.007534,-0.92297786,0.30384284,0.61638004,-0.43433392,-0.60738313
0.0,0.0,1.1,-0.5235987755982988,0.5235987755982988,0,-0.05922535,-0.35103324,2.3955479,0.9863094,-0.23113966,-0.12895958,0.41399878,-0.69074184,-1.0613819,-1.4059609,0.630666,-0.6348945,-0.28408077,-0.15343104
0.0,0.0,1.1,-0.5235987755982988,0.5235987755982988,0,0.15608759,-0.56273586,2.2361517,1.1583095,-0.2771146,0.40171957,-0.4920172,-0.7943631,-0.91268194,-1.6502213,0.4770873,1.5241777,-0.45351806,-0.75531685
0.0,0.0,1.1,-0.5235987755982988,0.5235987755982988,0,-1.1153986,-0.47981355,2.2728913,0.9812589,-0.058035634,-0.10300802,0.36052746,-0.7693249,-1.5106862,-1.0808672,0.4568844,1.315014,-0.68629295,-0.4061586
0.0,0.0,1.1,-0.5235987755982988,0.5235987755982988,0,-0.17074537,-0.39061752,2.4650116,0.67513305,-0.7411667,-0.00977591,-0.49113244,-0.6523962,-1.1001332,-1.0880575,0.39621243,1.7300904,-0.55242604,-0.4591988
0.0,0.0,1.1,-0.5235987755982988,0.5235987755982988,0,-0.37846938,-0.5415899,2.314762,1.2070738,-0.30969858,0.74879414,0.9245871,-0.8043426,-1.2207907,-1.3617419,0.47359008,0.8731992,-0.7936698,-0.33225098
0.0,0.0,1.1,-0.5235987755982988,0.5235987755982988,0,-0.30448663,-0.25375903,2.4922683,0.73163843,-1.2629461,-0.10628166,0.9050198,-0.69793683,-1.3763361,-1.1551406,0.43427506,-0.09404606,-0.3379235,-0.18446879
0.0,0.0,1.1,-0.5235987755982988,0.5235987755982988,0,-0.062283326,-0.33722165,2.2106137,0.6301903,-0.7170794,0.22222896,0.39388773,-0.7517537,-1.4141781,-1.1161225,0.6227344,1.985101,-0.5462239,-0.2738804
0.0,0.0,1.1,-0.5235987755982988,0.5235987755982988,0,0.10336107,-0.64155364,2.4333236,0.8523415,-0.009321947,0.026668971,0.11297068,-0.8304656,-0.67790383,-1.1261128,0.58211863,0.31881887,-0.39836764,-0.62974405
0.0,0.0,1.1,-0.5235987755982988,0.5235987755982988,0,0.018329846,-0.5035449,2.3381207,1.1771609,-0.9104704,0.19850181,1.3240703,-0.62643033,-0.9901236,-1.1696697,0.4029973,1.2967924,-0.55489683,-0.46448117
0.0,0.0,1.1,-0.5235987755982988,0.5235987755982988,0,0.17576511,-0.68039674,2.3331263,1.1479527,-0.92433834,-0.00029519747,-0.13986473,-0.7390512,-0.61027724,-1.2921323,0.53669065,0.38250887,-0.516805,-0.50744677
0.0,0.0,1.1,-0.5235987755982988,0.5235987755982988,0,-0.012699798,-0.3877794,2.348934,0.6316822,-1.0049722,0.20948127,0.51103246,-0.74433196,-1.3996804,-0.76943463,0.51860756,0.22165576,-0.5166696,-0.38832453
0.0,0.0,1.1,-0.5235987755982988,0.5235987755982988,0,0.052806318,-0.7770218,2.1454422,1.1940773,-1.249516,0.14720663,0.32440463,-0.7510114,-0.49834388,-1.6281296,0.3037027,-0.2821553,-0.5448617,-0.5948661
0.0,0.0,1.1,-0.5235987755982988,0.5235987755982988,0,-0.2856243,-0.48768374,2.1524255,1.0340059,-0.7502032,0.35524032,0.21902028,-0.51099306,-1.3163407,-1.033544,0.41084537,0.6162534,-0.43035567,-0.59243774
0.0,0.0,1.1,-0.5235987755982988,0.5235987755982988,0,-0.24592659,-0.37410662,2.5048828,0.6816766,0.45237955,0.44937152,1.2909136,-0.7226494,-1.2869754,-1.0916096,0.55852526,0.6576452,-0.19920005,-0.49725288
0.0,0.0,1.1,-0.5235987755982988,0.5235987755982988,0,-0.03163045,-0.42986032,2.2161214,1.0740857,-0.76738894,-0.031587675,1.0190513,-0.7886287,-1.1472896,-1.1657884,0.57077444,0.34076068,-0.50159883,-0.61620736
0.0,0.0,1.1,-0.5235987755982988,0.5235987755982988,0,-0.09226488,-0.26662654,2.3950293,0.85382587,-0.90882397,0.10586025,1.2546669,-0.73461974,-1.2705623,-1.067344,0.4664535,1.3985137,-0.3476296,-0.31295204
0.0,0.0,1.1,-0.5235987755982988,0.5235987755982988,0,0.20771949,-0.58811516,2.3235922,1.0246348,0.017717969,0.06530986,0.76768607,-0.79936004,-0.66897166,-1.2107306,0.6308041,0.76773024,-0.3077897,-0.36819366
0.0,0.0,1.1,-0.5235987755982988,0.5235987755982988,0,-0.33254877,-0.5927407,2.3603768,1.22438,-0.23368073,-0.4943237,0.8878415,-0.66676915,-1.1394942,-1.2145472,0.44202083,0.25251535,-0.49114412,-0.41059998
0.0,0.0,1.1,-0.5235987755982988,0.5235987755982988,0,0.7615012,-0.49150324,2.3772647,1.1704952,-0.27153474,0.34562287,1.7332333,-0.73059505,-0.91195065,-1.0809757,0.33461934,0.50515234,-0.8702808,-0.40703705
0.0,0.0,1.1,-0.5235987755982988,0.5235987755982988,0,-0.0358242,-0.48222977,2.445109,0.95571667,0.41418913,0.6604612,1.2699556,-0.61771303,-1.1083412,-0.89592755,0.47656098,0.8436094,-0.5220627,-0.8460792
0.0,0.0,1.1,-0.5235987755982988,0.5235987755982988,0,-0.07067766,-0.3743953,2.2746024,0.9693558,-0.6445229,0.065487474,0.81664675,-0.72172177,-1.1114537,-1.3194324,0.41276753,1.5885681,-0.4245197,-0.28360268
0.0,0.0,1.1,-0.5235987755982988,0.5235987755982988,0,-0.015389923,-0.34570062,2.3354926,0.68761027,-1.0359081,-0.11018132,1.2239493,-0.79801875,-1.3553053,-0.97869664,0.5079371,1.4361165,-0.48067415,-0.5312994
0.0,0.0,1.1,-0.5235987755982988,0.5235987755982988,0,-0.21654493,-0.70339453,2.3171046,0.9765829,-0.37014052,0.043041173,0.8040428,-0.74260944,-1.3935363,-0.68580323,0.5902926,0.5998506,-0.71772164,-0.59680176
0.0,0.0,1.1,-0.5235987755982988,0.5235987755982988,0,-0.12223949,-0.5172673,2.3221729,0.6246474,-1.2286582,0.7119313,0.7138821,-0.8828245,-1.3229122,-0.92066586,0.70216155,0.7668443,-0.5359379,-0.4774782
0.0,0.0,1.1,-0.5235987755982988,0.5235987755982988,0,-0.24609728,-0.694162,2.376136,0.7952549,-0.28036016,0.043570958,-0.2272727,-0.7367241,-1.4753898,-0.63253754,0.37124085,0.74801415,-0.5767007,-0.27522287
0.0,0.0,1.1,-0.5235987755982988,0.5235987755982988,0,-0.015110764,-0.48081362,2.3256865,1.2475827,-0.53320104,0.32374302,1.8263099,-0.62451434,-1.1108854,-1.0470876,0.52208585,0.5871883,-0.42705393,-0.7445763
0.0,0.0,1.1,-0.5235987755982988,0.5235987755982988,0,0.019893946,-0.4095819,2.3075504,0.9548487,-1.821241,0.40650478,0.53014433,-0.7042001,-1.061139,-1.1601963,0.38449597,0.9588844,-0.4962833,-0.77594686
0.0,0.0,1.1,-0.5235987755982988,0.5235987755982988,0,-0.28626582,-0.53885096,2.4295878,0.85637707,-0.8734891,0.1815997,0.35826463,-0.735011,-1.2457662,-1.0295047,0.41219386,-0.42311847,-0.46022233,-0.17249995
0.0,0.0,1.1,-0.5235987755982988,0.5235987755982988,0,0.20135775,-0.582031,2.4068027,1.30668,-0.6507282,-0.16272344,0.79707503,-0.72821176,-0.959548,-1.0826741,0.40757644,0.49248996,-0.35888967,-0.50301886
0.0,0.0,1.1,-0.5235987755982988,0.5235987755982988,0,-0.28560975,-0.6164192,2.319009,1.0641648,-0.48587963,0.21298005,1.1380794,-0.70413715,-1.1565299,-1.0950828,0.47797063,1.6383123,-0.71391773,-0.39525756
0.0,0.0,1.1,-0.5235987755982988,0.5235987755982988,0,0.03433477,-0.44187555,2.2352824,0.75592816,-1.0174382,0.023104947,0.30096754,-0.72742903,-1.1485869,-1.0396749,0.40402502,0.7458584,-0.16623215,-0.615853
0.0,0.0,1.1,-0.5235987755982988,0.5235987755982988,0,0.3274569,-0.52264714,2.416443,1.244559,-1.1529101,0.69582015,-0.40126097,-0.71142656,-0.7307536,-1.3719854,0.64809227,-0.33682406,-0.38981956,-0.619442
0.0,0.0,1.1,-0.5235987755982988,0.5235987755982988,0,0.26817396,-0.36788222,2.354678,1.1036721,-0.83478844,-0.12872432,-1.1890452,-0.8475835,-0.93732584,-1.1443032,0.65367955,-0.40004462,-0.24469607,-0.30665106
0.0,0.0,1.1,-0.5235987755982988,0.5235987755982988,0,-0.36615863,-0.70931154,2.3124242,0.8321831,-0.89349145,0.4832143,0.16668662,-0.71755695,-1.2223519,-1.015031,0.5879297,0.5644406,-0.65919673,-0.30967194
0.0,0.0,1.1,-0.5235987755982988,0.5235987755982988,0,0.017006941,-0.3908302,2.273024,0.8928237,-0.14080021,0.06376756,1.5463239,-0.7482069,-1.3861889,-0.6924858,0.6269251,0.42238662,-0.54834473,-0.38511363
0.0,0.0,1.1,-0.5235987755982988,0.5235987755982988,0,-0.059400503,-0.50087804,2.4202387,0.92730784,-0.05417278,-0.22565179,-0.21212173,-0.71247655,-0.7498095,-1.4751074,0.4106089,-0.7860616,-0.73070765,-0.21832255
0.0,0.0,1.1,-0.5235987755982988,0.5235987755982988,0,-0.23199569,-0.45540604,2.2078156,0.5497721,-0.5331144,-0.0916765,0.4658869,-0.6725176,-1.2168543,-1.7476428,0.391745,0.75025076,-0.44866434,-0.42372566
0.0,0.0,1.1,-0.5235987755982988,0.5235987755982988,0,-0.05510732,-0.44331717,2.3126585,0.5688542,-0.60251844,0.5594587,1.1519921,-0.6785713,-1.2687608,-1.7429317,0.30614427,0.47620094,-0.33491164,-0.42195582
0.0,0.0,1.1,-0.5235987755982988,0.5235987755982988,0,-0.11577539,-0.6472056,2.2688909,0.6910954,-0.21324207,-0.039262,1.033221,-0.65232486,-1.1797043,-1.3887148,0.48974684,0.6612125,-0.51573616,-0.8465565
0.0,0.0,1.1,-0.5235987755982988,0.5235987755982988,0,0.20907664,-0.4785757,2.248545,0.4891201,-0.586448,0.077359065,-0.25475004,-0.560472,-1.5421991,-1.068981,0.5931174,-0.2508744,-0.48796105,-0.37809247
0.0,0.0,1.1,-0.5235987755982988,0.5235987755982988,0,0.34946153,-0.34702817,2.3101969,0.58790505,0.2743596,0.3630143,0.17935775,-0.81543195,-1.1862324,-1.3452818,0.6179285,-0.5679777,-0.5719413,-0.5354562
0.0,0.0,1.1,-0.5235987755982988,0.5235987755982988,0,-0.3967144,-0.39229405,2.406692,1.1941358,-0.55088264,0.59666896,0.94423246,-0.6880022,-1.2207423,-1.4712994,0.37041906,0.41719392,-0.7393151,-0.7735003
0.0,0.0,1.1,-0.5235987755982988,0.5235987755982988,0,0.45739707,-0.5143866,2.3858807,0.42618567,-0.21139124,0.5002163,0.27141035,-0.7002103,-1.4779975,-1.4425243,0.3104713,2.0929437,-0.716708,-0.83818656
0.0,0.0,1.1,-0.5235987755982988,0.5235987755982988,0,0.8133232,-0.5206848,2.247046,0.699242,0.25440875,0.21804452,0.2793003,-0.7099914,-1.509061,-1.0454918,0.9234002,0.86372626,-0.39770418,-0.33405235
0.0,0.0,1.1,-0.5235987755982988,0.5235987755982988,0,0.8133232,-0.5206848,2.247046,0.699242,0.25440875,0.21804452,0.2793003,-0.7099914,-1.509061,-1.0454918,0.9234002,0.86372626,-0.39770418,-0.33405235
0.0,0.0,1.1,-0.5235987755982988,0.5235987755982988,0,0.8133232,-0.5206848,2.247046,0.699242,0.25440875,0.21804452,0.2793003,-0.7099914,-1.509061,-1.0454918,0.9234002,0.86372626,-0.39770418,-0.33405235
0.0,0.0,1.1,-0.5235987755982988,0.5235987755982988,0,0.8133232,-0.5206848,2.247046,0.699242,0.25440875,0.21804452,0.2793003,-0.7099914,-1.509061,-1.0454918,0.9234002,0.86372626,-0.39770418,-0.33405235
0.0,0.0,1.1,-0.5235987755982988,0.5235987755982988,0,0.8133232,-0.5206848,2.247046,0.699242,0.25440875,0.21804452,0.2793003,-0.7099914,-1.509061,-1.0454918,0.9234002,0.86372626,-0.39770418,-0.33405235
0.0,0.0,1.1,-0.5235987755982988,0.5235987755982988,0,0.8133232,-0.5206848,2.247046,0.699242,0.25440875,0.21804452,0.2793003,-0.7099914,-1.509061,-1.0454918,0.9234002,0.86372626,-0.39770418,-0.33405235
0.0,0.0,1.1,-0.5235987755982988,0.5235987755982988,0,0.8207585,-0.42207867,2.3880126,0.694758,-0.7447054,0.53011996,-0.21251212,-0.5881525,-1.1197994,-1.208215,0.4675776,2.33509,-0.4117918,-0.6665855
0.0,0.0,1.1,-0.5235987755982988,0.5235987755982988,0,0.8207585,-0.42207867,2.3880126,0.694758,-0.7447054,0.53011996,-0.21251212,-0.5881525,-1.1197994,-1.208215,0.4675776,2.33509,-0.4117918,-0.6665855
0.0,0.0,1.1,-0.5235987755982988,0.5235987755982988,0,0.8207585,-0.42207867,2.3880126,0.694758,-0.7447054,0.53011996,-0.21251212,-0.5881525,-1.1197994,-1.208215,0.4675776,2.33509,-0.4117918,-0.6665855
0.0,0.0,1.1,-0.5235987755982988,0.5235987755982988,0,0.8207585,-0.42207867,2.3880126,0.694758,-0.7447054,0.53011996,-0.21251212,-0.5881525,-1.1197994,-1.208215,0.4675776,2.33509,-0.4117918,-0.6665855
0.0,0.0,1.1,-0.5235987755982988,0.5235987755982988,0,0.8207585,-0.42207867,2.3880126,0.694758,-0.7447054,0.53011996,-0.21251212,-0.5881525,-1.1197994,-1.208215,0.4675776,2.33509,-0.4117918,-0.6665855
0.0,0.0,1.1,-0.5235987755982988,0.5235987755982988,0,0.8207585,-0.42207867,2.3880126,0.694758,-0.7447054,0.53011996,-0.21251212,-0.5881525,-1.1197994,-1.208215,0.4675776,2.33509,-0.4117918,-0.6665855
0.0,0.0,1.1,-0.5235987755982988,0.5235987755982988,0,0.8207585,-0.42207867,2.3880126,0.694758,-0.7447054,0.53011996,-0.21251212,-0.5881525,-1.1197994,-1.208215,0.4675776,2.33509,-0.4117918,-0.6665855
0.0,0.0,1.1,-0.5235987755982988,0.5235987755982988,0,-0.2760724,-0.4417071,2.3983016,1.0497227,0.89496195,0.52244973,1.3019383,-0.66898674,-1.2328587,-1.7366712,0.41497862,-0.34853274,-0.36440963,-0.520561
0.0,0.0,1.1,-0.5235987755982988,0.5235987755982988,0,-0.2760724,-0.4417071,2.3983016,1.0497227,0.89496195,0.52244973,1.3019383,-0.66898674,-1.2328587,-1.7366712,0.41497862,-0.34853274,-0.36440963,-0.520561
0.0,0.0,1.1,-0.5235987755982988,0.5235987755982988,0,-0.2760724,-0.4417071,2.3983016,1.0497227,0.89496195,0.52244973,1.3019383,-0.66898674,-1.2328587,-1.7366712,0.41497862,-0.34853274,-0.36440963,-0.520561
0.0,0.0,1.1,-0.5235987755982988,0.5235987755982988,0,-0.2760724,-0.4417071,2.3983016,1.0497227,0.89496195,0.52244973,1.3019383,-0.66898674,-1.2328587,-1.7366712,0.41497862,-0.34853274,-0.36440963,-0.520561
0.0,0.0,1.1,-0.5235987755982988,0.5235987755982988,0,-0.2760724,-0.4417071,2.3983016,1.0497227,0.89496195,0.52244973,1.3019383,-0.66898674,-1.2328587,-1.7366712,0.41497862,-0.34853274,-0.36440963,-0.520561
0.0,0.0,1.1,-0.5235987755982988,0.5235987755982988,0,0.46365458,-0.69798785,2.3487234,0.6216464,-0.18500455,0.07298197,0.8517273,-0.5028146,-1.3507421,0.0119028,0.69622785,1.0035119,-0.34539676,-0.69136745
0.0,0.0,1.1,-0.5235987755982988,0.5235987755982988,0,0.46365458,-0.69798785,2.3487234,0.6216464,-0.18500455,0.07298197,0.8517273,-0.5028146,-1.3507421,0.0119028,0.69622785,1.0035119,-0.34539676,-0.69136745
0.0,0.0,1.1,-0.5235987755982988,0.5235987755982988,0,0.46365458,-0.69798785,2.3487234,0.6216464,-0.18500455,0.07298197,0.8517273,-0.5028146,-1.3507421,0.0119028,0.69622785,1.0035119,-0.34539676,-0.69136745
0.0,0.0,1.1,-0.5235987755982988,0.5235987755982988,0,0.46365458,-0.69798785,2.3487234,0.6216464,-0.18500455,0.07298197,0.8517273,-0.5028146,-1.3507421,0.0119028,0.69622785,1.0035119,-0.34539676,-0.69136745
0.0,0.0,1.1,-0.5235987755982988,0.5235987755982988,0,0.46365458,-0.69798785,2.3487234,0.6216464,-0.18500455,0.07298197,0.8517273,-0.5028146,-1.3507421,0.0119028,0.69622785,1.0035119,-0.34539676,-0.69136745
0.0,0.0,1.1,-0.5235987755982988,0.5235987755982988,0,0.46365458,-0.69798785,2.3487234,0.6216464,-0.18500455,0.07298197,0.8517273,-0.5028146,-1.3507421,0.0119028,0.69622785,1.0035119,-0.34539676,-0.69136745
0.0,0.0,1.1,-0.5235987755982988,0.5235987755982988,0,0.46365458,-0.69798785,2.3487234,0.6216464,-0.18500455,0.07298197,0.8517273,-0.5028146,-1.3507421,0.0119028,0.69622785,1.0035119,-0.34539676,-0.69136745
0.0,0.0,1.1,-0.5235987755982988,0.5235987755982988,0,-0.05669964,-0.4497684,2.1830366,1.1177069,-1.1321989,0.10133955,0.39989167,-0.5934239,-1.5894655,-1.3306822,0.6211129,1.068614,-0.88777477,-0.6453427
0.0,0.0,1.1,-0.5235987755982988,0.5235987755982988,0,-0.05669964,-0.4497684,2.1830366,1.1177069,-1.1321989,0.10133955,0.39989167,-0.5934239,-1.5894655,-1.3306822,0.6211129,1.068614,-0.88777477,-0.6453427
0.0,0.0,1.1,-0.5235987755982988,0.5235987755982988,0,-0.05669964,-0.4497684,2.1830366,1.1177069,-1.1321989,0.10133955,0.39989167,-0.5934239,-1.5894655,-1.3306822,0.6211129,1.068614,-0.88777477,-0.6453427
0.0,0.0,1.1,-0.5235987755982988,0.5235987755982988,0,-0.05669964,-0.4497684,2.1830366,1.1177069,-1.1321989,0.10133955,0.39989167,-0.5934239,-1.5894655,-1.3306822,0.6211129,1.068614,-0.88777477,-0.6453427
0.0,0.0,1.1,-0.5235987755982988,0.5235987755982988,0,0.65758944,-0.75409514,2.2612154,0.41583696,-0.28305343,0.7699122,1.7908888,-0.63869905,-1.1890303,-0.25512478,0.25623974,-0.8445285,-0.6614712,-0.22711396
0.0,0.0,1.1,-0.5235987755982988,0.5235987755982988,0,0.65758944,-0.75409514,2.2612154,0.41583696,-0.28305343,0.7699122,1.7908888,-0.63869905,-1.1890303,-0.25512478,0.25623974,-0.8445285,-0.6614712,-0.22711396
0.0,0.0,1.1,-0.5235987755982988,0.5235987755982988,0,0.65758944,-0.75409514,2.2612154,0.41583696,-0.28305343,0.7699122,1.7908888,-0.63869905,-1.1890303,-0.25512478,0.25623974,-0.8445285,-0.6614712,-0.22711396
