sanky1234/BimanualDexCatch/isaacgymenvs/cem_results/May31/football_pose_0.0_-0.1_1.0_0.5235987755982988_0.5235987755982988_0_2025-05-31.csv
x,y,z,roll,pitch,yaw,robot1/joint1,robot1/joint2,robot1/joint3,robot1/joint4,robot1/joint5,robot1/joint6,robot1/joint7,robot2/joint1,robot2/joint2,robot2/joint3,robot2/joint4,robot2/joint5,robot2/joint6,robot2/joint7
0.0,-0.1,1.0,0.5235987755982988,0.5235987755982988,0,-0.023369104,-0.9357081,-2.7380588,0.2867271,-0.025788669,0.0054427297,0.5402218,0.5436594,-0.7893866,-2.4614875,1.2853999,0.90745425,0.19422193,1.1937474
0.0,-0.1,1.0,0.5235987755982988,0.5235987755982988,0,-0.00379253,-0.9877554,-2.9620662,0.23833838,-0.0307429,-0.049260493,0.3393852,0.29308465,-0.7548395,-2.249468,1.2956808,1.1014363,0.04085822,0.96840507
0.0,-0.1,1.0,0.5235987755982988,0.5235987755982988,0,-0.0018862528,-1.0386637,-2.8117962,0.26433775,-0.60960066,-0.11770257,1.1558347,0.3585414,-0.7525341,-2.1292431,1.0686083,0.74891144,0.11570864,0.98364127
0.0,-0.1,1.0,0.5235987755982988,0.5235987755982988,0,0.027987076,-1.0674894,-3.026305,0.2580311,-0.7085792,-0.40767866,-0.39940575,0.33124498,-0.7411424,-2.007255,1.3655155,0.9119208,0.04724851,0.99781644
0.0,-0.1,1.0,0.5235987755982988,0.5235987755982988,0,0.13262129,-0.9379745,-2.6428149,0.269802,-0.22302617,0.06350052,0.7429873,0.36082095,-0.768237,-2.3688257,1.2554885,0.9201661,0.18982409,0.8551794
0.0,-0.1,1.0,0.5235987755982988,0.5235987755982988,0,0.12758204,-0.8816935,-2.5196755,0.21807103,-0.21940772,-0.19548346,0.85413307,0.2504224,-0.7485997,-2.1454117,1.3235203,0.24047741,0.072847396,1.1764292
0.0,-0.1,1.0,0.5235987755982988,0.5235987755982988,0,-0.105722986,-1.0780905,-2.5696495,0.25610873,0.73977077,0.008693566,-0.57436514,0.4290847,-0.75412774,-1.9068282,1.2028658,0.38407013,0.264599,0.62978655
0.0,-0.1,1.0,0.5235987755982988,0.5235987755982988,0,-0.17304336,-0.9713081,-2.8135605,0.34248587,-0.54414,0.14608118,0.5450011,0.31249446,-0.7807692,-2.3507288,1.1771303,0.4466977,0.11659136,0.8841599
0.0,-0.1,1.0,0.5235987755982988,0.5235987755982988,0,-0.037163895,-0.963472,-3.0395708,0.271983,0.15376873,0.09548332,1.2189004,0.24736962,-0.7193386,-1.9226128,1.2840985,0.4982117,0.17043656,1.0275216
0.0,-0.1,1.0,0.5235987755982988,0.5235987755982988,0,0.0752825,-0.9798687,-2.4712806,0.14160985,-0.27992582,-0.046841715,0.64036113,0.4436288,-0.7186655,-2.3363614,1.1675328,0.5360129,0.000918591,1.1584039
0.0,-0.1,1.0,0.5235987755982988,0.5235987755982988,0,0.019841608,-0.96178025,-2.9598558,0.29287705,-0.20493296,-0.017178793,1.5918181,0.38628948,-0.81490743,-2.3252847,1.1728438,0.5832815,0.08480865,0.98643726
0.0,-0.1,1.0,0.5235987755982988,0.5235987755982988,0,-0.01347297,-1.0234315,-1.7794036,0.30791563,-0.5741806,-0.078174084,0.07017338,0.2839891,-0.80966586,-2.0951118,0.8840923,1.0455498,0.21639244,1.0375631
0.0,-0.1,1.0,0.5235987755982988,0.5235987755982988,0,0.06013206,-1.0491786,-2.8321223,0.28877234,-0.12097694,-0.1924623,-0.11670608,0.3325644,-0.732086,-2.0822442,1.2231113,1.16872,0.22142968,1.1102304
0.0,-0.1,1.0,0.5235987755982988,0.5235987755982988,0,-0.116582096,-0.8653862,-2.536961,0.20121019,0.17776805,-0.20873265,1.788229,0.36774552,-0.7497824,-2.2754626,1.3929414,0.6028231,0.03296858,1.1227838
0.0,-0.1,1.0,0.5235987755982988,0.5235987755982988,0,-0.03947447,-0.87344205,-2.613663,0.30283803,-0.80405897,-0.1913343,1.1727933,0.43680266,-0.7434214,-2.0343637,1.3417227,0.37196878,0.09314252,1.0228311
0.0,-0.1,1.0,0.5235987755982988,0.5235987755982988,0,-0.1901754,-1.0158582,-2.6225677,0.26969048,-0.7805543,-0.20552057,-0.21911225,0.32785133,-0.6853603,-2.1109905,1.3262225,0.049116783,-0.06547366,1.049101
0.0,-0.1,1.0,0.5235987755982988,0.5235987755982988,0,-0.070325084,-0.9693177,-2.3456774,0.3843513,-0.48955718,0.40404704,1.150758,0.32538283,-0.7853327,-2.3669646,1.2230555,0.10651128,0.054762285,1.1940655
0.0,-0.1,1.0,0.5235987755982988,0.5235987755982988,0,0.0053320965,-0.945333,-2.8574295,0.30445167,-0.048007168,-0.001493445,0.90190685,0.52027273,-0.7131051,-2.394067,0.90596116,0.35151944,0.15619823,1.0158685
0.0,-0.1,1.0,0.5235987755982988,0.5235987755982988,0,-0.18833247,-1.0189788,-3.0307105,0.23004538,0.4291877,0.1176083,0.76464427,0.4242697,-0.8039079,-2.1420457,1.2631946,1.0017169,0.07884675,1.2416289
0.0,-0.1,1.0,0.5235987755982988,0.5235987755982988,0,-0.04257965,-0.9923222,-2.3547685,0.31096116,-0.3003202,-0.12288718,-0.32630408,0.22913165,-0.75114477,-2.2606463,1.3672688,1.2229478,0.26052865,0.92824787
0.0,-0.1,1.0,0.5235987755982988,0.5235987755982988,0,-0.061152138,-0.92735004,-2.508158,0.24291612,0.45624116,0.06610748,1.4165962,0.33905938,-0.7270067,-2.274941,1.2867428,1.032322,0.058184337,0.88558984
0.0,-0.1,1.0,0.5235987755982988,0.5235987755982988,0,0.035481207,-1.0258831,-2.3318505,0.25560373,0.44611642,-0.13688125,1.0502733,0.2674784,-0.75958985,-2.2274363,1.380255,0.47776145,0.119670056,0.7819366
0.0,-0.1,1.0,0.5235987755982988,0.5235987755982988,0,-0.012285306,-0.9478489,-1.988132,0.35139716,0.19068462,-0.32988232,1.644722,0.22594473,-0.74953085,-2.6087167,1.4007291,-0.6171479,0.12034016,0.9969414
0.0,-0.1,1.0,0.5235987755982988,0.5235987755982988,0,0.06772808,-0.9604759,-3.0141578,0.3007008,-0.81198925,0.014827933,1.1039416,0.3455901,-0.7478782,-2.0053735,1.2945404,1.0321876,0.12598988,1.0361661
0.0,-0.1,1.0,0.5235987755982988,0.5235987755982988,0,0.05540053,-1.0304255,-2.6732337,0.29556617,0.3364135,-0.0007569489,1.2791214,0.21911433,-0.7149267,-2.1279902,1.1456887,0.41566563,0.123803146,1.0153923
0.0,-0.1,1.0,0.5235987755982988,0.5235987755982988,0,0.012420319,-1.009157,-2.9707236,0.22400624,-0.064278774,0.0087600965,1.090635,0.41092455,-0.7935016,-2.249305,1.3464434,1.3785018,0.08514196,0.72419304
0.0,-0.1,1.0,0.5235987755982988,0.5235987755982988,0,-0.121391326,-0.9359406,-2.6793277,0.38856345,-0.7899832,-0.0975837,0.45677575,0.2454708,-0.7820443,-2.262139,1.3886414,0.49061647,0.031706214,1.0133059
0.0,-0.1,1.0,0.5235987755982988,0.5235987755982988,0,-0.010347986,-0.99225616,-2.8719468,0.32066408,-1.0682328,0.18438904,0.084083945,0.32264477,-0.86375076,-1.920892,1.2674721,0.29200596,-0.0843826,0.92458594
0.0,-0.1,1.0,0.5235987755982988,0.5235987755982988,0,-0.07062158,-0.97051346,-2.1099298,0.3525891,0.52827126,0.2037191,0.54867,0.30947545,-0.7677283,-2.140824,1.3464857,0.63383496,0.19814372,1.1016173
0.0,-0.1,1.0,0.5235987755982988,0.5235987755982988,0,0.06719097,-0.873521,-3.0445757,0.28878537,-0.4426475,-0.118114606,0.59409446,0.23264684,-0.8097084,-2.4314277,1.4108577,0.03726182,0.14069298,0.79166734
0.0,-0.1,1.0,0.5235987755982988,0.5235987755982988,0,-0.102379955,-0.9571658,-1.9470241,0.26952216,-0.35009438,-0.26046342,1.1362231,0.20008531,-0.7643271,-2.2456613,1.3974491,0.5759694,0.14225772,0.93456554
0.0,-0.1,1.0,0.5235987755982988,0.5235987755982988,0,0.10042612,-0.9254429,-2.6217682,0.35569814,0.11222784,-0.080000885,0.3354781,0.2898977,-0.6868648,-2.3167963,1.2317485,0.96915823,0.15162948,1.1116418
0.0,-0.1,1.0,0.5235987755982988,0.5235987755982988,0,0.11467823,-0.96460134,-2.349915,0.32940698,-0.64144826,-0.071805626,1.035383,0.29455614,-0.6759392,-2.2213893,1.2637155,0.48163176,-0.031860366,1.0578065
0.0,-0.1,1.0,0.5235987755982988,0.5235987755982988,0,-0.0037760201,-0.9738423,-1.2464975,0.24397355,-0.08367001,0.04910848,0.6333801,0.16113336,-0.71492726,-2.2271888,1.388667,1.316505,0.007808867,1.1280581
0.0,-0.1,1.0,0.5235987755982988,0.5235987755982988,0,0.15227723,-0.99596214,-2.5961206,0.24864839,-0.081938446,-0.13505363,0.054568127,0.37710425,-0.755166,-2.3487391,1.1949848,0.09007685,0.15998648,1.0570652
0.0,-0.1,1.0,0.5235987755982988,0.5235987755982988,0,0.11347988,-0.9682279,-2.5593064,0.33636972,-0.090515964,-0.017471004,0.4302642,0.3913434,-0.6803201,-2.3895788,1.0637442,1.1278853,0.008991306,0.8209025
0.0,-0.1,1.0,0.5235987755982988,0.5235987755982988,0,-0.016023155,-0.825726,-2.6404603,0.30677944,-0.03195008,-0.026017811,0.75040895,0.4097584,-0.76617444,-2.3700206,1.1455241,1.2283646,0.23141888,1.0854288
0.0,-0.1,1.0,0.5235987755982988,0.5235987755982988,0,-0.007265902,-0.931459,-2.8858035,0.38209653,0.08110727,0.1277365,0.4168817,0.23353595,-0.8163232,-1.7968996,1.4124006,1.1677666,0.0983586,1.1013687
0.0,-0.1,1.0,0.5235987755982988,0.5235987755982988,0,0.070996016,-0.9351446,-2.5642703,0.2830477,0.2723339,-0.26486763,1.3024294,0.49125287,-0.7716821,-2.5669188,1.2870932,0.23398869,0.0989752,1.3709507
0.0,-0.1,1.0,0.5235987755982988,0.5235987755982988,0,-0.043209873,-0.948346,-2.663315,0.24506736,0.10794642,0.21925953,1.5198511,0.28728116,-0.74399847,-2.3390098,1.2368935,0.61043173,0.14497001,0.8985833
0.0,-0.1,1.0,0.5235987755982988,0.5235987755982988,0,0.032074597,-0.985992,-3.0241034,0.32335874,-0.14930174,-0.20404139,0.49546415,0.42983714,-0.8076094,-1.9227844,1.167499,0.79690254,0.09858738,0.9624992
0.0,-0.1,1.0,0.5235987755982988,0.5235987755982988,0,-0.19581008,-1.035547,-2.200244,0.27234253,0.3083677,-0.008791924,1.9539428,0.0997575,-0.78592235,-2.052844,1.2475991,1.410454,0.029511377,1.0812994
0.0,-0.1,1.0,0.5235987755982988,0.5235987755982988,0,0.13446699,-1.0772772,-2.3904865,0.36734185,-0.52674204,0.17928337,0.6538754,0.29949927,-0.69575965,-2.1531785,1.2448903,1.2546706,0.12800734,0.8270139
0.0,-0.1,1.0,0.5235987755982988,0.5235987755982988,0,0.1047701,-0.97885966,-2.597584,0.27970794,-0.9529682,0.020485755,0.88722473,0.37734985,-0.74524915,-2.317447,1.1551675,0.079336576,0.10387689,1.1639546
0.0,-0.1,1.0,0.5235987755982988,0.5235987755982988,0,-0.07335504,-0.903338,-2.3574731,0.3353641,-0.041080352,0.05778987,1.5396229,0.34826094,-0.73527676,-2.5701044,1.3556356,0.7679851,-0.12602447,1.0176744
0.0,-0.1,1.0,0.5235987755982988,0.5235987755982988,0,-0.06939618,-1.0096618,-2.767516,0.25258195,-0.07965981,-0.25793046,0.5032178,0.27720046,-0.76173997,-2.1600952,1.2171125,0.52301884,-0.0023835911,1.1402605
0.0,-0.1,1.0,0.5235987755982988,0.5235987755982988,0,-0.024895916,-0.9859146,-2.6023684,0.3507865,-0.11804583,0.05879443,0.15289941,0.19413243,-0.80175334,-2.1293766,1.4174978,0.5508542,0.2503893,0.80146235
0.0,-0.1,1.0,0.5235987755982988,0.5235987755982988,0,-0.117825426,-0.9553302,-2.1246264,0.22931707,-0.051760547,-0.17701432,0.76844084,0.6031864,-0.7149235,-2.2354324,1.3914472,0.59952176,0.15151592,1.034891
0.0,-0.1,1.0,0.5235987755982988,0.5235987755982988,0,-0.027735125,-0.99079347,-2.8651247,0.2678291,0.23017336,-0.08424297,1.3669615,0.17689806,-0.78634477,-2.193386,1.1429769,0.4890988,0.06752249,0.903324
0.0,-0.1,1.0,0.5235987755982988,0.5235987755982988,0,-0.017079007,-0.8828135,-2.8076444,0.3239957,-0.097030625,0.13772206,0.5539519,0.33270997,-0.6904495,-2.261952,1.0705594,0.27188745,0.23016773,1.0636617
0.0,-0.1,1.0,0.5235987755982988,0.5235987755982988,0,0.027902057,-0.9079296,-2.0050313,0.33796254,-0.4345939,0.23722361,-0.73349,0.46728268,-0.7770785,-2.2773502,1.3373276,1.2538537,0.1009458,1.0639186
0.0,-0.1,1.0,0.5235987755982988,0.5235987755982988,0,0.0291907,-1.0434749,-2.0806298,0.22640295,0.53367853,0.028914696,0.5818981,0.2275621,-0.7147506,-1.9538692,1.334009,0.27070913,0.12332253,0.9938203
0.0,-0.1,1.0,0.5235987755982988,0.5235987755982988,0,-0.02834498,-0.94126934,-2.5892277,0.29429945,-0.87330663,0.13490964,-0.048594043,0.28864798,-0.8046864,-2.0534482,1.1848853,-0.3086936,0.17630869,0.7457309
0.0,-0.1,1.0,0.5235987755982988,0.5235987755982988,0,-0.026963374,-0.9915151,-1.2336092,0.2362004,0.76840514,0.28148097,0.52546024,0.2631346,-0.7454188,-2.3949215,1.3213307,1.2205812,0.062424965,1.1002625
0.0,-0.1,1.0,0.5235987755982988,0.5235987755982988,0,-0.07933399,-0.9622642,-2.445164,0.30540138,-0.37411878,-0.12414197,-0.15933624,0.206161,-0.709648,-2.4199278,1.3677874,0.421976,-0.23294559,1.1950737
0.0,-0.1,1.0,0.5235987755982988,0.5235987755982988,0,0.008100365,-0.9133539,-2.4809518,0.35766906,0.3753008,0.1825256,0.54813987,0.25464234,-0.79621804,-2.2006054,1.1206027,0.6363924,0.11537879,0.86739254
0.0,-0.1,1.0,0.5235987755982988,0.5235987755982988,0,0.16168939,-0.95477355,-2.1463616,0.33483395,0.38002482,0.13544627,0.29469284,0.32625777,-0.7360042,-2.251608,1.2641828,1.0496142,-0.03278082,0.724622
0.0,-0.1,1.0,0.5235987755982988,0.5235987755982988,0,-0.059248284,-0.9378151,-3.0187597,0.23477061,-0.020844197,-0.047533035,0.6571289,0.53393173,-0.7822005,-2.436424,1.1274158,0.72817385,0.028860165,1.1687367
0.0,-0.1,1.0,0.5235987755982988,0.5235987755982988,0,-0.123381734,-0.979264,-2.5057697,0.26991197,-0.57309526,-0.124578305,-0.043793786,0.44712627,-0.8267583,-2.1538818,1.3300365,-0.02005476,0.09249879,1.1507341
0.0,-0.1,1.0,0.5235987755982988,0.5235987755982988,0,0.035703156,-0.9399435,-2.5297573,0.35014468,-0.5921418,0.12462215,-0.07046864,0.41053143,-0.77091825,-2.3123786,1.2078826,-0.12424467,0.17186275,1.0337396
0.0,-0.1,1.0,0.5235987755982988,0.5235987755982988,0,-0.020000359,-0.94450086,-2.5122848,0.30393434,-0.12969212,-0.24436986,1.1957468,0.32782343,-0.6893076,-2.0693548,1.2309126,0.59370476,0.18833892,1.2034966
0.0,-0.1,1.0,0.5235987755982988,0.5235987755982988,0,0.08525289,-0.92596585,-1.2649994,0.32304555,0.7641405,-0.31236434,1.4092901,0.48767257,-0.8051367,-2.575558,1.2869282,0.28656116,0.052616555,1.0720245
0.0,-0.1,1.0,0.5235987755982988,0.5235987755982988,0,-0.012084219,-0.9897822,-2.2528021,0.27640998,-0.70028543,0.20785667,0.864554,0.323536,-0.74922323,-2.4593089,1.2353646,1.4333724,0.113628976,1.0214667
0.0,-0.1,1.0,0.5235987755982988,0.5235987755982988,0,-0.14566489,-0.9021507,-2.8807216,0.27275753,-0.32721746,-0.1565187,0.24202992,0.60322016,-0.7733822,-2.447257,1.0797313,0.6909603,0.042546973,0.8890819
0.0,-0.1,1.0,0.5235987755982988,0.5235987755982988,0,-0.05449052,-0.94658375,-2.674606,0.24785982,-0.54834515,-0.029922217,1.3592141,0.2559027,-0.7492305,-2.149332,1.3584219,0.12464869,0.080582105,1.0879011
0.0,-0.1,1.0,0.5235987755982988,0.5235987755982988,0,0.19589698,-0.95390075,-2.6522753,0.29007822,-0.49494168,-0.00860401,0.66700405,0.20832084,-0.71972245,-2.1388776,1.3288249,1.3273493,0.19314511,0.7970523
0.0,-0.1,1.0,0.5235987755982988,0.5235987755982988,0,0.0071782647,-0.9519396,-2.3033564,0.32115513,0.14166088,0.18560629,0.59903574,0.3316794,-0.6815197,-2.198276,1.081152,1.3215495,0.28054696,1.0759526
0.0,-0.1,1.0,0.5235987755982988,0.5235987755982988,0,0.0032094992,-0.9283979,-2.8095167,0.23627368,-0.6114427,-0.05077204,1.2676215,0.4210939,-0.7673522,-1.9782677,1.156715,0.9107769,0.30145258,1.0395802
0.0,-0.1,1.0,0.5235987755982988,0.5235987755982988,0,0.17170227,-0.9524206,-3.134324,0.33754906,-0.8180564,0.070898026,1.1862814,0.35641915,-0.7573342,-2.2577174,1.3820474,1.098209,0.22283792,0.691575
0.0,-0.1,1.0,0.5235987755982988,0.5235987755982988,0,-0.00668548,-0.9977112,-2.7799885,0.3188638,-0.77724314,0.25159556,1.5203046,0.12764287,-0.76535517,-2.3315368,1.3408353,1.0271677,0.12187409,1.355884
0.0,-0.1,1.0,0.5235987755982988,0.5235987755982988,0,-0.0481731,-0.96080655,-2.3160641,0.27811864,0.80104315,0.08385401,1.5226328,0.4299836,-0.7850841,-2.1682165,1.256504,0.9173354,0.16716579,0.80128294
0.0,-0.1,1.0,0.5235987755982988,0.5235987755982988,0,0.024415875,-0.9386476,-2.5678132,0.32837746,0.22454786,-0.08875544,0.2066958,0.1974425,-0.7346985,-2.1858034,1.283203,1.4420327,-0.085622005,1.0848838
0.0,-0.1,1.0,0.5235987755982988,0.5235987755982988,0,-0.11567914,-0.9993181,-2.4813747,0.32753715,0.32601327,-0.3924067,1.1924554,0.23431633,-0.7391736,-2.0834527,1.1463089,0.28127733,0.2696717,1.1747228
0.0,-0.1,1.0,0.5235987755982988,0.5235987755982988,0,0.042102456,-1.0238631,-2.1189704,0.28235945,-0.30178368,-0.022062907,0.036039826,0.2993969,-0.75947255,-2.1425462,1.3884747,0.67209524,0.24878506,0.8489363
0.0,-0.1,1.0,0.5235987755982988,0.5235987755982988,0,0.005455637,-0.9835758,-2.3668373,0.27241895,-0.27769426,-0.07784718,1.5284132,0.3487938,-0.73989975,-2.395428,1.3435936,-0.07199836,0.1400746,1.0955284
0.0,-0.1,1.0,0.5235987755982988,0.5235987755982988,0,0.0008781502,-1.0155704,-1.6966075,0.2805385,0.11836893,0.16640864,1.9082693,0.1880978,-0.8085648,-2.1384072,1.4136977,-0.018089753,0.111834176,1.0115942
0.0,-0.1,1.0,0.5235987755982988,0.5235987755982988,0,-0.14919358,-0.9129008,-2.668516,0.31556457,0.56486297,-0.5212884,0.28909156,0.2523202,-0.7231521,-2.0990605,1.0999857,0.65338904,0.07035599,1.1386023
0.0,-0.1,1.0,0.5235987755982988,0.5235987755982988,0,-0.08793541,-0.98187953,-2.626063,0.2685629,0.080444925,0.14719447,1.594146,0.25982347,-0.70524925,-2.1702232,0.9987396,0.89994556,0.16881916,0.89892393
0.0,-0.1,1.0,0.5235987755982988,0.5235987755982988,0,-0.023599539,-0.9962049,-2.7886496,0.20894341,-0.7323643,-0.10728184,0.18503109,0.14492367,-0.7374078,-2.223162,1.1024798,0.2956288,0.119726084,0.9918229
0.0,-0.1,1.0,0.5235987755982988,0.5235987755982988,0,-0.0716971,-0.8685619,-2.7172654,0.33480117,0.07820994,-0.27181062,0.33023074,0.25232655,-0.726066,-2.0354414,1.3534123,1.4560293,-0.0013736661,1.0306243
0.0,-0.1,1.0,0.5235987755982988,0.5235987755982988,0,-0.05975033,-0.9415165,-2.687217,0.35839313,0.49621436,-0.040916454,0.9152193,0.24310581,-0.78182805,-2.0464253,1.3536336,0.5931293,0.11269476,0.78823024
0.0,-0.1,1.0,0.5235987755982988,0.5235987755982988,0,-0.059522003,-1.0038718,-2.631023,0.20225623,-1.0165852,0.24092641,-0.028758766,0.40663025,-0.73976123,-2.1195688,1.2721448,0.35956976,0.16043475,1.0130022
0.0,-0.1,1.0,0.5235987755982988,0.5235987755982988,0,0.12612975,-0.8711011,-2.8014064,0.37722442,0.46105,-0.07249081,-0.9075558,0.6268572,-0.66930205,-2.6947656,1.2038062,0.6964962,0.3735621,0.7599465
0.0,-0.1,1.0,0.5235987755982988,0.5235987755982988,0,0.05316277,-0.936926,-2.9392276,0.36153492,-0.96892786,-0.01642871,0.4674942,0.5147278,-0.7200886,-2.1506238,1.2091198,0.5050401,-0.03818465,0.9438711
0.0,-0.1,1.0,0.5235987755982988,0.5235987755982988,0,0.013754147,-0.979953,-1.9989576,0.20814827,-0.9094665,0.22257489,1.9439906,0.31856167,-0.7176984,-2.0727665,1.360662,0.78086704,0.11411575,1.117342
0.0,-0.1,1.0,0.5235987755982988,0.5235987755982988,0,-0.041144527,-0.9778729,-2.6700547,0.23821455,-0.3963274,-0.12581152,0.6458364,0.36038524,-0.77188337,-2.1031103,1.071063,0.7129206,0.20076573,1.0672523
0.0,-0.1,1.0,0.5235987755982988,0.5235987755982988,0,-0.0058615142,-0.99114525,-2.0223954,0.29348734,-0.70948243,0.05382602,-0.04532323,0.32404846,-0.70994467,-2.3064108,1.2600868,-0.45178926,0.01813896,1.0930483
0.0,-0.1,1.0,0.5235987755982988,0.5235987755982988,0,0.068087935,-0.9687447,-2.3135943,0.25683534,0.04198715,0.14694516,1.0528827,0.23125793,-0.7375381,-2.3060913,1.2634856,0.17142844,0.19884765,0.95703435
0.0,-0.1,1.0,0.5235987755982988,0.5235987755982988,0,0.068574324,-1.034454,-2.77659,0.31040794,-0.5270622,-0.1802634,2.0767884,0.13345046,-0.7327522,-2.2043655,1.2489461,0.7901231,0.2520293,0.92228377
0.0,-0.1,1.0,0.5235987755982988,0.5235987755982988,0,-0.14568664,-0.92504036,-1.7757826,0.30304763,-0.06533884,-0.026652943,1.3052586,0.52475226,-0.7589941,-2.408664,1.1986861,0.37252522,0.17122465,0.809549
0.0,-0.1,1.0,0.5235987755982988,0.5235987755982988,0,-0.12629534,-0.9965861,-2.2181067,0.19107303,-0.13171743,-0.023807934,1.2025919,0.37278047,-0.7402656,-2.2428045,1.3905411,0.08075162,0.099451184,0.9250372
0.0,-0.1,1.0,0.5235987755982988,0.5235987755982988,0,0.08613636,-0.9665706,-2.792924,0.22606586,0.19200647,-0.05891437,0.24877739,0.31906855,-0.7414487,-2.3803408,1.3113286,0.47348815,0.10925294,1.2462785
0.0,-0.1,1.0,0.5235987755982988,0.5235987755982988,0,0.06276703,-0.9592759,-2.5620997,0.22748275,-0.6067282,0.00020580385,1.073564,0.27846038,-0.7249505,-2.1593487,1.1372865,0.85933733,0.12090288,0.93672675
0.0,-0.1,1.0,0.5235987755982988,0.5235987755982988,0,0.0005591398,-0.98751616,-2.1502373,0.24243571,-0.68979853,-0.10919774,1.8664263,0.20973112,-0.7050585,-2.3388228,1.1700331,0.33817586,0.13548957,0.84391975
0.0,-0.1,1.0,0.5235987755982988,0.5235987755982988,0,-9.002647e-05,-0.93591243,-1.8565453,0.2577159,0.8436567,0.16835502,0.7175438,0.4229951,-0.74726087,-2.2809143,1.389388,0.8364533,0.0519248,0.9599087
0.0,-0.1,1.0,0.5235987755982988,0.5235987755982988,0,-0.016174456,-0.97859895,-2.769309,0.36603892,0.2208199,-0.010846516,1.1041262,0.28343743,-0.7428898,-1.863611,1.3158443,0.7004056,0.23525453,1.0614429
0.0,-0.1,1.0,0.5235987755982988,0.5235987755982988,0,-0.08889272,-1.0320895,-2.6742163,0.25546575,-0.73003674,-0.26332676,2.4172041,0.41852915,-0.8229427,-2.1454802,1.2376723,0.73876095,0.04814134,1.1338508
0.0,-0.1,1.0,0.5235987755982988,0.5235987755982988,0,0.07581468,-0.98002577,-2.4658792,0.32380447,-0.5688447,0.05035193,0.6308122,0.2773952,-0.81703603,-1.9658083,1.2862905,0.48721844,-0.032604583,0.8269835
0.0,-0.1,1.0,0.5235987755982988,0.5235987755982988,0,0.06502156,-1.016497,-1.934007,0.22979015,-0.8501748,-0.095066056,1.6973882,0.27181932,-0.69420266,-2.226172,1.3166238,-0.1194908,-0.06482216,1.1531113
0.0,-0.1,1.0,0.5235987755982988,0.5235987755982988,0,-0.10567862,-0.9960249,-2.3038476,0.33793205,-0.8270687,0.36362553,0.50803447,0.37971905,-0.77110916,-2.1704645,1.3765311,0.42954904,0.052141234,1.074891
0.0,-0.1,1.0,0.5235987755982988,0.5235987755982988,0,-0.09891036,-0.97683257,-2.517389,0.33012635,0.35379425,0.3050957,-0.8347216,0.13016842,-0.7645442,-2.160524,1.3956989,1.51349,0.113647975,1.3184923
0.0,-0.1,1.0,0.5235987755982988,0.5235987755982988,0,-0.056197945,-0.9384014,-2.438352,0.3717555,-0.4336693,-0.230255,-0.4614062,0.48181742,-0.7539993,-2.4548674,1.4175241,0.5149804,-0.052718617,1.0353957
0.0,-0.1,1.0,0.5235987755982988,0.5235987755982988,0,0.066724,-0.9907627,-2.2848718,0.41207784,-1.1803964,-0.113683,1.8271049,0.22240753,-0.70928806,-2.3160334,1.1181482,0.5861951,0.03499979,1.0712596
0.0,-0.1,1.0,0.5235987755982988,0.5235987755982988,0,0.07141862,-0.9741909,-2.635635,0.31177542,0.72480166,-0.30174568,0.57200503,0.2642762,-0.7385288,-2.3109674,1.2390106,1.1191411,0.097998045,0.93634105
0.0,-0.1,1.0,0.5235987755982988,0.5235987755982988,0,0.14137487,-1.0633547,-2.566878,0.1841293,0.120118015,0.07165569,1.3839394,0.3992644,-0.6711855,-1.9832982,1.3159759,0.59125644,0.04097648,1.0957632
0.0,-0.1,1.0,0.5235987755982988,0.5235987755982988,0,-0.12449463,-0.9848759,-3.0603118,0.2618531,-0.008814419,0.00035605693,0.48962513,0.2852692,-0.78539866,-2.1033263,1.2076238,0.9074613,0.2722753,1.00727
0.0,-0.1,1.0,0.5235987755982988,0.5235987755982988,0,-0.07585668,-0.951315,-2.6939635,0.22255115,-1.2922995,0.1658945,0.2619646,0.38215628,-0.7774544,-1.9270958,1.1699057,1.0992098,0.07358215,0.934378
0.0,-0.1,1.0,0.5235987755982988,0.5235987755982988,0,-0.14440049,-1.0049331,-2.2420003,0.35538566,-1.1774808,-0.37391195,1.3017143,0.43645063,-0.773533,-2.4092193,1.1513416,1.279927,0.054367285,1.2286179
0.0,-0.1,1.0,0.5235987755982988,0.5235987755982988,0,-0.07332046,-0.94149023,-2.5722888,0.33292893,0.32505774,0.088111825,1.1803998,0.24821699,-0.7992667,-1.95984,1.3495593,0.8081,0.00072208064,1.1714727
0.0,-0.1,1.0,0.5235987755982988,0.5235987755982988,0,0.14671992,-0.9815582,-2.9016335,0.32770675,-0.6330238,-0.065843076,0.2444775,0.27279672,-0.789204,-2.2548177,1.3175215,0.5905161,0.052397896,0.8062233
0.0,-0.1,1.0,0.5235987755982988,0.5235987755982988,0,-0.018110635,-0.89629155,-2.7709246,0.37524217,-0.36771816,0.06392782,2.223188,0.49395478,-0.72411674,-2.4225304,0.96295565,0.54650825,0.26301748,0.9826232
0.0,-0.1,1.0,0.5235987755982988,0.5235987755982988,0,-0.05530767,-0.96382993,-2.5606623,0.18251628,0.05061858,-0.029944409,1.8094196,0.27352163,-0.73625,-2.3329422,1.0317669,1.4763734,-0.10171425,0.92541295
0.0,-0.1,1.0,0.5235987755982988,0.5235987755982988,0,-0.13374402,-0.89204204,-3.0101418,0.33768848,-0.8495988,-0.08556458,0.81260806,0.3847458,-0.7460043,-2.1889367,1.0016994,0.22623865,0.056267276,0.78296554
0.0,-0.1,1.0,0.5235987755982988,0.5235987755982988,0,-0.068471916,-1.0304075,-1.7813804,0.31193674,-0.07185149,-0.13381776,0.01826235,0.29864526,-0.73570967,-1.9816072,1.4196169,0.6579628,0.04291678,1.0969355
0.0,-0.1,1.0,0.5235987755982988,0.5235987755982988,0,-0.17700969,-0.94902945,-2.5196283,0.30948013,0.5892525,0.066588156,1.2213398,0.20545638,-0.73498785,-1.9358937,1.3501983,0.9067481,0.22116315,1.0782087
0.0,-0.1,1.0,0.5235987755982988,0.5235987755982988,0,-0.020622656,-0.96475077,-2.403261,0.2787576,-0.7338291,0.26174453,1.170212,0.2088167,-0.7102072,-2.2010179,1.2362083,0.100234866,-0.0019420338,1.0197576
0.0,-0.1,1.0,0.5235987755982988,0.5235987755982988,0,0.1453871,-1.027707,-2.2565305,0.2700716,-0.30865207,-0.28152686,1.1921141,0.30137354,-0.715873,-2.059461,1.3024781,0.34643942,0.14014928,1.2308351
0.0,-0.1,1.0,0.5235987755982988,0.5235987755982988,0,-0.03411884,-0.95261455,-2.1748917,0.2292882,0.062328618,-0.04095029,0.18644564,0.27189592,-0.7191798,-2.1246467,1.2233926,0.34133705,0.15740447,1.0576444
0.0,-0.1,1.0,0.5235987755982988,0.5235987755982988,0,0.01614721,-0.9300462,-3.0008137,0.30605155,-0.27641535,0.20061253,-0.12096851,0.25045446,-0.75445217,-2.2379293,1.2021413,-0.15249272,0.025904523,1.0340983
0.0,-0.1,1.0,0.5235987755982988,0.5235987755982988,0,-0.049315836,-1.0315156,-2.5687575,0.21761744,0.16951002,0.05135205,0.5122297,0.38563797,-0.7590514,-1.9579345,1.3922455,-0.1324933,0.041633196,0.8841626
0.0,-0.1,1.0,0.5235987755982988,0.5235987755982988,0,0.14373578,-0.9676506,-2.199239,0.20598157,-0.86194104,0.100369185,1.6702057,0.3062447,-0.7116019,-2.2509775,1.175943,-0.063653834,0.10182739,1.1409153
0.0,-0.1,1.0,0.5235987755982988,0.5235987755982988,0,-0.04830075,-0.95888996,-2.2768428,0.21972133,-0.33957705,-0.1689934,0.4231807,0.34460962,-0.7511602,-2.2893143,1.2598418,0.11383583,0.27579674,1.0319719
0.0,-0.1,1.0,0.5235987755982988,0.5235987755982988,0,-0.0043805437,-0.9762175,-2.1287022,0.29260492,-0.3720747,-0.18336855,1.5009562,0.33491018,-0.7343247,-2.1459367,1.3436061,0.97419596,0.20983216,1.0314425
0.0,-0.1,1.0,0.5235987755982988,0.5235987755982988,0,-0.054508213,-0.9339433,-2.8661594,0.29522446,0.07828466,-0.38997108,1.1440895,0.140685,-0.73340553,-2.2367034,1.1674193,0.13807023,0.054887652,1.155513
0.0,-0.1,1.0,0.5235987755982988,0.5235987755982988,0,0.046741325,-0.8399582,-3.060588,0.2714808,-0.6381016,-0.060706146,1.0645651,0.33232948,-0.75134325,-2.242579,0.9718283,0.618784,0.07278385,1.0340021
0.0,-0.1,1.0,0.5235987755982988,0.5235987755982988,0,-0.108634755,-0.920767,-2.7761219,0.33815917,-0.31738803,0.077832706,1.0181516,0.37765923,-0.7913769,-2.258116,1.0294585,0.84254986,0.17559078,1.2219191
0.0,-0.1,1.0,0.5235987755982988,0.5235987755982988,0,0.0537577,-1.0159996,-1.919144,0.35034457,-0.7214137,-0.20026127,0.22674593,0.2575129,-0.68060607,-2.0397828,1.2422485,-0.35765904,0.20657337,1.0602113
0.0,-0.1,1.0,0.5235987755982988,0.5235987755982988,0,-0.0016069643,-0.978099,-2.862049,0.33116233,-0.032346297,-0.009489509,0.498749,0.18980101,-0.72502244,-2.2300286,1.0076264,0.9297452,0.09883458,1.0451844
0.0,-0.1,1.0,0.5235987755982988,0.5235987755982988,0,0.00015642116,-1.0034815,-2.208269,0.25284427,-0.33799347,0.14861657,1.645753,0.28812847,-0.7418635,-2.3924098,1.1574633,0.9759728,0.18235938,1.0305088
0.0,-0.1,1.0,0.5235987755982988,0.5235987755982988,0,-0.052576542,-0.9954704,-2.6889403,0.16349383,0.058158103,-0.24805376,0.5618335,0.21358292,-0.7062155,-2.0741987,1.3307962,0.06782986,-0.06241925,0.9901924
0.0,-0.1,1.0,0.5235987755982988,0.5235987755982988,0,-0.037100073,-0.9728854,-2.7587109,0.21810804,-0.2681473,-0.15027246,1.4150915,0.37366405,-0.73767763,-2.4110534,1.1288482,0.7046347,0.193706,1.0561409
0.0,-0.1,1.0,0.5235987755982988,0.5235987755982988,0,-0.018659454,-0.97989017,-2.781851,0.3085637,-0.60322756,0.16078535,0.65190816,0.3782289,-0.7675386,-2.0361187,1.2896117,1.1617223,0.17550287,1.0414276
0.0,-0.1,1.0,0.5235987755982988,0.5235987755982988,0,0.024906892,-1.0344903,-2.4811847,0.20254199,-0.6566374,-0.15083978,0.6758576,0.29519907,-0.7624124,-2.250444,1.1266989,0.36118823,0.0550162,1.000515
0.0,-0.1,1.0,0.5235987755982988,0.5235987755982988,0,-0.09464508,-0.98310745,-2.3823345,0.36434618,0.9089553,0.044385534,1.6486164,0.18807039,-0.7226885,-1.9642273,1.1381251,0.27266663,0.20320931,0.7293988
0.0,-0.1,1.0,0.5235987755982988,0.5235987755982988,0,-0.07687061,-0.9824864,-1.5070778,0.3253608,0.18951917,0.16318375,1.1985685,0.45574027,-0.7072933,-2.2311897,1.3781097,0.6273039,0.10087098,0.8087152
0.0,-0.1,1.0,0.5235987755982988,0.5235987755982988,0,-0.08051836,-1.0128486,-1.9836425,0.17957477,-0.858836,-0.06946034,1.1163915,0.2550075,-0.73400706,-1.8986462,1.2623295,0.49322924,0.1908683,1.1484703
0.0,-0.1,1.0,0.5235987755982988,0.5235987755982988,0,0.035232358,-1.0269189,-1.9285886,0.3298288,-0.12425735,-0.21543631,0.17401735,0.30809152,-0.78874534,-2.2841291,1.1878557,1.5747243,0.11464278,1.2070907
0.0,-0.1,1.0,0.5235987755982988,0.5235987755982988,0,0.039638437,-1.0308329,-1.8594489,0.28247082,-0.023863621,0.14880633,-1.1066067,0.5756775,-0.7845113,-2.394587,1.3100916,-0.4477772,0.052610666,1.0910723
0.0,-0.1,1.0,0.5235987755982988,0.5235987755982988,0,-0.052601818,-0.86583036,-2.7374005,0.32973132,0.6556716,-0.18487222,-0.04315104,0.28782558,-0.7037697,-2.0455062,1.2961246,1.1160183,0.001559576,0.7514173
0.0,-0.1,1.0,0.5235987755982988,0.5235987755982988,0,0.018196335,-1.0101268,-1.8198099,0.2964085,-0.16579475,-0.06669529,1.0618544,0.2803244,-0.70893246,-2.2818644,1.1723717,1.0005924,0.11536404,1.1647035
0.0,-0.1,1.0,0.5235987755982988,0.5235987755982988,0,-0.057026144,-0.8657044,-3.018368,0.22321475,-0.5118089,0.07590083,0.28657562,0.2606214,-0.7405483,-2.1460674,1.0840667,0.97826755,-0.03280895,1.2389535
0.0,-0.1,1.0,0.5235987755982988,0.5235987755982988,0,0.035236932,-0.8958086,-2.535373,0.2831244,1.0003741,0.05085387,0.7965223,0.19645333,-0.6835044,-2.0426328,1.3666788,0.6392896,0.28978547,1.0565923
0.0,-0.1,1.0,0.5235987755982988,0.5235987755982988,0,-0.17045984,-1.0227056,-1.7531447,0.31087077,-0.18343653,-0.059455298,0.16547684,0.35064837,-0.7885513,-2.2888281,1.2099483,1.2932154,-0.08154594,0.9672781
0.0,-0.1,1.0,0.5235987755982988,0.5235987755982988,0,0.19416386,-1.0254724,-2.626865,0.28334376,-0.09190522,-0.13136521,0.6137204,0.36879942,-0.7173795,-2.5499542,1.2396653,0.5865786,0.15978362,1.0232549
0.0,-0.1,1.0,0.5235987755982988,0.5235987755982988,0,-0.009099619,-0.9760336,-2.0148065,0.26575527,0.35941783,0.21124743,0.06491018,0.43993768,-0.76142055,-2.1604135,1.3445312,0.73184687,0.0395536,0.9976054
0.0,-0.1,1.0,0.5235987755982988,0.5235987755982988,0,0.07852479,-0.9373813,-2.5790846,0.39367676,-0.0021681746,-0.43198344,0.34730244,0.32160813,-0.76318043,-2.405796,1.1701332,1.1205626,-0.1426634,0.8864713
0.0,-0.1,1.0,0.5235987755982988,0.5235987755982988,0,-0.21219864,-1.0307698,-2.0733066,0.34322333,0.53674453,0.12252544,1.5318112,0.4161603,-0.8153182,-1.9926046,1.3803151,-0.22638838,0.06472643,1.0254682
0.0,-0.1,1.0,0.5235987755982988,0.5235987755982988,0,0.056406848,-1.0615003,-2.5853689,0.28014126,-0.6042991,-0.011680728,1.0609243,0.19917859,-0.74936914,-1.8337772,1.2633203,0.9401356,0.19322935,0.7806454
0.0,-0.1,1.0,0.5235987755982988,0.5235987755982988,0,-0.023046665,-0.99945754,-1.78195,0.3739359,-0.78329194,0.028175894,0.8323366,0.5631112,-0.76475865,-2.3431678,1.229164,1.6384202,0.30489013,1.2176203
0.0,-0.1,1.0,0.5235987755982988,0.5235987755982988,0,0.16223869,-1.000204,-2.0897703,0.14975424,0.68861306,0.09635645,0.99551183,0.3344165,-0.7514137,-2.1590989,1.3362145,0.92005026,0.14695552,0.9976513
0.0,-0.1,1.0,0.5235987755982988,0.5235987755982988,0,-0.14669482,-0.89618707,-2.8286421,0.2508159,-0.5150382,0.2722939,1.2253835,0.29658887,-0.7093781,-1.7182088,1.2345132,0.9798846,0.1656072,1.170309
0.0,-0.1,1.0,0.5235987755982988,0.5235987755982988,0,-0.083730154,-0.9460647,-2.6181881,0.25929537,-0.3200896,-0.34662738,0.44503397,0.17351519,-0.7430003,-2.163195,1.0122205,0.6427136,0.15548937,1.0528308
0.0,-0.1,1.0,0.5235987755982988,0.5235987755982988,0,-0.09497206,-0.97121876,-2.4685225,0.31539983,-0.14704806,-0.012284667,0.81242305,0.22754838,-0.85461533,-2.1108701,1.026312,0.77778596,0.086215734,0.7949505
0.0,-0.1,1.0,0.5235987755982988,0.5235987755982988,0,0.05203032,-0.9539577,-2.7818556,0.30189192,0.23955739,-0.016109848,1.767542,0.30598795,-0.688061,-2.2315605,1.1826795,-0.4998013,-0.20103905,0.7633861
0.0,-0.1,1.0,0.5235987755982988,0.5235987755982988,0,-0.09562897,-0.8767354,-2.8128316,0.2364557,0.18311633,0.05773821,0.6430082,0.2531312,-0.71616507,-1.974278,1.2178999,1.4757311,0.2501731,1.1409386
0.0,-0.1,1.0,0.5235987755982988,0.5235987755982988,0,-0.04443096,-0.9208405,-2.2057881,0.3651436,0.076552495,0.16546394,-0.011511703,0.44716227,-0.6986068,-2.557619,1.1982899,-0.35200807,0.06858042,0.9901294
0.0,-0.1,1.0,0.5235987755982988,0.5235987755982988,0,-0.09632285,-0.95254064,-2.5965471,0.29203454,-0.5807271,-0.4353621,0.7079777,0.27963874,-0.7433368,-2.032147,1.1244427,0.34812894,0.18290877,0.64247787
0.0,-0.1,1.0,0.5235987755982988,0.5235987755982988,0,0.03745907,-0.99316424,-2.1271143,0.35149622,-0.18720177,-0.2783112,-0.023482824,0.45130998,-0.7410344,-2.254724,1.3132118,0.72549206,0.1161009,0.78845894
0.0,-0.1,1.0,0.5235987755982988,0.5235987755982988,0,-0.09875264,-1.0297748,-2.389909,0.19385579,-1.0849681,0.048633527,-0.58011705,0.19577898,-0.6917333,-2.1449418,1.0233179,0.3494725,0.017293513,1.0368557
0.0,-0.1,1.0,0.5235987755982988,0.5235987755982988,0,-0.08671001,-0.9766486,-3.0950665,0.25079897,0.6418008,-0.09546514,1.6450645,0.33102804,-0.781492,-2.1440678,0.9616681,-0.2157782,0.03147127,0.88402474
0.0,-0.1,1.0,0.5235987755982988,0.5235987755982988,0,0.07789193,-0.984739,-2.3150058,0.306124,0.6816934,-0.11181542,0.75981253,0.39923078,-0.69920176,-2.1850498,1.3211473,0.7027967,0.0036155663,0.7997101
0.0,-0.1,1.0,0.5235987755982988,0.5235987755982988,0,0.04280163,-0.9477323,-2.452218,0.39745086,0.4498117,-0.023647754,0.5224057,0.25291285,-0.73595446,-2.321048,1.100875,0.3339407,0.18516473,0.97535574
0.0,-0.1,1.0,0.5235987755982988,0.5235987755982988,0,-0.042209975,-0.9385177,-2.3086646,0.30957177,-0.9178582,-0.06909481,0.30262357,0.39308456,-0.7338721,-2.1142793,1.3323902,-0.0009377582,0.20956062,0.9548352
0.0,-0.1,1.0,0.5235987755982988,0.5235987755982988,0,-0.11550917,-1.0192827,-2.1476386,0.29271948,-0.010216491,0.1033022,0.54678315,0.25970298,-0.6636942,-2.296747,1.1717532,0.4760167,0.13886546,0.99926305
0.0,-0.1,1.0,0.5235987755982988,0.5235987755982988,0,-0.035889823,-0.9427303,-3.0781329,0.26478332,0.07939527,0.054892108,1.2430978,0.2653614,-0.76276565,-1.9533753,1.2083213,1.1883737,0.07995774,1.0807024
0.0,-0.1,1.0,0.5235987755982988,0.5235987755982988,0,-0.12985021,-0.97656566,-2.6385415,0.2391322,0.08606588,0.23966108,0.68674284,0.1499011,-0.6727169,-1.7835237,1.4171011,0.4799445,-0.09431073,1.2127757
0.0,-0.1,1.0,0.5235987755982988,0.5235987755982988,0,-0.10951831,-0.9563574,-2.7125335,0.27029628,-0.23702101,-0.046424445,0.49304226,0.10448643,-0.7119287,-2.0200217,1.1046504,0.6215592,0.27833906,1.1708744
0.0,-0.1,1.0,0.5235987755982988,0.5235987755982988,0,-0.09672485,-0.97670275,-2.7862074,0.30111298,-0.60416955,-0.15141968,1.3713913,0.31117457,-0.8024014,-1.7286072,1.1445578,0.45307317,0.23502877,1.0482318
0.0,-0.1,1.0,0.5235987755982988,0.5235987755982988,0,0.13442595,-1.0534937,-2.9505045,0.41754487,0.003181381,0.02228003,0.7320452,0.43434137,-0.7442361,-2.3832262,1.320041,0.32692194,0.2232154,0.9808308
0.0,-0.1,1.0,0.5235987755982988,0.5235987755982988,0,-0.13501503,-0.97367615,-2.8202176,0.36394012,-0.09153705,-0.043357633,0.68695176,0.42101115,-0.7126205,-2.3615901,1.2554051,0.5302671,0.13638094,1.0719436
0.0,-0.1,1.0,0.5235987755982988,0.5235987755982988,0,0.02823667,-0.94356817,-2.8861487,0.35224357,0.30636525,-0.0022150609,0.39468047,0.4207447,-0.7342329,-2.3780868,1.2950372,0.00021098783,0.16010219,0.9077618
0.0,-0.1,1.0,0.5235987755982988,0.5235987755982988,0,-0.11632466,-0.95867306,-2.844022,0.3577059,-1.0020789,0.13318694,0.07093722,0.3233675,-0.78056115,-2.1063056,1.417219,0.543429,-0.010874353,1.0591145
0.0,-0.1,1.0,0.5235987755982988,0.5235987755982988,0,0.039751574,-1.0132996,-2.732901,0.37269738,0.534035,-0.02433685,1.3711694,0.36248764,-0.76542413,-2.5065773,0.97963834,1.215639,-0.04565665,0.9553718
0.0,-0.1,1.0,0.5235987755982988,0.5235987755982988,0,-0.18536,-0.9935241,-2.602609,0.31171912,-0.7309574,-0.18106213,0.5870403,0.37527922,-0.76948845,-2.152735,1.4194258,-0.5012845,0.073336735,0.9647216
0.0,-0.1,1.0,0.5235987755982988,0.5235987755982988,0,-0.094595544,-0.9470331,-2.8563168,0.27870405,0.04668409,-0.4846917,-0.21087608,0.2218197,-0.79948354,-2.0048094,1.2937596,0.7537487,0.13651896,1.1876717
0.0,-0.1,1.0,0.5235987755982988,0.5235987755982988,0,-0.03503598,-0.90075284,-3.069914,0.29367718,-0.12165919,0.11239803,0.0649823,0.36957416,-0.79095584,-1.7968324,1.3673815,0.23255672,0.15485418,1.0083762
0.0,-0.1,1.0,0.5235987755982988,0.5235987755982988,0,-0.22833826,-1.0743604,-2.773159,0.23570548,1.1023952,0.09561138,0.612059,0.32653347,-0.7171558,-2.1721127,1.1186628,-0.0076628136,0.2085852,1.1143197
0.0,-0.1,1.0,0.5235987755982988,0.5235987755982988,0,-0.058081243,-0.9853374,-2.8462377,0.36090654,-0.06724179,-0.21802874,0.28287163,0.28865567,-0.8219985,-2.0035408,1.0174522,0.94451827,0.20490354,1.4001926
0.0,-0.1,1.0,0.5235987755982988,0.5235987755982988,0,0.10416932,-0.9805591,-2.8034463,0.3632151,-0.35011858,-0.021707697,1.59159,0.28533655,-0.7584263,-2.1634886,1.3926275,0.5846072,0.15336986,0.9122167
0.0,-0.1,1.0,0.5235987755982988,0.5235987755982988,0,-0.09293627,-0.9166964,-2.5735054,0.30961022,-0.34835783,0.007453822,1.6036799,0.40836632,-0.7808062,-2.0714798,1.3592519,1.2983636,0.08637112,1.0496446
0.0,-0.1,1.0,0.5235987755982988,0.5235987755982988,0,0.10651486,-0.96800643,-1.1353772,0.26500523,-0.42643648,0.15469383,1.4268552,0.41077608,-0.7859187,-2.2995448,1.374654,0.9097055,0.08653336,1.1513875
0.0,-0.1,1.0,0.5235987755982988,0.5235987755982988,0,0.040873874,-0.94735247,-3.08456,0.19929257,0.50806874,-0.091212854,1.296532,0.48548263,-0.73601824,-2.2447486,1.0443627,1.399995,0.14579676,0.96893525
0.0,-0.1,1.0,0.5235987755982988,0.5235987755982988,0,-0.14821588,-0.9370084,-2.8096857,0.34619787,-0.76398724,-0.31620485,0.3795002,0.38298476,-0.7192808,-2.4618962,1.3415345,0.38207114,0.13190165,0.798827
0.0,-0.1,1.0,0.5235987755982988,0.5235987755982988,0,-0.05413989,-0.96384996,-2.6835055,0.3082113,0.10182811,-0.32838506,1.066638,0.49843368,-0.7399311,-2.2969882,1.2937871,0.7390249,0.26692137,1.0554367
0.0,-0.1,1.0,0.5235987755982988,0.5235987755982988,0,-0.11470902,-0.9698308,-1.5698411,0.26667005,-0.8289361,-0.023044989,0.9333364,0.32843786,-0.7458417,-2.4901147,1.3753855,1.6018981,0.11315899,1.1544672
0.0,-0.1,1.0,0.5235987755982988,0.5235987755982988,0,0.10793356,-0.9933689,-1.882246,0.26035613,-0.8672126,-0.1250445,0.6502176,0.4570019,-0.79649943,-2.2107344,1.3938719,0.59919393,0.02302321,0.7647982
0.0,-0.1,1.0,0.5235987755982988,0.5235987755982988,0,-0.01533152,-0.9700558,-2.785456,0.29314208,-0.12484939,0.028818369,1.1643775,0.44651404,-0.778626,-2.4855037,1.1916372,0.81892806,0.13538937,0.9711329
0.0,-0.1,1.0,0.5235987755982988,0.5235987755982988,0,0.050925538,-0.9563939,-2.043459,0.2644489,-0.092608914,0.15073146,1.3503159,0.39300513,-0.79429865,-2.436859,1.3459162,1.0724907,0.15040131,0.79167867
0.0,-0.1,1.0,0.5235987755982988,0.5235987755982988,0,-0.111827575,-0.91875213,-2.6330435,0.34159824,-0.37100264,0.2542093,0.9810774,0.41562045,-0.7401038,-2.0925698,1.2850423,0.9611707,0.2779428,1.0737184
0.0,-0.1,1.0,0.5235987755982988,0.5235987755982988,0,0.15954715,-1.0237844,-2.4072688,0.25012952,-0.11134731,0.06667806,0.46034867,0.29305348,-0.73944736,-2.1142457,1.4054501,0.8273401,0.19367456,1.0860248
0.0,-0.1,1.0,0.5235987755982988,0.5235987755982988,0,-0.08574826,-1.0096457,-2.6165707,0.20864856,-0.81842756,-0.019685054,-0.038943637,0.14882618,-0.7138737,-2.1345825,1.3415122,0.7435707,0.13487029,1.2096058
0.0,-0.1,1.0,0.5235987755982988,0.5235987755982988,0,0.06851721,-0.98215306,-3.092006,0.31710133,-0.39885288,-0.040544182,-0.06984502,0.25346515,-0.74209577,-2.2737806,1.1399819,0.42672533,0.25531283,1.140012
0.0,-0.1,1.0,0.5235987755982988,0.5235987755982988,0,0.10738847,-0.9820003,-2.5186071,0.362107,-0.36325797,-0.23133427,0.32777363,0.10328898,-0.7613252,-2.0736694,1.3749145,0.67173404,0.09638089,1.2632492
0.0,-0.1,1.0,0.5235987755982988,0.5235987755982988,0,-0.06256041,-0.86472857,-2.8938594,0.39093482,-0.4899463,-0.16595212,2.121971,0.10515536,-0.76020443,-1.9876645,1.0367228,0.10336972,0.23086885,1.0457336
0.0,-0.1,1.0,0.5235987755982988,0.5235987755982988,0,-0.055615235,-0.9736088,-1.9929622,0.22341277,-0.19361359,0.0916414,0.87424785,0.32209238,-0.743546,-2.1572497,1.3990079,0.40926507,-0.028401569,0.92496157
0.0,-0.1,1.0,0.5235987755982988,0.5235987755982988,0,-0.023808876,-0.89066386,-2.9639776,0.37460616,0.088188626,0.04961928,0.60104245,0.18006761,-0.7743379,-2.1795182,1.3367283,1.0549922,0.16405334,1.0211389
0.0,-0.1,1.0,0.5235987755982988,0.5235987755982988,0,-0.049610455,-0.9987163,-3.1187067,0.26894006,-0.73029464,-0.20489718,0.17368302,0.3168914,-0.75388235,-1.7047718,1.3510407,0.47740516,0.105348356,0.93150973
0.0,-0.1,1.0,0.5235987755982988,0.5235987755982988,0,-0.011400162,-0.90215176,-2.9099405,0.31326517,-0.8768696,-0.027744548,0.60646874,0.30756307,-0.7519262,-2.3695953,1.2704301,-0.2989899,0.272412,0.98050094
0.0,-0.1,1.0,0.5235987755982988,0.5235987755982988,0,-0.06381918,-0.9506168,-2.1365852,0.22894478,0.5327345,-0.2406957,0.611502,0.48797205,-0.81168383,-2.4205332,1.2721871,0.96486145,0.084594406,1.123828
0.0,-0.1,1.0,0.5235987755982988,0.5235987755982988,0,0.017294344,-0.882359,-2.9479501,0.3854746,0.57072526,0.13783227,-1.2841208,0.2910131,-0.77979046,-1.9467621,1.3392687,0.40688407,-0.032079354,1.1089612
0.0,-0.1,1.0,0.5235987755982988,0.5235987755982988,0,-0.050496217,-0.9970746,-2.3524106,0.35264176,0.40101194,0.090290606,0.601438,0.40149057,-0.74506277,-2.1283638,1.07208,0.6877873,0.15984164,1.1830971
0.0,-0.1,1.0,0.5235987755982988,0.5235987755982988,0,-0.10986517,-0.91041774,-2.7587538,0.30741528,-0.93316287,-0.17632954,1.2425047,0.4019046,-0.7445115,-2.1066346,1.2571306,0.64448315,0.102463745,1.060808
0.0,-0.1,1.0,0.5235987755982988,0.5235987755982988,0,-0.07063746,-1.0091336,-1.5412662,0.24002434,0.5624487,0.27263105,0.9538901,0.39021066,-0.8065605,-2.4293408,1.347548,0.53791696,0.18507884,1.0378526
0.0,-0.1,1.0,0.5235987755982988,0.5235987755982988,0,-0.039851356,-0.95064425,-2.3226986,0.21234429,-0.6153432,-0.06105869,0.5280931,0.45961818,-0.78821504,-2.1883094,1.3808783,0.63198024,0.1058217,1.1766783
0.0,-0.1,1.0,0.5235987755982988,0.5235987755982988,0,-0.03649373,-0.9595213,-2.933194,0.29249126,0.01039237,0.07525035,0.6542045,0.25187594,-0.83317345,-1.9734204,1.2795248,-0.13265297,0.1157005,0.87535834
0.0,-0.1,1.0,0.5235987755982988,0.5235987755982988,0,0.029038444,-0.9749232,-2.0678043,0.27814135,-0.41198462,-0.013131922,0.62405556,0.50072986,-0.79020053,-2.4131157,1.3295345,-0.15508702,0.16927665,0.9555977
0.0,-0.1,1.0,0.5235987755982988,0.5235987755982988,0,0.16800095,-0.94139683,-2.9833753,0.31655088,-0.06997978,-0.2353071,1.6398925,0.3825277,-0.7552265,-2.376663,1.1535796,1.171813,0.024010222,1.223682
0.0,-0.1,1.0,0.5235987755982988,0.5235987755982988,0,0.004759244,-0.8838986,-2.7210438,0.26975948,0.18821134,0.12679666,-0.6070029,0.46305656,-0.70208,-2.1200364,1.2566732,0.64570993,-0.098832265,1.1313365
0.0,-0.1,1.0,0.5235987755982988,0.5235987755982988,0,-0.049398474,-0.9341973,-2.4059324,0.3170167,-0.7922297,-0.07488054,1.5799042,0.27940112,-0.7308145,-2.149928,1.3511916,0.8630382,0.09424953,0.9307468
0.0,-0.1,1.0,0.5235987755982988,0.5235987755982988,0,0.10438756,-0.98275715,-2.4523308,0.270819,-0.6138068,-0.0800957,0.5896819,0.4677121,-0.7580671,-2.4210603,1.2161041,0.34268314,0.21370229,0.88254374
0.0,-0.1,1.0,0.5235987755982988,0.5235987755982988,0,0.0020267006,-0.9612988,-2.490602,0.21970326,-0.023025963,0.19444343,0.44179702,0.44625282,-0.83608174,-2.2885196,1.3305837,1.1548163,0.27255717,0.85152864
0.0,-0.1,1.0,0.5235987755982988,0.5235987755982988,0,-0.05912506,-1.1127177,-2.7713237,0.18072937,-0.11053896,-0.060997028,1.2114501,0.28927404,-0.7303405,-2.151091,0.90750635,0.55529016,0.13348612,1.0767155
0.0,-0.1,1.0,0.5235987755982988,0.5235987755982988,0,-0.06540729,-0.9702776,-2.1790705,0.17692488,-0.80122316,0.014289385,-0.7059498,0.42655277,-0.7763133,-2.151736,1.352717,0.47654188,0.018301314,1.1765832
0.0,-0.1,1.0,0.5235987755982988,0.5235987755982988,0,-0.098744296,-0.92309666,-2.809576,0.29945722,0.51784194,-0.33685496,1.8996038,0.2592502,-0.7420592,-2.1465251,1.1996806,0.7996294,0.16647051,1.1033498
0.0,-0.1,1.0,0.5235987755982988,0.5235987755982988,0,-0.047675516,-1.0097203,-1.9074459,0.33785596,0.6780117,0.21817502,0.76546997,0.31668508,-0.76162785,-2.4160655,1.3550996,0.42519942,0.050069943,1.0245386
0.0,-0.1,1.0,0.5235987755982988,0.5235987755982988,0,0.08460587,-1.0189445,-2.2060876,0.26171315,-0.37238115,0.111051105,0.5462528,0.2967202,-0.7728632,-2.1232197,1.3182416,0.6124329,0.0017023616,1.1376306
0.0,-0.1,1.0,0.5235987755982988,0.5235987755982988,0,-0.10020359,-1.0089588,-2.2183938,0.2951325,-0.53928816,0.03150819,1.3927525,0.15417479,-0.7207297,-2.211775,1.092873,0.4886725,0.2200844,0.97118944
0.0,-0.1,1.0,0.5235987755982988,0.5235987755982988,0,0.08456857,-0.9651649,-2.6538513,0.24277939,-1.4256613,-0.14098753,0.33705834,0.44216767,-0.72124076,-2.3673735,1.2397815,0.384334,0.20891948,0.86265856
0.0,-0.1,1.0,0.5235987755982988,0.5235987755982988,0,-0.04523528,-0.92005,-2.798239,0.3168883,-0.105186276,0.30357844,1.1774362,0.23650287,-0.77231055,-2.1881056,1.193529,0.70272636,0.0008771381,1.2304872
0.0,-0.1,1.0,0.5235987755982988,0.5235987755982988,0,-0.1587074,-0.88582414,-2.211429,0.29935345,0.38829666,-0.29213423,0.7642906,0.47925583,-0.6895869,-2.5379932,1.2003262,0.4206198,0.17737845,0.7825951
0.0,-0.1,1.0,0.5235987755982988,0.5235987755982988,0,0.043645214,-1.0109464,-2.002754,0.31299588,0.3434915,0.05788963,0.4062403,0.36921895,-0.7410238,-2.2617548,1.3636032,0.63223785,0.13804443,1.0617503
0.0,-0.1,1.0,0.5235987755982988,0.5235987755982988,0,-0.034625348,-1.0103184,-1.9040054,0.361373,0.256086,0.068116456,0.75284535,0.37992755,-0.73750997,-2.3499022,1.3540643,0.95431554,0.07913998,1.1000785
0.0,-0.1,1.0,0.5235987755982988,0.5235987755982988,0,0.056137268,-1.0344727,-2.747539,0.26506284,0.23702951,0.19798647,-0.22557606,0.18448904,-0.7559609,-2.1447933,1.1475646,0.53402346,0.0701162,1.1479036
0.0,-0.1,1.0,0.5235987755982988,0.5235987755982988,0,0.16785838,-0.9417774,-2.9880068,0.33873513,-0.18056175,-0.111736044,1.0083874,0.3778185,-0.767663,-2.1132553,1.1971427,0.41682044,0.11419083,1.1226338
0.0,-0.1,1.0,0.5235987755982988,0.5235987755982988,0,-0.037767258,-0.8708527,-2.4524808,0.2796833,0.37324575,0.086525664,2.0048685,0.22150594,-0.7248619,-2.2218008,1.1094372,0.2668804,0.10800773,0.980111
0.0,-0.1,1.0,0.5235987755982988,0.5235987755982988,0,-0.032387413,-1.0663787,-2.1719165,0.3012709,0.10506344,0.24142253,1.0972476,0.27922225,-0.7299594,-2.000092,1.2233136,0.71329784,0.14756529,0.9966036
0.0,-0.1,1.0,0.5235987755982988,0.5235987755982988,0,0.050747395,-1.01252,-2.2802513,0.26035368,0.61931854,0.14179201,0.2802998,0.36141255,-0.73086005,-2.3072252,1.2679497,0.12139737,0.09214917,1.1332527
0.0,-0.1,1.0,0.5235987755982988,0.5235987755982988,0,0.0064750575,-1.1102569,-2.2038512,0.28278553,0.18201281,-0.045639563,0.46202594,0.21395518,-0.71135575,-1.8432738,1.204067,1.1671323,0.109868445,1.2542514
0.0,-0.1,1.0,0.5235987755982988,0.5235987755982988,0,-0.05786719,-0.9719457,-2.8012197,0.27020258,0.3901731,-0.057632275,1.2964016,0.11111679,-0.7265821,-1.7296776,1.3023889,-0.20949961,0.13276108,0.7398948
0.0,-0.1,1.0,0.5235987755982988,0.5235987755982988,0,-0.086560324,-0.9401637,-2.8994844,0.23788412,0.37729892,-0.106429905,0.2785399,0.091196895,-0.7162988,-1.70586,1.4087621,0.60289663,-0.10843107,1.0887594
0.0,-0.1,1.0,0.5235987755982988,0.5235987755982988,0,0.054532524,-0.8965707,-3.053354,0.30452478,-0.33521897,0.10188887,-0.44599053,0.20097014,-0.76412797,-2.020179,1.3701204,1.1562505,-0.0160842,0.96492475
0.0,-0.1,1.0,0.5235987755982988,0.5235987755982988,0,-0.08696601,-1.0363592,-2.5992665,0.1917902,0.95107424,0.24628305,1.4712764,0.23997392,-0.80214393,-2.3417187,1.3473864,1.3727794,0.2363459,1.1515633
0.0,-0.1,1.0,0.5235987755982988,0.5235987755982988,0,-0.17297442,-0.92637545,-2.9764397,0.23757751,0.41884148,0.068563096,1.6322043,0.33267403,-0.7887283,-2.4475172,1.3436626,1.108816,0.09519774,1.0371027
0.0,-0.1,1.0,0.5235987755982988,0.5235987755982988,0,0.04365131,-0.9404575,-3.1233552,0.34143722,-1.3453603,-0.14298457,-0.23732254,0.17509933,-0.745277,-1.9314432,1.2587677,0.41307223,0.16526611,1.0705307
0.0,-0.1,1.0,0.5235987755982988,0.5235987755982988,0,0.0017776785,-0.99087876,-2.9212492,0.34651393,0.93787163,0.010734515,0.1425565,0.20613444,-0.7242979,-1.9141512,0.7658073,0.6434749,0.06971282,0.87180907
0.0,-0.1,1.0,0.5235987755982988,0.5235987755982988,0,-0.16950211,-0.9837762,-3.0777125,0.21298492,0.52860606,-0.23558949,0.58134073,0.3460923,-0.75241345,-2.014701,1.1522719,1.1613135,0.12767094,0.9018007
0.0,-0.1,1.0,0.5235987755982988,0.5235987755982988,0,-0.11978344,-0.95121413,-2.9547694,0.2919008,-0.9474791,0.08150967,0.6049102,0.4393785,-0.7211827,-2.2452424,1.2593777,0.99298114,0.15531266,0.77622753
0.0,-0.1,1.0,0.5235987755982988,0.5235987755982988,0,-0.122770496,-0.8215416,-2.971444,0.39874312,0.413947,0.017524946,-0.8041926,0.24802983,-0.7595948,-2.1635597,1.3201095,0.8230355,0.17832483,0.98948365
0.0,-0.1,1.0,0.5235987755982988,0.5235987755982988,0,-0.17391762,-0.9518546,-2.7148652,0.3125996,-0.03629826,-0.17740692,0.6958872,0.15360281,-0.75037813,-2.1168969,1.3317745,0.23124777,0.11194286,1.0595752
0.0,-0.1,1.0,0.5235987755982988,0.5235987755982988,0,-0.22406402,-1.0102671,-2.6002128,0.2855062,-0.18728602,0.28475955,0.75504845,0.24535137,-0.73361075,-2.2331553,1.0698496,0.61962944,0.09552405,1.0687321
0.0,-0.1,1.0,0.5235987755982988,0.5235987755982988,0,-0.045292936,-0.89025605,-2.9459045,0.3409497,-0.5261626,-0.021035768,1.8976175,0.3731318,-0.78195775,-2.0313935,0.87869567,0.61859435,0.07688,1.0404056
0.0,-0.1,1.0,0.5235987755982988,0.5235987755982988,0,-0.00568097,-0.9637826,-3.057554,0.19941463,-0.015940964,-0.001847629,1.0931319,0.05526183,-0.7497633,-1.8843464,1.2411593,0.24010064,0.17241612,1.0226576
0.0,-0.1,1.0,0.5235987755982988,0.5235987755982988,0,0.046609066,-0.9826372,-2.911383,0.3138072,-1.1591599,-0.02890937,1.588937,0.4094244,-0.7758636,-2.4699814,1.3056061,0.1843045,0.15469506,1.132184
0.0,-0.1,1.0,0.5235987755982988,0.5235987755982988,0,-0.13789433,-1.0431823,-2.7467654,0.30007157,0.11520647,0.05359424,0.83732015,0.21217956,-0.70917094,-1.9013392,1.0425855,0.23622745,0.31687036,0.97559774
0.0,-0.1,1.0,0.5235987755982988,0.5235987755982988,0,-0.1819671,-0.8733105,-2.9600508,0.3433043,0.7712735,-0.15876143,0.52104783,0.3333233,-0.71992004,-2.112645,1.3777002,0.43553782,0.22884956,0.8132701
0.0,-0.1,1.0,0.5235987755982988,0.5235987755982988,0,-0.14463046,-1.0732125,-2.9247303,0.23416889,0.049592946,-0.049828544,1.6714679,0.28056163,-0.8276014,-2.3364823,1.3481207,0.72322536,-0.030922173,1.1185604
0.0,-0.1,1.0,0.5235987755982988,0.5235987755982988,0,-0.023299487,-0.97862357,-3.0321941,0.29056635,-0.80319905,-0.0017042769,1.7856578,0.22963579,-0.74685323,-2.1290607,1.207284,1.0642525,0.13651772,0.9394432
0.0,-0.1,1.0,0.5235987755982988,0.5235987755982988,0,-0.15064327,-0.9825645,-2.9713178,0.24988893,-0.40340692,-0.0011060975,0.6459477,0.40490073,-0.7828389,-2.1539054,1.2979082,1.2948514,0.089741915,0.77310216
0.0,-0.1,1.0,0.5235987755982988,0.5235987755982988,0,0.02828988,-0.9633245,-2.9311025,0.33049056,-0.7357177,0.073024265,1.5656368,0.31089252,-0.7566711,-1.8203093,1.3772445,0.12640104,0.090217546,1.1482533
0.0,-0.1,1.0,0.5235987755982988,0.5235987755982988,0,-0.03317283,-0.9931465,-3.1127138,0.26278284,0.39687434,-0.043718733,0.8112758,0.22815518,-0.7270789,-2.1232197,0.9745915,0.44210032,0.19055414,1.0163592
0.0,-0.1,1.0,0.5235987755982988,0.5235987755982988,0,-0.16754544,-0.88849556,-3.041318,0.30045858,0.3458348,-0.11106054,0.7663232,0.14587007,-0.7552223,-2.100128,1.369553,0.21846794,0.21838875,1.1606208
0.0,-0.1,1.0,0.5235987755982988,0.5235987755982988,0,-0.16856608,-1.0700672,-2.7418892,0.20185284,0.5888424,-0.19941519,0.026067723,0.26809174,-0.7788588,-2.1454678,1.4000319,0.17314391,-0.02349181,0.9343329
0.0,-0.1,1.0,0.5235987755982988,0.5235987755982988,0,-0.059060413,-0.94649124,-2.9880564,0.32425523,0.80989647,0.18517686,0.8030356,0.13124064,-0.8002834,-2.200705,1.3204287,-0.32041892,0.25005734,0.9349807
0.0,-0.1,1.0,0.5235987755982988,0.5235987755982988,0,0.03185923,-1.0892987,-2.8754575,0.25786266,0.35694402,-0.1731476,0.8019687,0.25458574,-0.7109054,-2.0573542,1.2773862,0.24099852,0.14402652,1.0283076
0.0,-0.1,1.0,0.5235987755982988,0.5235987755982988,0,-0.06954721,-0.92437994,-3.0589728,0.30347452,-0.061523892,-0.024913915,1.0192432,0.07086415,-0.7566494,-2.0189872,1.187019,0.33296877,0.07148384,0.8555929
0.0,-0.1,1.0,0.5235987755982988,0.5235987755982988,0,-0.0601039,-0.8838819,-3.1053433,0.31498808,0.23918974,-0.29050744,0.7509803,0.17280154,-0.7557763,-2.2729802,1.2815692,-0.08254677,0.17533988,0.99942476
0.0,-0.1,1.0,0.5235987755982988,0.5235987755982988,0,0.1594359,-1.0193852,0.03315985,0.38557687,-0.7065065,-0.26485822,1.1604366,0.26952332,-0.80577195,-1.4986027,0.2556891,-0.44465303,0.18689945,1.1690917
0.0,-0.1,1.0,0.5235987755982988,0.5235987755982988,0,0.1594359,-1.0193852,0.03315985,0.38557687,-0.7065065,-0.26485822,1.1604366,0.26952332,-0.80577195,-1.4986027,0.2556891,-0.44465303,0.18689945,1.1690917
0.0,-0.1,1.0,0.5235987755982988,0.5235987755982988,0,0.1594359,-1.0193852,0.03315985,0.38557687,-0.7065065,-0.26485822,1.1604366,0.26952332,-0.80577195,-1.4986027,0.2556891,-0.44465303,0.18689945,1.1690917
0.0,-0.1,1.0,0.5235987755982988,0.5235987755982988,0,0.1594359,-1.0193852,0.03315985,0.38557687,-0.7065065,-0.26485822,1.1604366,0.26952332,-0.80577195,-1.4986027,0.2556891,-0.44465303,0.18689945,1.1690917
0.0,-0.1,1.0,0.5235987755982988,0.5235987755982988,0,0.1594359,-1.0193852,0.03315985,0.38557687,-0.7065065,-0.26485822,1.1604366,0.26952332,-0.80577195,-1.4986027,0.2556891,-0.44465303,0.18689945,1.1690917
0.0,-0.1,1.0,0.5235987755982988,0.5235987755982988,0,0.1594359,-1.0193852,0.03315985,0.38557687,-0.7065065,-0.26485822,1.1604366,0.26952332,-0.80577195,-1.4986027,0.2556891,-0.44465303,0.18689945,1.1690917
0.0,-0.1,1.0,0.5235987755982988,0.5235987755982988,0,-0.008083747,-0.9570148,-3.0307174,0.26332253,-0.13058542,-0.04241766,1.1776692,0.24187788,-0.76654214,-1.7692962,1.3190893,1.0127766,0.12773474,1.1415184
0.0,-0.1,1.0,0.5235987755982988,0.5235987755982988,0,-0.008083747,-0.9570148,-3.0307174,0.26332253,-0.13058542,-0.04241766,1.1776692,0.24187788,-0.76654214,-1.7692962,1.3190893,1.0127766,0.12773474,1.1415184
0.0,-0.1,1.0,0.5235987755982988,0.5235987755982988,0,-0.008083747,-0.9570148,-3.0307174,0.26332253,-0.13058542,-0.04241766,1.1776692,0.24187788,-0.76654214,-1.7692962,1.3190893,1.0127766,0.12773474,1.1415184
0.0,-0.1,1.0,0.5235987755982988,0.5235987755982988,0,-0.008083747,-0.9570148,-3.0307174,0.26332253,-0.13058542,-0.04241766,1.1776692,0.24187788,-0.76654214,-1.7692962,1.3190893,1.0127766,0.12773474,1.1415184
0.0,-0.1,1.0,0.5235987755982988,0.5235987755982988,0,-0.008083747,-0.9570148,-3.0307174,0.26332253,-0.13058542,-0.04241766,1.1776692,0.24187788,-0.76654214,-1.7692962,1.3190893,1.0127766,0.12773474,1.1415184
0.0,-0.1,1.0,0.5235987755982988,0.5235987755982988,0,-0.008083747,-0.9570148,-3.0307174,0.26332253,-0.13058542,-0.04241766,1.1776692,0.24187788,-0.76654214,-1.7692962,1.3190893,1.0127766,0.12773474,1.1415184
0.0,-0.1,1.0,0.5235987755982988,0.5235987755982988,0,-0.008083747,-0.9570148,-3.0307174,0.26332253,-0.13058542,-0.04241766,1.1776692,0.24187788,-0.76654214,-1.7692962,1.3190893,1.0127766,0.12773474,1.1415184
0.0,-0.1,1.0,0.5235987755982988,0.5235987755982988,0,-0.008083747,-0.9570148,-3.0307174,0.26332253,-0.13058542,-0.04241766,1.1776692,0.24187788,-0.76654214,-1.7692962,1.3190893,1.0127766,0.12773474,1.1415184
0.0,-0.1,1.0,0.5235987755982988,0.5235987755982988,0,0.024827214,-1.0135623,-3.0694659,0.23227328,-0.01858386,-0.17719406,1.1330805,0.19255209,-0.7574945,-2.1496758,1.2219075,0.38441378,0.15056421,0.85035104
0.0,-0.1,1.0,0.5235987755982988,0.5235987755982988,0,0.024827214,-1.0135623,-3.0694659,0.23227328,-0.01858386,-0.17719406,1.1330805,0.19255209,-0.7574945,-2.1496758,1.2219075,0.38441378,0.15056421,0.85035104
0.0,-0.1,1.0,0.5235987755982988,0.5235987755982988,0,0.024827214,-1.0135623,-3.0694659,0.23227328,-0.01858386,-0.17719406,1.1330805,0.19255209,-0.7574945,-2.1496758,1.2219075,0.38441378,0.15056421,0.85035104
0.0,-0.1,1.0,0.5235987755982988,0.5235987755982988,0,0.024827214,-1.0135623,-3.0694659,0.23227328,-0.01858386,-0.17719406,1.1330805,0.19255209,-0.7574945,-2.1496758,1.2219075,0.38441378,0.15056421,0.85035104
0.0,-0.1,1.0,0.5235987755982988,0.5235987755982988,0,0.024827214,-1.0135623,-3.0694659,0.23227328,-0.01858386,-0.17719406,1.1330805,0.19255209,-0.7574945,-2.1496758,1.2219075,0.38441378,0.15056421,0.85035104
0.0,-0.1,1.0,0.5235987755982988,0.5235987755982988,0,0.024827214,-1.0135623,-3.0694659,0.23227328,-0.01858386,-0.17719406,1.1330805,0.19255209,-0.7574945,-2.1496758,1.2219075,0.38441378,0.15056421,0.85035104
0.0,-0.1,1.0,0.5235987755982988,0.5235987755982988,0,0.024827214,-1.0135623,-3.0694659,0.23227328,-0.01858386,-0.17719406,1.1330805,0.19255209,-0.7574945,-2.1496758,1.2219075,0.38441378,0.15056421,0.85035104
0.0,-0.1,1.0,0.5235987755982988,0.5235987755982988,0,0.024827214,-1.0135623,-3.0694659,0.23227328,-0.01858386,-0.17719406,1.1330805,0.19255209,-0.7574945,-2.1496758,1.2219075,0.38441378,0.15056421,0.85035104
0.0,-0.1,1.0,0.5235987755982988,0.5235987755982988,0,-0.024865542,-1.0091541,-3.12596,0.20709603,-0.87604886,0.20537819,-0.2979603,0.313363,-0.782318,-2.0593553,1.4135494,0.62390375,-0.048948884,0.93976146
0.0,-0.1,1.0,0.5235987755982988,0.5235987755982988,0,-0.024865542,-1.0091541,-3.12596,0.20709603,-0.87604886,0.20537819,-0.2979603,0.313363,-0.782318,-2.0593553,1.4135494,0.62390375,-0.048948884,0.93976146
0.0,-0.1,1.0,0.5235987755982988,0.5235987755982988,0,-0.024865542,-1.0091541,-3.12596,0.20709603,-0.87604886,0.20537819,-0.2979603,0.313363,-0.782318,-2.0593553,1.4135494,0.62390375,-0.048948884,0.93976146
0.0,-0.1,1.0,0.5235987755982988,0.5235987755982988,0,-0.024865542,-1.0091541,-3.12596,0.20709603,-0.87604886,0.20537819,-0.2979603,0.313363,-0.782318,-2.0593553,1.4135494,0.62390375,-0.048948884,0.93976146
0.0,-0.1,1.0,0.5235987755982988,0.5235987755982988,0,-0.024865542,-1.0091541,-3.12596,0.20709603,-0.87604886,0.20537819,-0.2979603,0.313363,-0.782318,-2.0593553,1.4135494,0.62390375,-0.048948884,0.93976146
0.0,-0.1,1.0,0.5235987755982988,0.5235987755982988,0,-0.024865542,-1.0091541,-3.12596,0.20709603,-0.87604886,0.20537819,-0.2979603,0.313363,-0.782318,-2.0593553,1.4135494,0.62390375,-0.048948884,0.93976146
0.0,-0.1,1.0,0.5235987755982988,0.5235987755982988,0,-0.024865542,-1.0091541,-3.12596,0.20709603,-0.87604886,0.20537819,-0.2979603,0.313363,-0.782318,-2.0593553,1.4135494,0.62390375,-0.048948884,0.93976146
0.0,-0.1,1.0,0.5235987755982988,0.5235987755982988,0,-0.024865542,-1.0091541,-3.12596,0.20709603,-0.87604886,0.20537819,-0.2979603,0.313363,-0.782318,-2.0593553,1.4135494,0.62390375,-0.048948884,0.93976146
0.0,-0.1,1.0,0.5235987755982988,0.5235987755982988,0,-0.0995099,-0.8686643,-3.0634255,0.2937703,0.193348,-0.051940013,1.6234497,0.20463984,-0.78333336,-2.0422273,1.335755,0.6563919,0.109221816,0.9058668
0.0,-0.1,1.0,0.5235987755982988,0.5235987755982988,0,-0.0995099,-0.8686643,-3.0634255,0.2937703,0.193348,-0.051940013,1.6234497,0.20463984,-0.78333336,-2.0422273,1.335755,0.6563919,0.109221816,0.9058668
