sanky1234/BimanualDexCatch/isaacgymenvs/cem_results/May31/football_pose_0.0_0.1_1.2999999999999998_0.0_0.0_0_2025-05-31.csv
x,y,z,roll,pitch,yaw,robot1/joint1,robot1/joint2,robot1/joint3,robot1/joint4,robot1/joint5,robot1/joint6,robot1/joint7,robot2/joint1,robot2/joint2,robot2/joint3,robot2/joint4,robot2/joint5,robot2/joint6,robot2/joint7
0.0,0.1,1.2999999999999998,0.0,0.0,0,-0.14482522,-0.60437465,-0.6496816,-0.95498455,-0.95821047,0.61586785,-0.35270596,-0.8272856,-1.6116232,-0.8334722,-0.35293275,-0.44666874,1.268455,-1.0538427
0.0,0.1,1.2999999999999998,0.0,0.0,0,-0.06034443,-0.610232,-0.6688672,-0.9028149,0.8442818,0.23254508,0.39282373,-0.8553135,-1.6753218,-0.7774932,-0.35440534,-0.49193645,1.3317615,-1.3787878
0.0,0.1,1.2999999999999998,0.0,0.0,0,-0.0270626,-0.71342564,-0.67791605,-0.90736884,0.041865643,0.17610057,0.019980444,-0.8467677,-1.4813234,-0.80994636,-0.44060466,-0.4779113,1.2638428,-1.2000772
0.0,0.1,1.2999999999999998,0.0,0.0,0,-0.26212645,-0.6733476,-0.5762612,-0.79343563,1.1893662,0.3167705,-0.90195304,-0.8428188,-1.4657044,-0.90524,-0.4252171,-0.46036056,1.2523277,-1.2033927
0.0,0.1,1.2999999999999998,0.0,0.0,0,-0.11383552,-0.6318983,-0.434123,-0.90853167,0.47345242,0.28724247,-0.24376118,-0.85385084,-1.6638561,-0.83352697,-0.34322366,-0.4064576,1.2319384,-1.4813888
0.0,0.1,1.2999999999999998,0.0,0.0,0,-0.0559277,-0.806602,-0.66926575,-0.81962705,1.1779128,-0.17485388,0.3082351,-0.8536832,-1.558166,-0.69502705,-0.36363855,-0.5167071,1.2736748,-1.2225809
0.0,0.1,1.2999999999999998,0.0,0.0,0,-0.14883485,-0.69546854,-0.6122924,-0.9875675,-0.31343248,-0.29171368,0.077055894,-0.8419544,-1.5329694,-0.8081855,-0.35768205,-0.42054164,1.305473,-1.2242849
0.0,0.1,1.2999999999999998,0.0,0.0,0,-0.16095696,-0.73183936,-0.5951007,-0.7750754,0.85943884,0.70647323,-1.4214925,-0.84337515,-1.5019071,-0.8213415,-0.43569845,-0.42382807,1.2704699,-1.5850233
0.0,0.1,1.2999999999999998,0.0,0.0,0,-0.10500661,-0.7431984,-0.589804,-0.9077259,-0.1509437,0.881628,-0.88862395,-0.86302054,-1.6110563,-0.6951141,-0.40366894,-0.47476113,1.2585263,-1.2883445
0.0,0.1,1.2999999999999998,0.0,0.0,0,-0.015686026,-0.60297376,-0.6909811,-0.96054953,0.61363477,-0.021740623,-0.17542008,-0.8388262,-1.6729187,-0.7756863,-0.3252198,-0.52268696,1.2831874,-1.4102802
0.0,0.1,1.2999999999999998,0.0,0.0,0,-0.19691408,-0.69874394,-0.82054794,-0.80187,0.99090606,0.86349756,-0.6678109,-0.83815074,-1.6659237,-0.64804006,-0.3544368,-0.51048565,1.2674991,-1.027379
0.0,0.1,1.2999999999999998,0.0,0.0,0,0.0027928154,-0.7939621,-0.5351996,-0.9679784,1.4992443,-0.13269049,-1.1993954,-0.8461563,-1.6424446,-0.7034144,-0.33005315,-0.41124016,1.281388,-1.1872355
0.0,0.1,1.2999999999999998,0.0,0.0,0,-0.22643195,-0.7341381,-0.53756875,-0.8779468,-1.1816,0.4194323,-0.4338347,-0.84232426,-1.5804987,-0.76089674,-0.4363328,-0.4016336,1.2557551,-1.4530575
0.0,0.1,1.2999999999999998,0.0,0.0,0,-0.06706662,-0.70515704,-0.571702,-1.0857062,1.1202078,-0.39507425,-0.6110209,-0.84476966,-1.6238152,-0.71275634,-0.34312257,-0.41221958,1.2668099,-1.0809052
0.0,0.1,1.2999999999999998,0.0,0.0,0,-0.093608156,-0.7100757,-0.7897986,-0.83666325,0.055147056,-0.10541387,-0.6599208,-0.85563713,-1.5530486,-0.77643144,-0.32016063,-0.41722593,1.3246677,-1.4216248
0.0,0.1,1.2999999999999998,0.0,0.0,0,-0.21523753,-0.71712065,-0.8087574,-1.0239136,0.0600387,0.46578887,-0.30241045,-0.85579073,-1.5493305,-0.75249773,-0.3793502,-0.43123093,1.2633474,-1.3838841
0.0,0.1,1.2999999999999998,0.0,0.0,0,-0.18041734,-0.65765184,-0.52674484,-0.777631,0.9166014,-0.06552207,-0.7355691,-0.8388768,-1.6352235,-0.81089026,-0.3842369,-0.42889825,1.2682089,-1.1420268
0.0,0.1,1.2999999999999998,0.0,0.0,0,-0.2053065,-0.70080125,-0.76399344,-0.94293547,1.1742489,0.55625975,-0.49381694,-0.8364832,-1.6505097,-0.656627,-0.3821929,-0.49360946,1.3017272,-1.0472162
0.0,0.1,1.2999999999999998,0.0,0.0,0,-0.07576085,-0.68825626,-0.55777967,-0.77192014,0.109864645,0.557494,-1.0964848,-0.8446058,-1.5812279,-0.7622681,-0.4717713,-0.5002673,1.3237839,-1.0842936
0.0,0.1,1.2999999999999998,0.0,0.0,0,-0.10137338,-0.76246506,-0.44827393,-1.042962,-0.93283224,0.18460196,-1.5553304,-0.83616775,-1.5245701,-0.7372189,-0.34233856,-0.5657888,1.2443337,-1.3543919
0.0,0.1,1.2999999999999998,0.0,0.0,0,0.051779166,-0.7349986,-0.3287985,-0.7788264,-0.0017216287,0.3210484,-0.763453,-0.8530942,-1.6487037,-0.7867495,-0.38297972,-0.47424957,1.2591141,-1.2437303
0.0,0.1,1.2999999999999998,0.0,0.0,0,-0.13019556,-0.73982656,-0.6095365,-0.91352504,0.4586036,-0.109065846,-0.71242833,-0.8233104,-1.611022,-0.662284,-0.40132204,-0.4736893,1.2949492,-1.0270164
0.0,0.1,1.2999999999999998,0.0,0.0,0,-0.10435988,-0.7532464,-0.4917338,-0.8036278,-0.74137646,-0.0789877,0.070821345,-0.83096045,-1.612197,-0.74233794,-0.3847313,-0.459248,1.2624394,-1.2385948
0.0,0.1,1.2999999999999998,0.0,0.0,0,-0.2898612,-0.7819369,-0.4941004,-0.89608157,0.36574632,-0.0101566445,-0.5825945,-0.810021,-1.5595441,-0.7204191,-0.3721366,-0.4850245,1.3029399,-1.4555721
0.0,0.1,1.2999999999999998,0.0,0.0,0,-0.12494252,-0.7639569,-0.2689183,-0.9865501,-0.2338842,0.6922764,-0.8946282,-0.8312225,-1.6625508,-0.65099025,-0.34922385,-0.5071843,1.2841302,-1.278521
0.0,0.1,1.2999999999999998,0.0,0.0,0,-0.22440486,-0.6885874,-0.45927855,-0.97401506,-0.612203,0.030016012,-0.27989343,-0.8608665,-1.4829509,-0.8326988,-0.42337957,-0.52239776,1.2693546,-1.3907963
0.0,0.1,1.2999999999999998,0.0,0.0,0,-0.031163154,-0.6937472,-0.54956263,-0.83970714,1.1632887,0.18368074,0.25848782,-0.837853,-1.5263182,-0.8710502,-0.39660808,-0.4240041,1.3285502,-0.86037374
0.0,0.1,1.2999999999999998,0.0,0.0,0,-0.11631082,-0.65157676,-0.5523,-0.9102089,0.80561215,0.4318227,0.16427387,-0.8435212,-1.6174649,-0.8278426,-0.4202159,-0.38014475,1.2095946,-1.4358647
0.0,0.1,1.2999999999999998,0.0,0.0,0,-0.052135553,-0.6387773,-0.61436075,-0.8371591,0.48125643,0.31213704,0.4235512,-0.85743713,-1.6301821,-0.74265414,-0.3802572,-0.53279424,1.2700219,-1.1350911
0.0,0.1,1.2999999999999998,0.0,0.0,0,-0.025350938,-0.6884551,-0.44662192,-0.8774975,0.6227829,0.17494848,-1.1010644,-0.8293767,-1.5566806,-0.8248966,-0.44661477,-0.46778303,1.3660179,-1.630851
0.0,0.1,1.2999999999999998,0.0,0.0,0,0.036873028,-0.80066496,-0.49874163,-0.9450253,-0.31671178,-0.1795,-0.15387876,-0.84012,-1.6285441,-0.65889543,-0.3574829,-0.49316716,1.328655,-1.0669951
0.0,0.1,1.2999999999999998,0.0,0.0,0,-0.23412389,-0.7769283,-0.5258437,-0.83202624,1.588955,0.469268,-1.1145798,-0.84931195,-1.6574384,-0.667638,-0.32018042,-0.4727183,1.2942071,-1.2691795
0.0,0.1,1.2999999999999998,0.0,0.0,0,-0.07779273,-0.68559057,-0.33789462,-0.86589164,-0.5213004,-0.197157,-0.92438763,-0.8323435,-1.6571338,-0.7701995,-0.35156783,-0.50128716,1.2812663,-1.2807733
0.0,0.1,1.2999999999999998,0.0,0.0,0,-0.06695328,-0.7433343,-0.596344,-1.0003058,-0.15998505,0.32616624,-0.95525646,-0.851817,-1.58574,-0.7339182,-0.34495628,-0.47323686,1.2957894,-1.1825961
0.0,0.1,1.2999999999999998,0.0,0.0,0,-0.16632141,-0.66362727,-0.59699315,-0.8725807,-0.22489767,0.18178903,-0.5894476,-0.85310674,-1.6319522,-0.7143442,-0.3964732,-0.5420084,1.2856821,-1.3026359
0.0,0.1,1.2999999999999998,0.0,0.0,0,-0.086385176,-0.799298,-0.49355313,-0.8218499,1.1771718,0.7013091,-0.9245665,-0.8604983,-1.6023167,-0.7261505,-0.3529518,-0.42594382,1.2845203,-1.2407824
0.0,0.1,1.2999999999999998,0.0,0.0,0,-0.18263705,-0.7067249,-0.3838047,-0.9476812,1.1616282,0.12551878,-0.79753083,-0.8699378,-1.5412987,-0.8099294,-0.3787051,-0.47562456,1.3165867,-1.386503
0.0,0.1,1.2999999999999998,0.0,0.0,0,-0.12867768,-0.65577924,-0.44719467,-0.9494645,0.9469268,-0.14052548,0.16547613,-0.8309136,-1.6578159,-0.7399228,-0.36884663,-0.51120085,1.2699554,-0.8859987
0.0,0.1,1.2999999999999998,0.0,0.0,0,-0.18538062,-0.7321616,-0.6247138,-0.8577825,0.4660291,0.13685384,-1.2676215,-0.837893,-1.621945,-0.74788123,-0.32036668,-0.40889853,1.265402,-1.2292987
0.0,0.1,1.2999999999999998,0.0,0.0,0,-0.023718158,-0.67405444,-0.47594613,-0.9819299,-0.74907994,0.5251957,-0.48488885,-0.85105157,-1.6678776,-0.7091736,-0.3437502,-0.56566125,1.2875437,-1.2055981
0.0,0.1,1.2999999999999998,0.0,0.0,0,-0.07514092,-0.78115225,-0.56682783,-0.81894696,0.8892738,-0.40496778,-0.6658701,-0.84084105,-1.5775676,-0.7146669,-0.38438183,-0.5019567,1.2734702,-1.5391004
0.0,0.1,1.2999999999999998,0.0,0.0,0,-0.08018812,-0.76703006,-0.759977,-0.7366142,0.9033918,0.5788563,0.04500691,-0.8525636,-1.4269539,-0.86146295,-0.39501897,-0.4082007,1.3205296,-0.7404115
0.0,0.1,1.2999999999999998,0.0,0.0,0,-0.12208129,-0.6585874,-0.36373022,-0.9132637,0.4735917,0.081558205,-0.38224828,-0.8348949,-1.448728,-0.9187495,-0.4419259,-0.46174702,1.2754736,-1.0424043
0.0,0.1,1.2999999999999998,0.0,0.0,0,-0.060841914,-0.73105377,-0.63302964,-0.93240976,-0.65884477,-0.058783688,0.112672746,-0.8330421,-1.4389731,-0.8836447,-0.38531482,-0.4206304,1.3033013,-1.2361182
0.0,0.1,1.2999999999999998,0.0,0.0,0,-0.1699497,-0.69152534,-0.47899914,-0.94978416,1.1267414,0.5100994,-0.84253794,-0.83213997,-1.6781262,-0.6674076,-0.41476843,-0.48637363,1.3045487,-1.2577599
0.0,0.1,1.2999999999999998,0.0,0.0,0,-0.17692436,-0.66392165,-0.4694843,-0.9696301,0.7231785,-0.1788837,-0.3990349,-0.8412047,-1.6254987,-0.745435,-0.36750522,-0.5344854,1.2747144,-1.6182398
0.0,0.1,1.2999999999999998,0.0,0.0,0,-0.14205752,-0.63405,-0.5434707,-0.94034404,1.2303345,0.47260696,0.2830431,-0.8486048,-1.6832657,-0.76061285,-0.32543167,-0.4435533,1.3254446,-0.9340039
0.0,0.1,1.2999999999999998,0.0,0.0,0,-0.124319874,-0.76155555,-0.43459398,-0.75627244,0.65892893,-0.465746,-0.843417,-0.85490817,-1.6579354,-0.6924158,-0.39917353,-0.4303993,1.3745182,-1.4713191
0.0,0.1,1.2999999999999998,0.0,0.0,0,-0.10273723,-0.7401241,-0.53448033,-0.945738,0.68844,0.2960288,-0.10090713,-0.84405565,-1.5691291,-0.70742506,-0.44106433,-0.50815016,1.3084246,-1.579888
0.0,0.1,1.2999999999999998,0.0,0.0,0,-0.02857446,-0.74436027,-0.7442223,-0.83422786,-0.021199808,0.15926655,0.43942738,-0.8500084,-1.6197854,-0.68807673,-0.36113897,-0.4561425,1.2852646,-0.6096727
0.0,0.1,1.2999999999999998,0.0,0.0,0,-0.1521381,-0.752057,-0.5912574,-0.8036576,1.3398765,0.4488486,0.4324856,-0.8380004,-1.6274076,-0.6887492,-0.35364798,-0.49709824,1.2966374,-1.2509617
0.0,0.1,1.2999999999999998,0.0,0.0,0,-0.008533194,-0.67004454,-0.6406111,-0.9117026,0.1946042,0.29669738,-0.41904512,-0.8534885,-1.6238542,-0.7840591,-0.34208798,-0.52104694,1.2873524,-1.1769634
0.0,0.1,1.2999999999999998,0.0,0.0,0,-0.040872995,-0.7540917,-0.6628533,-0.8740417,0.31270337,-0.0092393095,-0.13640948,-0.8484143,-1.5565454,-0.7574153,-0.40513393,-0.443878,1.3150139,-1.3082689
0.0,0.1,1.2999999999999998,0.0,0.0,0,-0.07912241,-0.66442657,-0.5853179,-1.0093668,-1.2241411,0.11117408,-0.5942283,-0.8443196,-1.6808925,-0.70246416,-0.39332473,-0.46604726,1.2463744,-1.4338267
0.0,0.1,1.2999999999999998,0.0,0.0,0,-0.055666894,-0.7248641,-0.47767183,-0.7991836,-0.975535,-0.22545525,-0.26446816,-0.8600886,-1.6125832,-0.78858,-0.34383255,-0.45633006,1.2989525,-0.860446
0.0,0.1,1.2999999999999998,0.0,0.0,0,-0.1668633,-0.7129862,-0.64058065,-0.9315902,-0.5270495,0.47654292,-0.11007497,-0.81578654,-1.7170889,-0.6492821,-0.33964717,-0.4315643,1.2453284,-1.0232506
0.0,0.1,1.2999999999999998,0.0,0.0,0,-0.17373568,-0.6773144,-0.57507616,-0.7425755,0.59323275,-0.19689289,-0.1761305,-0.8485676,-1.6156658,-0.7778507,-0.36869657,-0.5050642,1.2581972,-1.0403435
0.0,0.1,1.2999999999999998,0.0,0.0,0,-0.14191996,-0.63945454,-0.6413621,-0.9345053,-0.11742105,0.38683495,-0.6257349,-0.8475761,-1.527451,-0.9164607,-0.2995926,-0.4111151,1.3040031,-1.3287883
0.0,0.1,1.2999999999999998,0.0,0.0,0,-0.085912526,-0.7695264,-0.5435151,-0.7616183,0.7173017,-0.26305488,-0.28106415,-0.8471463,-1.4550608,-0.8294981,-0.3904455,-0.48515144,1.2951311,-1.4657687
0.0,0.1,1.2999999999999998,0.0,0.0,0,-0.13316305,-0.67190456,-0.5937287,-0.93860096,0.76342785,0.33262393,-0.6879896,-0.8629566,-1.658138,-0.72900766,-0.33782843,-0.47010246,1.282199,-1.3663862
0.0,0.1,1.2999999999999998,0.0,0.0,0,-0.22297837,-0.7105816,-0.6752075,-0.9305972,1.7421062,-0.21294974,-0.3167221,-0.8435165,-1.5903083,-0.74025136,-0.34516677,-0.4847535,1.2825087,-1.1355464
0.0,0.1,1.2999999999999998,0.0,0.0,0,-0.18629324,-0.74944085,-0.43141574,-0.9030824,0.033430286,0.2734755,-0.11304728,-0.8285394,-1.6394159,-0.6989707,-0.39083773,-0.46152565,1.2267951,-1.4732243
0.0,0.1,1.2999999999999998,0.0,0.0,0,-0.08605286,-0.64257205,-0.59808457,-0.89831585,0.5039622,0.45845637,-0.27181157,-0.8565355,-1.5784315,-0.8267858,-0.3383853,-0.47431737,1.2516916,-1.6578577
0.0,0.1,1.2999999999999998,0.0,0.0,0,-0.22503364,-0.7484669,-0.51336294,-0.73519313,0.4388634,0.11172078,-0.6147622,-0.8592392,-1.6140937,-0.72601324,-0.4071127,-0.44876722,1.296891,-1.4267848
0.0,0.1,1.2999999999999998,0.0,0.0,0,-0.2323809,-0.740099,-0.52019334,-0.853102,0.9484972,0.19091076,-0.8376741,-0.8243907,-1.5920359,-0.6622585,-0.418191,-0.5944335,1.3178697,-1.0305228
0.0,0.1,1.2999999999999998,0.0,0.0,0,-0.09301494,-0.7413311,-0.58661824,-0.7617661,-0.8378666,0.22724399,-0.14213443,-0.85440946,-1.5892355,-0.76136625,-0.3758901,-0.44537264,1.2991029,-1.2603151
0.0,0.1,1.2999999999999998,0.0,0.0,0,-0.035523094,-0.7359997,-0.55055547,-0.89937085,0.22448705,-0.1940888,-0.38504705,-0.838011,-1.5952461,-0.7383547,-0.35013562,-0.5433302,1.2349257,-1.0618311
0.0,0.1,1.2999999999999998,0.0,0.0,0,-0.0834449,-0.7077409,-0.771966,-0.83126307,0.21801129,-0.06333513,-0.16934666,-0.8390039,-1.6291975,-0.6925003,-0.35673982,-0.5238943,1.2532159,-1.287459
0.0,0.1,1.2999999999999998,0.0,0.0,0,-0.114836246,-0.6635809,-0.47689077,-0.97616583,-0.09358164,0.57877314,-0.10232773,-0.8441388,-1.392883,-1.0023345,-0.312953,-0.47296357,1.2878115,-1.2474061
0.0,0.1,1.2999999999999998,0.0,0.0,0,-0.17875987,-0.7222829,-0.58008254,-0.91522807,0.6709385,0.9586758,0.06791723,-0.8471075,-1.6162943,-0.7416661,-0.33643633,-0.4476934,1.2759283,-1.5494608
0.0,0.1,1.2999999999999998,0.0,0.0,0,-0.26349112,-0.6943367,-0.7163687,-0.892101,-0.3540955,0.48949632,-0.17580065,-0.8587457,-1.5947442,-0.7414871,-0.3528796,-0.49890897,1.2943487,-1.1705956
0.0,0.1,1.2999999999999998,0.0,0.0,0,-0.16378105,-0.72963023,-0.46553844,-0.9643962,-0.036421176,-0.10308163,-1.2966129,-0.83153677,-1.4418149,-0.8734796,-0.39836615,-0.46694922,1.2526559,-1.3034135
0.0,0.1,1.2999999999999998,0.0,0.0,0,-0.19647418,-0.7200955,-0.5607876,-0.89679575,-0.048300855,0.07345296,-0.20240456,-0.84007293,-1.6384054,-0.7130293,-0.34943014,-0.42631322,1.3046681,-0.5930552
0.0,0.1,1.2999999999999998,0.0,0.0,0,-0.22229594,-0.73598605,-0.4696958,-0.84959793,-0.6269571,0.51057327,-0.8904168,-0.84367955,-1.4979166,-0.7957404,-0.41863936,-0.504932,1.3706471,-1.3371301
0.0,0.1,1.2999999999999998,0.0,0.0,0,-0.09114364,-0.70590657,-0.6769536,-0.930885,1.7422475,0.2551521,-0.7186779,-0.8374098,-1.6268678,-0.7112459,-0.3572155,-0.4880396,1.2520525,-0.95713365
0.0,0.1,1.2999999999999998,0.0,0.0,0,-0.14759108,-0.7231507,-0.5744651,-0.81299806,-0.20161852,0.18130094,-0.13024049,-0.8251939,-1.5371422,-0.80231535,-0.39822948,-0.48042634,1.2405804,-1.3545767
0.0,0.1,1.2999999999999998,0.0,0.0,0,-0.13335596,-0.6950727,-0.42357686,-0.9441023,-0.83213156,-0.10942302,-0.2140524,-0.8419163,-1.5887126,-0.75655055,-0.396471,-0.4903365,1.3454413,-1.1535693
0.0,0.1,1.2999999999999998,0.0,0.0,0,-0.15499501,-0.66127855,-0.82234454,-0.87246555,1.1607693,0.23859987,-0.837643,-0.838959,-1.6352696,-0.75156885,-0.3721445,-0.41515505,1.3242359,-1.0176319
0.0,0.1,1.2999999999999998,0.0,0.0,0,-0.092224546,-0.6934757,-0.5284503,-0.8481608,2.4933357,0.33264938,-0.8135037,-0.84871316,-1.6714772,-0.7124319,-0.39450175,-0.47888315,1.2650158,-1.1559732
0.0,0.1,1.2999999999999998,0.0,0.0,0,0.012783082,-0.7556959,-0.35904494,-0.8696087,0.13419044,0.6211958,-0.6674611,-0.84241325,-1.5352752,-0.8767536,-0.3163844,-0.40104303,1.288984,-0.917898
0.0,0.1,1.2999999999999998,0.0,0.0,0,-0.21276984,-0.72227716,-0.49808365,-0.9101747,0.3529604,0.118902475,-0.15322551,-0.84421897,-1.6156143,-0.695982,-0.3639005,-0.5549422,1.28322,-1.131616
0.0,0.1,1.2999999999999998,0.0,0.0,0,-0.25788724,-0.716065,-0.6174125,-0.86150837,0.5912932,0.0032826918,-0.028471857,-0.8311815,-1.5931517,-0.73610467,-0.38661662,-0.51143,1.2474782,-1.3951918
0.0,0.1,1.2999999999999998,0.0,0.0,0,-0.20340881,-0.69716525,-0.57495606,-0.93758804,-0.45107102,-0.53917986,-0.6476864,-0.8377821,-1.6274661,-0.7244882,-0.38016945,-0.4869601,1.2788683,-1.2805285
0.0,0.1,1.2999999999999998,0.0,0.0,0,0.010733465,-0.7468164,-0.5330231,-0.83167,0.8640134,0.43643764,-1.1965834,-0.8223561,-1.4611986,-0.90336055,-0.354167,-0.49907562,1.2621922,-1.2695838
0.0,0.1,1.2999999999999998,0.0,0.0,0,-0.110114776,-0.6676859,-0.53280616,-0.97246546,-0.12858792,0.38701758,-1.1517304,-0.85115904,-1.5715941,-0.7567994,-0.41411552,-0.46655875,1.3202318,-0.5271224
0.0,0.1,1.2999999999999998,0.0,0.0,0,-0.17817943,-0.6579255,-0.6794883,-0.99629354,0.87483454,0.16291368,-0.6008854,-0.86392415,-1.6603096,-0.7114821,-0.31787822,-0.505689,1.3317455,-1.0619354
0.0,0.1,1.2999999999999998,0.0,0.0,0,-0.1685655,-0.72671455,-0.515722,-0.8256296,1.5922756,0.2816156,0.1507125,-0.84990656,-1.6714916,-0.7157357,-0.29812387,-0.4811748,1.237136,-1.3489174
0.0,0.1,1.2999999999999998,0.0,0.0,0,-0.034919944,-0.75967526,-0.575419,-0.7882549,-0.105954364,-0.3844366,0.17008632,-0.8428153,-1.55503,-0.738217,-0.41404095,-0.5239097,1.3007476,-1.060758
0.0,0.1,1.2999999999999998,0.0,0.0,0,-0.13319443,-0.7101834,-0.5638377,-0.8092712,-0.2711165,0.48703027,-0.91335547,-0.83817285,-1.6702206,-0.6701536,-0.3563862,-0.50799423,1.2823865,-1.7539959
0.0,0.1,1.2999999999999998,0.0,0.0,0,-0.20457782,-0.6481913,-0.92150754,-0.9219581,1.6403145,0.21665809,-1.395762,-0.844031,-1.4508058,-0.85742736,-0.42592007,-0.47478953,1.3139982,-1.3054507
0.0,0.1,1.2999999999999998,0.0,0.0,0,-0.18339753,-0.69807047,-0.69552267,-0.85860705,0.37071797,0.9761836,-0.58258265,-0.8427975,-1.5991971,-0.74451506,-0.39792728,-0.47776213,1.242958,-1.4363893
0.0,0.1,1.2999999999999998,0.0,0.0,0,-0.15472549,-0.68622935,-0.53260946,-0.9262258,-0.1606799,0.5029201,-0.3843823,-0.8525795,-1.5062859,-0.86678,-0.38299286,-0.4170009,1.2668242,-1.7717
0.0,0.1,1.2999999999999998,0.0,0.0,0,-0.10515593,-0.6699575,-0.7032878,-0.8481018,0.8840922,0.6979178,-0.395436,-0.84004796,-1.5917524,-0.7374433,-0.3689825,-0.573245,1.2609559,-1.1339825
0.0,0.1,1.2999999999999998,0.0,0.0,0,-0.0034631179,-0.750075,-0.5121811,-0.9138024,0.63396895,0.277493,-0.28200132,-0.85083944,-1.6037805,-0.7538217,-0.35727802,-0.48352253,1.2695497,-1.4011946
0.0,0.1,1.2999999999999998,0.0,0.0,0,-0.14090464,-0.70600325,-0.509511,-0.88536066,-0.43074062,-0.11983419,-0.36123174,-0.86878264,-1.5752444,-0.7939977,-0.3787922,-0.4654952,1.2436632,-1.0795102
0.0,0.1,1.2999999999999998,0.0,0.0,0,-0.09696569,-0.68024594,-0.71832573,-0.91213465,0.11567492,0.49325562,-0.0014443177,-0.8459104,-1.6717294,-0.7208093,-0.3367302,-0.42817807,1.2777928,-1.399294
0.0,0.1,1.2999999999999998,0.0,0.0,0,-0.16169353,-0.7187838,-0.5521286,-0.78208566,-0.30341336,0.33153334,-0.5192621,-0.8374768,-1.4444388,-0.8647199,-0.40099415,-0.4476536,1.2892281,-0.53144515
0.0,0.1,1.2999999999999998,0.0,0.0,0,-0.15143655,-0.68870157,-0.60526234,-0.91372734,-0.8811506,0.30595237,-0.00719995,-0.843707,-1.6128601,-0.73936635,-0.38192716,-0.4982912,1.266948,-1.5836574
0.0,0.1,1.2999999999999998,0.0,0.0,0,0.017680151,-0.7612952,-0.51010287,-0.8607503,1.0437472,-0.22400509,0.0046380307,-0.8379942,-1.6677996,-0.7354696,-0.35049185,-0.42516062,1.2949948,-1.2195479
0.0,0.1,1.2999999999999998,0.0,0.0,0,-0.15541074,-0.7065044,-0.4599102,-0.93098146,1.0030137,0.116032526,-1.0898926,-0.8504828,-1.608557,-0.7765699,-0.3457934,-0.45616522,1.2887834,-1.3854816
0.0,0.1,1.2999999999999998,0.0,0.0,0,-0.12606409,-0.48126405,-0.7013841,-1.0226271,0.3930966,-0.10445667,-0.48512867,-0.8407071,-1.6151496,-0.92842287,-0.33617076,-0.41112256,1.2970674,-1.1145772
0.0,0.1,1.2999999999999998,0.0,0.0,0,-0.19898066,-0.7234591,-0.45563027,-0.6790273,0.14953138,0.27139035,-0.008013133,-0.8352598,-1.6664293,-0.70900357,-0.366768,-0.46026182,1.3411335,-1.0148611
0.0,0.1,1.2999999999999998,0.0,0.0,0,-0.160863,-0.84197855,-0.52938724,-0.9140817,1.8816841,0.27026853,-0.89947546,-0.84244806,-1.4794194,-0.67768884,-0.42193046,-0.5451005,1.3243595,-1.4497827
0.0,0.1,1.2999999999999998,0.0,0.0,0,-0.17677476,-0.8267067,-0.7266091,-0.8555709,0.16035442,-0.09186245,0.09371089,-0.8354946,-1.5886341,-0.64523596,-0.36949807,-0.37963176,1.3107777,-1.2324024
0.0,0.1,1.2999999999999998,0.0,0.0,0,-0.12338007,-0.8114866,-0.69523156,-1.0288059,0.128184,0.39754796,-1.4707987,-0.82502985,-1.4836318,-0.68104815,-0.3697284,-0.46790728,1.2665936,-1.2190629
0.0,0.1,1.2999999999999998,0.0,0.0,0,-0.103916384,-0.53178,-0.5529535,-0.98598504,-0.12166496,0.2811137,-0.3754291,-0.82862675,-1.6419302,-0.8312768,-0.43355793,-0.5177065,1.2961972,-1.3524555
0.0,0.1,1.2999999999999998,0.0,0.0,0,-0.10119992,-0.8133923,-0.750442,-0.8867318,-0.1355804,0.27922428,-1.1090231,-0.8364871,-1.4034637,-0.78311825,-0.34806943,-0.49462798,1.2584647,-0.95830494
0.0,0.1,1.2999999999999998,0.0,0.0,0,-0.1486755,-0.8120769,-0.77082664,-0.8045573,-0.028980462,0.3427067,-0.92789316,-0.8341338,-1.5787166,-0.6466599,-0.37309724,-0.40289283,1.3683828,-1.0809958
0.0,0.1,1.2999999999999998,0.0,0.0,0,-0.037507594,-0.8346074,-0.5459685,-0.9990148,-0.7640831,0.29131314,-0.9735087,-0.82551974,-1.51346,-0.6517474,-0.41033643,-0.50508654,1.323282,-1.1335819
0.0,0.1,1.2999999999999998,0.0,0.0,0,-0.1058674,-0.8136688,-0.5318728,-1.0385766,0.7860381,0.8966297,-0.40103313,-0.84585565,-1.525617,-0.6735085,-0.3900993,-0.5064569,1.3201704,-1.1296254
0.0,0.1,1.2999999999999998,0.0,0.0,0,-0.16470505,-0.51703304,-0.7376373,-0.8840335,0.43198436,0.23813263,-1.2225295,-0.8490004,-1.6371084,-0.8263766,-0.39031544,-0.5221189,1.3130648,-1.3482218
0.0,0.1,1.2999999999999998,0.0,0.0,0,-0.088929206,-0.55830985,-0.5607748,-0.88338673,0.29063037,0.06108869,-0.11067444,-0.8322529,-1.5611509,-0.9278269,-0.39241347,-0.48945525,1.2436644,-1.288416
0.0,0.1,1.2999999999999998,0.0,0.0,0,-0.064378686,-0.5876409,-0.6969829,-0.8677446,1.8135047,-0.022512002,0.07026955,-0.85829145,-1.551859,-0.872265,-0.37783927,-0.53266186,1.2853074,-0.92887384
0.0,0.1,1.2999999999999998,0.0,0.0,0,-0.09103857,-0.5834185,-0.46033105,-0.91091275,0.48383126,0.0831606,-0.12946427,-0.8380364,-1.4456232,-1.0266742,-0.37989527,-0.46603855,1.2397089,-1.1983507
0.0,0.1,1.2999999999999998,0.0,0.0,0,-0.0757877,-0.5494357,-0.5905442,-0.9720377,0.04528134,0.40246713,-0.373871,-0.8231821,-1.451819,-1.0009531,-0.4448473,-0.4815548,1.3349537,-1.3446623
0.0,0.1,1.2999999999999998,0.0,0.0,0,-0.0068241353,-0.71786374,-0.7038525,-0.8465103,0.25459087,0.38537753,-0.4293699,-0.859356,-1.5410081,-0.7536167,-0.47749475,-0.47958285,1.279567,-1.4660867
0.0,0.1,1.2999999999999998,0.0,0.0,0,-0.12490889,-0.80635905,-0.59061223,-0.90350556,0.99507684,0.058285806,-0.115252994,-0.8235032,-1.4396728,-0.76649946,-0.42867503,-0.49973068,1.3130782,-1.0226885
0.0,0.1,1.2999999999999998,0.0,0.0,0,-0.281542,-0.56474674,-0.54493284,-0.82759184,0.9232369,0.09836033,-1.9421573,-0.8380433,-1.5369186,-0.9522523,-0.38047615,-0.4392399,1.3840786,-1.3145179
0.0,0.1,1.2999999999999998,0.0,0.0,0,-0.15346539,-0.8351777,-0.5487315,-0.8376672,0.0068941833,0.22343464,-0.46156433,-0.84413713,-1.4776409,-0.72980416,-0.39388135,-0.46595895,1.2898993,-0.72947115
0.0,0.1,1.2999999999999998,0.0,0.0,0,-0.10265484,-0.8181758,-0.5287574,-0.90579414,-0.1701364,0.014006154,-0.9537167,-0.8380721,-1.6416252,-0.5994681,-0.36956614,-0.45787537,1.2816677,-1.566055
0.0,0.1,1.2999999999999998,0.0,0.0,0,-0.036330257,-0.6159191,-0.42475334,-0.86095995,1.162119,0.0013434524,-0.14924592,-0.8328848,-1.5684232,-0.9082632,-0.4178635,-0.44855052,1.354318,-1.4704515
0.0,0.1,1.2999999999999998,0.0,0.0,0,-0.21362554,-0.784096,-0.85672355,-0.69770706,1.0096424,0.24976423,0.77128285,-0.85621154,-1.5547175,-0.6642604,-0.35397646,-0.55065006,1.276462,-1.2970289
0.0,0.1,1.2999999999999998,0.0,0.0,0,-0.15568331,-0.76653045,-0.81345606,-0.9074863,0.17587304,0.65562505,0.40408373,-0.84319484,-1.5960433,-0.6415485,-0.37062693,-0.5333663,1.2623242,-1.0985669
0.0,0.1,1.2999999999999998,0.0,0.0,0,-0.06172238,-0.57676286,-0.53020823,-0.951537,0.20736353,-0.03803669,-0.38028404,-0.83558863,-1.5637435,-0.9233014,-0.3870244,-0.42188537,1.2841439,-1.0655423
0.0,0.1,1.2999999999999998,0.0,0.0,0,-0.19982506,-0.78634995,-0.6119856,-0.9575198,0.83095056,0.20544808,0.3493561,-0.843703,-1.5610951,-0.6841201,-0.4390991,-0.45119882,1.3037733,-1.1420865
0.0,0.1,1.2999999999999998,0.0,0.0,0,-0.29206952,-0.76557106,-0.75429016,-0.9250076,0.14932147,0.36155528,0.276707,-0.8317595,-1.5552295,-0.6883378,-0.34433421,-0.5119789,1.2886335,-1.1652398
0.0,0.1,1.2999999999999998,0.0,0.0,0,-0.09618291,-0.86540794,-0.46618828,-0.7582117,-0.31909895,-0.037889887,-0.8120884,-0.8342239,-1.5849549,-0.65877515,-0.3772237,-0.46175662,1.2899095,-1.1069055
0.0,0.1,1.2999999999999998,0.0,0.0,0,-0.14175597,-0.5897221,-0.67659867,-1.001747,0.6330873,0.15322915,-0.7612408,-0.8270439,-1.448717,-0.9863839,-0.36719957,-0.4983628,1.233928,-1.3222839
0.0,0.1,1.2999999999999998,0.0,0.0,0,-0.20826806,-0.834633,-0.42179424,-0.8836245,0.33602294,-0.10319793,-0.393289,-0.83020115,-1.5827438,-0.680776,-0.38603443,-0.43286964,1.2676525,-1.1849042
0.0,0.1,1.2999999999999998,0.0,0.0,0,-0.2064044,-0.560907,-0.7573434,-1.003266,1.0632241,-0.06366477,-0.41795015,-0.81537485,-1.5546252,-0.9115966,-0.30377337,-0.5089475,1.2745118,-1.4230343
0.0,0.1,1.2999999999999998,0.0,0.0,0,-0.16671132,-0.7849504,-0.5291528,-0.96734136,0.70296276,0.42292333,-1.1535507,-0.85815805,-1.4817246,-0.73884684,-0.37358078,-0.53083247,1.306509,-1.1171337
0.0,0.1,1.2999999999999998,0.0,0.0,0,-0.08314639,-0.807433,-0.6027733,-0.8841876,-1.0228696,-0.20746244,-1.2522182,-0.84189165,-1.4985659,-0.701313,-0.3900444,-0.50519794,1.2830261,-0.9677224
0.0,0.1,1.2999999999999998,0.0,0.0,0,-0.1648303,-0.7339224,-0.567007,-0.8307211,0.26211277,-0.03126046,-0.6289268,-0.85561794,-1.5987715,-0.7297574,-0.3382794,-0.46782175,1.28628,-1.1351846
0.0,0.1,1.2999999999999998,0.0,0.0,0,-0.1496206,-0.78165716,-0.55680025,-0.8301446,0.43656784,0.44411498,-0.8368753,-0.848276,-1.4241097,-0.84032315,-0.39032826,-0.51027906,1.2762454,-1.3548914
0.0,0.1,1.2999999999999998,0.0,0.0,0,-0.15222345,-0.75650936,-0.6789036,-0.9398827,0.29102495,0.41144893,-0.3724295,-0.86667544,-1.5165561,-0.7571967,-0.3800659,-0.467946,1.2694716,-1.1698169
0.0,0.1,1.2999999999999998,0.0,0.0,0,-0.025825007,-0.7162687,-0.566332,-0.8386334,2.0807536,0.046507135,-0.24281013,-0.8569371,-1.5094954,-0.81643736,-0.40969855,-0.4827143,1.3018574,-1.330523
0.0,0.1,1.2999999999999998,0.0,0.0,0,-0.14026248,-0.8208544,-0.5059778,-0.81434345,0.24105819,0.63503605,0.36966264,-0.84089285,-1.5094696,-0.76304543,-0.36303025,-0.44659564,1.2376485,-0.96087086
0.0,0.1,1.2999999999999998,0.0,0.0,0,-0.1930297,-0.7954079,-0.56318575,-0.8708072,-0.9584917,0.32065427,-0.26228866,-0.8247544,-1.623986,-0.68940485,-0.31558132,-0.37584102,1.3220345,-1.1254561
0.0,0.1,1.2999999999999998,0.0,0.0,0,-0.13246362,-0.69808185,-0.69264084,-0.8236979,2.1128945,0.38219303,-0.31460375,-0.8397199,-1.643229,-0.68305504,-0.41988033,-0.4606691,1.3153015,-1.1516463
0.0,0.1,1.2999999999999998,0.0,0.0,0,-0.22544283,-0.7603601,-0.5343526,-0.9085292,0.8737834,0.025477335,-0.04727259,-0.84449565,-1.5118757,-0.7764132,-0.39332035,-0.4239051,1.2870862,-1.3623589
0.0,0.1,1.2999999999999998,0.0,0.0,0,-0.06700686,-0.7181932,-0.8035699,-1.083193,-1.6363703,-0.1025321,-0.69611895,-0.84151924,-1.4799304,-0.81017745,-0.39508793,-0.4186164,1.2647947,-1.3909854
0.0,0.1,1.2999999999999998,0.0,0.0,0,-0.09215183,-0.6147514,-0.5026941,-0.8749308,0.3545486,0.032377485,0.0685,-0.8237067,-1.6450219,-0.7982237,-0.33100787,-0.56411684,1.2751375,-1.4145684
0.0,0.1,1.2999999999999998,0.0,0.0,0,-0.11290524,-0.82310146,-0.5747095,-0.727359,1.7709888,0.13815778,0.35557184,-0.85352635,-1.5536597,-0.7525608,-0.28798917,-0.43282726,1.2835879,-1.3367977
0.0,0.1,1.2999999999999998,0.0,0.0,0,-0.1607172,-0.60809034,-0.60603064,-0.84479433,0.44307593,0.092791006,0.33446935,-0.8412698,-1.6246989,-0.76756096,-0.39944804,-0.51941687,1.3257337,-0.86995584
0.0,0.1,1.2999999999999998,0.0,0.0,0,-0.18611857,-0.7465034,-0.7452987,-0.8715112,0.2627373,-0.063401304,0.028592326,-0.8493562,-1.5878048,-0.70607466,-0.31452674,-0.4706345,1.2918831,-1.3043648
0.0,0.1,1.2999999999999998,0.0,0.0,0,-0.09247148,-0.72589415,-0.7132267,-0.9975623,0.21542479,0.097054176,-1.0316793,-0.8426938,-1.5355592,-0.75466967,-0.31780183,-0.5074542,1.2713788,-1.3605838
0.0,0.1,1.2999999999999998,0.0,0.0,0,-0.07819797,-0.75329775,-0.67321926,-0.8572328,-1.241249,0.491652,-0.5961734,-0.8539245,-1.5909199,-0.6897501,-0.33923346,-0.48041284,1.2584893,-1.3344294
0.0,0.1,1.2999999999999998,0.0,0.0,0,-0.09585289,-0.6199488,-0.54967326,-0.85240746,1.9538788,-0.0546187,-0.15751795,-0.84470075,-1.5933094,-0.8627664,-0.38930452,-0.40507516,1.2418942,-1.3596114
0.0,0.1,1.2999999999999998,0.0,0.0,0,-0.27708387,-0.57220423,-0.66562414,-0.9454794,-0.7090245,0.31895134,-0.092404224,-0.8369446,-1.581278,-0.8128168,-0.4223843,-0.46287736,1.2983491,-0.66625226
0.0,0.1,1.2999999999999998,0.0,0.0,0,-0.13154455,-0.59280837,-0.64914554,-0.8535212,-0.77751046,-0.36590445,-0.60808593,-0.85428417,-1.6152037,-0.87209064,-0.33002937,-0.4152656,1.294344,-1.2632047
0.0,0.1,1.2999999999999998,0.0,0.0,0,-0.23315457,-0.7823579,-0.6543253,-0.80800396,0.2027424,-0.16633576,-0.32168257,-0.84373784,-1.560832,-0.68181235,-0.37557307,-0.5103929,1.3255835,-1.0449653
0.0,0.1,1.2999999999999998,0.0,0.0,0,-0.15957057,-0.5977695,-0.6377112,-0.8629258,0.20323445,-0.00020931545,-0.6286601,-0.8428438,-1.5260496,-0.9312931,-0.40508482,-0.3874347,1.2488775,-1.2468005
0.0,0.1,1.2999999999999998,0.0,0.0,0,-0.14946291,-0.78277755,-0.5380453,-0.856642,1.3244094,0.1993252,-0.44590876,-0.8485095,-1.5602936,-0.7265284,-0.31294456,-0.49762917,1.3297459,-1.2693504
0.0,0.1,1.2999999999999998,0.0,0.0,0,-0.17475954,-0.6986548,-0.566827,-0.7597676,0.9281833,0.036933485,-0.77582204,-0.836505,-1.5288011,-0.8204138,-0.398394,-0.514971,1.2369539,-0.8096331
0.0,0.1,1.2999999999999998,0.0,0.0,0,-0.024960123,-0.7626441,-0.48907343,-0.7984025,0.7314268,-0.018342018,-1.0572969,-0.85346454,-1.6240152,-0.7011047,-0.37246874,-0.479152,1.3293974,-0.9336009
0.0,0.1,1.2999999999999998,0.0,0.0,0,-0.038234014,-0.80566406,-0.6000514,-0.8613237,-0.67901045,0.067128986,0.3491298,-0.8452566,-1.5807757,-0.70395595,-0.35105845,-0.45447275,1.2610244,-0.8694307
0.0,0.1,1.2999999999999998,0.0,0.0,0,-0.22026163,-0.7580115,-0.6873885,-0.8740847,1.544634,0.7248716,-0.069850855,-0.83793944,-1.5328566,-0.75039274,-0.37531897,-0.46256766,1.2580045,-1.0007073
0.0,0.1,1.2999999999999998,0.0,0.0,0,-0.10630519,-0.745308,-0.48629454,-0.88700897,-1.7027011,0.32201248,-0.5304345,-0.84312224,-1.5776858,-0.7580851,-0.36156973,-0.42913616,1.2982473,-1.2275679
0.0,0.1,1.2999999999999998,0.0,0.0,0,-0.15478818,-0.7948226,-0.4053367,-0.8952383,0.09717508,-0.22753635,-0.19665936,-0.8572811,-1.4447951,-0.8548429,-0.3645042,-0.41849923,1.3220401,-1.4371605
0.0,0.1,1.2999999999999998,0.0,0.0,0,0.054843407,-0.82994103,-0.4806606,-0.96129876,-1.1258961,0.18701215,-0.30789754,-0.8539952,-1.396625,-0.845673,-0.38434425,-0.47777915,1.3599247,-1.2311753
0.0,0.1,1.2999999999999998,0.0,0.0,0,-0.20673735,-0.6421586,-0.5481326,-0.7881749,-1.179097,0.23575607,-0.7507668,-0.8479674,-1.5629623,-0.8438339,-0.36184072,-0.52290714,1.3241514,-1.2931367
0.0,0.1,1.2999999999999998,0.0,0.0,0,-0.1494557,-0.7724584,-0.44389176,-0.9413079,-0.5703717,-0.3468806,0.11102726,-0.85400033,-1.4885105,-0.8031054,-0.41748282,-0.42607525,1.2677112,-0.89526314
0.0,0.1,1.2999999999999998,0.0,0.0,0,-0.06554524,-0.7489418,-0.50604016,-0.9071611,-0.8707651,-0.29578775,-0.6181602,-0.8222116,-1.5616901,-0.7805672,-0.3594394,-0.48644087,1.3024029,-1.1862223
0.0,0.1,1.2999999999999998,0.0,0.0,0,-0.18118553,-0.6236812,-0.59594893,-1.0189458,0.37951127,-0.25569978,0.07330002,-0.8558787,-1.5305029,-0.866341,-0.42314628,-0.45757866,1.2869364,-1.4739412
0.0,0.1,1.2999999999999998,0.0,0.0,0,-0.08379061,-0.7820365,-0.5304984,-0.8558968,1.1155298,0.4611813,-0.009866396,-0.8269454,-1.6097178,-0.7084895,-0.39669767,-0.42822072,1.2875036,-1.2868356
0.0,0.1,1.2999999999999998,0.0,0.0,0,-0.14325322,-0.8031331,-0.35567132,-0.8646545,0.23493254,0.55557984,-0.5262058,-0.8631312,-1.4917417,-0.78639734,-0.39590603,-0.49939236,1.245389,-1.0802182
0.0,0.1,1.2999999999999998,0.0,0.0,0,-0.18662214,-0.7376377,-0.6751587,-0.9021863,-0.29560557,0.33268914,-0.44780803,-0.8368214,-1.6079216,-0.72197264,-0.35462883,-0.43486762,1.2804539,-1.4119823
0.0,0.1,1.2999999999999998,0.0,0.0,0,-0.11587516,-0.6238276,-0.6193001,-0.80329615,0.33191192,0.078458145,-0.6774333,-0.82539487,-1.5757915,-0.82669,-0.39044085,-0.50606316,1.2810218,-1.2188385
0.0,0.1,1.2999999999999998,0.0,0.0,0,-0.14867282,-0.7588893,-0.6547961,-0.8244121,-0.8059038,0.35672164,-0.1559214,-0.841071,-1.6192639,-0.67316234,-0.2932495,-0.5269645,1.3159702,-0.96480805
0.0,0.1,1.2999999999999998,0.0,0.0,0,-0.16092974,-0.7805188,-0.5494691,-0.79292107,0.6455565,0.13255586,-0.30389473,-0.8480066,-1.4729191,-0.8277629,-0.3624289,-0.4749658,1.2416091,-1.2252102
0.0,0.1,1.2999999999999998,0.0,0.0,0,-0.07227344,-0.6409715,-0.48601437,-0.9189946,0.77830243,0.41239822,-0.4853443,-0.8565264,-1.5688955,-0.87264436,-0.384811,-0.42990524,1.388811,-1.3648367
0.0,0.1,1.2999999999999998,0.0,0.0,0,-0.076792434,-0.74897003,-0.5671673,-0.98100525,-0.2063746,0.41225505,-1.3481371,-0.84373176,-1.4981122,-0.8014362,-0.42674437,-0.43622178,1.3295231,-1.458816
0.0,0.1,1.2999999999999998,0.0,0.0,0,-0.05870459,-0.7515529,-0.52476555,-0.98893285,0.06583394,0.2711993,0.44816968,-0.8469052,-1.5317589,-0.77717656,-0.3158599,-0.46169564,1.2435501,-1.5315722
0.0,0.1,1.2999999999999998,0.0,0.0,0,-0.061829403,-0.80612326,-0.6364855,-0.7706196,-1.3685637,-0.21711758,0.3605453,-0.8310008,-1.5133474,-0.79825944,-0.32418507,-0.46932274,1.2660744,-1.2459095
0.0,0.1,1.2999999999999998,0.0,0.0,0,-0.09259287,-0.7471351,-0.5821493,-0.9229846,1.2390735,0.12395503,-0.95439315,-0.8508427,-1.4912965,-0.7683108,-0.3854742,-0.53012013,1.2644677,-1.2241573
0.0,0.1,1.2999999999999998,0.0,0.0,0,-0.1592716,-0.72212595,-0.5798289,-1.0747379,1.3556942,0.3131102,0.3990025,-0.8443709,-1.5649885,-0.7198078,-0.43266553,-0.42929566,1.3326297,-0.9431419
0.0,0.1,1.2999999999999998,0.0,0.0,0,-0.21050064,-0.75895894,-0.58256304,-0.85346425,1.4143807,0.08139344,-0.4279711,-0.8570499,-1.522483,-0.7442545,-0.37994364,-0.5169436,1.2662063,-1.0172662
0.0,0.1,1.2999999999999998,0.0,0.0,0,-0.15519345,-0.7853236,-0.4480415,-0.83333105,0.55168384,-0.4908379,-0.3939629,-0.8284425,-1.554031,-0.7485388,-0.38961983,-0.40903935,1.2651238,-0.68788564
0.0,0.1,1.2999999999999998,0.0,0.0,0,-0.13769679,-0.73060846,-0.6593378,-0.7974746,1.4646201,0.08595373,-0.64679825,-0.8289988,-1.4979851,-0.7716796,-0.43293858,-0.5119604,1.3236198,-0.9519211
0.0,0.1,1.2999999999999998,0.0,0.0,0,-0.0579516,-0.6948201,-0.33077884,-0.90008265,0.14194033,-0.0031308616,-0.007698638,-0.8393548,-1.5415628,-0.8661827,-0.3857222,-0.47195357,1.2798194,-1.3478714
0.0,0.1,1.2999999999999998,0.0,0.0,0,-0.14397392,-0.73222405,-0.6691953,-0.91268927,0.5053691,-0.17884333,-0.2634795,-0.8621571,-1.5477285,-0.7490278,-0.41163087,-0.45222098,1.3477461,-1.3833082
0.0,0.1,1.2999999999999998,0.0,0.0,0,-0.10354095,-0.70104206,-0.52057916,-0.9146251,1.8640031,-0.17307189,-0.10821969,-0.8404575,-1.5752072,-0.7591028,-0.36084762,-0.51593786,1.289001,-1.2899623
0.0,0.1,1.2999999999999998,0.0,0.0,0,-0.13783975,-0.7417167,-0.5931867,-0.93445295,-0.35641813,-0.19635078,-0.48172948,-0.83775824,-1.5984737,-0.7066397,-0.3663006,-0.4526361,1.2688866,-0.8419212
0.0,0.1,1.2999999999999998,0.0,0.0,0,-0.21013494,-0.73206085,-0.6862332,-0.91896963,0.42423528,0.21537912,-0.48809725,-0.8444369,-1.543649,-0.75118196,-0.39936778,-0.44902554,1.2835414,-0.97159654
0.0,0.1,1.2999999999999998,0.0,0.0,0,-0.05081852,-0.64037824,-0.5620785,-0.9490787,0.8180667,0.16601427,-0.25786582,-0.82347643,-1.6825783,-0.750527,-0.35083735,-0.48880926,1.2895527,-1.405538
0.0,0.1,1.2999999999999998,0.0,0.0,0,-0.10919424,-0.6814311,-0.5694845,-0.8671317,1.9734824,0.12142145,-0.085694365,-0.8217669,-1.5488436,-0.85920864,-0.35180515,-0.45472366,1.2851453,-1.5305455
0.0,0.1,1.2999999999999998,0.0,0.0,0,-0.18261988,-0.7248803,-0.62000275,-0.9660366,-0.3808644,0.0412205,-0.88158965,-0.85351706,-1.531188,-0.77183926,-0.4084638,-0.45726183,1.2776928,-1.4491453
0.0,0.1,1.2999999999999998,0.0,0.0,0,-0.024783,-0.7585704,-0.42563054,-0.85056317,0.7315871,0.10455486,-1.3793253,-0.85183495,-1.5841304,-0.7731261,-0.34364763,-0.44763103,1.3202063,-1.6655577
0.0,0.1,1.2999999999999998,0.0,0.0,0,-0.12984386,-0.7555986,-0.4476382,-0.808436,-1.1684577,0.53492427,-0.8362541,-0.8632138,-1.5021573,-0.85264015,-0.38163972,-0.38938817,1.2954203,-1.1034651
0.0,0.1,1.2999999999999998,0.0,0.0,0,0.06422026,-0.8087717,-0.523427,-0.93886596,0.7538512,0.30115956,0.23812543,-0.8480636,-1.4719019,-0.7667857,-0.37130582,-0.5491826,1.2538942,-0.90450513
0.0,0.1,1.2999999999999998,0.0,0.0,0,0.03245837,-0.66207135,-0.51825005,-1.0807422,-0.6245267,-0.15109922,-0.468822,-0.8250468,-1.6322422,-0.80661094,-0.33159623,-0.4598016,1.2725602,-1.1290349
0.0,0.1,1.2999999999999998,0.0,0.0,0,-0.096161425,-0.7627145,-0.6599323,-0.759117,-0.7291679,-0.0221388,-0.5431782,-0.82956475,-1.4160392,-0.87453306,-0.36101383,-0.44731018,1.3136377,-0.833001
0.0,0.1,1.2999999999999998,0.0,0.0,0,-0.15633474,-0.6763198,-0.75417364,-0.8919045,0.38098195,0.34338894,-0.65426046,-0.8227528,-1.560908,-0.803621,-0.35637453,-0.45483652,1.2255245,-1.5219512
0.0,0.1,1.2999999999999998,0.0,0.0,0,-0.075551175,-0.7462915,-0.43169606,-0.98748463,-1.4496166,0.34948465,-0.8027324,-0.8342568,-1.5543015,-0.7377115,-0.3453118,-0.47699252,1.3129802,-1.1162064
0.0,0.1,1.2999999999999998,0.0,0.0,0,-0.1324175,-0.72479236,-0.74398935,-0.8559673,0.15568425,0.13605839,-0.11419578,-0.8452186,-1.5248443,-0.7814946,-0.3965356,-0.47891048,1.2639989,-1.3719091
0.0,0.1,1.2999999999999998,0.0,0.0,0,-0.10795166,-0.65741384,-0.4000053,-1.0239652,0.47905204,0.18690212,-0.69373304,-0.82950234,-1.6466018,-0.786037,-0.27947366,-0.4994787,1.2821885,-1.2387636
0.0,0.1,1.2999999999999998,0.0,0.0,0,0.02949877,-0.6645117,-0.85171205,-1.0509145,0.8655328,-0.106283106,-0.40809557,-0.8417582,-1.4832797,-0.86195797,-0.35795966,-0.49930826,1.2867106,-1.3988993
0.0,0.1,1.2999999999999998,0.0,0.0,0,-0.06120005,-0.78413755,-0.48201802,-0.8353996,-1.2440654,0.07816495,0.0844944,-0.8552969,-1.5781003,-0.7340972,-0.33817554,-0.459442,1.2969687,-0.96639436
0.0,0.1,1.2999999999999998,0.0,0.0,0,-0.24231198,-0.70101637,-0.46135446,-0.8912491,-0.7134906,0.68811095,-0.17828722,-0.8126904,-1.5454023,-0.7813014,-0.38494018,-0.55666614,1.3122987,-1.433018
0.0,0.1,1.2999999999999998,0.0,0.0,0,-0.0870466,-0.63245964,-0.6792287,-0.86490035,1.3444165,0.6818476,-0.66904783,-0.8525943,-1.5606083,-0.8768935,-0.37203723,-0.40120804,1.2662323,-1.1666691
0.0,0.1,1.2999999999999998,0.0,0.0,0,-0.1706609,-0.7246422,-0.5224014,-0.7330033,1.155128,0.76506746,-0.9443258,-0.84824336,-1.5853579,-0.78019017,-0.36424068,-0.47677195,1.2855506,-1.2786803
0.0,0.1,1.2999999999999998,0.0,0.0,0,-0.044390228,-0.67064744,-0.61573106,-0.8727831,0.5967043,0.18624963,0.071013175,-0.82966363,-1.5340779,-0.8470604,-0.44196844,-0.45597064,1.3252578,-1.3954303
0.0,0.1,1.2999999999999998,0.0,0.0,0,-0.06264174,-0.6982179,-0.7799746,-0.83783007,-0.055227924,0.23397696,-0.3842239,-0.8400544,-1.5995326,-0.74735165,-0.34436506,-0.4752185,1.2782176,-1.1724834
0.0,0.1,1.2999999999999998,0.0,0.0,0,-0.12237684,-0.78674465,-0.3635013,-0.84828454,1.0122104,0.32996607,-0.2930817,-0.84546703,-1.5530499,-0.7816792,-0.34702793,-0.4418296,1.2821715,-1.0819398
0.0,0.1,1.2999999999999998,0.0,0.0,0,-0.1379261,-0.6837611,-0.49950022,-0.8109712,0.22569647,-0.20821546,-0.18269801,-0.8491287,-1.5523953,-0.8409516,-0.38760668,-0.46095833,1.2729765,-1.5923183
0.0,0.1,1.2999999999999998,0.0,0.0,0,-0.007869699,-0.71951896,-0.51339734,-0.8689658,-0.39302453,0.62434536,-0.1702564,-0.8260432,-1.5867352,-0.8440987,-0.3177694,-0.45530444,1.2862413,-1.3666124
0.0,0.1,1.2999999999999998,0.0,0.0,0,-0.07010354,-0.64491343,-0.6264505,-0.9522081,0.7102076,0.11195476,-0.16661993,-0.83781236,-1.5866169,-0.8153736,-0.36238086,-0.47893494,1.2674431,-1.3010219
0.0,0.1,1.2999999999999998,0.0,0.0,0,-0.08283528,-0.7278688,-0.54667264,-0.95273596,0.98021466,-0.28392822,-0.1273448,-0.83887476,-1.4914567,-0.80704397,-0.34652236,-0.48805353,1.278043,-0.9368377
0.0,0.1,1.2999999999999998,0.0,0.0,0,-0.087728865,-0.7188505,-0.7130584,-0.88596386,1.2804276,-0.053823162,-0.5459125,-0.8365583,-1.4741273,-0.85697794,-0.36428288,-0.4619669,1.2243648,-1.334417
0.0,0.1,1.2999999999999998,0.0,0.0,0,-0.18031356,-0.7249856,-0.36733857,-1.007625,0.41176724,0.16376682,-1.2002546,-0.83948284,-1.5087066,-0.8153907,-0.40585354,-0.4962481,1.2645298,-1.2357309
0.0,0.1,1.2999999999999998,0.0,0.0,0,0.016044997,-0.74309677,-0.67397475,-0.951,-0.19064961,0.48042518,-0.32551792,-0.84384114,-1.5704962,-0.8110617,-0.36778453,-0.38771826,1.2914718,-1.2383978
0.0,0.1,1.2999999999999998,0.0,0.0,0,-0.1648328,-0.74383444,-0.5597792,-0.82453287,0.34622923,0.6857,-0.7701386,-0.84138864,-1.4695044,-0.8381499,-0.40547335,-0.44977692,1.3394988,-1.2302047
0.0,0.1,1.2999999999999998,0.0,0.0,0,-0.16934507,-0.7434678,-0.4580572,-0.8711505,0.7227229,0.12520014,-1.6631942,-0.85795903,-1.5446317,-0.7846913,-0.34059826,-0.47956994,1.3236958,-1.3738443
0.0,0.1,1.2999999999999998,0.0,0.0,0,-0.09784035,-0.74835825,-0.57166475,-0.8371103,-0.8786321,0.39240715,-0.5145771,-0.8200537,-1.5606558,-0.77026224,-0.34632218,-0.4301699,1.3001348,-1.3189286
0.0,0.1,1.2999999999999998,0.0,0.0,0,-0.0022021865,-0.79364663,-0.2629527,-0.9156481,0.8994335,0.20470943,-0.039488837,-0.8421913,-1.5785421,-0.7920108,-0.34417707,-0.4096458,1.278974,-1.3556929
0.0,0.1,1.2999999999999998,0.0,0.0,0,-0.11522242,-0.6730733,-0.6349298,-0.7973274,0.4143871,0.028669689,-0.04063977,-0.845752,-1.5823119,-0.7745713,-0.37978527,-0.48239338,1.2600743,-1.1585643
0.0,0.1,1.2999999999999998,0.0,0.0,0,-0.041668575,-0.7084715,-0.53550464,-0.8047004,-0.5421021,0.29647726,-1.445726,-0.8353908,-1.6149523,-0.7757446,-0.36892703,-0.4402757,1.2908205,-0.7285395
0.0,0.1,1.2999999999999998,0.0,0.0,0,-0.038218655,-0.72694856,-0.45584455,-0.8800117,0.057474375,0.21613845,-0.35457724,-0.8194038,-1.6189628,-0.7681331,-0.3655942,-0.44861233,1.3008093,-1.4092573
0.0,0.1,1.2999999999999998,0.0,0.0,0,-0.1205566,-0.7329732,-0.61876124,-0.82679766,0.053363502,0.30543402,-0.9794442,-0.82728344,-1.6456461,-0.70374227,-0.31995276,-0.44524637,1.280537,-1.0116731
0.0,0.1,1.2999999999999998,0.0,0.0,0,-0.08169932,-0.6521555,-0.6844341,-0.8820137,0.050642066,0.22470176,-0.24170953,-0.8441121,-1.532017,-0.85406625,-0.31768027,-0.49137023,1.2759311,-1.095649
0.0,0.1,1.2999999999999998,0.0,0.0,0,-0.05106447,-0.6783994,-0.4707835,-1.0220304,2.12197,0.6496031,-0.4083095,-0.8418001,-1.5572598,-0.7960545,-0.36107972,-0.5416499,1.2751069,-0.98283815
0.0,0.1,1.2999999999999998,0.0,0.0,0,-0.031311512,-0.70459795,-0.3534278,-0.9756069,-0.98507553,0.37669006,-0.063878626,-0.82899886,-1.6019437,-0.7543409,-0.3440323,-0.54700696,1.2553897,-0.8787826
0.0,0.1,1.2999999999999998,0.0,0.0,0,-0.2164065,-0.6514595,-0.74735475,-0.87914413,0.056499034,0.29480112,-1.1750128,-0.85896784,-1.5340297,-0.824208,-0.4099723,-0.4621241,1.2623504,-0.96666133
0.0,0.1,1.2999999999999998,0.0,0.0,0,-0.16260543,-0.6914839,-0.5311059,-0.8045068,0.48354292,0.8320403,-0.04444919,-0.8474636,-1.6334615,-0.76562136,-0.33312893,-0.44187602,1.2543935,-0.92507726
0.0,0.1,1.2999999999999998,0.0,0.0,0,-0.11125722,-0.74692756,-0.48254082,-0.79099816,0.44153696,0.23338959,-0.93529266,-0.8228833,-1.5537226,-0.7686521,-0.38100106,-0.46756306,1.3458105,-1.2123746
0.0,0.1,1.2999999999999998,0.0,0.0,0,-0.15412477,-0.6986655,-0.58628637,-0.73281837,0.62462115,0.010419256,-0.4129759,-0.8456425,-1.547414,-0.821374,-0.38438192,-0.4666862,1.269332,-1.1470888
0.0,0.1,1.2999999999999998,0.0,0.0,0,-0.1822458,-0.69150674,-0.76516324,-0.8782311,1.203445,0.5609105,-0.8400882,-0.84274995,-1.6204473,-0.7507343,-0.282701,-0.46307373,1.3170248,-1.2126913
0.0,0.1,1.2999999999999998,0.0,0.0,0,-0.07428049,-0.71914953,-0.6290018,-0.9260402,1.4483107,0.77541137,1.277032,-0.85704577,-1.497999,-0.83480763,-0.37963322,-0.41518497,1.2743347,-0.9643038
0.0,0.1,1.2999999999999998,0.0,0.0,0,-0.12556309,-0.70931363,-0.6295954,-0.8343911,-0.26523653,0.5081781,0.034555905,-0.8528732,-1.5638604,-0.7976193,-0.34155792,-0.45196816,1.3017033,-1.086107
0.0,0.1,1.2999999999999998,0.0,0.0,0,-0.2188287,-0.70645034,-0.5091604,-0.9783758,-0.07544557,0.33009306,-0.058126446,-0.8401811,-1.5795661,-0.76507366,-0.35240665,-0.4823042,1.2408857,-1.6138389
0.0,0.1,1.2999999999999998,0.0,0.0,0,-0.06090924,-0.7237984,-0.3589679,-0.87768066,-0.1271752,0.04604644,-0.385927,-0.824964,-1.4960649,-0.8999104,-0.39570656,-0.42784062,1.2738255,-1.2388029
0.0,0.1,1.2999999999999998,0.0,0.0,0,-0.16731802,-0.7053586,-0.683874,-0.8737024,0.3956723,-0.020945832,-0.04092044,-0.8402261,-1.6475594,-0.72817916,-0.35310167,-0.36251312,1.339374,-0.8829894
0.0,0.1,1.2999999999999998,0.0,0.0,0,-0.08985166,-0.66971886,-0.53131944,-1.0756361,-0.71099526,0.48991716,-1.2745583,-0.83924496,-1.5089587,-0.85385466,-0.39250734,-0.4536756,1.3388884,-1.3834199
0.0,0.1,1.2999999999999998,0.0,0.0,0,-0.10665943,-0.6549595,-0.7016105,-0.8821,0.9573226,0.10904375,-0.5766002,-0.85666656,-1.4470999,-0.90975696,-0.35957345,-0.4869258,1.2983153,-1.2734276
0.0,0.1,1.2999999999999998,0.0,0.0,0,-0.16204554,-0.67330873,-0.43311027,-1.0617869,-0.07111953,0.025026316,0.62220633,-0.83798826,-1.6523024,-0.75031954,-0.3264539,-0.46185628,1.3035226,-1.4030734
0.0,0.1,1.2999999999999998,0.0,0.0,0,-0.10412292,-0.7223308,-0.53730285,-0.93285644,-0.19038345,-0.3979263,0.22237141,-0.8474864,-1.5231103,-0.82033813,-0.37034497,-0.46878806,1.2871369,-1.2172369
0.0,0.1,1.2999999999999998,0.0,0.0,0,-0.22520155,-0.7148267,-0.46775085,-0.8052307,-0.91984886,0.24883921,-0.09942341,-0.8575668,-1.4572184,-0.8901448,-0.35979614,-0.4748305,1.3232629,-1.3326913
0.0,0.1,1.2999999999999998,0.0,0.0,0,-0.20736158,-0.7062002,-0.725899,-0.8045464,-0.8619322,0.593759,-0.8936641,-0.86478657,-1.5015612,-0.81674993,-0.37186232,-0.47859266,1.2813897,-1.21191
0.0,0.1,1.2999999999999998,0.0,0.0,0,-0.08152935,-0.6609154,-0.5742271,-1.0492063,0.27804685,-0.5141748,-0.714835,-0.8406411,-1.53119,-0.85963434,-0.3439411,-0.44349343,1.3434489,-1.4847395
0.0,0.1,1.2999999999999998,0.0,0.0,0,-0.1723713,-0.7345559,-0.52893144,-0.80162257,0.81952673,0.058507413,0.5425428,-0.82987225,-1.6489934,-0.70234233,-0.29555395,-0.5311651,1.2840366,-1.1921061
0.0,0.1,1.2999999999999998,0.0,0.0,0,-0.237556,-0.77013624,-0.41997907,-0.61744726,-0.121701,0.51877886,-0.09952503,-0.843336,-1.4901607,-0.8846698,-0.30837613,-0.47107884,1.2364281,-1.3457941
0.0,0.1,1.2999999999999998,0.0,0.0,0,-0.24779421,-0.71177554,-0.5910176,-0.8456186,0.33526036,0.25752982,-0.6458436,-0.852455,-1.5532372,-0.8017499,-0.3719494,-0.4697733,1.2307024,-1.1839325
0.0,0.1,1.2999999999999998,0.0,0.0,0,-0.09471328,-0.7634303,-0.52272123,-0.66514957,-1.2185968,0.1500877,-0.3899462,-0.8400515,-1.5541546,-0.7928357,-0.34471682,-0.49252063,1.2515212,-1.079963
0.0,0.1,1.2999999999999998,0.0,0.0,0,-0.18954699,-0.7122423,-0.6122073,-0.68699807,1.4978311,0.41904768,0.3305995,-0.8165466,-1.531429,-0.8046827,-0.39743406,-0.501522,1.282286,-1.196655
0.0,0.1,1.2999999999999998,0.0,0.0,0,-0.14655979,-0.7014034,-0.54102606,-0.9446348,0.9721295,-0.48901656,-0.21246049,-0.8585464,-1.5763539,-0.7839284,-0.41804692,-0.44302398,1.2834468,-1.2565695
0.0,0.1,1.2999999999999998,0.0,0.0,0,-0.15360977,-0.7071613,-0.58821684,-0.8432415,-0.028580165,-0.1625292,-1.0336211,-0.82292384,-1.5092007,-0.8524634,-0.38311183,-0.4289037,1.2666193,-1.0283502
0.0,0.1,1.2999999999999998,0.0,0.0,0,-0.12148357,-0.68891484,-0.73010796,-0.8377305,0.5738527,0.84616256,-1.2671859,-0.8434858,-1.4919337,-0.86047965,-0.39737248,-0.4289675,1.303299,-1.2459446
0.0,0.1,1.2999999999999998,0.0,0.0,0,-0.12058874,-0.7245067,-0.4172784,-0.86277014,0.16769005,0.21923691,-0.021564078,-0.84964436,-1.5527536,-0.77945405,-0.3991006,-0.5003538,1.3185053,-0.98420495
0.0,0.1,1.2999999999999998,0.0,0.0,0,-0.16047387,-0.6402684,-0.62587917,-1.021552,-0.19661126,0.25239694,-0.30050614,-0.83737457,-1.5803783,-0.81620824,-0.31490898,-0.49150375,1.2589407,-1.3411531
0.0,0.1,1.2999999999999998,0.0,0.0,0,0.002057894,-0.7087917,-0.5589714,-0.9700957,-0.7449458,-0.09449663,0.31749785,-0.84606147,-1.4901408,-0.85435444,-0.32849035,-0.5185544,1.2641134,-1.0051229
0.0,0.1,1.2999999999999998,0.0,0.0,0,-0.11260376,-0.66499084,-0.815899,-0.8700917,0.077971555,-0.15337683,-0.46649957,-0.8323607,-1.6061256,-0.75914216,-0.30278742,-0.4961172,1.2957674,-1.0030495
0.0,0.1,1.2999999999999998,0.0,0.0,0,-0.13022247,-0.7160694,-0.44751647,-0.94778126,0.7279534,0.3841227,-0.96211606,-0.84050024,-1.5939686,-0.77712876,-0.35629594,-0.4739388,1.2455236,-1.3412269
0.0,0.1,1.2999999999999998,0.0,0.0,0,-0.0871602,-0.6523987,-0.7399039,-1.0146855,-0.55594766,0.32535994,-0.06971569,-0.8459494,-1.557102,-0.8258324,-0.32925555,-0.44478497,1.271511,-0.9958896
0.0,0.1,1.2999999999999998,0.0,0.0,0,-0.074413635,-0.7593662,-0.44864756,-0.78732234,0.024926286,0.17987749,-0.84091794,-0.8285881,-1.4926811,-0.8598568,-0.3085934,-0.5045392,1.2877889,-1.2149606
0.0,0.1,1.2999999999999998,0.0,0.0,0,-0.047197994,-0.7104909,-0.4859935,-0.9748688,0.5009067,-0.07210276,0.6322716,-0.83124167,-1.4934323,-0.8325992,-0.40911102,-0.5093692,1.260836,-1.3984474
0.0,0.1,1.2999999999999998,0.0,0.0,0,0.0016487013,-0.73271006,-0.67553735,-0.8700105,0.27624086,-0.104231186,-0.7931369,-0.824778,-1.5317049,-0.793515,-0.4148981,-0.50117993,1.2811196,-1.3569572
0.0,0.1,1.2999999999999998,0.0,0.0,0,-0.06328816,-0.682214,-0.4754562,-0.95103204,0.28591976,0.03306899,-0.6691464,-0.84352976,-1.5088055,-0.84429806,-0.33574095,-0.5622331,1.240702,-1.3104285
0.0,0.1,1.2999999999999998,0.0,0.0,0,-0.06328816,-0.682214,-0.4754562,-0.95103204,0.28591976,0.03306899,-0.6691464,-0.84352976,-1.5088055,-0.84429806,-0.33574095,-0.5622331,1.240702,-1.3104285
0.0,0.1,1.2999999999999998,0.0,0.0,0,-0.06328816,-0.682214,-0.4754562,-0.95103204,0.28591976,0.03306899,-0.6691464,-0.84352976,-1.5088055,-0.84429806,-0.33574095,-0.5622331,1.240702,-1.3104285
0.0,0.1,1.2999999999999998,0.0,0.0,0,-0.07544566,-0.97983533,-0.4284954,-0.8655753,1.1826543,0.30244577,-0.60992026,-0.868518,-0.96414506,-1.1300213,-0.48318857,-0.36099592,1.215436,-0.46342647
0.0,0.1,1.2999999999999998,0.0,0.0,0,-0.07544566,-0.97983533,-0.4284954,-0.8655753,1.1826543,0.30244577,-0.60992026,-0.868518,-0.96414506,-1.1300213,-0.48318857,-0.36099592,1.215436,-0.46342647
0.0,0.1,1.2999999999999998,0.0,0.0,0,-0.07544566,-0.97983533,-0.4284954,-0.8655753,1.1826543,0.30244577,-0.60992026,-0.868518,-0.96414506,-1.1300213,-0.48318857,-0.36099592,1.215436,-0.46342647
0.0,0.1,1.2999999999999998,0.0,0.0,0,-0.07544566,-0.97983533,-0.4284954,-0.8655753,1.1826543,0.30244577,-0.60992026,-0.868518,-0.96414506,-1.1300213,-0.48318857,-0.36099592,1.215436,-0.46342647
0.0,0.1,1.2999999999999998,0.0,0.0,0,-0.011276603,-0.7730624,-0.43870088,-0.78270316,-0.6460961,0.2963231,-0.3222435,-0.8386542,-1.5138601,-0.83906907,-0.37339997,-0.46612832,1.324352,-1.375642
0.0,0.1,1.2999999999999998,0.0,0.0,0,-0.011276603,-0.7730624,-0.43870088,-0.78270316,-0.6460961,0.2963231,-0.3222435,-0.8386542,-1.5138601,-0.83906907,-0.37339997,-0.46612832,1.324352,-1.375642
0.0,0.1,1.2999999999999998,0.0,0.0,0,-0.011276603,-0.7730624,-0.43870088,-0.78270316,-0.6460961,0.2963231,-0.3222435,-0.8386542,-1.5138601,-0.83906907,-0.37339997,-0.46612832,1.324352,-1.375642
0.0,0.1,1.2999999999999998,0.0,0.0,0,-0.08515535,-0.7615803,-0.5125754,-0.61295784,0.2782199,0.08917727,0.25700167,-0.8372641,-1.5055803,-0.85715157,-0.38944104,-0.45341974,1.3183005,-1.2106714
0.0,0.1,1.2999999999999998,0.0,0.0,0,-0.08515535,-0.7615803,-0.5125754,-0.61295784,0.2782199,0.08917727,0.25700167,-0.8372641,-1.5055803,-0.85715157,-0.38944104,-0.45341974,1.3183005,-1.2106714
0.0,0.1,1.2999999999999998,0.0,0.0,0,-0.08515535,-0.7615803,-0.5125754,-0.61295784,0.2782199,0.08917727,0.25700167,-0.8372641,-1.5055803,-0.85715157,-0.38944104,-0.45341974,1.3183005,-1.2106714
0.0,0.1,1.2999999999999998,0.0,0.0,0,0.103457905,-0.7898918,-0.49465224,-0.89854497,-0.024026133,0.57398564,-0.9614092,-0.88302433,-1.4028127,-0.9330305,-0.43769723,-0.41727212,1.2575897,-1.4138706
0.0,0.1,1.2999999999999998,0.0,0.0,0,0.103457905,-0.7898918,-0.49465224,-0.89854497,-0.024026133,0.57398564,-0.9614092,-0.88302433,-1.4028127,-0.9330305,-0.43769723,-0.41727212,1.2575897,-1.4138706
0.0,0.1,1.2999999999999998,0.0,0.0,0,-0.017732352,-0.7783004,-0.5822068,-0.71960664,-0.8770435,0.4953933,-0.8403215,-0.8447934,-1.3665556,-0.9472537,-0.44909486,-0.42662477,1.3122988,-1.0666648
0.0,0.1,1.2999999999999998,0.0,0.0,0,-0.017732352,-0.7783004,-0.5822068,-0.71960664,-0.8770435,0.4953933,-0.8403215,-0.8447934,-1.3665556,-0.9472537,-0.44909486,-0.42662477,1.3122988,-1.0666648
0.0,0.1,1.2999999999999998,0.0,0.0,0,-0.007815573,-0.7647896,-0.5302457,-0.8091921,-1.0398203,-0.03528961,0.17137827,-0.8363361,-1.5520396,-0.82837874,-0.3711075,-0.42364806,1.2939564,-1.3427329
0.0,0.1,1.2999999999999998,0.0,0.0,0,-0.007815573,-0.7647896,-0.5302457,-0.8091921,-1.0398203,-0.03528961,0.17137827,-0.8363361,-1.5520396,-0.82837874,-0.3711075,-0.42364806,1.2939564,-1.3427329
0.0,0.1,1.2999999999999998,0.0,0.0,0,0.05898405,-0.8067379,-0.5500706,-0.77694243,0.87846345,-0.35077247,-0.70896727,-0.84866434,-1.5835317,-0.8001119,-0.32207304,-0.46468207,1.2672362,-1.2993793
0.0,0.1,1.2999999999999998,0.0,0.0,0,0.05898405,-0.8067379,-0.5500706,-0.77694243,0.87846345,-0.35077247,-0.70896727,-0.84866434,-1.5835317,-0.8001119,-0.32207304,-0.46468207,1.2672362,-1.2993793
0.0,0.1,1.2999999999999998,0.0,0.0,0,0.05898405,-0.8067379,-0.5500706,-0.77694243,0.87846345,-0.35077247,-0.70896727,-0.84866434,-1.5835317,-0.8001119,-0.32207304,-0.46468207,1.2672362,-1.2993793
0.0,0.1,1.2999999999999998,0.0,0.0,0,0.05898405,-0.8067379,-0.5500706,-0.77694243,0.87846345,-0.35077247,-0.70896727,-0.84866434,-1.5835317,-0.8001119,-0.32207304,-0.46468207,1.2672362,-1.2993793
0.0,0.1,1.2999999999999998,0.0,0.0,0,-0.07899727,-0.76002896,-0.3345152,-0.86238694,0.12546813,0.66413534,-0.86979187,-0.8436262,-1.5721257,-0.7793432,-0.39130244,-0.41433886,1.3261862,-0.86077124
0.0,0.1,1.2999999999999998,0.0,0.0,0,-0.07899727,-0.76002896,-0.3345152,-0.86238694,0.12546813,0.66413534,-0.86979187,-0.8436262,-1.5721257,-0.7793432,-0.39130244,-0.41433886,1.3261862,-0.86077124
0.0,0.1,1.2999999999999998,0.0,0.0,0,-0.14573999,-0.7009688,-0.4974372,-0.91392636,0.23410453,0.21149819,0.43069482,-0.8429877,-1.5352864,-0.8156217,-0.343474,-0.49740648,1.2958404,-1.3086963
0.0,0.1,1.2999999999999998,0.0,0.0,0,-0.14573999,-0.7009688,-0.4974372,-0.91392636,0.23410453,0.21149819,0.43069482,-0.8429877,-1.5352864,-0.8156217,-0.343474,-0.49740648,1.2958404,-1.3086963
0.0,0.1,1.2999999999999998,0.0,0.0,0,-0.14573999,-0.7009688,-0.4974372,-0.91392636,0.23410453,0.21149819,0.43069482,-0.8429877,-1.5352864,-0.8156217,-0.343474,-0.49740648,1.2958404,-1.3086963
0.0,0.1,1.2999999999999998,0.0,0.0,0,-0.029232968,-0.7144209,-0.6055277,-0.93143797,-0.1334738,0.018860668,-0.68508446,-0.82937133,-1.4644089,-0.8748091,-0.39506045,-0.46683833,1.2901064,-1.2876817
0.0,0.1,1.2999999999999998,0.0,0.0,0,-0.029232968,-0.7144209,-0.6055277,-0.93143797,-0.1334738,0.018860668,-0.68508446,-0.82937133,-1.4644089,-0.8748091,-0.39506045,-0.46683833,1.2901064,-1.2876817
0.0,0.1,1.2999999999999998,0.0,0.0,0,-0.029232968,-0.7144209,-0.6055277,-0.93143797,-0.1334738,0.018860668,-0.68508446,-0.82937133,-1.4644089,-0.8748091,-0.39506045,-0.46683833,1.2901064,-1.2876817
0.0,0.1,1.2999999999999998,0.0,0.0,0,-0.029232968,-0.7144209,-0.6055277,-0.93143797,-0.1334738,0.018860668,-0.68508446,-0.82937133,-1.4644089,-0.8748091,-0.39506045,-0.46683833,1.2901064,-1.2876817
