sanky1234/BimanualDexCatch/isaacgymenvs/cem_results/May31/football_pose_0.0_-0.1_1.4_-0.5235987755982988_-0.5235987755982988_0_2025-05-31.csv
x,y,z,roll,pitch,yaw,robot1/joint1,robot1/joint2,robot1/joint3,robot1/joint4,robot1/joint5,robot1/joint6,robot1/joint7,robot2/joint1,robot2/joint2,robot2/joint3,robot2/joint4,robot2/joint5,robot2/joint6,robot2/joint7
0.0,-0.1,1.4,-0.5235987755982988,-0.5235987755982988,0,0.41210273,-1.4089034,1.0495782,-0.87199223,-0.47106802,0.37569487,-1.0038208,0.3609004,-0.2937139,1.5365745,-0.4780589,-0.50892115,0.7793907,1.6920685
0.0,-0.1,1.4,-0.5235987755982988,-0.5235987755982988,0,0.25769004,-1.0081939,1.0883572,-0.9682437,-0.109369084,0.48991024,-0.6106003,0.4157227,-0.6720732,1.5178541,-0.43187526,-0.69878906,-0.10946708,0.98999065
0.0,-0.1,1.4,-0.5235987755982988,-0.5235987755982988,0,0.07945102,-1.1449935,0.92563164,-0.8362606,-0.015339538,0.2328223,-0.38221273,0.42220783,-0.88792807,1.3834424,-0.51477545,-0.95503545,0.01420922,1.4488589
0.0,-0.1,1.4,-0.5235987755982988,-0.5235987755982988,0,0.28828028,-1.0019712,1.068246,-0.96709293,-0.9325875,0.6173283,-0.60406613,0.43458095,-0.797859,1.5026618,-0.43858176,-1.073382,0.64581573,0.4388123
0.0,-0.1,1.4,-0.5235987755982988,-0.5235987755982988,0,0.31899562,-1.4324042,1.1381806,-0.8874186,-0.5673884,0.5566991,-0.78721017,0.43009192,-0.5768005,1.5154895,-0.44549385,-0.82804054,0.71963763,0.9831716
0.0,-0.1,1.4,-0.5235987755982988,-0.5235987755982988,0,0.21502393,-0.9474529,1.0500928,-1.0851947,-0.16206443,0.68539476,-0.82990897,0.45404726,-0.794297,1.5226297,-0.42217308,-0.77561367,0.55961347,0.72431076
0.0,-0.1,1.4,-0.5235987755982988,-0.5235987755982988,0,0.4541105,-1.033785,1.2700012,-0.8744874,-0.6258443,0.7069201,-1.1538416,0.41103846,-0.9714297,1.4907507,-0.44210598,-0.93365085,0.61073136,1.4122319
0.0,-0.1,1.4,-0.5235987755982988,-0.5235987755982988,0,0.09611506,-1.020393,0.9933837,-0.9289572,-0.15339395,0.5774887,-1.10852,0.47919595,-0.8322346,1.489194,-0.55439216,-0.7193393,0.29601955,0.38700208
0.0,-0.1,1.4,-0.5235987755982988,-0.5235987755982988,0,0.29690313,-0.98600644,1.1425413,-1.0960948,-0.5606606,0.5065855,-0.778079,0.3663236,-0.81986254,1.4885285,-0.4113494,-0.9221345,0.11565483,0.47836182
0.0,-0.1,1.4,-0.5235987755982988,-0.5235987755982988,0,0.10323264,-1.3598388,0.9134532,-1.0106211,-0.31821305,0.75095713,-1.3498187,0.48985064,-0.9055712,1.5177534,-0.52141243,-0.538044,0.044493362,0.5645242
0.0,-0.1,1.4,-0.5235987755982988,-0.5235987755982988,0,0.04667355,-1.3500973,0.96069425,-0.85999656,-0.2000892,0.65281403,-0.64118564,0.42390805,-0.81414384,1.4940499,-0.44949833,-0.9231579,0.54077005,0.38875106
0.0,-0.1,1.4,-0.5235987755982988,-0.5235987755982988,0,0.2856785,-1.2333686,0.9124745,-0.8564132,-0.7396448,0.82112026,-0.7023531,0.36100233,-0.7905366,1.4915365,-0.47718334,-0.6453068,0.27857083,0.8689298
0.0,-0.1,1.4,-0.5235987755982988,-0.5235987755982988,0,0.2873684,-1.027544,1.159665,-0.9949317,-0.8945394,0.727453,-0.4214288,0.49198592,-0.6973543,1.4391711,-0.49425232,-0.4024655,1.0319782,1.7729542
0.0,-0.1,1.4,-0.5235987755982988,-0.5235987755982988,0,0.26034877,-1.2235458,1.1778448,-1.0002545,-0.15437028,0.45045084,-0.7009834,0.43316,-0.53574836,1.4422024,-0.4881487,0.115725495,0.86301917,-0.83614725
0.0,-0.1,1.4,-0.5235987755982988,-0.5235987755982988,0,0.5018605,-1.0066265,1.1098958,-0.87488955,-0.38976762,0.5891087,-1.2732766,0.4461826,-0.6535948,1.4745705,-0.51886916,-0.56656337,0.06191068,1.4478978
0.0,-0.1,1.4,-0.5235987755982988,-0.5235987755982988,0,0.19803043,-1.3211508,1.1157548,-0.875211,-0.32041356,0.75733006,-0.9215858,0.3462878,-0.96051437,1.4292712,-0.46606913,-0.28338146,-0.4980817,0.039472785
0.0,-0.1,1.4,-0.5235987755982988,-0.5235987755982988,0,0.31517062,-1.0330181,0.95630455,-0.8356233,-0.07078949,0.85684675,-0.97022754,0.6314796,-0.68275744,1.4584174,-0.4517007,-0.9446889,-0.14117655,0.080884546
0.0,-0.1,1.4,-0.5235987755982988,-0.5235987755982988,0,-0.00432437,-1.3976121,1.0053631,-0.743635,-0.06910191,0.4829268,-0.90316266,0.5505947,-0.8319622,1.5660869,-0.46780095,-0.5059093,0.20336558,1.251604
0.0,-0.1,1.4,-0.5235987755982988,-0.5235987755982988,0,0.3731003,-1.2966981,1.2895758,-0.90271926,-0.836331,0.40156215,-1.0519514,0.5181076,-0.5416356,1.497676,-0.42776757,-0.8367154,0.48259968,-0.16007839
0.0,-0.1,1.4,-0.5235987755982988,-0.5235987755982988,0,0.34240666,-0.858191,1.2110777,-0.8726086,-0.10690381,0.46070078,-0.9352572,0.5418169,-0.81379867,1.4713475,-0.5233293,-0.88484424,0.57087463,1.273773
0.0,-0.1,1.4,-0.5235987755982988,-0.5235987755982988,0,0.58739966,-1.7330791,1.0709838,-1.0961021,-0.11081382,0.15956838,-1.2069987,0.35905474,-1.102701,1.404635,-0.42065763,-1.3475109,0.6705299,0.3334729
0.0,-0.1,1.4,-0.5235987755982988,-0.5235987755982988,0,0.33378807,-1.3154476,1.04623,-1.0534786,-0.38196516,0.76727146,-1.1935723,0.60110205,-0.46176094,1.4845876,-0.43993092,-0.72907156,0.14822045,0.8838563
0.0,-0.1,1.4,-0.5235987755982988,-0.5235987755982988,0,0.27702397,-1.2005879,1.0094987,-1.1594616,-0.9470541,0.95296484,-0.94207263,0.37449417,-0.6853353,1.4348533,-0.4677327,-0.8082766,0.5724371,2.4858375
0.0,-0.1,1.4,-0.5235987755982988,-0.5235987755982988,0,0.418031,-1.0740751,0.9895808,-1.1485531,-0.6858657,0.5166387,-1.0357821,0.61303747,-0.95231926,1.4408078,-0.43605545,-0.11072114,0.2599297,0.84391785
0.0,-0.1,1.4,-0.5235987755982988,-0.5235987755982988,0,0.32093075,-1.342257,1.0562136,-0.9057082,-0.37726417,0.878785,-1.3980628,0.53667164,-0.50752383,1.4843937,-0.5204229,-0.1887766,0.2306067,1.3943707
0.0,-0.1,1.4,-0.5235987755982988,-0.5235987755982988,0,0.19962668,-1.0409625,0.97231185,-0.76841253,-0.2251481,0.6944928,-1.240397,0.49214736,-0.8824462,1.42155,-0.46655074,-0.98641354,-0.10725932,0.32747006
0.0,-0.1,1.4,-0.5235987755982988,-0.5235987755982988,0,0.24834707,-1.3294963,1.1214045,-1.0694016,-0.32054105,0.78517497,-1.3650113,0.22433543,-0.60195875,1.5541298,-0.50928915,-0.94589216,0.4707462,0.65292555
0.0,-0.1,1.4,-0.5235987755982988,-0.5235987755982988,0,0.047655545,-1.2603717,1.1418532,-1.0724508,-0.22930703,0.5743762,-0.8574186,0.48728898,-0.6578695,1.4410172,-0.56968874,-0.69163084,0.65527004,0.9425556
0.0,-0.1,1.4,-0.5235987755982988,-0.5235987755982988,0,0.24121042,-1.3124073,1.1471624,-0.8815055,-1.2854644,0.6409494,-0.718284,0.6575755,-0.57047385,1.5454017,-0.5896344,-0.3059247,0.76155394,-0.52415216
0.0,-0.1,1.4,-0.5235987755982988,-0.5235987755982988,0,0.31392366,-1.4422004,1.0350357,-0.9681291,0.08618536,1.0713593,-0.4129836,0.49865392,-0.67117983,1.487637,-0.5817442,-0.96329564,0.19790152,0.121738546
0.0,-0.1,1.4,-0.5235987755982988,-0.5235987755982988,0,0.29226193,-1.192851,1.0194492,-0.842193,-0.8046907,0.48775983,-1.0036445,0.5561622,-0.70657194,1.4583775,-0.49239075,-1.0982574,-0.09060101,0.6078124
0.0,-0.1,1.4,-0.5235987755982988,-0.5235987755982988,0,0.17528568,-1.0320382,1.139721,-1.0279853,-0.1543646,0.5318781,-1.0808084,0.5145174,-0.77305603,1.486742,-0.47937915,-0.2376862,0.4928298,0.13039134
0.0,-0.1,1.4,-0.5235987755982988,-0.5235987755982988,0,0.2405784,-1.1062679,1.0622989,-0.9654136,-0.3634566,0.6767806,-1.2637088,0.48503473,-0.86945844,1.541605,-0.48287684,-0.36125624,0.028022958,1.6348436
0.0,-0.1,1.4,-0.5235987755982988,-0.5235987755982988,0,0.32798517,-1.387709,0.86670554,-0.9362661,-0.055804946,0.5234896,-1.174268,0.61275154,-0.8350058,1.5209837,-0.39648476,-0.6229151,0.050823778,0.19645143
0.0,-0.1,1.4,-0.5235987755982988,-0.5235987755982988,0,0.14603369,-1.2544599,1.1282061,-1.0737033,-0.8910263,0.32069752,-1.5013925,0.5138872,-0.9134608,1.4257196,-0.44020963,-0.387343,0.7724195,2.1205451
0.0,-0.1,1.4,-0.5235987755982988,-0.5235987755982988,0,0.08561156,-1.1419102,1.0329952,-0.9228007,-0.4100125,0.7941111,-1.1491661,0.6062438,-0.9192422,1.4050273,-0.42742968,-0.68214214,0.53930044,1.0041685
0.0,-0.1,1.4,-0.5235987755982988,-0.5235987755982988,0,0.4338239,-1.2948177,1.0342377,-0.88116354,-0.8568591,0.6570326,-1.2709255,0.45623264,-0.6267311,1.4488463,-0.42570984,-1.0017021,-0.049448792,2.281383
0.0,-0.1,1.4,-0.5235987755982988,-0.5235987755982988,0,0.16293389,-1.0802993,1.0197146,-0.7530834,-0.032465324,0.4524439,-0.8549077,0.4527593,-0.907657,1.52831,-0.52692634,-0.50076693,0.001807855,0.45988503
0.0,-0.1,1.4,-0.5235987755982988,-0.5235987755982988,0,0.18404885,-1.2725652,1.0369568,-1.231363,-0.62968177,0.8264876,-1.1051475,0.3856179,-0.8213001,1.4616187,-0.35145327,-0.81650746,0.4923449,-0.62731206
0.0,-0.1,1.4,-0.5235987755982988,-0.5235987755982988,0,0.2832139,-1.0099227,0.9434717,-1.1544471,-0.7318127,0.69102526,-1.466231,0.62608385,-0.6795465,1.4432076,-0.48323894,-0.7085203,0.3934388,-0.67329633
0.0,-0.1,1.4,-0.5235987755982988,-0.5235987755982988,0,0.24831973,-1.2885708,0.9560123,-0.91245174,-0.2961025,0.45445338,-0.5740728,0.5265788,-0.8617899,1.4893304,-0.5540294,-0.25490117,0.41083688,1.6386942
0.0,-0.1,1.4,-0.5235987755982988,-0.5235987755982988,0,0.15204765,-1.1275558,0.98844266,-1.0297629,-0.33287862,0.75058216,-0.9908037,0.4199037,-0.7175093,1.4699298,-0.49680135,-0.25627288,0.16734973,0.39894673
0.0,-0.1,1.4,-0.5235987755982988,-0.5235987755982988,0,0.42730576,-1.2852114,0.9662163,-0.8845246,-0.16521634,0.44540325,-1.0556821,0.388871,-0.6219559,1.4515779,-0.47517428,-0.79985774,-0.22244254,2.0477324
0.0,-0.1,1.4,-0.5235987755982988,-0.5235987755982988,0,0.21395807,-1.4604566,1.181651,-0.8910871,-0.42464098,0.8791781,-0.7057776,0.5620063,-0.82198644,1.517506,-0.5095133,-0.409356,0.8627506,0.34243062
0.0,-0.1,1.4,-0.5235987755982988,-0.5235987755982988,0,0.27673364,-1.304484,1.0697637,-1.1161696,-0.62084764,0.71633834,-1.1160384,0.51512957,-0.5312837,1.5484941,-0.55797535,-0.8025297,0.36587265,1.7068894
0.0,-0.1,1.4,-0.5235987755982988,-0.5235987755982988,0,0.15001985,-1.2052453,1.1072277,-1.3385216,0.14129344,0.7478963,-1.4264009,0.48267892,-0.53596514,1.4574261,-0.57628644,-0.5212823,0.5464404,1.6761074
0.0,-0.1,1.4,-0.5235987755982988,-0.5235987755982988,0,0.14072645,-1.2019778,1.0550776,-0.80891913,-0.55499566,0.4784643,-1.265197,0.54733247,-0.8015391,1.4771657,-0.57842827,-0.58237946,0.7447057,-0.261257
0.0,-0.1,1.4,-0.5235987755982988,-0.5235987755982988,0,0.29104057,-1.3376764,1.0405977,-0.86961555,-0.2251217,0.7151795,-0.19456834,0.41864693,-0.49054575,1.5184388,-0.41762227,-0.7204282,0.26517457,1.109483
0.0,-0.1,1.4,-0.5235987755982988,-0.5235987755982988,0,0.26990256,-1.0222539,1.0855265,-1.002079,0.18852955,0.581546,-0.06116265,0.4378255,-0.84361076,1.4344715,-0.44674322,-1.0937417,0.7691751,0.89684916
0.0,-0.1,1.4,-0.5235987755982988,-0.5235987755982988,0,0.28547835,-1.0697163,1.0911627,-1.0352836,-0.4857529,0.5889518,-1.4696535,0.65100265,-0.8218038,1.4364927,-0.4115301,-0.90864074,0.78378284,0.1639263
0.0,-0.1,1.4,-0.5235987755982988,-0.5235987755982988,0,0.43171293,-1.1106514,1.09955,-0.888402,-1.1445408,0.6029738,-0.71891236,0.39664772,-0.8363436,1.4782892,-0.50668484,-0.5385534,0.39378697,0.13193074
0.0,-0.1,1.4,-0.5235987755982988,-0.5235987755982988,0,0.21256201,-0.9730809,1.0672404,-1.075931,-0.08896625,0.5154892,-0.86582464,0.5218432,-0.89812016,1.512643,-0.4417727,-0.36565927,0.47348726,0.14853081
0.0,-0.1,1.4,-0.5235987755982988,-0.5235987755982988,0,0.22441138,-1.1879518,0.97191095,-0.7994226,-0.5862049,0.998511,-1.0370231,0.5185762,-0.74258685,1.5214158,-0.455369,-1.2035743,0.7629854,1.2546834
0.0,-0.1,1.4,-0.5235987755982988,-0.5235987755982988,0,-0.009518226,-1.383909,1.047437,-1.0220286,-0.27466545,1.0247989,-1.2032197,0.45596215,-0.9348921,1.4785688,-0.51080626,-0.7506433,0.27972847,1.190357
0.0,-0.1,1.4,-0.5235987755982988,-0.5235987755982988,0,0.3113711,-1.2223918,0.9954478,-0.9870527,-0.5468292,0.5358236,-0.5365412,0.5105682,-0.7263205,1.487604,-0.53914654,-0.54563314,-0.12782462,0.90693456
0.0,-0.1,1.4,-0.5235987755982988,-0.5235987755982988,0,0.30782542,-1.0359683,1.0139973,-0.9434316,-0.48072675,0.8200885,-0.6191694,0.49889833,-0.7765369,1.4816145,-0.5335604,-0.747509,0.84580004,1.423915
0.0,-0.1,1.4,-0.5235987755982988,-0.5235987755982988,0,0.12751605,-1.1203336,0.9909831,-1.09421,-0.7266033,0.76977164,-0.831607,0.51661015,-0.7494594,1.4455853,-0.417907,-0.83154905,0.017446063,0.66242677
0.0,-0.1,1.4,-0.5235987755982988,-0.5235987755982988,0,0.39815706,-1.3288559,1.0579442,-0.9145673,-0.05151073,0.8453358,-0.48809987,0.564407,-0.5903455,1.5039105,-0.47104257,-0.9221867,0.22987702,-0.27178338
0.0,-0.1,1.4,-0.5235987755982988,-0.5235987755982988,0,0.17355853,-1.3245875,0.8378795,-1.1368371,-0.5711281,0.8806561,-1.0833406,0.34040135,-0.6547958,1.505922,-0.5053872,-0.37764385,0.738883,1.1841365
0.0,-0.1,1.4,-0.5235987755982988,-0.5235987755982988,0,0.39983696,-1.0771295,1.0474975,-0.84547454,0.007773451,0.7851722,-1.1725805,0.5405936,-0.7721726,1.5938048,-0.4836203,-0.43157166,1.5477625,1.654598
0.0,-0.1,1.4,-0.5235987755982988,-0.5235987755982988,0,0.36681077,-1.1122748,0.9740667,-0.80078614,-0.55093044,0.49082443,-0.9174676,0.643163,-0.6622017,1.5159591,-0.47674432,-0.4945438,0.14119914,1.6333106
0.0,-0.1,1.4,-0.5235987755982988,-0.5235987755982988,0,0.14073187,-1.2809846,1.1748413,-1.0405842,-0.4423691,0.6942657,-1.0183461,0.40446952,-0.9016907,1.4324827,-0.48513448,-0.8796961,0.64713895,0.8005719
0.0,-0.1,1.4,-0.5235987755982988,-0.5235987755982988,0,0.41116163,-1.1557302,0.7896298,-0.9881156,-1.1260885,0.93324584,-1.0971407,0.50510746,-0.7951746,1.468205,-0.39684704,-0.54600954,0.25894338,2.1920042
0.0,-0.1,1.4,-0.5235987755982988,-0.5235987755982988,0,0.17219134,-1.1009548,1.12032,-0.9548619,-0.83472216,0.78687143,-0.9203203,0.44473827,-0.83999735,1.4572102,-0.61012673,-0.6710787,0.6697459,0.62836903
0.0,-0.1,1.4,-0.5235987755982988,-0.5235987755982988,0,0.1374296,-1.2837934,1.0573729,-1.131406,0.06559284,0.43421283,-1.1367024,0.4772511,-0.8119181,1.4491289,-0.37151808,-0.6008362,1.0380301,0.663445
0.0,-0.1,1.4,-0.5235987755982988,-0.5235987755982988,0,0.1750234,-1.3662444,0.86285365,-0.99369144,-0.49105945,0.9976774,-0.55704874,0.49125054,-0.612608,1.500476,-0.49235612,-1.0614709,0.4784855,0.8114076
0.0,-0.1,1.4,-0.5235987755982988,-0.5235987755982988,0,0.41888905,-1.3469812,0.9203377,-0.8923445,0.12562807,0.7951069,-1.4976575,0.4418515,-0.55529636,1.4421294,-0.6136173,-0.9700263,0.5095737,0.21375194
0.0,-0.1,1.4,-0.5235987755982988,-0.5235987755982988,0,0.32280764,-1.261088,1.0271863,-0.9638289,-0.4173364,0.6631818,-1.280616,0.5245709,-0.7449968,1.4083914,-0.49858534,-1.0630642,0.2543687,0.9543851
0.0,-0.1,1.4,-0.5235987755982988,-0.5235987755982988,0,0.11780785,-1.1275448,1.0252752,-0.9729822,-0.8435297,0.43009666,-1.2142975,0.5331582,-0.8016953,1.4682866,-0.48833513,-1.111187,0.2117699,1.4806737
0.0,-0.1,1.4,-0.5235987755982988,-0.5235987755982988,0,0.47757584,-1.1576518,1.0837128,-1.070731,0.3139993,0.47580326,-1.2145878,0.5553854,-0.67589337,1.5708231,-0.49368578,-0.36289117,0.44377282,0.98461604
0.0,-0.1,1.4,-0.5235987755982988,-0.5235987755982988,0,0.2365902,-1.4711607,0.97114605,-0.77972245,-0.4086368,0.81185114,-1.1562549,0.56360394,-0.6132661,1.566358,-0.37469807,-0.48179534,-0.12521514,0.8888729
0.0,-0.1,1.4,-0.5235987755982988,-0.5235987755982988,0,0.15648034,-1.1424541,0.95575464,-0.94204664,-0.5944166,0.37026244,-0.28875783,0.45029414,-0.85286343,1.5131747,-0.47618127,-0.19114046,-0.14478578,0.6791385
0.0,-0.1,1.4,-0.5235987755982988,-0.5235987755982988,0,-0.021573372,-1.3515477,1.1324337,-0.9443376,-0.6450799,0.7561501,-1.353293,0.465312,-0.7873269,1.4622906,-0.58012784,-0.8378804,0.08668227,1.4966832
0.0,-0.1,1.4,-0.5235987755982988,-0.5235987755982988,0,0.2067154,-1.2518492,1.1378982,-1.0375943,-0.47628555,0.5431476,-1.1390864,0.4174321,-0.81573516,1.3573256,-0.49734646,-0.9164873,0.42108107,-0.16042079
0.0,-0.1,1.4,-0.5235987755982988,-0.5235987755982988,0,0.15495962,-1.156666,1.0515238,-1.0179303,-0.46032554,0.6847338,-0.92570555,0.5909959,-0.7746634,1.4886967,-0.43177176,-0.3232595,0.6683157,0.3483523
0.0,-0.1,1.4,-0.5235987755982988,-0.5235987755982988,0,0.33325356,-1.1508851,0.91600823,-0.84206873,-0.89811504,0.54657733,-0.7935706,0.44114402,-0.6953825,1.5198662,-0.5896848,-0.8546939,0.43881184,0.11065296
0.0,-0.1,1.4,-0.5235987755982988,-0.5235987755982988,0,0.37884772,-1.1107942,1.2104802,-1.0369313,-0.51121694,0.6863221,-0.9847043,0.5686684,-0.6431749,1.5883448,-0.49479696,-1.2868565,0.76689905,0.9495884
0.0,-0.1,1.4,-0.5235987755982988,-0.5235987755982988,0,0.36786374,-1.3538154,0.8834473,-1.0303438,-0.89491755,0.69097066,-1.0669214,0.4770965,-0.802715,1.4926839,-0.42267615,-0.19795477,0.3399983,1.4768069
0.0,-0.1,1.4,-0.5235987755982988,-0.5235987755982988,0,0.1971196,-1.4180902,0.95500803,-0.7389514,-0.3039152,0.5152381,-0.80230963,0.45776048,-0.9326994,1.4914497,-0.4309633,-0.71218836,-0.36094934,-0.582884
0.0,-0.1,1.4,-0.5235987755982988,-0.5235987755982988,0,0.3220891,-1.3898109,0.9319307,-0.7498726,-0.951149,0.23635072,-1.168025,0.3357006,-0.92063105,1.4174259,-0.3824264,-0.65997416,0.68376803,2.345842
0.0,-0.1,1.4,-0.5235987755982988,-0.5235987755982988,0,0.31898707,-1.1122913,1.1077111,-1.0976356,-0.17076033,0.51721925,-0.58645195,0.59442914,-0.7313309,1.4511018,-0.44270486,-0.67695767,0.38674247,1.9901247
0.0,-0.1,1.4,-0.5235987755982988,-0.5235987755982988,0,0.1516192,-1.3006145,1.1568768,-1.0063746,-0.69835675,1.1148893,-0.9617258,0.516348,-0.5892164,1.434951,-0.44908163,-1.2817459,0.65910584,-1.1808194
0.0,-0.1,1.4,-0.5235987755982988,-0.5235987755982988,0,0.108856775,-1.1975424,1.2055322,-0.8717553,-0.5900561,1.1988697,-0.879519,0.5965142,-0.68410814,1.4648087,-0.41566363,-0.52390504,0.62337077,1.2815449
0.0,-0.1,1.4,-0.5235987755982988,-0.5235987755982988,0,0.29104847,-1.0448836,0.99422765,-1.1990728,-0.7466055,0.7788423,-0.5497095,0.6072783,-0.69098645,1.3983343,-0.43584886,-0.5731407,0.29051632,1.0345805
0.0,-0.1,1.4,-0.5235987755982988,-0.5235987755982988,0,0.30098364,-1.069795,1.0837604,-1.1275313,-0.116322406,0.9429988,-0.43696135,0.4301055,-0.7792158,1.4908879,-0.5972951,-0.68103194,0.13848636,0.9678863
0.0,-0.1,1.4,-0.5235987755982988,-0.5235987755982988,0,0.4172783,-1.2617762,1.0152715,-1.0630481,-0.52915853,0.76741576,-1.1071991,0.4611435,-0.61558795,1.4697495,-0.5119103,-0.7775508,0.85982114,0.9348428
0.0,-0.1,1.4,-0.5235987755982988,-0.5235987755982988,0,0.38599065,-1.2496861,1.0947118,-0.9564991,-0.7816153,0.49720767,-0.58631134,0.3152483,-0.74383366,1.4588456,-0.4724716,-0.7864783,0.2186328,0.4459612
0.0,-0.1,1.4,-0.5235987755982988,-0.5235987755982988,0,0.18764395,-1.3829327,1.1057724,-0.8235272,-0.5353506,0.95819205,-0.64482594,0.48642683,-0.5830639,1.4076756,-0.5259168,-0.5903013,-0.24090938,1.139581
0.0,-0.1,1.4,-0.5235987755982988,-0.5235987755982988,0,0.23459405,-1.1575221,1.0652939,-1.006543,-0.4372165,-0.20753601,-0.63989586,0.4656528,-0.560995,1.5650872,-0.59999293,-0.4310137,-0.29183188,0.61455953
0.0,-0.1,1.4,-0.5235987755982988,-0.5235987755982988,0,0.30335173,-1.3153447,0.93717784,-0.94977504,-0.43379337,0.70604026,-0.17435488,0.4611458,-0.7270151,1.4567739,-0.4771127,-0.8451406,0.70438284,2.2290752
0.0,-0.1,1.4,-0.5235987755982988,-0.5235987755982988,0,0.1378573,-1.0120847,1.112397,-1.0921245,0.03049635,0.6580594,-1.240284,0.5701971,-0.6935301,1.5734408,-0.37410966,-1.5447608,0.84011966,0.6683659
0.0,-0.1,1.4,-0.5235987755982988,-0.5235987755982988,0,0.27318975,-1.3203255,1.088286,-0.87337655,-0.54852235,0.46504083,-0.4349864,0.3974874,-0.5671389,1.4955835,-0.5633613,-0.945363,0.16912791,0.45476913
0.0,-0.1,1.4,-0.5235987755982988,-0.5235987755982988,0,0.36069688,-1.1914581,1.1115359,-0.87889737,-0.338748,0.6597823,-0.5786683,0.6556929,-0.65081203,1.4376607,-0.4912269,-0.5541713,0.3585803,1.9527204
0.0,-0.1,1.4,-0.5235987755982988,-0.5235987755982988,0,0.010046824,-1.1588994,1.1705862,-1.0209044,-1.0054444,0.8092205,-0.74445254,0.45236397,-0.8014582,1.542925,-0.53298146,-0.82868373,0.32113826,1.2136736
0.0,-0.1,1.4,-0.5235987755982988,-0.5235987755982988,0,0.04767026,-1.1771923,1.0538117,-1.0628278,-0.27227184,0.7833027,-0.89060616,0.49957514,-0.7854602,1.594411,-0.46254432,-0.8741004,0.80284274,0.56861544
0.0,-0.1,1.4,-0.5235987755982988,-0.5235987755982988,0,0.011318307,-1.2752961,1.1783656,-1.0224483,-0.27690727,0.7460627,-0.31220946,0.50777125,-0.6687236,1.4962889,-0.5852083,-0.3487096,0.17206326,0.048922073
0.0,-0.1,1.4,-0.5235987755982988,-0.5235987755982988,0,0.4481985,-1.1941644,1.1469985,-0.82731587,-0.5826015,0.45706058,-0.7638476,0.5989523,-0.70431983,1.4466112,-0.41977462,-1.1782149,0.3133583,0.25058007
0.0,-0.1,1.4,-0.5235987755982988,-0.5235987755982988,0,0.0021373655,-1.4300885,1.1704812,-0.9355987,-0.43369952,0.37693632,-1.2684433,0.37441462,-0.8599281,1.5192962,-0.5324825,-0.761637,1.0087756,0.7997418
0.0,-0.1,1.4,-0.5235987755982988,-0.5235987755982988,0,0.29468843,-1.1223207,0.9668688,-1.1617202,-0.56815815,0.6178555,-0.4706299,0.46099356,-0.7883237,1.5464685,-0.5044355,-0.7911281,0.14370057,-0.85607785
0.0,-0.1,1.4,-0.5235987755982988,-0.5235987755982988,0,0.034387,-1.2789899,1.1136322,-1.0570978,-0.19155379,0.6722356,-1.0951687,0.46437493,-0.7816094,1.504667,-0.44896233,-1.0187311,0.43394884,1.0504475
0.0,-0.1,1.4,-0.5235987755982988,-0.5235987755982988,0,0.4146802,-1.1625266,0.99232495,-0.89504087,-0.94757545,0.6064246,-0.8165582,0.60099065,-0.78211147,1.3531276,-0.43153673,-0.9364691,1.1644797,1.7024561
0.0,-0.1,1.4,-0.5235987755982988,-0.5235987755982988,0,0.16424124,-1.2619559,1.0434152,-0.78832793,-0.35309008,0.577495,-0.81947607,0.5527876,-0.7461873,1.4846308,-0.5077951,-0.8955318,0.49300998,0.9321569
0.0,-0.1,1.4,-0.5235987755982988,-0.5235987755982988,0,0.26333007,-1.2051497,1.1080352,-1.017986,0.2549409,0.8500861,-0.8742346,0.4544864,-0.56734425,1.4956158,-0.484116,-0.5062406,0.4526703,0.826361
0.0,-0.1,1.4,-0.5235987755982988,-0.5235987755982988,0,0.04426961,-1.336138,0.88256407,-0.9570008,-0.09603476,0.719153,-1.2873176,0.40199956,-0.9245945,1.4487032,-0.47301582,-1.0786959,0.5226846,0.90744627
0.0,-0.1,1.4,-0.5235987755982988,-0.5235987755982988,0,0.30639467,-1.1572683,1.0533272,-1.0028204,-1.2411292,0.6679211,-1.2164637,0.5104339,-0.77610844,1.4579899,-0.40175173,-0.4441723,0.6024574,1.0949419
0.0,-0.1,1.4,-0.5235987755982988,-0.5235987755982988,0,0.4484616,-1.2003051,1.1047529,-1.0829978,-0.6272504,0.44006228,-1.0631495,0.4578765,-0.78613275,1.479436,-0.48097524,-0.7692328,0.3718051,2.087323
0.0,-0.1,1.4,-0.5235987755982988,-0.5235987755982988,0,0.2992698,-1.3608145,1.0094793,-0.864744,-0.67845386,0.50429624,-1.3142066,0.5233487,-0.55065787,1.4498008,-0.48318022,-0.34688565,0.8183063,1.4933583
0.0,-0.1,1.4,-0.5235987755982988,-0.5235987755982988,0,0.30260107,-1.2789794,0.9919765,-0.7007291,-0.032031756,0.4213359,-0.6644247,0.4763332,-0.74024796,1.4705359,-0.5509052,-0.8817411,0.23128298,0.24894328
0.0,-0.1,1.4,-0.5235987755982988,-0.5235987755982988,0,0.3209333,-1.1728735,1.1367246,-0.88426316,-0.26533237,0.5941552,-0.41587096,0.42499328,-0.66694504,1.5260439,-0.5507942,-0.398873,0.8273828,-0.31163415
0.0,-0.1,1.4,-0.5235987755982988,-0.5235987755982988,0,0.18315086,-1.1347426,1.0789554,-0.85284746,-0.24483138,1.1241148,-1.1405983,0.6170819,-0.648827,1.4474107,-0.5479155,-0.48461083,1.0316678,0.0069607417
0.0,-0.1,1.4,-0.5235987755982988,-0.5235987755982988,0,0.11718709,-1.3194525,1.0421891,-0.9404288,-0.32572913,0.6730376,-0.6937519,0.36454818,-0.8072912,1.4330907,-0.5770035,-0.8878598,0.17312746,-0.45096612
0.0,-0.1,1.4,-0.5235987755982988,-0.5235987755982988,0,0.23710984,-1.1173626,0.9658678,-0.9755227,-0.40418464,0.8205856,-0.60546243,0.50573665,-0.80017924,1.4869252,-0.43618652,-0.66294134,1.3461908,0.7313762
0.0,-0.1,1.4,-0.5235987755982988,-0.5235987755982988,0,0.27804923,-1.2079229,0.9769372,-0.920241,-0.33449793,0.70001125,-0.4807799,0.38334998,-0.84685814,1.4454945,-0.4868534,-0.5982796,0.293045,1.074723
0.0,-0.1,1.4,-0.5235987755982988,-0.5235987755982988,0,0.2342064,-1.1794205,1.0850344,-1.1118841,-0.3740249,0.87836236,0.02474145,0.46625465,-0.72434664,1.5092504,-0.48817074,-0.87441915,0.37048277,1.4457197
0.0,-0.1,1.4,-0.5235987755982988,-0.5235987755982988,0,0.41612756,-1.2274398,1.1176547,-0.8503977,-0.8735618,1.0163615,-0.9247203,0.55695075,-0.5914807,1.5227774,-0.5513901,-0.85723144,0.67480487,1.9374863
0.0,-0.1,1.4,-0.5235987755982988,-0.5235987755982988,0,0.25727677,-1.2695551,1.0713891,-0.9148682,-0.5089615,0.8100105,-1.3470114,0.45701557,-0.6609673,1.4479954,-0.494528,-1.2217584,0.18521683,1.0716515
0.0,-0.1,1.4,-0.5235987755982988,-0.5235987755982988,0,0.23958634,-1.1936722,1.0904431,-1.0165956,-0.96848786,0.7002265,-0.6914787,0.5291183,-0.7145725,1.4296467,-0.46872756,-0.54612106,0.44646633,0.5501127
0.0,-0.1,1.4,-0.5235987755982988,-0.5235987755982988,0,0.25651377,-1.2478149,1.0034653,-1.0681224,-0.53917724,1.4657313,-0.8293536,0.49271342,-0.62198883,1.4320481,-0.4262547,-0.49492815,0.8063133,0.061117355
0.0,-0.1,1.4,-0.5235987755982988,-0.5235987755982988,0,0.30881336,-1.2090653,1.0237972,-0.83825904,-0.62840563,0.61956894,-0.83495754,0.4432069,-0.7974908,1.4380091,-0.42629665,-0.82415456,0.80655473,1.3740474
0.0,-0.1,1.4,-0.5235987755982988,-0.5235987755982988,0,0.25871286,-1.1743431,1.0075606,-1.1548437,-0.59038645,0.843189,-0.5784211,0.4151625,-0.5683567,1.5326113,-0.46239173,-0.20015691,-0.14864792,1.4934366
0.0,-0.1,1.4,-0.5235987755982988,-0.5235987755982988,0,0.14977607,-1.4368173,0.9700353,-0.82433456,-0.10009239,0.5010253,-0.6052555,0.46045336,-0.67395157,1.410397,-0.49383143,-0.6475445,0.5956021,0.28611678
0.0,-0.1,1.4,-0.5235987755982988,-0.5235987755982988,0,0.102435656,-1.2926773,1.0744814,-0.86427474,-0.440273,0.5016036,-0.7915104,0.4160994,-0.9832861,1.4797586,-0.42980862,-0.825428,0.5196953,0.656473
0.0,-0.1,1.4,-0.5235987755982988,-0.5235987755982988,0,0.17010163,-1.2799748,1.1306758,-0.8391066,-0.55733323,0.43346676,-0.53580797,0.5586398,-0.6171834,1.5201526,-0.57393956,-0.87115633,0.59325653,-0.1371801
0.0,-0.1,1.4,-0.5235987755982988,-0.5235987755982988,0,0.2027112,-1.1827192,1.1982981,-0.881921,-0.7740441,0.39247292,-0.99476343,0.52226675,-0.64913034,1.402417,-0.551301,-0.6437755,1.456304,0.25297362
0.0,-0.1,1.4,-0.5235987755982988,-0.5235987755982988,0,0.121856675,-1.355621,1.1288459,-0.8588265,-0.2230853,0.6679791,-0.43329158,0.45693517,-0.8332433,1.4010515,-0.46812454,-0.66828614,0.5293928,1.1855487
0.0,-0.1,1.4,-0.5235987755982988,-0.5235987755982988,0,0.34663025,-1.0858111,1.1324415,-1.1691793,0.02516202,0.88340455,-0.8744955,0.5021883,-0.76796085,1.516542,-0.39770174,-0.97966087,0.59490347,0.2694177
0.0,-0.1,1.4,-0.5235987755982988,-0.5235987755982988,0,0.08700412,-1.2661006,1.1694381,-0.9423545,-0.6997589,0.81896394,-0.89027745,0.51018167,-0.80713075,1.342258,-0.42636737,-0.64982116,0.5695236,1.5187056
0.0,-0.1,1.4,-0.5235987755982988,-0.5235987755982988,0,0.54182523,-1.243932,1.0254884,-0.8661586,-0.7363535,0.5545655,-1.1506376,0.5369641,-0.6989224,1.4252324,-0.48438737,-0.5918864,0.5096085,2.4043105
0.0,-0.1,1.4,-0.5235987755982988,-0.5235987755982988,0,0.14405714,-1.255264,1.0201572,-0.84788615,-1.0196819,0.56075096,-0.6762112,0.4190422,-0.65247697,1.5725832,-0.5736071,-0.7261044,0.23736835,0.71806425
0.0,-0.1,1.4,-0.5235987755982988,-0.5235987755982988,0,0.26782575,-1.2430074,0.9650889,-0.89793223,0.2746226,0.8502327,-0.7614931,0.4501246,-0.5887229,1.5079042,-0.5344152,-0.3457285,0.5631761,1.0117954
0.0,-0.1,1.4,-0.5235987755982988,-0.5235987755982988,0,0.1550914,-1.1485088,0.92093235,-1.0747179,-0.52245843,0.44996104,-1.2316465,0.464383,-0.6133925,1.5036873,-0.5589171,-0.41793585,-0.0016566468,1.559384
0.0,-0.1,1.4,-0.5235987755982988,-0.5235987755982988,0,0.073244914,-1.1530287,0.9234929,-1.1267314,-0.79251957,0.6718905,-0.5511598,0.52238923,-0.65679353,1.4944937,-0.47162995,-0.3139232,0.79512846,1.9651791
0.0,-0.1,1.4,-0.5235987755982988,-0.5235987755982988,0,0.14709786,-1.26659,1.14949,-0.8760176,-0.3642178,0.53347677,-0.9417706,0.5273923,-0.72088313,1.3859578,-0.48954833,-0.54411656,0.6051655,0.7607342
0.0,-0.1,1.4,-0.5235987755982988,-0.5235987755982988,0,0.19202042,-1.215157,0.94121283,-1.0458634,-0.5386914,0.86021554,-0.8269773,0.3951345,-0.6781644,1.5469528,-0.4650939,-1.4520547,0.41980574,0.6623823
0.0,-0.1,1.4,-0.5235987755982988,-0.5235987755982988,0,0.4512745,-1.1635417,0.9699905,-0.96747726,-0.20533374,0.48267433,-0.90341264,0.39384264,-0.66668284,1.6068949,-0.52993536,-0.33335873,0.0858743,0.7540939
0.0,-0.1,1.4,-0.5235987755982988,-0.5235987755982988,0,0.3655328,-1.1779351,1.047804,-1.0175227,-0.33320534,0.6839215,-0.51414764,0.5108283,-0.6539911,1.4109898,-0.44002888,-0.87691784,0.10059954,2.190741
0.0,-0.1,1.4,-0.5235987755982988,-0.5235987755982988,0,0.15270905,-1.1792042,0.97232383,-1.0327414,-0.37702426,0.56208915,-0.84063166,0.51525015,-0.65833044,1.470086,-0.53412336,-0.8476144,0.47345456,1.3481499
0.0,-0.1,1.4,-0.5235987755982988,-0.5235987755982988,0,0.21071878,-1.1282557,1.0662283,-1.1498904,-0.5884098,0.69181216,-1.0811816,0.51462096,-0.627902,1.518672,-0.45067754,-0.37344334,0.38316748,1.1053436
0.0,-0.1,1.4,-0.5235987755982988,-0.5235987755982988,0,0.24440877,-1.1669266,0.9238304,-1.1504521,-0.9690965,0.55233747,-1.3016253,0.5425643,-0.66654456,1.4910257,-0.3643955,-0.92010367,-0.14552608,1.0060533
0.0,-0.1,1.4,-0.5235987755982988,-0.5235987755982988,0,0.32425925,-1.1692482,1.0219318,-0.87479055,-0.20312957,0.7792306,-0.5061818,0.4393769,-0.7143817,1.4794165,-0.44585395,-0.5934636,-0.036809396,0.08795679
0.0,-0.1,1.4,-0.5235987755982988,-0.5235987755982988,0,0.25929382,-1.0807093,1.3632007,-0.95838934,-0.80350965,0.7310902,-0.80201876,0.44153306,-0.7081809,1.4100605,-0.5298968,-0.39446047,0.48987374,0.1418073
0.0,-0.1,1.4,-0.5235987755982988,-0.5235987755982988,0,0.35096514,-1.0858105,1.2052051,-1.2129775,-0.6741338,0.6263729,-0.75097007,0.44267413,-0.67165023,1.5046593,-0.48525065,-0.8036248,0.52668655,1.686193
0.0,-0.1,1.4,-0.5235987755982988,-0.5235987755982988,0,0.42799714,-1.3249973,1.0300122,-0.9966759,0.076418534,0.61950463,-0.6519837,0.4093376,-0.5443628,1.4583368,-0.5346451,-0.5886747,0.2749713,1.8603661
0.0,-0.1,1.4,-0.5235987755982988,-0.5235987755982988,0,0.48360965,-1.2334358,1.0851786,-0.96201634,-0.4454224,0.31414288,-0.7399428,0.37689495,-0.75456685,1.4382553,-0.43345878,-1.1362296,0.73333764,1.5399255
0.0,-0.1,1.4,-0.5235987755982988,-0.5235987755982988,0,0.23509312,-1.2813224,0.87443453,-0.9415444,-0.8459402,0.6728671,-0.6122865,0.43902755,-0.8939355,1.5039513,-0.49428686,-0.8236361,0.39279398,1.2397138
0.0,-0.1,1.4,-0.5235987755982988,-0.5235987755982988,0,0.31446716,-1.3488829,0.9846793,-0.91766554,-0.9160509,0.5487236,-0.4539026,0.45568135,-0.73363656,1.6693143,-0.48541868,-0.58501005,0.19630252,0.5788617
0.0,-0.1,1.4,-0.5235987755982988,-0.5235987755982988,0,0.4158052,-1.2332491,1.1112156,-0.83497936,-0.09950377,0.83044237,-0.36391863,0.43605682,-0.7944556,1.5744745,-0.5317205,-0.34275156,0.47945762,0.35512245
0.0,-0.1,1.4,-0.5235987755982988,-0.5235987755982988,0,0.22372915,-1.4576713,1.2416611,-0.93667006,-0.29802024,1.0553689,-1.0815458,0.65174663,-0.6939921,1.4978803,-0.46467337,-0.6386912,0.940004,1.7426947
0.0,-0.1,1.4,-0.5235987755982988,-0.5235987755982988,0,0.31413957,-1.120212,1.0115665,-0.89608335,-0.12017797,0.6370757,-0.7684372,0.41651738,-0.9754753,1.413891,-0.6998023,-0.21731165,0.7580902,0.9139188
0.0,-0.1,1.4,-0.5235987755982988,-0.5235987755982988,0,0.1380697,-1.2573526,1.0519443,-1.0167127,-0.9019027,1.0121953,-1.1034998,0.6553428,-0.9120619,1.4531211,-0.34102127,-0.46148616,0.798352,0.98230946
0.0,-0.1,1.4,-0.5235987755982988,-0.5235987755982988,0,0.25772837,-1.2360219,0.9094556,-0.9264036,-0.65685725,0.76827586,-0.61170983,0.5722432,-0.7622712,1.5130029,-0.5059681,-0.8265629,0.40468436,0.45384103
0.0,-0.1,1.4,-0.5235987755982988,-0.5235987755982988,0,0.35652846,-1.252495,1.1317408,-0.875213,-1.0926737,0.71780586,-0.7334268,0.49170396,-0.8469002,1.5235231,-0.45587525,-0.34441915,0.026243629,1.8161294
0.0,-0.1,1.4,-0.5235987755982988,-0.5235987755982988,0,0.47492814,-1.313311,1.0206051,-1.0352232,-0.44171622,0.8055608,-0.86160684,0.50291467,-0.5292699,1.5601889,-0.48814657,-0.5091021,0.8387931,1.0476247
0.0,-0.1,1.4,-0.5235987755982988,-0.5235987755982988,0,0.3303495,-0.88344157,0.946419,-1.0728312,-0.49328804,0.628802,-0.9904465,0.54883283,-0.8926313,1.410989,-0.38098514,-0.3275652,-0.08279273,1.3763684
0.0,-0.1,1.4,-0.5235987755982988,-0.5235987755982988,0,0.5735054,-1.1236434,0.9981781,-1.033186,-0.23479852,0.46714926,-1.1267331,0.43958706,-0.780782,1.4462625,-0.48843044,-0.32521823,0.35262868,-0.16490416
0.0,-0.1,1.4,-0.5235987755982988,-0.5235987755982988,0,0.45718858,-1.0292857,1.0387465,-1.0527829,-0.116762936,0.6665671,-0.6201395,0.49800923,-0.7614074,1.5006593,-0.5384103,-0.49117914,0.60937667,-1.2548646
0.0,-0.1,1.4,-0.5235987755982988,-0.5235987755982988,0,0.1602221,-1.0625379,0.85527384,-1.0240734,-0.018789835,0.7992259,-0.5401357,0.57464826,-0.77276,1.4331568,-0.59374315,-0.6692035,0.7077611,1.0953517
0.0,-0.1,1.4,-0.5235987755982988,-0.5235987755982988,0,0.17893346,-0.92385435,1.1633158,-1.0760114,-0.031423785,0.607975,-0.6971607,0.6114519,-0.81417084,1.5294093,-0.51454663,-0.7533646,0.8318258,1.4606193
0.0,-0.1,1.4,-0.5235987755982988,-0.5235987755982988,0,0.40485522,-1.2160537,1.0674539,-1.0620952,-0.7662134,0.40997264,-1.512737,0.47910964,-0.56371784,1.5331815,-0.4066796,-0.762544,0.61662406,1.2250645
0.0,-0.1,1.4,-0.5235987755982988,-0.5235987755982988,0,0.3006307,-1.0110787,1.070314,-0.9802751,-1.1729062,0.17019972,-0.6315827,0.5102729,-0.8190769,1.4612669,-0.5328728,-0.35362867,0.56767094,-0.0055454015
0.0,-0.1,1.4,-0.5235987755982988,-0.5235987755982988,0,0.19674894,-1.1782563,0.87943244,-1.0437444,-0.62122864,0.31518242,-1.0458157,0.41987127,-0.8772925,1.434323,-0.4948527,-0.054574113,0.648218,1.8435475
0.0,-0.1,1.4,-0.5235987755982988,-0.5235987755982988,0,0.29781872,-1.3530043,0.9914767,-1.0205542,-0.16663033,0.7522931,-1.3623457,0.702681,-0.8983882,1.3898332,-0.5674964,-0.52957225,1.0908697,0.7445921
0.0,-0.1,1.4,-0.5235987755982988,-0.5235987755982988,0,0.23499666,-1.1066742,1.0561169,-0.95123106,-0.3894344,0.614725,-1.139245,0.49082762,-0.7517933,1.4483464,-0.4744815,-0.78387135,0.16472717,0.9592097
0.0,-0.1,1.4,-0.5235987755982988,-0.5235987755982988,0,0.23326568,-1.0077732,0.9817974,-1.0441257,-0.14942989,0.9916223,-0.951844,0.5265505,-0.66040844,1.525642,-0.42835802,-0.5224007,0.2322315,0.9011562
0.0,-0.1,1.4,-0.5235987755982988,-0.5235987755982988,0,0.387826,-1.1260052,1.1860963,-1.0220351,0.067599334,1.0763054,-1.2027272,0.5616081,-0.888897,1.4944689,-0.56441176,-0.59369916,0.42311522,0.91987145
0.0,-0.1,1.4,-0.5235987755982988,-0.5235987755982988,0,0.43525234,-1.2562053,1.1638277,-1.0155398,-0.5173851,0.6624707,-0.4824169,0.52931124,-0.7783957,1.4560235,-0.49109808,-0.5889835,0.55282205,0.61158466
0.0,-0.1,1.4,-0.5235987755982988,-0.5235987755982988,0,0.49095532,-1.308109,1.0912784,-0.8171295,0.4218859,0.3721771,-0.5830677,0.6077232,-0.40486628,1.4868934,-0.6076712,-0.5724747,0.5733788,0.38906005
0.0,-0.1,1.4,-0.5235987755982988,-0.5235987755982988,0,0.33362174,-1.5399988,0.9168463,-0.81609756,-0.054463368,0.66019106,-1.4593555,0.4304451,-0.60250574,1.4786133,-0.46309888,-1.4164628,0.3790975,0.882474
0.0,-0.1,1.4,-0.5235987755982988,-0.5235987755982988,0,-0.15088467,-1.3181641,1.0015106,-0.9700097,-0.8303982,0.2462713,-0.92760617,0.43142146,-0.98995686,1.3740058,-0.6190993,-0.6516693,0.19263636,0.6027283
0.0,-0.1,1.4,-0.5235987755982988,-0.5235987755982988,0,0.3267927,-1.2897881,1.0622687,-1.082618,-1.1541337,0.35457873,-1.394661,0.3867836,-0.51539266,1.5198153,-0.58061695,-0.9474428,0.41265532,1.9349935
0.0,-0.1,1.4,-0.5235987755982988,-0.5235987755982988,0,0.031392224,-1.2322711,1.1387641,-1.162538,-0.3841511,0.60430896,-0.7429939,0.5934479,-0.8741529,1.5198538,-0.43391794,-0.42224008,0.5924756,0.5986581
0.0,-0.1,1.4,-0.5235987755982988,-0.5235987755982988,0,0.32492256,-1.117981,1.0419297,-1.1274765,-0.22471094,0.09773078,-0.88277435,0.4062136,-0.55678874,1.5412275,-0.5520253,-0.3017241,0.027692622,0.5781237
0.0,-0.1,1.4,-0.5235987755982988,-0.5235987755982988,0,0.15428826,-1.3505906,1.0651504,-0.9156244,-0.4020357,0.8279753,-0.688489,0.56069946,-0.5382779,1.511133,-0.45593032,-0.45163655,-0.18363899,1.5994627
0.0,-0.1,1.4,-0.5235987755982988,-0.5235987755982988,0,0.16013387,-1.2542346,1.3080875,-1.0252236,-0.7391062,0.6682714,-1.1318897,0.54533786,-0.51153404,1.5349262,-0.516045,-0.8913626,0.31618303,0.36449942
0.0,-0.1,1.4,-0.5235987755982988,-0.5235987755982988,0,0.029412355,-1.4641879,1.055921,-0.8907896,-0.56524163,0.40414476,-0.45047826,0.43497708,-0.5468249,1.5345011,-0.55164564,-0.40566257,0.38135916,1.8059776
0.0,-0.1,1.4,-0.5235987755982988,-0.5235987755982988,0,0.2432349,-1.1690617,0.9504898,-1.039336,-0.32954013,0.8356671,-0.7467404,0.57034135,-0.6866098,1.4461648,-0.5248175,-0.90852875,0.029954463,0.8110283
0.0,-0.1,1.4,-0.5235987755982988,-0.5235987755982988,0,0.13637759,-1.3281025,0.9131971,-0.92637104,-1.0236456,0.30656794,-0.4173042,0.30254382,-0.71652335,1.5407956,-0.49331844,-0.85378224,0.5327446,0.9199631
0.0,-0.1,1.4,-0.5235987755982988,-0.5235987755982988,0,0.24363196,-1.3000542,0.8681875,-0.93706924,-0.32600343,0.8323652,-1.1806417,0.41425562,-0.6089945,1.457438,-0.54465073,-0.19114026,0.8948192,-1.0011528
0.0,-0.1,1.4,-0.5235987755982988,-0.5235987755982988,0,0.3677455,-1.2027332,1.0716057,-0.9754452,-0.41920447,0.44521737,-0.8388792,0.4916135,-0.6217642,1.430197,-0.65309525,-0.94421124,0.4177047,1.5347724
0.0,-0.1,1.4,-0.5235987755982988,-0.5235987755982988,0,0.26632395,-1.0971423,1.1404043,-1.1591369,-0.08344899,0.7050426,-0.91303337,0.522356,-0.5873587,1.4615389,-0.514964,-0.6307634,0.48875192,0.97246593
0.0,-0.1,1.4,-0.5235987755982988,-0.5235987755982988,0,0.0888593,-1.2815819,0.953642,-0.9984757,0.24350148,0.62391365,-0.37216595,0.3790666,-0.5884381,1.598023,-0.5366286,-0.9587599,0.699325,0.6868595
0.0,-0.1,1.4,-0.5235987755982988,-0.5235987755982988,0,0.4371075,-1.1318978,1.1815982,-0.9812203,-0.6865317,0.4219859,-1.4310169,0.4922578,-0.5872635,1.4948257,-0.58242184,-0.28713024,1.4374254,1.1888905
0.0,-0.1,1.4,-0.5235987755982988,-0.5235987755982988,0,0.4605686,-1.231369,1.028377,-0.7805064,-0.40661326,0.36882943,-0.973665,0.55648595,-0.604316,1.4654006,-0.449177,-0.78364563,0.52176225,1.3633208
0.0,-0.1,1.4,-0.5235987755982988,-0.5235987755982988,0,0.373182,-1.2220826,1.0158678,-0.9581086,-0.66531044,0.70777476,-0.3835446,0.4996881,-0.58117175,1.5478623,-0.4636627,-0.82545024,-0.033621904,0.3625762
0.0,-0.1,1.4,-0.5235987755982988,-0.5235987755982988,0,0.45155674,-1.1800368,1.1606524,-0.7811708,-0.51108915,0.86088777,-0.69128275,0.5180992,-0.5079057,1.5732055,-0.54346824,0.062143486,0.45312843,1.1636436
0.0,-0.1,1.4,-0.5235987755982988,-0.5235987755982988,0,0.44450623,-1.0663931,1.0423462,-1.0298584,-0.51823455,0.5979948,-1.1922302,0.4838707,-0.9835755,1.4318236,-0.5335801,-0.45824698,0.7724699,2.6673682
0.0,-0.1,1.4,-0.5235987755982988,-0.5235987755982988,0,0.20967615,-1.1110599,0.9995627,-0.94710827,-0.79942507,0.58905226,-1.1314026,0.58602095,-0.59114915,1.4471687,-0.52217543,-0.98206466,0.022168769,0.19744861
0.0,-0.1,1.4,-0.5235987755982988,-0.5235987755982988,0,0.5657722,-1.1554384,1.043603,-0.8691535,-0.27265564,0.7296672,-1.0123463,0.55037177,-0.78761846,1.5076001,-0.3786782,-0.8265499,0.22931412,0.7778166
0.0,-0.1,1.4,-0.5235987755982988,-0.5235987755982988,0,0.43170244,-1.5036529,0.89567953,-1.035951,-0.7609359,1.0237825,-0.8249222,0.46701097,-0.812547,1.3641226,-0.43681356,-0.6372469,0.37560812,-0.24320322
0.0,-0.1,1.4,-0.5235987755982988,-0.5235987755982988,0,0.23055384,-1.4957299,1.1634722,-1.1260992,-0.7897968,0.68932825,-0.8415679,0.5622134,-0.5392675,1.4593967,-0.51637185,-0.41171613,0.066476226,1.2177685
0.0,-0.1,1.4,-0.5235987755982988,-0.5235987755982988,0,0.5992287,-1.5147064,0.8878978,-0.90078324,-0.8797474,0.7912174,-1.0226239,0.43308267,-0.55333304,1.417366,-0.5688154,-0.5446606,0.524355,0.42629197
0.0,-0.1,1.4,-0.5235987755982988,-0.5235987755982988,0,0.37729388,-1.0056962,1.1043056,-0.9913217,-0.1456,0.62155867,-0.9096008,0.5149979,-0.743217,1.4871061,-0.5049424,-0.51456493,0.6837856,2.1514685
0.0,-0.1,1.4,-0.5235987755982988,-0.5235987755982988,0,0.42181396,-1.069778,1.146112,-1.0010183,-0.26887828,0.84457034,-0.77829856,0.48945796,-0.8377212,1.5026267,-0.5896612,-0.40077206,0.31507123,1.5799533
0.0,-0.1,1.4,-0.5235987755982988,-0.5235987755982988,0,0.44688952,-1.1130496,1.037136,-1.0521716,-0.5224058,0.48412332,-0.84885913,0.56590843,-0.6623003,1.3979459,-0.48335478,-0.469486,0.9526592,-0.119876504
0.0,-0.1,1.4,-0.5235987755982988,-0.5235987755982988,0,0.4930766,-1.1142604,1.0067406,-0.9007115,-0.49689502,0.5867262,-0.38532808,0.5901864,-0.58739907,1.4798385,-0.5458586,-0.34640062,0.25970364,-0.30751744
0.0,-0.1,1.4,-0.5235987755982988,-0.5235987755982988,0,0.55694,-1.3245772,0.9549773,-0.9431982,-0.2275063,0.7517769,-1.0645463,0.4763878,-0.5834055,1.4898335,-0.5288943,-1.1820753,0.19655019,0.40810403
0.0,-0.1,1.4,-0.5235987755982988,-0.5235987755982988,0,0.53559417,-1.1081514,1.021032,-0.94772345,-0.6339188,0.3351308,-1.3366007,0.35436973,-0.7546831,1.5600241,-0.4954037,-0.9053914,0.40051335,0.2732192
0.0,-0.1,1.4,-0.5235987755982988,-0.5235987755982988,0,0.4020237,-1.3117758,1.0478367,-0.9995075,-0.32522827,0.84001094,-0.93145406,0.38155317,-0.25437617,1.4695766,-0.48660263,-0.58109057,0.220387,1.8268197
0.0,-0.1,1.4,-0.5235987755982988,-0.5235987755982988,0,0.31345537,-1.0006659,1.0129819,-0.89178216,-0.39369312,0.5488368,-0.936193,0.6099087,-0.8288013,1.5408671,-0.58571357,-0.11874116,0.5062112,1.1906756
0.0,-0.1,1.4,-0.5235987755982988,-0.5235987755982988,0,0.016464641,-1.1792647,0.94059515,-0.8715745,0.022918548,0.368323,-0.5506535,0.5055928,-0.80809814,1.4710345,-0.44743076,-1.1865841,0.7361691,0.93353033
0.0,-0.1,1.4,-0.5235987755982988,-0.5235987755982988,0,0.3199453,-1.3915955,1.1352426,-0.99910617,-0.38083893,0.4857614,-0.5482633,0.506619,-0.35870525,1.5000149,-0.5011617,-1.0774626,0.13271862,-0.25921467
0.0,-0.1,1.4,-0.5235987755982988,-0.5235987755982988,0,0.34158576,-0.89383966,1.1751188,-0.96568877,-0.6933696,0.55635226,-0.8962119,0.49241015,-0.8113112,1.5293708,-0.51328236,-1.1503452,0.56212574,1.0970799
0.0,-0.1,1.4,-0.5235987755982988,-0.5235987755982988,0,0.17285122,-0.8647857,1.1100494,-1.082964,-0.31739703,0.639831,-0.80037665,0.4046693,-0.9918395,1.4795853,-0.5411804,-0.39734513,0.5507584,1.4277674
0.0,-0.1,1.4,-0.5235987755982988,-0.5235987755982988,0,0.1744215,-0.9290169,1.1318275,-0.8706899,-0.09169027,0.55760646,-1.026613,0.47237504,-0.9347092,1.5126245,-0.44557282,-0.6134634,0.8453166,0.12915008
0.0,-0.1,1.4,-0.5235987755982988,-0.5235987755982988,0,0.38015726,-0.93141115,1.0278405,-0.98271614,-0.55145484,0.17978197,-1.4871309,0.6682699,-0.69060993,1.4580125,-0.43809503,-0.6315501,0.93581396,1.470643
0.0,-0.1,1.4,-0.5235987755982988,-0.5235987755982988,0,0.25367302,-1.0940986,0.978695,-0.9038605,-0.59549457,0.89429784,-0.9794804,0.4320101,-0.807392,1.4915932,-0.5233994,-0.792468,0.40891215,1.6584812
0.0,-0.1,1.4,-0.5235987755982988,-0.5235987755982988,0,0.3255051,-1.1922113,1.10487,-0.94302124,-0.79992855,0.57225865,-1.0073559,0.6695793,-0.5811064,1.4785955,-0.50882316,-0.6886022,0.7691773,1.6209205
0.0,-0.1,1.4,-0.5235987755982988,-0.5235987755982988,0,0.026962006,-1.2722212,0.8899107,-1.2767869,-0.16042878,0.60560787,-0.9469277,0.39647463,-0.75898707,1.449915,-0.5140011,-0.6463928,0.4562523,1.0012398
0.0,-0.1,1.4,-0.5235987755982988,-0.5235987755982988,0,0.27454206,-1.3979901,1.0209475,-0.79227275,-0.508263,0.84205264,-0.5349921,0.502674,-0.4742177,1.5046126,-0.5492271,-1.0418367,0.79644054,0.3883384
0.0,-0.1,1.4,-0.5235987755982988,-0.5235987755982988,0,0.29008728,-1.1553386,1.0024374,-0.97836804,-0.14526619,0.21917908,-1.2546062,0.49970004,-0.59434676,1.4387026,-0.58244926,-0.4628395,0.24344346,1.4861717
0.0,-0.1,1.4,-0.5235987755982988,-0.5235987755982988,0,0.19401185,-0.9942122,1.0752208,-1.1897699,-0.23907048,0.23832835,-1.0117465,0.5471142,-0.76091564,1.4758996,-0.45772392,-1.0156847,0.44916326,1.4681883
0.0,-0.1,1.4,-0.5235987755982988,-0.5235987755982988,0,0.34745,-1.0855516,1.115138,-1.2214324,-0.21483096,0.56406015,-0.8432455,0.47119454,-0.63257384,1.5278636,-0.45800957,-1.1790032,0.81529945,2.2155552
0.0,-0.1,1.4,-0.5235987755982988,-0.5235987755982988,0,0.14137144,-1.2902813,1.0132343,-0.91416746,-0.01848694,0.5358403,-0.91364294,0.54525924,-0.6285994,1.4681214,-0.42152452,-1.0528729,0.634913,0.8322917
0.0,-0.1,1.4,-0.5235987755982988,-0.5235987755982988,0,0.24940091,-1.1432904,1.0916123,-1.0560803,-0.4715917,0.9296825,-1.0471683,0.75953174,-0.5524191,1.4890375,-0.43805236,-1.2477937,0.4494947,0.5439829
0.0,-0.1,1.4,-0.5235987755982988,-0.5235987755982988,0,0.22434564,-1.2207676,1.0921063,-1.0142545,-0.4754329,0.48067987,-0.50709945,0.4872038,-0.5631748,1.4260705,-0.590752,-1.7411566,-0.14697452,1.3612317
0.0,-0.1,1.4,-0.5235987755982988,-0.5235987755982988,0,0.37678367,-1.241006,0.9874411,-0.9044962,-0.4914363,0.17904393,-0.9164838,0.6015176,-0.4991095,1.5058223,-0.5889466,-0.68366253,0.34550834,0.5969441
0.0,-0.1,1.4,-0.5235987755982988,-0.5235987755982988,0,0.082084894,-1.2606558,0.8182934,-0.82472974,-1.0654807,0.56040454,-0.5606605,0.5145982,-0.6295267,1.474513,-0.6643337,-0.32453933,1.096583,1.2461629
0.0,-0.1,1.4,-0.5235987755982988,-0.5235987755982988,0,0.15916388,-1.1817862,1.0353553,-0.9106002,-0.14112431,0.78082293,-0.9293906,0.5664722,-0.661146,1.4684478,-0.55943984,-0.80758053,0.704592,1.9157553
0.0,-0.1,1.4,-0.5235987755982988,-0.5235987755982988,0,-0.040617302,-1.4622864,0.8874811,-0.9496648,-0.00639343,1.0643495,-0.6967111,0.5757605,-0.68844235,1.4208736,-0.38688916,-1.3406637,0.7002171,0.036960434
0.0,-0.1,1.4,-0.5235987755982988,-0.5235987755982988,0,0.22260931,-1.2205136,1.0999533,-0.91883063,-0.36877832,0.794783,-0.85053885,0.5164621,-0.6317699,1.4354883,-0.50633574,-0.84486055,0.933241,1.3310263
0.0,-0.1,1.4,-0.5235987755982988,-0.5235987755982988,0,0.33780298,-1.1077873,1.1241518,-0.9631934,-0.29552487,0.67538804,-1.026825,0.50376034,-0.63992727,1.4948713,-0.5380774,-0.7392785,0.427834,0.048581313
0.0,-0.1,1.4,-0.5235987755982988,-0.5235987755982988,0,0.26468027,-1.0216067,0.93218327,-1.1202431,-0.4173693,0.82325673,-0.93556386,0.50057924,-0.8676823,1.5619687,-0.43116692,-0.80080885,0.60637224,0.23818812
0.0,-0.1,1.4,-0.5235987755982988,-0.5235987755982988,0,0.31809127,-1.2417225,1.1279446,-0.9475211,-0.23741573,0.45274168,-0.9909668,0.51969004,-0.8134281,1.4808842,-0.5653372,-0.50038004,0.81062126,1.0613554
0.0,-0.1,1.4,-0.5235987755982988,-0.5235987755982988,0,0.58283246,-1.236349,1.2102312,-0.97954994,-0.53708833,0.80033445,-0.3313916,0.5002087,-0.7709975,1.4297906,-0.30318797,-0.68330705,-0.1754908,1.5435066
0.0,-0.1,1.4,-0.5235987755982988,-0.5235987755982988,0,0.2830196,-0.9233554,0.87107354,-1.0394678,0.10974026,0.45146084,-0.5496191,0.48683044,-0.79938525,1.5371915,-0.49789613,-0.114588276,0.1622017,1.9736032
0.0,-0.1,1.4,-0.5235987755982988,-0.5235987755982988,0,0.34981483,-1.2840466,1.0745399,-0.9638762,-0.59197825,0.6608473,-0.96749604,0.45310676,-0.6253419,1.438895,-0.58123374,-0.9710186,0.2515238,1.4378594
0.0,-0.1,1.4,-0.5235987755982988,-0.5235987755982988,0,0.37629136,-1.0264896,0.882081,-0.79495966,-0.086007,0.08730761,-0.9740256,0.5702269,-0.7995723,1.5039055,-0.4132839,-1.2760233,0.8191289,-1.117039
0.0,-0.1,1.4,-0.5235987755982988,-0.5235987755982988,0,0.11470544,-1.3859853,1.0743015,-1.0224215,-0.28398278,0.249164,-0.75099176,0.25609732,-0.6098557,1.465185,-0.6449981,-0.06344794,0.53944284,2.1558044
0.0,-0.1,1.4,-0.5235987755982988,-0.5235987755982988,0,0.4478533,-1.1424273,1.0879757,-0.9327168,-0.3135829,0.98008054,-0.7486446,0.573438,-0.6057234,1.4699324,-0.41237515,-0.46079296,0.41827583,0.792756
0.0,-0.1,1.4,-0.5235987755982988,-0.5235987755982988,0,0.42482314,-0.9724356,1.1212347,-1.1207068,-0.35541114,0.62886685,-0.7066446,0.6640398,-0.6557202,1.4768578,-0.5754378,-0.34726983,0.21823633,1.0533221
0.0,-0.1,1.4,-0.5235987755982988,-0.5235987755982988,0,0.21315783,-1.2749113,1.195487,-1.1205795,-0.9946059,0.4019671,-1.0139397,0.5690528,-0.48321193,1.4627193,-0.49101847,-1.002801,0.5472285,0.7342026
0.0,-0.1,1.4,-0.5235987755982988,-0.5235987755982988,0,0.37465325,-1.291229,1.1472054,-0.86752576,-0.30186462,0.7792597,-1.0949144,0.6384121,-0.49024752,1.4964578,-0.6121465,-1.0064397,0.38217762,2.318608
0.0,-0.1,1.4,-0.5235987755982988,-0.5235987755982988,0,0.40638742,-1.2549229,1.0574453,-1.0001737,-0.3647862,0.71120614,-1.434465,0.55955124,-0.46953484,1.4716086,-0.51080793,-1.5295681,0.051633075,1.7296668
0.0,-0.1,1.4,-0.5235987755982988,-0.5235987755982988,0,0.30472887,-1.2413634,1.1485018,-1.0300562,-0.6417673,0.88519543,-0.668362,0.48104078,-0.4789417,1.5351813,-0.63582957,-1.3708054,0.2766484,0.37049446
0.0,-0.1,1.4,-0.5235987755982988,-0.5235987755982988,0,0.10605166,-1.3344517,1.0644417,-1.0352861,-0.5428186,0.7388304,-1.01821,0.40744498,-0.5742261,1.4153565,-0.58533496,-0.364378,0.41064787,1.3138645
0.0,-0.1,1.4,-0.5235987755982988,-0.5235987755982988,0,0.3625801,-1.2195349,1.1110673,-1.080274,-0.43418494,0.6152681,-0.9282634,0.5269157,-0.49846315,1.5050542,-0.5097183,-1.5931199,0.6789291,-0.25913295
0.0,-0.1,1.4,-0.5235987755982988,-0.5235987755982988,0,0.37935644,-1.1285104,0.82999635,-0.96216697,-0.6241364,0.8770493,-0.5461901,0.59273183,-0.69908893,1.4666399,-0.4619931,-1.1007113,0.6047145,0.41837448
0.0,-0.1,1.4,-0.5235987755982988,-0.5235987755982988,0,0.08754182,-1.2226799,1.106981,-1.1033303,-0.66887975,0.50061655,-1.2892795,0.5901954,-0.5459605,1.5478503,-0.58936787,-1.1264427,0.099911004,1.9029278
0.0,-0.1,1.4,-0.5235987755982988,-0.5235987755982988,0,0.32526866,-1.2537568,1.0044118,-0.9504499,-0.3709993,0.1457068,-0.8504015,0.6278942,-0.5214083,1.4992592,-0.4699853,-1.1970004,0.656037,1.8754146
0.0,-0.1,1.4,-0.5235987755982988,-0.5235987755982988,0,0.17729619,-1.1827154,0.9866807,-0.9476606,-0.8669583,0.64464265,-0.47086152,0.49040598,-0.5644205,1.5176209,-0.47815043,-1.2264977,-0.3644603,1.2831633
0.0,-0.1,1.4,-0.5235987755982988,-0.5235987755982988,0,0.086826235,-1.2974669,1.108331,-1.0345628,-0.4955306,0.34636065,-1.0596347,0.5581001,-0.58361554,1.403215,-0.58380574,-1.0119308,0.3925745,1.0807428
0.0,-0.1,1.4,-0.5235987755982988,-0.5235987755982988,0,0.4986563,-1.2894865,1.0620636,-0.93259656,-0.7922332,0.73014224,-1.2962998,0.5490757,-0.5579624,1.4824088,-0.5881435,-1.455749,0.82111484,1.2314281
0.0,-0.1,1.4,-0.5235987755982988,-0.5235987755982988,0,0.3545436,-1.1666461,1.0177058,-1.0922987,-0.2696802,0.5758493,-1.0255824,0.60280067,-0.5014381,1.4809748,-0.64567703,-1.0905902,0.09971563,0.011242109
0.0,-0.1,1.4,-0.5235987755982988,-0.5235987755982988,0,0.4168147,-1.0718902,1.1428574,-0.8449445,-0.15141308,0.49250928,-0.3196661,0.62186235,-0.65111434,1.4867424,-0.5025617,-0.9751496,1.0522549,1.6036649
0.0,-0.1,1.4,-0.5235987755982988,-0.5235987755982988,0,0.34619,-1.2059898,1.0949692,-0.76006603,-0.1315375,0.53166425,-1.0861142,0.5821267,-0.5997404,1.45473,-0.48642266,-0.9242129,1.1404779,0.6876684
0.0,-0.1,1.4,-0.5235987755982988,-0.5235987755982988,0,0.1225625,-1.3058532,1.1516777,-0.8565395,-0.66345763,0.8789403,-1.1267204,0.5779417,-0.5692544,1.4919655,-0.47141132,-0.73410577,0.07172851,0.62979174
0.0,-0.1,1.4,-0.5235987755982988,-0.5235987755982988,0,0.3044529,-1.0840106,1.20342,-0.9742053,0.14338072,0.7285745,-0.9864239,0.51325405,-0.6053281,1.5171225,-0.52015936,-1.3629723,0.33536798,1.0585659
0.0,-0.1,1.4,-0.5235987755982988,-0.5235987755982988,0,0.18609007,-1.7617514,0.9646615,-0.879097,-0.8981088,0.023630396,-0.8732451,0.5947134,-1.0804074,1.5046909,-0.4723796,-1.2088429,0.31447712,1.4964383
0.0,-0.1,1.4,-0.5235987755982988,-0.5235987755982988,0,0.32191098,-1.8333577,1.0489361,-0.7874799,-0.28900895,1.032944,-1.0779715,0.47067407,-1.1634389,1.5121441,-0.50566334,-0.2877773,0.23525421,0.99275196
0.0,-0.1,1.4,-0.5235987755982988,-0.5235987755982988,0,0.36337864,-1.0825518,1.1293589,-0.9793587,-0.8366539,0.67575586,-0.88671905,0.6095397,-0.5580893,1.476453,-0.52571577,-0.708283,0.24776456,1.6164116
0.0,-0.1,1.4,-0.5235987755982988,-0.5235987755982988,0,0.51194257,-1.5769083,1.1691287,-1.0505689,-0.3755628,0.5986328,-1.3556222,0.6940022,-1.2199639,1.4528188,-0.5151903,-0.85481656,0.18156062,0.3857141
0.0,-0.1,1.4,-0.5235987755982988,-0.5235987755982988,0,0.40996,-1.6573813,0.95545346,-0.9975319,-0.2826026,0.45803723,-0.6067394,0.53958184,-1.2636073,1.4869235,-0.51445436,-0.5046204,0.31859002,1.0801154
0.0,-0.1,1.4,-0.5235987755982988,-0.5235987755982988,0,0.21523347,-1.7028208,1.0962353,-1.2206992,-0.5009408,0.6944186,-1.1267426,0.5159638,-1.163371,1.4702328,-0.46444562,-0.7907853,0.49253324,0.81636626
0.0,-0.1,1.4,-0.5235987755982988,-0.5235987755982988,0,0.112312876,-1.6079102,1.1547053,-1.2737162,-0.56631243,0.8341007,-0.65363103,0.44614017,-1.1244253,1.4737853,-0.44468352,-0.7257513,0.5384714,0.560967
0.0,-0.1,1.4,-0.5235987755982988,-0.5235987755982988,0,0.3470907,-1.7702965,1.0929222,-1.0046673,-0.7110304,0.34446913,-0.9667424,0.5034349,-1.0228075,1.5132606,-0.5188946,-0.673658,0.13028619,0.7117884
0.0,-0.1,1.4,-0.5235987755982988,-0.5235987755982988,0,0.22918063,-1.702127,1.1643416,-1.0961527,-0.8447523,0.84235984,-1.1985441,0.5947388,-1.279976,1.4574625,-0.55906814,-0.5641561,1.0096931,1.1039433
0.0,-0.1,1.4,-0.5235987755982988,-0.5235987755982988,0,0.40476778,-1.7796972,1.1814042,-1.1419392,0.097114295,0.93864936,-0.5269633,0.59915245,-1.1193285,1.4507338,-0.4800727,-0.48464367,0.030864514,0.62443626
0.0,-0.1,1.4,-0.5235987755982988,-0.5235987755982988,0,0.40476778,-1.7796972,1.1814042,-1.1419392,0.097114295,0.93864936,-0.5269633,0.59915245,-1.1193285,1.4507338,-0.4800727,-0.48464367,0.030864514,0.62443626
0.0,-0.1,1.4,-0.5235987755982988,-0.5235987755982988,0,0.40476778,-1.7796972,1.1814042,-1.1419392,0.097114295,0.93864936,-0.5269633,0.59915245,-1.1193285,1.4507338,-0.4800727,-0.48464367,0.030864514,0.62443626
0.0,-0.1,1.4,-0.5235987755982988,-0.5235987755982988,0,0.40476778,-1.7796972,1.1814042,-1.1419392,0.097114295,0.93864936,-0.5269633,0.59915245,-1.1193285,1.4507338,-0.4800727,-0.48464367,0.030864514,0.62443626
0.0,-0.1,1.4,-0.5235987755982988,-0.5235987755982988,0,0.40476778,-1.7796972,1.1814042,-1.1419392,0.097114295,0.93864936,-0.5269633,0.59915245,-1.1193285,1.4507338,-0.4800727,-0.48464367,0.030864514,0.62443626
0.0,-0.1,1.4,-0.5235987755982988,-0.5235987755982988,0,0.40476778,-1.7796972,1.1814042,-1.1419392,0.097114295,0.93864936,-0.5269633,0.59915245,-1.1193285,1.4507338,-0.4800727,-0.48464367,0.030864514,0.62443626
0.0,-0.1,1.4,-0.5235987755982988,-0.5235987755982988,0,0.40476778,-1.7796972,1.1814042,-1.1419392,0.097114295,0.93864936,-0.5269633,0.59915245,-1.1193285,1.4507338,-0.4800727,-0.48464367,0.030864514,0.62443626
0.0,-0.1,1.4,-0.5235987755982988,-0.5235987755982988,0,0.33622152,-1.7746522,1.0678945,-0.96138304,-0.73021096,0.72512704,-0.88367546,0.4628566,-1.1569277,1.4702992,-0.41043204,-0.34017995,0.806146,1.7956247
0.0,-0.1,1.4,-0.5235987755982988,-0.5235987755982988,0,0.33622152,-1.7746522,1.0678945,-0.96138304,-0.73021096,0.72512704,-0.88367546,0.4628566,-1.1569277,1.4702992,-0.41043204,-0.34017995,0.806146,1.7956247
0.0,-0.1,1.4,-0.5235987755982988,-0.5235987755982988,0,0.33622152,-1.7746522,1.0678945,-0.96138304,-0.73021096,0.72512704,-0.88367546,0.4628566,-1.1569277,1.4702992,-0.41043204,-0.34017995,0.806146,1.7956247
0.0,-0.1,1.4,-0.5235987755982988,-0.5235987755982988,0,0.33622152,-1.7746522,1.0678945,-0.96138304,-0.73021096,0.72512704,-0.88367546,0.4628566,-1.1569277,1.4702992,-0.41043204,-0.34017995,0.806146,1.7956247
0.0,-0.1,1.4,-0.5235987755982988,-0.5235987755982988,0,0.33622152,-1.7746522,1.0678945,-0.96138304,-0.73021096,0.72512704,-0.88367546,0.4628566,-1.1569277,1.4702992,-0.41043204,-0.34017995,0.806146,1.7956247
0.0,-0.1,1.4,-0.5235987755982988,-0.5235987755982988,0,0.33622152,-1.7746522,1.0678945,-0.96138304,-0.73021096,0.72512704,-0.88367546,0.4628566,-1.1569277,1.4702992,-0.41043204,-0.34017995,0.806146,1.7956247
0.0,-0.1,1.4,-0.5235987755982988,-0.5235987755982988,0,0.33622152,-1.7746522,1.0678945,-0.96138304,-0.73021096,0.72512704,-0.88367546,0.4628566,-1.1569277,1.4702992,-0.41043204,-0.34017995,0.806146,1.7956247
0.0,-0.1,1.4,-0.5235987755982988,-0.5235987755982988,0,0.35296407,-1.7912315,1.0992332,-0.9321365,-0.587834,0.6946965,-1.0370364,0.4004311,-1.0915596,1.4953567,-0.54246324,-0.39933148,-0.01707723,-0.17128144
0.0,-0.1,1.4,-0.5235987755982988,-0.5235987755982988,0,0.35296407,-1.7912315,1.0992332,-0.9321365,-0.587834,0.6946965,-1.0370364,0.4004311,-1.0915596,1.4953567,-0.54246324,-0.39933148,-0.01707723,-0.17128144
0.0,-0.1,1.4,-0.5235987755982988,-0.5235987755982988,0,0.35296407,-1.7912315,1.0992332,-0.9321365,-0.587834,0.6946965,-1.0370364,0.4004311,-1.0915596,1.4953567,-0.54246324,-0.39933148,-0.01707723,-0.17128144
0.0,-0.1,1.4,-0.5235987755982988,-0.5235987755982988,0,0.35296407,-1.7912315,1.0992332,-0.9321365,-0.587834,0.6946965,-1.0370364,0.4004311,-1.0915596,1.4953567,-0.54246324,-0.39933148,-0.01707723,-0.17128144
0.0,-0.1,1.4,-0.5235987755982988,-0.5235987755982988,0,0.35296407,-1.7912315,1.0992332,-0.9321365,-0.587834,0.6946965,-1.0370364,0.4004311,-1.0915596,1.4953567,-0.54246324,-0.39933148,-0.01707723,-0.17128144
0.0,-0.1,1.4,-0.5235987755982988,-0.5235987755982988,0,0.35296407,-1.7912315,1.0992332,-0.9321365,-0.587834,0.6946965,-1.0370364,0.4004311,-1.0915596,1.4953567,-0.54246324,-0.39933148,-0.01707723,-0.17128144
0.0,-0.1,1.4,-0.5235987755982988,-0.5235987755982988,0,0.35296407,-1.7912315,1.0992332,-0.9321365,-0.587834,0.6946965,-1.0370364,0.4004311,-1.0915596,1.4953567,-0.54246324,-0.39933148,-0.01707723,-0.17128144
0.0,-0.1,1.4,-0.5235987755982988,-0.5235987755982988,0,0.35296407,-1.7912315,1.0992332,-0.9321365,-0.587834,0.6946965,-1.0370364,0.4004311,-1.0915596,1.4953567,-0.54246324,-0.39933148,-0.01707723,-0.17128144
0.0,-0.1,1.4,-0.5235987755982988,-0.5235987755982988,0,0.26728857,-1.6562755,1.0782179,-1.1845388,-0.3076634,0.63332593,-0.40331855,0.38954967,-0.9765453,1.5422488,-0.45486018,-0.9121975,0.8335216,0.52065927
0.0,-0.1,1.4,-0.5235987755982988,-0.5235987755982988,0,0.26728857,-1.6562755,1.0782179,-1.1845388,-0.3076634,0.63332593,-0.40331855,0.38954967,-0.9765453,1.5422488,-0.45486018,-0.9121975,0.8335216,0.52065927
0.0,-0.1,1.4,-0.5235987755982988,-0.5235987755982988,0,0.26728857,-1.6562755,1.0782179,-1.1845388,-0.3076634,0.63332593,-0.40331855,0.38954967,-0.9765453,1.5422488,-0.45486018,-0.9121975,0.8335216,0.52065927
0.0,-0.1,1.4,-0.5235987755982988,-0.5235987755982988,0,0.26728857,-1.6562755,1.0782179,-1.1845388,-0.3076634,0.63332593,-0.40331855,0.38954967,-0.9765453,1.5422488,-0.45486018,-0.9121975,0.8335216,0.52065927
0.0,-0.1,1.4,-0.5235987755982988,-0.5235987755982988,0,0.26728857,-1.6562755,1.0782179,-1.1845388,-0.3076634,0.63332593,-0.40331855,0.38954967,-0.9765453,1.5422488,-0.45486018,-0.9121975,0.8335216,0.52065927
0.0,-0.1,1.4,-0.5235987755982988,-0.5235987755982988,0,0.26728857,-1.6562755,1.0782179,-1.1845388,-0.3076634,0.63332593,-0.40331855,0.38954967,-0.9765453,1.5422488,-0.45486018,-0.9121975,0.8335216,0.52065927
0.0,-0.1,1.4,-0.5235987755982988,-0.5235987755982988,0,0.26728857,-1.6562755,1.0782179,-1.1845388,-0.3076634,0.63332593,-0.40331855,0.38954967,-0.9765453,1.5422488,-0.45486018,-0.9121975,0.8335216,0.52065927
0.0,-0.1,1.4,-0.5235987755982988,-0.5235987755982988,0,0.36757025,-1.8484122,0.981018,-0.86463195,-0.35502496,0.583376,-1.0764924,0.63746005,-1.0377767,1.5655161,-0.34386113,-0.83176345,1.0399162,2.020829
0.0,-0.1,1.4,-0.5235987755982988,-0.5235987755982988,0,0.36757025,-1.8484122,0.981018,-0.86463195,-0.35502496,0.583376,-1.0764924,0.63746005,-1.0377767,1.5655161,-0.34386113,-0.83176345,1.0399162,2.020829
0.0,-0.1,1.4,-0.5235987755982988,-0.5235987755982988,0,0.36757025,-1.8484122,0.981018,-0.86463195,-0.35502496,0.583376,-1.0764924,0.63746005,-1.0377767,1.5655161,-0.34386113,-0.83176345,1.0399162,2.020829
