sanky1234/BimanualDexCatch/isaacgymenvs/cem_results/May31/football_pose_0.0_0.0_1.5_0.0_0.0_0_2025-06-03.csv
x,y,z,roll,pitch,yaw,robot1/joint1,robot1/joint2,robot1/joint3,robot1/joint4,robot1/joint5,robot1/joint6,robot1/joint7,robot2/joint1,robot2/joint2,robot2/joint3,robot2/joint4,robot2/joint5,robot2/joint6,robot2/joint7
0.0,0.0,1.5,0.0,0.0,0,-0.7533685,-0.5827809,-1.5174495,-0.6027495,0.028787939,-0.050266974,-0.20117714,0.02980206,-1.495396,0.9478938,-0.77450335,-0.06557422,0.19471505,0.9590484
0.0,0.0,1.5,0.0,0.0,0,-0.78931075,-0.5361006,-1.5369867,-0.56100005,0.015428418,0.14781094,-0.51612866,-0.06965918,-1.5197942,0.68237567,-0.65861344,0.03498273,0.27987668,1.0171815
0.0,0.0,1.5,0.0,0.0,0,-0.74132085,-0.61076915,-1.4409108,-0.5579386,-0.15853857,0.11849752,-0.9158143,-0.1593973,-1.5117899,0.61328346,-0.6738705,-0.14770322,-0.13516115,0.9106245
0.0,0.0,1.5,0.0,0.0,0,-0.65461105,-0.5318947,-1.5099103,-0.537538,-0.14619577,0.03742108,-0.4466528,-0.15131344,-1.524569,0.61050326,-0.6844733,-0.11333242,-0.09665309,1.5259367
0.0,0.0,1.5,0.0,0.0,0,-0.6259953,-0.52968293,-1.5953603,-0.5037555,-0.0880979,0.09652997,-0.75832075,-0.06633811,-1.4979159,0.7302717,-0.70611763,-0.09832365,0.3821641,1.0108764
0.0,0.0,1.5,0.0,0.0,0,-0.73249555,-0.62370974,-1.3253503,-0.45153943,-0.1646226,-0.0121762715,-1.4545013,-0.008239965,-1.4708495,0.7881748,-0.69792485,-0.21418308,0.29598078,0.25380448
0.0,0.0,1.5,0.0,0.0,0,-0.69966817,-0.5575529,-1.6905748,-0.55079603,-0.18622506,-0.057604335,-1.5317134,-0.1860385,-1.4863682,0.57227385,-0.70411825,-0.020972095,-0.012889168,0.16019395
0.0,0.0,1.5,0.0,0.0,0,-0.73504364,-0.6316154,-1.265284,-0.62816405,-0.25449526,0.101070814,-0.45398083,-0.09670865,-1.4669566,0.69336385,-0.7736681,-0.04925012,-0.16849463,1.0264854
0.0,0.0,1.5,0.0,0.0,0,-0.77250075,-0.6480797,-1.1946735,-0.48461992,-0.11571145,-0.09251547,-0.9154203,-0.07243317,-1.523884,0.6853187,-0.78247356,-0.10958579,-0.1307564,1.4301628
0.0,0.0,1.5,0.0,0.0,0,-0.72425103,-0.630498,-1.575227,-0.55879474,-0.4422911,0.020859668,-0.4590489,-0.090444624,-1.504757,0.78206706,-0.71041065,-0.15771896,-0.25418448,0.6983147
0.0,0.0,1.5,0.0,0.0,0,-0.7721701,-0.551519,-1.5263394,-0.4835059,-0.3404059,-0.034183826,-0.84109527,-0.08776164,-1.4904397,0.5750492,-0.6998566,-0.10337584,0.3699882,1.0738058
0.0,0.0,1.5,0.0,0.0,0,-0.725518,-0.6971095,-1.4656107,-0.7400518,-0.049351044,-0.1598335,-1.044253,-0.050543405,-1.5021341,0.6468539,-0.7385975,0.06484308,0.26757967,1.4514176
0.0,0.0,1.5,0.0,0.0,0,-0.9101664,-0.4594992,-1.4883158,-0.564501,-0.24124637,-0.13128069,-0.8608736,-0.17774323,-1.4787157,0.29237798,-0.6870457,0.046394125,-0.19646198,0.86792856
0.0,0.0,1.5,0.0,0.0,0,-0.90352654,-0.52769685,-1.5239797,-0.5266773,-0.30561438,0.011329497,-0.79331523,-0.08294223,-1.4968239,0.6522948,-0.6459637,-0.18044075,-0.025989173,0.737675
0.0,0.0,1.5,0.0,0.0,0,-0.87147814,-0.54802597,-1.6288778,-0.5691953,-0.20485704,0.074908815,-0.43634164,-0.08852713,-1.474596,0.62841445,-0.672577,-0.26576558,-0.01489951,1.4562639
0.0,0.0,1.5,0.0,0.0,0,-0.80426764,-0.5476004,-1.6557558,-0.594947,-0.2821658,0.03806845,-0.36030194,-0.05721583,-1.501381,0.7121616,-0.71653587,0.10706639,0.12605841,1.045075
0.0,0.0,1.5,0.0,0.0,0,-0.94874614,-0.5879221,-1.3326888,-0.45687538,-0.19331,0.003312277,-0.5088112,0.08600323,-1.5069865,0.8426154,-0.61728287,-0.14778474,0.23822403,1.1138422
0.0,0.0,1.5,0.0,0.0,0,-0.8073868,-0.6853545,-1.4401793,-0.50698495,-0.29791477,0.11462924,-1.1422635,-0.051706724,-1.4873073,0.67030096,-0.6034933,-0.09853173,0.25037894,1.7667426
0.0,0.0,1.5,0.0,0.0,0,-0.93979144,-0.71492976,-1.3419997,-0.647386,-0.42969352,0.2659492,-0.82696354,-0.17826597,-1.4871912,0.5107222,-0.752212,0.054772366,-0.10018388,0.941402
0.0,0.0,1.5,0.0,0.0,0,-0.8319815,-0.76344943,-1.3960284,-0.4876038,-0.28576592,-0.022737836,-0.79363596,-0.0803431,-1.5041609,0.69617903,-0.77692795,-0.014144548,0.3181083,1.9186481
0.0,0.0,1.5,0.0,0.0,0,-0.88008374,-0.64683276,-1.2809846,-0.5003081,-0.28336176,0.111418344,-1.1328124,-0.0009091086,-1.4833388,0.7248919,-0.70713615,-0.016698318,0.2535523,1.3410454
0.0,0.0,1.5,0.0,0.0,0,-0.792521,-0.835325,-1.4500508,-0.57046056,-0.09744033,-0.059170663,-0.90645814,-0.018188413,-1.4909194,0.71988034,-0.7421832,-0.28073782,-0.25374132,1.5111604
0.0,0.0,1.5,0.0,0.0,0,-0.7360905,-0.564972,-1.634421,-0.6175039,-0.62390757,-0.102983,-0.47914913,-0.12398439,-1.4854277,0.5660087,-0.823049,-0.22724697,0.3703305,1.1073687
0.0,0.0,1.5,0.0,0.0,0,-0.9374394,-0.7123911,-1.6961827,-0.61188155,-0.20268922,0.20962308,0.122569926,-0.047344618,-1.4758395,0.69055086,-0.75923836,0.022480011,-0.16272466,1.315963
0.0,0.0,1.5,0.0,0.0,0,-0.9185721,-0.6997451,-1.617334,-0.6455308,-0.562382,0.099703774,-0.6822817,-0.014495149,-1.4863288,0.59282094,-0.6966016,0.013879859,0.24198155,1.386686
0.0,0.0,1.5,0.0,0.0,0,-0.77850455,-0.58715844,-1.476059,-0.41651598,-0.010332145,0.10984648,-1.8896378,-0.099740066,-1.4978796,0.7318867,-0.66630495,-0.30486798,-0.8004603,0.7882236
0.0,0.0,1.5,0.0,0.0,0,-0.77698714,-0.5271668,-1.6275573,-0.51148593,-0.48813918,0.05820184,-0.6693254,-0.1043228,-1.5225961,0.64352477,-0.6489675,-0.1882249,0.08892257,0.74419737
0.0,0.0,1.5,0.0,0.0,0,-0.72022045,-0.47069904,-1.7226956,-0.3254951,-0.2372879,0.1268162,-0.7714718,-0.118058294,-1.4944986,0.69799066,-0.71809083,-0.0014175997,-0.4931803,1.5870824
0.0,0.0,1.5,0.0,0.0,0,-0.9476904,-0.54875445,-1.5638406,-0.54107904,-0.09810435,0.174046,-1.0753707,-0.17199081,-1.4929533,0.9288651,-0.79503584,-0.03219159,-0.20023523,0.3056043
0.0,0.0,1.5,0.0,0.0,0,-0.64008,-0.74733335,-1.5039251,-0.6215595,-0.2670798,-0.039347563,-0.9297912,-0.0043691043,-1.495223,0.7194077,-0.75878054,-0.099494986,0.031954847,1.4898995
0.0,0.0,1.5,0.0,0.0,0,-0.8381158,-0.7002403,-1.3915875,-0.5409811,-0.12899733,0.15254445,-0.7226611,0.037176352,-1.5080155,0.8231709,-0.7469469,-0.09840146,0.34362382,0.8683116
0.0,0.0,1.5,0.0,0.0,0,-0.6799489,-0.639737,-1.4866226,-0.4554412,-0.14826609,-0.13137428,-0.8509946,-0.07023305,-1.4925628,0.5559721,-0.6729302,0.09981165,-0.0875179,0.27219397
0.0,0.0,1.5,0.0,0.0,0,-0.7417188,-0.7313634,-1.3051597,-0.5531816,0.10736716,0.28431168,-1.0476574,0.023072425,-1.4942508,0.8721777,-0.7397687,-0.23797216,0.21381934,0.76455134
0.0,0.0,1.5,0.0,0.0,0,-0.8375615,-0.68889976,-1.5455348,-0.6606253,-0.055439703,0.20457007,-1.869775,-0.08655274,-1.4962856,0.5478703,-0.7553034,-0.13077854,0.10166004,0.8613491
0.0,0.0,1.5,0.0,0.0,0,-0.79650736,-0.75677425,-1.3121918,-0.44771194,-0.07741523,0.09988682,-0.97906,-0.22168878,-1.4992706,0.6397022,-0.7739427,-0.052696183,-0.33030593,1.0422097
0.0,0.0,1.5,0.0,0.0,0,-0.8474494,-0.6924294,-1.4701098,-0.42378998,-0.13190351,0.12088747,-0.9029458,-0.03736481,-1.506832,0.7752116,-0.6441306,-0.32619634,-0.05738788,0.66906935
0.0,0.0,1.5,0.0,0.0,0,-0.7797054,-0.6038935,-1.5115436,-0.45483956,-0.10610827,-0.0038650825,-0.58486027,-0.15322924,-1.5144374,0.52795815,-0.7089424,-0.1148942,0.13866074,0.8386048
0.0,0.0,1.5,0.0,0.0,0,-0.805133,-0.62439454,-1.5892001,-0.31682965,-0.11530201,0.067838654,-0.9458925,-0.16885582,-1.5031532,0.7598022,-0.6182005,-0.051772922,-0.11200479,0.88777226
0.0,0.0,1.5,0.0,0.0,0,-0.6735997,-0.6013654,-1.6725441,-0.52507293,-0.10474133,0.03496953,-0.87827885,-0.0907542,-1.5083362,0.5732156,-0.76622003,-0.056075875,-0.19577803,1.196636
0.0,0.0,1.5,0.0,0.0,0,-0.87035567,-0.44750768,-1.3901927,-0.45033878,-0.5609426,-0.13111272,-1.2588938,-0.15468898,-1.4842005,0.9641418,-0.74504536,-0.14930761,-0.011141351,0.17394643
0.0,0.0,1.5,0.0,0.0,0,-0.86353856,-0.44316265,-1.6089953,-0.5124166,-0.2455242,0.08505926,-0.9472772,-0.039281126,-1.4740058,0.50056416,-0.64233834,0.01800801,0.09173046,1.8022413
0.0,0.0,1.5,0.0,0.0,0,-0.87706894,-0.3973228,-1.4049462,-0.40612894,-0.13250023,0.206776,-0.31326246,-0.08071824,-1.521735,0.8174306,-0.7521787,-0.16178857,-0.44159535,0.95249385
0.0,0.0,1.5,0.0,0.0,0,-0.60473466,-0.74161285,-1.4393884,-0.57731533,-0.3555855,0.031732175,-1.0274467,-0.16745608,-1.496233,0.6357309,-0.726497,-0.28614515,0.13318548,1.7669361
0.0,0.0,1.5,0.0,0.0,0,-0.698057,-0.59271985,-1.3733197,-0.43602237,-0.21699864,0.063121565,-1.0513898,-0.11051523,-1.4906799,0.5271101,-0.6524087,0.038012978,-0.35908407,-0.4858209
0.0,0.0,1.5,0.0,0.0,0,-0.68442166,-0.65280926,-1.4255053,-0.4853976,-0.18897378,0.020910852,-0.8681047,-0.07980144,-1.5332603,0.7117094,-0.7074896,-0.17111085,0.118363395,1.0712745
0.0,0.0,1.5,0.0,0.0,0,-0.7403127,-0.57951975,-1.5620873,-0.5002548,-0.47769699,0.0552165,0.027526554,-0.010831862,-1.5077974,0.68432105,-0.6761298,-0.018129077,-0.37887618,1.1142902
0.0,0.0,1.5,0.0,0.0,0,-0.9402176,-0.39504743,-1.5929477,-0.46469346,-0.24284655,0.15105943,-0.85376704,-0.0575992,-1.5193175,0.74100184,-0.7598397,0.09502946,-0.0035445276,1.6130104
0.0,0.0,1.5,0.0,0.0,0,-0.7403438,-0.6687744,-1.2403212,-0.6381934,-0.366967,0.025043473,-0.33644444,-0.060956232,-1.4493215,0.52724314,-0.738721,-0.345956,-0.18982443,1.1736218
0.0,0.0,1.5,0.0,0.0,0,-0.81164044,-0.4346114,-1.3920103,-0.5027585,-0.21919063,0.07779692,-0.89953643,0.05985802,-1.5270646,0.54897803,-0.7947881,-0.2041878,0.08352845,1.9407911
0.0,0.0,1.5,0.0,0.0,0,-0.9260255,-0.6740685,-1.2037514,-0.45731917,-0.15894805,-0.035172127,-1.2366911,-0.10317055,-1.502964,0.54026854,-0.79429376,-0.032680273,-0.3197472,0.8093353
0.0,0.0,1.5,0.0,0.0,0,-0.8059803,-0.59630483,-1.5224123,-0.42738235,-0.17033704,0.08126649,-0.6267111,-0.06665715,-1.4740318,0.8576319,-0.63194263,-0.1384158,-0.17754935,2.0951586
0.0,0.0,1.5,0.0,0.0,0,-0.9319806,-0.45799962,-1.4754876,-0.38621613,-0.34301084,0.079468265,-0.6051355,-0.07262701,-1.5229887,0.5893773,-0.72205085,-0.003321129,-0.27683964,1.0517572
0.0,0.0,1.5,0.0,0.0,0,-0.96119267,-0.4947528,-1.4236008,-0.43542513,-0.35609818,0.05835412,-1.300901,-0.04405912,-1.4924109,0.560349,-0.7372577,-0.22541064,-0.23221174,0.6964623
0.0,0.0,1.5,0.0,0.0,0,-0.9382767,-0.5334013,-1.2275896,-0.3746166,-0.279051,0.009471015,-0.53665954,-0.12966955,-1.505315,0.66686964,-0.7710432,-0.09174815,0.12450842,1.2604522
0.0,0.0,1.5,0.0,0.0,0,-0.84514064,-0.54937,-1.3976063,-0.48055413,-0.0024369285,0.13289958,-0.96211964,-0.026294503,-1.5222576,0.8075431,-0.7241171,-0.041731525,-0.37339082,0.9185427
0.0,0.0,1.5,0.0,0.0,0,-0.89795816,-0.64048594,-1.2742802,-0.4862443,-0.3473563,-0.1097787,-0.86579907,-0.111560725,-1.4866264,0.55282396,-0.8000797,-0.16807139,-0.15809539,0.6032701
0.0,0.0,1.5,0.0,0.0,0,-0.6295847,-0.39555162,-1.5231484,-0.54216236,-0.16719285,0.06831331,-0.59904325,-0.05223243,-1.4727479,0.6247184,-0.74775887,-0.0034106367,0.40492555,0.70038563
0.0,0.0,1.5,0.0,0.0,0,-0.86471355,-0.6711817,-1.2227446,-0.40291956,-0.4924889,-0.13024054,-0.7542589,-0.12743303,-1.4822179,0.54877096,-0.7452308,-0.18786733,0.10627363,1.0780843
0.0,0.0,1.5,0.0,0.0,0,-1.0699972,-0.5762436,-1.1587013,-0.4508308,-0.30262813,0.16852327,-0.8652702,-0.024253298,-1.4514607,0.65411097,-0.79648274,-0.010129659,-0.25201392,0.5564239
0.0,0.0,1.5,0.0,0.0,0,-0.6340788,-0.90748477,-1.1607438,-0.50807524,0.14630337,-0.019301614,-0.4596532,-0.10416527,-1.5136356,0.496033,-0.7050085,-0.27347267,0.9409148,1.5788687
0.0,0.0,1.5,0.0,0.0,0,-0.70546895,-0.3840929,-1.5192454,-0.48799327,-0.27868748,0.032703258,-0.598086,-0.036688607,-1.5016413,0.72646576,-0.8455644,-0.1860404,-0.20034117,1.8603351
0.0,0.0,1.5,0.0,0.0,0,-0.66602504,-0.43580705,-1.4135807,-0.41767523,-0.1017705,-0.03013225,-0.08584662,-0.102031946,-1.5047143,0.6887811,-0.6251713,-0.36135754,-0.2759185,1.5048337
0.0,0.0,1.5,0.0,0.0,0,-0.6392963,-0.7570286,-1.3658566,-0.548749,-0.036990907,0.25906134,-0.60805523,-0.10832354,-1.487931,0.84930086,-0.6673968,-0.09409,-0.5567196,0.31716797
0.0,0.0,1.5,0.0,0.0,0,-0.99983627,-0.6043002,-1.5092211,-0.50301653,-0.0770912,-0.11259163,0.63631725,-0.11524224,-1.4541855,0.5778343,-0.6448056,0.055055793,-0.16650112,1.1423725
0.0,0.0,1.5,0.0,0.0,0,-0.7693903,-0.4037196,-1.4532131,-0.36867884,-0.32922587,0.02314613,-0.26275843,-0.1413102,-1.5029678,0.66964895,-0.75758165,-0.2320537,-0.07551008,0.4929572
0.0,0.0,1.5,0.0,0.0,0,-0.8461323,-0.50543207,-1.3976996,-0.53296876,-0.24939565,0.122528054,-0.86357105,-0.07548614,-1.4881572,0.5668362,-0.75542045,-0.4023285,0.2893848,0.51460797
0.0,0.0,1.5,0.0,0.0,0,-0.78987104,-0.597407,-1.484279,-0.48545265,-0.23741347,-0.07556732,-0.2529169,-0.019933881,-1.4991659,0.77882355,-0.75401145,-0.17397186,-0.024798103,1.0904764
0.0,0.0,1.5,0.0,0.0,0,-0.9706196,-0.5843843,-1.4373192,-0.53653145,-0.27372375,0.058624204,-1.224861,-0.09171327,-1.4932624,0.62653726,-0.7532329,-0.11619022,-0.10535059,0.040641375
0.0,0.0,1.5,0.0,0.0,0,-0.90018445,-0.61897373,-1.4747013,-0.47391137,-0.07632383,0.045905653,-0.99919546,-0.03724151,-1.4720771,0.66426605,-0.78621113,-0.24986589,-0.09997633,1.1298958
0.0,0.0,1.5,0.0,0.0,0,-0.793809,-0.4100008,-1.5693754,-0.5915202,-0.17602356,0.12562022,-1.4581691,-0.17387834,-1.4926322,0.7528251,-0.6776332,-0.05057729,-0.08262923,1.3773376
0.0,0.0,1.5,0.0,0.0,0,-0.98528713,-0.6640007,-1.3813596,-0.60486335,0.05062766,0.108940504,-0.5997895,-0.1705961,-1.474417,0.6195225,-0.78855807,-0.11655448,-0.30781826,1.1344506
0.0,0.0,1.5,0.0,0.0,0,-0.8407169,-0.5774963,-1.4612219,-0.34462625,0.025787478,-0.11578315,-1.0577924,-0.17444608,-1.4789733,0.64741546,-0.7972869,-0.13604465,-0.20877875,0.7291917
0.0,0.0,1.5,0.0,0.0,0,-0.9691187,-0.37414315,-1.5221562,-0.70931333,-0.22287741,0.2242835,-0.44708985,-0.05898926,-1.4886976,0.61658305,-0.7435482,0.011929569,-0.105407104,0.48461616
0.0,0.0,1.5,0.0,0.0,0,-0.98561627,-0.6040531,-1.3264987,-0.47207853,-0.443594,-0.05068428,-0.5872944,-0.13390283,-1.4839345,0.706893,-0.7514727,-0.11316149,-0.3351813,0.6255956
0.0,0.0,1.5,0.0,0.0,0,-1.1107779,-0.34104934,-1.511308,-0.38337842,-0.10428893,0.03307773,-0.70382404,-0.15240106,-1.4660462,0.7011808,-0.6991663,-0.26240984,-0.029338598,0.67202604
0.0,0.0,1.5,0.0,0.0,0,-0.8370545,-0.20895578,-1.3963312,-0.32437134,-0.113219105,0.0172134,-0.71648026,0.011714477,-1.5071697,0.5666963,-0.6654773,0.066547975,-0.11423124,1.6074228
0.0,0.0,1.5,0.0,0.0,0,-0.9361227,-0.39499855,-1.747637,-0.49786183,-0.08979825,0.15488763,-0.86794764,-0.14607455,-1.4652853,0.58099955,-0.71716404,-0.030481381,-0.14303425,0.83699775
0.0,0.0,1.5,0.0,0.0,0,-0.8479204,-0.39995658,-1.4927675,-0.44465876,0.053141493,0.06807237,-1.5334679,-0.06290568,-1.4757583,0.77308595,-0.7210673,-0.1133336,-0.15112764,1.4108015
0.0,0.0,1.5,0.0,0.0,0,-0.8964436,-0.45180196,-1.47418,-0.50639504,-0.4318279,-0.071900636,-1.0283681,-0.16830902,-1.4687953,0.6066852,-0.7080113,-0.04195071,-0.047269028,0.28222898
0.0,0.0,1.5,0.0,0.0,0,-0.9465172,-0.26427516,-1.2670282,-0.5864167,-0.5114009,0.013173609,-0.9941372,-0.04854413,-1.5238446,0.7453145,-0.6787239,-0.01796742,-0.16137613,0.9473551
0.0,0.0,1.5,0.0,0.0,0,-0.9476329,-0.46388954,-1.0674555,-0.33800226,-0.34128135,0.041247003,-0.7077568,-0.07976229,-1.5143836,0.63840973,-0.68855965,-0.07543981,0.015082276,1.1684142
0.0,0.0,1.5,0.0,0.0,0,-0.7173799,-0.46067807,-1.2453605,-0.56400955,-0.9907906,0.105919,-1.2851114,-0.17329676,-1.5028789,0.92188406,-0.8337928,-0.0649565,0.26054996,0.45588157
0.0,0.0,1.5,0.0,0.0,0,-0.8224665,-0.46385008,-1.2126352,-0.4686152,-0.39134356,0.01643089,-0.2884439,-0.12277029,-1.4809252,0.7603888,-0.7018538,-0.0573325,-0.25141975,0.9256036
0.0,0.0,1.5,0.0,0.0,0,-0.79744977,-0.6285172,-1.3360865,-0.56290585,-0.17965354,0.12607662,-0.8211736,-0.13163798,-1.4931979,0.7967066,-0.66204387,0.12239272,-0.35055426,0.9331386
0.0,0.0,1.5,0.0,0.0,0,-0.68073374,-0.5028076,-1.355758,-0.5757369,-0.11519738,-0.026263352,-1.2166195,-0.23751236,-1.5036771,0.672993,-0.6553428,-0.14530164,-0.06965033,1.6844748
0.0,0.0,1.5,0.0,0.0,0,-0.964014,-0.44328958,-1.5627538,-0.5084455,-0.4182007,0.108836316,-1.0548277,-0.06591754,-1.4794072,0.6821734,-0.7237704,-0.12250771,0.1786137,1.0120901
0.0,0.0,1.5,0.0,0.0,0,-0.7406672,-0.5232987,-1.1103774,-0.58690214,-0.2545357,0.1227806,-0.3734264,-0.18888997,-1.5097753,0.51228386,-0.6781326,-0.3396841,-0.3416971,0.67642623
0.0,0.0,1.5,0.0,0.0,0,-0.85994667,-0.3543454,-1.4360191,-0.47370076,0.028036717,0.12149633,-0.30368042,-0.062050417,-1.4900665,0.93063104,-0.6305356,-0.07751837,-0.39319906,1.0916171
0.0,0.0,1.5,0.0,0.0,0,-0.9668581,-0.5573758,-1.2435787,-0.52346534,-0.61788076,0.035507426,-0.9169948,-0.07349687,-1.4693431,0.7163238,-0.81216127,-0.111221485,-0.24303235,1.1361319
0.0,0.0,1.5,0.0,0.0,0,-0.89835083,-0.68155414,-1.5453743,-0.5063076,-0.16220042,0.07617952,0.039098065,-0.17535447,-1.4818212,0.6844112,-0.638454,0.041941628,0.04164118,0.43585745
0.0,0.0,1.5,0.0,0.0,0,-0.6681124,-0.4820701,-1.2101443,-0.53689915,-0.3298543,-0.16728483,-0.20020024,-0.1556427,-1.4666502,0.7704771,-0.721126,-0.035744593,-0.5448874,0.18282898
0.0,0.0,1.5,0.0,0.0,0,-0.6510985,-0.32538024,-1.3236046,-0.57568336,-0.4615213,0.19912943,-1.1713655,-0.13742213,-1.491283,0.7541369,-0.76869166,-0.27453342,0.15262486,1.6359715
0.0,0.0,1.5,0.0,0.0,0,-0.9492891,-0.43662915,-1.3380543,-0.567641,-0.2891226,0.16651353,-0.74285185,-0.08649585,-1.5063962,0.6431447,-0.8057679,-0.09424804,-0.22203547,0.46184418
0.0,0.0,1.5,0.0,0.0,0,-0.8484601,-0.54912186,-1.3722125,-0.520852,-0.5998919,0.08437958,-0.8761997,-0.15403308,-1.4918994,0.6604655,-0.66066635,-0.07215551,-0.24574408,0.76460457
0.0,0.0,1.5,0.0,0.0,0,-0.8530525,-0.41342992,-1.1176283,-0.38882825,-0.05564012,0.058891993,-0.8817234,-0.07813934,-1.5117886,0.876013,-0.7012035,-0.15186934,-0.27646032,1.872442
0.0,0.0,1.5,0.0,0.0,0,-0.9141688,-0.61103207,-1.2537016,-0.4620648,-0.11297746,0.04014108,-0.56490254,-0.10662897,-1.5163648,0.64003617,-0.5861143,0.031097401,0.24376145,1.2089667
0.0,0.0,1.5,0.0,0.0,0,-0.60322315,-0.6206425,-1.3246313,-0.6394941,-0.2963942,0.011148454,-0.811296,-0.13542093,-1.4793403,0.6849246,-0.6118543,-0.26150483,-0.13556874,0.16732782
0.0,0.0,1.5,0.0,0.0,0,-0.8408907,-0.5599491,-1.5024407,-0.519293,-0.32542598,0.064965636,-0.8218672,-0.10557537,-1.4869943,0.66037875,-0.7300655,-0.22792092,0.045710273,0.49213505
0.0,0.0,1.5,0.0,0.0,0,-0.8862397,-0.5634021,-1.5120689,-0.50178474,-0.14386469,0.14330788,-0.36100474,-0.16145837,-1.4983954,0.766284,-0.73348,-0.24215987,0.1825379,1.0293366
0.0,0.0,1.5,0.0,0.0,0,-0.76154715,-0.727086,-1.3671832,-0.5673528,-0.20815511,0.015598063,-0.8816308,-0.11800313,-1.5144913,0.8454805,-0.8797601,-0.26435775,0.26748604,1.0600119
0.0,0.0,1.5,0.0,0.0,0,-0.90890044,-0.47547114,-1.2569122,-0.57823527,-0.32959223,0.084587075,-0.75468034,-0.061808486,-1.4651939,0.63662785,-0.7292151,0.021627923,0.2374169,0.69681215
0.0,0.0,1.5,0.0,0.0,0,-0.6960894,-0.41672453,-1.5252324,-0.5760807,-0.03046673,0.1821212,-0.7439985,-0.1479347,-1.4819571,0.7085507,-0.66861105,-0.19157656,-0.0025902211,-0.23099242
0.0,0.0,1.5,0.0,0.0,0,-0.9187735,-0.5167377,-1.2158196,-0.47340572,-0.07910216,0.03112786,-1.1402471,-0.13817284,-1.4975413,0.6097464,-0.6443121,-0.12626053,-0.08113659,1.3404506
0.0,0.0,1.5,0.0,0.0,0,-0.9158805,-0.66200966,-1.1825199,-0.4742035,-0.054234974,0.09361717,-0.67283416,-0.104206875,-1.495561,0.7401065,-0.7505403,0.16673358,0.07832545,0.40264407
0.0,0.0,1.5,0.0,0.0,0,-0.86325085,-0.63727885,-1.3685017,-0.49897105,-0.31836426,0.19210127,-0.73994046,-0.13434151,-1.4859211,0.7765196,-0.6540156,-0.35070783,-0.010766437,1.167057
0.0,0.0,1.5,0.0,0.0,0,-0.9189497,-0.52779055,-1.4761972,-0.5017508,-0.054797553,-0.023383653,-0.2933671,-0.12939644,-1.4906633,0.799402,-0.77828807,-0.25040978,0.095541425,1.7975833
0.0,0.0,1.5,0.0,0.0,0,-0.79372185,-0.4886848,-1.3600804,-0.51792485,-0.12474624,0.20219666,-0.253286,-0.06971647,-1.4938209,0.7326669,-0.66870946,-0.121834494,0.22308683,0.39396584
0.0,0.0,1.5,0.0,0.0,0,-0.8468993,-0.50437236,-1.4518232,-0.54166377,-0.31890485,0.12014781,-0.651392,-0.13862947,-1.4775879,0.840797,-0.80950105,-0.09192365,-0.042915124,1.3275071
0.0,0.0,1.5,0.0,0.0,0,-0.7419313,-0.4710449,-1.3444229,-0.61768746,-0.18423632,-0.032159314,-0.42297953,-0.023789614,-1.4782763,0.5388547,-0.7508588,-0.05350295,0.40176547,1.0248746
0.0,0.0,1.5,0.0,0.0,0,-0.7716123,-0.7250048,-1.3912563,-0.5172092,-0.04511858,0.019005045,-0.49768174,-0.16450863,-1.5035571,0.77826464,-0.8012819,0.3218032,-0.103102654,1.3939846
0.0,0.0,1.5,0.0,0.0,0,-0.84878546,-0.4587333,-1.5089891,-0.46190548,-0.17990956,0.14630584,-0.478237,-0.1409304,-1.4904286,0.56420845,-0.68777686,-0.0007860591,0.34640726,0.70654684
0.0,0.0,1.5,0.0,0.0,0,-0.8588565,-0.47016323,-1.3324237,-0.44908908,-0.2156315,0.170486,-1.3305309,-0.092059016,-1.4899635,0.7850836,-0.71856284,-0.25459486,0.216761,1.9884101
0.0,0.0,1.5,0.0,0.0,0,-0.79449874,-0.6102762,-1.2289491,-0.48237884,-0.21491762,-0.03938982,-0.8216832,-0.059524853,-1.4781443,0.35232726,-0.58669454,-0.008455958,-0.02234108,1.0075696
0.0,0.0,1.5,0.0,0.0,0,-0.9069883,-0.7654413,-1.294936,-0.5724659,-0.43692693,0.021869523,-0.2829576,-0.036479924,-1.4790168,0.7258246,-0.6851621,-0.18821321,-0.11842123,1.1480557
0.0,0.0,1.5,0.0,0.0,0,-0.96736103,-0.7768216,-1.3534002,-0.5094959,-0.2671312,0.05859435,-1.1531518,-0.06558584,-1.5149035,0.7214795,-0.7652991,-0.030980391,0.0989411,1.0442283
0.0,0.0,1.5,0.0,0.0,0,-0.88350874,-0.851715,-1.1736511,-0.6898736,0.116325766,0.060645863,-0.5253883,0.013681314,-1.4832084,0.47905818,-0.7219719,-0.1352511,0.3694234,1.8076676
0.0,0.0,1.5,0.0,0.0,0,-0.7615079,-0.68147665,-1.3136941,-0.48644197,-0.20657682,0.01809049,-1.1548373,-0.051274616,-1.4947019,0.48199022,-0.787993,-0.01584444,0.2892443,0.3708137
0.0,0.0,1.5,0.0,0.0,0,-0.763439,-0.52632374,-1.4551347,-0.46070868,-0.27802935,-0.18230218,-1.0583817,-0.16923675,-1.4947506,0.5906437,-0.66666734,-0.004979818,-0.58427864,1.2535366
0.0,0.0,1.5,0.0,0.0,0,-0.8452592,-0.34163523,-1.5739039,-0.43803313,-0.016637713,0.11895746,-1.1309457,-0.06546275,-1.4904658,0.80299485,-0.6985212,0.16859372,-0.17983663,1.6889001
0.0,0.0,1.5,0.0,0.0,0,-0.75268054,-0.8596499,-1.1567824,-0.4869819,-0.24959014,0.2508672,-0.71902186,-0.08501297,-1.4863098,0.6481375,-0.6970325,-0.18577197,-0.25584838,0.67148566
0.0,0.0,1.5,0.0,0.0,0,-0.9216873,-0.26603103,-1.5457908,-0.32990047,-0.09867289,0.16533928,-1.6065573,-0.04769343,-1.4638557,0.9382147,-0.5985247,0.068224296,-0.18790625,0.0962951
0.0,0.0,1.5,0.0,0.0,0,-0.8659124,-0.4720978,-1.3358315,-0.48650795,-0.2327393,0.020262543,-1.1169515,-0.1086617,-1.490949,0.6844852,-0.71540844,-0.050080515,0.33160692,1.204342
0.0,0.0,1.5,0.0,0.0,0,-0.82864237,-0.51824075,-1.2963647,-0.48997545,-0.11937638,-0.04886439,-1.1047236,-0.11841093,-1.4800414,0.5047933,-0.6618519,-0.09886219,-0.4364186,0.9722948
0.0,0.0,1.5,0.0,0.0,0,-0.64437264,-0.65219164,-1.3534232,-0.49187848,-0.30578807,0.014882818,-0.5301404,-0.13015942,-1.4633008,0.6337082,-0.7997464,-0.22272392,0.11727209,0.22867945
0.0,0.0,1.5,0.0,0.0,0,-0.90278924,-0.40174466,-1.140361,-0.52302593,-0.16470489,-0.17269883,-1.7551594,-0.016416572,-1.5147375,0.6204408,-0.7966461,-0.026634974,-0.21223593,0.28547823
0.0,0.0,1.5,0.0,0.0,0,-0.725516,-0.607657,-1.3669031,-0.47287428,-0.31969842,0.16968867,-0.16912581,-0.10676821,-1.4770724,0.7952441,-0.8300322,-0.07451274,0.0317831,0.753584
0.0,0.0,1.5,0.0,0.0,0,-0.6872214,-0.89499766,-1.2765573,-0.5827141,-0.351673,0.158814,-0.58215564,-0.08797509,-1.502182,0.70105124,-0.6925761,-0.11501765,-0.37705034,0.57051104
0.0,0.0,1.5,0.0,0.0,0,-0.7155097,-0.5305748,-1.5569003,-0.60395086,-0.17574632,-0.048519906,-0.21808352,-0.10584874,-1.4776944,0.44049022,-0.74080837,0.055717558,0.019501345,0.99462664
0.0,0.0,1.5,0.0,0.0,0,-0.77368784,-0.5041527,-1.3908404,-0.44386938,-0.37361425,0.0171406,-0.9858817,0.025807526,-1.4418932,0.9085718,-0.6862402,-0.37526,-0.2247328,1.1691966
0.0,0.0,1.5,0.0,0.0,0,-0.83800554,-0.35983628,-1.2877179,-0.4235224,-0.15995458,0.008055167,-0.5415796,-0.12208472,-1.4767848,0.8686597,-0.69315296,-0.23780297,0.057263397,1.11356
0.0,0.0,1.5,0.0,0.0,0,-0.89026153,-0.46808288,-1.3106989,-0.48139715,-0.35480654,0.054082744,-1.1446669,-0.1239357,-1.4894038,0.58980405,-0.7092876,-0.20682076,-0.46025607,0.72910094
0.0,0.0,1.5,0.0,0.0,0,-0.7611101,-0.39287534,-1.3727206,-0.46401027,-0.29674897,-0.016685288,-0.80551785,-0.009995363,-1.4661871,0.6397551,-0.6936269,-0.098528974,0.028912468,1.2918997
0.0,0.0,1.5,0.0,0.0,0,-0.7624441,-0.53077286,-1.6523554,-0.36871964,-0.32791698,0.1070353,-0.43895146,-0.13058427,-1.4891554,0.8003817,-0.74291676,-0.23012912,0.058383472,1.1330949
0.0,0.0,1.5,0.0,0.0,0,-0.8455249,-0.6140674,-1.383086,-0.44413432,-0.16453332,-0.06735791,-1.4387382,-0.107153565,-1.5019107,0.66945356,-0.6254543,-0.24170126,0.33916053,0.97414356
0.0,0.0,1.5,0.0,0.0,0,-0.57758826,-0.75865144,-1.5416671,-0.7088179,-0.15207723,-0.04517462,-0.5898744,-0.24242324,-1.4780401,0.774833,-0.6944183,-0.08130804,-0.34156927,0.97770774
0.0,0.0,1.5,0.0,0.0,0,-0.72094166,-0.43308935,-1.2067726,-0.33615386,-0.40621108,0.17059185,-0.24406941,-0.118876256,-1.4651387,0.6351045,-0.6962003,-0.07294581,0.12768564,2.069337
0.0,0.0,1.5,0.0,0.0,0,-0.9517383,-0.5003989,-1.2430038,-0.5688986,-0.20705512,0.07824259,-0.86420566,-0.16215438,-1.4920564,0.7730617,-0.7411083,-0.028498424,-0.13000074,0.72670245
0.0,0.0,1.5,0.0,0.0,0,-0.8592103,-0.57277346,-1.1671952,-0.5213863,0.15980771,-0.044141944,-0.4074327,-0.09546007,-1.5148436,0.7337905,-0.7325124,-0.016633263,-0.43324026,1.0211688
0.0,0.0,1.5,0.0,0.0,0,-1.0974339,-0.60401803,-1.2169629,-0.47818416,-0.094679095,0.018471515,-0.7047265,-0.16261697,-1.4839884,0.55212027,-0.74389905,-0.11976666,-0.04835816,1.2989515
0.0,0.0,1.5,0.0,0.0,0,-0.997739,-0.43980318,-1.3167481,-0.5022781,-0.23443168,0.2259767,-0.22808938,-0.089649454,-1.4878737,0.5341266,-0.7325741,-0.14260761,-0.1562191,1.0752289
0.0,0.0,1.5,0.0,0.0,0,-0.9504545,-0.30900905,-1.6014174,-0.6279588,-0.0929154,0.039061088,-0.2966136,-0.06507215,-1.5039442,0.6865824,-0.7388876,0.044343002,-0.23384982,1.2764227
0.0,0.0,1.5,0.0,0.0,0,-1.1223637,-0.59882665,-1.414487,-0.56697583,-0.3108761,0.046510942,-0.24260648,-0.13143666,-1.4917837,0.5691091,-0.7522749,-0.08372769,-0.087081306,0.4030951
0.0,0.0,1.5,0.0,0.0,0,-0.9202186,-0.72359645,-1.3737695,-0.6318139,-0.059494346,0.21801832,-0.8427414,-0.21695764,-1.4965053,0.5937538,-0.81163424,-0.033602457,-0.6178914,0.76504666
0.0,0.0,1.5,0.0,0.0,0,-0.79532886,-0.6804459,-1.4434671,-0.47586954,-0.3141076,-0.017521018,-1.5300786,-0.09441702,-1.4881794,0.6471811,-0.6270298,-0.07811534,-0.42751196,1.2621628
0.0,0.0,1.5,0.0,0.0,0,-0.9349771,-0.42721444,-1.5739598,-0.5007645,-0.10840489,0.013780503,-0.35080034,-0.15541214,-1.4828707,0.6663364,-0.74202806,0.083741575,-0.33486158,0.60008013
0.0,0.0,1.5,0.0,0.0,0,-0.87330216,-0.48649746,-1.6016173,-0.56592363,-0.2778518,0.109516814,-0.52212363,-0.21558498,-1.4969169,0.5784618,-0.6978003,-0.20345376,-0.33811793,0.6096486
0.0,0.0,1.5,0.0,0.0,0,-0.94584644,-0.66982496,-1.3620886,-0.40117016,-0.20353721,-0.054710243,-0.70225847,-0.15692465,-1.512282,0.5882915,-0.61290014,-0.413904,0.18117753,1.3265512
0.0,0.0,1.5,0.0,0.0,0,-0.7944281,-0.50093466,-1.5731827,-0.5506945,-0.2181123,-0.1397807,-0.4530542,-0.1608752,-1.4801245,0.78702855,-0.7078184,0.07594588,-0.28963748,1.4487518
0.0,0.0,1.5,0.0,0.0,0,-0.9695107,-0.4199549,-1.6251388,-0.6268603,-0.3342264,-0.009902696,-0.23918773,-0.022137977,-1.4785048,0.65373534,-0.7215288,-0.11828654,-0.19272117,1.3810074
0.0,0.0,1.5,0.0,0.0,0,-0.6107108,-0.20563741,-1.4088693,-0.5482748,-0.3574932,0.09056323,-0.88833344,0.010385487,-1.5047759,0.5318835,-0.7287368,-0.24695872,0.007745121,0.593045
0.0,0.0,1.5,0.0,0.0,0,-0.7246943,-0.5679967,-1.2609445,-0.47964725,-0.29329553,-0.0581019,-0.64261603,-0.17770204,-1.4824941,0.8419965,-0.69014215,-0.00214627,-0.0528995,0.5941607
0.0,0.0,1.5,0.0,0.0,0,-0.74332076,-0.5229085,-1.3907875,-0.47294533,-0.45443588,0.014637548,-1.2542579,-0.17395583,-1.4942489,0.6428952,-0.5738602,-0.2005683,-0.24149771,0.15110758
0.0,0.0,1.5,0.0,0.0,0,-0.8827177,-0.6193796,-1.3803338,-0.51043665,-0.14518745,0.26619837,-1.1634831,-0.1379676,-1.5193383,0.7046067,-0.5710698,-0.12365205,-0.68050826,1.6984179
0.0,0.0,1.5,0.0,0.0,0,-0.70335114,-0.38631126,-1.3738489,-0.5201133,-0.33961657,-0.026429942,-0.5455514,-0.12978353,-1.5067018,0.835195,-0.7298525,-0.06255954,0.0017039825,0.78340274
0.0,0.0,1.5,0.0,0.0,0,-0.8312946,-0.5764788,-1.5201458,-0.6500867,-0.42728382,-0.02912881,-1.2137867,-0.09200461,-1.4805936,0.81395733,-0.73983556,-0.10371488,-0.0029178797,0.5402164
0.0,0.0,1.5,0.0,0.0,0,-0.729374,-0.5097827,-1.3346623,-0.52941644,-0.19614094,-0.106727034,-0.42748326,-0.104527414,-1.5226016,0.8334517,-0.7310867,-0.036317363,-0.39828148,0.8799524
0.0,0.0,1.5,0.0,0.0,0,-0.71442974,-0.601543,-1.2599047,-0.47525567,-0.3401428,0.10852388,-0.5189121,-0.15543555,-1.500631,0.52247506,-0.7064414,-0.17691596,0.3329374,0.39663598
0.0,0.0,1.5,0.0,0.0,0,-0.62907124,-0.48245633,-1.4727268,-0.562906,-0.27807942,-0.0022609958,-1.453,-0.15795428,-1.4842083,0.8591759,-0.7282926,-0.014923331,-0.031118032,1.554421
0.0,0.0,1.5,0.0,0.0,0,-0.77403885,-0.40991262,-1.1525888,-0.6533239,-0.1799205,0.039485987,-0.55781615,-0.11145594,-1.4988707,0.5499887,-0.74268556,-0.29080808,0.12702012,0.97876614
0.0,0.0,1.5,0.0,0.0,0,-0.8735267,-0.48097563,-1.4310577,-0.3903225,-0.35277024,-0.013600706,-0.082133844,-0.12248646,-1.506539,0.954782,-0.75901777,-0.060607262,0.31167504,1.0128043
0.0,0.0,1.5,0.0,0.0,0,-0.831814,-0.63378817,-1.2891296,-0.58729154,-0.16950758,-0.111352496,-1.1433347,-0.01731206,-1.4952688,0.8532537,-0.53544855,-0.09015624,-0.30199423,0.7590336
0.0,0.0,1.5,0.0,0.0,0,-0.87228197,-0.40920705,-1.3791138,-0.3911308,-0.34293297,-0.004470337,-0.6361384,-0.11954615,-1.4856428,0.6844827,-0.61574966,-0.122094996,-0.080481194,0.92702967
0.0,0.0,1.5,0.0,0.0,0,-0.89711905,-0.50625896,-1.1045607,-0.35840237,-0.038365215,0.08898982,-1.0291171,-0.08303697,-1.5311949,0.8626729,-0.6551265,-0.03184478,-0.29181215,0.96245116
0.0,0.0,1.5,0.0,0.0,0,-0.9033661,-0.49553928,-1.2471477,-0.5009214,-0.4254206,-0.027570458,-0.8754885,-0.06181863,-1.5063956,0.7620007,-0.7055986,-0.24399288,-0.41174433,1.3193767
0.0,0.0,1.5,0.0,0.0,0,-0.9152673,-0.56289226,-1.2668833,-0.38892716,-0.24814612,-0.05015064,-0.3052075,-0.078220375,-1.5176587,0.9120918,-0.63441795,-0.16757324,0.09500387,1.0821677
0.0,0.0,1.5,0.0,0.0,0,-0.93327236,-0.5371042,-1.3886945,-0.53152776,-0.24482487,0.06332603,-0.4666368,-0.08345458,-1.5070691,0.6152948,-0.74450076,-0.013262677,0.14192237,0.6388047
0.0,0.0,1.5,0.0,0.0,0,-0.93767744,-0.69274247,-1.4015381,-0.5442056,0.029030032,-0.14166488,-0.96054614,-0.09768643,-1.4968126,0.6563094,-0.71166164,-0.21062176,-0.32920414,1.3253896
0.0,0.0,1.5,0.0,0.0,0,-0.89757097,-0.69062436,-1.4992839,-0.6380446,-0.35107344,0.08726651,-0.8165364,-0.079392314,-1.4922721,0.5981084,-0.6705985,0.16984299,-0.027431445,2.0072434
0.0,0.0,1.5,0.0,0.0,0,-0.70471144,-0.36554155,-1.4516617,-0.51292545,-0.013247352,-0.025912834,-1.4960715,-0.10201974,-1.4935247,0.6202201,-0.67177945,-0.20459223,0.19020578,1.2606232
0.0,0.0,1.5,0.0,0.0,0,-0.95806485,-0.50326097,-1.1856674,-0.50744236,-0.11874094,0.047800176,-0.8494294,-0.0810166,-1.4891894,0.65049183,-0.6442712,0.037358273,-0.034307543,0.31861803
0.0,0.0,1.5,0.0,0.0,0,-0.79089206,-0.45737225,-1.3713888,-0.51364243,-0.3619651,0.18722865,-0.15538481,-0.12347642,-1.4772116,0.7561001,-0.5909771,-0.017692503,-0.06567534,1.3272035
0.0,0.0,1.5,0.0,0.0,0,-0.84933245,-0.4658919,-1.1542655,-0.4837344,-0.2983171,0.07371711,-1.1105114,-0.123082355,-1.4574486,0.55848277,-0.7428164,-0.19789252,-0.07637625,1.0446832
0.0,0.0,1.5,0.0,0.0,0,-0.87019956,-0.3795698,-1.3723488,-0.5440537,-0.24536756,0.014736743,-1.1630905,-0.13157989,-1.4746182,0.29015484,-0.75870013,-0.13442065,0.2793878,0.24888161
0.0,0.0,1.5,0.0,0.0,0,-0.8805154,-0.57744986,-1.4058346,-0.47477615,-0.21869165,-0.101852685,-0.48505786,-0.1514626,-1.5076698,0.6105047,-0.64491874,0.040728454,-0.21345644,0.83414406
0.0,0.0,1.5,0.0,0.0,0,-0.8711543,-0.521429,-1.3810815,-0.41187882,-0.45464313,-0.14092061,-1.1879616,-0.07999873,-1.4834485,0.8517661,-0.6744409,-0.13334106,-0.10571009,0.47496718
0.0,0.0,1.5,0.0,0.0,0,-0.89475465,-0.521681,-1.0764185,-0.60319227,-0.32980278,0.10528987,-0.5554245,-0.14192799,-1.509861,0.38179818,-0.7145808,-0.09363882,-0.1285821,1.3236656
0.0,0.0,1.5,0.0,0.0,0,-0.7179981,-0.6730842,-1.5894408,-0.5619888,-0.4042938,-0.053995922,-1.3646263,-0.21192446,-1.4900005,0.5030103,-0.66926014,-0.012797855,0.13634092,0.95852196
0.0,0.0,1.5,0.0,0.0,0,-0.7021494,-0.7440243,-1.5514685,-0.6402819,-0.12632592,0.15484582,-0.68376344,-0.15207751,-1.4692069,0.654005,-0.6458059,-0.21834245,0.07975698,0.3076394
0.0,0.0,1.5,0.0,0.0,0,-0.98876625,-0.40996757,-1.4251349,-0.5850285,-0.23705027,0.17418066,-0.49705645,-0.12809289,-1.4790776,0.40393537,-0.69893265,-0.15191533,0.15826607,1.4942913
0.0,0.0,1.5,0.0,0.0,0,-0.79796565,-0.68158245,-1.3919876,-0.5594759,-0.23172396,-0.027716689,-1.1859157,-0.09712421,-1.519943,0.76276267,-0.7483789,-0.1867387,0.49641696,0.77410066
0.0,0.0,1.5,0.0,0.0,0,-0.776304,-0.5159025,-1.2668447,-0.59327304,-0.27466947,0.1449609,-0.81064105,-0.15676753,-1.504187,0.33893374,-0.6868788,-0.2371062,0.16196643,1.4402465
0.0,0.0,1.5,0.0,0.0,0,-0.781469,-0.49996763,-1.5939224,-0.51581776,-0.15191951,0.07215431,-0.84416825,-0.106577866,-1.4748106,0.6173931,-0.69088596,-0.22921465,0.19696935,0.8390126
0.0,0.0,1.5,0.0,0.0,0,-0.7928433,-0.577968,-1.5675045,-0.5922064,-0.121828265,0.10829486,-1.6257972,-0.13381203,-1.4764079,0.56014377,-0.67446387,-0.24167056,0.0773572,0.89285946
0.0,0.0,1.5,0.0,0.0,0,-0.7124208,-0.732621,-1.3041738,-0.53852445,-0.019479824,0.17570321,-0.8021116,-0.07652337,-1.4617745,0.555327,-0.6700948,-0.07248107,0.27901527,1.2740589
0.0,0.0,1.5,0.0,0.0,0,-0.7868462,-0.56123406,-1.2631049,-0.49113482,-0.010268424,0.062268533,-0.32641602,0.03939089,-1.4852729,0.5573559,-0.85143983,-0.02214202,-0.06909351,1.399138
0.0,0.0,1.5,0.0,0.0,0,-0.76028633,-0.42566654,-1.5896596,-0.45351976,0.20910229,0.050115645,-1.1881403,-0.012542909,-1.4679682,0.5843477,-0.67019135,-0.11251297,0.16700107,1.0250831
0.0,0.0,1.5,0.0,0.0,0,-0.9868322,-0.38214546,-1.3238066,-0.33497602,-0.28562993,-0.1652244,-0.964491,-0.09913716,-1.504477,0.5419341,-0.8187499,-0.20500043,-0.22772288,1.0777441
0.0,0.0,1.5,0.0,0.0,0,-0.82469815,-0.5476616,-1.3156581,-0.62270343,-0.3995767,0.13125941,-1.2277704,0.04361706,-1.5144719,0.57892865,-0.7681757,-0.06345354,-0.047679204,0.35076877
0.0,0.0,1.5,0.0,0.0,0,-0.87768865,-0.43364486,-1.225519,-0.46671367,-0.22141886,0.03410273,-1.364981,-0.009410851,-1.5184535,0.5829667,-0.79570925,-0.09375733,-0.30771935,1.4121388
0.0,0.0,1.5,0.0,0.0,0,-0.78752404,-0.5295072,-1.3220165,-0.4758224,-0.048353292,0.21374562,-0.42665288,-0.007520944,-1.495207,0.5757364,-0.70369124,0.14408734,-0.087516546,1.1791313
0.0,0.0,1.5,0.0,0.0,0,-0.7565355,-0.7519135,-1.1755701,-0.4986423,-0.10757071,-0.05274701,-0.57311445,-0.090591,-1.515715,0.5165469,-0.8200539,-0.10625492,-0.2824992,0.8812924
0.0,0.0,1.5,0.0,0.0,0,-0.99413,-0.43481374,-1.3626685,-0.43958294,-0.24060023,0.18302926,-0.9686001,-0.04389658,-1.5145769,0.55972433,-0.6429279,-0.019253999,-0.13456395,0.7293285
0.0,0.0,1.5,0.0,0.0,0,-0.6734142,-0.55788964,-1.3443915,-0.42945352,-0.18682425,0.099947974,-0.9297476,-0.12689057,-1.4925181,0.5968899,-0.7002024,-0.13300075,-0.29294306,1.0069566
0.0,0.0,1.5,0.0,0.0,0,-0.8274685,-0.5188945,-1.3803232,-0.62309563,-0.1364878,0.116263315,-0.19059597,0.006851861,-1.520093,0.41775027,-0.7269369,-0.08273021,-0.13051257,0.98744667
0.0,0.0,1.5,0.0,0.0,0,-0.7817493,-0.44333056,-1.287045,-0.5008037,-0.41428408,0.13380052,-0.76032686,-0.065479964,-1.4995941,0.520271,-0.7730321,-0.0008331016,-0.24889079,1.577982
0.0,0.0,1.5,0.0,0.0,0,-0.74859726,-0.57212675,-1.305082,-0.52814937,-0.3126091,0.08143606,0.006766325,-0.09015505,-1.5030265,0.5790777,-0.71125823,-0.06912687,-0.65380645,1.2082845
0.0,0.0,1.5,0.0,0.0,0,-0.7406302,-0.62336445,-1.4654121,-0.53464895,-0.15733102,-0.16978824,-0.7096859,-0.14462769,-1.5028937,0.52064717,-0.7689337,-0.022095775,-0.021729678,1.1232754
0.0,0.0,1.5,0.0,0.0,0,-0.9061418,-0.40787023,-1.4532086,-0.43470255,-0.3621219,0.11414693,-1.1124089,-0.13389733,-1.5060313,0.7161375,-0.6242323,-0.07652425,-0.33058697,0.8676003
0.0,0.0,1.5,0.0,0.0,0,-1.0421034,-0.6044458,-1.5677383,-0.5645983,-0.1932582,0.24751103,-1.1091828,-0.20689426,-1.4735862,0.5094425,-0.7368355,-0.21246853,-0.08205365,0.15454184
0.0,0.0,1.5,0.0,0.0,0,-0.6635094,-0.5885661,-1.589501,-0.5696758,-0.191102,0.045399945,-1.0701375,-0.16085283,-1.5278763,0.93939465,-0.5967756,-0.15759654,-0.42526197,0.59373385
0.0,0.0,1.5,0.0,0.0,0,-1.01423,-0.43312463,-1.2452636,-0.500697,-0.06113642,0.23226346,-0.55048925,-0.119931914,-1.5018392,0.77809924,-0.7847166,-0.03013297,-0.13036995,0.6532322
0.0,0.0,1.5,0.0,0.0,0,-0.7638484,-0.58985317,-1.1693089,-0.56602514,-0.16262889,0.047732063,-1.1874747,-0.20756175,-1.4924257,0.8711115,-0.7851194,-0.1438182,-0.26676196,0.73903996
0.0,0.0,1.5,0.0,0.0,0,-0.8789589,-0.38981706,-1.3475344,-0.4711747,-0.4928288,-0.1315213,-0.47611302,-0.17017521,-1.5140332,0.6760223,-0.70108026,0.13896312,-0.093258955,0.69740397
0.0,0.0,1.5,0.0,0.0,0,-0.6675546,-0.37127715,-1.4168321,-0.54872274,-0.36982358,-0.13898481,-0.6649424,-0.18667004,-1.4974772,0.6928235,-0.7102061,0.11066362,0.05004635,0.76195914
0.0,0.0,1.5,0.0,0.0,0,-0.91401625,-0.5311214,-1.4095627,-0.4136006,-0.079783805,-0.20124994,-0.41204232,-0.17508933,-1.5100943,0.7636823,-0.7512694,-0.06369412,0.14975105,1.1437778
0.0,0.0,1.5,0.0,0.0,0,-0.8299893,-0.57251006,-1.1832218,-0.4451444,-0.27182668,0.046028517,-1.0532167,-0.17897324,-1.4753063,0.81201357,-0.8182885,0.15089957,0.08146313,1.4192927
0.0,0.0,1.5,0.0,0.0,0,-0.85875887,-0.44580486,-1.155222,-0.5450385,-0.25180018,0.075022474,-1.3043891,-0.13829182,-1.4732696,0.68445575,-0.8336334,-0.32008347,-0.16038305,0.7332218
0.0,0.0,1.5,0.0,0.0,0,-0.7631502,-0.47456145,-1.3569356,-0.5663756,-0.6428276,0.11593886,-0.8859407,-0.1600988,-1.4757657,0.8696044,-0.7415226,-0.13851628,-0.19530758,0.873628
0.0,0.0,1.5,0.0,0.0,0,-0.993034,-0.5994688,-1.4475397,-0.47959378,-0.28802344,-0.10296541,-1.2501696,-0.13064638,-1.5329956,0.6518376,-0.68324816,-0.19299482,-0.1296434,0.779051
0.0,0.0,1.5,0.0,0.0,0,-1.0328281,-0.4999118,-1.707279,-0.6675408,-0.065540604,-0.07080476,-1.0159999,-0.019565523,-1.5119917,0.5782263,-0.6988411,-0.09319859,-0.1739008,1.4780717
0.0,0.0,1.5,0.0,0.0,0,-0.6633512,-0.41252145,-1.5311131,-0.57542545,-0.13080828,0.2216582,-1.9506972,-0.21668854,-1.5114871,0.74006665,-0.76095355,-0.048677888,0.050963648,1.2977294
0.0,0.0,1.5,0.0,0.0,0,-0.7620803,-0.40155467,-1.0321463,-0.5226996,-0.113916814,0.16715848,-0.6606777,-0.10077966,-1.494917,0.5910954,-0.7707216,-0.042946212,0.10991271,1.7811719
0.0,0.0,1.5,0.0,0.0,0,-1.034195,-0.7971171,-1.4870263,-0.48509473,-0.20162323,0.021094935,-0.61890715,-0.166787,-1.4769648,0.5372092,-0.7401749,-0.34311,-0.17692956,1.2292341
0.0,0.0,1.5,0.0,0.0,0,-0.9175464,-0.80129683,-1.2929294,-0.6571557,-0.13699108,0.028574213,-0.91757417,-0.113391906,-1.4894288,0.67978525,-0.6876693,-0.27850837,-0.29294318,1.6969348
0.0,0.0,1.5,0.0,0.0,0,-0.90421337,-0.6185455,-1.3676773,-0.66384184,-0.47353142,0.1168814,-0.842171,-0.019150458,-1.4743093,0.8239801,-0.77978504,-0.052941084,0.050882645,1.3479946
0.0,0.0,1.5,0.0,0.0,0,-0.80684745,-0.6312219,-1.4184234,-0.49637464,-0.3664284,0.059898827,-0.756501,-0.17056102,-1.4920663,0.6041111,-0.5603828,-0.08235189,-0.18742403,0.8689298
0.0,0.0,1.5,0.0,0.0,0,-0.82722527,-0.6385028,-1.2298065,-0.6094188,-0.0044787014,0.012679643,-0.062299296,-0.07123985,-1.5004293,0.75017357,-0.69861126,-0.09728943,-0.10741728,-0.05921288
0.0,0.0,1.5,0.0,0.0,0,-0.860674,-0.5478501,-1.4474101,-0.6022447,-0.03343655,0.04659784,-0.69153434,-0.089138106,-1.4433026,0.72493124,-0.71508056,-0.011639689,0.14164977,0.58879006
0.0,0.0,1.5,0.0,0.0,0,-0.68521816,-0.746757,-1.2576741,-0.5397406,-0.44690317,-0.07835003,-0.39516726,-0.2839686,-1.5102845,0.48402736,-0.7719752,0.0175707,-0.12703906,1.1009443
0.0,0.0,1.5,0.0,0.0,0,-0.86944044,-0.5912331,-1.3037211,-0.5309976,-0.0068709967,0.22940272,-0.8218758,-0.14869836,-1.4842055,0.77646315,-0.703028,-0.20314538,0.04504831,1.4695296
0.0,0.0,1.5,0.0,0.0,0,-0.9140109,-0.5949695,-1.5142004,-0.43040192,-0.30463672,-0.21960029,-0.7727891,-0.20823361,-1.5228457,0.64973015,-0.75639766,-0.13182515,0.019063648,0.7938675
0.0,0.0,1.5,0.0,0.0,0,-0.9625666,-0.66150624,-1.5890583,-0.5947455,-0.26009855,0.048922557,-0.595155,-0.104517125,-1.4957747,0.7049788,-0.6674698,-0.29005945,-0.13425891,1.6694814
0.0,0.0,1.5,0.0,0.0,0,-0.9759034,-0.4691307,-1.5350506,-0.41281894,-0.022466566,0.091120146,-0.11451011,-0.11974082,-1.4907262,0.315434,-0.6376231,-0.12362074,-0.08030623,0.53421295
0.0,0.0,1.5,0.0,0.0,0,-1.0176818,-0.4722959,-1.1491364,-0.5118226,-0.23963615,0.18182929,-1.5917575,-0.0690959,-1.5047863,0.8073079,-0.7771049,-0.2958566,-0.033746768,0.8995585
0.0,0.0,1.5,0.0,0.0,0,-0.7687647,-0.37677258,-1.1492082,-0.43744758,-0.28064427,0.13491248,-1.5543162,-0.14355293,-1.4660418,0.7571787,-0.667844,-0.19855195,-0.57651734,1.3326015
0.0,0.0,1.5,0.0,0.0,0,-0.86137456,-0.3638928,-1.350798,-0.48874384,-0.14160796,0.07028462,-1.132853,-0.087610684,-1.4650162,0.70706785,-0.76069266,-0.01384283,0.36289057,0.63033164
0.0,0.0,1.5,0.0,0.0,0,-0.74936616,-0.55712795,-1.3236665,-0.5895432,-0.042708673,0.16358958,-0.5038115,-0.176169,-1.4851345,0.6037448,-0.7407701,0.121823035,0.29464665,0.83455753
0.0,0.0,1.5,0.0,0.0,0,-0.81249225,-0.6885605,-1.34792,-0.48207566,-0.0921386,-0.100752056,-0.5954586,-0.21719503,-1.5087594,0.74270177,-0.8129243,-0.02349226,-0.17306504,1.1775633
0.0,0.0,1.5,0.0,0.0,0,-0.82664794,-0.62104887,-1.2987454,-0.48840168,-0.5614648,0.119366646,-0.5868807,-0.14688537,-1.5044063,0.78668743,-0.70761657,-0.0017356785,-0.09751598,0.40966892
0.0,0.0,1.5,0.0,0.0,0,-0.9574998,-0.77431256,-1.3619672,-0.4576378,-0.083880164,0.16211165,-0.5449978,-0.17572196,-1.4930098,0.6683125,-0.7367413,0.0060066804,-0.034270927,1.2907343
0.0,0.0,1.5,0.0,0.0,0,-0.922428,-0.6723517,-1.1598705,-0.39623347,-0.31150442,-0.030397793,-0.9712954,-0.18620822,-1.4975728,0.45124695,-0.73046356,0.0035434372,0.32337326,0.87946683
0.0,0.0,1.5,0.0,0.0,0,-0.8559426,-0.5317592,-1.3915081,-0.5957615,0.069781065,0.0627842,-0.49891853,-0.10523125,-1.4874301,0.8592389,-0.83458924,-0.03983318,-0.25041065,0.71080106
0.0,0.0,1.5,0.0,0.0,0,-0.8150571,-0.4691132,-1.3945384,-0.5510986,-0.4319298,-0.07543442,-1.1256092,-0.048682738,-1.4979545,0.5546512,-0.68905675,-0.16057627,0.3101503,0.8198412
0.0,0.0,1.5,0.0,0.0,0,-1.0587037,-0.45787987,-1.4049402,-0.5317542,-0.22963794,0.024069734,-0.8988033,-0.078262925,-1.4962065,0.56872076,-0.7022868,-0.14575507,0.38476315,0.2900572
0.0,0.0,1.5,0.0,0.0,0,-0.83370316,-0.6514545,-1.2870023,-0.5602757,-0.20718011,0.08169763,-0.9191698,-0.0010207609,-1.4875501,0.9195139,-0.62769336,-0.16857122,-0.118278034,1.6414709
0.0,0.0,1.5,0.0,0.0,0,-0.7976824,-0.61780894,-1.3580922,-0.5398267,-0.21889038,0.3032972,-0.5403914,-0.238146,-1.4782683,0.46001247,-0.66157013,-0.12554662,-0.07740631,0.924016
0.0,0.0,1.5,0.0,0.0,0,-0.85948086,-0.77723557,-1.3993516,-0.6864989,-0.15059786,0.08624997,-1.2397405,-0.056033265,-1.5023117,0.33171645,-0.69101495,0.12331094,-0.010282613,0.94011414
0.0,0.0,1.5,0.0,0.0,0,-0.9057116,-0.31280962,-1.5099908,-0.39985278,-0.41630414,-0.012819302,-0.6267982,-0.19799188,-1.482799,0.721068,-0.6161348,-0.17323862,0.045900185,0.0879268
0.0,0.0,1.5,0.0,0.0,0,-0.87084764,-0.68239087,-1.269278,-0.47301963,-0.20457107,-0.09663637,-0.9034397,-0.12429627,-1.5155925,0.86344767,-0.77399564,-0.0059567178,-0.02664051,1.5571055
0.0,0.0,1.5,0.0,0.0,0,-0.8966699,-0.5897979,-1.3628958,-0.5657993,-0.46370205,0.06635416,-0.5415183,-0.06253619,-1.490876,0.76887316,-0.69046926,-0.16284727,0.38125607,1.1669496
0.0,0.0,1.5,0.0,0.0,0,-0.6170353,-0.57504934,-1.1584157,-0.5497237,-0.17728724,0.123839326,-1.347313,-0.0670616,-1.5137411,0.50185263,-0.6856284,-0.14474137,0.16691042,0.16114475
0.0,0.0,1.5,0.0,0.0,0,-0.9944839,-0.8078823,-1.3815415,-0.39501095,-0.15867265,-0.09605237,0.036283616,-0.17181729,-1.4820082,0.57714784,-0.6505775,-0.20377128,-0.1646981,0.8294532
0.0,0.0,1.5,0.0,0.0,0,-0.88815254,-0.7221958,-1.2146343,-0.48434898,-0.1072708,-0.02160892,-0.44806376,-0.08283642,-1.4928062,0.74539274,-0.65779114,-0.14131568,0.12009525,1.2287308
0.0,0.0,1.5,0.0,0.0,0,-0.7669397,-0.5025862,-1.5098765,-0.45813295,-0.18356314,-0.12343057,-0.43783715,-0.1434046,-1.4759017,0.6108885,-0.66581374,-0.13074896,0.19653675,1.3807027
0.0,0.0,1.5,0.0,0.0,0,-0.88439083,-0.7156127,-1.4928749,-0.5566066,-0.20374161,-0.05462616,-0.73480755,-0.045713425,-1.4812673,0.80706334,-0.704397,-0.16127318,0.25092405,1.2676017
0.0,0.0,1.5,0.0,0.0,0,-0.7885728,-0.44332343,-1.3612372,-0.42033124,-0.5314753,0.12770483,-0.26986152,-0.16431011,-1.4792063,0.88184255,-0.77682203,-0.18566439,0.14681551,1.3193266
0.0,0.0,1.5,0.0,0.0,0,-0.8623311,-0.53351766,-1.2820349,-0.6201611,-0.29099116,0.02736088,-1.0708098,-0.11590195,-1.4832764,0.57987803,-0.7566841,0.02149432,0.20681229,1.5458949
0.0,0.0,1.5,0.0,0.0,0,-0.9593137,-0.5467182,-1.4663739,-0.5287867,-0.17058769,0.13984714,-0.57282656,-0.10650112,-1.4819899,0.6532372,-0.64268917,-0.23377785,0.20768201,0.21349151
0.0,0.0,1.5,0.0,0.0,0,-0.8737652,-0.6449399,-1.6364536,-0.63592535,-0.22440271,-0.10065996,-0.27531245,-0.02106599,-1.5128002,0.75309986,-0.70437944,-0.0779046,0.2550974,1.5167114
0.0,0.0,1.5,0.0,0.0,0,-0.6715389,-0.7387283,-1.5810952,-0.5757111,-0.51540893,0.065647244,-1.1083946,0.016509807,-1.415987,0.26239055,-0.6169065,0.050271623,0.06608235,1.0040162
0.0,0.0,1.5,0.0,0.0,0,-1.0573058,-0.5181603,-1.2086596,-0.51012033,-0.3612057,0.022601986,-0.71011597,-0.07399921,-1.4897257,0.83008987,-0.5934966,-0.20948942,-0.19811586,0.75596344
0.0,0.0,1.5,0.0,0.0,0,-0.7486791,-0.51787573,-1.5806487,-0.6161969,-0.25867292,-0.013473362,-0.42522126,-0.09166035,-1.4876388,1.0128628,-0.78866965,-0.19715713,-0.2154731,1.4099909
0.0,0.0,1.5,0.0,0.0,0,-0.835748,-0.6284156,-1.4723037,-0.5576734,-0.0533614,-0.11573011,-0.61957324,-0.056023274,-1.4912715,0.86194134,-0.733799,0.09145328,0.25005364,0.73350793
0.0,0.0,1.5,0.0,0.0,0,-0.77665627,-0.6682126,-1.3564867,-0.66710377,-0.11917082,0.26718357,-0.69072974,-0.10629787,-1.5087783,0.8489154,-0.7180304,-0.19279481,-0.06879919,0.96019995
0.0,0.0,1.5,0.0,0.0,0,-0.839701,-0.5376665,-1.3302145,-0.38920078,-0.20948279,-0.015909726,-0.8990062,-0.15280148,-1.487459,0.93856716,-0.71595514,-0.06634194,0.4104572,1.1590142
0.0,0.0,1.5,0.0,0.0,0,-0.8416997,-0.8155797,-1.3284863,-0.38776606,-0.19757144,0.00051149447,-0.9693328,-0.190747,-1.5263462,0.90762085,-0.7374614,-0.06167807,-0.09281152,1.316648
0.0,0.0,1.5,0.0,0.0,0,-0.7783921,-0.780924,-1.4876776,-0.55026144,-0.16919725,0.042921513,-0.5634643,-0.04929838,-1.4835331,0.8861192,-0.6728504,-0.24019514,0.12002699,0.46339655
0.0,0.0,1.5,0.0,0.0,0,-0.7783921,-0.780924,-1.4876776,-0.55026144,-0.16919725,0.042921513,-0.5634643,-0.04929838,-1.4835331,0.8861192,-0.6728504,-0.24019514,0.12002699,0.46339655
0.0,0.0,1.5,0.0,0.0,0,-0.7783921,-0.780924,-1.4876776,-0.55026144,-0.16919725,0.042921513,-0.5634643,-0.04929838,-1.4835331,0.8861192,-0.6728504,-0.24019514,0.12002699,0.46339655
0.0,0.0,1.5,0.0,0.0,0,-0.5896685,-0.37079614,-1.3483509,-0.7661464,0.05925121,-0.036304433,-1.300819,-0.30529925,-1.5091265,0.5129347,-0.7319943,-0.04842512,-0.85565203,1.540929
0.0,0.0,1.5,0.0,0.0,0,-0.5896685,-0.37079614,-1.3483509,-0.7661464,0.05925121,-0.036304433,-1.300819,-0.30529925,-1.5091265,0.5129347,-0.7319943,-0.04842512,-0.85565203,1.540929
0.0,0.0,1.5,0.0,0.0,0,-0.5896685,-0.37079614,-1.3483509,-0.7661464,0.05925121,-0.036304433,-1.300819,-0.30529925,-1.5091265,0.5129347,-0.7319943,-0.04842512,-0.85565203,1.540929
0.0,0.0,1.5,0.0,0.0,0,-0.5896685,-0.37079614,-1.3483509,-0.7661464,0.05925121,-0.036304433,-1.300819,-0.30529925,-1.5091265,0.5129347,-0.7319943,-0.04842512,-0.85565203,1.540929
0.0,0.0,1.5,0.0,0.0,0,-1.0541819,-0.6110647,-1.7794363,-0.36432198,-0.1616806,0.122214235,-1.6072938,0.005253059,-1.4869851,0.7228521,-0.8002221,-0.09939928,0.18130565,0.64837945
0.0,0.0,1.5,0.0,0.0,0,-1.0541819,-0.6110647,-1.7794363,-0.36432198,-0.1616806,0.122214235,-1.6072938,0.005253059,-1.4869851,0.7228521,-0.8002221,-0.09939928,0.18130565,0.64837945
0.0,0.0,1.5,0.0,0.0,0,-0.7104389,-0.8507657,-1.2467458,-0.44759172,-0.61068314,0.20194504,-0.79344004,-0.2852205,-1.5190676,0.8443885,-0.7121976,-0.06984564,-0.10416475,1.1442413
0.0,0.0,1.5,0.0,0.0,0,-0.7104389,-0.8507657,-1.2467458,-0.44759172,-0.61068314,0.20194504,-0.79344004,-0.2852205,-1.5190676,0.8443885,-0.7121976,-0.06984564,-0.10416475,1.1442413
0.0,0.0,1.5,0.0,0.0,0,-0.7104389,-0.8507657,-1.2467458,-0.44759172,-0.61068314,0.20194504,-0.79344004,-0.2852205,-1.5190676,0.8443885,-0.7121976,-0.06984564,-0.10416475,1.1442413
0.0,0.0,1.5,0.0,0.0,0,-0.9751912,-0.8145756,-1.50368,-0.44020653,-0.4159279,0.17329451,-0.28546533,-0.2518991,-1.5094727,0.46956748,-0.5918817,0.07504633,-0.4443894,-0.1538889
0.0,0.0,1.5,0.0,0.0,0,-0.83124506,-0.5260942,-1.3993921,-0.4329601,-0.031792674,0.083000086,-1.3055655,-0.07466846,-1.504413,0.92301154,-0.72294545,0.051692706,0.41402382,1.032099
0.0,0.0,1.5,0.0,0.0,0,-0.83124506,-0.5260942,-1.3993921,-0.4329601,-0.031792674,0.083000086,-1.3055655,-0.07466846,-1.504413,0.92301154,-0.72294545,0.051692706,0.41402382,1.032099
0.0,0.0,1.5,0.0,0.0,0,-0.83124506,-0.5260942,-1.3993921,-0.4329601,-0.031792674,0.083000086,-1.3055655,-0.07466846,-1.504413,0.92301154,-0.72294545,0.051692706,0.41402382,1.032099
0.0,0.0,1.5,0.0,0.0,0,-0.83124506,-0.5260942,-1.3993921,-0.4329601,-0.031792674,0.083000086,-1.3055655,-0.07466846,-1.504413,0.92301154,-0.72294545,0.051692706,0.41402382,1.032099
0.0,0.0,1.5,0.0,0.0,0,-0.83124506,-0.5260942,-1.3993921,-0.4329601,-0.031792674,0.083000086,-1.3055655,-0.07466846,-1.504413,0.92301154,-0.72294545,0.051692706,0.41402382,1.032099
0.0,0.0,1.5,0.0,0.0,0,-0.86101335,-0.49778873,-1.2897172,-0.39057872,-0.21276434,0.062411282,-0.7589657,-0.2919033,-1.4909157,0.8081348,-0.84849185,-0.1599985,-0.29528823,0.77309114
0.0,0.0,1.5,0.0,0.0,0,-0.86101335,-0.49778873,-1.2897172,-0.39057872,-0.21276434,0.062411282,-0.7589657,-0.2919033,-1.4909157,0.8081348,-0.84849185,-0.1599985,-0.29528823,0.77309114
0.0,0.0,1.5,0.0,0.0,0,-0.86101335,-0.49778873,-1.2897172,-0.39057872,-0.21276434,0.062411282,-0.7589657,-0.2919033,-1.4909157,0.8081348,-0.84849185,-0.1599985,-0.29528823,0.77309114
0.0,0.0,1.5,0.0,0.0,0,-0.950733,-0.40116894,-1.4621378,-0.38715833,-0.21877348,0.03244817,-0.28473812,-0.10858755,-1.4897153,1.0912715,-0.5847612,-0.12423,-0.2625379,0.53201884
0.0,0.0,1.5,0.0,0.0,0,-0.950733,-0.40116894,-1.4621378,-0.38715833,-0.21877348,0.03244817,-0.28473812,-0.10858755,-1.4897153,1.0912715,-0.5847612,-0.12423,-0.2625379,0.53201884
0.0,0.0,1.5,0.0,0.0,0,-0.94876385,-0.6915907,-1.509316,-0.5986756,0.003978819,0.035080656,-0.59205216,-0.19530189,-1.490515,0.5396105,-0.74248487,-0.18163526,-0.20243144,0.45614532
0.0,0.0,1.5,0.0,0.0,0,-0.94876385,-0.6915907,-1.509316,-0.5986756,0.003978819,0.035080656,-0.59205216,-0.19530189,-1.490515,0.5396105,-0.74248487,-0.18163526,-0.20243144,0.45614532
0.0,0.0,1.5,0.0,0.0,0,-0.9980813,-0.6263774,-1.3920267,-0.6204202,-0.08899016,0.112372056,-0.22315395,-0.0022360468,-1.5031009,0.80375886,-0.75743836,-0.32608733,-0.14127801,0.79385996
0.0,0.0,1.5,0.0,0.0,0,-0.9980813,-0.6263774,-1.3920267,-0.6204202,-0.08899016,0.112372056,-0.22315395,-0.0022360468,-1.5031009,0.80375886,-0.75743836,-0.32608733,-0.14127801,0.79385996
0.0,0.0,1.5,0.0,0.0,0,-0.9980813,-0.6263774,-1.3920267,-0.6204202,-0.08899016,0.112372056,-0.22315395,-0.0022360468,-1.5031009,0.80375886,-0.75743836,-0.32608733,-0.14127801,0.79385996
0.0,0.0,1.5,0.0,0.0,0,-0.9980813,-0.6263774,-1.3920267,-0.6204202,-0.08899016,0.112372056,-0.22315395,-0.0022360468,-1.5031009,0.80375886,-0.75743836,-0.32608733,-0.14127801,0.79385996
0.0,0.0,1.5,0.0,0.0,0,-0.8629543,-0.6364451,-1.5821666,-0.5243597,-0.22906111,0.11793631,-0.2928138,-0.080468394,-1.4988399,0.8471173,-0.70498616,-0.1583489,-0.23595105,1.2288529
0.0,0.0,1.5,0.0,0.0,0,-0.8629543,-0.6364451,-1.5821666,-0.5243597,-0.22906111,0.11793631,-0.2928138,-0.080468394,-1.4988399,0.8471173,-0.70498616,-0.1583489,-0.23595105,1.2288529
0.0,0.0,1.5,0.0,0.0,0,-0.8629543,-0.6364451,-1.5821666,-0.5243597,-0.22906111,0.11793631,-0.2928138,-0.080468394,-1.4988399,0.8471173,-0.70498616,-0.1583489,-0.23595105,1.2288529
