sanky1234/BimanualDexCatch/isaacgymenvs/cem_results/May31/football_pose_0.0_-0.1_1.2999999999999998_-0.5235987755982988_-0.5235987755982988_0_2025-05-31.csv
x,y,z,roll,pitch,yaw,robot1/joint1,robot1/joint2,robot1/joint3,robot1/joint4,robot1/joint5,robot1/joint6,robot1/joint7,robot2/joint1,robot2/joint2,robot2/joint3,robot2/joint4,robot2/joint5,robot2/joint6,robot2/joint7
0.0,-0.1,1.2999999999999998,-0.5235987755982988,-0.5235987755982988,0,-0.047570657,-0.7322577,-0.011128215,-0.19249165,0.7445623,-0.34743574,0.21666753,-0.75700885,-1.4019458,-0.78063303,-0.67239374,0.18693082,0.6053796,0.7502548
0.0,-0.1,1.2999999999999998,-0.5235987755982988,-0.5235987755982988,0,0.052210018,-0.7458102,1.5611229,-0.18149263,0.54569614,-0.37583372,0.13617447,-0.78501064,-1.3973509,-0.7925974,-0.6601375,0.23602417,0.6816728,0.83341783
0.0,-0.1,1.2999999999999998,-0.5235987755982988,-0.5235987755982988,0,0.026178343,-0.7083089,-0.019572688,-0.13083449,0.51788765,0.43675143,0.0630751,-0.7699985,-1.3970073,-0.78245085,-0.6801083,0.29415783,0.66048443,0.7575063
0.0,-0.1,1.2999999999999998,-0.5235987755982988,-0.5235987755982988,0,0.08309027,-0.7261059,1.808626,-0.0023324965,0.6371971,0.45327997,0.72287935,-0.76054156,-1.4029449,-0.7732942,-0.6679569,0.16768934,0.6229547,0.7173256
0.0,-0.1,1.2999999999999998,-0.5235987755982988,-0.5235987755982988,0,-0.00031547595,-0.7121746,0.7098133,0.019768579,0.5059478,0.111559406,0.51479703,-0.7799217,-1.4030497,-0.7920992,-0.67828065,0.1583154,0.68643713,0.7711656
0.0,-0.1,1.2999999999999998,-0.5235987755982988,-0.5235987755982988,0,0.00071525783,-0.72776693,-1.0176965,-0.17852145,0.8455661,0.6715429,0.2899148,-0.77558815,-1.4003314,-0.7999945,-0.6672704,0.18438698,0.62393725,0.7604365
0.0,-0.1,1.2999999999999998,-0.5235987755982988,-0.5235987755982988,0,-0.01238708,-0.72212887,-0.8731086,-0.1756913,0.38219512,1.0070193,0.30274698,-0.777537,-1.3991518,-0.77857894,-0.6797975,0.11365223,0.69660604,0.72003007
0.0,-0.1,1.2999999999999998,-0.5235987755982988,-0.5235987755982988,0,-0.024022635,-0.7175274,-1.1564561,-0.093002915,0.5171854,0.6612195,0.22902617,-0.80005777,-1.3935679,-0.7935082,-0.67184824,0.09862412,0.6393452,0.76756406
0.0,-0.1,1.2999999999999998,-0.5235987755982988,-0.5235987755982988,0,-0.046005562,-0.7175139,1.235152,-0.083805226,0.5940833,0.37426382,0.8452279,-0.7750855,-1.3952705,-0.7876973,-0.6794441,-0.033446215,0.6162896,0.6845981
0.0,-0.1,1.2999999999999998,-0.5235987755982988,-0.5235987755982988,0,-0.010854724,-0.74292976,-0.39643195,-0.029254233,0.590901,0.28890407,0.43337947,-0.7647717,-1.3965322,-0.8120823,-0.6729216,0.28611556,0.66384155,0.6161153
0.0,-0.1,1.2999999999999998,-0.5235987755982988,-0.5235987755982988,0,-0.16226083,-0.7317839,1.2929349,-0.07134873,0.34433258,0.0096291425,-0.20405455,-0.7725387,-1.4022762,-0.79304624,-0.67358553,0.30969507,0.6192766,0.6098454
0.0,-0.1,1.2999999999999998,-0.5235987755982988,-0.5235987755982988,0,-0.06287772,-0.7592801,1.0261692,-0.122197114,0.47076645,0.8080221,0.50408685,-0.79068637,-1.4021972,-0.7964744,-0.6652854,0.14788377,0.5945523,0.7709676
0.0,-0.1,1.2999999999999998,-0.5235987755982988,-0.5235987755982988,0,0.055430982,-0.71888006,1.8537946,-0.16077733,0.65467346,0.58485925,0.2709968,-0.7783364,-1.4011244,-0.7868687,-0.6733567,0.07248953,0.66578466,0.7687088
0.0,-0.1,1.2999999999999998,-0.5235987755982988,-0.5235987755982988,0,0.04654569,-0.73264265,0.8372357,0.0013571308,0.6836414,0.10441587,0.38630986,-0.7744544,-1.3997148,-0.75750345,-0.66933304,0.16641434,0.6066538,0.7227881
0.0,-0.1,1.2999999999999998,-0.5235987755982988,-0.5235987755982988,0,0.009214214,-0.7287061,1.7173837,-0.11594766,0.45518535,0.37681568,0.3243835,-0.75805926,-1.4050686,-0.7682767,-0.677634,0.09197885,0.635984,0.60151786
0.0,-0.1,1.2999999999999998,-0.5235987755982988,-0.5235987755982988,0,-0.0602549,-0.73656666,0.8845706,-0.18501572,0.67086023,-0.51586545,0.15744495,-0.77463967,-1.4032747,-0.7720787,-0.66173136,0.1525605,0.61659944,0.48913252
0.0,-0.1,1.2999999999999998,-0.5235987755982988,-0.5235987755982988,0,-0.0618753,-0.7354904,1.0654067,-0.15587145,0.6552526,0.6792078,-0.055726502,-0.77390033,-1.3964709,-0.79707974,-0.67629725,0.1674073,0.6288759,0.7971681
0.0,-0.1,1.2999999999999998,-0.5235987755982988,-0.5235987755982988,0,-0.049423996,-0.7309297,0.4264433,-0.09197067,0.44862434,0.22425751,0.39261258,-0.76415354,-1.4002432,-0.78727806,-0.6732788,0.10117596,0.62392914,0.5797981
0.0,-0.1,1.2999999999999998,-0.5235987755982988,-0.5235987755982988,0,-0.036527958,-0.7326991,1.6875817,-0.059684686,0.59330946,0.29433984,-0.15192176,-0.7732997,-1.4006102,-0.77826476,-0.66350484,0.24031469,0.6161861,0.6655549
0.0,-0.1,1.2999999999999998,-0.5235987755982988,-0.5235987755982988,0,-0.054986015,-0.73199594,-0.4161094,-0.15540133,0.5564048,0.316694,0.3606171,-0.78946424,-1.4002178,-0.7862181,-0.6629049,0.2608049,0.6367534,0.70508057
0.0,-0.1,1.2999999999999998,-0.5235987755982988,-0.5235987755982988,0,-0.04114156,-0.73345613,0.85390466,-0.11043745,0.4912403,0.7206457,0.1877109,-0.7741806,-1.4020989,-0.78378433,-0.67289543,0.064439304,0.62062764,0.743765
0.0,-0.1,1.2999999999999998,-0.5235987755982988,-0.5235987755982988,0,0.010221758,-0.71692115,1.3139849,0.016275207,0.40613994,-0.10641515,0.3790623,-0.7738983,-1.3976176,-0.77712846,-0.67094827,0.21160035,0.63504034,0.6804041
0.0,-0.1,1.2999999999999998,-0.5235987755982988,-0.5235987755982988,0,-0.01778631,-0.7486114,-0.44382012,-0.0978125,0.563199,0.3105857,0.13102944,-0.7748115,-1.3900251,-0.79881203,-0.6782528,0.22199225,0.59903663,0.69123036
0.0,-0.1,1.2999999999999998,-0.5235987755982988,-0.5235987755982988,0,-0.009167124,-0.7248177,1.5358454,0.024259783,0.6442066,-0.27450964,0.29557776,-0.77726775,-1.3955836,-0.78074396,-0.6732529,0.17451678,0.6277216,0.71695936
0.0,-0.1,1.2999999999999998,-0.5235987755982988,-0.5235987755982988,0,-0.014892645,-0.7296645,0.8602203,-0.081481956,0.4176898,0.29742935,0.15034111,-0.76659906,-1.3983508,-0.7771382,-0.6717929,0.034351815,0.67923677,0.7635758
0.0,-0.1,1.2999999999999998,-0.5235987755982988,-0.5235987755982988,0,-0.027163133,-0.7197109,1.4713782,-0.121103846,0.4933764,-0.3871931,0.57714844,-0.7642206,-1.4027232,-0.7786414,-0.67028105,0.19918245,0.66408604,0.73411185
0.0,-0.1,1.2999999999999998,-0.5235987755982988,-0.5235987755982988,0,-0.050033193,-0.7174286,0.80637324,-0.0017880148,0.5548633,-0.045197804,0.29497847,-0.77481776,-1.3940213,-0.80466026,-0.6781393,0.19079244,0.6433659,0.72070897
0.0,-0.1,1.2999999999999998,-0.5235987755982988,-0.5235987755982988,0,-0.084385,-0.73760664,0.5182582,-0.14719343,0.40319106,0.31963533,0.29189524,-0.76980376,-1.4059887,-0.79438573,-0.6659353,0.12639904,0.62819296,0.6078759
0.0,-0.1,1.2999999999999998,-0.5235987755982988,-0.5235987755982988,0,-0.036536418,-0.7330679,1.316301,-0.086432405,0.4439992,0.39835992,0.27240223,-0.7719777,-1.3969657,-0.79612064,-0.6742474,0.20955937,0.6336167,0.75816303
0.0,-0.1,1.2999999999999998,-0.5235987755982988,-0.5235987755982988,0,0.023152206,-0.7308504,0.77970755,-0.2186591,0.58495706,0.48018754,0.5108874,-0.763919,-1.3992501,-0.7914484,-0.6719467,0.2283681,0.65968144,0.6793347
0.0,-0.1,1.2999999999999998,-0.5235987755982988,-0.5235987755982988,0,-0.0994589,-0.71962273,1.3417609,-0.16452819,0.78702134,0.1473711,0.09486736,-0.77863145,-1.3993425,-0.7900868,-0.6698617,-0.040190198,0.664041,0.838519
0.0,-0.1,1.2999999999999998,-0.5235987755982988,-0.5235987755982988,0,-0.033570386,-0.7077427,2.1533654,-0.1196576,0.57521695,0.34609526,0.4808033,-0.7908312,-1.4034783,-0.7871177,-0.6672461,0.17486548,0.64223087,0.658092
0.0,-0.1,1.2999999999999998,-0.5235987755982988,-0.5235987755982988,0,-0.013864532,-0.7181361,1.0199441,-0.2647837,0.6836895,0.5744767,0.34665644,-0.761963,-1.3976574,-0.7844277,-0.66558635,0.28125137,0.661218,0.7687371
0.0,-0.1,1.2999999999999998,-0.5235987755982988,-0.5235987755982988,0,-0.13987815,-0.7222817,0.6156344,-0.030356133,0.6693075,0.79696906,0.18214941,-0.76906544,-1.4048425,-0.76893467,-0.66793144,0.05249731,0.6308381,0.700635
0.0,-0.1,1.2999999999999998,-0.5235987755982988,-0.5235987755982988,0,-0.061837576,-0.7527995,0.5902829,-0.13323045,0.40172789,-0.30122608,0.16493838,-0.78052,-1.400303,-0.8007705,-0.66899097,0.15069808,0.6550052,0.7885164
0.0,-0.1,1.2999999999999998,-0.5235987755982988,-0.5235987755982988,0,-0.08223678,-0.7092789,0.37328446,-0.2148561,0.7290234,0.28860056,0.79755366,-0.7822244,-1.3937044,-0.792671,-0.6788239,0.23917821,0.66496384,0.908276
0.0,-0.1,1.2999999999999998,-0.5235987755982988,-0.5235987755982988,0,-0.04745601,-0.73962885,-0.609988,-0.17303425,0.52776074,-0.30237105,0.23713157,-0.7878335,-1.4007481,-0.79575896,-0.67713356,0.21618792,0.6481122,0.68994606
0.0,-0.1,1.2999999999999998,-0.5235987755982988,-0.5235987755982988,0,0.05593477,-0.74009067,1.0821291,-0.1355137,0.65918666,0.33735126,0.55313224,-0.7730878,-1.4039656,-0.79232496,-0.66916203,0.1181148,0.60580647,0.6498759
0.0,-0.1,1.2999999999999998,-0.5235987755982988,-0.5235987755982988,0,-0.027427388,-0.74949676,-0.873257,-0.16708452,0.43068188,-0.13305227,-0.07284635,-0.787522,-1.3972776,-0.7803748,-0.67059815,0.011005241,0.6324832,0.6808325
0.0,-0.1,1.2999999999999998,-0.5235987755982988,-0.5235987755982988,0,-0.02360522,-0.7270235,1.641207,-0.1013953,0.5489042,0.3188889,0.23304781,-0.7717263,-1.4004682,-0.7967671,-0.6642511,0.2809545,0.67382294,0.6913564
0.0,-0.1,1.2999999999999998,-0.5235987755982988,-0.5235987755982988,0,-0.043360174,-0.7521086,0.7675426,-0.013214365,0.6037901,0.20721276,0.20339765,-0.7789257,-1.4015388,-0.7894878,-0.6690076,0.1160162,0.65173125,0.8168067
0.0,-0.1,1.2999999999999998,-0.5235987755982988,-0.5235987755982988,0,-0.012413795,-0.74481905,0.15074666,-0.05689043,0.7152056,0.28115526,-0.06378672,-0.78487414,-1.3960348,-0.7884025,-0.677859,0.18221812,0.6345276,0.6397121
0.0,-0.1,1.2999999999999998,-0.5235987755982988,-0.5235987755982988,0,0.012703488,-0.72906524,1.0276492,-0.076656364,0.36728284,-0.16063224,0.5775714,-0.77948487,-1.4017489,-0.7781825,-0.67537475,0.07742762,0.67096025,0.71812165
0.0,-0.1,1.2999999999999998,-0.5235987755982988,-0.5235987755982988,0,-0.030983502,-0.74989694,-0.31282592,-0.1603028,0.6445211,0.07679454,0.35581017,-0.7838106,-1.4002603,-0.7719938,-0.67084205,-0.04338047,0.62979364,0.63798535
0.0,-0.1,1.2999999999999998,-0.5235987755982988,-0.5235987755982988,0,0.0008499466,-0.7342081,1.4711566,-0.12304515,0.6577991,0.08173209,0.46624807,-0.77678365,-1.4037203,-0.7909745,-0.66613984,0.15405522,0.64019054,0.67506856
0.0,-0.1,1.2999999999999998,-0.5235987755982988,-0.5235987755982988,0,-0.04403062,-0.7537716,0.36566207,-0.16168411,0.6419777,0.34714666,0.24590084,-0.77968633,-1.4042062,-0.8144147,-0.66856974,0.2827783,0.6564194,0.75664485
0.0,-0.1,1.2999999999999998,-0.5235987755982988,-0.5235987755982988,0,0.019105637,-0.75335896,0.23741226,-0.17893241,0.59049034,-0.12006001,0.03347295,-0.7783771,-1.3967553,-0.79242516,-0.67272764,0.1448192,0.654927,0.7590656
0.0,-0.1,1.2999999999999998,-0.5235987755982988,-0.5235987755982988,0,-0.027333595,-0.7339707,-0.77035373,-0.084195256,0.41844097,0.3435213,0.71559453,-0.77438486,-1.4063232,-0.7653773,-0.6727424,0.21752548,0.6483077,0.7321883
0.0,-0.1,1.2999999999999998,-0.5235987755982988,-0.5235987755982988,0,-0.06409424,-0.7505048,1.1911032,-0.06624566,0.46857744,0.18918484,0.39023936,-0.7706608,-1.3991312,-0.79432774,-0.6712183,0.17656608,0.6192465,0.6915665
0.0,-0.1,1.2999999999999998,-0.5235987755982988,-0.5235987755982988,0,-0.0032612013,-0.738944,0.95094776,-0.1438719,0.34598166,-0.16785954,0.9152874,-0.7658602,-1.3979311,-0.79492617,-0.6742868,0.1273394,0.6335428,0.83454025
0.0,-0.1,1.2999999999999998,-0.5235987755982988,-0.5235987755982988,0,0.0014942345,-0.7278577,0.25352877,-0.10105308,0.6168989,0.2161732,0.4256237,-0.7610574,-1.3962424,-0.7866854,-0.66836,0.35912028,0.6837912,0.5912499
0.0,-0.1,1.2999999999999998,-0.5235987755982988,-0.5235987755982988,0,-0.0054184427,-0.73252517,1.2010093,-0.05492211,0.38350156,0.5255722,0.4433158,-0.7852219,-1.3950174,-0.7872835,-0.675289,0.21337052,0.6348726,0.6147093
0.0,-0.1,1.2999999999999998,-0.5235987755982988,-0.5235987755982988,0,-0.014938393,-0.7300186,0.84015054,-0.21701615,0.6757799,0.16355845,0.5385297,-0.7802287,-1.3948512,-0.77573943,-0.66859555,0.26584712,0.64407754,0.77855885
0.0,-0.1,1.2999999999999998,-0.5235987755982988,-0.5235987755982988,0,-0.05087189,-0.7270365,-0.90731233,-0.07156878,0.51226544,0.57801855,0.036398314,-0.77273864,-1.4008219,-0.78125566,-0.6733219,0.10860175,0.6478802,0.69497335
0.0,-0.1,1.2999999999999998,-0.5235987755982988,-0.5235987755982988,0,0.030892063,-0.7381921,0.19260529,-0.09164882,0.539477,0.40033248,0.33903307,-0.76745045,-1.3970535,-0.7943485,-0.66672057,0.15666182,0.65813917,0.8065138
0.0,-0.1,1.2999999999999998,-0.5235987755982988,-0.5235987755982988,0,-0.06043535,-0.74294704,1.8523666,-0.25025785,0.7448782,0.41910276,-0.043332454,-0.7818004,-1.4013612,-0.8000844,-0.66845495,0.37713116,0.6506096,0.68313664
0.0,-0.1,1.2999999999999998,-0.5235987755982988,-0.5235987755982988,0,-0.046396565,-0.7239225,0.827967,-0.069772266,0.73949677,0.059349887,0.5050686,-0.77378285,-1.3975496,-0.79078823,-0.6647049,0.1594037,0.6222118,0.6752452
0.0,-0.1,1.2999999999999998,-0.5235987755982988,-0.5235987755982988,0,-0.09204128,-0.7408212,-0.50659364,0.0128519945,0.7405778,0.62721103,0.53904164,-0.7622934,-1.3964611,-0.79069024,-0.67440844,0.3493942,0.6501807,0.7058958
0.0,-0.1,1.2999999999999998,-0.5235987755982988,-0.5235987755982988,0,-0.059769507,-0.72434354,0.94432545,-0.1781029,0.5849961,0.27599055,0.29666537,-0.7813241,-1.4004568,-0.77775425,-0.67449933,0.10641016,0.6280124,0.69502
0.0,-0.1,1.2999999999999998,-0.5235987755982988,-0.5235987755982988,0,-0.056972627,-0.726982,1.8621196,0.037811115,0.47750586,0.07627252,-0.052313574,-0.77088165,-1.399856,-0.77622736,-0.67488605,0.13209298,0.6242127,0.73508316
0.0,-0.1,1.2999999999999998,-0.5235987755982988,-0.5235987755982988,0,0.045977313,-0.7281858,1.0749997,-0.1884686,0.53375614,1.0869586,0.42415488,-0.78279567,-1.40328,-0.78173006,-0.6789096,0.21870866,0.6626245,0.64620525
0.0,-0.1,1.2999999999999998,-0.5235987755982988,-0.5235987755982988,0,-0.011609567,-0.7138598,0.9894707,-0.08654965,0.48005846,0.47953016,0.403726,-0.77384734,-1.3985727,-0.7969739,-0.67290527,0.19576928,0.6444761,0.6780829
0.0,-0.1,1.2999999999999998,-0.5235987755982988,-0.5235987755982988,0,-0.070382774,-0.7338329,1.5522051,-0.14714536,0.5537566,-0.067509964,0.42822635,-0.7836956,-1.4038017,-0.7769674,-0.6702716,0.034910493,0.6626151,0.59607434
0.0,-0.1,1.2999999999999998,-0.5235987755982988,-0.5235987755982988,0,-0.05840522,-0.7169729,0.76657635,-0.22422782,0.5749775,0.17514953,0.53542644,-0.7719004,-1.3987244,-0.7820195,-0.67025113,0.047754686,0.60023475,0.760131
0.0,-0.1,1.2999999999999998,-0.5235987755982988,-0.5235987755982988,0,0.052634098,-0.7241389,1.0212412,-0.19017237,0.65655583,-0.0031999042,0.58178633,-0.7676705,-1.3974973,-0.767735,-0.6730204,0.20481718,0.65157205,0.7033094
0.0,-0.1,1.2999999999999998,-0.5235987755982988,-0.5235987755982988,0,-0.089040406,-0.7361789,1.0707918,-0.14362729,0.62900406,-0.4268901,0.67783314,-0.76882386,-1.4067208,-0.7996965,-0.67891645,0.1061743,0.65712345,0.65971196
0.0,-0.1,1.2999999999999998,-0.5235987755982988,-0.5235987755982988,0,-0.07673651,-0.73972285,1.9294746,-0.011129126,0.35137203,-0.108282275,0.10961938,-0.782823,-1.3994676,-0.77803284,-0.6812629,0.09635499,0.6474215,0.5615956
0.0,-0.1,1.2999999999999998,-0.5235987755982988,-0.5235987755982988,0,-0.01501369,-0.7168638,0.1201043,-0.109604575,0.5468821,-0.48639163,0.17965367,-0.7735143,-1.4050407,-0.7787619,-0.67042303,0.07267739,0.65295106,0.8613223
0.0,-0.1,1.2999999999999998,-0.5235987755982988,-0.5235987755982988,0,-0.14829147,-0.7401298,-0.50959355,-0.18459988,0.54646015,0.49192262,0.10254594,-0.7673919,-1.402244,-0.7865625,-0.6679061,0.19456053,0.6640234,0.7139201
0.0,-0.1,1.2999999999999998,-0.5235987755982988,-0.5235987755982988,0,-0.0599068,-0.7399294,2.0653794,-0.17233624,0.68657714,-0.1589149,0.39342025,-0.7856442,-1.3985999,-0.7976355,-0.6759433,0.20036039,0.61804014,0.6809323
0.0,-0.1,1.2999999999999998,-0.5235987755982988,-0.5235987755982988,0,-0.05033285,-0.72114205,1.3672152,-0.08257406,0.8346382,0.2988457,0.9201906,-0.7824966,-1.4051708,-0.80829155,-0.67745334,0.28197625,0.6750589,0.74465406
0.0,-0.1,1.2999999999999998,-0.5235987755982988,-0.5235987755982988,0,-0.07936007,-0.74295884,0.21235363,-0.10214146,0.5002847,-0.042123813,0.26608756,-0.7746744,-1.4031677,-0.8067189,-0.67264265,0.28869733,0.636063,0.8081278
0.0,-0.1,1.2999999999999998,-0.5235987755982988,-0.5235987755982988,0,-0.008423729,-0.7414579,0.8891813,-0.20122933,0.55929786,0.35859716,-0.14508541,-0.7725562,-1.4057671,-0.8039357,-0.6719055,0.11666789,0.6138007,0.8112594
0.0,-0.1,1.2999999999999998,-0.5235987755982988,-0.5235987755982988,0,-0.035198092,-0.7234421,1.5185219,-0.11472844,0.66146153,0.06151277,0.06065755,-0.7555622,-1.4012631,-0.76414347,-0.67762417,0.19286725,0.66477126,0.73780155
0.0,-0.1,1.2999999999999998,-0.5235987755982988,-0.5235987755982988,0,-0.057673093,-0.7222904,0.88847274,-0.13709366,0.5718409,0.38551235,0.5778874,-0.77221125,-1.398337,-0.781298,-0.6784824,0.1847766,0.66920996,0.7261214
0.0,-0.1,1.2999999999999998,-0.5235987755982988,-0.5235987755982988,0,0.04015787,-0.7382457,0.8359096,-0.0607633,0.6346363,0.09464412,0.55494857,-0.7854867,-1.4005167,-0.77342165,-0.67663,0.119066365,0.63368505,0.7057498
0.0,-0.1,1.2999999999999998,-0.5235987755982988,-0.5235987755982988,0,0.017091474,-0.72112596,2.0372577,-0.15745062,0.2697769,0.78697306,0.09623005,-0.79227555,-1.4016492,-0.7937767,-0.6772,0.056620013,0.66940904,0.8412815
0.0,-0.1,1.2999999999999998,-0.5235987755982988,-0.5235987755982988,0,-0.039133593,-0.7179531,0.34106845,-0.025634535,0.5404572,-0.04545806,0.49104357,-0.7724272,-1.3961078,-0.788367,-0.6695701,0.316738,0.6308708,0.83210504
0.0,-0.1,1.2999999999999998,-0.5235987755982988,-0.5235987755982988,0,0.03181592,-0.72795004,0.22005835,-0.0794515,0.40580606,0.12874539,0.28409898,-0.7918327,-1.3977215,-0.77598524,-0.67892617,0.11252859,0.6239396,0.6519453
0.0,-0.1,1.2999999999999998,-0.5235987755982988,-0.5235987755982988,0,0.009008274,-0.7278835,1.0858384,-0.18339898,0.5978508,-0.15761547,0.006608242,-0.77723175,-1.4016846,-0.8086964,-0.6720596,-0.046456303,0.6921625,0.75645006
0.0,-0.1,1.2999999999999998,-0.5235987755982988,-0.5235987755982988,0,-0.039366357,-0.7463252,0.83419627,-0.13260467,0.67611676,0.4425952,0.81460476,-0.7726817,-1.3997393,-0.77644795,-0.66398597,0.1339626,0.6026566,0.746113
0.0,-0.1,1.2999999999999998,-0.5235987755982988,-0.5235987755982988,0,-0.022724424,-0.7234965,0.5542409,-0.27906337,0.5923868,0.23422812,0.9077908,-0.77513576,-1.3944898,-0.8022216,-0.6674944,0.23279107,0.64709854,0.75010335
0.0,-0.1,1.2999999999999998,-0.5235987755982988,-0.5235987755982988,0,0.019730348,-0.74923754,-0.6104756,-0.19269368,0.59911716,0.1404472,0.49592322,-0.7829564,-1.4036444,-0.7903005,-0.6801314,0.2657331,0.62967056,0.6566045
0.0,-0.1,1.2999999999999998,-0.5235987755982988,-0.5235987755982988,0,-0.062172465,-0.74129725,1.6167804,-0.061354853,0.40286466,-0.066981256,0.6858733,-0.7849435,-1.3986424,-0.78822714,-0.67469627,0.34294394,0.63939065,0.73080856
0.0,-0.1,1.2999999999999998,-0.5235987755982988,-0.5235987755982988,0,-0.06408464,-0.7145098,1.0909544,-0.14885983,0.49386948,0.36360928,0.41173837,-0.7880579,-1.4022019,-0.7842767,-0.65827036,0.21383159,0.6493305,0.6993249
0.0,-0.1,1.2999999999999998,-0.5235987755982988,-0.5235987755982988,0,-0.13305588,-0.7423235,0.4957662,-0.24171004,0.4583537,0.28834867,0.44971085,-0.7794053,-1.3982593,-0.7847971,-0.667757,0.36051115,0.6527306,0.7222833
0.0,-0.1,1.2999999999999998,-0.5235987755982988,-0.5235987755982988,0,-0.073005855,-0.7346266,1.3891828,-0.17301266,0.69025385,0.090865776,0.42674792,-0.78649247,-1.3962531,-0.77006054,-0.67782784,0.21726096,0.6434911,0.667568
0.0,-0.1,1.2999999999999998,-0.5235987755982988,-0.5235987755982988,0,-0.048795424,-0.72898155,0.18193255,-0.15923308,0.6016315,0.7145173,0.35582513,-0.77947176,-1.3980458,-0.7876561,-0.6660888,0.117312714,0.6154932,0.65945625
0.0,-0.1,1.2999999999999998,-0.5235987755982988,-0.5235987755982988,0,0.06236818,-0.7460734,1.3076193,-0.14213501,0.41888604,0.39988714,-0.15734027,-0.79306185,-1.4016789,-0.7840294,-0.67719126,0.08695461,0.65895116,0.72755885
0.0,-0.1,1.2999999999999998,-0.5235987755982988,-0.5235987755982988,0,-0.013408244,-0.73420644,1.5707657,0.01075727,0.6592862,0.146678,0.7938325,-0.7733877,-1.3964168,-0.792224,-0.67111224,0.22964583,0.6622653,0.6676349
0.0,-0.1,1.2999999999999998,-0.5235987755982988,-0.5235987755982988,0,-0.023698604,-0.7469757,-0.28442904,-0.066043876,0.44779733,0.39169005,0.058901418,-0.7801596,-1.4023436,-0.7830152,-0.671517,0.03527327,0.6713918,0.77531195
0.0,-0.1,1.2999999999999998,-0.5235987755982988,-0.5235987755982988,0,-0.004855064,-0.75841564,1.2152812,-0.052018873,0.24891314,0.7607513,-0.0051228446,-0.7758915,-1.4004894,-0.747681,-0.6724662,0.2714474,0.6599879,0.84649974
0.0,-0.1,1.2999999999999998,-0.5235987755982988,-0.5235987755982988,0,-0.084581465,-0.70689183,1.5018153,0.050033487,0.52101076,0.3464364,-0.050834574,-0.783479,-1.3981303,-0.796668,-0.6699191,0.16877039,0.6455439,0.61674273
0.0,-0.1,1.2999999999999998,-0.5235987755982988,-0.5235987755982988,0,0.050400898,-0.7351986,1.7294766,-0.13828377,0.52132463,0.43101722,-0.17316288,-0.7671525,-1.4010247,-0.79138756,-0.6776664,0.07455813,0.6352508,0.75555634
0.0,-0.1,1.2999999999999998,-0.5235987755982988,-0.5235987755982988,0,-0.015161005,-0.73091614,1.5589623,-0.19522648,0.60012406,0.4334525,-0.1443707,-0.7756708,-1.3993596,-0.77415943,-0.66477615,0.084883444,0.6449519,0.74144393
0.0,-0.1,1.2999999999999998,-0.5235987755982988,-0.5235987755982988,0,0.03638664,-0.72297794,0.49454302,-0.29880443,0.67352825,-0.60039425,0.5006745,-0.77472687,-1.399133,-0.80357826,-0.6717259,0.08076247,0.6069091,0.6869262
0.0,-0.1,1.2999999999999998,-0.5235987755982988,-0.5235987755982988,0,0.016684297,-0.74631846,1.7961595,-0.14579979,0.5307708,0.48654336,0.36158562,-0.7749475,-1.4050503,-0.75402945,-0.66642916,0.13564178,0.605017,0.7662525
0.0,-0.1,1.2999999999999998,-0.5235987755982988,-0.5235987755982988,0,0.041315313,-0.74021816,1.3704889,-0.037648883,0.33161667,0.17881341,0.35945228,-0.76662016,-1.3954237,-0.80258447,-0.67786884,0.24069242,0.69152886,0.650041
0.0,-0.1,1.2999999999999998,-0.5235987755982988,-0.5235987755982988,0,-0.08850876,-0.7190661,1.2285061,-0.1759463,0.5079604,0.39027593,0.40714547,-0.7895641,-1.3982656,-0.78401744,-0.67962074,-0.023926517,0.6657538,0.7209991
0.0,-0.1,1.2999999999999998,-0.5235987755982988,-0.5235987755982988,0,-0.09632401,-0.73655826,1.9091281,-0.054216668,0.6412189,0.008585433,0.46180725,-0.77458197,-1.4009771,-0.78953034,-0.6660616,0.18987592,0.66748506,0.67475986
0.0,-0.1,1.2999999999999998,-0.5235987755982988,-0.5235987755982988,0,-0.06453679,-0.7268163,1.2893738,-0.1076694,0.3864606,-0.7540484,-0.31061193,-0.7786338,-1.3987532,-0.7817497,-0.66687,0.068576664,0.61256516,0.7057365
0.0,-0.1,1.2999999999999998,-0.5235987755982988,-0.5235987755982988,0,-0.118016705,-0.7244911,0.7063962,-0.069076985,0.60317844,0.76347274,0.21704869,-0.76156604,-1.3978114,-0.7876687,-0.6778777,0.017627489,0.6219236,0.73819035
0.0,-0.1,1.2999999999999998,-0.5235987755982988,-0.5235987755982988,0,-0.07724077,-0.73388577,0.02156971,-0.12507764,0.556927,0.30558473,0.34775,-0.76394975,-1.4050307,-0.786819,-0.67529804,0.12269784,0.59370136,0.6232204
0.0,-0.1,1.2999999999999998,-0.5235987755982988,-0.5235987755982988,0,0.01257633,-0.7503849,-0.28324226,-0.09061486,0.7725192,0.4217036,1.0953659,-0.78822803,-1.3990368,-0.78191364,-0.6596475,0.2046339,0.6417168,0.7331148
0.0,-0.1,1.2999999999999998,-0.5235987755982988,-0.5235987755982988,0,-0.023660688,-0.73196304,-0.21500835,-0.1497275,0.53924733,0.8587332,0.8350526,-0.77216977,-1.4008204,-0.7917532,-0.67635596,0.11736343,0.63838136,0.65014344
0.0,-0.1,1.2999999999999998,-0.5235987755982988,-0.5235987755982988,0,-0.15548888,-0.729592,1.2488384,-0.054798476,0.44081506,0.0355664,-0.5027986,-0.7891116,-1.3965981,-0.79570824,-0.6723341,0.35232577,0.70763147,0.7675559
0.0,-0.1,1.2999999999999998,-0.5235987755982988,-0.5235987755982988,0,-0.013342786,-0.7366157,0.19503757,-0.17001995,0.6249095,0.47068167,0.5305459,-0.7737354,-1.4042177,-0.77838105,-0.6717466,0.06682831,0.6412019,0.617702
0.0,-0.1,1.2999999999999998,-0.5235987755982988,-0.5235987755982988,0,-0.121349014,-0.7247872,1.8172315,0.013289113,0.5164848,0.55850697,0.45510775,-0.7814534,-1.4009439,-0.7757822,-0.6786767,0.10858124,0.6376185,0.5825082
0.0,-0.1,1.2999999999999998,-0.5235987755982988,-0.5235987755982988,0,-0.044474736,-0.73018044,-1.2977492,-0.01181351,0.57771945,0.7934824,0.281999,-0.7973165,-1.4020572,-0.76867056,-0.67157054,0.09957109,0.63976586,0.6790567
0.0,-0.1,1.2999999999999998,-0.5235987755982988,-0.5235987755982988,0,-0.024676295,-0.728868,-0.14942066,-0.14226674,0.5634297,0.3768904,0.2930962,-0.7815857,-1.4038132,-0.7801759,-0.677264,0.0746753,0.6360317,0.53264356
0.0,-0.1,1.2999999999999998,-0.5235987755982988,-0.5235987755982988,0,-0.032832988,-0.7252492,0.79403466,-0.19835472,0.4210678,0.16087425,0.23617904,-0.77745134,-1.3944604,-0.790392,-0.6770281,0.21965373,0.61726505,0.6655245
0.0,-0.1,1.2999999999999998,-0.5235987755982988,-0.5235987755982988,0,-0.041559927,-0.72300154,1.7492487,-0.14713196,0.5774856,0.101445936,0.5826473,-0.76501685,-1.3975717,-0.78834283,-0.6626645,0.28831735,0.6357877,0.6708514
0.0,-0.1,1.2999999999999998,-0.5235987755982988,-0.5235987755982988,0,-0.111665614,-0.75368786,1.6785997,-0.13074265,0.4989745,0.63917947,0.0374757,-0.77244574,-1.408093,-0.7574173,-0.6713189,0.2312963,0.64344305,0.5714635
0.0,-0.1,1.2999999999999998,-0.5235987755982988,-0.5235987755982988,0,0.045212388,-0.740557,0.40989622,-0.21487717,0.5587042,0.3729496,-0.44809294,-0.77800876,-1.4026629,-0.8018032,-0.6732769,0.25758037,0.6317879,0.74854964
0.0,-0.1,1.2999999999999998,-0.5235987755982988,-0.5235987755982988,0,-0.0039418023,-0.71701324,1.8132422,-0.09353739,0.44189736,0.22805324,0.53751075,-0.7817601,-1.4048902,-0.75934607,-0.6652793,0.21171677,0.59913456,0.8066348
0.0,-0.1,1.2999999999999998,-0.5235987755982988,-0.5235987755982988,0,0.026407655,-0.73830056,-0.35315207,-0.16273966,0.61467856,0.3205461,0.07894535,-0.7894803,-1.394272,-0.7940015,-0.6716705,0.28314987,0.630392,0.70891106
0.0,-0.1,1.2999999999999998,-0.5235987755982988,-0.5235987755982988,0,-0.05369963,-0.7402291,1.1362609,-0.055907443,0.61237514,0.72683984,0.5131852,-0.779848,-1.4032762,-0.78246653,-0.6736319,0.12929535,0.651621,0.5232251
0.0,-0.1,1.2999999999999998,-0.5235987755982988,-0.5235987755982988,0,-0.107586816,-0.7310704,2.107432,-0.15621546,0.5744247,1.0182929,0.5796698,-0.78487086,-1.3986628,-0.7797565,-0.6659456,-0.012970747,0.6731266,0.63220537
0.0,-0.1,1.2999999999999998,-0.5235987755982988,-0.5235987755982988,0,-0.017711602,-0.7234467,1.0312635,-0.13178249,0.7080902,0.23475681,-0.039995722,-0.7753542,-1.3988866,-0.7786717,-0.65607166,0.14503208,0.62288165,0.7901677
0.0,-0.1,1.2999999999999998,-0.5235987755982988,-0.5235987755982988,0,-0.020367108,-0.7318781,1.5655506,-0.19848785,0.44420153,0.2212941,-0.26393792,-0.78617686,-1.4009504,-0.7901276,-0.6641156,0.21341328,0.63813066,0.6942173
0.0,-0.1,1.2999999999999998,-0.5235987755982988,-0.5235987755982988,0,0.043932248,-0.7194041,-0.7036761,-0.20965832,0.6066337,0.5306466,0.2924688,-0.7835104,-1.4024295,-0.78155255,-0.6685185,0.099000774,0.6741801,0.5841345
0.0,-0.1,1.2999999999999998,-0.5235987755982988,-0.5235987755982988,0,-0.008191011,-0.72921926,0.45026895,0.0015686417,0.4779991,0.48014045,0.4855431,-0.7880343,-1.3930429,-0.8030023,-0.67373127,0.12983733,0.6341392,0.7889728
0.0,-0.1,1.2999999999999998,-0.5235987755982988,-0.5235987755982988,0,0.020971674,-0.74786925,0.5340824,-0.050305255,0.56379575,0.22946909,0.15830298,-0.7731864,-1.3965585,-0.792712,-0.6762049,0.06749055,0.631702,0.60070586
0.0,-0.1,1.2999999999999998,-0.5235987755982988,-0.5235987755982988,0,-0.097663686,-0.73320246,0.63665247,-0.13759594,0.55507857,0.17484751,0.008247541,-0.7819156,-1.4026992,-0.7774912,-0.6711585,0.10481809,0.63397616,0.819614
0.0,-0.1,1.2999999999999998,-0.5235987755982988,-0.5235987755982988,0,-0.054543555,-0.72654617,-1.562944,-0.16260046,0.57170254,0.25778344,0.03647376,-0.78956,-1.3990015,-0.76435095,-0.6708175,0.2521113,0.65849483,0.75304854
0.0,-0.1,1.2999999999999998,-0.5235987755982988,-0.5235987755982988,0,0.005748027,-0.7238089,0.30433464,-0.07204149,0.54434496,0.24252525,0.257964,-0.7820008,-1.4048326,-0.7980281,-0.6717967,0.19659679,0.6309728,0.6119017
0.0,-0.1,1.2999999999999998,-0.5235987755982988,-0.5235987755982988,0,-0.092879534,-0.7377184,0.9173973,-0.10648766,0.68175936,0.3627887,0.29853004,-0.7707466,-1.3954524,-0.79302025,-0.668116,0.18054412,0.6262714,0.7034705
0.0,-0.1,1.2999999999999998,-0.5235987755982988,-0.5235987755982988,0,0.029073324,-0.7413277,0.574848,-0.100630686,0.4945313,-0.74481225,0.7050472,-0.7856341,-1.4022614,-0.801684,-0.6726609,0.11147421,0.66250956,0.71810144
0.0,-0.1,1.2999999999999998,-0.5235987755982988,-0.5235987755982988,0,0.110226184,-0.73175097,1.4483384,-0.24404694,0.4464288,1.0626916,0.23822299,-0.79118174,-1.40557,-0.81545293,-0.66779816,0.17042969,0.64361817,0.76369286
0.0,-0.1,1.2999999999999998,-0.5235987755982988,-0.5235987755982988,0,-0.14939357,-0.7414733,1.4494882,-0.07191816,0.7101992,0.4504357,0.06718835,-0.77207035,-1.4003692,-0.76897645,-0.677645,0.31775045,0.6624023,0.8410526
0.0,-0.1,1.2999999999999998,-0.5235987755982988,-0.5235987755982988,0,-0.04335684,-0.7261901,0.3279734,-0.09819092,0.48311934,0.07546733,0.7275878,-0.777157,-1.4010687,-0.78072023,-0.66151744,0.19217643,0.6236673,0.7197647
0.0,-0.1,1.2999999999999998,-0.5235987755982988,-0.5235987755982988,0,-0.06105813,-0.74335206,0.92956114,-0.14832096,0.4869642,0.022849351,0.32639953,-0.7813688,-1.4025462,-0.80169415,-0.66252166,0.21818666,0.6499986,0.6381456
0.0,-0.1,1.2999999999999998,-0.5235987755982988,-0.5235987755982988,0,-0.069559485,-0.72265476,0.9661959,-0.13012233,0.5336607,0.63287526,0.53210306,-0.768864,-1.4036008,-0.79952556,-0.67768115,-0.0002742266,0.6563955,0.7970086
0.0,-0.1,1.2999999999999998,-0.5235987755982988,-0.5235987755982988,0,-0.005863187,-0.7320963,1.2665682,-0.1600956,0.51886195,0.24783976,0.7948812,-0.7969899,-1.3944259,-0.788502,-0.6686005,0.20475084,0.6541442,0.63035077
0.0,-0.1,1.2999999999999998,-0.5235987755982988,-0.5235987755982988,0,-0.04219541,-0.7228388,1.7887967,-0.17579623,0.8162775,0.24794932,0.14855388,-0.7917749,-1.3991995,-0.7702087,-0.6665523,0.26421335,0.66086566,0.6063338
0.0,-0.1,1.2999999999999998,-0.5235987755982988,-0.5235987755982988,0,-0.0696025,-0.7273724,0.6533502,-0.20898889,0.2968747,0.06992226,0.18052061,-0.7651578,-1.4039954,-0.798374,-0.6665056,0.08141692,0.67087626,0.62087774
0.0,-0.1,1.2999999999999998,-0.5235987755982988,-0.5235987755982988,0,-0.081016,-0.736294,1.2567887,-0.06361575,0.5547277,-0.00918598,0.41204512,-0.78567064,-1.4006418,-0.76866037,-0.6709511,0.37533194,0.613669,0.8101546
0.0,-0.1,1.2999999999999998,-0.5235987755982988,-0.5235987755982988,0,0.08486235,-0.7340939,-0.27391207,-0.2126462,0.4352555,0.18685417,-0.044669844,-0.7814303,-1.3934425,-0.77568597,-0.67668897,0.07118242,0.63127434,0.7575149
0.0,-0.1,1.2999999999999998,-0.5235987755982988,-0.5235987755982988,0,-0.12696315,-0.73704696,0.96231544,-0.044829827,0.5981615,-0.035512432,0.523597,-0.788398,-1.3980746,-0.7710099,-0.66681176,0.37563878,0.65836287,0.6450101
0.0,-0.1,1.2999999999999998,-0.5235987755982988,-0.5235987755982988,0,0.045284424,-0.70815945,0.5850948,-0.13528702,0.4391348,0.6965645,0.20079607,-0.7677385,-1.3993734,-0.7993701,-0.66409075,0.07135296,0.62951946,0.68846434
0.0,-0.1,1.2999999999999998,-0.5235987755982988,-0.5235987755982988,0,-0.038255084,-0.7506185,0.3864304,-0.002844489,0.5334363,0.28142554,0.46250787,-0.77240425,-1.3993454,-0.7864863,-0.67098755,0.20294,0.6185425,0.70239925
0.0,-0.1,1.2999999999999998,-0.5235987755982988,-0.5235987755982988,0,-0.02961131,-0.71934724,0.9670271,-0.087516606,0.4113821,0.5894513,0.16317,-0.7920671,-1.3999813,-0.78486603,-0.6714746,0.28603294,0.6848333,0.65775293
0.0,-0.1,1.2999999999999998,-0.5235987755982988,-0.5235987755982988,0,-0.04438544,-0.7252689,0.8361535,-0.1519036,0.5560631,0.9473497,0.24967435,-0.7704266,-1.4030997,-0.7789773,-0.67431164,0.07873663,0.63643825,0.7367956
0.0,-0.1,1.2999999999999998,-0.5235987755982988,-0.5235987755982988,0,0.069977075,-0.7400196,0.57341784,-0.20360205,0.5243692,0.41066146,0.24646974,-0.7853095,-1.3994448,-0.7706508,-0.6664157,0.18984033,0.6448402,0.5806518
0.0,-0.1,1.2999999999999998,-0.5235987755982988,-0.5235987755982988,0,0.009712473,-0.7291389,0.50723046,-0.0685755,0.60046005,0.5194953,0.53859216,-0.7767194,-1.4005896,-0.8082687,-0.6709889,0.18899038,0.6493341,0.7891531
0.0,-0.1,1.2999999999999998,-0.5235987755982988,-0.5235987755982988,0,-0.046310615,-0.7297617,-0.9111794,-0.058639955,0.78578764,-0.24127437,-0.044586305,-0.7807737,-1.401603,-0.8027697,-0.66791093,0.18431374,0.60504603,0.65991044
0.0,-0.1,1.2999999999999998,-0.5235987755982988,-0.5235987755982988,0,-0.045367412,-0.7239599,-0.1987965,-0.20303318,0.6348693,-0.6568547,0.24017753,-0.7848411,-1.3990482,-0.7740459,-0.6828564,0.063313834,0.67143434,0.66698134
0.0,-0.1,1.2999999999999998,-0.5235987755982988,-0.5235987755982988,0,0.03596481,-0.7330163,1.0917107,-0.08585578,0.61501676,0.06811885,0.02182735,-0.7660784,-1.4002172,-0.7572385,-0.6758671,0.24093318,0.65937144,0.7683658
0.0,-0.1,1.2999999999999998,-0.5235987755982988,-0.5235987755982988,0,-0.073309734,-0.72569036,1.843455,-0.024295634,0.48593202,-0.65249085,0.31113395,-0.7922147,-1.4014313,-0.79455715,-0.67582244,0.08870114,0.6601833,0.76485705
0.0,-0.1,1.2999999999999998,-0.5235987755982988,-0.5235987755982988,0,-0.03318306,-0.7219773,-0.5313629,-0.1426154,0.59592265,0.7760753,0.5193447,-0.7757176,-1.396339,-0.79264873,-0.6819877,-0.061853796,0.60373765,0.7269811
0.0,-0.1,1.2999999999999998,-0.5235987755982988,-0.5235987755982988,0,0.0132010495,-0.73571813,1.0874914,-0.049216423,0.57524127,0.19850355,0.50248474,-0.7861874,-1.40299,-0.7908982,-0.6702213,0.17211704,0.63631546,0.683414
0.0,-0.1,1.2999999999999998,-0.5235987755982988,-0.5235987755982988,0,-0.02177887,-0.7158573,0.6509574,-0.17380477,0.6631355,0.3564411,0.23993304,-0.79179996,-1.3967346,-0.8061952,-0.6752672,0.23385203,0.69361746,0.7943552
0.0,-0.1,1.2999999999999998,-0.5235987755982988,-0.5235987755982988,0,-0.036263734,-0.73262924,0.16263494,-0.100249134,0.58082634,-0.189825,0.6127971,-0.78253907,-1.4001218,-0.77811366,-0.6698446,0.12821695,0.6273978,0.8165738
0.0,-0.1,1.2999999999999998,-0.5235987755982988,-0.5235987755982988,0,-0.02716673,-0.7445313,1.3244616,-0.13336335,0.5061238,0.52219236,0.37940732,-0.7749231,-1.3989714,-0.8175951,-0.6752014,0.20378825,0.63559645,0.6084078
0.0,-0.1,1.2999999999999998,-0.5235987755982988,-0.5235987755982988,0,-0.06108469,-0.7396091,0.7755817,-0.117217526,0.4368454,-0.13409577,0.6516744,-0.7828177,-1.4036961,-0.7895693,-0.67083335,0.21582176,0.6614388,0.78624296
0.0,-0.1,1.2999999999999998,-0.5235987755982988,-0.5235987755982988,0,-0.07653578,-0.72754246,1.119468,-0.021931252,0.36244166,0.031814992,0.38692418,-0.7654578,-1.4023591,-0.78203285,-0.68440515,0.12894677,0.66778344,0.6936918
0.0,-0.1,1.2999999999999998,-0.5235987755982988,-0.5235987755982988,0,0.0131701175,-0.7297953,0.1375036,0.06494676,0.6496574,0.7123587,0.28563806,-0.7979646,-1.399922,-0.7879897,-0.66939366,0.14762075,0.6274352,0.58002394
0.0,-0.1,1.2999999999999998,-0.5235987755982988,-0.5235987755982988,0,-0.059668332,-0.73863894,2.2488985,-0.18402025,0.53647417,0.23369995,-0.016531104,-0.79338986,-1.4001281,-0.81100786,-0.6720857,0.23269573,0.65310526,0.83392835
0.0,-0.1,1.2999999999999998,-0.5235987755982988,-0.5235987755982988,0,-0.083782464,-0.7451121,0.47074577,-0.08158304,0.6951191,-0.033140972,0.73885244,-0.7843845,-1.4049891,-0.8119659,-0.6665821,0.0050249156,0.6165962,0.8528753
0.0,-0.1,1.2999999999999998,-0.5235987755982988,-0.5235987755982988,0,0.0008623115,-0.72520363,1.6983526,-0.097412884,0.7670294,0.4211921,-0.3267979,-0.7838765,-1.4031665,-0.79177576,-0.67317045,0.25736654,0.6605115,0.79205656
0.0,-0.1,1.2999999999999998,-0.5235987755982988,-0.5235987755982988,0,-0.044180967,-0.72982556,-0.6951543,-0.16838586,0.60133606,0.3173372,0.48729217,-0.7836035,-1.3998876,-0.7833008,-0.66371197,0.33407578,0.64178854,0.70556116
0.0,-0.1,1.2999999999999998,-0.5235987755982988,-0.5235987755982988,0,-0.0075964555,-0.7382743,1.740651,-0.28446802,0.52836615,0.13459052,0.9884867,-0.78426456,-1.400866,-0.7918279,-0.6742097,0.22802703,0.66519636,0.7175505
0.0,-0.1,1.2999999999999998,-0.5235987755982988,-0.5235987755982988,0,-0.019255348,-0.7567837,0.1617055,-0.04829468,0.47188795,0.025105776,0.2361516,-0.7794847,-1.3972845,-0.77421296,-0.6810244,0.15298025,0.6171433,0.68465143
0.0,-0.1,1.2999999999999998,-0.5235987755982988,-0.5235987755982988,0,-0.07576243,-0.6992982,0.60715145,-0.07649121,0.63643754,0.44794065,-0.33037838,-0.77673525,-1.400724,-0.8136797,-0.674574,0.26772976,0.65001535,0.7322217
0.0,-0.1,1.2999999999999998,-0.5235987755982988,-0.5235987755982988,0,-0.02654838,-0.7361091,-0.04945414,-0.093193814,0.6733765,0.16686685,0.6776318,-0.77593297,-1.3972291,-0.7911685,-0.6685748,0.21397616,0.63224477,0.7586265
0.0,-0.1,1.2999999999999998,-0.5235987755982988,-0.5235987755982988,0,-0.04242995,-0.7266228,1.1575776,-0.07118075,0.4426795,0.8248007,0.5992867,-0.7822905,-1.4048034,-0.81001323,-0.67136467,0.09570398,0.6517313,0.7052197
0.0,-0.1,1.2999999999999998,-0.5235987755982988,-0.5235987755982988,0,0.01521446,-0.72625375,1.143066,-0.08234098,0.44551492,0.035366423,1.3818032,-0.7666816,-1.400863,-0.77865493,-0.68179774,0.047142353,0.6406539,0.69580364
0.0,-0.1,1.2999999999999998,-0.5235987755982988,-0.5235987755982988,0,-0.08412489,-0.7355018,0.48668885,-0.14152396,0.51089126,0.1220594,0.25520277,-0.77598137,-1.3974023,-0.7869058,-0.66857606,0.061868455,0.62588155,0.74499273
0.0,-0.1,1.2999999999999998,-0.5235987755982988,-0.5235987755982988,0,-0.04193334,-0.73550206,-0.105646946,-0.24434686,0.60506296,0.30738482,0.8599282,-0.8006834,-1.4025633,-0.807745,-0.6649392,0.14696783,0.6198,0.8449098
0.0,-0.1,1.2999999999999998,-0.5235987755982988,-0.5235987755982988,0,0.024551999,-0.7216449,0.82677287,-0.22258559,0.28015074,0.5526211,0.5579471,-0.7836888,-1.4019048,-0.7849474,-0.6755022,0.22293393,0.6119188,0.6154502
0.0,-0.1,1.2999999999999998,-0.5235987755982988,-0.5235987755982988,0,-0.05382367,-0.71700275,1.2019601,-0.14571029,0.45735702,-0.1414534,-0.18500422,-0.7860586,-1.3973057,-0.78118575,-0.67014384,0.042288188,0.6548356,0.6155789
0.0,-0.1,1.2999999999999998,-0.5235987755982988,-0.5235987755982988,0,-0.028264739,-0.7255861,1.3805089,-0.19209315,0.46253836,0.21641138,0.433071,-0.78237134,-1.4007055,-0.756902,-0.6725232,0.27641112,0.6141862,0.61989677
0.0,-0.1,1.2999999999999998,-0.5235987755982988,-0.5235987755982988,0,-0.058599588,-0.7357633,0.5410989,-0.03792053,0.70151955,0.3994373,0.21359225,-0.78435546,-1.398654,-0.7895848,-0.66876554,0.19384494,0.6671975,0.6140476
0.0,-0.1,1.2999999999999998,-0.5235987755982988,-0.5235987755982988,0,-0.13311814,-0.7464277,1.2126567,-0.23186612,0.35408145,0.17943756,0.3885426,-0.78031,-1.4082599,-0.77403605,-0.6758437,0.15406777,0.62554586,0.77820706
0.0,-0.1,1.2999999999999998,-0.5235987755982988,-0.5235987755982988,0,-0.03996732,-0.7204921,-1.103567,-0.18736954,0.56080264,0.28706992,0.31498122,-0.7844971,-1.3962611,-0.7668233,-0.680738,0.15818435,0.6451899,0.5975675
0.0,-0.1,1.2999999999999998,-0.5235987755982988,-0.5235987755982988,0,0.0038030953,-0.7356947,0.89720064,-0.18379603,0.5397956,-0.051967233,0.53432167,-0.7865846,-1.3964382,-0.76918674,-0.6760771,0.08457952,0.63790065,0.65857375
0.0,-0.1,1.2999999999999998,-0.5235987755982988,-0.5235987755982988,0,-0.053141505,-0.7289418,2.1925848,-0.15618329,0.42009848,0.1428967,0.44867432,-0.77140635,-1.4030815,-0.7998063,-0.67934155,0.13282675,0.6465375,0.5838615
0.0,-0.1,1.2999999999999998,-0.5235987755982988,-0.5235987755982988,0,0.018007305,-0.75951135,0.5950044,-0.080668435,0.68277967,0.48022696,0.3718436,-0.7671257,-1.3998293,-0.78458726,-0.6616361,0.114933155,0.6188056,0.746575
0.0,-0.1,1.2999999999999998,-0.5235987755982988,-0.5235987755982988,0,-0.16396753,-0.73229843,1.7537981,-0.11137878,0.5223245,0.8619659,0.45668817,-0.79165995,-1.4067442,-0.8101685,-0.6609705,0.3364914,0.6375445,0.8471181
0.0,-0.1,1.2999999999999998,-0.5235987755982988,-0.5235987755982988,0,0.0094124125,-0.75333047,1.6101689,-0.06220185,0.53145397,-0.26487193,0.71097845,-0.7671683,-1.4021562,-0.7688943,-0.66475564,0.058728345,0.64402425,0.6599055
0.0,-0.1,1.2999999999999998,-0.5235987755982988,-0.5235987755982988,0,-0.12092635,-0.72625476,0.91383845,-0.12471808,0.51455367,0.83116037,0.6711355,-0.7765844,-1.4020067,-0.7845967,-0.6733209,0.16326691,0.6354331,0.6908469
0.0,-0.1,1.2999999999999998,-0.5235987755982988,-0.5235987755982988,0,-0.007917103,-0.7262686,0.44690907,-0.12944001,0.3531693,0.1837485,-0.1702524,-0.78165704,-1.403106,-0.8039805,-0.67246264,0.2216489,0.6674008,0.6906802
0.0,-0.1,1.2999999999999998,-0.5235987755982988,-0.5235987755982988,0,-0.1155894,-0.7279451,1.5582514,-0.05805578,0.59056604,0.3962819,0.012884529,-0.781274,-1.3979839,-0.7972713,-0.6650127,0.17639528,0.6552214,0.83636993
0.0,-0.1,1.2999999999999998,-0.5235987755982988,-0.5235987755982988,0,-0.107986405,-0.7273087,0.9075591,-0.2775444,0.65504456,0.045620963,0.5526943,-0.77411634,-1.4015347,-0.77252805,-0.6718552,0.24824864,0.664349,0.5881966
0.0,-0.1,1.2999999999999998,-0.5235987755982988,-0.5235987755982988,0,-0.003273214,-0.74393785,0.62293684,-0.19548625,0.5752091,0.09172093,-0.120704204,-0.76269597,-1.4017054,-0.7719213,-0.6799073,0.22610913,0.6696662,0.66707003
0.0,-0.1,1.2999999999999998,-0.5235987755982988,-0.5235987755982988,0,-0.12327607,-0.72863,0.7333281,-0.15675183,0.52664137,0.20252292,0.81264025,-0.77198666,-1.4062743,-0.80298424,-0.6810119,0.23402318,0.6674238,0.85416454
0.0,-0.1,1.2999999999999998,-0.5235987755982988,-0.5235987755982988,0,-0.081518844,-0.73196745,1.0080694,-0.21351318,0.5779147,0.40606907,-0.41929793,-0.7838606,-1.4086969,-0.78627616,-0.6645815,0.15351008,0.63181937,0.84405607
0.0,-0.1,1.2999999999999998,-0.5235987755982988,-0.5235987755982988,0,0.009089542,-0.7494739,1.6954135,-0.04323054,0.59993494,0.60815454,0.20502293,-0.77098835,-1.4049731,-0.7759795,-0.66644573,0.34091452,0.6419637,0.7095654
0.0,-0.1,1.2999999999999998,-0.5235987755982988,-0.5235987755982988,0,-0.0055317744,-0.74524343,1.7165837,-0.088644534,0.5436549,0.034299403,0.38372645,-0.7596863,-1.405395,-0.7775026,-0.66852295,0.20615013,0.65004826,0.76370573
0.0,-0.1,1.2999999999999998,-0.5235987755982988,-0.5235987755982988,0,-0.057017844,-0.74569046,0.64023626,-0.104235314,0.6385973,0.44192734,0.62924296,-0.77035207,-1.3926523,-0.7882942,-0.6588384,0.06814631,0.7021748,0.64399254
0.0,-0.1,1.2999999999999998,-0.5235987755982988,-0.5235987755982988,0,0.06969543,-0.74119496,0.03169559,0.0676542,0.79740554,0.94728124,0.23663792,-0.7817732,-1.3974601,-0.8023707,-0.6822066,0.19911966,0.63169354,0.6585107
0.0,-0.1,1.2999999999999998,-0.5235987755982988,-0.5235987755982988,0,-0.039143857,-0.7367547,0.23330484,-0.05315103,0.61648273,0.59437746,-0.22265697,-0.7875725,-1.4014826,-0.8074081,-0.67308015,0.27728632,0.648713,0.6836465
0.0,-0.1,1.2999999999999998,-0.5235987755982988,-0.5235987755982988,0,-0.065686405,-0.7300907,0.7441186,-0.11706849,0.5552909,0.88514173,0.2720746,-0.7877563,-1.4012488,-0.77705926,-0.67752117,0.28172073,0.6173523,0.7478897
0.0,-0.1,1.2999999999999998,-0.5235987755982988,-0.5235987755982988,0,-0.0535583,-0.7150795,-0.6206083,-0.23655145,0.4213063,0.010618351,0.54675215,-0.77215034,-1.4015685,-0.7775334,-0.6716363,0.09944135,0.6296891,0.68051463
0.0,-0.1,1.2999999999999998,-0.5235987755982988,-0.5235987755982988,0,-0.045663673,-0.7093155,-0.17557003,-0.16407056,0.68398196,0.2710927,-0.0018077095,-0.76920056,-1.3987998,-0.8010805,-0.666566,0.09351077,0.578319,0.73640877
0.0,-0.1,1.2999999999999998,-0.5235987755982988,-0.5235987755982988,0,-0.05470874,-0.7360149,2.0986693,-0.26099196,0.4368753,0.54471606,0.50361496,-0.7867312,-1.4023348,-0.7797454,-0.6754972,0.15680481,0.6838233,0.5928598
0.0,-0.1,1.2999999999999998,-0.5235987755982988,-0.5235987755982988,0,-0.005586044,-0.73481613,0.45266342,-0.027979488,0.526312,0.3938722,0.10011241,-0.79159933,-1.4007531,-0.7739263,-0.6723077,0.08428021,0.62577647,0.7345251
0.0,-0.1,1.2999999999999998,-0.5235987755982988,-0.5235987755982988,0,-0.08433888,-0.7409299,0.8567503,-0.06735613,0.6439613,0.099036746,0.61490923,-0.7840029,-1.4040847,-0.78536564,-0.67523277,0.09263029,0.65519536,0.8634093
0.0,-0.1,1.2999999999999998,-0.5235987755982988,-0.5235987755982988,0,-0.063893005,-0.73641664,0.7123098,-0.04731854,0.3765278,0.79001874,0.37122396,-0.7739315,-1.3970922,-0.7687309,-0.6762269,0.07459735,0.62094533,0.7639217
0.0,-0.1,1.2999999999999998,-0.5235987755982988,-0.5235987755982988,0,0.05827323,-0.716286,0.37315184,-0.119666845,0.55441487,0.055775132,1.0315602,-0.7889964,-1.3978058,-0.7656659,-0.67163175,0.23203218,0.6825905,0.6718096
0.0,-0.1,1.2999999999999998,-0.5235987755982988,-0.5235987755982988,0,-0.0043807225,-0.73716795,0.30980712,-0.16540618,0.6421456,0.8713562,-0.19078882,-0.7832177,-1.3970165,-0.7785207,-0.6648419,0.15127577,0.6521533,0.8129422
0.0,-0.1,1.2999999999999998,-0.5235987755982988,-0.5235987755982988,0,-0.023382364,-0.73560065,0.30808797,-0.028491009,0.54551286,0.084630184,-0.24799965,-0.7766267,-1.4022027,-0.7834373,-0.6698547,0.051428504,0.64792454,0.7391624
0.0,-0.1,1.2999999999999998,-0.5235987755982988,-0.5235987755982988,0,-0.117397346,-0.7191149,2.303061,-0.22304143,0.4896756,0.6007145,0.50290895,-0.7871195,-1.4021453,-0.78171146,-0.67154205,0.23483653,0.64317966,0.66825944
0.0,-0.1,1.2999999999999998,-0.5235987755982988,-0.5235987755982988,0,0.011102679,-0.731001,0.5755508,-0.3026277,0.62162954,0.42690128,0.16742657,-0.7833631,-1.3984858,-0.787143,-0.6775179,0.09796908,0.6295776,0.7442525
0.0,-0.1,1.2999999999999998,-0.5235987755982988,-0.5235987755982988,0,-0.06833498,-0.73169863,1.9985386,-0.15971446,0.54897106,0.44479796,0.15890178,-0.7971713,-1.3974274,-0.7832003,-0.6727813,0.19281757,0.64191073,0.74095535
0.0,-0.1,1.2999999999999998,-0.5235987755982988,-0.5235987755982988,0,0.021334274,-0.7277035,0.6238614,-0.068801634,0.4333781,-0.27955025,0.46495137,-0.78527695,-1.3997335,-0.7948503,-0.68439186,0.25112125,0.6317493,0.71961
0.0,-0.1,1.2999999999999998,-0.5235987755982988,-0.5235987755982988,0,-0.103386976,-0.7555935,-0.6388825,-0.13939804,0.43896607,0.6409402,0.35110533,-0.7872049,-1.3947551,-0.7895647,-0.6687283,0.27077767,0.66271776,0.6697145
0.0,-0.1,1.2999999999999998,-0.5235987755982988,-0.5235987755982988,0,-0.06960705,-0.73046875,1.7423558,0.07534526,0.6062541,1.3515903,0.07001184,-0.7766054,-1.4026152,-0.7837513,-0.670614,0.21926805,0.6095289,0.70753473
0.0,-0.1,1.2999999999999998,-0.5235987755982988,-0.5235987755982988,0,-0.12941308,-0.7244219,1.5904803,-0.077916086,0.5028388,0.097362325,0.042487524,-0.7886921,-1.4004663,-0.77493966,-0.6748687,0.3424753,0.62063104,0.7634083
0.0,-0.1,1.2999999999999998,-0.5235987755982988,-0.5235987755982988,0,-0.0051163007,-0.72514224,1.1289752,-0.09218054,0.5338343,0.14874606,1.1981732,-0.7829422,-1.3997679,-0.8094001,-0.6741015,0.35398278,0.6108999,0.68396294
0.0,-0.1,1.2999999999999998,-0.5235987755982988,-0.5235987755982988,0,-0.11959619,-0.7337836,0.54698324,-0.109407604,0.7630173,0.4044075,-0.017735148,-0.7664929,-1.3979712,-0.8062293,-0.6719198,0.27769995,0.61205375,0.7157065
0.0,-0.1,1.2999999999999998,-0.5235987755982988,-0.5235987755982988,0,-0.12810992,-0.73987764,0.9390607,-0.121128835,0.5197326,0.4079058,0.0061603338,-0.7825829,-1.3983114,-0.78843737,-0.6849284,0.13151029,0.6528116,0.69904906
0.0,-0.1,1.2999999999999998,-0.5235987755982988,-0.5235987755982988,0,-0.15245327,-0.74989057,1.7014385,-0.12710866,0.48534465,0.771848,0.015421518,-0.76845574,-1.407217,-0.77765733,-0.6711346,0.1353634,0.6678075,0.64633393
0.0,-0.1,1.2999999999999998,-0.5235987755982988,-0.5235987755982988,0,-0.10079774,-0.72506094,-0.0968663,-0.13532713,0.32609105,0.4365587,0.33925948,-0.8036973,-1.3983135,-0.7999409,-0.6668546,0.06044834,0.61760235,0.67415005
0.0,-0.1,1.2999999999999998,-0.5235987755982988,-0.5235987755982988,0,-0.08161725,-0.72759324,-0.6175807,-0.15638258,0.48411536,0.3394988,0.76783615,-0.79539806,-1.3979331,-0.786117,-0.67568105,0.12550725,0.6579968,0.79896337
0.0,-0.1,1.2999999999999998,-0.5235987755982988,-0.5235987755982988,0,-0.08604496,-0.721225,2.1188939,-0.13770558,0.5582929,0.010460235,0.6846892,-0.7912021,-1.3993855,-0.7948454,-0.67429984,0.10903992,0.66284674,0.72767186
0.0,-0.1,1.2999999999999998,-0.5235987755982988,-0.5235987755982988,0,-0.1591655,-0.7353126,-0.4506836,-0.06973101,0.44835788,0.33416715,0.48905694,-0.7851398,-1.406143,-0.79811054,-0.6724251,0.16180108,0.6024604,0.66888267
0.0,-0.1,1.2999999999999998,-0.5235987755982988,-0.5235987755982988,0,-0.018462338,-0.7559165,1.2690357,-0.10615914,0.5557331,0.44563502,0.24839984,-0.776885,-1.3987478,-0.7959119,-0.6723649,0.16674058,0.6546465,0.7075665
0.0,-0.1,1.2999999999999998,-0.5235987755982988,-0.5235987755982988,0,0.10048504,-0.73927623,1.4118892,-0.09122804,0.5889944,0.66645896,0.2776801,-0.78219765,-1.4029219,-0.7731168,-0.673567,0.26457217,0.645746,0.7487526
0.0,-0.1,1.2999999999999998,-0.5235987755982988,-0.5235987755982988,0,0.039604936,-0.733609,0.2642079,-0.15572982,0.61463684,0.7280673,0.777164,-0.78136575,-1.4056622,-0.80146265,-0.6715427,0.16791722,0.6094692,0.74788547
0.0,-0.1,1.2999999999999998,-0.5235987755982988,-0.5235987755982988,0,-0.050310727,-0.72968274,1.9706808,-0.07241647,0.34112358,0.395229,0.39824834,-0.7815005,-1.4080034,-0.7877324,-0.6835044,0.14593041,0.66896284,0.7857735
0.0,-0.1,1.2999999999999998,-0.5235987755982988,-0.5235987755982988,0,-0.014657406,-0.73058283,0.19978127,-0.10642745,0.4567531,0.5445361,0.40199754,-0.7919839,-1.4005412,-0.81966025,-0.6786338,0.06595174,0.67700845,0.6727743
0.0,-0.1,1.2999999999999998,-0.5235987755982988,-0.5235987755982988,0,-0.06885201,-0.72829485,1.1758955,-0.122179605,0.50649285,-0.1852596,0.44997075,-0.77161163,-1.4028245,-0.7468768,-0.6815453,0.059075113,0.65258765,0.7137018
0.0,-0.1,1.2999999999999998,-0.5235987755982988,-0.5235987755982988,0,-0.0029092247,-0.73382896,0.83667034,-0.08509995,0.619527,0.30144817,0.59088576,-0.79320693,-1.4051005,-0.78329945,-0.6724147,0.34248993,0.6454264,0.6227374
0.0,-0.1,1.2999999999999998,-0.5235987755982988,-0.5235987755982988,0,-0.12376171,-0.71973294,0.27837732,-0.08823278,0.38878492,0.5400596,0.38276276,-0.7768479,-1.4028747,-0.79637325,-0.67805153,0.1829435,0.6203383,0.7815584
0.0,-0.1,1.2999999999999998,-0.5235987755982988,-0.5235987755982988,0,-0.11346955,-0.70756423,1.9614757,-0.114549845,0.5073791,0.82002103,0.47717357,-0.7826333,-1.4073793,-0.78890187,-0.6795261,0.13689001,0.6365537,0.7119847
0.0,-0.1,1.2999999999999998,-0.5235987755982988,-0.5235987755982988,0,-0.005476404,-0.72865456,0.8142342,-0.11781371,0.66787755,0.532693,0.49857783,-0.7806489,-1.40551,-0.79541296,-0.67328626,0.11149978,0.61641115,0.6799171
0.0,-0.1,1.2999999999999998,-0.5235987755982988,-0.5235987755982988,0,-0.02762278,-0.74771017,-0.24652423,-0.16341323,0.80390024,0.031429768,0.40549856,-0.7971424,-1.4013408,-0.7762769,-0.6787131,0.103810884,0.6344188,0.5782124
0.0,-0.1,1.2999999999999998,-0.5235987755982988,-0.5235987755982988,0,-0.073782645,-0.7558603,1.862025,-0.0262814,0.48769927,0.41594538,0.72231144,-0.7891587,-1.3944441,-0.78848827,-0.66691387,0.14939177,0.6678483,0.46745646
0.0,-0.1,1.2999999999999998,-0.5235987755982988,-0.5235987755982988,0,-0.048124503,-0.7403673,1.1218556,-0.17017204,0.6543761,0.18886065,0.80779016,-0.7948734,-1.4036112,-0.75967443,-0.6643516,0.22237697,0.6167554,0.64629036
0.0,-0.1,1.2999999999999998,-0.5235987755982988,-0.5235987755982988,0,-0.101876155,-0.7338844,0.35594526,-0.11685263,0.6736239,-0.06204694,0.63014394,-0.78283864,-1.3976535,-0.8033702,-0.6692851,0.28377867,0.6389971,0.77542794
0.0,-0.1,1.2999999999999998,-0.5235987755982988,-0.5235987755982988,0,0.030576061,-0.72875726,1.0318203,-0.07294889,0.47734413,-0.16910121,0.33526966,-0.76595753,-1.3967124,-0.785097,-0.6739697,0.11428498,0.61447453,0.5835681
0.0,-0.1,1.2999999999999998,-0.5235987755982988,-0.5235987755982988,0,0.015556611,-0.72374123,2.1563594,-0.11769993,0.5650147,0.3463231,0.037307475,-0.7939799,-1.3999995,-0.7930473,-0.66597176,0.38005096,0.62719613,0.725255
0.0,-0.1,1.2999999999999998,-0.5235987755982988,-0.5235987755982988,0,-0.05263153,-0.73853457,0.79555595,-0.020970484,0.7184133,0.7805728,0.4826705,-0.7766218,-1.4025085,-0.7599754,-0.6813307,0.32860255,0.6503881,0.68544346
0.0,-0.1,1.2999999999999998,-0.5235987755982988,-0.5235987755982988,0,0.02509649,-0.71897936,0.080521576,-0.11320576,0.55269057,0.06869567,0.3798548,-0.7655098,-1.403491,-0.78202236,-0.66467226,0.23703353,0.6804913,0.80198324
0.0,-0.1,1.2999999999999998,-0.5235987755982988,-0.5235987755982988,0,-0.13219701,-0.73232496,0.5787987,-0.06333669,0.66071284,-0.11713874,0.086876936,-0.7871316,-1.3992227,-0.7908794,-0.6775197,0.10145921,0.56929344,0.74731463
0.0,-0.1,1.2999999999999998,-0.5235987755982988,-0.5235987755982988,0,0.016401803,-0.7358709,0.5629519,-0.100289285,0.56796753,0.12616554,0.67227274,-0.78498095,-1.4012679,-0.7652093,-0.67424184,0.27850336,0.64098495,0.77892405
0.0,-0.1,1.2999999999999998,-0.5235987755982988,-0.5235987755982988,0,-0.017654296,-0.7515674,1.6031392,-0.11701904,0.53653723,0.4727059,0.21197377,-0.7874493,-1.3997115,-0.7592611,-0.66589195,0.13691966,0.64456475,0.7612853
0.0,-0.1,1.2999999999999998,-0.5235987755982988,-0.5235987755982988,0,-0.061899513,-0.7317506,1.6741554,-0.030652832,0.55616295,0.89030874,0.3418733,-0.7850203,-1.3997324,-0.7590603,-0.6828922,0.29031965,0.6569339,0.7393703
0.0,-0.1,1.2999999999999998,-0.5235987755982988,-0.5235987755982988,0,-0.028048072,-0.7429674,1.2093992,-0.19240782,0.55640626,0.104214944,0.31434774,-0.79978895,-1.3982308,-0.7765942,-0.66956717,0.32002458,0.6563224,0.66333324
0.0,-0.1,1.2999999999999998,-0.5235987755982988,-0.5235987755982988,0,0.02628538,-0.7416295,1.3067327,-0.2421681,0.6732563,0.38198715,0.6037213,-0.7889784,-1.401258,-0.7762231,-0.68206507,0.17976192,0.6237724,0.5431232
0.0,-0.1,1.2999999999999998,-0.5235987755982988,-0.5235987755982988,0,-0.12573324,-0.73677045,1.0125085,-0.20466039,0.5379151,-0.44495064,0.4942286,-0.76627356,-1.4012437,-0.79350936,-0.6695836,0.0676852,0.6415987,0.6611757
0.0,-0.1,1.2999999999999998,-0.5235987755982988,-0.5235987755982988,0,0.057866197,-0.7287162,2.0266864,-0.29574704,0.38021868,0.43839487,0.39039883,-0.7880819,-1.4060512,-0.76525867,-0.6710413,0.059923355,0.6469696,0.7748326
0.0,-0.1,1.2999999999999998,-0.5235987755982988,-0.5235987755982988,0,-0.05988847,-0.74348414,1.8008984,-0.055258457,0.5940949,-0.31580004,0.3456194,-0.7735444,-1.3942527,-0.7738122,-0.6696815,0.1695133,0.61979234,0.7664918
0.0,-0.1,1.2999999999999998,-0.5235987755982988,-0.5235987755982988,0,-0.0907114,-0.71936476,2.1091292,-0.09762428,0.5598404,0.38088918,0.69121516,-0.7850238,-1.3946756,-0.77864033,-0.6746668,0.0045333845,0.6357462,0.7449641
0.0,-0.1,1.2999999999999998,-0.5235987755982988,-0.5235987755982988,0,0.07209577,-0.7382499,1.4767264,-0.12463273,0.4164872,-0.32231084,-0.058500797,-0.78414506,-1.3932903,-0.7944122,-0.68274194,0.00048579014,0.64560974,0.791624
0.0,-0.1,1.2999999999999998,-0.5235987755982988,-0.5235987755982988,0,0.017826317,-0.7205535,1.5416204,0.041094806,0.5207645,0.63569224,0.5228248,-0.793137,-1.4028813,-0.79008234,-0.6684233,0.23239507,0.63001126,0.57300234
0.0,-0.1,1.2999999999999998,-0.5235987755982988,-0.5235987755982988,0,0.04553811,-0.7316183,2.8433926,-0.0944412,0.5020136,0.3715978,0.06496573,-0.7683744,-1.4013187,-0.8080541,-0.67556673,0.112908155,0.5966865,0.6160186
0.0,-0.1,1.2999999999999998,-0.5235987755982988,-0.5235987755982988,0,-0.11828062,-0.7301971,3.0767605,-0.05055046,0.51821023,0.29996124,0.30502295,-0.7746065,-1.4059306,-0.79167867,-0.6753089,0.33861792,0.6323259,0.7721468
0.0,-0.1,1.2999999999999998,-0.5235987755982988,-0.5235987755982988,0,0.008392818,-0.72711176,-1.0008408,-0.10957651,0.6038127,0.7477507,0.777858,-0.77458566,-1.3961077,-0.7940419,-0.66879654,0.12721518,0.6219433,0.720449
0.0,-0.1,1.2999999999999998,-0.5235987755982988,-0.5235987755982988,0,-0.016440447,-0.7246344,-0.3813364,-0.084698014,0.58092016,0.56386966,0.21951017,-0.7703282,-1.4012189,-0.7821396,-0.6766923,0.15463963,0.66202176,0.72458977
0.0,-0.1,1.2999999999999998,-0.5235987755982988,-0.5235987755982988,0,0.0367275,-0.7307894,2.3318567,-0.25020343,0.8288327,-0.28618294,0.7214575,-0.78704214,-1.4024594,-0.7711351,-0.6862428,0.20201904,0.6269701,0.6088395
0.0,-0.1,1.2999999999999998,-0.5235987755982988,-0.5235987755982988,0,-0.038439248,-0.7149414,2.1284769,-0.051012825,0.7405812,1.0694494,0.34128976,-0.77915907,-1.3999867,-0.77686876,-0.6848172,0.23394614,0.64631736,0.78380346
0.0,-0.1,1.2999999999999998,-0.5235987755982988,-0.5235987755982988,0,-0.17330702,-0.72674376,2.410674,-0.14212537,0.6774075,0.9629457,0.1601257,-0.79392636,-1.3991659,-0.79597473,-0.66824734,0.08227833,0.6350198,0.89068764
0.0,-0.1,1.2999999999999998,-0.5235987755982988,-0.5235987755982988,0,0.024053643,-0.74686635,2.904152,-0.04788507,0.8753411,0.45304883,0.16385238,-0.77405703,-1.3961265,-0.7487479,-0.6642224,0.22645505,0.62415004,0.73483706
0.0,-0.1,1.2999999999999998,-0.5235987755982988,-0.5235987755982988,0,-0.075688764,-0.7321118,2.9858289,-0.18218362,0.7053316,0.2829187,0.349062,-0.7637302,-1.3990872,-0.763361,-0.6781511,0.06543498,0.5822928,0.6848714
0.0,-0.1,1.2999999999999998,-0.5235987755982988,-0.5235987755982988,0,-0.017653897,-0.7166059,2.958623,-0.13495892,0.5398319,0.35438114,0.5901231,-0.7624688,-1.403078,-0.8145386,-0.66808754,-0.14138551,0.6560961,0.7097576
0.0,-0.1,1.2999999999999998,-0.5235987755982988,-0.5235987755982988,0,-0.017653897,-0.7166059,2.958623,-0.13495892,0.5398319,0.35438114,0.5901231,-0.7624688,-1.403078,-0.8145386,-0.66808754,-0.14138551,0.6560961,0.7097576
0.0,-0.1,1.2999999999999998,-0.5235987755982988,-0.5235987755982988,0,-0.017653897,-0.7166059,2.958623,-0.13495892,0.5398319,0.35438114,0.5901231,-0.7624688,-1.403078,-0.8145386,-0.66808754,-0.14138551,0.6560961,0.7097576
0.0,-0.1,1.2999999999999998,-0.5235987755982988,-0.5235987755982988,0,-0.017653897,-0.7166059,2.958623,-0.13495892,0.5398319,0.35438114,0.5901231,-0.7624688,-1.403078,-0.8145386,-0.66808754,-0.14138551,0.6560961,0.7097576
0.0,-0.1,1.2999999999999998,-0.5235987755982988,-0.5235987755982988,0,-0.017653897,-0.7166059,2.958623,-0.13495892,0.5398319,0.35438114,0.5901231,-0.7624688,-1.403078,-0.8145386,-0.66808754,-0.14138551,0.6560961,0.7097576
0.0,-0.1,1.2999999999999998,-0.5235987755982988,-0.5235987755982988,0,-0.017653897,-0.7166059,2.958623,-0.13495892,0.5398319,0.35438114,0.5901231,-0.7624688,-1.403078,-0.8145386,-0.66808754,-0.14138551,0.6560961,0.7097576
0.0,-0.1,1.2999999999999998,-0.5235987755982988,-0.5235987755982988,0,-0.04684065,-0.7250595,2.9692476,-0.12933113,0.56160724,-0.12996721,-0.12839419,-0.78751165,-1.3966831,-0.7904217,-0.66057116,0.22390488,0.67290336,0.6251931
0.0,-0.1,1.2999999999999998,-0.5235987755982988,-0.5235987755982988,0,-0.04684065,-0.7250595,2.9692476,-0.12933113,0.56160724,-0.12996721,-0.12839419,-0.78751165,-1.3966831,-0.7904217,-0.66057116,0.22390488,0.67290336,0.6251931
0.0,-0.1,1.2999999999999998,-0.5235987755982988,-0.5235987755982988,0,-0.04684065,-0.7250595,2.9692476,-0.12933113,0.56160724,-0.12996721,-0.12839419,-0.78751165,-1.3966831,-0.7904217,-0.66057116,0.22390488,0.67290336,0.6251931
0.0,-0.1,1.2999999999999998,-0.5235987755982988,-0.5235987755982988,0,-0.04684065,-0.7250595,2.9692476,-0.12933113,0.56160724,-0.12996721,-0.12839419,-0.78751165,-1.3966831,-0.7904217,-0.66057116,0.22390488,0.67290336,0.6251931
0.0,-0.1,1.2999999999999998,-0.5235987755982988,-0.5235987755982988,0,-0.04684065,-0.7250595,2.9692476,-0.12933113,0.56160724,-0.12996721,-0.12839419,-0.78751165,-1.3966831,-0.7904217,-0.66057116,0.22390488,0.67290336,0.6251931
0.0,-0.1,1.2999999999999998,-0.5235987755982988,-0.5235987755982988,0,-0.04684065,-0.7250595,2.9692476,-0.12933113,0.56160724,-0.12996721,-0.12839419,-0.78751165,-1.3966831,-0.7904217,-0.66057116,0.22390488,0.67290336,0.6251931
0.0,-0.1,1.2999999999999998,-0.5235987755982988,-0.5235987755982988,0,-0.04684065,-0.7250595,2.9692476,-0.12933113,0.56160724,-0.12996721,-0.12839419,-0.78751165,-1.3966831,-0.7904217,-0.66057116,0.22390488,0.67290336,0.6251931
0.0,-0.1,1.2999999999999998,-0.5235987755982988,-0.5235987755982988,0,-0.075688764,-0.7321118,2.9858289,-0.18218362,0.7053316,0.2829187,0.349062,-0.7637302,-1.3990872,-0.763361,-0.6781511,0.06543498,0.5822928,0.6848714
0.0,-0.1,1.2999999999999998,-0.5235987755982988,-0.5235987755982988,0,-0.075688764,-0.7321118,2.9858289,-0.18218362,0.7053316,0.2829187,0.349062,-0.7637302,-1.3990872,-0.763361,-0.6781511,0.06543498,0.5822928,0.6848714
0.0,-0.1,1.2999999999999998,-0.5235987755982988,-0.5235987755982988,0,-0.075688764,-0.7321118,2.9858289,-0.18218362,0.7053316,0.2829187,0.349062,-0.7637302,-1.3990872,-0.763361,-0.6781511,0.06543498,0.5822928,0.6848714
0.0,-0.1,1.2999999999999998,-0.5235987755982988,-0.5235987755982988,0,-0.075688764,-0.7321118,2.9858289,-0.18218362,0.7053316,0.2829187,0.349062,-0.7637302,-1.3990872,-0.763361,-0.6781511,0.06543498,0.5822928,0.6848714
0.0,-0.1,1.2999999999999998,-0.5235987755982988,-0.5235987755982988,0,-0.075688764,-0.7321118,2.9858289,-0.18218362,0.7053316,0.2829187,0.349062,-0.7637302,-1.3990872,-0.763361,-0.6781511,0.06543498,0.5822928,0.6848714
0.0,-0.1,1.2999999999999998,-0.5235987755982988,-0.5235987755982988,0,-0.075688764,-0.7321118,2.9858289,-0.18218362,0.7053316,0.2829187,0.349062,-0.7637302,-1.3990872,-0.763361,-0.6781511,0.06543498,0.5822928,0.6848714
0.0,-0.1,1.2999999999999998,-0.5235987755982988,-0.5235987755982988,0,-0.075688764,-0.7321118,2.9858289,-0.18218362,0.7053316,0.2829187,0.349062,-0.7637302,-1.3990872,-0.763361,-0.6781511,0.06543498,0.5822928,0.6848714
0.0,-0.1,1.2999999999999998,-0.5235987755982988,-0.5235987755982988,0,-0.035281215,-0.7287115,3.0020077,-0.0818385,0.5886176,0.7544551,0.41616604,-0.78359497,-1.4047879,-0.78793263,-0.65811694,0.0917749,0.66364086,0.63213813
0.0,-0.1,1.2999999999999998,-0.5235987755982988,-0.5235987755982988,0,-0.035281215,-0.7287115,3.0020077,-0.0818385,0.5886176,0.7544551,0.41616604,-0.78359497,-1.4047879,-0.78793263,-0.65811694,0.0917749,0.66364086,0.63213813
0.0,-0.1,1.2999999999999998,-0.5235987755982988,-0.5235987755982988,0,-0.035281215,-0.7287115,3.0020077,-0.0818385,0.5886176,0.7544551,0.41616604,-0.78359497,-1.4047879,-0.78793263,-0.65811694,0.0917749,0.66364086,0.63213813
0.0,-0.1,1.2999999999999998,-0.5235987755982988,-0.5235987755982988,0,-0.035281215,-0.7287115,3.0020077,-0.0818385,0.5886176,0.7544551,0.41616604,-0.78359497,-1.4047879,-0.78793263,-0.65811694,0.0917749,0.66364086,0.63213813
0.0,-0.1,1.2999999999999998,-0.5235987755982988,-0.5235987755982988,0,-0.035281215,-0.7287115,3.0020077,-0.0818385,0.5886176,0.7544551,0.41616604,-0.78359497,-1.4047879,-0.78793263,-0.65811694,0.0917749,0.66364086,0.63213813
0.0,-0.1,1.2999999999999998,-0.5235987755982988,-0.5235987755982988,0,-0.035281215,-0.7287115,3.0020077,-0.0818385,0.5886176,0.7544551,0.41616604,-0.78359497,-1.4047879,-0.78793263,-0.65811694,0.0917749,0.66364086,0.63213813
0.0,-0.1,1.2999999999999998,-0.5235987755982988,-0.5235987755982988,0,-0.035281215,-0.7287115,3.0020077,-0.0818385,0.5886176,0.7544551,0.41616604,-0.78359497,-1.4047879,-0.78793263,-0.65811694,0.0917749,0.66364086,0.63213813
0.0,-0.1,1.2999999999999998,-0.5235987755982988,-0.5235987755982988,0,-0.068773426,-0.7390859,3.0823953,-0.0837321,0.4677315,-0.22159879,0.34347185,-0.7813578,-1.3968549,-0.78078485,-0.6673167,-0.0014753884,0.69216275,0.7728483
0.0,-0.1,1.2999999999999998,-0.5235987755982988,-0.5235987755982988,0,-0.068773426,-0.7390859,3.0823953,-0.0837321,0.4677315,-0.22159879,0.34347185,-0.7813578,-1.3968549,-0.78078485,-0.6673167,-0.0014753884,0.69216275,0.7728483
0.0,-0.1,1.2999999999999998,-0.5235987755982988,-0.5235987755982988,0,-0.068773426,-0.7390859,3.0823953,-0.0837321,0.4677315,-0.22159879,0.34347185,-0.7813578,-1.3968549,-0.78078485,-0.6673167,-0.0014753884,0.69216275,0.7728483
0.0,-0.1,1.2999999999999998,-0.5235987755982988,-0.5235987755982988,0,-0.068773426,-0.7390859,3.0823953,-0.0837321,0.4677315,-0.22159879,0.34347185,-0.7813578,-1.3968549,-0.78078485,-0.6673167,-0.0014753884,0.69216275,0.7728483
0.0,-0.1,1.2999999999999998,-0.5235987755982988,-0.5235987755982988,0,-0.068773426,-0.7390859,3.0823953,-0.0837321,0.4677315,-0.22159879,0.34347185,-0.7813578,-1.3968549,-0.78078485,-0.6673167,-0.0014753884,0.69216275,0.7728483
