sanky1234/BimanualDexCatch/isaacgymenvs/cem_results/May31/football_pose_0.0_0.0_0.8_0.0_0.0_0_2025-05-31.csv
x,y,z,roll,pitch,yaw,robot1/joint1,robot1/joint2,robot1/joint3,robot1/joint4,robot1/joint5,robot1/joint6,robot1/joint7,robot2/joint1,robot2/joint2,robot2/joint3,robot2/joint4,robot2/joint5,robot2/joint6,robot2/joint7
0.0,0.0,0.8,0.0,0.0,0,-1.4687554,-1.3581911,-1.6670679,0.046380587,-0.057921976,1.4804189,-0.16381544,-0.35114196,-0.68590313,-2.0322986,0.04811721,-0.09575609,1.3876226,-0.3222205
0.0,0.0,0.8,0.0,0.0,0,-1.4707494,-1.4520669,-1.6798546,0.034121048,-0.12604004,1.5099902,-0.239148,-0.35640004,-0.65531063,-2.0573518,0.04990347,-0.096076906,1.384072,-0.41281563
0.0,0.0,0.8,0.0,0.0,0,-1.4554294,-1.43415,-1.6374179,0.022173038,-0.058713976,1.4893085,-0.19659045,-0.36752564,-0.66477865,-2.0723252,0.04402085,-0.0827192,1.3844917,-0.43855453
0.0,0.0,0.8,0.0,0.0,0,-1.4692992,-1.4245765,-1.695877,0.039053697,-0.09612423,1.4749938,-0.15166962,-0.35830587,-0.681767,-2.0476947,0.0651807,-0.0808658,1.3895557,-0.3785812
0.0,0.0,0.8,0.0,0.0,0,-1.4650139,-1.4213793,-1.6947111,0.04962915,-0.10529769,1.4426498,-0.008795302,-0.36799192,-0.685675,-2.0512109,0.035923462,-0.104818895,1.3926626,-0.30486706
0.0,0.0,0.8,0.0,0.0,0,-1.4934174,-1.4829878,-1.632761,0.028867418,-0.121383235,1.4814793,-0.07502134,-0.37596217,-0.69714665,-2.0355277,0.03829034,-0.08219837,1.4077793,-0.30602577
0.0,0.0,0.8,0.0,0.0,0,-1.4775387,-1.3829446,-1.6384138,0.061772764,-0.1431182,1.4709187,-0.045006417,-0.35184112,-0.66389453,-2.0341878,0.05329683,-0.09728796,1.3978258,-0.38195077
0.0,0.0,0.8,0.0,0.0,0,-1.4517441,-1.3932843,-1.6733251,0.087692395,-0.09152475,1.452877,-0.31104863,-0.36980867,-0.67105883,-2.072721,0.046715904,-0.079920486,1.3969336,-0.4871048
0.0,0.0,0.8,0.0,0.0,0,-1.4665189,-1.3874348,-1.6856468,0.059287656,-0.06849203,1.44042,-0.07009974,-0.3614087,-0.6597729,-2.0717092,0.038636375,-0.10214633,1.4055165,-0.2850912
0.0,0.0,0.8,0.0,0.0,0,-1.4654558,-1.4122174,-1.6815138,0.06882181,-0.09243493,1.467341,-0.09952706,-0.35243487,-0.66775197,-2.0774033,0.037941325,-0.08790581,1.383574,-0.43313283
0.0,0.0,0.8,0.0,0.0,0,-1.4700443,-1.433413,-1.6329633,0.06969708,-0.11243645,1.4752542,-0.19106176,-0.37162668,-0.7123395,-2.0368922,0.053724356,-0.08508014,1.3859335,-0.3109948
0.0,0.0,0.8,0.0,0.0,0,-1.4817518,-1.404833,-1.6746696,0.056584053,-0.079859555,1.4780489,-0.18867806,-0.3635391,-0.6424204,-2.0546951,0.06824331,-0.06947756,1.3990661,-0.36451837
0.0,0.0,0.8,0.0,0.0,0,-1.4774002,-1.4117031,-1.6530379,0.08881918,-0.103802286,1.4469788,-0.14950311,-0.35068783,-0.6581682,-2.0696461,0.06065853,-0.09625551,1.3878759,-0.30039293
0.0,0.0,0.8,0.0,0.0,0,-1.5010979,-1.3895906,-1.6523694,0.048380416,-0.025940806,1.4319791,-0.2327122,-0.34713137,-0.64185303,-2.0337229,0.0268111,-0.094051935,1.3865553,-0.3932966
0.0,0.0,0.8,0.0,0.0,0,-1.4525293,-1.4224674,-1.6282225,0.04912256,-0.09769331,1.4803731,-0.20225394,-0.33338422,-0.6219214,-2.0374715,0.023362357,-0.09691489,1.3994243,-0.3524562
0.0,0.0,0.8,0.0,0.0,0,-1.4700409,-1.4033829,-1.6420257,0.026931264,-0.08989312,1.4863595,-0.02608718,-0.36235467,-0.6733424,-2.051391,0.013752367,-0.057366796,1.4101304,-0.3417857
0.0,0.0,0.8,0.0,0.0,0,-1.4844067,-1.4216584,-1.646771,0.020521197,-0.06130464,1.4848571,-0.10702775,-0.38370934,-0.6857348,-2.0314171,0.034516595,-0.09022439,1.3808137,-0.39877978
0.0,0.0,0.8,0.0,0.0,0,-1.4755678,-1.4107698,-1.681588,0.008828716,-0.004754152,1.4739394,-0.18140718,-0.36966246,-0.6898112,-2.060507,0.05199435,-0.06592783,1.3851058,-0.25796723
0.0,0.0,0.8,0.0,0.0,0,-1.512103,-1.4404546,-1.6497896,0.03673149,-0.06772915,1.4671447,-0.061012298,-0.35326934,-0.6603144,-2.023096,0.029566914,-0.07563018,1.395685,-0.31974718
0.0,0.0,0.8,0.0,0.0,0,-1.4884125,-1.4322245,-1.6135845,0.017084295,-0.082497,1.4462743,-0.11210391,-0.37094262,-0.6884098,-2.0571795,0.026762925,-0.10947911,1.3966702,-0.3929701
0.0,0.0,0.8,0.0,0.0,0,-1.4577514,-1.4443831,-1.611499,0.042780414,-0.0489454,1.497047,-0.06499352,-0.34841305,-0.65054625,-2.0380259,0.04012228,-0.0915452,1.3858677,-0.43061242
0.0,0.0,0.8,0.0,0.0,0,-1.4703085,-1.4096366,-1.6441122,0.030052925,-0.10624937,1.4633839,-0.30417362,-0.352569,-0.7180745,-2.050305,0.006082315,-0.0980406,1.4031628,-0.29912445
0.0,0.0,0.8,0.0,0.0,0,-1.4503212,-1.390268,-1.6602019,0.021024747,-0.07422805,1.468871,-0.047888555,-0.3755848,-0.67446375,-2.0266068,0.024631044,-0.11474591,1.4020957,-0.37745023
0.0,0.0,0.8,0.0,0.0,0,-1.4852412,-1.423413,-1.6700233,0.040611252,-0.04685983,1.4528791,-0.07199545,-0.37630954,-0.6760143,-2.0515695,0.020523086,-0.08645624,1.3900667,-0.30182976
0.0,0.0,0.8,0.0,0.0,0,-1.4644742,-1.4007291,-1.6649896,0.038060553,-0.07074067,1.4572176,-0.09215576,-0.34171277,-0.63741696,-2.0438187,0.038319044,-0.08330971,1.3984648,-0.34931177
0.0,0.0,0.8,0.0,0.0,0,-1.4481754,-1.3785975,-1.6455913,0.016696025,-0.120465584,1.4671429,0.00056137214,-0.35479662,-0.67302704,-2.0484934,0.040054753,-0.10132684,1.4009123,-0.28071868
0.0,0.0,0.8,0.0,0.0,0,-1.4603329,-1.4249654,-1.6294522,0.030875187,-0.0843191,1.4406462,-0.16191556,-0.33861065,-0.6531921,-2.067633,0.041045405,-0.10117752,1.3802859,-0.32411364
0.0,0.0,0.8,0.0,0.0,0,-1.4754882,-1.334469,-1.5676088,0.012406828,-0.096449524,1.4624814,-0.16588831,-0.3629703,-0.6654593,-2.0627759,0.031025855,-0.097240664,1.385511,-0.35762686
0.0,0.0,0.8,0.0,0.0,0,-1.4777663,-1.4309783,-1.613929,0.040285178,-0.08914427,1.4398714,-0.10036763,-0.3612703,-0.69842327,-2.059468,0.038128097,-0.081588976,1.3816631,-0.4782569
0.0,0.0,0.8,0.0,0.0,0,-1.4761475,-1.45821,-1.6521649,0.025501985,-0.11303773,1.4537312,-0.20559914,-0.3403493,-0.6472444,-2.0179586,0.044960454,-0.08196515,1.4085546,-0.23193924
0.0,0.0,0.8,0.0,0.0,0,-1.4710968,-1.4334251,-1.6301911,0.051361512,-0.062220052,1.4442632,-0.33464137,-0.35939932,-0.7188348,-2.0299728,0.017693069,-0.061336547,1.4136134,-0.4071168
0.0,0.0,0.8,0.0,0.0,0,-1.4860075,-1.4094679,-1.6052092,-0.0106220795,-0.10888688,1.4875124,-0.0842358,-0.37292388,-0.7264851,-2.0535605,0.021321816,-0.09676827,1.3860556,-0.31326324
0.0,0.0,0.8,0.0,0.0,0,-1.4873687,-1.4214752,-1.615811,0.024471935,-0.08904918,1.4549476,-0.19171529,-0.36984748,-0.69155705,-2.0766773,0.022726538,-0.09930065,1.4006926,-0.3947081
0.0,0.0,0.8,0.0,0.0,0,-1.4818693,-1.4473804,-1.6905684,0.03044987,-0.10539303,1.4528505,-0.03477184,-0.3609116,-0.6613696,-2.0341115,0.048169136,-0.08698804,1.3946525,-0.40221816
0.0,0.0,0.8,0.0,0.0,0,-1.4572783,-1.3850715,-1.6515126,0.028986167,-0.054544434,1.4501477,-0.08590933,-0.3583914,-0.6730131,-2.0775654,0.022423983,-0.10310892,1.4078165,-0.3091233
0.0,0.0,0.8,0.0,0.0,0,-1.4746337,-1.4336816,-1.6389381,0.04405474,-0.079157874,1.474068,-0.27164266,-0.3743719,-0.6711415,-2.0626972,0.031005872,-0.10028941,1.400156,-0.38334277
0.0,0.0,0.8,0.0,0.0,0,-1.4735451,-1.3632317,-1.63697,0.027114538,-0.064787984,1.4514762,-0.33137894,-0.35375282,-0.6785716,-2.060654,0.040038977,-0.093048185,1.4012026,-0.35257608
0.0,0.0,0.8,0.0,0.0,0,-1.4593469,-1.3691546,-1.619717,0.0011995127,-0.1367439,1.4496646,-0.03714303,-0.36012593,-0.6560374,-2.043861,0.038810678,-0.09520492,1.3974403,-0.36078787
0.0,0.0,0.8,0.0,0.0,0,-1.4735893,-1.4258223,-1.616846,0.057493914,-0.0953238,1.4771805,-0.11483598,-0.37473595,-0.6796989,-2.049829,0.034550034,-0.067244515,1.3878568,-0.44846737
0.0,0.0,0.8,0.0,0.0,0,-1.4771408,-1.4169576,-1.6522901,0.03764429,-0.08814547,1.4732853,-0.19370548,-0.37229002,-0.6638048,-2.0617595,0.026824644,-0.06608172,1.4047047,-0.38278022
0.0,0.0,0.8,0.0,0.0,0,-1.4995202,-1.4054844,-1.6535667,0.020238305,-0.04136948,1.4603107,-0.3342303,-0.35037288,-0.68068695,-2.049555,0.042460658,-0.095868066,1.395595,-0.35688782
0.0,0.0,0.8,0.0,0.0,0,-1.4724584,-1.3403512,-1.6109086,0.035496842,-0.10435042,1.4382142,-0.28578034,-0.3666762,-0.64580065,-2.0671182,0.048288267,-0.09309652,1.3798528,-0.3285965
0.0,0.0,0.8,0.0,0.0,0,-1.4598484,-1.3328339,-1.6716932,0.08130597,-0.07232374,1.4414418,-0.074855275,-0.36883333,-0.66045547,-2.0430791,0.03787063,-0.074137434,1.3988891,-0.4399514
0.0,0.0,0.8,0.0,0.0,0,-1.4697635,-1.3977239,-1.6696805,0.020533567,-0.09830436,1.4694611,-0.14750612,-0.3598952,-0.65335137,-2.0678809,0.046476204,-0.08830231,1.3767798,-0.40103763
0.0,0.0,0.8,0.0,0.0,0,-1.4588938,-1.432165,-1.6415437,0.01863615,-0.068804905,1.4851224,-0.25634533,-0.3822857,-0.6874866,-2.0585613,0.018069029,-0.07744565,1.400061,-0.38247383
0.0,0.0,0.8,0.0,0.0,0,-1.4951203,-1.4591997,-1.6302943,0.075101465,-0.094543435,1.448499,-0.0883839,-0.3722837,-0.6712102,-2.0513017,0.00752255,-0.10525808,1.4191893,-0.33987668
0.0,0.0,0.8,0.0,0.0,0,-1.4909903,-1.3850259,-1.6972915,0.031854555,-0.10581797,1.4525226,-0.2999187,-0.33829117,-0.67824125,-2.0349605,0.025277644,-0.08825256,1.4086092,-0.31593075
0.0,0.0,0.8,0.0,0.0,0,-1.4923615,-1.2865885,-1.6530513,0.032559596,-0.15303673,1.46229,-0.20913616,-0.35138717,-0.6361965,-2.0863416,0.040025514,-0.10788299,1.3677843,-0.4309309
0.0,0.0,0.8,0.0,0.0,0,-1.4899288,-1.3675842,-1.6714956,0.009636085,-0.0689932,1.4495157,-0.23033503,-0.3747987,-0.68140453,-2.047218,0.054084573,-0.09694887,1.3733685,-0.40938875
0.0,0.0,0.8,0.0,0.0,0,-1.5006169,-1.4195397,-1.6450125,0.027890995,-0.066144556,1.4502313,-0.09598229,-0.35611248,-0.66303414,-2.0533295,0.04262962,-0.09019499,1.4009743,-0.3215943
0.0,0.0,0.8,0.0,0.0,0,-1.4855809,-1.4064945,-1.6577914,0.043942157,-0.095902294,1.4656901,-0.19219363,-0.38174564,-0.67655283,-2.062697,0.020235496,-0.10537717,1.411529,-0.3279169
0.0,0.0,0.8,0.0,0.0,0,-1.4509947,-1.4370118,-1.6638209,0.042717557,-0.09687586,1.4658645,-0.1303224,-0.34847042,-0.66975003,-2.0716743,0.030414805,-0.09363778,1.3812318,-0.2463076
0.0,0.0,0.8,0.0,0.0,0,-1.4791192,-1.4683743,-1.6734262,0.02937028,-0.056378826,1.4217364,-0.23284237,-0.37283853,-0.6796184,-2.0187263,0.048556883,-0.09918328,1.381972,-0.43936917
0.0,0.0,0.8,0.0,0.0,0,-1.4486457,-1.3817666,-1.638078,-0.019350508,-0.026303738,1.4837837,-0.14160869,-0.35032862,-0.6460712,-2.0710435,0.03893754,-0.0721902,1.3906752,-0.37723982
0.0,0.0,0.8,0.0,0.0,0,-1.4483362,-1.3798045,-1.6441629,0.050836455,-0.0632615,1.4538758,-0.201527,-0.36209965,-0.6811472,-2.0382743,0.046044894,-0.06508044,1.3986562,-0.34009537
0.0,0.0,0.8,0.0,0.0,0,-1.4703032,-1.3963089,-1.659934,0.05479651,-0.050117068,1.4533231,-0.10940593,-0.37728608,-0.6701646,-2.061745,0.040155295,-0.12235814,1.3870951,-0.39207256
0.0,0.0,0.8,0.0,0.0,0,-1.4588329,-1.4051788,-1.6504462,0.041141678,-0.0705518,1.4432043,-0.075954355,-0.35297477,-0.6566528,-2.0398846,0.039023947,-0.08730138,1.4070628,-0.31458908
0.0,0.0,0.8,0.0,0.0,0,-1.4898107,-1.379833,-1.6533661,0.018839268,-0.050149366,1.458793,-0.20877385,-0.36079255,-0.66949224,-2.0426128,0.051010005,-0.10432698,1.3862507,-0.3387003
0.0,0.0,0.8,0.0,0.0,0,-1.4869612,-1.4569421,-1.6742836,0.0064630113,-0.085347936,1.4785109,-0.24495944,-0.37556785,-0.66347533,-2.0529265,0.054154903,-0.07532499,1.3725276,-0.32195452
0.0,0.0,0.8,0.0,0.0,0,-1.452964,-1.3879026,-1.6399008,0.053878017,-0.10293139,1.4692647,-0.26276296,-0.35974658,-0.68388844,-2.0687592,0.03584603,-0.096017055,1.3829387,-0.30817047
0.0,0.0,0.8,0.0,0.0,0,-1.4689767,-1.3920984,-1.6560571,0.014216153,-0.041307826,1.4523052,-0.2609457,-0.35009903,-0.6577838,-2.056484,0.043262616,-0.08807541,1.4160236,-0.3678696
0.0,0.0,0.8,0.0,0.0,0,-1.4889519,-1.3643639,-1.6148885,0.008956376,-0.10033388,1.4715813,-0.2863953,-0.3737151,-0.65514666,-2.0604198,0.04114719,-0.080128096,1.4140408,-0.3444089
0.0,0.0,0.8,0.0,0.0,0,-1.4722389,-1.3801179,-1.6501395,0.02629078,-0.07703225,1.4586397,-0.14890203,-0.3719819,-0.68210214,-2.0373125,0.03950191,-0.0900627,1.3952069,-0.44209796
0.0,0.0,0.8,0.0,0.0,0,-1.4932523,-1.332956,-1.7138608,0.021032296,-0.10861674,1.4233146,-0.1320894,-0.3581382,-0.677068,-2.046908,0.047622256,-0.07739104,1.3989781,-0.37567547
0.0,0.0,0.8,0.0,0.0,0,-1.4736104,-1.4034864,-1.6552011,0.030649379,-0.09574449,1.4626569,-0.06109853,-0.36048564,-0.6309246,-2.0337288,0.05474435,-0.052357733,1.3978086,-0.43957037
0.0,0.0,0.8,0.0,0.0,0,-1.4848317,-1.3938533,-1.6184386,0.04991566,-0.08904499,1.4509634,-0.24821144,-0.36694676,-0.6779067,-2.0524135,0.034103736,-0.08003695,1.4031765,-0.40594563
0.0,0.0,0.8,0.0,0.0,0,-1.455103,-1.3279613,-1.6750357,-0.0073682694,-0.064947546,1.4643917,-0.06315633,-0.37532303,-0.65055543,-2.0626721,0.035544395,-0.09338565,1.4092982,-0.32066062
0.0,0.0,0.8,0.0,0.0,0,-1.4715269,-1.4050183,-1.6485419,0.0208809,-0.08427969,1.460914,-0.1254827,-0.35343114,-0.66908514,-2.0738108,0.0361349,-0.07383377,1.4036962,-0.5069563
0.0,0.0,0.8,0.0,0.0,0,-1.4808968,-1.3615482,-1.657746,0.042281948,-0.10225678,1.4554137,-0.16116233,-0.37187478,-0.6610291,-2.0530589,0.040203117,-0.07332621,1.3965738,-0.31923115
0.0,0.0,0.8,0.0,0.0,0,-1.4839425,-1.3556888,-1.6063432,0.030101202,-0.09146564,1.4544348,-0.19623937,-0.36389068,-0.6860773,-2.048515,0.054113552,-0.07953891,1.376948,-0.4037833
0.0,0.0,0.8,0.0,0.0,0,-1.4791843,-1.4026737,-1.6445831,0.037627943,-0.08613477,1.4484824,-0.10946068,-0.3565395,-0.62495595,-2.0642688,0.043645818,-0.073825315,1.4117793,-0.30960554
0.0,0.0,0.8,0.0,0.0,0,-1.4904838,-1.4305886,-1.6883695,0.02666523,-0.07552485,1.4606864,-0.22823186,-0.3701639,-0.66842645,-2.067502,0.046786968,-0.07192919,1.3878987,-0.27871278
0.0,0.0,0.8,0.0,0.0,0,-1.4644681,-1.3279988,-1.6074011,0.017859474,-0.042287596,1.4689974,-0.105158485,-0.3683822,-0.6457677,-2.0483847,0.043963257,-0.12193396,1.4024863,-0.35458183
0.0,0.0,0.8,0.0,0.0,0,-1.4793376,-1.3816384,-1.6474618,0.033454694,-0.0584655,1.4687699,0.039577182,-0.3648103,-0.71395195,-2.047856,0.016770715,-0.08156468,1.398621,-0.33405617
0.0,0.0,0.8,0.0,0.0,0,-1.4593799,-1.3721462,-1.6754277,0.030429067,-0.15068072,1.4670042,-0.13990474,-0.3433313,-0.67303514,-2.0537221,0.02661317,-0.11280617,1.3914986,-0.27232012
0.0,0.0,0.8,0.0,0.0,0,-1.4901395,-1.4085298,-1.6439005,0.015209078,-0.08884567,1.4665176,-0.046173856,-0.3668997,-0.66367435,-2.0685859,0.042335924,-0.08664583,1.4010817,-0.3084269
0.0,0.0,0.8,0.0,0.0,0,-1.4691182,-1.3574263,-1.6574844,0.05026796,-0.06820325,1.434244,-0.13816148,-0.35319212,-0.6428451,-2.035765,0.037230447,-0.07276567,1.4092321,-0.48956758
0.0,0.0,0.8,0.0,0.0,0,-1.448915,-1.4091804,-1.6450894,0.02426293,-0.086836025,1.4624041,-0.116213635,-0.37186593,-0.6827114,-2.061676,0.02164226,-0.10560815,1.4098477,-0.41039538
0.0,0.0,0.8,0.0,0.0,0,-1.484134,-1.3200945,-1.6210039,0.017436396,-0.115457065,1.4567226,-0.3297129,-0.3681185,-0.66158944,-2.0474443,0.055286348,-0.10064363,1.3868767,-0.35558918
0.0,0.0,0.8,0.0,0.0,0,-1.4663341,-1.395913,-1.5963539,0.00017428138,-0.11325918,1.462071,-0.17780022,-0.38728178,-0.6620322,-2.0469234,0.038714282,-0.11016905,1.415111,-0.38787442
0.0,0.0,0.8,0.0,0.0,0,-1.4735214,-1.36072,-1.6838216,0.029363062,-0.08350553,1.4139798,-0.13830715,-0.36259577,-0.6779391,-2.0877287,0.0349598,-0.07579654,1.4006243,-0.4794229
0.0,0.0,0.8,0.0,0.0,0,-1.5118906,-1.3657278,-1.6478851,0.02415658,-0.07931561,1.4404864,-0.04579175,-0.35055512,-0.68147177,-2.0361621,0.043055627,-0.09780498,1.397402,-0.41509792
0.0,0.0,0.8,0.0,0.0,0,-1.4691472,-1.3723376,-1.6790951,0.025796195,-0.053727705,1.4540998,-0.2626896,-0.36577606,-0.67669415,-2.0651524,0.04595084,-0.08682304,1.392979,-0.39635712
0.0,0.0,0.8,0.0,0.0,0,-1.4675137,-1.5431547,-1.6496794,0.027521435,-0.12100358,1.4478828,0.15255149,-0.36002326,-0.6806442,-2.048616,0.049592763,-0.07332887,1.391446,-0.26374185
0.0,0.0,0.8,0.0,0.0,0,-1.4756758,-1.3549174,-1.6186045,0.021715974,-0.079389706,1.4611074,-0.13558552,-0.35728726,-0.6587939,-2.0512426,0.026253013,-0.12105919,1.4185147,-0.32705364
0.0,0.0,0.8,0.0,0.0,0,-1.488102,-1.3736115,-1.6396551,0.036324926,-0.06567704,1.4456266,-0.08952181,-0.37529635,-0.6691849,-2.0403037,0.030116703,-0.09243593,1.405565,-0.44361466
0.0,0.0,0.8,0.0,0.0,0,-1.4756082,-1.3890494,-1.6851755,0.011407272,-0.08757195,1.4375021,-0.12310158,-0.3621397,-0.65041083,-2.0662055,0.042397827,-0.11854206,1.4009522,-0.3416357
0.0,0.0,0.8,0.0,0.0,0,-1.4876547,-1.4109133,-1.6504201,0.047276713,-0.04915003,1.4541525,-0.07282678,-0.3756192,-0.6461752,-2.0524375,0.050524607,-0.08810014,1.3879691,-0.40393752
0.0,0.0,0.8,0.0,0.0,0,-1.4852686,-1.4058496,-1.6729715,0.037736174,-0.044229478,1.4431914,-0.11483115,-0.3527713,-0.67545605,-2.048134,0.030444937,-0.06966594,1.4172084,-0.3771496
0.0,0.0,0.8,0.0,0.0,0,-1.4774337,-1.4054456,-1.6131471,0.04535625,-0.081741124,1.4583238,-0.23467387,-0.37156442,-0.68686706,-2.0370405,0.04564978,-0.07470847,1.4062262,-0.2890549
0.0,0.0,0.8,0.0,0.0,0,-1.4692318,-1.3684311,-1.6466845,0.020259954,-0.09266433,1.4260386,-0.115558915,-0.36523822,-0.6619782,-2.0508816,0.05256292,-0.0943864,1.4042686,-0.35309726
0.0,0.0,0.8,0.0,0.0,0,-1.5044063,-1.4082165,-1.6806519,0.0108177485,-0.092828274,1.4549689,-0.28046203,-0.37512037,-0.65918124,-2.063909,0.06019007,-0.10216625,1.380481,-0.3547975
0.0,0.0,0.8,0.0,0.0,0,-1.4627671,-1.4537013,-1.6467078,0.055416383,-0.0879554,1.4536955,-0.33070597,-0.38510105,-0.71913004,-2.0551176,0.042819504,-0.07842525,1.3823346,-0.29228655
0.0,0.0,0.8,0.0,0.0,0,-1.4797895,-1.3983513,-1.6332172,0.018529084,-0.06745195,1.4849188,-0.18765044,-0.39183852,-0.64262646,-2.0309262,0.045261547,-0.073253214,1.4125558,-0.2531337
0.0,0.0,0.8,0.0,0.0,0,-1.4884201,-1.3774166,-1.6648941,0.013105506,-0.1090746,1.4598812,-0.16261442,-0.3524931,-0.644721,-2.0789106,0.043369196,-0.06823269,1.3945987,-0.3305753
0.0,0.0,0.8,0.0,0.0,0,-1.4647603,-1.3912096,-1.6772976,-0.021966122,-0.03273891,1.4630394,0.047715247,-0.37697786,-0.65666234,-2.0772834,0.032458186,-0.087635934,1.4164597,-0.25116116
0.0,0.0,0.8,0.0,0.0,0,-1.4922707,-1.3856373,-1.6255306,0.041864093,-0.050943285,1.4661721,-0.06839081,-0.3586808,-0.6683285,-2.0292645,0.054868367,-0.08184893,1.3922468,-0.33940113
0.0,0.0,0.8,0.0,0.0,0,-1.4786575,-1.3736027,-1.6319218,-0.0009718073,-0.069478504,1.4727261,-0.17597994,-0.36412042,-0.6686168,-2.0434663,0.037051175,-0.08815214,1.4152972,-0.41697273
0.0,0.0,0.8,0.0,0.0,0,-1.4703231,-1.3795731,-1.6230111,0.0017126966,-0.015727123,1.4940524,-0.16429117,-0.3680466,-0.66639197,-2.0634627,0.05021211,-0.10023293,1.3883806,-0.3064476
0.0,0.0,0.8,0.0,0.0,0,-1.4747772,-1.4166557,-1.6441525,0.029033026,-0.085580036,1.463139,-0.055836763,-0.38519442,-0.6589928,-2.0662324,0.028911255,-0.10692142,1.4019158,-0.34653914
0.0,0.0,0.8,0.0,0.0,0,-1.4554125,-1.3148261,-1.6960518,0.03852228,-0.020911636,1.4447354,-0.22549386,-0.36477393,-0.6667567,-2.041363,0.03862686,-0.0850803,1.407549,-0.2824046
0.0,0.0,0.8,0.0,0.0,0,-1.4634583,-1.4618466,-1.669873,0.037630122,-0.0924752,1.4600861,-0.14175425,-0.36577612,-0.6413457,-2.0470152,0.049032927,-0.097410716,1.368172,-0.3465737
0.0,0.0,0.8,0.0,0.0,0,-1.4732932,-1.4654313,-1.6637257,0.03321882,-0.016580641,1.4764739,-0.19208123,-0.36204183,-0.6930243,-2.0140285,0.03204717,-0.10705693,1.3925661,-0.3623957
0.0,0.0,0.8,0.0,0.0,0,-1.4759681,-1.3967129,-1.650881,0.010784901,-0.05791539,1.4550822,-0.052791335,-0.37860245,-0.666289,-2.041531,0.046873167,-0.113303356,1.400951,-0.32537127
0.0,0.0,0.8,0.0,0.0,0,-1.4830078,-1.395018,-1.6491774,0.03709631,-0.113892466,1.4533261,-0.21039036,-0.36689827,-0.6654562,-2.0577204,0.055040903,-0.09613697,1.3823483,-0.2418267
0.0,0.0,0.8,0.0,0.0,0,-1.4813701,-1.4067734,-1.682842,0.008321091,-0.015901197,1.46368,-0.05074271,-0.36387426,-0.6675035,-2.0545163,0.038269065,-0.08592814,1.4044415,-0.33232382
0.0,0.0,0.8,0.0,0.0,0,-1.49094,-1.4156605,-1.6618326,0.04001343,-0.07377465,1.4562408,-0.21835865,-0.37395442,-0.6825777,-2.0615387,0.011938177,-0.11518352,1.4296868,-0.35605296
0.0,0.0,0.8,0.0,0.0,0,-1.4592197,-1.4221053,-1.6699134,0.016897094,-0.0833184,1.4682636,-0.14964071,-0.36293313,-0.7255022,-2.0435786,0.037824642,-0.06253283,1.4093897,-0.4651385
0.0,0.0,0.8,0.0,0.0,0,-1.4764705,-1.3528538,-1.6635702,0.042331815,-0.08170024,1.4382302,-0.03910684,-0.36155733,-0.6689899,-2.0485635,0.044762325,-0.069943406,1.3996406,-0.3320251
0.0,0.0,0.8,0.0,0.0,0,-1.4606082,-1.3570651,-1.612856,0.027577147,-0.060288195,1.4650731,-0.13948697,-0.37157437,-0.65700537,-2.0605464,0.045481622,-0.07679822,1.4030418,-0.28908998
0.0,0.0,0.8,0.0,0.0,0,-1.4553072,-1.3089116,-1.6540629,0.02839786,-0.07614307,1.4458349,-0.22071604,-0.37265584,-0.6748287,-2.0428162,0.03316174,-0.09811647,1.4056474,-0.20469677
0.0,0.0,0.8,0.0,0.0,0,-1.4969572,-1.3683344,-1.6388745,0.031212056,-0.029161224,1.4660288,-0.19431914,-0.3872293,-0.6710808,-2.0524256,0.028838024,-0.06411434,1.4101615,-0.46815553
0.0,0.0,0.8,0.0,0.0,0,-1.4807056,-1.397797,-1.5994356,0.017878665,-0.099430114,1.4681246,-0.26374334,-0.35501772,-0.6501251,-2.0346324,0.05526967,-0.07718145,1.4094478,-0.28932336
0.0,0.0,0.8,0.0,0.0,0,-1.4772861,-1.3683445,-1.6428541,0.027883265,-0.05257682,1.4629356,-0.25758776,-0.3634056,-0.65355784,-2.0531187,0.07068533,-0.081632294,1.3680161,-0.37430936
0.0,0.0,0.8,0.0,0.0,0,-1.4929032,-1.41484,-1.6193947,0.02517368,-0.080803275,1.4584912,-0.0350852,-0.3512851,-0.6476673,-2.0543354,0.040143084,-0.08116245,1.4155923,-0.39152363
0.0,0.0,0.8,0.0,0.0,0,-1.451172,-1.3402772,-1.6456673,0.018654091,-0.069961935,1.4455259,-0.15818454,-0.38494483,-0.70480937,-2.0611107,0.04968506,-0.09119031,1.3900149,-0.27982804
0.0,0.0,0.8,0.0,0.0,0,-1.4769403,-1.5010993,-1.662742,0.051151004,-0.047443703,1.4687378,-0.09542619,-0.3530398,-0.67416686,-2.0263102,0.05335224,-0.08205709,1.3943919,-0.37307757
0.0,0.0,0.8,0.0,0.0,0,-1.487144,-1.3943309,-1.61111,0.059053242,-0.1068806,1.4266841,-0.122997366,-0.38205233,-0.65553325,-2.0615268,0.028187437,-0.086762115,1.4150811,-0.37537706
0.0,0.0,0.8,0.0,0.0,0,-1.4547814,-1.4225287,-1.6735017,0.042950857,-0.09274863,1.478283,0.0077077965,-0.3618782,-0.6755245,-2.0241945,0.045656934,-0.097173855,1.3617864,-0.45374775
0.0,0.0,0.8,0.0,0.0,0,-1.4790839,-1.4561102,-1.6417674,0.021378886,-0.108934335,1.4607395,-0.19169037,-0.35204434,-0.6641141,-2.0560012,0.036684554,-0.05854694,1.4118339,-0.38166797
0.0,0.0,0.8,0.0,0.0,0,-1.4712857,-1.5206941,-1.6708738,0.030518001,-0.08262468,1.435196,-0.20274672,-0.3733145,-0.67506474,-2.0480583,0.03671329,-0.06728668,1.3838931,-0.32266602
0.0,0.0,0.8,0.0,0.0,0,-1.455947,-1.4392556,-1.6484797,0.029983941,-0.11473369,1.4513705,-0.10890998,-0.36884943,-0.6837488,-2.038736,0.032727048,-0.06797575,1.4186103,-0.3294427
0.0,0.0,0.8,0.0,0.0,0,-1.4606217,-1.316509,-1.6426716,0.0015446746,-0.090433374,1.4704568,-0.11369038,-0.35346848,-0.6700438,-2.0397766,0.03174493,-0.09873983,1.3939482,-0.52665037
0.0,0.0,0.8,0.0,0.0,0,-1.4547515,-1.3874097,-1.6322166,0.0060792123,-0.060132824,1.4577414,-0.15962745,-0.37742776,-0.67117476,-2.0370553,0.051178258,-0.10684234,1.4128665,-0.26265508
0.0,0.0,0.8,0.0,0.0,0,-1.4575309,-1.4716293,-1.655151,0.002953205,-0.053008966,1.4469892,-0.03942185,-0.3617558,-0.66445506,-2.036585,0.046602182,-0.06264599,1.4053274,-0.31571358
0.0,0.0,0.8,0.0,0.0,0,-1.4715798,-1.3897965,-1.6766276,0.040089317,-0.15771341,1.4544837,-0.09064692,-0.3418529,-0.6197607,-2.0524635,0.04882487,-0.072734684,1.3915416,-0.3820321
0.0,0.0,0.8,0.0,0.0,0,-1.47228,-1.2978455,-1.6556485,0.06333257,-0.0057920287,1.4748138,-0.13498221,-0.3434314,-0.706252,-2.0279949,0.027616873,-0.107574545,1.4079872,-0.31556982
0.0,0.0,0.8,0.0,0.0,0,-1.4514613,-1.3681976,-1.6756315,-0.006498168,-0.010382881,1.445896,-0.0027226715,-0.35109222,-0.6539771,-2.0600133,0.04259871,-0.070457034,1.4052936,-0.4475684
0.0,0.0,0.8,0.0,0.0,0,-1.4935076,-1.3930546,-1.6349401,0.051824354,-0.06890214,1.422148,-0.03138599,-0.3685721,-0.69430965,-2.0595014,0.042040177,-0.0764088,1.3930815,-0.36926255
0.0,0.0,0.8,0.0,0.0,0,-1.4583197,-1.4204625,-1.6027225,0.034460656,-0.09971296,1.4435453,0.019340286,-0.3662976,-0.6776236,-2.0580728,0.035773706,-0.08479685,1.3954436,-0.40016252
0.0,0.0,0.8,0.0,0.0,0,-1.4830551,-1.3348645,-1.5698044,0.03550063,-0.10355671,1.4584916,-0.01559179,-0.38147032,-0.68418306,-2.076653,0.034742206,-0.09174496,1.4087256,-0.3187028
0.0,0.0,0.8,0.0,0.0,0,-1.4454764,-1.377136,-1.6110454,0.008647262,-0.106946506,1.461584,-0.07567378,-0.3617872,-0.6662797,-2.065969,0.044602208,-0.08713903,1.3920736,-0.39507088
0.0,0.0,0.8,0.0,0.0,0,-1.4791098,-1.4323673,-1.6026423,0.05934345,-0.10218585,1.4247701,-0.17694941,-0.36936226,-0.6620201,-2.0654953,0.024968972,-0.059190407,1.4200777,-0.31256843
0.0,0.0,0.8,0.0,0.0,0,-1.4935521,-1.4377984,-1.6630863,0.05518125,-0.07887851,1.445401,-0.19858754,-0.38351884,-0.67353076,-2.0397577,0.039526395,-0.08877569,1.4129822,-0.34100127
0.0,0.0,0.8,0.0,0.0,0,-1.4854758,-1.4044487,-1.6401536,0.039628092,-0.066437304,1.459894,-0.30503985,-0.36627388,-0.6699225,-2.0500417,0.04311876,-0.07951045,1.3915596,-0.50463164
0.0,0.0,0.8,0.0,0.0,0,-1.4793777,-1.3598675,-1.6033988,0.043307066,-0.08135289,1.4712528,-0.2740691,-0.3794309,-0.67758757,-2.0596972,0.033192784,-0.08162368,1.411573,-0.45003626
0.0,0.0,0.8,0.0,0.0,0,-1.4675534,-1.3508935,-1.6295521,0.038702056,-0.07643825,1.4436506,-0.2731484,-0.35106918,-0.6504818,-2.0427737,0.055725444,-0.1141223,1.3941228,-0.4302521
0.0,0.0,0.8,0.0,0.0,0,-1.4610329,-1.4395303,-1.6527486,0.05606872,-0.07389452,1.4642348,-0.21493556,-0.35577092,-0.6388998,-2.0553117,0.04415495,-0.100347236,1.4049802,-0.37838987
0.0,0.0,0.8,0.0,0.0,0,-1.4711773,-1.4237571,-1.6406419,0.012347531,-0.06637754,1.4591508,-0.0007814579,-0.37593666,-0.66281104,-2.054467,0.04344639,-0.08226099,1.406602,-0.41531217
0.0,0.0,0.8,0.0,0.0,0,-1.4749974,-1.4500642,-1.6566995,0.017298905,-0.099644445,1.440616,-0.16823655,-0.38831145,-0.67530215,-2.0660717,0.035835046,-0.10934657,1.3997697,-0.47743526
0.0,0.0,0.8,0.0,0.0,0,-1.4810303,-1.4552412,-1.6357707,0.032828305,-0.09512378,1.4477224,-0.14957693,-0.3636841,-0.6783734,-2.0634477,0.048751555,-0.07615681,1.3993521,-0.3760019
0.0,0.0,0.8,0.0,0.0,0,-1.4639233,-1.4024985,-1.6418345,0.03170099,-0.07305695,1.445709,-0.17110515,-0.36245608,-0.6571332,-2.0672019,0.04781295,-0.094468184,1.4015969,-0.3497129
0.0,0.0,0.8,0.0,0.0,0,-1.4856112,-1.4949284,-1.6392841,0.0037196125,-0.101899214,1.4729234,-0.059942026,-0.3564508,-0.672607,-2.0962715,0.027981283,-0.088821575,1.4098595,-0.4755335
0.0,0.0,0.8,0.0,0.0,0,-1.4732735,-1.4196304,-1.666833,0.028016446,-0.06455959,1.4338535,-0.34558955,-0.35397872,-0.6617738,-2.019096,0.037761405,-0.07282458,1.4212996,-0.33991563
0.0,0.0,0.8,0.0,0.0,0,-1.4634851,-1.3915359,-1.659374,0.04609544,-0.05663665,1.4511423,-0.19266345,-0.3742367,-0.6646394,-2.0445824,0.055804126,-0.07511608,1.3873047,-0.3238566
0.0,0.0,0.8,0.0,0.0,0,-1.459028,-1.4245963,-1.6346396,0.03642444,-0.061410267,1.4576757,-0.19910307,-0.38026342,-0.68546194,-2.0570905,0.010214117,-0.045071628,1.4393959,-0.37538856
0.0,0.0,0.8,0.0,0.0,0,-1.4825934,-1.3639115,-1.6459229,0.03305903,-0.11197549,1.4469173,-0.3708152,-0.36446697,-0.665208,-2.0573294,0.0629141,-0.09103751,1.3941799,-0.2368156
0.0,0.0,0.8,0.0,0.0,0,-1.490289,-1.467324,-1.678804,0.040219713,-0.12177525,1.4797482,-0.2368911,-0.33415014,-0.6679605,-2.0811129,0.033314005,-0.09541706,1.3939532,-0.2735929
0.0,0.0,0.8,0.0,0.0,0,-1.4518228,-1.3810248,-1.6710821,0.021605501,-0.084157795,1.4719843,-0.15331386,-0.37721267,-0.6609243,-2.0698843,0.035977986,-0.095976554,1.4021579,-0.34642527
0.0,0.0,0.8,0.0,0.0,0,-1.474866,-1.4009455,-1.6794528,0.008352277,-0.09861813,1.4530388,-0.13505808,-0.35896266,-0.66411096,-2.0736501,0.027008832,-0.103357576,1.4123168,-0.34463117
0.0,0.0,0.8,0.0,0.0,0,-1.4739789,-1.4009764,-1.6488925,0.02970273,-0.08055683,1.4801966,-0.27532724,-0.3691404,-0.6614995,-2.0465584,0.045119364,-0.088421814,1.3885291,-0.37985823
0.0,0.0,0.8,0.0,0.0,0,-1.4885441,-1.420987,-1.6450025,0.038997404,-0.08262271,1.4544797,-0.31606212,-0.35320625,-0.6761203,-2.0610495,0.03336815,-0.10341414,1.3940494,-0.47192144
0.0,0.0,0.8,0.0,0.0,0,-1.4632907,-1.3306313,-1.6777141,0.028156957,-0.123691,1.4554967,-0.39390764,-0.37077457,-0.65952295,-2.0548744,0.036762986,-0.07860915,1.4212855,-0.26280078
0.0,0.0,0.8,0.0,0.0,0,-1.4785751,-1.4538559,-1.6577618,0.032438774,-0.15142474,1.4556446,-0.20811689,-0.35183993,-0.6517899,-2.0561547,0.053285196,-0.09983768,1.3758035,-0.40400577
0.0,0.0,0.8,0.0,0.0,0,-1.5029117,-1.4637064,-1.6713251,0.044225533,-0.12198275,1.403852,-0.3043096,-0.36740455,-0.6704991,-2.031415,0.04412137,-0.110545084,1.4264677,-0.36423758
0.0,0.0,0.8,0.0,0.0,0,-1.47957,-1.4279664,-1.6176873,-0.0034061072,-0.09145437,1.4767182,-0.15136199,-0.37127078,-0.6696531,-2.064696,0.046400595,-0.08482924,1.4045726,-0.35964474
0.0,0.0,0.8,0.0,0.0,0,-1.4692585,-1.4059706,-1.617448,0.03426705,-0.113153,1.4670925,-0.24749479,-0.34994256,-0.6629555,-2.0548046,0.036693674,-0.08686692,1.4054751,-0.43284833
0.0,0.0,0.8,0.0,0.0,0,-1.4542258,-1.3392031,-1.679825,0.051102087,-0.0722955,1.4318807,-0.04930563,-0.36176035,-0.65244275,-2.0505986,0.04346191,-0.09214767,1.3963844,-0.43048674
0.0,0.0,0.8,0.0,0.0,0,-1.4603729,-1.3852584,-1.6536466,0.0495608,-0.09288254,1.4353206,-0.26385835,-0.36976874,-0.6581861,-2.044935,0.038773946,-0.07159126,1.4164213,-0.30778047
0.0,0.0,0.8,0.0,0.0,0,-1.479257,-1.4527254,-1.5944874,0.081994124,-0.048143703,1.4011014,-0.016608544,-0.3642544,-0.67467874,-2.039043,0.040418576,-0.069369204,1.4033965,-0.30076152
0.0,0.0,0.8,0.0,0.0,0,-1.4582165,-1.4733778,-1.6735363,0.042781837,-0.0864964,1.4594383,-0.17765562,-0.3835205,-0.6539685,-2.0909572,0.038722835,-0.08546603,1.4028451,-0.26481542
0.0,0.0,0.8,0.0,0.0,0,-1.4878113,-1.384699,-1.6525574,0.047216922,-0.08505106,1.4335746,-0.2781216,-0.36851957,-0.632646,-2.1011882,0.041007217,-0.07559071,1.3981824,-0.31034553
0.0,0.0,0.8,0.0,0.0,0,-1.4857184,-1.4236722,-1.6707752,0.037929203,-0.11671185,1.4143536,-0.27157268,-0.3784409,-0.6915419,-2.0448236,0.042409856,-0.09243118,1.4043543,-0.44745103
0.0,0.0,0.8,0.0,0.0,0,-1.4568985,-1.3991123,-1.6858094,0.02422527,-0.04078266,1.4558048,-0.21225722,-0.37694633,-0.65289557,-2.0531557,0.052486144,-0.082642265,1.3803836,-0.35180962
0.0,0.0,0.8,0.0,0.0,0,-1.4706273,-1.4481363,-1.6970847,0.05226108,-0.08369216,1.4140928,-0.16629559,-0.38503554,-0.67353624,-2.050545,0.03893842,-0.110933416,1.4036571,-0.32358682
0.0,0.0,0.8,0.0,0.0,0,-1.4699752,-1.4255176,-1.635303,0.04242816,-0.09823329,1.4669095,-0.05384906,-0.37894097,-0.6373257,-2.053467,0.04332398,-0.0631122,1.40552,-0.24638607
0.0,0.0,0.8,0.0,0.0,0,-1.4790478,-1.4648691,-1.6081176,0.042501893,-0.094017915,1.4820894,-0.26977745,-0.35586038,-0.6739063,-2.0709052,0.03856686,-0.091040164,1.3778594,-0.29759726
0.0,0.0,0.8,0.0,0.0,0,-1.4649001,-1.4283324,-1.6727713,0.040279076,-0.050141264,1.4412056,-0.18945605,-0.36620113,-0.667046,-2.0671108,0.04688195,-0.09006871,1.3860121,-0.33273253
0.0,0.0,0.8,0.0,0.0,0,-1.4900433,-1.4776037,-1.6907892,0.0047423868,-0.086923614,1.4878573,-0.15209475,-0.3484703,-0.6675229,-2.0354226,0.033051945,-0.09024091,1.4125206,-0.48521298
0.0,0.0,0.8,0.0,0.0,0,-1.4582374,-1.3738635,-1.6344945,0.030809896,-0.06854506,1.45697,-0.24688707,-0.3726796,-0.662877,-2.0728798,0.050364163,-0.09759563,1.3951668,-0.3746453
0.0,0.0,0.8,0.0,0.0,0,-1.4675713,-1.5256317,-1.6926222,0.0065264106,-0.0833166,1.4535325,-0.18682796,-0.36487362,-0.67888284,-2.0399127,0.04940145,-0.07460865,1.3936814,-0.32925797
0.0,0.0,0.8,0.0,0.0,0,-1.4721928,-1.3882445,-1.6537768,0.046916388,-0.10024715,1.4418458,-0.13763097,-0.3550984,-0.6518644,-2.072021,0.050641313,-0.1097112,1.3810679,-0.4544136
0.0,0.0,0.8,0.0,0.0,0,-1.4561707,-1.4439566,-1.7199981,-0.0032424002,-0.06213145,1.4821984,-0.2461955,-0.35528025,-0.6762766,-2.0439496,0.031912595,-0.09710733,1.4077657,-0.37868252
0.0,0.0,0.8,0.0,0.0,0,-1.4841229,-1.4092584,-1.6138958,0.038487412,-0.078279234,1.4314069,-0.052832562,-0.37843236,-0.65387815,-2.0444498,0.0461932,-0.08911738,1.405758,-0.46499062
0.0,0.0,0.8,0.0,0.0,0,-1.4598778,-1.3452942,-1.6780518,0.039050557,-0.12292503,1.4395777,-0.19506954,-0.37582037,-0.6580012,-2.0355997,0.05326424,-0.088383906,1.4060031,-0.4622956
0.0,0.0,0.8,0.0,0.0,0,-1.4856057,-1.3734399,-1.6493528,0.051103503,-0.016924316,1.4542906,-0.13642918,-0.36270565,-0.6590501,-2.0494738,0.051094186,-0.09486836,1.3975173,-0.3684621
0.0,0.0,0.8,0.0,0.0,0,-1.4451087,-1.4329627,-1.6273038,0.052950017,-0.12508006,1.4603192,-0.2530312,-0.36038518,-0.6819695,-2.0446906,0.031477567,-0.11181951,1.4164724,-0.33973157
0.0,0.0,0.8,0.0,0.0,0,-1.4695017,-1.3694006,-1.6728123,0.031337127,-0.07700886,1.4191034,0.047591314,-0.3700691,-0.6694705,-2.0590014,0.049878754,-0.10104496,1.3885506,-0.4292357
0.0,0.0,0.8,0.0,0.0,0,-1.4901161,-1.3714178,-1.6532332,0.042549442,-0.069393046,1.4809018,-0.13931103,-0.3788407,-0.6627207,-2.0469556,0.03492524,-0.10323667,1.3918376,-0.37963468
0.0,0.0,0.8,0.0,0.0,0,-1.4751043,-1.4472996,-1.678674,0.017410068,-0.06469876,1.4404812,-0.21618052,-0.3680335,-0.6511379,-2.0468938,0.058427125,-0.06684466,1.4022868,-0.37275118
0.0,0.0,0.8,0.0,0.0,0,-1.4720092,-1.4989887,-1.6752334,0.028381744,-0.07660747,1.4603862,-0.13554123,-0.37471494,-0.65828896,-2.0600023,0.050761,-0.09686474,1.3830801,-0.25230274
0.0,0.0,0.8,0.0,0.0,0,-1.4540274,-1.4571503,-1.6355562,0.03892449,-0.10447294,1.453869,-0.20857334,-0.36671123,-0.6821621,-2.037567,0.05708099,-0.057109375,1.4031618,-0.45468745
0.0,0.0,0.8,0.0,0.0,0,-1.4639206,-1.4860363,-1.6512405,0.042506285,-0.04763307,1.4640249,-0.30588907,-0.36826333,-0.67740256,-2.0522301,0.04260407,-0.07367505,1.4214382,-0.30812904
0.0,0.0,0.8,0.0,0.0,0,-1.4645046,-1.4585238,-1.6221243,0.044063568,-0.12825692,1.4541061,-0.15976812,-0.36645156,-0.68073934,-2.051123,0.040337466,-0.09256345,1.4030818,-0.44449884
0.0,0.0,0.8,0.0,0.0,0,-1.4679273,-1.4289684,-1.6961352,0.027103232,-0.069028385,1.4409183,-0.12996545,-0.38855073,-0.65528584,-2.050588,0.05083828,-0.09005817,1.3986703,-0.4179875
0.0,0.0,0.8,0.0,0.0,0,-1.4638985,-1.4962755,-1.666381,0.029421607,-0.05773479,1.4468156,-0.2997238,-0.3730173,-0.6759602,-2.0458512,0.05837033,-0.10467621,1.3899889,-0.46319395
0.0,0.0,0.8,0.0,0.0,0,-1.4741763,-1.4931372,-1.6179858,0.0015459216,-0.1266369,1.4769348,-0.04317151,-0.36926696,-0.6909815,-2.0222235,0.04738051,-0.07416128,1.4085617,-0.37484565
0.0,0.0,0.8,0.0,0.0,0,-1.5067934,-1.4298255,-1.6161393,0.03023226,-0.060696807,1.4626578,-0.2901733,-0.3721789,-0.69846094,-2.0504518,0.042108275,-0.09289221,1.3976179,-0.43363956
0.0,0.0,0.8,0.0,0.0,0,-1.4776417,-1.4039667,-1.6511406,0.011484692,-0.15196441,1.4604455,-0.1503127,-0.3605363,-0.6413444,-2.045055,0.061380643,-0.114757225,1.3931282,-0.28035647
0.0,0.0,0.8,0.0,0.0,0,-1.481592,-1.4146926,-1.6766864,0.02942596,-0.008087363,1.4565793,-0.23376007,-0.3712606,-0.6694903,-2.0459929,0.0541514,-0.092664905,1.3905234,-0.43615973
0.0,0.0,0.8,0.0,0.0,0,-1.4902159,-1.4626217,-1.6575248,0.036470808,-0.04348549,1.4279227,-0.111257516,-0.355312,-0.65829563,-2.039675,0.04825373,-0.083830595,1.4038391,-0.40038264
0.0,0.0,0.8,0.0,0.0,0,-1.4455118,-1.4198831,-1.6789082,0.033465203,-0.09156352,1.4494429,-0.18301551,-0.35492176,-0.65139025,-2.046719,0.054948233,-0.06833741,1.398909,-0.3907152
0.0,0.0,0.8,0.0,0.0,0,-1.483058,-1.4192497,-1.6752496,0.0402122,-0.07864309,1.4836711,-0.27616733,-0.3394648,-0.70515394,-2.0600793,0.027495118,-0.077551045,1.3960446,-0.33452463
0.0,0.0,0.8,0.0,0.0,0,-1.4684995,-1.4695826,-1.6641656,0.05197232,-0.029413223,1.4484345,-0.20248924,-0.3798928,-0.669831,-2.06304,0.040423322,-0.081846476,1.3998832,-0.4705854
0.0,0.0,0.8,0.0,0.0,0,-1.4738666,-1.3812599,-1.6512163,0.045652863,-0.069364294,1.4383004,-0.2971033,-0.37145042,-0.68059015,-2.053948,0.033577397,-0.08299009,1.3993027,-0.40744525
0.0,0.0,0.8,0.0,0.0,0,-1.4866499,-1.3824248,-1.6354811,0.034209624,-0.044973493,1.4574069,-0.17893964,-0.37143904,-0.633308,-2.078045,0.055931587,-0.07138489,1.3797613,-0.2558085
0.0,0.0,0.8,0.0,0.0,0,-1.4605631,-1.408079,-1.66933,0.04542673,-0.04031263,1.423177,-0.051287174,-0.3698721,-0.6475286,-2.0780427,0.037008516,-0.09747428,1.4058981,-0.33551884
0.0,0.0,0.8,0.0,0.0,0,-1.4535381,-1.406364,-1.679917,0.027813686,-0.14918591,1.432145,-0.19342731,-0.35413954,-0.6322835,-2.0364776,0.060193535,-0.097981416,1.3852333,-0.36305115
0.0,0.0,0.8,0.0,0.0,0,-1.4800981,-1.4704375,-1.6226858,0.04741802,-0.06497728,1.4402394,-0.105038054,-0.3574202,-0.6638793,-2.030142,0.048514917,-0.112030566,1.408759,-0.32590362
0.0,0.0,0.8,0.0,0.0,0,-1.4758801,-1.4474301,-1.6559227,0.040592544,-0.048159294,1.4473186,-0.2438585,-0.37888142,-0.65187854,-2.0341537,0.051856875,-0.09574394,1.3827641,-0.45326674
0.0,0.0,0.8,0.0,0.0,0,-1.4452497,-1.449142,-1.7088945,0.00016125463,-0.058806278,1.4551325,-0.14445484,-0.3596573,-0.6465172,-2.057053,0.043445814,-0.119066976,1.4121882,-0.41252786
0.0,0.0,0.8,0.0,0.0,0,-1.4626491,-1.4786787,-1.6383462,0.061065223,-0.1105427,1.4448701,-0.29641217,-0.3562676,-0.6652782,-2.0778337,0.05765243,-0.08959671,1.382003,-0.38781658
0.0,0.0,0.8,0.0,0.0,0,-1.4809655,-1.3740715,-1.6331067,0.07669308,-0.085402995,1.4080805,-0.13431655,-0.36417708,-0.63599664,-2.0462072,0.06422991,-0.06413911,1.3662009,-0.35549003
0.0,0.0,0.8,0.0,0.0,0,-1.4783664,-1.451372,-1.614058,0.043212976,-0.08695013,1.4769156,-0.08688866,-0.36611408,-0.66760546,-2.0594013,0.04045028,-0.09565666,1.386024,-0.46883866
0.0,0.0,0.8,0.0,0.0,0,-1.4504318,-1.4235177,-1.6599354,0.04437999,-0.14049482,1.4387535,-0.14014308,-0.3849341,-0.66683555,-2.0727744,0.039062284,-0.06916602,1.4014703,-0.4007594
0.0,0.0,0.8,0.0,0.0,0,-1.449503,-1.3566352,-1.6472452,-0.005519181,-0.13254388,1.481183,-0.2102292,-0.38138792,-0.64703107,-2.0668032,0.060456656,-0.11641988,1.3830706,-0.39123046
0.0,0.0,0.8,0.0,0.0,0,-1.452917,-1.3426526,-1.6223477,0.062846676,-0.06188308,1.4510809,-0.22733113,-0.38904563,-0.67483914,-2.0308595,0.054469816,-0.091442205,1.4124185,-0.3292384
0.0,0.0,0.8,0.0,0.0,0,-1.4686062,-1.4242138,-1.6561757,0.025188217,-0.100437276,1.4656857,-0.16558608,-0.35795525,-0.69306564,-2.0385253,0.051745523,-0.07966657,1.4089488,-0.46239576
0.0,0.0,0.8,0.0,0.0,0,-1.4917781,-1.4494293,-1.6991409,0.027729886,-0.06522329,1.4261724,-0.07534089,-0.37814224,-0.6486998,-2.0614996,0.0447738,-0.08308316,1.4150974,-0.35938913
0.0,0.0,0.8,0.0,0.0,0,-1.4555866,-1.4073808,-1.645401,0.048353642,-0.046913818,1.4391716,-0.064681694,-0.37618667,-0.66864336,-2.0863018,0.040903427,-0.07717967,1.3977073,-0.40205228
0.0,0.0,0.8,0.0,0.0,0,-1.469031,-1.419847,-1.7135466,0.043212287,-0.0743375,1.4082298,-0.076735,-0.37554353,-0.643577,-2.0684566,0.03826396,-0.097189054,1.4165729,-0.41590855
0.0,0.0,0.8,0.0,0.0,0,-1.4897323,-1.3604283,-1.6501701,0.036824718,-0.03504771,1.4712063,-0.07941121,-0.3583195,-0.6319283,-2.0583088,0.05754704,-0.090843655,1.3782802,-0.4064611
0.0,0.0,0.8,0.0,0.0,0,-1.4581071,-1.4755137,-1.7066158,0.008913774,-0.096915275,1.4125005,-0.15903372,-0.3721123,-0.6825737,-2.0536003,0.048222464,-0.07727201,1.3877203,-0.4124101
0.0,0.0,0.8,0.0,0.0,0,-1.470837,-1.4156427,-1.6689786,0.045044105,-0.02444956,1.4640783,-0.015334082,-0.36727753,-0.68878424,-2.036225,0.03444192,-0.08606246,1.4067706,-0.46551684
0.0,0.0,0.8,0.0,0.0,0,-1.4701256,-1.4411961,-1.6209435,0.02472038,-0.101742506,1.4745151,-0.11232878,-0.363788,-0.65458995,-2.0543299,0.052333426,-0.07763971,1.4002817,-0.49945128
0.0,0.0,0.8,0.0,0.0,0,-1.462565,-1.4476455,-1.6696706,0.03764498,-0.12397462,1.4333562,-0.28787562,-0.37909997,-0.6685686,-2.0375462,0.062356234,-0.079759106,1.4009378,-0.3891452
0.0,0.0,0.8,0.0,0.0,0,-1.4727694,-1.4448195,-1.6489022,0.0138478475,-0.044679817,1.4580204,0.04569389,-0.3784838,-0.6729847,-2.0412378,0.044106126,-0.0821223,1.416226,-0.4411342
0.0,0.0,0.8,0.0,0.0,0,-1.4528756,-1.4713756,-1.657006,0.012483065,-0.108554244,1.4776871,-0.33260706,-0.37125564,-0.6565548,-2.046027,0.044730585,-0.10381657,1.4185921,-0.42146066
0.0,0.0,0.8,0.0,0.0,0,-1.4805361,-1.4465033,-1.6470469,0.036155798,-0.080133215,1.4487275,-0.32781813,-0.37306863,-0.64011437,-2.0483308,0.04713905,-0.075668566,1.4097073,-0.56210506
0.0,0.0,0.8,0.0,0.0,0,-1.4397187,-1.4386852,-1.6310301,0.051134903,-0.083213806,1.4656216,-0.30710173,-0.3667243,-0.65516156,-2.0537834,0.03948211,-0.0880958,1.4058311,-0.32131463
0.0,0.0,0.8,0.0,0.0,0,-1.4553416,-1.4185191,-1.7036154,0.01861228,-0.06614666,1.4628805,-0.19753256,-0.37475476,-0.66838795,-2.0621555,0.045434315,-0.11792942,1.3848042,-0.3988977
0.0,0.0,0.8,0.0,0.0,0,-1.484907,-1.4654485,-1.6386287,0.05135304,-0.044253666,1.4580005,-0.13902299,-0.35824293,-0.65212864,-2.058634,0.05194104,-0.067999005,1.4029919,-0.45700654
0.0,0.0,0.8,0.0,0.0,0,-1.4774302,-1.4200491,-1.6396396,0.04104659,-0.056202065,1.4409208,-0.042061515,-0.36371496,-0.6422603,-2.048341,0.058522176,-0.093924835,1.393134,-0.30612344
0.0,0.0,0.8,0.0,0.0,0,-1.4606037,-1.4287214,-1.6310437,0.033601306,-0.11429314,1.4777004,-0.2461377,-0.3625226,-0.65197384,-2.056947,0.042042993,-0.08624967,1.4012331,-0.44006208
0.0,0.0,0.8,0.0,0.0,0,-1.4875875,-1.4345839,-1.638033,0.0025581087,-0.12540278,1.4484979,-0.089581475,-0.3487351,-0.63158184,-2.0569465,0.05172569,-0.081384726,1.4188441,-0.29928142
0.0,0.0,0.8,0.0,0.0,0,-1.4795163,-1.4767085,-1.6759771,0.009755496,-0.08151445,1.4572549,-0.009057637,-0.36613873,-0.65189177,-2.0064688,0.061986562,-0.10920651,1.4097693,-0.34817424
0.0,0.0,0.8,0.0,0.0,0,-1.4716309,-1.4598014,-1.6282367,0.08835109,-0.08080195,1.4620937,-0.2042437,-0.36272046,-0.67506456,-2.0491233,0.047369897,-0.07584924,1.4036757,-0.36904183
0.0,0.0,0.8,0.0,0.0,0,-1.4509158,-1.4530389,-1.6479675,0.013946962,-0.09506883,1.4832805,-0.32916778,-0.36300716,-0.6547728,-2.0617979,0.04340848,-0.10689626,1.4064711,-0.504647
0.0,0.0,0.8,0.0,0.0,0,-1.4700309,-1.4770856,-1.667452,0.010396201,-0.055481218,1.4616984,-0.25509804,-0.35002884,-0.66197085,-2.0434146,0.059621822,-0.08795009,1.4104155,-0.17597528
0.0,0.0,0.8,0.0,0.0,0,-1.4758011,-1.4006594,-1.6493424,0.04520704,-0.13003886,1.4180515,-0.16932622,-0.36985034,-0.6479969,-2.0380602,0.057527497,-0.088043734,1.4206735,-0.19796515
0.0,0.0,0.8,0.0,0.0,0,-1.4364227,-1.4089001,-1.6619781,0.06260862,-0.065273635,1.4409354,-0.14536212,-0.38222387,-0.6673741,-2.0399432,0.04051117,-0.08489243,1.4106734,-0.45640728
0.0,0.0,0.8,0.0,0.0,0,-1.4292622,-1.3650796,-1.6468745,0.03003233,-0.10014304,1.4753021,-0.23910022,-0.37378496,-0.67003703,-2.0470955,0.04559727,-0.090402104,1.4122235,-0.29400256
0.0,0.0,0.8,0.0,0.0,0,-1.4687943,-1.4197286,-1.6382134,0.045125652,-0.054935534,1.4413979,-0.113209456,-0.3647047,-0.6459641,-2.0578935,0.043888506,-0.07786751,1.3923364,-0.43083146
0.0,0.0,0.8,0.0,0.0,0,-1.4412076,-1.4207796,-1.6447847,0.039220333,-0.042180356,1.4621838,-0.14170554,-0.3610063,-0.6524207,-2.0459719,0.03960559,-0.10020577,1.4118614,-0.40488112
0.0,0.0,0.8,0.0,0.0,0,-1.4750435,-1.3766237,-1.6363626,0.017936118,-0.06427112,1.4495919,-0.28293952,-0.36265406,-0.669407,-2.0453904,0.0394847,-0.0831762,1.418113,-0.46200702
0.0,0.0,0.8,0.0,0.0,0,-1.4557794,-1.351789,-1.694309,0.035403937,-0.073351,1.4374638,-0.16477548,-0.35381263,-0.67809,-2.0179837,0.046893384,-0.08366659,1.4094751,-0.34412533
0.0,0.0,0.8,0.0,0.0,0,-1.482884,-1.4154947,-1.6502051,0.037168946,-0.061942823,1.4472492,-0.18186721,-0.36918494,-0.6503182,-2.070087,0.053760894,-0.09333288,1.4006172,-0.3492525
0.0,0.0,0.8,0.0,0.0,0,-1.4718778,-1.453996,-1.6976951,0.04076097,-0.12412647,1.4152502,-0.31012884,-0.3506092,-0.6565503,-2.04755,0.04669982,-0.09454258,1.3810487,-0.24262564
0.0,0.0,0.8,0.0,0.0,0,-1.4614381,-1.4315852,-1.6885272,0.008949977,-0.09345687,1.472874,-0.35688975,-0.36779228,-0.67001027,-2.034723,0.06616386,-0.0696178,1.4123468,-0.34560454
0.0,0.0,0.8,0.0,0.0,0,-1.4785948,-1.4368134,-1.647784,0.041108545,-0.067588404,1.4437188,-0.14231749,-0.35947487,-0.6707801,-2.0628252,0.05192663,-0.10318549,1.3861055,-0.38202056
0.0,0.0,0.8,0.0,0.0,0,-1.4678811,-1.472281,-1.6464297,0.072736725,-0.044130545,1.4313685,-0.23323373,-0.36146277,-0.64207435,-2.0691364,0.06515709,-0.05126054,1.3955339,-0.4582025
0.0,0.0,0.8,0.0,0.0,0,-1.4619243,-1.4379364,-1.6142684,0.065849125,-0.11219574,1.4140553,-0.22751443,-0.351921,-0.6558691,-2.037824,0.06230964,-0.10166946,1.3781604,-0.27525008
0.0,0.0,0.8,0.0,0.0,0,-1.4679565,-1.4269652,-1.6588542,0.055230904,-0.10609327,1.4185694,-0.07564636,-0.37125152,-0.6750765,-2.0504675,0.043697078,-0.086343184,1.4103884,-0.31002492
0.0,0.0,0.8,0.0,0.0,0,-1.4942379,-1.3842598,-1.6249816,0.03371541,-0.080844305,1.4483683,-0.1667108,-0.3678126,-0.67191756,-2.0440567,0.049080245,-0.0771825,1.4101965,-0.25327063
0.0,0.0,0.8,0.0,0.0,0,-1.4694943,-1.3537492,-1.6548713,0.06889578,-0.088140376,1.4134499,-0.047234103,-0.38746104,-0.6877968,-2.0595088,0.052148476,-0.11862182,1.3506287,-0.399677
0.0,0.0,0.8,0.0,0.0,0,-1.4372435,-1.4170909,-1.6235107,0.04827302,-0.08126189,1.423297,-0.08759853,-0.3635843,-0.6408912,-2.0383503,0.060680922,-0.08413252,1.3958151,-0.35576776
0.0,0.0,0.8,0.0,0.0,0,-1.4490656,-1.4133406,-1.6935282,0.017208982,-0.092696674,1.4822825,-0.2815515,-0.36246422,-0.6893261,-2.065864,0.052447017,-0.08117159,1.413725,-0.42537856
0.0,0.0,0.8,0.0,0.0,0,-1.4678404,-1.4113127,-1.6858283,0.035684466,-0.13277029,1.4417506,-0.27328712,-0.3521751,-0.64380175,-2.0501993,0.06954186,-0.089237526,1.394018,-0.19397983
0.0,0.0,0.8,0.0,0.0,0,-1.4549394,-1.4986792,-1.6492292,0.091016546,-0.08910888,1.3889474,-0.2295476,-0.37632972,-0.65424395,-2.081472,0.04875836,-0.112016566,1.4129876,-0.3686763
0.0,0.0,0.8,0.0,0.0,0,-1.4614528,-1.4158072,-1.7261665,0.017757399,-0.10921041,1.4757065,-0.23330772,-0.37195334,-0.69329464,-2.0617552,0.052006196,-0.107791916,1.3880157,-0.32573852
0.0,0.0,0.8,0.0,0.0,0,-1.4544748,-1.3492544,-1.6811357,0.035210352,-0.089078516,1.4708422,-0.32642418,-0.35450748,-0.69990045,-2.0609155,0.03508241,-0.059362385,1.3946825,-0.44385242
0.0,0.0,0.8,0.0,0.0,0,-1.4547653,-1.3944442,-1.6511136,0.026573109,-0.16851479,1.4781162,-0.064634174,-0.3703619,-0.6643205,-2.0119078,0.05796257,-0.08087638,1.3978295,-0.4911168
0.0,0.0,0.8,0.0,0.0,0,-1.4544694,-1.4370313,-1.7021397,0.049437556,-0.06979815,1.4498609,-0.27691498,-0.37288135,-0.69472426,-2.0662813,0.05072987,-0.09156764,1.4118984,-0.3812215
0.0,0.0,0.8,0.0,0.0,0,-1.4559113,-1.355425,-1.6646702,0.061697565,-0.13645042,1.4691291,-0.09257479,-0.38128224,-0.6842093,-2.0419364,0.034681316,-0.089070424,1.4016354,-0.40635186
0.0,0.0,0.8,0.0,0.0,0,-1.4618353,-1.4155214,-1.6879796,0.03135939,-0.09956734,1.505236,-0.18594371,-0.36365062,-0.6687688,-2.0578241,0.052947197,-0.08651664,1.3958148,-0.39519128
0.0,0.0,0.8,0.0,0.0,0,-1.4568241,-1.4203237,-1.7237027,0.055950932,-0.045793887,1.4424219,-0.1753628,-0.35887557,-0.6686481,-2.0435102,0.0605212,-0.073488265,1.398357,-0.36357537
0.0,0.0,0.8,0.0,0.0,0,-1.463587,-1.4676951,-1.6538408,0.053349316,-0.058935434,1.4453312,-0.047592983,-0.3622407,-0.6554812,-2.0387242,0.05573447,-0.09429186,1.4061631,-0.24965437
0.0,0.0,0.8,0.0,0.0,0,-1.463587,-1.4676951,-1.6538408,0.053349316,-0.058935434,1.4453312,-0.047592983,-0.3622407,-0.6554812,-2.0387242,0.05573447,-0.09429186,1.4061631,-0.24965437
0.0,0.0,0.8,0.0,0.0,0,-1.463587,-1.4676951,-1.6538408,0.053349316,-0.058935434,1.4453312,-0.047592983,-0.3622407,-0.6554812,-2.0387242,0.05573447,-0.09429186,1.4061631,-0.24965437
0.0,0.0,0.8,0.0,0.0,0,-1.463587,-1.4676951,-1.6538408,0.053349316,-0.058935434,1.4453312,-0.047592983,-0.3622407,-0.6554812,-2.0387242,0.05573447,-0.09429186,1.4061631,-0.24965437
0.0,0.0,0.8,0.0,0.0,0,-1.463587,-1.4676951,-1.6538408,0.053349316,-0.058935434,1.4453312,-0.047592983,-0.3622407,-0.6554812,-2.0387242,0.05573447,-0.09429186,1.4061631,-0.24965437
0.0,0.0,0.8,0.0,0.0,0,-1.4585705,-1.3908832,-1.6759882,0.021011084,-0.057901222,1.4830956,-0.232168,-0.36325848,-0.6438186,-2.0609214,0.04668389,-0.072709925,1.3940173,-0.4061251
0.0,0.0,0.8,0.0,0.0,0,-1.4585705,-1.3908832,-1.6759882,0.021011084,-0.057901222,1.4830956,-0.232168,-0.36325848,-0.6438186,-2.0609214,0.04668389,-0.072709925,1.3940173,-0.4061251
0.0,0.0,0.8,0.0,0.0,0,-1.4585705,-1.3908832,-1.6759882,0.021011084,-0.057901222,1.4830956,-0.232168,-0.36325848,-0.6438186,-2.0609214,0.04668389,-0.072709925,1.3940173,-0.4061251
0.0,0.0,0.8,0.0,0.0,0,-1.4585705,-1.3908832,-1.6759882,0.021011084,-0.057901222,1.4830956,-0.232168,-0.36325848,-0.6438186,-2.0609214,0.04668389,-0.072709925,1.3940173,-0.4061251
0.0,0.0,0.8,0.0,0.0,0,-1.4817587,-1.3408494,-1.6512337,0.04186816,-0.054382075,1.4418651,-0.24088904,-0.36275467,-0.64847213,-2.0640714,0.07524227,-0.060779028,1.3808241,-0.45454064
0.0,0.0,0.8,0.0,0.0,0,-1.4817587,-1.3408494,-1.6512337,0.04186816,-0.054382075,1.4418651,-0.24088904,-0.36275467,-0.64847213,-2.0640714,0.07524227,-0.060779028,1.3808241,-0.45454064
0.0,0.0,0.8,0.0,0.0,0,-1.4817587,-1.3408494,-1.6512337,0.04186816,-0.054382075,1.4418651,-0.24088904,-0.36275467,-0.64847213,-2.0640714,0.07524227,-0.060779028,1.3808241,-0.45454064
0.0,0.0,0.8,0.0,0.0,0,-1.4817587,-1.3408494,-1.6512337,0.04186816,-0.054382075,1.4418651,-0.24088904,-0.36275467,-0.64847213,-2.0640714,0.07524227,-0.060779028,1.3808241,-0.45454064
0.0,0.0,0.8,0.0,0.0,0,-1.4811116,-1.4577961,-1.6960365,0.03836897,-0.10032548,1.4573317,-0.28480288,-0.36955866,-0.6022439,-2.0370746,0.06893191,-0.09552463,1.3609526,-0.37610066
0.0,0.0,0.8,0.0,0.0,0,-1.4811116,-1.4577961,-1.6960365,0.03836897,-0.10032548,1.4573317,-0.28480288,-0.36955866,-0.6022439,-2.0370746,0.06893191,-0.09552463,1.3609526,-0.37610066
0.0,0.0,0.8,0.0,0.0,0,-1.4811116,-1.4577961,-1.6960365,0.03836897,-0.10032548,1.4573317,-0.28480288,-0.36955866,-0.6022439,-2.0370746,0.06893191,-0.09552463,1.3609526,-0.37610066
0.0,0.0,0.8,0.0,0.0,0,-1.4811116,-1.4577961,-1.6960365,0.03836897,-0.10032548,1.4573317,-0.28480288,-0.36955866,-0.6022439,-2.0370746,0.06893191,-0.09552463,1.3609526,-0.37610066
0.0,0.0,0.8,0.0,0.0,0,-1.4792365,-1.4474227,-1.660736,0.030359378,-0.07051055,1.4685984,-0.23835145,-0.375139,-0.689231,-2.0571034,0.040909003,-0.093479,1.4029926,-0.3127901
0.0,0.0,0.8,0.0,0.0,0,-1.4792365,-1.4474227,-1.660736,0.030359378,-0.07051055,1.4685984,-0.23835145,-0.375139,-0.689231,-2.0571034,0.040909003,-0.093479,1.4029926,-0.3127901
0.0,0.0,0.8,0.0,0.0,0,-1.4792365,-1.4474227,-1.660736,0.030359378,-0.07051055,1.4685984,-0.23835145,-0.375139,-0.689231,-2.0571034,0.040909003,-0.093479,1.4029926,-0.3127901
0.0,0.0,0.8,0.0,0.0,0,-1.4792365,-1.4474227,-1.660736,0.030359378,-0.07051055,1.4685984,-0.23835145,-0.375139,-0.689231,-2.0571034,0.040909003,-0.093479,1.4029926,-0.3127901
0.0,0.0,0.8,0.0,0.0,0,-1.4711105,-1.3805709,-1.6189865,0.014736565,-0.13118863,1.4251051,-0.1521475,-0.31903157,-0.6792154,-2.0433903,0.061254073,-0.067840785,1.3838447,-0.52065945
0.0,0.0,0.8,0.0,0.0,0,-1.4711105,-1.3805709,-1.6189865,0.014736565,-0.13118863,1.4251051,-0.1521475,-0.31903157,-0.6792154,-2.0433903,0.061254073,-0.067840785,1.3838447,-0.52065945
0.0,0.0,0.8,0.0,0.0,0,-1.4711105,-1.3805709,-1.6189865,0.014736565,-0.13118863,1.4251051,-0.1521475,-0.31903157,-0.6792154,-2.0433903,0.061254073,-0.067840785,1.3838447,-0.52065945
0.0,0.0,0.8,0.0,0.0,0,-1.4711105,-1.3805709,-1.6189865,0.014736565,-0.13118863,1.4251051,-0.1521475,-0.31903157,-0.6792154,-2.0433903,0.061254073,-0.067840785,1.3838447,-0.52065945
0.0,0.0,0.8,0.0,0.0,0,-1.4624653,-1.3767034,-1.6363947,0.026307726,-0.08886399,1.4349369,-0.119242646,-0.35588253,-0.67385906,-2.0352674,0.047046266,-0.08846077,1.4194981,-0.35891607
0.0,0.0,0.8,0.0,0.0,0,-1.4624653,-1.3767034,-1.6363947,0.026307726,-0.08886399,1.4349369,-0.119242646,-0.35588253,-0.67385906,-2.0352674,0.047046266,-0.08846077,1.4194981,-0.35891607
0.0,0.0,0.8,0.0,0.0,0,-1.4624653,-1.3767034,-1.6363947,0.026307726,-0.08886399,1.4349369,-0.119242646,-0.35588253,-0.67385906,-2.0352674,0.047046266,-0.08846077,1.4194981,-0.35891607
0.0,0.0,0.8,0.0,0.0,0,-1.4624653,-1.3767034,-1.6363947,0.026307726,-0.08886399,1.4349369,-0.119242646,-0.35588253,-0.67385906,-2.0352674,0.047046266,-0.08846077,1.4194981,-0.35891607
0.0,0.0,0.8,0.0,0.0,0,-1.4624653,-1.3767034,-1.6363947,0.026307726,-0.08886399,1.4349369,-0.119242646,-0.35588253,-0.67385906,-2.0352674,0.047046266,-0.08846077,1.4194981,-0.35891607
0.0,0.0,0.8,0.0,0.0,0,-1.4568241,-1.4203237,-1.7237027,0.055950932,-0.045793887,1.4424219,-0.1753628,-0.35887557,-0.6686481,-2.0435102,0.0605212,-0.073488265,1.398357,-0.36357537
0.0,0.0,0.8,0.0,0.0,0,-1.4568241,-1.4203237,-1.7237027,0.055950932,-0.045793887,1.4424219,-0.1753628,-0.35887557,-0.6686481,-2.0435102,0.0605212,-0.073488265,1.398357,-0.36357537
