sanky1234/BimanualDexCatch/isaacgymenvs/cem_results/May31/football_pose_0.0_0.0_0.8_-0.5235987755982988_0.5235987755982988_0_2025-05-31.csv
x,y,z,roll,pitch,yaw,robot1/joint1,robot1/joint2,robot1/joint3,robot1/joint4,robot1/joint5,robot1/joint6,robot1/joint7,robot2/joint1,robot2/joint2,robot2/joint3,robot2/joint4,robot2/joint5,robot2/joint6,robot2/joint7
0.0,0.0,0.8,-0.5235987755982988,0.5235987755982988,0,0.2196766,-0.89171225,2.270784,0.5006927,-0.17025213,-0.52139634,-0.18252067,-0.8762271,-1.0899413,-0.9324523,0.7608154,-0.08777877,0.8834947,0.46942502
0.0,0.0,0.8,-0.5235987755982988,0.5235987755982988,0,-0.36560532,-1.0213798,2.7478623,0.366818,-0.03100216,-0.33904773,0.4653817,-1.4567692,-0.57165533,-1.3043492,0.58474225,-0.37170443,0.87262774,0.4274723
0.0,0.0,0.8,-0.5235987755982988,0.5235987755982988,0,0.07105868,-0.9205246,2.5114079,0.34149075,1.0672534,-0.018676054,1.0701675,-0.80392236,-0.6748928,-1.2181375,0.59912914,-0.17576474,0.8611396,0.50528467
0.0,0.0,0.8,-0.5235987755982988,0.5235987755982988,0,0.19786158,-0.91021955,2.4617321,0.5232425,0.23320438,-2.676064e-06,0.45637053,-1.1797142,-0.3020924,-1.3069944,0.6853164,-0.20772718,0.8330448,0.3908025
0.0,0.0,0.8,-0.5235987755982988,0.5235987755982988,0,-0.08836913,-0.83164316,2.4386632,0.2837704,0.7688626,-0.4635867,0.5802022,-1.1530356,-0.5671396,-1.1217844,0.6234441,-0.6741697,0.5209591,0.47389054
0.0,0.0,0.8,-0.5235987755982988,0.5235987755982988,0,-0.07403337,-0.8434826,3.0190492,0.18502204,0.30703142,-0.37357852,0.46702844,-1.0457119,-0.7269455,-1.1264042,0.70176417,-0.3225973,0.8295188,0.648938
0.0,0.0,0.8,-0.5235987755982988,0.5235987755982988,0,-0.10532612,-0.7756784,1.769485,0.44585237,0.48266143,0.24887717,0.98532546,-0.7828283,-0.94905734,-1.0364627,0.6689956,-0.4164766,0.92220455,0.19647308
0.0,0.0,0.8,-0.5235987755982988,0.5235987755982988,0,0.32998168,-0.73156583,2.5414448,0.252595,-0.32942027,-0.17040336,0.34652698,-1.2759916,-0.77223957,-1.1143775,0.6001827,-0.25310177,0.70635754,0.41222432
0.0,0.0,0.8,-0.5235987755982988,0.5235987755982988,0,0.0842258,-0.94763935,2.4441247,0.43250299,-0.012757635,-0.16198938,-0.034853574,-0.9709845,-0.704413,-1.1501001,0.5844436,-0.22975682,1.1739465,0.41388768
0.0,0.0,0.8,-0.5235987755982988,0.5235987755982988,0,0.014749968,-0.77226883,2.0352933,0.34046197,0.27548036,-0.72173244,1.1143881,-0.60436827,-0.6772174,-1.2189726,0.71207273,-0.35930294,0.8394726,0.38710904
0.0,0.0,0.8,-0.5235987755982988,0.5235987755982988,0,0.30005217,-0.7879397,1.7499871,0.39962095,1.2951025,-0.4791792,0.7830875,-0.7710041,-0.47004965,-1.0245562,0.80321664,0.3232198,0.8704913,0.4581908
0.0,0.0,0.8,-0.5235987755982988,0.5235987755982988,0,-0.034357578,-0.76881385,1.761089,0.23581257,-0.018350916,-0.69347674,0.6546148,-0.8867049,-0.3796836,-1.1630768,0.60758346,-0.28381485,0.8265133,0.378455
0.0,0.0,0.8,-0.5235987755982988,0.5235987755982988,0,-0.16173613,-0.7196317,2.30468,0.2419342,1.3133994,0.10726377,-0.030385064,-1.2934648,-0.57701474,-1.0911132,0.6764022,-0.17472404,0.9230172,0.6580362
0.0,0.0,0.8,-0.5235987755982988,0.5235987755982988,0,-0.14902964,-0.8925256,2.0403655,0.41840842,0.62431014,-0.65328515,0.92930627,-0.515989,-1.0189261,-1.1093748,0.6627193,0.11508028,0.76396596,0.39104828
0.0,0.0,0.8,-0.5235987755982988,0.5235987755982988,0,-0.18869308,-0.8148711,2.65408,0.22744384,-0.36741298,-0.50322807,0.88464224,-0.9544162,-0.41173884,-1.0155747,0.584683,-0.090995185,1.005411,0.0970753
0.0,0.0,0.8,-0.5235987755982988,0.5235987755982988,0,-0.069904834,-0.85504615,2.1543746,0.26346076,0.22006302,-1.0068914,-0.36664203,-0.83797264,-0.9726721,-1.2837541,0.5999117,-0.38550693,0.52706075,0.21436524
0.0,0.0,0.8,-0.5235987755982988,0.5235987755982988,0,-0.029411875,-0.7884272,2.222958,0.21485512,0.52570933,-0.34186625,0.5720438,-1.1053511,-0.74326015,-1.1272281,0.6446334,-0.04433333,0.7582126,0.34907705
0.0,0.0,0.8,-0.5235987755982988,0.5235987755982988,0,0.14048778,-0.7090113,2.3420815,0.47186354,0.1977277,-0.39636114,1.4011166,-0.70292664,-0.39318317,-1.074312,0.80811185,-0.49316135,1.0632637,0.4206864
0.0,0.0,0.8,-0.5235987755982988,0.5235987755982988,0,-0.11241273,-0.78806555,2.705882,0.29567644,0.096683525,-0.17633475,0.9651501,-0.6348457,-0.7955569,-1.0832999,0.5977085,-0.34684703,0.6672877,0.42471647
0.0,0.0,0.8,-0.5235987755982988,0.5235987755982988,0,-0.0115618305,-0.7994334,2.1037998,0.36401844,2.103586,-0.57143563,0.3411736,-1.0036426,-0.61065876,-1.1728169,0.56228,-0.20116673,0.85866666,0.36093706
0.0,0.0,0.8,-0.5235987755982988,0.5235987755982988,0,-0.0105880285,-0.78309184,2.025259,0.37703204,0.26459056,-0.11197532,0.009374795,-0.9441355,-0.7021169,-1.1619762,0.63626325,-0.2579569,0.82208395,0.3911036
0.0,0.0,0.8,-0.5235987755982988,0.5235987755982988,0,0.06779007,-0.8794463,2.0328922,0.452669,0.97479826,0.18146938,0.26958105,-0.8968614,-0.56625766,-1.1967832,0.7702065,0.3709003,0.9936007,0.49561828
0.0,0.0,0.8,-0.5235987755982988,0.5235987755982988,0,-0.12959869,-0.806058,2.5535846,0.39464724,0.63636774,-0.12432835,1.1889806,-0.8237742,-0.99655527,-1.1751959,0.68953943,-0.34932575,0.9893234,0.44044977
0.0,0.0,0.8,-0.5235987755982988,0.5235987755982988,0,0.11264045,-0.786906,2.3066502,0.45418838,1.1672403,0.120144404,0.72129077,-1.1966586,-0.7170784,-1.1021883,0.55462384,-0.23345686,0.94996315,0.42714208
0.0,0.0,0.8,-0.5235987755982988,0.5235987755982988,0,0.31337622,-0.7330332,2.2932858,0.39836627,-1.0694708,-0.5292115,0.106193446,-1.2394027,-0.48529354,-1.1217273,0.611232,-0.53392,0.91960806,0.41957554
0.0,0.0,0.8,-0.5235987755982988,0.5235987755982988,0,0.08887451,-0.8187928,2.3214736,0.38737115,0.87342334,-0.85048306,0.20387886,-0.87079,-0.9250836,-1.1052912,0.7419964,0.035068076,1.0939379,0.5902025
0.0,0.0,0.8,-0.5235987755982988,0.5235987755982988,0,0.33805683,-0.7913192,2.4139993,0.20164578,-0.16378894,-0.16236076,0.6930165,-0.9364979,-0.61599386,-1.1983376,0.7298523,-0.03498567,1.1016296,0.61543596
0.0,0.0,0.8,-0.5235987755982988,0.5235987755982988,0,0.102158464,-0.8291188,2.0945754,0.4580659,0.8377491,-0.42312074,0.9644842,-1.0122293,-0.9901057,-1.1640654,0.71978086,-0.0038682593,0.78809065,0.4491848
0.0,0.0,0.8,-0.5235987755982988,0.5235987755982988,0,0.11206163,-0.8216687,1.9043003,0.4121958,0.6555967,-0.0882555,0.65484357,-1.1037903,-0.49462873,-1.0281985,0.49435556,-0.37676534,0.8637027,0.5499894
0.0,0.0,0.8,-0.5235987755982988,0.5235987755982988,0,-0.027314696,-0.9266721,2.038561,0.48936304,0.23993212,-1.101757,0.792364,-0.9754707,-0.5170749,-1.1141194,0.6446926,0.05808902,0.8083564,0.4759697
0.0,0.0,0.8,-0.5235987755982988,0.5235987755982988,0,0.38113192,-0.7997791,2.3481061,0.27709764,0.4176963,0.010875719,1.2411122,-1.1587063,-0.68672925,-1.3274984,0.63996977,-0.19444965,0.87333876,0.34191075
0.0,0.0,0.8,-0.5235987755982988,0.5235987755982988,0,0.098677315,-0.799618,2.0643983,0.40929168,0.5848726,-0.18206458,0.6903144,-0.96766233,-0.63532007,-1.165248,0.775225,-0.05604021,0.6909041,0.35496277
0.0,0.0,0.8,-0.5235987755982988,0.5235987755982988,0,-0.006131229,-0.8934124,2.2025003,0.46955034,1.276583,0.3335204,1.6532053,-1.0832661,-0.36465883,-1.131036,0.6290896,-0.2568007,0.8660853,0.39928842
0.0,0.0,0.8,-0.5235987755982988,0.5235987755982988,0,0.11279757,-0.8241322,2.4551327,0.32263985,0.3640824,-0.5480945,0.7974359,-1.1414781,-0.51760256,-1.1798398,0.5686705,-0.25688452,0.879229,0.3497336
0.0,0.0,0.8,-0.5235987755982988,0.5235987755982988,0,-0.12820494,-0.7585184,2.5739827,0.35865918,1.1742394,-0.74092674,0.9015314,-0.89893717,-0.7359861,-1.1745577,0.7182201,-0.36895543,0.7477498,0.35653457
0.0,0.0,0.8,-0.5235987755982988,0.5235987755982988,0,0.16689193,-0.8010659,2.0801647,0.4665388,0.29895413,0.22876127,0.7669127,-1.1234834,-0.9456255,-1.3071297,0.55499864,-0.41940814,0.89913905,0.21758482
0.0,0.0,0.8,-0.5235987755982988,0.5235987755982988,0,-0.004236548,-0.89363533,2.38086,0.35409304,0.6315493,-0.32703367,0.3215048,-1.3204374,-0.5741734,-1.065996,0.76334965,0.022065874,0.5903084,0.43555376
0.0,0.0,0.8,-0.5235987755982988,0.5235987755982988,0,-0.26762682,-0.87056106,2.5984695,0.41108355,0.999049,-0.41482314,0.9113064,-0.87846524,-1.2889062,-1.1503778,0.66159236,-0.40646222,0.7003872,0.27960932
0.0,0.0,0.8,-0.5235987755982988,0.5235987755982988,0,-0.023874577,-0.77971524,2.4745514,0.43237025,-0.069007725,0.053638764,0.8590572,-1.1133503,-0.79167515,-1.0810565,0.5655602,-0.35685393,0.83751434,0.45707694
0.0,0.0,0.8,-0.5235987755982988,0.5235987755982988,0,0.031042477,-0.8490481,2.213696,0.4128876,0.55887645,-0.51763415,1.0087702,-1.1148612,-0.35862896,-1.1930178,0.68593603,-0.029809767,0.9070348,0.026805101
0.0,0.0,0.8,-0.5235987755982988,0.5235987755982988,0,-0.022031952,-0.7716664,2.5058916,0.34231228,1.8226995,-0.3550149,1.1933724,-0.9846739,-0.8563639,-1.4322057,0.7546389,-0.371058,0.6481289,0.5405246
0.0,0.0,0.8,-0.5235987755982988,0.5235987755982988,0,0.034648605,-0.81327945,2.2603552,0.34966043,1.3258959,0.012718899,0.47524214,-0.87104416,-0.41721755,-1.2511353,0.6516525,-0.7048067,0.9265503,0.6634345
0.0,0.0,0.8,-0.5235987755982988,0.5235987755982988,0,-0.02779323,-0.8318516,2.287943,0.33288646,-0.44721174,-0.51295567,0.30363575,-1.0244676,-0.7232339,-1.1164426,0.65440595,-0.05842732,0.84487027,0.594529
0.0,0.0,0.8,-0.5235987755982988,0.5235987755982988,0,0.06522907,-0.81565917,2.3751276,0.36258197,0.6767371,-0.1467712,0.9159608,-1.1763384,-0.741663,-0.9438347,0.8158822,-0.65185,0.6305223,0.51907605
0.0,0.0,0.8,-0.5235987755982988,0.5235987755982988,0,-0.13438614,-0.87157696,2.420457,0.4853989,0.7004889,-0.74985707,1.138069,-0.92514277,-0.53650683,-0.98589873,0.6578993,-0.62890106,1.0243459,0.5352662
0.0,0.0,0.8,-0.5235987755982988,0.5235987755982988,0,0.11270191,-0.8701675,2.2043755,0.30743238,-0.22330792,-0.7676738,0.08150599,-1.1903532,-0.9679993,-1.2122645,0.73606706,-0.22017035,0.6146912,0.3998698
0.0,0.0,0.8,-0.5235987755982988,0.5235987755982988,0,0.17161703,-0.86442864,2.1948073,0.48369458,0.44484168,-0.21711478,0.6953423,-1.0310546,-0.55038357,-1.1356744,0.8133797,-0.4347853,0.77295864,0.30881673
0.0,0.0,0.8,-0.5235987755982988,0.5235987755982988,0,-0.066004425,-0.9003775,2.2786596,0.4422508,-0.1775099,-0.6669033,0.04097222,-1.0499165,-0.9434507,-1.1827834,0.5739668,-0.32218972,0.5931957,0.5675187
0.0,0.0,0.8,-0.5235987755982988,0.5235987755982988,0,-0.12066261,-0.85742724,1.9550536,0.46199724,0.7549662,-1.0593343,0.27710646,-1.1808167,-0.5416129,-1.2499031,0.66167396,-0.12225556,0.9036331,0.29634514
0.0,0.0,0.8,-0.5235987755982988,0.5235987755982988,0,0.099372976,-0.813925,2.1008508,0.35319403,1.0920427,0.11724787,0.9964486,-1.38823,-0.6565775,-1.0462905,0.6771089,-0.5036483,0.46059373,0.43926284
0.0,0.0,0.8,-0.5235987755982988,0.5235987755982988,0,0.06080474,-0.76522017,2.283822,0.34536254,1.4176023,0.12541156,0.2621761,-0.7548871,-1.0180194,-1.3230169,0.6863116,-0.5006298,0.93812925,0.32317418
0.0,0.0,0.8,-0.5235987755982988,0.5235987755982988,0,-0.05957047,-0.8851154,2.2727349,0.45697337,-0.023449123,-0.26540777,0.88969713,-0.9711732,-0.65298116,-1.2548227,0.60970813,-0.31293646,0.9533448,0.2522466
0.0,0.0,0.8,-0.5235987755982988,0.5235987755982988,0,0.05066549,-0.81790924,2.1612704,0.370997,0.8698437,-0.83949953,0.8752777,-1.0854847,-0.45721012,-1.0842152,0.671866,-0.35560519,0.7692696,0.34846127
0.0,0.0,0.8,-0.5235987755982988,0.5235987755982988,0,-0.14357775,-0.8510239,2.6505005,0.36112472,-0.10993384,-0.6042749,1.1841341,-1.1347558,-0.6294772,-1.0793579,0.643348,-0.26166734,0.90431356,0.54995817
0.0,0.0,0.8,-0.5235987755982988,0.5235987755982988,0,-0.10394246,-0.9576908,2.2198176,0.39250302,1.150315,-0.102147326,1.2948259,-0.9116524,-0.66820127,-1.0850939,0.567552,-0.3234796,0.6922608,0.5113819
0.0,0.0,0.8,-0.5235987755982988,0.5235987755982988,0,0.040622275,-0.8665641,2.3891683,0.4238985,0.4688924,0.015736392,0.94106543,-1.2309809,-0.4983405,-1.141239,0.6004004,-0.15934561,0.9792627,0.44733682
0.0,0.0,0.8,-0.5235987755982988,0.5235987755982988,0,0.020958144,-0.77549136,2.50163,0.3593397,-0.34868926,0.33065793,0.5518618,-1.3469473,-0.51754355,-1.173979,0.7563247,-0.0062192157,0.8136999,0.2385655
0.0,0.0,0.8,-0.5235987755982988,0.5235987755982988,0,0.17171642,-0.8350018,1.8175054,0.22313188,1.4767334,-0.436806,0.7340255,-1.0234102,-0.7575033,-1.2026294,0.79354924,-0.52976996,0.6840395,0.17239259
0.0,0.0,0.8,-0.5235987755982988,0.5235987755982988,0,0.11971884,-0.77547807,2.8336341,0.35094437,-0.23632377,-0.47482535,0.4667008,-0.9187249,-0.046136264,-1.0607677,0.5809787,-0.5150475,0.9356588,0.46749118
0.0,0.0,0.8,-0.5235987755982988,0.5235987755982988,0,-0.36293718,-0.8810026,1.7234712,0.43266302,0.22021925,-0.8571666,0.48176375,-1.2028179,-0.4504645,-1.3814173,0.7104699,-0.4033652,0.65970284,0.23970102
0.0,0.0,0.8,-0.5235987755982988,0.5235987755982988,0,0.047930304,-0.8094189,2.264765,0.30044395,2.0822644,-0.42751712,1.4890232,-0.90097564,-0.57934284,-1.1596688,0.6614254,-0.7060387,1.0110289,0.43695197
0.0,0.0,0.8,-0.5235987755982988,0.5235987755982988,0,0.0477197,-0.81434625,1.8348732,0.24030393,0.42445022,-0.19591574,0.48713756,-1.0342354,-0.50996673,-1.3042634,0.6658821,-0.16026042,0.8166264,0.42327982
0.0,0.0,0.8,-0.5235987755982988,0.5235987755982988,0,0.3782884,-0.7461514,2.8280032,0.261984,2.5719094,-0.8434734,1.4860265,-0.9181846,-0.8582632,-1.184044,0.7434892,-0.41796878,0.7770855,0.42612964
0.0,0.0,0.8,-0.5235987755982988,0.5235987755982988,0,0.115148515,-0.76678586,2.8994112,0.35080293,0.13865887,-0.33119982,0.43697846,-1.1561662,-0.29816177,-0.9002804,0.7641194,-0.4582591,0.91251785,0.27893305
0.0,0.0,0.8,-0.5235987755982988,0.5235987755982988,0,-0.040816445,-0.811434,2.5083184,0.43393147,-0.27441907,-0.07804197,0.67957973,-0.9344898,-0.5484446,-1.0401658,0.47408053,-0.20472412,0.9151148,0.102573305
0.0,0.0,0.8,-0.5235987755982988,0.5235987755982988,0,0.07844666,-0.7613736,2.2067862,0.3446692,1.1266671,-0.98159593,0.34524336,-1.0924754,-0.34484008,-1.3383311,0.6137292,-0.22414307,0.81154794,0.51422083
0.0,0.0,0.8,-0.5235987755982988,0.5235987755982988,0,-0.037991263,-0.78954756,2.472195,0.49010724,-0.5468863,-0.18219863,0.8526465,-1.0063306,-0.55969125,-1.3642114,0.61293644,-0.1508684,0.826728,0.42403767
0.0,0.0,0.8,-0.5235987755982988,0.5235987755982988,0,-0.28042033,-0.8222944,2.8177006,0.37446275,0.48262966,0.42143893,0.5072411,-1.0062077,-0.82483405,-0.96024173,0.7086472,-0.445085,1.0255823,0.5482799
0.0,0.0,0.8,-0.5235987755982988,0.5235987755982988,0,-0.092366,-0.8546198,2.120295,0.33326104,1.632467,0.11622945,0.43321195,-1.1224874,-0.49197814,-1.4355167,0.48065507,-0.064319886,1.010714,0.5434301
0.0,0.0,0.8,-0.5235987755982988,0.5235987755982988,0,0.3034417,-0.80504197,2.7164407,0.36184946,0.3113606,-0.7317203,0.91048545,-1.085259,-0.9955501,-1.0913974,0.7765249,-0.50894296,0.7108949,0.37605757
0.0,0.0,0.8,-0.5235987755982988,0.5235987755982988,0,-0.0782063,-0.8826568,2.2883394,0.3741061,-0.07933273,-0.2372295,1.8842863,-1.0832555,-0.41164345,-1.0514586,0.64026666,-0.47160462,1.0002339,0.49006405
0.0,0.0,0.8,-0.5235987755982988,0.5235987755982988,0,0.1336239,-0.7745295,2.7881532,0.2381695,1.2921977,-0.22702223,0.27440965,-0.9686556,-0.4154788,-1.0545362,0.67854804,0.03304793,0.8968794,0.33463117
0.0,0.0,0.8,-0.5235987755982988,0.5235987755982988,0,-0.055231243,-0.8297434,2.4918146,0.46612433,0.3083366,-0.25672162,0.4094862,-1.2750628,-0.59007466,-1.1155939,0.5975894,-0.37635514,0.94839996,0.44986168
0.0,0.0,0.8,-0.5235987755982988,0.5235987755982988,0,-0.2482835,-0.7959753,2.76693,0.12696117,0.9320187,-0.7491434,0.5759607,-1.1354353,-0.6913144,-1.3446473,0.54957736,-0.5543575,0.9298826,0.5359998
0.0,0.0,0.8,-0.5235987755982988,0.5235987755982988,0,-0.09845731,-0.7842647,2.9203897,0.34867758,2.3714807,-0.037983496,0.10319132,-1.0182118,-0.57031757,-1.103407,0.62718624,-0.3309203,0.93424207,0.34402752
0.0,0.0,0.8,-0.5235987755982988,0.5235987755982988,0,0.33028573,-0.8776376,2.4965224,0.31919497,-0.22061901,-0.15036665,0.7841533,-1.2719103,-1.2051061,-1.1001284,0.6706139,-0.5910059,0.9695124,0.38058573
0.0,0.0,0.8,-0.5235987755982988,0.5235987755982988,0,0.14914909,-0.8315206,1.924644,0.34601042,0.7139407,0.03244161,0.6304694,-1.0289755,-0.5261833,-1.1441226,0.7195312,-0.3989147,0.83610296,0.6647759
0.0,0.0,0.8,-0.5235987755982988,0.5235987755982988,0,0.07676948,-0.7274509,2.601193,0.40922382,-0.58403397,-0.6592541,-0.03340994,-0.8823379,-0.37276697,-1.4467341,0.5741995,-0.11879461,0.96202844,0.32454687
0.0,0.0,0.8,-0.5235987755982988,0.5235987755982988,0,0.1584421,-0.788142,2.198472,0.42102572,0.39722162,-0.50467175,1.154323,-1.2336262,-0.6930005,-1.1040226,0.62987274,0.035286486,1.0691487,0.40906814
0.0,0.0,0.8,-0.5235987755982988,0.5235987755982988,0,-0.103053145,-0.8275703,2.549528,0.4057876,0.12736636,-0.5280384,0.74943334,-1.0545682,-1.138782,-1.1000805,0.67196023,-0.30151597,0.5199561,0.68971246
0.0,0.0,0.8,-0.5235987755982988,0.5235987755982988,0,-0.11664792,-0.7678357,2.119879,0.44862616,0.0035045862,-0.7973099,0.68877876,-1.1864095,-0.6111906,-1.2828121,0.6509959,-0.21888378,0.8020633,0.4352977
0.0,0.0,0.8,-0.5235987755982988,0.5235987755982988,0,0.12600881,-0.73773557,2.7492201,0.34466586,0.7869983,-0.82621604,-0.544593,-1.2885854,-0.8239991,-1.1258832,0.71423876,-0.12881736,0.6281113,0.34936637
0.0,0.0,0.8,-0.5235987755982988,0.5235987755982988,0,-0.0420381,-0.81393987,2.9916818,0.32402217,0.2619641,-0.56170434,0.89175165,-1.0116636,-0.33100507,-1.0981547,0.6991766,-0.17240499,0.7476096,0.38841933
0.0,0.0,0.8,-0.5235987755982988,0.5235987755982988,0,-0.0946858,-0.86529195,2.4643018,0.4656376,0.9988484,-0.85978633,1.0989475,-1.084366,-0.811854,-1.1371359,0.64486146,-0.39623523,0.97580814,0.51969206
0.0,0.0,0.8,-0.5235987755982988,0.5235987755982988,0,-0.07673056,-0.7528668,2.510695,0.5192106,0.4829579,-0.20683387,1.1647466,-0.9336908,-0.7849313,-1.1072991,0.7759856,-0.13266888,0.8705157,0.61793655
0.0,0.0,0.8,-0.5235987755982988,0.5235987755982988,0,0.18591383,-0.8191232,2.2643366,0.2828051,0.53529376,-0.6305143,0.80243427,-1.2640132,-0.63890475,-0.9995794,0.7313749,-0.41190058,1.0069374,0.39412698
0.0,0.0,0.8,-0.5235987755982988,0.5235987755982988,0,0.41103992,-0.7700106,2.279123,0.46446037,-0.10465739,-0.6296888,1.1781684,-0.9999812,-0.36992475,-1.2622296,0.5518668,0.31485343,0.7571415,0.38214868
0.0,0.0,0.8,-0.5235987755982988,0.5235987755982988,0,0.2975938,-0.75914705,2.3065197,0.45982957,-0.2813125,-0.51894003,0.719266,-0.8845737,-0.8319307,-1.1914165,0.6853108,-0.15491042,0.64501995,0.21633428
0.0,0.0,0.8,-0.5235987755982988,0.5235987755982988,0,0.119259484,-0.7380305,2.6411908,0.41791102,0.8214689,-0.81591266,1.1730331,-1.2154181,-0.5070002,-1.13097,0.70253116,-0.55795366,0.8488694,0.48993295
0.0,0.0,0.8,-0.5235987755982988,0.5235987755982988,0,0.011771783,-0.80029833,2.4686782,0.48029962,-0.010024271,-0.86600953,0.7445678,-1.4363534,-0.6606205,-1.0900681,0.64876133,-0.35162047,0.87302107,0.41426292
0.0,0.0,0.8,-0.5235987755982988,0.5235987755982988,0,0.14816214,-0.87598926,2.4562078,0.33580643,0.03648588,-0.117684945,0.5835937,-1.3120046,-0.4257472,-1.185767,0.64359504,-0.49642766,0.8605467,0.47024438
0.0,0.0,0.8,-0.5235987755982988,0.5235987755982988,0,0.22226377,-0.8266599,2.6831183,0.27599013,-0.01025763,-0.3083989,-0.26112404,-1.2329136,-0.45153522,-1.367403,0.56404,-0.44564494,0.93195564,0.40909377
0.0,0.0,0.8,-0.5235987755982988,0.5235987755982988,0,0.1500701,-0.8585897,2.9221222,0.2803161,0.41330975,-0.17710704,1.2763233,-0.79076487,-0.17192732,-1.1896178,0.7385813,-0.5525812,1.0047868,0.58377
0.0,0.0,0.8,-0.5235987755982988,0.5235987755982988,0,0.31895396,-0.8556265,2.0024893,0.32127845,-1.0247756,-0.05446,0.15033707,-0.9538928,-0.62394494,-1.0856625,0.6377276,-0.44032794,1.0219747,0.10053049
0.0,0.0,0.8,-0.5235987755982988,0.5235987755982988,0,-0.19918956,-0.67201984,2.5852444,0.37488782,0.5161441,-0.099831454,0.59603894,-1.3171291,-0.73993653,-1.2002898,0.78281796,-0.2991682,0.7555324,0.4273105
0.0,0.0,0.8,-0.5235987755982988,0.5235987755982988,0,0.3378744,-0.76051855,2.6775153,0.33449742,1.2498039,-0.059749663,0.9338008,-0.862523,-0.51149374,-1.130093,0.53952813,0.07686442,0.76775587,0.4751553
0.0,0.0,0.8,-0.5235987755982988,0.5235987755982988,0,-0.06525966,-0.866167,2.7575636,0.28523168,-0.14964134,-0.6737252,0.30620047,-1.0702621,-0.61457956,-1.1830062,0.58014756,-0.08922831,0.9099168,0.6064319
0.0,0.0,0.8,-0.5235987755982988,0.5235987755982988,0,0.3703,-0.89978427,2.1904683,0.24523333,0.39923468,-0.07667033,1.5980515,-1.001289,-0.7473888,-1.3408271,0.6670952,-0.13077486,0.90264654,0.5093086
0.0,0.0,0.8,-0.5235987755982988,0.5235987755982988,0,0.42901272,-0.80946505,1.9508536,0.32664707,-0.18473674,-0.2571979,1.4309156,-0.988386,-0.45894033,-1.1678053,0.71411526,-0.95161015,0.61467445,0.44454795
0.0,0.0,0.8,-0.5235987755982988,0.5235987755982988,0,0.16621199,-0.80528563,1.9164324,0.35317847,1.1947494,-0.54044664,0.47102293,-1.2939037,-0.70281756,-1.2850907,0.7257989,-0.0042019105,0.7332994,0.4938043
0.0,0.0,0.8,-0.5235987755982988,0.5235987755982988,0,0.26398453,-0.8182147,3.0498292,0.35116875,-0.19712009,-1.0156851,0.9567984,-1.0802219,-0.6104885,-1.0888753,0.71129483,-0.44224066,1.0093843,0.32403684
0.0,0.0,0.8,-0.5235987755982988,0.5235987755982988,0,0.18815179,-0.8381075,2.3309522,0.38920692,0.42970207,-0.07961669,0.76499933,-1.1382878,-0.60309076,-1.202253,0.5301856,-0.45249596,0.78997076,0.37185627
0.0,0.0,0.8,-0.5235987755982988,0.5235987755982988,0,0.19786134,-0.76525694,2.8851614,0.40908974,0.16950488,-0.2635604,-0.07261655,-1.2494385,-0.39100677,-1.3162079,0.62650967,-0.13869406,0.71482563,0.448877
0.0,0.0,0.8,-0.5235987755982988,0.5235987755982988,0,0.15023935,-0.7674944,2.5192072,0.46496594,0.26998073,-0.6080882,1.0284712,-1.2914149,-0.6704576,-1.1366019,0.7652688,-0.15927154,0.91119313,0.21693146
0.0,0.0,0.8,-0.5235987755982988,0.5235987755982988,0,0.40219304,-0.7902195,2.2678347,0.47789416,-0.5055265,-0.49308154,1.2817456,-1.060727,-0.5066304,-1.3627756,0.6952146,-0.41797456,0.5060304,0.48927563
0.0,0.0,0.8,-0.5235987755982988,0.5235987755982988,0,0.035613842,-0.7443354,2.3405356,0.32732114,0.73882544,0.005851479,1.0991973,-1.5822994,-0.8119903,-1.0781027,0.6333422,-0.096594654,1.0224236,0.44287732
0.0,0.0,0.8,-0.5235987755982988,0.5235987755982988,0,0.21377295,-0.8430348,2.4636066,0.25692487,0.88401634,0.41399747,0.7700296,-0.84237516,-0.22539735,-1.1438086,0.60389674,-0.3328758,0.909014,0.2485467
0.0,0.0,0.8,-0.5235987755982988,0.5235987755982988,0,0.3264667,-0.7720921,2.4756606,0.4234492,0.26684663,-0.6849808,0.77469575,-1.048387,-0.42868766,-1.0613166,0.73850906,-0.41366446,0.6955467,0.33208883
0.0,0.0,0.8,-0.5235987755982988,0.5235987755982988,0,0.049316227,-0.8972897,2.7523546,0.3219651,0.100176685,-0.47360075,0.06926298,-0.8992754,-0.43055734,-0.85019135,0.52326316,-0.54748154,0.76401997,0.32946065
0.0,0.0,0.8,-0.5235987755982988,0.5235987755982988,0,-0.28669453,-0.77123994,2.7174795,0.31174052,0.4216197,-0.5819784,0.61195195,-0.8917822,-0.6206978,-1.0999004,0.675262,-0.52034676,0.8931443,0.25713196
0.0,0.0,0.8,-0.5235987755982988,0.5235987755982988,0,0.3158703,-0.80463415,2.2425497,0.36802575,0.5671622,-0.7369234,0.17857327,-1.0168205,-0.77379435,-1.2761033,0.7347629,-0.6488078,0.95496076,0.48232222
0.0,0.0,0.8,-0.5235987755982988,0.5235987755982988,0,-0.12396235,-0.8306245,2.475007,0.295665,-0.07546707,-0.65925705,0.5587735,-1.0724066,-1.0311626,-1.2377702,0.8391494,-0.14052479,0.7991872,0.42739505
0.0,0.0,0.8,-0.5235987755982988,0.5235987755982988,0,-0.0143174045,-0.7890965,2.6895874,0.38784721,1.4578698,-0.59381443,0.3307727,-1.1540483,-0.68246573,-0.89541423,0.68673086,-0.020905998,0.663151,0.3223398
0.0,0.0,0.8,-0.5235987755982988,0.5235987755982988,0,0.33981282,-0.77152634,2.293929,0.3608712,0.3606618,-0.061544947,0.4936715,-1.285419,-0.5045766,-1.1850103,0.7145323,-0.36987266,0.8331283,0.36905357
0.0,0.0,0.8,-0.5235987755982988,0.5235987755982988,0,-0.10175713,-0.80139613,2.7157156,0.4059166,0.18494792,-0.47464305,1.197494,-1.0822815,-0.6508148,-1.4370025,0.67187536,-0.16989492,0.8128685,0.48310235
0.0,0.0,0.8,-0.5235987755982988,0.5235987755982988,0,0.08029815,-0.88772535,3.0016804,0.28010845,0.3445497,-0.89258695,0.5107394,-0.92788506,-0.8655024,-1.1061513,0.54286385,-0.40002087,0.7622829,0.5480064
0.0,0.0,0.8,-0.5235987755982988,0.5235987755982988,0,-0.027114742,-0.8655459,2.227995,0.5545713,1.0773199,-0.04809651,0.7373568,-1.3824193,-0.73275393,-0.96779865,0.6102997,-0.09490987,0.63396066,0.46712562
0.0,0.0,0.8,-0.5235987755982988,0.5235987755982988,0,0.03903984,-0.9023297,2.032987,0.4511985,-0.15003146,-0.38404056,0.6531368,-1.0779656,-0.3951681,-1.2937651,0.650624,0.23795635,0.57558024,0.6990061
0.0,0.0,0.8,-0.5235987755982988,0.5235987755982988,0,0.2290956,-0.90035444,2.0873883,0.43165368,0.13194473,-0.3227466,1.4386529,-1.0704348,-0.6763476,-1.2355405,0.6084308,-0.4921324,0.9049739,0.5453062
0.0,0.0,0.8,-0.5235987755982988,0.5235987755982988,0,0.3944215,-0.86159664,2.3400958,0.4173047,-0.16254506,-0.96361464,1.2584956,-0.7323675,-0.38113153,-1.0910714,0.6710428,-0.3875277,0.81622696,0.4955961
0.0,0.0,0.8,-0.5235987755982988,0.5235987755982988,0,0.10644007,-0.88866633,2.6587906,0.34388414,0.6387845,-0.06099685,1.5656365,-1.4271623,-0.37148184,-1.0492762,0.6256641,-0.17980555,0.944265,0.265647
0.0,0.0,0.8,-0.5235987755982988,0.5235987755982988,0,-0.044723973,-0.89931947,2.552238,0.49873993,0.9376136,-0.18751557,0.86363184,-1.142438,-0.37276042,-1.2048525,0.6118185,-0.42167738,0.9979922,0.37205207
0.0,0.0,0.8,-0.5235987755982988,0.5235987755982988,0,-0.13635223,-0.861956,2.2262604,0.35904026,1.2284853,-0.096201696,0.69611484,-1.1747915,-1.0260279,-1.3389795,0.7034196,-0.4593758,0.94937253,0.3519486
0.0,0.0,0.8,-0.5235987755982988,0.5235987755982988,0,0.047082424,-0.91182595,2.163487,0.5244341,-0.44112718,0.081842564,0.021484522,-1.2325116,-0.20547517,-1.3986812,0.630142,-0.5495297,0.82953304,0.2592855
0.0,0.0,0.8,-0.5235987755982988,0.5235987755982988,0,0.015329913,-0.7148555,2.0340812,0.25658387,0.250333,-0.64850664,0.11327237,-1.2398459,-0.8094016,-1.2545877,0.7258088,-0.29264498,0.8325614,0.4141555
0.0,0.0,0.8,-0.5235987755982988,0.5235987755982988,0,-0.32673255,-0.9849431,2.5984957,0.24963146,0.1642117,-0.29728192,1.3162037,-0.7860373,-0.56736636,-1.1765977,0.7488714,-0.4752507,0.99795514,0.4472834
0.0,0.0,0.8,-0.5235987755982988,0.5235987755982988,0,0.17994949,-0.8747391,2.636186,0.3855082,0.85376817,-0.3704145,0.9163136,-1.3083473,-0.6023825,-1.2628924,0.72338104,-0.28788713,0.97522074,0.3257588
0.0,0.0,0.8,-0.5235987755982988,0.5235987755982988,0,0.040724583,-0.76629657,2.4590175,0.5500463,0.6325491,-0.67357475,-0.007056278,-1.1498961,-0.63192886,-1.2803196,0.7440668,-0.24037363,0.9414734,0.3851066
0.0,0.0,0.8,-0.5235987755982988,0.5235987755982988,0,0.11771009,-0.88040316,2.5051692,0.49524313,0.17496763,-0.57087743,0.7357826,-1.1057066,-0.32864735,-1.2454973,0.580476,-0.1377226,1.0480065,0.41741893
0.0,0.0,0.8,-0.5235987755982988,0.5235987755982988,0,-0.37442598,-0.84072053,2.2343206,0.51742303,-0.20550232,-0.12770265,1.0909624,-1.1856978,-0.70719856,-1.1595343,0.60897815,-0.6373803,1.1627278,0.34247085
0.0,0.0,0.8,-0.5235987755982988,0.5235987755982988,0,0.110239826,-0.843767,2.2573428,0.4321429,-0.044706523,-0.36136314,0.272479,-0.95334876,-0.75674564,-1.3320097,0.6395947,-0.014217962,0.8233869,0.31754982
0.0,0.0,0.8,-0.5235987755982988,0.5235987755982988,0,0.031351402,-0.83943546,2.4222703,0.4514982,0.38824907,-0.38168916,0.8870317,-1.2745538,-0.91075766,-1.4591811,0.5105978,-0.3102096,1.0069103,0.5371232
0.0,0.0,0.8,-0.5235987755982988,0.5235987755982988,0,-0.10596469,-0.9274652,2.7258766,0.41804308,-0.37980756,-0.4140586,0.22971027,-1.1025977,-0.40132275,-1.230052,0.6996509,-0.23703079,0.9657317,0.2896396
0.0,0.0,0.8,-0.5235987755982988,0.5235987755982988,0,-0.19660208,-0.7404134,2.5581756,0.21850166,2.6583853,-0.1956665,0.6583357,-1.1408038,-0.6621682,-1.1957153,0.73655605,-0.07092927,0.90106434,0.4701931
0.0,0.0,0.8,-0.5235987755982988,0.5235987755982988,0,-0.32075158,-0.77942824,2.1412032,0.34889126,0.54368156,-0.27966356,0.06282373,-0.8529123,-0.6513786,-1.4146503,0.7059026,-0.033852555,0.7976213,0.1829581
0.0,0.0,0.8,-0.5235987755982988,0.5235987755982988,0,-0.0373865,-0.90085924,2.4239938,0.3806375,0.3059014,-0.4945531,1.2839653,-1.3287466,-0.4143863,-1.0465711,0.47496963,0.21964887,1.0027246,0.27652198
0.0,0.0,0.8,-0.5235987755982988,0.5235987755982988,0,-0.4349514,-0.70572037,1.9831988,0.5248349,1.609301,0.13093574,0.6795328,-1.0249758,-0.7829219,-1.0474453,0.6720404,-0.26221466,0.97274023,0.5280687
0.0,0.0,0.8,-0.5235987755982988,0.5235987755982988,0,0.17626478,-0.86416394,2.6880739,0.45517102,-0.47188944,0.37283927,0.593557,-1.0258033,-0.35391647,-1.085007,0.49990797,-0.08293849,0.8224642,0.5603922
0.0,0.0,0.8,-0.5235987755982988,0.5235987755982988,0,-0.27316037,-0.92017674,2.546819,0.23866582,1.2872534,-0.29418376,0.6365753,-0.9089413,-0.38192144,-1.1180009,0.72576743,-0.15641019,0.72340715,0.2936327
0.0,0.0,0.8,-0.5235987755982988,0.5235987755982988,0,-0.17854817,-0.86790645,2.0711472,0.3864035,-0.35521242,-0.42832604,1.097396,-1.2061706,-0.32207552,-0.9030913,0.65723723,0.046716902,0.8817435,0.71280736
0.0,0.0,0.8,-0.5235987755982988,0.5235987755982988,0,-0.142202,-0.8229096,2.8621068,0.40585327,1.4264628,0.29694352,1.2904731,-0.9187058,-0.98756236,-1.2729769,0.576281,-0.40627342,0.81384027,0.516878
0.0,0.0,0.8,-0.5235987755982988,0.5235987755982988,0,0.2582835,-0.8479842,1.8494618,0.38963285,0.98161554,-0.28824675,1.0811527,-0.9879924,-0.78976166,-1.1244631,0.77088696,-0.21708861,0.9327789,0.32287496
0.0,0.0,0.8,-0.5235987755982988,0.5235987755982988,0,-0.10031003,-0.87479264,2.041122,0.2947576,0.055398807,-0.26657823,-0.42709628,-0.6914818,-1.0933185,-1.1728296,0.82655364,-0.6736671,0.7123039,0.5955624
0.0,0.0,0.8,-0.5235987755982988,0.5235987755982988,0,0.017025383,-0.83129543,2.639748,0.2802884,0.29728854,-0.38728762,0.6919725,-1.2495863,-0.84145135,-1.1838123,0.5619242,-0.040051986,1.1001803,0.37388903
0.0,0.0,0.8,-0.5235987755982988,0.5235987755982988,0,-0.105360515,-0.8513658,2.5442426,0.46007413,-0.22121674,-0.3922023,0.3579153,-1.2929974,-0.92282414,-1.1315882,0.69936717,0.057845518,1.0736575,0.36859906
0.0,0.0,0.8,-0.5235987755982988,0.5235987755982988,0,-0.31163538,-0.7645919,2.498342,0.37843287,2.2786891,-0.698357,0.6829467,-1.1154026,-0.6143142,-1.1018673,0.6713816,-0.17537512,0.8783253,0.35836372
0.0,0.0,0.8,-0.5235987755982988,0.5235987755982988,0,-0.008123924,-0.835606,2.6120095,0.29906493,0.8415507,0.3287356,1.1211519,-1.019665,-0.81244767,-1.1890945,0.7412184,-0.35517183,0.91828203,0.40724257
0.0,0.0,0.8,-0.5235987755982988,0.5235987755982988,0,0.07498679,-0.6320247,2.258249,0.35729033,0.66370517,-0.8238122,0.43425205,-1.0949105,-0.5938461,-1.0620599,0.5337847,-0.3680271,0.92875546,0.43720046
0.0,0.0,0.8,-0.5235987755982988,0.5235987755982988,0,-0.067801535,-0.8188469,2.4164407,0.4091153,0.7196953,-0.5438036,0.569141,-1.2100434,-0.9874514,-1.4509906,0.5617781,0.05891693,0.88305414,0.43286565
0.0,0.0,0.8,-0.5235987755982988,0.5235987755982988,0,-0.03764561,-0.7557404,2.3920412,0.46229285,0.8960459,0.06852407,0.5551782,-1.2224828,-0.8440602,-1.0742955,0.65380013,0.12849183,1.0201049,0.2610583
0.0,0.0,0.8,-0.5235987755982988,0.5235987755982988,0,0.07206774,-0.79143447,2.3938956,0.460187,1.5793005,-0.3745315,0.10496725,-1.2336391,-0.5052778,-1.004531,0.6354031,-0.5932094,0.83181155,0.4725113
0.0,0.0,0.8,-0.5235987755982988,0.5235987755982988,0,-0.12703261,-0.90474004,2.4693327,0.18688954,-0.00046660987,0.33633658,0.15835643,-0.9878462,-0.79423875,-1.3506438,0.70325124,-0.438019,0.81428546,0.3417283
0.0,0.0,0.8,-0.5235987755982988,0.5235987755982988,0,-0.10637992,-0.85390586,2.5035918,0.42726338,0.602713,0.08270263,0.68119127,-1.1473707,-0.7772357,-1.3841294,0.6502606,0.27126935,1.0271939,0.37029937
0.0,0.0,0.8,-0.5235987755982988,0.5235987755982988,0,-0.16918904,-0.9194734,2.3543556,0.28263456,0.6018555,-0.3754689,1.0393506,-1.0070126,-0.73143864,-1.2623467,0.52907425,-0.13610822,0.9414065,0.17775087
0.0,0.0,0.8,-0.5235987755982988,0.5235987755982988,0,-0.043698087,-0.89107305,2.4839623,0.3691061,0.17435871,-0.34882018,0.6692701,-1.3145332,-0.30927718,-1.1612633,0.66270477,-0.17934644,0.706873,0.24028665
0.0,0.0,0.8,-0.5235987755982988,0.5235987755982988,0,0.073715985,-0.827643,2.206296,0.4601719,0.42060244,-0.34207502,1.108828,-1.3622249,-0.48499572,-1.1064028,0.5570832,-0.023510199,0.9896909,0.33823127
0.0,0.0,0.8,-0.5235987755982988,0.5235987755982988,0,0.07156224,-0.84533536,2.3526812,0.44279733,-0.08551803,-0.15038072,1.1942648,-1.3054405,-0.7108188,-1.2103596,0.63480735,-0.3402214,0.79258317,0.382271
0.0,0.0,0.8,-0.5235987755982988,0.5235987755982988,0,0.0048244507,-0.834986,2.5087738,0.39969543,0.9966784,0.036956865,1.2200384,-1.309471,-0.95041233,-1.1858453,0.6167458,-0.17738664,0.6087429,0.3682645
0.0,0.0,0.8,-0.5235987755982988,0.5235987755982988,0,0.096593134,-0.82223666,2.3126504,0.4750269,0.09594719,-0.31199995,1.3175933,-1.163229,-0.31248665,-1.2278879,0.60185516,0.20780084,1.0920997,0.6823793
0.0,0.0,0.8,-0.5235987755982988,0.5235987755982988,0,0.16513924,-0.7027639,2.5272486,0.4895721,0.62606317,-0.3929821,0.70218354,-1.3540287,-0.69438237,-1.0228301,0.71819013,-0.041497212,1.0447252,0.32417932
0.0,0.0,0.8,-0.5235987755982988,0.5235987755982988,0,0.03209493,-0.8637027,2.1775768,0.37932196,0.01910301,-1.1384691,0.30109227,-1.3958592,-0.5545327,-1.1230395,0.6795029,-0.06871652,0.8202799,0.31306008
0.0,0.0,0.8,-0.5235987755982988,0.5235987755982988,0,-0.026476212,-0.8129958,2.5012567,0.4508914,-0.54290295,-0.44206646,0.34162593,-1.2113913,-0.7279893,-0.976701,0.5797058,-0.54442686,0.70453346,0.3419134
0.0,0.0,0.8,-0.5235987755982988,0.5235987755982988,0,0.00942795,-0.88377273,1.9763535,0.44940725,-0.180494,-0.6784319,1.4322376,-1.37045,-0.62421465,-1.1685623,0.53087,-0.61468494,0.7734116,0.32648617
0.0,0.0,0.8,-0.5235987755982988,0.5235987755982988,0,-0.25843593,-0.7423589,1.7451404,0.35225555,0.8144799,-0.13422188,-0.21468538,-1.2626615,-0.82337207,-1.1824336,0.59230375,-0.14573562,0.8548266,0.510213
0.0,0.0,0.8,-0.5235987755982988,0.5235987755982988,0,0.1991374,-0.9398158,2.4805348,0.29018322,0.1721795,-0.99195117,-0.37503502,-1.1898159,-0.4474553,-1.1923696,0.5805367,-0.3386439,0.93466425,0.5327633
0.0,0.0,0.8,-0.5235987755982988,0.5235987755982988,0,-0.35196793,-0.9236981,2.6257923,0.31217444,-0.3965537,-0.9028674,0.64895976,-1.2432634,-0.5618002,-1.3496293,0.6280126,-0.56538516,0.6262243,0.5638663
0.0,0.0,0.8,-0.5235987755982988,0.5235987755982988,0,0.0946069,-0.7993163,1.9076574,0.24871019,0.79448634,-0.326967,0.8535311,-1.1121807,-0.73593193,-1.1474944,0.6661001,-0.09372242,0.8946085,0.31004128
0.0,0.0,0.8,-0.5235987755982988,0.5235987755982988,0,0.042796437,-0.7692708,2.614649,0.36769268,-0.21743236,0.42916775,1.802555,-0.96467835,-0.36214197,-1.2074319,0.67917424,-0.1538366,0.49427384,0.8244993
0.0,0.0,0.8,-0.5235987755982988,0.5235987755982988,0,0.05820839,-0.83301234,2.4122865,0.32578224,1.7814033,-1.0744933,0.908391,-1.2572209,-0.46590027,-1.0872676,0.56297886,-0.020664932,0.81707984,0.5613798
0.0,0.0,0.8,-0.5235987755982988,0.5235987755982988,0,-0.06510642,-0.8318685,2.4472697,0.4204951,-0.11426545,-0.6778404,1.8171998,-1.1730376,-0.71313184,-1.1451166,0.68595773,-0.017611047,0.8836522,0.4660287
0.0,0.0,0.8,-0.5235987755982988,0.5235987755982988,0,0.27678344,-0.862556,2.2230363,0.44182956,0.31438667,-0.58085644,-0.33615917,-1.1490965,-0.40107808,-0.9659156,0.5850498,-0.21499322,0.76769125,0.28181678
0.0,0.0,0.8,-0.5235987755982988,0.5235987755982988,0,0.043033466,-0.7604523,2.5501268,0.48204345,-0.37402794,0.077135324,0.93406075,-1.2816201,-0.9080594,-1.1796165,0.73516774,-0.37045825,0.81181633,0.3097202
0.0,0.0,0.8,-0.5235987755982988,0.5235987755982988,0,0.029930005,-0.80588967,2.7374024,0.32588038,-0.036951248,0.11145166,0.67974555,-1.280366,-0.7502203,-1.0763739,0.60530543,-0.6318592,1.0054985,0.34886852
0.0,0.0,0.8,-0.5235987755982988,0.5235987755982988,0,0.12629278,-0.9076191,2.4348743,0.37989786,-0.65422034,-0.8560963,1.411188,-0.40509412,-0.37130073,-1.3073215,0.6341545,0.054821715,1.1837729,0.35608298
0.0,0.0,0.8,-0.5235987755982988,0.5235987755982988,0,0.042759847,-0.76175463,2.9383476,0.37267563,0.77969843,-0.42791253,0.19279835,-1.4995954,-0.29117474,-1.1268064,0.64655983,-0.26201135,0.7130406,0.24920808
0.0,0.0,0.8,-0.5235987755982988,0.5235987755982988,0,0.41567424,-0.7910913,2.0913672,0.31848735,1.38306,-0.91796845,0.29152933,-1.2467792,-0.5154518,-1.1242286,0.6987784,-0.42710686,0.7916355,0.50429463
0.0,0.0,0.8,-0.5235987755982988,0.5235987755982988,0,0.16709197,-0.72856575,2.6997879,0.39944577,0.599983,-0.007263375,0.96590865,-1.3984433,-0.6639051,-1.1574858,0.6284329,-0.24775626,0.754535,0.27274618
0.0,0.0,0.8,-0.5235987755982988,0.5235987755982988,0,0.23245269,-0.84828335,1.8683119,0.32373747,0.12714288,-0.5664252,0.77474636,-1.336496,-0.6781274,-0.99742943,0.6642748,-0.42150792,0.8926083,0.5290882
0.0,0.0,0.8,-0.5235987755982988,0.5235987755982988,0,-0.04203997,-0.757835,2.9877365,0.3928315,0.67961496,-0.7182566,-0.015535239,-0.6918433,-0.4265539,-1.0552698,0.6265901,-0.24274085,0.5316622,0.59403956
0.0,0.0,0.8,-0.5235987755982988,0.5235987755982988,0,0.16408353,-0.8167457,2.5969017,0.36229512,0.98546124,-0.2097166,0.48090923,-1.4171236,-0.80859965,-1.2326351,0.65771186,-0.24809475,0.791387,0.5598264
0.0,0.0,0.8,-0.5235987755982988,0.5235987755982988,0,-0.17963605,-0.67882556,2.3439417,0.3618692,0.7202575,-0.07122317,0.66874534,-1.358613,-0.8210864,-1.250012,0.7075991,-0.68837506,0.7446064,0.5201272
0.0,0.0,0.8,-0.5235987755982988,0.5235987755982988,0,0.03539325,-0.71489024,2.7106366,0.44165668,0.236776,-0.6121348,0.5309228,-1.0740873,-0.20306791,-1.1369992,0.6435055,-0.5267583,0.8966669,0.18727103
0.0,0.0,0.8,-0.5235987755982988,0.5235987755982988,0,0.045949902,-0.7574934,2.2568245,0.43800116,1.607499,-0.73046285,-0.023589853,-1.3516603,-0.6163404,-1.0610762,0.6961861,-0.3295274,0.87232006,0.3091062
0.0,0.0,0.8,-0.5235987755982988,0.5235987755982988,0,-0.07990935,-0.7645737,2.2777297,0.28966382,0.2548514,-0.21965602,0.84680545,-1.0256394,-0.3535682,-1.1369911,0.6074981,-0.5645303,1.1101203,0.3690108
0.0,0.0,0.8,-0.5235987755982988,0.5235987755982988,0,0.3056885,-0.84886134,2.4235678,0.38952887,0.37979835,-0.5573036,1.3307183,-1.2018534,-0.6025287,-1.298352,0.68164456,-0.15777393,0.80638176,0.36141276
0.0,0.0,0.8,-0.5235987755982988,0.5235987755982988,0,0.026622318,-0.76806116,2.681029,0.4000093,0.66928005,-1.3204553,1.3152113,-1.2041922,-0.69396293,-1.046017,0.7280885,-0.18543184,0.812168,0.60553336
0.0,0.0,0.8,-0.5235987755982988,0.5235987755982988,0,0.1506625,-0.8867971,2.7819357,0.3823484,1.341278,-0.9630382,0.7833665,-0.9766218,-0.08415199,-1.2963681,0.70617604,-0.13389146,0.91503584,0.32282096
0.0,0.0,0.8,-0.5235987755982988,0.5235987755982988,0,-0.616819,-0.7802136,2.5321903,0.34135112,-1.2179785,-1.1862749,0.10854874,-1.3156234,-0.8143664,-1.1933521,0.6917383,0.029285291,1.0668826,0.28320506
0.0,0.0,0.8,-0.5235987755982988,0.5235987755982988,0,-0.42863944,-0.93002564,2.5804434,0.5073673,0.30745,-0.41793105,0.9613877,-1.1008245,-0.8201701,-1.3154563,0.5873016,-0.52113855,0.99774265,0.49836183
0.0,0.0,0.8,-0.5235987755982988,0.5235987755982988,0,-0.18900579,-0.8657123,2.0939338,0.16433196,0.26278597,-1.041983,0.789812,-0.6714888,-0.42486846,-1.176819,0.6198661,-0.4186793,1.0197855,0.17175196
0.0,0.0,0.8,-0.5235987755982988,0.5235987755982988,0,0.40958938,-0.8283003,1.7228028,0.3790818,-1.3865718,-0.96698767,1.3854209,-0.94031346,-0.57969725,-1.0798031,0.56769896,-0.641651,0.8387745,0.26803914
0.0,0.0,0.8,-0.5235987755982988,0.5235987755982988,0,0.026209105,-0.7348209,1.4487103,0.2957419,0.16115028,-0.39918905,0.53021735,-1.0934278,-0.7586882,-1.1506027,0.6427959,-0.24507633,0.81937164,0.18454923
0.0,0.0,0.8,-0.5235987755982988,0.5235987755982988,0,-0.022587078,-0.7704193,2.333218,0.37440902,1.027241,-0.6415798,-0.22364417,-0.9830387,-0.7156564,-1.0825764,0.7104225,-0.25484112,1.0749164,0.2622064
0.0,0.0,0.8,-0.5235987755982988,0.5235987755982988,0,-0.31559503,-0.79125994,2.2578928,0.30918586,0.403906,-0.7707446,0.3157657,-1.254182,-0.5705405,-1.1018425,0.8534164,-0.29721385,0.8406305,0.31784636
0.0,0.0,0.8,-0.5235987755982988,0.5235987755982988,0,-0.13674162,-0.86811495,2.6916099,0.3660835,1.07062,-0.25476766,1.7615693,-0.93186444,-0.3747874,-1.1394627,0.7909504,0.062256593,0.79338247,0.5926816
0.0,0.0,0.8,-0.5235987755982988,0.5235987755982988,0,0.54750186,-0.847632,2.3566306,0.22943076,-0.4582645,-0.18829042,0.4203095,-0.901341,-0.43774283,-1.204273,0.78742564,-0.27611905,0.7332896,0.5088523
0.0,0.0,0.8,-0.5235987755982988,0.5235987755982988,0,-0.19815364,-0.84482086,2.4671426,0.35364076,-0.08348784,-0.68927926,0.629635,-1.1826004,-0.68148756,-1.0943335,0.62795496,0.0011510594,0.63658166,0.36398506
0.0,0.0,0.8,-0.5235987755982988,0.5235987755982988,0,-0.05107406,-0.8167099,2.295037,0.4392264,0.93491733,-0.36385852,1.174955,-0.57308066,-0.12319754,-1.0131431,0.7083223,-0.27888682,0.945015,0.48246613
0.0,0.0,0.8,-0.5235987755982988,0.5235987755982988,0,-0.05148694,-0.77007633,2.5741496,0.40515298,-0.11227902,-0.08353657,0.36673328,-1.2628992,-0.8276203,-1.2464471,0.66825724,-0.32867533,0.7411472,0.3283057
0.0,0.0,0.8,-0.5235987755982988,0.5235987755982988,0,-0.32425642,-0.81992847,2.856273,0.4315619,0.7143789,-0.29099956,1.5725855,-1.4345278,-0.38246724,-1.0101205,0.63259894,-0.42903322,0.7997667,0.26439786
0.0,0.0,0.8,-0.5235987755982988,0.5235987755982988,0,0.18369287,-0.7819204,2.5700529,0.40327424,-0.42350972,-0.7648317,1.4610835,-1.5596926,-0.29807815,-1.2293215,0.4573779,-0.16306564,0.9560271,0.4491382
0.0,0.0,0.8,-0.5235987755982988,0.5235987755982988,0,0.061848354,-0.7531772,2.3303084,0.5878887,1.280606,-0.54965025,1.4372926,-1.0270119,-0.51667213,-1.2999945,0.67916954,-0.27784863,1.1791934,0.46122324
0.0,0.0,0.8,-0.5235987755982988,0.5235987755982988,0,0.024571648,-0.8686511,2.4106438,0.2108976,0.4084218,-0.99041206,0.15562813,-1.104016,-0.374613,-1.087087,0.6628803,-0.09595997,0.8590113,0.38478285
0.0,0.0,0.8,-0.5235987755982988,0.5235987755982988,0,0.19868636,-0.71533775,2.0737529,0.21605866,-0.8408018,-0.27161857,1.1651522,-1.1852454,-0.61803496,-1.0245237,0.5090356,-0.35691124,0.8136957,0.6178236
0.0,0.0,0.8,-0.5235987755982988,0.5235987755982988,0,-0.015700309,-0.9066515,2.3060527,0.30435818,0.30937198,-0.7023314,1.8328063,-0.47008693,-0.39033285,-1.4431335,0.7040654,-0.6378801,0.70523465,0.5926213
0.0,0.0,0.8,-0.5235987755982988,0.5235987755982988,0,0.053577095,-0.7260471,2.2847388,0.43848592,0.97569937,-0.7340605,0.4616474,-1.2655027,-0.5997272,-1.0298152,0.7032912,0.15516801,0.79658747,0.41769767
0.0,0.0,0.8,-0.5235987755982988,0.5235987755982988,0,0.10701607,-0.8859376,2.4988048,0.49654245,2.235565,-1.0283134,-0.16346802,-0.97235227,-0.68926847,-1.168718,0.5786789,-0.3015223,0.77438873,0.4509489
0.0,0.0,0.8,-0.5235987755982988,0.5235987755982988,0,-0.0007746937,-0.7537779,2.419636,0.3171243,1.2093886,-0.67042977,1.0645849,-0.79371005,-0.45170176,-1.1420131,0.65259683,-0.40019873,1.00876,0.336569
0.0,0.0,0.8,-0.5235987755982988,0.5235987755982988,0,0.11730733,-0.8663454,2.4015496,0.3202204,1.5769708,-0.43986967,0.2652895,-0.95922005,-0.82414234,-1.0188612,0.7298043,-0.4761054,0.9286796,0.4186188
0.0,0.0,0.8,-0.5235987755982988,0.5235987755982988,0,-0.18638912,-0.7995319,2.3519332,0.26677454,0.86880213,-0.75284266,0.5427844,-0.8172275,-0.8529759,-1.1198624,0.706482,-0.48413074,1.0614263,0.2303237
0.0,0.0,0.8,-0.5235987755982988,0.5235987755982988,0,-0.015227308,-0.80422074,2.5694141,0.35764062,0.58004004,-0.42120907,0.8108275,-0.89766395,-0.76805985,-1.137256,0.7313689,-0.111400485,0.6986969,0.45996526
0.0,0.0,0.8,-0.5235987755982988,0.5235987755982988,0,-0.054551367,-0.7937482,2.4878433,0.3520426,0.84964937,-1.0934651,0.68181854,-0.667984,-0.60240287,-1.354295,0.8341927,-0.4257433,0.73588943,0.54323375
0.0,0.0,0.8,-0.5235987755982988,0.5235987755982988,0,0.22176802,-0.8342759,2.1775477,0.35948187,0.8918329,-0.57827914,0.47235742,-1.1265066,-0.7867267,-1.3599418,0.5204587,-0.63568723,0.879181,0.48896515
0.0,0.0,0.8,-0.5235987755982988,0.5235987755982988,0,0.21416721,-0.9465444,2.3871105,0.42817014,0.25700402,-0.5455028,0.99295956,-1.1216139,-0.719624,-1.0267496,0.695923,-0.12866904,0.9552962,0.24587713
0.0,0.0,0.8,-0.5235987755982988,0.5235987755982988,0,0.058081422,-0.73102593,2.0513797,0.3954479,1.0176265,-0.33438808,1.0208565,-0.96828675,-0.6222097,-1.2704842,0.73066044,-0.10333421,0.9983227,0.5087692
0.0,0.0,0.8,-0.5235987755982988,0.5235987755982988,0,-0.38413435,-0.99401325,1.9784875,0.40560997,0.54736227,-0.1958831,1.4563802,-0.8216007,-1.0742072,-1.1055119,0.6982127,-0.07544285,0.89597297,0.23108837
0.0,0.0,0.8,-0.5235987755982988,0.5235987755982988,0,0.05880395,-0.8170686,2.7992303,0.3755086,-0.15773444,-0.71760434,0.42610013,-0.79780406,-0.41298157,-1.3900524,0.6995298,-0.32872844,0.95389014,0.24945244
0.0,0.0,0.8,-0.5235987755982988,0.5235987755982988,0,-0.5496691,-0.87569445,2.5690613,0.36647573,-0.97069734,-0.46885636,-0.031651746,-1.3090495,-0.67257804,-1.2089719,0.51972723,-0.409063,1.032705,0.5049764
0.0,0.0,0.8,-0.5235987755982988,0.5235987755982988,0,-0.2277686,-0.78218323,1.825175,0.3869118,1.5081323,-0.2979917,0.43642476,-0.9330987,-0.5751832,-1.1027514,0.9373948,-0.4065742,0.94178486,0.29475838
0.0,0.0,0.8,-0.5235987755982988,0.5235987755982988,0,0.23516352,-0.93954325,2.463444,0.46946016,0.12047566,-0.8775113,0.0491153,-0.96114624,-0.8644226,-1.1051538,0.77796566,-0.4961861,0.9742849,0.476714
0.0,0.0,0.8,-0.5235987755982988,0.5235987755982988,0,0.18142074,-0.9268754,2.5808601,0.23866442,1.1119123,-0.6505857,0.7436175,-0.86908656,-0.14976524,-1.1400964,0.84514695,-0.5207816,0.76354903,0.63293725
0.0,0.0,0.8,-0.5235987755982988,0.5235987755982988,0,-0.00070662284,-0.7470801,2.2135036,0.32138914,-0.57908666,-0.17058475,1.1113821,-1.0417206,-0.6434564,-1.0207251,0.72017425,-0.4066878,0.866926,0.33406076
0.0,0.0,0.8,-0.5235987755982988,0.5235987755982988,0,-0.16825798,-0.82737166,2.2087812,0.073390484,0.23872861,-0.93070847,0.37241703,-1.2174482,-0.6337863,-1.3429065,1.1063112,-0.4022991,0.7905314,0.3665092
0.0,0.0,0.8,-0.5235987755982988,0.5235987755982988,0,-0.025639355,-0.7370167,1.6731827,0.44191754,0.07622394,0.13851893,0.6108246,-0.9579816,-0.6155402,-1.0067248,0.6455063,-0.4369781,1.0989856,0.54485416
0.0,0.0,0.8,-0.5235987755982988,0.5235987755982988,0,0.020968542,-0.793985,2.3788598,0.45956233,-0.7797387,0.052015353,0.11179481,-1.2434796,-0.75522876,-1.2432562,0.69407654,-0.048229896,0.99389434,0.58015484
0.0,0.0,0.8,-0.5235987755982988,0.5235987755982988,0,-0.07285361,-0.8200379,2.1502616,0.38043588,0.9647764,-0.8256759,-0.030662782,-0.78186136,-1.1347599,-1.1218439,0.5537215,-0.08832765,0.62150407,0.4551448
0.0,0.0,0.8,-0.5235987755982988,0.5235987755982988,0,0.3994814,-0.7606839,2.1692069,0.28236902,-0.3798407,-0.0372219,0.6293668,-1.1205924,-0.6986149,-1.1546181,0.71586317,-0.2289489,0.96561176,0.46963912
0.0,0.0,0.8,-0.5235987755982988,0.5235987755982988,0,-0.094412856,-0.74791145,2.307246,0.2913532,0.021320637,0.07735712,1.2741846,-1.1307431,-0.29298484,-1.0868939,0.6234576,0.011242454,0.8999184,0.6047799
0.0,0.0,0.8,-0.5235987755982988,0.5235987755982988,0,0.17163268,-0.97083634,2.2604551,0.37512368,1.2143512,-0.41402715,0.5031627,-0.820621,-0.41130167,-1.1618572,0.69931763,-0.25240016,0.8522742,0.24524772
0.0,0.0,0.8,-0.5235987755982988,0.5235987755982988,0,-0.17477506,-0.744404,2.158538,0.24527764,-0.2309923,-1.2704433,0.90784854,-0.914929,-0.797492,-1.0882756,0.7352789,-0.43713814,0.8446405,0.24895158
0.0,0.0,0.8,-0.5235987755982988,0.5235987755982988,0,-0.14471704,-0.7816928,2.3053966,0.33550784,0.277142,-0.6679659,0.09371088,-1.0728017,-0.62793595,-1.1119101,0.78334373,-0.12953697,0.7354092,0.5150105
0.0,0.0,0.8,-0.5235987755982988,0.5235987755982988,0,0.006623114,-0.83792204,2.6580625,0.20182432,0.8356758,-0.87460184,1.8082579,-0.7971393,-0.4459867,-1.2308283,0.75410706,-0.3147734,0.88828343,0.43276298
0.0,0.0,0.8,-0.5235987755982988,0.5235987755982988,0,0.022454746,-0.90059847,2.2389264,0.37731048,1.1414021,-0.60729665,0.3787364,-1.0726562,-0.5494722,-1.1283022,0.8090798,0.038857773,1.0063299,0.5877171
0.0,0.0,0.8,-0.5235987755982988,0.5235987755982988,0,0.12283398,-0.9068428,1.9599396,0.41047665,-0.076964475,-0.39783043,0.47730005,-0.8918409,-0.7555053,-1.0924584,0.6794961,-0.33985868,0.97777873,0.5018315
0.0,0.0,0.8,-0.5235987755982988,0.5235987755982988,0,0.07571149,-0.8102126,2.2799656,0.40545988,0.4640322,-0.35175136,0.8376735,-0.8445085,-0.35680845,-1.0986689,0.7970218,-0.221874,0.9056195,0.6196178
0.0,0.0,0.8,-0.5235987755982988,0.5235987755982988,0,-0.20917961,-0.8163379,2.3992863,0.3247364,-0.07603306,-0.45093173,0.7066259,-0.93810046,-0.3090522,-1.174036,0.5759449,-0.17999792,0.8400265,0.38880807
0.0,0.0,0.8,-0.5235987755982988,0.5235987755982988,0,-0.3179703,-0.8604577,2.3391094,0.3163049,1.0027754,-0.5019342,1.4538114,-0.80047715,-0.58814025,-0.98824227,0.8607125,-0.2823082,0.7761984,0.42872453
0.0,0.0,0.8,-0.5235987755982988,0.5235987755982988,0,-0.08902547,-0.87065154,2.919907,0.284388,-0.21896629,-0.79474396,0.6332564,-1.0216595,-0.761197,-1.1543401,0.6460116,-0.6895438,0.7741171,0.40708438
0.0,0.0,0.8,-0.5235987755982988,0.5235987755982988,0,0.1699344,-0.8951659,2.6064157,0.35780454,0.44808286,-0.32834917,0.4791893,-0.93262887,-0.67150074,-1.2129902,0.7735515,-0.456268,0.9507973,0.37456635
0.0,0.0,0.8,-0.5235987755982988,0.5235987755982988,0,0.075200275,-0.83223534,2.6263552,0.22644946,0.5736831,-0.24551359,0.43195948,-1.1161225,-0.5839643,-0.9938233,0.7259552,-0.36435676,0.8117512,0.60167724
0.0,0.0,0.8,-0.5235987755982988,0.5235987755982988,0,0.13516285,-0.87282044,2.087521,0.29494214,1.5132654,-0.15276417,0.24979408,-0.5795485,-0.8396853,-1.1436403,0.6563903,-0.6000069,1.0941623,0.49077237
0.0,0.0,0.8,-0.5235987755982988,0.5235987755982988,0,0.29476216,-0.76779413,1.8907595,0.38782462,0.30159634,-0.37941548,0.5667925,-0.8013287,-0.28965497,-1.2584387,0.7282073,-0.23609392,0.9493539,0.3574756
0.0,0.0,0.8,-0.5235987755982988,0.5235987755982988,0,-0.2126304,-0.81331384,2.1265836,0.24760833,-0.04682538,0.010509312,0.9420818,-0.90076035,-0.95584863,-1.1824969,0.61949104,-0.42667934,0.7207062,0.5227345
0.0,0.0,0.8,-0.5235987755982988,0.5235987755982988,0,0.13671912,-0.9348863,2.1586177,0.35539117,0.2971065,-0.2683864,0.25631243,-1.0195051,-0.26328284,-1.3057047,0.6809213,-0.23745589,0.8646993,0.3459573
0.0,0.0,0.8,-0.5235987755982988,0.5235987755982988,0,-0.1651236,-0.74462485,2.057902,0.39389175,0.40244287,-0.60789496,1.7239112,-1.0861833,-0.3821931,-1.1025685,0.65192556,-0.47267935,0.6725929,0.62869245
0.0,0.0,0.8,-0.5235987755982988,0.5235987755982988,0,0.060808215,-0.70613897,2.311336,0.21825677,1.4370459,-0.52261996,0.51454794,-1.035329,-0.61828417,-1.3448294,1.0529966,-0.7584385,0.9183778,0.25138813
0.0,0.0,0.8,-0.5235987755982988,0.5235987755982988,0,0.06141802,-0.91382784,2.5617313,0.3107868,0.34106684,-0.27762097,0.5747092,-1.1776423,-0.6995941,-0.8744396,0.6138355,-0.52860695,0.9597003,0.46833742
0.0,0.0,0.8,-0.5235987755982988,0.5235987755982988,0,-0.1626676,-0.8236565,2.3727617,0.3838286,1.1199901,-0.32655886,0.5093556,-0.7464231,-0.36785692,-1.0729373,0.6527718,-0.42969152,1.0625597,0.5733632
0.0,0.0,0.8,-0.5235987755982988,0.5235987755982988,0,0.08248972,-0.83516216,2.49065,0.2700789,0.738036,0.12345326,0.8774093,-1.0253891,-0.7602721,-1.1490016,0.66592616,-0.25826854,0.80094445,0.4083057
0.0,0.0,0.8,-0.5235987755982988,0.5235987755982988,0,-0.29699573,-0.7839793,2.3748655,0.17394464,0.7343248,-0.48295775,0.7381844,-1.1484222,-0.36710525,-1.3114823,0.9623125,-0.035004437,0.782962,0.41572315
0.0,0.0,0.8,-0.5235987755982988,0.5235987755982988,0,-0.29334125,-0.626694,2.221467,0.33833697,-0.39358604,-0.5296347,1.1688652,-0.90709925,-0.64410007,-1.1360182,0.8917636,-0.58899117,1.0495347,0.6210134
0.0,0.0,0.8,-0.5235987755982988,0.5235987755982988,0,-0.0884127,-0.69104105,2.4004033,0.35634953,0.7788343,0.109138556,-0.075102694,-1.0349154,-0.601868,-1.0469624,0.71229845,-0.3872007,0.69253904,0.17147744
0.0,0.0,0.8,-0.5235987755982988,0.5235987755982988,0,0.046629053,-0.7164573,2.553841,0.3939788,0.43712905,-0.10424721,0.3673627,-1.1166354,-0.66023093,-1.0479101,0.5005289,-0.5609741,1.1107355,0.39218262
0.0,0.0,0.8,-0.5235987755982988,0.5235987755982988,0,-0.10779532,-0.83083117,2.471301,0.3875221,0.506615,-0.8405678,1.3710504,-0.9872902,-0.7050583,-1.2276641,0.7026008,-0.012206976,0.7508945,0.5821661
0.0,0.0,0.8,-0.5235987755982988,0.5235987755982988,0,-0.10966402,-0.75175005,2.2616613,0.40244058,0.9960215,-0.47191,0.28566432,-1.2067547,-1.1345227,-1.1862587,0.67705023,-0.4770026,0.67764455,0.3263403
0.0,0.0,0.8,-0.5235987755982988,0.5235987755982988,0,-0.23522961,-0.8169315,2.0760846,0.50455487,0.0012287272,-0.65289176,0.6142338,-1.1728796,-0.5194361,-0.857536,0.681942,-0.79589385,0.72800523,0.44056424
0.0,0.0,0.8,-0.5235987755982988,0.5235987755982988,0,-0.20107695,-0.8507791,2.3387609,0.542159,-0.48782876,-0.5024986,0.97687954,-1.2475725,-0.670442,-1.2317095,0.68025124,0.1440815,1.1231055,0.5058992
0.0,0.0,0.8,-0.5235987755982988,0.5235987755982988,0,-0.20107695,-0.8507791,2.3387609,0.542159,-0.48782876,-0.5024986,0.97687954,-1.2475725,-0.670442,-1.2317095,0.68025124,0.1440815,1.1231055,0.5058992
0.0,0.0,0.8,-0.5235987755982988,0.5235987755982988,0,-0.20107695,-0.8507791,2.3387609,0.542159,-0.48782876,-0.5024986,0.97687954,-1.2475725,-0.670442,-1.2317095,0.68025124,0.1440815,1.1231055,0.5058992
0.0,0.0,0.8,-0.5235987755982988,0.5235987755982988,0,-0.20107695,-0.8507791,2.3387609,0.542159,-0.48782876,-0.5024986,0.97687954,-1.2475725,-0.670442,-1.2317095,0.68025124,0.1440815,1.1231055,0.5058992
0.0,0.0,0.8,-0.5235987755982988,0.5235987755982988,0,-0.20107695,-0.8507791,2.3387609,0.542159,-0.48782876,-0.5024986,0.97687954,-1.2475725,-0.670442,-1.2317095,0.68025124,0.1440815,1.1231055,0.5058992
0.0,0.0,0.8,-0.5235987755982988,0.5235987755982988,0,-0.20107695,-0.8507791,2.3387609,0.542159,-0.48782876,-0.5024986,0.97687954,-1.2475725,-0.670442,-1.2317095,0.68025124,0.1440815,1.1231055,0.5058992
0.0,0.0,0.8,-0.5235987755982988,0.5235987755982988,0,-0.25400388,-0.91828585,2.4654286,0.42802438,1.1408981,-0.34589964,0.62076205,-1.0593116,-0.79680413,-1.1490996,0.59006554,-0.73641557,0.9613435,0.3493234
0.0,0.0,0.8,-0.5235987755982988,0.5235987755982988,0,-0.25400388,-0.91828585,2.4654286,0.42802438,1.1408981,-0.34589964,0.62076205,-1.0593116,-0.79680413,-1.1490996,0.59006554,-0.73641557,0.9613435,0.3493234
0.0,0.0,0.8,-0.5235987755982988,0.5235987755982988,0,-0.25400388,-0.91828585,2.4654286,0.42802438,1.1408981,-0.34589964,0.62076205,-1.0593116,-0.79680413,-1.1490996,0.59006554,-0.73641557,0.9613435,0.3493234
0.0,0.0,0.8,-0.5235987755982988,0.5235987755982988,0,-0.25400388,-0.91828585,2.4654286,0.42802438,1.1408981,-0.34589964,0.62076205,-1.0593116,-0.79680413,-1.1490996,0.59006554,-0.73641557,0.9613435,0.3493234
0.0,0.0,0.8,-0.5235987755982988,0.5235987755982988,0,-0.25400388,-0.91828585,2.4654286,0.42802438,1.1408981,-0.34589964,0.62076205,-1.0593116,-0.79680413,-1.1490996,0.59006554,-0.73641557,0.9613435,0.3493234
0.0,0.0,0.8,-0.5235987755982988,0.5235987755982988,0,-0.25400388,-0.91828585,2.4654286,0.42802438,1.1408981,-0.34589964,0.62076205,-1.0593116,-0.79680413,-1.1490996,0.59006554,-0.73641557,0.9613435,0.3493234
0.0,0.0,0.8,-0.5235987755982988,0.5235987755982988,0,-0.25400388,-0.91828585,2.4654286,0.42802438,1.1408981,-0.34589964,0.62076205,-1.0593116,-0.79680413,-1.1490996,0.59006554,-0.73641557,0.9613435,0.3493234
0.0,0.0,0.8,-0.5235987755982988,0.5235987755982988,0,0.13955972,-0.93107444,2.0727139,0.29460362,0.6924156,-0.59637475,1.3296766,-0.72027326,-0.35783008,-1.1990259,0.6889314,-0.4109377,1.0314968,0.3884615
0.0,0.0,0.8,-0.5235987755982988,0.5235987755982988,0,0.13955972,-0.93107444,2.0727139,0.29460362,0.6924156,-0.59637475,1.3296766,-0.72027326,-0.35783008,-1.1990259,0.6889314,-0.4109377,1.0314968,0.3884615
0.0,0.0,0.8,-0.5235987755982988,0.5235987755982988,0,0.13955972,-0.93107444,2.0727139,0.29460362,0.6924156,-0.59637475,1.3296766,-0.72027326,-0.35783008,-1.1990259,0.6889314,-0.4109377,1.0314968,0.3884615
0.0,0.0,0.8,-0.5235987755982988,0.5235987755982988,0,0.13955972,-0.93107444,2.0727139,0.29460362,0.6924156,-0.59637475,1.3296766,-0.72027326,-0.35783008,-1.1990259,0.6889314,-0.4109377,1.0314968,0.3884615
0.0,0.0,0.8,-0.5235987755982988,0.5235987755982988,0,0.13955972,-0.93107444,2.0727139,0.29460362,0.6924156,-0.59637475,1.3296766,-0.72027326,-0.35783008,-1.1990259,0.6889314,-0.4109377,1.0314968,0.3884615
0.0,0.0,0.8,-0.5235987755982988,0.5235987755982988,0,0.13955972,-0.93107444,2.0727139,0.29460362,0.6924156,-0.59637475,1.3296766,-0.72027326,-0.35783008,-1.1990259,0.6889314,-0.4109377,1.0314968,0.3884615
0.0,0.0,0.8,-0.5235987755982988,0.5235987755982988,0,0.13955972,-0.93107444,2.0727139,0.29460362,0.6924156,-0.59637475,1.3296766,-0.72027326,-0.35783008,-1.1990259,0.6889314,-0.4109377,1.0314968,0.3884615
0.0,0.0,0.8,-0.5235987755982988,0.5235987755982988,0,-0.2828133,-0.7825759,2.6316369,0.4293871,-0.07514467,-0.3851843,1.2326424,-0.9142143,-0.46602154,-1.4139365,0.6134139,-0.43729052,0.81007004,0.31534174
0.0,0.0,0.8,-0.5235987755982988,0.5235987755982988,0,-0.2828133,-0.7825759,2.6316369,0.4293871,-0.07514467,-0.3851843,1.2326424,-0.9142143,-0.46602154,-1.4139365,0.6134139,-0.43729052,0.81007004,0.31534174
0.0,0.0,0.8,-0.5235987755982988,0.5235987755982988,0,-0.2828133,-0.7825759,2.6316369,0.4293871,-0.07514467,-0.3851843,1.2326424,-0.9142143,-0.46602154,-1.4139365,0.6134139,-0.43729052,0.81007004,0.31534174
0.0,0.0,0.8,-0.5235987755982988,0.5235987755982988,0,-0.2828133,-0.7825759,2.6316369,0.4293871,-0.07514467,-0.3851843,1.2326424,-0.9142143,-0.46602154,-1.4139365,0.6134139,-0.43729052,0.81007004,0.31534174
0.0,0.0,0.8,-0.5235987755982988,0.5235987755982988,0,-0.2828133,-0.7825759,2.6316369,0.4293871,-0.07514467,-0.3851843,1.2326424,-0.9142143,-0.46602154,-1.4139365,0.6134139,-0.43729052,0.81007004,0.31534174
0.0,0.0,0.8,-0.5235987755982988,0.5235987755982988,0,-0.2828133,-0.7825759,2.6316369,0.4293871,-0.07514467,-0.3851843,1.2326424,-0.9142143,-0.46602154,-1.4139365,0.6134139,-0.43729052,0.81007004,0.31534174
0.0,0.0,0.8,-0.5235987755982988,0.5235987755982988,0,-0.2828133,-0.7825759,2.6316369,0.4293871,-0.07514467,-0.3851843,1.2326424,-0.9142143,-0.46602154,-1.4139365,0.6134139,-0.43729052,0.81007004,0.31534174
0.0,0.0,0.8,-0.5235987755982988,0.5235987755982988,0,0.02938569,-0.86896706,1.9099174,0.45553824,1.5480876,-0.2999453,1.0414941,-0.58384144,-0.67899394,-1.3756844,0.772586,-0.56454456,0.8473355,0.41807467
0.0,0.0,0.8,-0.5235987755982988,0.5235987755982988,0,0.02938569,-0.86896706,1.9099174,0.45553824,1.5480876,-0.2999453,1.0414941,-0.58384144,-0.67899394,-1.3756844,0.772586,-0.56454456,0.8473355,0.41807467
0.0,0.0,0.8,-0.5235987755982988,0.5235987755982988,0,0.02938569,-0.86896706,1.9099174,0.45553824,1.5480876,-0.2999453,1.0414941,-0.58384144,-0.67899394,-1.3756844,0.772586,-0.56454456,0.8473355,0.41807467
0.0,0.0,0.8,-0.5235987755982988,0.5235987755982988,0,0.02938569,-0.86896706,1.9099174,0.45553824,1.5480876,-0.2999453,1.0414941,-0.58384144,-0.67899394,-1.3756844,0.772586,-0.56454456,0.8473355,0.41807467
0.0,0.0,0.8,-0.5235987755982988,0.5235987755982988,0,0.02938569,-0.86896706,1.9099174,0.45553824,1.5480876,-0.2999453,1.0414941,-0.58384144,-0.67899394,-1.3756844,0.772586,-0.56454456,0.8473355,0.41807467
