sanky1234/BimanualDexCatch/isaacgymenvs/cem_results/May31/football_pose_0.1_0.0_1.2999999999999998_0.0_0.0_0_2025-06-03.csv
x,y,z,roll,pitch,yaw,robot1/joint1,robot1/joint2,robot1/joint3,robot1/joint4,robot1/joint5,robot1/joint6,robot1/joint7,robot2/joint1,robot2/joint2,robot2/joint3,robot2/joint4,robot2/joint5,robot2/joint6,robot2/joint7
0.1,0.0,1.2999999999999998,0.0,0.0,0,-0.026722902,-0.67428213,-1.9654123,-0.04465114,1.2124759,0.47122833,0.41691265,-1.2707806,-1.4271041,-0.759897,-0.12902635,-0.34023717,1.2554369,-1.315338
0.1,0.0,1.2999999999999998,0.0,0.0,0,0.0037687889,-0.688439,-1.9873186,-0.07816934,0.5846854,0.37970573,1.2467366,-1.2766261,-1.4954642,-0.70858866,-0.13984591,-0.37929285,1.149214,-1.2754273
0.1,0.0,1.2999999999999998,0.0,0.0,0,-0.06772445,-0.6876487,-1.9921776,-0.060593378,0.306081,0.37680092,1.0968306,-1.2505525,-1.4775583,-0.64926904,-0.111698285,-0.43393648,1.1504742,-1.4693084
0.1,0.0,1.2999999999999998,0.0,0.0,0,-0.044915568,-0.69668305,-1.9929185,-0.084481455,0.07394403,0.53970754,-0.2796641,-1.2828586,-1.4572692,-0.7001411,-0.12377396,-0.364167,1.1098644,-1.4264675
0.1,0.0,1.2999999999999998,0.0,0.0,0,-0.05404051,-0.67029506,-2.0106537,-0.04740654,0.5891009,0.21022213,0.85945284,-1.2920271,-1.4677302,-0.6593686,-0.12320231,-0.40909788,1.2311778,-1.5628883
0.1,0.0,1.2999999999999998,0.0,0.0,0,-0.060035557,-0.68928945,-1.9802006,-0.07006409,0.99740183,0.17897569,0.85313356,-1.294327,-1.4393839,-0.749091,-0.12528369,-0.26686823,1.1642987,-1.3605467
0.1,0.0,1.2999999999999998,0.0,0.0,0,-0.0012542655,-0.73657817,-1.976844,-0.093656115,0.74831504,0.3666361,0.3261801,-1.2764107,-1.4235262,-0.73879063,-0.1151479,-0.30737284,1.2282039,-1.6377271
0.1,0.0,1.2999999999999998,0.0,0.0,0,-0.053129513,-0.6910943,-1.9921207,-0.08810032,0.2323617,0.39335078,1.4679685,-1.2587103,-1.4473352,-0.6901341,-0.13897467,-0.37642133,1.1660225,-1.4944924
0.1,0.0,1.2999999999999998,0.0,0.0,0,-0.03813438,-0.69588864,-1.9561611,-0.045512136,-0.08709754,0.3518589,0.5050098,-1.2905847,-1.4603225,-0.7096639,-0.122696616,-0.38130364,1.1551077,-1.1178943
0.1,0.0,1.2999999999999998,0.0,0.0,0,-0.00060755276,-0.6915463,-1.9852229,-0.09838989,0.21109563,0.397207,0.6522115,-1.2631911,-1.4626421,-0.7687101,-0.09927956,-0.29026103,1.170496,-1.3610377
0.1,0.0,1.2999999999999998,0.0,0.0,0,-0.024208762,-0.6502435,-1.9831771,-0.077358514,0.550677,0.2621536,0.31581488,-1.262991,-1.5171398,-0.769121,-0.14259413,-0.25524202,1.1174078,-1.3476303
0.1,0.0,1.2999999999999998,0.0,0.0,0,-0.026852213,-0.72048485,-1.9757892,-0.10229363,0.7830021,0.25548068,-0.07232194,-1.2558473,-1.4759399,-0.68832684,-0.1386128,-0.3491966,1.1483047,-1.393711
0.1,0.0,1.2999999999999998,0.0,0.0,0,-0.042220745,-0.71610916,-1.9721074,-0.062064234,0.04396398,0.2532586,-0.038394548,-1.2876523,-1.4184242,-0.7192518,-0.068901256,-0.38324684,1.201444,-1.2929411
0.1,0.0,1.2999999999999998,0.0,0.0,0,-0.02073511,-0.6745257,-1.9789194,-0.08388393,0.55345094,0.5326126,0.6187788,-1.3029557,-1.4484568,-0.74032205,-0.11957009,-0.33290663,1.2366198,-1.4602504
0.1,0.0,1.2999999999999998,0.0,0.0,0,-0.002001527,-0.70113885,-1.96095,-0.07427803,-0.6712336,0.33224425,0.8362624,-1.2742662,-1.4542727,-0.76468027,-0.12501806,-0.29914814,1.1745524,-1.3939456
0.1,0.0,1.2999999999999998,0.0,0.0,0,0.008745179,-0.6856519,-1.9889743,-0.11063691,-0.2960704,0.75317264,0.5201489,-1.2968962,-1.5122026,-0.711935,-0.094703294,-0.32804376,1.1935902,-1.4966542
0.1,0.0,1.2999999999999998,0.0,0.0,0,-0.04341426,-0.70313185,-1.9855037,-0.019093582,0.5776331,0.43527442,0.28581333,-1.2944837,-1.4687974,-0.6759074,-0.15950865,-0.3480059,1.2653503,-1.4147099
0.1,0.0,1.2999999999999998,0.0,0.0,0,-0.059351284,-0.702174,-1.9619043,-0.08069011,1.1086459,0.42507342,0.21767431,-1.2677721,-1.4796379,-0.6705449,-0.12275463,-0.35855734,1.2231921,-1.5744095
0.1,0.0,1.2999999999999998,0.0,0.0,0,-0.043907933,-0.6943026,-2.0029936,-0.064335,0.34322432,0.52003396,0.85858583,-1.2911246,-1.4339054,-0.73072296,-0.119378276,-0.30553058,1.1973101,-1.2558774
0.1,0.0,1.2999999999999998,0.0,0.0,0,0.0068162885,-0.7209732,-2.010318,-0.05011815,-0.6646672,0.27895197,0.6548186,-1.2853246,-1.5015935,-0.690226,-0.11695765,-0.31294692,1.1828773,-1.4902601
0.1,0.0,1.2999999999999998,0.0,0.0,0,-0.032687023,-0.67499083,-1.9494768,-0.07098724,-0.2892069,0.45154548,0.5944604,-1.2832594,-1.4797659,-0.74028313,-0.13303022,-0.3239404,1.1923999,-1.4280185
0.1,0.0,1.2999999999999998,0.0,0.0,0,-0.07207154,-0.63610977,-1.9758185,-0.049801238,0.534353,0.34371036,0.7954934,-1.2902073,-1.5185047,-0.71830386,-0.1481897,-0.29859108,1.2140296,-1.4409368
0.1,0.0,1.2999999999999998,0.0,0.0,0,-0.006758813,-0.70081264,-1.946955,-0.05072251,0.104079135,0.41729915,-0.02359606,-1.2775668,-1.4469112,-0.73145974,-0.13026863,-0.35338616,1.2152106,-1.7438661
0.1,0.0,1.2999999999999998,0.0,0.0,0,0.0007888598,-0.6947043,-1.9619153,-0.07180333,-0.034868687,0.37594977,0.6281867,-1.2877265,-1.5140473,-0.7480489,-0.10361286,-0.29338887,1.109715,-1.2926997
0.1,0.0,1.2999999999999998,0.0,0.0,0,-0.04235913,-0.7043415,-1.9821552,-0.09019203,0.71576405,0.3823956,0.8579976,-1.2934049,-1.4280785,-0.7450001,-0.106680475,-0.27745795,1.2257639,-1.3635021
0.1,0.0,1.2999999999999998,0.0,0.0,0,-0.062416274,-0.6821969,-1.9890361,-0.08236526,1.4092014,0.30216917,0.65431,-1.2867932,-1.4326564,-0.72408336,-0.100708164,-0.32020137,1.2088698,-1.5957655
0.1,0.0,1.2999999999999998,0.0,0.0,0,-0.0109963585,-0.7082536,-1.9863927,-0.07645451,-0.73179543,0.40872023,-0.14137839,-1.3044161,-1.461206,-0.69958043,-0.117472224,-0.37923673,1.2143884,-1.1777143
0.1,0.0,1.2999999999999998,0.0,0.0,0,0.0058045643,-0.7091115,-1.9642965,-0.05916811,-0.1071614,0.43232417,0.93847144,-1.3030944,-1.4849226,-0.7427565,-0.11112459,-0.30520052,1.1817514,-1.4676477
0.1,0.0,1.2999999999999998,0.0,0.0,0,0.016030489,-0.7120153,-1.9684436,-0.07682846,0.6527068,0.56786746,0.8692849,-1.3326985,-1.4173179,-0.7328195,-0.13520984,-0.38220146,1.224583,-1.2379211
0.1,0.0,1.2999999999999998,0.0,0.0,0,-0.039289314,-0.6790331,-1.9504753,-0.06308273,0.5819284,0.3227245,0.71219784,-1.2938125,-1.3703206,-0.77301264,-0.13297786,-0.37582508,1.2153432,-1.2026058
0.1,0.0,1.2999999999999998,0.0,0.0,0,0.026245836,-0.71484804,-2.0129325,-0.07377602,-0.4853112,0.4106567,0.8275305,-1.276259,-1.4534883,-0.7047053,-0.13623461,-0.385486,1.2294894,-1.1271316
0.1,0.0,1.2999999999999998,0.0,0.0,0,-0.03255746,-0.6823708,-2.0144393,-0.025966724,0.2607728,0.41030306,0.3470739,-1.2886944,-1.5222238,-0.7008361,-0.11096498,-0.3167214,1.1114231,-1.3516092
0.1,0.0,1.2999999999999998,0.0,0.0,0,-0.0016588012,-0.71148306,-2.0107045,-0.070952184,-0.55114573,0.37320477,0.8644323,-1.2817189,-1.4475385,-0.73535186,-0.12699354,-0.30330962,1.1800365,-1.4938233
0.1,0.0,1.2999999999999998,0.0,0.0,0,-0.096917756,-0.6652139,-1.9437003,-0.04215109,0.5140046,0.5573184,0.5415242,-1.2828575,-1.5410314,-0.6578445,-0.12902644,-0.35683948,1.2001354,-1.5156163
0.1,0.0,1.2999999999999998,0.0,0.0,0,-0.058098003,-0.6917934,-1.9683489,-0.07186374,0.56093657,0.32893768,0.29394326,-1.2648374,-1.4606706,-0.6944946,-0.11242936,-0.36646417,1.2191906,-1.3113205
0.1,0.0,1.2999999999999998,0.0,0.0,0,-0.0043067927,-0.69659454,-1.9560212,-0.08228179,0.17641704,0.3669908,0.4816857,-1.2798737,-1.4438263,-0.77383655,-0.1170814,-0.3106265,1.1519047,-1.1960406
0.1,0.0,1.2999999999999998,0.0,0.0,0,0.037065014,-0.6884003,-2.0157511,-0.08294423,0.12720945,0.42230183,0.812871,-1.2920343,-1.4448661,-0.8034197,-0.101117365,-0.22879848,1.2057723,-1.4389246
0.1,0.0,1.2999999999999998,0.0,0.0,0,0.011937248,-0.69836295,-1.9983064,-0.08646542,-0.22720309,0.40822104,0.54702675,-1.2976247,-1.4730337,-0.71794456,-0.14938755,-0.33625457,1.2304232,-1.2615056
0.1,0.0,1.2999999999999998,0.0,0.0,0,-0.067237034,-0.69480944,-1.9787064,-0.052234903,-0.15080848,0.33105662,0.84125876,-1.2809303,-1.4713533,-0.67748076,-0.13765408,-0.3648508,1.183246,-1.397384
0.1,0.0,1.2999999999999998,0.0,0.0,0,-0.05795933,-0.6926011,-1.9591838,-0.120501734,0.5334453,0.407309,1.0388143,-1.2888188,-1.4982241,-0.7000214,-0.09540759,-0.3132082,1.1763039,-1.2964833
0.1,0.0,1.2999999999999998,0.0,0.0,0,0.0068288906,-0.71688586,-1.9586966,-0.041276272,-0.14294924,0.6080935,1.0155855,-1.3332734,-1.4711291,-0.7499393,-0.1263754,-0.30419567,1.1781402,-1.2742919
0.1,0.0,1.2999999999999998,0.0,0.0,0,0.012127553,-0.6978493,-1.9908564,-0.065960415,0.98254114,0.4621936,0.77072066,-1.280028,-1.5053319,-0.7116687,-0.12259694,-0.35370415,1.1777841,-1.1950017
0.1,0.0,1.2999999999999998,0.0,0.0,0,-0.050700944,-0.69885594,-1.987898,-0.08237444,0.78650725,0.19870791,0.6983922,-1.2639021,-1.4788492,-0.7116812,-0.1164303,-0.28682837,1.2314779,-1.3773681
0.1,0.0,1.2999999999999998,0.0,0.0,0,-0.036959615,-0.7096746,-1.9886804,-0.06656412,0.29665953,0.29651296,0.6245008,-1.2432673,-1.5396185,-0.6831067,-0.14801605,-0.27552402,1.1874197,-1.213604
0.1,0.0,1.2999999999999998,0.0,0.0,0,-0.02383041,-0.7046884,-1.9585085,-0.06284183,0.8415986,0.41330364,0.42105046,-1.2879078,-1.4559152,-0.7251967,-0.13806334,-0.3288624,1.1940778,-1.327666
0.1,0.0,1.2999999999999998,0.0,0.0,0,0.0064550587,-0.7078367,-1.9429449,-0.10733394,-1.0613823,0.38306844,-0.45693132,-1.2835294,-1.4432818,-0.73729634,-0.115090705,-0.37462243,1.2102991,-1.533955
0.1,0.0,1.2999999999999998,0.0,0.0,0,-0.09477233,-0.6707964,-1.972811,-0.06759759,-0.010588272,0.3163127,0.5834943,-1.2769886,-1.4889097,-0.743875,-0.08263573,-0.23439834,1.1305748,-1.4543035
0.1,0.0,1.2999999999999998,0.0,0.0,0,-0.021715375,-0.68523216,-1.9665033,-0.04443077,0.026204398,0.65264314,0.37791803,-1.3226566,-1.4929718,-0.6998241,-0.10822234,-0.37523624,1.1921595,-1.4720364
0.1,0.0,1.2999999999999998,0.0,0.0,0,0.010641149,-0.6906514,-1.9932469,-0.11867716,0.7152773,0.33949187,0.61872286,-1.2744755,-1.4762588,-0.7010574,-0.1331991,-0.38430917,1.1985989,-1.2296565
0.1,0.0,1.2999999999999998,0.0,0.0,0,-0.019032374,-0.7007487,-2.0173283,-0.08777693,0.28024697,0.37521228,0.68598306,-1.3071775,-1.3833975,-0.7043198,-0.1397632,-0.44054338,1.150961,-1.3384949
0.1,0.0,1.2999999999999998,0.0,0.0,0,-0.056983635,-0.67714703,-1.9901985,-0.08635698,0.2502636,0.26052102,0.87041986,-1.3116937,-1.480676,-0.73176944,-0.13481256,-0.26182875,1.0908841,-1.721553
0.1,0.0,1.2999999999999998,0.0,0.0,0,-0.05934456,-0.6681847,-1.9884273,-0.054550078,0.1973667,0.5143185,0.36175492,-1.3102539,-1.4912951,-0.7041612,-0.10803243,-0.31125885,1.2130235,-1.4036708
0.1,0.0,1.2999999999999998,0.0,0.0,0,-0.058930885,-0.698438,-1.9599438,-0.08413873,0.091799036,0.5007808,0.42152953,-1.30473,-1.5385427,-0.6719027,-0.095934086,-0.31254897,1.1550438,-1.601077
0.1,0.0,1.2999999999999998,0.0,0.0,0,-0.012527606,-0.69739014,-1.9557319,-0.06572401,0.13482997,0.6290309,0.8767228,-1.2748119,-1.4259421,-0.7352054,-0.14801206,-0.38890105,1.1969897,-1.4693477
0.1,0.0,1.2999999999999998,0.0,0.0,0,-0.024228761,-0.6992989,-1.9629561,-0.12749076,-0.39657637,0.28416964,0.8052453,-1.28109,-1.4734871,-0.7131974,-0.096867636,-0.34498468,1.1886429,-1.4202842
0.1,0.0,1.2999999999999998,0.0,0.0,0,-0.032722306,-0.6612165,-1.985249,-0.06943024,0.032851934,0.3666313,0.12960117,-1.2836409,-1.4250853,-0.7089152,-0.14628483,-0.42846814,1.2268579,-1.4059633
0.1,0.0,1.2999999999999998,0.0,0.0,0,-0.044914268,-0.71429235,-1.9623299,-0.028913394,0.5072981,0.39153188,0.78629935,-1.2522784,-1.4499315,-0.71364486,-0.12997547,-0.35278702,1.1789554,-1.2437259
0.1,0.0,1.2999999999999998,0.0,0.0,0,-0.01804006,-0.6959295,-1.9750917,-0.12838583,0.63757133,0.5647434,1.1597676,-1.2548815,-1.4870913,-0.6604154,-0.13906446,-0.42381296,1.2045847,-1.2295353
0.1,0.0,1.2999999999999998,0.0,0.0,0,-0.031312905,-0.69511205,-1.9755652,-0.08400779,-0.23904036,0.28996715,0.37145296,-1.3163145,-1.3749675,-0.7162293,-0.12011382,-0.4541086,1.186345,-1.4661152
0.1,0.0,1.2999999999999998,0.0,0.0,0,-0.081093885,-0.6786141,-1.9533304,-0.09681086,0.6803134,0.4752368,-0.08605552,-1.3097422,-1.4355179,-0.7636651,-0.10634847,-0.26318586,1.1586885,-1.273315
0.1,0.0,1.2999999999999998,0.0,0.0,0,-0.010221559,-0.68984306,-2.001893,-0.039988175,0.32065317,0.35638705,0.7229986,-1.2435162,-1.5058146,-0.6816709,-0.13676363,-0.37929538,1.1949744,-1.054015
0.1,0.0,1.2999999999999998,0.0,0.0,0,-4.9794053e-05,-0.7009448,-1.9759015,-0.03144616,-0.013516528,0.17446189,0.67792934,-1.3254153,-1.4790688,-0.71917987,-0.11848441,-0.34528643,1.199866,-1.3389174
0.1,0.0,1.2999999999999998,0.0,0.0,0,-0.04492997,-0.6820922,-1.9985881,-0.0892547,0.08712321,0.4346652,0.8206754,-1.2628071,-1.4557852,-0.70549196,-0.13782299,-0.35705888,1.1607794,-1.1456847
0.1,0.0,1.2999999999999998,0.0,0.0,0,-0.044743456,-0.69103587,-1.9778544,-0.09107006,0.25704768,0.18421863,0.88531023,-1.2933311,-1.4575206,-0.7587839,-0.15270431,-0.27341136,1.07234,-1.3936744
0.1,0.0,1.2999999999999998,0.0,0.0,0,-0.051788807,-0.707581,-1.9819617,-0.009912505,0.13083768,0.36682484,0.18479241,-1.2770143,-1.4106905,-0.74262846,-0.12477613,-0.31126982,1.217637,-1.5632883
0.1,0.0,1.2999999999999998,0.0,0.0,0,-0.032437373,-0.7036291,-1.9722991,-0.13545008,-0.6298718,0.64618826,0.7569876,-1.2726768,-1.4863437,-0.6613471,-0.11930312,-0.40396553,1.1928048,-1.424078
0.1,0.0,1.2999999999999998,0.0,0.0,0,-0.010949537,-0.71410817,-1.9953512,-0.08490265,-0.062474605,0.27859232,0.45576012,-1.2771086,-1.4891878,-0.7442413,-0.12077662,-0.24259683,1.1328453,-1.3024226
0.1,0.0,1.2999999999999998,0.0,0.0,0,0.01944859,-0.7059829,-1.9839103,-0.05573726,0.5153688,0.5622128,0.34509483,-1.2914338,-1.4425597,-0.75555825,-0.0944271,-0.35605073,1.1590462,-1.1374083
0.1,0.0,1.2999999999999998,0.0,0.0,0,-0.062875375,-0.68560785,-1.9871454,-0.04590224,0.10178052,0.38052285,0.44383886,-1.245557,-1.4864851,-0.71653384,-0.10578314,-0.2789768,1.1745912,-1.5195937
0.1,0.0,1.2999999999999998,0.0,0.0,0,-0.00937512,-0.69924515,-1.9635357,-0.043953992,0.6221242,0.21138574,0.39961848,-1.2553079,-1.4765543,-0.7488644,-0.12817986,-0.33100617,1.0838794,-1.3866194
0.1,0.0,1.2999999999999998,0.0,0.0,0,-0.010543916,-0.67860186,-1.9597733,-0.08648792,0.04152615,0.22781959,-0.12571938,-1.2972386,-1.4370197,-0.78622013,-0.08457295,-0.30464962,1.2114433,-1.2562424
0.1,0.0,1.2999999999999998,0.0,0.0,0,-0.016885674,-0.6749949,-1.9901809,-0.016377654,0.091281265,0.3530148,0.6707346,-1.2601702,-1.5016899,-0.7656737,-0.12574914,-0.27158907,1.1343488,-1.2764106
0.1,0.0,1.2999999999999998,0.0,0.0,0,-0.04561737,-0.70156384,-1.976382,-0.062596075,-0.49434182,0.35009336,0.76307535,-1.2744428,-1.4363906,-0.71478814,-0.14685504,-0.34559438,1.191779,-1.3339274
0.1,0.0,1.2999999999999998,0.0,0.0,0,-0.017676698,-0.705819,-1.9853163,-0.047634307,0.4083402,0.48148027,0.8875041,-1.2516493,-1.4728979,-0.6935603,-0.13629773,-0.36941746,1.2253755,-1.3443649
0.1,0.0,1.2999999999999998,0.0,0.0,0,-0.03231149,-0.6789389,-1.9568508,-0.078336835,-0.1322357,0.21413395,0.8782038,-1.313632,-1.4729159,-0.7903763,-0.10189236,-0.23295037,1.1577277,-1.1199871
0.1,0.0,1.2999999999999998,0.0,0.0,0,-0.03572071,-0.7005704,-1.9855833,-0.09202207,0.7329909,0.4705117,0.3919381,-1.2780242,-1.4295185,-0.70785296,-0.09131067,-0.38036266,1.2132479,-1.5480579
0.1,0.0,1.2999999999999998,0.0,0.0,0,-0.033822637,-0.7188395,-1.955311,-0.062461197,-0.05120514,0.45559338,0.6228273,-1.2783995,-1.5279813,-0.6956156,-0.13020822,-0.27570862,1.1412922,-1.7327265
0.1,0.0,1.2999999999999998,0.0,0.0,0,-0.04281741,-0.7020344,-1.9726666,-0.086497866,0.76387924,0.4186401,0.2572914,-1.3059015,-1.4051814,-0.7285727,-0.13350558,-0.35640737,1.1478496,-1.632477
0.1,0.0,1.2999999999999998,0.0,0.0,0,-0.009437147,-0.70010084,-1.9809644,-0.08432358,0.4768562,0.41108248,0.9543295,-1.2945832,-1.4330349,-0.72596794,-0.14537941,-0.35257778,1.1771092,-1.2890266
0.1,0.0,1.2999999999999998,0.0,0.0,0,-0.029124439,-0.67277354,-1.9839033,-0.089269936,0.62775606,0.5289196,0.82868356,-1.2931409,-1.4989029,-0.719185,-0.09798401,-0.31535208,1.1581393,-1.6355996
0.1,0.0,1.2999999999999998,0.0,0.0,0,-0.0334955,-0.6989156,-1.9995996,-0.044428263,0.62629366,0.5180334,0.66034794,-1.2983857,-1.4313177,-0.71483546,-0.1260674,-0.37140235,1.1558366,-1.2949998
0.1,0.0,1.2999999999999998,0.0,0.0,0,-0.041591983,-0.6952163,-1.9793437,-0.12877324,0.30949536,0.3541945,0.4090782,-1.2861415,-1.4635495,-0.69420034,-0.11778941,-0.35187387,1.2243198,-1.2694187
0.1,0.0,1.2999999999999998,0.0,0.0,0,-0.009443735,-0.7085462,-1.9567581,-0.035283946,-0.09001278,0.4411665,0.24407244,-1.241758,-1.4560477,-0.7557483,-0.11126561,-0.33984217,1.1293263,-1.4126049
0.1,0.0,1.2999999999999998,0.0,0.0,0,-0.02692445,-0.69290364,-1.9567938,-0.01978781,-0.23652633,0.40852594,1.3721495,-1.2646985,-1.4292477,-0.74164265,-0.113424174,-0.37453678,1.2562078,-1.3145007
0.1,0.0,1.2999999999999998,0.0,0.0,0,-0.043920755,-0.66369146,-1.9847327,-0.04232812,-0.24049582,0.60963166,1.136068,-1.3097076,-1.4004903,-0.75677025,-0.14085393,-0.35951063,1.1481022,-1.6128107
0.1,0.0,1.2999999999999998,0.0,0.0,0,-0.03329983,-0.6863694,-1.9534448,-0.048326563,-0.6393872,0.4939937,0.7634159,-1.2775596,-1.5595572,-0.6734523,-0.08498142,-0.38070485,1.1562048,-1.3826346
0.1,0.0,1.2999999999999998,0.0,0.0,0,0.014851113,-0.7108177,-1.9638902,-0.07854544,-0.14380707,0.40246126,0.016276792,-1.2649486,-1.4553827,-0.76914775,-0.13426758,-0.2831426,1.1842811,-1.3920082
0.1,0.0,1.2999999999999998,0.0,0.0,0,-0.02599417,-0.68868417,-2.0140457,-0.05408431,0.34297055,0.33038938,0.17854722,-1.2799984,-1.4378088,-0.75943464,-0.12499857,-0.26829472,1.1706364,-1.1785977
0.1,0.0,1.2999999999999998,0.0,0.0,0,-0.008818951,-0.68577397,-1.9936801,-0.097635455,-0.33736786,0.5614878,0.42617187,-1.3029478,-1.445573,-0.7456492,-0.13380922,-0.31818494,1.1941085,-1.5970697
0.1,0.0,1.2999999999999998,0.0,0.0,0,-0.0408032,-0.6928505,-1.976961,-0.12861991,0.78017193,0.26946068,0.6764387,-1.2795584,-1.4946193,-0.6885251,-0.12648,-0.32969838,1.1936517,-1.4506903
0.1,0.0,1.2999999999999998,0.0,0.0,0,-0.016327769,-0.6893665,-2.0164905,-0.07032313,0.58378655,0.28562945,0.45752624,-1.3105005,-1.4558082,-0.7178747,-0.12289317,-0.34261423,1.144191,-1.4781158
0.1,0.0,1.2999999999999998,0.0,0.0,0,0.017606052,-0.68648654,-2.0109546,-0.08372119,-0.034377676,0.4886893,1.1637774,-1.3093857,-1.5237905,-0.7180896,-0.103529006,-0.29963195,1.2226279,-1.3298606
0.1,0.0,1.2999999999999998,0.0,0.0,0,-0.04911676,-0.69026035,-1.9591322,-0.10624323,0.83246577,0.07061169,0.2113853,-1.2780603,-1.4478818,-0.72030157,-0.12820134,-0.32945874,1.2230338,-1.6946543
0.1,0.0,1.2999999999999998,0.0,0.0,0,-0.01570587,-0.69218975,-1.9730113,-0.09757615,0.43515876,0.42838123,0.22780697,-1.3004414,-1.4142537,-0.75405747,-0.120073095,-0.3560012,1.1758268,-1.4901919
0.1,0.0,1.2999999999999998,0.0,0.0,0,-0.027319198,-0.6802319,-1.9740255,-0.11292347,-0.22959223,0.6352902,0.5437016,-1.2603484,-1.4817811,-0.70518696,-0.08102869,-0.37891692,1.1979884,-1.6490734
0.1,0.0,1.2999999999999998,0.0,0.0,0,-0.07146617,-0.663629,-1.9905623,-0.07411795,0.09447991,0.4595379,0.47262827,-1.2896945,-1.4146864,-0.72352976,-0.107191764,-0.37784964,1.1599727,-1.6316384
0.1,0.0,1.2999999999999998,0.0,0.0,0,-0.018495169,-0.67512757,-1.9733007,-0.07291681,0.46656483,0.42054573,0.54340273,-1.2969915,-1.4820222,-0.7440536,-0.1254876,-0.30285457,1.1431582,-1.6691803
0.1,0.0,1.2999999999999998,0.0,0.0,0,-0.019158395,-0.68577546,-1.9599148,-0.068412796,-0.03651632,0.32014456,0.5147604,-1.251712,-1.4663461,-0.7572479,-0.122232914,-0.28741607,1.2280083,-1.1386045
0.1,0.0,1.2999999999999998,0.0,0.0,0,-0.0289206,-0.70657533,-1.9813751,-0.06693197,0.37012705,0.27743003,0.69771826,-1.2787063,-1.4497882,-0.70155597,-0.11957207,-0.38211596,1.1680688,-1.2784582
0.1,0.0,1.2999999999999998,0.0,0.0,0,-0.0119250575,-0.70164716,-1.9607484,-0.09982131,0.06794822,0.18562268,0.7816545,-1.2957886,-1.4008985,-0.79017794,-0.11579014,-0.29292762,1.175995,-1.2464789
0.1,0.0,1.2999999999999998,0.0,0.0,0,-0.039055463,-0.6827726,-1.9479873,-0.061066344,-0.46436974,0.31897962,0.84623367,-1.2749475,-1.4433385,-0.72692794,-0.12566915,-0.37888572,1.2136449,-1.342833
0.1,0.0,1.2999999999999998,0.0,0.0,0,0.014131228,-0.7142308,-1.9684213,-0.0767071,-0.17226535,0.32580563,0.30532643,-1.257582,-1.4828783,-0.7275318,-0.12873065,-0.33124557,1.1925699,-1.4251407
0.1,0.0,1.2999999999999998,0.0,0.0,0,-0.024105633,-0.71094674,-1.9548233,-0.13284817,-0.29002476,0.33873665,1.1985512,-1.2815927,-1.4894851,-0.68540376,-0.08471351,-0.3698906,1.1888456,-1.4905901
0.1,0.0,1.2999999999999998,0.0,0.0,0,-0.0126690045,-0.72188056,-1.9614612,-0.052822437,0.7068823,0.41480896,0.24408121,-1.2912639,-1.3708837,-0.7679908,-0.12933964,-0.35580534,1.1541919,-1.736384
0.1,0.0,1.2999999999999998,0.0,0.0,0,-0.005276106,-0.69370776,-1.9797088,-0.083278105,0.06927589,0.48318774,0.92025656,-1.3026223,-1.4723439,-0.73760015,-0.12534532,-0.29957768,1.1595182,-1.4041991
0.1,0.0,1.2999999999999998,0.0,0.0,0,-0.05140088,-0.6616903,-1.9670621,-0.07922076,0.6075609,0.23876652,0.037395075,-1.2839596,-1.4343588,-0.7763284,-0.10460162,-0.30590415,1.1431792,-1.4990159
0.1,0.0,1.2999999999999998,0.0,0.0,0,-0.043651786,-0.7067274,-1.9881451,0.014504192,-0.3833637,0.31669185,0.7560127,-1.2823362,-1.4183235,-0.75371295,-0.13655068,-0.30868405,1.165334,-1.2639658
0.1,0.0,1.2999999999999998,0.0,0.0,0,-0.029576015,-0.66582835,-1.9739268,-0.097907625,0.4997337,0.42759573,0.5651265,-1.2685093,-1.4534048,-0.74324095,-0.1243983,-0.35764718,1.1680996,-1.2156608
0.1,0.0,1.2999999999999998,0.0,0.0,0,-0.037974514,-0.70343417,-1.9855397,-0.06367049,-0.28897762,0.527163,0.06443724,-1.3021973,-1.4061571,-0.7693636,-0.06098477,-0.29443654,1.159591,-1.438015
0.1,0.0,1.2999999999999998,0.0,0.0,0,-0.04334846,-0.68670464,-1.9723554,-0.006014111,0.30926403,0.406693,-0.30194497,-1.2972537,-1.4205912,-0.74834275,-0.109647796,-0.35845307,1.1781659,-1.3541112
0.1,0.0,1.2999999999999998,0.0,0.0,0,-0.046623267,-0.6964718,-1.970586,-0.05277598,0.5439409,0.20826921,-0.328098,-1.268982,-1.5027608,-0.6922677,-0.16049752,-0.3015166,1.2301202,-1.5397648
0.1,0.0,1.2999999999999998,0.0,0.0,0,-0.04180752,-0.6617659,-2.0159817,-0.07385696,0.29643375,0.41459203,0.73424184,-1.2952392,-1.4835651,-0.7055495,-0.1188686,-0.3611363,1.138899,-1.0185211
0.1,0.0,1.2999999999999998,0.0,0.0,0,-0.053673286,-0.68955994,-1.9734199,-0.044068534,-0.38323724,0.3342044,0.62077695,-1.2993331,-1.4595647,-0.7027688,-0.08762667,-0.36661342,1.1994356,-1.275171
0.1,0.0,1.2999999999999998,0.0,0.0,0,-0.061667927,-0.66747946,-1.9577527,-0.04174118,-0.38952905,0.4775243,1.0315158,-1.298303,-1.4690837,-0.7494733,-0.13904777,-0.27119914,1.2154425,-1.5219389
0.1,0.0,1.2999999999999998,0.0,0.0,0,-0.08357061,-0.6817276,-1.9645991,-0.051234566,-0.076251104,0.3872942,0.7671838,-1.287069,-1.4774809,-0.70890385,-0.096028015,-0.30927467,1.1923624,-1.3828794
0.1,0.0,1.2999999999999998,0.0,0.0,0,-0.050274953,-0.69531584,-1.9700503,-0.04678403,0.08383868,0.48079234,0.4230415,-1.2845378,-1.4199781,-0.76942456,-0.11532395,-0.30306613,1.1316491,-1.1594329
0.1,0.0,1.2999999999999998,0.0,0.0,0,-0.063237205,-0.6746712,-1.9831064,-0.06339184,0.35183713,0.42018872,0.41655213,-1.283389,-1.4421449,-0.7499537,-0.09034041,-0.3133815,1.1221915,-1.4474459
0.1,0.0,1.2999999999999998,0.0,0.0,0,-0.026232354,-0.68605626,-1.9948483,-0.05447092,0.47769433,0.458796,0.39361724,-1.2663245,-1.4355623,-0.75352067,-0.17060561,-0.2968455,1.1694692,-1.1909285
0.1,0.0,1.2999999999999998,0.0,0.0,0,-0.03781857,-0.6918612,-1.9870819,-0.08672495,-0.1493351,0.23051617,0.45401034,-1.2916138,-1.4589874,-0.727005,-0.13426748,-0.32064793,1.1425669,-1.3517282
0.1,0.0,1.2999999999999998,0.0,0.0,0,-0.042324144,-0.69951326,-1.9769881,-0.06307288,0.08846014,0.4694619,0.65951616,-1.2894813,-1.4620965,-0.70680326,-0.16225296,-0.3329996,1.1766164,-1.4450341
0.1,0.0,1.2999999999999998,0.0,0.0,0,-0.0040972847,-0.7140762,-2.005573,-0.03365675,0.8051607,0.2512666,1.0114064,-1.2647731,-1.4239534,-0.71593857,-0.10169586,-0.40883842,1.1739945,-1.4939309
0.1,0.0,1.2999999999999998,0.0,0.0,0,-0.042900704,-0.697188,-1.9822813,-0.063455656,-0.1634379,0.44644067,0.30024683,-1.3031272,-1.4244711,-0.7269773,-0.15058869,-0.32203296,1.2146574,-1.2894602
0.1,0.0,1.2999999999999998,0.0,0.0,0,-0.011424706,-0.7306528,-1.9509908,-0.057155415,-0.65503025,0.20729141,0.5922216,-1.2744482,-1.402083,-0.7375265,-0.13412136,-0.36973584,1.23585,-1.2160107
0.1,0.0,1.2999999999999998,0.0,0.0,0,-0.065539286,-0.65663344,-1.9708565,-0.048597515,0.43373382,0.43991977,0.8537088,-1.2895409,-1.4084275,-0.78632677,-0.14594407,-0.29605478,1.1584355,-1.3842132
0.1,0.0,1.2999999999999998,0.0,0.0,0,-0.047722425,-0.7036844,-1.9527872,-0.036114205,0.535986,0.43576795,1.0489225,-1.2603257,-1.4574897,-0.789386,-0.14431633,-0.18257356,1.1674918,-1.3002883
0.1,0.0,1.2999999999999998,0.0,0.0,0,-0.058805846,-0.66016346,-2.006415,-0.06444233,0.23079105,0.3431715,0.34405148,-1.2758255,-1.4486895,-0.7170193,-0.15194099,-0.33035254,1.222404,-1.370201
0.1,0.0,1.2999999999999998,0.0,0.0,0,-0.025115112,-0.6897739,-1.9789943,-0.0630726,-0.4271255,0.19085208,0.57847404,-1.2662469,-1.5010301,-0.6912405,-0.12168604,-0.35823518,1.1813784,-1.4673488
0.1,0.0,1.2999999999999998,0.0,0.0,0,-0.019979827,-0.6948978,-1.9638464,-0.07825841,0.78001714,0.45189527,1.0249431,-1.2720168,-1.5115031,-0.73684245,-0.11288342,-0.2956215,1.1518363,-1.4780387
0.1,0.0,1.2999999999999998,0.0,0.0,0,-0.046430502,-0.70684147,-1.9605192,-0.047991265,0.82972026,0.5166257,0.036378723,-1.2725307,-1.409095,-0.7396223,-0.098853044,-0.35775727,1.1921337,-1.6233399
0.1,0.0,1.2999999999999998,0.0,0.0,0,-0.02276641,-0.69203764,-1.97008,-0.08660546,-0.61834514,0.34855306,0.2700123,-1.2763205,-1.4736807,-0.71756035,-0.10900272,-0.3521929,1.1879854,-1.4533911
0.1,0.0,1.2999999999999998,0.0,0.0,0,-0.036422085,-0.69187707,-1.9656011,-0.034858834,0.81395435,0.39295423,0.9133104,-1.3147953,-1.4622507,-0.7550332,-0.15673704,-0.2651928,1.1632849,-1.6000192
0.1,0.0,1.2999999999999998,0.0,0.0,0,-0.014970179,-0.69735485,-1.9774023,-0.07221055,0.44867188,0.2180969,0.30498925,-1.2506063,-1.4328933,-0.7203229,-0.13486725,-0.40928125,1.1674894,-1.3417923
0.1,0.0,1.2999999999999998,0.0,0.0,0,-0.026052017,-0.6938963,-1.9602044,-0.088687345,0.24688263,0.4616088,0.36954644,-1.2853359,-1.4497832,-0.72085047,-0.17272323,-0.34370992,1.210783,-1.4310642
0.1,0.0,1.2999999999999998,0.0,0.0,0,0.0038682187,-0.7136695,-1.9901257,-0.073675424,0.14842585,0.10244426,1.073024,-1.294641,-1.5142605,-0.71980035,-0.11359011,-0.28001702,1.1633404,-1.5377288
0.1,0.0,1.2999999999999998,0.0,0.0,0,-0.039210744,-0.68040705,-1.984149,-0.025890129,-0.2747814,0.28175774,0.7609263,-1.2829299,-1.3830936,-0.7525784,-0.13748829,-0.35943556,1.2420999,-1.6678797
0.1,0.0,1.2999999999999998,0.0,0.0,0,-0.035286598,-0.70478386,-1.9665352,-0.091120325,0.6209582,0.4023502,1.2385794,-1.2757394,-1.4503921,-0.7232979,-0.11754565,-0.32496622,1.1797334,-1.5977666
0.1,0.0,1.2999999999999998,0.0,0.0,0,-0.044061076,-0.69384795,-1.9597886,-0.06693277,-0.29699078,0.6233157,0.56287926,-1.2809291,-1.4627583,-0.7558663,-0.13510184,-0.25369897,1.1725487,-1.4656729
0.1,0.0,1.2999999999999998,0.0,0.0,0,-0.021219853,-0.72782856,-1.926941,-0.06742844,0.2249793,0.17068788,0.65720886,-1.2873381,-1.4680909,-0.7076981,-0.10852556,-0.34638628,1.2026241,-1.8158708
0.1,0.0,1.2999999999999998,0.0,0.0,0,-0.03833799,-0.70504636,-1.9406099,-0.06829039,0.8932208,0.41841465,0.26184592,-1.2619466,-1.4268018,-0.7426544,-0.08949904,-0.37337092,1.1473888,-1.350562
0.1,0.0,1.2999999999999998,0.0,0.0,0,-0.053610448,-0.67942256,-1.9863745,-0.03977775,-0.36703682,0.35000116,0.20436041,-1.2784001,-1.402452,-0.7050962,-0.13919266,-0.42314196,1.1975044,-1.6110092
0.1,0.0,1.2999999999999998,0.0,0.0,0,-0.021763427,-0.70379835,-1.9752841,-0.03911711,0.30145767,0.60196036,0.923219,-1.3119966,-1.531317,-0.6888112,-0.10737312,-0.34450153,1.1387656,-1.4275522
0.1,0.0,1.2999999999999998,0.0,0.0,0,-0.03762553,-0.68149614,-1.9621689,-0.07969,0.041544028,0.23544972,0.6486271,-1.3026166,-1.5112499,-0.70681965,-0.121009395,-0.3360067,1.1742874,-1.3665212
0.1,0.0,1.2999999999999998,0.0,0.0,0,-0.017673505,-0.69989216,-1.9956721,-0.073501244,-0.26348412,0.52668023,0.7160348,-1.2711384,-1.3964812,-0.752423,-0.12705332,-0.3411155,1.2179376,-1.2419916
0.1,0.0,1.2999999999999998,0.0,0.0,0,-0.028850405,-0.7143049,-1.9636886,-0.061628297,-0.15923062,0.1843955,0.20079724,-1.2856821,-1.3824874,-0.76655525,-0.10091274,-0.34561607,1.1781276,-1.4223728
0.1,0.0,1.2999999999999998,0.0,0.0,0,-0.042376988,-0.6962296,-1.9720618,-0.08608273,-0.21968657,0.32445183,0.52980876,-1.2968585,-1.4797,-0.710475,-0.097608194,-0.32193962,1.184196,-1.4457959
0.1,0.0,1.2999999999999998,0.0,0.0,0,-0.008049287,-0.7155742,-1.9678787,-0.060424756,0.8712093,0.16829745,0.9572952,-1.3287227,-1.4726454,-0.7736446,-0.13712463,-0.21507262,1.1928724,-1.4425325
0.1,0.0,1.2999999999999998,0.0,0.0,0,0.013289928,-0.69929147,-2.006865,-0.09726366,-0.080139734,0.4794981,0.25631064,-1.2611326,-1.5069011,-0.67520154,-0.118279226,-0.37049648,1.2467291,-1.4547803
0.1,0.0,1.2999999999999998,0.0,0.0,0,-0.0049077673,-0.692233,-2.0045214,-0.08906548,0.6375844,0.40704596,0.62119293,-1.278984,-1.4469903,-0.74787647,-0.09394066,-0.3371484,1.1081485,-1.477328
0.1,0.0,1.2999999999999998,0.0,0.0,0,-0.010018257,-0.7081975,-1.9860789,-0.1077107,-0.23264703,0.56430215,0.9535815,-1.2707554,-1.4507414,-0.72131,-0.12605192,-0.3222465,1.1827155,-1.6926972
0.1,0.0,1.2999999999999998,0.0,0.0,0,-0.05047947,-0.70117134,-1.9456056,-0.059704836,-0.06407905,0.41299483,0.6734402,-1.2548169,-1.4716578,-0.7244571,-0.13455245,-0.31791443,1.1565999,-1.3721824
0.1,0.0,1.2999999999999998,0.0,0.0,0,-0.0073620966,-0.6937047,-1.9962581,-0.041346975,-0.5168043,0.34394836,0.791141,-1.28899,-1.4179543,-0.74363923,-0.09819582,-0.37306663,1.1958703,-1.5092436
0.1,0.0,1.2999999999999998,0.0,0.0,0,-0.01731636,-0.72061634,-1.9584777,-0.09828486,0.028143838,0.1367662,0.78099024,-1.2922199,-1.4807158,-0.72894084,-0.11751477,-0.2763256,1.1783756,-1.2334347
0.1,0.0,1.2999999999999998,0.0,0.0,0,-0.026075695,-0.68634415,-1.9773529,-0.058849946,0.16971236,0.34129423,0.3760863,-1.2805176,-1.4505577,-0.7239459,-0.093483984,-0.36832932,1.2175312,-1.4212546
0.1,0.0,1.2999999999999998,0.0,0.0,0,-0.015905486,-0.6981648,-1.9598148,-0.09875104,0.30690548,0.15327875,0.40934688,-1.2745749,-1.4192514,-0.75911754,-0.12911266,-0.33936414,1.1735432,-1.2192323
0.1,0.0,1.2999999999999998,0.0,0.0,0,0.00073069904,-0.6733058,-2.0278404,-0.083602965,0.14719495,0.35426435,0.47410133,-1.2711164,-1.4748515,-0.7348463,-0.120120496,-0.31081674,1.1825061,-1.4345393
0.1,0.0,1.2999999999999998,0.0,0.0,0,-0.015133841,-0.67841595,-2.0049317,-0.08903131,-0.28479567,0.19445264,0.9426913,-1.2784534,-1.4929231,-0.6870403,-0.12890351,-0.3873056,1.1337245,-1.542564
0.1,0.0,1.2999999999999998,0.0,0.0,0,-0.0017044969,-0.7161947,-1.9881365,-0.044796493,0.35395876,0.48777187,0.9964561,-1.3089614,-1.4305363,-0.7561425,-0.12623847,-0.30166805,1.1705343,-1.417338
0.1,0.0,1.2999999999999998,0.0,0.0,0,-0.010787714,-0.6847862,-1.9699931,-0.1332576,0.7275009,0.37116352,-0.13278875,-1.3013546,-1.4298896,-0.7449935,-0.13555732,-0.3631862,1.1595614,-1.5022004
0.1,0.0,1.2999999999999998,0.0,0.0,0,-0.034444068,-0.69114584,-1.9751867,-0.06725253,0.5701073,0.40344226,1.0700896,-1.2928962,-1.4555347,-0.73806125,-0.11021547,-0.2961236,1.2476125,-1.4875191
0.1,0.0,1.2999999999999998,0.0,0.0,0,-0.04407747,-0.6772399,-1.9968638,-0.0149028795,-0.07097331,0.5461288,0.7351193,-1.2735643,-1.4419655,-0.7482027,-0.09764535,-0.33336648,1.1485361,-1.1747326
0.1,0.0,1.2999999999999998,0.0,0.0,0,-0.015165203,-0.6921039,-1.9802761,-0.12024439,-0.064374596,0.3321423,0.6857247,-1.274004,-1.4538447,-0.72539234,-0.13443716,-0.3294001,1.2403483,-1.2584454
0.1,0.0,1.2999999999999998,0.0,0.0,0,-0.0021715965,-0.6985493,-1.9806446,-0.07839802,-0.4767095,0.27171338,0.38068095,-1.2980394,-1.4175593,-0.74570745,-0.11372275,-0.36484095,1.1889714,-1.5598731
0.1,0.0,1.2999999999999998,0.0,0.0,0,-0.022412762,-0.6869547,-1.9961752,-0.020606177,-0.5667638,0.4885708,0.4285683,-1.281902,-1.4100795,-0.7791081,-0.12860765,-0.28016263,1.2285415,-1.6501379
0.1,0.0,1.2999999999999998,0.0,0.0,0,-0.012880423,-0.7032594,-1.9872556,-0.046922643,0.3125688,0.24235895,0.3961389,-1.2745849,-1.4970583,-0.6944332,-0.13316979,-0.34782115,1.2313879,-1.2367316
0.1,0.0,1.2999999999999998,0.0,0.0,0,-0.035128795,-0.7007128,-1.9532932,-0.058069363,0.59916884,0.3829754,0.48059678,-1.2592003,-1.4690362,-0.73426586,-0.097432576,-0.32710618,1.1492774,-1.6302732
0.1,0.0,1.2999999999999998,0.0,0.0,0,-0.035627104,-0.6939532,-1.9760653,-0.08300667,0.787288,0.2052494,0.6241842,-1.2919286,-1.4247898,-0.71389884,-0.11329746,-0.35685423,1.2305399,-1.7641386
0.1,0.0,1.2999999999999998,0.0,0.0,0,-0.019682672,-0.68600935,-1.977331,-0.09556704,0.38867372,0.40440142,0.832214,-1.2787497,-1.4540622,-0.7466393,-0.09213408,-0.3325753,1.1411597,-1.5829675
0.1,0.0,1.2999999999999998,0.0,0.0,0,-0.03379367,-0.6733489,-1.993308,-0.06710156,-0.11132743,0.25204638,0.2534244,-1.3193758,-1.4320359,-0.71556324,-0.10905172,-0.38784048,1.2134609,-1.3758591
0.1,0.0,1.2999999999999998,0.0,0.0,0,0.010791294,-0.7014182,-2.020492,-0.10821451,-0.31459197,0.708034,0.29537416,-1.2982922,-1.3849279,-0.74738926,-0.09886333,-0.3581337,1.207691,-1.7507234
0.1,0.0,1.2999999999999998,0.0,0.0,0,-0.022115352,-0.6986672,-1.9846407,-0.09437315,0.006186413,0.63006335,0.9565539,-1.2753577,-1.4235251,-0.76636165,-0.077071324,-0.29328066,1.1766268,-1.5935078
0.1,0.0,1.2999999999999998,0.0,0.0,0,-0.0039971625,-0.6913227,-1.99729,-0.061919473,-0.007336096,0.51217854,1.3831664,-1.2690465,-1.4264686,-0.760957,-0.09981147,-0.3288441,1.2014725,-1.2907239
0.1,0.0,1.2999999999999998,0.0,0.0,0,-0.040025905,-0.67199117,-1.9776604,-0.084254205,0.17910591,0.39251795,-0.015723985,-1.2507104,-1.4686421,-0.7204531,-0.11513708,-0.3768583,1.1406631,-1.1868755
0.1,0.0,1.2999999999999998,0.0,0.0,0,-0.03439484,-0.6914422,-1.980959,-0.07413315,0.733879,0.41660818,0.51996624,-1.2743775,-1.4121656,-0.7605533,-0.1218453,-0.3075287,1.183854,-1.6237515
0.1,0.0,1.2999999999999998,0.0,0.0,0,-0.023010021,-0.68210423,-2.0048373,-0.129564,0.75158805,0.4785326,0.44162512,-1.2817328,-1.4470341,-0.76587385,-0.102527596,-0.25807595,1.1348928,-1.2919339
0.1,0.0,1.2999999999999998,0.0,0.0,0,-0.033790596,-0.6967288,-1.973202,-0.043790653,0.046249054,0.30100816,0.4989629,-1.2771904,-1.4649657,-0.7176057,-0.16103126,-0.31030014,1.2340298,-1.516894
0.1,0.0,1.2999999999999998,0.0,0.0,0,-0.002018105,-0.7244255,-1.9782356,-0.04685639,-0.5823136,0.48654956,0.4098685,-1.2747511,-1.4395651,-0.72509253,-0.11748661,-0.37813818,1.1373469,-1.2938508
0.1,0.0,1.2999999999999998,0.0,0.0,0,-0.030472385,-0.6789032,-1.9815769,-0.023675708,0.05522748,0.19780028,0.5635143,-1.2671387,-1.3731575,-0.8027673,-0.08082831,-0.34102288,1.2214011,-1.2293259
0.1,0.0,1.2999999999999998,0.0,0.0,0,-0.015159821,-0.6881205,-1.9883413,-0.08417127,0.93007165,0.5520528,0.14373711,-1.2925475,-1.4421049,-0.74304116,-0.11793176,-0.3487336,1.1022795,-1.6102067
0.1,0.0,1.2999999999999998,0.0,0.0,0,-0.052715678,-0.6839432,-1.9589211,-0.09106329,0.95157284,0.28166044,0.504881,-1.2511789,-1.518995,-0.6948482,-0.08222547,-0.3440826,1.1605433,-1.2034888
0.1,0.0,1.2999999999999998,0.0,0.0,0,-0.021312328,-0.6921063,-1.9809179,-0.08857945,0.011492612,0.33516198,0.6591633,-1.2490904,-1.4915984,-0.6936435,-0.11065321,-0.3542851,1.2328217,-1.1808779
0.1,0.0,1.2999999999999998,0.0,0.0,0,-0.052189972,-0.6748773,-1.9719654,-0.109209605,-1.1885204,0.31955692,0.7485961,-1.2768142,-1.474613,-0.70170414,-0.114664175,-0.35270926,1.2338477,-1.1995809
0.1,0.0,1.2999999999999998,0.0,0.0,0,-0.066839665,-0.6673874,-1.9729679,-0.06151624,0.007064298,0.63255686,0.3012062,-1.2680942,-1.4017541,-0.79995155,-0.120046765,-0.2512957,1.1614791,-1.410705
0.1,0.0,1.2999999999999998,0.0,0.0,0,-0.027832935,-0.6751903,-1.9888672,-0.16444887,0.75912863,0.25454396,-0.07773658,-1.2931538,-1.484806,-0.7162184,-0.121625006,-0.33586812,1.1673112,-1.312589
0.1,0.0,1.2999999999999998,0.0,0.0,0,-0.029073603,-0.69980556,-1.9746432,-0.06142059,0.018883059,0.5924252,0.82132185,-1.2605807,-1.4561665,-0.69354945,-0.12977518,-0.4069893,1.173174,-1.4768629
0.1,0.0,1.2999999999999998,0.0,0.0,0,-0.001214249,-0.6978642,-2.0077431,-0.049962115,-0.31776616,0.18196546,0.673564,-1.2842252,-1.4768342,-0.69359267,-0.09599109,-0.3825011,1.2153116,-1.6044229
0.1,0.0,1.2999999999999998,0.0,0.0,0,-0.026364889,-0.6939987,-1.9760338,-0.050926905,0.2018449,0.3755032,0.20540237,-1.2980373,-1.4898988,-0.7003059,-0.13840039,-0.3609483,1.1625875,-1.2979364
0.1,0.0,1.2999999999999998,0.0,0.0,0,-0.015146355,-0.6866776,-1.9868675,-0.11347925,-0.2554055,0.264044,0.2698109,-1.2700944,-1.4380196,-0.76916385,-0.0911697,-0.28616458,1.2133032,-1.1511256
0.1,0.0,1.2999999999999998,0.0,0.0,0,-0.06394338,-0.66835785,-1.9760628,-0.07028517,0.14959304,0.38911337,0.43883196,-1.2880158,-1.4026194,-0.7263426,-0.14322008,-0.39823568,1.1683254,-1.5736288
0.1,0.0,1.2999999999999998,0.0,0.0,0,-0.018184712,-0.69318765,-1.9920784,-0.05472664,0.08792412,0.47796386,1.1005709,-1.2963636,-1.398496,-0.7634961,-0.12849654,-0.35574502,1.115245,-1.494944
0.1,0.0,1.2999999999999998,0.0,0.0,0,-0.0134232845,-0.6884498,-1.9969056,-0.10002741,0.0811047,0.41610038,-0.106309764,-1.250934,-1.486998,-0.7052034,-0.12805292,-0.32411227,1.2581209,-1.3039137
0.1,0.0,1.2999999999999998,0.0,0.0,0,0.0033373625,-0.6701391,-1.9832312,-0.105606586,0.578299,0.30891803,0.3246692,-1.3109488,-1.4647602,-0.7475074,-0.15546875,-0.3323843,1.1357182,-1.2439392
0.1,0.0,1.2999999999999998,0.0,0.0,0,0.07209309,-0.6922178,-1.9697587,-0.07326105,-0.4434545,0.32718262,0.81866574,-1.3202218,-1.3982127,-0.78345275,-0.1092846,-0.41161132,1.2472125,-1.382037
0.1,0.0,1.2999999999999998,0.0,0.0,0,0.08382668,-0.6701594,-2.0001547,-0.056090802,0.06501482,0.2280398,0.49741253,-1.29561,-1.447209,-0.7902808,-0.11550132,-0.35963365,1.2212417,-1.4875575
0.1,0.0,1.2999999999999998,0.0,0.0,0,0.10959665,-0.7042532,-1.990804,-0.046182152,-0.07258481,0.30956504,1.0036572,-1.2855474,-1.4573759,-0.81944954,-0.10682526,-0.32648286,1.1635828,-1.133194
0.1,0.0,1.2999999999999998,0.0,0.0,0,0.0025543098,-0.65970933,-1.9749042,-0.09924389,0.0182359,0.4281593,0.10551048,-1.2879146,-1.4866112,-0.7799233,-0.120868176,-0.2717774,1.1742907,-1.4759917
0.1,0.0,1.2999999999999998,0.0,0.0,0,-0.009069392,-0.7231439,-1.9874879,-0.066130385,0.5222023,0.59791464,0.56833816,-1.2859774,-1.4893091,-0.6580695,-0.101580374,-0.3713131,1.248555,-1.6098903
0.1,0.0,1.2999999999999998,0.0,0.0,0,0.012816644,-0.7105224,-1.9980212,-0.047991283,0.013242117,0.5649842,0.35206008,-1.2715255,-1.4792433,-0.7730458,-0.10726354,-0.3440658,1.1387028,-1.2975222
0.1,0.0,1.2999999999999998,0.0,0.0,0,-0.03099937,-0.7117935,-1.9424376,-0.05428849,1.1491398,0.02687436,0.15797248,-1.287907,-1.4179184,-0.75194025,-0.15075059,-0.32586682,1.1819692,-1.4369568
0.1,0.0,1.2999999999999998,0.0,0.0,0,0.026396807,-0.67562586,-1.9964259,-0.06164771,-0.4869899,0.6492053,0.98172766,-1.2738752,-1.5268995,-0.71114993,-0.11771688,-0.30123118,1.2492677,-1.6600302
0.1,0.0,1.2999999999999998,0.0,0.0,0,-0.042042203,-0.7384984,-1.9683453,-0.031749986,0.14543988,0.41946557,0.2592755,-1.2742956,-1.481414,-0.71875346,-0.103590555,-0.27439913,1.164275,-1.4836296
0.1,0.0,1.2999999999999998,0.0,0.0,0,0.051422536,-0.69048387,-1.9644845,-0.032466877,-0.09874015,0.3109169,0.21569374,-1.2738849,-1.4973953,-0.7590906,-0.15975536,-0.32989022,1.2005707,-1.5424141
0.1,0.0,1.2999999999999998,0.0,0.0,0,0.0021457388,-0.69978374,-1.9755402,-0.042084303,-0.384628,0.44025734,0.766758,-1.2749836,-1.4595715,-0.7433145,-0.1251201,-0.35323226,1.1543169,-1.3059866
0.1,0.0,1.2999999999999998,0.0,0.0,0,-0.07933782,-0.7085588,-1.9749842,-0.0625844,1.0569415,0.193941,0.38577417,-1.2621744,-1.4585437,-0.72048485,-0.119975656,-0.26543888,1.1796926,-1.3602794
0.1,0.0,1.2999999999999998,0.0,0.0,0,0.039643668,-0.7024279,-1.9764749,-0.017852247,0.4446831,0.39271083,0.2711135,-1.2639045,-1.4653836,-0.753567,-0.12722974,-0.38102084,1.1851945,-1.4319136
0.1,0.0,1.2999999999999998,0.0,0.0,0,0.069522634,-0.69538134,-2.029183,-0.060102463,-0.029288819,0.34775662,0.5444571,-1.290225,-1.4423192,-0.759994,-0.12348335,-0.3578177,1.1935197,-1.2064446
0.1,0.0,1.2999999999999998,0.0,0.0,0,-0.015537552,-0.71353906,-1.963898,-0.0067327856,0.35231176,0.47308284,0.46084586,-1.2551253,-1.4803393,-0.74136573,-0.16237964,-0.27937293,1.2140726,-1.4070175
0.1,0.0,1.2999999999999998,0.0,0.0,0,-0.020727795,-0.7058198,-1.9982991,-0.0991776,0.060591895,0.41857424,-0.005690787,-1.3043878,-1.4107273,-0.7134534,-0.14127257,-0.3294105,1.2189676,-1.2821528
0.1,0.0,1.2999999999999998,0.0,0.0,0,-0.030958721,-0.7128476,-2.0046136,-0.07773866,0.81749165,0.47694054,0.28942224,-1.2804333,-1.4452102,-0.67984694,-0.119819745,-0.37838724,1.1573457,-1.3951834
0.1,0.0,1.2999999999999998,0.0,0.0,0,-0.030290604,-0.7311243,-1.9948893,-0.11847175,0.8928867,0.15176639,0.6287105,-1.2592206,-1.4255105,-0.7131066,-0.11383053,-0.30715245,1.2189397,-1.2010835
0.1,0.0,1.2999999999999998,0.0,0.0,0,-0.04438068,-0.7063342,-1.9479579,-0.038913008,-0.040850993,0.5028808,0.37130702,-1.2777885,-1.4429774,-0.7559196,-0.13998856,-0.28483516,1.1763147,-1.3994973
0.1,0.0,1.2999999999999998,0.0,0.0,0,-0.083170965,-0.7002124,-1.9810795,-0.035923462,0.41442105,0.3940856,0.58185583,-1.2793593,-1.4593308,-0.69436395,-0.098606035,-0.36314046,1.1233125,-1.2946645
0.1,0.0,1.2999999999999998,0.0,0.0,0,-0.032573722,-0.68102634,-1.9628385,-0.09162753,1.118862,0.37713763,1.2168056,-1.2970189,-1.4223942,-0.7717136,-0.09874197,-0.3135342,1.1705152,-1.4317921
0.1,0.0,1.2999999999999998,0.0,0.0,0,-0.08221651,-0.7072492,-1.9739219,-0.06860821,0.965632,0.40305427,0.0877434,-1.2242854,-1.4665912,-0.67075014,-0.12448037,-0.34519866,1.1918632,-1.2858567
0.1,0.0,1.2999999999999998,0.0,0.0,0,-0.044460233,-0.71490854,-1.9800304,-0.07708759,0.11700514,0.2487859,0.8318719,-1.2586664,-1.488246,-0.67614174,-0.13344474,-0.3406437,1.1900074,-1.1547259
0.1,0.0,1.2999999999999998,0.0,0.0,0,0.005537259,-0.6803125,-1.9465678,-0.04285491,0.29211047,0.44771183,0.88609046,-1.2737792,-1.4431957,-0.80400246,-0.10892567,-0.31577638,1.1527215,-1.3026191
0.1,0.0,1.2999999999999998,0.0,0.0,0,0.045073792,-0.69442976,-1.9988172,-0.080672696,-0.5607659,0.5002257,0.47731405,-1.2889422,-1.4603691,-0.7660142,-0.13858041,-0.31251758,1.1638616,-1.4426119
0.1,0.0,1.2999999999999998,0.0,0.0,0,0.06408708,-0.7061827,-1.9870754,-0.08837092,-0.18688747,0.4386822,0.4603962,-1.2664987,-1.4584414,-0.77862656,-0.11954506,-0.30249718,1.2372512,-1.1958101
0.1,0.0,1.2999999999999998,0.0,0.0,0,-0.032906104,-0.70204043,-1.9726386,-0.061393414,-0.10601753,0.22750838,0.66026753,-1.3020585,-1.4979763,-0.7190899,-0.093699716,-0.29042375,1.2215226,-1.3309876
0.1,0.0,1.2999999999999998,0.0,0.0,0,-0.106584415,-0.69265735,-1.9757024,0.00080172933,-0.4000902,0.36138543,0.549718,-1.2751889,-1.385638,-0.74699825,-0.1536556,-0.297321,1.1675246,-1.4086571
0.1,0.0,1.2999999999999998,0.0,0.0,0,-0.04992519,-0.6946201,-1.9676499,-0.075639054,0.0008594793,0.20913905,0.8005438,-1.3268394,-1.3818208,-0.7583931,-0.14285153,-0.310431,1.2079178,-1.4103923
0.1,0.0,1.2999999999999998,0.0,0.0,0,-0.04329655,-0.7151915,-1.993711,-0.031176748,0.020014904,0.43181664,0.744921,-1.2589718,-1.5003688,-0.6898364,-0.13717724,-0.28297076,1.2134707,-1.4031245
0.1,0.0,1.2999999999999998,0.0,0.0,0,-0.008174897,-0.6614029,-1.9922904,-0.11558311,1.0428289,0.40625963,0.14216459,-1.2753419,-1.4762529,-0.7523027,-0.10778671,-0.30650023,1.1757172,-1.3606569
0.1,0.0,1.2999999999999998,0.0,0.0,0,-0.026987532,-0.70136064,-1.9647301,-0.07043384,0.38014567,0.38722512,0.23887187,-1.2876321,-1.4597422,-0.6952976,-0.11009113,-0.36707222,1.2280197,-1.4002888
0.1,0.0,1.2999999999999998,0.0,0.0,0,-0.015046165,-0.68602216,-1.9789964,-0.030084062,-0.07117866,0.38244155,1.5271115,-1.2799207,-1.4453311,-0.7673165,-0.12000655,-0.3465454,1.1093479,-1.4772929
0.1,0.0,1.2999999999999998,0.0,0.0,0,0.007299673,-0.72268295,-1.9748844,-0.045243215,0.64067835,0.4902908,0.8766658,-1.2622324,-1.4851817,-0.7115444,-0.10504804,-0.36099026,1.1741111,-1.3173819
0.1,0.0,1.2999999999999998,0.0,0.0,0,0.03779792,-0.6973637,-2.0031247,-0.055902075,-0.23030353,0.31117216,0.34145615,-1.2901951,-1.4266372,-0.77627015,-0.10690402,-0.33543473,1.1734447,-1.311503
0.1,0.0,1.2999999999999998,0.0,0.0,0,-0.03323433,-0.67849475,-1.9727545,-0.10642956,-0.4828267,0.51022214,0.2941617,-1.264475,-1.4250075,-0.7780755,-0.082629286,-0.29804206,1.174768,-1.2519791
0.1,0.0,1.2999999999999998,0.0,0.0,0,-0.049635965,-0.70518714,-1.9801673,-0.08253418,0.21834588,0.19836305,0.5369992,-1.2765485,-1.4333735,-0.7167601,-0.07515196,-0.34345508,1.178175,-1.4799029
0.1,0.0,1.2999999999999998,0.0,0.0,0,0.018514201,-0.6657459,-2.0024006,-0.0619974,-0.06464956,0.4891791,0.8438294,-1.2550452,-1.4598134,-0.77036047,-0.13414426,-0.3281654,1.1776619,-1.427313
0.1,0.0,1.2999999999999998,0.0,0.0,0,-0.034874924,-0.72683346,-1.9869018,-0.046457753,-0.36187086,0.4623233,0.81194717,-1.2455393,-1.4445328,-0.7154783,-0.1375536,-0.31734622,1.1720288,-1.5193971
0.1,0.0,1.2999999999999998,0.0,0.0,0,0.0050833276,-0.7179056,-1.9649819,-0.08031376,0.7838444,0.38256136,0.62224543,-1.2712599,-1.4289923,-0.7434994,-0.13921468,-0.3290506,1.1939269,-1.4182765
0.1,0.0,1.2999999999999998,0.0,0.0,0,0.01836344,-0.71784127,-1.9488903,-0.05025898,0.80984515,0.41790733,0.5142909,-1.2617548,-1.4906429,-0.7006873,-0.124370195,-0.38336504,1.1853461,-1.352377
0.1,0.0,1.2999999999999998,0.0,0.0,0,0.010753892,-0.72568417,-1.9520514,-0.03689364,0.052714184,0.23589236,1.1310277,-1.2957306,-1.4599153,-0.7884367,-0.12769021,-0.24859494,1.1763344,-1.3442191
0.1,0.0,1.2999999999999998,0.0,0.0,0,-0.00736602,-0.6740132,-1.9754936,-0.037155688,0.31934875,0.4148975,0.30941942,-1.2631139,-1.4498961,-0.76244104,-0.11411079,-0.35400876,1.1702476,-1.2283342
0.1,0.0,1.2999999999999998,0.0,0.0,0,-0.03350826,-0.6605741,-1.9625653,-0.07758808,0.7490096,0.54121804,0.5794473,-1.2640128,-1.3926952,-0.7812724,-0.111589365,-0.37759116,1.2235898,-1.5060719
0.1,0.0,1.2999999999999998,0.0,0.0,0,-0.017692484,-0.70842206,-2.0036626,-0.05198497,0.25958103,0.2548349,0.6385725,-1.2651285,-1.4479423,-0.7200307,-0.11001546,-0.3325061,1.2038594,-1.3550398
0.1,0.0,1.2999999999999998,0.0,0.0,0,-0.04494156,-0.7070182,-1.9831581,-0.05173031,-0.19148506,0.3470843,0.75269765,-1.2697167,-1.3506528,-0.7824168,-0.10535761,-0.32594407,1.2126821,-1.5341196
0.1,0.0,1.2999999999999998,0.0,0.0,0,-0.02167294,-0.71981347,-1.9676926,-0.060304523,0.23661505,0.27206346,-0.10006529,-1.2746565,-1.4170276,-0.7651113,-0.13269421,-0.29302913,1.1685632,-1.4807036
0.1,0.0,1.2999999999999998,0.0,0.0,0,-0.004349835,-0.6777629,-1.967411,-0.07594374,0.20818403,0.5325823,0.19302572,-1.2683048,-1.4126871,-0.7768467,-0.11358317,-0.3421009,1.2317626,-1.7565039
0.1,0.0,1.2999999999999998,0.0,0.0,0,-0.0019733892,-0.6898975,-1.9671834,-0.07815491,0.055907547,0.4746913,0.19165128,-1.3103905,-1.3932385,-0.7850036,-0.1094307,-0.33610454,1.2132486,-1.483469
0.1,0.0,1.2999999999999998,0.0,0.0,0,0.0037580612,-0.7061013,-1.9622371,-0.12402461,0.8122096,0.3433202,0.060512,-1.2756363,-1.5069965,-0.7374094,-0.1216971,-0.28219974,1.2083019,-1.3064556
0.1,0.0,1.2999999999999998,0.0,0.0,0,-0.019389434,-0.72257674,-1.9699748,-0.052343126,0.49370766,0.5641429,0.73289305,-1.2541184,-1.4253209,-0.69472164,-0.15034896,-0.40517494,1.2294583,-1.2608346
0.1,0.0,1.2999999999999998,0.0,0.0,0,-0.056400817,-0.7054701,-1.9676967,-0.060359813,0.11111138,0.5512552,0.7129661,-1.264646,-1.4475414,-0.7515169,-0.11460251,-0.2531188,1.1847094,-1.5759685
0.1,0.0,1.2999999999999998,0.0,0.0,0,-0.016353628,-0.72446674,-1.9705242,-0.0735304,0.16492534,0.33166033,0.25390625,-1.255091,-1.4325618,-0.7543575,-0.12554057,-0.2808308,1.1984814,-1.4274312
0.1,0.0,1.2999999999999998,0.0,0.0,0,-0.012623265,-0.71363795,-1.9851415,-0.070518136,0.67536885,0.4186389,0.36427373,-1.2777258,-1.4532225,-0.73373175,-0.11522522,-0.2916883,1.2038034,-1.2463855
0.1,0.0,1.2999999999999998,0.0,0.0,0,-0.042241625,-0.7027898,-1.9832975,-0.041133024,0.9090574,0.3792764,0.68169016,-1.2499145,-1.4482977,-0.74720496,-0.12621786,-0.28129187,1.1519082,-1.5148917
0.1,0.0,1.2999999999999998,0.0,0.0,0,-0.00034517387,-0.71055704,-1.9862201,-0.04915425,0.4085521,0.37215814,1.2717105,-1.2635633,-1.5021943,-0.70350945,-0.10668099,-0.33741403,1.1930554,-1.4670323
0.1,0.0,1.2999999999999998,0.0,0.0,0,-0.05728911,-0.68491304,-1.9172844,-0.107054316,0.24319763,0.37679097,0.46973273,-1.2957915,-1.4036726,-0.7870685,-0.121938355,-0.27715477,1.2636397,-1.5429844
0.1,0.0,1.2999999999999998,0.0,0.0,0,-0.05019824,-0.7006379,-1.9720114,-0.035442386,0.09796829,0.40037683,0.004015486,-1.2652351,-1.4444298,-0.7559411,-0.1333664,-0.26533237,1.1612222,-1.2145377
0.1,0.0,1.2999999999999998,0.0,0.0,0,-0.019507619,-0.6793416,-1.9669449,-0.07310225,0.70929706,0.32509795,1.0782018,-1.2823336,-1.430733,-0.7869416,-0.10033422,-0.30166098,1.1508659,-1.4319378
0.1,0.0,1.2999999999999998,0.0,0.0,0,-0.030324437,-0.66737074,-1.9685522,-0.0748463,0.27636483,0.51269567,1.1019253,-1.267173,-1.4496555,-0.76527786,-0.106358774,-0.3250591,1.1639991,-1.4533131
0.1,0.0,1.2999999999999998,0.0,0.0,0,-0.043111194,-0.6642315,-1.9977723,-0.10433762,-0.3159314,0.4180707,0.045192283,-1.2577085,-1.4202961,-0.7639988,-0.12654951,-0.31569156,1.1834227,-1.5212461
0.1,0.0,1.2999999999999998,0.0,0.0,0,-0.04448305,-0.66901004,-1.9736009,-0.10140532,0.81230265,0.66908014,0.66639423,-1.2528081,-1.4014652,-0.7509276,-0.13976248,-0.37921032,1.2113762,-1.4751714
0.1,0.0,1.2999999999999998,0.0,0.0,0,-0.0076108887,-0.6890658,-1.9871448,-0.06365505,-0.3380256,0.48515797,0.35148403,-1.2788309,-1.3968067,-0.7615564,-0.09624808,-0.4051693,1.1277329,-1.6292168
0.1,0.0,1.2999999999999998,0.0,0.0,0,-0.029039146,-0.6888716,-1.9861654,-0.06308083,-0.3137523,0.38997272,0.3721602,-1.2544316,-1.3942951,-0.7654218,-0.12824573,-0.34862143,1.1893265,-1.1914233
0.1,0.0,1.2999999999999998,0.0,0.0,0,-0.026504755,-0.702949,-1.9521593,-0.039201327,-0.10127382,0.5917026,0.62911034,-1.2575392,-1.3934808,-0.7876449,-0.11331276,-0.31414488,1.2157426,-1.4392749
0.1,0.0,1.2999999999999998,0.0,0.0,0,-0.09399649,-0.60356,-1.9288652,-0.058374234,0.21805067,0.30664,0.42803568,-1.3547456,-1.3533005,-0.9473676,-0.1010137,-0.11609742,1.0162519,-1.581452
0.1,0.0,1.2999999999999998,0.0,0.0,0,-0.09399649,-0.60356,-1.9288652,-0.058374234,0.21805067,0.30664,0.42803568,-1.3547456,-1.3533005,-0.9473676,-0.1010137,-0.11609742,1.0162519,-1.581452
0.1,0.0,1.2999999999999998,0.0,0.0,0,-0.09399649,-0.60356,-1.9288652,-0.058374234,0.21805067,0.30664,0.42803568,-1.3547456,-1.3533005,-0.9473676,-0.1010137,-0.11609742,1.0162519,-1.581452
0.1,0.0,1.2999999999999998,0.0,0.0,0,-0.051298063,-0.68603325,-1.9629351,-0.025537295,0.4712437,0.28927523,1.0846622,-1.2774742,-1.388156,-0.80637926,-0.12432379,-0.2613422,1.150465,-1.3262277
0.1,0.0,1.2999999999999998,0.0,0.0,0,-0.051298063,-0.68603325,-1.9629351,-0.025537295,0.4712437,0.28927523,1.0846622,-1.2774742,-1.388156,-0.80637926,-0.12432379,-0.2613422,1.150465,-1.3262277
0.1,0.0,1.2999999999999998,0.0,0.0,0,-0.051298063,-0.68603325,-1.9629351,-0.025537295,0.4712437,0.28927523,1.0846622,-1.2774742,-1.388156,-0.80637926,-0.12432379,-0.2613422,1.150465,-1.3262277
0.1,0.0,1.2999999999999998,0.0,0.0,0,-0.051298063,-0.68603325,-1.9629351,-0.025537295,0.4712437,0.28927523,1.0846622,-1.2774742,-1.388156,-0.80637926,-0.12432379,-0.2613422,1.150465,-1.3262277
0.1,0.0,1.2999999999999998,0.0,0.0,0,-0.027649555,-0.67766017,-1.986148,-0.07972149,0.50109154,0.45302355,0.28983885,-1.2680503,-1.3913697,-0.80844927,-0.14239267,-0.25481242,1.1976144,-1.5293881
0.1,0.0,1.2999999999999998,0.0,0.0,0,-0.027649555,-0.67766017,-1.986148,-0.07972149,0.50109154,0.45302355,0.28983885,-1.2680503,-1.3913697,-0.80844927,-0.14239267,-0.25481242,1.1976144,-1.5293881
0.1,0.0,1.2999999999999998,0.0,0.0,0,-0.027649555,-0.67766017,-1.986148,-0.07972149,0.50109154,0.45302355,0.28983885,-1.2680503,-1.3913697,-0.80844927,-0.14239267,-0.25481242,1.1976144,-1.5293881
0.1,0.0,1.2999999999999998,0.0,0.0,0,-0.027649555,-0.67766017,-1.986148,-0.07972149,0.50109154,0.45302355,0.28983885,-1.2680503,-1.3913697,-0.80844927,-0.14239267,-0.25481242,1.1976144,-1.5293881
0.1,0.0,1.2999999999999998,0.0,0.0,0,-0.027649555,-0.67766017,-1.986148,-0.07972149,0.50109154,0.45302355,0.28983885,-1.2680503,-1.3913697,-0.80844927,-0.14239267,-0.25481242,1.1976144,-1.5293881
0.1,0.0,1.2999999999999998,0.0,0.0,0,-0.05394794,-0.6881746,-1.9473501,-0.050506756,0.9368168,0.19762497,0.65659946,-1.2769954,-1.4440916,-0.74677944,-0.13213973,-0.32699302,1.1222714,-1.5725712
0.1,0.0,1.2999999999999998,0.0,0.0,0,-0.05394794,-0.6881746,-1.9473501,-0.050506756,0.9368168,0.19762497,0.65659946,-1.2769954,-1.4440916,-0.74677944,-0.13213973,-0.32699302,1.1222714,-1.5725712
0.1,0.0,1.2999999999999998,0.0,0.0,0,-0.05394794,-0.6881746,-1.9473501,-0.050506756,0.9368168,0.19762497,0.65659946,-1.2769954,-1.4440916,-0.74677944,-0.13213973,-0.32699302,1.1222714,-1.5725712
0.1,0.0,1.2999999999999998,0.0,0.0,0,-0.05394794,-0.6881746,-1.9473501,-0.050506756,0.9368168,0.19762497,0.65659946,-1.2769954,-1.4440916,-0.74677944,-0.13213973,-0.32699302,1.1222714,-1.5725712
0.1,0.0,1.2999999999999998,0.0,0.0,0,-0.036910847,-0.68874264,-1.9693058,-0.084259674,0.86744785,0.45661497,-0.13669303,-1.2800115,-1.3602263,-0.8022761,-0.14491078,-0.31327358,1.1430223,-1.0829412
0.1,0.0,1.2999999999999998,0.0,0.0,0,-0.036910847,-0.68874264,-1.9693058,-0.084259674,0.86744785,0.45661497,-0.13669303,-1.2800115,-1.3602263,-0.8022761,-0.14491078,-0.31327358,1.1430223,-1.0829412
0.1,0.0,1.2999999999999998,0.0,0.0,0,-0.036910847,-0.68874264,-1.9693058,-0.084259674,0.86744785,0.45661497,-0.13669303,-1.2800115,-1.3602263,-0.8022761,-0.14491078,-0.31327358,1.1430223,-1.0829412
0.1,0.0,1.2999999999999998,0.0,0.0,0,-0.034391522,-0.6873098,-1.9498984,-0.0632645,0.418076,0.46013504,-0.057785235,-1.2493306,-1.4155362,-0.76505893,-0.09265498,-0.37845042,1.172896,-1.1948091
0.1,0.0,1.2999999999999998,0.0,0.0,0,-0.034391522,-0.6873098,-1.9498984,-0.0632645,0.418076,0.46013504,-0.057785235,-1.2493306,-1.4155362,-0.76505893,-0.09265498,-0.37845042,1.172896,-1.1948091
0.1,0.0,1.2999999999999998,0.0,0.0,0,-0.034391522,-0.6873098,-1.9498984,-0.0632645,0.418076,0.46013504,-0.057785235,-1.2493306,-1.4155362,-0.76505893,-0.09265498,-0.37845042,1.172896,-1.1948091
0.1,0.0,1.2999999999999998,0.0,0.0,0,-0.0540712,-0.68265444,-1.9713534,-0.055142336,-0.35427642,0.24511805,0.63948196,-1.2765422,-1.3951427,-0.7855161,-0.10193339,-0.2942081,1.163554,-1.4909822
0.1,0.0,1.2999999999999998,0.0,0.0,0,-0.0540712,-0.68265444,-1.9713534,-0.055142336,-0.35427642,0.24511805,0.63948196,-1.2765422,-1.3951427,-0.7855161,-0.10193339,-0.2942081,1.163554,-1.4909822
0.1,0.0,1.2999999999999998,0.0,0.0,0,-0.0540712,-0.68265444,-1.9713534,-0.055142336,-0.35427642,0.24511805,0.63948196,-1.2765422,-1.3951427,-0.7855161,-0.10193339,-0.2942081,1.163554,-1.4909822
0.1,0.0,1.2999999999999998,0.0,0.0,0,-0.0540712,-0.68265444,-1.9713534,-0.055142336,-0.35427642,0.24511805,0.63948196,-1.2765422,-1.3951427,-0.7855161,-0.10193339,-0.2942081,1.163554,-1.4909822
0.1,0.0,1.2999999999999998,0.0,0.0,0,-0.055122122,-0.6668312,-1.961024,-0.0130094625,-0.32350415,0.60195273,1.1546702,-1.2997518,-1.3020616,-0.86109906,-0.16615924,-0.2698534,1.2090126,-1.167253
0.1,0.0,1.2999999999999998,0.0,0.0,0,-0.055122122,-0.6668312,-1.961024,-0.0130094625,-0.32350415,0.60195273,1.1546702,-1.2997518,-1.3020616,-0.86109906,-0.16615924,-0.2698534,1.2090126,-1.167253
0.1,0.0,1.2999999999999998,0.0,0.0,0,-0.055122122,-0.6668312,-1.961024,-0.0130094625,-0.32350415,0.60195273,1.1546702,-1.2997518,-1.3020616,-0.86109906,-0.16615924,-0.2698534,1.2090126,-1.167253
0.1,0.0,1.2999999999999998,0.0,0.0,0,-0.055122122,-0.6668312,-1.961024,-0.0130094625,-0.32350415,0.60195273,1.1546702,-1.2997518,-1.3020616,-0.86109906,-0.16615924,-0.2698534,1.2090126,-1.167253
0.1,0.0,1.2999999999999998,0.0,0.0,0,-0.0058306516,-0.7085073,-1.9857956,-0.057487704,0.6026196,0.4196603,0.17911111,-1.2775671,-1.3787547,-0.7607309,-0.12377837,-0.36818016,1.2234586,-1.5098269
0.1,0.0,1.2999999999999998,0.0,0.0,0,-0.0058306516,-0.7085073,-1.9857956,-0.057487704,0.6026196,0.4196603,0.17911111,-1.2775671,-1.3787547,-0.7607309,-0.12377837,-0.36818016,1.2234586,-1.5098269
