sanky1234/BimanualDexCatch/isaacgymenvs/cem_results/May31/football_pose_0.30000000000000004_0.1_0.9_0.0_0.0_0_2025-05-31.csv
x,y,z,roll,pitch,yaw,robot1/joint1,robot1/joint2,robot1/joint3,robot1/joint4,robot1/joint5,robot1/joint6,robot1/joint7,robot2/joint1,robot2/joint2,robot2/joint3,robot2/joint4,robot2/joint5,robot2/joint6,robot2/joint7
0.30000000000000004,0.1,0.9,0.0,0.0,0,-1.0455945,1.0337687,-0.78428704,0.027586872,0.064361945,0.3373017,-0.9706073,1.0437131,0.0536761,0.9097255,1.0051959,0.14063706,0.35960907,-0.8199636
0.30000000000000004,0.1,0.9,0.0,0.0,0,-1.0411884,1.0324391,-0.76894635,0.069886446,0.25460926,0.29906422,-1.2468196,1.0681411,0.56365854,0.8867441,1.0131295,0.20201685,0.3573203,-0.82346547
0.30000000000000004,0.1,0.9,0.0,0.0,0,-1.0417551,1.0759788,-0.7736751,0.023848794,0.004261238,0.30823067,-1.3496692,0.8828404,0.06371151,0.8457708,0.9788484,0.1335225,0.37080887,-0.78997076
0.30000000000000004,0.1,0.9,0.0,0.0,0,-1.058291,1.0458853,-0.7784448,0.042201303,0.27689147,0.36059454,-1.4273221,0.9360312,0.23398845,0.8733891,0.97084427,0.17789428,0.34712583,-0.9172033
0.30000000000000004,0.1,0.9,0.0,0.0,0,-1.0536715,1.0455449,-0.76876336,0.038387462,0.06456271,0.31328595,-0.47917587,0.9997476,0.124479264,0.84244925,1.0115023,0.19380343,0.34872726,-0.929272
0.30000000000000004,0.1,0.9,0.0,0.0,0,-1.0563009,1.0496647,-0.7641861,0.07470417,0.057823684,0.33737028,-1.5661857,0.84413177,0.48771247,0.8855602,1.0122839,0.17144983,0.32491437,-0.8856183
0.30000000000000004,0.1,0.9,0.0,0.0,0,-1.0624329,1.0294678,-0.7767731,0.040860422,0.0066822614,0.31980652,-0.9283253,1.0510061,0.054152317,0.82626456,1.0433916,0.17539202,0.35297397,-0.86522347
0.30000000000000004,0.1,0.9,0.0,0.0,0,-1.0495278,1.0491195,-0.7781238,-0.0017759529,0.16654211,0.35570496,-0.975109,1.0744,0.29472205,0.878427,1.0386442,0.111926384,0.36054516,-0.8866315
0.30000000000000004,0.1,0.9,0.0,0.0,0,-1.0510398,1.0248415,-0.7820376,0.050921265,0.12964913,0.39228463,-1.5734326,1.112747,-0.022052301,0.8477541,1.0641843,0.15406474,0.35497668,-0.9410363
0.30000000000000004,0.1,0.9,0.0,0.0,0,-1.0137326,1.0462943,-0.7861185,0.109267004,0.2106298,0.32219854,-0.9618886,0.8664113,0.36031556,0.8443864,0.9916774,0.15807317,0.34337026,-0.7915447
0.30000000000000004,0.1,0.9,0.0,0.0,0,-1.0199974,1.0281428,-0.78113014,0.11305388,0.0953653,0.29903853,-1.4260442,1.0434077,0.49490523,0.8074415,1.0163914,0.10441319,0.38238585,-0.819604
0.30000000000000004,0.1,0.9,0.0,0.0,0,-1.036777,1.0461524,-0.7830731,0.0685523,0.15884726,0.35081533,-1.2580056,0.9575076,0.39250758,0.872205,1.0026954,0.19246885,0.35854128,-0.86318886
0.30000000000000004,0.1,0.9,0.0,0.0,0,-1.0422229,1.0355132,-0.7698738,0.0737014,0.20653404,0.31278375,-1.3146995,1.003674,0.25281662,0.84583265,0.9807847,0.10255695,0.35837403,-0.7822357
0.30000000000000004,0.1,0.9,0.0,0.0,0,-1.041616,1.0462503,-0.7973117,0.050531447,0.17964639,0.33332568,-1.0465653,1.0262867,0.017247599,0.8539191,1.0095204,0.109014206,0.36266693,-0.79627943
0.30000000000000004,0.1,0.9,0.0,0.0,0,-1.0190026,1.0491635,-0.78060174,0.048521098,0.25853416,0.3679831,-0.9179025,1.031893,0.17960352,0.8496536,0.9901086,0.1542435,0.3705349,-0.82058483
0.30000000000000004,0.1,0.9,0.0,0.0,0,-1.0407727,1.0582772,-0.77703035,0.037812546,0.06433843,0.35609987,-0.9148384,0.9316832,0.06202722,0.8738498,1.0192064,0.12832442,0.35544643,-0.86207813
0.30000000000000004,0.1,0.9,0.0,0.0,0,-1.0228028,1.0457288,-0.7806761,0.11158122,0.14460865,0.35810187,-1.0964943,0.95097065,0.0059567722,0.87773585,0.9898263,0.12240321,0.39952284,-0.8108944
0.30000000000000004,0.1,0.9,0.0,0.0,0,-1.0482388,1.0642353,-0.7717735,0.01531204,0.29517478,0.28409326,-1.127832,1.0568788,0.23109724,0.85400075,0.9630689,0.07035477,0.38654453,-0.87985545
0.30000000000000004,0.1,0.9,0.0,0.0,0,-1.0335424,1.0560853,-0.784312,0.023889149,0.17743583,0.27342469,-1.3070669,0.9258037,0.20118341,0.85898656,0.936574,0.06657288,0.40859535,-0.8266296
0.30000000000000004,0.1,0.9,0.0,0.0,0,-1.0288552,1.0339862,-0.78653765,0.038071383,0.1013945,0.41152492,-1.02632,1.045182,-0.05476227,0.8661201,0.9926686,0.10750155,0.3702012,-0.86255664
0.30000000000000004,0.1,0.9,0.0,0.0,0,-1.0551832,1.0563844,-0.76468194,0.029526789,0.16676934,0.31751832,-0.7593902,0.99649024,-0.106326416,0.85042644,0.98471946,0.14444803,0.36287954,-0.8802743
0.30000000000000004,0.1,0.9,0.0,0.0,0,-1.0403881,1.0512921,-0.75916153,0.08496546,0.19561057,0.27270052,-0.68878263,1.0221747,0.28699684,0.86772823,0.9992552,0.15156415,0.3609263,-0.8271657
0.30000000000000004,0.1,0.9,0.0,0.0,0,-1.0399486,1.0377829,-0.77072304,0.013425714,-0.032722414,0.42280975,-1.1918607,0.9534228,0.13003057,0.85374826,0.9709133,0.071668535,0.34985495,-0.80793464
0.30000000000000004,0.1,0.9,0.0,0.0,0,-1.0259044,1.0588535,-0.79999655,0.02559519,0.14434466,0.33923724,-1.0947089,1.1144243,-0.14183937,0.7719263,0.98292035,0.14271568,0.3595475,-0.87374735
0.30000000000000004,0.1,0.9,0.0,0.0,0,-1.0507706,1.0400078,-0.7810867,0.110250466,0.15112646,0.36488658,-0.8651119,0.94412297,0.49477974,0.8922077,1.021362,0.08389311,0.38208202,-0.85244656
0.30000000000000004,0.1,0.9,0.0,0.0,0,-1.0462534,1.0516274,-0.7875135,0.13150206,0.13456441,0.40527877,-0.95838684,0.8627778,0.48361948,0.8437459,0.999603,0.12894243,0.37405986,-0.75155264
0.30000000000000004,0.1,0.9,0.0,0.0,0,-1.0602821,1.0129576,-0.7790576,0.10192132,0.17378688,0.33204272,-1.5007339,1.1431462,0.15762664,0.8539924,1.0273378,0.123486415,0.34061018,-0.86485684
0.30000000000000004,0.1,0.9,0.0,0.0,0,-1.0019802,1.0524741,-0.7843189,0.063274875,0.23658857,0.34857553,-0.7669007,1.0323447,0.49169526,0.8359664,1.0414557,0.117214896,0.37323996,-0.78262424
0.30000000000000004,0.1,0.9,0.0,0.0,0,-1.026815,1.0433538,-0.7738151,0.043355152,0.0964414,0.32782713,-1.0223914,0.95109105,0.48805013,0.8423044,1.0178069,0.09617533,0.35232016,-0.8358267
0.30000000000000004,0.1,0.9,0.0,0.0,0,-1.0323792,1.0531641,-0.7767922,0.05308683,0.2761471,0.33639213,-0.49063307,1.0977811,0.20775855,0.88528454,1.0822264,0.10759357,0.39044014,-0.9143363
0.30000000000000004,0.1,0.9,0.0,0.0,0,-1.0248137,1.0471687,-0.7839944,0.072946325,0.24443065,0.33271256,-0.7928844,0.98598254,0.472701,0.8665617,1.0533663,0.17707665,0.37132537,-0.8175114
0.30000000000000004,0.1,0.9,0.0,0.0,0,-1.0532517,1.0440447,-0.77215755,0.04963299,0.24186377,0.34673125,-0.72962797,1.0360119,0.15827525,0.85551524,1.1182852,0.10582832,0.35528493,-0.7597011
0.30000000000000004,0.1,0.9,0.0,0.0,0,-1.0768843,1.0398804,-0.7765657,0.0912733,0.23825027,0.37542012,-0.93847656,1.0364752,0.33722726,0.8656129,1.1329668,0.13984841,0.35623044,-0.8627475
0.30000000000000004,0.1,0.9,0.0,0.0,0,-1.0508988,1.0636344,-0.7818676,0.048103523,0.3643358,0.32258454,-1.0939296,1.0700579,0.3374245,0.9246434,1.0559015,0.12072433,0.33189923,-0.78094697
0.30000000000000004,0.1,0.9,0.0,0.0,0,-1.0493264,1.0550832,-0.7906863,0.10083157,0.24872412,0.38069594,-0.8618622,1.0511116,0.55310416,0.8442836,0.97028404,0.105394304,0.36813962,-0.8569568
0.30000000000000004,0.1,0.9,0.0,0.0,0,-1.0407735,1.0454537,-0.7818708,0.08551837,0.053577714,0.2777084,-1.2781785,0.83511204,0.49434546,0.8143531,1.0329503,0.14650317,0.35931888,-0.77516615
0.30000000000000004,0.1,0.9,0.0,0.0,0,-1.0462707,1.0375203,-0.7671953,0.10305892,0.42830464,0.35717696,-0.7494611,0.984437,0.36494988,0.88328755,0.96731347,0.15928939,0.3797953,-0.9703765
0.30000000000000004,0.1,0.9,0.0,0.0,0,-1.0473516,1.0414201,-0.7903281,0.026815373,0.0352015,0.32218882,-0.6746194,1.0842115,0.171751,0.84873927,0.9550752,0.110394105,0.39051858,-0.97577095
0.30000000000000004,0.1,0.9,0.0,0.0,0,-1.0463297,1.0425054,-0.7741468,0.02878141,0.08921049,0.27466443,-0.8086331,1.1321402,0.5233822,0.8156379,1.0357388,0.16316783,0.36621812,-0.81577814
0.30000000000000004,0.1,0.9,0.0,0.0,0,-1.0690638,1.0577108,-0.7773941,0.04686329,0.21014152,0.31627744,-0.668582,0.9695612,0.38798693,0.8236261,1.027218,0.12800968,0.40533614,-0.81569666
0.30000000000000004,0.1,0.9,0.0,0.0,0,-1.0442712,1.0395839,-0.7859174,0.07947269,0.06297928,0.30576178,-0.9114318,0.97399384,0.4079929,0.83588153,1.0594039,0.06979633,0.34887227,-0.84803456
0.30000000000000004,0.1,0.9,0.0,0.0,0,-1.0397974,1.0479758,-0.78441745,0.07767538,0.23530549,0.28104687,-1.270515,0.9740704,0.52005905,0.8495884,1.0473522,0.17602992,0.34995687,-0.74912673
0.30000000000000004,0.1,0.9,0.0,0.0,0,-1.034307,1.0452921,-0.76249576,0.033401925,0.33162877,0.359756,-1.0869181,0.98872465,0.47978273,0.83893627,1.0229231,0.06159597,0.37506846,-0.93305063
0.30000000000000004,0.1,0.9,0.0,0.0,0,-1.027318,1.0373799,-0.7704881,0.032380518,0.48757666,0.28811884,-0.9875701,1.0672683,0.40501294,0.8567331,1.0594147,0.13824746,0.35564542,-0.8353592
0.30000000000000004,0.1,0.9,0.0,0.0,0,-1.026786,1.0401814,-0.78947246,0.061260637,0.288184,0.33803102,-1.1402165,0.9567239,0.6661079,0.873346,0.99254185,0.16242756,0.40134495,-0.7981297
0.30000000000000004,0.1,0.9,0.0,0.0,0,-1.04364,1.0444428,-0.76570386,0.06857105,0.24076802,0.2652112,-1.0973525,1.0294348,0.33394608,0.8347885,1.0491049,0.088885255,0.3731737,-0.7405754
0.30000000000000004,0.1,0.9,0.0,0.0,0,-1.0460962,1.0470158,-0.80022407,0.076192155,0.069298945,0.31763592,-0.8650665,0.86774486,0.40408903,0.89942354,1.0843837,0.17771353,0.3466859,-0.77847046
0.30000000000000004,0.1,0.9,0.0,0.0,0,-1.0688603,1.0478846,-0.76719326,0.052898426,0.49225298,0.30145013,-0.89231265,0.93862337,0.57582533,0.885214,0.9394141,0.031106427,0.32785234,-0.86800814
0.30000000000000004,0.1,0.9,0.0,0.0,0,-1.0319815,1.0626802,-0.7781716,0.06471355,0.25154087,0.43342763,-1.1448199,0.9992946,0.4373553,0.8503956,1.0346861,0.14690606,0.35587856,-0.8272472
0.30000000000000004,0.1,0.9,0.0,0.0,0,-1.0192667,1.048421,-0.8074144,0.0836593,0.2537446,0.29219618,-1.3413119,1.1247604,0.31415823,0.8422849,1.0462507,0.12510307,0.3479493,-0.7165594
0.30000000000000004,0.1,0.9,0.0,0.0,0,-1.0289927,1.0525739,-0.77787256,0.09246068,0.24706669,0.25877875,-0.8618,0.9580112,0.4004882,0.8811558,1.0320876,0.12521806,0.33759907,-0.77201825
0.30000000000000004,0.1,0.9,0.0,0.0,0,-1.0562131,1.0354408,-0.79071206,0.06633734,0.18668772,0.27798015,-1.1724398,0.9832609,0.27616608,0.82746047,1.0514556,0.1237311,0.37517318,-0.74750686
0.30000000000000004,0.1,0.9,0.0,0.0,0,-1.0371083,1.0425935,-0.77876586,0.03807467,0.20059597,0.3347216,-0.80795103,1.1093379,0.120536394,0.844596,1.077525,0.12094631,0.35935044,-0.9431062
0.30000000000000004,0.1,0.9,0.0,0.0,0,-1.0297621,1.0360922,-0.76195157,0.0576139,0.20215571,0.2975542,-0.84889907,0.985712,0.40837124,0.8433805,0.9973474,0.060593862,0.34759825,-0.9120785
0.30000000000000004,0.1,0.9,0.0,0.0,0,-1.0437591,1.0570042,-0.7823806,0.07720023,0.17939037,0.40298742,-1.2402644,1.0370568,0.064906135,0.8693526,1.072791,0.14848104,0.32932222,-0.7785938
0.30000000000000004,0.1,0.9,0.0,0.0,0,-1.048317,1.0453712,-0.7613377,0.08723834,0.21015395,0.3116624,-0.6522771,1.0625318,0.43131,0.8429298,1.055345,0.14991292,0.34114322,-0.7526178
0.30000000000000004,0.1,0.9,0.0,0.0,0,-1.0150042,1.0342307,-0.7869009,0.08711885,0.2998262,0.23523569,-0.69341123,1.0116049,0.42414573,0.84932363,1.0472507,0.15188704,0.3532302,-0.82912916
0.30000000000000004,0.1,0.9,0.0,0.0,0,-1.0629212,1.0349771,-0.7633498,0.06443329,0.13061284,0.23604928,-1.4314803,1.1189518,0.27451208,0.81278646,1.0907431,0.03748359,0.36454695,-0.9298672
0.30000000000000004,0.1,0.9,0.0,0.0,0,-1.042849,1.0532938,-0.7775136,0.05460331,0.0028218122,0.38089058,-1.3123952,1.014265,0.41224965,0.80473036,1.0283892,0.12579244,0.38345993,-0.80143434
0.30000000000000004,0.1,0.9,0.0,0.0,0,-1.0229975,1.0716345,-0.7708679,0.020361524,0.28727132,0.3396676,-0.9237931,1.0608699,0.22920851,0.83502066,1.0806243,0.14227381,0.3641631,-0.9200496
0.30000000000000004,0.1,0.9,0.0,0.0,0,-1.0582968,1.0180099,-0.77245206,0.033448413,0.13766748,0.33825466,-0.80758154,0.8677964,0.4657065,0.8256894,1.0218729,0.121307164,0.36010766,-0.87607247
0.30000000000000004,0.1,0.9,0.0,0.0,0,-1.0441531,1.0552378,-0.7740818,0.028403912,0.19761336,0.25748074,-1.2529864,0.96364295,0.29684433,0.8565875,1.052366,0.14085431,0.3664886,-0.741275
0.30000000000000004,0.1,0.9,0.0,0.0,0,-1.0189539,1.032408,-0.76222914,0.080582716,0.22198027,0.3415774,-0.8289309,0.9736473,0.46397188,0.8353956,1.0367655,0.14672478,0.34604204,-0.8768577
0.30000000000000004,0.1,0.9,0.0,0.0,0,-1.0569078,1.0352706,-0.76193905,0.03620175,0.25933647,0.3982486,-1.4797256,1.0245327,0.33586273,0.8384142,0.98848194,0.15409486,0.36926073,-0.97398764
0.30000000000000004,0.1,0.9,0.0,0.0,0,-1.0634032,1.0323347,-0.7772474,0.08750427,-0.03398409,0.33456823,-1.1747208,0.98779327,0.23504306,0.8688458,1.0789834,0.15068416,0.3555097,-0.82044697
0.30000000000000004,0.1,0.9,0.0,0.0,0,-1.0523553,1.0195664,-0.77980405,0.047846615,0.37457877,0.32866308,-1.1719954,1.0787069,0.4390939,0.81016815,1.0561893,0.13116154,0.34192467,-0.9460985
0.30000000000000004,0.1,0.9,0.0,0.0,0,-1.0266073,1.0314884,-0.79466176,0.06944024,0.19140106,0.311272,-1.184647,0.948642,0.41551453,0.8429734,1.0127538,0.075578496,0.34011543,-0.8590245
0.30000000000000004,0.1,0.9,0.0,0.0,0,-1.0459981,1.01318,-0.75583553,0.092974305,0.3617297,0.34676418,-0.9936615,1.0689398,0.34079272,0.8759821,1.0052454,0.14096752,0.36115113,-0.93020153
0.30000000000000004,0.1,0.9,0.0,0.0,0,-1.0420676,1.0369976,-0.76505184,0.061311346,-0.12975603,0.21467303,-1.0029997,0.9432968,0.22265802,0.86631626,1.0381609,0.15903053,0.37254006,-0.90478796
0.30000000000000004,0.1,0.9,0.0,0.0,0,-1.0565515,1.0490891,-0.78930813,0.0092763575,-0.06100048,0.3447328,-0.87893486,1.0731318,0.31853148,0.8107982,1.0603273,0.15649427,0.36256236,-0.8944572
0.30000000000000004,0.1,0.9,0.0,0.0,0,-1.042513,1.0650845,-0.7871328,0.100590035,0.000105439285,0.31258643,-1.0301651,0.949248,0.41170096,0.87475115,1.0754101,0.10478933,0.3544033,-0.90783983
0.30000000000000004,0.1,0.9,0.0,0.0,0,-1.0440441,1.03281,-0.7809338,0.04877852,0.117252655,0.2953885,-0.90781367,0.9872893,0.22179121,0.8148734,1.0487282,0.1901282,0.36028394,-0.9004834
0.30000000000000004,0.1,0.9,0.0,0.0,0,-1.0528246,1.0352185,-0.7717229,0.031704247,0.23973067,0.35742268,-0.98451114,1.0083328,0.32896972,0.81459236,1.0033008,0.15159322,0.34868112,-0.8126713
0.30000000000000004,0.1,0.9,0.0,0.0,0,-1.0440618,1.0505257,-0.77075404,-0.007976796,0.14602996,0.46572828,-1.1699892,0.9803217,0.23225564,0.86141354,1.0708764,0.14442146,0.37952405,-0.94712883
0.30000000000000004,0.1,0.9,0.0,0.0,0,-1.0425953,1.0528567,-0.77205104,0.02689243,-0.027739644,0.34007898,-1.1048411,1.0077505,0.1553215,0.8220713,1.0471869,0.1627104,0.37613365,-0.87135243
0.30000000000000004,0.1,0.9,0.0,0.0,0,-1.0085578,1.0396097,-0.7790666,0.06141452,0.25189143,0.21159792,-0.91362923,0.89744896,0.45553482,0.8197953,1.0034268,0.15951365,0.3622561,-0.8312744
0.30000000000000004,0.1,0.9,0.0,0.0,0,-1.0437136,1.0399626,-0.7850726,0.078140594,0.12817597,0.3356486,-1.1864051,0.888299,0.076581106,0.8846655,0.959917,0.16495265,0.3491961,-0.7753199
0.30000000000000004,0.1,0.9,0.0,0.0,0,-1.0538154,1.0462797,-0.7851291,0.034909543,0.40053275,0.29430294,-0.97687876,0.9080702,0.4061613,0.78384864,0.97574407,0.16698903,0.34122944,-0.87247884
0.30000000000000004,0.1,0.9,0.0,0.0,0,-1.0198625,1.0568405,-0.78411335,0.078483395,0.23376247,0.24474896,-1.0425766,1.1021787,0.36652273,0.8392658,1.0723058,0.083616376,0.34191746,-0.79600674
0.30000000000000004,0.1,0.9,0.0,0.0,0,-1.0578567,1.0393525,-0.7651283,0.04868,0.050869085,0.38564295,-1.0847893,0.9560141,0.2414374,0.8445013,1.0336406,0.12515911,0.3675177,-0.9247422
0.30000000000000004,0.1,0.9,0.0,0.0,0,-1.0404971,1.0545971,-0.7910145,0.03859789,0.26756877,0.23029114,-0.8337562,0.9503521,0.3836896,0.8469979,1.0323426,0.13609686,0.35221043,-0.863388
0.30000000000000004,0.1,0.9,0.0,0.0,0,-1.0241276,1.0221646,-0.7804549,0.056410696,0.12357676,0.28884512,-0.9290183,1.137147,0.4131872,0.8431938,1.0549328,0.12738878,0.33698675,-0.8726802
0.30000000000000004,0.1,0.9,0.0,0.0,0,-1.0489535,1.0214057,-0.76742476,0.100958936,0.24373804,0.31202987,-1.0261505,1.0220689,0.64936054,0.8043688,0.99987954,0.060259666,0.31158993,-0.7802393
0.30000000000000004,0.1,0.9,0.0,0.0,0,-1.0631633,1.0430373,-0.7752454,0.042891134,0.2447258,0.2001309,-1.1472173,1.0010301,0.13130142,0.8497335,1.0775288,0.1286106,0.35858282,-0.86195856
0.30000000000000004,0.1,0.9,0.0,0.0,0,-1.0679097,1.0307516,-0.77975243,0.08271404,0.0849103,0.35836017,-0.72424054,0.9754232,0.022275997,0.8269294,0.9649568,0.13966593,0.34833637,-0.83809304
0.30000000000000004,0.1,0.9,0.0,0.0,0,-1.0153744,1.0433404,-0.7663836,0.009588976,0.03669826,0.36195338,-0.7954966,1.0280482,0.38909128,0.8249311,1.0015291,0.16401286,0.39345184,-0.77938515
0.30000000000000004,0.1,0.9,0.0,0.0,0,-1.0393281,1.0397925,-0.7827951,0.017493151,0.07426807,0.33465904,-0.92424905,1.081928,0.19612902,0.9000412,1.0775578,0.09404345,0.35584834,-0.8302573
0.30000000000000004,0.1,0.9,0.0,0.0,0,-1.0492558,1.0473448,-0.78005195,0.03935285,0.050520282,0.31168064,-0.9815264,1.0179079,0.049070116,0.86462784,1.0584652,0.15961704,0.3414372,-0.88157386
0.30000000000000004,0.1,0.9,0.0,0.0,0,-1.0554129,1.0550262,-0.7837044,0.06170569,0.16194232,0.36851928,-1.0586506,0.95117146,0.3593435,0.8991066,1.0731981,0.13145112,0.36443397,-0.8235898
0.30000000000000004,0.1,0.9,0.0,0.0,0,-1.0490265,1.0383823,-0.77319086,0.09148882,-0.047663964,0.35134548,-1.0463513,1.1724788,-0.032876987,0.8423489,1.1137458,0.13461837,0.34371376,-0.8949959
0.30000000000000004,0.1,0.9,0.0,0.0,0,-1.05152,1.0554625,-0.767344,0.06586846,0.08963744,0.28267565,-1.3062441,0.9837301,0.27414253,0.8050471,1.0909419,0.12239908,0.37941897,-0.7899822
0.30000000000000004,0.1,0.9,0.0,0.0,0,-1.0401745,1.0266061,-0.77315086,0.036858153,-0.15178941,0.38722056,-0.99943924,0.92238075,0.25449198,0.83204377,1.0106442,0.12421211,0.3932275,-0.9402018
0.30000000000000004,0.1,0.9,0.0,0.0,0,-1.0260419,1.0490416,-0.77431947,0.03647941,0.21188182,0.29074892,-1.0048565,0.92167926,0.4299136,0.83363587,1.0283747,0.16518305,0.38829288,-0.9000034
0.30000000000000004,0.1,0.9,0.0,0.0,0,-1.0548329,1.0407362,-0.78666395,0.105772115,0.32244104,0.42819726,-1.1240668,0.9894131,0.4636059,0.82947594,1.0354147,0.17759876,0.3517829,-0.87197727
0.30000000000000004,0.1,0.9,0.0,0.0,0,-1.060965,1.0433673,-0.7853691,0.02308579,0.20942552,0.37176827,-1.0321162,1.125318,0.29669702,0.8721111,1.092671,0.11518255,0.3495289,-0.9794558
0.30000000000000004,0.1,0.9,0.0,0.0,0,-1.0683742,1.0580772,-0.7785086,0.08275069,0.2114474,0.32521766,-1.6353868,1.0042105,0.2076474,0.8156095,1.0447894,0.15882762,0.39894113,-0.8577549
0.30000000000000004,0.1,0.9,0.0,0.0,0,-1.0578709,1.039006,-0.78302926,0.034506902,0.3049204,0.43737122,-1.4154773,0.95078284,0.37397704,0.83835685,1.038231,0.08818518,0.36061773,-0.8719949
0.30000000000000004,0.1,0.9,0.0,0.0,0,-1.0730426,1.0521374,-0.78533155,0.047856357,0.18627329,0.32582238,-1.31869,1.0365096,0.3459181,0.8363031,1.0796933,0.14467597,0.34523052,-0.9267279
0.30000000000000004,0.1,0.9,0.0,0.0,0,-1.029518,1.0309545,-0.78617936,0.07115854,0.08813199,0.39636138,-1.0258771,0.98886037,0.4316931,0.8596557,1.049606,0.09829213,0.34647825,-0.7569792
0.30000000000000004,0.1,0.9,0.0,0.0,0,-1.0363734,1.0264163,-0.7816141,0.030764578,0.17928518,0.36963207,-1.1581569,1.0868369,0.45400402,0.8276384,1.0147383,0.16395554,0.38427928,-0.8391429
0.30000000000000004,0.1,0.9,0.0,0.0,0,-1.0480008,1.0297197,-0.79436696,0.08618132,0.21414576,0.22410995,-1.3925257,1.0193115,0.4330588,0.8384162,1.0414072,0.14550364,0.38150644,-0.8317236
0.30000000000000004,0.1,0.9,0.0,0.0,0,-1.0345842,1.0242735,-0.7977457,0.08194533,0.13109054,0.27925575,-1.1685101,0.9255184,0.1311267,0.8450389,1.0161713,0.123763815,0.3794176,-0.7773589
0.30000000000000004,0.1,0.9,0.0,0.0,0,-1.0519286,1.0334535,-0.7721095,0.07362843,0.0036108398,0.32829833,-0.92857885,0.9586929,0.37137643,0.8150669,0.9897809,0.11186464,0.36400133,-0.769913
0.30000000000000004,0.1,0.9,0.0,0.0,0,-1.0520958,1.038159,-0.7981623,0.01408078,0.1222864,0.32086244,-1.2241412,1.0003582,0.24796665,0.82196736,1.0413737,0.15395977,0.35291246,-0.8683072
0.30000000000000004,0.1,0.9,0.0,0.0,0,-1.0274813,1.0385023,-0.78631574,0.058048252,0.1499305,0.30584687,-0.74075156,1.0086659,0.15364255,0.8802344,1.0974007,0.10857106,0.3361708,-0.95567816
0.30000000000000004,0.1,0.9,0.0,0.0,0,-1.0629884,1.0467154,-0.7709102,0.028776038,0.05737115,0.26543397,-0.5846035,0.9246378,0.5746413,0.8365393,1.0238084,0.13812487,0.3550721,-0.9477462
0.30000000000000004,0.1,0.9,0.0,0.0,0,-1.0447348,1.040956,-0.7949573,0.05937083,0.06949131,0.39657193,-1.4383489,1.1696414,0.14335428,0.88096327,1.0535736,0.0810747,0.4096168,-0.8038599
0.30000000000000004,0.1,0.9,0.0,0.0,0,-1.0492648,1.0401913,-0.77768517,0.044502422,0.13976787,0.29204217,-0.8133962,0.95853037,0.32018092,0.8599881,1.0511713,0.1483133,0.3543441,-0.73329765
0.30000000000000004,0.1,0.9,0.0,0.0,0,-1.0501596,1.0449121,-0.7779784,0.015622227,0.018285215,0.33982703,-0.7591498,0.990125,0.20798975,0.8526761,1.0528773,0.13595325,0.34656623,-0.85126483
0.30000000000000004,0.1,0.9,0.0,0.0,0,-1.0352235,1.0542015,-0.77319324,0.025461132,0.00032719912,0.39727804,-0.97821516,0.93202215,0.2488479,0.8114504,1.0533653,0.17683129,0.32573032,-0.83630675
0.30000000000000004,0.1,0.9,0.0,0.0,0,-1.0460603,1.0599202,-0.7746874,0.023891939,0.02770002,0.25192058,-0.5603024,0.9786172,0.26536617,0.831087,1.0160666,0.08082928,0.38160458,-0.8089003
0.30000000000000004,0.1,0.9,0.0,0.0,0,-1.0514225,1.0397155,-0.7786616,0.06361085,0.26843667,0.26460785,-0.97574675,0.93744516,0.3737583,0.8675362,1.0408127,0.14610943,0.34907237,-0.76706535
0.30000000000000004,0.1,0.9,0.0,0.0,0,-1.0620444,1.035951,-0.7675637,0.033794515,0.14142804,0.25890705,-1.1955051,1.0139376,0.2753624,0.8532368,1.0218073,0.1348668,0.3715381,-0.82360035
0.30000000000000004,0.1,0.9,0.0,0.0,0,-1.0434743,1.0343776,-0.7694132,0.07532215,0.35902312,0.31916952,-0.9839602,1.0477785,0.41120872,0.8439376,1.0236309,0.09353038,0.38379768,-0.8127405
0.30000000000000004,0.1,0.9,0.0,0.0,0,-1.0205619,1.0554928,-0.76292,0.05635644,0.052078422,0.28714147,-0.91831374,1.0111604,0.16921508,0.8307327,1.0481521,0.097014055,0.355045,-0.8344459
0.30000000000000004,0.1,0.9,0.0,0.0,0,-1.0445426,1.0424483,-0.800213,0.07734704,0.09532963,0.2790586,-0.9415708,1.0098249,0.090347596,0.83189493,1.0079976,0.12801388,0.38419124,-0.81847405
0.30000000000000004,0.1,0.9,0.0,0.0,0,-1.0616298,1.0382407,-0.763088,0.011206994,0.26255232,0.3305562,-1.2506387,1.0626817,0.47411498,0.8756002,1.0309676,0.13846676,0.36188498,-0.8625022
0.30000000000000004,0.1,0.9,0.0,0.0,0,-1.0410817,1.0463259,-0.769533,0.075335994,0.18974541,0.2840783,-1.0497106,0.92639244,0.4303024,0.84767586,1.0043672,0.14716162,0.3577026,-0.9694979
0.30000000000000004,0.1,0.9,0.0,0.0,0,-1.0527555,1.0380644,-0.796484,0.032552313,0.28667015,0.31921816,-1.3839258,0.9768544,0.40783995,0.86397284,1.0199835,0.14680539,0.3618526,-0.83229697
0.30000000000000004,0.1,0.9,0.0,0.0,0,-1.062229,1.0346961,-0.79234236,0.05156421,-0.1447892,0.27414155,-1.1176002,0.9684695,0.31589144,0.8099457,0.97237945,0.11848916,0.38342255,-0.76244724
0.30000000000000004,0.1,0.9,0.0,0.0,0,-1.0550511,1.0318086,-0.7710243,0.023949254,0.059427302,0.35173768,-1.2612177,0.97276825,0.2828151,0.78499526,0.9937132,0.16505277,0.37743175,-0.6979578
0.30000000000000004,0.1,0.9,0.0,0.0,0,-1.0424297,1.0351554,-0.7930242,0.084268995,0.06346172,0.38754052,-1.3016132,1.0826052,-0.012398872,0.8788078,1.0121374,0.09738155,0.3529849,-0.6857459
0.30000000000000004,0.1,0.9,0.0,0.0,0,-1.0441664,1.0303133,-0.7743149,0.06443851,0.24117625,0.42630607,-1.1533028,0.9173481,0.24829398,0.8690956,1.0313189,0.093392156,0.37288582,-0.9010221
0.30000000000000004,0.1,0.9,0.0,0.0,0,-1.0352447,1.0460045,-0.7865466,0.050889622,0.21434058,0.28570357,-0.95889145,0.95121694,-0.0029497372,0.8847843,1.0450294,0.17550951,0.36091134,-0.8042346
0.30000000000000004,0.1,0.9,0.0,0.0,0,-1.0618215,1.0280836,-0.78728414,0.06604354,0.0870895,0.40980998,-1.091805,0.87912244,0.28625616,0.8639091,1.0638607,0.10909481,0.32727534,-0.8257859
0.30000000000000004,0.1,0.9,0.0,0.0,0,-1.0617893,1.0478965,-0.78545594,0.048250884,0.21812898,0.2814312,-1.389274,0.95510614,0.32563868,0.84308344,1.0214294,0.16352837,0.35251245,-0.909752
0.30000000000000004,0.1,0.9,0.0,0.0,0,-1.0409278,1.0400709,-0.7712485,0.08767254,0.2012836,0.24195695,-1.2241554,1.045997,0.25753224,0.85665876,1.0217228,0.14036518,0.35395584,-0.897663
0.30000000000000004,0.1,0.9,0.0,0.0,0,-1.0886387,1.0353423,-0.76699996,0.002741949,0.015907977,0.3528727,-1.0813442,1.0344882,0.22002715,0.8528653,1.050864,0.17267354,0.35944355,-0.7713044
0.30000000000000004,0.1,0.9,0.0,0.0,0,-1.0306925,1.0624098,-0.78617126,0.055530753,0.27721587,0.27260923,-0.7354113,1.0269573,0.40705305,0.85682845,1.0184423,0.14762172,0.40244028,-0.80658776
0.30000000000000004,0.1,0.9,0.0,0.0,0,-1.0780306,1.0280236,-0.77359915,0.02683448,-0.099269114,0.33361012,-0.7441855,1.0071207,0.4123689,0.85520107,1.0420613,0.104662195,0.31783193,-0.8906133
0.30000000000000004,0.1,0.9,0.0,0.0,0,-1.0705858,1.0378495,-0.7740175,0.03482804,0.16390775,0.32566866,-1.0307832,0.86509275,0.25100142,0.85182697,0.98801607,0.12592268,0.37294334,-0.8143204
0.30000000000000004,0.1,0.9,0.0,0.0,0,-1.0123371,1.0236055,-0.7875701,0.07568854,0.22793397,0.39167646,-1.1295636,1.0230715,0.21945554,0.89096934,1.0787836,0.120466,0.32849538,-0.79034835
0.30000000000000004,0.1,0.9,0.0,0.0,0,-1.0382688,1.0408624,-0.7637471,0.0074919392,0.25207952,0.37356395,-1.0142869,1.0564129,0.39364594,0.8064231,1.0635186,0.12130668,0.31981525,-1.010086
0.30000000000000004,0.1,0.9,0.0,0.0,0,-1.0426674,1.0493128,-0.78360325,0.029251648,0.03970261,0.3748406,-1.1634048,1.0080829,0.16556919,0.80810386,1.0224041,0.16330358,0.36225915,-0.9324226
0.30000000000000004,0.1,0.9,0.0,0.0,0,-1.0461059,1.0385338,-0.7903906,0.064687826,0.36720422,0.34345108,-1.2838278,0.9606805,0.35854363,0.90493417,1.0216944,0.1216796,0.35316432,-0.7575743
0.30000000000000004,0.1,0.9,0.0,0.0,0,-1.0329795,1.0313312,-0.77166533,0.088244,-0.23730485,0.23787358,-0.9912252,0.9789507,0.42654496,0.86178714,1.0296465,0.13265932,0.37573552,-0.85118586
0.30000000000000004,0.1,0.9,0.0,0.0,0,-1.0456512,1.0577161,-0.7727549,0.07316472,-0.04017563,0.29505482,-0.80212456,1.0483316,0.12046016,0.8907743,1.1025387,0.15358068,0.34515443,-0.9149162
0.30000000000000004,0.1,0.9,0.0,0.0,0,-1.0313072,1.0538863,-0.7836189,0.076941475,-0.16982986,0.1560165,-0.87240964,1.0775334,0.14226739,0.8236483,1.0392729,0.13333695,0.3834968,-0.98859316
0.30000000000000004,0.1,0.9,0.0,0.0,0,-1.0503775,1.0495005,-0.7616463,0.052363705,-0.15836728,0.29606482,-1.1614094,0.9795819,0.50917506,0.8267844,1.0009352,0.10052303,0.3758601,-0.7644894
0.30000000000000004,0.1,0.9,0.0,0.0,0,-1.0418404,1.0368801,-0.79130715,0.06645076,0.1589416,0.28874943,-1.0624592,0.929812,0.07050881,0.8456713,1.0006962,0.14931001,0.3579888,-0.8700992
0.30000000000000004,0.1,0.9,0.0,0.0,0,-1.0407901,1.018732,-0.7890738,0.05365158,0.20937763,0.30837992,-0.9697334,0.99469364,0.2778816,0.8556556,1.0233638,0.12400915,0.33427548,-0.87476575
0.30000000000000004,0.1,0.9,0.0,0.0,0,-1.0416392,1.041107,-0.7871515,0.072974235,0.35260797,0.31195387,-1.1355371,1.0414177,0.4307924,0.8354418,1.0250926,0.14760667,0.3690792,-0.845962
0.30000000000000004,0.1,0.9,0.0,0.0,0,-1.0386972,1.0428452,-0.7583171,0.043409497,0.07423133,0.28429583,-0.74602246,1.0071547,0.24079362,0.82252145,1.0161798,0.16408922,0.40311962,-0.7933311
0.30000000000000004,0.1,0.9,0.0,0.0,0,-1.0287585,1.0540314,-0.7841046,0.083935045,0.14173193,0.35301834,-1.036889,0.9399351,0.53929037,0.77922136,0.9903304,0.1030853,0.3690417,-0.92227453
0.30000000000000004,0.1,0.9,0.0,0.0,0,-1.016182,1.041441,-0.7951034,-0.019508589,0.17876634,0.15594685,-1.197453,1.0208548,0.36308545,0.7968815,0.96879584,0.074196264,0.39212915,-0.82992876
0.30000000000000004,0.1,0.9,0.0,0.0,0,-1.0307028,1.0490311,-0.77945864,0.055416316,0.19288702,0.17102988,-1.1508495,1.0222076,-0.0884192,0.86130226,1.0703429,0.1373467,0.3514285,-0.75604826
0.30000000000000004,0.1,0.9,0.0,0.0,0,-1.0284566,1.0319021,-0.77472645,0.029090853,0.12669754,0.38787785,-0.9358985,0.996826,0.41504627,0.83853495,1.0035679,0.16813521,0.36587378,-0.82981366
0.30000000000000004,0.1,0.9,0.0,0.0,0,-1.03271,1.0563425,-0.7643821,0.06108024,0.02202095,0.29755837,-0.972545,0.8734642,0.23780799,0.84494674,1.0083588,0.016904078,0.33846742,-0.70337814
0.30000000000000004,0.1,0.9,0.0,0.0,0,-1.0308757,1.0231212,-0.7978668,0.054956097,0.07683797,0.3268279,-0.8848713,1.0571262,0.29495385,0.8441337,1.0487543,0.0929068,0.3638542,-0.96442354
0.30000000000000004,0.1,0.9,0.0,0.0,0,-1.0578133,1.0428091,-0.7896568,0.057004806,0.15611294,0.27878964,-0.81277823,1.0382706,0.14283955,0.89632493,1.0463587,0.17698976,0.3456053,-0.8820159
0.30000000000000004,0.1,0.9,0.0,0.0,0,-1.0608497,1.0353464,-0.78476584,0.102838404,0.28762433,0.3381636,-1.0633057,0.94991803,0.15224142,0.85206354,1.0411682,0.09184688,0.33020923,-0.71951276
0.30000000000000004,0.1,0.9,0.0,0.0,0,-1.0522467,1.045049,-0.7750357,0.07230691,0.28654113,0.37553257,-1.3486816,1.0457859,0.4385528,0.8666933,1.0209491,0.15233375,0.35937783,-0.85705835
0.30000000000000004,0.1,0.9,0.0,0.0,0,-1.0079302,1.0345774,-0.7685377,0.022687152,0.16319476,0.43035814,-1.1770638,1.1258218,0.5151413,0.8149555,0.9570173,0.18791112,0.36007926,-0.85728663
0.30000000000000004,0.1,0.9,0.0,0.0,0,-1.0400392,1.05387,-0.78231883,0.055014636,0.1568463,0.20647527,-1.2768799,1.0647686,0.3197373,0.8887146,1.0684017,0.1452576,0.36167043,-0.86566657
0.30000000000000004,0.1,0.9,0.0,0.0,0,-1.047533,1.0451062,-0.7599112,0.0755257,0.2730674,0.35607883,-1.0243828,0.94728154,0.33653462,0.84348154,1.0572201,0.13744104,0.39027363,-0.8754326
0.30000000000000004,0.1,0.9,0.0,0.0,0,-1.0561821,1.0230968,-0.78523505,0.0599553,0.32497585,0.31677976,-1.0023866,0.93663573,0.22799401,0.8682212,0.9674832,0.013295247,0.3866602,-0.89955866
0.30000000000000004,0.1,0.9,0.0,0.0,0,-1.0552613,1.0364989,-0.7939969,0.067147635,0.20006227,0.3379718,-1.0569155,0.96210194,0.25725335,0.79851156,0.98979986,0.16425166,0.39090934,-0.8680834
0.30000000000000004,0.1,0.9,0.0,0.0,0,-1.0336291,1.0507598,-0.7769937,0.073928684,-0.07205464,0.3424081,-1.3278725,1.0250093,0.056841604,0.86063087,1.0369897,0.133146,0.37450048,-0.68244857
0.30000000000000004,0.1,0.9,0.0,0.0,0,-1.0655872,1.0380664,-0.7885277,0.02880632,0.018113159,0.38682246,-1.080222,1.0028199,0.079206556,0.867566,1.0184861,0.0957595,0.39832246,-0.6990713
0.30000000000000004,0.1,0.9,0.0,0.0,0,-1.029601,1.0225301,-0.76276535,0.020065501,0.14394146,0.35581523,-1.0370905,1.1012754,0.18828323,0.84586406,1.0513496,0.12057668,0.35232794,-0.8093279
0.30000000000000004,0.1,0.9,0.0,0.0,0,-1.0366735,1.0283208,-0.7884323,0.08379971,0.2019421,0.34332633,-1.4241313,1.0614616,0.11482352,0.83703804,0.9900753,0.049033713,0.3585466,-0.832427
0.30000000000000004,0.1,0.9,0.0,0.0,0,-1.0504098,1.0412598,-0.77799755,0.027105397,0.22169918,0.35374242,-1.0185502,1.0303723,0.29404637,0.8590131,1.0135767,0.13564686,0.3468806,-0.9206368
0.30000000000000004,0.1,0.9,0.0,0.0,0,-1.0792854,1.0374107,-0.77174413,0.0444194,0.017109249,0.30740547,-0.93097806,1.0334535,0.08441351,0.83036613,0.99301624,0.11885959,0.37481394,-0.8998628
0.30000000000000004,0.1,0.9,0.0,0.0,0,-1.048555,1.0381188,-0.7887123,0.06923133,0.20795722,0.32256198,-1.0174755,0.9621356,0.21959364,0.8896122,1.0277472,0.10064621,0.35062504,-0.78450274
0.30000000000000004,0.1,0.9,0.0,0.0,0,-1.0493908,1.040462,-0.7775409,0.0063434574,0.11167615,0.33440417,-1.1288079,0.95745486,0.27554452,0.8404289,0.9705613,0.11879064,0.34359747,-0.8960686
0.30000000000000004,0.1,0.9,0.0,0.0,0,-1.0507338,1.0384977,-0.7673399,0.0892256,0.144596,0.32056725,-0.98837477,0.8141039,0.40968877,0.845179,1.0272701,0.15572302,0.35811648,-0.87270325
0.30000000000000004,0.1,0.9,0.0,0.0,0,-1.0516899,1.0416459,-0.7966822,0.06253424,0.22068623,0.35531035,-0.8845422,0.9823764,0.22435907,0.8368998,0.9972037,0.114642054,0.37773943,-0.8837241
0.30000000000000004,0.1,0.9,0.0,0.0,0,-1.057301,1.032548,-0.7914865,0.034977578,0.05710616,0.2932602,-0.83687854,1.029564,0.31660652,0.85227257,1.0311126,0.17804533,0.33021548,-0.8487997
0.30000000000000004,0.1,0.9,0.0,0.0,0,-1.0607239,1.0610455,-0.79498845,0.04606909,0.1317122,0.29448304,-1.4056332,1.001735,0.043557312,0.85867053,0.960222,0.1138409,0.40076813,-0.8113612
0.30000000000000004,0.1,0.9,0.0,0.0,0,-1.0393523,1.0221636,-0.7648671,0.089350946,0.08455121,0.38946226,-0.9153541,1.0209345,0.18403244,0.86771256,1.0253671,0.18178551,0.4085989,-0.75983346
0.30000000000000004,0.1,0.9,0.0,0.0,0,-1.038417,1.0391835,-0.75412095,0.02546887,0.33261943,0.3209163,-1.0994247,1.098591,0.28445238,0.90261245,1.0272958,0.12458777,0.35021847,-0.77631354
0.30000000000000004,0.1,0.9,0.0,0.0,0,-1.0631741,1.046168,-0.7863156,0.039432783,0.29572245,0.3796552,-0.9048871,1.0822822,0.05588556,0.8446841,1.0660373,0.124826,0.34907272,-0.8168395
0.30000000000000004,0.1,0.9,0.0,0.0,0,-1.0133505,1.0274208,-0.78163123,0.08522541,0.30854657,0.19608864,-1.2523749,1.0921718,0.46627745,0.86967754,0.992823,0.14215745,0.37700933,-0.7995842
0.30000000000000004,0.1,0.9,0.0,0.0,0,-1.0476685,1.0671265,-0.7864101,0.05397008,0.156325,0.27050838,-1.1196438,0.9811248,0.17057659,0.8732146,1.0385664,0.13617985,0.35589057,-0.8750082
0.30000000000000004,0.1,0.9,0.0,0.0,0,-1.0387539,1.0436398,-0.78185266,0.04197288,-0.012830599,0.2575605,-1.2007341,0.98293763,0.37059924,0.83383095,1.0011208,0.085519165,0.37425727,-0.8762059
0.30000000000000004,0.1,0.9,0.0,0.0,0,-1.0554441,1.0601763,-0.77214825,0.016575405,0.13975796,0.30319414,-1.0312676,0.9809878,0.48494563,0.8715106,0.98887557,0.0614657,0.37239286,-0.81253034
0.30000000000000004,0.1,0.9,0.0,0.0,0,-1.0253404,1.0378574,-0.7640111,0.02419029,0.25104755,0.3084525,-0.63643986,0.9750353,0.18418983,0.7918412,0.9845824,0.12342381,0.38760808,-0.85455674
0.30000000000000004,0.1,0.9,0.0,0.0,0,-1.0714524,1.0400838,-0.77225924,0.029942146,0.29574627,0.3089493,-1.214302,1.0378295,0.17066556,0.8973977,1.0275913,0.08787272,0.3714336,-0.727804
0.30000000000000004,0.1,0.9,0.0,0.0,0,-1.0409753,1.0392121,-0.77852523,0.03437485,0.07573112,0.32811424,-1.3106608,0.8990652,0.30083066,0.829384,0.9790055,0.121607944,0.39095458,-0.83469427
0.30000000000000004,0.1,0.9,0.0,0.0,0,-1.0461979,1.04006,-0.77554405,0.023888158,0.40916026,0.39593157,-1.041362,0.96553904,0.2785939,0.8641066,0.98266584,0.17614864,0.36718124,-0.80830556
0.30000000000000004,0.1,0.9,0.0,0.0,0,-1.0512748,1.0386893,-0.77391475,0.05521788,0.06065617,0.31236055,-0.62238973,0.8771836,0.1710528,0.8697948,0.9631539,0.11728239,0.3806325,-0.8032289
0.30000000000000004,0.1,0.9,0.0,0.0,0,-1.0327407,1.0153885,-0.7764468,0.10465662,0.28156734,0.3573101,-0.9829614,0.8905805,0.44099918,0.8588849,1.0121179,0.13649835,0.33577138,-0.83643496
0.30000000000000004,0.1,0.9,0.0,0.0,0,-1.0376124,1.0343431,-0.7689267,0.059626084,0.1708764,0.3956386,-1.2887523,1.0322142,0.48602635,0.8329424,1.0073683,0.14645824,0.35993508,-0.89159346
0.30000000000000004,0.1,0.9,0.0,0.0,0,-1.0435959,1.0536803,-0.7842637,0.05320417,0.25212988,0.41598266,-0.8869441,1.0047538,0.3602709,0.83871293,1.038623,0.17424881,0.40507948,-0.8817988
0.30000000000000004,0.1,0.9,0.0,0.0,0,-1.0429116,1.0387061,-0.78182477,0.04435359,0.13305575,0.3895647,-1.1806874,0.9500662,0.50290215,0.7652955,0.9610495,0.20203497,0.37088755,-0.8861501
0.30000000000000004,0.1,0.9,0.0,0.0,0,-1.0291805,1.0439906,-0.785962,0.07438641,-0.03299887,0.412928,-1.1861593,1.0493562,0.23616889,0.89424896,1.0741673,0.1846001,0.33071065,-0.779331
0.30000000000000004,0.1,0.9,0.0,0.0,0,-1.0546601,1.0330576,-0.77083516,0.020468488,-0.019085126,0.22776857,-1.3363427,1.0215594,0.19834581,0.8915535,1.0078193,0.10140622,0.38060594,-0.8181063
0.30000000000000004,0.1,0.9,0.0,0.0,0,-1.0444151,1.031943,-0.7780419,0.0522198,0.1890603,0.42800844,-1.2467403,1.0411673,0.14646152,0.8297397,1.0192596,0.09678601,0.36837998,-0.9565339
0.30000000000000004,0.1,0.9,0.0,0.0,0,-1.0238556,1.0491018,-0.77693695,0.07134464,0.1468508,0.2726381,-1.0725609,1.0585843,0.33906382,0.8494355,1.0345511,0.13661374,0.34062737,-0.86278236
0.30000000000000004,0.1,0.9,0.0,0.0,0,-1.0345526,1.0343994,-0.7884439,0.04606536,0.17685471,0.43647522,-1.0020593,1.0208304,0.21088684,0.84470594,1.0093576,0.16459772,0.36731538,-0.7094272
0.30000000000000004,0.1,0.9,0.0,0.0,0,-1.0504801,1.025062,-0.79162747,0.06475409,-0.052649885,0.3629648,-1.2493376,1.1227369,0.12218052,0.8256059,1.0313443,0.09929677,0.38274467,-0.8592592
0.30000000000000004,0.1,0.9,0.0,0.0,0,-1.0442531,1.0520045,-0.76881707,0.06841914,0.03881419,0.2533004,-1.0835077,0.928404,0.42554292,0.849205,1.0058981,0.17578553,0.3682578,-0.85155207
0.30000000000000004,0.1,0.9,0.0,0.0,0,-1.0558609,1.0464436,-0.7821372,0.020376433,0.2252653,0.31541747,-0.8441801,1.0384245,0.26981968,0.856768,1.0492493,0.12463113,0.346727,-0.82702184
0.30000000000000004,0.1,0.9,0.0,0.0,0,-1.0542908,1.038771,-0.772865,0.025255283,0.1645432,0.37835598,-1.071071,1.1315306,0.12584445,0.8605286,1.0579416,0.17548043,0.39213306,-0.8455321
0.30000000000000004,0.1,0.9,0.0,0.0,0,-1.0236149,1.0452483,-0.7720429,0.06400134,0.107870094,0.31178197,-1.553378,1.1631826,0.091536835,0.84007055,1.0420736,0.15296483,0.34868512,-0.85068196
0.30000000000000004,0.1,0.9,0.0,0.0,0,-1.0403452,1.0406384,-0.78528005,0.057389747,-0.12752908,0.24977937,-1.2331711,0.87999403,0.36483097,0.82013255,0.98205894,0.12930973,0.352026,-0.9483432
0.30000000000000004,0.1,0.9,0.0,0.0,0,-1.0675685,1.0265784,-0.7874123,0.111158125,0.19897759,0.27154213,-1.011347,0.95229715,0.1396795,0.8813902,1.0095857,0.08500487,0.3575388,-0.73327965
0.30000000000000004,0.1,0.9,0.0,0.0,0,-1.0543761,1.0628672,-0.7586397,0.053127695,0.03418707,0.2954016,-1.2651255,0.9308238,0.35857284,0.8762946,1.031626,0.16483995,0.3507546,-0.9021119
0.30000000000000004,0.1,0.9,0.0,0.0,0,-1.0440317,1.0416625,-0.7892129,0.067476556,0.1704533,0.26205513,-1.0806893,0.98256534,0.23405829,0.86198515,1.0012785,0.10873716,0.37441686,-0.81982905
0.30000000000000004,0.1,0.9,0.0,0.0,0,-1.0145947,1.0423493,-0.7939776,0.02592579,-0.03326775,0.3174601,-1.1461244,0.95506746,0.2747563,0.8330733,0.96998847,0.09234934,0.37141132,-0.83790076
0.30000000000000004,0.1,0.9,0.0,0.0,0,-1.0597701,1.0284748,-0.7885087,0.041732106,0.10756514,0.38465756,-0.9963529,1.0033311,0.15517661,0.8161409,1.0028174,0.16186276,0.34703675,-0.84554154
0.30000000000000004,0.1,0.9,0.0,0.0,0,-1.0356752,1.0484958,-0.77204007,0.05704093,0.10379495,0.23730181,-1.1285919,0.92802554,0.30211502,0.8397824,0.9702869,0.119983174,0.37537315,-0.8321743
0.30000000000000004,0.1,0.9,0.0,0.0,0,-1.0548505,1.0475892,-0.79094934,0.032982666,0.2785235,0.27507794,-1.1011292,0.9484283,0.116825424,0.87460107,1.0054165,0.10624548,0.36525908,-0.6955221
0.30000000000000004,0.1,0.9,0.0,0.0,0,-1.0379287,1.0195007,-0.77612454,0.04314843,0.18459783,0.30019438,-0.9486371,1.0437384,0.091510296,0.86291957,0.9818223,0.12542741,0.386827,-0.8148541
0.30000000000000004,0.1,0.9,0.0,0.0,0,-1.0347503,1.0540373,-0.7903994,0.031712014,0.10492508,0.3658654,-0.56118333,1.0359657,0.4235334,0.8136839,0.9840972,0.12539585,0.3360898,-0.901227
0.30000000000000004,0.1,0.9,0.0,0.0,0,-1.0326706,1.0260026,-0.7888106,0.019239247,-0.0056534046,0.27016962,-0.8942841,1.0702474,0.23490202,0.8511743,0.9954991,0.11274312,0.37680674,-0.74780446
0.30000000000000004,0.1,0.9,0.0,0.0,0,-1.0482538,1.0283142,-0.7635016,0.03997498,0.12739447,0.3570373,-0.72066355,1.0397307,0.22961763,0.8364898,0.9981693,0.09268979,0.33933836,-0.76079196
0.30000000000000004,0.1,0.9,0.0,0.0,0,-1.0579009,1.03053,-0.7587497,0.048197817,-0.081638075,0.2899307,-1.082333,0.95201224,0.4133217,0.87045324,1.0039157,0.17799877,0.34753364,-0.9301503
0.30000000000000004,0.1,0.9,0.0,0.0,0,-1.0644898,1.0393069,-0.7974842,0.008021739,0.2115689,0.23266572,-1.0801401,1.0894791,-0.011996525,0.8140239,1.004729,0.08455204,0.38214868,-0.8538646
0.30000000000000004,0.1,0.9,0.0,0.0,0,-1.0663422,1.0338851,-0.78348756,0.06189512,0.20752503,0.32996902,-0.8909928,1.0237112,0.29666674,0.817737,0.9762722,0.14932099,0.39042366,-0.7890192
0.30000000000000004,0.1,0.9,0.0,0.0,0,-1.039046,1.0415978,-0.7859967,0.008235206,-0.04215857,0.37146622,-0.9975295,1.0126187,0.48491716,0.83599114,0.96517926,0.111787304,0.36130002,-0.85159016
0.30000000000000004,0.1,0.9,0.0,0.0,0,-1.0638046,1.0266206,-0.76853365,0.01330918,-0.059916265,0.2649391,-0.94910777,1.0168732,0.41583833,0.873725,1.0076869,0.11412751,0.34901008,-0.81643564
0.30000000000000004,0.1,0.9,0.0,0.0,0,-1.0254185,1.0451338,-0.7827004,-0.010714366,0.43165982,0.27658182,-0.9139966,1.1286343,0.13563529,0.8083506,0.9721965,0.107350856,0.37946278,-0.75830424
0.30000000000000004,0.1,0.9,0.0,0.0,0,-1.0428329,1.03579,-0.7694157,0.046793826,0.046173416,0.31261182,-0.43396014,0.97478396,-0.028934438,0.866544,1.0151652,0.12491594,0.32484582,-0.9149191
0.30000000000000004,0.1,0.9,0.0,0.0,0,-1.032742,1.0403645,-0.7754779,0.052575227,0.21568178,0.2533185,-0.59061646,0.9740188,0.24279805,0.91503614,1.0059291,0.117175594,0.34665614,-0.88525325
0.30000000000000004,0.1,0.9,0.0,0.0,0,-1.0431957,1.0337929,-0.77228254,0.05204867,-0.039821163,0.3463003,-1.691845,1.0464879,0.21341436,0.80832624,0.99151826,0.1657741,0.38571692,-0.8792779
0.30000000000000004,0.1,0.9,0.0,0.0,0,-1.0345534,1.034676,-0.77495736,0.011766466,0.006617874,0.3971488,-1.0134096,1.0659628,0.12817988,0.897406,1.0277864,0.18135273,0.37105626,-0.9543239
0.30000000000000004,0.1,0.9,0.0,0.0,0,-1.0362747,1.0601103,-0.77243847,0.0036675336,0.2468768,0.27589574,-0.74487895,1.0788652,0.0341016,0.8187814,0.99881524,0.1365707,0.32234257,-0.81658006
0.30000000000000004,0.1,0.9,0.0,0.0,0,-1.0417559,1.0440261,-0.77228856,0.01910961,0.25335938,0.27638307,-0.98571426,0.97562563,0.28900975,0.8494096,0.9739434,0.15390551,0.36770838,-0.79233193
0.30000000000000004,0.1,0.9,0.0,0.0,0,-1.0243574,1.0631396,-0.77867186,0.03911807,0.21639988,0.37552604,-1.3412743,0.9571958,0.5598183,0.8483665,1.0278192,0.11231957,0.3291972,-0.860383
0.30000000000000004,0.1,0.9,0.0,0.0,0,-1.0425417,1.0515928,-0.77968085,0.07648145,0.03954642,0.30251834,-0.72924185,1.0745794,0.50592625,0.851353,1.0243002,0.20914198,0.35044596,-0.83435345
0.30000000000000004,0.1,0.9,0.0,0.0,0,-1.043452,1.0514853,-0.7674356,0.06959726,0.37476015,0.35105243,-1.0158708,1.0532615,0.4013015,0.8647876,1.0529796,0.13997622,0.3807957,-0.89097345
0.30000000000000004,0.1,0.9,0.0,0.0,0,-1.0480703,1.0496294,-0.7727756,0.06289645,0.214005,0.33369106,-1.139986,1.1225003,0.2450221,0.86127526,1.04627,0.19329602,0.37579298,-0.79109985
0.30000000000000004,0.1,0.9,0.0,0.0,0,-1.0371019,1.0392023,-0.7759738,0.08524367,0.37560326,0.25408405,-1.1282182,1.0193018,0.60489315,0.8692226,1.0266033,0.19361046,0.36242667,-0.7669525
0.30000000000000004,0.1,0.9,0.0,0.0,0,-1.0511715,1.0483364,-0.7778631,0.11528494,0.06565333,0.37029886,-1.6450982,1.0279107,0.668319,0.9032894,0.99975324,0.15938897,0.38608754,-0.82441664
0.30000000000000004,0.1,0.9,0.0,0.0,0,-1.0747542,1.0413339,-0.7610784,0.037676144,0.40550008,0.35747027,-1.3391175,0.8417026,0.4878901,0.9075349,1.0469046,0.17070836,0.35106996,-0.9493429
0.30000000000000004,0.1,0.9,0.0,0.0,0,-1.0582678,1.0519696,-0.7773203,0.08518222,0.30570483,0.31304172,-1.1957523,1.0293796,0.2688371,0.86680174,1.0054216,0.19519185,0.37228927,-0.93934184
0.30000000000000004,0.1,0.9,0.0,0.0,0,-1.0397307,1.0689391,-0.79459494,0.017861865,0.36982977,0.27690256,-0.52496755,1.082608,0.2341974,0.87769,1.033005,0.079612166,0.36822075,-0.845626
0.30000000000000004,0.1,0.9,0.0,0.0,0,-1.0438019,1.0327299,-0.76665956,0.067639515,0.23205416,0.33605427,-0.8319975,1.0703089,0.2867111,0.8630105,1.0009987,0.100291535,0.3513436,-0.766286
0.30000000000000004,0.1,0.9,0.0,0.0,0,-1.0422525,1.037773,-0.764647,0.06270914,0.3110356,0.34235597,-1.0180919,1.0247163,0.48498777,0.8635659,1.026088,0.14447084,0.33160335,-0.88372904
0.30000000000000004,0.1,0.9,0.0,0.0,0,-1.0301803,0.99663377,-0.78129786,0.0433703,0.11716342,0.3887618,-1.0114391,0.97305274,0.7044063,0.8384987,0.97454566,0.115380675,0.37852073,-0.9006834
0.30000000000000004,0.1,0.9,0.0,0.0,0,-1.0381359,1.0126293,-0.7867652,0.046556685,0.14047627,0.33629718,-1.2734187,0.98709196,0.25745955,0.8468755,1.049172,0.100344576,0.35000926,-0.9833655
0.30000000000000004,0.1,0.9,0.0,0.0,0,-1.0417634,1.0593529,-0.7806535,0.03845381,0.42151603,0.41787082,-0.9837095,0.8998322,0.7360561,0.90133125,0.9990881,0.09473405,0.3285804,-0.8731791
0.30000000000000004,0.1,0.9,0.0,0.0,0,-1.0317115,1.0371339,-0.7812426,0.07130649,0.09305436,0.31725582,-1.2503874,1.0150372,0.4106008,0.8707061,1.0178667,0.11285539,0.3754017,-0.88855076
0.30000000000000004,0.1,0.9,0.0,0.0,0,-1.0472794,1.0450808,-0.7730477,0.06688852,0.25856888,0.29890144,-0.85203725,1.18256,0.4998944,0.83397317,1.0267084,0.11768403,0.34425625,-0.79373485
0.30000000000000004,0.1,0.9,0.0,0.0,0,-1.0592936,1.0335946,-0.76453394,0.062282596,-0.010830453,0.33084887,-1.3876547,1.0249147,0.35178047,0.85754055,1.0343087,0.09956955,0.36352664,-0.79958266
0.30000000000000004,0.1,0.9,0.0,0.0,0,-1.0440456,1.0467312,-0.78108764,0.060012627,0.15521021,0.30610597,-1.4515464,1.085072,0.16904396,0.8540096,1.0740019,0.06568071,0.384172,-0.8628951
0.30000000000000004,0.1,0.9,0.0,0.0,0,-1.0450408,1.0448624,-0.7641773,0.02047187,0.21211979,0.32564688,-0.9956177,1.0578166,0.3589927,0.89032763,1.0219474,0.1128763,0.35932398,-0.84755516
0.30000000000000004,0.1,0.9,0.0,0.0,0,-1.0464339,1.0450522,-0.74061435,0.033079177,0.2666706,0.27132192,-1.1475176,1.0538813,0.44553456,0.85066706,1.0106554,0.08255489,0.3719581,-0.8675447
0.30000000000000004,0.1,0.9,0.0,0.0,0,-1.0310445,1.024259,-0.7789311,0.013030891,0.14857104,0.28851643,-0.7511265,0.97442085,0.3148836,0.8990476,1.0341411,0.115814544,0.34917527,-0.75090975
0.30000000000000004,0.1,0.9,0.0,0.0,0,-1.0342667,1.0373319,-0.76757187,0.042272985,0.37420547,0.23962508,-1.1376046,1.0240977,0.5596106,0.8962818,0.9797705,0.07385839,0.37054384,-0.7679057
0.30000000000000004,0.1,0.9,0.0,0.0,0,-1.0338622,1.0402857,-0.76878446,0.018342182,0.22228953,0.41915563,-0.60808283,0.9436081,0.64682007,0.88060945,1.0278028,0.13786064,0.30620244,-0.7408169
0.30000000000000004,0.1,0.9,0.0,0.0,0,-1.0575145,1.0453,-0.7573872,0.025015488,0.14286932,0.3737283,-0.87002456,1.1324328,0.37100106,0.8051745,1.0323465,0.1848908,0.3642369,-0.8074556
0.30000000000000004,0.1,0.9,0.0,0.0,0,-1.0196114,1.0395391,-0.77251863,0.029162211,0.20738932,0.4291371,-0.8818402,1.0331846,0.5206745,0.85127646,0.993191,0.14345382,0.33278382,-0.87663907
0.30000000000000004,0.1,0.9,0.0,0.0,0,-1.042115,1.0308135,-0.77615553,0.0939771,0.073241584,0.2803712,-1.1764027,0.9646745,0.42129785,0.84462154,1.0410159,0.18658602,0.3229663,-0.8210374
0.30000000000000004,0.1,0.9,0.0,0.0,0,-1.0499022,1.0404164,-0.76809007,0.04352784,0.12387327,0.23121066,-1.0540407,1.065645,0.31910565,0.8828372,1.0226387,0.17313454,0.34147912,-0.7401378
0.30000000000000004,0.1,0.9,0.0,0.0,0,-1.0456604,1.0299551,-0.76828927,0.048021782,0.100215875,0.29786846,-1.1623442,1.0030055,0.32260448,0.85811776,0.99223727,0.10404671,0.3750571,-0.87010247
0.30000000000000004,0.1,0.9,0.0,0.0,0,-1.0367163,1.0467217,-0.7901343,0.0686118,0.13035922,0.3285918,-1.3115228,1.0068108,0.046171714,0.8727401,1.0230799,0.12647289,0.3527112,-0.76814777
0.30000000000000004,0.1,0.9,0.0,0.0,0,-1.0491714,1.0431191,-0.7667151,0.03516297,0.10876459,0.30139264,-1.0467252,0.98459363,0.26847234,0.86151594,1.0133206,0.14323168,0.38517553,-0.90276986
0.30000000000000004,0.1,0.9,0.0,0.0,0,-1.0421565,1.0458175,-0.7858411,0.05528319,0.254952,0.37897402,-1.0919291,1.0020554,0.34746775,0.8487483,1.0536642,0.09248554,0.33833474,-0.8026684
0.30000000000000004,0.1,0.9,0.0,0.0,0,-1.0232501,1.0158691,-0.79100937,0.06963259,0.21787229,0.35204378,-1.3489962,1.0915681,0.25264892,0.8730787,1.0356681,0.18352503,0.3845503,-0.8294881
0.30000000000000004,0.1,0.9,0.0,0.0,0,-1.0660524,1.0382134,-0.7749514,0.048569635,0.1180872,0.34901017,-0.7942937,1.0308887,-0.029686412,0.8486254,1.0137662,0.14633356,0.34540185,-0.7702846
0.30000000000000004,0.1,0.9,0.0,0.0,0,-1.0351425,1.0408019,-0.80186653,0.038797453,0.12754811,0.33473232,-0.9449024,0.9646633,0.3339188,0.8591621,0.99447024,0.19524927,0.37002438,-0.8839615
0.30000000000000004,0.1,0.9,0.0,0.0,0,-1.0269716,1.044394,-0.7862671,0.056507237,0.2728944,0.42450103,-0.98218596,0.89525926,0.4364113,0.89984655,1.060823,0.1304784,0.36450094,-0.81651133
0.30000000000000004,0.1,0.9,0.0,0.0,0,-1.0497183,1.0603334,-0.76985115,0.07871713,0.18604268,0.237008,-1.2122382,1.0050399,0.38559803,0.8736274,1.0584435,0.13131346,0.36757302,-0.7632789
0.30000000000000004,0.1,0.9,0.0,0.0,0,-1.0435706,1.0655018,-0.78490466,0.07630822,0.2045744,0.35215455,-1.2875954,0.9236326,0.65215576,0.83981884,1.0377469,0.107511416,0.333149,-0.868003
0.30000000000000004,0.1,0.9,0.0,0.0,0,-1.0151633,1.055089,-0.787823,0.052894298,0.4072897,0.42103186,-0.9810385,1.1087502,0.4382358,0.81906253,0.7846985,0.16322973,0.33671632,-0.7760818
0.30000000000000004,0.1,0.9,0.0,0.0,0,-1.0151633,1.055089,-0.787823,0.052894298,0.4072897,0.42103186,-0.9810385,1.1087502,0.4382358,0.81906253,0.7846985,0.16322973,0.33671632,-0.7760818
0.30000000000000004,0.1,0.9,0.0,0.0,0,-1.0151633,1.055089,-0.787823,0.052894298,0.4072897,0.42103186,-0.9810385,1.1087502,0.4382358,0.81906253,0.7846985,0.16322973,0.33671632,-0.7760818
0.30000000000000004,0.1,0.9,0.0,0.0,0,-1.0151633,1.055089,-0.787823,0.052894298,0.4072897,0.42103186,-0.9810385,1.1087502,0.4382358,0.81906253,0.7846985,0.16322973,0.33671632,-0.7760818
0.30000000000000004,0.1,0.9,0.0,0.0,0,-1.0151633,1.055089,-0.787823,0.052894298,0.4072897,0.42103186,-0.9810385,1.1087502,0.4382358,0.81906253,0.7846985,0.16322973,0.33671632,-0.7760818
0.30000000000000004,0.1,0.9,0.0,0.0,0,-1.0151633,1.055089,-0.787823,0.052894298,0.4072897,0.42103186,-0.9810385,1.1087502,0.4382358,0.81906253,0.7846985,0.16322973,0.33671632,-0.7760818
0.30000000000000004,0.1,0.9,0.0,0.0,0,-1.0151633,1.055089,-0.787823,0.052894298,0.4072897,0.42103186,-0.9810385,1.1087502,0.4382358,0.81906253,0.7846985,0.16322973,0.33671632,-0.7760818
0.30000000000000004,0.1,0.9,0.0,0.0,0,-1.0151633,1.055089,-0.787823,0.052894298,0.4072897,0.42103186,-0.9810385,1.1087502,0.4382358,0.81906253,0.7846985,0.16322973,0.33671632,-0.7760818
0.30000000000000004,0.1,0.9,0.0,0.0,0,-1.0151633,1.055089,-0.787823,0.052894298,0.4072897,0.42103186,-0.9810385,1.1087502,0.4382358,0.81906253,0.7846985,0.16322973,0.33671632,-0.7760818
0.30000000000000004,0.1,0.9,0.0,0.0,0,-1.0265702,1.0658774,-0.76787317,0.07070292,0.0010480948,0.30625078,-1.1708925,1.1207969,0.3959083,0.8692008,1.0733016,0.13278635,0.38588133,-0.9194211
0.30000000000000004,0.1,0.9,0.0,0.0,0,-1.0265702,1.0658774,-0.76787317,0.07070292,0.0010480948,0.30625078,-1.1708925,1.1207969,0.3959083,0.8692008,1.0733016,0.13278635,0.38588133,-0.9194211
0.30000000000000004,0.1,0.9,0.0,0.0,0,-1.0265702,1.0658774,-0.76787317,0.07070292,0.0010480948,0.30625078,-1.1708925,1.1207969,0.3959083,0.8692008,1.0733016,0.13278635,0.38588133,-0.9194211
0.30000000000000004,0.1,0.9,0.0,0.0,0,-1.0265702,1.0658774,-0.76787317,0.07070292,0.0010480948,0.30625078,-1.1708925,1.1207969,0.3959083,0.8692008,1.0733016,0.13278635,0.38588133,-0.9194211
0.30000000000000004,0.1,0.9,0.0,0.0,0,-1.0265702,1.0658774,-0.76787317,0.07070292,0.0010480948,0.30625078,-1.1708925,1.1207969,0.3959083,0.8692008,1.0733016,0.13278635,0.38588133,-0.9194211
0.30000000000000004,0.1,0.9,0.0,0.0,0,-1.0265702,1.0658774,-0.76787317,0.07070292,0.0010480948,0.30625078,-1.1708925,1.1207969,0.3959083,0.8692008,1.0733016,0.13278635,0.38588133,-0.9194211
0.30000000000000004,0.1,0.9,0.0,0.0,0,-1.0265702,1.0658774,-0.76787317,0.07070292,0.0010480948,0.30625078,-1.1708925,1.1207969,0.3959083,0.8692008,1.0733016,0.13278635,0.38588133,-0.9194211
0.30000000000000004,0.1,0.9,0.0,0.0,0,-1.0265702,1.0658774,-0.76787317,0.07070292,0.0010480948,0.30625078,-1.1708925,1.1207969,0.3959083,0.8692008,1.0733016,0.13278635,0.38588133,-0.9194211
0.30000000000000004,0.1,0.9,0.0,0.0,0,-1.0265702,1.0658774,-0.76787317,0.07070292,0.0010480948,0.30625078,-1.1708925,1.1207969,0.3959083,0.8692008,1.0733016,0.13278635,0.38588133,-0.9194211
0.30000000000000004,0.1,0.9,0.0,0.0,0,-1.0265702,1.0658774,-0.76787317,0.07070292,0.0010480948,0.30625078,-1.1708925,1.1207969,0.3959083,0.8692008,1.0733016,0.13278635,0.38588133,-0.9194211
0.30000000000000004,0.1,0.9,0.0,0.0,0,-1.0695076,1.0381585,-0.7684318,0.12590545,0.20123957,0.33812267,-1.1242139,0.9070938,0.7905748,0.8542923,1.0049711,0.143289,0.35634547,-0.82713205
0.30000000000000004,0.1,0.9,0.0,0.0,0,-1.0695076,1.0381585,-0.7684318,0.12590545,0.20123957,0.33812267,-1.1242139,0.9070938,0.7905748,0.8542923,1.0049711,0.143289,0.35634547,-0.82713205
0.30000000000000004,0.1,0.9,0.0,0.0,0,-1.0695076,1.0381585,-0.7684318,0.12590545,0.20123957,0.33812267,-1.1242139,0.9070938,0.7905748,0.8542923,1.0049711,0.143289,0.35634547,-0.82713205
0.30000000000000004,0.1,0.9,0.0,0.0,0,-1.0695076,1.0381585,-0.7684318,0.12590545,0.20123957,0.33812267,-1.1242139,0.9070938,0.7905748,0.8542923,1.0049711,0.143289,0.35634547,-0.82713205
0.30000000000000004,0.1,0.9,0.0,0.0,0,-1.0695076,1.0381585,-0.7684318,0.12590545,0.20123957,0.33812267,-1.1242139,0.9070938,0.7905748,0.8542923,1.0049711,0.143289,0.35634547,-0.82713205
0.30000000000000004,0.1,0.9,0.0,0.0,0,-1.0695076,1.0381585,-0.7684318,0.12590545,0.20123957,0.33812267,-1.1242139,0.9070938,0.7905748,0.8542923,1.0049711,0.143289,0.35634547,-0.82713205
0.30000000000000004,0.1,0.9,0.0,0.0,0,-1.0695076,1.0381585,-0.7684318,0.12590545,0.20123957,0.33812267,-1.1242139,0.9070938,0.7905748,0.8542923,1.0049711,0.143289,0.35634547,-0.82713205
0.30000000000000004,0.1,0.9,0.0,0.0,0,-1.0695076,1.0381585,-0.7684318,0.12590545,0.20123957,0.33812267,-1.1242139,0.9070938,0.7905748,0.8542923,1.0049711,0.143289,0.35634547,-0.82713205
0.30000000000000004,0.1,0.9,0.0,0.0,0,-1.0695076,1.0381585,-0.7684318,0.12590545,0.20123957,0.33812267,-1.1242139,0.9070938,0.7905748,0.8542923,1.0049711,0.143289,0.35634547,-0.82713205
0.30000000000000004,0.1,0.9,0.0,0.0,0,-1.0695076,1.0381585,-0.7684318,0.12590545,0.20123957,0.33812267,-1.1242139,0.9070938,0.7905748,0.8542923,1.0049711,0.143289,0.35634547,-0.82713205
0.30000000000000004,0.1,0.9,0.0,0.0,0,-1.0695076,1.0381585,-0.7684318,0.12590545,0.20123957,0.33812267,-1.1242139,0.9070938,0.7905748,0.8542923,1.0049711,0.143289,0.35634547,-0.82713205
0.30000000000000004,0.1,0.9,0.0,0.0,0,-1.0622826,1.0598744,-0.76639205,0.091495425,0.12332729,0.40734872,-0.82536435,1.0399238,0.5914648,0.8435464,1.0121111,0.15980652,0.3535096,-0.8814102
0.30000000000000004,0.1,0.9,0.0,0.0,0,-1.0622826,1.0598744,-0.76639205,0.091495425,0.12332729,0.40734872,-0.82536435,1.0399238,0.5914648,0.8435464,1.0121111,0.15980652,0.3535096,-0.8814102
