sanky1234/BimanualDexCatch/isaacgymenvs/cem_results/May31/football_pose_0.1_0.0_1.4_0.0_0.0_0_2025-05-31.csv
x,y,z,roll,pitch,yaw,robot1/joint1,robot1/joint2,robot1/joint3,robot1/joint4,robot1/joint5,robot1/joint6,robot1/joint7,robot2/joint1,robot2/joint2,robot2/joint3,robot2/joint4,robot2/joint5,robot2/joint6,robot2/joint7
0.1,0.0,1.4,0.0,0.0,0,0.16716798,-1.4439656,-0.3351084,-0.52730656,0.52498394,-0.24853335,-0.95461345,1.9828471,-0.08888215,0.77368206,-0.3573865,-0.26888406,0.48194718,0.6424952
0.1,0.0,1.4,0.0,0.0,0,0.1553924,-1.4220628,-0.31715482,-0.5122605,0.2875143,-0.005605491,-0.81241775,1.9573044,-0.014515127,0.8121366,-0.44055435,-0.3177546,0.72230536,0.47924325
0.1,0.0,1.4,0.0,0.0,0,0.14863087,-1.474818,-0.26209235,-0.50421625,0.6246592,0.100318894,-0.9139232,1.8848557,-0.042191215,0.79148865,-0.33376402,-0.29015645,0.575916,0.6673179
0.1,0.0,1.4,0.0,0.0,0,0.18385038,-1.4147694,-0.33509228,-0.5366056,0.5823833,-0.047326837,-1.040708,2.0220804,-0.054719742,0.81887627,-0.4186231,-0.3108699,0.6186287,0.5975687
0.1,0.0,1.4,0.0,0.0,0,0.17228606,-1.4532689,-0.3433961,-0.51541626,0.55552083,0.020718325,-1.1503756,1.9819192,-0.03169839,0.785498,-0.44134605,-0.33187184,0.62861174,0.5453418
0.1,0.0,1.4,0.0,0.0,0,0.16722369,-1.4457583,-0.3274601,-0.5394533,0.3814551,-0.20142178,-0.6597258,1.9567435,-0.06794653,0.8212302,-0.45372158,-0.2915978,0.7103405,0.59522766
0.1,0.0,1.4,0.0,0.0,0,0.20774665,-1.4606284,-0.32581916,-0.5411479,0.4726938,0.17112613,-0.69710237,1.9686629,-0.033149283,0.77317554,-0.43015456,-0.2598896,0.65361905,0.71630514
0.1,0.0,1.4,0.0,0.0,0,0.19958477,-1.4834491,-0.31787765,-0.54680556,0.28389525,-0.04089715,-0.97303647,1.9974772,-0.10142323,0.7793242,-0.42567617,-0.24974611,0.6807644,0.85071784
0.1,0.0,1.4,0.0,0.0,0,0.16710036,-1.4684042,-0.3415276,-0.5246362,0.32300705,-0.23560171,-0.81899846,1.9627851,-0.025802324,0.8079961,-0.48103502,-0.2506373,0.66707224,0.52754396
0.1,0.0,1.4,0.0,0.0,0,0.16023096,-1.4510953,-0.29765046,-0.5128047,0.55240244,-0.21959056,-1.1789753,1.8499327,-0.01287606,0.8137347,-0.3450585,-0.2730867,0.60959905,0.38564104
0.1,0.0,1.4,0.0,0.0,0,0.15179358,-1.4830365,-0.3192658,-0.49747968,0.44912025,-0.21794835,-0.46089256,2.009769,-0.044626642,0.81911016,-0.5028603,-0.26240364,0.69867533,0.5310508
0.1,0.0,1.4,0.0,0.0,0,0.14824483,-1.4356256,-0.38562799,-0.5491507,0.549893,-0.06552622,-0.8660381,1.9062339,-0.039190754,0.81240815,-0.45269546,-0.27664128,0.69625086,0.5110511
0.1,0.0,1.4,0.0,0.0,0,0.1381337,-1.4650455,-0.38452548,-0.50017935,0.5306634,-0.1508939,-0.87107354,1.9570342,-0.061932392,0.7889586,-0.451828,-0.2934015,0.6921676,0.5415264
0.1,0.0,1.4,0.0,0.0,0,0.18684268,-1.4745358,-0.31043443,-0.5231752,0.4265919,-0.2615432,-0.6681405,2.0049102,-0.06416626,0.7964448,-0.4271695,-0.3239279,0.5909635,0.469323
0.1,0.0,1.4,0.0,0.0,0,0.17944568,-1.461729,-0.32832322,-0.52052873,0.38393894,0.0023895197,-1.4081944,2.0282083,-0.03325922,0.77179056,-0.43938315,-0.24634641,0.57285774,0.6556221
0.1,0.0,1.4,0.0,0.0,0,0.12296122,-1.4640541,-0.29686362,-0.51317734,0.5523113,0.19891544,-0.8506163,1.9507641,-0.047911704,0.8018573,-0.38411155,-0.31043682,0.5561813,0.6665133
0.1,0.0,1.4,0.0,0.0,0,0.1486346,-1.4608523,-0.33078548,-0.52981186,0.5100534,-0.20021893,-0.75360245,2.0527954,-0.014312303,0.79456145,-0.5133586,-0.2872246,0.6919167,0.85861194
0.1,0.0,1.4,0.0,0.0,0,0.13041359,-1.4563626,-0.32766134,-0.5403249,0.47514158,-0.014678809,-0.68911314,2.0012734,-0.047610886,0.80548865,-0.4134963,-0.31073746,0.54232866,0.4407721
0.1,0.0,1.4,0.0,0.0,0,0.17968199,-1.4648533,-0.3571953,-0.5233844,0.41409266,-0.27417374,-0.942103,1.8381976,-0.044165745,0.8164105,-0.37982523,-0.21888962,0.6517271,0.695246
0.1,0.0,1.4,0.0,0.0,0,0.17814654,-1.4611427,-0.3167106,-0.5537069,0.5059912,0.40510496,-0.86942226,1.9921501,-0.02029435,0.7819295,-0.45238453,-0.30968124,0.7390303,0.9068837
0.1,0.0,1.4,0.0,0.0,0,0.18122265,-1.4547328,-0.34343058,-0.5228716,0.6361931,-0.013977704,-1.3816625,2.0544593,-0.025409238,0.8272243,-0.46793094,-0.3497756,0.6054932,0.44290704
0.1,0.0,1.4,0.0,0.0,0,0.1442418,-1.4605575,-0.4006338,-0.50900483,0.588096,-0.3176613,-0.63277215,2.0026016,-0.09455055,0.7957431,-0.44408533,-0.2886311,0.71393895,0.6664536
0.1,0.0,1.4,0.0,0.0,0,0.17552224,-1.458574,-0.33844304,-0.5127591,0.44671357,-0.1109765,-1.2442863,2.0908446,-0.058735278,0.7776758,-0.41627005,-0.32344288,0.5692684,0.31208494
0.1,0.0,1.4,0.0,0.0,0,0.20508613,-1.4596883,-0.32603002,-0.52153724,0.27260545,-0.38584784,-1.1537961,1.9977432,-0.078332745,0.77556914,-0.42666933,-0.27782047,0.64341784,0.24054694
0.1,0.0,1.4,0.0,0.0,0,0.18639618,-1.4784802,-0.3478185,-0.5084525,0.5428338,-0.27578187,-0.871199,1.9316562,-0.047090407,0.79034835,-0.4270423,-0.2935188,0.68982154,0.5829001
0.1,0.0,1.4,0.0,0.0,0,0.18157174,-1.4441813,-0.31504697,-0.5629121,0.41296095,-0.059853602,-0.82133186,1.9499282,-0.034122244,0.79721797,-0.44675887,-0.27149993,0.65821505,0.50326246
0.1,0.0,1.4,0.0,0.0,0,0.17332432,-1.4561898,-0.3574491,-0.5392509,0.6526957,0.096838005,-0.84406054,2.093008,-0.0208823,0.8011772,-0.5168003,-0.25013933,0.6517582,0.18525505
0.1,0.0,1.4,0.0,0.0,0,0.15808523,-1.4351406,-0.36868688,-0.5137638,0.45446518,-0.11940888,-0.5723338,1.9745119,-0.0528772,0.78398263,-0.4187365,-0.37341106,0.69474524,0.57311916
0.1,0.0,1.4,0.0,0.0,0,0.19880089,-1.44014,-0.34574398,-0.54761744,0.49711138,-0.21731794,-0.6542312,1.954183,-0.043446213,0.7888786,-0.42836675,-0.25151226,0.7093423,0.5127623
0.1,0.0,1.4,0.0,0.0,0,0.18602921,-1.4572917,-0.34895244,-0.5519529,0.36478946,-0.12842754,-0.5152934,2.0052907,-0.052884877,0.79758286,-0.49766564,-0.2590801,0.746163,0.95616734
0.1,0.0,1.4,0.0,0.0,0,0.22158235,-1.4760352,-0.32624266,-0.54845595,0.29587325,0.1438191,-0.58710766,1.8695264,-0.037643887,0.78253996,-0.3242933,-0.2944673,0.6895848,0.814177
0.1,0.0,1.4,0.0,0.0,0,0.16031723,-1.4544388,-0.3193152,-0.53777045,0.42071882,-0.038253598,-0.80998844,1.9881788,-0.039079268,0.8048612,-0.48182657,-0.26026466,0.709274,0.5597926
0.1,0.0,1.4,0.0,0.0,0,0.19394457,-1.4422497,-0.35064608,-0.5421962,0.56556237,0.11380438,-1.2255415,1.9204364,-0.022654055,0.81098026,-0.40074426,-0.36343694,0.6177942,0.47805747
0.1,0.0,1.4,0.0,0.0,0,0.13878253,-1.4319139,-0.27369398,-0.51314896,0.42910266,-0.33703166,-0.8690367,2.0335603,-0.08314492,0.79720485,-0.39884657,-0.28944504,0.67054826,0.5029514
0.1,0.0,1.4,0.0,0.0,0,0.17411524,-1.4528854,-0.32449844,-0.5256835,0.5318183,-0.13709424,-0.96568125,1.8731099,-0.041389015,0.81346834,-0.40859395,-0.31405193,0.7027955,0.40508842
0.1,0.0,1.4,0.0,0.0,0,0.14647098,-1.4256386,-0.36746344,-0.50923234,0.53786844,-0.039582852,-0.99464965,1.9774565,-0.071724765,0.79578483,-0.37677544,-0.38660455,0.64185363,0.7575945
0.1,0.0,1.4,0.0,0.0,0,0.1852518,-1.4131687,-0.28256923,-0.5237847,0.60000604,-0.24323411,-0.939443,1.997832,-0.060542997,0.80464536,-0.35133657,-0.3300847,0.52728534,0.63749105
0.1,0.0,1.4,0.0,0.0,0,0.19041517,-1.4687614,-0.39500937,-0.52089715,0.45255253,-0.10789571,-1.128244,1.9548901,-0.039143674,0.7896821,-0.4453856,-0.24623463,0.6337882,0.5900928
0.1,0.0,1.4,0.0,0.0,0,0.21847291,-1.4550424,-0.31374395,-0.5286404,0.60500705,0.043933894,-1.0169301,2.0490122,-0.021495352,0.7881521,-0.49236783,-0.23853187,0.7063046,0.4117952
0.1,0.0,1.4,0.0,0.0,0,0.17224096,-1.4740497,-0.33300978,-0.5074534,0.49225414,-0.043688126,-0.5646074,2.0400767,-0.0847409,0.7659939,-0.43065578,-0.28312644,0.6537165,0.57214075
0.1,0.0,1.4,0.0,0.0,0,0.14287707,-1.467544,-0.34415114,-0.52961016,0.3014096,0.15311575,-0.75606704,1.9232042,-0.06363516,0.75798887,-0.3507312,-0.23637666,0.5547938,0.39991587
0.1,0.0,1.4,0.0,0.0,0,0.15083435,-1.4498756,-0.37060785,-0.53428763,0.30082086,-0.26517597,-1.0273516,2.0460582,-0.07504733,0.7865973,-0.4372108,-0.32342517,0.6525974,0.5392095
0.1,0.0,1.4,0.0,0.0,0,0.20348158,-1.4731853,-0.36033735,-0.5399853,0.54500216,0.23140317,-1.185819,1.9409865,-0.036486767,0.78642046,-0.3589807,-0.32176688,0.472697,0.18209475
0.1,0.0,1.4,0.0,0.0,0,0.18149911,-1.4649433,-0.27454734,-0.51710254,0.22210003,-0.18588775,-1.0074115,1.8979481,-0.06486323,0.76698035,-0.3480951,-0.24298002,0.6326024,0.7128974
0.1,0.0,1.4,0.0,0.0,0,0.17480938,-1.4456036,-0.28455377,-0.511465,0.4542833,-0.054584637,-0.92944926,1.9722284,-0.03704889,0.78767544,-0.4422045,-0.23251377,0.6701498,0.6204733
0.1,0.0,1.4,0.0,0.0,0,0.18717487,-1.4194964,-0.30166957,-0.53048915,0.32088244,0.028856585,-0.78259516,1.8514218,0.011828719,0.8097746,-0.34725255,-0.3301701,0.6893959,0.3432678
0.1,0.0,1.4,0.0,0.0,0,0.18273382,-1.4663671,-0.30571342,-0.50837696,0.3909621,-0.085893616,-1.0338811,2.0009851,-0.036541943,0.8113702,-0.42451432,-0.30642456,0.6482821,0.40945587
0.1,0.0,1.4,0.0,0.0,0,0.15862426,-1.469268,-0.37767673,-0.52206814,0.37662873,0.029311396,-0.6566689,2.0277343,-0.064140126,0.7938167,-0.41132155,-0.31126094,0.6318793,0.27066916
0.1,0.0,1.4,0.0,0.0,0,0.14553997,-1.4583709,-0.2987809,-0.53697026,0.5416526,0.21196735,-0.94926625,2.1259682,-0.08399456,0.8054096,-0.4433467,-0.33597887,0.633045,0.7989611
0.1,0.0,1.4,0.0,0.0,0,0.19194241,-1.4686683,-0.28296787,-0.50384134,0.69824874,-0.008784609,-1.0775493,1.9783068,-0.06840768,0.82703626,-0.43294877,-0.2943294,0.6867583,0.7370354
0.1,0.0,1.4,0.0,0.0,0,0.1787736,-1.4583976,-0.3011401,-0.52241856,0.42672673,0.31831554,-0.903707,1.9168205,-0.03746895,0.8275893,-0.40183565,-0.30868113,0.64627373,0.7563251
0.1,0.0,1.4,0.0,0.0,0,0.20056209,-1.4542842,-0.30510226,-0.53697026,0.5680521,0.06584912,-0.73276013,2.0244257,-0.07767277,0.818375,-0.46024773,-0.26897243,0.69897985,0.428816
0.1,0.0,1.4,0.0,0.0,0,0.190824,-1.4781728,-0.34036005,-0.5462746,0.35117775,0.086647645,-0.33208457,2.028723,-0.0319274,0.8374883,-0.49214306,-0.3053286,0.71251744,0.8754481
0.1,0.0,1.4,0.0,0.0,0,0.1773153,-1.4456242,-0.34853598,-0.51247215,0.44807768,0.16280079,-1.0217166,2.0262754,-0.031850725,0.7674702,-0.4265224,-0.29469556,0.6154216,0.65238017
0.1,0.0,1.4,0.0,0.0,0,0.16159593,-1.4514354,-0.3315726,-0.5406894,0.52338046,0.11448109,-0.8227886,1.9884408,-0.050953235,0.79772526,-0.40199342,-0.2863085,0.55057883,0.7789404
0.1,0.0,1.4,0.0,0.0,0,0.14573589,-1.4536351,-0.32429865,-0.5110355,0.44907796,0.39132038,-1.0071353,2.1104424,-0.03591654,0.7869444,-0.4496826,-0.27305543,0.6113687,0.41409856
0.1,0.0,1.4,0.0,0.0,0,0.1508641,-1.4567493,-0.3326998,-0.5169958,0.33206674,-0.04295256,-0.8260149,2.0055592,-0.09711325,0.8040187,-0.3621019,-0.32627663,0.5519186,0.30244237
0.1,0.0,1.4,0.0,0.0,0,0.14951421,-1.4641298,-0.36418292,-0.5026623,0.30532685,0.21574935,-0.6338721,1.9742881,-0.021715347,0.8201386,-0.40121835,-0.28173453,0.5168909,0.690581
0.1,0.0,1.4,0.0,0.0,0,0.18527435,-1.4598505,-0.25786966,-0.49861607,0.47868526,-0.09648583,-0.9540838,1.9157261,-0.010327692,0.77705616,-0.3753256,-0.30338636,0.59488106,0.43379557
0.1,0.0,1.4,0.0,0.0,0,0.15063985,-1.4329404,-0.3630832,-0.55219597,0.5430239,0.29473975,-0.47646672,1.9241836,-0.027469806,0.756451,-0.37755883,-0.24630325,0.65748155,0.6127155
0.1,0.0,1.4,0.0,0.0,0,0.16818693,-1.4524144,-0.34188148,-0.5440334,0.3578114,-0.1158394,-0.94436246,1.962182,-0.027098222,0.82665443,-0.42592427,-0.28808048,0.6228642,0.9872289
0.1,0.0,1.4,0.0,0.0,0,0.12686367,-1.4553751,-0.28305632,-0.5292006,0.44488055,-0.042657565,-1.0703669,2.1031468,-0.04949865,0.80627435,-0.4859129,-0.33088717,0.6831078,0.55870575
0.1,0.0,1.4,0.0,0.0,0,0.18391702,-1.4402803,-0.32738435,-0.5433004,0.26208475,-0.15036781,-1.1156728,1.9724869,-0.06379256,0.7764563,-0.37335292,-0.3271299,0.5465586,0.26833865
0.1,0.0,1.4,0.0,0.0,0,0.15874657,-1.44785,-0.33262914,-0.53688073,0.37803254,-0.14570847,-1.069842,2.0294526,-0.0421328,0.8222688,-0.4468318,-0.38124433,0.68807995,0.5433269
0.1,0.0,1.4,0.0,0.0,0,0.1556572,-1.4522177,-0.3341014,-0.5438351,0.25873893,-0.15418318,-0.94770575,1.8676654,-0.023763655,0.80074495,-0.38469025,-0.3060818,0.66115296,0.38679668
0.1,0.0,1.4,0.0,0.0,0,0.1711391,-1.4584687,-0.39406776,-0.5284705,0.38046145,-0.12279143,-0.9780316,2.066583,-0.006924828,0.77038825,-0.48904318,-0.29276136,0.64167374,0.6797615
0.1,0.0,1.4,0.0,0.0,0,0.14856286,-1.4133468,-0.35881057,-0.5214159,0.5837114,-0.1984028,-0.54131,2.0014646,-0.072138496,0.7726614,-0.36903444,-0.29590926,0.5865503,0.5190785
0.1,0.0,1.4,0.0,0.0,0,0.17452773,-1.4570374,-0.31493062,-0.49633667,0.3281716,-0.18843992,-0.9362332,2.0071363,-0.0645563,0.8023086,-0.39891246,-0.2802504,0.60599625,0.76258403
0.1,0.0,1.4,0.0,0.0,0,0.18398021,-1.456788,-0.3378653,-0.5195485,0.3867133,-0.056914054,-1.02527,1.913391,-0.051713314,0.8009086,-0.34276125,-0.29838315,0.56904423,0.83580035
0.1,0.0,1.4,0.0,0.0,0,0.13417345,-1.4275116,-0.31197608,-0.5275193,0.48753685,-0.18870638,-1.0189408,2.0962257,-0.049234703,0.7735823,-0.40871626,-0.30646563,0.5696862,0.6019999
0.1,0.0,1.4,0.0,0.0,0,0.15921581,-1.4508151,-0.32910603,-0.547235,0.4498878,0.09640242,-0.8534316,2.0513678,-0.036446035,0.7830131,-0.47849154,-0.31406897,0.7391229,0.68899316
0.1,0.0,1.4,0.0,0.0,0,0.14702798,-1.4388481,-0.31609944,-0.5207498,0.38393757,-0.14928204,-0.69142723,2.0432448,-0.060588334,0.8153806,-0.43211418,-0.34387416,0.6384032,0.30342188
0.1,0.0,1.4,0.0,0.0,0,0.15155938,-1.434665,-0.30896524,-0.5177054,0.5987131,-0.41170585,-0.852818,1.9781526,-0.022736102,0.79897046,-0.40745035,-0.37282798,0.683696,0.6926012
0.1,0.0,1.4,0.0,0.0,0,0.19248353,-1.4229345,-0.32613677,-0.52737945,0.49511355,-0.102765076,-0.805271,1.9011949,-0.08359582,0.7848458,-0.32776064,-0.31840053,0.6553541,0.7618214
0.1,0.0,1.4,0.0,0.0,0,0.18899326,-1.432398,-0.35708198,-0.53973794,0.531981,-0.25410756,-1.1279849,2.0071337,-0.035751704,0.8136858,-0.4180814,-0.31973177,0.7115667,0.6820399
0.1,0.0,1.4,0.0,0.0,0,0.16700917,-1.4354584,-0.30952117,-0.5578497,0.5164081,-0.039074007,-1.1652074,1.9740238,-0.049506523,0.80834186,-0.4092672,-0.33393565,0.56966484,0.35493997
0.1,0.0,1.4,0.0,0.0,0,0.15887356,-1.430563,-0.3395872,-0.5211445,0.524514,-0.063119665,-0.89559036,1.8758101,-0.09791778,0.8018065,-0.3527971,-0.24621382,0.61926115,0.29370683
0.1,0.0,1.4,0.0,0.0,0,0.13704403,-1.4386274,-0.3545174,-0.5286092,0.38844034,-0.19719902,-0.83083993,1.8960328,-0.013956494,0.78340214,-0.35053492,-0.3042226,0.74118733,0.5391045
0.1,0.0,1.4,0.0,0.0,0,0.18771951,-1.4628245,-0.37204096,-0.52480686,0.5749995,0.12136831,-0.92967963,1.9580961,-0.038087368,0.79610354,-0.4436334,-0.3034478,0.6480721,0.36540174
0.1,0.0,1.4,0.0,0.0,0,0.14941865,-1.4346823,-0.3372,-0.5090665,0.49667734,0.010976751,-1.0378643,1.9864501,-0.04861067,0.7940507,-0.40160075,-0.2676245,0.5926939,0.82207024
0.1,0.0,1.4,0.0,0.0,0,0.19059461,-1.4728084,-0.34689355,-0.511457,0.4186334,-0.21427199,-0.65660834,1.9409695,-0.06393338,0.8061327,-0.410743,-0.33803752,0.684213,0.6759115
0.1,0.0,1.4,0.0,0.0,0,0.14176808,-1.432811,-0.3541264,-0.51899666,0.3792093,-0.14160408,-0.9693159,1.9110447,0.005015877,0.7778401,-0.39221603,-0.22918518,0.6241828,0.5765402
0.1,0.0,1.4,0.0,0.0,0,0.1419539,-1.4964917,-0.3373882,-0.48652482,0.26197925,0.16115381,-0.79992163,1.9400826,-0.049023867,0.82157123,-0.4030933,-0.34389642,0.61671335,0.5549709
0.1,0.0,1.4,0.0,0.0,0,0.18963623,-1.4624391,-0.36750832,-0.526164,0.379519,-0.039767936,-0.65557736,2.0487025,-0.069158114,0.78282434,-0.38061893,-0.3218137,0.50784934,0.29444966
0.1,0.0,1.4,0.0,0.0,0,0.13689256,-1.4352192,-0.38372585,-0.5132583,0.40941402,0.13295932,-0.9537152,1.9429797,-0.038284343,0.8166313,-0.35513663,-0.33426562,0.5252466,0.39638156
0.1,0.0,1.4,0.0,0.0,0,0.20491503,-1.4576098,-0.3529968,-0.53691757,0.57316864,-0.05688644,-0.43385848,1.9888293,-0.026739238,0.79563797,-0.4610766,-0.29907355,0.75024277,0.60902125
0.1,0.0,1.4,0.0,0.0,0,0.191752,-1.4252315,-0.30517608,-0.49553823,0.49176428,-0.1493967,-0.92398816,1.9820894,-0.016750107,0.79615724,-0.36764288,-0.34777743,0.58006066,0.44581008
0.1,0.0,1.4,0.0,0.0,0,0.15488349,-1.4198335,-0.30888242,-0.52601504,0.43594027,0.042115692,-0.6169332,2.038429,-0.04208225,0.7849865,-0.38807878,-0.31196982,0.5796965,0.79390186
0.1,0.0,1.4,0.0,0.0,0,0.16251859,-1.4691457,-0.37162748,-0.5148857,0.50622076,0.22442302,-1.1363542,2.0481653,-0.024523137,0.804404,-0.47712955,-0.22649114,0.6166819,0.5442985
0.1,0.0,1.4,0.0,0.0,0,0.19614719,-1.4522241,-0.3576901,-0.5344176,0.40937644,-0.09531417,-0.71077317,1.9545755,-0.091661975,0.74735296,-0.35227787,-0.28528172,0.66319567,0.52277625
0.1,0.0,1.4,0.0,0.0,0,0.16539855,-1.4555304,-0.33685493,-0.52302176,0.45247397,-0.22560397,-1.0338342,2.1207404,-0.05290519,0.8099524,-0.47618213,-0.289386,0.6375683,0.3310983
0.1,0.0,1.4,0.0,0.0,0,0.1715499,-1.4457234,-0.30589876,-0.52644515,0.5675247,-0.028293246,-0.9248408,2.0200033,-0.024285197,0.792179,-0.4312868,-0.34478614,0.5926639,0.62139
0.1,0.0,1.4,0.0,0.0,0,0.157958,-1.4531891,-0.31681448,-0.51766855,0.2661885,-0.12793323,-0.5447739,2.0386345,-0.057126947,0.7826026,-0.39826003,-0.30723214,0.6945362,0.91715246
0.1,0.0,1.4,0.0,0.0,0,0.14200707,-1.4520314,-0.2871718,-0.52871877,0.21069576,0.19524124,-0.8292306,1.9787639,-0.05317013,0.8379147,-0.4091118,-0.27866802,0.627095,0.55695057
0.1,0.0,1.4,0.0,0.0,0,0.16363703,-1.4375414,-0.3431019,-0.53491855,0.48052567,0.13115968,-1.2204949,2.0246255,-0.046486586,0.78255713,-0.40088093,-0.25576788,0.5599896,0.8458804
0.1,0.0,1.4,0.0,0.0,0,0.15090242,-1.4415637,-0.35844278,-0.5204334,0.50652814,-0.14058135,-0.7123377,1.9445716,-0.03031989,0.7750505,-0.40683636,-0.29712394,0.67323744,0.6456471
0.1,0.0,1.4,0.0,0.0,0,0.14066777,-1.4284508,-0.3637901,-0.48967478,0.40708095,-0.3712235,-1.0274496,2.0225184,0.0068429434,0.7672668,-0.4591281,-0.25366175,0.6523041,0.43901828
0.1,0.0,1.4,0.0,0.0,0,0.13765511,-1.440644,-0.29397458,-0.5383947,0.35171932,-0.39106068,-0.8996005,1.9745984,-0.048122115,0.79917306,-0.4453403,-0.25683862,0.6646769,0.4585076
0.1,0.0,1.4,0.0,0.0,0,0.15082525,-1.4697431,-0.38035965,-0.5129926,0.48387632,0.10645067,-0.9753537,2.0894892,-0.043578636,0.7889443,-0.46085832,-0.23995416,0.6026352,0.57066846
0.1,0.0,1.4,0.0,0.0,0,0.15909475,-1.4917349,-0.32887682,-0.50428426,0.11637922,-0.102902465,-1.0972372,1.9946127,-0.06483507,0.77299523,-0.39389214,-0.26100272,0.60104936,0.5133902
0.1,0.0,1.4,0.0,0.0,0,0.18628293,-1.4557862,-0.31423616,-0.53973585,0.34880856,-0.045303836,-0.9968015,1.8902814,-0.067339495,0.80341953,-0.37721667,-0.32914767,0.7449613,0.52540976
0.1,0.0,1.4,0.0,0.0,0,0.1768226,-1.4308896,-0.34030578,-0.5481711,0.2955523,0.24001722,-1.1305506,2.0657535,-0.002617743,0.76961726,-0.42154652,-0.38227448,0.59080225,0.66195804
0.1,0.0,1.4,0.0,0.0,0,0.18220615,-1.4696823,-0.32889348,-0.51116306,0.44836938,0.07178432,-1.0322877,2.0655267,-0.054568008,0.77388245,-0.43359333,-0.3623497,0.68529165,0.5591799
0.1,0.0,1.4,0.0,0.0,0,0.18453912,-1.4527413,-0.34789863,-0.5044027,0.5864619,-0.089299284,-1.050772,2.0159264,-0.0063731126,0.81049967,-0.46542475,-0.32228076,0.6379755,0.39801073
0.1,0.0,1.4,0.0,0.0,0,0.18981378,-1.4598029,-0.33284277,-0.5046215,0.6489745,-0.12156196,-0.7153431,1.9638064,-0.0724214,0.7931961,-0.4014609,-0.35912624,0.72112787,0.5595245
0.1,0.0,1.4,0.0,0.0,0,0.1710808,-1.4446826,-0.3360283,-0.5564806,0.37643194,0.020092232,-0.54803675,1.9905368,-0.04714189,0.79375386,-0.4236389,-0.30900753,0.65942025,0.6920069
0.1,0.0,1.4,0.0,0.0,0,0.21030962,-1.4687197,-0.31671542,-0.5091761,0.39571807,0.088612214,-0.9820729,1.9986432,-0.05566525,0.81232166,-0.42257303,-0.32734567,0.6581902,0.67524844
0.1,0.0,1.4,0.0,0.0,0,0.13732226,-1.44484,-0.34460425,-0.5280151,0.4076691,-0.31931385,-0.86711544,1.9739143,-0.047590006,0.79563546,-0.3920651,-0.29154935,0.6361713,0.88258904
0.1,0.0,1.4,0.0,0.0,0,0.17156956,-1.4205823,-0.36934444,-0.54156435,0.46960494,-0.015931536,-1.245967,1.9809307,-0.008611094,0.79265887,-0.40075448,-0.37102425,0.6312073,0.8157252
0.1,0.0,1.4,0.0,0.0,0,0.19150095,-1.4611576,-0.3057743,-0.52227247,0.4368952,-0.06405924,-0.2862229,2.057327,-0.064653866,0.78201175,-0.4559238,-0.25872445,0.7147409,0.6735972
0.1,0.0,1.4,0.0,0.0,0,0.19145824,-1.4535339,-0.30012617,-0.5104775,0.762661,0.3285924,-1.2278253,1.9857489,-0.051551934,0.7783723,-0.40066144,-0.26027587,0.6370113,0.73849785
0.1,0.0,1.4,0.0,0.0,0,0.16373116,-1.4248898,-0.3334126,-0.51751465,0.5058477,-0.06966143,-1.270481,1.9412106,-0.045765247,0.8236304,-0.40265483,-0.2837082,0.62691015,0.39735246
0.1,0.0,1.4,0.0,0.0,0,0.14069143,-1.4600501,-0.3490544,-0.5312297,0.1441816,-0.042830836,-0.88411033,2.1704345,-0.013506518,0.7536678,-0.50158733,-0.3043221,0.67046624,0.24345954
0.1,0.0,1.4,0.0,0.0,0,0.20158857,-1.4360607,-0.37681544,-0.5126685,0.35069674,-0.031360175,-0.7525914,1.88375,-0.0015622677,0.7964398,-0.3094536,-0.34749666,0.5847517,0.76140994
0.1,0.0,1.4,0.0,0.0,0,0.18666883,-1.4435217,-0.34228018,-0.4846583,0.39355832,0.14936738,-0.83888775,1.9824401,-0.033974357,0.8257538,-0.4066747,-0.23961154,0.7731414,0.7538796
0.1,0.0,1.4,0.0,0.0,0,0.13879901,-1.4370596,-0.33060908,-0.5646331,0.29021412,-0.05683203,-0.719962,2.0589464,-0.06463826,0.81951976,-0.41359374,-0.32414684,0.57124764,0.67151904
0.1,0.0,1.4,0.0,0.0,0,0.17221822,-1.4496928,-0.33574226,-0.51573014,0.23076421,-0.38702497,-1.1814358,1.9926093,-0.040219273,0.8106288,-0.3889869,-0.30822194,0.62217426,0.6342148
0.1,0.0,1.4,0.0,0.0,0,0.13962227,-1.4563882,-0.3193561,-0.53942454,0.2896563,-0.050183352,-0.8200054,2.0533412,-0.014890799,0.82203716,-0.4612186,-0.4293405,0.6351229,0.58550906
0.1,0.0,1.4,0.0,0.0,0,0.1470821,-1.4542273,-0.34155926,-0.51946473,0.543501,0.095149584,-0.9222939,2.053862,0.0012475528,0.80272657,-0.5015382,-0.29862577,0.6717582,0.3785597
0.1,0.0,1.4,0.0,0.0,0,0.1748,-1.4284143,-0.2901549,-0.5159428,0.48439083,-0.31051952,-1.0360147,1.9976162,-0.032841664,0.7888906,-0.40685847,-0.32852796,0.6648962,0.594949
0.1,0.0,1.4,0.0,0.0,0,0.19724107,-1.4372327,-0.33416057,-0.5260591,0.35288224,-0.17046325,-0.90828013,1.9661244,-0.03946948,0.7772279,-0.38714883,-0.29802963,0.5938054,0.4891216
0.1,0.0,1.4,0.0,0.0,0,0.1659659,-1.4487803,-0.32956755,-0.52283967,0.2553239,-0.2577535,-0.36322564,2.016079,-0.07740193,0.80921274,-0.4209662,-0.3352851,0.67211914,0.43456656
0.1,0.0,1.4,0.0,0.0,0,0.1729603,-1.4156282,-0.34797543,-0.51479477,0.3920626,-0.25887927,-1.0932795,1.9502895,-0.04610501,0.78740543,-0.37862888,-0.25030208,0.608775,0.5725679
0.1,0.0,1.4,0.0,0.0,0,0.19559409,-1.4339423,-0.30728173,-0.5323949,0.4290934,0.113347255,-0.89789677,2.0385659,-0.016712137,0.76812756,-0.43155894,-0.3212644,0.6546917,0.6617496
0.1,0.0,1.4,0.0,0.0,0,0.1533318,-1.4523672,-0.3603531,-0.5161597,0.48022047,0.15989475,-1.0833685,2.0013697,-0.048886534,0.8172142,-0.41891304,-0.24604432,0.5805447,0.35470432
0.1,0.0,1.4,0.0,0.0,0,0.14904103,-1.4241987,-0.31655484,-0.5555484,0.31274712,-0.2189483,-0.6118741,2.0816655,-0.057117064,0.7828879,-0.43152648,-0.2912393,0.602877,0.3608321
0.1,0.0,1.4,0.0,0.0,0,0.14235981,-1.4301541,-0.3151253,-0.5310087,0.5161042,-0.10634514,-0.78640455,1.9615542,0.013623889,0.7583292,-0.39823386,-0.23564452,0.59065855,0.61051786
0.1,0.0,1.4,0.0,0.0,0,0.17915618,-1.4221373,-0.32499775,-0.5053563,0.6395656,-0.62333393,-0.89172167,2.1404803,-0.043738466,0.8301648,-0.47441632,-0.35295412,0.69433,0.7062957
0.1,0.0,1.4,0.0,0.0,0,0.18287906,-1.4286592,-0.40260166,-0.53110707,0.40110782,-0.28363106,-0.92472357,1.9330357,-0.051565394,0.7793962,-0.42161945,-0.26995242,0.7322148,0.34485707
0.1,0.0,1.4,0.0,0.0,0,0.13598019,-1.4201357,-0.31439304,-0.53695667,0.55852586,0.12396195,-0.74995863,1.9657524,-0.0019951886,0.8108005,-0.44863346,-0.2107418,0.691146,0.29320583
0.1,0.0,1.4,0.0,0.0,0,0.16415153,-1.4505368,-0.30582806,-0.52135146,0.4440461,-0.12153646,-0.7524742,2.1296604,-0.08676596,0.7816355,-0.4430387,-0.30588996,0.68645656,0.39443463
0.1,0.0,1.4,0.0,0.0,0,0.15951447,-1.4307293,-0.38538018,-0.5284154,0.39423597,0.34936422,-1.2411186,1.9958502,0.007167089,0.77265036,-0.3808977,-0.37908196,0.6348676,0.9241495
0.1,0.0,1.4,0.0,0.0,0,0.12236541,-1.4458747,-0.37862518,-0.52228963,0.3583299,0.09830104,-1.2218399,2.0303962,-0.026832271,0.79796606,-0.46271077,-0.26839253,0.67805743,0.60568684
0.1,0.0,1.4,0.0,0.0,0,0.19659549,-1.4507586,-0.32227445,-0.52391595,0.43124464,-0.095147125,-0.85611105,1.9469385,-0.071257696,0.7812134,-0.35551846,-0.24368562,0.5661636,0.66727513
0.1,0.0,1.4,0.0,0.0,0,0.16504368,-1.4337971,-0.28473943,-0.53364545,0.5101685,0.16193032,-0.7201423,1.9733334,-0.05205262,0.8045418,-0.41120178,-0.24076769,0.66697586,0.547113
0.1,0.0,1.4,0.0,0.0,0,0.1601164,-1.4080957,-0.38886413,-0.5214248,0.5982532,-0.19262867,-0.61532813,1.9279772,-0.04687962,0.8229622,-0.40840673,-0.28165781,0.7128045,0.7186735
0.1,0.0,1.4,0.0,0.0,0,0.14254287,-1.4153862,-0.31787184,-0.53043175,0.5916379,-0.008475675,-1.1963302,1.9372023,-0.055980172,0.7914798,-0.3812967,-0.32108903,0.65432614,0.42532024
0.1,0.0,1.4,0.0,0.0,0,0.16200471,-1.4034086,-0.33930114,-0.5336009,0.2078467,-0.62512463,-1.0283927,1.9912004,-0.060094405,0.73910534,-0.3351939,-0.2847736,0.6851315,0.45956188
0.1,0.0,1.4,0.0,0.0,0,0.1395118,-1.4244623,-0.31385335,-0.51185864,0.4771274,-0.23553368,-1.0809296,2.10058,-0.05841041,0.80353326,-0.4371819,-0.37178445,0.68667275,0.5016139
0.1,0.0,1.4,0.0,0.0,0,0.23372908,-1.4510671,-0.39087278,-0.5442693,0.52680886,0.019166205,-0.9186765,1.896397,-0.024987033,0.8131283,-0.34775248,-0.24073279,0.68110454,0.6525818
0.1,0.0,1.4,0.0,0.0,0,0.18590789,-1.4586926,-0.3172658,-0.5141503,0.4205976,-0.02087789,-0.9687356,1.9811616,-0.05760916,0.8216229,-0.43972287,-0.31944767,0.7171055,0.5565929
0.1,0.0,1.4,0.0,0.0,0,0.14649865,-1.4530073,-0.32825083,-0.5231567,0.36534894,-0.01619928,-1.0093882,2.0283992,-0.055952877,0.8009505,-0.4236585,-0.27299365,0.58356243,0.31771746
0.1,0.0,1.4,0.0,0.0,0,0.16959691,-1.440606,-0.31066883,-0.5140271,0.5806335,-0.16979863,-0.7735426,2.012483,-0.059455372,0.76849157,-0.44521093,-0.24659623,0.69455004,0.40430027
0.1,0.0,1.4,0.0,0.0,0,0.20015816,-1.474942,-0.32644802,-0.49907896,0.41396925,-0.0014592776,-0.6643504,1.9837066,-0.01195372,0.8099719,-0.40727443,-0.3285885,0.67639345,0.8297153
0.1,0.0,1.4,0.0,0.0,0,0.19329596,-1.4535104,-0.34764123,-0.5282028,0.47593582,-0.08623866,-0.8179489,2.0956287,-0.017394701,0.78589064,-0.46910328,-0.35717037,0.6563254,0.72203195
0.1,0.0,1.4,0.0,0.0,0,0.15920809,-1.4326156,-0.31061372,-0.5184703,0.5760454,-0.06787895,-0.8848938,2.0344512,0.02083219,0.77148384,-0.5237674,-0.31754223,0.79759115,0.54296446
0.1,0.0,1.4,0.0,0.0,0,0.16924043,-1.4354712,-0.308562,-0.50875986,0.040082082,-0.30859488,-0.9433579,1.975939,-0.034922175,0.80365455,-0.4137595,-0.22199038,0.6143259,0.47986707
0.1,0.0,1.4,0.0,0.0,0,0.19445077,-1.454713,-0.2929065,-0.5245942,0.4755527,-0.17268984,-0.9133864,2.0453756,-0.05015205,0.7857051,-0.4301813,-0.3330965,0.6517247,0.6995583
0.1,0.0,1.4,0.0,0.0,0,0.17673434,-1.4387124,-0.32326874,-0.5112724,0.5247619,0.42100233,-0.91304994,1.9355927,-0.03875323,0.83127314,-0.38960627,-0.32764554,0.61886656,0.6912614
0.1,0.0,1.4,0.0,0.0,0,0.15816788,-1.4412893,-0.3256531,-0.5319839,0.51988,0.061753035,-1.06613,2.0901637,-0.04228184,0.7942593,-0.43217456,-0.29216233,0.5854937,0.49676698
0.1,0.0,1.4,0.0,0.0,0,0.15272142,-1.4649794,-0.34290516,-0.48637193,0.33947712,-0.30047178,-0.66178495,2.0564833,-0.07278833,0.8036046,-0.43900442,-0.28936788,0.65032077,0.49266964
0.1,0.0,1.4,0.0,0.0,0,0.17921089,-1.4284112,-0.32510847,-0.5296458,0.47478515,-0.22997116,-0.97805756,1.9960296,-0.021923285,0.80819374,-0.43570045,-0.27356508,0.6766964,0.7755763
0.1,0.0,1.4,0.0,0.0,0,0.1754714,-1.4752237,-0.34701505,-0.4981116,0.39587495,0.029454883,-0.9433086,1.9492848,-0.02408138,0.81402177,-0.4205204,-0.26365945,0.70593333,0.74554175
0.1,0.0,1.4,0.0,0.0,0,0.16744766,-1.4453928,-0.29017526,-0.53231174,0.28193212,-0.06578439,-1.0117953,1.9496833,-0.016288627,0.8175185,-0.39275473,-0.417661,0.70014113,0.7020751
0.1,0.0,1.4,0.0,0.0,0,0.17658724,-1.4496951,-0.31345427,-0.5312972,0.3755071,-0.006481125,-0.8435916,2.0654721,-0.0269593,0.78603154,-0.42395476,-0.29378098,0.56473273,0.50973254
0.1,0.0,1.4,0.0,0.0,0,0.1587424,-1.4312721,-0.3792036,-0.5073516,0.6558848,0.08774202,-1.0904481,1.9421335,-0.063725054,0.7996454,-0.30141386,-0.37443098,0.45830584,0.7440392
0.1,0.0,1.4,0.0,0.0,0,0.15774898,-1.426534,-0.34943077,-0.54963034,0.5564214,0.003677361,-0.6658543,1.9500363,-0.018460568,0.8189324,-0.3829707,-0.3322817,0.57464695,0.68909734
0.1,0.0,1.4,0.0,0.0,0,0.15576075,-1.3837038,-0.3419174,-0.5065924,0.45025012,-0.5687736,-0.99035877,1.8703039,-0.05046148,0.81111014,-0.3513614,-0.30423418,0.8212383,0.6523048
0.1,0.0,1.4,0.0,0.0,0,0.2150276,-1.414864,-0.31086856,-0.50396794,0.3287977,-0.28646368,-0.6528606,1.9801012,-0.044717554,0.83150446,-0.32907668,-0.37898847,0.4996929,0.74854785
0.1,0.0,1.4,0.0,0.0,0,0.142899,-1.4245842,-0.36649615,-0.51497406,0.34728104,0.07512249,-0.96458143,2.004573,-0.057103306,0.7770918,-0.34274668,-0.35488656,0.58217514,0.7373643
0.1,0.0,1.4,0.0,0.0,0,0.19440424,-1.4665459,-0.3611586,-0.5109618,0.4709186,0.24862514,-0.8676821,1.9643476,-0.051298782,0.80871105,-0.41660762,-0.29192805,0.63099235,0.2545359
0.1,0.0,1.4,0.0,0.0,0,0.11404723,-1.4546587,-0.3331381,-0.5065325,0.39323187,0.07509662,-1.0419239,2.062148,-0.0396385,0.7890141,-0.4218544,-0.29043376,0.61323357,0.6510297
0.1,0.0,1.4,0.0,0.0,0,0.16187066,-1.4010247,-0.32499647,-0.53087604,0.5374111,0.1030208,-1.2644248,1.9505868,-0.022597643,0.78475934,-0.34468216,-0.26188964,0.56191474,0.778007
0.1,0.0,1.4,0.0,0.0,0,0.15990876,-1.4347488,-0.36585888,-0.50355583,0.4909514,0.09227631,-0.6684437,1.9871831,-0.04226692,0.79274476,-0.40680096,-0.24340507,0.63797265,0.55717057
0.1,0.0,1.4,0.0,0.0,0,0.17831898,-1.4531809,-0.3062969,-0.5246388,0.45680663,0.1157478,-0.9199563,2.087675,-0.04177436,0.81034654,-0.47837436,-0.30623788,0.69034976,0.41580492
0.1,0.0,1.4,0.0,0.0,0,0.1654105,-1.44984,-0.3381043,-0.5281845,0.32446826,0.03347912,-0.7263814,2.0762615,-0.022663752,0.77655923,-0.43990076,-0.26239297,0.6306615,0.8744151
0.1,0.0,1.4,0.0,0.0,0,0.20874332,-1.4357333,-0.31183314,-0.51225424,0.621849,-0.18445297,-0.9753783,1.8928574,-0.078277655,0.7888337,-0.3125347,-0.33527255,0.7601838,0.82099056
0.1,0.0,1.4,0.0,0.0,0,0.202526,-1.4604218,-0.32631865,-0.52610344,0.4240979,0.0054089744,-0.8066366,2.130778,-0.029815339,0.7924339,-0.47034758,-0.36425146,0.6494785,0.64231396
0.1,0.0,1.4,0.0,0.0,0,0.2021525,-1.4590948,-0.3253769,-0.51051134,0.33825195,-0.10979053,-0.5529846,1.9771259,-0.07638153,0.7849671,-0.35543826,-0.2525015,0.56667316,0.35565275
0.1,0.0,1.4,0.0,0.0,0,0.19471514,-1.4325899,-0.29916507,-0.5496639,0.44245788,-0.06004704,-0.756827,2.0889392,-0.039888382,0.80132824,-0.46336693,-0.26936787,0.64547795,0.72613597
0.1,0.0,1.4,0.0,0.0,0,0.17582409,-1.4375435,-0.3483718,-0.5330318,0.45848972,-0.13091822,-0.9237656,1.97685,-0.05399774,0.78702277,-0.4307343,-0.2234163,0.64176065,0.17327482
0.1,0.0,1.4,0.0,0.0,0,0.17165647,-1.3951494,-0.3368308,-0.5397966,0.595121,0.0028721094,-1.1176016,2.033856,-0.042890556,0.7771238,-0.39107677,-0.3003705,0.6339141,0.25342742
0.1,0.0,1.4,0.0,0.0,0,0.21073535,-1.4213586,-0.31328323,-0.5536954,0.67339665,0.1820858,-1.2425982,1.993792,-0.043353077,0.79531616,-0.40620676,-0.3280385,0.58608586,0.3157613
0.1,0.0,1.4,0.0,0.0,0,0.15266308,-1.4500238,-0.34113887,-0.4983156,0.42454407,-0.20413172,-0.92371404,1.9861302,-0.03754107,0.8162334,-0.42146334,-0.33088398,0.6710619,0.7084845
0.1,0.0,1.4,0.0,0.0,0,0.1919603,-1.4456226,-0.3400474,-0.5175458,0.5004822,-0.06339239,-0.99721754,2.0094697,-0.07120491,0.7757849,-0.39817315,-0.32414123,0.62978256,0.4856784
0.1,0.0,1.4,0.0,0.0,0,0.16029909,-1.4593952,-0.35368544,-0.5090697,0.41555145,0.01272532,-0.98697925,2.050344,-0.07661687,0.78815114,-0.43004566,-0.30633,0.69284225,0.83502895
0.1,0.0,1.4,0.0,0.0,0,0.21038869,-1.4611547,-0.2993734,-0.52553,0.30929944,0.028082518,-0.42436922,1.9576391,-0.048506502,0.8041055,-0.38112456,-0.27243453,0.63851637,1.0422065
0.1,0.0,1.4,0.0,0.0,0,0.16731016,-1.413648,-0.27969846,-0.5171345,0.5592038,-0.014684466,-1.0675724,1.9548197,-0.046155155,0.8029802,-0.38439608,-0.2732106,0.6363179,0.6260867
0.1,0.0,1.4,0.0,0.0,0,0.18819739,-1.4324976,-0.28143337,-0.54223377,0.40886584,0.12286799,-1.2136697,2.0086524,0.0052476474,0.7830988,-0.43756768,-0.34095448,0.74818325,0.66633624
0.1,0.0,1.4,0.0,0.0,0,0.17296594,-1.4406321,-0.29151487,-0.528117,0.27720082,0.061875746,-0.7785207,2.0500252,-0.071543805,0.79990727,-0.42069837,-0.23194116,0.6598701,0.72347987
0.1,0.0,1.4,0.0,0.0,0,0.18028422,-1.4685857,-0.33946177,-0.50430185,0.34078604,0.16797262,-0.6430676,2.0806785,-0.051619567,0.7869959,-0.4248607,-0.32287714,0.6374094,0.89658767
0.1,0.0,1.4,0.0,0.0,0,0.17228106,-1.3964751,-0.36444438,-0.5385295,0.41274977,-0.1153151,-0.78618836,2.0130587,-0.07914066,0.7784261,-0.3755089,-0.21447502,0.67765254,0.3276933
0.1,0.0,1.4,0.0,0.0,0,0.13691886,-1.4567971,-0.32882723,-0.5045754,0.40364662,0.15222272,-0.72941744,2.0766838,-0.017282277,0.7912729,-0.4701978,-0.28002223,0.6628626,0.5733886
0.1,0.0,1.4,0.0,0.0,0,0.19484346,-1.4573256,-0.34076202,-0.50730085,0.23547608,-0.3207082,-0.9269096,1.9688661,-0.026006946,0.81577176,-0.4242028,-0.29086092,0.68517345,0.6981097
0.1,0.0,1.4,0.0,0.0,0,0.18067273,-1.4439029,-0.33734462,-0.5382723,0.31851783,-0.03492836,-0.7678056,1.9606844,-0.05238137,0.76287144,-0.3756542,-0.23280013,0.66501653,0.6072326
0.1,0.0,1.4,0.0,0.0,0,0.19259107,-1.4330866,-0.33444497,-0.5215486,0.4369396,-0.29875445,-0.91312957,1.9072362,-0.04809154,0.8219102,-0.39616317,-0.33445287,0.77037513,0.58872527
0.1,0.0,1.4,0.0,0.0,0,0.16738471,-1.4267352,-0.35874414,-0.54469985,0.3473317,0.088982426,-0.7661849,1.9817777,-0.013286192,0.77664584,-0.41919532,-0.3086892,0.74695355,0.75637335
0.1,0.0,1.4,0.0,0.0,0,0.12826735,-1.4305639,-0.3469124,-0.5226179,0.48147488,-0.07130052,-0.8278393,1.9807838,-0.089190185,0.8392181,-0.39690363,-0.22629747,0.6344861,0.69026214
0.1,0.0,1.4,0.0,0.0,0,0.17743877,-1.4210482,-0.3623231,-0.5287744,0.50381756,-0.31283322,-0.77442175,1.9451166,-0.060452137,0.815163,-0.3694419,-0.35727513,0.6125171,0.6852861
0.1,0.0,1.4,0.0,0.0,0,0.16229343,-1.4303983,-0.35220784,-0.51185745,0.4012101,0.08819718,-0.99237144,1.9842541,-0.046056,0.80633724,-0.39684168,-0.26500118,0.60854304,0.5050717
0.1,0.0,1.4,0.0,0.0,0,0.17175458,-1.4497731,-0.32010418,-0.50330544,0.3503515,0.24553412,-1.1320418,2.0750206,-0.03157597,0.7976918,-0.4371523,-0.36386666,0.64036244,0.67372805
0.1,0.0,1.4,0.0,0.0,0,0.19159998,-1.4342415,-0.31091532,-0.5291361,0.59614164,0.058216266,-0.89492375,2.0619848,-0.023059083,0.7793804,-0.44061235,-0.24590342,0.607885,0.705275
0.1,0.0,1.4,0.0,0.0,0,0.17894647,-1.420289,-0.2968243,-0.524618,0.5574196,-0.092204265,-0.93664783,1.918144,-0.036302004,0.8023642,-0.39701766,-0.28851795,0.7207627,0.44548222
0.1,0.0,1.4,0.0,0.0,0,0.20933418,-1.4289564,-0.29073414,-0.53318906,0.5099121,-0.053107545,-0.8414036,1.8720696,-0.028882507,0.83236223,-0.39708433,-0.2549841,0.74801606,0.56126237
0.1,0.0,1.4,0.0,0.0,0,0.16798806,-1.4385887,-0.29619864,-0.50777066,0.36452824,-0.43458825,-1.2253462,2.0389147,-0.013287363,0.8103048,-0.4474019,-0.29238978,0.6807785,0.52180785
0.1,0.0,1.4,0.0,0.0,0,0.14134143,-1.3868018,-0.32405472,-0.53922546,0.43291384,-0.42050496,-0.7016285,2.0232928,0.009380806,0.8141816,-0.46316293,-0.25246564,0.67659,0.42703512
0.1,0.0,1.4,0.0,0.0,0,0.16672093,-1.4263444,-0.35278285,-0.51684046,0.43181795,-0.409443,-0.98841494,1.9930483,-0.024029689,0.8207452,-0.39506596,-0.2695406,0.6029863,0.63930583
0.1,0.0,1.4,0.0,0.0,0,0.18924434,-1.4648765,-0.37674123,-0.50877845,0.26405144,-0.041346464,-0.6568176,2.0441492,-0.056990635,0.7808741,-0.4459171,-0.2110045,0.6954277,0.4190064
0.1,0.0,1.4,0.0,0.0,0,0.17100659,-1.4209794,-0.32124692,-0.5109961,0.47361246,-0.22896995,-0.56905884,1.8899448,-0.04238731,0.7929689,-0.28471023,-0.30084464,0.7136164,0.6343013
0.1,0.0,1.4,0.0,0.0,0,0.14200516,-1.4245573,-0.3248488,-0.520651,0.40747982,-0.08607844,-0.6698643,1.9556627,-0.044765577,0.7986911,-0.37149853,-0.3039464,0.6870762,0.6664514
0.1,0.0,1.4,0.0,0.0,0,0.18011719,-1.4521565,-0.3118602,-0.49305624,0.44861385,-0.1034294,-1.1003338,1.878175,-0.050229207,0.8049637,-0.32910755,-0.23840633,0.69730115,0.8775036
0.1,0.0,1.4,0.0,0.0,0,0.19447026,-1.4214618,-0.33037454,-0.5102679,0.40500727,-0.1057822,-0.8235673,2.0119157,-0.07139356,0.788053,-0.39615363,-0.29966182,0.7414299,0.57369226
0.1,0.0,1.4,0.0,0.0,0,0.1867382,-1.44531,-0.36034295,-0.5247995,0.41593093,0.23637,-1.1400708,2.0024447,-0.043884583,0.7852666,-0.3972143,-0.3042049,0.61457413,0.5456691
0.1,0.0,1.4,0.0,0.0,0,0.18007006,-1.4267229,-0.32467145,-0.5187493,0.4282593,-0.17075643,-0.98586047,2.0653987,-0.06006059,0.81740236,-0.40669233,-0.22825381,0.5898436,0.36605993
0.1,0.0,1.4,0.0,0.0,0,0.19939499,-1.4305514,-0.28029206,-0.51152,0.48501632,-0.014885905,-0.7295037,1.8909037,-0.04025266,0.78806067,-0.31712836,-0.29653698,0.6946765,0.60218143
0.1,0.0,1.4,0.0,0.0,0,0.1480934,-1.4473779,-0.30575645,-0.49856168,0.3792315,0.13362423,-1.0073743,2.0407794,-0.009479337,0.80976146,-0.47417542,-0.3239387,0.6970291,0.53733456
0.1,0.0,1.4,0.0,0.0,0,0.11860269,-1.4623562,-0.37968957,-0.47577065,0.20550302,-0.18638983,-0.7621531,1.9530185,-0.048802357,0.7977713,-0.3767675,-0.22937016,0.5815808,0.48581856
0.1,0.0,1.4,0.0,0.0,0,0.18968245,-1.4210962,-0.3345392,-0.52536374,0.4251753,-0.22953948,-0.9867685,1.9443537,-0.027113091,0.8040215,-0.41309512,-0.2703601,0.70940787,0.47540724
0.1,0.0,1.4,0.0,0.0,0,0.152417,-1.418085,-0.33178544,-0.5113773,0.4949251,-0.1781286,-0.9424175,1.9828317,-0.01235851,0.79452807,-0.4268663,-0.26347348,0.65943074,0.34835258
0.1,0.0,1.4,0.0,0.0,0,0.14047016,-1.4412569,-0.2971552,-0.48967752,0.16792011,-0.19101375,-1.0760261,2.0450375,0.0150853405,0.79974353,-0.45282605,-0.35892862,0.70483595,0.6025927
0.1,0.0,1.4,0.0,0.0,0,0.21845713,-1.4506282,-0.3424566,-0.52283347,0.44544312,-0.09858102,-0.7851724,2.0675688,-0.0022001055,0.80415,-0.46962702,-0.28156137,0.65190446,0.54374164
0.1,0.0,1.4,0.0,0.0,0,0.15465927,-1.4178175,-0.37965235,-0.5209542,0.4077315,-0.06355749,-1.0321873,1.9083874,-0.026195334,0.80056435,-0.3564637,-0.2833555,0.6854546,0.68522584
0.1,0.0,1.4,0.0,0.0,0,0.17313159,-1.419967,-0.3666686,-0.5157893,0.61206913,0.07808166,-1.2956535,1.9850315,-0.046903756,0.7758452,-0.39111838,-0.2695642,0.65470743,0.4845553
0.1,0.0,1.4,0.0,0.0,0,0.18225592,-1.4305811,-0.31353378,-0.5199634,0.36884773,-0.26516905,-0.7831793,1.9834651,-0.0382317,0.7735026,-0.39790535,-0.26356468,0.6167293,0.2762042
0.1,0.0,1.4,0.0,0.0,0,0.17510267,-1.4267938,-0.39065117,-0.52871984,0.53692365,0.10069946,-0.46268466,1.9903659,-0.0742923,0.80968136,-0.36323896,-0.28892714,0.6108321,0.7572753
0.1,0.0,1.4,0.0,0.0,0,0.14509717,-1.426418,-0.3245494,-0.5198805,0.46686083,0.12738991,-0.9048526,1.9982938,0.008532609,0.83623075,-0.46380827,-0.32602695,0.6966675,0.6557962
0.1,0.0,1.4,0.0,0.0,0,0.16030554,-1.4295197,-0.31080818,-0.49800757,0.30135685,-0.29467353,-0.9000592,1.9929515,-0.07445059,0.79533887,-0.3736061,-0.2730566,0.6898923,0.5771959
0.1,0.0,1.4,0.0,0.0,0,0.16999137,-1.4290655,-0.34266114,-0.5145579,0.56962407,0.05077556,-0.8542524,2.0428188,0.007095924,0.8224864,-0.49599618,-0.35999823,0.71736395,0.40281713
0.1,0.0,1.4,0.0,0.0,0,0.18879315,-1.4117194,-0.34602484,-0.52730167,0.6193725,-0.12868565,-1.0315298,2.013802,-0.037261,0.79565334,-0.38462135,-0.22013745,0.5665578,0.66645074
0.1,0.0,1.4,0.0,0.0,0,0.1934656,-1.3796421,-0.34029672,-0.5136885,0.482514,-0.40623453,-0.8516023,2.0583165,-0.023596482,0.8018471,-0.38760376,-0.30288517,0.6397914,0.27283734
0.1,0.0,1.4,0.0,0.0,0,0.1408801,-1.4276643,-0.29909766,-0.5114013,0.34380695,-0.24196844,-1.0234407,1.9636942,-0.0059453603,0.790626,-0.40631223,-0.2712048,0.65268016,0.6573977
0.1,0.0,1.4,0.0,0.0,0,0.14391829,-1.3950042,-0.34346232,-0.53257954,0.6854031,-0.09643022,-0.64526224,2.1098595,-0.01630271,0.7933816,-0.43796384,-0.31920016,0.59086716,0.33521816
0.1,0.0,1.4,0.0,0.0,0,0.19044732,-1.4086264,-0.32162327,-0.52690035,0.73442364,0.18852282,-0.98358226,1.9903365,-0.044645064,0.76934695,-0.36084166,-0.28168458,0.5596003,0.50070566
0.1,0.0,1.4,0.0,0.0,0,0.17076658,-1.4040158,-0.29044366,-0.5508038,0.3204239,0.30493703,-0.9752367,2.0682418,-0.020808263,0.77363527,-0.42125127,-0.321219,0.6209272,0.56149256
0.1,0.0,1.4,0.0,0.0,0,0.15806304,-1.4194026,-0.35469252,-0.51875633,0.46897045,-0.0947087,-0.6789294,2.077793,-0.03416325,0.7732092,-0.42720035,-0.23870523,0.61972564,0.5151266
0.1,0.0,1.4,0.0,0.0,0,0.16080508,-1.4028425,-0.3600299,-0.5408814,0.55243284,0.03187936,-1.1441776,2.0258112,-0.032195155,0.7870297,-0.43609372,-0.24602686,0.7420209,0.6260401
0.1,0.0,1.4,0.0,0.0,0,0.1731899,-1.4256741,-0.3273651,-0.5175705,0.14722736,-0.30705425,-0.84179664,2.0055146,-0.024824014,0.7910629,-0.44913623,-0.28746027,0.7273913,0.5475229
0.1,0.0,1.4,0.0,0.0,0,0.18714516,-1.4182013,-0.34762186,-0.5503515,0.44710666,0.20670702,-0.88657045,1.9828916,-0.06618497,0.7870362,-0.39990225,-0.20790224,0.6731951,0.61650515
0.1,0.0,1.4,0.0,0.0,0,0.16786678,-1.4070507,-0.31932977,-0.5339342,0.5049178,-0.24683541,-0.932481,2.0321531,-0.06506671,0.78482294,-0.40578204,-0.30679178,0.66972166,0.4986001
0.1,0.0,1.4,0.0,0.0,0,0.12382239,-1.4274962,-0.3618808,-0.49528223,0.5319478,0.07227426,-0.927738,2.0466802,-0.027472304,0.7761873,-0.45078123,-0.34291238,0.75336117,0.59386563
0.1,0.0,1.4,0.0,0.0,0,0.1963191,-1.4401442,-0.338596,-0.5085477,0.4305122,0.034554742,-0.94859457,1.9443576,-0.029067274,0.7971589,-0.3529999,-0.33527154,0.60290426,0.45352173
0.1,0.0,1.4,0.0,0.0,0,0.1716631,-1.4184635,-0.3333657,-0.5329423,0.35441026,-0.05929183,-0.5910333,2.1487648,-0.02578903,0.7632838,-0.45274073,-0.22706285,0.62351984,0.1423313
0.1,0.0,1.4,0.0,0.0,0,0.19892721,-1.4157656,-0.33147675,-0.52674043,0.43139035,-0.18613552,-0.956119,1.9090915,-0.028144147,0.8021807,-0.38519657,-0.2306577,0.7167435,0.517382
0.1,0.0,1.4,0.0,0.0,0,0.17173429,-1.4166399,-0.3327037,-0.5154225,0.5167054,-0.08847715,-0.49364915,1.9983952,-0.039072584,0.8215513,-0.4088451,-0.2653257,0.6320051,0.5654942
0.1,0.0,1.4,0.0,0.0,0,0.17010623,-1.4021976,-0.344528,-0.540007,0.45480624,-0.15854774,-1.0919766,1.9854178,-0.034327675,0.7731503,-0.39357457,-0.26037207,0.71399045,0.4124801
0.1,0.0,1.4,0.0,0.0,0,0.16378753,-1.3987418,-0.35196972,-0.5327868,0.49186122,-0.25545365,-0.89288336,2.0457146,0.013019526,0.80219436,-0.4486892,-0.34554455,0.6726913,0.6057323
0.1,0.0,1.4,0.0,0.0,0,0.24176036,-1.4374596,-0.30929926,-0.5153708,0.45177704,-0.014334906,-0.60213864,1.9876786,-0.04357629,0.78341204,-0.3856621,-0.321866,0.79673356,0.8501525
0.1,0.0,1.4,0.0,0.0,0,0.18867935,-1.430592,-0.2706387,-0.5138567,0.39501545,-0.16958156,-0.9255408,1.96767,-0.013371739,0.790383,-0.43442822,-0.2270763,0.78398854,0.7365702
0.1,0.0,1.4,0.0,0.0,0,0.18474513,-1.4223945,-0.3282758,-0.5169159,0.46127063,-0.0116300555,-0.8539322,1.9104646,-0.012955233,0.81175554,-0.36372206,-0.2712863,0.6464829,0.538521
0.1,0.0,1.4,0.0,0.0,0,0.21610786,-1.4194183,-0.31131828,-0.5314933,0.32871848,0.064122,-0.8712999,2.0459118,-0.028366702,0.8118803,-0.38461855,-0.24139696,0.5170146,0.37406057
0.1,0.0,1.4,0.0,0.0,0,0.17397386,-1.4102002,-0.33692974,-0.511219,0.52089846,-0.023240674,-0.8899178,1.9266376,-0.012438573,0.81071633,-0.36229482,-0.2832793,0.6884603,0.7230473
0.1,0.0,1.4,0.0,0.0,0,0.17092595,-1.3967669,-0.28598234,-0.5365366,0.37341565,-0.06089249,-1.0576481,1.9731541,-0.02454086,0.8160393,-0.40232545,-0.24797362,0.6558495,0.5603982
0.1,0.0,1.4,0.0,0.0,0,0.18195964,-1.3902767,-0.37841207,-0.5303509,0.3806075,-0.3474092,-0.7842627,2.0100493,-0.00723672,0.7766663,-0.34305173,-0.33887392,0.58890676,0.7964749
0.1,0.0,1.4,0.0,0.0,0,0.17893521,-1.4214988,-0.3911849,-0.5203855,0.46364555,0.05191074,-0.8939141,2.0814521,-0.04161415,0.7731175,-0.39730164,-0.3739925,0.6731445,0.89879924
0.1,0.0,1.4,0.0,0.0,0,0.18320853,-1.4296894,-0.33835188,-0.49518526,0.37163657,0.1632766,-0.5178471,1.9869198,-0.019638192,0.8035479,-0.36800948,-0.25021496,0.59465265,0.87505805
0.1,0.0,1.4,0.0,0.0,0,0.16499077,-1.388484,-0.3649531,-0.5342631,0.49225444,-0.10294697,-1.0780596,1.9639244,-0.043376602,0.78345793,-0.34207356,-0.31770945,0.671314,0.5846543
0.1,0.0,1.4,0.0,0.0,0,0.1857281,-1.4228659,-0.3573048,-0.49939135,0.52638894,-0.121381395,-0.79388833,2.0716572,-0.023117209,0.812835,-0.44149232,-0.2796762,0.6358165,0.63283247
0.1,0.0,1.4,0.0,0.0,0,0.15500443,-1.4140766,-0.40491304,-0.504143,0.41475698,0.04523413,-1.1198725,2.0653274,0.002666781,0.7970441,-0.44790787,-0.29305446,0.6566993,0.49123904
0.1,0.0,1.4,0.0,0.0,0,0.18097198,-1.4194138,-0.30771688,-0.49900347,0.5104178,0.08774114,-0.79024833,2.0224447,-0.025906123,0.7540454,-0.40407443,-0.28281453,0.6940624,0.4702539
0.1,0.0,1.4,0.0,0.0,0,0.18940593,-1.3895342,-0.33949444,-0.49098974,0.52487475,-0.1416151,-0.85219294,2.0670085,0.0034088446,0.8179858,-0.39476222,-0.3387662,0.57756835,0.5425823
0.1,0.0,1.4,0.0,0.0,0,0.20586263,-1.3927404,-0.29464802,-0.53892064,0.35986358,-0.3673124,-0.738663,2.0365794,-0.07040969,0.82679456,-0.3612476,-0.29508543,0.57429993,0.85900193
0.1,0.0,1.4,0.0,0.0,0,0.15233083,-1.3519748,-0.31244934,-0.56514406,0.38115072,-0.16141188,-0.8943738,2.0505404,0.026225818,0.8228093,-0.44953746,-0.28502274,0.64628553,0.5296316
0.1,0.0,1.4,0.0,0.0,0,0.16867541,-1.4071907,-0.36816096,-0.5047684,0.4352045,0.3463457,-0.98633206,2.0768058,-0.054453474,0.8034665,-0.39777362,-0.28959233,0.6307457,0.29686707
0.1,0.0,1.4,0.0,0.0,0,0.14462675,-1.5035597,-0.37863424,-0.54713196,0.27662155,-0.19019407,-0.6052997,1.7740661,0.0055614565,0.7951438,-0.36046678,-0.31973532,0.6356168,0.52477497
0.1,0.0,1.4,0.0,0.0,0,0.16136768,-1.4890708,-0.34676683,-0.53220236,0.44637138,-0.25994077,-0.9980354,1.8581297,0.0077698217,0.7671429,-0.3738158,-0.24300212,0.67881787,0.5126048
0.1,0.0,1.4,0.0,0.0,0,0.1823587,-1.4710667,-0.3197095,-0.5202678,0.63216186,0.020368427,-1.0031939,1.912739,-0.008936655,0.763891,-0.32031476,-0.3233979,0.67158186,0.7602253
0.1,0.0,1.4,0.0,0.0,0,0.18014643,-1.4001385,-0.36434945,-0.5018901,0.1767062,0.027167624,-1.0344357,2.1263456,-0.026775798,0.79897887,-0.407685,-0.31984234,0.6155208,0.5851673
0.1,0.0,1.4,0.0,0.0,0,0.18014643,-1.4001385,-0.36434945,-0.5018901,0.1767062,0.027167624,-1.0344357,2.1263456,-0.026775798,0.79897887,-0.407685,-0.31984234,0.6155208,0.5851673
0.1,0.0,1.4,0.0,0.0,0,0.18014643,-1.4001385,-0.36434945,-0.5018901,0.1767062,0.027167624,-1.0344357,2.1263456,-0.026775798,0.79897887,-0.407685,-0.31984234,0.6155208,0.5851673
0.1,0.0,1.4,0.0,0.0,0,0.18014643,-1.4001385,-0.36434945,-0.5018901,0.1767062,0.027167624,-1.0344357,2.1263456,-0.026775798,0.79897887,-0.407685,-0.31984234,0.6155208,0.5851673
0.1,0.0,1.4,0.0,0.0,0,0.18014643,-1.4001385,-0.36434945,-0.5018901,0.1767062,0.027167624,-1.0344357,2.1263456,-0.026775798,0.79897887,-0.407685,-0.31984234,0.6155208,0.5851673
0.1,0.0,1.4,0.0,0.0,0,0.18014643,-1.4001385,-0.36434945,-0.5018901,0.1767062,0.027167624,-1.0344357,2.1263456,-0.026775798,0.79897887,-0.407685,-0.31984234,0.6155208,0.5851673
0.1,0.0,1.4,0.0,0.0,0,0.16019852,-1.4643909,-0.30170137,-0.5503843,0.28205612,-0.19915748,-1.0998298,1.9335165,-0.017565385,0.74899274,-0.3216053,-0.39433342,0.5691602,0.36278242
0.1,0.0,1.4,0.0,0.0,0,0.16019852,-1.4643909,-0.30170137,-0.5503843,0.28205612,-0.19915748,-1.0998298,1.9335165,-0.017565385,0.74899274,-0.3216053,-0.39433342,0.5691602,0.36278242
0.1,0.0,1.4,0.0,0.0,0,0.16019852,-1.4643909,-0.30170137,-0.5503843,0.28205612,-0.19915748,-1.0998298,1.9335165,-0.017565385,0.74899274,-0.3216053,-0.39433342,0.5691602,0.36278242
0.1,0.0,1.4,0.0,0.0,0,0.16019852,-1.4643909,-0.30170137,-0.5503843,0.28205612,-0.19915748,-1.0998298,1.9335165,-0.017565385,0.74899274,-0.3216053,-0.39433342,0.5691602,0.36278242
0.1,0.0,1.4,0.0,0.0,0,0.16019852,-1.4643909,-0.30170137,-0.5503843,0.28205612,-0.19915748,-1.0998298,1.9335165,-0.017565385,0.74899274,-0.3216053,-0.39433342,0.5691602,0.36278242
0.1,0.0,1.4,0.0,0.0,0,0.16019852,-1.4643909,-0.30170137,-0.5503843,0.28205612,-0.19915748,-1.0998298,1.9335165,-0.017565385,0.74899274,-0.3216053,-0.39433342,0.5691602,0.36278242
0.1,0.0,1.4,0.0,0.0,0,0.18439066,-1.3874043,-0.36451244,-0.49479917,0.539005,-0.64767426,-0.883756,1.974954,-0.11305087,0.7917399,-0.1392103,-0.28102896,0.30141065,0.012171006
0.1,0.0,1.4,0.0,0.0,0,0.18439066,-1.3874043,-0.36451244,-0.49479917,0.539005,-0.64767426,-0.883756,1.974954,-0.11305087,0.7917399,-0.1392103,-0.28102896,0.30141065,0.012171006
0.1,0.0,1.4,0.0,0.0,0,0.18439066,-1.3874043,-0.36451244,-0.49479917,0.539005,-0.64767426,-0.883756,1.974954,-0.11305087,0.7917399,-0.1392103,-0.28102896,0.30141065,0.012171006
0.1,0.0,1.4,0.0,0.0,0,0.18439066,-1.3874043,-0.36451244,-0.49479917,0.539005,-0.64767426,-0.883756,1.974954,-0.11305087,0.7917399,-0.1392103,-0.28102896,0.30141065,0.012171006
0.1,0.0,1.4,0.0,0.0,0,0.18439066,-1.3874043,-0.36451244,-0.49479917,0.539005,-0.64767426,-0.883756,1.974954,-0.11305087,0.7917399,-0.1392103,-0.28102896,0.30141065,0.012171006
0.1,0.0,1.4,0.0,0.0,0,0.18439066,-1.3874043,-0.36451244,-0.49479917,0.539005,-0.64767426,-0.883756,1.974954,-0.11305087,0.7917399,-0.1392103,-0.28102896,0.30141065,0.012171006
0.1,0.0,1.4,0.0,0.0,0,0.18439066,-1.3874043,-0.36451244,-0.49479917,0.539005,-0.64767426,-0.883756,1.974954,-0.11305087,0.7917399,-0.1392103,-0.28102896,0.30141065,0.012171006
0.1,0.0,1.4,0.0,0.0,0,0.19334672,-1.4630628,-0.32519397,-0.53520626,0.26881275,0.08440767,-1.0556396,1.9641556,-0.032461036,0.80767715,-0.3527155,-0.3573071,0.6619655,0.6505542
0.1,0.0,1.4,0.0,0.0,0,0.19334672,-1.4630628,-0.32519397,-0.53520626,0.26881275,0.08440767,-1.0556396,1.9641556,-0.032461036,0.80767715,-0.3527155,-0.3573071,0.6619655,0.6505542
0.1,0.0,1.4,0.0,0.0,0,0.19334672,-1.4630628,-0.32519397,-0.53520626,0.26881275,0.08440767,-1.0556396,1.9641556,-0.032461036,0.80767715,-0.3527155,-0.3573071,0.6619655,0.6505542
0.1,0.0,1.4,0.0,0.0,0,0.19334672,-1.4630628,-0.32519397,-0.53520626,0.26881275,0.08440767,-1.0556396,1.9641556,-0.032461036,0.80767715,-0.3527155,-0.3573071,0.6619655,0.6505542
0.1,0.0,1.4,0.0,0.0,0,0.19334672,-1.4630628,-0.32519397,-0.53520626,0.26881275,0.08440767,-1.0556396,1.9641556,-0.032461036,0.80767715,-0.3527155,-0.3573071,0.6619655,0.6505542
0.1,0.0,1.4,0.0,0.0,0,0.19334672,-1.4630628,-0.32519397,-0.53520626,0.26881275,0.08440767,-1.0556396,1.9641556,-0.032461036,0.80767715,-0.3527155,-0.3573071,0.6619655,0.6505542
0.1,0.0,1.4,0.0,0.0,0,0.15165374,-1.5049112,-0.3471719,-0.52845913,0.52247924,-0.20547488,-0.827882,1.8352584,-0.04691928,0.7980477,-0.32631344,-0.30420658,0.71986204,0.6311166
0.1,0.0,1.4,0.0,0.0,0,0.15165374,-1.5049112,-0.3471719,-0.52845913,0.52247924,-0.20547488,-0.827882,1.8352584,-0.04691928,0.7980477,-0.32631344,-0.30420658,0.71986204,0.6311166
0.1,0.0,1.4,0.0,0.0,0,0.15165374,-1.5049112,-0.3471719,-0.52845913,0.52247924,-0.20547488,-0.827882,1.8352584,-0.04691928,0.7980477,-0.32631344,-0.30420658,0.71986204,0.6311166
0.1,0.0,1.4,0.0,0.0,0,0.15165374,-1.5049112,-0.3471719,-0.52845913,0.52247924,-0.20547488,-0.827882,1.8352584,-0.04691928,0.7980477,-0.32631344,-0.30420658,0.71986204,0.6311166
0.1,0.0,1.4,0.0,0.0,0,0.15165374,-1.5049112,-0.3471719,-0.52845913,0.52247924,-0.20547488,-0.827882,1.8352584,-0.04691928,0.7980477,-0.32631344,-0.30420658,0.71986204,0.6311166
0.1,0.0,1.4,0.0,0.0,0,0.15165374,-1.5049112,-0.3471719,-0.52845913,0.52247924,-0.20547488,-0.827882,1.8352584,-0.04691928,0.7980477,-0.32631344,-0.30420658,0.71986204,0.6311166
0.1,0.0,1.4,0.0,0.0,0,0.22498155,-1.4840784,-0.31983396,-0.5684311,0.56498176,-0.0039556217,-0.41432166,2.0512373,-0.044529777,0.7783385,-0.32898334,-0.37202093,0.5014337,0.46920255
