sanky1234/BimanualDexCatch/isaacgymenvs/cem_results/May31/football_pose_0.1_0.0_1.1_0.0_0.0_0_2025-06-03.csv
x,y,z,roll,pitch,yaw,robot1/joint1,robot1/joint2,robot1/joint3,robot1/joint4,robot1/joint5,robot1/joint6,robot1/joint7,robot2/joint1,robot2/joint2,robot2/joint3,robot2/joint4,robot2/joint5,robot2/joint6,robot2/joint7
0.1,0.0,1.1,0.0,0.0,0,0.727053,-0.95667666,-0.13770461,0.04682888,-0.48077056,-0.07981838,0.14786965,1.5612974,-0.8564885,0.4513843,0.68767226,0.45500523,1.1300246,1.2311217
0.1,0.0,1.1,0.0,0.0,0,0.5810248,-1.1090245,-0.07163305,-0.046360977,0.31698376,-0.12035998,0.09395426,1.52222,-0.85891944,0.3840701,0.62381655,0.3210604,1.2387816,1.0706058
0.1,0.0,1.1,0.0,0.0,0,0.6257046,-1.0285895,0.4388372,0.12143292,-0.6873212,-0.07750314,-0.1935346,1.5974146,-0.888856,0.40450865,0.6524942,0.28559083,1.2751911,1.2814981
0.1,0.0,1.1,0.0,0.0,0,0.8040164,-1.0496408,0.2499789,0.009132085,-0.36613584,-0.075436056,0.14388232,1.1063592,-0.85765517,0.56806725,0.62934375,0.5904631,1.3686537,1.202635
0.1,0.0,1.1,0.0,0.0,0,0.59362435,-1.0465376,1.0474662,-0.060065433,-0.2025198,-0.05292797,0.08053344,1.63928,-0.8879183,0.27202114,0.64646226,0.3824059,1.1302004,0.9658511
0.1,0.0,1.1,0.0,0.0,0,0.6142857,-1.0559058,0.73257065,0.013991786,0.29310164,-0.015153904,0.10508346,1.4716012,-0.8628381,0.39554656,0.6065592,0.4284212,1.1551911,0.8304184
0.1,0.0,1.1,0.0,0.0,0,0.42188272,-1.0409547,0.91938716,-0.326405,-0.62435,-0.07876002,-0.30235237,1.697569,-0.83763576,0.34349102,0.59468794,0.24781995,1.2119905,1.4420602
0.1,0.0,1.1,0.0,0.0,0,0.7047187,-1.1060058,0.65806866,0.08123305,-0.22788526,0.001140229,0.22528782,1.553042,-0.849015,0.3843069,0.6119251,0.37287453,1.0309857,1.1521491
0.1,0.0,1.1,0.0,0.0,0,0.50171965,-1.0520818,0.6486482,0.20630084,-0.5016385,0.015018078,0.08270846,1.5374199,-0.8784707,0.42134467,0.63715607,0.28939983,1.1883942,1.1300985
0.1,0.0,1.1,0.0,0.0,0,0.36123925,-0.8631142,1.0925357,-0.13852732,-0.50079066,-0.14057365,-0.1736234,1.690738,-0.8652766,0.4146353,0.70316464,0.39351392,1.1323996,1.2702492
0.1,0.0,1.1,0.0,0.0,0,0.5079344,-1.027597,0.58008426,-0.124096975,0.018658172,-0.1020988,-0.08446786,1.6433467,-0.8645255,0.37555677,0.6839437,0.31060076,1.1611651,1.1632484
0.1,0.0,1.1,0.0,0.0,0,0.8604843,-1.057106,1.1546091,0.058860626,-0.46829963,-0.11303679,-0.059801966,1.63224,-0.8303666,0.3689897,0.60764176,0.31054088,1.054265,1.2202803
0.1,0.0,1.1,0.0,0.0,0,0.47016388,-1.0443304,0.643749,0.18020615,-0.47734478,-0.021398801,0.37289602,1.6240901,-0.8633792,0.30024397,0.62925273,0.3575292,1.2071685,1.0605859
0.1,0.0,1.1,0.0,0.0,0,0.74593496,-1.0701514,0.9042237,0.008214365,-0.64824456,0.0111844335,0.38637912,1.3568549,-0.87183994,0.51582086,0.6168099,0.3680956,1.2982122,1.2497798
0.1,0.0,1.1,0.0,0.0,0,0.63282824,-1.0298167,1.0007515,0.2619118,-0.089467004,-0.112752445,0.24367005,1.6565557,-0.87940407,0.41216916,0.6547733,0.2719607,0.95096546,1.283755
0.1,0.0,1.1,0.0,0.0,0,0.6252522,-1.0556163,0.6297537,0.11426592,-0.5376513,0.024253549,-0.22934036,1.640309,-0.8897297,0.2783957,0.67577916,0.39535815,1.1223427,1.010537
0.1,0.0,1.1,0.0,0.0,0,0.63472515,-0.88253427,1.1641487,0.099552535,-0.84873736,-0.04298965,-0.03686814,1.6451709,-0.89157224,0.42491052,0.6417399,0.36913812,1.1446223,1.0912073
0.1,0.0,1.1,0.0,0.0,0,0.65500665,-0.8909124,1.0051349,0.0054180124,-0.29311568,-0.056422427,-0.15566345,1.6900872,-0.8803299,0.47178656,0.6564914,0.31047812,1.1547784,1.2672578
0.1,0.0,1.1,0.0,0.0,0,0.6172668,-0.98845714,1.0901055,-0.20933233,-0.4766852,-0.1879228,0.06025691,1.3242602,-0.88804036,0.4387977,0.6690627,0.5353035,1.1796712,1.6063305
0.1,0.0,1.1,0.0,0.0,0,0.39561415,-0.92602754,1.4980078,0.21917367,-0.23996568,-0.027243963,0.018966826,1.5127817,-0.8573887,0.40297619,0.639555,0.45599866,1.0536051,1.0822316
0.1,0.0,1.1,0.0,0.0,0,0.4517582,-0.88025886,1.12084,-0.17849733,-0.85300666,-0.09691701,-0.0669611,1.6237036,-0.8810086,0.43696803,0.64131165,0.40950167,1.1234674,1.3304566
0.1,0.0,1.1,0.0,0.0,0,0.58196294,-1.0220526,0.91169536,-0.32825342,-0.6524007,-0.020836292,0.020854384,1.6175877,-0.8462477,0.35796067,0.6296659,0.30185726,1.146641,0.92913294
0.1,0.0,1.1,0.0,0.0,0,0.68262124,-1.0677375,0.6167217,-0.07182229,-0.040284585,0.04814955,0.33601418,1.6580127,-0.9132204,0.37188908,0.6033519,0.28843927,1.1722301,1.0505074
0.1,0.0,1.1,0.0,0.0,0,0.8239355,-1.0792106,0.82056916,-0.13430575,-0.110533096,-0.03579743,0.16510874,1.5190939,-0.8549536,0.4476525,0.6782746,0.345056,1.0492433,1.1827916
0.1,0.0,1.1,0.0,0.0,0,0.7663533,-1.1003858,0.33829042,-0.11963253,-0.3004755,-0.08952165,-0.0924461,1.499821,-0.853835,0.457148,0.6406303,0.364204,1.0036062,1.4069917
0.1,0.0,1.1,0.0,0.0,0,0.68279594,-0.99505883,0.026835669,-0.27792865,-0.24471067,0.013995893,0.07270687,1.439355,-0.87807983,0.4789253,0.6388085,0.45851806,1.2234161,1.1412821
0.1,0.0,1.1,0.0,0.0,0,0.6092287,-1.0416162,0.43185696,-0.12653537,-0.24394071,0.0051345467,-0.017432716,1.350827,-0.86524564,0.4033335,0.66417396,0.49958777,1.2948418,0.9870728
0.1,0.0,1.1,0.0,0.0,0,0.6081775,-1.0242555,0.8028263,-0.09910192,-0.15634465,-0.062346846,0.06366907,1.4579982,-0.8598685,0.38524124,0.70411336,0.50085676,1.0891749,1.1702756
0.1,0.0,1.1,0.0,0.0,0,0.7185642,-0.9738067,1.0140727,-0.43197218,-0.7164914,-0.051946525,0.35330915,1.5982472,-0.8676105,0.349814,0.65236336,0.40745953,1.256119,1.1124026
0.1,0.0,1.1,0.0,0.0,0,0.61232173,-1.0644628,0.22037776,-0.0725965,-0.6089065,0.050715934,0.1156173,1.5501436,-0.883833,0.36900544,0.6341037,0.39595056,1.1893797,1.143296
0.1,0.0,1.1,0.0,0.0,0,0.55119836,-1.0150459,0.62403524,-0.16510205,-0.37888634,-0.0992626,-0.27647915,1.4768867,-0.8876576,0.46045488,0.60893524,0.3148656,1.2265121,0.9566177
0.1,0.0,1.1,0.0,0.0,0,0.7731094,-1.1032144,-0.07704124,-0.14789237,-0.5062475,-0.040208645,0.08830384,1.6266038,-0.90715003,0.43234262,0.64281875,0.331835,1.1391892,1.3927476
0.1,0.0,1.1,0.0,0.0,0,0.5928126,-1.0065936,0.974461,0.13399865,-0.28473994,-0.13188532,0.018335987,1.6159699,-0.8574209,0.3600959,0.62230223,0.34341925,1.1638621,1.0612828
0.1,0.0,1.1,0.0,0.0,0,0.5287229,-1.0023623,0.7967656,0.0268901,-0.5482123,0.0023497192,-0.092321694,1.4455364,-0.8742897,0.46346262,0.6610417,0.38428336,1.2260996,1.4127711
0.1,0.0,1.1,0.0,0.0,0,0.5761198,-1.0039037,0.8018093,-0.18843023,-0.51111686,-0.043574527,0.28749052,1.7727988,-0.87014043,0.3547958,0.6690945,0.1902534,1.086478,1.1268661
0.1,0.0,1.1,0.0,0.0,0,0.6380543,-0.93239117,0.880741,-0.23955128,-0.37724435,-0.18121272,0.41570476,1.3757012,-0.8503037,0.4535055,0.61967605,0.5445621,1.3042982,1.0564592
0.1,0.0,1.1,0.0,0.0,0,0.5687179,-1.0511445,0.13649161,-0.04455284,-0.7166546,-0.09462049,0.33981308,1.5805675,-0.89830285,0.32882756,0.6542872,0.43134323,1.246685,1.3316115
0.1,0.0,1.1,0.0,0.0,0,0.7438677,-1.0612069,0.41294828,-0.033280358,-0.60203516,-0.13860872,0.26582104,1.4865426,-0.866244,0.4052153,0.61995226,0.430746,1.1982776,1.1085176
0.1,0.0,1.1,0.0,0.0,0,0.71686774,-0.96294445,0.93243027,-0.18421961,-0.32800928,-0.10264954,-0.18986727,1.4294719,-0.86876535,0.55014414,0.65386456,0.40764645,1.1764116,1.314328
0.1,0.0,1.1,0.0,0.0,0,0.59232396,-0.9579605,0.5495681,-0.27838704,-0.3116786,-0.101282455,0.25068423,1.6497655,-0.8503311,0.32638395,0.6687562,0.43504733,1.1915057,1.3615534
0.1,0.0,1.1,0.0,0.0,0,0.74524146,-1.0177723,0.89066046,0.032573625,-0.5444159,-0.0022867676,0.23621513,1.4914265,-0.8646908,0.42467877,0.68417466,0.45060638,1.0699246,0.96657443
0.1,0.0,1.1,0.0,0.0,0,0.7435296,-0.9903563,0.46597126,0.13633366,-0.62091315,-0.08633146,0.04185436,1.5561814,-0.87746567,0.4472007,0.645949,0.37067723,1.1615416,1.0238881
0.1,0.0,1.1,0.0,0.0,0,0.56499535,-1.1604154,1.8696197,-0.033938013,-0.12509395,-0.09210938,0.1745293,1.4699975,-0.89375514,0.20137686,0.62380415,0.25918853,1.1503747,1.1183923
0.1,0.0,1.1,0.0,0.0,0,0.7890843,-1.1980333,1.4753666,-0.022482095,-0.34020808,-0.07252084,0.085460834,1.0645126,-0.8235289,0.3580094,0.63689446,0.4714314,1.2852795,0.8672855
0.1,0.0,1.1,0.0,0.0,0,0.7112884,-1.2361798,1.2169214,-0.10070143,-0.2216393,-0.017478442,0.100454316,1.0243036,-0.8536453,0.45097342,0.622392,0.44082963,1.2685478,0.91004694
0.1,0.0,1.1,0.0,0.0,0,0.6725459,-1.1669422,1.6277504,0.08993763,-0.062421117,-0.07735373,0.093182154,1.5261294,-0.8895684,0.14738794,0.65875405,0.3467092,1.1146828,1.3517556
0.1,0.0,1.1,0.0,0.0,0,0.45706666,-1.1183786,1.7579073,-0.120103404,-0.37489408,-0.14596267,0.16671567,1.3290132,-0.85812235,0.38002077,0.6275039,0.23408751,1.1532137,1.3217441
0.1,0.0,1.1,0.0,0.0,0,0.6330209,-1.2071989,0.8845105,-0.048711285,-0.036592174,-0.006543194,-0.12251631,1.1185771,-0.8517433,0.3698953,0.6566208,0.48201874,1.2128192,0.9646504
0.1,0.0,1.1,0.0,0.0,0,0.6769578,-1.1383721,0.8792834,0.12511714,-0.32245266,0.014365341,0.21697141,1.2294652,-0.89099234,0.4747773,0.6798739,0.3802255,1.1342571,1.1886667
0.1,0.0,1.1,0.0,0.0,0,0.46670723,-1.242578,0.6896185,-0.1314139,-0.32283,-0.037025828,0.15244055,1.3395927,-0.8550005,0.40832034,0.671649,0.42409137,1.054652,0.9296447
0.1,0.0,1.1,0.0,0.0,0,0.5351866,-1.166768,1.5987754,0.051108062,-1.0121111,0.0008169124,0.11497957,1.1618154,-0.8752623,0.4045701,0.63015187,0.41160205,1.2490681,1.0230781
0.1,0.0,1.1,0.0,0.0,0,0.59150296,-1.1901755,1.4610648,0.031749994,-0.11311673,0.00853747,0.04754697,1.3550401,-0.8288068,0.41087013,0.65468115,0.19696382,1.1468853,1.0933348
0.1,0.0,1.1,0.0,0.0,0,0.6779239,-1.0980009,1.7668064,-0.28160354,-0.19555019,-0.04912775,-0.18546304,1.4066116,-0.89407027,0.3519664,0.60179305,0.29545677,1.1714219,1.1226335
0.1,0.0,1.1,0.0,0.0,0,0.66712606,-1.2018557,1.4577262,-0.13959523,-0.4678723,0.020938788,0.48500142,1.1715758,-0.82754576,0.38504538,0.6160259,0.3955845,1.217626,1.043259
0.1,0.0,1.1,0.0,0.0,0,0.5420659,-1.1951255,1.4525074,0.03598662,-0.28554133,-0.07026406,0.17982727,1.3034964,-0.8774995,0.35060474,0.63234305,0.31231284,1.2365582,1.1775582
0.1,0.0,1.1,0.0,0.0,0,0.49872363,-1.1090311,1.6972364,-0.24899903,-0.29158452,-0.07692112,0.019544642,1.4066303,-0.86979693,0.4084988,0.64132315,0.15922225,1.1572584,1.0220851
0.1,0.0,1.1,0.0,0.0,0,0.70632875,-1.1520255,1.4598129,-0.079592146,-0.6875317,-0.019105397,-0.013674886,1.4967488,-0.858312,0.32653692,0.60347265,0.255532,1.2128103,1.0550745
0.1,0.0,1.1,0.0,0.0,0,0.5172537,-1.2225243,0.6962101,-0.120183356,-0.08441576,-0.051688544,0.012061879,1.4988115,-0.8526666,0.2632093,0.6445724,0.37961575,1.1052485,1.0130076
0.1,0.0,1.1,0.0,0.0,0,0.43125376,-1.1990973,1.1053691,-0.047059733,-0.09193766,-0.075667575,0.18398127,1.1969651,-0.86756414,0.583208,0.56718755,0.24656671,1.2085354,1.0202686
0.1,0.0,1.1,0.0,0.0,0,0.63892347,-1.1027665,1.6119928,0.094486885,-0.6387783,-0.110234454,0.33174425,1.2581431,-0.8786422,0.3277353,0.62861717,0.5057951,1.172687,0.96414787
0.1,0.0,1.1,0.0,0.0,0,0.6916863,-1.1979285,0.81254154,0.10189117,-0.27303746,-0.07060492,-0.10807627,1.272556,-0.82513,0.4185939,0.6406587,0.34733152,1.1778401,1.2798636
0.1,0.0,1.1,0.0,0.0,0,0.57150966,-1.235906,0.74354905,-0.08497107,-0.409055,-0.07399916,0.43695977,1.3618047,-0.890715,0.42639214,0.6277752,0.2459823,1.1258011,1.025061
0.1,0.0,1.1,0.0,0.0,0,0.6940708,-1.2034446,1.159683,0.055711046,-0.73096234,0.024775008,0.1759872,1.5435425,-0.8880977,0.19818747,0.63540316,0.34624374,1.1550306,0.90866345
0.1,0.0,1.1,0.0,0.0,0,0.5801519,-1.1679293,0.8431097,0.2377186,-0.5170993,-0.12375643,0.022737322,1.2372969,-0.8404287,0.37962332,0.67258745,0.52047527,1.1382744,1.0281677
0.1,0.0,1.1,0.0,0.0,0,0.5847169,-1.1741732,1.016026,0.04875059,-0.29799384,0.0055914675,0.005862097,1.2356024,-0.8871302,0.3176728,0.65487456,0.51487803,1.2121944,0.9596321
0.1,0.0,1.1,0.0,0.0,0,0.51826286,-1.1752472,1.0201465,0.27510577,0.067098275,-0.10126444,-0.037359085,1.3387809,-0.85193944,0.38759178,0.6686299,0.34389493,1.1464446,1.3158977
0.1,0.0,1.1,0.0,0.0,0,0.51326644,-1.1819319,0.84111845,-0.1133187,-0.11760814,-0.04714757,0.0030520104,1.1679077,-0.8708358,0.47211382,0.6381148,0.34075853,1.2305833,1.2672149
0.1,0.0,1.1,0.0,0.0,0,0.5936678,-1.1524665,1.4275866,-0.10872141,-0.77840847,0.0035638465,0.15131105,1.3577918,-0.8234296,0.31280574,0.6953385,0.38287595,1.1328343,1.3259575
0.1,0.0,1.1,0.0,0.0,0,0.5905297,-1.1116916,1.48611,-0.08727335,-0.3319758,-0.07790224,0.21526164,1.1787872,-0.8912172,0.41005805,0.59471947,0.5383599,1.189625,1.0122417
0.1,0.0,1.1,0.0,0.0,0,0.44841796,-1.1687125,1.2696135,-0.08734,-0.34991086,-0.10396556,0.09170814,1.3890522,-0.90637356,0.37870237,0.62680626,0.26883256,1.1996404,1.037119
0.1,0.0,1.1,0.0,0.0,0,0.41243607,-1.1875931,0.9151749,0.07998204,-0.27467266,0.022619557,-0.14759742,1.531403,-0.8802106,0.36900094,0.637134,0.1488386,1.1802008,1.21203
0.1,0.0,1.1,0.0,0.0,0,0.6616479,-1.091588,1.6071182,0.04892655,-0.40005946,-0.056628156,-0.21647489,1.3054159,-0.8938666,0.486368,0.6120677,0.24254057,1.2041677,1.3660151
0.1,0.0,1.1,0.0,0.0,0,0.58195287,-1.1526458,1.3567039,0.060955457,-0.3884497,-0.08897258,0.028897375,1.3427708,-0.89871466,0.49987826,0.6467984,0.25150338,1.0518001,1.1034328
0.1,0.0,1.1,0.0,0.0,0,0.5232493,-1.1705229,0.9285859,-0.11925325,0.25471112,0.033424105,-0.120029315,1.5107256,-0.8534873,0.28862,0.65125096,0.34567174,1.0652465,1.2451098
0.1,0.0,1.1,0.0,0.0,0,0.63562274,-1.1919942,0.71531135,0.17610408,-0.42070436,-0.013372439,0.15406182,1.5505188,-0.87666124,0.25339904,0.6744509,0.30597064,1.130089,1.1462817
0.1,0.0,1.1,0.0,0.0,0,0.572666,-1.1570486,1.3072957,-0.06257295,-0.30660138,-0.05732028,0.13965791,1.309309,-0.8995773,0.46114007,0.64227843,0.2901371,1.1408502,1.4636474
0.1,0.0,1.1,0.0,0.0,0,0.451107,-1.2287297,0.56130373,-0.1681476,-0.601659,-0.16981694,0.049349803,1.3244827,-0.8548049,0.35659245,0.6569629,0.40065557,1.2261906,1.0547252
0.1,0.0,1.1,0.0,0.0,0,0.74981815,-1.108492,1.3861421,-0.20488274,-0.26488104,-0.012379798,-0.07759011,1.2821323,-0.86243635,0.33429185,0.628459,0.45128834,1.2645037,1.0609117
0.1,0.0,1.1,0.0,0.0,0,0.42992446,-1.2424062,0.50685513,-0.081787676,-0.5966489,-0.02341172,-0.21118385,1.278523,-0.88832986,0.43809605,0.66126245,0.40751478,1.1070782,1.3061701
0.1,0.0,1.1,0.0,0.0,0,0.7427495,-1.1629684,1.0759269,0.0019743044,-0.5312653,-0.028631171,-0.14793244,1.4869058,-0.8287088,0.28542098,0.60390496,0.37422526,1.1240948,0.9729692
0.1,0.0,1.1,0.0,0.0,0,0.49017328,-1.0827545,1.6305367,-0.12601008,-0.6717941,0.037108712,-0.058223944,1.4677776,-0.8276517,0.36457002,0.6250198,0.27016652,1.11891,1.1002344
0.1,0.0,1.1,0.0,0.0,0,0.41728225,-1.1575285,1.2460546,0.08789275,-0.63238525,-0.010878066,-0.0010620002,1.3540124,-0.87242085,0.41264865,0.6586903,0.32051373,1.206848,1.3724809
0.1,0.0,1.1,0.0,0.0,0,0.46708953,-1.0857657,1.6050526,0.001219992,-0.45534396,-0.10508052,-0.020586032,1.1328511,-0.868352,0.4962373,0.65682465,0.49482712,1.1224703,1.1367475
0.1,0.0,1.1,0.0,0.0,0,0.54618144,-1.0905327,1.6185281,-0.3540056,-0.505666,-0.059628706,0.12556669,1.2507658,-0.92068756,0.5209709,0.6307199,0.26402196,1.2888901,1.6219913
0.1,0.0,1.1,0.0,0.0,0,0.77966994,-1.18497,1.2971622,0.0018592933,0.12810266,-0.011565197,0.09813009,1.313333,-0.8612234,0.594049,0.57007694,0.14331338,1.1800785,1.0434479
0.1,0.0,1.1,0.0,0.0,0,0.46712813,-1.1789352,0.5798998,0.053069245,-0.4090679,-0.015593365,-0.20982774,1.1675538,-0.84719634,0.4380749,0.6775227,0.50630766,1.1494489,1.1233954
0.1,0.0,1.1,0.0,0.0,0,0.6579932,-1.181192,0.9390478,-0.07105367,-0.17683613,-0.06367635,-0.05458408,1.3783208,-0.8806783,0.35478202,0.6180802,0.36490312,1.2051727,1.2030262
0.1,0.0,1.1,0.0,0.0,0,0.37888977,-1.1319342,1.1728102,-0.01755755,-0.24263467,-0.030675678,-0.18554106,1.2829055,-0.8458621,0.47150403,0.66340584,0.3882687,1.1096519,1.4335504
0.1,0.0,1.1,0.0,0.0,0,0.37619853,-1.1765549,0.7176732,0.12663096,0.037231043,0.0012982,0.13161704,1.3452508,-0.8683853,0.2917995,0.68634254,0.42309442,1.2389947,1.2476932
0.1,0.0,1.1,0.0,0.0,0,0.6778013,-1.2489042,0.18266931,0.0059314263,0.021840377,-0.009629412,0.00076010585,1.3824183,-0.85496545,0.48569602,0.623459,0.32425648,0.994479,1.292266
0.1,0.0,1.1,0.0,0.0,0,0.6219247,-1.2202283,0.3163632,-0.035402793,-0.18614994,0.011524553,-0.02170022,1.3123896,-0.8471262,0.46588475,0.65595406,0.33898184,1.1739084,0.90627646
0.1,0.0,1.1,0.0,0.0,0,0.8293757,-1.1234198,1.5472983,0.07251327,-0.07989715,-0.07412639,0.2693316,1.4786524,-0.8520796,0.40189794,0.6271218,0.21516876,1.1364439,1.274341
0.1,0.0,1.1,0.0,0.0,0,0.59513265,-1.1161085,1.3956343,-0.0334527,-0.65388864,-0.052807946,-0.28901494,1.2558154,-0.88830256,0.34948802,0.6632534,0.44493023,1.2471297,1.3031436
0.1,0.0,1.1,0.0,0.0,0,0.41741455,-1.0696043,1.6449063,0.020870771,-0.3161888,-0.10740968,0.11003363,1.433599,-0.90838754,0.40405396,0.6254222,0.27154645,1.1957843,1.0856544
0.1,0.0,1.1,0.0,0.0,0,0.70745164,-1.1807604,0.68007594,0.03206948,-0.2241087,-0.037341483,0.007562591,1.552317,-0.9060364,0.27757534,0.6231559,0.30852056,1.1982355,1.0058966
0.1,0.0,1.1,0.0,0.0,0,0.63691694,-1.0940062,1.5681461,0.09178338,-0.5039978,-0.081582285,-0.037163436,1.5561002,-0.87011856,0.29864863,0.6553628,0.2815238,1.1611996,1.2673591
0.1,0.0,1.1,0.0,0.0,0,0.85903114,-1.1280612,1.3463746,-0.17101759,-0.08407132,-0.15673019,-0.19627638,1.3429046,-0.884723,0.47226736,0.65362775,0.27085164,1.2759812,1.4191136
0.1,0.0,1.1,0.0,0.0,0,0.4616572,-1.2280838,0.39380327,-0.15909487,-0.5428507,-0.039025087,0.31881237,1.3556663,-0.8690327,0.34404132,0.6529864,0.44558656,1.174097,0.85719717
0.1,0.0,1.1,0.0,0.0,0,0.7456416,-1.1645432,1.3533884,-0.093142025,-0.18847804,-0.102678016,0.023610007,1.43309,-0.8918004,0.3538747,0.6333718,0.27889124,1.235343,0.97667867
0.1,0.0,1.1,0.0,0.0,0,0.5767418,-1.0561097,1.3555621,-0.0065900893,-0.47452962,-0.0120187225,0.13365613,1.4352208,-0.86601424,0.4365873,0.6519063,0.29015994,1.1433585,1.1418772
0.1,0.0,1.1,0.0,0.0,0,0.67884994,-1.2413393,0.23581198,0.012977168,-0.2068261,-0.14760251,-0.057633083,1.474844,-0.88653696,0.28551748,0.63330233,0.42777854,1.1150348,0.92585254
0.1,0.0,1.1,0.0,0.0,0,0.47438973,-1.15368,0.9627546,-0.1544324,-0.4018023,-0.046705373,-0.20557235,1.2277857,-0.8659654,0.4272079,0.61900973,0.42317566,1.2496926,1.0686195
0.1,0.0,1.1,0.0,0.0,0,0.5251181,-1.059454,1.7132044,0.021178,-0.5039135,-0.15208112,0.07009763,1.2272316,-0.8911998,0.46439907,0.6619983,0.49284917,1.1291054,0.99783015
0.1,0.0,1.1,0.0,0.0,0,0.5897686,-1.0930144,1.3966904,0.010862135,-0.5177294,-0.03815221,0.22368874,1.4659991,-0.8602528,0.45033368,0.6250436,0.24500608,1.0937763,1.1643419
0.1,0.0,1.1,0.0,0.0,0,0.5114438,-1.112739,1.26535,-0.017499238,-0.6111504,-0.028242635,0.14680701,1.4498109,-0.90512294,0.32119855,0.6392701,0.41651022,1.1259496,1.0576847
0.1,0.0,1.1,0.0,0.0,0,0.4992382,-1.1532062,0.74127847,-0.30657163,-0.3840655,-0.002349282,-0.075181864,1.3382033,-0.8949903,0.378707,0.59043807,0.47339606,1.1695547,1.0095344
0.1,0.0,1.1,0.0,0.0,0,0.63148415,-1.0698836,1.5386599,-0.11724574,-0.35632688,-0.026302256,-0.04039325,1.1484314,-0.84846276,0.46500224,0.6375835,0.50546277,1.1842443,1.1763463
0.1,0.0,1.1,0.0,0.0,0,0.5497465,-1.1580652,0.71433455,-0.21253523,-0.22531596,-0.107325956,-0.013917059,1.5165036,-0.85605437,0.3344422,0.6781195,0.27960545,1.1831726,1.0620265
0.1,0.0,1.1,0.0,0.0,0,0.59150237,-1.1324983,1.162077,-0.16866523,-0.4265301,-0.008268644,0.05517105,1.5391549,-0.82703125,0.3376992,0.6453897,0.2513871,1.0362499,1.0569822
0.1,0.0,1.1,0.0,0.0,0,0.7188066,-1.1374882,1.0287133,0.2594522,-0.66862524,-0.0987829,0.2659117,1.1910142,-0.8860214,0.49024555,0.6533986,0.42634508,1.2306505,1.2262731
0.1,0.0,1.1,0.0,0.0,0,0.53602016,-1.2001755,0.37381452,-0.2745051,-0.3769697,-0.064440385,0.059133153,1.3208877,-0.86583483,0.3584613,0.6147379,0.40697974,1.2075725,0.89645326
0.1,0.0,1.1,0.0,0.0,0,0.4787892,-1.167639,0.6906032,0.058852546,-0.16621798,-0.06497954,0.23948571,1.1621045,-0.86887467,0.51537544,0.63251704,0.52409655,1.1654575,1.0836799
0.1,0.0,1.1,0.0,0.0,0,0.5700771,-1.1380885,1.0091914,-0.10400099,-0.17886809,-0.13075076,0.23739606,1.3567368,-0.8362224,0.40938702,0.60858417,0.3881167,1.1557614,1.2583076
0.1,0.0,1.1,0.0,0.0,0,0.5331008,-1.0209751,1.6238426,0.19072264,-0.17769934,0.12521206,-0.07557646,1.2055943,-0.8764728,0.4808176,0.63493025,0.4286489,1.2917321,1.2697881
0.1,0.0,1.1,0.0,0.0,0,0.6657715,-1.1324438,1.1368177,-0.16289206,-0.27369064,0.049935903,0.20052142,1.1998577,-0.8934406,0.43405116,0.6262055,0.46272343,1.2279321,1.1384876
0.1,0.0,1.1,0.0,0.0,0,0.49351764,-1.1779858,0.49943554,-0.18941014,-0.5420002,0.04160576,0.124063835,1.386647,-0.8550213,0.4284648,0.6446876,0.31355587,1.2395236,1.3643787
0.1,0.0,1.1,0.0,0.0,0,0.5309083,-1.1582698,0.6728069,-0.050847314,-0.3034489,0.019704591,0.05218274,1.167817,-0.8879337,0.45481807,0.6771058,0.49543342,1.2161882,1.3029304
0.1,0.0,1.1,0.0,0.0,0,0.5639374,-1.1393243,0.8934394,0.0625224,-0.2311604,-0.102760166,-0.016812755,1.2910619,-0.87713695,0.3241278,0.6812937,0.48140264,1.2576755,1.1444297
0.1,0.0,1.1,0.0,0.0,0,0.48960823,-1.1416302,0.98839706,0.07210231,-0.1176104,-0.017186059,0.06340015,1.4153603,-0.8757551,0.34947717,0.6675024,0.3329896,1.2185944,1.1160874
0.1,0.0,1.1,0.0,0.0,0,0.55199164,-1.0787817,1.4899021,-0.101798505,-0.5610473,-0.12072763,0.15433998,1.6865009,-0.8757863,0.32131603,0.6167653,0.18763115,1.0577292,1.0573804
0.1,0.0,1.1,0.0,0.0,0,0.40981692,-1.120112,1.0497657,0.053132135,-0.31396064,-0.051742893,0.21902324,1.4290203,-0.8667831,0.44301534,0.652896,0.2935114,1.1655259,1.1318268
0.1,0.0,1.1,0.0,0.0,0,0.52477163,-1.1931399,0.36297143,0.09549636,-0.10623247,0.012416922,0.112247035,1.4617233,-0.87221736,0.3805959,0.65280867,0.27915674,1.1510148,1.2816353
0.1,0.0,1.1,0.0,0.0,0,0.4754255,-1.1750492,0.48361748,0.018052893,-0.13063492,-0.056489415,0.1445302,1.471624,-0.8643037,0.34878778,0.6485963,0.3036691,1.1213406,1.2666861
0.1,0.0,1.1,0.0,0.0,0,0.5176826,-1.0995342,1.270607,-0.3296647,-0.4261425,0.07812239,0.08998724,1.4181738,-0.87588185,0.3805015,0.5969737,0.35802138,1.2024732,1.2503973
0.1,0.0,1.1,0.0,0.0,0,0.6589667,-1.1784251,0.47160313,0.11385044,-0.5137607,-0.018694373,0.030045925,1.3173761,-0.8604535,0.4510643,0.5827129,0.3929323,1.1744803,1.092516
0.1,0.0,1.1,0.0,0.0,0,0.5388479,-1.1600454,0.6718509,0.07826064,-0.21121383,-0.048311893,-0.1091923,1.3107828,-0.88596606,0.4222471,0.64370036,0.3574007,1.2335327,1.3102782
0.1,0.0,1.1,0.0,0.0,0,0.44467813,-1.0694683,1.5811063,-0.057019316,-0.55781054,0.016593955,0.14837572,1.2815922,-0.8972942,0.41901806,0.6695633,0.46440127,1.1473111,1.3345972
0.1,0.0,1.1,0.0,0.0,0,0.45931655,-1.1246158,0.87567,-0.030982437,-0.3238965,-0.036572214,-0.058774754,1.3429877,-0.84250593,0.4812743,0.6303878,0.29040894,1.287386,1.3035752
0.1,0.0,1.1,0.0,0.0,0,0.64176506,-1.1226578,0.8540649,-0.43034896,-0.17078243,0.10883803,-0.13918799,1.3277657,-0.8464503,0.40759957,0.60923165,0.4620639,1.1697826,1.0446063
0.1,0.0,1.1,0.0,0.0,0,0.35043368,-1.1878328,0.676886,-0.121053115,-0.7702306,0.0032394393,-0.19587798,1.4573517,-0.8969755,0.4611485,0.61940825,0.29456174,1.0610515,1.2458181
0.1,0.0,1.1,0.0,0.0,0,0.49998882,-1.1264231,0.9159685,-0.05997252,-0.068974175,-0.11844841,0.278067,1.5408059,-0.84337026,0.41884232,0.65752256,0.1846068,1.2429563,1.4492104
0.1,0.0,1.1,0.0,0.0,0,0.587308,-1.0802445,1.3766874,0.09220668,-0.27792338,-0.07789528,-0.20828469,1.3964198,-0.8220699,0.45531932,0.60173583,0.3113065,1.1694518,1.1461359
0.1,0.0,1.1,0.0,0.0,0,0.48381364,-1.1128162,1.2131854,-0.09748968,-0.27851635,0.044980068,0.19523728,1.4117184,-0.8670778,0.39582393,0.61200535,0.3664698,1.1744133,1.2394762
0.1,0.0,1.1,0.0,0.0,0,0.42301512,-1.0966327,1.4132342,-0.075714216,-0.13523349,-0.036461413,-0.061738092,1.3806075,-0.8569064,0.38001892,0.63856924,0.3844497,1.1997101,0.95970154
0.1,0.0,1.1,0.0,0.0,0,0.681281,-1.0905448,1.0385044,-0.15634005,-0.28621897,0.0035811523,0.036098488,1.1867162,-0.84565777,0.49506563,0.6510042,0.5005325,1.1766235,1.23957
0.1,0.0,1.1,0.0,0.0,0,0.4768639,-1.0833747,1.399325,-0.1473196,0.1129147,-0.12758051,-0.3720679,1.356976,-0.85018474,0.47510463,0.63546586,0.3862629,1.0016595,0.9569318
0.1,0.0,1.1,0.0,0.0,0,0.65789616,-1.180236,0.34987345,0.061930962,-0.32205003,-0.0048666694,0.24925165,1.4833469,-0.83369726,0.473624,0.6199219,0.13253011,1.1270597,0.91394275
0.1,0.0,1.1,0.0,0.0,0,0.70149976,-1.1909956,0.31175444,-0.030989671,-0.14219826,-0.12997629,0.1383054,1.3448412,-0.8576562,0.36649626,0.64671725,0.42149502,1.2458879,1.2691324
0.1,0.0,1.1,0.0,0.0,0,0.6927263,-1.1280686,1.0625249,0.095789686,-0.6109792,-0.03685827,-0.15705107,1.5979282,-0.8233087,0.36667275,0.6718456,0.17703119,1.1211092,1.4808962
0.1,0.0,1.1,0.0,0.0,0,0.49943104,-1.2336444,0.11721992,0.0061291903,-0.24411407,-0.17903757,-0.32822144,1.558943,-0.8512703,0.36872223,0.6432193,0.26874214,1.1245133,1.3434561
0.1,0.0,1.1,0.0,0.0,0,0.58190864,-1.1310495,0.52487797,0.0128099695,-0.632038,0.067698665,0.025222898,1.3201829,-0.8590595,0.43118775,0.6494526,0.40164912,1.201406,1.2761548
0.1,0.0,1.1,0.0,0.0,0,0.5443724,-1.1185186,1.1129011,0.1700835,0.12196232,-0.05386297,-0.15581957,1.5263823,-0.8921937,0.37210834,0.62143874,0.2787764,1.1457466,1.1618093
0.1,0.0,1.1,0.0,0.0,0,0.6041766,-0.9996343,1.7525706,-0.22618417,-0.2592769,0.014242664,0.10167842,1.3293325,-0.8901179,0.5084587,0.6514138,0.29927054,1.1668859,1.0717822
0.1,0.0,1.1,0.0,0.0,0,0.6247691,-1.1451681,0.91167676,0.016826808,0.06271474,-0.18625334,-0.06634222,1.5704645,-0.86820453,0.33830988,0.65716755,0.20965633,1.1229808,1.0986726
0.1,0.0,1.1,0.0,0.0,0,0.47707447,-1.0533845,1.5349975,-0.21686935,-0.46150616,-0.018650632,-0.22806047,1.1916304,-0.834798,0.5151006,0.6541352,0.42261195,1.3097935,1.3127122
0.1,0.0,1.1,0.0,0.0,0,0.7062126,-1.0705552,1.426989,0.07306973,-0.46904328,-0.103973635,0.05664044,1.5902941,-0.8276299,0.32595626,0.6678222,0.23656522,1.0772698,1.2928505
0.1,0.0,1.1,0.0,0.0,0,0.39039987,-1.0864022,1.2461618,-0.36931774,-0.72968674,-0.026975526,-0.13910188,1.3689024,-0.87442863,0.4677834,0.6529372,0.30289224,1.2889438,1.3698645
0.1,0.0,1.1,0.0,0.0,0,0.77440476,-1.0577612,1.5427113,-0.13376543,-0.35667205,-0.06011553,0.35008368,1.366383,-0.87159395,0.33080113,0.63825035,0.47763038,1.1844201,0.9333067
0.1,0.0,1.1,0.0,0.0,0,0.5150765,-1.1052414,0.80077666,-0.15290377,-0.65489167,-0.12133427,-0.03809243,1.4588621,-0.85360533,0.44812116,0.59043306,0.24478489,1.1392953,1.0215778
0.1,0.0,1.1,0.0,0.0,0,0.4776772,-1.135344,0.37905005,-0.23419678,-0.027434256,-0.05650483,-0.1492713,1.529047,-0.8582337,0.3098311,0.65766346,0.33002713,1.1712182,1.1342005
0.1,0.0,1.1,0.0,0.0,0,0.50471526,-1.0880162,0.6355006,0.055276114,-0.4254379,-0.01727652,0.37495875,1.2671988,-0.8380166,0.45123583,0.6036975,0.4147449,1.2104859,1.097125
0.1,0.0,1.1,0.0,0.0,0,0.6308507,-1.0914309,0.8489778,0.041602325,-0.28865612,-0.028605945,0.10280795,1.4668208,-0.846327,0.39776054,0.5974745,0.3921773,1.175542,0.9561649
0.1,0.0,1.1,0.0,0.0,0,0.41414288,-1.105797,0.81988835,-0.32047898,-0.62797135,-0.08085727,-0.04486102,1.477804,-0.8330481,0.3826065,0.6408755,0.27071232,1.201685,1.0766171
0.1,0.0,1.1,0.0,0.0,0,0.58880734,-1.149571,0.48295778,-0.021523444,-0.05597319,-0.0074321795,-0.18336885,1.4656054,-0.8754216,0.35114765,0.62348413,0.3623534,1.1683159,1.2082475
0.1,0.0,1.1,0.0,0.0,0,0.6837598,-1.0491143,1.4738964,-0.098208204,0.1323991,0.054305267,0.16734725,1.2914191,-0.88507736,0.4341211,0.60333157,0.38746032,1.2973474,1.1397313
0.1,0.0,1.1,0.0,0.0,0,0.5808562,-1.0526899,1.4921507,-0.13211179,-0.42185616,-0.046907872,0.099860944,1.4460498,-0.82523054,0.44739103,0.6088025,0.29306868,1.1443112,1.0333412
0.1,0.0,1.1,0.0,0.0,0,0.56242114,-1.0643665,1.358434,0.24676912,-0.34660876,-0.06935549,0.019683538,1.4897723,-0.847245,0.295135,0.66675127,0.38186797,1.170479,1.4508746
0.1,0.0,1.1,0.0,0.0,0,0.6930263,-1.0249863,0.51168656,0.019475162,-0.33466414,-0.03786162,-0.06719995,1.4075427,-0.8843244,0.48372126,0.68048954,0.42149457,1.0399778,1.2373229
0.1,0.0,1.1,0.0,0.0,0,0.55597275,-1.1278888,0.8769085,0.19332533,0.18096657,-0.06744166,-0.18885417,1.3157799,-0.84587157,0.43736228,0.59825814,0.41229692,1.2138103,1.2875085
0.1,0.0,1.1,0.0,0.0,0,0.6574336,-1.0585301,1.3129416,0.024841163,-0.66508836,-0.031301867,-0.176322,1.492849,-0.87699705,0.30254307,0.672645,0.4022594,1.1517715,1.1344937
0.1,0.0,1.1,0.0,0.0,0,0.5907392,-1.1256073,0.8031399,-0.11071631,-0.6458551,-0.11729464,-0.105125636,1.4770448,-0.86104953,0.3687318,0.64551896,0.34211627,1.1619847,1.2480227
0.1,0.0,1.1,0.0,0.0,0,0.6641128,-1.0268532,1.117464,0.063568555,-0.43616602,-0.18566047,-0.07269611,1.5173342,-0.8768418,0.4058541,0.6660346,0.38226253,1.083019,1.0862138
0.1,0.0,1.1,0.0,0.0,0,0.47142598,-1.084014,1.0814525,0.018680222,-0.40099502,-0.017695818,0.115457974,1.5439557,-0.8298791,0.49915004,0.63120997,0.1360345,1.059181,1.3314383
0.1,0.0,1.1,0.0,0.0,0,0.5734098,-1.0491091,1.276915,-0.12894294,0.062268533,-0.038913917,-0.12595831,1.5004419,-0.8855194,0.44847435,0.66715103,0.24679305,1.0916241,1.324893
0.1,0.0,1.1,0.0,0.0,0,0.6748739,-1.1864473,-0.015182326,-0.015780363,-0.25982663,-0.090826735,0.4108865,1.245352,-0.8559223,0.56449395,0.61053646,0.39748943,1.1361285,1.4707209
0.1,0.0,1.1,0.0,0.0,0,0.6213431,-1.0994585,0.84499127,-0.32548133,-0.031432286,-0.08482802,0.18553928,1.4563944,-0.86587363,0.48175186,0.6587434,0.22830288,1.1016777,1.2031091
0.1,0.0,1.1,0.0,0.0,0,0.69105375,-1.1366451,0.5931094,-0.061288543,-0.7383926,-0.019720253,0.108615465,1.2267551,-0.901541,0.4590149,0.6147182,0.4320738,1.2680659,1.368278
0.1,0.0,1.1,0.0,0.0,0,0.5153529,-1.0564089,1.3047482,-0.0045764567,-0.25812772,-0.13036461,0.25684398,1.3012651,-0.8113575,0.48697963,0.60792303,0.41230908,1.1050365,0.9080919
0.1,0.0,1.1,0.0,0.0,0,0.6643429,-1.0567098,1.2168955,-0.078780256,-0.68979305,-0.07500816,0.08370494,1.372123,-0.82816577,0.5074275,0.6469873,0.33303183,1.1328734,1.2956693
0.1,0.0,1.1,0.0,0.0,0,0.44486162,-1.1298779,0.6515721,0.14156544,-0.13088833,-0.061992887,0.016075261,1.392892,-0.8844303,0.3553466,0.6467851,0.5321188,1.1028734,0.92610765
0.1,0.0,1.1,0.0,0.0,0,0.6462197,-1.1038104,0.9102181,0.1131866,-0.122933306,-0.12196921,0.29238525,1.475445,-0.8728925,0.43987632,0.6398378,0.26973224,1.0714318,1.044475
0.1,0.0,1.1,0.0,0.0,0,0.70342785,-1.1985554,0.13934949,0.10824292,-0.3864827,0.014287573,-0.2744306,1.511877,-0.8797572,0.39995694,0.6187356,0.27631068,1.1545686,1.0242811
0.1,0.0,1.1,0.0,0.0,0,0.47003266,-1.0961736,0.9284016,-0.24085207,-0.3082689,0.014701394,-0.15372293,1.3336092,-0.87856704,0.3859925,0.64059997,0.5073441,1.1860566,0.9424765
0.1,0.0,1.1,0.0,0.0,0,0.50095195,-1.0195562,0.8561207,-0.11579385,-0.7181293,-0.12006997,0.22295563,1.4233125,-0.86212236,0.46963418,0.6186242,0.4117639,1.2657847,1.3772832
0.1,0.0,1.1,0.0,0.0,0,0.6635546,-0.8950501,1.9053539,-0.05628546,-0.44120154,-0.10639021,0.08303822,1.3355181,-0.8401872,0.46830192,0.65893656,0.42255554,1.162583,1.2420636
0.1,0.0,1.1,0.0,0.0,0,0.5602572,-1.0963631,0.81319237,-0.2913245,-0.44474074,0.075648405,-0.33004194,1.4342251,-0.87400895,0.3943419,0.6611838,0.40320203,1.1451964,1.1149987
0.1,0.0,1.1,0.0,0.0,0,0.58136857,-1.0710193,0.7023588,-0.24600998,-0.18496852,-0.15743457,-0.036725532,1.3219606,-0.87641835,0.38807917,0.65513444,0.4681199,1.2092974,0.8711759
0.1,0.0,1.1,0.0,0.0,0,0.62968636,-1.0075986,1.4782937,0.15416348,-0.3671456,0.026926441,-0.012608857,1.2686602,-0.8867754,0.40631375,0.6593292,0.46175486,1.3756933,1.0255262
0.1,0.0,1.1,0.0,0.0,0,0.5443462,-1.1399052,0.26467377,-0.2319674,-0.32396057,-0.1446737,-0.2534725,1.2535708,-0.8477538,0.4493942,0.66613907,0.5702493,1.1613817,1.0104151
0.1,0.0,1.1,0.0,0.0,0,0.58097583,-0.9791245,1.3435231,-0.23383924,-0.35386387,-0.08133131,0.04310252,1.2727258,-0.8721187,0.524556,0.61131984,0.3982257,1.2818127,1.067875
0.1,0.0,1.1,0.0,0.0,0,0.59641004,-1.0451308,0.4087046,-0.18592894,-0.38276637,-0.0631957,0.19167615,1.2651057,-0.8813929,0.5243793,0.65828186,0.48407844,1.2267482,1.3474853
0.1,0.0,1.1,0.0,0.0,0,0.5978585,-1.0934707,0.81274277,0.15023512,-0.40771222,0.06478876,0.18187714,1.3145872,-0.78495646,0.37441912,0.6410228,0.56522244,1.1482669,0.8857295
0.1,0.0,1.1,0.0,0.0,0,0.6156179,-1.0853077,0.7362174,-0.29739362,-0.6526207,-0.10175759,-0.038863264,1.435994,-0.8810984,0.43884355,0.64835316,0.31380767,1.2586534,1.4879621
0.1,0.0,1.1,0.0,0.0,0,0.62826055,-1.1301093,0.48335642,-0.34931448,-0.17737271,0.00033450243,-0.010203384,1.644203,-0.88724434,0.3954694,0.6528655,0.19527026,1.0291363,1.0982757
0.1,0.0,1.1,0.0,0.0,0,0.5393195,-1.0936267,0.24435052,-0.12154878,-0.50304127,0.035238888,0.11466697,1.4378997,-0.8846438,0.4818553,0.5902828,0.30702904,1.1447273,1.1880445
0.1,0.0,1.1,0.0,0.0,0,0.6039245,-1.0578058,1.194456,-0.06627671,-0.37189636,-0.17883644,0.14584103,1.4884024,-0.8776588,0.34013364,0.6660348,0.3487425,1.2499335,1.0487348
0.1,0.0,1.1,0.0,0.0,0,0.72411007,-1.1257958,0.3976817,0.25848547,-0.54455346,-0.10289417,0.1423029,1.5178126,-0.8339097,0.48767743,0.5937843,0.19194077,1.1483837,1.3307164
0.1,0.0,1.1,0.0,0.0,0,0.4884381,-1.1479884,0.33534482,0.15110254,-0.15243526,-0.07860396,-0.034884453,1.6112003,-0.87309474,0.31867173,0.6026099,0.33592573,1.1622716,1.037338
0.1,0.0,1.1,0.0,0.0,0,0.65445197,-1.107539,0.66494226,-0.013620737,-0.85883945,-0.070859544,0.0317314,1.5535545,-0.800879,0.32544097,0.6423449,0.35513425,1.1612958,1.189658
0.1,0.0,1.1,0.0,0.0,0,0.836641,-1.116589,1.1913759,0.19523846,-0.117704384,-0.10097454,-0.18297194,1.4540713,-0.8986617,0.3743025,0.6291299,0.37408882,1.1498404,1.0985329
0.1,0.0,1.1,0.0,0.0,0,0.5746156,-1.0919644,0.86213744,-0.27440396,-0.315458,-0.09670754,-0.23755442,1.3883412,-0.8591142,0.33307365,0.64234585,0.5164153,1.1732672,0.7854758
0.1,0.0,1.1,0.0,0.0,0,0.65163106,-1.109203,0.68630207,-0.29306284,-0.2626751,-0.11532121,-0.35796934,1.446077,-0.8821755,0.40527502,0.63870597,0.38895625,1.1450692,1.2820743
0.1,0.0,1.1,0.0,0.0,0,0.700633,-1.11335,0.10477238,-0.2714345,-0.52025974,-0.04322738,0.09169384,1.5451955,-0.84007156,0.4784128,0.583223,0.19177873,1.2687551,1.242622
0.1,0.0,1.1,0.0,0.0,0,0.7287995,-1.1467942,0.73410934,-0.011611978,-0.33644432,-0.039468367,-0.026596444,1.4766212,-0.861844,0.337554,0.6283945,0.3994944,1.19026,1.136612
0.1,0.0,1.1,0.0,0.0,0,0.521489,-1.1050041,0.67633796,0.057438277,-0.44992507,-0.06935253,0.13346723,1.3680323,-0.8948947,0.43393424,0.6538548,0.4256833,1.161831,1.2013942
0.1,0.0,1.1,0.0,0.0,0,0.6245599,-1.0740211,0.86191815,0.13279611,-0.4186965,-0.110001,-0.119372115,1.4854612,-0.8987204,0.38102445,0.6405102,0.39311603,1.1650089,1.1657271
0.1,0.0,1.1,0.0,0.0,0,0.64964825,-1.0630139,0.6606288,0.085145384,-0.13718852,-0.115989186,0.0874965,1.3828071,-0.85072887,0.5162647,0.6206173,0.35374722,1.034019,1.1523738
0.1,0.0,1.1,0.0,0.0,0,0.6040369,-1.0408738,1.2620469,-0.08124189,-0.7311143,-0.03080903,0.23175175,1.5075727,-0.85662174,0.3951376,0.65701663,0.30008703,1.2202551,1.505274
0.1,0.0,1.1,0.0,0.0,0,0.7706897,-1.0885648,1.2244421,-0.029921122,-0.122550555,-0.057225123,-0.13776936,1.3776721,-0.86448497,0.36693707,0.6289591,0.47127834,1.1916903,1.0856862
0.1,0.0,1.1,0.0,0.0,0,0.56385046,-1.0742799,0.95860577,0.2109056,-0.00053061557,0.016474705,-0.11111928,1.5011164,-0.82679534,0.30508208,0.66283447,0.4251255,1.1460617,1.1573626
0.1,0.0,1.1,0.0,0.0,0,0.55077374,-1.0768359,0.91938794,0.07106359,0.12428192,0.029054891,0.062060643,1.6413187,-0.85421926,0.32321787,0.6570079,0.3166784,1.0378759,1.2890785
0.1,0.0,1.1,0.0,0.0,0,0.59957844,-1.0506867,1.190208,0.0016764576,-0.0851141,-0.076282516,-0.018878432,1.4079751,-0.87446076,0.4402855,0.6404235,0.38899234,1.1401806,1.2367545
0.1,0.0,1.1,0.0,0.0,0,0.6290801,-1.012576,1.3670608,0.03882859,-0.24286892,-0.078945845,-0.011066722,1.3568952,-0.87522435,0.42964023,0.6478494,0.42765677,1.2590518,1.200423
0.1,0.0,1.1,0.0,0.0,0,0.60664696,-1.113709,0.4926845,0.08993914,-0.061582025,-0.019286264,0.25330636,1.7453023,-0.88407356,0.35989895,0.6547433,0.12105676,1.0865124,1.113864
0.1,0.0,1.1,0.0,0.0,0,0.56897455,-1.0424942,0.944603,0.05204411,-0.36187413,-0.1258922,0.20527105,1.5628132,-0.8764623,0.35552728,0.6802895,0.3636508,1.1126903,1.30453
0.1,0.0,1.1,0.0,0.0,0,0.44344544,-1.0487317,1.139826,-0.08980909,-0.08103792,0.051310536,-0.07487346,1.453453,-0.84726244,0.4783704,0.65911424,0.34291133,1.0593635,1.1813211
0.1,0.0,1.1,0.0,0.0,0,0.6570388,-1.0645998,0.94517857,0.015460986,-0.45021185,-0.17288741,0.07181713,1.4795434,-0.89721113,0.4105048,0.631599,0.38294744,1.1367841,0.97910106
0.1,0.0,1.1,0.0,0.0,0,0.56864333,-1.0898186,0.36742136,-0.10202229,0.19552186,-0.050496593,0.14834628,1.4322357,-0.8812512,0.4133512,0.6202265,0.39133236,1.1748435,1.3095158
0.1,0.0,1.1,0.0,0.0,0,0.5979488,-1.08028,0.7089798,-0.09071891,-0.53240573,-0.090642706,-0.17791578,1.6174234,-0.86411345,0.32611993,0.66439354,0.33464086,1.1249857,1.126707
0.1,0.0,1.1,0.0,0.0,0,0.5035622,-1.0644271,0.81062496,0.079725526,-0.6906766,0.004186685,-0.046829216,1.5147599,-0.891848,0.389695,0.61185247,0.3731488,1.1324393,0.9897753
0.1,0.0,1.1,0.0,0.0,0,0.62913823,-0.8992053,1.4336859,-0.43979147,-0.5834236,-0.08326397,0.19051126,1.4384118,-0.8634482,0.5342027,0.64692813,0.40268213,1.1760814,1.2069795
0.1,0.0,1.1,0.0,0.0,0,0.41914052,-1.0655457,0.5724123,0.15678662,0.24345848,-0.099329285,0.0016332003,1.3206934,-0.86829334,0.50348645,0.6616696,0.43392676,1.2235848,1.1999571
0.1,0.0,1.1,0.0,0.0,0,0.5950574,-1.0022572,1.4320887,-0.09351058,-0.19224554,-0.075797506,0.36586007,1.4110289,-0.87600464,0.4031872,0.6140712,0.35975793,1.274625,0.7671537
0.1,0.0,1.1,0.0,0.0,0,0.7155775,-1.0766499,0.311354,-0.025489338,0.066140525,0.012302264,0.09756358,1.434885,-0.8988781,0.50778705,0.6126439,0.31954628,1.1276497,1.0714246
0.1,0.0,1.1,0.0,0.0,0,0.5561492,-1.0075375,1.148935,0.15631686,-0.60523885,-0.027302088,0.0752086,1.5841528,-0.8780684,0.40978938,0.6578026,0.3231316,1.0851284,0.9262426
0.1,0.0,1.1,0.0,0.0,0,0.74619395,-1.0405897,0.9747041,-0.14020668,-0.65085745,0.07472147,0.06510022,1.5495291,-0.79829544,0.35862643,0.6671573,0.3700381,1.1788738,1.3611335
0.1,0.0,1.1,0.0,0.0,0,0.4976943,-1.0558829,0.3640695,-0.15372601,-0.53919756,-0.12865028,-0.06839973,1.5870113,-0.8568781,0.35382193,0.66486275,0.32818896,1.1501881,1.4247398
0.1,0.0,1.1,0.0,0.0,0,0.7795497,-1.11259,0.55254275,0.07626573,-0.32204264,-0.027677936,0.40464887,1.5247439,-0.86013854,0.3635943,0.6421953,0.37178257,1.3192614,1.20256
0.1,0.0,1.1,0.0,0.0,0,0.6688121,-1.0736052,0.70346904,-0.095216274,-0.23567626,-0.030447436,0.07542058,1.5910567,-0.8433257,0.40481183,0.619494,0.28560182,1.096173,1.2223785
0.1,0.0,1.1,0.0,0.0,0,0.74109644,-1.0796334,0.85333455,-0.118413724,-0.2877101,-0.11932025,0.0022375453,1.5098143,-0.84602064,0.41690332,0.64430326,0.34517223,1.1953002,1.3593502
0.1,0.0,1.1,0.0,0.0,0,0.54107714,-1.0536652,0.43894437,0.081429,-0.31266615,-0.046999637,0.0914238,1.436697,-0.84670573,0.43538764,0.6782116,0.45340306,1.1385795,1.1311086
0.1,0.0,1.1,0.0,0.0,0,0.61127514,-1.0060124,1.1989272,-0.20596994,-0.16697295,0.10574815,-0.06414824,1.527903,-0.8582188,0.40673926,0.6095217,0.3456136,1.1900487,1.4051291
0.1,0.0,1.1,0.0,0.0,0,0.5404682,-0.9519225,1.4747931,-0.08034708,-0.55183834,-0.16493997,-0.36431244,1.3972938,-0.8287044,0.45030254,0.6520773,0.4239414,1.3120904,1.3577223
0.1,0.0,1.1,0.0,0.0,0,0.60184044,-1.0823376,0.17858982,-0.2245095,-0.04268046,-0.124554,-0.05888152,1.5244888,-0.7975745,0.35187805,0.647281,0.37676275,1.2560349,1.2205219
0.1,0.0,1.1,0.0,0.0,0,0.60352516,-1.0125442,0.90994406,0.02753003,-0.30436152,-0.13258108,-0.021483462,1.4443465,-0.8524526,0.39139506,0.6637927,0.4262721,1.3031466,1.1199588
0.1,0.0,1.1,0.0,0.0,0,0.60443085,-1.0228105,1.0437385,-0.047726937,-0.10802999,0.08123397,0.043161593,1.5885532,-0.85523146,0.4114062,0.63687336,0.27938586,1.1395684,1.2604213
0.1,0.0,1.1,0.0,0.0,0,0.55320144,-1.0105621,0.90838194,-0.07705248,-0.6315189,-0.11208444,-0.037941374,1.5743952,-0.8511724,0.39156103,0.6618721,0.3518355,1.2078743,1.2456212
0.1,0.0,1.1,0.0,0.0,0,0.31695572,-1.063155,0.4723817,0.03656102,-0.5368699,-0.1441513,-0.15825994,1.5685643,-0.8243045,0.37897933,0.62699395,0.34025273,1.2000601,1.0096326
0.1,0.0,1.1,0.0,0.0,0,0.6851727,-1.04127,0.95069766,0.052213,-0.4890918,-0.030253585,-0.25464267,1.4196216,-0.86922777,0.40702787,0.6803373,0.45669588,1.1948311,1.3702497
0.1,0.0,1.1,0.0,0.0,0,0.6217387,-0.9860871,1.2090371,0.17319801,0.07955882,-0.084913455,0.03694347,1.6122645,-0.8806384,0.45069602,0.702842,0.25911054,1.0606313,1.4520036
0.1,0.0,1.1,0.0,0.0,0,0.5884074,-1.0670235,0.031289823,0.060784273,-0.7001315,-0.026355514,-0.08023004,1.5396487,-0.8648512,0.44944602,0.6649428,0.35483623,1.094391,1.3777429
0.1,0.0,1.1,0.0,0.0,0,0.6001536,-0.97363526,1.2084339,0.0768396,0.052918863,-0.07879676,0.22082698,1.4136038,-0.86295134,0.55733913,0.6188127,0.3451336,1.1555936,1.2383718
0.1,0.0,1.1,0.0,0.0,0,0.44575632,-0.93346745,1.125614,-0.0022831864,-0.6515082,-0.10486404,-0.039836895,1.4538549,-0.86673236,0.527583,0.5881936,0.42348334,1.153602,1.3459113
0.1,0.0,1.1,0.0,0.0,0,0.6947645,-1.0605533,0.2782374,0.1099816,-0.11142841,-0.033964496,-0.27606162,1.6141045,-0.9193779,0.39218983,0.6660667,0.33456752,1.1794741,1.2905992
0.1,0.0,1.1,0.0,0.0,0,0.6711868,-1.0340813,0.41247043,0.032309774,-0.19718055,-0.048651747,0.59580225,1.5150019,-0.852129,0.39618954,0.66574305,0.4611041,1.0403116,0.9113066
0.1,0.0,1.1,0.0,0.0,0,0.45426697,-1.0249095,0.25946727,-0.11438312,-0.58735424,-0.11443799,0.0888213,1.4241755,-0.8824181,0.48419324,0.6568054,0.44453144,1.1722639,1.2957339
0.1,0.0,1.1,0.0,0.0,0,0.510092,-0.89920884,1.316359,-0.019819392,-0.7315047,-0.0627238,0.23169091,1.487415,-0.8379043,0.4758492,0.6418496,0.446415,1.0988183,1.1112411
0.1,0.0,1.1,0.0,0.0,0,0.5956787,-0.9430351,1.1356196,-0.013296438,-0.49202752,-0.096034735,-0.07318225,1.3592069,-0.86748177,0.5864355,0.62689376,0.41429707,1.2258627,1.2435956
0.1,0.0,1.1,0.0,0.0,0,0.49070936,-0.9464547,1.0991561,-0.07429368,-0.7010751,-0.013613852,0.113684386,1.5476279,-0.81667566,0.532181,0.63396156,0.28087428,1.1448306,1.1986539
0.1,0.0,1.1,0.0,0.0,0,0.5365939,-0.9598648,0.7075646,0.24551198,-0.49453226,-0.07092171,-0.31890333,1.6716783,-0.8432325,0.33694908,0.70151466,0.35860443,1.1994262,1.247479
0.1,0.0,1.1,0.0,0.0,0,0.6110676,-0.9591795,0.86723197,0.10588649,-0.19216901,0.07506161,0.08252591,1.4325447,-0.848586,0.47253373,0.6272876,0.45948842,1.1615373,1.076062
0.1,0.0,1.1,0.0,0.0,0,0.69109976,-1.1021602,-0.35252497,-0.2439145,0.2849447,-0.1636689,0.17487662,1.485431,-0.82607764,0.49195763,0.5909911,0.37090102,1.118208,1.0306294
0.1,0.0,1.1,0.0,0.0,0,0.7899163,-0.9473098,1.3648549,0.095844075,-0.6477837,-0.07774911,0.15348926,1.3968468,-0.85058206,0.44779772,0.6325581,0.47787368,1.2935538,1.323228
0.1,0.0,1.1,0.0,0.0,0,0.50802743,-1.26922,1.664325,0.021608315,-0.4653663,0.03356685,-0.005319944,1.1831356,-0.8646357,0.3556686,0.6205483,0.36025223,1.0881163,1.2410661
0.1,0.0,1.1,0.0,0.0,0,0.49233294,-1.1782912,1.5359155,-0.34465843,-0.07210114,-0.020657212,0.13723914,1.3650451,-0.9275214,0.44850045,0.6503698,0.22118156,1.1155695,1.1943841
0.1,0.0,1.1,0.0,0.0,0,0.54780084,-1.0761067,1.9766768,-0.09467884,-0.21148193,-0.06896455,-0.13472417,1.1478935,-0.83449525,0.52020544,0.634498,0.35479882,1.1307882,1.1660125
0.1,0.0,1.1,0.0,0.0,0,0.8035132,-1.1946553,1.3354907,-0.043443445,-0.3732692,0.06813353,-0.21795629,1.3890802,-0.8973577,0.3390376,0.6183272,0.3415227,1.2125171,0.8448545
0.1,0.0,1.1,0.0,0.0,0,0.68270934,-1.2688675,0.779048,-0.12859221,-0.50735545,-0.020053994,-0.11449555,1.5534172,-0.8754012,0.26543146,0.6517576,0.25368717,1.0309727,1.0521408
0.1,0.0,1.1,0.0,0.0,0,0.60323894,-1.1564529,1.0864407,-0.17056534,-0.38401154,-0.096681766,-0.607352,1.3364803,-0.89587295,0.42830867,0.6468779,0.3205753,1.1662444,1.3374577
0.1,0.0,1.1,0.0,0.0,0,0.537412,-1.0844866,0.9047002,-0.00353318,0.18765447,-0.115865394,-0.16793093,1.2866448,-0.88798684,0.49176344,0.6659108,0.41078264,1.2317725,1.0989147
0.1,0.0,1.1,0.0,0.0,0,0.6076556,-1.1446743,1.8607867,0.15266675,-0.4482712,0.0045341947,0.06904373,1.3364772,-0.83697885,0.25303194,0.6638543,0.26186153,1.1276058,0.9376627
0.1,0.0,1.1,0.0,0.0,0,0.6622665,-1.2739836,0.78973705,-0.20027204,-0.21761596,-0.042060535,-0.17726041,1.198541,-0.85211,0.3405341,0.6187966,0.43370935,1.2130247,0.98124444
0.1,0.0,1.1,0.0,0.0,0,0.84066814,-1.1320883,1.6403992,-0.16454467,-0.47239575,0.06518601,0.15300773,1.540186,-0.8579156,0.35125026,0.6157028,0.26163068,1.1555061,1.0626252
0.1,0.0,1.1,0.0,0.0,0,0.5651864,-1.0332259,1.9002111,-0.18226603,-0.14537577,-0.02615081,-0.012690243,1.2780567,-0.8725893,0.45279935,0.5935309,0.35726282,1.264009,1.0628443
0.1,0.0,1.1,0.0,0.0,0,0.7661053,-1.0588031,1.6732452,-0.055280797,-0.54621315,-0.052200735,0.0441204,1.2911663,-0.83902913,0.5202969,0.675403,0.27217343,1.1312534,1.2678726
0.1,0.0,1.1,0.0,0.0,0,0.658141,-1.1621597,1.0707256,-0.16949609,0.12865461,0.07672438,0.39427823,1.4384704,-0.83535737,0.40349764,0.64906645,0.22262706,1.1220216,1.0365937
0.1,0.0,1.1,0.0,0.0,0,0.7100761,-1.1712649,0.29198012,0.14152345,-0.7966552,-0.06214127,0.34325612,1.6910908,-0.88088876,0.43381777,0.6390631,0.26700407,1.149821,1.0690944
0.1,0.0,1.1,0.0,0.0,0,0.7100761,-1.1712649,0.29198012,0.14152345,-0.7966552,-0.06214127,0.34325612,1.6910908,-0.88088876,0.43381777,0.6390631,0.26700407,1.149821,1.0690944
0.1,0.0,1.1,0.0,0.0,0,0.7100761,-1.1712649,0.29198012,0.14152345,-0.7966552,-0.06214127,0.34325612,1.6910908,-0.88088876,0.43381777,0.6390631,0.26700407,1.149821,1.0690944
0.1,0.0,1.1,0.0,0.0,0,0.7100761,-1.1712649,0.29198012,0.14152345,-0.7966552,-0.06214127,0.34325612,1.6910908,-0.88088876,0.43381777,0.6390631,0.26700407,1.149821,1.0690944
0.1,0.0,1.1,0.0,0.0,0,0.7100761,-1.1712649,0.29198012,0.14152345,-0.7966552,-0.06214127,0.34325612,1.6910908,-0.88088876,0.43381777,0.6390631,0.26700407,1.149821,1.0690944
0.1,0.0,1.1,0.0,0.0,0,0.7100761,-1.1712649,0.29198012,0.14152345,-0.7966552,-0.06214127,0.34325612,1.6910908,-0.88088876,0.43381777,0.6390631,0.26700407,1.149821,1.0690944
0.1,0.0,1.1,0.0,0.0,0,0.7100761,-1.1712649,0.29198012,0.14152345,-0.7966552,-0.06214127,0.34325612,1.6910908,-0.88088876,0.43381777,0.6390631,0.26700407,1.149821,1.0690944
0.1,0.0,1.1,0.0,0.0,0,0.7100761,-1.1712649,0.29198012,0.14152345,-0.7966552,-0.06214127,0.34325612,1.6910908,-0.88088876,0.43381777,0.6390631,0.26700407,1.149821,1.0690944
0.1,0.0,1.1,0.0,0.0,0,0.7100761,-1.1712649,0.29198012,0.14152345,-0.7966552,-0.06214127,0.34325612,1.6910908,-0.88088876,0.43381777,0.6390631,0.26700407,1.149821,1.0690944
0.1,0.0,1.1,0.0,0.0,0,0.8487634,-1.190448,0.48556244,-0.17829663,-0.28506902,0.035682473,0.039089907,1.6214827,-0.8356745,0.5406722,0.6805967,0.023931693,0.9599826,1.0795101
0.1,0.0,1.1,0.0,0.0,0,0.8487634,-1.190448,0.48556244,-0.17829663,-0.28506902,0.035682473,0.039089907,1.6214827,-0.8356745,0.5406722,0.6805967,0.023931693,0.9599826,1.0795101
0.1,0.0,1.1,0.0,0.0,0,0.8487634,-1.190448,0.48556244,-0.17829663,-0.28506902,0.035682473,0.039089907,1.6214827,-0.8356745,0.5406722,0.6805967,0.023931693,0.9599826,1.0795101
0.1,0.0,1.1,0.0,0.0,0,0.8487634,-1.190448,0.48556244,-0.17829663,-0.28506902,0.035682473,0.039089907,1.6214827,-0.8356745,0.5406722,0.6805967,0.023931693,0.9599826,1.0795101
0.1,0.0,1.1,0.0,0.0,0,0.8487634,-1.190448,0.48556244,-0.17829663,-0.28506902,0.035682473,0.039089907,1.6214827,-0.8356745,0.5406722,0.6805967,0.023931693,0.9599826,1.0795101
0.1,0.0,1.1,0.0,0.0,0,0.8487634,-1.190448,0.48556244,-0.17829663,-0.28506902,0.035682473,0.039089907,1.6214827,-0.8356745,0.5406722,0.6805967,0.023931693,0.9599826,1.0795101
0.1,0.0,1.1,0.0,0.0,0,0.8487634,-1.190448,0.48556244,-0.17829663,-0.28506902,0.035682473,0.039089907,1.6214827,-0.8356745,0.5406722,0.6805967,0.023931693,0.9599826,1.0795101
0.1,0.0,1.1,0.0,0.0,0,0.8487634,-1.190448,0.48556244,-0.17829663,-0.28506902,0.035682473,0.039089907,1.6214827,-0.8356745,0.5406722,0.6805967,0.023931693,0.9599826,1.0795101
0.1,0.0,1.1,0.0,0.0,0,0.8487634,-1.190448,0.48556244,-0.17829663,-0.28506902,0.035682473,0.039089907,1.6214827,-0.8356745,0.5406722,0.6805967,0.023931693,0.9599826,1.0795101
0.1,0.0,1.1,0.0,0.0,0,0.7218988,-1.2524028,0.13861714,-0.15606318,-0.2540257,-0.042674426,-0.14034687,1.5132412,-0.88843036,0.5678955,0.5760176,0.21189438,1.015151,1.5512381
0.1,0.0,1.1,0.0,0.0,0,0.7218988,-1.2524028,0.13861714,-0.15606318,-0.2540257,-0.042674426,-0.14034687,1.5132412,-0.88843036,0.5678955,0.5760176,0.21189438,1.015151,1.5512381
0.1,0.0,1.1,0.0,0.0,0,0.7218988,-1.2524028,0.13861714,-0.15606318,-0.2540257,-0.042674426,-0.14034687,1.5132412,-0.88843036,0.5678955,0.5760176,0.21189438,1.015151,1.5512381
0.1,0.0,1.1,0.0,0.0,0,0.7218988,-1.2524028,0.13861714,-0.15606318,-0.2540257,-0.042674426,-0.14034687,1.5132412,-0.88843036,0.5678955,0.5760176,0.21189438,1.015151,1.5512381
0.1,0.0,1.1,0.0,0.0,0,0.7218988,-1.2524028,0.13861714,-0.15606318,-0.2540257,-0.042674426,-0.14034687,1.5132412,-0.88843036,0.5678955,0.5760176,0.21189438,1.015151,1.5512381
0.1,0.0,1.1,0.0,0.0,0,0.7218988,-1.2524028,0.13861714,-0.15606318,-0.2540257,-0.042674426,-0.14034687,1.5132412,-0.88843036,0.5678955,0.5760176,0.21189438,1.015151,1.5512381
0.1,0.0,1.1,0.0,0.0,0,0.7218988,-1.2524028,0.13861714,-0.15606318,-0.2540257,-0.042674426,-0.14034687,1.5132412,-0.88843036,0.5678955,0.5760176,0.21189438,1.015151,1.5512381
0.1,0.0,1.1,0.0,0.0,0,0.7218988,-1.2524028,0.13861714,-0.15606318,-0.2540257,-0.042674426,-0.14034687,1.5132412,-0.88843036,0.5678955,0.5760176,0.21189438,1.015151,1.5512381
0.1,0.0,1.1,0.0,0.0,0,0.6123544,-1.1259228,1.1110992,-0.13413809,-2.8639466e-05,-0.12949938,-0.0918585,1.4110504,-0.8692819,0.47589484,0.6753071,0.19674046,1.1400281,1.0844294
0.1,0.0,1.1,0.0,0.0,0,0.6123544,-1.1259228,1.1110992,-0.13413809,-2.8639466e-05,-0.12949938,-0.0918585,1.4110504,-0.8692819,0.47589484,0.6753071,0.19674046,1.1400281,1.0844294
0.1,0.0,1.1,0.0,0.0,0,0.6123544,-1.1259228,1.1110992,-0.13413809,-2.8639466e-05,-0.12949938,-0.0918585,1.4110504,-0.8692819,0.47589484,0.6753071,0.19674046,1.1400281,1.0844294
0.1,0.0,1.1,0.0,0.0,0,0.6123544,-1.1259228,1.1110992,-0.13413809,-2.8639466e-05,-0.12949938,-0.0918585,1.4110504,-0.8692819,0.47589484,0.6753071,0.19674046,1.1400281,1.0844294
0.1,0.0,1.1,0.0,0.0,0,0.6123544,-1.1259228,1.1110992,-0.13413809,-2.8639466e-05,-0.12949938,-0.0918585,1.4110504,-0.8692819,0.47589484,0.6753071,0.19674046,1.1400281,1.0844294
0.1,0.0,1.1,0.0,0.0,0,0.6123544,-1.1259228,1.1110992,-0.13413809,-2.8639466e-05,-0.12949938,-0.0918585,1.4110504,-0.8692819,0.47589484,0.6753071,0.19674046,1.1400281,1.0844294
