sanky1234/BimanualDexCatch/isaacgymenvs/cem_results/May31/football_pose_0.0_0.0_0.8_0.0_0.0_0_2025-05-31.csv
x,y,z,roll,pitch,yaw,robot1/joint1,robot1/joint2,robot1/joint3,robot1/joint4,robot1/joint5,robot1/joint6,robot1/joint7,robot2/joint1,robot2/joint2,robot2/joint3,robot2/joint4,robot2/joint5,robot2/joint6,robot2/joint7
0.0,0.0,0.8,0.0,0.0,0,0.13937086,-0.76924044,2.9072347,0.26425835,0.14552644,1.4799339,-0.018013975,0.7772438,0.77617824,1.6236875,0.88817996,0.30573323,1.5706841,0.23990306
0.0,0.0,0.8,0.0,0.0,0,0.11264254,-0.8042257,2.9560797,0.29505593,0.13982882,1.5035585,-0.5383707,0.8107632,0.7644807,1.524006,0.83633244,0.24919286,1.569754,0.9859168
0.0,0.0,0.8,0.0,0.0,0,0.14412424,-0.69627655,2.9643571,0.26541317,0.20762691,1.5058625,-0.6841259,0.83328986,0.37246132,1.5632888,0.92774016,0.2666207,1.5690656,0.027110258
0.0,0.0,0.8,0.0,0.0,0,0.12281407,-0.7336192,2.9327476,0.25937125,0.21754615,1.509436,-0.17795214,0.84512347,0.57187605,1.5891562,0.78258854,0.2870516,1.570716,-0.11864762
0.0,0.0,0.8,0.0,0.0,0,0.09085061,-0.5994448,2.9349794,0.26732853,0.21623169,1.5004176,-0.55401075,0.87951535,0.6244699,1.5592357,0.8467297,0.19295825,1.5710346,1.208791
0.0,0.0,0.8,0.0,0.0,0,0.12645775,-0.7959768,2.9366012,0.26695347,0.18618384,1.4822326,-0.57068425,0.92379427,0.90304965,1.5593655,0.7026212,0.32751557,1.5708796,1.0604293
0.0,0.0,0.8,0.0,0.0,0,0.12291884,-0.76708597,2.9337907,0.26604995,0.21784794,1.5025847,-0.08691867,0.83392173,0.73955816,1.5280658,0.7680003,0.3211784,1.5692434,0.20846169
0.0,0.0,0.8,0.0,0.0,0,0.13458025,-0.66144174,2.995394,0.14857574,0.17949231,1.497236,0.28135896,0.9359201,0.5579689,1.6027864,0.8719471,0.21454023,1.5706208,0.91743106
0.0,0.0,0.8,0.0,0.0,0,0.13994898,-0.67759806,2.9141467,0.27507505,0.15401407,1.5099869,-0.74504703,0.79978913,0.5779767,1.5292718,0.68120635,0.1710298,1.569681,0.0682068
0.0,0.0,0.8,0.0,0.0,0,0.14376158,-0.7798651,2.972471,0.22666276,0.1523743,1.4852118,-0.27122116,0.8121816,0.7560589,1.560095,0.6201295,0.31565526,1.5695674,1.2150605
0.0,0.0,0.8,0.0,0.0,0,0.14760303,-0.7445822,2.9809172,0.17583877,0.24019904,1.4985127,0.26122957,0.7911132,0.57497627,1.5959685,0.9043618,0.320066,1.5693725,-0.1321244
0.0,0.0,0.8,0.0,0.0,0,0.14938654,-0.74169946,2.9560797,0.2871093,0.17787741,1.4937136,-0.2725754,0.78398883,0.5316823,1.5562459,0.78349835,0.46778324,1.5698421,1.0842195
0.0,0.0,0.8,0.0,0.0,0,0.15093693,-0.7371992,2.9715643,0.24411896,0.1888599,1.4819375,-0.87825716,0.7781761,0.73548365,1.4926249,0.85755265,0.28551722,1.5703152,-0.2193857
0.0,0.0,0.8,0.0,0.0,0,0.16454597,-0.68477005,2.9457207,0.23100215,0.10731254,1.4811839,-0.25766107,0.7586846,0.76609635,1.4754329,0.7593131,0.36860353,1.57011,0.25842938
0.0,0.0,0.8,0.0,0.0,0,0.11297658,-0.8144251,2.963677,0.21206328,0.15824334,1.5129126,-0.15272005,0.8301128,0.5538848,1.6255447,0.6404631,0.34679276,1.569108,1.1423007
0.0,0.0,0.8,0.0,0.0,0,0.15664932,-0.74426365,2.9596364,0.2494645,0.16095337,1.5032827,-0.47885633,0.8336662,0.52245986,1.6524098,0.72775006,0.28722802,1.5692639,0.3528263
0.0,0.0,0.8,0.0,0.0,0,0.13080426,-0.76728153,2.9746823,0.23261194,0.16019657,1.4951648,-0.26938292,0.8614536,0.7663787,1.6321231,0.794482,0.15952519,1.5699738,1.0027505
0.0,0.0,0.8,0.0,0.0,0,0.11897341,-0.7169501,3.025724,0.27595088,0.19153069,1.4843854,-0.013251868,0.8576161,0.79314303,1.5195425,0.620453,0.25224376,1.569739,1.2596995
0.0,0.0,0.8,0.0,0.0,0,0.12945709,-0.7330878,2.947271,0.2857832,0.13464805,1.5060846,0.02303991,0.8236159,0.6214679,1.6065917,0.7033536,0.41643387,1.5703154,0.8800295
0.0,0.0,0.8,0.0,0.0,0,0.13621813,-0.76182574,2.9475195,0.24740566,0.2565306,1.4888556,-0.48718068,0.74111205,1.0416231,1.6736676,0.8049263,0.17327206,1.5711179,1.511042
0.0,0.0,0.8,0.0,0.0,0,0.12488802,-0.63970566,2.9983318,0.2762796,0.17241761,1.5083401,-0.3246943,0.8127332,0.66174155,1.7089555,0.79672873,0.13367708,1.5705884,1.0979438
0.0,0.0,0.8,0.0,0.0,0,0.12424282,-0.8030869,2.9859436,0.2807164,0.22876656,1.5091605,-0.5446715,0.7578051,0.48991174,1.5697283,0.7388853,0.3431065,1.5705028,0.6450711
0.0,0.0,0.8,0.0,0.0,0,0.10149414,-0.7397676,2.9630678,0.25127393,0.17132407,1.4871064,-0.15202565,0.8683746,0.6706682,1.5361377,0.656591,0.2498287,1.5692198,0.8961952
0.0,0.0,0.8,0.0,0.0,0,0.15247408,-0.7816518,2.9594843,0.23626456,0.15470092,1.5011334,-0.60840136,0.7770068,0.6617875,1.486943,0.6900141,0.40336266,1.570619,1.0351467
0.0,0.0,0.8,0.0,0.0,0,0.12442816,-0.7370528,3.017361,0.24295232,0.20165436,1.4857796,-0.26276773,0.7638051,0.7881971,1.5716647,0.7139649,0.30150437,1.5703125,1.3399445
0.0,0.0,0.8,0.0,0.0,0,0.1640579,-0.7419324,3.0067635,0.28251973,0.1437536,1.4986447,-0.364409,0.89419436,0.49568215,1.607879,0.71558756,0.29715005,1.5703429,0.817604
0.0,0.0,0.8,0.0,0.0,0,0.15302883,-0.7620092,2.9587026,0.2521171,0.14275992,1.4976848,0.048026156,0.82267684,0.71214604,1.4645723,0.6990257,0.18948743,1.5705286,0.40911418
0.0,0.0,0.8,0.0,0.0,0,0.12828517,-0.6501218,2.9832973,0.25120088,0.12489753,1.5059017,-0.162386,0.8524833,0.443471,1.5521119,0.7863656,0.14075564,1.5706413,0.6398433
0.0,0.0,0.8,0.0,0.0,0,0.13955237,-0.77301824,2.974978,0.22560644,0.15945911,1.484451,-0.30762628,0.86204845,0.6168703,1.6743535,0.6743698,0.20085093,1.5705385,1.1481123
0.0,0.0,0.8,0.0,0.0,0,0.13228676,-0.7173742,2.9527175,0.2586505,0.19441554,1.5048221,-0.057462428,0.8320493,0.7519217,1.525043,0.80382955,0.20179573,1.5708597,1.0909204
0.0,0.0,0.8,0.0,0.0,0,0.141412,-0.74207634,2.9463253,0.21604316,0.13996942,1.5141957,0.09181541,0.8100813,0.64794874,1.5537127,0.6755543,0.23403543,1.570929,0.74878466
0.0,0.0,0.8,0.0,0.0,0,0.12876396,-0.6497778,2.9476058,0.22284898,0.17500831,1.4993485,-0.2294845,0.8772496,0.84364945,1.6430916,0.625811,0.3442079,1.5705706,0.95212424
0.0,0.0,0.8,0.0,0.0,0,0.123119496,-0.73117244,2.9425306,0.29235056,0.15720224,1.5111712,0.2751782,0.77876085,0.43566737,1.6301901,0.8020969,0.09331786,1.5691768,1.4101623
0.0,0.0,0.8,0.0,0.0,0,0.14546305,-0.82534474,2.9893978,0.25449246,0.17719717,1.4726977,-0.4698042,0.8304604,0.69681805,1.4442376,0.8266499,0.4336327,1.5703118,0.94796443
0.0,0.0,0.8,0.0,0.0,0,0.15078619,-0.74666756,2.9438412,0.2288471,0.15106037,1.522071,-0.12988552,0.87283957,0.6527632,1.5804929,0.86499983,0.17661405,1.5702951,0.44248736
0.0,0.0,0.8,0.0,0.0,0,0.1428554,-0.76500404,2.9336505,0.2782001,0.19012427,1.4861515,0.046635594,0.92765886,0.621293,1.5690181,0.90371734,0.11780437,1.57043,1.3782474
0.0,0.0,0.8,0.0,0.0,0,0.12277847,-0.7618959,2.962356,0.15553983,0.14403315,1.4891183,-0.04349131,0.8393644,0.55677664,1.648101,0.8015221,-0.013627562,1.5703102,0.8995434
0.0,0.0,0.8,0.0,0.0,0,0.13732322,-0.83778745,2.9587786,0.2186841,0.21964064,1.498716,0.15960012,0.82373,0.653723,1.3166387,0.86033136,-0.01576893,1.5696633,1.2196795
0.0,0.0,0.8,0.0,0.0,0,0.15664701,-0.7630733,2.9538941,0.273204,0.15297239,1.4879844,-0.2041367,0.89233863,0.15852706,1.5403506,0.85204357,0.19831437,1.5690943,1.4840788
0.0,0.0,0.8,0.0,0.0,0,0.14391549,-0.728756,2.9452276,0.2966426,0.10586666,1.4877238,0.23803367,0.8914016,0.5462623,1.5932403,0.83415323,0.1986269,1.5689666,1.5374377
0.0,0.0,0.8,0.0,0.0,0,0.15315329,-0.6675229,2.983949,0.2737503,0.18705231,1.4998767,-0.32353756,0.7037299,0.6211992,1.6159487,0.75290483,0.2127411,1.5700159,0.3363954
0.0,0.0,0.8,0.0,0.0,0,0.13560423,-0.6282724,2.9346128,0.23426144,0.19376127,1.4990474,0.015531978,0.84105533,0.78282315,1.6195314,0.76288146,0.29785758,1.5707082,1.8718421
0.0,0.0,0.8,0.0,0.0,0,0.12192893,-0.7540361,2.9571137,0.2926828,0.18381493,1.4976324,-0.78165615,0.827512,0.53770334,1.5181605,0.92028433,0.31195948,1.5707294,0.124618724
0.0,0.0,0.8,0.0,0.0,0,0.148056,-0.6284957,2.944474,0.22334816,0.14171244,1.5123711,-0.3403478,0.8751815,0.63185716,1.4954032,0.8362892,0.1696487,1.5707315,1.109325
0.0,0.0,0.8,0.0,0.0,0,0.1475744,-0.7204025,2.979365,0.28735903,0.17639826,1.5004318,-0.517758,0.784541,0.38948473,1.5451496,0.88057995,0.04250102,1.5696315,1.9079958
0.0,0.0,0.8,0.0,0.0,0,0.15361345,-0.7949676,2.9656687,0.30546388,0.20255145,1.5070477,-0.69917935,0.87659854,0.63043785,1.541232,0.84030396,0.1641479,1.5697945,0.6613314
0.0,0.0,0.8,0.0,0.0,0,0.16846956,-0.8404886,2.9465759,0.28179944,0.15619905,1.4912258,0.2839199,0.7296203,0.47585338,1.550582,0.70489633,0.23363397,1.5707244,-0.5903031
0.0,0.0,0.8,0.0,0.0,0,0.10804717,-0.7237388,2.9212341,0.28637332,0.21914454,1.4999619,-0.088833876,0.8373578,0.50181985,1.6416563,0.85789454,0.44657475,1.5707366,-1.0207134
0.0,0.0,0.8,0.0,0.0,0,0.1586962,-0.69992375,2.9912405,0.2883955,0.21097152,1.4903574,-0.41611695,0.73120254,0.49412185,1.6010158,0.78370786,0.38861796,1.569451,0.885928
0.0,0.0,0.8,0.0,0.0,0,0.12865175,-0.76565635,2.8995087,0.20897713,0.1904567,1.4811296,0.06829131,0.8906036,0.43671456,1.7243706,0.77470046,0.4163428,1.5697885,0.6958678
0.0,0.0,0.8,0.0,0.0,0,0.11132305,-0.71628135,2.9823427,0.26858026,0.09594061,1.4989669,-0.6072207,0.8347832,0.6197135,1.4745694,0.75700617,0.5201458,1.5693709,1.4455124
0.0,0.0,0.8,0.0,0.0,0,0.14195098,-0.7581044,2.9625192,0.2370218,0.17712377,1.511977,-0.057892818,0.7652852,0.68016446,1.5482814,0.8331015,0.19739906,1.5702511,1.0521007
0.0,0.0,0.8,0.0,0.0,0,0.13862196,-0.64447767,2.9588487,0.22106948,0.2239594,1.5115509,0.23257504,0.9336485,0.5367901,1.581899,0.82091814,0.23985152,1.5695704,1.6277076
0.0,0.0,0.8,0.0,0.0,0,0.14349076,-0.7667669,2.9498074,0.23075967,0.1447157,1.5328486,-0.019385066,0.8031126,0.6562437,1.4594023,0.7392596,0.45200905,1.56942,1.138603
0.0,0.0,0.8,0.0,0.0,0,0.13312624,-0.79892975,2.9505396,0.26553592,0.114554815,1.4988431,-0.17261402,0.83465475,0.9402951,1.798635,0.6861024,0.09449844,1.5693678,1.1135935
0.0,0.0,0.8,0.0,0.0,0,0.16746043,-0.7616656,2.9814732,0.272985,0.21041414,1.4869859,-0.47978282,0.7401665,0.7279499,1.5227935,0.76635015,0.35213146,1.5694002,1.0542858
0.0,0.0,0.8,0.0,0.0,0,0.14951876,-0.7618092,2.9258306,0.25830442,0.20057648,1.4768277,-0.23476796,0.8078984,0.66854227,1.612574,0.5769529,0.40456352,1.5711983,1.9135028
0.0,0.0,0.8,0.0,0.0,0,0.12562475,-0.83268905,2.9461305,0.2860175,0.18667713,1.4849912,-0.0050138636,0.7930129,0.64724886,1.6455184,0.68721724,0.30973184,1.5697852,-0.15012057
0.0,0.0,0.8,0.0,0.0,0,0.12130793,-0.6945813,2.9631908,0.28835958,0.21497898,1.4737623,-0.27510396,0.74793845,0.38328302,1.4558188,0.63827634,0.23022974,1.5714971,-0.2491705
0.0,0.0,0.8,0.0,0.0,0,0.1449286,-0.7158367,2.950519,0.16687803,0.24290513,1.4953824,0.15484603,0.835106,0.69279397,1.7775557,0.7713202,0.40246373,1.5694387,0.70141345
0.0,0.0,0.8,0.0,0.0,0,0.11100648,-0.7000589,2.9821997,0.2423928,0.14049026,1.484411,-0.57543504,0.91714424,0.85484105,1.5777415,0.74077433,0.20729926,1.5703943,0.99606186
0.0,0.0,0.8,0.0,0.0,0,0.14455223,-0.7491048,3.0123312,0.22689813,0.13921526,1.512501,-0.19542529,0.8437804,0.48642486,1.5184573,0.773088,0.3535461,1.5705409,0.27553764
0.0,0.0,0.8,0.0,0.0,0,0.15622726,-0.73415244,2.9595509,0.26767594,0.16546279,1.4969786,-0.23172282,0.8687617,0.5661181,1.6383642,0.6399017,0.30914867,1.569389,1.2037052
0.0,0.0,0.8,0.0,0.0,0,0.1330952,-0.6101529,3.0050793,0.21984504,0.124123305,1.4913676,-0.09618114,0.82676977,0.6183892,1.4465156,0.73188126,0.060927298,1.5694039,0.19004948
0.0,0.0,0.8,0.0,0.0,0,0.15205653,-0.8093656,2.9390404,0.25368118,0.16809267,1.4939785,-0.1645496,0.87598217,0.6227138,1.5603267,0.7830671,0.27600795,1.5699549,0.01819461
0.0,0.0,0.8,0.0,0.0,0,0.16563663,-0.67111796,2.9075232,0.2781759,0.17765132,1.5056506,-0.25958124,0.88372993,0.5014659,1.7270446,0.8881773,0.0767583,1.5694807,1.2623631
0.0,0.0,0.8,0.0,0.0,0,0.13546053,-0.7669707,2.9855032,0.27976456,0.19997989,1.5025172,-0.22191486,0.7842849,0.61284566,1.6003853,0.7406903,0.3857394,1.5709008,0.64115363
0.0,0.0,0.8,0.0,0.0,0,0.14763576,-0.78328663,2.9467242,0.075668424,0.22407344,1.4850599,-0.40025452,0.8528502,0.6895335,1.4907181,0.8360517,0.30711868,1.569685,0.5115166
0.0,0.0,0.8,0.0,0.0,0,0.12591107,-0.70089644,2.9695666,0.28300062,0.19297321,1.4935901,-0.12041131,0.71217406,0.59597784,1.5964853,0.772862,0.34674838,1.5694338,0.8098047
0.0,0.0,0.8,0.0,0.0,0,0.12931389,-0.8083079,2.9544647,0.26124173,0.16014448,1.4945587,-0.888868,0.8522168,0.84209275,1.510586,0.7514423,0.280318,1.5705928,1.0492108
0.0,0.0,0.8,0.0,0.0,0,0.10846696,-0.7686094,2.9585938,0.25194716,0.14707072,1.5144814,-0.17829403,0.8904305,0.6988062,1.6520134,0.8665539,0.16505171,1.5706362,0.72636485
0.0,0.0,0.8,0.0,0.0,0,0.12351095,-0.77799904,2.9305086,0.15287134,0.14044154,1.5141779,0.7169594,0.7713082,0.6328634,1.461336,0.8353671,0.28185666,1.5697302,0.79858375
0.0,0.0,0.8,0.0,0.0,0,0.15847334,-0.76595587,2.942035,0.24670713,0.18443985,1.4959865,-0.32576233,0.7597744,0.49147794,1.5283942,0.84002644,0.011199248,1.5704081,1.55726
0.0,0.0,0.8,0.0,0.0,0,0.13259588,-0.63948643,2.9668028,0.2611769,0.20424531,1.5013471,-0.38151574,0.81922567,0.6013861,1.5514983,0.7690471,0.36271304,1.5707392,1.3705802
0.0,0.0,0.8,0.0,0.0,0,0.12620726,-0.7403421,2.9606295,0.23642036,0.16749533,1.4855129,-0.5882584,0.80120623,0.5689004,1.5109196,0.8051847,0.35098347,1.5705698,0.46896002
0.0,0.0,0.8,0.0,0.0,0,0.13009901,-0.78464353,2.910245,0.2587656,0.124001205,1.505794,-0.44003406,0.8695858,0.7539055,1.6589743,0.8146464,0.35573652,1.570391,1.4824581
0.0,0.0,0.8,0.0,0.0,0,0.11717685,-0.7499934,2.938939,0.2621693,0.17799231,1.49144,-0.4139895,0.8047074,0.64561915,1.632363,0.7733275,0.46615016,1.5693694,1.6003022
0.0,0.0,0.8,0.0,0.0,0,0.1187642,-0.698683,2.9648492,0.25708726,0.1350062,1.4887397,0.06640702,0.867616,0.5720032,1.615859,0.66238946,0.18851471,1.5709846,0.82691205
0.0,0.0,0.8,0.0,0.0,0,0.13226011,-0.68390733,2.979169,0.25743333,0.19049457,1.4724058,0.18950325,0.8601335,0.81083983,1.5718181,0.73505586,0.23399624,1.5708485,1.3606427
0.0,0.0,0.8,0.0,0.0,0,0.13211316,-0.7041228,2.9779985,0.28891754,0.1555048,1.4999284,-0.6663019,0.7691207,0.67572194,1.6168885,0.68381685,0.3073733,1.5707151,1.088353
0.0,0.0,0.8,0.0,0.0,0,0.13052933,-0.77091235,3.006638,0.2658321,0.1479214,1.4849515,-0.18141782,0.9206756,0.8233851,1.4674023,0.792751,0.44729665,1.5692047,1.4973414
0.0,0.0,0.8,0.0,0.0,0,0.12193192,-0.70354545,2.971093,0.21430306,0.15365554,1.5064262,0.20940103,0.7987715,0.73111516,1.6149569,0.7568065,0.19214688,1.5704094,0.45496327
0.0,0.0,0.8,0.0,0.0,0,0.14030716,-0.7748868,2.9455762,0.25465566,0.22767249,1.5216881,-0.5059581,0.84436685,0.62652594,1.7020437,0.7114953,0.269236,1.5698298,0.8971129
0.0,0.0,0.8,0.0,0.0,0,0.13787836,-0.7679682,2.9291766,0.27431634,0.2287325,1.4908371,-0.17227301,0.7590467,0.56514055,1.5893736,0.91806203,0.21601155,1.5703585,-0.32371953
0.0,0.0,0.8,0.0,0.0,0,0.12698278,-0.8033233,2.9509404,0.22904357,0.1718269,1.4959259,0.2908536,0.8288873,0.7970243,1.5817416,0.8900741,0.17399128,1.5700867,0.74847925
0.0,0.0,0.8,0.0,0.0,0,0.12068314,-0.61595887,2.958845,0.29109755,0.20299625,1.5162884,-0.26904532,0.75819045,0.6348643,1.6431838,0.6524298,0.2538228,1.5709227,-0.40177625
0.0,0.0,0.8,0.0,0.0,0,0.13937676,-0.7458468,2.9688778,0.2377253,0.15480998,1.4938256,-0.11087127,0.90888673,0.5492408,1.4887455,0.8179836,0.13161287,1.5694877,0.70723575
0.0,0.0,0.8,0.0,0.0,0,0.123356,-0.8147372,2.9596984,0.19589955,0.22084989,1.5128589,0.09322872,0.8846692,0.6669931,1.5197213,0.98700535,0.23031603,1.5696019,-0.20272812
0.0,0.0,0.8,0.0,0.0,0,0.13566422,-0.72873205,2.9591901,0.2726633,0.16620561,1.5041922,-0.43542954,0.78197515,0.7702739,1.5823655,0.7196587,0.22483389,1.5709893,1.5338572
0.0,0.0,0.8,0.0,0.0,0,0.14115745,-0.7541513,2.9450834,0.30280277,0.22993416,1.5118308,-0.21821545,0.8127284,0.7108009,1.6959473,0.8382136,0.1284884,1.5701311,1.2718235
0.0,0.0,0.8,0.0,0.0,0,0.11107568,-0.68141246,3.0077338,0.3047194,0.28073686,1.5123051,-0.32150942,0.7592379,0.61113906,1.5845585,0.68231815,0.26116425,1.5699267,1.1256248
0.0,0.0,0.8,0.0,0.0,0,0.1178442,-0.6025047,2.9539804,0.22107382,0.14623185,1.4932163,0.16051948,0.7260056,0.60827225,1.4818625,0.7684079,0.18617846,1.5703791,0.9919651
0.0,0.0,0.8,0.0,0.0,0,0.16144513,-0.69511735,2.9536645,0.28081176,0.16222568,1.4779284,-0.51760834,0.8310714,0.6724091,1.6107053,0.6621497,0.290748,1.5710192,0.63880867
0.0,0.0,0.8,0.0,0.0,0,0.16380508,-0.68382907,2.9611816,0.20512922,0.1475167,1.5096217,-0.37787652,0.742572,0.76658815,1.5584968,0.78839517,0.19215855,1.5703764,0.6811623
0.0,0.0,0.8,0.0,0.0,0,0.14109059,-0.74825937,2.9924376,0.2746874,0.16058971,1.4881485,0.014859404,0.76567775,0.9913291,1.4811548,0.76145023,0.11878321,1.5704758,0.70888484
0.0,0.0,0.8,0.0,0.0,0,0.13188782,-0.8035326,2.9793303,0.29639855,0.19857426,1.4682101,-0.116937585,0.7609989,0.45875642,1.5334839,0.8139937,0.18020214,1.5703903,0.7665246
0.0,0.0,0.8,0.0,0.0,0,0.12726574,-0.75017565,2.9407768,0.22074518,0.2219734,1.4968667,-0.027983803,0.85558635,0.6752069,1.6149013,0.8271669,0.2682273,1.5703799,0.2852275
0.0,0.0,0.8,0.0,0.0,0,0.13595757,-0.7059808,2.9519238,0.2596352,0.19527574,1.4948376,-0.2126266,0.74049556,0.40852025,1.5157208,0.8879603,0.0150438985,1.5707309,1.315801
0.0,0.0,0.8,0.0,0.0,0,0.10478315,-0.7832013,2.9585972,0.2331621,0.22020185,1.4888598,-0.04331164,0.885153,0.7831194,1.4298092,0.8634585,0.27912098,1.5696534,0.075271934
0.0,0.0,0.8,0.0,0.0,0,0.13536566,-0.71369565,2.939047,0.29848683,0.12019246,1.4912063,-0.22926816,0.8483768,0.6184503,1.5401981,0.7463586,0.29893282,1.5683645,0.80414414
0.0,0.0,0.8,0.0,0.0,0,0.12375472,-0.6251696,2.9151773,0.26120925,0.19005594,1.5147635,-0.017402308,0.8951669,0.5273241,1.6344113,0.78795326,0.43992603,1.5718491,1.6265252
0.0,0.0,0.8,0.0,0.0,0,0.14470486,-0.84230155,2.9549842,0.33299467,0.15482496,1.4948653,-0.76864254,0.76301837,0.83179307,1.5911552,0.74000514,0.21158303,1.5703039,1.103117
0.0,0.0,0.8,0.0,0.0,0,0.16072866,-0.68166584,2.9595344,0.313767,0.24919614,1.4947027,-0.13231811,0.90248203,0.71878844,1.7283431,0.8439709,0.17526862,1.5688072,1.9563788
0.0,0.0,0.8,0.0,0.0,0,0.12474696,-0.68287265,2.9736903,0.25606906,0.169135,1.4887325,-0.075677425,0.80569094,0.69195557,1.5876305,0.68021333,0.29262188,1.5714197,1.2246068
0.0,0.0,0.8,0.0,0.0,0,0.123521745,-0.62485284,2.909122,0.25299934,0.17653506,1.4888139,-0.37489003,0.90614104,0.63663024,1.457218,0.8417497,0.17607033,1.5707883,0.67778194
0.0,0.0,0.8,0.0,0.0,0,0.123641595,-0.65170217,2.9536638,0.23467278,0.13961163,1.4991565,0.25099447,0.8561268,0.51451933,1.7421408,0.73715436,0.2882288,1.5711144,1.382502
0.0,0.0,0.8,0.0,0.0,0,0.14414561,-0.8250013,2.9565809,0.24855307,0.14253372,1.493687,-0.2867466,0.828535,0.6167368,1.5982953,0.72495186,0.33098906,1.5706421,0.72991484
0.0,0.0,0.8,0.0,0.0,0,0.137561,-0.7490721,2.9591913,0.24106129,0.18725783,1.4877856,0.32137555,0.7190928,0.7236372,1.6160129,0.8383954,0.047834195,1.5704216,1.4602594
0.0,0.0,0.8,0.0,0.0,0,0.17038652,-0.77597046,2.9677136,0.29844826,0.18562317,1.5116115,-0.5572559,0.8600836,0.66723907,1.5965793,0.82021517,0.3527585,1.5698925,0.5875049
0.0,0.0,0.8,0.0,0.0,0,0.1302656,-0.80172443,2.9295206,0.26474077,0.23632537,1.5099492,-0.12067175,0.8249036,0.7287672,1.5654222,0.65992904,0.23668405,1.5708451,0.46930486
0.0,0.0,0.8,0.0,0.0,0,0.14379363,-0.71153,2.9337075,0.21531795,0.19008946,1.4903915,-0.034146138,0.83806676,0.470645,1.4450333,0.8429581,0.0975713,1.56994,-0.038154148
0.0,0.0,0.8,0.0,0.0,0,0.10484363,-0.76775837,2.933635,0.28450176,0.18068677,1.4956192,-0.70927805,0.8263912,0.54053324,1.6465851,0.8045034,0.28047147,1.5699747,0.6492806
0.0,0.0,0.8,0.0,0.0,0,0.15631245,-0.7103515,2.9536238,0.29182154,0.14816788,1.5045793,-0.31250173,0.8505729,0.7523258,1.5377996,0.6706237,0.2954615,1.5694697,1.1412504
0.0,0.0,0.8,0.0,0.0,0,0.14178336,-0.69709706,2.9219582,0.21568228,0.206361,1.4919502,-0.8357913,0.8085185,0.42405796,1.5324159,0.7326512,0.39513692,1.5701005,0.6901285
0.0,0.0,0.8,0.0,0.0,0,0.12260142,-0.7406467,2.9839983,0.28495345,0.16412419,1.5009444,-0.31048012,0.759306,0.81699926,1.6492921,0.7931065,0.30064648,1.5698621,1.6004541
0.0,0.0,0.8,0.0,0.0,0,0.121536136,-0.75729716,2.948028,0.26104996,0.16361782,1.5013204,-0.17702447,0.68991995,0.77726793,1.5836748,0.7312661,0.3402533,1.5704738,1.5490769
0.0,0.0,0.8,0.0,0.0,0,0.15845805,-0.7727353,2.9825249,0.2439234,0.1410929,1.4924873,-0.28222612,0.68158793,0.73916745,1.4755207,0.8417458,0.06508322,1.5703557,0.6308865
0.0,0.0,0.8,0.0,0.0,0,0.15037908,-0.7806146,2.9598317,0.23193774,0.1988732,1.4977361,-0.28858656,0.77567357,0.49334303,1.6045461,0.91212374,0.21972306,1.5700245,1.016289
0.0,0.0,0.8,0.0,0.0,0,0.13602084,-0.68278056,2.9054425,0.26114318,0.17788206,1.5067351,-0.69300234,0.76863205,0.5225082,1.5534589,0.9215335,0.3268447,1.5708108,1.3983743
0.0,0.0,0.8,0.0,0.0,0,0.121713564,-0.74338776,2.9075644,0.24057868,0.2367478,1.4899092,-0.36291614,0.8902031,0.39387512,1.6081271,0.83071136,0.11931225,1.5706202,1.0435615
0.0,0.0,0.8,0.0,0.0,0,0.1486468,-0.7429672,2.980152,0.26594228,0.17214051,1.4785776,-0.3312123,0.8219583,0.5578623,1.620688,0.89416325,0.29754868,1.5700943,1.2764149
0.0,0.0,0.8,0.0,0.0,0,0.1599148,-0.7027092,2.9454696,0.21994318,0.085061915,1.4925655,-0.26647905,0.9033426,0.4091399,1.5176558,0.75006676,0.29357576,1.5699669,-0.37748334
0.0,0.0,0.8,0.0,0.0,0,0.13958207,-0.6680817,2.937337,0.27546445,0.19630964,1.4939072,-0.38245782,0.8281919,0.5841307,1.6063265,0.8555431,0.06839211,1.5705726,1.2760457
0.0,0.0,0.8,0.0,0.0,0,0.15257305,-0.713139,2.9458237,0.2210332,0.23025139,1.5007157,-0.51277226,0.81304497,0.6633314,1.6198567,0.9015694,0.2630975,1.5688602,1.5714998
0.0,0.0,0.8,0.0,0.0,0,0.12854083,-0.7570925,2.943398,0.2773413,0.21606013,1.4969394,-0.47074863,0.7114619,0.6904356,1.5054251,0.68011814,0.1860589,1.57078,0.7415486
0.0,0.0,0.8,0.0,0.0,0,0.14833985,-0.7565628,2.9385376,0.17966127,0.20279966,1.5214453,-0.20247453,0.74614215,0.92486763,1.5044816,0.8301505,0.12537819,1.5701765,0.63227016
0.0,0.0,0.8,0.0,0.0,0,0.13133442,-0.70715326,2.9475799,0.20614888,0.20946144,1.5009202,-0.05895929,0.86026424,0.76728165,1.5576837,0.7594151,0.1981749,1.5703995,0.67330986
0.0,0.0,0.8,0.0,0.0,0,0.119802676,-0.7613343,2.9610155,0.22444746,0.17303781,1.4996362,-0.29187447,0.7466208,0.5912348,1.6412977,0.7593224,0.08819212,1.5703533,0.97955513
0.0,0.0,0.8,0.0,0.0,0,0.14001282,-0.69791913,2.9265523,0.23425578,0.1732055,1.5016156,0.26752937,0.80706847,0.53350717,1.5108088,0.7389968,0.28663746,1.5697905,-0.3793401
0.0,0.0,0.8,0.0,0.0,0,0.16511133,-0.7033739,2.942988,0.2540223,0.08942822,1.4786425,-0.59870493,0.893487,0.33382115,1.528464,0.89551616,0.21258368,1.5714195,0.57309335
0.0,0.0,0.8,0.0,0.0,0,0.14720604,-0.7297902,2.9533548,0.27971363,0.155078,1.4953076,-0.4281771,0.7847929,0.6850669,1.4682438,0.7642142,0.12083022,1.5706859,-0.174173
0.0,0.0,0.8,0.0,0.0,0,0.1330307,-0.7940541,2.927216,0.21454595,0.12885979,1.5009853,0.095331445,0.76355106,0.7293707,1.6423473,0.8211112,0.12555979,1.5706549,1.6150291
0.0,0.0,0.8,0.0,0.0,0,0.1262824,-0.7685146,2.936324,0.21425426,0.18820357,1.507408,-0.64793783,0.8331345,0.65653807,1.6953948,0.83137673,0.12226801,1.5689106,0.10584118
0.0,0.0,0.8,0.0,0.0,0,0.1415152,-0.7544699,2.8916922,0.29527128,0.2131436,1.4909712,-0.600196,0.7663385,0.71949136,1.6526264,0.70546716,0.3124451,1.569631,1.2828175
0.0,0.0,0.8,0.0,0.0,0,0.10226053,-0.75068235,2.959552,0.20796995,0.18137452,1.4785718,-0.34913775,0.7986509,0.7069106,1.510138,0.7985175,0.22482958,1.5695058,0.6632647
0.0,0.0,0.8,0.0,0.0,0,0.15575229,-0.7976105,2.9768481,0.2541166,0.21868569,1.4947134,0.014714764,0.9217251,0.5473969,1.615207,0.8727237,0.22346272,1.5702866,1.5197186
0.0,0.0,0.8,0.0,0.0,0,0.12552749,-0.6380342,2.9428532,0.30241388,0.19043945,1.4782312,-0.3902403,0.88492674,0.5006653,1.6866634,0.7006513,-0.047322694,1.5710539,0.39033893
0.0,0.0,0.8,0.0,0.0,0,0.13029827,-0.7147778,2.9014146,0.25710317,0.16506761,1.4928472,-0.6197019,0.83173484,0.57959455,1.626746,0.68921375,0.22588621,1.5709627,0.28719926
0.0,0.0,0.8,0.0,0.0,0,0.15027067,-0.7345719,2.9506383,0.22126777,0.15658797,1.4939559,-0.12562148,0.8015017,0.6271304,1.4592737,0.79853624,0.07176192,1.5710057,0.67643857
0.0,0.0,0.8,0.0,0.0,0,0.14738931,-0.67567635,2.9492319,0.24061505,0.12143152,1.52049,-0.32962325,0.8806841,0.543484,1.6097229,0.8060272,0.2997711,1.5703526,0.3766911
0.0,0.0,0.8,0.0,0.0,0,0.12295272,-0.73746276,2.961093,0.26455352,0.14729205,1.476267,-0.18849778,0.8402497,0.8048691,1.7061881,0.72372174,0.27729422,1.569866,0.94961935
0.0,0.0,0.8,0.0,0.0,0,0.12501688,-0.7209799,2.9422672,0.28762436,0.15220396,1.480417,-0.1389076,0.6613828,0.7466406,1.6169382,0.72671705,0.30973682,1.568772,0.6347512
0.0,0.0,0.8,0.0,0.0,0,0.1301034,-0.7397222,2.9291563,0.29888245,0.18671454,1.4878993,-0.09840585,0.67071027,0.53213346,1.5250659,0.8598814,0.30771545,1.5707862,-0.31159705
0.0,0.0,0.8,0.0,0.0,0,0.12649766,-0.6942117,2.9461844,0.29341897,0.18359345,1.4653059,-0.15229087,0.8904686,0.6054048,1.5507278,0.6775236,0.20801653,1.5708947,1.0011178
0.0,0.0,0.8,0.0,0.0,0,0.13882184,-0.7617882,2.9136674,0.30462307,0.14497511,1.4738909,-0.4099275,0.8795624,0.6027468,1.6321621,0.7957516,0.1944252,1.5704598,0.78981555
0.0,0.0,0.8,0.0,0.0,0,0.14311099,-0.83931744,2.9376955,0.24314037,0.18782146,1.4941345,-0.158962,0.94190794,0.49507284,1.5227029,0.9330916,0.05920736,1.5704715,1.2620746
0.0,0.0,0.8,0.0,0.0,0,0.15763628,-0.73661524,2.9553998,0.2778331,0.15025373,1.48686,-0.3012288,0.7795677,0.67113674,1.5438993,0.7363925,0.29963288,1.5706991,0.6233488
0.0,0.0,0.8,0.0,0.0,0,0.12363018,-0.6659672,2.9448676,0.27281502,0.20080349,1.4826089,-0.51162285,0.8070647,0.60254145,1.6671563,0.84215546,0.16209096,1.5705822,1.5793175
0.0,0.0,0.8,0.0,0.0,0,0.1171719,-0.7940638,2.9642513,0.27200118,0.18604314,1.4994268,-0.5884255,0.820203,0.692357,1.577726,0.74340713,0.36072987,1.5693288,1.0987405
0.0,0.0,0.8,0.0,0.0,0,0.12945352,-0.7244411,2.933825,0.27687824,0.12760071,1.4933882,-0.53537405,0.83673906,0.6243092,1.507924,0.83946955,0.22136183,1.5706749,1.6440977
0.0,0.0,0.8,0.0,0.0,0,0.14881854,-0.73590326,2.9429603,0.26675805,0.17829911,1.4965007,-0.88937056,0.7635696,0.72533077,1.3474953,0.7449192,0.35039446,1.5694488,0.53942305
0.0,0.0,0.8,0.0,0.0,0,0.17109074,-0.825268,2.9530356,0.24460885,0.14495797,1.5071647,-0.27934557,0.8224615,0.69504315,1.6930965,0.72236824,0.29732716,1.5698979,0.96725076
0.0,0.0,0.8,0.0,0.0,0,0.11983834,-0.68114114,2.9459941,0.23543975,0.1450415,1.4824238,0.10774393,0.78295195,0.5308179,1.4834542,0.8044194,0.06941305,1.5692954,0.03718411
0.0,0.0,0.8,0.0,0.0,0,0.1389284,-0.7400225,2.973621,0.20650844,0.18302415,1.5013157,0.20762686,0.7634791,0.8850739,1.7156448,0.73060817,0.22253685,1.5709617,1.6385642
0.0,0.0,0.8,0.0,0.0,0,0.11734646,-0.7317107,2.9601097,0.2819018,0.1954529,1.5061592,-0.015490525,0.8298949,0.6246314,1.6840804,0.6840856,0.22293395,1.5694987,0.98803896
0.0,0.0,0.8,0.0,0.0,0,0.14834212,-0.7516801,2.998246,0.19509453,0.18007797,1.5068387,0.23604114,0.724326,0.7928342,1.5288082,0.73392415,0.26399034,1.5696099,0.29407352
0.0,0.0,0.8,0.0,0.0,0,0.14182402,-0.7346362,2.940885,0.19242221,0.22448741,1.5046539,0.09040918,0.78145695,0.60742813,1.6772202,0.90503466,0.13727017,1.5702614,1.1745993
0.0,0.0,0.8,0.0,0.0,0,0.12813243,-0.6646575,2.9163587,0.2899698,0.16749802,1.5041971,-0.25936902,0.6660227,0.5058373,1.5760874,0.80288786,0.25822082,1.5707823,0.7173199
0.0,0.0,0.8,0.0,0.0,0,0.106554925,-0.760584,2.9502783,0.2540865,0.16365765,1.4946313,-0.43719888,0.7872185,0.7411568,1.4791071,0.691175,0.3222325,1.5704885,0.9963326
0.0,0.0,0.8,0.0,0.0,0,0.10115653,-0.7543948,2.9768038,0.23724902,0.17232107,1.5045807,-0.2325013,0.788932,0.4812998,1.6742336,0.81145346,0.32714963,1.5703411,0.584258
0.0,0.0,0.8,0.0,0.0,0,0.15454277,-0.76613766,2.962135,0.23000894,0.1878754,1.5039388,-0.32141498,0.88680357,0.6153111,1.5175421,0.71300095,0.042757526,1.5707501,0.121588774
0.0,0.0,0.8,0.0,0.0,0,0.10517691,-0.74203324,2.9621258,0.252026,0.19274685,1.4991089,-0.25266874,0.8492721,0.82716906,1.5368334,0.851007,0.3021987,1.5692445,1.286865
0.0,0.0,0.8,0.0,0.0,0,0.14291044,-0.8033678,2.929869,0.31079993,0.13039939,1.5034634,0.013783856,0.89073044,0.85319924,1.6873966,0.7485533,0.27332786,1.5706296,1.6125786
0.0,0.0,0.8,0.0,0.0,0,0.13878627,-0.61081386,2.9834993,0.29170868,0.16826743,1.4838939,0.23277037,0.8376535,0.5815048,1.5182146,0.73927385,0.22767149,1.5708661,1.2668074
0.0,0.0,0.8,0.0,0.0,0,0.14574213,-0.7317333,2.9168978,0.30382675,0.15050776,1.5028378,-0.5831159,0.77422607,0.6520803,1.4498136,0.8444009,0.24218853,1.5701395,0.93744016
0.0,0.0,0.8,0.0,0.0,0,0.12487163,-0.7589165,2.9434679,0.25380936,0.15039623,1.4943943,-0.35554844,0.7914914,0.5706866,1.48377,0.8824244,0.24460386,1.5706252,1.3894514
0.0,0.0,0.8,0.0,0.0,0,0.13954249,-0.8082035,2.9574478,0.24114211,0.17517534,1.5029349,-0.5616925,0.86135083,0.5825872,1.534358,0.88516843,0.18433602,1.5707409,0.46536562
0.0,0.0,0.8,0.0,0.0,0,0.13766614,-0.79198205,2.9801896,0.24419017,0.14800587,1.4818436,-0.04312535,0.78434855,0.66315955,1.589453,0.87807727,0.113838814,1.5698059,2.323132
0.0,0.0,0.8,0.0,0.0,0,0.121940896,-0.7653185,2.9181461,0.25695518,0.20732029,1.4867175,-0.84948665,0.815247,0.6411342,1.6371837,0.7063348,0.20718198,1.5700821,0.006497429
0.0,0.0,0.8,0.0,0.0,0,0.13853942,-0.7941672,2.9568467,0.123084605,0.18929757,1.5292243,0.60667133,0.78330827,0.5103202,1.5055215,0.77124006,0.3376485,1.5711257,0.30531058
0.0,0.0,0.8,0.0,0.0,0,0.109562926,-0.66079277,2.9215734,0.27652946,0.14155966,1.4803528,-0.43622023,0.8475959,0.7448027,1.5682726,0.7376088,0.10039816,1.5706718,0.7428761
0.0,0.0,0.8,0.0,0.0,0,0.1330135,-0.7545855,2.938098,0.1951496,0.20978062,1.500182,0.3824488,0.8424351,0.6847868,1.7205931,0.69531155,0.24815479,1.5698582,1.0939639
0.0,0.0,0.8,0.0,0.0,0,0.17125948,-0.7322893,2.947024,0.24882925,0.15585907,1.4915086,-0.24659273,0.9292917,0.46296775,1.4361485,0.89580387,0.1727998,1.570959,0.84258854
0.0,0.0,0.8,0.0,0.0,0,0.13019018,-0.8050743,2.94941,0.28324944,0.10675158,1.4949872,-0.649704,0.7529367,0.62785655,1.4191402,0.9214168,0.17495261,1.5693734,1.674942
0.0,0.0,0.8,0.0,0.0,0,0.12491618,-0.63801485,2.9245656,0.32800213,0.11780434,1.5034854,-0.24709046,0.8805109,0.6712059,1.4552017,0.90441966,0.24656639,1.5698825,0.7042342
0.0,0.0,0.8,0.0,0.0,0,0.12275671,-0.68582004,3.001838,0.24813975,0.14234148,1.4816465,-0.03292594,0.7380984,0.72139865,1.5324124,0.7714092,0.116954796,1.570588,0.6996399
0.0,0.0,0.8,0.0,0.0,0,0.13981736,-0.70532423,2.9262698,0.30518177,0.18290573,1.4847006,-0.005787888,0.7858617,0.52863044,1.5400289,0.82536066,0.3305502,1.570942,0.75885665
0.0,0.0,0.8,0.0,0.0,0,0.1424233,-0.73007214,2.9222758,0.22770798,0.16288722,1.491747,0.25180936,0.785849,0.7031113,1.4591984,0.8602387,0.28919587,1.5697788,0.4854087
0.0,0.0,0.8,0.0,0.0,0,0.115850516,-0.7433048,2.933161,0.3191617,0.12386084,1.4813185,-0.3042965,0.6958503,0.8890445,1.7074208,0.7163305,0.20875984,1.5708946,1.5569465
0.0,0.0,0.8,0.0,0.0,0,0.15348959,-0.7295183,2.9633913,0.2920089,0.21414648,1.4817337,-0.056179173,0.7644328,0.50108844,1.5001318,0.7917069,0.27175027,1.5706457,1.635923
0.0,0.0,0.8,0.0,0.0,0,0.13482203,-0.72438717,2.9832277,0.29581344,0.197415,1.5046618,-0.4258579,0.8696569,0.7704331,1.6396589,0.72615707,0.26824108,1.5701935,0.7536075
0.0,0.0,0.8,0.0,0.0,0,0.13779937,-0.7139819,2.9291713,0.30233815,0.12683876,1.4889266,-0.52809024,0.81173784,0.6217731,1.5902512,0.7679052,0.3542746,1.5705574,1.3072937
0.0,0.0,0.8,0.0,0.0,0,0.1372981,-0.7676378,2.9357195,0.26775151,0.15539987,1.5120003,-0.3525954,0.7978232,0.6538239,1.4758245,0.86334074,0.28395453,1.5696709,-0.5164824
0.0,0.0,0.8,0.0,0.0,0,0.15859286,-0.7759688,2.9608362,0.25419423,0.15711501,1.4837732,-0.40308464,0.7899079,0.48088875,1.6237953,0.735174,0.39389315,1.5707445,0.3990262
0.0,0.0,0.8,0.0,0.0,0,0.1519588,-0.6798206,2.9485915,0.25867093,0.21250825,1.5042895,-0.47064796,0.836255,0.6034931,1.6242839,0.7956193,0.092305854,1.570943,0.91041255
0.0,0.0,0.8,0.0,0.0,0,0.1374888,-0.7453454,2.963144,0.2791131,0.07633665,1.4800159,-0.46914154,0.84846675,0.47031477,1.5234388,0.73108363,0.20385453,1.5708104,0.14380476
0.0,0.0,0.8,0.0,0.0,0,0.12296673,-0.6870972,2.9437377,0.25799078,0.18520617,1.4952466,0.018655304,0.7900598,0.5918333,1.5349671,0.78849465,0.2863926,1.5703763,0.7134091
0.0,0.0,0.8,0.0,0.0,0,0.14941151,-0.69555444,2.9619915,0.2647307,0.14571159,1.4945031,-0.41777757,0.7921605,0.33605024,1.5997624,0.7758767,0.3322951,1.5694035,0.14973238
0.0,0.0,0.8,0.0,0.0,0,0.12802745,-0.7021998,3.051304,0.31205893,0.179475,1.4798298,-0.19001415,0.8720624,0.82162744,1.6211088,0.68193173,0.1858835,1.5706631,1.0164988
0.0,0.0,0.8,0.0,0.0,0,0.15569866,-0.7015055,2.9572783,0.27066678,0.09337883,1.493126,0.039508685,0.8698946,0.6835505,1.6499301,0.71649253,0.079470895,1.5708597,0.5690102
0.0,0.0,0.8,0.0,0.0,0,0.13336734,-0.7034375,2.96686,0.32808018,0.15454952,1.4599365,-0.1782546,0.807725,0.7429929,1.4821123,0.77233654,0.14880237,1.571089,0.73109436
0.0,0.0,0.8,0.0,0.0,0,0.15016946,-0.7428164,2.9139647,0.23855294,0.22504695,1.4885044,-0.13222057,0.8831533,0.65663534,1.6003798,0.8022467,0.22026649,1.5707213,0.8204187
0.0,0.0,0.8,0.0,0.0,0,0.11649052,-0.75073636,2.9088552,0.25915864,0.20618896,1.4941213,-0.43744072,0.79899913,0.7247685,1.6154858,0.8161847,0.3001404,1.5699687,1.0373867
0.0,0.0,0.8,0.0,0.0,0,0.1520921,-0.70928913,2.9623506,0.2961367,0.18163428,1.4782103,-0.5748551,0.92376244,0.54090255,1.4824581,0.73516244,0.26496336,1.5708511,0.05860357
0.0,0.0,0.8,0.0,0.0,0,0.15847299,-0.7347477,2.952344,0.28737783,0.17901368,1.4962213,-0.5545045,0.7755724,0.7313515,1.6317182,0.8567974,0.34435287,1.5706704,1.6054833
0.0,0.0,0.8,0.0,0.0,0,0.13963431,-0.70748764,2.9273899,0.2887718,0.19722213,1.510168,-0.46825317,0.8106452,0.60299325,1.6204354,0.8251706,0.098487005,1.5705155,0.7314614
0.0,0.0,0.8,0.0,0.0,0,0.1220623,-0.7364792,2.9851012,0.27121592,0.13986738,1.4894313,-0.5571991,0.8194059,0.3192719,1.6312729,0.9308523,0.14785028,1.569638,1.4618007
0.0,0.0,0.8,0.0,0.0,0,0.15331416,-0.6905949,2.9132752,0.2981675,0.22027591,1.5019227,-0.55803937,0.8212462,0.80007523,1.5336139,0.7388902,0.24043296,1.570965,0.939314
0.0,0.0,0.8,0.0,0.0,0,0.15076615,-0.79059035,2.9784336,0.22357969,0.15035902,1.5119874,-0.39963734,0.8639976,0.79098266,1.7041564,0.7908381,0.28088173,1.5702469,1.2603378
0.0,0.0,0.8,0.0,0.0,0,0.14047794,-0.6626413,2.9529746,0.26435056,0.12862173,1.5134345,-0.59536767,0.8473474,0.4356622,1.5924398,0.6839123,0.24562442,1.5694944,0.5584799
0.0,0.0,0.8,0.0,0.0,0,0.15652882,-0.74717206,2.9284174,0.21703829,0.17390531,1.485001,-0.7949066,0.7094505,0.5549676,1.5956787,0.87847525,0.055844206,1.5706927,0.74118555
0.0,0.0,0.8,0.0,0.0,0,0.1413901,-0.777257,2.9518297,0.27122286,0.15064743,1.4874958,-0.0013882275,0.8521796,0.7999111,1.7479879,0.7233292,0.20998053,1.5696788,1.4561005
0.0,0.0,0.8,0.0,0.0,0,0.11085138,-0.70147794,2.9413183,0.29395103,0.19558598,1.4750588,-0.38493937,0.86276627,0.60704076,1.6483846,0.7625442,0.32664207,1.569124,1.0341525
0.0,0.0,0.8,0.0,0.0,0,0.15994835,-0.6920507,2.9617655,0.2731897,0.14866298,1.4864291,-0.48534286,0.7566602,0.60503864,1.5602458,0.8413393,0.32674032,1.5695771,1.1691492
0.0,0.0,0.8,0.0,0.0,0,0.10313962,-0.7377736,2.967681,0.23401745,0.1540005,1.4945707,0.013434005,0.8412255,0.5398247,1.5649092,0.9159654,0.30253366,1.5708251,0.9023732
0.0,0.0,0.8,0.0,0.0,0,0.13537987,-0.7404961,2.9447477,0.26301086,0.20136936,1.4988892,-0.2653116,0.810307,0.68522424,1.5754602,0.75443524,0.0906306,1.5707389,0.3547208
0.0,0.0,0.8,0.0,0.0,0,0.09820894,-0.72046906,2.9489963,0.25912422,0.12686373,1.51305,-0.16272119,0.76542866,0.6129685,1.532995,0.804298,0.3191893,1.5702504,0.5048808
0.0,0.0,0.8,0.0,0.0,0,0.14384808,-0.6857636,2.9682763,0.24942757,0.19036284,1.4808186,-0.08191345,0.7402699,0.7446764,1.554202,0.73592323,0.113833904,1.5712129,0.98177755
0.0,0.0,0.8,0.0,0.0,0,0.11767279,-0.68392056,2.9453845,0.28138155,0.18339942,1.4619799,-0.6679662,0.8603485,0.57947296,1.6575661,0.78746367,0.23113818,1.5713724,0.947067
0.0,0.0,0.8,0.0,0.0,0,0.13187423,-0.7010643,2.9166167,0.29457808,0.15841046,1.5072074,-0.30873352,0.87658066,0.8529353,1.681769,0.7761698,0.17184888,1.570788,1.3898689
0.0,0.0,0.8,0.0,0.0,0,0.13334835,-0.69755316,2.948196,0.27078307,0.18288435,1.5164331,-0.17520285,0.85068136,0.62344295,1.6901559,0.8331699,0.11132554,1.5707238,2.0415182
0.0,0.0,0.8,0.0,0.0,0,0.12978351,-0.7272105,2.9655728,0.24225351,0.19478154,1.4997919,-0.3758936,0.798981,0.65956426,1.5820653,0.6853241,0.21204582,1.570172,0.77657247
0.0,0.0,0.8,0.0,0.0,0,0.11302531,-0.72776943,2.950204,0.23613028,0.22078234,1.5060065,-0.40423095,0.87954205,0.49391216,1.4199986,0.766055,0.24482198,1.5711628,0.5146753
0.0,0.0,0.8,0.0,0.0,0,0.1066435,-0.7625831,2.9743962,0.22859068,0.15521736,1.4859253,-0.3625155,0.84816325,0.5898276,1.5361638,0.7895955,0.10361896,1.5708299,0.3549499
0.0,0.0,0.8,0.0,0.0,0,0.14028765,-0.733696,2.9637554,0.26669732,0.17962267,1.489531,-0.04029031,0.8406932,0.5893871,1.6194147,0.7528694,0.23591352,1.5705799,0.7422933
0.0,0.0,0.8,0.0,0.0,0,0.1380676,-0.7319697,2.9371688,0.23412076,0.22813086,1.5140715,0.061908755,0.84729075,0.59664094,1.5232852,0.76155686,0.28180328,1.5694835,0.7867424
0.0,0.0,0.8,0.0,0.0,0,0.16880408,-0.7750235,2.9684823,0.19815634,0.24339388,1.5200729,-0.20300679,0.8031821,0.6063547,1.6074942,0.7878405,0.06975737,1.5713516,0.83029294
0.0,0.0,0.8,0.0,0.0,0,0.13220455,-0.76236725,2.9466352,0.26711804,0.19586371,1.5100737,-0.49593756,0.7571514,0.63616425,1.6441907,0.7685029,0.19810791,1.5699885,0.6374804
0.0,0.0,0.8,0.0,0.0,0,0.17147213,-0.76575005,2.9638839,0.27478695,0.2302033,1.4933474,-0.4165933,0.7526574,0.56581473,1.5615493,0.7972096,0.041969337,1.5710363,0.32202274
0.0,0.0,0.8,0.0,0.0,0,0.17677832,-0.6818019,2.9886796,0.25899613,0.17103148,1.5031213,-0.21100707,0.8321654,0.6924224,1.4940704,0.7395742,0.286178,1.5707146,0.9785013
0.0,0.0,0.8,0.0,0.0,0,0.15402523,-0.7557099,2.970793,0.20767166,0.19175935,1.4893857,0.0048114266,0.8027967,0.5663174,1.6454159,0.96386737,0.16248332,1.5706606,2.0850961
0.0,0.0,0.8,0.0,0.0,0,0.18218927,-0.8049721,2.978386,0.31596065,0.13708246,1.507318,-0.30051285,0.88762105,0.7235702,1.7109555,0.7423553,0.076944396,1.5708617,0.7700743
0.0,0.0,0.8,0.0,0.0,0,0.14018142,-0.69376445,2.9645195,0.28583452,0.17060518,1.5062528,-0.0013481907,0.814757,0.19358356,1.562011,0.8883045,0.18180996,1.5703949,0.5006293
0.0,0.0,0.8,0.0,0.0,0,0.11556986,-0.79735124,2.9843004,0.20945978,0.15366885,1.4767977,-0.23744707,0.8874012,0.80863637,1.4013436,0.82845837,0.23448896,1.5710424,0.8254811
0.0,0.0,0.8,0.0,0.0,0,0.15975498,-0.70189154,2.937969,0.23948033,0.16392082,1.505603,-0.22123094,0.7471528,0.70257205,1.5161028,0.7325208,0.21085712,1.5706302,0.8825561
0.0,0.0,0.8,0.0,0.0,0,0.13486257,-0.8211632,2.942055,0.27415663,0.24554797,1.4804932,-0.13154249,0.86249334,0.31921896,1.5040307,0.9204733,0.18100011,1.5700488,1.4130931
0.0,0.0,0.8,0.0,0.0,0,0.14617436,-0.7551034,2.9092693,0.2674905,0.17784576,1.5057805,0.15890211,0.88509095,0.32793012,1.553992,0.74666405,0.17530829,1.570932,-0.20681997
0.0,0.0,0.8,0.0,0.0,0,0.13967378,-0.8219,2.9573336,0.2645205,0.17701979,1.4846886,-0.0050378265,0.7712182,0.92816085,1.4358556,0.84108335,0.26556495,1.5709432,0.96009445
0.0,0.0,0.8,0.0,0.0,0,0.1635514,-0.7744818,2.9440866,0.22652338,0.17847432,1.5110462,-0.6237204,0.8825093,0.867134,1.6166047,0.8322043,0.21077411,1.5705996,0.43097392
0.0,0.0,0.8,0.0,0.0,0,0.13192739,-0.76387244,2.981203,0.23636821,0.19957301,1.5207741,-0.87893325,0.86168903,0.59374624,1.6001207,0.84868383,0.29278395,1.5693909,0.6630317
0.0,0.0,0.8,0.0,0.0,0,0.14519414,-0.7622948,2.950876,0.1510881,0.20590511,1.5211068,0.30900508,0.8729153,0.7301795,1.5582501,0.74521047,0.33632106,1.5694155,0.62793106
0.0,0.0,0.8,0.0,0.0,0,0.15403572,-0.77211815,2.9315882,0.21905556,0.15455355,1.4964901,0.15708563,0.71350574,0.781585,1.5878545,0.9154407,0.16735116,1.5711399,1.7811136
0.0,0.0,0.8,0.0,0.0,0,0.15037616,-0.7168632,2.8999286,0.26702872,0.20090257,1.4937565,-0.3281647,0.83761066,0.45939097,1.5600059,0.94120127,0.120225,1.5708045,1.139121
0.0,0.0,0.8,0.0,0.0,0,0.14248097,-0.73714,2.9224582,0.27150056,0.19741164,1.4892824,0.012707952,0.79338247,0.46650687,1.4464965,0.8926132,0.30866688,1.5702375,0.32859483
0.0,0.0,0.8,0.0,0.0,0,0.12674622,-0.6973995,2.945384,0.32031,0.1736607,1.5018218,-0.63121736,0.8581165,0.5325926,1.5738283,0.76651716,0.16517672,1.5699822,0.734896
0.0,0.0,0.8,0.0,0.0,0,0.13321151,-0.81227684,2.9612174,0.244548,0.16785125,1.4835272,-0.29481685,0.7994739,0.69325334,1.5939394,0.8110536,0.1426418,1.5698258,0.35073176
0.0,0.0,0.8,0.0,0.0,0,0.14529742,-0.78580153,2.9761043,0.24997322,0.15212801,1.4963478,-0.27559352,0.8026168,0.69158995,1.449868,0.8119133,0.34615737,1.5711449,0.43763283
0.0,0.0,0.8,0.0,0.0,0,0.1487835,-0.763747,2.9330509,0.31750423,0.22414166,1.4841477,-0.3922806,0.8009604,0.55355775,1.4754952,0.8506045,0.26201087,1.5690693,1.0166081
0.0,0.0,0.8,0.0,0.0,0,0.15564704,-0.7448613,2.9480698,0.286991,0.25728917,1.4908919,-0.14345583,0.7277042,0.5286461,1.6395555,0.90732783,0.31511578,1.569026,0.6065821
0.0,0.0,0.8,0.0,0.0,0,0.13282347,-0.75100046,2.9401944,0.26989144,0.1759696,1.5034028,-0.5093556,0.78347826,0.60381037,1.542121,0.834329,0.092588134,1.570086,0.37259942
0.0,0.0,0.8,0.0,0.0,0,0.13768676,-0.7638344,2.9520109,0.30657774,0.15853457,1.4925528,-0.55405587,0.8645313,0.5831232,1.611256,0.9166739,0.2573598,1.5688008,1.025081
0.0,0.0,0.8,0.0,0.0,0,0.16344531,-0.72501314,2.9681995,0.21696961,0.14053503,1.5010831,0.18221945,0.8234444,0.5430551,1.5129703,0.7528848,0.20711057,1.5691653,0.34146538
0.0,0.0,0.8,0.0,0.0,0,0.11856077,-0.7473614,2.926544,0.24732563,0.18354033,1.5039055,-0.8959389,0.8138035,0.18340763,1.5329286,0.9035289,0.1482441,1.5714753,0.25707835
0.0,0.0,0.8,0.0,0.0,0,0.13928045,-0.77252406,2.9948761,0.2777491,0.21740156,1.504712,-0.20169513,0.8040547,0.89509714,1.6030946,0.7586501,0.26510543,1.5709723,2.1058564
0.0,0.0,0.8,0.0,0.0,0,0.14397976,-0.771135,2.969716,0.25461924,0.18724892,1.4926156,-0.05395095,0.78545165,0.5622195,1.5280666,0.8335737,0.19866475,1.570671,0.63520324
0.0,0.0,0.8,0.0,0.0,0,0.1415706,-0.7462692,2.9707143,0.259926,0.18542133,1.4837717,0.07672311,0.8486013,0.63001454,1.5413902,0.82669044,0.1853963,1.5709871,0.7527083
0.0,0.0,0.8,0.0,0.0,0,0.13029446,-0.7386245,2.9732447,0.25605482,0.19617732,1.4741305,0.10497014,0.7672692,0.7890776,1.5922611,0.90022075,0.21089983,1.5703706,0.9012727
0.0,0.0,0.8,0.0,0.0,0,0.14235811,-0.7978126,2.978055,0.2414266,0.20921373,1.5104353,-0.013637186,0.82185024,0.8377544,1.7034293,0.7702475,0.10510643,1.570246,0.94110537
0.0,0.0,0.8,0.0,0.0,0,0.13342007,-0.78504264,2.954668,0.30542874,0.18935756,1.4761571,-0.3182585,0.7774049,0.88081235,1.5757264,0.77049154,0.1392913,1.5707358,0.7915058
0.0,0.0,0.8,0.0,0.0,0,0.13037069,-0.81792265,3.0073564,0.24940903,0.1642826,1.4778364,0.1928032,0.7989017,0.46034288,1.6431859,0.85538536,0.35843235,1.5703157,0.6859307
0.0,0.0,0.8,0.0,0.0,0,0.15132022,-0.70922023,2.9028888,0.26736584,0.13583161,1.498351,0.07607015,0.8056639,0.7098845,1.4884115,0.74115825,0.18835166,1.5706697,0.5871672
0.0,0.0,0.8,0.0,0.0,0,0.12474139,-0.73042876,2.951311,0.3082537,0.19104679,1.4926955,-0.4108676,0.6576919,0.74727803,1.4941633,0.88059056,0.25249544,1.569943,1.2255151
0.0,0.0,0.8,0.0,0.0,0,0.17644802,-0.76159817,2.9370234,0.30336714,0.2190716,1.5165606,-0.51205844,0.8056735,0.45862967,1.6595489,0.78150815,0.26465282,1.5697135,0.5956762
0.0,0.0,0.8,0.0,0.0,0,0.14403382,-0.7743848,2.9257097,0.27732664,0.17763346,1.4880509,-0.17432858,0.817916,0.783943,1.5772076,0.8110252,0.28473186,1.5698164,1.2248415
0.0,0.0,0.8,0.0,0.0,0,0.10088038,-0.7175919,2.950157,0.29567397,0.15922815,1.4689528,0.0364615,0.84182686,0.5538613,1.6887666,0.8138864,0.33086738,1.5685687,1.3049829
0.0,0.0,0.8,0.0,0.0,0,0.16420965,-0.79816693,2.985038,0.24837439,0.15329862,1.4744581,-0.5077883,0.82968146,0.6969745,1.6556146,0.9013631,0.29412618,1.5695294,1.0412598
0.0,0.0,0.8,0.0,0.0,0,0.13449812,-0.6862175,2.925737,0.29254586,0.14824085,1.5054681,-0.34449765,0.85375315,0.6377647,1.5722392,0.8023938,0.22893138,1.5709647,0.72256935
0.0,0.0,0.8,0.0,0.0,0,0.13449812,-0.6862175,2.925737,0.29254586,0.14824085,1.5054681,-0.34449765,0.85375315,0.6377647,1.5722392,0.8023938,0.22893138,1.5709647,0.72256935
0.0,0.0,0.8,0.0,0.0,0,0.13449812,-0.6862175,2.925737,0.29254586,0.14824085,1.5054681,-0.34449765,0.85375315,0.6377647,1.5722392,0.8023938,0.22893138,1.5709647,0.72256935
0.0,0.0,0.8,0.0,0.0,0,0.13449812,-0.6862175,2.925737,0.29254586,0.14824085,1.5054681,-0.34449765,0.85375315,0.6377647,1.5722392,0.8023938,0.22893138,1.5709647,0.72256935
0.0,0.0,0.8,0.0,0.0,0,0.13449812,-0.6862175,2.925737,0.29254586,0.14824085,1.5054681,-0.34449765,0.85375315,0.6377647,1.5722392,0.8023938,0.22893138,1.5709647,0.72256935
0.0,0.0,0.8,0.0,0.0,0,0.13449812,-0.6862175,2.925737,0.29254586,0.14824085,1.5054681,-0.34449765,0.85375315,0.6377647,1.5722392,0.8023938,0.22893138,1.5709647,0.72256935
0.0,0.0,0.8,0.0,0.0,0,0.13449812,-0.6862175,2.925737,0.29254586,0.14824085,1.5054681,-0.34449765,0.85375315,0.6377647,1.5722392,0.8023938,0.22893138,1.5709647,0.72256935
0.0,0.0,0.8,0.0,0.0,0,0.13449812,-0.6862175,2.925737,0.29254586,0.14824085,1.5054681,-0.34449765,0.85375315,0.6377647,1.5722392,0.8023938,0.22893138,1.5709647,0.72256935
0.0,0.0,0.8,0.0,0.0,0,0.13449812,-0.6862175,2.925737,0.29254586,0.14824085,1.5054681,-0.34449765,0.85375315,0.6377647,1.5722392,0.8023938,0.22893138,1.5709647,0.72256935
0.0,0.0,0.8,0.0,0.0,0,0.13449812,-0.6862175,2.925737,0.29254586,0.14824085,1.5054681,-0.34449765,0.85375315,0.6377647,1.5722392,0.8023938,0.22893138,1.5709647,0.72256935
0.0,0.0,0.8,0.0,0.0,0,0.13449812,-0.6862175,2.925737,0.29254586,0.14824085,1.5054681,-0.34449765,0.85375315,0.6377647,1.5722392,0.8023938,0.22893138,1.5709647,0.72256935
0.0,0.0,0.8,0.0,0.0,0,0.13449812,-0.6862175,2.925737,0.29254586,0.14824085,1.5054681,-0.34449765,0.85375315,0.6377647,1.5722392,0.8023938,0.22893138,1.5709647,0.72256935
0.0,0.0,0.8,0.0,0.0,0,0.14663321,-0.7610786,2.94846,0.23464428,0.2331034,1.4953088,0.17145464,0.84209293,0.5502397,1.5304942,0.81562406,0.11496161,1.5681291,0.36889154
0.0,0.0,0.8,0.0,0.0,0,0.14663321,-0.7610786,2.94846,0.23464428,0.2331034,1.4953088,0.17145464,0.84209293,0.5502397,1.5304942,0.81562406,0.11496161,1.5681291,0.36889154
0.0,0.0,0.8,0.0,0.0,0,0.14663321,-0.7610786,2.94846,0.23464428,0.2331034,1.4953088,0.17145464,0.84209293,0.5502397,1.5304942,0.81562406,0.11496161,1.5681291,0.36889154
0.0,0.0,0.8,0.0,0.0,0,0.14663321,-0.7610786,2.94846,0.23464428,0.2331034,1.4953088,0.17145464,0.84209293,0.5502397,1.5304942,0.81562406,0.11496161,1.5681291,0.36889154
0.0,0.0,0.8,0.0,0.0,0,0.14663321,-0.7610786,2.94846,0.23464428,0.2331034,1.4953088,0.17145464,0.84209293,0.5502397,1.5304942,0.81562406,0.11496161,1.5681291,0.36889154
0.0,0.0,0.8,0.0,0.0,0,0.14663321,-0.7610786,2.94846,0.23464428,0.2331034,1.4953088,0.17145464,0.84209293,0.5502397,1.5304942,0.81562406,0.11496161,1.5681291,0.36889154
0.0,0.0,0.8,0.0,0.0,0,0.14663321,-0.7610786,2.94846,0.23464428,0.2331034,1.4953088,0.17145464,0.84209293,0.5502397,1.5304942,0.81562406,0.11496161,1.5681291,0.36889154
0.0,0.0,0.8,0.0,0.0,0,0.14663321,-0.7610786,2.94846,0.23464428,0.2331034,1.4953088,0.17145464,0.84209293,0.5502397,1.5304942,0.81562406,0.11496161,1.5681291,0.36889154
0.0,0.0,0.8,0.0,0.0,0,0.14663321,-0.7610786,2.94846,0.23464428,0.2331034,1.4953088,0.17145464,0.84209293,0.5502397,1.5304942,0.81562406,0.11496161,1.5681291,0.36889154
0.0,0.0,0.8,0.0,0.0,0,0.14663321,-0.7610786,2.94846,0.23464428,0.2331034,1.4953088,0.17145464,0.84209293,0.5502397,1.5304942,0.81562406,0.11496161,1.5681291,0.36889154
0.0,0.0,0.8,0.0,0.0,0,0.14663321,-0.7610786,2.94846,0.23464428,0.2331034,1.4953088,0.17145464,0.84209293,0.5502397,1.5304942,0.81562406,0.11496161,1.5681291,0.36889154
0.0,0.0,0.8,0.0,0.0,0,0.12877928,-0.7267757,2.977034,0.23647542,0.15847664,1.4814451,-0.42714646,0.76092803,0.30809164,1.5773199,0.8872215,0.39641383,1.5709509,-0.41288862
0.0,0.0,0.8,0.0,0.0,0,0.12877928,-0.7267757,2.977034,0.23647542,0.15847664,1.4814451,-0.42714646,0.76092803,0.30809164,1.5773199,0.8872215,0.39641383,1.5709509,-0.41288862
0.0,0.0,0.8,0.0,0.0,0,0.12877928,-0.7267757,2.977034,0.23647542,0.15847664,1.4814451,-0.42714646,0.76092803,0.30809164,1.5773199,0.8872215,0.39641383,1.5709509,-0.41288862
0.0,0.0,0.8,0.0,0.0,0,0.12877928,-0.7267757,2.977034,0.23647542,0.15847664,1.4814451,-0.42714646,0.76092803,0.30809164,1.5773199,0.8872215,0.39641383,1.5709509,-0.41288862
0.0,0.0,0.8,0.0,0.0,0,0.12877928,-0.7267757,2.977034,0.23647542,0.15847664,1.4814451,-0.42714646,0.76092803,0.30809164,1.5773199,0.8872215,0.39641383,1.5709509,-0.41288862
0.0,0.0,0.8,0.0,0.0,0,0.12877928,-0.7267757,2.977034,0.23647542,0.15847664,1.4814451,-0.42714646,0.76092803,0.30809164,1.5773199,0.8872215,0.39641383,1.5709509,-0.41288862
0.0,0.0,0.8,0.0,0.0,0,0.12877928,-0.7267757,2.977034,0.23647542,0.15847664,1.4814451,-0.42714646,0.76092803,0.30809164,1.5773199,0.8872215,0.39641383,1.5709509,-0.41288862
0.0,0.0,0.8,0.0,0.0,0,0.12877928,-0.7267757,2.977034,0.23647542,0.15847664,1.4814451,-0.42714646,0.76092803,0.30809164,1.5773199,0.8872215,0.39641383,1.5709509,-0.41288862
0.0,0.0,0.8,0.0,0.0,0,0.12877928,-0.7267757,2.977034,0.23647542,0.15847664,1.4814451,-0.42714646,0.76092803,0.30809164,1.5773199,0.8872215,0.39641383,1.5709509,-0.41288862
