sanky1234/BimanualDexCatch/isaacgymenvs/cem_results/May31/football_pose_0.0_0.0_0.9_0.0_0.0_0_2025-06-03.csv
x,y,z,roll,pitch,yaw,robot1/joint1,robot1/joint2,robot1/joint3,robot1/joint4,robot1/joint5,robot1/joint6,robot1/joint7,robot2/joint1,robot2/joint2,robot2/joint3,robot2/joint4,robot2/joint5,robot2/joint6,robot2/joint7
0.0,0.0,0.9,0.0,0.0,0,0.9885626,-1.444206,2.1205332,0.08812663,-0.18460016,1.4870541,-0.12909706,2.237383,-1.2770162,1.108185,0.86524004,-0.33168924,1.1919681,1.0656352
0.0,0.0,0.9,0.0,0.0,0,0.9627883,-1.4448303,2.1425061,0.08009912,-0.21392687,1.4870784,0.07959783,2.226003,-1.2963037,1.0220609,0.91888493,-0.33710942,1.1645373,1.3369644
0.0,0.0,0.9,0.0,0.0,0,0.99624133,-1.4657815,2.1104388,0.08514541,-0.19134456,1.47263,0.021313401,2.2294772,-1.2376325,1.0204616,0.93984246,-0.32422435,1.1645449,2.0019436
0.0,0.0,0.9,0.0,0.0,0,0.96689874,-1.4423219,2.160205,0.060806986,-0.18463051,1.4499725,0.25801456,2.245015,-1.3017528,1.0600035,0.88425446,-0.2760865,1.2352473,0.9947845
0.0,0.0,0.9,0.0,0.0,0,0.9901327,-1.4240084,2.150965,0.060137853,-0.20423444,1.481248,0.022743518,2.2530193,-1.213258,1.0829811,0.9245617,-0.32996872,1.1674117,1.7669233
0.0,0.0,0.9,0.0,0.0,0,0.9985539,-1.4625169,2.1245542,0.1058507,-0.20649578,1.4784214,0.058196954,2.2335582,-1.1918172,1.0337878,0.9040874,-0.28844482,1.1576053,1.5373498
0.0,0.0,0.9,0.0,0.0,0,0.9692414,-1.4525738,2.1425025,0.0968133,-0.17418113,1.4755796,0.010202914,2.2385762,-1.1652074,0.9954875,0.9790322,-0.3507669,1.1872607,1.5778599
0.0,0.0,0.9,0.0,0.0,0,0.9642926,-1.4494524,2.1251562,0.077842705,-0.20645067,1.4310129,-0.1548843,2.235019,-1.1666402,1.0185499,0.9155142,-0.33479694,1.1928431,1.2896746
0.0,0.0,0.9,0.0,0.0,0,0.9511995,-1.4513011,2.1259706,0.07330121,-0.17447583,1.449475,0.07646517,2.2388704,-1.2158864,1.0407426,0.8804418,-0.3389512,1.2073004,0.5104295
0.0,0.0,0.9,0.0,0.0,0,1.0016949,-1.4469455,2.152915,0.08679266,-0.20052408,1.4409784,-0.12445183,2.2513297,-1.1402287,1.0348551,0.9000332,-0.3653734,1.2143762,1.057356
0.0,0.0,0.9,0.0,0.0,0,1.0158172,-1.4343363,2.1571045,0.09001586,-0.20160021,1.4545274,0.016465556,2.2302256,-1.2908804,1.135797,0.8897101,-0.3330299,1.1796525,1.1337498
0.0,0.0,0.9,0.0,0.0,0,0.98160946,-1.445226,2.1696274,0.0853776,-0.20552169,1.4863014,-0.012638886,2.2464993,-1.2634078,1.0908434,0.90475273,-0.31531146,1.1786293,1.4778674
0.0,0.0,0.9,0.0,0.0,0,0.9836498,-1.4494368,2.1477518,0.08545271,-0.18155839,1.4898483,-0.11364611,2.2380915,-1.374914,1.1733795,0.937029,-0.32974434,1.1926199,1.1667542
0.0,0.0,0.9,0.0,0.0,0,1.0072006,-1.4205927,2.1265397,0.090664454,-0.19945854,1.4662553,-0.0421606,2.219113,-1.2744404,1.117632,0.81929916,-0.28453338,1.1826456,0.9892113
0.0,0.0,0.9,0.0,0.0,0,0.96531934,-1.459901,2.16078,0.08370012,-0.176729,1.4446976,0.047167365,2.2556045,-1.3108468,1.0918311,0.93449223,-0.2761434,1.1649227,1.2037582
0.0,0.0,0.9,0.0,0.0,0,0.9748576,-1.4019989,2.1530242,0.08120179,-0.20689206,1.482599,0.12395793,2.2571008,-1.2333446,1.0765512,0.90515053,-0.354554,1.1663636,1.0593541
0.0,0.0,0.9,0.0,0.0,0,1.0018739,-1.4262341,2.105263,0.07598679,-0.20044765,1.4664187,-0.022863578,2.2327838,-1.2989421,1.0410794,0.92846173,-0.27098796,1.1960145,1.3003303
0.0,0.0,0.9,0.0,0.0,0,1.0060209,-1.4658029,2.1493664,0.09329424,-0.23077112,1.4427476,0.13474402,2.233923,-1.1760544,1.0984628,0.8921581,-0.34846961,1.1633732,1.5393971
0.0,0.0,0.9,0.0,0.0,0,0.9489443,-1.4408029,2.123559,0.06379261,-0.17206828,1.4647007,-0.06922864,2.2362242,-1.3460021,1.1351267,0.91358566,-0.28364798,1.1615891,1.2182742
0.0,0.0,0.9,0.0,0.0,0,1.0035377,-1.4458834,2.1549897,0.06875247,-0.17982493,1.4662547,0.0008558659,2.2496028,-1.2215992,1.0602635,0.882328,-0.33085138,1.2151952,1.0725355
0.0,0.0,0.9,0.0,0.0,0,0.98469037,-1.4382263,2.1185117,0.08813983,-0.18493165,1.4855057,-0.020004211,2.2477815,-1.187301,1.0572383,0.8919592,-0.3176623,1.1335227,1.4979485
0.0,0.0,0.9,0.0,0.0,0,0.9728884,-1.4069773,2.1564739,0.07351495,-0.23256391,1.4695839,0.013619799,2.22126,-1.184347,1.0412309,0.9166931,-0.31792998,1.1813906,1.3566085
0.0,0.0,0.9,0.0,0.0,0,1.0159863,-1.4392043,2.1480517,0.053773917,-0.19146174,1.4481639,0.1249992,2.248451,-1.2673035,1.0646638,0.8600847,-0.30928394,1.1932594,1.0286593
0.0,0.0,0.9,0.0,0.0,0,0.9574449,-1.4559218,2.120459,0.09104335,-0.15266693,1.4637712,0.049402446,2.2553036,-1.2282982,1.0407484,0.921685,-0.30981526,1.1844864,1.1409663
0.0,0.0,0.9,0.0,0.0,0,0.981831,-1.3934648,2.101289,0.08318009,-0.17931964,1.4736089,0.1063652,2.2407186,-1.2218642,1.1198388,0.93037623,-0.3254044,1.1674253,1.3432626
0.0,0.0,0.9,0.0,0.0,0,0.9706999,-1.4624089,2.1322181,0.06829438,-0.21219468,1.4747028,0.007816737,2.2419624,-1.1865795,1.066689,0.911749,-0.37881202,1.1874976,1.5883908
0.0,0.0,0.9,0.0,0.0,0,0.95379144,-1.4514236,2.1552126,0.053907346,-0.21121657,1.4964898,-0.034836937,2.2568173,-1.2472768,1.1237444,0.88768774,-0.28549242,1.180254,1.2386681
0.0,0.0,0.9,0.0,0.0,0,0.95820963,-1.4208788,2.1355398,0.07493985,-0.19985591,1.4518443,-0.060028046,2.2420907,-1.2734466,1.0776469,0.91007334,-0.3286,1.1558434,1.5859021
0.0,0.0,0.9,0.0,0.0,0,0.9583195,-1.4209867,2.1289978,0.086117946,-0.18556319,1.4862856,0.03041635,2.2436955,-1.2980504,1.095972,0.9077442,-0.3383092,1.1934872,1.4154308
0.0,0.0,0.9,0.0,0.0,0,0.97241104,-1.3934081,2.1474936,0.10303198,-0.17929402,1.4652245,0.085180804,2.2301314,-1.2905622,1.094203,0.88379604,-0.29802492,1.2136796,1.8231819
0.0,0.0,0.9,0.0,0.0,0,0.94140273,-1.4581358,2.112103,0.09766961,-0.1986541,1.4483908,0.12426523,2.2308557,-1.2639011,1.0744332,0.9261152,-0.34549674,1.2030684,1.3509759
0.0,0.0,0.9,0.0,0.0,0,0.9586077,-1.4327142,2.1394577,0.08956044,-0.19124208,1.4800601,-0.03884076,2.2275436,-1.2666688,0.99621385,0.9450971,-0.2823731,1.2196591,1.2199398
0.0,0.0,0.9,0.0,0.0,0,0.97737277,-1.4388962,2.1359987,0.086330414,-0.18849587,1.4717842,0.0002755026,2.2392128,-1.219104,1.0532587,0.90111667,-0.35579252,1.1926662,1.2381463
0.0,0.0,0.9,0.0,0.0,0,0.9471595,-1.4128991,2.1630497,0.10140384,-0.20642574,1.466675,-0.04325541,2.228686,-1.3111469,1.002359,0.9235574,-0.2735495,1.1198404,0.8244723
0.0,0.0,0.9,0.0,0.0,0,0.9687269,-1.3958815,2.1382678,0.09373893,-0.20132475,1.4930611,-0.010090379,2.2443027,-1.2592536,1.126692,0.9102797,-0.31739315,1.1534673,1.5253854
0.0,0.0,0.9,0.0,0.0,0,0.9617896,-1.4430861,2.132859,0.07929907,-0.18647943,1.4793276,-0.0151435835,2.2350743,-1.3017858,1.0528218,0.9402249,-0.30533573,1.1939881,1.2343719
0.0,0.0,0.9,0.0,0.0,0,0.97236204,-1.4520029,2.119368,0.05797169,-0.18351944,1.4801613,-0.015233002,2.2449942,-1.2980113,1.0177631,0.9379583,-0.27690226,1.1319607,1.2056916
0.0,0.0,0.9,0.0,0.0,0,0.9292278,-1.4304692,2.1497762,0.084308304,-0.18342613,1.4652603,-0.055570144,2.2501812,-1.2270459,1.0511324,0.8779601,-0.3274967,1.1981765,1.4190943
0.0,0.0,0.9,0.0,0.0,0,0.9508816,-1.4283844,2.137063,0.08504542,-0.17167163,1.4707534,0.0037786535,2.25782,-1.3115474,1.1565896,0.90272826,-0.32645416,1.1423112,1.2605187
0.0,0.0,0.9,0.0,0.0,0,0.98604023,-1.3962363,2.1411355,0.07879947,-0.19583175,1.4974992,0.06507335,2.2457075,-1.3078237,1.0827373,0.9436761,-0.3443609,1.1600447,0.87951714
0.0,0.0,0.9,0.0,0.0,0,0.9952249,-1.4261461,2.1398983,0.07419215,-0.17024477,1.4670401,-0.063168764,2.2428057,-1.2888765,1.086173,0.89953077,-0.2919396,1.1556295,1.0013403
0.0,0.0,0.9,0.0,0.0,0,0.96152204,-1.4251139,2.1615288,0.07632972,-0.18636698,1.462072,-0.11350128,2.2477505,-1.2728827,1.06408,0.8920917,-0.3274697,1.1722078,1.0823637
0.0,0.0,0.9,0.0,0.0,0,0.9766344,-1.4502481,2.1629307,0.08708207,-0.20763393,1.4616828,-0.044538736,2.252017,-1.3191042,0.98325056,0.89296687,-0.3151618,1.1716458,0.86015344
0.0,0.0,0.9,0.0,0.0,0,0.93587774,-1.4708742,2.1232493,0.088742435,-0.22884093,1.4902856,-0.0019186185,2.234495,-1.3019218,0.9819327,0.9503689,-0.28183872,1.1714553,0.95591366
0.0,0.0,0.9,0.0,0.0,0,0.97782016,-1.4451385,2.167517,0.046229053,-0.14635943,1.4880214,0.008436344,2.2422628,-1.2425959,1.1334434,0.8421611,-0.2929243,1.2110294,1.1475784
0.0,0.0,0.9,0.0,0.0,0,0.95897967,-1.4167356,2.1436226,0.080377646,-0.17246597,1.4639825,-0.041783616,2.2503197,-1.2431146,1.1161685,0.88288605,-0.3492263,1.1807916,0.9633047
0.0,0.0,0.9,0.0,0.0,0,0.96896327,-1.3958768,2.1458745,0.091889165,-0.21836135,1.49246,0.15192226,2.2589512,-1.2569255,1.0187347,0.88970244,-0.2805327,1.2264996,1.2202386
0.0,0.0,0.9,0.0,0.0,0,0.9754758,-1.437423,2.1551938,0.07894413,-0.23482837,1.4708574,-0.13123396,2.2448041,-1.3020656,1.0592457,0.91437835,-0.27488804,1.1799278,1.5291536
0.0,0.0,0.9,0.0,0.0,0,0.97496545,-1.411013,2.1379373,0.071652405,-0.18333343,1.4846095,0.0413735,2.2261806,-1.2189289,1.0068222,0.9290889,-0.2995751,1.1921458,1.0755515
0.0,0.0,0.9,0.0,0.0,0,0.9743854,-1.4393342,2.1742227,0.079071164,-0.18315728,1.475516,0.11526236,2.235552,-1.1956857,1.1435,0.89186037,-0.3225738,1.1918765,1.2629254
0.0,0.0,0.9,0.0,0.0,0,1.023293,-1.4436716,2.1324785,0.040922605,-0.19316128,1.4936317,-0.10346085,2.2211373,-1.2825314,1.0815753,0.9686336,-0.36834484,1.1579123,0.7698059
0.0,0.0,0.9,0.0,0.0,0,1.0230674,-1.4418921,2.1291416,0.07039414,-0.2089592,1.475058,-0.04243418,2.249809,-1.2022159,1.0301362,0.890032,-0.33637232,1.1903442,1.0784996
0.0,0.0,0.9,0.0,0.0,0,0.9655055,-1.4226505,2.1546257,0.06868724,-0.19076604,1.4831288,-0.03587896,2.248603,-1.2854306,1.0071719,0.9133109,-0.23146328,1.1555285,1.1773356
0.0,0.0,0.9,0.0,0.0,0,0.9653332,-1.4650381,2.1472428,0.09122652,-0.21077542,1.4624294,-0.03443643,2.2321885,-1.2215766,0.98366314,0.9179206,-0.22283539,1.1949823,1.4029638
0.0,0.0,0.9,0.0,0.0,0,0.95303106,-1.4318184,2.1447544,0.08631315,-0.18673503,1.483304,-0.09845233,2.245705,-1.209156,1.0415031,0.89989805,-0.34713295,1.2050399,0.6765446
0.0,0.0,0.9,0.0,0.0,0,0.97886205,-1.4740505,2.1555288,0.05943016,-0.20935528,1.4476337,-0.065108605,2.2338057,-1.3163334,1.1256992,0.9364298,-0.31480405,1.1856691,1.5061373
0.0,0.0,0.9,0.0,0.0,0,1.0052835,-1.4255,2.1302264,0.0832177,-0.198524,1.4498287,0.018736092,2.240351,-1.2290262,1.0369728,0.88845605,-0.35249338,1.1762894,1.0348607
0.0,0.0,0.9,0.0,0.0,0,0.9859025,-1.446291,2.1201186,0.07661299,-0.21372686,1.4558713,0.10137657,2.2414286,-1.2080199,1.1454203,0.8711545,-0.32562333,1.2136599,1.7078727
0.0,0.0,0.9,0.0,0.0,0,1.0094525,-1.4446344,2.1299417,0.06483824,-0.21377788,1.4416062,-0.08008252,2.2399676,-1.2967417,1.0900111,0.932098,-0.3277409,1.2041383,0.8829884
0.0,0.0,0.9,0.0,0.0,0,0.9625822,-1.4144963,2.1599433,0.04980271,-0.16412167,1.5114089,-0.19120333,2.2538967,-1.2465683,1.0522106,0.92871594,-0.29176334,1.2160197,1.3711746
0.0,0.0,0.9,0.0,0.0,0,0.96972746,-1.3787748,2.1290262,0.06617798,-0.2251114,1.4686394,0.15851265,2.228673,-1.170492,0.99706876,0.9120111,-0.26090246,1.1701558,1.2049832
0.0,0.0,0.9,0.0,0.0,0,0.9500317,-1.4250815,2.1433403,0.092104524,-0.18542881,1.4825227,0.10454339,2.2507083,-1.2339295,1.0838484,0.89371175,-0.32917243,1.2240509,0.8429581
0.0,0.0,0.9,0.0,0.0,0,0.99728763,-1.4697171,2.1363664,0.067457944,-0.19292538,1.47964,0.07783365,2.2551224,-1.2551914,1.0303748,0.90081596,-0.28219998,1.179469,1.4553832
0.0,0.0,0.9,0.0,0.0,0,0.9860177,-1.4393878,2.1072443,0.06879779,-0.1668893,1.4833654,0.049773645,2.243266,-1.22625,1.1119201,0.890996,-0.29436263,1.1156347,1.4575597
0.0,0.0,0.9,0.0,0.0,0,0.9522777,-1.4336551,2.119805,0.107427575,-0.17456084,1.4542274,0.037030086,2.2550688,-1.2239391,1.0190294,0.92686445,-0.32746717,1.2094173,1.1353921
0.0,0.0,0.9,0.0,0.0,0,0.95930284,-1.4204605,2.1381545,0.082440846,-0.18563125,1.492905,-0.06659449,2.224999,-1.2341901,1.0805633,0.9245065,-0.31340504,1.2116294,1.6739131
0.0,0.0,0.9,0.0,0.0,0,0.98608184,-1.4470819,2.1545582,0.06697226,-0.20632243,1.4911357,-0.16961123,2.2448711,-1.2461954,1.0616102,0.9131607,-0.29830235,1.1479509,1.2856873
0.0,0.0,0.9,0.0,0.0,0,0.98346925,-1.4733313,2.1317482,0.095651306,-0.19077823,1.4755821,-0.07843374,2.2130682,-1.2854563,1.014081,0.9083984,-0.26665673,1.1806785,1.1235286
0.0,0.0,0.9,0.0,0.0,0,0.9710967,-1.4460872,2.127993,0.08442425,-0.16906346,1.4460013,-0.1480706,2.2426627,-1.2328463,1.0601496,0.85846245,-0.3288406,1.1507483,1.9779137
0.0,0.0,0.9,0.0,0.0,0,0.9398704,-1.4451718,2.144283,0.07325779,-0.18995523,1.4650009,-0.011966946,2.2495677,-1.334257,1.1289544,0.931685,-0.34571812,1.2152234,1.0552583
0.0,0.0,0.9,0.0,0.0,0,0.9998258,-1.4564757,2.1489654,0.08367611,-0.24908786,1.4670889,-0.118374445,2.2430153,-1.2540296,1.1439897,0.9419758,-0.35065293,1.2029388,1.4331604
0.0,0.0,0.9,0.0,0.0,0,0.97004175,-1.4445268,2.1529708,0.075094424,-0.21960536,1.459537,-0.026248828,2.2513816,-1.2387561,1.0793875,0.9158964,-0.30353913,1.1738338,1.5578634
0.0,0.0,0.9,0.0,0.0,0,1.016315,-1.4502361,2.1528473,0.074201405,-0.18070832,1.4861077,0.03570981,2.2467449,-1.2806218,1.1556673,0.86509746,-0.3244453,1.1780921,0.89082193
0.0,0.0,0.9,0.0,0.0,0,0.9746051,-1.4448924,2.1590674,0.10852573,-0.1826784,1.474971,0.060590513,2.237563,-1.2826285,1.0214592,0.8940737,-0.3163358,1.1427828,1.3826668
0.0,0.0,0.9,0.0,0.0,0,1.0106347,-1.425084,2.1272328,0.09345893,-0.14814694,1.4481322,-0.05120911,2.263361,-1.2856202,1.1047468,0.93288064,-0.35113975,1.1298448,1.6103778
0.0,0.0,0.9,0.0,0.0,0,0.96063906,-1.457884,2.1579175,0.07228247,-0.1966,1.4763112,-0.043146417,2.24224,-1.2339561,1.0165224,0.94408655,-0.28841674,1.1902952,1.8728181
0.0,0.0,0.9,0.0,0.0,0,0.9656976,-1.4364613,2.1246428,0.07307219,-0.20110933,1.4521447,-0.1923306,2.2530994,-1.2258444,1.0781344,0.90876377,-0.33471262,1.2002286,1.212563
0.0,0.0,0.9,0.0,0.0,0,0.9721486,-1.4444059,2.1354537,0.08404314,-0.21915756,1.5082358,-0.1950799,2.2282865,-1.3123018,1.0991129,0.91886663,-0.31086808,1.1439211,1.0791532
0.0,0.0,0.9,0.0,0.0,0,1.0024794,-1.4256135,2.1372368,0.107665226,-0.1742507,1.4470257,0.12813982,2.2433825,-1.3063481,0.961873,0.949662,-0.25871405,1.217419,1.4594977
0.0,0.0,0.9,0.0,0.0,0,1.0056101,-1.462242,2.1700563,0.10483258,-0.16292569,1.4963081,0.005094957,2.2348032,-1.244821,1.0507146,0.96530163,-0.31435168,1.1673942,1.5276248
0.0,0.0,0.9,0.0,0.0,0,1.0014774,-1.3739867,2.1445687,0.07515593,-0.20617111,1.5062644,0.06590745,2.228865,-1.2338881,1.0690614,0.89246035,-0.3442799,1.2054845,1.7878261
0.0,0.0,0.9,0.0,0.0,0,0.99179745,-1.4419212,2.1581721,0.059671823,-0.18289194,1.4844724,-0.14651528,2.2445614,-1.2509457,0.9762577,0.9425056,-0.2999594,1.237859,1.4589844
0.0,0.0,0.9,0.0,0.0,0,0.94735676,-1.4071949,2.1388721,0.079024285,-0.16137908,1.4930608,-0.12277143,2.276895,-1.2225045,0.9279615,0.89613765,-0.3233703,1.1704848,1.5278761
0.0,0.0,0.9,0.0,0.0,0,0.9493857,-1.3985643,2.1212568,0.061038017,-0.15874705,1.4745402,-0.19446658,2.2150414,-1.1816267,1.0135193,0.9135571,-0.3421198,1.1450392,0.847733
0.0,0.0,0.9,0.0,0.0,0,0.97547364,-1.4321743,2.1319704,0.06882612,-0.18761492,1.4955633,0.042012975,2.242268,-1.3039606,1.1214299,0.8964542,-0.2705446,1.172151,1.3213917
0.0,0.0,0.9,0.0,0.0,0,0.9778689,-1.424282,2.124559,0.074935764,-0.17141719,1.4829183,-0.049448647,2.2306683,-1.1949168,1.0690851,0.9073838,-0.32519412,1.1779981,1.8674861
0.0,0.0,0.9,0.0,0.0,0,0.97654545,-1.4271376,2.123877,0.11037916,-0.16287018,1.4411917,-0.007464269,2.2532656,-1.2400724,1.0291476,0.9056098,-0.34097055,1.2073164,1.6256764
0.0,0.0,0.9,0.0,0.0,0,0.9719148,-1.4014773,2.1581604,0.08219517,-0.14262557,1.4469013,-0.049473163,2.2365506,-1.2060204,1.0462782,0.935237,-0.28713804,1.1480517,1.8356217
0.0,0.0,0.9,0.0,0.0,0,0.9455616,-1.4433541,2.1278038,0.10391846,-0.18378198,1.4640675,0.022063436,2.2451422,-1.234467,1.0472553,0.90695584,-0.3121288,1.1709256,1.477205
0.0,0.0,0.9,0.0,0.0,0,0.99244624,-1.4633968,2.170458,0.09614944,-0.17909183,1.4676869,0.20199762,2.2391913,-1.260502,1.070627,0.8901782,-0.2845826,1.2025772,1.0805603
0.0,0.0,0.9,0.0,0.0,0,0.9950134,-1.4174234,2.1335053,0.07387942,-0.18071267,1.4780061,0.095863156,2.2281628,-1.2239227,1.1448056,0.88376904,-0.32493567,1.1545861,1.3843795
0.0,0.0,0.9,0.0,0.0,0,1.0063695,-1.4405456,2.1485271,0.064741015,-0.2002363,1.4839327,-0.02957661,2.2268665,-1.2286537,1.0200458,0.89306784,-0.28187376,1.1961938,1.3530692
0.0,0.0,0.9,0.0,0.0,0,0.9617872,-1.409155,2.1314464,0.10576507,-0.22624192,1.4662539,0.0028117273,2.2367554,-1.2320963,0.9751396,0.91625303,-0.28301802,1.1783803,1.1828902
0.0,0.0,0.9,0.0,0.0,0,0.9864246,-1.4166214,2.1507745,0.09882412,-0.18471764,1.5026078,-0.09042118,2.2255049,-1.2059629,1.0467987,0.9202594,-0.32061836,1.1533372,1.238642
0.0,0.0,0.9,0.0,0.0,0,0.97866213,-1.4517372,2.143794,0.094277814,-0.16785389,1.4651521,0.07675264,2.2407594,-1.2102804,1.1862407,0.95731294,-0.4326386,1.1351804,1.0267481
0.0,0.0,0.9,0.0,0.0,0,0.9813776,-1.41882,2.1574621,0.08266656,-0.20886794,1.5132475,0.02214951,2.2322183,-1.2489648,0.99953806,0.89620167,-0.2960681,1.1938444,1.3127023
0.0,0.0,0.9,0.0,0.0,0,0.9835126,-1.4374259,2.1272137,0.05960359,-0.18040617,1.5107458,0.16813421,2.2399619,-1.2178789,1.086155,0.9140585,-0.3486364,1.13762,1.0685594
0.0,0.0,0.9,0.0,0.0,0,0.93516725,-1.4354993,2.164106,0.07473564,-0.1917962,1.4804994,0.15337396,2.2361252,-1.2768712,1.1021222,0.9285175,-0.26976478,1.2371656,1.670793
0.0,0.0,0.9,0.0,0.0,0,0.96425074,-1.4277083,2.1505754,0.07394511,-0.21096785,1.4543008,0.09240183,2.2403266,-1.2585753,1.0078424,0.92602986,-0.3258335,1.1620698,1.4079145
0.0,0.0,0.9,0.0,0.0,0,0.9740388,-1.4112378,2.1317983,0.070183754,-0.17345664,1.4809885,-0.047640465,2.2400737,-1.2566875,1.0634477,0.948077,-0.33797243,1.1856949,1.4276016
0.0,0.0,0.9,0.0,0.0,0,0.9990645,-1.4384924,2.1433046,0.062177822,-0.17143486,1.4807558,0.15542787,2.2253795,-1.3382611,1.0321122,0.94639,-0.2666425,1.2461973,0.96280265
0.0,0.0,0.9,0.0,0.0,0,0.9893243,-1.4493493,2.1387444,0.08572611,-0.16603972,1.4232969,-0.113713525,2.2515738,-1.1901193,0.99785906,0.8781526,-0.33822677,1.2054793,1.3696326
0.0,0.0,0.9,0.0,0.0,0,0.94691813,-1.4212624,2.1661267,0.0856617,-0.19777694,1.4894233,-0.1224944,2.2563903,-1.2880789,1.0907406,0.8755568,-0.28634456,1.2332336,1.4441849
0.0,0.0,0.9,0.0,0.0,0,0.96671104,-1.4136662,2.1494322,0.10214673,-0.166577,1.4709872,0.013898207,2.2385674,-1.200296,1.129718,0.9273591,-0.34116164,1.1702611,1.3051771
0.0,0.0,0.9,0.0,0.0,0,0.9879702,-1.4068621,2.1459281,0.09089254,-0.19633298,1.4713566,-0.061407614,2.2614744,-1.159911,1.0874068,0.91001326,-0.4052472,1.233632,0.8515266
0.0,0.0,0.9,0.0,0.0,0,1.0197088,-1.4412825,2.1653674,0.053001504,-0.17408255,1.4746499,0.09528293,2.2320368,-1.2292099,0.99305624,0.91602695,-0.31059974,1.2335349,1.4877057
0.0,0.0,0.9,0.0,0.0,0,0.9748103,-1.3952816,2.1413345,0.07448555,-0.18870229,1.4871637,-0.10967351,2.2368762,-1.2585539,1.0268997,0.8922313,-0.32845473,1.1845578,1.1187006
0.0,0.0,0.9,0.0,0.0,0,0.97246903,-1.4377898,2.1180556,0.06994663,-0.1889219,1.4715691,0.15885168,2.2318919,-1.2347807,1.0895072,0.89869565,-0.26254752,1.1650414,1.7484992
0.0,0.0,0.9,0.0,0.0,0,0.9586872,-1.4279902,2.1722982,0.06390385,-0.18107864,1.4892046,0.050888862,2.2446814,-1.2982152,1.0596277,0.882792,-0.2971742,1.1874305,0.75595415
0.0,0.0,0.9,0.0,0.0,0,0.9804462,-1.4402597,2.2106805,0.05806555,-0.20202985,1.4722406,0.13695602,2.237864,-1.2526536,1.01312,0.9438764,-0.25861898,1.14641,1.5365996
0.0,0.0,0.9,0.0,0.0,0,0.9483306,-1.3942626,2.1628773,0.072058305,-0.17713739,1.4930402,-0.036436465,2.217051,-1.1872689,0.9716022,0.9371461,-0.32072985,1.1465929,1.1368809
0.0,0.0,0.9,0.0,0.0,0,1.00791,-1.4684192,2.1502922,0.06174931,-0.19984047,1.4647716,-0.0034614953,2.253177,-1.1800435,1.00808,0.92671746,-0.30727604,1.1959628,1.3615189
0.0,0.0,0.9,0.0,0.0,0,1.0154905,-1.4446404,2.1455982,0.08194875,-0.20334582,1.4859761,-0.046317484,2.2472432,-1.3266494,1.0003449,0.9572661,-0.24425857,1.189359,0.7701847
0.0,0.0,0.9,0.0,0.0,0,0.95737773,-1.4198278,2.13981,0.09324237,-0.2141442,1.4933165,-0.038318083,2.2302725,-1.1694323,1.1415364,0.91092926,-0.40039167,1.1982485,1.0776162
0.0,0.0,0.9,0.0,0.0,0,0.96898645,-1.4184524,2.1359818,0.0712079,-0.23049553,1.4561384,-0.019208448,2.2504249,-1.244994,1.0236923,0.9432411,-0.2824412,1.1793656,1.2226498
0.0,0.0,0.9,0.0,0.0,0,0.9642325,-1.4216927,2.132232,0.082964644,-0.20735346,1.4471098,-0.06125236,2.2487335,-1.2651931,0.99294895,0.9527794,-0.329356,1.2180455,1.349106
0.0,0.0,0.9,0.0,0.0,0,0.9729366,-1.4767345,2.1398575,0.070179075,-0.21045233,1.4740908,0.091215245,2.1999183,-1.2913584,1.0616323,0.9160984,-0.31419498,1.1670167,0.7236388
0.0,0.0,0.9,0.0,0.0,0,0.96215224,-1.46308,2.127703,0.06845792,-0.19630213,1.4662906,-0.013899364,2.2536416,-1.2439122,0.98727965,0.92510754,-0.34403005,1.211262,1.2960516
0.0,0.0,0.9,0.0,0.0,0,0.989366,-1.440096,2.1645765,0.05688175,-0.20293252,1.437459,0.049178123,2.2247915,-1.2847369,1.0774422,0.8896181,-0.31444266,1.1815497,1.3304356
0.0,0.0,0.9,0.0,0.0,0,0.9717833,-1.4516112,2.1408713,0.08755143,-0.19470821,1.4635415,-0.08274401,2.2379196,-1.1898029,1.028538,0.8892181,-0.3588211,1.1930244,0.7551263
0.0,0.0,0.9,0.0,0.0,0,0.946331,-1.433056,2.1473792,0.06768609,-0.2034838,1.4865726,-0.04396397,2.256461,-1.2322001,0.9417918,0.8926475,-0.25144285,1.2224598,1.084291
0.0,0.0,0.9,0.0,0.0,0,0.9738254,-1.425222,2.1247,0.09121833,-0.20708975,1.4696076,0.16218258,2.2344792,-1.2093651,0.97972834,0.94702065,-0.32698083,1.1552798,1.5821098
0.0,0.0,0.9,0.0,0.0,0,1.0089931,-1.445929,2.1035028,0.07510919,-0.19858134,1.4472989,-0.09238151,2.235846,-1.3388642,1.0801765,0.9070469,-0.3044222,1.1570333,1.2201165
0.0,0.0,0.9,0.0,0.0,0,0.95434844,-1.4352987,2.1189651,0.06340297,-0.16412415,1.4505275,-0.0096097095,2.250503,-1.1240797,0.95581335,0.91431195,-0.32949394,1.1657112,1.1647506
0.0,0.0,0.9,0.0,0.0,0,0.9799144,-1.445527,2.1282191,0.08914133,-0.19175293,1.4425082,0.024577398,2.2423947,-1.369154,1.0706255,0.9038826,-0.26502913,1.2156372,1.8589739
0.0,0.0,0.9,0.0,0.0,0,0.966252,-1.4328154,2.1425996,0.090746395,-0.18543337,1.4672987,0.09174196,2.2355895,-1.2358279,1.1141706,0.95067686,-0.3662786,1.1795961,0.89942956
0.0,0.0,0.9,0.0,0.0,0,0.960786,-1.4082502,2.1289015,0.07025381,-0.16497535,1.4747255,-0.006167768,2.2453318,-1.2261397,1.012916,0.9514845,-0.33844212,1.1534611,0.9339955
0.0,0.0,0.9,0.0,0.0,0,1.0183243,-1.4548075,2.130032,0.07846708,-0.21920878,1.4993439,0.051628474,2.242235,-1.2808976,1.0305282,0.90726763,-0.26701117,1.1492553,1.4836276
0.0,0.0,0.9,0.0,0.0,0,0.9497942,-1.4569153,2.1637356,0.07520369,-0.17785165,1.4536085,0.086930394,2.2387424,-1.2299508,0.9462423,0.92752093,-0.29715905,1.1706301,0.7942832
0.0,0.0,0.9,0.0,0.0,0,0.9813133,-1.4386413,2.1431751,0.09609353,-0.1821968,1.4637166,0.14369676,2.2532868,-1.3117609,1.0686071,0.9095164,-0.2892527,1.1643796,1.9776537
0.0,0.0,0.9,0.0,0.0,0,0.97459704,-1.4051247,2.1284804,0.07355678,-0.22878885,1.4776843,-0.082895294,2.2190645,-1.2626001,1.0229232,0.9506225,-0.28323945,1.1878668,1.2487872
0.0,0.0,0.9,0.0,0.0,0,0.9883171,-1.3874681,2.139505,0.05331015,-0.19319138,1.4615648,0.031152211,2.226315,-1.1699169,1.0937148,0.9128624,-0.36649284,1.1461524,0.86206234
0.0,0.0,0.9,0.0,0.0,0,0.959443,-1.4610724,2.1483223,0.0937516,-0.18307781,1.4690982,0.09218767,2.2434852,-1.287833,1.0247797,0.95767957,-0.36152723,1.1864872,1.674616
0.0,0.0,0.9,0.0,0.0,0,0.96748424,-1.4237635,2.1722984,0.073949926,-0.14028871,1.4483976,-0.24331622,2.2483592,-1.2648462,1.0928348,0.8965133,-0.3322608,1.150154,0.6475192
0.0,0.0,0.9,0.0,0.0,0,0.9401127,-1.432733,2.098235,0.09571272,-0.17987595,1.4651111,0.027143493,2.235015,-1.1442146,1.0842028,0.9033651,-0.3578791,1.1897309,1.5098563
0.0,0.0,0.9,0.0,0.0,0,0.9627872,-1.4484918,2.1723378,0.06837214,-0.24880996,1.4671857,0.18106519,2.2129977,-1.2847774,1.0743566,0.8711543,-0.30315182,1.1510183,0.92894536
0.0,0.0,0.9,0.0,0.0,0,0.9465305,-1.4608892,2.1454642,0.06338525,-0.17934105,1.4598782,0.019699631,2.242887,-1.2431846,1.0900983,0.909631,-0.32373008,1.1787415,1.143812
0.0,0.0,0.9,0.0,0.0,0,0.9600595,-1.4592826,2.137753,0.07989537,-0.18697537,1.4655051,0.26403394,2.2551434,-1.2111051,1.1229818,0.93558055,-0.33115017,1.2164932,1.2882609
0.0,0.0,0.9,0.0,0.0,0,0.97031814,-1.4150261,2.1363566,0.051768947,-0.20593835,1.4505442,-0.007496525,2.243764,-1.3379879,1.0485024,0.89766675,-0.25321212,1.2014366,1.7804469
0.0,0.0,0.9,0.0,0.0,0,0.98391455,-1.4600618,2.121596,0.090746224,-0.17606463,1.4782265,0.026795188,2.2241445,-1.2907873,1.0831693,0.8828525,-0.28421298,1.1678618,1.2729298
0.0,0.0,0.9,0.0,0.0,0,1.0147649,-1.4632884,2.1543856,0.08898949,-0.21913144,1.4711633,0.048579253,2.236148,-1.3803644,1.0248394,0.9169968,-0.23908454,1.1612537,0.9903723
0.0,0.0,0.9,0.0,0.0,0,0.9686933,-1.417957,2.172704,0.08640267,-0.17674722,1.458324,0.027825348,2.2378156,-1.2906891,1.1492815,0.95939523,-0.3520916,1.2024926,0.5408156
0.0,0.0,0.9,0.0,0.0,0,0.9670049,-1.4366874,2.1314404,0.08047579,-0.17931013,1.4899241,0.11475802,2.2373114,-1.2595417,1.0096861,0.9206255,-0.27174744,1.2000331,1.4056294
0.0,0.0,0.9,0.0,0.0,0,0.99307406,-1.4123399,2.1326501,0.07255254,-0.20372897,1.4755409,0.14137016,2.2476647,-1.226698,0.97256374,0.9259816,-0.2780887,1.1805403,1.2633342
0.0,0.0,0.9,0.0,0.0,0,0.9606096,-1.438022,2.1399026,0.093644366,-0.16798832,1.4629815,0.042568974,2.2386637,-1.2367569,1.0233172,0.9213868,-0.2751627,1.1710246,1.4230049
0.0,0.0,0.9,0.0,0.0,0,0.9503899,-1.4088498,2.162205,0.10340608,-0.15665369,1.467826,-0.16236004,2.2397993,-1.2621145,1.0338728,0.85619086,-0.3484542,1.209959,1.0185235
0.0,0.0,0.9,0.0,0.0,0,0.977979,-1.4506739,2.1358976,0.09555754,-0.16109873,1.4651465,0.008056992,2.2321424,-1.1900419,1.0847598,0.8753226,-0.32178816,1.1907296,1.085576
0.0,0.0,0.9,0.0,0.0,0,0.98253304,-1.4756324,2.1357439,0.073373325,-0.18430813,1.4628053,0.047774248,2.225598,-1.2755723,1.1618904,0.8962266,-0.34383944,1.1770095,1.102881
0.0,0.0,0.9,0.0,0.0,0,0.9707787,-1.4093065,2.1576092,0.073987335,-0.16686451,1.4666283,-0.024160225,2.251489,-1.2106847,1.0504117,0.89374834,-0.31797668,1.1727462,0.9305749
0.0,0.0,0.9,0.0,0.0,0,0.9270564,-1.4420611,2.185433,0.07759399,-0.20411812,1.4616735,-0.06115766,2.2396712,-1.215047,1.0922173,0.9301056,-0.3285892,1.1628146,0.8822144
0.0,0.0,0.9,0.0,0.0,0,0.97397095,-1.4365447,2.1765022,0.07567794,-0.20753603,1.4606031,0.116586395,2.219977,-1.2383206,1.0173714,0.9146568,-0.3019492,1.1662499,1.191081
0.0,0.0,0.9,0.0,0.0,0,0.97202235,-1.4052652,2.134246,0.0510854,-0.16716409,1.47467,-0.16933331,2.2306218,-1.2175691,1.0110453,0.95245665,-0.33549458,1.1845924,1.1062598
0.0,0.0,0.9,0.0,0.0,0,0.9475791,-1.4632788,2.1298256,0.07387561,-0.17446849,1.4791229,0.04947387,2.252113,-1.16446,1.0289627,0.8396578,-0.31143755,1.2148538,1.1040871
0.0,0.0,0.9,0.0,0.0,0,0.9778449,-1.4776407,2.1445837,0.075315244,-0.19733247,1.4766992,-0.08256485,2.2425907,-1.4012749,1.014107,0.9062162,-0.27637845,1.2310466,1.1682104
0.0,0.0,0.9,0.0,0.0,0,0.96260476,-1.4239215,2.1494122,0.07464791,-0.16244689,1.4635541,-0.08612705,2.2502012,-1.1872206,1.0292546,0.9555119,-0.31699347,1.1724837,1.1592588
0.0,0.0,0.9,0.0,0.0,0,0.9717585,-1.4246491,2.1158485,0.06411643,-0.21145962,1.482113,-0.007027373,2.248665,-1.3210403,1.1386805,0.89029443,-0.2989539,1.1536534,0.91884875
0.0,0.0,0.9,0.0,0.0,0,0.9755356,-1.4819223,2.1488452,0.07517679,-0.21231256,1.486602,-0.026142096,2.2530916,-1.2489104,1.0950058,0.96571904,-0.36963502,1.2026852,0.7893438
0.0,0.0,0.9,0.0,0.0,0,1.010474,-1.4132586,2.1219087,0.07312676,-0.2048993,1.5015541,-0.08964696,2.259621,-1.3562878,1.0574963,0.9091059,-0.29902062,1.182156,1.1277311
0.0,0.0,0.9,0.0,0.0,0,0.97740185,-1.418338,2.162617,0.052671827,-0.22064942,1.4996896,0.12349145,2.2301555,-1.2883577,1.0744164,0.8815816,-0.23093224,1.1999074,1.15645
0.0,0.0,0.9,0.0,0.0,0,0.9697113,-1.424065,2.1315567,0.05587899,-0.1717597,1.4801918,0.034731396,2.2339642,-1.2585119,1.0532845,0.8858748,-0.26107287,1.194785,1.476679
0.0,0.0,0.9,0.0,0.0,0,0.9697925,-1.4809955,2.1218202,0.05541264,-0.18582183,1.4672982,-0.14542924,2.2599218,-1.3105979,1.0889338,0.9112565,-0.26953146,1.1584849,1.1511426
0.0,0.0,0.9,0.0,0.0,0,0.93303674,-1.4724131,2.1522071,0.08531974,-0.18447208,1.4661375,0.028077947,2.233391,-1.2889965,1.0827992,0.87424505,-0.30184546,1.213485,1.7676013
0.0,0.0,0.9,0.0,0.0,0,0.9121466,-1.4612362,2.1559222,0.08432838,-0.16200677,1.4842317,-0.03574715,2.249959,-1.2192527,1.0754126,0.93665385,-0.2917266,1.2184526,1.4160912
0.0,0.0,0.9,0.0,0.0,0,0.9537122,-1.4395881,2.1323109,0.08009653,-0.18470064,1.4411323,0.009019508,2.2410479,-1.2536274,0.99842304,0.8675603,-0.23368005,1.1496894,1.2127178
0.0,0.0,0.9,0.0,0.0,0,1.0080117,-1.4787384,2.1487195,0.091628455,-0.20451383,1.4880235,0.002617055,2.2579737,-1.3138957,1.0779754,0.9154002,-0.26224843,1.1776953,1.3648837
0.0,0.0,0.9,0.0,0.0,0,0.97105694,-1.4684725,2.1454732,0.0733969,-0.19852555,1.4577396,-0.037020177,2.2443664,-1.1669288,1.0387768,0.8896163,-0.32028282,1.2076575,1.5216396
0.0,0.0,0.9,0.0,0.0,0,1.000865,-1.4096634,2.1261017,0.09352585,-0.1960276,1.4812242,0.06904664,2.2268782,-1.2772707,1.0824721,0.9316287,-0.31290078,1.1726109,1.143746
0.0,0.0,0.9,0.0,0.0,0,0.99016786,-1.4194717,2.1601825,0.05784298,-0.2015044,1.5057143,-0.109301485,2.2410276,-1.247193,1.0249306,0.94514114,-0.32117835,1.1982813,1.3303101
0.0,0.0,0.9,0.0,0.0,0,0.96958095,-1.4501101,2.147976,0.0728477,-0.15055199,1.4980408,-0.09374139,2.2341027,-1.2531016,1.1187716,0.9070877,-0.30857512,1.1382006,1.1294402
0.0,0.0,0.9,0.0,0.0,0,0.9851013,-1.4002582,2.1602464,0.08704142,-0.17588818,1.4543346,0.121909164,2.242393,-1.2024535,1.1050563,0.9050196,-0.33430496,1.179243,1.3375558
0.0,0.0,0.9,0.0,0.0,0,0.96649265,-1.4275392,2.144539,0.08532621,-0.19491425,1.439248,-0.0011793766,2.265243,-1.1327393,1.0660316,0.8658621,-0.31879967,1.2178524,1.2009
0.0,0.0,0.9,0.0,0.0,0,1.01257,-1.3914753,2.1275237,0.10836841,-0.1902159,1.4883394,-0.05365412,2.2331035,-1.2832904,1.1134664,0.88652784,-0.2852348,1.1857024,1.2793235
0.0,0.0,0.9,0.0,0.0,0,0.94066614,-1.4124168,2.1653457,0.08753516,-0.19264151,1.4868927,-0.028275995,2.2449658,-1.2800256,1.0454061,0.9320758,-0.26430634,1.2179111,0.86649394
0.0,0.0,0.9,0.0,0.0,0,1.014384,-1.477117,2.1469753,0.071891785,-0.16277002,1.4836556,0.1297625,2.2378118,-1.1720189,1.1063752,0.89922714,-0.30522633,1.2040497,1.3861537
0.0,0.0,0.9,0.0,0.0,0,1.006659,-1.40426,2.1344728,0.07354132,-0.18970102,1.4857101,-0.11000275,2.244929,-1.2439655,1.0027822,0.89493674,-0.27981064,1.1398368,0.767359
0.0,0.0,0.9,0.0,0.0,0,1.0006058,-1.4606152,2.1521003,0.08437126,-0.19670075,1.4873167,-0.018177997,2.2386622,-1.2559406,1.070433,0.9293365,-0.26764375,1.1865456,1.0532637
0.0,0.0,0.9,0.0,0.0,0,0.9885443,-1.4427372,2.131426,0.104232036,-0.20158587,1.4673688,-0.10702402,2.2339404,-1.3142081,1.1762763,0.85427225,-0.3017372,1.2041266,1.126271
0.0,0.0,0.9,0.0,0.0,0,0.9463565,-1.4605209,2.1141512,0.07456543,-0.17950065,1.5077673,-0.040363986,2.2429569,-1.2565113,1.112822,0.8734226,-0.27644473,1.1754826,0.99639034
0.0,0.0,0.9,0.0,0.0,0,0.98886704,-1.4614865,2.1619158,0.076075904,-0.16040131,1.5058163,-0.026834652,2.2301195,-1.208188,1.0786461,0.8993157,-0.24917611,1.1789176,1.4424114
0.0,0.0,0.9,0.0,0.0,0,0.97843194,-1.4520277,2.1554623,0.104396924,-0.20445706,1.469267,-0.0779915,2.234413,-1.2610973,1.0613861,0.9251566,-0.28582636,1.1985598,1.0594349
0.0,0.0,0.9,0.0,0.0,0,0.97211564,-1.4659733,2.154074,0.064910285,-0.1963384,1.4791185,-0.00028484696,2.2289824,-1.2292318,1.0941888,0.89703286,-0.3067756,1.1953543,1.349628
0.0,0.0,0.9,0.0,0.0,0,0.9878573,-1.4174856,2.1251287,0.08351036,-0.18886216,1.4390242,0.0040410776,2.2433991,-1.2511091,1.1441889,0.92908347,-0.2563821,1.2144091,1.6095986
0.0,0.0,0.9,0.0,0.0,0,0.98632246,-1.386514,2.157034,0.096387684,-0.20740283,1.4746629,-0.21215221,2.2387865,-1.1688284,1.0479165,0.9427177,-0.3189032,1.171385,2.1002805
0.0,0.0,0.9,0.0,0.0,0,0.920965,-1.4899676,2.145557,0.09973425,-0.19124334,1.4499574,-0.0033903914,2.2493913,-1.3075463,1.0433322,0.9036652,-0.3090151,1.1291232,1.0532334
0.0,0.0,0.9,0.0,0.0,0,0.96622074,-1.4826938,2.145135,0.06238673,-0.17739981,1.4760864,0.09134169,2.2301774,-1.240544,0.9132689,0.927179,-0.29627833,1.2218679,1.3320972
0.0,0.0,0.9,0.0,0.0,0,0.95984846,-1.4160815,2.1524017,0.08697534,-0.21859494,1.4455326,0.032843046,2.233962,-1.2689418,1.0575547,0.9830529,-0.28258225,1.1836667,1.4893475
0.0,0.0,0.9,0.0,0.0,0,0.9425342,-1.4529734,2.1529136,0.07299436,-0.19121626,1.4489775,0.053357244,2.2390816,-1.337683,1.1604977,0.91560274,-0.361075,1.2061332,1.25906
0.0,0.0,0.9,0.0,0.0,0,0.9411784,-1.4532019,2.1286526,0.093920045,-0.1794458,1.467914,-0.035958048,2.2622325,-1.2313255,1.0422031,0.88449156,-0.2944262,1.1506983,1.0828907
0.0,0.0,0.9,0.0,0.0,0,0.97291255,-1.429593,2.1236339,0.057199426,-0.18509182,1.4879618,0.12359194,2.2643776,-1.2183573,1.0909741,0.9651562,-0.36850607,1.194729,1.8219237
0.0,0.0,0.9,0.0,0.0,0,0.974447,-1.4444625,2.1440067,0.101558745,-0.14114459,1.4734061,-0.09930276,2.241909,-1.1827793,1.1043372,0.9288728,-0.39567047,1.135625,1.4320524
0.0,0.0,0.9,0.0,0.0,0,0.94543993,-1.42267,2.1683502,0.07713661,-0.20919535,1.4639342,-0.053659555,2.2367065,-1.2607201,1.1141093,0.9162207,-0.30889052,1.1597844,1.4233288
0.0,0.0,0.9,0.0,0.0,0,0.9237331,-1.4454398,2.1056051,0.09021345,-0.21173568,1.4630786,-0.063176155,2.2406344,-1.4215627,1.1329058,0.8530303,-0.2701519,1.3336902,0.87486804
0.0,0.0,0.9,0.0,0.0,0,0.9894243,-1.4140785,2.1273592,0.097734064,-0.20355222,1.4802176,0.0057182824,2.2155056,-1.3347855,1.0490785,0.9383153,-0.29857823,1.1571208,0.9881277
0.0,0.0,0.9,0.0,0.0,0,0.9316168,-1.4591006,2.1329556,0.07697318,-0.23357663,1.4822853,-0.0010040851,2.2288895,-1.3780092,1.1022903,0.9476986,-0.24496709,1.1808294,1.6736028
0.0,0.0,0.9,0.0,0.0,0,0.9621244,-1.4181411,2.122484,0.07713376,-0.20582646,1.4767529,0.124584146,2.2251127,-1.2997156,1.1615273,0.9478419,-0.3738251,1.1861178,0.9382774
0.0,0.0,0.9,0.0,0.0,0,0.9515169,-1.4568506,2.1300895,0.091830775,-0.14388546,1.4509703,-0.044727854,2.2517467,-1.27866,1.0152682,0.9381893,-0.29120958,1.184282,1.7086778
0.0,0.0,0.9,0.0,0.0,0,0.9535479,-1.4208254,2.1442895,0.102454424,-0.23351675,1.4849628,0.23740336,2.2471926,-1.2613289,1.0806639,0.9273714,-0.29927677,1.178671,1.4665117
0.0,0.0,0.9,0.0,0.0,0,0.9610824,-1.4410449,2.1434336,0.0897662,-0.21411839,1.4400516,0.07727018,2.2265472,-1.3878882,1.1011935,0.97279054,-0.2570574,1.1480291,1.9192935
0.0,0.0,0.9,0.0,0.0,0,0.98364437,-1.454232,2.1652663,0.083611,-0.1691996,1.4546982,0.061644938,2.240727,-1.2406734,1.0278822,0.96092045,-0.30060336,1.198952,1.2917309
0.0,0.0,0.9,0.0,0.0,0,0.9723925,-1.4551065,2.1533248,0.08971795,-0.18882725,1.4769161,-0.10437275,2.2340891,-1.3244842,1.0500743,0.92396516,-0.31111547,1.1669167,1.425822
0.0,0.0,0.9,0.0,0.0,0,0.93481976,-1.4300245,2.1341014,0.08321821,-0.22696589,1.4505646,0.060244963,2.2630994,-1.2477701,1.1124518,0.896173,-0.32763064,1.2381423,1.4533373
0.0,0.0,0.9,0.0,0.0,0,0.97800875,-1.4215285,2.1148427,0.07968616,-0.23166505,1.4675761,0.024482835,2.2414591,-1.2921249,1.0925058,0.8685309,-0.31540725,1.216653,0.8743918
0.0,0.0,0.9,0.0,0.0,0,0.9575195,-1.4655571,2.1430063,0.08022671,-0.16764764,1.4621177,0.004626244,2.2515051,-1.332156,1.0409204,0.98853666,-0.27511433,1.1556602,1.2381488
0.0,0.0,0.9,0.0,0.0,0,0.97755957,-1.4082825,2.141825,0.096906394,-0.18270645,1.4760246,-0.053978916,2.233487,-1.1612197,1.0901651,0.90800315,-0.3324943,1.1558888,1.6074923
0.0,0.0,0.9,0.0,0.0,0,1.0017745,-1.4515861,2.1282473,0.09648505,-0.2100189,1.4673278,-0.10820604,2.2506187,-1.3152105,1.0760397,0.9090338,-0.3226705,1.1726675,1.2589421
0.0,0.0,0.9,0.0,0.0,0,0.9663808,-1.4539979,2.1278744,0.090447724,-0.1858466,1.4620078,0.010411947,2.2309668,-1.2275851,0.9762791,0.912593,-0.29204866,1.1670141,0.9116373
0.0,0.0,0.9,0.0,0.0,0,0.96946174,-1.4276329,2.1369042,0.109124504,-0.20409071,1.4622033,0.005753376,2.2267504,-1.3842069,1.0347532,0.9446805,-0.23473038,1.1889058,1.3602144
0.0,0.0,0.9,0.0,0.0,0,0.954346,-1.4239303,2.1496243,0.08288691,-0.22219703,1.4777677,-0.044392355,2.2581148,-1.1949791,1.0906922,0.89961964,-0.33454815,1.1694494,1.6896603
0.0,0.0,0.9,0.0,0.0,0,0.9808533,-1.3857431,2.116581,0.09214669,-0.21067367,1.4794159,-0.038623393,2.2558646,-1.2678212,1.0630802,0.91690946,-0.3327757,1.1866318,1.725978
0.0,0.0,0.9,0.0,0.0,0,0.96810865,-1.4461453,2.161502,0.095181204,-0.19011399,1.4872231,0.03754923,2.2225158,-1.3587083,1.0077633,0.9405393,-0.24664499,1.1640154,0.9787953
0.0,0.0,0.9,0.0,0.0,0,0.97491,-1.4591181,2.1383204,0.11670189,-0.18369469,1.4682567,0.0792387,2.2390149,-1.2522117,1.045675,0.9247566,-0.28614163,1.2017328,1.6798631
0.0,0.0,0.9,0.0,0.0,0,1.0002162,-1.4538784,2.1508393,0.097467124,-0.20609431,1.4637315,0.038455073,2.24795,-1.2403142,1.0730816,0.9307097,-0.37119222,1.1977053,1.5959651
0.0,0.0,0.9,0.0,0.0,0,0.95471,-1.430406,2.1654458,0.08635051,-0.17223881,1.4747946,-0.028466472,2.262886,-1.2000058,1.0182958,0.8997748,-0.30591193,1.2111996,1.6250817
0.0,0.0,0.9,0.0,0.0,0,0.9532509,-1.4335116,2.1664557,0.07545282,-0.20484631,1.4603356,0.0088974275,2.2346349,-1.2947172,1.0153775,0.9059329,-0.29445294,1.1494586,1.3421432
0.0,0.0,0.9,0.0,0.0,0,0.9854083,-1.428529,2.1514885,0.088635035,-0.19032037,1.4429436,-0.15087539,2.2596455,-1.3233498,1.0680593,0.89365643,-0.2951041,1.1674142,1.0000572
0.0,0.0,0.9,0.0,0.0,0,0.9750194,-1.4187632,2.1258602,0.075023696,-0.2311442,1.4826096,0.016705537,2.2345877,-1.3461716,1.1423877,0.9110916,-0.2810275,1.2228186,1.3161364
0.0,0.0,0.9,0.0,0.0,0,0.9887826,-1.4636775,2.173084,0.10343644,-0.20167287,1.4506692,-0.009674006,2.2545438,-1.2046849,1.0074891,0.88440806,-0.30004826,1.1523538,1.2286676
0.0,0.0,0.9,0.0,0.0,0,0.9882486,-1.454207,2.1431441,0.082876116,-0.1753736,1.4713107,0.110851906,2.231734,-1.1780704,1.0690354,0.9216837,-0.3166607,1.2217277,1.9132487
0.0,0.0,0.9,0.0,0.0,0,0.932842,-1.444943,2.1286025,0.06975812,-0.16682577,1.4772611,-0.069462754,2.2313962,-1.2450833,0.98169017,0.88853455,-0.2802955,1.1392078,1.0679451
0.0,0.0,0.9,0.0,0.0,0,0.9685335,-1.4480311,2.135223,0.0798472,-0.17884873,1.4772562,0.04682264,2.2382839,-1.1923373,1.1261555,0.93789816,-0.35245514,1.1465,1.6604319
0.0,0.0,0.9,0.0,0.0,0,0.9510168,-1.4376894,2.1698377,0.10113485,-0.20543176,1.4643291,0.29077157,2.2148254,-1.2858384,1.1754104,0.9271236,-0.30619335,1.1718787,1.4384563
0.0,0.0,0.9,0.0,0.0,0,0.9817878,-1.4387983,2.1241395,0.10426883,-0.19655399,1.4839325,-0.10387814,2.2383409,-1.2873435,1.0076073,0.8841135,-0.3285718,1.1418061,0.9382571
0.0,0.0,0.9,0.0,0.0,0,0.94720715,-1.4326196,2.136029,0.07238454,-0.20432866,1.4761043,-0.12044573,2.2448664,-1.3667978,1.0872741,0.92624557,-0.2818527,1.1649164,1.0552536
0.0,0.0,0.9,0.0,0.0,0,0.9826931,-1.4561833,2.144638,0.1109141,-0.1865856,1.4666733,-0.12170907,2.2445636,-1.238772,1.0631248,0.89368004,-0.34859675,1.1911513,1.0821989
0.0,0.0,0.9,0.0,0.0,0,0.96750474,-1.4399718,2.1349478,0.09984969,-0.2119034,1.4749799,-0.033264667,2.2402625,-1.2254658,1.0244827,0.90477353,-0.336789,1.1628425,1.4002994
0.0,0.0,0.9,0.0,0.0,0,0.98392475,-1.4403793,2.1438386,0.085481636,-0.20844695,1.4737831,0.05879586,2.2139454,-1.2908401,1.0395169,0.84627604,-0.19766061,1.1878759,1.373964
0.0,0.0,0.9,0.0,0.0,0,0.9593345,-1.4889275,2.173551,0.09291045,-0.20988476,1.4633627,0.01979432,2.2513325,-1.1621988,0.9550905,0.86658573,-0.28908694,1.192242,0.90835124
0.0,0.0,0.9,0.0,0.0,0,0.94307315,-1.4607638,2.133015,0.10269213,-0.22312652,1.4739318,-0.040574625,2.2289507,-1.3274955,1.0176829,0.857693,-0.18499582,1.2094586,1.3862215
0.0,0.0,0.9,0.0,0.0,0,0.9803935,-1.4228047,2.1239452,0.07320309,-0.21267456,1.4617611,-0.04375082,2.2380865,-1.247252,0.9895443,0.96143,-0.28652337,1.1695737,1.274242
0.0,0.0,0.9,0.0,0.0,0,0.96850944,-1.4410664,2.1302419,0.083503194,-0.20323135,1.457448,-0.012783104,2.2272937,-1.3938282,1.086649,0.87532645,-0.30543432,1.1959131,1.2305999
0.0,0.0,0.9,0.0,0.0,0,0.9945455,-1.4591979,2.0825233,0.098549634,-0.20124936,1.4551902,0.13049288,2.2658076,-1.2066367,1.1189321,0.9186028,-0.37326646,1.2126503,1.1510746
0.0,0.0,0.9,0.0,0.0,0,0.9676246,-1.4601374,2.1542833,0.1034729,-0.21905024,1.4883773,0.014250186,2.240895,-1.2320654,1.1102909,0.9324106,-0.37514544,1.1803368,1.0361147
0.0,0.0,0.9,0.0,0.0,0,0.9811319,-1.4590155,2.151671,0.10433873,-0.17410985,1.4770392,-0.065368444,2.2096276,-1.3057323,1.1068074,0.92589754,-0.30164042,1.2017982,1.0628494
0.0,0.0,0.9,0.0,0.0,0,0.9550825,-1.4259903,2.132588,0.10061653,-0.2014545,1.4743803,-0.024194945,2.221195,-1.1621693,1.0066543,0.9512437,-0.3976418,1.1961628,1.3353928
0.0,0.0,0.9,0.0,0.0,0,0.9830062,-1.4455627,2.1520853,0.08647945,-0.15069479,1.4499401,-0.07242623,2.2446573,-1.2395872,1.0782838,0.89648235,-0.30424085,1.2118728,1.6397514
0.0,0.0,0.9,0.0,0.0,0,0.95091915,-1.4405062,2.1632462,0.09550972,-0.19316424,1.4857277,-0.03975673,2.2513328,-1.2572246,1.060155,0.90757126,-0.30626494,1.1771357,1.1210413
0.0,0.0,0.9,0.0,0.0,0,0.9880765,-1.4562205,2.1250997,0.08815259,-0.17037208,1.4672227,-0.026642341,2.2462327,-1.2682021,1.1456783,0.9430072,-0.37405434,1.1640158,1.1289204
0.0,0.0,0.9,0.0,0.0,0,0.9789231,-1.4420279,2.1427782,0.0956935,-0.16401479,1.4574989,0.106228165,2.2376688,-1.2301348,1.0972847,0.92382693,-0.3438201,1.1728355,1.310626
0.0,0.0,0.9,0.0,0.0,0,0.97537076,-1.3902936,2.156208,0.09103333,-0.1668898,1.4965037,-0.022494793,2.2431033,-1.2868906,1.115304,0.92776453,-0.33087644,1.2216874,1.1434985
0.0,0.0,0.9,0.0,0.0,0,0.99041164,-1.4182944,2.1451716,0.09182286,-0.19124769,1.4799886,-0.11761841,2.2305322,-1.311313,1.0703152,0.9195745,-0.27653345,1.1578286,1.199302
0.0,0.0,0.9,0.0,0.0,0,0.9673592,-1.4492954,2.1102283,0.09174614,-0.18152605,1.48571,0.14733961,2.2401507,-1.2519938,1.0500906,0.9175461,-0.2806241,1.1976941,1.2368635
0.0,0.0,0.9,0.0,0.0,0,0.96676034,-1.4139452,2.1225307,0.085838445,-0.20792529,1.4584954,0.09105981,2.253453,-1.259482,1.1747333,0.94177705,-0.35634506,1.1784396,1.3112838
0.0,0.0,0.9,0.0,0.0,0,0.95246524,-1.44181,2.1321437,0.07309491,-0.14879279,1.4577078,-0.08823463,2.2546327,-1.4073597,1.1580875,0.91693133,-0.26186326,1.1519102,1.2142252
0.0,0.0,0.9,0.0,0.0,0,0.9395544,-1.4531682,2.1176648,0.07220202,-0.19182666,1.4687737,0.078344904,2.224381,-1.2125641,1.0167315,0.88919127,-0.29168442,1.1922802,1.1250833
0.0,0.0,0.9,0.0,0.0,0,0.961409,-1.4472185,2.1587865,0.11294108,-0.18505532,1.4673809,0.02629652,2.2503395,-1.2776048,1.027478,0.9444193,-0.2920268,1.1783439,1.0948843
0.0,0.0,0.9,0.0,0.0,0,0.9846947,-1.4310519,2.117917,0.11587125,-0.15809277,1.4722458,0.08932311,2.2519383,-1.2984765,1.1157281,0.8903763,-0.31136408,1.2097162,1.5018193
0.0,0.0,0.9,0.0,0.0,0,0.94961715,-1.4357412,2.1600525,0.093397975,-0.18028583,1.4700936,-0.036910195,2.2364752,-1.2548479,1.0784967,0.9270898,-0.34464067,1.1507711,0.59906024
0.0,0.0,0.9,0.0,0.0,0,0.98284656,-1.4695687,2.132497,0.09853704,-0.18933032,1.4679489,-0.26807857,2.226406,-1.255946,1.1198988,0.9437663,-0.33523467,1.1623448,1.202884
0.0,0.0,0.9,0.0,0.0,0,0.99096453,-1.42693,2.135257,0.07541639,-0.20759352,1.4812615,0.0076668267,2.2349036,-1.2444215,1.0616373,0.88180196,-0.32256868,1.2107148,1.1710633
0.0,0.0,0.9,0.0,0.0,0,0.97012436,-1.4801366,2.1689,0.092423245,-0.19069703,1.489724,-0.14946519,2.2227323,-1.3320793,1.0329286,0.885554,-0.2179138,1.1469322,1.1918947
0.0,0.0,0.9,0.0,0.0,0,0.976441,-1.4588119,2.1136045,0.09620508,-0.19457623,1.4498911,0.021660855,2.2272856,-1.1175431,1.0522314,0.96961826,-0.3287748,1.1665909,1.4046348
0.0,0.0,0.9,0.0,0.0,0,0.9499269,-1.4645526,2.1365106,0.09072379,-0.17916094,1.468323,-0.038719695,2.2383924,-1.1660715,1.0449606,0.9534553,-0.31405786,1.1902896,1.481697
0.0,0.0,0.9,0.0,0.0,0,0.966369,-1.4661373,2.150411,0.07395072,-0.23209739,1.4950149,0.058838896,2.2364044,-1.2677506,1.1038777,0.97778827,-0.37157086,1.1167791,0.82011986
0.0,0.0,0.9,0.0,0.0,0,0.97982645,-1.4605087,2.14252,0.10137564,-0.19238926,1.4696246,0.07426396,2.2403543,-1.1871529,1.1095976,0.92301005,-0.35884872,1.1717546,1.1864008
0.0,0.0,0.9,0.0,0.0,0,0.93892527,-1.4508923,2.147828,0.08434882,-0.2038126,1.4674771,0.052033972,2.2469034,-1.1934265,1.1403728,0.9595977,-0.41759244,1.1712952,1.811682
0.0,0.0,0.9,0.0,0.0,0,0.98782814,-1.4269633,2.169942,0.068896934,-0.204508,1.4485449,-0.06475916,2.2397754,-1.1749539,1.0078225,0.9105438,-0.32489246,1.1922206,1.5115286
0.0,0.0,0.9,0.0,0.0,0,0.9596897,-1.4399718,2.1247673,0.0737272,-0.19656847,1.475677,0.07996975,2.2271473,-1.215338,1.0839546,0.9575094,-0.3571623,1.148809,1.158672
0.0,0.0,0.9,0.0,0.0,0,0.9596897,-1.4399718,2.1247673,0.0737272,-0.19656847,1.475677,0.07996975,2.2271473,-1.215338,1.0839546,0.9575094,-0.3571623,1.148809,1.158672
0.0,0.0,0.9,0.0,0.0,0,0.9596897,-1.4399718,2.1247673,0.0737272,-0.19656847,1.475677,0.07996975,2.2271473,-1.215338,1.0839546,0.9575094,-0.3571623,1.148809,1.158672
0.0,0.0,0.9,0.0,0.0,0,0.9596897,-1.4399718,2.1247673,0.0737272,-0.19656847,1.475677,0.07996975,2.2271473,-1.215338,1.0839546,0.9575094,-0.3571623,1.148809,1.158672
0.0,0.0,0.9,0.0,0.0,0,0.9596897,-1.4399718,2.1247673,0.0737272,-0.19656847,1.475677,0.07996975,2.2271473,-1.215338,1.0839546,0.9575094,-0.3571623,1.148809,1.158672
0.0,0.0,0.9,0.0,0.0,0,0.9596897,-1.4399718,2.1247673,0.0737272,-0.19656847,1.475677,0.07996975,2.2271473,-1.215338,1.0839546,0.9575094,-0.3571623,1.148809,1.158672
0.0,0.0,0.9,0.0,0.0,0,0.9596897,-1.4399718,2.1247673,0.0737272,-0.19656847,1.475677,0.07996975,2.2271473,-1.215338,1.0839546,0.9575094,-0.3571623,1.148809,1.158672
0.0,0.0,0.9,0.0,0.0,0,0.9596897,-1.4399718,2.1247673,0.0737272,-0.19656847,1.475677,0.07996975,2.2271473,-1.215338,1.0839546,0.9575094,-0.3571623,1.148809,1.158672
0.0,0.0,0.9,0.0,0.0,0,0.9596897,-1.4399718,2.1247673,0.0737272,-0.19656847,1.475677,0.07996975,2.2271473,-1.215338,1.0839546,0.9575094,-0.3571623,1.148809,1.158672
0.0,0.0,0.9,0.0,0.0,0,0.9596897,-1.4399718,2.1247673,0.0737272,-0.19656847,1.475677,0.07996975,2.2271473,-1.215338,1.0839546,0.9575094,-0.3571623,1.148809,1.158672
0.0,0.0,0.9,0.0,0.0,0,1.0033833,-1.4771926,2.167036,0.091475554,-0.17084907,1.4597284,-0.16066608,2.2472944,-1.3533465,0.981981,0.86582255,-0.28712302,1.2212845,0.75966483
0.0,0.0,0.9,0.0,0.0,0,1.0033833,-1.4771926,2.167036,0.091475554,-0.17084907,1.4597284,-0.16066608,2.2472944,-1.3533465,0.981981,0.86582255,-0.28712302,1.2212845,0.75966483
0.0,0.0,0.9,0.0,0.0,0,1.0033833,-1.4771926,2.167036,0.091475554,-0.17084907,1.4597284,-0.16066608,2.2472944,-1.3533465,0.981981,0.86582255,-0.28712302,1.2212845,0.75966483
0.0,0.0,0.9,0.0,0.0,0,1.0033833,-1.4771926,2.167036,0.091475554,-0.17084907,1.4597284,-0.16066608,2.2472944,-1.3533465,0.981981,0.86582255,-0.28712302,1.2212845,0.75966483
0.0,0.0,0.9,0.0,0.0,0,1.0033833,-1.4771926,2.167036,0.091475554,-0.17084907,1.4597284,-0.16066608,2.2472944,-1.3533465,0.981981,0.86582255,-0.28712302,1.2212845,0.75966483
0.0,0.0,0.9,0.0,0.0,0,1.0033833,-1.4771926,2.167036,0.091475554,-0.17084907,1.4597284,-0.16066608,2.2472944,-1.3533465,0.981981,0.86582255,-0.28712302,1.2212845,0.75966483
0.0,0.0,0.9,0.0,0.0,0,1.0033833,-1.4771926,2.167036,0.091475554,-0.17084907,1.4597284,-0.16066608,2.2472944,-1.3533465,0.981981,0.86582255,-0.28712302,1.2212845,0.75966483
0.0,0.0,0.9,0.0,0.0,0,1.0033833,-1.4771926,2.167036,0.091475554,-0.17084907,1.4597284,-0.16066608,2.2472944,-1.3533465,0.981981,0.86582255,-0.28712302,1.2212845,0.75966483
0.0,0.0,0.9,0.0,0.0,0,1.0033833,-1.4771926,2.167036,0.091475554,-0.17084907,1.4597284,-0.16066608,2.2472944,-1.3533465,0.981981,0.86582255,-0.28712302,1.2212845,0.75966483
0.0,0.0,0.9,0.0,0.0,0,1.0033833,-1.4771926,2.167036,0.091475554,-0.17084907,1.4597284,-0.16066608,2.2472944,-1.3533465,0.981981,0.86582255,-0.28712302,1.2212845,0.75966483
0.0,0.0,0.9,0.0,0.0,0,0.9797088,-1.4156972,2.1338494,0.10119996,-0.20160632,1.5071996,-0.005153832,2.2345667,-1.2423892,1.0268412,0.9126231,-0.25133225,1.1887656,1.7359631
0.0,0.0,0.9,0.0,0.0,0,0.9797088,-1.4156972,2.1338494,0.10119996,-0.20160632,1.5071996,-0.005153832,2.2345667,-1.2423892,1.0268412,0.9126231,-0.25133225,1.1887656,1.7359631
0.0,0.0,0.9,0.0,0.0,0,0.9797088,-1.4156972,2.1338494,0.10119996,-0.20160632,1.5071996,-0.005153832,2.2345667,-1.2423892,1.0268412,0.9126231,-0.25133225,1.1887656,1.7359631
0.0,0.0,0.9,0.0,0.0,0,0.9797088,-1.4156972,2.1338494,0.10119996,-0.20160632,1.5071996,-0.005153832,2.2345667,-1.2423892,1.0268412,0.9126231,-0.25133225,1.1887656,1.7359631
0.0,0.0,0.9,0.0,0.0,0,0.9797088,-1.4156972,2.1338494,0.10119996,-0.20160632,1.5071996,-0.005153832,2.2345667,-1.2423892,1.0268412,0.9126231,-0.25133225,1.1887656,1.7359631
0.0,0.0,0.9,0.0,0.0,0,0.9797088,-1.4156972,2.1338494,0.10119996,-0.20160632,1.5071996,-0.005153832,2.2345667,-1.2423892,1.0268412,0.9126231,-0.25133225,1.1887656,1.7359631
0.0,0.0,0.9,0.0,0.0,0,0.9797088,-1.4156972,2.1338494,0.10119996,-0.20160632,1.5071996,-0.005153832,2.2345667,-1.2423892,1.0268412,0.9126231,-0.25133225,1.1887656,1.7359631
0.0,0.0,0.9,0.0,0.0,0,0.9797088,-1.4156972,2.1338494,0.10119996,-0.20160632,1.5071996,-0.005153832,2.2345667,-1.2423892,1.0268412,0.9126231,-0.25133225,1.1887656,1.7359631
0.0,0.0,0.9,0.0,0.0,0,0.9797088,-1.4156972,2.1338494,0.10119996,-0.20160632,1.5071996,-0.005153832,2.2345667,-1.2423892,1.0268412,0.9126231,-0.25133225,1.1887656,1.7359631
0.0,0.0,0.9,0.0,0.0,0,0.9797088,-1.4156972,2.1338494,0.10119996,-0.20160632,1.5071996,-0.005153832,2.2345667,-1.2423892,1.0268412,0.9126231,-0.25133225,1.1887656,1.7359631
0.0,0.0,0.9,0.0,0.0,0,0.9460733,-1.4448824,2.1694272,0.07931804,-0.1680119,1.4623982,-0.10064899,2.2480998,-1.2401215,1.045954,0.96622044,-0.3544741,1.131821,1.1017079
0.0,0.0,0.9,0.0,0.0,0,0.9460733,-1.4448824,2.1694272,0.07931804,-0.1680119,1.4623982,-0.10064899,2.2480998,-1.2401215,1.045954,0.96622044,-0.3544741,1.131821,1.1017079
