sanky1234/BimanualDexCatch/isaacgymenvs/cem_results/May31/football_pose_0.4_0.0_1.2_0.0_0.0_0_2025-05-31.csv
x,y,z,roll,pitch,yaw,robot1/joint1,robot1/joint2,robot1/joint3,robot1/joint4,robot1/joint5,robot1/joint6,robot1/joint7,robot2/joint1,robot2/joint2,robot2/joint3,robot2/joint4,robot2/joint5,robot2/joint6,robot2/joint7
0.4,0.0,1.2,0.0,0.0,0,-1.4968617,0.22326986,-0.6205539,-0.25522688,0.22926489,1.1440791,-0.90718734,1.6209445,0.7232211,0.64735425,-0.43052992,0.8799953,0.19290332,-0.61043495
0.4,0.0,1.2,0.0,0.0,0,-1.5615412,0.2437027,-0.62019897,-0.27240285,0.24170192,1.0366749,-0.9629643,1.5702233,0.5839339,0.7799842,-0.40940583,0.9451662,0.26509258,0.054110013
0.4,0.0,1.2,0.0,0.0,0,-1.5511206,0.1962703,-0.7228987,-0.23384565,0.23871185,1.2579451,-0.894122,1.5733023,0.61106074,0.596233,-0.39619794,0.7094493,0.2537106,-0.17808254
0.4,0.0,1.2,0.0,0.0,0,-1.750371,0.19087723,-0.7335318,-0.21009947,0.17457932,1.0397192,-0.9311902,1.412709,0.67397887,0.7312496,-0.4085752,0.8059164,0.30637974,-0.5454008
0.4,0.0,1.2,0.0,0.0,0,-1.352759,0.27613887,-0.69451237,-0.25295073,0.267849,1.0918318,-0.925578,1.7814779,0.6141709,0.4801643,-0.42550138,0.8717034,0.25708485,0.13464639
0.4,0.0,1.2,0.0,0.0,0,-1.1912656,0.26493835,-0.6954969,-0.25199726,0.19312632,1.089915,-0.9618805,1.6369989,0.60014707,0.6831108,-0.3862039,1.0907878,0.19684646,0.3814612
0.4,0.0,1.2,0.0,0.0,0,-1.5063105,0.28166512,-0.5769586,-0.28349853,0.17806883,1.1681834,-0.81233174,1.7198945,0.6209933,0.3733956,-0.4490199,0.6232757,0.27678016,0.25715563
0.4,0.0,1.2,0.0,0.0,0,-1.3954036,0.26035643,-0.6126685,-0.08700993,0.1881105,1.0829535,-0.83398515,1.693199,0.55517554,0.64857215,-0.40604576,0.80869967,0.247314,0.0042558615
0.4,0.0,1.2,0.0,0.0,0,-1.4531745,0.20447879,-0.73783785,-0.26748633,0.24014086,0.9782431,-0.93930244,1.5857712,0.6707442,0.85221106,-0.38512522,0.38127303,0.22280832,0.5556302
0.4,0.0,1.2,0.0,0.0,0,-1.3439516,0.18727408,-0.67528,-0.2260286,0.0015403472,1.0528109,-0.90224236,1.5049783,0.60796696,0.52348304,-0.41817084,1.3885283,0.28434163,0.61619884
0.4,0.0,1.2,0.0,0.0,0,-1.7539046,0.1697923,-0.5881825,-0.26848033,0.09121292,0.9885647,-0.9003913,1.4067876,0.64368874,0.5352056,-0.361603,1.175943,0.20518638,0.067406245
0.4,0.0,1.2,0.0,0.0,0,-1.7180527,0.23594546,-0.45465392,-0.25355113,0.11285196,1.0614389,-0.84464616,1.6460571,0.6411404,0.30435374,-0.40798426,0.90223837,0.1787183,-0.05870473
0.4,0.0,1.2,0.0,0.0,0,-1.4772242,0.26173407,-0.685913,-0.18300283,0.13606617,1.0346804,-0.8886089,1.5998986,0.6578306,0.502582,-0.42938915,0.7701878,0.26148403,-0.0053110835
0.4,0.0,1.2,0.0,0.0,0,-1.3855968,0.16179809,-0.6581885,-0.23831715,0.21113364,0.98043185,-0.91077626,1.4672316,0.67215204,0.6142138,-0.38440517,0.8564077,0.32805717,-0.35495207
0.4,0.0,1.2,0.0,0.0,0,-1.3994327,0.23800321,-0.6335721,-0.23115885,0.11266211,1.0475968,-0.8008027,1.6034116,0.6264432,0.68448204,-0.43579596,1.1667416,0.32471693,0.101028025
0.4,0.0,1.2,0.0,0.0,0,-1.858964,0.21488258,-0.6583212,-0.20859452,0.0859444,1.1756461,-0.93513954,1.7308897,0.6528533,0.7033876,-0.42080122,1.0974019,0.17334914,-0.1931705
0.4,0.0,1.2,0.0,0.0,0,-1.9371941,0.32629186,-0.61343426,-0.24792284,0.26806968,1.3501672,-0.8720694,1.5264728,0.60474735,0.585298,-0.37553522,1.1071209,0.26225302,-0.0053731003
0.4,0.0,1.2,0.0,0.0,0,-1.6104583,0.2683621,-0.6331249,-0.29472965,0.2051572,1.0473868,-0.88412,1.7478961,0.6663926,0.6923022,-0.39489374,0.8036694,0.26482245,0.2336292
0.4,0.0,1.2,0.0,0.0,0,-1.4922425,0.32102144,-0.44231242,-0.22814804,0.2082574,1.0071733,-0.81801265,1.6223663,0.67218673,0.5198337,-0.41574416,1.0040791,0.24289285,0.76710176
0.4,0.0,1.2,0.0,0.0,0,-1.6472089,0.17737564,-0.72189426,-0.2502865,0.08759065,1.0614605,-0.9163821,1.5605234,0.7123689,0.45833403,-0.40062678,0.5592136,0.20404138,-1.0145059
0.4,0.0,1.2,0.0,0.0,0,-1.6008588,0.27761018,-0.62345725,-0.18700397,0.03842792,1.0610515,-0.97153413,1.7511288,0.61837447,0.09060414,-0.4214505,1.0427761,0.29817432,-0.07418174
0.4,0.0,1.2,0.0,0.0,0,-1.4601066,0.1802163,-0.52706474,-0.20600766,0.18494955,1.0909266,-0.876228,1.693025,0.6711016,0.556769,-0.3729589,1.1154575,0.19696727,-0.5235672
0.4,0.0,1.2,0.0,0.0,0,-1.5845754,0.27225927,-0.4929252,-0.2214928,0.15614729,1.0359278,-0.895224,1.7512319,0.595441,0.7526368,-0.43598717,1.1282243,0.34364554,0.32159534
0.4,0.0,1.2,0.0,0.0,0,-1.6797767,0.2493293,-0.6402086,-0.26694837,0.1852646,1.3299932,-0.8619589,1.5076059,0.6360412,0.5231116,-0.38984737,0.29313245,0.36429578,0.21033226
0.4,0.0,1.2,0.0,0.0,0,-1.6459736,0.2737855,-0.55169684,-0.17689337,0.1947,1.2721092,-0.9205396,1.6545527,0.62034166,0.53035325,-0.4107463,1.0277413,0.25363526,-0.081006624
0.4,0.0,1.2,0.0,0.0,0,-1.8717953,0.32126734,-0.6585629,-0.24837936,0.19666918,1.0018854,-0.92296344,1.5502803,0.6123273,0.5576145,-0.38203755,0.9265665,0.31594065,0.6273537
0.4,0.0,1.2,0.0,0.0,0,-1.5779303,0.22725832,-0.51965344,-0.25678954,0.17447749,1.0535083,-0.8557024,1.7299726,0.6370849,0.30768475,-0.4019172,0.8364153,0.2664115,0.4580819
0.4,0.0,1.2,0.0,0.0,0,-1.407546,0.37747064,-0.5975316,-0.33138552,0.15595612,1.1696465,-0.9701823,1.6099222,0.66530776,0.57089937,-0.42659152,0.673586,0.27864423,-0.12060056
0.4,0.0,1.2,0.0,0.0,0,-1.8201002,0.31101006,-0.83508635,-0.19068849,0.20181605,1.1576451,-0.81445485,1.5166943,0.6522792,0.7902766,-0.39389464,0.19022536,0.25920454,0.27065003
0.4,0.0,1.2,0.0,0.0,0,-1.8081752,0.2506396,-0.5045728,-0.24573328,0.1719796,1.2339791,-0.83025336,1.4905173,0.61506355,0.5696562,-0.3851427,0.78139657,0.17996466,-0.026509205
0.4,0.0,1.2,0.0,0.0,0,-1.8752401,0.30556607,-0.6366001,-0.19625992,0.21426219,1.1639224,-0.9691411,1.6385491,0.6071522,0.5467378,-0.4121559,0.5687556,0.36161095,-0.058150135
0.4,0.0,1.2,0.0,0.0,0,-1.8312142,0.24955098,-0.64325213,-0.21313971,0.15371042,1.1177807,-0.8944086,1.7867479,0.6166831,0.6288916,-0.3831695,0.7890091,0.2560832,0.47467363
0.4,0.0,1.2,0.0,0.0,0,-1.571431,0.20313391,-0.57178503,-0.25786576,0.12724948,1.0940273,-0.89885426,1.6871743,0.6191619,0.45333654,-0.42971554,1.0701799,0.2878069,0.35885644
0.4,0.0,1.2,0.0,0.0,0,-1.5311708,0.22675501,-0.5828917,-0.1935299,0.32321754,0.98581624,-0.87953115,1.7366421,0.6288883,0.4364086,-0.40159875,0.6563036,0.22482455,0.07043983
0.4,0.0,1.2,0.0,0.0,0,-1.3727022,0.23514204,-0.59260976,-0.19539244,0.20476174,0.9427147,-0.90110886,1.573786,0.5980538,0.6613112,-0.3523826,0.3735178,0.3149489,0.28461424
0.4,0.0,1.2,0.0,0.0,0,-1.6061269,0.20657776,-0.7904581,-0.30522856,0.09988082,0.94277245,-0.8638861,1.4346751,0.64391935,0.5044626,-0.43434733,0.95205796,0.3604797,0.52137774
0.4,0.0,1.2,0.0,0.0,0,-1.8573864,0.2548628,-0.52179,-0.24865794,-0.06735744,1.1064203,-0.92543715,1.6192575,0.66533744,0.69367707,-0.38060424,0.63662404,0.19045651,-0.2559187
0.4,0.0,1.2,0.0,0.0,0,-1.5228336,0.1910604,-0.7656906,-0.23236021,0.17484485,1.0883214,-0.84680426,1.4884833,0.6218366,0.52763915,-0.41221142,1.0700758,0.2684016,-0.14151384
0.4,0.0,1.2,0.0,0.0,0,-1.2992978,0.29645723,-0.814874,-0.30554456,0.24021249,0.99455565,-0.82680315,1.5585207,0.66225404,0.5005439,-0.4236511,0.9909842,0.22524741,-0.22480448
0.4,0.0,1.2,0.0,0.0,0,-1.6359302,0.24261093,-0.62557006,-0.26934618,0.1414001,1.1572155,-1.0037035,1.6358613,0.5633765,0.39324576,-0.39722788,1.1561035,0.22487187,-0.2355903
0.4,0.0,1.2,0.0,0.0,0,-1.2325777,0.34224692,-0.8709885,-0.27174538,0.21345747,1.0750728,-0.84545004,1.8245912,0.6333289,0.7485895,-0.39400047,0.5190943,0.22352771,-0.6040205
0.4,0.0,1.2,0.0,0.0,0,-1.2839706,0.31962857,-0.5163678,-0.25607097,0.17040794,1.2352109,-0.862085,1.6396437,0.62876093,0.5739463,-0.41033104,0.66157544,0.23314674,-0.5725908
0.4,0.0,1.2,0.0,0.0,0,-1.8726081,0.31706616,-0.5202503,-0.2102062,0.10426746,1.1034015,-0.88535124,1.6086271,0.5886445,0.5476279,-0.3912487,0.49396482,0.22700424,-0.17920642
0.4,0.0,1.2,0.0,0.0,0,-1.6188653,0.16281769,-0.650472,-0.21971735,0.13366005,1.0233399,-0.9341418,1.586223,0.6317898,0.6512786,-0.44782263,0.92485887,0.29855952,0.78522617
0.4,0.0,1.2,0.0,0.0,0,-1.4115497,0.2376863,-0.75822264,-0.17613,0.07805606,1.0010291,-0.86437196,1.6860892,0.592579,0.47353762,-0.38976434,0.58990204,0.25237745,-0.03316481
0.4,0.0,1.2,0.0,0.0,0,-1.6247813,0.25951266,-0.85958767,-0.20581184,0.32797152,1.0647303,-0.9024014,1.5761193,0.6340653,0.5257749,-0.36366796,0.44916835,0.24140263,-0.15593734
0.4,0.0,1.2,0.0,0.0,0,-1.8323151,0.29919317,-0.7081692,-0.19793057,0.21370219,1.1111664,-0.8584008,1.5305707,0.65013033,0.6908766,-0.39153403,0.6892741,0.3007504,0.061643858
0.4,0.0,1.2,0.0,0.0,0,-1.453563,0.24659596,-0.618014,-0.2622511,0.20041579,0.99819934,-0.9531495,1.4912113,0.6652765,0.58975226,-0.3921697,1.0555753,0.2589911,-0.5449288
0.4,0.0,1.2,0.0,0.0,0,-1.5551149,0.22874634,-0.52336085,-0.2350755,0.1281916,1.2564983,-0.92579687,1.6725452,0.6214914,0.38562942,-0.41589046,0.9090809,0.22779334,-0.5076898
0.4,0.0,1.2,0.0,0.0,0,-1.5303165,0.3078645,-0.5224935,-0.2192597,0.09570478,1.0676531,-0.91882545,1.5618393,0.6186673,0.875544,-0.40781564,0.6561293,0.25932515,-0.14203678
0.4,0.0,1.2,0.0,0.0,0,-1.4365705,0.18969952,-0.5072488,-0.25540486,0.152343,1.1029114,-0.92190135,1.7473792,0.7003525,0.6423088,-0.39090756,1.2515231,0.31652611,-0.09265604
0.4,0.0,1.2,0.0,0.0,0,-1.7618347,0.18744533,-0.46552685,-0.24718188,0.25091168,0.9601799,-0.8390351,1.6631898,0.6633496,0.5958418,-0.41399455,0.6554965,0.25622308,-0.6394353
0.4,0.0,1.2,0.0,0.0,0,-1.4838792,0.112340145,-0.65071917,-0.23235126,0.088057786,1.2349385,-0.8828333,1.646561,0.60714597,0.31942573,-0.42824847,0.5499098,0.2516626,-0.24075392
0.4,0.0,1.2,0.0,0.0,0,-1.4197,0.27459046,-0.6954457,-0.23874877,0.14500573,1.0902085,-0.9253081,1.6860619,0.6451118,0.7029826,-0.38662726,0.6590519,0.2306665,0.44659114
0.4,0.0,1.2,0.0,0.0,0,-1.4319849,0.17750679,-0.81027836,-0.33386534,0.22901769,1.1584735,-0.87678033,1.67758,0.68953604,0.75009227,-0.44194344,0.5248092,0.20124479,0.20084816
0.4,0.0,1.2,0.0,0.0,0,-1.4946038,0.25422287,-0.8587056,-0.19501673,0.24138317,0.986754,-0.86945504,1.3953695,0.6373988,0.71906006,-0.4514584,0.6562881,0.26918924,0.15978715
0.4,0.0,1.2,0.0,0.0,0,-1.5335908,0.193074,-0.54827183,-0.25083745,0.17372437,0.95202595,-0.9561383,1.6682483,0.6601037,0.5171873,-0.41194052,0.6652635,0.21276179,-0.26276886
0.4,0.0,1.2,0.0,0.0,0,-1.408763,0.2473654,-0.62259644,-0.27018234,0.04835915,1.070991,-0.89176637,1.7955405,0.63144267,0.755016,-0.41781363,0.7850443,0.20408492,-0.008837611
0.4,0.0,1.2,0.0,0.0,0,-1.50403,0.21602203,-0.37458768,-0.20551002,0.09507082,0.9924373,-0.88030714,1.687675,0.62646186,0.43436357,-0.41716778,0.815901,0.26542792,0.9689035
0.4,0.0,1.2,0.0,0.0,0,-1.8365628,0.19361027,-0.7342509,-0.21068889,0.1562579,1.1547887,-0.8565656,1.6042465,0.6156337,0.6525677,-0.42546427,0.83882016,0.3452482,-0.27784273
0.4,0.0,1.2,0.0,0.0,0,-1.5548021,0.2851159,-0.5994531,-0.3027387,0.07254236,1.0398011,-0.88671476,1.4970243,0.6629641,0.5221595,-0.3941424,0.80402213,0.2777564,0.46301275
0.4,0.0,1.2,0.0,0.0,0,-1.4344962,0.22707033,-0.5921607,-0.27782068,0.21588853,1.183796,-0.8945896,1.6234617,0.70748436,0.9488713,-0.41988727,-0.014911383,0.22585832,0.16754924
0.4,0.0,1.2,0.0,0.0,0,-1.6382345,0.22866827,-0.5062905,-0.29087675,0.13897315,1.0787438,-0.8786448,1.6080891,0.61511904,0.49234402,-0.3965143,0.96421933,0.17013998,0.21148314
0.4,0.0,1.2,0.0,0.0,0,-1.4644512,0.26017523,-0.674835,-0.24613018,0.17616923,0.86561674,-0.8774346,1.3968414,0.6498948,0.70113117,-0.40845484,0.60333914,0.24364053,0.22348772
0.4,0.0,1.2,0.0,0.0,0,-1.6310605,0.3248039,-0.5288236,-0.2651622,0.37541673,0.9683853,-0.9236031,1.7581453,0.7009158,0.61039394,-0.43581408,1.116042,0.28394952,0.44760117
0.4,0.0,1.2,0.0,0.0,0,-1.5067652,0.35575554,-0.75233096,-0.22550319,0.2915472,1.0570989,-0.89060307,1.470664,0.6021987,0.8189045,-0.43713614,0.8565868,0.31740525,-0.4438924
0.4,0.0,1.2,0.0,0.0,0,-1.5398093,0.2694702,-0.5888121,-0.23805217,0.15114495,0.9677234,-0.925924,1.4384673,0.63985866,0.48350894,-0.4255947,1.0167496,0.28668153,-0.5557012
0.4,0.0,1.2,0.0,0.0,0,-1.5325441,0.18874875,-0.602038,-0.20163777,0.16135156,1.2053981,-0.88297707,1.504659,0.60070634,0.62577146,-0.40753362,0.5909343,0.28409153,-0.09378781
0.4,0.0,1.2,0.0,0.0,0,-1.4825373,0.20149167,-0.6680616,-0.25371075,0.18910988,0.9779951,-0.92660004,1.5608124,0.61572325,0.50062597,-0.4224,0.5285934,0.25020695,0.011091677
0.4,0.0,1.2,0.0,0.0,0,-1.7336085,0.18648073,-0.70031023,-0.23008342,0.19963062,1.1471498,-0.89512086,1.433552,0.6699961,0.5905631,-0.4162833,1.0272048,0.2843609,0.03996921
0.4,0.0,1.2,0.0,0.0,0,-1.363457,0.27147818,-0.60073316,-0.22139479,0.15781367,0.9443365,-0.89492285,1.643803,0.67277056,0.74183863,-0.41421577,0.8102133,0.29234254,0.73215324
0.4,0.0,1.2,0.0,0.0,0,-1.312531,0.2958187,-0.59375554,-0.20771387,0.0879308,1.0584347,-0.83770967,1.6826755,0.6419324,0.7182829,-0.45772478,0.97522384,0.26280543,-0.13214529
0.4,0.0,1.2,0.0,0.0,0,-1.5843688,0.26934567,-0.6249928,-0.27102384,0.14443153,1.1612774,-0.9526254,1.605537,0.62457424,0.62130946,-0.41343448,0.8185995,0.32837158,0.08857078
0.4,0.0,1.2,0.0,0.0,0,-1.8552364,0.2416392,-0.43249217,-0.2633193,0.2393153,1.1287838,-0.83835095,1.5113274,0.65797395,0.872034,-0.44770634,0.43352565,0.27253583,0.0661607
0.4,0.0,1.2,0.0,0.0,0,-1.707144,0.21708429,-0.6480135,-0.23819649,0.29206696,0.9614131,-0.8985856,1.6383494,0.6469226,0.7132922,-0.35503668,0.45250085,0.27080804,0.0364617
0.4,0.0,1.2,0.0,0.0,0,-1.4376736,0.23735423,-0.5581688,-0.26152667,0.041032385,1.1479794,-0.95216143,1.4671433,0.6520106,0.8452793,-0.37650922,0.9794794,0.23846607,-0.072423026
0.4,0.0,1.2,0.0,0.0,0,-1.5367159,0.26106256,-0.5615018,-0.25101745,0.102873035,1.179385,-0.8974509,1.569444,0.6634323,0.5792568,-0.41703945,1.237162,0.2793563,-0.38343424
0.4,0.0,1.2,0.0,0.0,0,-1.4839829,0.23113951,-0.7334812,-0.26340258,0.24613924,1.0630234,-0.84481806,1.6288836,0.63962317,0.6360993,-0.42634422,1.1216315,0.21530512,0.32117245
0.4,0.0,1.2,0.0,0.0,0,-1.207968,0.21717398,-0.7609408,-0.21026836,0.20277469,1.1509387,-0.86179537,1.8491309,0.6506301,0.45342454,-0.39996585,0.78821105,0.20318298,-0.8388188
0.4,0.0,1.2,0.0,0.0,0,-1.5807215,0.1145957,-0.7846606,-0.23958184,0.3278734,1.0246534,-0.9077422,1.7180814,0.6569395,0.34991366,-0.40873143,0.79959536,0.27796835,-0.5032623
0.4,0.0,1.2,0.0,0.0,0,-1.8273759,0.33067253,-0.6925355,-0.18992348,0.33388323,0.8625427,-0.85883,1.5865808,0.65788656,0.47785807,-0.40171638,0.89266145,0.27154884,0.68754
0.4,0.0,1.2,0.0,0.0,0,-1.6005836,0.2542031,-0.6667176,-0.2837555,0.1486927,1.0556859,-0.8823217,1.506131,0.571225,0.47211635,-0.38279647,1.1672884,0.28132492,0.6768739
0.4,0.0,1.2,0.0,0.0,0,-1.6238248,0.22420491,-0.58435863,-0.214099,0.22774825,0.95172477,-0.83995837,1.5180516,0.6117869,0.48001003,-0.4198136,0.79961735,0.38336685,0.15121724
0.4,0.0,1.2,0.0,0.0,0,-1.5256107,0.18180917,-0.5811833,-0.21943079,0.25551826,1.0874174,-0.94271046,1.3240185,0.667984,0.9153559,-0.40500152,0.9508104,0.2708355,0.3201958
0.4,0.0,1.2,0.0,0.0,0,-1.5321884,0.12554576,-0.5428999,-0.24067645,0.19149593,1.0463439,-0.90367335,1.5260243,0.68582326,0.603659,-0.39278808,0.6529421,0.2805426,0.010323375
0.4,0.0,1.2,0.0,0.0,0,-1.6402177,0.24833259,-0.6697648,-0.22495411,0.18579525,1.078532,-0.94862896,1.8307327,0.5698647,0.16627398,-0.42824325,0.50159943,0.32665744,0.15701306
0.4,0.0,1.2,0.0,0.0,0,-1.5836561,0.21127552,-0.62895066,-0.2716006,0.18177298,1.2519852,-0.9172357,1.4199817,0.63261414,0.66938895,-0.375421,0.8791853,0.21914883,0.20749135
0.4,0.0,1.2,0.0,0.0,0,-1.6749433,0.27606046,-0.78744763,-0.17081921,0.11562024,1.1128955,-0.93407166,1.5962753,0.58649206,0.47540426,-0.37917396,1.0259138,0.30430365,0.36878824
0.4,0.0,1.2,0.0,0.0,0,-1.6148762,0.28320915,-0.7425437,-0.24962488,0.09717717,1.3926828,-0.9261566,1.7949132,0.6387293,0.41332814,-0.3929955,1.2684398,0.2252034,0.07540597
0.4,0.0,1.2,0.0,0.0,0,-1.8142593,0.21966426,-0.3997769,-0.22559641,0.110357545,0.9469952,-0.89539856,1.7322732,0.6497769,0.24985497,-0.41378155,0.8341471,0.25874022,-0.22837068
0.4,0.0,1.2,0.0,0.0,0,-1.472043,0.25913128,-0.74384004,-0.23670422,0.083291724,1.1745769,-0.86398697,1.4493533,0.66271114,0.70437485,-0.43313643,0.87506235,0.25387856,0.19601314
0.4,0.0,1.2,0.0,0.0,0,-1.2884607,0.30369797,-0.69500244,-0.23042154,0.10207161,1.020712,-0.86126894,1.6923782,0.63800794,0.3850138,-0.4209063,1.1799839,0.3134841,-0.43542042
0.4,0.0,1.2,0.0,0.0,0,-1.6325328,0.3122176,-0.54563665,-0.24344961,0.14617698,1.2045482,-0.89288956,1.4567393,0.63719445,0.7274773,-0.3961562,0.87222534,0.24008735,-0.79393226
0.4,0.0,1.2,0.0,0.0,0,-1.5785432,0.26559523,-0.7546687,-0.21910441,0.14843903,1.1878606,-0.92840534,1.513978,0.6333349,0.57414,-0.3898393,1.1919839,0.34778753,-0.19589366
0.4,0.0,1.2,0.0,0.0,0,-1.7096653,0.33523023,-0.58598137,-0.22790581,0.17570831,1.2871124,-0.9363813,1.5621178,0.6235912,0.587002,-0.4324534,0.7815446,0.25220093,0.37914807
0.4,0.0,1.2,0.0,0.0,0,-1.576271,0.14755721,-0.63828206,-0.17818353,0.14919737,1.0135354,-0.8535051,1.5208157,0.594317,0.47145885,-0.39601433,0.73320746,0.30116346,0.18045563
0.4,0.0,1.2,0.0,0.0,0,-1.7290388,0.2681186,-0.41728333,-0.27690914,0.16461718,0.97023404,-0.87107813,1.6104401,0.6865575,0.5596896,-0.40316904,0.5926134,0.26117247,0.4358072
0.4,0.0,1.2,0.0,0.0,0,-1.7549561,0.23146206,-0.5446551,-0.2524073,0.16690049,1.0546794,-0.93872195,1.5668142,0.6176129,0.58779126,-0.40008315,0.76275384,0.28496608,-0.3088145
0.4,0.0,1.2,0.0,0.0,0,-1.6112759,0.17894407,-0.7892297,-0.20081897,0.22095826,1.0358522,-0.88700265,1.6087158,0.5610779,0.61026454,-0.4292945,0.6485745,0.258835,0.37368685
0.4,0.0,1.2,0.0,0.0,0,-1.4799471,0.22294253,-0.6437008,-0.28918,0.0921276,0.97647566,-0.8717414,1.6687444,0.6503748,0.46942443,-0.4234674,0.8234402,0.2710919,-0.2925908
0.4,0.0,1.2,0.0,0.0,0,-1.7287695,0.26369184,-0.77056664,-0.234328,0.18024327,0.97066444,-0.85793,1.5366179,0.59731925,0.6233497,-0.41620314,0.97130024,0.32389155,0.4106129
0.4,0.0,1.2,0.0,0.0,0,-1.5300683,0.24311145,-0.5236056,-0.28955343,0.19627848,1.1240352,-0.8527757,1.6071484,0.55135554,0.5500657,-0.42343295,0.8255491,0.28499395,0.4737122
0.4,0.0,1.2,0.0,0.0,0,-1.6058924,0.12307408,-0.62954193,-0.20117451,0.09896277,1.0741792,-0.84930193,1.6441582,0.66457576,0.34358424,-0.40273783,0.8525218,0.25257605,0.20648697
0.4,0.0,1.2,0.0,0.0,0,-1.5281452,0.16926734,-0.5475321,-0.26111284,0.10835099,1.1021882,-0.8628331,1.5563256,0.604359,0.92877376,-0.41472575,1.2073224,0.22445813,-0.43700367
0.4,0.0,1.2,0.0,0.0,0,-1.3873118,0.22041065,-0.6969229,-0.25941834,0.21926293,0.95186585,-0.85217613,1.6366507,0.61177903,0.33490843,-0.41188902,1.0917677,0.2606219,0.03619321
0.4,0.0,1.2,0.0,0.0,0,-1.6167209,0.1922308,-0.47204676,-0.30354917,0.17638895,1.1306396,-0.98139554,1.5857334,0.6462546,0.46314573,-0.36813542,0.6694251,0.24301986,0.06103153
0.4,0.0,1.2,0.0,0.0,0,-1.7083468,0.2081926,-0.70675087,-0.18838644,0.25234833,0.95694155,-0.8711602,1.6106261,0.6572454,0.7094876,-0.4020274,0.5746099,0.24881625,0.41311258
0.4,0.0,1.2,0.0,0.0,0,-1.6274178,0.25007603,-0.6560135,-0.24241701,0.20225535,1.2293656,-0.974239,1.6633978,0.60303307,0.4088578,-0.43163562,0.7778127,0.251708,0.00819675
0.4,0.0,1.2,0.0,0.0,0,-1.6607727,0.19043781,-0.7113632,-0.29802793,0.13138361,1.1748086,-0.83425295,1.5763553,0.67928123,0.6431522,-0.43053317,0.86719567,0.32441756,-0.15546799
0.4,0.0,1.2,0.0,0.0,0,-1.5896484,0.2741402,-0.4965965,-0.28498763,0.17889276,1.0329536,-0.86605686,1.4636931,0.6216769,0.61892545,-0.41555429,0.8277058,0.19004269,-0.8376091
0.4,0.0,1.2,0.0,0.0,0,-1.405435,0.2595153,-0.66893405,-0.2927794,0.25734925,1.1339649,-0.8450864,1.7063978,0.67219436,0.8266201,-0.42539757,0.41672513,0.24557705,0.39726585
0.4,0.0,1.2,0.0,0.0,0,-1.321779,0.2557397,-0.8861339,-0.25870192,0.13463648,1.0438288,-0.8904219,1.7290407,0.67433316,0.52070063,-0.39707386,1.1374829,0.31514794,0.54262954
0.4,0.0,1.2,0.0,0.0,0,-1.5385839,0.17594932,-0.8593097,-0.29152337,0.20182839,1.0964538,-0.88457245,1.6160282,0.66592467,0.5891149,-0.36105144,0.61679155,0.3308373,0.28653938
0.4,0.0,1.2,0.0,0.0,0,-1.6494359,0.23017049,-0.498186,-0.30120775,0.15162891,1.0343009,-0.9356706,1.5616429,0.5821616,0.4863815,-0.39831087,0.80263084,0.37805066,0.22711937
0.4,0.0,1.2,0.0,0.0,0,-1.2438163,0.27685985,-0.7723256,-0.18837608,0.19814934,1.0668627,-0.94388545,1.8041953,0.6409132,0.6515652,-0.4178868,0.6351776,0.24639015,0.4609413
0.4,0.0,1.2,0.0,0.0,0,-1.6147157,0.25841263,-0.73877317,-0.2585383,0.14245403,1.1961375,-0.93219787,1.7316084,0.67398816,0.23526374,-0.4229813,0.84753376,0.20855367,0.1905607
0.4,0.0,1.2,0.0,0.0,0,-1.687715,0.19649424,-0.5806249,-0.26957256,0.22534293,1.1175822,-0.9106945,1.5948337,0.65437245,0.7858848,-0.38048822,0.41141403,0.30010268,-0.27627358
0.4,0.0,1.2,0.0,0.0,0,-1.71947,0.2666575,-0.5694121,-0.22832905,0.14451733,1.2819916,-0.85596764,1.6407579,0.6058657,0.586845,-0.43283784,0.98587185,0.25296202,0.5725307
0.4,0.0,1.2,0.0,0.0,0,-1.7915653,0.21665685,-0.69880867,-0.29762134,0.18573655,1.0949597,-0.9073288,1.6914415,0.637971,0.23185804,-0.40278667,0.4724391,0.3015868,0.13719194
0.4,0.0,1.2,0.0,0.0,0,-1.9274462,0.31695306,-0.6399798,-0.26259312,0.28655723,0.9489991,-0.8527528,1.6044306,0.70936865,0.58235055,-0.4323315,1.4594405,0.3015144,-0.6410641
0.4,0.0,1.2,0.0,0.0,0,-1.4599134,0.3363955,-0.6432006,-0.23265143,0.22787271,0.96561044,-0.8686155,1.6895555,0.6190969,0.6368432,-0.4477474,0.87916815,0.2157683,0.03186043
0.4,0.0,1.2,0.0,0.0,0,-1.5623375,0.27277654,-0.5687759,-0.23757617,0.13118683,1.0678401,-0.8922936,1.445987,0.6477025,0.6011432,-0.40235835,0.4832144,0.26451623,-0.12093928
0.4,0.0,1.2,0.0,0.0,0,-1.7678609,0.24847844,-0.5140594,-0.27635348,0.15779155,1.0447248,-0.93347716,1.6541384,0.63558507,0.58788157,-0.4005535,0.9409121,0.27915898,-0.64249885
0.4,0.0,1.2,0.0,0.0,0,-1.4759921,0.19860475,-0.53058404,-0.226972,0.09758116,0.9687802,-0.844278,1.5368973,0.5958601,0.47922468,-0.42293566,0.4774291,0.28660947,-0.4419201
0.4,0.0,1.2,0.0,0.0,0,-1.5520487,0.269745,-0.74389786,-0.23185074,0.26803592,0.9279086,-0.8127455,1.4102117,0.62247306,0.58558345,-0.3965329,0.53339195,0.28595376,-0.10478384
0.4,0.0,1.2,0.0,0.0,0,-1.6778259,0.24508245,-0.45083714,-0.26321077,0.18347263,0.97453564,-0.87745726,1.3514836,0.6116325,0.67576414,-0.39437607,0.6095299,0.29515362,-0.44212738
0.4,0.0,1.2,0.0,0.0,0,-1.568617,0.2556128,-0.6546118,-0.29733595,0.043684673,1.1031623,-0.88179874,1.5470818,0.6616522,0.40562212,-0.39926848,0.7480901,0.26568967,-0.0029113365
0.4,0.0,1.2,0.0,0.0,0,-1.5873256,0.3034291,-0.6861904,-0.26672015,0.13784443,1.0767301,-0.84551746,1.561048,0.6408978,0.6170818,-0.40913007,0.6341967,0.331765,-0.42029908
0.4,0.0,1.2,0.0,0.0,0,-1.543765,0.22562881,-0.5818338,-0.23017506,-0.05474162,1.0790447,-0.86214983,1.6716957,0.62616277,0.29210877,-0.39199457,0.81863683,0.308393,0.32070565
0.4,0.0,1.2,0.0,0.0,0,-1.6997342,0.27713954,-0.5917882,-0.18439676,0.17318018,1.0717812,-0.92820716,1.6359769,0.6456514,0.3716948,-0.4174302,0.7182354,0.29729283,0.28342652
0.4,0.0,1.2,0.0,0.0,0,-1.4610903,0.19186775,-0.70255655,-0.2455739,0.1506341,1.0684148,-0.9263739,1.5391053,0.650115,0.49396893,-0.4165488,0.73099333,0.2999706,0.41536283
0.4,0.0,1.2,0.0,0.0,0,-1.7123262,0.15200712,-0.64316636,-0.2806028,0.14209622,1.2111593,-0.89099085,1.6438836,0.63767195,0.4643893,-0.4127044,0.13203572,0.20756717,-0.1482265
0.4,0.0,1.2,0.0,0.0,0,-1.5242647,0.20892291,-0.83553845,-0.30476874,0.012920116,1.2337402,-0.89015585,1.664374,0.68463504,0.38063192,-0.38947994,0.82268023,0.26270133,0.5254751
0.4,0.0,1.2,0.0,0.0,0,-1.6978788,0.3021052,-0.65112484,-0.25563186,0.35385475,1.0919145,-0.854109,1.4566225,0.6621845,0.9284611,-0.39020047,0.869589,0.3100639,0.29785928
0.4,0.0,1.2,0.0,0.0,0,-1.5573725,0.27327114,-0.61088103,-0.2957768,0.13164085,1.0647281,-0.91686684,1.7402366,0.6266491,0.43161875,-0.44140935,1.175814,0.23223314,0.33274043
0.4,0.0,1.2,0.0,0.0,0,-1.5637046,0.23413865,-0.8159739,-0.20218329,0.24227709,1.1360823,-0.8770995,1.7125393,0.66817576,0.31327832,-0.3893161,1.2803373,0.23479103,-0.027624296
0.4,0.0,1.2,0.0,0.0,0,-1.6937203,0.17134178,-0.41618055,-0.30022037,0.34725055,0.8553197,-0.87307584,1.5871403,0.6389144,0.36677298,-0.4098363,1.31812,0.28844488,0.31008452
0.4,0.0,1.2,0.0,0.0,0,-1.3750108,0.26469854,-0.49356735,-0.19274437,0.1566632,1.1222749,-0.8238078,1.6527256,0.65986454,0.8141884,-0.37683538,0.7155309,0.18941233,0.3656384
0.4,0.0,1.2,0.0,0.0,0,-1.3246201,0.22258694,-0.57499075,-0.2205741,0.09742187,1.0554143,-0.8405474,1.7546456,0.6715069,0.49161878,-0.42566618,0.9973997,0.2785958,-0.774056
0.4,0.0,1.2,0.0,0.0,0,-1.4683254,0.24318372,-0.73549914,-0.31271753,0.2501658,1.1047101,-0.86469257,1.6841463,0.66418684,0.54658324,-0.41323224,0.84845984,0.28588942,0.22693239
0.4,0.0,1.2,0.0,0.0,0,-1.8245306,0.28459412,-0.5009253,-0.21539596,0.12635106,1.0593634,-0.91648453,1.5677761,0.66715944,0.49308848,-0.41897744,0.48606467,0.30224717,0.35900676
0.4,0.0,1.2,0.0,0.0,0,-1.3746558,0.28983796,-0.8026399,-0.18679458,0.14310849,1.1507511,-0.8716499,1.535232,0.65043956,0.5129776,-0.4088793,1.0607105,0.31453672,-0.008887513
0.4,0.0,1.2,0.0,0.0,0,-1.320628,0.15759544,-0.6500659,-0.23543692,0.12522626,1.0314454,-0.85728925,1.7164117,0.60340613,0.69431835,-0.42311317,0.45887652,0.32549196,0.22650474
0.4,0.0,1.2,0.0,0.0,0,-1.551036,0.17340836,-0.708521,-0.2359761,0.1947489,1.1295158,-0.8460057,1.5207428,0.6355026,0.53136563,-0.40923247,0.41668054,0.33668265,0.12494077
0.4,0.0,1.2,0.0,0.0,0,-1.4299759,0.25223568,-0.48990434,-0.18493581,0.15250659,1.1145825,-0.83278775,1.5757592,0.6165418,0.8262341,-0.43495858,0.87908816,0.38211304,0.25959647
0.4,0.0,1.2,0.0,0.0,0,-1.561105,0.26415506,-0.7158512,-0.21519944,0.24460176,1.0948534,-0.8225903,1.632578,0.60269034,0.8760109,-0.41748387,1.0907079,0.29515922,0.6753513
0.4,0.0,1.2,0.0,0.0,0,-1.3551937,0.16043389,-0.5668439,-0.22990017,0.068934865,0.99389315,-0.88676167,1.5102662,0.6186457,0.86399937,-0.39963198,0.708987,0.30448118,0.15035596
0.4,0.0,1.2,0.0,0.0,0,-1.8370641,0.24771625,-0.465702,-0.3022291,0.043532517,0.90099406,-0.95884335,1.557506,0.6745449,0.44575697,-0.37277597,0.702299,0.24168183,-0.08106359
0.4,0.0,1.2,0.0,0.0,0,-1.5529166,0.36079967,-0.8585153,-0.2649502,0.2504967,0.9563176,-0.8667675,1.3879042,0.6443286,0.5334319,-0.39746866,0.8109426,0.25599748,-0.8355383
0.4,0.0,1.2,0.0,0.0,0,-1.6004943,0.29965433,-0.73503387,-0.32234913,0.25205037,1.0687351,-0.8446628,1.6738117,0.6048696,0.3904401,-0.4346199,0.79204035,0.35424006,0.04383532
0.4,0.0,1.2,0.0,0.0,0,-1.6941353,0.22955503,-0.7147157,-0.23037009,0.14392191,1.0502293,-0.84339166,1.4329914,0.6449598,0.4664077,-0.4228584,1.3226069,0.3421445,-0.12585264
0.4,0.0,1.2,0.0,0.0,0,-1.5971084,0.25285062,-0.73364836,-0.21628313,0.1654305,1.0330294,-0.8806239,1.6076772,0.5853741,0.4565293,-0.41620672,0.8628626,0.2613807,-0.05004362
0.4,0.0,1.2,0.0,0.0,0,-1.5759609,0.17814839,-0.59239197,-0.16188233,0.19103694,1.0382149,-0.8792822,1.5538908,0.6417807,0.4606874,-0.41338152,0.8089751,0.24797483,0.34466648
0.4,0.0,1.2,0.0,0.0,0,-1.7527395,0.22552739,-0.6787428,-0.307607,0.16001074,1.0998186,-0.90127844,1.4897312,0.6593008,0.59124446,-0.4234628,0.4102552,0.20985566,1.165438
0.4,0.0,1.2,0.0,0.0,0,-1.2806178,0.21669303,-0.6757046,-0.23203574,0.012613151,1.0977278,-0.86107963,1.7060438,0.6902098,0.8454774,-0.4522232,1.0287737,0.3065419,-0.18413882
0.4,0.0,1.2,0.0,0.0,0,-1.3915546,0.29394457,-0.65859306,-0.34704617,0.13627574,1.196221,-0.8838744,1.7598884,0.6233699,0.7468588,-0.4214774,1.1938602,0.27565014,0.04297936
0.4,0.0,1.2,0.0,0.0,0,-1.683092,0.2893692,-0.61211604,-0.24425273,0.14055803,1.0511098,-0.9190028,1.6953723,0.63755304,0.4676065,-0.42967966,0.83944356,0.32544333,-0.18132302
0.4,0.0,1.2,0.0,0.0,0,-1.2925503,0.21163765,-0.5973381,-0.26897898,0.15984173,1.054827,-0.9025824,1.6281106,0.7058614,0.74879843,-0.40172553,0.78048354,0.26944292,-0.9381464
0.4,0.0,1.2,0.0,0.0,0,-1.5366012,0.21756072,-0.5100047,-0.26997554,0.13914391,1.2120997,-0.85894805,1.4547199,0.6195069,0.8745648,-0.46483308,0.3794667,0.25753027,0.056915045
0.4,0.0,1.2,0.0,0.0,0,-1.5596077,0.24517028,-0.47106487,-0.17999859,0.22917561,1.0881118,-0.9375363,1.6397347,0.58449644,0.67768794,-0.40105692,1.1826892,0.26106733,-0.3911351
0.4,0.0,1.2,0.0,0.0,0,-1.3474354,0.19750226,-0.71595293,-0.23718005,0.19460066,0.916169,-0.9007696,1.511274,0.62257695,0.6415612,-0.43027538,1.0967466,0.33924708,0.030075563
0.4,0.0,1.2,0.0,0.0,0,-1.3791863,0.30077958,-0.70801115,-0.34255505,0.24960665,1.0874914,-0.8285014,1.4773495,0.6407925,1.0257047,-0.40577418,0.5904409,0.32844868,0.06001291
0.4,0.0,1.2,0.0,0.0,0,-1.921702,0.25609788,-0.62759656,-0.23105404,0.14459194,1.1640345,-0.82498395,1.5796088,0.7117301,0.41486153,-0.41216138,1.0041654,0.2757185,-0.073464595
0.4,0.0,1.2,0.0,0.0,0,-1.8665208,0.2728395,-0.7743742,-0.2048041,0.07789904,1.1838417,-0.92288584,1.6273924,0.7234639,0.5573113,-0.41834682,0.88091904,0.2452448,0.7551288
0.4,0.0,1.2,0.0,0.0,0,-2.0528336,0.25445426,-0.4007057,-0.23351413,0.13496846,1.0160148,-0.86606866,1.5022997,0.6706723,0.53660333,-0.37864605,0.88909185,0.23573531,-0.06158674
0.4,0.0,1.2,0.0,0.0,0,-1.7135583,0.21182002,-0.59246016,-0.20096089,0.08531896,1.0204062,-0.8306013,1.4270471,0.66540235,0.60438126,-0.41051075,0.23374933,0.26951918,-0.24695931
0.4,0.0,1.2,0.0,0.0,0,-1.2658297,0.25942874,-0.6546378,-0.18876365,0.23016256,1.2368606,-0.9066466,1.663096,0.6710326,0.8011854,-0.40959734,0.6140086,0.30994412,-0.88938266
0.4,0.0,1.2,0.0,0.0,0,-1.60335,0.14511438,-0.622524,-0.29291597,0.20943521,1.1973828,-0.9417703,1.4636725,0.67278135,0.7110873,-0.4105404,1.0559272,0.2329867,-0.2134045
0.4,0.0,1.2,0.0,0.0,0,-1.3680676,0.33567488,-0.6722701,-0.2594441,-0.047940128,1.0535011,-0.91806054,1.561769,0.5471905,0.52308494,-0.41617575,0.8900352,0.17687668,0.19212292
0.4,0.0,1.2,0.0,0.0,0,-1.2176442,0.15569212,-0.7264173,-0.25456676,0.11199701,1.0012174,-0.873445,1.8026229,0.59879315,0.5724046,-0.42390475,0.5877076,0.2517367,-0.27462932
0.4,0.0,1.2,0.0,0.0,0,-1.4987023,0.23877786,-0.47598347,-0.16625236,0.12304879,1.1357353,-0.81882364,1.6861162,0.6386217,0.8521647,-0.38167298,0.8287342,0.29712027,0.6547246
0.4,0.0,1.2,0.0,0.0,0,-1.519456,0.29750234,-0.6076106,-0.22182007,0.20372836,1.2875609,-0.8797374,1.7123445,0.5862001,0.6994148,-0.5142406,1.0908008,0.29070356,0.47549996
0.4,0.0,1.2,0.0,0.0,0,-1.4903785,0.22442706,-0.5089648,-0.27375713,0.09868591,1.1377516,-0.8482182,1.5541265,0.6027074,0.5480518,-0.40974596,0.6293563,0.29677024,-0.5784739
0.4,0.0,1.2,0.0,0.0,0,-1.5274447,0.20315835,-0.50508845,-0.21457195,0.37634072,1.1280304,-0.87580556,1.5962995,0.621437,0.77743477,-0.41389865,0.6627703,0.14714913,0.011949482
0.4,0.0,1.2,0.0,0.0,0,-1.558091,0.14072342,-0.5092642,-0.3026591,0.17890036,1.0909245,-0.85943395,1.6060953,0.5899225,0.64036083,-0.39816946,0.75478405,0.2936864,-0.31733185
0.4,0.0,1.2,0.0,0.0,0,-1.5815607,0.11885117,-0.4476807,-0.26868168,0.1085494,1.1837827,-0.8820039,1.6535254,0.64168394,0.55936486,-0.43156236,1.0385449,0.25181273,-0.15966794
0.4,0.0,1.2,0.0,0.0,0,-1.2822703,0.2580234,-0.767943,-0.28188622,0.14136145,1.1204786,-0.9004882,1.5311007,0.60855377,0.6981594,-0.38909113,0.91726863,0.22942662,-0.60318923
0.4,0.0,1.2,0.0,0.0,0,-1.3358442,0.21916576,-0.6855151,-0.28627774,-0.0090619195,1.2304603,-0.89886963,1.4803742,0.5997717,0.91343445,-0.39898333,0.6873578,0.30877125,-0.4315271
0.4,0.0,1.2,0.0,0.0,0,-1.6790528,0.24930225,-0.71774936,-0.19357905,0.13236944,0.9131082,-0.9353638,1.5145655,0.5656231,0.549139,-0.43024784,0.9225143,0.32368022,-0.10416191
0.4,0.0,1.2,0.0,0.0,0,-1.8752335,0.25052166,-0.5410448,-0.25804967,0.20156959,1.0206597,-0.8630776,1.6191845,0.63204217,0.24435307,-0.40288463,0.8736932,0.30070576,0.39353645
0.4,0.0,1.2,0.0,0.0,0,-1.5690695,0.18324097,-0.78840464,-0.19182055,0.118812025,1.0868807,-0.9132917,1.3780951,0.680384,0.7108326,-0.4015914,0.60242844,0.28320977,0.8630547
0.4,0.0,1.2,0.0,0.0,0,-1.7332139,0.15093075,-0.6546541,-0.28956798,0.13092025,1.1314375,-0.8765701,1.5590643,0.58910674,0.587957,-0.38917238,0.756308,0.23972073,-0.12705486
0.4,0.0,1.2,0.0,0.0,0,-1.7744439,0.1980007,-0.6176365,-0.26548567,0.06814917,1.1468073,-0.94335234,1.5228357,0.67091054,0.58500683,-0.43661788,0.5571924,0.23596044,0.20828459
0.4,0.0,1.2,0.0,0.0,0,-1.6157126,0.16731827,-0.8125642,-0.26582032,0.20367043,1.0549837,-0.9154356,1.5037904,0.659185,0.5723369,-0.405673,1.0502807,0.27320275,0.0144475885
0.4,0.0,1.2,0.0,0.0,0,-1.6067257,0.24364303,-0.7722165,-0.27342072,0.17508906,1.101384,-0.9200525,1.4772483,0.62177026,0.51545924,-0.38069087,0.65283585,0.26893896,0.12681587
0.4,0.0,1.2,0.0,0.0,0,-1.6876796,0.18329716,-0.6167485,-0.19870411,0.1062325,1.0154533,-0.853549,1.4555036,0.650814,0.696418,-0.4101536,0.37506115,0.28795362,0.17459516
0.4,0.0,1.2,0.0,0.0,0,-1.8043345,0.15054676,-0.5830009,-0.2872036,0.13433094,1.1734482,-0.87057996,1.6902243,0.67885095,0.4086105,-0.39736885,0.75844437,0.33384907,-0.10466383
0.4,0.0,1.2,0.0,0.0,0,-1.8088433,0.1756669,-0.67556304,-0.24684478,0.103392445,1.089987,-0.96407956,1.4854707,0.65687174,0.5762159,-0.43329188,1.0788112,0.1955305,-0.054192863
0.4,0.0,1.2,0.0,0.0,0,-1.7368323,0.26133907,-0.5471692,-0.32870772,0.06642609,1.186119,-0.91492623,1.5346283,0.6918674,0.5379412,-0.4210232,0.93927693,0.34411472,0.08816957
0.4,0.0,1.2,0.0,0.0,0,-1.7497358,0.16550334,-0.65118265,-0.25915843,0.09985647,1.0707927,-0.9114162,1.575412,0.6843049,0.5123213,-0.40745145,0.6818129,0.25229567,-0.18920435
0.4,0.0,1.2,0.0,0.0,0,-1.6757109,0.16905604,-0.6542515,-0.19163476,0.12822638,1.0029637,-0.9223446,1.5124905,0.7217302,0.65556955,-0.43062228,0.8277902,0.22429289,-0.16558133
0.4,0.0,1.2,0.0,0.0,0,-1.6247063,0.23791571,-0.72291005,-0.25789717,0.040488243,1.1418055,-0.8905441,1.5123997,0.66601646,0.5092067,-0.38822904,1.080328,0.23449935,1.1307148
0.4,0.0,1.2,0.0,0.0,0,-1.5105294,0.28348085,-0.6195562,-0.2593724,0.28819463,1.0835787,-0.82012737,1.7202756,0.5810216,0.8742913,-0.39452684,0.5932962,0.2675826,0.48315865
0.4,0.0,1.2,0.0,0.0,0,-1.3546149,0.25693494,-0.73360056,-0.25704062,0.2146029,1.1438814,-0.8458912,1.5700744,0.5551149,0.6533734,-0.43246427,0.9002526,0.29120177,0.44453302
0.4,0.0,1.2,0.0,0.0,0,-1.6851603,0.26283148,-0.6545576,-0.28095174,0.25622153,1.2021773,-0.8963232,1.4359678,0.6086553,0.7116279,-0.41833717,0.763798,0.28734192,-0.43210414
0.4,0.0,1.2,0.0,0.0,0,-1.366805,0.3764919,-0.5836355,-0.18418008,0.1563615,1.1418259,-0.91920793,1.5702709,0.6212504,0.7167882,-0.40937123,0.9869827,0.30293253,0.6720651
0.4,0.0,1.2,0.0,0.0,0,-1.6753535,0.24641013,-0.64488703,-0.20645013,0.05919701,1.1375117,-0.9177771,1.4499328,0.6610338,0.65065116,-0.37348747,0.37177062,0.2574008,0.46041155
0.4,0.0,1.2,0.0,0.0,0,-1.484861,0.2302186,-0.7523466,-0.22691588,0.16373217,1.0712746,-0.8157967,1.6774838,0.5879336,0.29528198,-0.4087332,0.9073718,0.35361937,0.07374092
0.4,0.0,1.2,0.0,0.0,0,-1.6649517,0.24459344,-0.42416328,-0.19698496,0.27283764,0.9960483,-0.9379075,1.3973004,0.6547618,0.79118216,-0.42380178,0.930319,0.21966973,-0.6388451
0.4,0.0,1.2,0.0,0.0,0,-1.6451924,0.24186167,-0.60599905,-0.30695882,0.18273717,1.1551062,-0.90901506,1.5398294,0.59128255,0.5744604,-0.45705912,0.8962328,0.2279221,-0.3590128
0.4,0.0,1.2,0.0,0.0,0,-1.7393811,0.2079689,-0.59793556,-0.30726767,0.33953682,1.2620096,-0.8587906,1.4624722,0.6240694,0.67678577,-0.41391772,0.9156978,0.27620327,0.3247108
0.4,0.0,1.2,0.0,0.0,0,-1.3559502,0.20111893,-0.7303661,-0.27443224,0.20111844,1.2419732,-0.91404366,1.6900026,0.6107704,0.35442552,-0.42281973,0.62437594,0.28155455,-0.653198
0.4,0.0,1.2,0.0,0.0,0,-1.5464896,0.23237436,-0.5206374,-0.28916425,0.13253878,1.1541442,-0.9090137,1.603746,0.6245016,0.53453696,-0.43907067,1.0910162,0.28567883,0.2884925
0.4,0.0,1.2,0.0,0.0,0,-1.356721,0.26003537,-0.745998,-0.26691025,0.19645733,1.2092587,-0.9165491,1.5708175,0.5939888,0.5605188,-0.3936887,1.19947,0.22203635,0.7922021
0.4,0.0,1.2,0.0,0.0,0,-1.7100544,0.23409912,-0.6787888,-0.2142521,0.17386335,1.025651,-0.8780637,1.4288162,0.6607368,0.7457965,-0.37540877,0.7987603,0.22882402,0.05452114
0.4,0.0,1.2,0.0,0.0,0,-1.785139,0.19771561,-0.618867,-0.3059139,0.20965748,1.1087182,-0.9155095,1.4702258,0.64712745,0.6633101,-0.43600535,0.7490725,0.294522,0.23375185
0.4,0.0,1.2,0.0,0.0,0,-1.6137892,0.2537125,-0.6987004,-0.29391626,0.11277179,1.0813076,-0.87403864,1.4668406,0.6276891,0.60223407,-0.4122342,1.0277508,0.3059272,-0.5418021
0.4,0.0,1.2,0.0,0.0,0,-1.8097934,0.17055473,-0.5674719,-0.21924172,0.05032292,1.0693078,-0.90000147,1.5148385,0.65735745,0.578969,-0.39583886,0.8049637,0.28972852,0.32661268
0.4,0.0,1.2,0.0,0.0,0,-1.7381467,0.2442146,-0.6156708,-0.26909494,0.1713137,1.0824324,-0.8759639,1.4510229,0.6412248,0.63453615,-0.4318672,0.8474485,0.24685878,-0.633782
0.4,0.0,1.2,0.0,0.0,0,-1.6922003,0.16564618,-0.75971276,-0.23356152,0.09907614,1.0902188,-0.84618086,1.8093325,0.63277304,0.12641355,-0.413472,1.1000204,0.2127438,0.23855025
0.4,0.0,1.2,0.0,0.0,0,-1.6552606,0.19988155,-0.6690539,-0.22487746,0.2422013,1.0006453,-0.85032374,1.5197376,0.6298959,0.61359036,-0.41878006,0.6169207,0.2376159,0.5866644
0.4,0.0,1.2,0.0,0.0,0,-1.4546353,0.22966318,-0.75027037,-0.20715007,0.03643152,1.2190406,-0.8770163,1.3077952,0.59565926,0.9136065,-0.3692171,0.5028636,0.30056044,-0.1444565
0.4,0.0,1.2,0.0,0.0,0,-1.8427002,0.16790062,-0.5633266,-0.22203116,0.36804613,1.1137847,-0.903385,1.3872445,0.6098275,0.69899523,-0.37370902,0.7863816,0.3075289,-0.41089728
0.4,0.0,1.2,0.0,0.0,0,-1.5343691,0.23474428,-0.56737626,-0.28200963,0.11379655,1.2064204,-0.9030074,1.3846741,0.59765977,0.8066083,-0.4234674,0.53654927,0.29369694,-0.68403476
0.4,0.0,1.2,0.0,0.0,0,-1.6047558,0.19135058,-0.7581124,-0.2553084,0.07626178,1.2649809,-0.84390104,1.5308183,0.6070401,0.65502244,-0.38997567,0.65517634,0.2936292,-0.07931267
0.4,0.0,1.2,0.0,0.0,0,-1.7121111,0.23244575,-0.58832264,-0.22937576,0.0482758,1.1449064,-0.89633703,1.3881496,0.67257607,0.73954546,-0.38303503,0.8546055,0.24460757,0.67376906
0.4,0.0,1.2,0.0,0.0,0,-1.6611727,0.21407422,-0.6117919,-0.22631101,0.034775715,1.0636309,-0.87175584,1.565164,0.6190946,0.35567465,-0.4195068,0.6826329,0.29456085,-0.22035764
0.4,0.0,1.2,0.0,0.0,0,-1.5538759,0.19606858,-0.7207825,-0.28941205,0.17087156,1.186241,-0.9145352,1.5918725,0.6568878,0.5257306,-0.4470378,0.890596,0.30188748,-0.15709247
0.4,0.0,1.2,0.0,0.0,0,-1.7546307,0.24736999,-0.6632712,-0.30502084,0.032660414,1.1134086,-0.8798645,1.564039,0.68621457,0.49529564,-0.41883674,0.94874126,0.27818468,0.058945443
0.4,0.0,1.2,0.0,0.0,0,-1.5371276,0.17619008,-0.66361374,-0.2650915,0.16449712,1.0840056,-0.89014786,1.4977734,0.62477154,0.65773284,-0.43209976,0.7330704,0.25942963,-0.14228041
0.4,0.0,1.2,0.0,0.0,0,-1.4243988,0.22129081,-0.70451814,-0.24546853,0.03653712,1.0762773,-0.841395,1.6079334,0.6374338,0.45974892,-0.4329456,1.0096488,0.29939216,0.2046086
0.4,0.0,1.2,0.0,0.0,0,-1.6806192,0.285685,-0.82821536,-0.27017018,0.29899412,1.080847,-0.90897334,1.5827343,0.6620534,0.32704985,-0.37549996,0.932233,0.19717392,-0.63719517
0.4,0.0,1.2,0.0,0.0,0,-1.7914925,0.21949735,-0.6369045,-0.22937788,0.24266824,1.1155602,-0.90016603,1.538537,0.64356804,0.5082449,-0.37152427,0.864307,0.27262414,-0.22859912
0.4,0.0,1.2,0.0,0.0,0,-1.5985125,0.22464828,-0.7256769,-0.23651904,0.0040442315,1.0706065,-0.8935677,1.4787706,0.6949709,0.6105715,-0.41197184,0.57088745,0.20719938,0.029821128
0.4,0.0,1.2,0.0,0.0,0,-1.5171249,0.29669526,-0.7059537,-0.272291,0.20148538,1.0827123,-0.7979369,1.3565371,0.5691329,0.73838246,-0.40316045,1.0290589,0.20797049,-0.18199888
0.4,0.0,1.2,0.0,0.0,0,-1.4390079,0.15770216,-0.6179179,-0.23068161,0.23592854,1.0688158,-0.840045,1.5268198,0.6558254,0.6995846,-0.45875856,0.78247267,0.2965716,-0.044667717
0.4,0.0,1.2,0.0,0.0,0,-1.8807942,0.18386427,-0.62243384,-0.22925335,0.1997856,1.078932,-0.86182874,1.3703285,0.6386859,0.6376379,-0.3885943,0.77916753,0.38137797,-0.15338553
0.4,0.0,1.2,0.0,0.0,0,-1.4886458,0.12422972,-0.7477166,-0.25662205,0.28620556,1.1904577,-0.8322433,1.5370607,0.58336926,0.56593585,-0.38988587,1.3603041,0.20763175,-0.34926766
0.4,0.0,1.2,0.0,0.0,0,-1.7009975,0.19781923,-0.6798369,-0.26849034,0.06900838,1.2844983,-0.82193214,1.4800314,0.6131315,0.6154785,-0.40608418,1.2531662,0.2938743,0.24005473
0.4,0.0,1.2,0.0,0.0,0,-1.7277279,0.19575866,-0.5884647,-0.23334268,0.050190184,1.1352429,-0.94698256,1.5905277,0.7150504,0.514848,-0.42536974,0.5945101,0.35081378,-0.46902376
0.4,0.0,1.2,0.0,0.0,0,-1.4479607,0.25517058,-0.51688015,-0.25946724,-0.0119841425,1.096314,-0.87860173,1.5584562,0.632572,0.571902,-0.45610473,0.9263732,0.26390627,-0.017817145
0.4,0.0,1.2,0.0,0.0,0,-1.8418552,0.16286765,-0.625489,-0.22887197,0.15993239,1.2298965,-0.84488225,1.5928214,0.65270734,0.5221136,-0.42081434,0.98613536,0.21769352,-0.138045
0.4,0.0,1.2,0.0,0.0,0,-1.7481867,0.33019277,-0.8159568,-0.26144603,0.10539501,0.9913488,-0.8824438,1.5687555,0.598527,0.49135485,-0.39942643,0.95968646,0.298769,0.06951792
0.4,0.0,1.2,0.0,0.0,0,-1.6464936,0.17798129,-0.74474484,-0.2204861,0.25964686,1.1597644,-0.90800554,1.6554558,0.6378865,0.49127322,-0.36449507,0.89118874,0.29206946,0.74386823
0.4,0.0,1.2,0.0,0.0,0,-1.6278841,0.173467,-0.46707237,-0.24825454,0.1796292,0.9156913,-0.869469,1.4791377,0.6522304,0.5288019,-0.39419666,0.85880065,0.2755069,0.01688548
0.4,0.0,1.2,0.0,0.0,0,-1.6926504,0.18407977,-0.6082177,-0.23520331,0.011412337,1.0075827,-0.9231445,1.3613728,0.6600544,0.80499125,-0.4099787,0.064355515,0.23628874,-0.16532311
0.4,0.0,1.2,0.0,0.0,0,-1.5907463,0.22850509,-0.67079103,-0.23827654,0.115987085,1.1326835,-0.8783794,1.3342493,0.6366559,0.74651474,-0.39892456,0.49398318,0.21722595,0.16390964
0.4,0.0,1.2,0.0,0.0,0,-1.6186137,0.24624887,-0.48901188,-0.24312234,0.118583694,1.0615906,-0.85230297,1.5490291,0.5800147,0.5952883,-0.41817498,0.43098384,0.22895601,0.030053124
0.4,0.0,1.2,0.0,0.0,0,-1.6175176,0.17820111,-0.5444791,-0.24275106,0.13417707,1.1201051,-0.84958196,1.4489192,0.6184355,0.7493926,-0.39570192,0.7775856,0.23608479,0.049651016
0.4,0.0,1.2,0.0,0.0,0,-1.6807687,0.19782203,-0.746539,-0.20211989,0.307528,0.9708575,-0.87522626,1.6949966,0.6071044,0.2046342,-0.41776896,1.0102915,0.31815588,0.08842832
0.4,0.0,1.2,0.0,0.0,0,-1.6661915,0.17717654,-0.7010451,-0.22589047,0.17682661,1.0014925,-0.8958388,1.4323938,0.6483713,0.681839,-0.37224674,0.9229028,0.3075625,0.32813704
0.4,0.0,1.2,0.0,0.0,0,-1.7124383,0.24617857,-0.48772356,-0.22677594,0.15780699,1.1891949,-0.8550961,1.4159516,0.5715077,0.66893417,-0.43321827,1.1340096,0.33116782,0.76409334
0.4,0.0,1.2,0.0,0.0,0,-1.515359,0.2500311,-0.58529395,-0.28780556,0.16058089,1.1338319,-0.8611825,1.5476869,0.6063153,0.43274948,-0.41884232,0.8945923,0.2408254,-0.8495034
0.4,0.0,1.2,0.0,0.0,0,-1.4300559,0.279044,-0.69316614,-0.16749007,0.04574163,1.091302,-0.84703285,1.3603334,0.624162,1.0320225,-0.44736737,0.839431,0.2483486,0.45058727
0.4,0.0,1.2,0.0,0.0,0,-1.425828,0.25698048,-0.6758714,-0.22999875,0.21672456,1.0360771,-0.8954429,1.6560868,0.5963816,0.3838606,-0.42725563,0.71878886,0.3646019,-0.25147572
0.4,0.0,1.2,0.0,0.0,0,-1.6244522,0.25671375,-0.60387486,-0.29111454,0.2199174,1.2640527,-0.900652,1.4733334,0.6129293,0.7032539,-0.41586795,0.52638966,0.2567178,0.017659986
0.4,0.0,1.2,0.0,0.0,0,-1.6732069,0.15754426,-0.54103655,-0.22687456,-0.0027376593,1.0706689,-0.9310347,1.4837662,0.67807174,0.60165167,-0.3934115,0.7843448,0.3064687,-0.22617722
0.4,0.0,1.2,0.0,0.0,0,-1.5541527,0.19367887,-0.73253846,-0.22936231,0.030433828,1.0900462,-0.9069926,1.4449646,0.63486874,0.62475383,-0.429616,0.8849656,0.290016,0.49538162
0.4,0.0,1.2,0.0,0.0,0,-1.6672151,0.1564011,-0.64803004,-0.21749087,0.26962295,1.1866711,-0.8836576,1.405047,0.5858034,0.78159606,-0.3942063,0.7332628,0.25196233,0.20348327
0.4,0.0,1.2,0.0,0.0,0,-1.5903459,0.2735856,-0.4813264,-0.2338756,0.043978184,1.0486819,-0.8425009,1.5555884,0.6063074,0.55716383,-0.40642735,0.9173503,0.28831527,-0.02918951
0.4,0.0,1.2,0.0,0.0,0,-1.96944,0.32106522,-0.7132671,-0.27559802,0.28748396,1.1134126,-0.8558766,1.7242553,0.6515148,0.28447887,-0.4056697,1.0133604,0.34843624,0.35587513
0.4,0.0,1.2,0.0,0.0,0,-1.6249737,0.18753965,-0.5914242,-0.25894448,0.25905305,1.0456413,-0.8906955,1.4365902,0.6399962,0.74024606,-0.4355003,0.9567142,0.21390033,0.095224865
0.4,0.0,1.2,0.0,0.0,0,-1.565452,0.26586652,-0.62338626,-0.2556341,-0.08053391,1.0927876,-0.8605705,1.5657134,0.5984855,0.47733822,-0.406792,0.93878865,0.28505966,0.1747031
0.4,0.0,1.2,0.0,0.0,0,-1.7965335,0.2250326,-0.55538654,-0.26471096,0.27087384,1.1292483,-0.840935,1.6314638,0.6471209,0.39708838,-0.37890667,0.6698515,0.18425356,0.019672774
0.4,0.0,1.2,0.0,0.0,0,-1.6648861,0.18908203,-0.58387953,-0.11870369,0.15662289,1.1831392,-0.8559486,1.5793114,0.6722731,0.5071089,-0.45448217,0.819321,0.26391193,-0.04316465
0.4,0.0,1.2,0.0,0.0,0,-1.8279662,0.3357105,-0.6964975,-0.20866479,0.24068451,1.0030036,-0.9148073,1.6118901,0.6424631,0.40820283,-0.42000923,0.50189114,0.3656521,-0.23956163
0.4,0.0,1.2,0.0,0.0,0,-2.076555,0.31452096,-0.4635059,-0.2247581,0.27863574,0.9588757,-0.9083067,1.9709591,0.696755,0.0093040215,-0.40103227,0.54938805,0.21984816,0.69097656
0.4,0.0,1.2,0.0,0.0,0,-2.076555,0.31452096,-0.4635059,-0.2247581,0.27863574,0.9588757,-0.9083067,1.9709591,0.696755,0.0093040215,-0.40103227,0.54938805,0.21984816,0.69097656
0.4,0.0,1.2,0.0,0.0,0,-2.076555,0.31452096,-0.4635059,-0.2247581,0.27863574,0.9588757,-0.9083067,1.9709591,0.696755,0.0093040215,-0.40103227,0.54938805,0.21984816,0.69097656
0.4,0.0,1.2,0.0,0.0,0,-2.076555,0.31452096,-0.4635059,-0.2247581,0.27863574,0.9588757,-0.9083067,1.9709591,0.696755,0.0093040215,-0.40103227,0.54938805,0.21984816,0.69097656
0.4,0.0,1.2,0.0,0.0,0,-2.076555,0.31452096,-0.4635059,-0.2247581,0.27863574,0.9588757,-0.9083067,1.9709591,0.696755,0.0093040215,-0.40103227,0.54938805,0.21984816,0.69097656
0.4,0.0,1.2,0.0,0.0,0,-2.076555,0.31452096,-0.4635059,-0.2247581,0.27863574,0.9588757,-0.9083067,1.9709591,0.696755,0.0093040215,-0.40103227,0.54938805,0.21984816,0.69097656
0.4,0.0,1.2,0.0,0.0,0,-2.076555,0.31452096,-0.4635059,-0.2247581,0.27863574,0.9588757,-0.9083067,1.9709591,0.696755,0.0093040215,-0.40103227,0.54938805,0.21984816,0.69097656
0.4,0.0,1.2,0.0,0.0,0,-2.076555,0.31452096,-0.4635059,-0.2247581,0.27863574,0.9588757,-0.9083067,1.9709591,0.696755,0.0093040215,-0.40103227,0.54938805,0.21984816,0.69097656
0.4,0.0,1.2,0.0,0.0,0,-1.7644727,0.34122556,-0.74460584,-0.20296457,0.0060273646,0.9456789,-0.88725686,1.7068026,0.6287558,0.14692542,-0.4072284,1.2330571,0.33393154,-0.110236675
0.4,0.0,1.2,0.0,0.0,0,-1.7644727,0.34122556,-0.74460584,-0.20296457,0.0060273646,0.9456789,-0.88725686,1.7068026,0.6287558,0.14692542,-0.4072284,1.2330571,0.33393154,-0.110236675
0.4,0.0,1.2,0.0,0.0,0,-1.7644727,0.34122556,-0.74460584,-0.20296457,0.0060273646,0.9456789,-0.88725686,1.7068026,0.6287558,0.14692542,-0.4072284,1.2330571,0.33393154,-0.110236675
0.4,0.0,1.2,0.0,0.0,0,-1.7644727,0.34122556,-0.74460584,-0.20296457,0.0060273646,0.9456789,-0.88725686,1.7068026,0.6287558,0.14692542,-0.4072284,1.2330571,0.33393154,-0.110236675
0.4,0.0,1.2,0.0,0.0,0,-1.7644727,0.34122556,-0.74460584,-0.20296457,0.0060273646,0.9456789,-0.88725686,1.7068026,0.6287558,0.14692542,-0.4072284,1.2330571,0.33393154,-0.110236675
0.4,0.0,1.2,0.0,0.0,0,-1.7644727,0.34122556,-0.74460584,-0.20296457,0.0060273646,0.9456789,-0.88725686,1.7068026,0.6287558,0.14692542,-0.4072284,1.2330571,0.33393154,-0.110236675
0.4,0.0,1.2,0.0,0.0,0,-1.7644727,0.34122556,-0.74460584,-0.20296457,0.0060273646,0.9456789,-0.88725686,1.7068026,0.6287558,0.14692542,-0.4072284,1.2330571,0.33393154,-0.110236675
0.4,0.0,1.2,0.0,0.0,0,-2.029967,0.2937672,-0.55427724,-0.28167564,0.15540001,1.1804974,-0.86903083,1.5762818,0.67984796,0.48113874,-0.39590564,0.53071696,0.3111573,0.06183918
0.4,0.0,1.2,0.0,0.0,0,-2.029967,0.2937672,-0.55427724,-0.28167564,0.15540001,1.1804974,-0.86903083,1.5762818,0.67984796,0.48113874,-0.39590564,0.53071696,0.3111573,0.06183918
0.4,0.0,1.2,0.0,0.0,0,-2.029967,0.2937672,-0.55427724,-0.28167564,0.15540001,1.1804974,-0.86903083,1.5762818,0.67984796,0.48113874,-0.39590564,0.53071696,0.3111573,0.06183918
0.4,0.0,1.2,0.0,0.0,0,-2.029967,0.2937672,-0.55427724,-0.28167564,0.15540001,1.1804974,-0.86903083,1.5762818,0.67984796,0.48113874,-0.39590564,0.53071696,0.3111573,0.06183918
0.4,0.0,1.2,0.0,0.0,0,-2.029967,0.2937672,-0.55427724,-0.28167564,0.15540001,1.1804974,-0.86903083,1.5762818,0.67984796,0.48113874,-0.39590564,0.53071696,0.3111573,0.06183918
0.4,0.0,1.2,0.0,0.0,0,-2.029967,0.2937672,-0.55427724,-0.28167564,0.15540001,1.1804974,-0.86903083,1.5762818,0.67984796,0.48113874,-0.39590564,0.53071696,0.3111573,0.06183918
0.4,0.0,1.2,0.0,0.0,0,-2.029967,0.2937672,-0.55427724,-0.28167564,0.15540001,1.1804974,-0.86903083,1.5762818,0.67984796,0.48113874,-0.39590564,0.53071696,0.3111573,0.06183918
0.4,0.0,1.2,0.0,0.0,0,-2.029967,0.2937672,-0.55427724,-0.28167564,0.15540001,1.1804974,-0.86903083,1.5762818,0.67984796,0.48113874,-0.39590564,0.53071696,0.3111573,0.06183918
0.4,0.0,1.2,0.0,0.0,0,-1.8250713,0.24946506,-0.7494597,-0.20185602,0.2252147,0.993809,-0.9249554,1.5764939,0.63359433,0.45332336,-0.40041542,0.6788566,0.2540721,0.43575442
0.4,0.0,1.2,0.0,0.0,0,-1.8250713,0.24946506,-0.7494597,-0.20185602,0.2252147,0.993809,-0.9249554,1.5764939,0.63359433,0.45332336,-0.40041542,0.6788566,0.2540721,0.43575442
0.4,0.0,1.2,0.0,0.0,0,-1.8250713,0.24946506,-0.7494597,-0.20185602,0.2252147,0.993809,-0.9249554,1.5764939,0.63359433,0.45332336,-0.40041542,0.6788566,0.2540721,0.43575442
0.4,0.0,1.2,0.0,0.0,0,-1.8250713,0.24946506,-0.7494597,-0.20185602,0.2252147,0.993809,-0.9249554,1.5764939,0.63359433,0.45332336,-0.40041542,0.6788566,0.2540721,0.43575442
0.4,0.0,1.2,0.0,0.0,0,-1.8250713,0.24946506,-0.7494597,-0.20185602,0.2252147,0.993809,-0.9249554,1.5764939,0.63359433,0.45332336,-0.40041542,0.6788566,0.2540721,0.43575442
0.4,0.0,1.2,0.0,0.0,0,-1.8250713,0.24946506,-0.7494597,-0.20185602,0.2252147,0.993809,-0.9249554,1.5764939,0.63359433,0.45332336,-0.40041542,0.6788566,0.2540721,0.43575442
0.4,0.0,1.2,0.0,0.0,0,-1.8250713,0.24946506,-0.7494597,-0.20185602,0.2252147,0.993809,-0.9249554,1.5764939,0.63359433,0.45332336,-0.40041542,0.6788566,0.2540721,0.43575442
0.4,0.0,1.2,0.0,0.0,0,-1.8250713,0.24946506,-0.7494597,-0.20185602,0.2252147,0.993809,-0.9249554,1.5764939,0.63359433,0.45332336,-0.40041542,0.6788566,0.2540721,0.43575442
0.4,0.0,1.2,0.0,0.0,0,-1.8018498,0.25499701,-0.79948366,-0.25325224,0.2030196,1.1173145,-0.8206381,1.6533127,0.60346437,0.45699587,-0.40438926,0.9296628,0.2603878,-0.123000324
