sanky1234/BimanualDexCatch/isaacgymenvs/cem_results/May31/football_pose_0.0_0.0_1.2999999999999998_0.0_0.0_0_2025-05-31.csv
x,y,z,roll,pitch,yaw,robot1/joint1,robot1/joint2,robot1/joint3,robot1/joint4,robot1/joint5,robot1/joint6,robot1/joint7,robot2/joint1,robot2/joint2,robot2/joint3,robot2/joint4,robot2/joint5,robot2/joint6,robot2/joint7
0.0,0.0,1.2999999999999998,0.0,0.0,0,-1.2283041,-1.0149714,-1.0329386,0.09194313,-0.35934666,0.79730505,1.3505235,-0.55880815,-0.79525054,-1.4541183,-0.7973174,-0.58515644,-0.1067639,-1.435014
0.0,0.0,1.2999999999999998,0.0,0.0,0,-0.78883547,-1.1085471,-1.1113517,0.030634081,-0.11563235,0.688774,0.9018097,-0.39070404,-0.76947236,-1.2339778,-0.94838864,0.387982,0.47460064,-1.8002322
0.0,0.0,1.2999999999999998,0.0,0.0,0,-1.4308002,-1.0207902,-0.9941777,0.1115421,0.24711654,0.46758112,1.3263999,-0.32604533,-0.99472266,-0.85053635,-0.7422331,0.45406795,0.44705546,-1.1672157
0.0,0.0,1.2999999999999998,0.0,0.0,0,-1.1977446,-0.95271033,-1.166975,0.2003957,0.3020114,0.39226994,1.4996028,-0.4756884,-0.90934175,-0.7969552,-0.87421393,0.6037461,0.33946314,-0.8171503
0.0,0.0,1.2999999999999998,0.0,0.0,0,-1.212394,-1.0008411,-1.0649768,0.23674196,0.25345898,0.57425374,1.2485604,-0.22348052,-0.77744657,-1.722595,-0.53996074,0.08332308,0.17042336,-1.3519839
0.0,0.0,1.2999999999999998,0.0,0.0,0,-1.084992,-1.0345533,-1.1284258,0.14092615,-0.028397027,0.5401522,1.233888,-0.38072562,-0.7398199,-1.3556757,-0.81543195,-0.577867,0.6695325,-0.73475283
0.0,0.0,1.2999999999999998,0.0,0.0,0,-1.5944372,-1.0880818,-0.97142017,0.23504522,0.49046585,0.4062222,0.48711038,-0.42956197,-0.9569806,-0.4076249,-0.87685114,0.602882,0.24703288,-1.6542029
0.0,0.0,1.2999999999999998,0.0,0.0,0,-0.8018916,-1.2406595,-1.0399183,0.23227642,-0.39211676,0.83764577,0.97413105,-0.40685326,-0.8023138,-1.3575717,-1.1370268,0.5006381,0.94184333,-0.26206774
0.0,0.0,1.2999999999999998,0.0,0.0,0,-1.3736675,-1.103628,-1.0156024,0.2640409,-0.47780254,1.1350796,0.88183326,-0.41144058,-0.7543264,-1.5081809,-0.959295,0.102304,0.71200716,-1.2581959
0.0,0.0,1.2999999999999998,0.0,0.0,0,-1.1561706,-0.94531316,-1.031543,0.15273802,-0.45389664,0.71017915,1.2379259,-0.36059105,-0.88991606,-1.152965,-1.2010691,0.92065275,-0.21312016,-0.4667836
0.0,0.0,1.2999999999999998,0.0,0.0,0,-0.8773292,-1.0825274,-1.1451665,0.1828255,-0.54347557,0.4801229,0.9146473,-0.5232992,-0.7167649,-1.5349797,-0.85595286,-0.25471157,0.09435745,-0.6101643
0.0,0.0,1.2999999999999998,0.0,0.0,0,-1.4703282,-1.2183635,-0.874676,0.12443941,-0.06040439,1.006753,1.1989635,-0.4895396,-1.1094176,-1.072776,-1.2766776,-0.6272756,0.9609527,-0.6638552
0.0,0.0,1.2999999999999998,0.0,0.0,0,-1.4246321,-0.7895001,-1.1565475,0.19558375,0.34402046,0.7952252,1.2312905,-0.4622981,-0.8155741,-1.3137239,-0.9765425,-0.97189724,-0.6191971,-2.1573718
0.0,0.0,1.2999999999999998,0.0,0.0,0,-1.2603062,-0.9883438,-0.9832666,0.0965123,0.078336,0.2600191,1.1196531,-0.46603838,-0.8947754,-1.4550517,-0.85154784,-0.3006959,0.060684577,-0.8812323
0.0,0.0,1.2999999999999998,0.0,0.0,0,-1.0651082,-1.1246198,-1.0114784,0.17501692,-0.16061084,0.66436917,1.1298816,-0.27269396,-0.78992623,-1.3207947,-1.1269492,-0.7161722,0.34525093,-0.6568967
0.0,0.0,1.2999999999999998,0.0,0.0,0,-1.15049,-0.88362205,-0.992398,0.101869784,-0.44720334,0.43964615,1.3211293,-0.3071739,-1.0253565,-0.9446901,-0.88766515,-0.5416727,0.56058306,-1.2998315
0.0,0.0,1.2999999999999998,0.0,0.0,0,-1.1030755,-1.1201,-1.0898021,0.21801543,0.034002032,0.7968771,0.49632677,-0.33052924,-0.7712203,-1.2634606,-0.8974848,0.24125433,0.10302119,-0.8016628
0.0,0.0,1.2999999999999998,0.0,0.0,0,-1.5619256,-0.97483176,-0.8201938,0.1728743,-0.29222044,0.5129903,0.52075976,-0.29097727,-0.75915176,-1.5396723,-0.8312288,-0.010988313,0.47196028,-1.2680854
0.0,0.0,1.2999999999999998,0.0,0.0,0,-1.2365872,-1.1018014,-0.8257184,0.11788832,0.04158652,0.6094551,0.6241567,-0.07949071,-0.9509843,-1.3633981,-0.8946543,-0.35694832,0.83963597,-0.9831371
0.0,0.0,1.2999999999999998,0.0,0.0,0,-1.3057678,-1.0807246,-0.9499152,0.04484942,-0.15983386,0.7774572,2.1816776,-0.36483994,-1.0015929,-0.95606637,-0.6639498,-1.6850644,-0.047755077,-0.31288928
0.0,0.0,1.2999999999999998,0.0,0.0,0,-1.0510492,-1.0156331,-1.1234471,0.2261017,-0.39826983,0.68726814,0.7458712,-0.41016394,-0.8285234,-1.1492499,-0.76864195,-0.22908883,0.29460475,-0.78087735
0.0,0.0,1.2999999999999998,0.0,0.0,0,-1.3680911,-1.0009023,-0.83390987,0.087489754,-0.365358,0.65347284,0.6750186,-0.24414518,-0.98251486,-0.52825606,-0.616066,-0.12076002,0.39798132,-0.4356859
0.0,0.0,1.2999999999999998,0.0,0.0,0,-1.115585,-1.0594089,-1.106212,0.11660772,0.31809366,0.53250456,0.24427634,-0.39933345,-0.80576277,-1.2000885,-1.0867668,-0.23147097,0.10405578,-0.29470176
0.0,0.0,1.2999999999999998,0.0,0.0,0,-1.1503971,-1.056969,-0.8901836,0.13997266,0.5674983,0.7190178,0.86944443,-0.3510898,-0.9243237,-1.3565084,-0.74813235,-0.97056955,0.50470406,-1.2409058
0.0,0.0,1.2999999999999998,0.0,0.0,0,-1.1506529,-1.0072696,-0.9389997,0.03989389,0.3311031,0.8981276,1.7326133,-0.23828512,-0.95618385,-1.0030304,-1.0961802,-1.1538632,0.4751572,-0.7260822
0.0,0.0,1.2999999999999998,0.0,0.0,0,-1.8497361,-1.191282,-1.1161041,0.11095618,0.28338388,0.54655683,0.8771147,-0.3633703,-0.8117346,-1.4036491,-0.90976095,-0.20674145,0.39891744,-0.6112913
0.0,0.0,1.2999999999999998,0.0,0.0,0,-1.2050874,-1.0165585,-1.1198145,0.059337307,-0.06466068,0.838996,1.4712987,-0.58308274,-0.9338398,-0.8853304,-0.8592477,1.0384117,0.39976615,-0.6908724
0.0,0.0,1.2999999999999998,0.0,0.0,0,-1.113038,-1.0164818,-0.9189229,0.23693228,-0.15969421,0.50656706,1.4664673,-0.28275347,-0.9888833,-0.9695127,-0.9507132,-1.2529104,0.18342654,-0.8410958
0.0,0.0,1.2999999999999998,0.0,0.0,0,-1.320177,-1.0480933,-1.1389585,0.146137,0.32398397,0.52426964,1.883182,-0.4928677,-0.8668754,-1.1026245,-1.0474633,-0.19292231,0.7263518,-0.7902233
0.0,0.0,1.2999999999999998,0.0,0.0,0,-1.1655061,-1.0485781,-1.0770772,0.11845678,0.038984507,0.6507315,1.0377254,-0.34074348,-0.752324,-1.4710604,-0.8521125,-0.21264933,-0.6322486,-0.13125895
0.0,0.0,1.2999999999999998,0.0,0.0,0,-1.438614,-0.9412639,-1.0555036,0.17148839,-0.31012648,0.17595391,2.001677,-0.2716129,-0.8004446,-1.3937751,-0.90000254,-0.1163468,0.59453213,-1.4155177
0.0,0.0,1.2999999999999998,0.0,0.0,0,-1.0010501,-0.9405726,-1.1502931,0.172207,0.46342814,0.22130993,1.1404217,-0.5199287,-0.983637,-1.1557816,-1.0982938,-0.86401165,0.08856744,-0.9603739
0.0,0.0,1.2999999999999998,0.0,0.0,0,-0.89723516,-0.9810413,-1.174667,0.09259014,0.05713285,0.7030403,1.6777807,-0.34608045,-0.62632406,-1.9770801,-1.0010542,0.19175586,0.51210165,-0.83821696
0.0,0.0,1.2999999999999998,0.0,0.0,0,-1.6178719,-0.95597535,-1.0467726,0.16376433,0.58086306,0.73039246,1.535417,-0.5599722,-0.9795611,-1.7011536,-1.1185454,0.42931363,-0.13725854,-1.4427975
0.0,0.0,1.2999999999999998,0.0,0.0,0,-1.0964425,-1.1498854,-0.9808526,0.13955252,-0.058816023,0.6792573,1.3262932,-0.4365425,-0.86228675,-1.2335563,-0.85383457,-1.199744,1.1260867,-1.4254016
0.0,0.0,1.2999999999999998,0.0,0.0,0,-0.9739149,-0.86739105,-1.177545,0.19555505,0.18609804,0.8967096,1.0414498,-0.44312856,-0.89864343,-1.1496665,-0.85493857,-1.1739898,0.023282971,-0.5679872
0.0,0.0,1.2999999999999998,0.0,0.0,0,-1.6722933,-1.1816083,-0.9008349,0.22781019,0.341043,0.3515152,1.2207154,-0.6175337,-1.001281,-1.2389139,-0.7398712,-0.9954122,-0.055088848,-1.37825
0.0,0.0,1.2999999999999998,0.0,0.0,0,-1.59171,-1.1256231,-0.67537016,0.074068196,-0.09763135,0.868083,0.3776949,-0.31076324,-0.9648605,-0.9258134,-1.1934521,-0.07548908,0.29659182,-0.7653639
0.0,0.0,1.2999999999999998,0.0,0.0,0,-1.4437131,-1.0280222,-0.93803346,-0.021963116,0.29879227,0.55345273,0.8254565,-0.20903422,-0.92470104,-1.3114012,-0.95099074,-0.24985586,0.795325,-0.71938485
0.0,0.0,1.2999999999999998,0.0,0.0,0,-1.0281335,-1.0120937,-0.94486547,0.22214064,0.09693145,0.3520836,1.2663774,-0.5020087,-1.0000415,-1.1646632,-0.951098,-0.6251905,-0.21322614,-0.78758746
0.0,0.0,1.2999999999999998,0.0,0.0,0,-1.2702461,-0.96176016,-1.1677504,0.1277484,0.6149949,0.878163,1.0991043,-0.49805233,-0.68540734,-1.6101122,-0.6898129,-0.042122748,0.15677753,-1.0701593
0.0,0.0,1.2999999999999998,0.0,0.0,0,-1.1337378,-1.0232996,-0.93019384,0.20390107,-0.124890134,0.6280349,0.29998305,-0.33085528,-0.9233701,-1.1057696,-0.8136121,0.16455773,0.16431871,-0.5032771
0.0,0.0,1.2999999999999998,0.0,0.0,0,-1.2209179,-1.2349919,-0.8596822,0.23506042,-0.44344154,0.58982694,1.3365958,-0.28627574,-0.86924887,-1.4421448,-0.96380216,-0.7930033,0.0893357,-0.41085598
0.0,0.0,1.2999999999999998,0.0,0.0,0,-0.9985796,-1.1822298,-0.87762105,0.117474265,-0.34324673,0.66911656,0.74943167,-0.45265332,-0.8477682,-1.5214505,-0.9662762,0.30820426,-0.19910811,-1.4332215
0.0,0.0,1.2999999999999998,0.0,0.0,0,-1.0564876,-1.095159,-0.8996957,0.06415994,-0.32228056,0.44143984,1.1829915,-0.4381343,-0.85327613,-1.543211,-0.9532984,-1.0737104,-0.33892843,-1.034243
0.0,0.0,1.2999999999999998,0.0,0.0,0,-1.7056355,-1.0134166,-1.1899858,0.10691324,0.6556161,0.94940627,1.3602221,-0.35108718,-0.9102097,-1.3012455,-0.9686645,-0.80715513,0.22272374,-0.99242985
0.0,0.0,1.2999999999999998,0.0,0.0,0,-1.29736,-1.0122887,-0.9681641,0.27185246,0.010089623,0.51792073,1.1670645,-0.6338091,-1.069573,-1.2699482,-1.0792407,-1.4578372,0.5501564,-0.5577528
0.0,0.0,1.2999999999999998,0.0,0.0,0,-1.1625417,-0.9792639,-1.0637432,0.12846667,0.32500055,0.483279,1.5691879,-0.44366556,-1.0025796,-0.82968783,-1.0600979,0.68654627,0.5306124,-1.1992271
0.0,0.0,1.2999999999999998,0.0,0.0,0,-0.9444662,-0.93396753,-1.0185112,0.17047235,-0.76072544,0.62153965,1.1324502,-0.29469353,-0.9219585,-1.1204648,-0.9670473,0.015934844,0.29184407,-0.15656227
0.0,0.0,1.2999999999999998,0.0,0.0,0,-1.6312712,-1.2000386,-0.95409346,0.22090574,0.020790875,0.6166014,1.2661934,-0.35391632,-0.79851925,-1.4070771,-0.6841335,-1.2915117,0.21541305,-1.3115728
0.0,0.0,1.2999999999999998,0.0,0.0,0,-1.6328253,-0.90667015,-0.80056036,0.070087574,-0.0025701288,0.7039011,0.94091946,-0.3016101,-0.98681235,-0.7608172,-1.102998,-0.7984454,0.06318106,-0.7926586
0.0,0.0,1.2999999999999998,0.0,0.0,0,-1.1782618,-1.1760002,-0.96951115,0.1970246,-0.38685542,0.9484862,1.6205971,-0.4696141,-0.83595806,-1.5956429,-1.3151876,0.11752032,-0.38102615,-1.1993715
0.0,0.0,1.2999999999999998,0.0,0.0,0,-1.3507352,-1.1013293,-1.0891981,0.14431772,0.44769403,0.40908945,1.0283669,-0.39985532,-0.8597093,-1.0095227,-0.85609215,-0.5617331,0.65544087,-0.3920719
0.0,0.0,1.2999999999999998,0.0,0.0,0,-0.84113526,-1.0522442,-0.9488759,0.029832156,-0.6690235,0.7061565,0.52710074,-0.5309613,-0.9213302,-1.3431088,-1.012456,1.4205011,0.5660215,-0.8044387
0.0,0.0,1.2999999999999998,0.0,0.0,0,-1.5029868,-1.0574416,-0.7593051,0.17450005,-0.23560852,0.41540638,0.919271,-0.4393008,-1.0515488,-0.75394917,-0.9900093,1.1010759,0.24798235,-1.2194518
0.0,0.0,1.2999999999999998,0.0,0.0,0,-0.9893029,-1.1033373,-1.0100508,0.052763578,-0.23031479,0.40523022,1.9471343,-0.48813438,-0.7422572,-1.6052059,-0.8386832,-0.22973056,0.2693914,-0.42588168
0.0,0.0,1.2999999999999998,0.0,0.0,0,-1.1643362,-1.0778857,-1.0638512,0.16865577,0.41974345,0.6465324,0.59612,-0.27669063,-0.7860746,-1.3875426,-1.2409214,-0.4592772,-0.37990382,-1.2231549
0.0,0.0,1.2999999999999998,0.0,0.0,0,-1.3261764,-0.99471664,-0.9926579,0.10090399,-0.017240262,0.78709733,1.2597514,-0.50425357,-0.8327562,-1.5030575,-0.8570117,-0.5993875,-0.11987522,-0.75129664
0.0,0.0,1.2999999999999998,0.0,0.0,0,-1.231173,-1.0126522,-1.0505109,0.21135479,0.23807307,0.49297684,0.53822535,-0.58277696,-1.175041,-0.74303484,-1.0743554,0.6161457,0.45230952,-0.060451027
0.0,0.0,1.2999999999999998,0.0,0.0,0,-1.4806299,-0.77463776,-1.0529495,0.12550515,0.15694481,1.0305892,1.112745,-0.31499702,-0.86849695,-1.5494491,-1.3114638,-0.7053203,0.67702866,-0.7645619
0.0,0.0,1.2999999999999998,0.0,0.0,0,-1.2718302,-1.0265595,-0.94492793,0.123522006,-0.38133326,0.8825125,1.5567561,-0.5698476,-0.9576942,-1.3237492,-0.8966722,-0.29661378,0.056061484,-1.0079104
0.0,0.0,1.2999999999999998,0.0,0.0,0,-1.1158946,-1.128566,-0.98820865,0.16747756,-0.054640822,0.7655236,0.51517487,-0.2923305,-0.8768563,-1.0240554,-1.2062923,-0.025190312,0.41346663,-1.4736247
0.0,0.0,1.2999999999999998,0.0,0.0,0,-0.89306265,-1.0981853,-1.0287732,0.046232995,0.5102885,0.76347095,0.45175987,-0.40469876,-0.834281,-1.2746781,-0.94724506,-0.5854099,0.6192979,-0.54663026
0.0,0.0,1.2999999999999998,0.0,0.0,0,-0.8781566,-1.1460943,-1.002305,0.1344728,-0.009190749,0.62899834,1.7433275,-0.5439939,-1.0058732,-0.7753561,-0.8919143,-1.2959019,0.90705174,-1.502554
0.0,0.0,1.2999999999999998,0.0,0.0,0,-0.7575938,-1.0084215,-1.0896659,0.14771193,0.09541471,0.88928,0.78039193,-0.18202084,-1.0471693,-0.5091832,-0.94279534,-0.31547788,-0.08380205,-0.07303263
0.0,0.0,1.2999999999999998,0.0,0.0,0,-1.2191849,-0.9805648,-1.0191613,0.28222004,0.40423125,0.70474535,0.72515666,-0.21759352,-0.9131421,-1.1803269,-1.0090728,1.1516875,0.24412596,-0.9446305
0.0,0.0,1.2999999999999998,0.0,0.0,0,-1.3890198,-0.85063535,-1.1927931,0.14393818,0.4581601,0.8042651,1.9650578,-0.21029226,-0.8773265,-1.021723,-0.821015,-0.045729734,0.53052294,-0.30631068
0.0,0.0,1.2999999999999998,0.0,0.0,0,-0.82991093,-0.9075104,-1.1743333,0.15175694,0.12177974,0.6046157,0.57363313,-0.22984046,-0.9349149,-1.2015254,-0.7168995,0.8029816,0.6610545,-1.0343497
0.0,0.0,1.2999999999999998,0.0,0.0,0,-1.2740943,-1.1660926,-0.9227622,0.14144646,0.21277481,0.46989104,0.8077482,-0.36626062,-0.84474665,-1.4524364,-0.85467017,-0.6560092,0.24534969,-0.29787195
0.0,0.0,1.2999999999999998,0.0,0.0,0,-1.5560329,-0.9413355,-0.974321,0.25178477,0.34727582,0.34626228,1.193481,-0.21513832,-1.0164238,-0.48847118,-0.979284,-0.7567018,0.80842865,-1.1474833
0.0,0.0,1.2999999999999998,0.0,0.0,0,-0.8835356,-1.2108338,-0.9218678,0.16533479,-0.02353961,0.73970693,0.009139073,-0.46795526,-0.79384154,-1.5940348,-1.0452242,-0.5796523,0.96842444,-0.86539924
0.0,0.0,1.2999999999999998,0.0,0.0,0,-1.375584,-1.0586842,-0.9706817,0.1471145,0.31090724,0.75172734,0.7102127,-0.51812065,-0.84494877,-1.5513552,-0.86855805,-0.9708762,0.54372,-1.7766643
0.0,0.0,1.2999999999999998,0.0,0.0,0,-1.1236211,-1.1732163,-0.96427155,0.19381589,0.49880883,1.1984352,2.9401205,-0.4551166,-0.84540844,-1.3377656,-0.9732439,-0.45266265,0.3786108,-0.4011543
0.0,0.0,1.2999999999999998,0.0,0.0,0,-1.5658139,-0.9586655,-1.1124476,0.16866916,0.14769311,1.0223169,1.4200227,-0.42541748,-0.8332883,-1.3077441,-0.87682897,-0.29278415,0.20576905,-0.7075682
0.0,0.0,1.2999999999999998,0.0,0.0,0,-1.3254367,-1.2247254,-0.95812535,-0.06078476,0.10921248,0.6764732,1.2341695,-0.513182,-1.007972,-0.96585053,-1.0879723,-0.6722685,1.0141358,-0.7396418
0.0,0.0,1.2999999999999998,0.0,0.0,0,-1.1369433,-1.066561,-1.0485657,0.110599674,0.5768545,0.6406498,1.0651989,-0.48227283,-0.84548545,-1.5019295,-1.0814675,0.34960675,0.74888974,-0.5846585
0.0,0.0,1.2999999999999998,0.0,0.0,0,-0.9576982,-1.0693023,-1.0163556,0.13663122,-0.27551502,0.63576925,1.0480866,-0.13104261,-0.78758895,-1.5842482,-0.9593256,0.0044572847,0.326086,-1.5530654
0.0,0.0,1.2999999999999998,0.0,0.0,0,-0.9162391,-1.0227857,-1.0039079,0.010598436,0.111020535,0.964228,1.5875916,-0.3443148,-0.93759775,-1.0304959,-0.9310686,-1.5989078,0.34807023,-1.3643631
0.0,0.0,1.2999999999999998,0.0,0.0,0,-1.3317167,-0.9840111,-1.0812095,0.14964023,0.2533628,0.7219077,0.73775893,-0.4028991,-0.8894033,-1.1311762,-0.71385705,-0.9539883,0.8153063,-0.53161955
0.0,0.0,1.2999999999999998,0.0,0.0,0,-1.7635815,-0.8754137,-1.0174901,0.12735999,0.33872408,0.86655456,1.5097544,-0.3461272,-1.0929167,-0.59441924,-0.7028452,0.2825047,1.1388798,-1.0364225
0.0,0.0,1.2999999999999998,0.0,0.0,0,-1.339376,-1.286417,-0.87364924,0.079102166,-0.05367627,0.4201894,1.0550872,-0.38504624,-0.90819544,-1.1234397,-1.2985016,-0.27295655,0.4019372,-0.7875902
0.0,0.0,1.2999999999999998,0.0,0.0,0,-1.8153617,-0.78325385,-1.1633409,0.102521345,0.6880879,0.94343793,0.8682594,-0.4636543,-0.80238944,-1.5451399,-0.7984404,-0.51325285,0.52136,-1.0697651
0.0,0.0,1.2999999999999998,0.0,0.0,0,-1.1467091,-1.0806334,-0.92680365,0.08914758,-0.14420077,0.77376217,1.4429182,-0.3758063,-0.9273136,-1.018157,-1.030283,-0.18419914,0.5460978,-0.11023694
0.0,0.0,1.2999999999999998,0.0,0.0,0,-0.6400434,-1.0102088,-1.1777012,0.11206494,-0.036883358,0.68596745,0.85615927,-0.42016894,-0.9914269,-0.76273763,-1.0580204,-1.1734188,0.83689874,-0.23382638
0.0,0.0,1.2999999999999998,0.0,0.0,0,-0.9456747,-1.2088,-0.91109246,0.15437487,-0.01427254,0.52178705,0.7450077,-0.47992322,-0.9290177,-1.0501252,-0.9978279,0.32343313,0.49641106,-0.98235226
0.0,0.0,1.2999999999999998,0.0,0.0,0,-1.1639854,-1.2645159,-0.7743013,0.07548585,-0.32416308,0.8177381,0.8259889,-0.39024803,-0.869877,-1.3696393,-1.3368862,0.19512436,0.47042894,-0.41406822
0.0,0.0,1.2999999999999998,0.0,0.0,0,-1.3469108,-1.1547148,-0.8780292,0.21679048,-0.34429225,0.22412166,1.5127283,-0.2718025,-0.8932196,-1.2163334,-0.9079729,0.33402747,0.13290061,-1.3437744
0.0,0.0,1.2999999999999998,0.0,0.0,0,-1.6915685,-1.0971887,-0.81918603,0.06451032,-0.1086381,0.9507319,1.0076236,-0.5454646,-0.9260135,-1.2947564,-1.0691535,-0.5902671,0.072092004,-1.433838
0.0,0.0,1.2999999999999998,0.0,0.0,0,-1.0149306,-0.87573355,-1.1621668,0.20791176,0.17045304,0.64178556,1.826085,-0.3219576,-0.74863464,-1.6109165,-0.9257377,-0.15623766,0.52149117,-1.358608
0.0,0.0,1.2999999999999998,0.0,0.0,0,-1.5277996,-1.1102118,-1.0003971,-0.051536974,0.076198004,0.7466867,1.3187956,-0.40743136,-0.8993156,-1.1256106,-1.1387308,-1.333064,0.19018514,-1.1803975
0.0,0.0,1.2999999999999998,0.0,0.0,0,-1.1821517,-1.0687388,-0.9896555,0.21254265,0.21464866,0.6684159,0.64702654,-0.32238805,-0.85040575,-1.3099123,-0.8889125,-0.8727916,-0.332588,-0.36111298
0.0,0.0,1.2999999999999998,0.0,0.0,0,-1.2787508,-0.9417616,-1.0490249,0.04345646,-0.015469715,0.6143048,1.5276824,-0.54762,-0.9259348,-1.2359136,-0.82040596,-0.76391566,-0.3723023,-1.4830816
0.0,0.0,1.2999999999999998,0.0,0.0,0,-1.0561681,-0.9903697,-1.0108399,0.003864247,-0.12092162,0.8550928,1.8146405,-0.23390795,-0.77024204,-1.7050194,-0.9469088,-1.1970699,0.06958846,-1.463111
0.0,0.0,1.2999999999999998,0.0,0.0,0,-1.0864189,-1.216443,-0.900386,0.04468826,-0.36108762,0.6975064,2.0289025,-0.6614544,-1.1443008,-0.99203646,-1.025541,0.32798472,0.1129544,-1.1057452
0.0,0.0,1.2999999999999998,0.0,0.0,0,-1.8197638,-1.2193838,-0.779717,0.21504162,-0.4694407,0.5513744,0.5101285,-0.4279605,-0.8955822,-1.2248906,-1.1018264,0.5389238,-0.112579525,-1.4361123
0.0,0.0,1.2999999999999998,0.0,0.0,0,-1.3145612,-1.1338887,-1.0281057,0.263322,0.388994,1.1756746,1.8181627,-0.32739308,-0.9583795,-0.9537033,-0.8025141,-0.31634378,0.4685871,-1.2694213
0.0,0.0,1.2999999999999998,0.0,0.0,0,-1.3144153,-1.0705196,-1.0272633,0.14687254,-0.044694267,1.0549816,1.5225635,-0.47407302,-0.79585576,-1.7679957,-1.0692143,-0.95436954,0.4740316,-0.6493593
0.0,0.0,1.2999999999999998,0.0,0.0,0,-1.3233179,-1.1243567,-1.0174112,0.15209728,0.12945996,0.8877457,0.8610192,-0.5047193,-0.89983493,-1.2294978,-1.0064744,0.39613044,-0.063298054,-0.63236994
0.0,0.0,1.2999999999999998,0.0,0.0,0,-1.2405277,-0.9858164,-1.0261577,0.13445307,0.10956898,0.6258319,1.1017727,-0.20891635,-0.7971249,-1.5741106,-0.89366597,-0.46178278,0.12067431,-1.3049257
0.0,0.0,1.2999999999999998,0.0,0.0,0,-1.1670076,-1.2297667,-0.93423325,0.29312757,0.20778252,0.7794664,1.064158,-0.351054,-0.94228995,-0.8236397,-1.1141454,0.13912596,0.47702584,-0.821875
0.0,0.0,1.2999999999999998,0.0,0.0,0,-1.494866,-0.95393026,-0.8198546,0.12872201,0.07168703,0.7137597,0.117418535,-0.48017973,-0.8356947,-1.6174868,-1.0875041,-0.38833416,0.5755091,-0.9666381
0.0,0.0,1.2999999999999998,0.0,0.0,0,-0.98213047,-1.0542833,-0.9801095,0.118467435,-0.35675356,0.66346985,0.69042176,-0.6178726,-1.0883312,-1.4627578,-1.0027304,0.2533976,0.15134653,-1.4622111
0.0,0.0,1.2999999999999998,0.0,0.0,0,-1.4474946,-0.9890496,-0.7475622,0.17622393,-0.20900899,0.71180063,1.0311079,-0.54059464,-1.3222986,-1.0233387,-0.96733737,0.44737312,0.73686606,-0.9821793
0.0,0.0,1.2999999999999998,0.0,0.0,0,-1.0616204,-1.0850698,-1.1248803,0.23299958,0.03160266,0.2994607,1.1052575,-0.3424447,-1.2605357,-1.2515864,-0.81991905,-0.10476299,0.5086982,-0.9122261
0.0,0.0,1.2999999999999998,0.0,0.0,0,-1.6575772,-1.240673,-1.0572103,0.181372,-0.38870615,0.48252958,0.7508881,-0.559828,-1.1885796,-0.79035527,-0.69133604,0.6494395,0.16725858,0.22378965
0.0,0.0,1.2999999999999998,0.0,0.0,0,-1.3568203,-1.0290297,-0.87913483,0.14521217,0.21489869,0.43730354,-0.05265612,-0.5325304,-1.0062579,-1.1108121,-1.0502956,-0.8188448,-0.16527839,-1.9562672
0.0,0.0,1.2999999999999998,0.0,0.0,0,-0.98128206,-1.2808819,-0.7928546,0.15260977,0.051233985,0.96870047,1.229397,-0.6301475,-1.054784,-1.4156553,-1.1602192,-0.3907086,0.77348876,-0.5813833
0.0,0.0,1.2999999999999998,0.0,0.0,0,-1.4430068,-1.2132931,-1.0150945,-0.049794715,-0.01862148,0.53595626,1.124953,-0.5514872,-1.0493428,-1.2397387,-0.8667912,-0.9251502,0.478569,-0.8176636
0.0,0.0,1.2999999999999998,0.0,0.0,0,-1.3336856,-0.81635135,-1.2315418,0.06419655,0.39978465,0.6715029,0.44240272,-0.41250533,-1.0443412,-1.5009037,-0.8852601,-1.1355108,0.0802374,-1.3164568
0.0,0.0,1.2999999999999998,0.0,0.0,0,-1.2229526,-1.0891066,-0.97867334,0.061794072,0.23144577,1.1408426,0.31335676,-0.42945266,-0.96733093,-0.9307626,-1.2152545,-0.21552107,0.68557626,-1.5402962
0.0,0.0,1.2999999999999998,0.0,0.0,0,-0.64988416,-0.8691211,-0.7880757,0.12688279,0.21098666,0.6852254,1.4855931,-0.6461981,-1.1080035,-1.9281043,-1.0658435,-1.49153,-0.15796748,-1.1805853
0.0,0.0,1.2999999999999998,0.0,0.0,0,-0.6669467,-1.1023856,-1.0667802,0.014336498,0.15449272,0.7648822,0.5629549,-0.322039,-1.1599967,-1.4219832,-0.87274295,-0.45430014,0.48810712,-0.42402375
0.0,0.0,1.2999999999999998,0.0,0.0,0,-0.9661654,-1.2050532,-1.1646137,0.17030747,0.20414753,0.82604206,0.2707974,-0.39631838,-0.939545,-1.252277,-0.8970251,0.56784004,0.7954453,-0.6291604
0.0,0.0,1.2999999999999998,0.0,0.0,0,-1.3088398,-1.1281121,-0.98002785,0.2932818,-0.23761192,0.8046277,0.8829212,-0.3577627,-0.9573223,-1.062159,-1.4214954,-0.71993566,-0.15106055,-1.0507983
0.0,0.0,1.2999999999999998,0.0,0.0,0,-1.3050534,-1.1893029,-0.7189691,0.19722012,0.29010025,0.7773509,1.0755953,-0.29885522,-1.0380925,-1.7744265,-0.75433135,-0.63502765,-0.045720153,-1.371264
0.0,0.0,1.2999999999999998,0.0,0.0,0,-0.8962098,-1.0000917,-0.9582252,0.28283933,-0.31428987,1.0805441,1.6694607,-0.45370543,-1.0085869,-0.9236649,-1.1625397,0.45116037,0.22021037,-1.4308013
0.0,0.0,1.2999999999999998,0.0,0.0,0,-1.3382448,-1.0871233,-1.1335155,0.19305755,-0.34645325,0.43371508,1.2818422,-0.41003117,-0.69664115,-1.5787863,-0.9654483,0.5249206,0.44626784,-1.0245574
0.0,0.0,1.2999999999999998,0.0,0.0,0,-1.0883787,-1.0703582,-0.80023587,0.02175796,-0.4111395,0.72170866,-0.19162534,-0.43393794,-1.0148088,-1.5162399,-0.61646,-0.905699,0.3639035,-0.2759863
0.0,0.0,1.2999999999999998,0.0,0.0,0,-1.2908853,-1.2182285,-1.2042421,0.1670309,0.49043974,0.480564,0.8758342,-0.57126236,-0.9774281,-0.8462977,-0.8424374,0.74938434,-0.047795277,-1.3178098
0.0,0.0,1.2999999999999998,0.0,0.0,0,-1.5875977,-1.0567963,-1.1137738,0.18726741,-0.019329997,0.8005071,0.45664337,-0.39252746,-0.7249372,-1.3199345,-0.84874755,-0.33229026,0.35407254,-1.190904
0.0,0.0,1.2999999999999998,0.0,0.0,0,-1.0409673,-0.90912116,-1.3575438,0.14812143,0.123154685,0.7839391,1.5579655,-0.4355227,-0.7890088,-0.9529051,-0.7450814,0.72131544,-0.07132516,-0.9254776
0.0,0.0,1.2999999999999998,0.0,0.0,0,-1.4975408,-0.98526883,-0.83074135,0.15524279,-0.0030076702,0.68038297,1.3997896,-0.27107942,-0.9745967,-1.5284935,-0.92265856,-0.39887047,0.20333281,-0.66757005
0.0,0.0,1.2999999999999998,0.0,0.0,0,-1.4285097,-1.0770802,-1.1083353,0.12530069,0.021259697,0.55024153,0.96388394,-0.5817083,-0.7428073,-1.3112494,-0.77126646,0.41208953,0.75688034,-0.72360915
0.0,0.0,1.2999999999999998,0.0,0.0,0,-1.3427507,-1.0240664,-1.1399571,0.08137529,-0.06024853,0.6083362,1.1480353,-0.34448066,-0.8802959,-0.95734334,-1.1093751,-0.01224171,0.80089086,-1.0946312
0.0,0.0,1.2999999999999998,0.0,0.0,0,-1.0425009,-0.95361924,-0.7751139,0.10397618,0.11374656,1.0228884,0.8251852,-0.32276708,-1.1070614,-1.2392278,-0.64188546,-0.98660874,-0.20084675,-0.9146482
0.0,0.0,1.2999999999999998,0.0,0.0,0,-0.9970437,-1.168205,-1.2090262,0.17854005,-0.26321474,0.6839141,0.50098175,-0.40656403,-0.7491959,-0.96304774,-1.0397924,-0.3597908,-0.09049409,-1.0138652
0.0,0.0,1.2999999999999998,0.0,0.0,0,-1.1071143,-1.2005128,-1.0512989,0.10322709,-0.22511981,1.0056875,1.1791855,-0.24904418,-0.7222943,-1.4033052,-0.7911275,-0.22494835,0.26911044,-1.3554894
0.0,0.0,1.2999999999999998,0.0,0.0,0,-0.9249586,-1.22934,-1.1031785,0.16940184,-0.046469703,0.71176535,1.4601933,-0.56668586,-0.9928624,-0.61645746,-1.0565884,0.1533079,-0.39673996,-1.302539
0.0,0.0,1.2999999999999998,0.0,0.0,0,-1.592731,-0.9818858,-0.874427,0.098772064,-0.4779086,0.86623895,1.0445272,-0.490735,-0.806577,-0.9269139,-0.7266652,0.04870812,-0.025670977,-0.7128987
0.0,0.0,1.2999999999999998,0.0,0.0,0,-1.5628369,-1.0794322,-1.1657422,0.2038125,0.21569781,0.6425046,0.7441564,-0.48531824,-0.80416447,-1.0363829,-0.73454076,-0.0017809438,0.19738743,-1.4837042
0.0,0.0,1.2999999999999998,0.0,0.0,0,-0.9244704,-0.953149,-1.2230909,0.09333785,0.37004012,0.84889895,0.96356124,-0.5640334,-0.7717093,-1.196909,-0.8245661,-0.74525696,-0.04768538,-1.0351431
0.0,0.0,1.2999999999999998,0.0,0.0,0,-1.1523131,-1.2516459,-0.6573371,0.20801719,-0.019645909,0.808461,-0.3705961,-0.39322716,-1.0432543,-1.3452168,-0.7901019,0.5439297,0.04427242,-0.26171455
0.0,0.0,1.2999999999999998,0.0,0.0,0,-1.6378244,-0.8841655,-0.78270894,0.30717462,0.11344235,0.90828705,1.1739883,-0.643197,-0.94479257,-1.5984298,-0.689703,-0.99053115,-0.050044097,-0.5943468
0.0,0.0,1.2999999999999998,0.0,0.0,0,-1.242887,-0.92525077,-0.98672646,0.044892013,0.23081185,0.641723,0.668779,-0.37911558,-1.199383,-0.5981884,-0.7369416,0.1257087,0.16391127,-1.2688726
0.0,0.0,1.2999999999999998,0.0,0.0,0,-1.4970299,-1.1114329,-1.0744419,0.100233376,-0.03074848,0.7886442,0.8898904,-0.49393412,-0.7064816,-1.386383,-0.6227575,-0.008203276,0.36908984,-0.61922663
0.0,0.0,1.2999999999999998,0.0,0.0,0,-1.2297516,-0.9690044,-1.2416161,0.29316857,-0.24558552,0.86846614,0.41709363,-0.5630451,-1.1555854,-1.6839435,-1.1560899,0.24150114,1.3906282,-1.2775353
0.0,0.0,1.2999999999999998,0.0,0.0,0,-1.1551437,-1.0783197,-1.1671451,0.062577695,0.05421861,0.47141024,0.87041396,-0.4332902,-0.7220762,-1.172047,-0.7638494,0.50961316,0.17586058,-0.7292936
0.0,0.0,1.2999999999999998,0.0,0.0,0,-1.1806642,-1.2444704,-1.1572219,0.13607219,0.52024335,0.45222718,1.0340445,-0.3952408,-0.7890014,-0.88548195,-1.1053612,-0.020834014,0.26773712,-1.0606422
0.0,0.0,1.2999999999999998,0.0,0.0,0,-1.0564735,-0.9837435,-1.2735951,0.09285567,0.2697986,0.59040284,1.5719446,-0.35141203,-0.7151575,-1.3175343,-0.9569614,-1.0054159,0.72749645,-0.78796685
0.0,0.0,1.2999999999999998,0.0,0.0,0,-1.2711142,-1.2153834,-1.041625,-0.017318161,-0.18166389,0.9326325,0.84440506,-0.38173452,-0.8771612,-0.79007816,-0.6149565,0.43614736,-0.00243914,-0.8233565
0.0,0.0,1.2999999999999998,0.0,0.0,0,-1.4300969,-1.1171091,-0.6629572,0.10636563,-0.3355118,0.45807874,0.5663165,-0.29695228,-1.0223482,-1.3255701,-0.72098285,0.66720057,-0.060784534,-0.72845507
0.0,0.0,1.2999999999999998,0.0,0.0,0,-0.78870684,-1.0307319,-1.080931,0.22714952,0.30068818,0.82212406,0.31447527,-0.40898713,-1.084479,-1.1215949,-1.0473177,-2.2687604,0.64994895,-1.083523
0.0,0.0,1.2999999999999998,0.0,0.0,0,-1.2706648,-1.1928741,-1.0300072,0.12437064,-0.09885862,0.3988356,0.93899816,-0.44006371,-0.7682036,-1.0330709,-0.99794954,0.2907812,0.8888656,-0.47710952
0.0,0.0,1.2999999999999998,0.0,0.0,0,-1.6638724,-1.1984928,-0.8109694,-3.1627078e-05,0.07753549,0.9963629,1.2069322,-0.42673817,-1.0414723,-1.3157529,-1.1725287,0.4490075,0.33111906,-1.0383102
0.0,0.0,1.2999999999999998,0.0,0.0,0,-1.5398194,-1.1589403,-0.6833103,0.09963597,0.06245521,0.7140475,0.7708471,-0.3076945,-0.9125659,-1.6461161,-0.8354183,-0.42905912,0.21024263,-1.4993486
0.0,0.0,1.2999999999999998,0.0,0.0,0,-1.0965319,-1.0095555,-0.8285919,0.11794875,-0.15879083,0.64466155,0.5646467,-0.3730649,-1.0760753,-0.9975306,-0.7554309,-0.3097628,-0.057368964,-0.4841811
0.0,0.0,1.2999999999999998,0.0,0.0,0,-1.3144478,-1.0768847,-0.8978865,0.19943382,-0.23224059,0.5494734,1.0768458,-0.50845337,-0.929264,-0.8450887,-0.914753,0.4884917,0.7399104,-0.62613875
0.0,0.0,1.2999999999999998,0.0,0.0,0,-1.1438065,-0.95069486,-1.1515943,0.18898313,0.07977844,0.7744579,0.9392864,-0.21394208,-0.87559277,-1.3582367,-1.1508213,0.09798876,-0.21839464,-0.2696848
0.0,0.0,1.2999999999999998,0.0,0.0,0,-1.414445,-1.1012355,-0.8182791,0.18905199,0.10638165,0.9876184,1.1952192,-0.43962672,-1.0478938,-1.2379707,-0.6357427,0.2968574,0.072487466,-1.0888661
0.0,0.0,1.2999999999999998,0.0,0.0,0,-0.95391995,-0.9570779,-1.0540226,0.13458562,-0.67815965,0.7394636,1.028959,-0.22173065,-1.2008207,-1.3429147,-0.47936916,0.47809055,0.44355983,-1.3186505
0.0,0.0,1.2999999999999998,0.0,0.0,0,-1.172141,-1.003178,-0.8710217,0.16214997,-0.12678471,0.4519565,1.9002916,-0.20880003,-1.1853622,-0.7278389,-0.73787457,-0.83297557,0.7534404,-0.7952006
0.0,0.0,1.2999999999999998,0.0,0.0,0,-0.9362397,-1.0945866,-0.7566904,0.09332232,-0.009537374,0.81359863,0.96136117,-0.32819828,-1.0822731,-1.0811235,-0.7494445,0.055119433,0.4017408,-1.1140115
0.0,0.0,1.2999999999999998,0.0,0.0,0,-1.6060873,-1.1014552,-1.0641422,0.02138346,0.03265677,0.88512295,0.88637465,-0.5855966,-0.8651984,-0.8696839,-0.778961,0.10141924,0.3860853,-1.503237
0.0,0.0,1.2999999999999998,0.0,0.0,0,-1.2683036,-1.0083116,-1.1328495,0.13223927,0.2744103,0.67696434,1.5686516,-0.40207085,-1.0082618,-0.27527165,-1.1425096,-0.66900355,-0.13057496,-1.3444194
0.0,0.0,1.2999999999999998,0.0,0.0,0,-1.1483094,-1.0097828,-1.1808658,0.15646042,-0.2169083,0.7395777,0.9424148,-0.3907713,-0.5960944,-1.6840994,-0.73580605,-1.925245,0.94590425,-1.1292427
0.0,0.0,1.2999999999999998,0.0,0.0,0,-1.0743101,-1.2117401,-1.1035055,0.1033978,0.5521598,0.5678635,1.3014569,-0.4066758,-0.7013652,-1.4495966,-0.6844157,0.0715667,0.10869447,-0.5789442
0.0,0.0,1.2999999999999998,0.0,0.0,0,-1.0890286,-1.0453172,-0.82687616,0.15988855,0.4340957,0.5510477,1.3603314,-0.36447573,-0.9856567,-1.1849492,-0.8856304,-0.14630933,0.18838096,-0.7587597
0.0,0.0,1.2999999999999998,0.0,0.0,0,-1.2626513,-1.1812516,-0.9799232,-0.013674608,0.67142844,0.5885568,1.0853176,-0.21729049,-0.9099507,-1.5865571,-1.2549452,-1.2793355,0.94452304,-1.1815677
0.0,0.0,1.2999999999999998,0.0,0.0,0,-1.0068887,-1.1807885,-0.9407999,0.07318804,-0.62673885,0.7419254,1.6489741,-0.35743162,-0.78079385,-1.2879024,-1.2084708,-0.21075167,0.5629198,-1.3963902
0.0,0.0,1.2999999999999998,0.0,0.0,0,-1.397573,-1.0634173,-0.83137476,0.2178348,-0.18585345,0.36770502,0.80745476,-0.38121596,-0.7525496,-1.657811,-0.8371717,0.008828962,0.512727,-1.0599264
0.0,0.0,1.2999999999999998,0.0,0.0,0,-1.3747154,-1.0716488,-1.0230249,0.11200383,0.0571333,0.44176596,1.2842665,-0.4013214,-0.9686279,-0.9660011,-0.7144931,-0.20843749,0.2628174,-0.9296254
0.0,0.0,1.2999999999999998,0.0,0.0,0,-1.2736701,-1.0702227,-1.2046643,0.066279724,0.96800923,0.6066302,0.57700485,-0.43708736,-0.8842503,-1.1168262,-1.2858136,-1.2098662,0.1681952,-0.7357535
0.0,0.0,1.2999999999999998,0.0,0.0,0,-1.6073673,-1.0302626,-0.93621975,0.24914013,-0.27121046,0.6344646,1.3007289,-0.16564013,-1.0061249,-0.6717667,-0.82715297,0.25988138,0.9040592,-0.41633338
0.0,0.0,1.2999999999999998,0.0,0.0,0,-1.3079154,-1.0127196,-1.240528,0.09245213,0.43361658,0.78139806,0.7422101,-0.37004542,-0.6811183,-1.4899918,-0.8537362,1.1874783,0.8237141,-1.7084033
0.0,0.0,1.2999999999999998,0.0,0.0,0,-1.0967396,-1.0657271,-0.97649866,0.11009509,-0.40196797,0.87360656,0.73695314,-0.47432536,-1.0262005,-0.81540143,-0.7978975,0.19412237,0.34438598,-0.52947915
0.0,0.0,1.2999999999999998,0.0,0.0,0,-1.295801,-1.3306577,-1.0038905,0.1497552,0.26133147,0.54567695,0.5129463,-0.43534613,-0.81068134,-1.2224718,-0.8460568,-0.42587897,0.1425363,-1.0584296
0.0,0.0,1.2999999999999998,0.0,0.0,0,-1.5691208,-0.88409173,-1.109373,0.16909882,0.33727205,0.56600255,0.8986861,-0.5143069,-0.9065133,-1.1634359,-0.83857334,0.45517635,0.86799383,-0.4082786
0.0,0.0,1.2999999999999998,0.0,0.0,0,-1.5491191,-1.3063836,-0.7674194,0.18456139,-0.012438931,0.58260465,1.0832788,-0.4992487,-1.0889487,-0.59309995,-0.89675045,0.5247147,0.022200614,-1.1835641
0.0,0.0,1.2999999999999998,0.0,0.0,0,-1.4479712,-0.94472224,-1.0242202,0.18326226,0.32906863,0.52440345,0.06413529,-0.506644,-0.81706345,-1.3353665,-1.0088174,0.3665223,0.6503871,-0.7834609
0.0,0.0,1.2999999999999998,0.0,0.0,0,-0.9230549,-1.1663504,-0.7005656,-0.009974253,-0.08857468,0.63664293,0.16270576,-0.4060744,-1.0690008,-1.1246089,-1.1066377,0.29412848,0.22865869,-0.50267357
0.0,0.0,1.2999999999999998,0.0,0.0,0,-1.5297533,-1.0623219,-0.83811283,0.10124495,-0.24589786,0.818297,1.4080266,-0.41910917,-1.134914,-0.64041215,-0.98669314,-0.18101428,0.78401476,-1.069102
0.0,0.0,1.2999999999999998,0.0,0.0,0,-1.2812483,-1.0244185,-1.258685,0.21229301,0.31309494,0.83245766,0.77331847,-0.6153633,-0.83004713,-1.3444436,-1.0561545,-0.71642905,0.9737356,-1.0038705
0.0,0.0,1.2999999999999998,0.0,0.0,0,-1.5915331,-0.9819597,-0.91913116,0.06956692,-0.17894648,0.8636587,1.3696682,-0.48097777,-0.9539987,-1.0489253,-0.8309466,-0.43387198,0.9297529,-0.67062086
0.0,0.0,1.2999999999999998,0.0,0.0,0,-1.5184829,-1.1302817,-1.2106041,0.16604285,0.03362405,1.0509655,0.63402426,-0.38118643,-0.8086114,-1.4783682,-0.8090644,-0.2809101,0.39689073,-0.43475857
0.0,0.0,1.2999999999999998,0.0,0.0,0,-1.0651555,-1.0778327,-1.1350958,0.20158486,0.19573672,0.49996674,1.1826634,-0.42197943,-0.8049379,-1.1757957,-1.0220666,-0.8450754,0.45955956,-1.0577857
0.0,0.0,1.2999999999999998,0.0,0.0,0,-1.2486073,-1.1086979,-1.127751,0.092499174,-0.08926445,1.0146434,1.1853852,-0.40287673,-0.8267757,-1.0209541,-0.7297541,0.087473094,0.30735987,-0.8711414
0.0,0.0,1.2999999999999998,0.0,0.0,0,-1.1067652,-1.0942296,-1.0636314,0.1166394,0.079427935,0.43225396,1.7513252,-0.3821775,-0.73315674,-1.211087,-0.83538485,0.21243551,0.92291766,-0.7748275
0.0,0.0,1.2999999999999998,0.0,0.0,0,-1.5130876,-0.9805982,-1.0726767,0.2082253,0.009331524,0.52240086,1.3110385,-0.40722302,-0.7148583,-1.4652231,-0.84496087,0.2790554,0.5522182,-0.77838564
0.0,0.0,1.2999999999999998,0.0,0.0,0,-1.2043601,-1.1732688,-1.0767215,0.1511116,-0.053137947,0.76975393,1.9915433,-0.511211,-0.81578827,-1.1328661,-0.6416908,-0.13194767,-0.36729115,-0.4375661
0.0,0.0,1.2999999999999998,0.0,0.0,0,-1.5015091,-0.78827137,-1.3049996,0.2576594,0.86454463,0.7812968,0.6485301,-0.31396037,-0.7649115,-1.5119394,-0.9261777,-0.91739136,0.34875172,-1.3186842
0.0,0.0,1.2999999999999998,0.0,0.0,0,-1.1151029,-1.040859,-0.9249442,0.12344157,-0.25999394,0.56771815,1.0688617,-0.50110096,-0.99863887,-1.1327868,-0.5623165,-0.036286604,0.7673742,-0.5554088
0.0,0.0,1.2999999999999998,0.0,0.0,0,-1.2242175,-1.1586607,-1.0322814,0.14502558,0.38093024,0.7345123,1.035811,-0.4260113,-0.7941439,-1.445808,-0.9776984,-1.7244239,0.65627515,-1.1199415
0.0,0.0,1.2999999999999998,0.0,0.0,0,-1.190265,-1.1333396,-1.082629,0.20075704,-0.16226056,0.53991324,1.5165268,-0.37415642,-0.81861424,-1.0801983,-0.8908513,0.16086885,0.16606377,-0.50380623
0.0,0.0,1.2999999999999998,0.0,0.0,0,-1.1702026,-1.0754526,-1.1871165,0.08916772,0.7117921,0.7962432,1.4666992,-0.7570547,-1.0584203,-1.0971124,-0.8231589,-0.12604265,0.94605947,-0.6872564
0.0,0.0,1.2999999999999998,0.0,0.0,0,-1.3014251,-1.2805557,-0.85100496,0.27374646,0.43987605,0.7929437,1.2031746,-0.49821284,-1.0063784,-1.1991272,-0.61414486,0.1526341,0.116113864,-0.6954365
0.0,0.0,1.2999999999999998,0.0,0.0,0,-0.7778579,-1.0300438,-1.2326438,0.11791623,0.084367745,0.68136764,1.0316678,-0.42268562,-0.9072349,-1.0467693,-0.70948535,-0.6461577,-0.15629792,-0.9439246
0.0,0.0,1.2999999999999998,0.0,0.0,0,-1.0472951,-1.0065814,-1.0008948,0.12631845,-0.48814675,0.8019889,1.3431686,-0.21848832,-0.8715312,-1.3157744,-0.90986127,0.4077955,0.56320786,-1.2421961
0.0,0.0,1.2999999999999998,0.0,0.0,0,-1.3287904,-0.951804,-0.9133463,0.25515845,0.12743095,0.5661741,0.86541504,-0.36186132,-1.1153353,-0.68962026,-0.8271888,-0.13281688,0.782283,-0.24009722
0.0,0.0,1.2999999999999998,0.0,0.0,0,-0.90437484,-0.99815756,-0.967216,-0.0051917424,0.116152085,0.6659687,1.7161365,-0.34429726,-1.0787681,-0.74074954,-0.8112889,-0.4455482,-0.6811987,-0.2937834
0.0,0.0,1.2999999999999998,0.0,0.0,0,-1.5926558,-1.0579977,-0.98567355,0.09824179,0.097756214,1.171233,1.5694005,-0.41133758,-0.8224841,-1.5792769,-0.8637962,0.68894136,0.48318323,-1.2301291
0.0,0.0,1.2999999999999998,0.0,0.0,0,-0.85531455,-1.1885676,-1.2594188,0.31882942,-0.0570452,0.4570924,-0.44285083,-0.32730728,-0.8048855,-1.5767204,-0.6268919,-0.1563856,0.12351373,-0.81014544
0.0,0.0,1.2999999999999998,0.0,0.0,0,-1.56791,-1.1283439,-0.88169426,0.12408752,0.3441762,0.7705535,0.7984403,-0.43703794,-0.9330353,-1.379242,-0.9649712,0.21542613,0.104123615,-0.8195896
0.0,0.0,1.2999999999999998,0.0,0.0,0,-0.9907774,-1.2237145,-1.0037912,0.2822375,-0.201107,0.37375835,0.65743726,-0.55679727,-0.8903415,-1.0502201,-0.87986946,0.48807263,-0.068139136,-0.784564
0.0,0.0,1.2999999999999998,0.0,0.0,0,-0.98909754,-1.0322901,-1.1599087,0.12720747,0.43841758,0.69844276,1.3910879,-0.31588227,-0.7134926,-1.5042249,-0.6487748,-0.35919482,0.16183808,-0.81612366
0.0,0.0,1.2999999999999998,0.0,0.0,0,-0.8228133,-1.18086,-1.080663,0.18117012,0.083207786,0.5030353,0.22216323,-0.434774,-0.72591597,-1.4738436,-0.6500024,-0.5697406,-0.17810017,-1.5001522
0.0,0.0,1.2999999999999998,0.0,0.0,0,-1.213501,-1.0572435,-1.0792683,0.14164633,0.2787101,0.6979677,0.1707733,-0.48727354,-0.8646064,-1.146788,-0.77835566,0.3511513,0.29671878,-1.3488566
0.0,0.0,1.2999999999999998,0.0,0.0,0,-1.2509384,-1.1003803,-1.1112036,0.113473535,0.19179128,0.41470912,1.6598635,-0.55494815,-0.9781104,-0.7988311,-0.8806439,0.56333125,0.56407297,-0.44076762
0.0,0.0,1.2999999999999998,0.0,0.0,0,-1.4584845,-1.0735633,-1.1290212,0.2128401,0.18840307,0.7487459,1.0044491,-0.42334294,-0.9581065,-0.9627221,-0.4617681,-0.04961041,-0.45390332,-1.0019946
0.0,0.0,1.2999999999999998,0.0,0.0,0,-1.2525138,-1.0210974,-0.9204318,0.098201826,-0.09727856,0.49391782,0.8359767,-0.41304207,-0.9656732,-1.1892208,-0.77033687,0.48847833,-0.018384147,-1.0582334
0.0,0.0,1.2999999999999998,0.0,0.0,0,-1.1901823,-0.9504236,-1.1665044,0.09030347,0.37381628,0.7193289,0.96201956,-0.34181613,-0.84461933,-1.144947,-0.6947968,0.77138233,0.01824666,-0.8794053
0.0,0.0,1.2999999999999998,0.0,0.0,0,-1.5067531,-1.1571099,-0.73705345,0.20533048,-0.39777172,0.31092295,1.3072493,-0.44609618,-0.845986,-1.5956993,-0.74429226,-0.9851171,0.5124168,-1.1333854
0.0,0.0,1.2999999999999998,0.0,0.0,0,-1.3099861,-1.0952011,-1.1055703,0.18477254,0.70458686,0.4953743,1.8793449,-0.30085304,-0.89419645,-0.92188185,-0.91937536,-0.673533,0.25610232,-0.337877
0.0,0.0,1.2999999999999998,0.0,0.0,0,-1.0678955,-0.980874,-1.1067133,0.19126095,-0.13942781,0.8747025,1.316277,-0.57181245,-0.89757437,-1.0903783,-0.8405843,-0.1407482,0.73854434,-1.0951384
0.0,0.0,1.2999999999999998,0.0,0.0,0,-1.3239512,-1.1549047,-0.86803436,0.19336799,-0.098143354,0.96663636,0.013244938,-0.41251877,-0.6808332,-1.6752741,-0.51021,-0.23529835,0.14311175,-1.1776707
0.0,0.0,1.2999999999999998,0.0,0.0,0,-1.0373006,-1.0214648,-0.95263433,0.21159412,-0.58806956,0.9718288,0.81580895,-0.48290044,-0.98302025,-1.1333562,-0.84264964,-0.60477084,0.6419286,-0.7747294
0.0,0.0,1.2999999999999998,0.0,0.0,0,-1.4146291,-1.0724577,-1.0282599,0.18349949,0.051602747,0.5603782,1.1127479,-0.55317944,-0.69869167,-1.6479107,-0.7670057,0.4823252,0.4491806,-0.68524593
0.0,0.0,1.2999999999999998,0.0,0.0,0,-1.3454809,-0.74958515,-0.9553793,0.16019785,-0.47917515,0.3189218,1.0776101,-0.3096651,-0.8600709,-1.5334686,-0.9067887,1.0524589,0.2419127,-0.29678327
0.0,0.0,1.2999999999999998,0.0,0.0,0,-1.5571148,-0.8539966,-0.8162852,0.21306744,-0.21849315,0.56716394,1.1599103,-0.46523649,-0.92804193,-1.3340534,-0.7440247,0.80259603,0.78908354,-1.4903882
0.0,0.0,1.2999999999999998,0.0,0.0,0,-1.0818902,-1.1073929,-1.0042893,0.33103365,-0.29012334,0.58724177,0.81136054,-0.5039975,-0.9098584,-1.2079445,-0.5291414,-0.04148084,0.16673058,-1.2847694
0.0,0.0,1.2999999999999998,0.0,0.0,0,-1.2784748,-1.0355138,-1.0174509,0.2454943,-0.20557733,0.6143445,0.9624902,-0.39389384,-0.8704378,-1.2816894,-0.9110471,-0.14084177,0.20688339,-1.1662964
0.0,0.0,1.2999999999999998,0.0,0.0,0,-1.0503217,-1.0857605,-0.89425385,0.14163421,0.0043964162,1.1576976,1.4676309,-0.4746076,-1.0488026,-0.9527762,-0.8724794,-2.1089928,0.39064708,-0.63553554
0.0,0.0,1.2999999999999998,0.0,0.0,0,-0.9634913,-1.1502702,-0.90336716,0.03314585,-0.010566697,0.15343416,0.69034386,-0.4226133,-0.8363002,-1.8265933,-1.1253544,-0.3817468,0.4494495,-1.0200642
0.0,0.0,1.2999999999999998,0.0,0.0,0,-1.0167564,-1.1723626,-0.9939636,0.083427526,0.36064687,0.7859431,1.7369695,-0.3599595,-0.8197527,-1.2286265,-1.0463959,0.12831788,-0.09436786,-0.940744
0.0,0.0,1.2999999999999998,0.0,0.0,0,-1.0870544,-1.0423253,-0.9430945,0.10513012,-0.4792242,0.7012368,0.7586703,-0.39562207,-0.78952193,-1.4523237,-0.6403456,-0.51482856,0.9979697,-1.3593998
0.0,0.0,1.2999999999999998,0.0,0.0,0,-1.0626236,-0.903118,-1.1667328,0.19097468,0.17189573,0.42893013,1.9376502,-0.5156797,-0.74551815,-1.5288708,-0.85923785,-0.37754646,-0.044801347,-0.6031078
0.0,0.0,1.2999999999999998,0.0,0.0,0,-1.3205135,-1.1913153,-0.93826795,0.0856078,-0.3125842,0.6354654,1.7025235,-0.411238,-0.6338175,-1.8007483,-0.6174748,0.03120133,-0.055361327,-0.6032019
0.0,0.0,1.2999999999999998,0.0,0.0,0,-1.1031659,-0.99162793,-1.1067656,0.059474126,0.1779584,0.29221764,1.5101103,-0.42323312,-0.88916755,-1.0786607,-0.90561694,0.49637663,-0.2876236,-1.056336
0.0,0.0,1.2999999999999998,0.0,0.0,0,-1.2745521,-0.96610534,-1.038878,0.24338193,0.08817966,0.49527854,0.4316381,-0.35160977,-0.7550966,-1.5508064,-0.78203255,0.95997804,-0.07629077,-1.4806482
0.0,0.0,1.2999999999999998,0.0,0.0,0,-1.1547302,-1.0530246,-1.0212011,0.12833218,0.65141034,0.7328137,0.638825,-0.3321055,-0.8443768,-1.408253,-1.0499744,-0.9455991,0.05061612,-0.8633423
0.0,0.0,1.2999999999999998,0.0,0.0,0,-1.1045334,-1.0800323,-0.90410924,0.14196214,-0.10663392,0.4681543,1.4165773,-0.28930157,-0.9894388,-1.0313163,-0.7648406,-0.35989434,0.28231063,-0.6151894
0.0,0.0,1.2999999999999998,0.0,0.0,0,-1.1793063,-0.9799294,-1.0653737,0.31369248,-0.47643942,0.55307984,1.0461587,-0.44742724,-0.88677734,-1.1774225,-0.72609556,-0.29198337,0.22812052,-0.7922611
0.0,0.0,1.2999999999999998,0.0,0.0,0,-1.16764,-0.96296865,-0.99905354,0.16703996,-0.39461038,0.7931174,0.92960185,-0.39044464,-0.90706414,-1.2564551,-0.6654522,-0.28960192,0.50879025,-1.0380136
0.0,0.0,1.2999999999999998,0.0,0.0,0,-1.4677384,-1.2605358,-0.8859563,0.22770423,0.03228792,0.69542193,1.0675114,-0.50124633,-0.7983061,-1.5449595,-0.5834394,0.9806874,0.36136302,-1.0789344
0.0,0.0,1.2999999999999998,0.0,0.0,0,-1.0807093,-1.085541,-0.89944077,0.13069098,0.16021301,0.9106715,1.670712,-0.42055866,-0.9507004,-1.1213015,-0.75630367,0.018634731,0.47241208,-0.35003424
0.0,0.0,1.2999999999999998,0.0,0.0,0,-1.0809951,-0.9435594,-1.130382,0.29875144,0.27350903,0.9096581,0.5241122,-0.20289658,-0.83586895,-1.4365722,-0.8160855,-0.072578706,0.19448061,-1.6827027
0.0,0.0,1.2999999999999998,0.0,0.0,0,-1.4201014,-0.7816656,-1.144941,0.25956583,0.19922286,0.74937564,0.86924016,-0.46531025,-0.82674474,-1.3506423,-0.81920993,-0.31606472,0.23223695,-1.1859286
0.0,0.0,1.2999999999999998,0.0,0.0,0,-1.1306561,-1.1612781,-0.9337894,-0.03615592,0.74567896,0.6938228,0.8556969,-0.41675514,-0.8591105,-1.392691,-0.73607165,-0.057236306,0.2883306,-1.1056075
0.0,0.0,1.2999999999999998,0.0,0.0,0,-1.2402939,-1.2047352,-0.95002663,0.26691145,0.46014288,0.5414887,0.1909773,-0.58253884,-0.8887674,-1.3424662,-0.8635777,0.6329618,-0.22025184,-0.48466823
0.0,0.0,1.2999999999999998,0.0,0.0,0,-1.3463856,-1.040049,-1.0107179,0.1314198,0.10898288,0.82739675,1.2815485,-0.3936376,-0.97614676,-1.0228851,-0.48786634,0.4983971,0.63116133,-0.6852477
0.0,0.0,1.2999999999999998,0.0,0.0,0,-1.4686987,-1.0420072,-0.8949414,0.27476773,-0.13443543,0.36193213,1.1541444,-0.43391895,-0.7721653,-1.5982631,-0.84185684,-0.32936245,0.5731667,-0.47087103
0.0,0.0,1.2999999999999998,0.0,0.0,0,-1.162166,-0.9427324,-1.0580325,0.14794223,0.28859508,0.4131391,1.3347038,-0.42244783,-0.8397134,-1.3601003,-0.4305674,-0.4973369,-0.091151364,-0.9056721
0.0,0.0,1.2999999999999998,0.0,0.0,0,-1.2729491,-1.1887264,-0.80111307,0.2411018,-0.22213995,0.63401484,0.5463337,-0.48144597,-0.90442145,-1.2719952,-0.67567277,0.18506016,0.7264384,-0.41149777
0.0,0.0,1.2999999999999998,0.0,0.0,0,-1.1505839,-0.8672894,-1.149272,-0.052091446,0.43955353,0.423739,0.3499645,-0.45196587,-1.0817747,-0.8106927,-0.4514836,0.23085083,0.6509823,-1.3084238
0.0,0.0,1.2999999999999998,0.0,0.0,0,-1.7211938,-1.0985155,-1.1110415,0.051526397,0.19760883,1.1732235,0.65717316,-0.43427765,-0.87525123,-1.2605962,-0.8400522,0.7010286,0.16720669,-1.3420227
0.0,0.0,1.2999999999999998,0.0,0.0,0,-1.6292827,-1.0230534,-1.1608027,0.10788579,0.5723682,0.90146786,1.6561211,-0.44341812,-1.0790918,-0.73896754,-0.5938728,-0.035751395,0.49064407,-0.7738874
0.0,0.0,1.2999999999999998,0.0,0.0,0,-1.3251774,-1.0595422,-0.98842734,0.18468891,0.16631752,0.87632257,1.9090611,-0.44817528,-0.8746761,-1.345287,-0.74780154,-0.19572668,0.2831366,-0.7464718
0.0,0.0,1.2999999999999998,0.0,0.0,0,-1.1310666,-1.2075119,-0.91361475,0.1691876,0.3454184,0.5762614,0.21636643,-0.36303753,-0.8135056,-1.4438423,-0.7625407,-1.0250279,1.0456611,-0.9439729
0.0,0.0,1.2999999999999998,0.0,0.0,0,-1.015692,-1.0617644,-0.973577,0.06351122,0.2661728,1.035113,1.0914261,-0.41054276,-1.0253072,-0.9258153,-0.4945266,-0.76469713,0.3438995,-1.6638386
0.0,0.0,1.2999999999999998,0.0,0.0,0,-1.1462204,-1.0604225,-0.9752708,0.12774418,0.291544,0.3602369,0.79845977,-0.5331347,-0.8478884,-1.6565506,-1.0144124,-1.188944,0.64427054,-0.4349001
0.0,0.0,1.2999999999999998,0.0,0.0,0,-1.6897941,-1.0570585,-0.950956,0.05058208,-0.025930773,0.16524616,1.0844939,-0.34254566,-1.0628827,-0.9583105,-0.9460832,0.111929856,0.6386628,-1.3763807
0.0,0.0,1.2999999999999998,0.0,0.0,0,-1.469887,-1.0250005,-0.9221236,0.1341634,0.13376322,0.80303514,2.3445547,-0.61456954,-0.9988384,-1.3307472,-0.9395811,0.4856588,0.1893312,-1.3738989
0.0,0.0,1.2999999999999998,0.0,0.0,0,-1.3478594,-0.7986134,-0.8564,0.1742771,-0.20878355,0.40054932,-0.13597631,-0.3110023,-1.0137004,-1.5091362,-0.55925333,-0.32376704,0.40986332,-1.3207071
0.0,0.0,1.2999999999999998,0.0,0.0,0,-0.9506342,-0.96878904,-0.9699111,0.20443207,0.02213792,1.0619737,0.8551566,-0.5591163,-1.123662,-0.9632723,-1.0671468,-0.5366117,0.025313849,-0.72143465
0.0,0.0,1.2999999999999998,0.0,0.0,0,-1.1869924,-0.9953774,-0.9209419,0.08646356,-0.24072532,0.81690484,0.5741246,-0.39345905,-1.0152715,-0.9514316,-0.784282,-1.0683112,0.7654535,-1.5197251
0.0,0.0,1.2999999999999998,0.0,0.0,0,-1.076213,-1.1866148,-0.9965223,0.16034074,-0.47427583,0.9242868,0.37795982,-0.3982004,-0.8263286,-1.4560556,-1.0666745,-1.463079,0.361283,-1.3174669
0.0,0.0,1.2999999999999998,0.0,0.0,0,-1.2532499,-1.1687877,-1.0492555,0.17568554,-0.05978594,0.18081324,1.3943911,-0.5962121,-0.8761044,-1.5342679,-0.8138369,0.21803431,0.5533717,-0.52996635
0.0,0.0,1.2999999999999998,0.0,0.0,0,-1.5574917,-1.097106,-0.7693026,0.111517064,0.031783246,0.73310155,1.2440867,-0.6135887,-0.94526863,-1.4566089,-0.60057604,-0.18226616,1.2953855,-1.0861722
0.0,0.0,1.2999999999999998,0.0,0.0,0,-1.2813562,-1.151709,-1.1246477,0.20931138,0.6509607,0.97217125,1.069535,-0.37582332,-0.7951729,-1.5090585,-0.92688125,-0.15008688,0.3954914,-0.8423227
0.0,0.0,1.2999999999999998,0.0,0.0,0,-0.8445884,-1.0483975,-0.9996571,0.009754936,0.32818088,0.7423567,0.9781479,-0.3480975,-0.7552228,-1.6859018,-0.8651252,0.57169616,0.47477865,-1.0517609
0.0,0.0,1.2999999999999998,0.0,0.0,0,-1.7299339,-1.0191354,-1.3329957,-0.122532725,0.6032442,0.8136369,0.49854198,-0.4225249,-1.0060657,-0.9545263,-1.2289107,0.1216132,0.37100834,-1.6614426
0.0,0.0,1.2999999999999998,0.0,0.0,0,-1.4408123,-1.1445991,-1.227163,0.32446614,-0.1993217,1.1264682,1.5629437,-0.6324175,-0.66043437,-2.1710675,-0.8051285,0.6218292,0.5880517,-0.9349764
0.0,0.0,1.2999999999999998,0.0,0.0,0,-1.4853998,-0.9902374,-1.2208779,-0.07171479,-0.072409496,-0.10174962,0.34138966,-0.44839823,-1.1118808,-1.8334867,-0.62821853,0.020105649,0.2426315,-0.67475456
0.0,0.0,1.2999999999999998,0.0,0.0,0,-1.2209243,-0.9210955,-0.8791838,0.16305184,-0.3135164,1.1228774,1.1849962,-0.37168193,-0.95692307,-1.4416069,-0.80333954,-0.60065556,0.30938154,0.0852045
0.0,0.0,1.2999999999999998,0.0,0.0,0,-1.3325671,-1.1060566,-0.96537787,0.13056543,-0.635854,0.8619694,0.8699807,-0.4599226,-0.693021,-1.3466206,-0.9231114,-0.71449816,0.85513216,-0.830857
0.0,0.0,1.2999999999999998,0.0,0.0,0,-1.5558374,-1.1754327,-1.3489237,0.17119692,-0.8265988,0.7283962,1.2305163,-0.39488348,-1.3552674,-1.294671,-1.1203097,0.17966121,-0.012659422,-1.0483785
0.0,0.0,1.2999999999999998,0.0,0.0,0,-1.4919322,-0.9496111,-1.2956687,0.09760364,-0.23917831,1.1666315,-0.3752541,-0.4210158,-0.88388294,-1.5048778,-0.7438776,-0.20749176,0.6558836,-1.2274883
0.0,0.0,1.2999999999999998,0.0,0.0,0,-1.4525908,-1.2224802,-1.2767268,0.062300988,-0.489913,0.81856865,0.63035434,-0.60036606,-1.4780588,-0.8023774,-0.89310604,-1.1373146,0.83083326,-0.9814255
0.0,0.0,1.2999999999999998,0.0,0.0,0,-1.4525908,-1.2224802,-1.2767268,0.062300988,-0.489913,0.81856865,0.63035434,-0.60036606,-1.4780588,-0.8023774,-0.89310604,-1.1373146,0.83083326,-0.9814255
0.0,0.0,1.2999999999999998,0.0,0.0,0,-1.4525908,-1.2224802,-1.2767268,0.062300988,-0.489913,0.81856865,0.63035434,-0.60036606,-1.4780588,-0.8023774,-0.89310604,-1.1373146,0.83083326,-0.9814255
0.0,0.0,1.2999999999999998,0.0,0.0,0,-1.4525908,-1.2224802,-1.2767268,0.062300988,-0.489913,0.81856865,0.63035434,-0.60036606,-1.4780588,-0.8023774,-0.89310604,-1.1373146,0.83083326,-0.9814255
0.0,0.0,1.2999999999999998,0.0,0.0,0,-1.8475261,-0.9452505,-1.3929076,0.21798486,-0.40292203,0.43941796,1.6461108,-0.32113358,-1.3443704,-0.99231756,-1.1363959,0.5897726,0.31664234,0.07986144
0.0,0.0,1.2999999999999998,0.0,0.0,0,-1.8475261,-0.9452505,-1.3929076,0.21798486,-0.40292203,0.43941796,1.6461108,-0.32113358,-1.3443704,-0.99231756,-1.1363959,0.5897726,0.31664234,0.07986144
0.0,0.0,1.2999999999999998,0.0,0.0,0,-1.8475261,-0.9452505,-1.3929076,0.21798486,-0.40292203,0.43941796,1.6461108,-0.32113358,-1.3443704,-0.99231756,-1.1363959,0.5897726,0.31664234,0.07986144
0.0,0.0,1.2999999999999998,0.0,0.0,0,-1.8475261,-0.9452505,-1.3929076,0.21798486,-0.40292203,0.43941796,1.6461108,-0.32113358,-1.3443704,-0.99231756,-1.1363959,0.5897726,0.31664234,0.07986144
0.0,0.0,1.2999999999999998,0.0,0.0,0,-1.8475261,-0.9452505,-1.3929076,0.21798486,-0.40292203,0.43941796,1.6461108,-0.32113358,-1.3443704,-0.99231756,-1.1363959,0.5897726,0.31664234,0.07986144
0.0,0.0,1.2999999999999998,0.0,0.0,0,-1.6783313,-1.2100416,-1.3923866,0.06397112,-0.71596736,0.7577962,0.93551314,-0.33123147,-1.2106154,-1.4091128,-0.8466529,0.13510892,0.14816122,-1.3631244
0.0,0.0,1.2999999999999998,0.0,0.0,0,-1.6783313,-1.2100416,-1.3923866,0.06397112,-0.71596736,0.7577962,0.93551314,-0.33123147,-1.2106154,-1.4091128,-0.8466529,0.13510892,0.14816122,-1.3631244
0.0,0.0,1.2999999999999998,0.0,0.0,0,-1.6783313,-1.2100416,-1.3923866,0.06397112,-0.71596736,0.7577962,0.93551314,-0.33123147,-1.2106154,-1.4091128,-0.8466529,0.13510892,0.14816122,-1.3631244
0.0,0.0,1.2999999999999998,0.0,0.0,0,-1.6783313,-1.2100416,-1.3923866,0.06397112,-0.71596736,0.7577962,0.93551314,-0.33123147,-1.2106154,-1.4091128,-0.8466529,0.13510892,0.14816122,-1.3631244
0.0,0.0,1.2999999999999998,0.0,0.0,0,-1.5592548,-0.8683323,-1.1996394,0.07721161,-0.25396097,1.055306,0.49730515,-0.44112375,-1.0712017,-0.86991346,-1.0417663,-0.42438278,0.7711463,-0.98631024
0.0,0.0,1.2999999999999998,0.0,0.0,0,-1.5592548,-0.8683323,-1.1996394,0.07721161,-0.25396097,1.055306,0.49730515,-0.44112375,-1.0712017,-0.86991346,-1.0417663,-0.42438278,0.7711463,-0.98631024
0.0,0.0,1.2999999999999998,0.0,0.0,0,-1.5592548,-0.8683323,-1.1996394,0.07721161,-0.25396097,1.055306,0.49730515,-0.44112375,-1.0712017,-0.86991346,-1.0417663,-0.42438278,0.7711463,-0.98631024
0.0,0.0,1.2999999999999998,0.0,0.0,0,-1.5592548,-0.8683323,-1.1996394,0.07721161,-0.25396097,1.055306,0.49730515,-0.44112375,-1.0712017,-0.86991346,-1.0417663,-0.42438278,0.7711463,-0.98631024
0.0,0.0,1.2999999999999998,0.0,0.0,0,-1.5592548,-0.8683323,-1.1996394,0.07721161,-0.25396097,1.055306,0.49730515,-0.44112375,-1.0712017,-0.86991346,-1.0417663,-0.42438278,0.7711463,-0.98631024
0.0,0.0,1.2999999999999998,0.0,0.0,0,-1.5592548,-0.8683323,-1.1996394,0.07721161,-0.25396097,1.055306,0.49730515,-0.44112375,-1.0712017,-0.86991346,-1.0417663,-0.42438278,0.7711463,-0.98631024
0.0,0.0,1.2999999999999998,0.0,0.0,0,-1.7254758,-0.96630675,-1.2911744,0.27566624,-0.44980294,0.14388043,1.118005,-0.38096836,-1.098689,0.21000363,-1.6058939,0.26836485,-0.07177774,-1.0343659
0.0,0.0,1.2999999999999998,0.0,0.0,0,-1.7254758,-0.96630675,-1.2911744,0.27566624,-0.44980294,0.14388043,1.118005,-0.38096836,-1.098689,0.21000363,-1.6058939,0.26836485,-0.07177774,-1.0343659
0.0,0.0,1.2999999999999998,0.0,0.0,0,-1.7254758,-0.96630675,-1.2911744,0.27566624,-0.44980294,0.14388043,1.118005,-0.38096836,-1.098689,0.21000363,-1.6058939,0.26836485,-0.07177774,-1.0343659
0.0,0.0,1.2999999999999998,0.0,0.0,0,-1.7254758,-0.96630675,-1.2911744,0.27566624,-0.44980294,0.14388043,1.118005,-0.38096836,-1.098689,0.21000363,-1.6058939,0.26836485,-0.07177774,-1.0343659
0.0,0.0,1.2999999999999998,0.0,0.0,0,-1.3691553,-1.0899221,-1.5106684,0.16057609,-1.0432544,0.41651598,-0.0998846,-0.4325103,-1.4963738,-1.1809384,-0.738076,-0.8197266,-0.12235676,-0.8140834
0.0,0.0,1.2999999999999998,0.0,0.0,0,-1.3691553,-1.0899221,-1.5106684,0.16057609,-1.0432544,0.41651598,-0.0998846,-0.4325103,-1.4963738,-1.1809384,-0.738076,-0.8197266,-0.12235676,-0.8140834
0.0,0.0,1.2999999999999998,0.0,0.0,0,-1.3691553,-1.0899221,-1.5106684,0.16057609,-1.0432544,0.41651598,-0.0998846,-0.4325103,-1.4963738,-1.1809384,-0.738076,-0.8197266,-0.12235676,-0.8140834
0.0,0.0,1.2999999999999998,0.0,0.0,0,-1.3691553,-1.0899221,-1.5106684,0.16057609,-1.0432544,0.41651598,-0.0998846,-0.4325103,-1.4963738,-1.1809384,-0.738076,-0.8197266,-0.12235676,-0.8140834
0.0,0.0,1.2999999999999998,0.0,0.0,0,-1.3691553,-1.0899221,-1.5106684,0.16057609,-1.0432544,0.41651598,-0.0998846,-0.4325103,-1.4963738,-1.1809384,-0.738076,-0.8197266,-0.12235676,-0.8140834
0.0,0.0,1.2999999999999998,0.0,0.0,0,-1.3691553,-1.0899221,-1.5106684,0.16057609,-1.0432544,0.41651598,-0.0998846,-0.4325103,-1.4963738,-1.1809384,-0.738076,-0.8197266,-0.12235676,-0.8140834
0.0,0.0,1.2999999999999998,0.0,0.0,0,-1.4117895,-1.1183053,-1.0044777,0.08258532,-0.44727048,0.881075,0.87417203,-0.25207615,-0.8901515,-1.3484509,-0.9470084,-0.021469243,0.7659199,-0.88086104
0.0,0.0,1.2999999999999998,0.0,0.0,0,-1.4117895,-1.1183053,-1.0044777,0.08258532,-0.44727048,0.881075,0.87417203,-0.25207615,-0.8901515,-1.3484509,-0.9470084,-0.021469243,0.7659199,-0.88086104
0.0,0.0,1.2999999999999998,0.0,0.0,0,-1.4117895,-1.1183053,-1.0044777,0.08258532,-0.44727048,0.881075,0.87417203,-0.25207615,-0.8901515,-1.3484509,-0.9470084,-0.021469243,0.7659199,-0.88086104
