sanky1234/BimanualDexCatch/isaacgymenvs/cem_results/May31/football_pose_0.0_-0.1_1.2_-0.5235987755982988_0.0_0_2025-05-31.csv
x,y,z,roll,pitch,yaw,robot1/joint1,robot1/joint2,robot1/joint3,robot1/joint4,robot1/joint5,robot1/joint6,robot1/joint7,robot2/joint1,robot2/joint2,robot2/joint3,robot2/joint4,robot2/joint5,robot2/joint6,robot2/joint7
0.0,-0.1,1.2,-0.5235987755982988,0.0,0,-0.98986393,-1.6739186,-0.92771155,0.3819063,-0.6025698,0.82171583,-1.624504,-0.42758545,-0.83964413,0.2901735,0.22947228,0.27979815,0.09285728,1.146877
0.0,-0.1,1.2,-0.5235987755982988,0.0,0,-0.91468894,-1.1676149,-1.2057792,-0.0140584,0.41048557,0.7582034,-1.0924075,-0.46814454,-0.88317245,0.41405627,-0.023820436,-0.45151147,0.004102355,1.2634963
0.0,-0.1,1.2,-0.5235987755982988,0.0,0,-1.2596529,-1.759197,-1.0813543,0.00032946738,0.08567868,0.6082128,-2.0387547,-0.6160366,-0.863094,-0.42448792,0.025405074,-0.5725835,0.08125481,0.52608126
0.0,-0.1,1.2,-0.5235987755982988,0.0,0,-0.9238865,-1.4154302,-1.0836942,0.32827884,-0.2810972,1.1370596,-1.6492268,-0.46203592,-0.71561277,-0.15060762,0.0646239,-0.8914499,-0.14665481,0.99414974
0.0,-0.1,1.2,-0.5235987755982988,0.0,0,-1.0850959,-1.6185575,-1.1360976,0.059440322,-0.063084714,0.8837343,-0.9563498,-0.76853144,-0.7662562,0.084296584,0.16962053,-0.38313904,-0.18381463,1.335437
0.0,-0.1,1.2,-0.5235987755982988,0.0,0,-1.2058905,-1.4096208,-1.0923897,0.14126967,0.00096991385,0.8637655,-1.8040081,-0.5678297,-0.8618879,-0.17985354,-0.12802011,-0.3771479,-0.048259426,0.87013066
0.0,-0.1,1.2,-0.5235987755982988,0.0,0,-1.1809592,-1.8296167,-0.93736035,0.24507284,0.07472133,0.8331408,-0.97055036,-0.31688473,-0.8099041,0.1430294,-0.026926884,-0.6741214,-0.026572056,1.2241136
0.0,-0.1,1.2,-0.5235987755982988,0.0,0,-1.0500222,-1.2512589,-1.1574008,0.0069946093,-0.17846258,0.8164145,-2.024789,-0.4476295,-0.7839122,-0.11132737,0.335793,-0.15636808,0.056959238,0.7137775
0.0,-0.1,1.2,-0.5235987755982988,0.0,0,-1.1358187,-1.5228045,-0.9931226,0.2353003,0.16069956,0.97358626,-0.9811207,-0.5112618,-0.6602086,-0.9282056,0.00017661153,0.12294552,-0.09476187,0.8236117
0.0,-0.1,1.2,-0.5235987755982988,0.0,0,-1.1354938,-1.169896,-1.1784556,0.2235728,-0.206075,0.7377562,-0.9670533,-0.46834886,-0.76881367,0.17379537,0.22808166,-1.0547632,0.35235775,1.0773766
0.0,-0.1,1.2,-0.5235987755982988,0.0,0,-1.1453029,-1.6850758,-0.9670916,0.08181901,0.0536112,0.80856216,-1.1970466,-0.47189188,-0.82866544,-0.051494546,0.21676677,-0.78465116,-0.23120233,0.7091691
0.0,-0.1,1.2,-0.5235987755982988,0.0,0,-1.2858545,-1.6166601,-1.0676613,0.24636579,-0.10189988,0.6037749,-1.1037464,-0.38249785,-0.73740065,-0.2991047,0.02991164,0.18757142,-0.21338548,0.74081576
0.0,-0.1,1.2,-0.5235987755982988,0.0,0,-1.2286514,-1.6623456,-1.0367007,0.20819977,-0.023910327,0.9312342,-1.0632722,-0.5034638,-0.8277521,0.12385327,-0.63225096,-0.41279286,-0.012032345,0.8290174
0.0,-0.1,1.2,-0.5235987755982988,0.0,0,-1.0981534,-1.4790848,-1.1711761,0.12494722,-0.11430312,0.78319424,-2.2079372,-0.6759962,-0.7645111,-0.090697005,0.26552403,-0.4857582,0.013746494,0.9651712
0.0,-0.1,1.2,-0.5235987755982988,0.0,0,-1.0057684,-1.4708927,-1.0024849,-0.03145243,-0.025002701,1.1304907,-1.4127272,-0.34909177,-0.78590333,-0.01399466,0.090667926,0.021205287,-0.2764635,0.7584253
0.0,-0.1,1.2,-0.5235987755982988,0.0,0,-0.90971583,-1.5324934,-0.96572703,0.40069637,-0.09654341,0.7840645,-1.5447965,-0.45599574,-0.84047437,0.22702253,0.28698295,-0.36127633,-0.17496495,0.9344768
0.0,-0.1,1.2,-0.5235987755982988,0.0,0,-1.2061139,-1.7413026,-1.1412382,0.013971634,0.15894748,1.1004301,-1.3262856,-0.5869752,-0.78650033,-0.030939665,0.24232145,-0.3570698,0.030393204,0.85271347
0.0,-0.1,1.2,-0.5235987755982988,0.0,0,-1.1723168,-1.4157559,-1.0542505,0.30681145,-0.09318015,0.8606005,-0.9878526,-0.6399335,-0.8626013,-0.5385248,0.09916818,-0.3915025,-0.185691,0.7015734
0.0,-0.1,1.2,-0.5235987755982988,0.0,0,-1.1812195,-1.5621063,-1.0522662,0.09157987,0.08921396,0.98957795,-0.9633908,-0.35131684,-0.78395313,0.004648952,0.2467355,-0.54961056,0.13336307,0.7932934
0.0,-0.1,1.2,-0.5235987755982988,0.0,0,-1.0811229,-1.4045854,-1.0212204,0.2585391,0.027439788,0.6918974,-1.5085826,-0.63053364,-0.7309363,-0.7707673,-0.048269346,-0.025335427,0.041305322,0.7537435
0.0,-0.1,1.2,-0.5235987755982988,0.0,0,-0.90284884,-1.534016,-1.0697783,0.10464553,-0.03160174,1.0272149,-1.1967047,-0.5947118,-0.63976383,0.50798833,-0.21914528,-0.13177758,-0.15856928,0.89796525
0.0,-0.1,1.2,-0.5235987755982988,0.0,0,-1.2007537,-1.909517,-1.0537764,0.23308161,-0.24010043,0.9613149,-2.51034,-0.6927196,-0.81980115,0.050919797,0.16042076,-0.12226895,0.2423223,1.2454765
0.0,-0.1,1.2,-0.5235987755982988,0.0,0,-1.1178215,-1.3638347,-1.0755847,0.23452392,0.052329257,0.8279653,-1.8036877,-0.51435333,-0.89014804,-0.028064258,0.366192,-0.6234548,-0.23038387,0.5118025
0.0,-0.1,1.2,-0.5235987755982988,0.0,0,-1.3338739,-1.5537487,-1.1018746,0.3075367,-0.0400791,1.0261098,-1.69333,-0.3841576,-0.7629403,-0.15528081,0.024553318,-0.4624427,0.26129216,0.55344576
0.0,-0.1,1.2,-0.5235987755982988,0.0,0,-1.163259,-1.5537258,-0.9739476,0.3449058,0.23735556,0.93602294,-1.2761583,-0.58283395,-0.951743,-0.0008748761,0.2939368,-0.7176927,0.056013644,1.232037
0.0,-0.1,1.2,-0.5235987755982988,0.0,0,-1.0739247,-1.267208,-1.0820076,0.25085142,-0.0093578175,0.95598406,-1.3969067,-0.46422294,-0.6809887,-0.6528296,-0.0772129,0.037750185,0.27553368,0.8700017
0.0,-0.1,1.2,-0.5235987755982988,0.0,0,-1.1229193,-1.3230188,-1.1389532,0.4597541,-0.2787631,0.65890837,-1.8666008,-0.5203142,-0.90241,0.13095203,-0.2947621,-0.21839915,-0.034042805,0.5592641
0.0,-0.1,1.2,-0.5235987755982988,0.0,0,-0.88137114,-1.4005995,-0.9937029,-0.057266727,0.06107854,0.9936804,-1.3406299,-0.5279286,-0.8620006,0.03998736,-0.3034099,-0.1116945,-0.13158733,0.4760827
0.0,-0.1,1.2,-0.5235987755982988,0.0,0,-1.1244103,-1.5354404,-0.98785824,0.19875686,0.0060839434,0.7029725,-1.5083346,-0.5536786,-0.7987904,-0.3233928,-0.0371506,0.34977758,0.012604561,0.6784669
0.0,-0.1,1.2,-0.5235987755982988,0.0,0,-0.84380275,-1.4499967,-1.1137649,0.4908527,-0.019641714,0.70900536,-1.447973,-0.39418614,-0.7748397,0.20988148,0.2119803,0.058038563,0.30765355,1.0648878
0.0,-0.1,1.2,-0.5235987755982988,0.0,0,-1.176256,-1.7246652,-1.1116736,0.24441887,-0.21699466,0.9026559,-1.14378,-0.9140447,-0.87314624,0.13596436,0.04332933,-0.4776093,0.050641377,0.6816792
0.0,-0.1,1.2,-0.5235987755982988,0.0,0,-1.0393265,-1.4334668,-0.9817181,0.24414584,-0.2276484,1.0141152,-1.493599,-0.5086057,-0.8909579,0.16399221,-0.14123648,-0.38067237,-0.09908506,0.8110865
0.0,-0.1,1.2,-0.5235987755982988,0.0,0,-0.92192084,-1.2469095,-1.3078438,0.26297477,-0.087688215,0.87974286,-1.233767,-0.55977225,-0.4925064,-0.77291065,-0.038926717,-0.035641503,-0.3305627,1.0273843
0.0,-0.1,1.2,-0.5235987755982988,0.0,0,-1.1754509,-1.2238936,-1.1421318,0.3884708,0.20205243,0.9521908,-1.6611725,-0.60888654,-0.9194538,-0.100021616,-0.029011328,-0.7757406,-0.33705896,1.0327679
0.0,-0.1,1.2,-0.5235987755982988,0.0,0,-1.1897398,-1.5610027,-0.9850546,0.070374444,-0.22578956,1.2778691,-1.8695312,-0.51793045,-0.6917477,-0.59793746,-0.22134985,-0.2909351,0.20147228,0.5930377
0.0,-0.1,1.2,-0.5235987755982988,0.0,0,-1.2424644,-1.3395497,-0.93851995,0.2145847,-0.41451177,1.21538,-1.3211031,-0.284367,-0.7912591,0.46598685,-0.10188037,-0.57855994,0.02793978,0.8043279
0.0,-0.1,1.2,-0.5235987755982988,0.0,0,-1.0953879,-1.2331283,-1.1548978,0.319305,-0.09534136,0.6388113,-1.6426274,-0.6362668,-0.8422566,-0.4747116,0.14676934,0.15859212,0.11097663,0.9609929
0.0,-0.1,1.2,-0.5235987755982988,0.0,0,-1.1039561,-1.3693366,-1.0947341,0.06580466,0.11275321,0.9244137,-1.0429364,-0.5543506,-0.84053934,-0.222607,0.0071581136,-0.489232,0.108004615,1.4054991
0.0,-0.1,1.2,-0.5235987755982988,0.0,0,-1.0717212,-1.5625358,-0.9454669,0.14391258,-0.34750256,0.72398597,-1.2932714,-0.38158438,-0.68532324,-0.6395025,0.24236469,-0.64181596,-0.38898963,1.0368072
0.0,-0.1,1.2,-0.5235987755982988,0.0,0,-0.9649177,-1.3495308,-1.0553656,0.097747914,0.13633049,0.5203197,-0.8567906,-0.46524096,-0.91277146,0.65860575,-0.11265547,-0.5315362,-0.15110004,0.76513404
0.0,-0.1,1.2,-0.5235987755982988,0.0,0,-1.0552326,-1.675011,-0.96588874,0.3707635,-0.14349268,0.83632946,-0.8489125,-0.32248628,-0.8099773,0.3881012,-0.029076908,-0.40946698,-0.2605166,0.7880922
0.0,-0.1,1.2,-0.5235987755982988,0.0,0,-0.9683969,-1.4564283,-1.0556325,-0.16649753,0.07567073,0.96417207,-0.8916348,-0.60145736,-0.91262245,0.060567982,-0.6126398,-0.19424428,-0.111942,1.3666515
0.0,-0.1,1.2,-0.5235987755982988,0.0,0,-1.1425756,-1.6148794,-1.0208358,0.3162404,0.1937025,0.8941437,-1.6652125,-0.50264686,-0.73006356,-0.1681365,-0.27509284,-0.609713,-0.26475826,0.9364576
0.0,-0.1,1.2,-0.5235987755982988,0.0,0,-1.1789334,-1.6511959,-1.031382,0.06795209,0.088314,0.68317086,-1.0302837,-0.50750744,-0.81860554,-0.20215687,0.28536865,-0.5175508,-0.16667493,0.9565649
0.0,-0.1,1.2,-0.5235987755982988,0.0,0,-1.2285804,-1.3054652,-1.1745913,0.32821435,-0.015915431,0.8882589,-1.4604249,-0.486931,-0.9470231,0.28878644,-0.28036588,0.16863653,0.070350654,0.85471797
0.0,-0.1,1.2,-0.5235987755982988,0.0,0,-0.98737466,-1.609223,-0.94406074,0.4137103,-0.091679804,0.69537777,-0.77696466,-0.51372045,-0.80323005,-0.06390554,0.079944514,-0.75532454,0.10453157,0.71854216
0.0,-0.1,1.2,-0.5235987755982988,0.0,0,-0.94444674,-1.7168947,-0.9904268,0.27294886,-0.38607037,0.79460317,-1.3612944,-0.7373743,-0.66707385,-0.2363742,-0.14258625,-0.33946884,-0.023616288,0.8613947
0.0,-0.1,1.2,-0.5235987755982988,0.0,0,-0.957337,-1.4733375,-1.0458958,-0.036891337,-0.40379915,0.9755374,-1.6743472,-0.5334457,-0.5385118,-1.0598667,0.12220906,-0.3853083,-0.14335506,0.81393427
0.0,-0.1,1.2,-0.5235987755982988,0.0,0,-0.7683113,-1.2614233,-1.1206633,0.076486826,0.03259454,1.1348968,-1.4587523,-0.59455425,-0.82033014,-0.0607297,0.293497,-0.43600735,-0.31940132,1.1505662
0.0,-0.1,1.2,-0.5235987755982988,0.0,0,-1.223191,-1.6687515,-1.0260378,0.15680851,-0.12441304,0.670692,-2.1458275,-0.55230415,-0.8263303,0.0024708223,0.23552385,-0.0075601563,-0.11647587,1.1553218
0.0,-0.1,1.2,-0.5235987755982988,0.0,0,-1.1058531,-1.7327607,-0.9080802,0.23739576,-0.046937276,0.78800756,-1.2066,-0.32790834,-0.7295945,-0.3956959,0.2607131,-0.27570274,-0.18385974,0.7563584
0.0,-0.1,1.2,-0.5235987755982988,0.0,0,-1.0022597,-1.6343371,-0.87853384,0.29104188,0.07737022,0.94030136,-1.246146,-0.48696387,-0.793967,-0.05543185,0.17313398,-0.28269225,-0.089197375,0.71179944
0.0,-0.1,1.2,-0.5235987755982988,0.0,0,-1.115325,-1.4421668,-1.2209667,0.32925576,-0.074228615,1.1005172,-1.3267279,-0.7337116,-0.8053491,-0.15855636,0.1645604,-0.2795857,-0.24072057,0.90716344
0.0,-0.1,1.2,-0.5235987755982988,0.0,0,-1.151649,-1.6390173,-0.9786316,0.15064946,-0.13267647,0.7454213,-1.4801916,-0.32001698,-0.7963294,0.26445493,0.10271888,-0.18616469,0.04379924,1.0256258
0.0,-0.1,1.2,-0.5235987755982988,0.0,0,-1.0597159,-1.1455996,-1.1963184,0.22182977,0.084152155,0.57374245,-1.8197317,-0.606729,-0.9745175,0.16405128,0.1300809,-0.68944395,-0.18377373,1.1455101
0.0,-0.1,1.2,-0.5235987755982988,0.0,0,-1.0027175,-1.3159995,-1.0787792,0.29912436,-0.07340485,0.89979535,-1.2793198,-0.5589381,-0.82060814,-0.16384004,-0.14311166,-0.07185607,0.21853739,1.1536512
0.0,-0.1,1.2,-0.5235987755982988,0.0,0,-1.1706754,-1.514796,-1.0491265,0.2889726,0.02874636,0.93257684,-1.3629743,-0.7457722,-0.88591415,-0.19538032,0.30725515,0.026645198,0.07277434,1.2340629
0.0,-0.1,1.2,-0.5235987755982988,0.0,0,-1.22934,-1.5144507,-1.0374591,0.20606385,-0.31666172,0.6099713,-1.6725323,-0.57495815,-0.8510109,-0.20128673,-0.11877845,-0.5458252,-0.099792704,0.87573946
0.0,-0.1,1.2,-0.5235987755982988,0.0,0,-1.1517922,-1.4355136,-0.9786923,0.34152472,-0.45497337,0.6786286,-1.0380054,-0.5752482,-0.818296,-0.34459862,0.31495872,0.40727773,-0.0832458,1.1677655
0.0,-0.1,1.2,-0.5235987755982988,0.0,0,-0.99926245,-1.6403546,-0.8732922,0.15506501,0.00048081702,0.943658,-1.263494,-0.6018084,-0.89460146,-0.06343429,-0.067288175,-0.6771762,-0.045185026,0.6668209
0.0,-0.1,1.2,-0.5235987755982988,0.0,0,-1.0357524,-1.2675055,-1.1210501,0.1366331,-0.020512179,0.71703106,-1.387068,-0.5128136,-0.9006169,0.47379845,-0.42007914,-0.70343626,0.13500503,0.7125492
0.0,-0.1,1.2,-0.5235987755982988,0.0,0,-1.0716155,-1.8534329,-0.8744259,0.16210768,0.33091372,0.7580047,-1.622277,-0.29642358,-0.7047427,-0.26445293,0.3290351,-0.40415496,0.3056438,1.0357684
0.0,-0.1,1.2,-0.5235987755982988,0.0,0,-1.0348995,-1.5905467,-0.9680688,0.04768724,-0.1863998,0.9120297,-1.4326566,-0.3172661,-0.7136299,-0.10238728,0.22017717,-0.4067435,0.28693554,0.9409985
0.0,-0.1,1.2,-0.5235987755982988,0.0,0,-0.9761239,-1.2051044,-1.2499495,-0.05788485,0.28025347,1.1380582,-1.576596,-0.32458347,-0.75605124,0.058714375,-0.0734756,-0.69961476,0.13720189,0.665605
0.0,-0.1,1.2,-0.5235987755982988,0.0,0,-1.0083741,-1.5738783,-1.0322282,0.0050627114,-0.103183605,0.9199177,-1.0981642,-0.413633,-0.6842989,0.14755529,0.13980524,-0.18229656,0.017648542,1.1423777
0.0,-0.1,1.2,-0.5235987755982988,0.0,0,-1.1139401,-1.5210683,-1.0060105,0.26911926,-0.2081393,0.940697,-1.5793502,-0.54936486,-0.80057025,0.027085098,-0.6136536,-0.50547016,-0.1278507,1.107327
0.0,-0.1,1.2,-0.5235987755982988,0.0,0,-1.056022,-1.6076078,-0.9334835,0.21639884,-0.16936499,0.6271426,-1.5959734,-0.6653325,-0.91934735,-0.19467287,0.39256755,-0.4760871,-0.41558537,1.2306747
0.0,-0.1,1.2,-0.5235987755982988,0.0,0,-1.1030798,-1.5000172,-1.0447303,0.040950403,-0.028221771,0.913534,-1.3058174,-0.52100474,-0.8808476,0.24487215,0.08665019,0.48093495,-0.0036902358,1.0302092
0.0,-0.1,1.2,-0.5235987755982988,0.0,0,-1.0341903,-1.5088865,-0.9893144,0.11147611,-0.5057062,0.8687218,-1.6738857,-0.49723476,-0.7160313,-0.12900923,-0.36714348,-0.03719332,-0.16724268,0.5139558
0.0,-0.1,1.2,-0.5235987755982988,0.0,0,-1.1864729,-1.265936,-1.3282552,0.08413128,0.2351775,0.5439667,-1.6582344,-0.6426024,-0.72447115,-0.14661416,0.13911383,-0.6734663,-0.2530945,1.1421188
0.0,-0.1,1.2,-0.5235987755982988,0.0,0,-1.0957998,-1.5610881,-1.0710468,0.21327204,0.11415362,0.85165566,-1.1807284,-0.53955954,-0.79167867,0.19400324,-0.098755516,-0.30395883,0.032652713,0.7613762
0.0,-0.1,1.2,-0.5235987755982988,0.0,0,-1.2128536,-1.6792916,-1.0441558,0.2996192,-0.24765058,0.8300116,-1.9446014,-0.5344182,-0.72988284,-0.08695382,-0.34273088,-0.015806472,-0.24220967,0.88767695
0.0,-0.1,1.2,-0.5235987755982988,0.0,0,-1.1197245,-1.410825,-1.0258774,0.28130293,-0.38036758,1.0239664,-1.4287695,-0.54862547,-0.74249804,0.009085408,0.11772847,-0.8570446,0.13260777,0.70740813
0.0,-0.1,1.2,-0.5235987755982988,0.0,0,-1.0737308,-1.5952413,-0.9494392,0.19626671,-0.036241483,0.84397537,-1.302219,-0.59087116,-0.8346483,-0.14703478,-0.13624933,0.16057684,0.0047502634,1.1251969
0.0,-0.1,1.2,-0.5235987755982988,0.0,0,-1.1424104,-1.4720213,-1.1329869,-0.026358424,0.08110583,0.96442205,-1.4775447,-0.74265856,-0.82374656,-0.6919706,-0.27444944,-0.0177266,0.17331776,1.4199986
0.0,-0.1,1.2,-0.5235987755982988,0.0,0,-0.9961665,-1.3783187,-1.0623411,0.108077556,-0.4547731,0.6993744,-1.6466056,-0.51509005,-0.78845876,-0.13138139,0.37271547,-0.05830817,0.08019481,0.73299325
0.0,-0.1,1.2,-0.5235987755982988,0.0,0,-1.1218619,-1.3566916,-1.0795622,0.18281764,-0.12112544,0.70640045,-1.1921904,-0.5858009,-0.7723245,-0.3451593,0.11527935,-0.6536715,0.25901997,0.65671086
0.0,-0.1,1.2,-0.5235987755982988,0.0,0,-1.0217223,-1.3283993,-1.1825712,0.33638337,0.058455154,0.7732334,-1.2965069,-0.5353852,-0.6615589,-0.19403763,0.4022484,0.54462,0.25540385,0.94256943
0.0,-0.1,1.2,-0.5235987755982988,0.0,0,-1.0377902,-1.5246676,-0.99749684,0.14216818,-0.15693843,0.5614767,-1.5613856,-0.60153127,-0.7573709,-0.2914453,0.05122753,-0.145925,-0.007542111,0.92876184
0.0,-0.1,1.2,-0.5235987755982988,0.0,0,-1.1608177,-1.479271,-1.0371085,0.35462865,-0.25522482,0.9721445,-1.972297,-0.7276363,-0.7688107,-0.63734126,0.14261205,-0.7456306,0.1595136,1.0364298
0.0,-0.1,1.2,-0.5235987755982988,0.0,0,-1.1643581,-1.6426123,-0.9771808,0.09187103,-0.2341215,0.9746052,-1.3448201,-0.712882,-0.92748976,-0.24079528,-0.08212109,-0.3984493,0.020309651,1.0265689
0.0,-0.1,1.2,-0.5235987755982988,0.0,0,-0.8809941,-1.5773191,-0.9306337,-0.03753802,0.008128246,0.78453994,-1.3937988,-0.5271226,-0.67477006,-0.52317864,0.06813048,-0.15649144,-0.035841275,0.99507076
0.0,-0.1,1.2,-0.5235987755982988,0.0,0,-1.0785087,-1.7635031,-1.0779392,0.04702603,0.05997489,1.1027281,-1.4430884,-0.75395733,-0.6190358,-0.6502183,0.031887326,0.13913323,-0.23757412,1.0215209
0.0,-0.1,1.2,-0.5235987755982988,0.0,0,-1.0805095,-1.640228,-1.0528045,-0.013858649,-0.037463456,0.7111351,-0.53015727,-0.705861,-0.81633985,-0.35135633,0.61642,-0.7088864,-0.17749819,0.93776554
0.0,-0.1,1.2,-0.5235987755982988,0.0,0,-0.9716727,-1.397144,-1.1058635,0.45546818,0.011038168,0.78964263,-1.039363,-0.6781294,-0.8834386,-0.13433422,0.18669085,-0.02550579,-0.025136117,0.6214503
0.0,-0.1,1.2,-0.5235987755982988,0.0,0,-1.0392544,-1.2117939,-1.1936316,0.07436123,0.16733406,0.80668706,-1.2051077,-0.43247044,-0.75619864,0.11654161,-0.038371596,0.30579376,-0.03235234,0.81468683
0.0,-0.1,1.2,-0.5235987755982988,0.0,0,-0.798637,-1.6406275,-0.9278591,0.44449016,-0.08287051,0.65269524,-1.8368398,-0.5928135,-0.62566996,-0.8293965,0.0830225,-0.513309,0.1486137,0.911365
0.0,-0.1,1.2,-0.5235987755982988,0.0,0,-1.0368217,-1.4200968,-1.0505862,0.1471818,0.38692802,0.96243566,-1.1824375,-0.4649197,-0.77055025,0.12042928,0.22638159,0.03690157,0.25710183,1.1269714
0.0,-0.1,1.2,-0.5235987755982988,0.0,0,-1.0390799,-1.572069,-0.9176742,0.22899902,-0.025251918,0.8894274,-2.0115292,-0.6013996,-0.8348802,-0.29735795,-0.08611686,-0.1086664,0.03585456,1.1488855
0.0,-0.1,1.2,-0.5235987755982988,0.0,0,-1.0300297,-1.8988438,-0.9209405,0.38796473,-0.0653771,0.8663657,-1.2996858,-0.6534373,-0.8706965,0.06426797,-0.03702281,-0.631181,-0.22083353,0.9168759
0.0,-0.1,1.2,-0.5235987755982988,0.0,0,-1.0924662,-1.5277154,-0.99043673,0.20042996,-0.051400352,0.51114583,-1.1663545,-0.53614265,-0.68729466,-0.8512771,0.22715192,-0.035143845,-0.32656398,1.16415
0.0,-0.1,1.2,-0.5235987755982988,0.0,0,-1.0161718,-1.4053404,-1.0553188,0.07699879,0.020380136,1.1891798,-1.3680649,-0.45795432,-0.84893787,0.61612713,-0.033105332,0.30294114,-0.18529913,0.7324774
0.0,-0.1,1.2,-0.5235987755982988,0.0,0,-1.2193904,-1.6101526,-1.1163545,0.0008270133,0.06637872,1.0613967,-1.2687379,-0.56953245,-0.8310955,0.08819303,0.170117,-0.2888764,0.06267593,1.1342318
0.0,-0.1,1.2,-0.5235987755982988,0.0,0,-1.0873125,-1.6328075,-0.9742684,0.1697458,-0.034902826,0.7534282,-2.777692,-0.60419244,-0.86260706,0.046172746,0.6138814,0.033667028,0.12657462,0.96039355
0.0,-0.1,1.2,-0.5235987755982988,0.0,0,-1.086147,-1.6459737,-0.9364543,0.053504426,-0.14547908,0.88420516,-1.0375313,-0.4857739,-0.86879444,0.3572451,0.31317297,-0.6085572,-0.06876158,0.9401208
0.0,-0.1,1.2,-0.5235987755982988,0.0,0,-1.0588272,-1.7657562,-0.9290925,-0.021812547,0.19913378,0.79170936,-0.83078766,-0.5250407,-0.81511307,0.25003028,-0.10691394,-0.40389898,-0.076553755,1.0515885
0.0,-0.1,1.2,-0.5235987755982988,0.0,0,-1.1213423,-1.3810757,-1.094995,0.3886647,0.12649892,0.62097925,-1.8509139,-0.6645692,-0.8354814,-0.36919037,0.3010977,-1.038189,-0.034227695,0.61083096
0.0,-0.1,1.2,-0.5235987755982988,0.0,0,-1.2257726,-1.2826569,-1.166215,-0.010458548,-0.1324765,1.0307165,-1.8123223,-0.5150085,-0.8346818,0.3431902,0.13674927,-0.44493845,0.04419797,1.0031675
0.0,-0.1,1.2,-0.5235987755982988,0.0,0,-1.1677873,-1.3418745,-1.148327,0.1864868,-0.2102102,1.1179656,-1.17512,-0.5899241,-0.59735125,-0.16601117,0.4529247,0.16085343,-0.13709813,0.8861231
0.0,-0.1,1.2,-0.5235987755982988,0.0,0,-0.9493037,-1.5394117,-1.0637996,0.32370803,-0.45351145,1.0803034,-0.87719685,-0.6248081,-0.83554846,0.24215749,-0.343815,0.024986042,-0.104612984,0.71019495
0.0,-0.1,1.2,-0.5235987755982988,0.0,0,-1.0253875,-1.3940016,-1.0267757,0.28669348,-0.0028133972,1.0016963,-0.9771804,-0.39213943,-0.85459626,0.56500334,0.011802038,-0.11226732,-0.10076928,0.7298858
0.0,-0.1,1.2,-0.5235987755982988,0.0,0,-0.90904194,-1.2335881,-1.1994815,0.019591136,-0.44066912,1.079959,-0.64054155,-0.5257307,-0.7357876,-0.03349772,0.44104937,-0.3819205,-0.0727107,0.9049854
0.0,-0.1,1.2,-0.5235987755982988,0.0,0,-1.0377854,-1.4161422,-1.0298426,0.18289019,-0.073524356,1.1104692,-1.3093616,-0.51311076,-0.73800504,-0.067279115,0.32530785,-0.13280994,-0.024925927,1.3058472
0.0,-0.1,1.2,-0.5235987755982988,0.0,0,-1.1442634,-1.2983851,-1.2051173,0.28547248,-0.01383108,0.68469113,-1.6120038,-0.6612475,-0.7809208,-0.24308062,0.07747693,0.14226894,-0.20903608,1.6495646
0.0,-0.1,1.2,-0.5235987755982988,0.0,0,-1.2288901,-1.5591722,-1.0637692,0.2374955,-0.13112757,0.94526386,-1.902045,-0.56879914,-0.84045166,0.09771717,0.47470087,-0.7346826,0.064655416,0.60874355
0.0,-0.1,1.2,-0.5235987755982988,0.0,0,-1.1024112,-1.3120394,-1.1538912,0.18049411,-0.25009945,0.6511032,-1.9723734,-0.5358053,-0.7368768,-0.13527143,-0.6845306,-0.3407689,-0.07801152,1.1326196
0.0,-0.1,1.2,-0.5235987755982988,0.0,0,-1.2588202,-1.2695242,-1.2314184,0.27137905,0.29340723,0.9461467,-1.0891863,-0.6670479,-0.9275283,-0.1175082,0.27857393,-0.61854917,-0.17535894,1.0440121
0.0,-0.1,1.2,-0.5235987755982988,0.0,0,-1.1653969,-1.8613478,-0.9401147,0.012844371,-0.1005875,0.9237075,-1.76773,-0.5287529,-0.89690536,0.4182017,0.24847686,-0.38123333,0.03042667,1.0126302
0.0,-0.1,1.2,-0.5235987755982988,0.0,0,-1.1840775,-1.6473995,-0.98047155,0.40408096,0.011246225,0.79904646,-1.238803,-0.7632389,-0.72378236,-0.86066365,-0.18361144,-0.32442382,0.055822,1.5104836
0.0,-0.1,1.2,-0.5235987755982988,0.0,0,-1.0969679,-1.5176883,-0.9766954,0.30653787,-0.13116215,0.74406415,-1.5387688,-0.5754384,-0.72427243,-0.53980714,0.20898639,0.4051978,-0.030800397,1.1299546
0.0,-0.1,1.2,-0.5235987755982988,0.0,0,-1.1014211,-1.4920547,-1.069577,0.09174975,0.13874695,0.8811125,-0.9703057,-0.4100063,-0.63837814,-0.570775,-0.034304596,-0.22257161,0.05733665,1.3963532
0.0,-0.1,1.2,-0.5235987755982988,0.0,0,-1.1849487,-1.4098879,-1.1568428,0.123638295,0.089931086,1.1966716,-1.5624486,-0.7219902,-0.7204534,-0.70094556,0.5842876,-0.5274722,-0.15242586,1.0926166
0.0,-0.1,1.2,-0.5235987755982988,0.0,0,-0.8944256,-1.4543766,-1.1393465,0.25321564,0.14415552,1.1424307,-1.4802703,-0.7817079,-0.8200223,0.257117,0.085364774,-0.14565739,0.10790053,0.7394904
0.0,-0.1,1.2,-0.5235987755982988,0.0,0,-1.0885905,-1.5188334,-1.1313819,0.31154728,0.06990789,0.66941345,-0.7056919,-0.48345175,-0.63999087,0.044169597,-0.3221111,-0.042726837,-0.2572183,1.5738086
0.0,-0.1,1.2,-0.5235987755982988,0.0,0,-1.1138045,-1.2582844,-1.1971574,0.102222405,0.03392575,0.7180319,-1.2817795,-0.5883316,-0.7669426,-0.10931005,0.26458797,-0.055378977,0.19700885,0.6319616
0.0,-0.1,1.2,-0.5235987755982988,0.0,0,-0.8641178,-1.5516667,-0.9809609,0.30549434,0.14654459,0.70679855,-1.8935673,-0.44023907,-0.77292717,0.44920602,0.013965371,-0.11216018,0.010996548,1.2356845
0.0,-0.1,1.2,-0.5235987755982988,0.0,0,-1.1162667,-1.649688,-1.0468704,0.20668577,0.38914016,0.77704334,-1.1620004,-0.44445542,-0.7168596,0.12527528,0.026303774,0.11293076,0.061960015,0.71334636
0.0,-0.1,1.2,-0.5235987755982988,0.0,0,-1.1723566,-1.3851258,-1.1259782,0.17276233,-0.042978734,0.90968525,-1.3491834,-0.5578523,-0.83986574,0.18119891,0.24380203,-0.43398052,0.15920466,0.8321124
0.0,-0.1,1.2,-0.5235987755982988,0.0,0,-1.1122137,-1.5008763,-1.0360862,0.25788727,-0.3988299,1.104133,-1.5400856,-0.70839214,-0.9079577,-0.39417815,-0.20316969,-0.5282888,-0.0008201225,0.60930645
0.0,-0.1,1.2,-0.5235987755982988,0.0,0,-0.9593868,-1.3080033,-1.1192405,0.29126802,-0.15616003,0.89717865,-1.4650615,-0.4206272,-0.7966059,0.44194248,-0.0025645765,-0.1596746,-0.2927351,0.983331
0.0,-0.1,1.2,-0.5235987755982988,0.0,0,-1.1098071,-1.2756727,-1.1285584,0.35128602,-0.3546492,0.5960664,-0.9309532,-0.54715353,-0.79980266,0.38275057,-0.08650147,-0.24350421,0.01374838,1.1226321
0.0,-0.1,1.2,-0.5235987755982988,0.0,0,-1.1730726,-1.5991267,-1.0366158,0.22089449,-0.04657118,1.199339,-2.2933722,-0.6628586,-0.88791686,-0.14209944,-0.43114546,-0.015803041,0.33587605,1.059996
0.0,-0.1,1.2,-0.5235987755982988,0.0,0,-1.1114396,-1.5565426,-0.99450856,0.2575294,-0.018799996,1.2273642,-0.6452439,-0.44937965,-0.67576385,-0.40267825,0.41304937,-0.13429412,-0.2253983,0.696063
0.0,-0.1,1.2,-0.5235987755982988,0.0,0,-1.2453064,-1.598932,-1.1014644,0.13303952,0.015568298,0.7237973,-1.8762958,-0.6804988,-0.8349994,-0.38155618,-0.31482357,0.101851135,0.078106135,0.81450963
0.0,-0.1,1.2,-0.5235987755982988,0.0,0,-1.0191267,-1.5485749,-1.0095439,0.05645506,0.24472214,0.6532611,-1.4847877,-0.35502034,-0.68009245,-0.12347931,0.22961316,-0.41235125,-0.024398625,0.790895
0.0,-0.1,1.2,-0.5235987755982988,0.0,0,-1.0897543,-1.401901,-1.2410628,-0.14483592,0.066925034,1.0619329,-1.4262378,-0.5597053,-0.7944712,0.1255123,0.19382046,-0.25203305,-0.26047686,1.388372
0.0,-0.1,1.2,-0.5235987755982988,0.0,0,-1.0395104,-1.7903739,-0.843592,0.3094405,-0.49005702,1.1183504,-2.0283463,-0.52651894,-0.9229361,0.55789644,-0.009117751,0.10994077,0.16449936,1.0523674
0.0,-0.1,1.2,-0.5235987755982988,0.0,0,-1.1128298,-1.6842036,-0.9179543,0.34171385,-0.38028616,0.8787313,-0.9824861,-0.5031059,-0.64531016,-0.56706476,-0.11344318,-0.020245142,0.054666165,0.7391546
0.0,-0.1,1.2,-0.5235987755982988,0.0,0,-0.9859748,-1.2775503,-1.1565458,0.1228167,-0.09277628,0.43855223,-1.2736965,-0.55745614,-0.67314297,-0.46832094,-0.4500409,0.08894334,0.12455467,0.342815
0.0,-0.1,1.2,-0.5235987755982988,0.0,0,-1.0576603,-1.5977653,-1.0443424,-0.05805714,0.022998057,0.53683496,-1.8198413,-0.6036207,-0.83522075,-0.09295323,-0.15165451,-0.35454515,0.09927987,0.65194464
0.0,-0.1,1.2,-0.5235987755982988,0.0,0,-0.9587937,-1.6486837,-0.84677017,0.21634088,0.21114837,0.68715644,-1.065773,-0.6002665,-0.81067306,-0.17319524,-0.058014117,-0.25267512,0.024320807,0.8085998
0.0,-0.1,1.2,-0.5235987755982988,0.0,0,-1.06006,-1.2377814,-1.1947817,0.16755712,-0.16383302,0.90617126,-1.8178681,-0.6476448,-0.82703,-0.17182402,0.8773234,-0.32741675,-0.27611884,1.0358545
0.0,-0.1,1.2,-0.5235987755982988,0.0,0,-0.91633546,-1.1056812,-1.3014785,0.12387446,-0.38682923,0.8031979,-1.3437003,-0.5895148,-0.78778595,0.36686495,0.27115384,0.0052454104,-0.022790493,0.8895428
0.0,-0.1,1.2,-0.5235987755982988,0.0,0,-1.1858625,-1.4983805,-1.0646026,0.21682511,-0.043822136,0.976069,-1.4842181,-0.3508689,-0.767467,0.23842053,0.42407674,-0.32807282,0.092052124,0.9658579
0.0,-0.1,1.2,-0.5235987755982988,0.0,0,-1.1909364,-1.4027783,-1.0920905,0.36664158,0.057968,0.6398208,-1.1212032,-0.6266122,-0.93812686,0.227834,0.3484052,-0.49318174,0.040307477,0.8865384
0.0,-0.1,1.2,-0.5235987755982988,0.0,0,-1.0289179,-1.1865035,-1.2382892,0.057233598,-0.16441642,0.72153527,-1.2926644,-0.7437677,-0.84446543,-0.33430818,0.011407612,0.05140033,0.0036151237,0.853848
0.0,-0.1,1.2,-0.5235987755982988,0.0,0,-1.0251375,-1.357194,-1.2030632,-0.09412876,-0.060203355,0.9294528,-1.4511606,-0.65819967,-0.7999941,-0.1311483,0.49826747,-0.3321032,-0.25356823,0.45381775
0.0,-0.1,1.2,-0.5235987755982988,0.0,0,-0.9784646,-1.5493633,-0.97331375,0.12332519,-0.26597786,0.9627789,-0.8343641,-0.47486484,-0.69246626,0.14686543,0.3763419,-1.4254677,0.06411696,1.3868057
0.0,-0.1,1.2,-0.5235987755982988,0.0,0,-0.92064404,-1.4189223,-1.1590977,-0.0043088277,-0.10138456,0.6948054,-1.7208935,-0.71834373,-0.7346996,0.12392901,-0.24567273,-0.16004351,-0.13680783,1.1455057
0.0,-0.1,1.2,-0.5235987755982988,0.0,0,-1.0035139,-1.5847315,-0.96272266,0.033986423,-0.053150043,0.61217654,-1.5758677,-0.6109784,-0.7632104,-0.25838822,0.15495253,-0.70841914,0.09536244,1.158803
0.0,-0.1,1.2,-0.5235987755982988,0.0,0,-1.0965555,-1.6580158,-1.0734041,0.3110834,0.3997755,0.59638196,-2.3158777,-0.7311355,-0.7500125,-0.18647392,-0.14193311,-0.22470474,0.061190177,1.202223
0.0,-0.1,1.2,-0.5235987755982988,0.0,0,-1.1352106,-1.5607886,-1.0689315,0.21952741,-0.18500064,0.76818997,-1.4415501,-0.4686941,-0.6529705,-0.06838504,0.4944179,0.071341164,-0.4820414,0.60063857
0.0,-0.1,1.2,-0.5235987755982988,0.0,0,-1.0107315,-1.6538159,-1.0210758,0.13433406,-0.079949304,0.7233585,-0.84406596,-0.83333063,-0.8336427,-0.045973666,0.17255624,-0.019546628,0.13583545,1.2603301
0.0,-0.1,1.2,-0.5235987755982988,0.0,0,-1.1418018,-1.3528141,-1.0906969,0.31166092,-0.51444376,1.1117618,-1.4508421,-0.667818,-0.8437969,-0.22179706,-0.12874267,-0.31370366,-0.1224133,1.1861986
0.0,-0.1,1.2,-0.5235987755982988,0.0,0,-1.0118239,-1.3387904,-1.1799477,0.25808084,0.040731,0.78874046,-0.9701108,-0.5750262,-0.761876,0.43671703,0.056885496,-0.41258273,0.09625829,1.2215784
0.0,-0.1,1.2,-0.5235987755982988,0.0,0,-0.9493136,-1.2264676,-1.2136363,0.09589781,-0.048539832,0.4676233,-1.0637953,-0.5916341,-0.6872284,-0.46303445,0.15073559,0.93592966,0.22120586,1.1515228
0.0,-0.1,1.2,-0.5235987755982988,0.0,0,-0.9204666,-1.2995664,-1.1284025,0.15380798,0.16260703,0.7205377,-2.615204,-0.5650106,-0.731003,-0.2190108,-0.2261249,0.40563285,-0.101489946,0.70707446
0.0,-0.1,1.2,-0.5235987755982988,0.0,0,-0.9575431,-1.2391816,-1.1714836,0.23735453,0.19071905,0.89056754,-0.94628483,-0.6100794,-0.84168714,0.10536372,-0.060471784,-0.56908476,0.03856258,1.0778508
0.0,-0.1,1.2,-0.5235987755982988,0.0,0,-1.0447439,-1.4188979,-1.0568489,0.20864417,0.0842796,0.654176,-1.30359,-0.63909537,-0.81750494,-0.20809168,0.058664773,-0.20904587,-0.24620697,0.6517853
0.0,-0.1,1.2,-0.5235987755982988,0.0,0,-1.2035089,-1.5411205,-1.1060754,0.095549874,-0.22919191,0.51589835,-1.4336871,-0.6954901,-0.94701654,0.28076136,0.1501454,-0.102425516,0.0061086817,1.0311341
0.0,-0.1,1.2,-0.5235987755982988,0.0,0,-1.0009484,-1.5985796,-0.9331914,0.18018694,0.020629685,0.7568508,-1.1281655,-0.49691612,-0.7123257,0.008485936,0.68164206,-0.34285218,-0.34143585,1.6285499
0.0,-0.1,1.2,-0.5235987755982988,0.0,0,-1.0018219,-1.1196561,-1.2814797,0.15903541,0.200824,0.5991427,-1.1859323,-0.5579173,-0.6753584,-0.35612264,0.14306115,-0.44890645,0.2507924,0.89751405
0.0,-0.1,1.2,-0.5235987755982988,0.0,0,-1.0295058,-1.4394542,-1.1457082,0.44017932,-0.21052037,0.6712528,-0.8001704,-0.72836775,-0.9475381,-0.25238305,0.16005445,-0.9608977,-0.046959132,0.946342
0.0,-0.1,1.2,-0.5235987755982988,0.0,0,-1.1441972,-1.3053371,-1.1649302,0.21926112,0.11180319,1.2155375,-1.1012785,-0.48563287,-0.769539,0.36636892,-0.082620986,-0.48754826,-0.08142416,0.96916634
0.0,-0.1,1.2,-0.5235987755982988,0.0,0,-1.0198725,-1.324581,-1.1092309,0.18602288,-0.21052985,0.8879602,-1.254521,-0.6417232,-0.7741164,0.13430578,-0.38294107,-0.30416328,-0.2731721,1.16907
0.0,-0.1,1.2,-0.5235987755982988,0.0,0,-1.0775065,-1.3818902,-1.148227,0.018468685,-0.11675037,0.96733785,-1.0440136,-0.47840017,-0.6835267,0.008505635,0.004638587,-0.25221658,0.079623155,0.85223746
0.0,-0.1,1.2,-0.5235987755982988,0.0,0,-1.1249706,-1.4468528,-1.1987224,-0.0059187347,0.19088338,1.0911835,-1.474731,-0.30484816,-0.6720354,0.014344465,0.051199134,-1.0895504,0.05866138,0.38509214
0.0,-0.1,1.2,-0.5235987755982988,0.0,0,-0.9640282,-1.568889,-1.0202063,0.059226785,-0.21497032,0.6872431,-1.0260093,-0.7279876,-0.9153287,0.40965527,-0.13011046,0.31909266,-0.40610626,0.9307941
0.0,-0.1,1.2,-0.5235987755982988,0.0,0,-1.2022858,-1.4635552,-1.1333525,0.01542132,-0.084697634,1.0658222,-1.4962662,-0.6142845,-0.8249119,0.01611845,-0.12937103,-0.3696488,0.05102824,1.0605195
0.0,-0.1,1.2,-0.5235987755982988,0.0,0,-1.1177316,-1.6045045,-1.007258,0.27722207,0.050919786,0.92192817,-1.6373898,-0.6269532,-0.87588555,0.39438736,-0.023854334,-0.11328191,-0.32821146,0.9650263
0.0,-0.1,1.2,-0.5235987755982988,0.0,0,-1.0512221,-1.6094984,-1.034134,0.1429473,-0.17371617,0.58244795,-1.8260481,-0.5268902,-0.67174447,0.23767257,-0.18193536,0.030043434,-0.11302222,1.0449963
0.0,-0.1,1.2,-0.5235987755982988,0.0,0,-1.0428528,-1.4809432,-1.0319948,0.18901786,-0.014663595,0.7783829,-1.6695765,-0.6987135,-0.68634945,-0.6548418,0.21591386,-0.6641661,0.16509038,0.9764236
0.0,-0.1,1.2,-0.5235987755982988,0.0,0,-1.0652232,-1.3805969,-1.1047016,0.09846824,-0.18676215,0.8201379,-1.3884194,-0.5695213,-0.78454494,0.29307953,-0.09742584,-0.59224045,0.0030100918,1.1798421
0.0,-0.1,1.2,-0.5235987755982988,0.0,0,-1.1350557,-1.3584582,-1.1546047,0.12661129,0.074807584,0.9483038,-1.503959,-0.69135064,-0.9052217,-0.14898871,-0.31033087,0.026741596,0.08352584,1.0478606
0.0,-0.1,1.2,-0.5235987755982988,0.0,0,-1.2174212,-1.7477614,-1.1061398,-0.014817769,-0.1672849,0.70166683,-1.1069348,-0.66032267,-0.8088722,-0.08979478,0.009229492,-0.64072484,-0.36181337,0.7791594
0.0,-0.1,1.2,-0.5235987755982988,0.0,0,-1.1026849,-1.8396384,-0.92611146,0.41073704,-0.33197674,0.8486077,-1.7282245,-0.56934446,-0.737656,0.5556793,0.14731582,-0.91292024,0.0089644035,1.0240532
0.0,-0.1,1.2,-0.5235987755982988,0.0,0,-1.0185894,-1.5190678,-1.0111746,0.12901498,-0.17082387,0.808402,-0.74163723,-0.78661734,-0.83357257,-0.49111614,-0.028093673,0.35253993,-0.23885669,0.8393739
0.0,-0.1,1.2,-0.5235987755982988,0.0,0,-1.0874192,-1.4051824,-1.0956496,0.17281336,-0.14250539,0.90726894,-1.2441232,-0.57823175,-0.79621667,0.2496442,0.12717548,-0.30671045,0.07397044,0.74529016
0.0,-0.1,1.2,-0.5235987755982988,0.0,0,-1.121582,-1.508114,-1.0750614,0.06689899,-0.20573077,0.9732462,-1.8022192,-0.2864207,-0.7090933,0.5992052,0.10780658,-0.6772666,0.065993205,0.8430674
0.0,-0.1,1.2,-0.5235987755982988,0.0,0,-0.93899655,-1.147955,-1.2605777,0.14233282,-0.3134705,0.6673938,-1.4874275,-0.6590465,-0.8255496,-0.028419644,0.2906497,-0.66252613,-0.08238952,0.8043118
0.0,-0.1,1.2,-0.5235987755982988,0.0,0,-1.0840425,-1.5494382,-1.0541866,0.41016817,0.100876324,0.8676307,-2.4013038,-0.666706,-0.7624822,-0.40532666,0.3001941,0.31337628,-0.021649579,0.88479173
0.0,-0.1,1.2,-0.5235987755982988,0.0,0,-1.1051539,-1.488664,-1.0662858,0.05147899,-0.21623491,0.94855446,-2.0762832,-0.6854825,-0.92375976,-0.04314925,0.0991612,0.1027724,0.23634447,0.8580307
0.0,-0.1,1.2,-0.5235987755982988,0.0,0,-0.94379467,-1.434061,-1.0977958,-0.043520045,0.43274522,0.9553373,-1.4435191,-0.44964248,-0.749096,0.37508243,0.37568632,-0.2031091,0.1290683,1.2138244
0.0,-0.1,1.2,-0.5235987755982988,0.0,0,-1.1779014,-1.3541317,-1.1514112,0.11380192,-0.37520483,0.76272935,-0.74751025,-0.5425374,-0.73823893,0.08871385,0.19033179,-0.34826598,0.31551746,0.7981097
0.0,-0.1,1.2,-0.5235987755982988,0.0,0,-0.9484829,-1.3749285,-1.0738938,0.21534006,-0.42879844,0.7313443,-1.0929532,-0.70220053,-0.77567655,-0.44864175,-0.15305054,0.39640328,-0.032733463,0.96021885
0.0,-0.1,1.2,-0.5235987755982988,0.0,0,-1.092424,-1.5025358,-1.0760274,0.24620807,0.052335046,0.65641135,-1.6345628,-0.5996469,-0.71196216,0.27216217,0.23566839,-0.28162846,0.20388182,1.0953119
0.0,-0.1,1.2,-0.5235987755982988,0.0,0,-1.077291,-1.5167477,-1.1574248,0.08482008,0.071573496,0.75257474,-0.87350357,-0.8655164,-0.91126317,-0.080607906,0.26439047,-0.41478872,-0.11088413,0.7154378
0.0,-0.1,1.2,-0.5235987755982988,0.0,0,-0.9651754,-1.4685341,-1.154443,0.43901014,-0.028172804,0.5907674,-1.1324557,-0.5710643,-0.8167315,0.7412448,0.0650687,-0.55028033,-0.3588279,1.3980943
0.0,-0.1,1.2,-0.5235987755982988,0.0,0,-1.143425,-1.3178271,-1.1635762,0.05420375,-0.63346106,0.68471885,-1.9655201,-0.7849609,-0.97270703,-0.257613,-0.061597362,-0.5171898,-0.097006954,1.1306343
0.0,-0.1,1.2,-0.5235987755982988,0.0,0,-0.9070748,-1.3548378,-1.2002034,-0.0326838,0.12501802,1.1136967,-1.7180413,-0.5235931,-0.74073005,0.73426694,-0.24458781,-0.676639,-0.09036114,0.6694119
0.0,-0.1,1.2,-0.5235987755982988,0.0,0,-1.0779444,-1.3746727,-1.1972092,0.35163775,0.08659418,0.7970982,-1.4394914,-0.49538752,-0.7186203,0.5371445,0.013413976,-0.13517816,0.13378292,0.8756768
0.0,-0.1,1.2,-0.5235987755982988,0.0,0,-1.1141362,-1.6042362,-1.0246841,0.23796025,-0.13323376,0.67383564,-1.8173674,-0.5140423,-0.69503546,0.11943417,0.3937606,-0.6355829,0.18238083,1.1917524
0.0,-0.1,1.2,-0.5235987755982988,0.0,0,-1.1279104,-1.69345,-1.0333364,0.28361654,-0.1895655,0.6635154,-1.1694995,-0.7164418,-0.8752611,0.2185732,0.097015955,0.121991426,-0.07925956,0.88850635
0.0,-0.1,1.2,-0.5235987755982988,0.0,0,-0.839881,-1.2743397,-1.177775,0.06975623,-0.076665536,0.5732711,-1.7097789,-0.7089328,-0.81379694,-0.4412022,0.10459595,0.022150971,0.036947086,0.83140814
0.0,-0.1,1.2,-0.5235987755982988,0.0,0,-0.875711,-1.3760962,-1.1353856,0.20290369,0.060600463,0.84047794,-0.6560958,-0.7485313,-0.8625798,0.25557634,0.34711114,-0.2072034,-0.055536937,0.64039373
0.0,-0.1,1.2,-0.5235987755982988,0.0,0,-1.1386243,-1.2501006,-1.2565925,0.2869676,0.10674005,0.8771751,-1.4084287,-0.69230634,-0.73949575,-0.27026862,0.23685923,0.3298395,-0.031334493,0.65463173
0.0,-0.1,1.2,-0.5235987755982988,0.0,0,-1.1065121,-1.3055797,-1.1958148,0.12841645,-0.18229723,0.7876101,-1.1445853,-0.643127,-0.9847402,0.26858234,-0.13975953,0.013581466,0.09875477,0.9901573
0.0,-0.1,1.2,-0.5235987755982988,0.0,0,-1.0850576,-1.4416757,-1.1564641,-0.020031635,0.0551404,0.69450927,-2.1425927,-0.3520762,-0.6478281,-0.008576394,0.013933728,0.041717432,-0.015138911,0.9167182
0.0,-0.1,1.2,-0.5235987755982988,0.0,0,-1.0004385,-1.4933538,-1.2070045,-0.20032942,-0.2699538,0.6495534,-1.2399983,-0.618529,-0.7563473,0.07698616,-0.12642416,0.29090786,0.08296513,0.8525891
0.0,-0.1,1.2,-0.5235987755982988,0.0,0,-1.0484902,-1.2775517,-1.149797,0.2050007,-0.072815485,0.8028886,-1.6423687,-0.5580116,-0.74964076,0.036696576,0.22088957,-0.48463374,0.25771502,0.8974842
0.0,-0.1,1.2,-0.5235987755982988,0.0,0,-0.9766189,-1.5037949,-1.0468577,0.23272008,-0.35222992,0.9430983,-1.9801605,-0.6437559,-0.7616135,0.13021395,0.010997649,-0.6456485,-0.056569993,0.8350715
0.0,-0.1,1.2,-0.5235987755982988,0.0,0,-0.8503075,-1.5207086,-1.0163249,0.34729734,-0.109962665,0.88445944,-2.0891728,-0.51218474,-0.6688573,-0.03652308,0.3661023,-0.5856934,0.12744261,0.80061936
0.0,-0.1,1.2,-0.5235987755982988,0.0,0,-0.9382884,-1.4946693,-1.009666,0.1551386,-0.11887918,0.93479997,-1.8111421,-0.6771918,-0.80408424,-0.13063568,0.04207912,-0.3956161,-0.43526146,0.93667257
0.0,-0.1,1.2,-0.5235987755982988,0.0,0,-1.1745627,-1.4232107,-1.1072869,0.21657184,-0.31605223,0.6270548,-1.6018057,-0.6703909,-0.77503806,-0.09459729,0.45264164,-0.3744538,-0.13325194,0.8256586
0.0,-0.1,1.2,-0.5235987755982988,0.0,0,-1.0289456,-1.7479397,-0.95255685,0.20039304,0.055576354,0.6772352,-1.3133075,-0.7151584,-0.6976171,-0.018162927,0.16236228,-0.24617629,0.030209076,0.4804651
0.0,-0.1,1.2,-0.5235987755982988,0.0,0,-0.95044076,-1.4976834,-1.1712271,-0.19961229,-0.06732693,0.9623318,-1.199058,-0.66051877,-0.6592897,0.0066520437,0.19152464,0.27249476,0.28606078,0.65170944
0.0,-0.1,1.2,-0.5235987755982988,0.0,0,-1.1667769,-1.2513192,-1.1857791,0.2446861,-0.31940952,1.0982463,-1.660109,-0.37067765,-0.6955565,0.279014,-0.28891408,-0.07310865,-0.08887712,1.090619
0.0,-0.1,1.2,-0.5235987755982988,0.0,0,-1.2198356,-1.4380329,-1.1330601,0.22085956,0.005471653,1.0310439,-1.0667545,-0.5923731,-0.82683074,0.3443256,-0.30483484,0.5941209,-0.2571519,0.6912665
0.0,-0.1,1.2,-0.5235987755982988,0.0,0,-1.0821311,-1.5133271,-1.0356944,0.16999775,-0.4744826,0.76814157,-1.5202923,-0.24423862,-0.69285923,0.37596798,0.102358505,-0.4950184,0.01955447,1.1629044
0.0,-0.1,1.2,-0.5235987755982988,0.0,0,-1.1491326,-1.3113859,-1.2027087,0.29376003,-0.04572148,0.76733005,-1.0008129,-0.44949937,-0.6288699,0.18733712,0.016467193,-0.6126279,-0.2664799,0.62428373
0.0,-0.1,1.2,-0.5235987755982988,0.0,0,-1.0498215,-1.546679,-1.073158,0.008905714,0.07825511,0.8274622,-1.019117,-0.79620713,-0.770636,-0.50904197,0.13149978,-0.20523036,-0.09228323,1.1314254
0.0,-0.1,1.2,-0.5235987755982988,0.0,0,-1.2678764,-1.810402,-1.1314026,0.16707808,0.1357831,0.94999516,-1.9558811,-0.6241398,-0.72860014,0.1618291,0.029208334,-0.523235,0.24256824,1.0829188
0.0,-0.1,1.2,-0.5235987755982988,0.0,0,-1.1008219,-1.6517363,-0.97257894,0.32149976,-0.42024544,0.6861121,-1.559556,-0.5851343,-0.7478665,0.2568942,0.22698751,-0.099809594,0.11855967,1.079829
0.0,-0.1,1.2,-0.5235987755982988,0.0,0,-1.1230679,-1.3410255,-1.2083734,0.17175794,-0.054686867,0.8564419,-1.3214161,-0.75284976,-0.79106116,-0.22126348,-0.24137673,-0.68832576,-0.18003781,1.0365074
0.0,-0.1,1.2,-0.5235987755982988,0.0,0,-1.1361037,-1.2780062,-1.2061144,0.10895424,-0.11489061,0.8326151,-1.7218446,-0.62945443,-0.76277184,0.057392802,-0.11712285,0.002358798,-0.102164626,1.1218231
0.0,-0.1,1.2,-0.5235987755982988,0.0,0,-1.1878552,-1.6760342,-1.084303,0.35521305,-0.0243448,0.95759225,-1.833004,-0.6904711,-0.7476788,0.25116482,0.1568069,-0.76070124,-0.16225868,0.8657145
0.0,-0.1,1.2,-0.5235987755982988,0.0,0,-1.1608024,-1.2984141,-1.2176688,0.06070291,-0.19412114,0.8038645,-1.329639,-0.6332233,-0.8234487,0.28795505,-0.25427896,-0.51614237,-0.1338926,0.8043556
0.0,-0.1,1.2,-0.5235987755982988,0.0,0,-1.2090911,-1.4261376,-1.1432078,0.37329268,-0.052372146,0.8319838,-1.1840123,-0.6213257,-0.6936921,-0.06359465,0.12712713,0.51895416,-0.079986036,0.93430424
0.0,-0.1,1.2,-0.5235987755982988,0.0,0,-1.2154543,-1.6245949,-1.0956584,0.12528086,-0.11903276,0.82564735,-1.0008603,-0.6658796,-0.7502514,-0.05218278,0.27390093,-0.16749074,0.16245839,0.99162054
0.0,-0.1,1.2,-0.5235987755982988,0.0,0,-1.0230507,-1.5013427,-1.0634706,0.030600017,0.053725075,0.7743503,-2.0404856,-0.5770744,-0.70801336,0.13938177,0.17564458,-0.5079734,0.043324444,1.0753038
0.0,-0.1,1.2,-0.5235987755982988,0.0,0,-1.0161883,-1.6498286,-0.95416653,0.24682178,-0.17758356,1.2116694,-1.6440268,-0.6478659,-0.7581456,0.20889673,0.47295168,-0.03167122,0.03426196,1.0723388
0.0,-0.1,1.2,-0.5235987755982988,0.0,0,-1.106909,-1.4726449,-1.0784922,0.17170699,-0.22255024,0.9764306,-1.6332375,-0.6082955,-0.8175244,0.4490282,-0.010193387,-0.3678192,0.04631082,0.86346847
0.0,-0.1,1.2,-0.5235987755982988,0.0,0,-0.99889153,-1.3928598,-1.1112092,0.2390279,-0.10090903,0.567886,-1.3569301,-0.56578314,-0.5918655,-0.5154103,0.39201885,-0.15409483,-0.08356341,1.1885166
0.0,-0.1,1.2,-0.5235987755982988,0.0,0,-1.0305156,-1.411541,-1.1467843,0.056322712,0.25368387,0.83723277,-1.9528309,-0.5406476,-0.6703886,0.21566167,0.137035,-0.12198893,0.11938973,0.89939135
0.0,-0.1,1.2,-0.5235987755982988,0.0,0,-1.1079425,-1.4827993,-1.1121074,0.1456324,-0.18038473,1.0982494,-1.857353,-0.6344566,-0.61748725,-0.29655606,-0.0421397,-0.7345042,-0.34687364,1.2905617
0.0,-0.1,1.2,-0.5235987755982988,0.0,0,-1.1682642,-1.6162498,-1.0886433,0.028409975,-0.20098332,0.7043584,-0.95256364,-0.67302203,-0.8597399,0.2510236,-0.2058844,-0.1402755,0.2834184,1.3380376
0.0,-0.1,1.2,-0.5235987755982988,0.0,0,-1.142689,-1.5261984,-1.0688986,0.13020185,-0.23614968,0.9705765,-1.3338802,-0.33237892,-0.6238664,0.04897467,-0.12900685,0.3320616,-0.02759894,0.46283308
0.0,-0.1,1.2,-0.5235987755982988,0.0,0,-1.0071535,-1.510638,-1.0078347,0.2803379,-0.21411833,0.8270164,-1.332899,-0.5107842,-0.84639096,0.8493137,0.28155574,-0.66898155,-0.26158884,1.2182778
0.0,-0.1,1.2,-0.5235987755982988,0.0,0,-1.1594828,-1.5129466,-1.1155299,0.16889752,-0.18906291,1.0223216,-1.7957646,-0.6339589,-0.6418606,-0.14023668,0.037071824,-0.2944734,0.15106848,0.5894973
0.0,-0.1,1.2,-0.5235987755982988,0.0,0,-0.96477145,-1.4772477,-1.0243874,0.23907591,-0.029245568,0.7952264,-1.7880362,-0.80524635,-0.86582726,-0.42723858,0.12928817,-0.62199616,-0.013398636,0.5972306
0.0,-0.1,1.2,-0.5235987755982988,0.0,0,-0.95132905,-1.2927045,-1.196738,0.08609631,-0.33149895,0.9773667,-1.2785529,-0.7097996,-0.89611715,0.35639176,0.25650662,0.1623993,-0.18760736,1.1354761
0.0,-0.1,1.2,-0.5235987755982988,0.0,0,-1.0716875,-1.5823641,-1.0421649,0.13853125,-0.089227036,0.7111971,-1.7119958,-0.6927126,-0.915215,0.43734777,0.20242968,-0.19349666,-0.03417167,1.3239346
0.0,-0.1,1.2,-0.5235987755982988,0.0,0,-1.1865752,-1.406945,-1.3283044,0.1304855,-0.15069643,0.89923286,-0.8202545,-0.6504854,-0.77119267,0.044076566,0.17447723,-0.4401115,-0.05842824,1.249667
0.0,-0.1,1.2,-0.5235987755982988,0.0,0,-1.1916763,-1.1367751,-1.1402063,0.07194032,0.010353595,0.7803765,-1.8399493,-0.56702155,-1.0887909,-0.38821715,0.21380599,-0.631988,0.066075146,1.0295591
0.0,-0.1,1.2,-0.5235987755982988,0.0,0,-1.2142894,-1.4595505,-1.2917216,0.20854725,-0.4697503,0.62904745,-1.2998073,-0.6410082,-0.9160775,-0.8106102,0.024298504,0.4180224,-0.19774891,0.428917
0.0,-0.1,1.2,-0.5235987755982988,0.0,0,-1.241291,-1.555994,-1.3002126,0.090905525,-0.094338216,0.85368264,-0.72276074,-0.53909796,-0.7839527,0.5288606,0.17016608,-0.2987314,0.10901816,1.0208018
0.0,-0.1,1.2,-0.5235987755982988,0.0,0,-0.95331615,-1.7031835,-1.2317102,-0.036760613,-0.54278135,0.814076,-1.5734416,-0.7074429,-0.7556361,0.35308653,0.12429702,-0.61739194,-0.1827638,1.133979
0.0,-0.1,1.2,-0.5235987755982988,0.0,0,-1.1140234,-1.8623928,-1.1751549,-0.005390124,-0.16467935,0.9767902,-0.6528097,-0.43701437,-0.93333083,0.022302419,-0.32113692,0.08192892,-0.27616772,0.55949026
0.0,-0.1,1.2,-0.5235987755982988,0.0,0,-1.3165942,-1.8186322,-1.1720885,0.30272162,-0.31817842,0.861306,-1.1528541,-0.7059483,-0.86688447,-0.20362407,0.29559845,-0.9884172,-0.14589126,1.0225914
0.0,-0.1,1.2,-0.5235987755982988,0.0,0,-0.91830546,-1.5432248,-1.1556209,-0.120584674,-0.098884806,0.9893448,-1.7461928,-0.61879605,-0.90483564,-0.2586717,0.26726767,-0.18154196,0.07905872,0.59976965
0.0,-0.1,1.2,-0.5235987755982988,0.0,0,-1.1787101,-1.3355273,-1.1034583,0.12747297,-0.098518185,0.9455788,-0.5385243,-0.41156358,-1.0334874,0.040124886,0.2304243,-0.14202064,-0.0054722982,1.2045562
0.0,-0.1,1.2,-0.5235987755982988,0.0,0,-1.211064,-1.7000717,-1.1265968,0.17266084,-0.23492831,0.74409133,-1.852998,-0.72916824,-0.6767625,-0.016667146,0.031954587,-0.12497947,-0.27104202,0.8544573
0.0,-0.1,1.2,-0.5235987755982988,0.0,0,-0.9181364,-1.3128356,-1.282262,0.0021564474,-0.26624164,1.0049174,-1.1766298,-0.41232666,-0.7538882,0.29466206,-0.56347024,-0.63024765,-0.040295612,0.8817759
0.0,-0.1,1.2,-0.5235987755982988,0.0,0,-0.919644,-1.0527091,-1.3194526,0.057398688,0.27667797,0.8107399,-1.4997346,-0.33506376,-0.8472359,-0.07591193,-0.033269383,-0.29998428,0.18974656,0.6548715
0.0,-0.1,1.2,-0.5235987755982988,0.0,0,-1.0772665,-1.4740404,-1.2642273,-0.26499504,0.3287612,1.0097339,-1.5668122,-0.35611874,-0.8881782,-0.15299134,0.30395323,-0.9165807,-0.14308396,0.7483579
0.0,-0.1,1.2,-0.5235987755982988,0.0,0,-1.0838342,-1.5359391,-1.0605663,-0.14741609,-0.21402223,0.6246358,-1.5958378,-0.78604645,-1.0112964,-0.7299639,0.51034844,-0.5947194,-0.1375078,0.7889155
0.0,-0.1,1.2,-0.5235987755982988,0.0,0,-0.99360675,-1.3760684,-0.91168255,0.21569452,-0.042056326,0.65048975,-0.7588806,-0.7398341,-0.70346326,-1.2552602,0.043298066,0.109434836,-0.20578709,1.390003
0.0,-0.1,1.2,-0.5235987755982988,0.0,0,-1.2530636,-1.5027314,-1.0313693,0.07789889,-0.1453642,0.7182162,-1.2279104,-0.68870664,-0.86698794,-0.715717,0.0995644,-0.28021556,-0.035139985,1.1360581
0.0,-0.1,1.2,-0.5235987755982988,0.0,0,-1.1833416,-1.4505401,-1.1446004,0.12971506,-0.37952504,0.4758546,-1.474363,-0.5151739,-0.9136926,-0.14399406,0.24655233,0.22223201,-0.119401135,0.7947386
0.0,-0.1,1.2,-0.5235987755982988,0.0,0,-1.160307,-1.5716242,-1.0695307,-0.069521785,-0.004186173,0.87317437,-0.70870703,-0.42224872,-0.83565575,0.20150775,-0.07463955,0.6341918,-0.10856656,1.2853528
0.0,-0.1,1.2,-0.5235987755982988,0.0,0,-1.2203169,-1.362456,-1.108416,0.3440311,-0.6625959,0.5443207,-1.1932669,-0.550369,-0.7538529,-0.1531815,0.27781424,-0.6332346,-0.0071658785,1.0877215
0.0,-0.1,1.2,-0.5235987755982988,0.0,0,-1.4024014,-1.4269161,-1.2275044,0.014239219,0.034097526,1.0278095,-1.3037496,-0.6878999,-0.9507765,0.23812786,0.6903999,0.44993746,-0.17805895,0.96992373
0.0,-0.1,1.2,-0.5235987755982988,0.0,0,-1.2531152,-1.3726993,-1.231073,0.025024697,0.018090678,1.1289397,-1.7993847,-0.5513833,-0.6203966,-0.23994505,-0.111708425,0.17658105,-0.03187961,1.5977224
0.0,-0.1,1.2,-0.5235987755982988,0.0,0,-1.0550665,-1.486002,-1.1957574,-0.008942361,-0.3417823,0.9977205,-1.0363209,-0.35918018,-0.80413854,-0.3015735,-0.23010395,-0.51870424,-0.021567924,1.1132644
0.0,-0.1,1.2,-0.5235987755982988,0.0,0,-0.8941261,-1.5855696,-0.9749383,0.11472012,-0.22724593,0.6579642,-1.6654794,-0.5900545,-0.8021854,0.19411477,-0.053485762,-0.57370657,-0.061889227,0.95063585
0.0,-0.1,1.2,-0.5235987755982988,0.0,0,-1.2915395,-1.4318752,-1.2607523,0.28929237,0.15329981,0.19850858,-0.5966363,-0.64206266,-0.80394953,0.3675303,-0.4367038,0.04917727,-0.27674183,1.3472192
0.0,-0.1,1.2,-0.5235987755982988,0.0,0,-1.3490462,-1.3897406,-1.1905096,0.13435048,-0.43054134,0.4214475,-0.6850535,-0.49196523,-0.78653955,-0.21341087,-0.058684304,-0.5693304,-0.040795103,0.7623065
0.0,-0.1,1.2,-0.5235987755982988,0.0,0,-1.2743148,-1.433056,-1.2894642,-0.07227515,-0.2418039,0.5875954,-1.8850243,-0.5577729,-0.9719876,0.21884173,0.09197063,-0.1631671,-0.14189021,0.6965979
0.0,-0.1,1.2,-0.5235987755982988,0.0,0,-1.1859632,-1.6175809,-1.1472502,-0.047630217,0.020945622,0.99435204,-1.4610087,-0.6277766,-0.80114305,-0.27346182,-0.15455174,0.38951558,0.208208,0.8590708
0.0,-0.1,1.2,-0.5235987755982988,0.0,0,-1.159567,-1.4490192,-1.400029,-0.070925504,-0.0014061651,0.980652,-1.3852609,-0.61616415,-0.75076383,-0.45216486,0.056368463,-0.20686473,-0.025442833,0.7578285
0.0,-0.1,1.2,-0.5235987755982988,0.0,0,-1.1854588,-1.4268773,-1.1164492,0.25857437,-0.5288966,0.92420405,-0.96498805,-0.2967674,-0.6669528,0.47516415,-0.06159188,-0.8634594,-0.019056382,0.78651863
0.0,-0.1,1.2,-0.5235987755982988,0.0,0,-1.2908158,-1.3363484,-1.3040102,0.11696036,-0.10227587,0.79300314,-1.2640496,-0.6131659,-0.69864726,0.19332366,0.58347017,-0.07546786,-0.09294165,1.2190197
0.0,-0.1,1.2,-0.5235987755982988,0.0,0,-1.1939235,-1.5741478,-1.1237024,-0.183685,0.24223833,1.1025145,-1.3607762,-0.2431689,-0.95004284,-0.5559695,0.1300427,0.01945579,0.008788452,1.1165642
0.0,-0.1,1.2,-0.5235987755982988,0.0,0,-1.2610133,-1.675996,-1.0507503,-0.008727622,-0.03927007,0.872301,-0.78946036,-0.4105798,-1.0561123,0.12894143,-0.32736185,-0.33951193,-0.22391756,0.9972821
0.0,-0.1,1.2,-0.5235987755982988,0.0,0,-1.2599515,-1.5679677,-1.208412,-0.10400616,-0.24885786,0.8641159,-1.3848373,-0.6412669,-0.81106836,0.17254265,-0.15635572,0.16236728,-0.20373836,0.74315554
0.0,-0.1,1.2,-0.5235987755982988,0.0,0,-1.1541606,-1.5596925,-1.2828162,-0.068726666,-0.22124806,0.86704004,-1.0264459,-0.8620961,-0.79348415,-0.4085044,0.31273794,0.36138356,0.06286688,0.8850971
0.0,-0.1,1.2,-0.5235987755982988,0.0,0,-1.1460627,-1.4239677,-1.3988369,-0.33534604,0.06456909,0.99659246,-0.87019193,-0.18459386,-0.8743063,0.32939866,-0.042527758,-0.7216987,0.029184267,0.6381844
0.0,-0.1,1.2,-0.5235987755982988,0.0,0,-1.1460627,-1.4239677,-1.3988369,-0.33534604,0.06456909,0.99659246,-0.87019193,-0.18459386,-0.8743063,0.32939866,-0.042527758,-0.7216987,0.029184267,0.6381844
0.0,-0.1,1.2,-0.5235987755982988,0.0,0,-1.1460627,-1.4239677,-1.3988369,-0.33534604,0.06456909,0.99659246,-0.87019193,-0.18459386,-0.8743063,0.32939866,-0.042527758,-0.7216987,0.029184267,0.6381844
0.0,-0.1,1.2,-0.5235987755982988,0.0,0,-1.1460627,-1.4239677,-1.3988369,-0.33534604,0.06456909,0.99659246,-0.87019193,-0.18459386,-0.8743063,0.32939866,-0.042527758,-0.7216987,0.029184267,0.6381844
0.0,-0.1,1.2,-0.5235987755982988,0.0,0,-1.1460627,-1.4239677,-1.3988369,-0.33534604,0.06456909,0.99659246,-0.87019193,-0.18459386,-0.8743063,0.32939866,-0.042527758,-0.7216987,0.029184267,0.6381844
0.0,-0.1,1.2,-0.5235987755982988,0.0,0,-1.1460627,-1.4239677,-1.3988369,-0.33534604,0.06456909,0.99659246,-0.87019193,-0.18459386,-0.8743063,0.32939866,-0.042527758,-0.7216987,0.029184267,0.6381844
0.0,-0.1,1.2,-0.5235987755982988,0.0,0,-1.182119,-1.2441669,-1.49472,0.008327336,-0.34141988,0.88947344,-1.8834809,-0.51493645,-0.91548914,-0.7455413,0.40918607,-0.49491745,-0.2237619,0.7376752
0.0,-0.1,1.2,-0.5235987755982988,0.0,0,-1.182119,-1.2441669,-1.49472,0.008327336,-0.34141988,0.88947344,-1.8834809,-0.51493645,-0.91548914,-0.7455413,0.40918607,-0.49491745,-0.2237619,0.7376752
0.0,-0.1,1.2,-0.5235987755982988,0.0,0,-1.182119,-1.2441669,-1.49472,0.008327336,-0.34141988,0.88947344,-1.8834809,-0.51493645,-0.91548914,-0.7455413,0.40918607,-0.49491745,-0.2237619,0.7376752
0.0,-0.1,1.2,-0.5235987755982988,0.0,0,-1.182119,-1.2441669,-1.49472,0.008327336,-0.34141988,0.88947344,-1.8834809,-0.51493645,-0.91548914,-0.7455413,0.40918607,-0.49491745,-0.2237619,0.7376752
0.0,-0.1,1.2,-0.5235987755982988,0.0,0,-1.182119,-1.2441669,-1.49472,0.008327336,-0.34141988,0.88947344,-1.8834809,-0.51493645,-0.91548914,-0.7455413,0.40918607,-0.49491745,-0.2237619,0.7376752
0.0,-0.1,1.2,-0.5235987755982988,0.0,0,-1.1157218,-1.5224088,-0.98301136,-0.05885588,0.06296216,0.8946256,-1.1095276,-0.27825007,-1.0181148,-0.5850436,-0.18679266,-0.13158047,0.0024375182,0.88856727
0.0,-0.1,1.2,-0.5235987755982988,0.0,0,-1.1157218,-1.5224088,-0.98301136,-0.05885588,0.06296216,0.8946256,-1.1095276,-0.27825007,-1.0181148,-0.5850436,-0.18679266,-0.13158047,0.0024375182,0.88856727
0.0,-0.1,1.2,-0.5235987755982988,0.0,0,-1.1157218,-1.5224088,-0.98301136,-0.05885588,0.06296216,0.8946256,-1.1095276,-0.27825007,-1.0181148,-0.5850436,-0.18679266,-0.13158047,0.0024375182,0.88856727
0.0,-0.1,1.2,-0.5235987755982988,0.0,0,-1.1157218,-1.5224088,-0.98301136,-0.05885588,0.06296216,0.8946256,-1.1095276,-0.27825007,-1.0181148,-0.5850436,-0.18679266,-0.13158047,0.0024375182,0.88856727
0.0,-0.1,1.2,-0.5235987755982988,0.0,0,-1.1157218,-1.5224088,-0.98301136,-0.05885588,0.06296216,0.8946256,-1.1095276,-0.27825007,-1.0181148,-0.5850436,-0.18679266,-0.13158047,0.0024375182,0.88856727
0.0,-0.1,1.2,-0.5235987755982988,0.0,0,-1.1157218,-1.5224088,-0.98301136,-0.05885588,0.06296216,0.8946256,-1.1095276,-0.27825007,-1.0181148,-0.5850436,-0.18679266,-0.13158047,0.0024375182,0.88856727
0.0,-0.1,1.2,-0.5235987755982988,0.0,0,-1.0873615,-1.4189987,-1.3931979,-0.11258353,-0.22480619,0.7912907,-1.3513873,-0.5174878,-0.92460835,0.14281906,-0.22466709,-0.0056460993,0.1865868,1.2706962
0.0,-0.1,1.2,-0.5235987755982988,0.0,0,-1.0873615,-1.4189987,-1.3931979,-0.11258353,-0.22480619,0.7912907,-1.3513873,-0.5174878,-0.92460835,0.14281906,-0.22466709,-0.0056460993,0.1865868,1.2706962
0.0,-0.1,1.2,-0.5235987755982988,0.0,0,-1.0873615,-1.4189987,-1.3931979,-0.11258353,-0.22480619,0.7912907,-1.3513873,-0.5174878,-0.92460835,0.14281906,-0.22466709,-0.0056460993,0.1865868,1.2706962
0.0,-0.1,1.2,-0.5235987755982988,0.0,0,-1.0873615,-1.4189987,-1.3931979,-0.11258353,-0.22480619,0.7912907,-1.3513873,-0.5174878,-0.92460835,0.14281906,-0.22466709,-0.0056460993,0.1865868,1.2706962
0.0,-0.1,1.2,-0.5235987755982988,0.0,0,-1.0873615,-1.4189987,-1.3931979,-0.11258353,-0.22480619,0.7912907,-1.3513873,-0.5174878,-0.92460835,0.14281906,-0.22466709,-0.0056460993,0.1865868,1.2706962
0.0,-0.1,1.2,-0.5235987755982988,0.0,0,-1.2084203,-0.80557495,-1.3169674,0.12832539,0.29628605,0.52931976,-2.2077744,-0.2703502,-1.0259957,-0.41012156,0.46978432,-0.35945383,-0.31241983,0.96545017
0.0,-0.1,1.2,-0.5235987755982988,0.0,0,-1.2084203,-0.80557495,-1.3169674,0.12832539,0.29628605,0.52931976,-2.2077744,-0.2703502,-1.0259957,-0.41012156,0.46978432,-0.35945383,-0.31241983,0.96545017
0.0,-0.1,1.2,-0.5235987755982988,0.0,0,-1.2084203,-0.80557495,-1.3169674,0.12832539,0.29628605,0.52931976,-2.2077744,-0.2703502,-1.0259957,-0.41012156,0.46978432,-0.35945383,-0.31241983,0.96545017
0.0,-0.1,1.2,-0.5235987755982988,0.0,0,-1.2084203,-0.80557495,-1.3169674,0.12832539,0.29628605,0.52931976,-2.2077744,-0.2703502,-1.0259957,-0.41012156,0.46978432,-0.35945383,-0.31241983,0.96545017
0.0,-0.1,1.2,-0.5235987755982988,0.0,0,-1.2084203,-0.80557495,-1.3169674,0.12832539,0.29628605,0.52931976,-2.2077744,-0.2703502,-1.0259957,-0.41012156,0.46978432,-0.35945383,-0.31241983,0.96545017
0.0,-0.1,1.2,-0.5235987755982988,0.0,0,-1.3401709,-0.9537239,-1.3431253,-0.116387516,0.07864052,0.5240263,-1.3079109,-0.35635817,-1.0054971,-0.7340705,-0.13036786,0.36488506,0.042215224,1.2875805
0.0,-0.1,1.2,-0.5235987755982988,0.0,0,-1.3401709,-0.9537239,-1.3431253,-0.116387516,0.07864052,0.5240263,-1.3079109,-0.35635817,-1.0054971,-0.7340705,-0.13036786,0.36488506,0.042215224,1.2875805
0.0,-0.1,1.2,-0.5235987755982988,0.0,0,-1.3401709,-0.9537239,-1.3431253,-0.116387516,0.07864052,0.5240263,-1.3079109,-0.35635817,-1.0054971,-0.7340705,-0.13036786,0.36488506,0.042215224,1.2875805
0.0,-0.1,1.2,-0.5235987755982988,0.0,0,-1.3401709,-0.9537239,-1.3431253,-0.116387516,0.07864052,0.5240263,-1.3079109,-0.35635817,-1.0054971,-0.7340705,-0.13036786,0.36488506,0.042215224,1.2875805
0.0,-0.1,1.2,-0.5235987755982988,0.0,0,-0.79677474,-0.66227293,-1.4677358,-0.25615564,-0.67055297,0.8896804,-0.6440947,-0.3122534,-1.2955686,-1.028071,0.2843774,-0.8001745,0.06582149,0.8112797
