sanky1234/BimanualDexCatch/isaacgymenvs/cem_results/May31/football_pose_0.2_0.0_0.9_0.0_0.0_0_2025-06-03.csv
x,y,z,roll,pitch,yaw,robot1/joint1,robot1/joint2,robot1/joint3,robot1/joint4,robot1/joint5,robot1/joint6,robot1/joint7,robot2/joint1,robot2/joint2,robot2/joint3,robot2/joint4,robot2/joint5,robot2/joint6,robot2/joint7
0.2,0.0,0.9,0.0,0.0,0,-1.4927744,1.1375121,-0.9882565,0.07525776,0.51688045,1.4859787,-0.24268478,1.3689717,0.718851,0.14789587,0.6134574,0.39805037,1.5449568,-1.3638057
0.2,0.0,0.9,0.0,0.0,0,-1.5265292,1.1220896,-0.96740454,0.025613535,0.52624214,1.5150447,-0.3358211,1.31202,0.82341623,0.08530984,0.55674595,0.45712453,1.5229157,-1.2403387
0.2,0.0,0.9,0.0,0.0,0,-1.522499,1.1807361,-0.97887623,0.08646549,0.5006912,1.5049046,-0.34666818,1.2782531,0.5445582,0.14812022,0.58875215,0.36750382,1.5483657,-1.3563855
0.2,0.0,0.9,0.0,0.0,0,-1.4783772,1.2244731,-0.9855176,-0.039049726,0.5323387,1.5096296,-0.39839524,1.3205473,0.7600395,0.20205948,0.6314439,0.43073496,1.5619332,-1.3024492
0.2,0.0,0.9,0.0,0.0,0,-1.5232774,1.1389881,-0.94671416,0.037374493,0.5249202,1.4643159,-0.2108841,1.3483309,0.51798177,0.13024071,0.598997,0.39280942,1.5222105,-1.1352988
0.2,0.0,0.9,0.0,0.0,0,-1.4771816,1.1408645,-0.9660747,0.0032407197,0.52394646,1.4917893,0.10639682,1.3652091,0.8198258,0.16493365,0.6249026,0.40702596,1.529482,-1.3049794
0.2,0.0,0.9,0.0,0.0,0,-1.5238245,1.072946,-0.9493771,0.072327,0.5043519,1.452049,0.15771025,1.361025,0.63898975,0.11551951,0.5750594,0.40813732,1.5015103,-1.4504598
0.2,0.0,0.9,0.0,0.0,0,-1.5029495,1.0945741,-0.9998913,0.041325357,0.5289188,1.4551469,0.021759288,1.3194216,0.584995,0.17652166,0.5624491,0.41162026,1.5164825,-1.1163875
0.2,0.0,0.9,0.0,0.0,0,-1.4962931,1.1581354,-1.047233,0.04055994,0.5319664,1.4887259,-0.30425084,1.3639762,0.8172642,0.072467975,0.45231038,0.3906878,1.5667002,-1.1958485
0.2,0.0,0.9,0.0,0.0,0,-1.5143054,1.1571772,-1.0420065,0.044110395,0.50520754,1.4660646,0.029662685,1.3026266,0.68242466,0.2240615,0.6494777,0.39194092,1.4845786,-1.2459315
0.2,0.0,0.9,0.0,0.0,0,-1.453291,1.2403712,-0.9767879,0.038135216,0.5131609,1.4849117,-0.20757397,1.3621799,0.71347535,0.1485215,0.54928833,0.37218407,1.5247797,-1.3103437
0.2,0.0,0.9,0.0,0.0,0,-1.5037096,1.1872728,-1.0199044,0.02308226,0.4940058,1.49578,-0.18238029,1.277567,0.7602472,0.19132483,0.7289839,0.48298478,1.5112163,-1.4596677
0.2,0.0,0.9,0.0,0.0,0,-1.5180707,1.1374466,-0.98213553,0.025354357,0.5107218,1.475659,-0.24919236,1.364606,0.63672876,0.1122755,0.54054004,0.39721942,1.5501686,-1.5342133
0.2,0.0,0.9,0.0,0.0,0,-1.4981842,1.1521019,-1.0252985,0.042861626,0.5493404,1.4916415,-0.45140612,1.3836907,0.7170582,0.1355795,0.58888876,0.3649609,1.5210662,-1.254972
0.2,0.0,0.9,0.0,0.0,0,-1.5196705,1.0896957,-1.0249422,0.09414755,0.51937604,1.4812622,-0.17094468,1.3508257,0.69190997,0.16917291,0.56072176,0.34427267,1.5108262,-1.2952999
0.2,0.0,0.9,0.0,0.0,0,-1.516002,1.0926507,-1.0179682,0.050335385,0.5381332,1.4693468,-0.09036599,1.3410012,0.677509,0.028113607,0.53242785,0.4700458,1.5219378,-1.4216498
0.2,0.0,0.9,0.0,0.0,0,-1.424647,1.2216403,-1.0376146,0.0066390457,0.5253899,1.4983187,-0.13606936,1.3459018,0.72966444,0.16773069,0.7250093,0.49437907,1.5207101,-1.2822013
0.2,0.0,0.9,0.0,0.0,0,-1.4704615,1.1406541,-0.972139,0.024702022,0.5181745,1.4898988,-0.13555434,1.3352677,0.6700437,0.16932155,0.66478103,0.44387707,1.521454,-1.5561048
0.2,0.0,0.9,0.0,0.0,0,-1.5112917,1.0971495,-1.0142969,0.08667346,0.53391176,1.485794,-0.14824413,1.3132061,0.7818564,0.13323435,0.6038346,0.41839594,1.5463634,-1.3528078
0.2,0.0,0.9,0.0,0.0,0,-1.4624474,1.2329526,-1.027734,0.053349223,0.5246523,1.4763384,-0.16866297,1.3132168,0.76071805,0.20709622,0.6498581,0.27386102,1.469078,-1.2163196
0.2,0.0,0.9,0.0,0.0,0,-1.5253812,1.1529545,-0.97921085,0.012251431,0.5281902,1.4790761,-0.20707566,1.2935374,0.86779547,0.1267968,0.58242255,0.4438509,1.4992442,-1.2270128
0.2,0.0,0.9,0.0,0.0,0,-1.4282392,1.2303606,-1.005383,0.059224594,0.52233374,1.5040903,-0.19871868,1.392004,0.88638705,0.020512111,0.62882763,0.4453517,1.5345917,-1.2234935
0.2,0.0,0.9,0.0,0.0,0,-1.4653759,1.2920643,-0.99247783,0.061641235,0.52038616,1.4833807,-0.432954,1.3474897,0.6409679,0.17709622,0.6296676,0.30364174,1.4980526,-1.292764
0.2,0.0,0.9,0.0,0.0,0,-1.4934855,1.2114617,-0.9763107,0.0059110094,0.53222966,1.5073501,-0.26491725,1.3121895,0.72069895,0.118102856,0.5863113,0.3734309,1.5288844,-1.2599908
0.2,0.0,0.9,0.0,0.0,0,-1.5169649,1.1945356,-0.9585421,0.028382953,0.5230653,1.4786661,-0.2058975,1.310698,0.83851564,0.16317663,0.6508863,0.413318,1.5414675,-1.2992665
0.2,0.0,0.9,0.0,0.0,0,-1.5138643,1.2185956,-1.0092095,0.036838677,0.5307971,1.5189248,-0.0022020463,1.3404894,0.7206633,0.16355254,0.619287,0.33066466,1.5031171,-1.1019837
0.2,0.0,0.9,0.0,0.0,0,-1.5608387,1.1394161,-1.0052228,0.01782668,0.5191062,1.5096164,-0.1629565,1.3475626,0.7094207,0.08671174,0.69416267,0.47734842,1.4726597,-1.3562813
0.2,0.0,0.9,0.0,0.0,0,-1.4925193,1.1496781,-0.9652657,0.022355113,0.5217265,1.4820722,-0.28465673,1.4043263,0.689933,0.118193634,0.5849595,0.3698082,1.5509408,-1.3913975
0.2,0.0,0.9,0.0,0.0,0,-1.513328,1.2676994,-0.924595,-0.013266332,0.514501,1.485886,-0.0033951586,1.263804,0.730655,0.0683079,0.4502086,0.3499936,1.4554464,-1.3094796
0.2,0.0,0.9,0.0,0.0,0,-1.5156164,1.1810435,-0.983218,0.053243577,0.51982796,1.4867846,-0.36267045,1.3725524,0.76151806,0.038446605,0.5906132,0.43676916,1.5475267,-1.4227952
0.2,0.0,0.9,0.0,0.0,0,-1.514296,1.2386171,-0.97080743,0.0020392996,0.5171108,1.4998307,0.1301135,1.275906,0.6685553,0.1684133,0.6598663,0.42866188,1.5336529,-1.4383616
0.2,0.0,0.9,0.0,0.0,0,-1.5555847,1.1862679,-1.0058815,0.0839941,0.51961833,1.5407212,-0.020750806,1.3489002,0.6451935,0.10103153,0.6912202,0.41277325,1.5087428,-1.1941812
0.2,0.0,0.9,0.0,0.0,0,-1.4717797,1.2045662,-0.98703146,0.02858538,0.5159815,1.5126632,-0.39609537,1.3563563,0.7986715,0.11690343,0.49769276,0.31420243,1.5228084,-1.2691764
0.2,0.0,0.9,0.0,0.0,0,-1.5268478,1.2212486,-0.8998913,0.036766697,0.5117455,1.5340834,-0.06634732,1.2913927,0.6381619,0.15969887,0.6281517,0.340798,1.5207393,-1.4946245
0.2,0.0,0.9,0.0,0.0,0,-1.5109465,1.1769032,-0.9867334,0.032658666,0.5224623,1.4821997,-0.19837406,1.3431952,0.8729215,0.16515,0.5949291,0.3465954,1.5295873,-1.3039196
0.2,0.0,0.9,0.0,0.0,0,-1.506582,1.2420907,-0.9480396,0.039787702,0.53698385,1.4840217,0.2325441,1.294527,0.7729875,0.23827182,0.4820366,0.23615299,1.5260624,-1.3161459
0.2,0.0,0.9,0.0,0.0,0,-1.5234188,1.1627617,-1.010788,0.022163963,0.5368128,1.500746,-0.41407463,1.3030306,0.58193105,0.17049694,0.6301428,0.3935752,1.4954143,-1.3368382
0.2,0.0,0.9,0.0,0.0,0,-1.4893408,1.1687205,-0.97947544,0.065922685,0.5282186,1.4665835,-0.22384144,1.3561594,0.7221363,0.066918366,0.6640606,0.41023007,1.5017443,-1.0626864
0.2,0.0,0.9,0.0,0.0,0,-1.4813348,1.1876422,-1.00023,-0.06499794,0.5322351,1.5139364,-0.0072003687,1.303523,0.6563929,0.085053615,0.4941516,0.45128423,1.5111479,-1.3397758
0.2,0.0,0.9,0.0,0.0,0,-1.4856542,1.1437304,-0.9757256,0.048846535,0.52577215,1.4897792,-0.11284476,1.3820517,0.82301813,0.11313289,0.49888074,0.34717026,1.4869393,-1.3801657
0.2,0.0,0.9,0.0,0.0,0,-1.5186471,1.1853354,-0.99102455,0.010843509,0.5318964,1.5251368,-0.08972545,1.3323214,0.7318654,0.109947145,0.49231595,0.33185542,1.5181001,-1.2905223
0.2,0.0,0.9,0.0,0.0,0,-1.4791973,1.2057803,-1.051674,0.017253602,0.5222652,1.5315609,-0.083271004,1.3128802,0.9378242,0.080897175,0.48537123,0.37144515,1.5370654,-1.2487563
0.2,0.0,0.9,0.0,0.0,0,-1.472957,1.1926653,-1.0159848,0.015521172,0.53659743,1.4933394,-0.05542561,1.3213524,0.7494325,0.11353256,0.6656683,0.46167865,1.5072323,-1.4641318
0.2,0.0,0.9,0.0,0.0,0,-1.4622179,1.2615149,-0.9428987,-0.032499786,0.5267958,1.506334,-0.17140764,1.3635648,0.573317,0.0053488817,0.66823477,0.2835443,1.5269016,-1.7564523
0.2,0.0,0.9,0.0,0.0,0,-1.5302469,1.1225034,-1.0113813,-0.006572298,0.5243043,1.5202645,-0.3462109,1.3127966,0.7901393,0.12879299,0.47908676,0.41603178,1.5480705,-1.3212925
0.2,0.0,0.9,0.0,0.0,0,-1.4849927,1.1756557,-0.99623084,0.016693646,0.5329688,1.4970788,-0.07996199,1.3183181,0.6588127,0.04978506,0.45358783,0.4288611,1.502967,-1.4784107
0.2,0.0,0.9,0.0,0.0,0,-1.514218,1.2557555,-0.9727986,0.06496382,0.51746106,1.5184649,-0.26488844,1.3327081,0.7736325,0.13428034,0.560264,0.3002633,1.5295624,-1.3173876
0.2,0.0,0.9,0.0,0.0,0,-1.4928045,1.2441106,-0.96320313,0.004811374,0.52299654,1.5195096,-0.084178455,1.3732086,0.79485124,-0.010459287,0.7065081,0.37547627,1.5125824,-1.3944433
0.2,0.0,0.9,0.0,0.0,0,-1.4859906,1.1674653,-1.0223277,0.055842504,0.49695808,1.4937236,-0.16484487,1.3886492,0.6546901,0.09497208,0.7493081,0.4659985,1.5068604,-1.2438531
0.2,0.0,0.9,0.0,0.0,0,-1.5494621,1.1829107,-0.99315876,-0.004284536,0.5074427,1.4678961,-0.32540956,1.2876198,0.7322962,0.19134784,0.67776865,0.43738484,1.5615942,-1.3435854
0.2,0.0,0.9,0.0,0.0,0,-1.472541,1.1904339,-0.97287023,0.006540675,0.528012,1.4761221,0.031709086,1.3014237,0.7705651,0.17134914,0.68463546,0.4484317,1.522466,-1.1231592
0.2,0.0,0.9,0.0,0.0,0,-1.5646571,1.1600487,-0.93653184,-0.00025763962,0.514802,1.4938687,-0.03977817,1.328781,0.8156109,0.11753381,0.56252974,0.39064336,1.5117188,-1.340008
0.2,0.0,0.9,0.0,0.0,0,-1.511606,1.2200376,-1.0283117,-0.008497292,0.52467775,1.5074365,-0.3014091,1.3225408,0.5995305,0.18022138,0.7212695,0.4223497,1.4860246,-1.447706
0.2,0.0,0.9,0.0,0.0,0,-1.5137058,1.2110907,-0.9448325,-0.016616717,0.5221401,1.5098531,-0.058647435,1.3165196,0.7067323,-0.01774125,0.5345757,0.39684013,1.5446349,-1.6245761
0.2,0.0,0.9,0.0,0.0,0,-1.4842141,1.207185,-1.0232219,0.008076767,0.53800905,1.4763843,-0.071276285,1.3404261,0.762272,0.09736458,0.7115179,0.47295484,1.5042729,-1.2792976
0.2,0.0,0.9,0.0,0.0,0,-1.5217353,1.1543344,-0.9986309,0.036820397,0.5152448,1.4833943,-0.06626624,1.3352842,0.6042071,0.22833413,0.49543017,0.2948858,1.5259881,-1.2415774
0.2,0.0,0.9,0.0,0.0,0,-1.4486887,1.2574728,-1.0184226,0.033639226,0.5225958,1.5018644,-0.09334554,1.3889192,0.6543385,0.12662812,0.6283531,0.38028166,1.5243728,-1.2210511
0.2,0.0,0.9,0.0,0.0,0,-1.4251864,1.2730056,-1.0149497,0.02776266,0.5249015,1.5203997,-0.21148647,1.3296615,0.68070734,0.17779793,0.5899811,0.32966018,1.4895514,-1.0836695
0.2,0.0,0.9,0.0,0.0,0,-1.4932482,1.2099897,-0.9796108,0.058614355,0.5093155,1.527844,-0.1370255,1.3432354,0.72632855,0.17968705,0.72337484,0.35156587,1.5429596,-1.2928127
0.2,0.0,0.9,0.0,0.0,0,-1.4812919,1.2122241,-1.0020101,0.048552547,0.5105775,1.4548304,-0.3906567,1.3089716,0.6604005,0.06270594,0.5993765,0.40842697,1.4943923,-1.3326583
0.2,0.0,0.9,0.0,0.0,0,-1.5321566,1.1985775,-0.99435186,0.037521936,0.5329656,1.5047288,-0.13806733,1.3743966,0.75165105,0.043106575,0.6966715,0.44834438,1.5253209,-1.1285785
0.2,0.0,0.9,0.0,0.0,0,-1.546313,1.1286588,-0.99152875,0.049080104,0.5159673,1.5225618,-0.1836506,1.3486006,0.77257663,0.041392643,0.5999196,0.44741765,1.5447063,-1.338489
0.2,0.0,0.9,0.0,0.0,0,-1.4767506,1.1524364,-0.993602,-0.0006977335,0.5551847,1.4912249,-0.074496225,1.3432099,0.7049436,0.21936907,0.5456074,0.32507873,1.5409944,-1.2707175
0.2,0.0,0.9,0.0,0.0,0,-1.466197,1.2318357,-0.975488,-0.030124621,0.52568406,1.5020615,-0.033517938,1.4026655,0.6110731,0.17009823,0.6056389,0.33891344,1.5478946,-1.4409264
0.2,0.0,0.9,0.0,0.0,0,-1.5250411,1.1750797,-1.0172173,0.063574605,0.51124483,1.4971491,-0.37619367,1.2511716,0.8228499,0.02374547,0.58254015,0.46116143,1.4708502,-1.2651097
0.2,0.0,0.9,0.0,0.0,0,-1.454998,1.232588,-0.94994783,-0.048136905,0.5170355,1.5209191,-0.26969355,1.3067045,0.79812443,0.14337924,0.6683956,0.4064593,1.5023687,-1.2895917
0.2,0.0,0.9,0.0,0.0,0,-1.4975024,1.2342652,-1.0352881,0.009784936,0.5226593,1.4773431,-0.47495517,1.3685248,0.78859,0.10192567,0.5443818,0.35147712,1.5406679,-1.4031649
0.2,0.0,0.9,0.0,0.0,0,-1.5055751,1.2922268,-0.9563753,-0.012237657,0.51970774,1.4735888,-0.26511025,1.3134842,0.6852062,0.08665189,0.7037062,0.419285,1.5553089,-1.1636097
0.2,0.0,0.9,0.0,0.0,0,-1.5163263,1.2646646,-0.9722568,0.0014087767,0.52762765,1.5053326,-0.11809337,1.4091256,0.7278804,0.019389432,0.6179628,0.3532024,1.5022621,-1.4428703
0.2,0.0,0.9,0.0,0.0,0,-1.5218503,1.2092534,-0.96259654,-0.034460966,0.52232826,1.50826,0.008211553,1.3320289,0.6410789,0.14806814,0.5439311,0.3610568,1.5375812,-1.4926431
0.2,0.0,0.9,0.0,0.0,0,-1.4645116,1.249927,-0.9709885,0.053272918,0.5233125,1.5324504,-0.058684714,1.3221352,0.77655727,0.012825649,0.60599446,0.41627505,1.4939111,-1.4137473
0.2,0.0,0.9,0.0,0.0,0,-1.4976542,1.196877,-1.0207039,-0.012811737,0.5041201,1.5070633,-0.15284334,1.3026091,0.7061751,0.11617315,0.432048,0.36446574,1.5051242,-1.318232
0.2,0.0,0.9,0.0,0.0,0,-1.408823,1.2181526,-0.94117403,0.048060603,0.52320665,1.5144742,-0.27281258,1.394382,0.70359033,0.021680139,0.58280015,0.3922577,1.5553159,-1.3238887
0.2,0.0,0.9,0.0,0.0,0,-1.5033525,1.2385143,-0.9729542,0.003170046,0.5284893,1.4876355,-0.17914231,1.3720238,0.6231569,0.11965006,0.56505156,0.3209117,1.5208877,-1.3744736
0.2,0.0,0.9,0.0,0.0,0,-1.4814532,1.1850759,-1.0588158,0.054909945,0.5346553,1.4965152,-0.05187534,1.2763346,0.7726071,0.11108117,0.562333,0.4381109,1.4992788,-1.5264364
0.2,0.0,0.9,0.0,0.0,0,-1.447178,1.1946346,-1.0091307,0.0054969494,0.52582204,1.5057673,0.0096686585,1.2583699,0.7941448,0.1904427,0.6270305,0.40024817,1.4871707,-1.5288737
0.2,0.0,0.9,0.0,0.0,0,-1.478197,1.217049,-1.024332,0.03287018,0.52687824,1.4995258,-0.18191385,1.2643968,0.7854142,0.26187864,0.7027363,0.32360482,1.5358068,-1.229338
0.2,0.0,0.9,0.0,0.0,0,-1.5357562,1.1998717,-1.018952,0.019058134,0.5096684,1.4972657,-0.20005558,1.3490219,0.6022406,0.0859254,0.6471615,0.32660496,1.5359346,-1.4934444
0.2,0.0,0.9,0.0,0.0,0,-1.4692954,1.1995096,-1.0202324,0.010974471,0.5156939,1.5030375,-0.07401383,1.3656892,0.8372651,0.029886762,0.57993627,0.39011288,1.5180467,-1.108904
0.2,0.0,0.9,0.0,0.0,0,-1.4906046,1.2592227,-0.94109714,-0.035897568,0.52132785,1.4882629,-0.30311367,1.330729,0.6983885,0.040582914,0.53503364,0.4020194,1.5444442,-1.313034
0.2,0.0,0.9,0.0,0.0,0,-1.5178794,1.2707328,-0.92409104,-0.00061441906,0.5140335,1.4870411,-0.30023146,1.3373353,0.78786975,0.101150736,0.53041464,0.30408767,1.511222,-1.3146492
0.2,0.0,0.9,0.0,0.0,0,-1.4876417,1.1640942,-0.9863024,0.018867837,0.5230618,1.4829042,-0.10568602,1.3504808,0.722177,0.08830634,0.47034925,0.36192024,1.5208046,-1.3684269
0.2,0.0,0.9,0.0,0.0,0,-1.4805546,1.2464753,-1.0179969,0.02778369,0.5250944,1.5097493,-0.1251943,1.2622927,0.69487363,0.0060334033,0.6669305,0.44869578,1.5128725,-1.460955
0.2,0.0,0.9,0.0,0.0,0,-1.5253675,1.1532869,-0.9865725,0.015932014,0.51633453,1.4868246,-0.108430214,1.3551892,0.6108693,0.032327976,0.41666856,0.38008338,1.5406954,-1.2048115
0.2,0.0,0.9,0.0,0.0,0,-1.4968053,1.2288383,-0.94866675,0.007378701,0.5237475,1.4943863,-0.4542544,1.2720666,0.813211,0.0740473,0.43892902,0.35337833,1.4939666,-1.4690305
0.2,0.0,0.9,0.0,0.0,0,-1.5051192,1.2184699,-1.0241373,0.028971964,0.5084537,1.4812157,-0.2686066,1.3772148,0.7037563,0.15475398,0.45318323,0.25254875,1.5309252,-1.2389251
0.2,0.0,0.9,0.0,0.0,0,-1.5317215,1.2017261,-0.9811087,0.026246576,0.5281291,1.478449,-0.13252914,1.322924,0.61381537,0.22119528,0.74934554,0.3613732,1.5203747,-1.2476107
0.2,0.0,0.9,0.0,0.0,0,-1.4342766,1.2479693,-0.96366495,0.041860517,0.54120594,1.4985864,-0.19604138,1.3615464,0.6819497,0.022120977,0.5656522,0.35557985,1.532554,-1.5792514
0.2,0.0,0.9,0.0,0.0,0,-1.5158281,1.2104311,-1.0110701,0.052998643,0.51835465,1.4975002,-0.16467635,1.3359594,0.8280082,0.10491419,0.5635731,0.33347154,1.5079385,-1.512705
0.2,0.0,0.9,0.0,0.0,0,-1.5343376,1.2267113,-1.0040487,0.017048758,0.5275881,1.4915515,-0.22501904,1.3877532,0.66645706,0.07810694,0.6406389,0.35358584,1.4989856,-1.3461568
0.2,0.0,0.9,0.0,0.0,0,-1.5883878,1.1370306,-1.0241363,0.027413482,0.525655,1.501643,-0.3253531,1.3178838,0.7871392,0.17549503,0.67246914,0.3682404,1.5237513,-1.4194397
0.2,0.0,0.9,0.0,0.0,0,-1.5354455,1.2304473,-1.0248436,0.04375787,0.5241821,1.5139216,-0.30882302,1.3882533,0.6219487,0.1291514,0.62086666,0.29980466,1.5018251,-1.3395144
0.2,0.0,0.9,0.0,0.0,0,-1.5221915,1.2383265,-0.99496317,0.019047538,0.52318805,1.5230657,0.075632185,1.3146857,0.78013486,0.110285915,0.41110107,0.30501714,1.5309362,-1.1680665
0.2,0.0,0.9,0.0,0.0,0,-1.5140576,1.2518455,-0.9721865,0.044484302,0.519812,1.4914852,-0.25731644,1.2909445,0.5187863,0.11095323,0.49058253,0.3402894,1.5313741,-1.4107276
0.2,0.0,0.9,0.0,0.0,0,-1.5057261,1.2503967,-0.99135894,0.046831734,0.5217342,1.4948415,-0.20544319,1.3646907,0.83322084,0.09635199,0.42360905,0.26589775,1.5102736,-1.283148
0.2,0.0,0.9,0.0,0.0,0,-1.5153679,1.1638652,-1.0388267,0.07033345,0.5065505,1.4767408,0.0015971229,1.2792562,0.79876924,0.15098971,0.65131,0.39595354,1.526674,-1.2421688
0.2,0.0,0.9,0.0,0.0,0,-1.5023432,1.2066706,-0.98297733,-0.021215659,0.52599645,1.4847485,-0.08818355,1.3048309,0.8745503,0.12429812,0.70782775,0.50751865,1.5455502,-1.2832345
0.2,0.0,0.9,0.0,0.0,0,-1.5022721,1.2563177,-0.9835131,-0.0034565036,0.5292139,1.4511225,-0.12565221,1.298097,0.73173094,0.1354712,0.7604464,0.44294557,1.5328885,-1.3646275
0.2,0.0,0.9,0.0,0.0,0,-1.4850051,1.1981689,-1.0401816,0.0007529135,0.5324314,1.4448345,-0.125945,1.2957383,0.66772145,0.19412218,0.607742,0.34716162,1.5476936,-1.1923971
0.2,0.0,0.9,0.0,0.0,0,-1.4875978,1.22357,-1.0312351,-0.052120503,0.5251255,1.501579,-0.019258993,1.3234624,0.65302986,0.019950211,0.4703823,0.45164642,1.5149833,-1.4170076
0.2,0.0,0.9,0.0,0.0,0,-1.5374794,1.0896682,-1.0246412,0.043048956,0.53057367,1.506218,0.047686648,1.3196841,0.62687993,0.066667914,0.6642207,0.4681511,1.5390371,-1.3733841
0.2,0.0,0.9,0.0,0.0,0,-1.4798193,1.2289379,-0.9428655,0.041446343,0.5290796,1.4372045,-0.27797732,1.2382439,0.62136793,0.10404767,0.53263,0.34720543,1.5320648,-1.5253264
0.2,0.0,0.9,0.0,0.0,0,-1.557624,1.1212085,-1.0259116,0.015900727,0.52609736,1.4735768,-0.064874776,1.3158184,0.76315093,0.14229876,0.4540099,0.3058401,1.5066175,-1.0629258
0.2,0.0,0.9,0.0,0.0,0,-1.5291264,1.1703323,-0.951052,-0.019375982,0.5210658,1.5121329,-0.08549196,1.3496134,0.6939078,0.08236819,0.49128973,0.35710046,1.5171118,-1.2993822
0.2,0.0,0.9,0.0,0.0,0,-1.5061262,1.2080477,-1.0215611,-0.0512727,0.5170355,1.4914476,0.075535595,1.3283228,0.56244206,0.07727361,0.60724854,0.43090713,1.5020142,-1.4935905
0.2,0.0,0.9,0.0,0.0,0,-1.5159732,1.2687258,-1.0057677,-0.006379844,0.51715535,1.4916122,-0.5164381,1.3990113,0.79933244,-0.021223376,0.7228615,0.47325587,1.5124383,-1.2418413
0.2,0.0,0.9,0.0,0.0,0,-1.4585279,1.2183135,-1.0021869,0.019989047,0.5226697,1.4888784,0.024116693,1.3021606,0.73893464,0.0660431,0.6174403,0.40221614,1.4880633,-1.4186659
0.2,0.0,0.9,0.0,0.0,0,-1.5306677,1.1825624,-0.95344734,0.015036524,0.5192194,1.50289,-0.14322211,1.3171611,0.68308914,0.1733239,0.6828257,0.3225534,1.5084633,-1.342217
0.2,0.0,0.9,0.0,0.0,0,-1.5459775,1.1687819,-0.9365393,-0.014480556,0.5275795,1.4716519,0.007704364,1.3507586,0.7756483,0.074283585,0.62490124,0.40385932,1.5400267,-1.3228697
0.2,0.0,0.9,0.0,0.0,0,-1.5202059,1.1739192,-1.0145819,0.024937004,0.5148468,1.4761108,-0.08150103,1.3666493,0.69528717,0.06745965,0.5706419,0.32418585,1.5464193,-1.1636323
0.2,0.0,0.9,0.0,0.0,0,-1.5139462,1.1796412,-1.0289822,0.054034963,0.53769374,1.5387849,-0.21288152,1.3001034,0.6444318,0.06710008,0.6665838,0.32137233,1.5618639,-1.4265147
0.2,0.0,0.9,0.0,0.0,0,-1.5557528,1.1173016,-0.9921519,0.0095577575,0.51537657,1.4640336,-0.17453232,1.3029857,0.64322966,0.13130657,0.6179178,0.4619376,1.5672883,-1.3676736
0.2,0.0,0.9,0.0,0.0,0,-1.5108985,1.245871,-1.0298463,0.044280276,0.5174105,1.514219,-0.1829712,1.3206387,0.7110718,0.12102991,0.58229595,0.2738302,1.5070922,-1.4987171
0.2,0.0,0.9,0.0,0.0,0,-1.505102,1.163732,-0.9856504,-0.0014423347,0.51662356,1.5011057,0.14482093,1.2994457,0.7459989,0.05391388,0.48454097,0.40360174,1.5644487,-1.5588535
0.2,0.0,0.9,0.0,0.0,0,-1.4703714,1.2408227,-1.0270993,0.06584742,0.5170657,1.4776508,-0.08313272,1.2907672,0.72654474,-0.011498711,0.68832517,0.4285489,1.551896,-1.3192915
0.2,0.0,0.9,0.0,0.0,0,-1.492039,1.2329364,-1.0139979,-0.006808931,0.5106416,1.4813924,0.094252825,1.3534311,0.71221524,0.0119716665,0.75218505,0.51762724,1.5458817,-1.3579732
0.2,0.0,0.9,0.0,0.0,0,-1.5441142,1.2607752,-1.0006062,0.0016212941,0.51945126,1.4878917,0.06735656,1.2795055,0.62000364,0.16731514,0.76403904,0.41258124,1.559528,-1.199345
0.2,0.0,0.9,0.0,0.0,0,-1.5358582,1.1922448,-1.0121552,0.016579762,0.5411059,1.4603169,-0.15675399,1.2919,0.65260744,-0.0002684669,0.48549992,0.41312557,1.5438672,-1.2150979
0.2,0.0,0.9,0.0,0.0,0,-1.4940288,1.3152732,-1.0327294,-0.015209169,0.5310992,1.5521138,-0.19899088,1.2915902,0.8431372,0.045752056,0.5094094,0.3536127,1.5316725,-1.3090338
0.2,0.0,0.9,0.0,0.0,0,-1.5384291,1.1517459,-1.0070853,0.017434614,0.5250897,1.4640926,-0.2817438,1.3135085,0.7266232,0.17819798,0.64102155,0.3481708,1.4733341,-1.3712691
0.2,0.0,0.9,0.0,0.0,0,-1.5662817,1.1973844,-0.93228686,0.016559353,0.53504527,1.5034968,-0.028706027,1.2882432,0.7388879,0.044137333,0.4628383,0.35576123,1.529676,-1.3849232
0.2,0.0,0.9,0.0,0.0,0,-1.5241061,1.2098271,-0.9815783,0.05607866,0.5350623,1.5263556,-0.30318075,1.2897122,0.6634913,0.15683687,0.4446051,0.22992903,1.5206536,-1.4556721
0.2,0.0,0.9,0.0,0.0,0,-1.5602144,1.1738122,-0.95962816,-0.004960246,0.5269863,1.4803832,-0.13939708,1.3259959,0.8990998,0.15537187,0.57680476,0.29079536,1.5500598,-1.4605519
0.2,0.0,0.9,0.0,0.0,0,-1.5147814,1.2668761,-0.9906169,0.005413385,0.51585597,1.4848794,-0.31773517,1.3865539,0.6708339,0.01331653,0.57713187,0.36612493,1.5524435,-1.3389146
0.2,0.0,0.9,0.0,0.0,0,-1.5078093,1.1812449,-1.0411396,0.03734988,0.50647694,1.4968456,-0.1535121,1.3479487,0.6790295,0.10488109,0.63561964,0.33477098,1.47602,-1.2797852
0.2,0.0,0.9,0.0,0.0,0,-1.5334046,1.2272167,-0.95678014,-0.025776563,0.5219405,1.456678,-0.12169583,1.2917714,0.69456834,0.08980518,0.56252116,0.36950305,1.5692465,-1.2183375
0.2,0.0,0.9,0.0,0.0,0,-1.488805,1.2471286,-0.9822628,-0.051276084,0.5202564,1.4910645,-0.27003387,1.3321332,0.68861616,0.06890116,0.56229156,0.36710748,1.5430958,-1.4525251
0.2,0.0,0.9,0.0,0.0,0,-1.4997514,1.2484748,-1.0144255,-0.010086035,0.51058686,1.4785532,-0.32977468,1.2425739,0.69422615,0.10069018,0.515202,0.34481812,1.5652825,-1.3132739
0.2,0.0,0.9,0.0,0.0,0,-1.5408089,1.2122636,-0.97920364,-0.0037255213,0.52118784,1.5552878,-0.06806829,1.3806657,0.7757698,-0.013456797,0.5585263,0.40249756,1.5128975,-1.5130392
0.2,0.0,0.9,0.0,0.0,0,-1.5237851,1.1868984,-0.9744715,-0.018152298,0.5328461,1.4774176,-0.21494281,1.3316237,0.78484195,0.13481317,0.45165247,0.27978444,1.5120897,-1.2677084
0.2,0.0,0.9,0.0,0.0,0,-1.5379151,1.2250284,-0.98165333,-0.041152477,0.5269342,1.5081275,-0.13613892,1.3613756,0.83536476,-0.015689282,0.4687969,0.40601838,1.5457553,-1.5154016
0.2,0.0,0.9,0.0,0.0,0,-1.505475,1.2467065,-0.97397625,-0.02103784,0.53415245,1.4878983,0.03119682,1.2914205,0.76156336,0.07960562,0.6409419,0.36155704,1.5014402,-1.2656851
0.2,0.0,0.9,0.0,0.0,0,-1.5034746,1.2438494,-1.0227964,-0.04215982,0.5207005,1.4975306,-0.14169088,1.3635834,0.7911543,-0.016169947,0.6069639,0.4312894,1.5021701,-1.4916112
0.2,0.0,0.9,0.0,0.0,0,-1.5181463,1.2588114,-1.0650309,0.024210969,0.54954505,1.4805734,-0.1990381,1.3091788,0.60767955,0.07562678,0.5418155,0.33325863,1.5032054,-1.3962051
0.2,0.0,0.9,0.0,0.0,0,-1.5243194,1.207165,-1.0171145,-0.04323021,0.51777273,1.5002688,-0.090304874,1.2407361,0.67495257,0.13242273,0.6740367,0.4095289,1.5354784,-1.1579014
0.2,0.0,0.9,0.0,0.0,0,-1.5107033,1.2556086,-0.9892892,0.010860206,0.5360649,1.4720811,-0.20421329,1.2941806,0.7924646,-0.020116117,0.5045511,0.35479474,1.5196695,-1.2304459
0.2,0.0,0.9,0.0,0.0,0,-1.5382172,1.2426927,-1.0714098,0.006503798,0.53257877,1.4993206,0.036264732,1.3039625,0.5567997,0.08574819,0.66843045,0.29561558,1.5509622,-1.2148579
0.2,0.0,0.9,0.0,0.0,0,-1.4891999,1.1774015,-0.9834737,0.056148935,0.54760593,1.5251566,-0.10746917,1.3512986,0.68513244,0.13228483,0.65712667,0.41667885,1.5116764,-1.280724
0.2,0.0,0.9,0.0,0.0,0,-1.4536171,1.1746594,-0.9462927,0.055248637,0.53282815,1.5081706,-0.0010419381,1.3367207,0.7540636,0.14906,0.5690352,0.38349727,1.5346254,-1.4355985
0.2,0.0,0.9,0.0,0.0,0,-1.5132107,1.1294099,-0.9847118,0.033554237,0.51528925,1.5301611,-0.13737214,1.3301841,0.81194097,0.18655585,0.5967554,0.43781197,1.5394729,-1.3911511
0.2,0.0,0.9,0.0,0.0,0,-1.5197781,1.118245,-0.91668814,0.058719754,0.52707404,1.5173861,0.088044226,1.3681984,0.6628605,0.16408062,0.6755677,0.4015583,1.5227163,-1.3207139
0.2,0.0,0.9,0.0,0.0,0,-1.5494052,1.1191715,-0.95689034,0.00016300328,0.5232883,1.4887983,-0.4045053,1.3694024,0.67808336,0.16430062,0.6290889,0.3782017,1.5324029,-1.5213448
0.2,0.0,0.9,0.0,0.0,0,-1.4814208,1.1286951,-0.9965123,0.0793347,0.535229,1.5028584,-0.14913462,1.3474065,0.8324181,0.105733685,0.6052621,0.40889648,1.567134,-1.6141596
0.2,0.0,0.9,0.0,0.0,0,-1.4675719,1.1827633,-1.0235082,0.032958336,0.5277716,1.5066817,-0.27014166,1.3784178,0.78442454,0.13494392,0.5684761,0.33505216,1.51027,-1.1272887
0.2,0.0,0.9,0.0,0.0,0,-1.4877089,1.1259011,-0.98113865,0.015696293,0.53298825,1.5291216,-0.0065877587,1.2903281,0.7422854,0.19035186,0.4153921,0.3058719,1.5385656,-1.4266542
0.2,0.0,0.9,0.0,0.0,0,-1.4996669,1.1711186,-0.9508727,0.046110827,0.5248216,1.5030708,-0.19371338,1.3698667,0.7334393,0.039249346,0.5867705,0.4410991,1.544265,-1.5394613
0.2,0.0,0.9,0.0,0.0,0,-1.4613874,1.2095681,-0.97062194,0.049494743,0.5315431,1.4906082,-0.36807546,1.3239027,0.76372135,0.12428069,0.662846,0.34937215,1.5059215,-1.4309158
0.2,0.0,0.9,0.0,0.0,0,-1.4960566,1.1555496,-0.9942159,0.05637454,0.5211989,1.5069927,-0.03202267,1.3479843,0.7626808,0.2405168,0.48032844,0.20414159,1.5310508,-1.5342014
0.2,0.0,0.9,0.0,0.0,0,-1.4741914,1.2230704,-1.0234218,0.04374422,0.5283942,1.5000585,-0.26854208,1.3189452,0.6785537,0.19923949,0.7488431,0.44086355,1.5339953,-1.1149857
0.2,0.0,0.9,0.0,0.0,0,-1.462576,1.1934557,-0.96728814,0.072675176,0.5095146,1.4815928,-0.16705161,1.2980802,0.6553332,0.17026497,0.5466079,0.36388326,1.5395727,-1.3973894
0.2,0.0,0.9,0.0,0.0,0,-1.4522834,1.2014759,-0.9241295,0.062564574,0.5192504,1.4848297,-0.25222614,1.3746498,0.7828979,0.015875788,0.5685192,0.38642365,1.5349612,-1.5644541
0.2,0.0,0.9,0.0,0.0,0,-1.5556339,1.1101608,-0.94102687,0.03870323,0.5201043,1.4912887,-0.30581254,1.2883006,0.77888495,0.12070357,0.53072166,0.41994005,1.527695,-1.400826
0.2,0.0,0.9,0.0,0.0,0,-1.4904823,1.1858298,-0.9314753,0.06763322,0.521104,1.4931439,-0.20780352,1.3083633,0.7814161,0.09988595,0.51217675,0.35161203,1.5046877,-1.258415
0.2,0.0,0.9,0.0,0.0,0,-1.4832525,1.171172,-1.0077441,0.069028944,0.5281683,1.4918072,0.0068576094,1.3665622,0.73627436,0.07460469,0.60918856,0.39049646,1.5342408,-1.2697068
0.2,0.0,0.9,0.0,0.0,0,-1.505317,1.2096841,-1.0037177,-0.018540464,0.51253116,1.4484537,0.046408452,1.3999207,0.81065696,0.11154539,0.60141736,0.35165092,1.5669881,-1.2903429
0.2,0.0,0.9,0.0,0.0,0,-1.4826614,1.1745194,-1.0162722,0.02715186,0.53153837,1.4981952,0.010922241,1.2955134,0.6422946,0.11619839,0.56011015,0.43311682,1.5094469,-1.2139924
0.2,0.0,0.9,0.0,0.0,0,-1.5016166,1.211,-0.981558,0.04308241,0.5370566,1.527898,-0.045414712,1.2993693,0.7799923,0.13233885,0.5467522,0.3658839,1.4953986,-1.3197209
0.2,0.0,0.9,0.0,0.0,0,-1.476502,1.1931858,-0.9402992,0.009336121,0.53614473,1.4857013,-0.13656782,1.2978936,0.7753079,0.09321757,0.6824577,0.4688757,1.5310527,-1.3088796
0.2,0.0,0.9,0.0,0.0,0,-1.5383303,1.1360496,-0.94061315,0.017488433,0.5063918,1.5016754,-0.18643783,1.3619108,0.8064013,0.13711247,0.7142006,0.4716624,1.5481586,-1.3736054
0.2,0.0,0.9,0.0,0.0,0,-1.5130188,1.1965969,-0.9866474,-0.0054033077,0.52975464,1.4942397,0.005914756,1.3073375,0.78423184,0.14949143,0.71369445,0.46689495,1.5486225,-1.3010371
0.2,0.0,0.9,0.0,0.0,0,-1.4466358,1.1961175,-0.98411036,0.018353317,0.52579826,1.5271994,0.11536697,1.3489319,0.7076477,0.058259297,0.5440801,0.3754122,1.5128481,-1.4612445
0.2,0.0,0.9,0.0,0.0,0,-1.5136749,1.2312033,-0.90915906,0.03738194,0.5451597,1.5017983,-0.3525063,1.3516449,0.66446054,0.02750506,0.49777368,0.38555223,1.4919711,-1.309578
0.2,0.0,0.9,0.0,0.0,0,-1.4921784,1.220081,-0.93863887,0.01129641,0.5141671,1.5036736,-0.31409281,1.3391615,0.6969526,0.068119906,0.705697,0.4457376,1.51911,-1.1777422
0.2,0.0,0.9,0.0,0.0,0,-1.5214646,1.1591029,-0.98315114,0.036564596,0.51356643,1.4810249,-0.004548797,1.2722092,0.79818106,0.16155124,0.5818862,0.40650427,1.5139763,-1.2673516
0.2,0.0,0.9,0.0,0.0,0,-1.5212777,1.1757817,-0.99781066,0.041184016,0.5241132,1.5052149,-0.24628586,1.3716654,0.6847552,0.22236286,0.453724,0.22948603,1.512307,-1.22965
0.2,0.0,0.9,0.0,0.0,0,-1.4698933,1.215067,-0.96614766,0.014319765,0.52306354,1.5014869,-0.1547217,1.3061204,0.7495918,0.10713944,0.5148232,0.34084204,1.5352057,-1.1695029
0.2,0.0,0.9,0.0,0.0,0,-1.5547006,1.2292721,-0.93783534,0.07291189,0.5249218,1.5432409,-0.27193153,1.2697436,0.5341304,0.16081576,0.7949461,0.41306782,1.5422453,-1.2189463
0.2,0.0,0.9,0.0,0.0,0,-1.4346246,1.214354,-0.9512313,0.004338273,0.5110766,1.4703109,-0.051838603,1.3033444,0.5878402,0.1331213,0.57565135,0.3488645,1.4695146,-1.098907
0.2,0.0,0.9,0.0,0.0,0,-1.4767025,1.2760305,-0.94578487,0.0595354,0.5175006,1.5194738,-0.30523732,1.3537577,0.79328763,0.13593033,0.50617546,0.25611818,1.5196928,-1.2491474
0.2,0.0,0.9,0.0,0.0,0,-1.4538541,1.2378682,-0.98784125,0.0063925525,0.51457113,1.495016,-0.070799574,1.3356354,0.7522311,0.08751762,0.56908035,0.36828682,1.5075709,-1.373145
0.2,0.0,0.9,0.0,0.0,0,-1.5068337,1.3107779,-0.9636919,-0.013777689,0.5304444,1.5237081,-0.33027053,1.3317261,0.7372843,0.15001246,0.7153094,0.35561264,1.5425967,-1.3522851
0.2,0.0,0.9,0.0,0.0,0,-1.4759753,1.2332325,-0.99841464,0.022720499,0.52155775,1.46903,0.051260136,1.4010509,0.8217431,0.12114867,0.5851349,0.2952372,1.5344142,-1.1876371
0.2,0.0,0.9,0.0,0.0,0,-1.5084566,1.184202,-0.94051206,0.030262256,0.5060299,1.4671587,-0.25432217,1.294045,0.7040501,0.14836535,0.64072555,0.3849157,1.5053816,-1.2433996
0.2,0.0,0.9,0.0,0.0,0,-1.4351565,1.2494076,-1.0176476,0.011844224,0.51846194,1.5001938,-0.27584147,1.3660395,0.73797685,0.09469576,0.5788022,0.35665008,1.5213038,-1.3911507
0.2,0.0,0.9,0.0,0.0,0,-1.4676852,1.2544652,-0.97368544,0.061083358,0.5156987,1.4716828,-0.19319619,1.3659288,0.73537606,0.081605144,0.62013227,0.31805843,1.5192671,-1.4165847
0.2,0.0,0.9,0.0,0.0,0,-1.4771459,1.2296245,-1.0144453,0.031511355,0.53419787,1.5064687,-0.23364474,1.3407023,0.6535556,0.13539498,0.6110305,0.34415722,1.495306,-1.094021
0.2,0.0,0.9,0.0,0.0,0,-1.5470154,1.1320354,-0.9892898,0.067315295,0.5172023,1.5121431,-0.061058663,1.2649783,0.6738531,0.14563134,0.5740172,0.36535135,1.5069263,-1.2927113
0.2,0.0,0.9,0.0,0.0,0,-1.5175381,1.1817162,-0.98047566,-0.00026053644,0.53478533,1.502649,-0.1719212,1.3201586,0.7222255,0.20668447,0.44422475,0.27110377,1.5127125,-1.3233702
0.2,0.0,0.9,0.0,0.0,0,-1.4727211,1.2808374,-0.9630879,0.0075065866,0.51291215,1.5298741,-0.23603554,1.3501182,0.82267106,0.045068707,0.504579,0.35835886,1.5533439,-1.2197089
0.2,0.0,0.9,0.0,0.0,0,-1.5182759,1.198357,-0.9607564,0.010995206,0.51142275,1.4749669,0.14081919,1.3117927,0.67814267,0.15233009,0.7072048,0.43308163,1.5121622,-1.3975809
0.2,0.0,0.9,0.0,0.0,0,-1.4574624,1.249345,-0.978554,0.014389072,0.535963,1.4797347,-0.20736389,1.3737637,0.65570503,0.096669465,0.43035132,0.29933265,1.5431142,-1.4039407
0.2,0.0,0.9,0.0,0.0,0,-1.4854649,1.224675,-0.9745271,0.030289542,0.52626204,1.5081345,-0.13007012,1.4139335,0.5371715,0.07577387,0.5939704,0.35099497,1.5171267,-1.3406094
0.2,0.0,0.9,0.0,0.0,0,-1.5140917,1.1923392,-0.9556843,0.019135103,0.5205085,1.4782996,-0.039847847,1.3329446,0.7285975,0.13851161,0.6037762,0.3581939,1.5354127,-1.6191388
0.2,0.0,0.9,0.0,0.0,0,-1.5041009,1.2358277,-0.9803198,-0.0053981245,0.519694,1.5462711,-0.082191154,1.347122,0.73474675,0.13711224,0.4895745,0.31203562,1.5229381,-1.2920386
0.2,0.0,0.9,0.0,0.0,0,-1.4761146,1.234294,-1.0030308,0.02895662,0.5438166,1.4941046,-0.04372296,1.316993,0.697768,0.14044754,0.6525676,0.38871065,1.5558045,-1.335433
0.2,0.0,0.9,0.0,0.0,0,-1.5085406,1.1939973,-0.95327,0.022793949,0.5225891,1.4874068,-0.298115,1.3635765,0.6848633,0.15865102,0.7684833,0.41653267,1.5482807,-1.3702502
0.2,0.0,0.9,0.0,0.0,0,-1.5011358,1.2533242,-0.9545001,0.03519203,0.5400724,1.4937296,-0.46069214,1.2948108,0.69835365,0.043645605,0.50657624,0.38306332,1.5435342,-1.4677566
0.2,0.0,0.9,0.0,0.0,0,-1.4713353,1.2505301,-0.9698832,0.038082622,0.509035,1.5237219,-0.01386623,1.3332714,0.77868074,0.058716632,0.49195102,0.33368707,1.5272617,-1.4313518
0.2,0.0,0.9,0.0,0.0,0,-1.4729009,1.2331407,-0.94091135,0.038951185,0.5150754,1.4824321,-0.07764886,1.2736591,0.7287223,0.09504629,0.61357635,0.4052891,1.4739394,-1.2866886
0.2,0.0,0.9,0.0,0.0,0,-1.5069065,1.2263675,-1.0186839,0.034397088,0.5339579,1.479684,-0.03319291,1.3107581,0.651934,0.15302342,0.60620487,0.3442304,1.5287509,-1.2165554
0.2,0.0,0.9,0.0,0.0,0,-1.4893352,1.2481049,-0.98327476,0.051897977,0.5130452,1.4916093,-0.23409992,1.342104,0.6933732,0.058213457,0.5783057,0.34647787,1.5162135,-1.3596095
0.2,0.0,0.9,0.0,0.0,0,-1.473861,1.2553337,-1.0003549,0.02820101,0.52538574,1.5341334,-0.07592302,1.313019,0.8033306,0.022391109,0.4128972,0.3864643,1.5134231,-1.4521464
0.2,0.0,0.9,0.0,0.0,0,-1.5139846,1.2070372,-0.97866607,0.03061037,0.53900534,1.4938416,-0.014791321,1.3157703,0.7395152,-0.025935756,0.45643845,0.43623567,1.5097649,-1.3996488
0.2,0.0,0.9,0.0,0.0,0,-1.4983597,1.1948184,-1.0019857,0.025934495,0.527852,1.4572213,0.13530059,1.3516606,0.56803465,0.06998356,0.6002855,0.4155228,1.5091898,-1.2800663
0.2,0.0,0.9,0.0,0.0,0,-1.515245,1.2730858,-1.0206307,0.052605797,0.5284702,1.5160384,-0.066477306,1.25153,0.6645632,0.05464552,0.53364635,0.35435534,1.5338998,-1.1798136
0.2,0.0,0.9,0.0,0.0,0,-1.5179652,1.2513355,-0.9226812,0.06568459,0.5251575,1.4566985,-0.16869329,1.3209994,0.55567336,0.15640956,0.5427198,0.20624544,1.5014862,-1.5757173
0.2,0.0,0.9,0.0,0.0,0,-1.4755683,1.2941139,-0.98762906,0.025168145,0.52969295,1.4894611,-0.09224269,1.2632016,0.83641744,0.094406374,0.7075633,0.37073877,1.5202873,-1.2366543
0.2,0.0,0.9,0.0,0.0,0,-1.451426,1.2974141,-1.0256166,0.038883213,0.5172032,1.4949806,-0.2959934,1.2443879,0.7407624,0.023875684,0.41755316,0.44387016,1.5076665,-1.4095314
0.2,0.0,0.9,0.0,0.0,0,-1.5047593,1.258391,-1.0161909,0.044284783,0.53472936,1.4728113,-0.14723149,1.3549216,0.75182056,0.12595268,0.6332522,0.32893753,1.5441531,-1.477861
0.2,0.0,0.9,0.0,0.0,0,-1.5475634,1.2508337,-0.9721975,0.039179422,0.5304793,1.4912902,-0.518775,1.3177149,0.7008971,0.17070773,0.6689475,0.31333566,1.5009605,-1.322078
0.2,0.0,0.9,0.0,0.0,0,-1.4589585,1.2744199,-1.023715,0.063141756,0.518456,1.5145297,-0.26413986,1.3043387,0.61098963,0.110755876,0.721573,0.3823445,1.5103221,-1.3006907
0.2,0.0,0.9,0.0,0.0,0,-1.4743867,1.2602322,-0.9862287,0.028852802,0.52857864,1.4865849,-0.18972145,1.3410056,0.7427659,0.049948126,0.5158563,0.32868576,1.5106989,-1.3740709
0.2,0.0,0.9,0.0,0.0,0,-1.4702388,1.2393847,-0.9949671,0.043611668,0.52586657,1.5079533,-0.59736943,1.3473449,0.6984392,0.046390098,0.40128982,0.33685344,1.5223655,-1.2456454
0.2,0.0,0.9,0.0,0.0,0,-1.5572252,1.2018269,-0.9888869,0.0008513704,0.518698,1.4955447,-0.07401363,1.3785973,0.5990799,0.15345262,0.64459676,0.34413692,1.5469978,-1.2508423
0.2,0.0,0.9,0.0,0.0,0,-1.5134587,1.2336987,-1.0110785,0.029616576,0.5405571,1.4920013,-0.38225397,1.3490319,0.6882453,0.14284456,0.6443469,0.34490058,1.5012048,-1.376125
0.2,0.0,0.9,0.0,0.0,0,-1.5408387,1.1599965,-0.93038744,-0.0053411704,0.51887786,1.5087603,-0.032495614,1.3912915,0.6901105,0.02271657,0.5728716,0.3752012,1.5081911,-1.2847433
0.2,0.0,0.9,0.0,0.0,0,-1.4766994,1.235685,-1.0094078,0.06778675,0.51855874,1.4823462,-0.17712072,1.3362958,0.57447606,0.07969753,0.61420965,0.33864385,1.5088415,-1.3654166
0.2,0.0,0.9,0.0,0.0,0,-1.4609132,1.2453932,-0.9831438,0.03840766,0.51696545,1.528986,-0.13512403,1.3408096,0.73178166,0.0715592,0.5849052,0.24009848,1.540585,-1.2389387
0.2,0.0,0.9,0.0,0.0,0,-1.4975344,1.2514201,-0.9926721,0.030383727,0.5153858,1.4977691,0.18688978,1.3253069,0.82410324,0.09194984,0.583081,0.3484392,1.5389204,-1.3411278
0.2,0.0,0.9,0.0,0.0,0,-1.4797475,1.2103604,-1.0360819,0.027359026,0.530361,1.4886901,-0.1525032,1.3467852,0.6818229,-0.012279228,0.56592155,0.42935634,1.5495093,-1.3539816
0.2,0.0,0.9,0.0,0.0,0,-1.5162106,1.2562584,-0.981156,0.010214792,0.518992,1.5276318,-0.055938188,1.3609267,0.7530737,0.08588949,0.4821876,0.31875363,1.5687064,-1.3540163
0.2,0.0,0.9,0.0,0.0,0,-1.5204364,1.2254878,-1.003527,-0.004486228,0.52308995,1.4898549,-0.15291934,1.3885247,0.64349633,0.14829837,0.6212826,0.29410833,1.5459981,-1.4414655
0.2,0.0,0.9,0.0,0.0,0,-1.553518,1.1918435,-0.9540346,-0.00069397595,0.5270518,1.5244386,-0.484196,1.3415091,0.69329065,0.047412343,0.65179265,0.37567878,1.5320798,-1.4586508
0.2,0.0,0.9,0.0,0.0,0,-1.5097514,1.2354585,-0.935722,0.005725194,0.5391805,1.4849247,-0.08973621,1.33343,0.5970712,0.12699361,0.60647774,0.34327105,1.5256419,-1.3584392
0.2,0.0,0.9,0.0,0.0,0,-1.5167813,1.2329597,-1.0071793,0.017808253,0.5233877,1.5061135,-0.18342713,1.322201,0.68668145,0.041796345,0.69558245,0.424364,1.5110457,-1.1218209
0.2,0.0,0.9,0.0,0.0,0,-1.4541336,1.219809,-1.0443481,0.05491707,0.5114904,1.5133481,-0.14635915,1.2873778,0.7146007,0.033321504,0.59389424,0.41330042,1.5279982,-1.2424723
0.2,0.0,0.9,0.0,0.0,0,-1.4874971,1.2495158,-1.0264038,0.034489892,0.5348777,1.506146,0.04746666,1.2723961,0.71717954,0.08172722,0.5531538,0.34636837,1.5151863,-1.0774809
0.2,0.0,0.9,0.0,0.0,0,-1.5006614,1.2069116,-1.0125581,0.023165977,0.5234827,1.4654324,-0.43539387,1.3090996,0.75534284,0.17152,0.6170767,0.3445488,1.5544624,-1.4564373
0.2,0.0,0.9,0.0,0.0,0,-1.4945965,1.2913557,-1.0013531,-0.0281348,0.51655114,1.5023323,-0.12193816,1.303,0.5680653,0.12704283,0.74302083,0.42354786,1.4976398,-1.2509716
0.2,0.0,0.9,0.0,0.0,0,-1.5030643,1.2919531,-1.0429333,0.01738876,0.53850627,1.5236361,-0.095351994,1.2732671,0.7663771,0.13663478,0.541142,0.34279248,1.5458211,-1.2674849
0.2,0.0,0.9,0.0,0.0,0,-1.4981235,1.2039355,-0.94250965,0.014083423,0.52325773,1.4653474,-0.3099048,1.3157613,0.5777336,0.059577726,0.57428044,0.37552565,1.5203663,-1.3540092
0.2,0.0,0.9,0.0,0.0,0,-1.5231721,1.2771083,-1.0254047,-0.014303952,0.5281291,1.4971582,-0.21246594,1.305739,0.60772127,0.14140707,0.7016898,0.40655252,1.5427538,-1.237629
0.2,0.0,0.9,0.0,0.0,0,-1.4987605,1.2270219,-0.9838769,0.0014212753,0.5036227,1.4842242,0.0031496736,1.3287686,0.6941806,0.15719517,0.56180364,0.29845712,1.5087492,-1.3730425
0.2,0.0,0.9,0.0,0.0,0,-1.532462,1.1929698,-0.95820194,-0.027246948,0.531548,1.4933236,0.07716105,1.3647248,0.7696726,0.018067036,0.5254864,0.3863068,1.5153416,-1.3946939
0.2,0.0,0.9,0.0,0.0,0,-1.4962118,1.2505342,-1.0467224,-0.00807984,0.5213282,1.4752399,0.19960353,1.2970629,0.52965224,0.13967673,0.6960507,0.3729358,1.5491996,-1.5342444
0.2,0.0,0.9,0.0,0.0,0,-1.5260743,1.2087334,-0.96713877,-0.040499493,0.5245699,1.4905069,-0.08323734,1.3209411,0.7188404,0.076413006,0.5822298,0.38235018,1.5213684,-1.4150306
0.2,0.0,0.9,0.0,0.0,0,-1.5160863,1.2016057,-1.0334213,0.015732324,0.5107321,1.5227929,-0.22020872,1.3186837,0.5950633,-0.0069254944,0.5684961,0.3969679,1.5177519,-1.204354
0.2,0.0,0.9,0.0,0.0,0,-1.5738417,1.1370723,-0.9884423,0.038707048,0.5231225,1.4710275,-0.16704616,1.2319603,0.69546425,0.18796603,0.5152379,0.3359603,1.5211656,-1.3307357
0.2,0.0,0.9,0.0,0.0,0,-1.5287226,1.1937633,-0.9797314,0.03584075,0.5197695,1.4876947,-0.46416616,1.284699,0.66022724,0.11365965,0.414653,0.2930233,1.5478598,-1.4902529
0.2,0.0,0.9,0.0,0.0,0,-1.5280123,1.1785603,-0.9916578,-0.03417036,0.5317795,1.5202633,-0.23386057,1.3088092,0.78634447,0.12746216,0.5779289,0.3668775,1.5409381,-1.277599
0.2,0.0,0.9,0.0,0.0,0,-1.4683695,1.2956821,-1.0316133,0.02674879,0.5174553,1.4602767,-0.14570202,1.3308533,0.7820411,0.11163619,0.63698345,0.30206716,1.5605752,-1.3232625
0.2,0.0,0.9,0.0,0.0,0,-1.5415094,1.1922365,-0.9925185,0.018685699,0.5414375,1.5069199,-0.0530363,1.315181,0.62788385,0.04925706,0.69730246,0.39177373,1.4990482,-1.312023
0.2,0.0,0.9,0.0,0.0,0,-1.5164114,1.2327722,-0.97818476,0.003804622,0.53232265,1.4894768,-0.11926952,1.3623626,0.5711986,-0.024388457,0.495113,0.3510765,1.5546795,-1.4931648
0.2,0.0,0.9,0.0,0.0,0,-1.4928275,1.2399445,-0.97991985,0.02467211,0.52307504,1.4720106,-0.29239294,1.3070023,0.61804897,0.087570265,0.48733148,0.2945939,1.5504105,-1.2622567
0.2,0.0,0.9,0.0,0.0,0,-1.541719,1.1912466,-0.9808457,-0.010858545,0.5194814,1.4639541,-0.03935967,1.2911681,0.67344064,0.045699067,0.60145956,0.38686356,1.5233212,-1.3051245
0.2,0.0,0.9,0.0,0.0,0,-1.5340132,1.1870929,-0.9809051,0.0065144426,0.52633375,1.4847606,-0.15462106,1.3334218,0.84217566,0.076063216,0.60721743,0.32925367,1.5642726,-1.1115521
0.2,0.0,0.9,0.0,0.0,0,-1.5633131,1.2515684,-0.97346634,-0.023927081,0.5070811,1.5077525,-0.034366243,1.2869166,0.5717667,0.032066178,0.62840784,0.35250285,1.5157485,-1.5814129
0.2,0.0,0.9,0.0,0.0,0,-1.559728,1.1797724,-0.97204596,0.04852132,0.5296125,1.4608356,-0.09622744,1.2664219,0.5341791,0.094678365,0.5503215,0.3048861,1.4979682,-1.33605
0.2,0.0,0.9,0.0,0.0,0,-1.4839791,1.1622547,-0.9871934,0.03425617,0.5229212,1.5090722,0.18335661,1.3729485,0.7938569,0.17395481,0.52504146,0.27655756,1.4889916,-1.3632584
0.2,0.0,0.9,0.0,0.0,0,-1.5041507,1.2166654,-0.9461028,0.0142746195,0.53779835,1.5123491,0.3894639,1.354019,0.81375766,0.07426117,0.59222317,0.3377855,1.5368845,-1.3175218
0.2,0.0,0.9,0.0,0.0,0,-1.4720601,1.1719315,-1.0050277,0.06049423,0.50311947,1.4900713,0.06349614,1.2986437,0.90248686,0.18607633,0.60203445,0.35295257,1.5211136,-1.3341625
0.2,0.0,0.9,0.0,0.0,0,-1.4995922,1.1757784,-0.9790682,0.05290021,0.51813793,1.5024159,-0.07393928,1.2925296,0.77001405,0.19143666,0.6311108,0.36623934,1.507357,-1.3805568
0.2,0.0,0.9,0.0,0.0,0,-1.5187405,1.1593378,-1.0294149,0.10313473,0.532249,1.4804428,-0.08841118,1.3439819,0.79401547,0.10598931,0.75028414,0.45227,1.534658,-1.3056678
0.2,0.0,0.9,0.0,0.0,0,-1.459152,1.2741691,-0.98210365,0.008232845,0.5114053,1.5095214,0.1523255,1.3263725,0.7700599,0.09216024,0.65391153,0.35532212,1.4880133,-1.4279237
0.2,0.0,0.9,0.0,0.0,0,-1.5370072,1.2198608,-0.9458409,-0.007093547,0.52589333,1.5092528,0.0787778,1.3098505,0.63504916,0.16728464,0.7449926,0.44158074,1.5107841,-1.2149037
0.2,0.0,0.9,0.0,0.0,0,-1.4365143,1.237305,-1.0264871,0.010691511,0.5226314,1.4839079,-0.34840938,1.2643926,0.8311198,0.18094096,0.6871284,0.3846665,1.5097128,-1.4866687
0.2,0.0,0.9,0.0,0.0,0,-1.5225189,1.1773297,-0.99926865,0.04863129,0.51411223,1.5424879,-0.13810024,1.3231528,0.8408569,0.0719719,0.71252006,0.41431084,1.53141,-1.1422888
0.2,0.0,0.9,0.0,0.0,0,-1.4780711,1.2534612,-0.9882643,-0.034013703,0.52524585,1.512949,-0.3699307,1.3868848,0.7354638,0.030604227,0.75035286,0.44408762,1.5099827,-1.6098646
0.2,0.0,0.9,0.0,0.0,0,-1.4712789,1.2290225,-1.0212703,0.029155863,0.5147984,1.5235205,-0.06473119,1.3364464,0.8239099,0.17719895,0.6829626,0.33072165,1.534347,-1.1716429
0.2,0.0,0.9,0.0,0.0,0,-1.516778,1.2302293,-0.99255335,-0.020819863,0.5032348,1.5143447,-0.33562624,1.3105,0.76334375,0.24794674,0.59296536,0.26851353,1.5577501,-1.4132048
0.2,0.0,0.9,0.0,0.0,0,-1.5412968,1.174997,-1.0164118,0.03224401,0.52606213,1.5216624,-0.130616,1.348802,0.79595506,0.105171196,0.7156882,0.44356263,1.5663846,-1.5081048
0.2,0.0,0.9,0.0,0.0,0,-1.497026,1.2543797,-1.003384,0.014267655,0.5148441,1.5319937,-0.008335568,1.2998266,0.8331994,0.1348984,0.66790956,0.35937274,1.5060829,-1.425735
0.2,0.0,0.9,0.0,0.0,0,-1.5258642,1.202372,-0.9845048,0.06201666,0.5387881,1.5212903,-0.12609802,1.3822353,0.7509636,0.059650876,0.703,0.36934835,1.5415673,-1.1708814
0.2,0.0,0.9,0.0,0.0,0,-1.4855443,1.2182347,-0.983763,0.01017693,0.5280151,1.4608585,0.037394736,1.3485442,0.72693545,0.19009396,0.6852969,0.34074637,1.5548017,-1.4460269
0.2,0.0,0.9,0.0,0.0,0,-1.5128443,1.2490242,-1.0621513,0.016050963,0.52376515,1.4953429,-0.16900794,1.3379126,0.6869797,0.16492066,0.6887139,0.34612477,1.5057623,-1.4031793
0.2,0.0,0.9,0.0,0.0,0,-1.5191473,1.1825838,-1.0051972,0.006471942,0.52243006,1.4905648,-0.043909308,1.3078166,0.8136185,0.1114026,0.654981,0.37069842,1.5606742,-1.6245831
0.2,0.0,0.9,0.0,0.0,0,-1.4837064,1.2846228,-0.9670977,0.033091743,0.51899076,1.4646354,-0.45079556,1.3166647,0.83313483,0.12683745,0.63473034,0.29112202,1.5292794,-1.3096703
0.2,0.0,0.9,0.0,0.0,0,-1.4837064,1.2846228,-0.9670977,0.033091743,0.51899076,1.4646354,-0.45079556,1.3166647,0.83313483,0.12683745,0.63473034,0.29112202,1.5292794,-1.3096703
0.2,0.0,0.9,0.0,0.0,0,-1.4837064,1.2846228,-0.9670977,0.033091743,0.51899076,1.4646354,-0.45079556,1.3166647,0.83313483,0.12683745,0.63473034,0.29112202,1.5292794,-1.3096703
0.2,0.0,0.9,0.0,0.0,0,-1.4837064,1.2846228,-0.9670977,0.033091743,0.51899076,1.4646354,-0.45079556,1.3166647,0.83313483,0.12683745,0.63473034,0.29112202,1.5292794,-1.3096703
0.2,0.0,0.9,0.0,0.0,0,-1.4837064,1.2846228,-0.9670977,0.033091743,0.51899076,1.4646354,-0.45079556,1.3166647,0.83313483,0.12683745,0.63473034,0.29112202,1.5292794,-1.3096703
0.2,0.0,0.9,0.0,0.0,0,-1.4837064,1.2846228,-0.9670977,0.033091743,0.51899076,1.4646354,-0.45079556,1.3166647,0.83313483,0.12683745,0.63473034,0.29112202,1.5292794,-1.3096703
0.2,0.0,0.9,0.0,0.0,0,-1.4837064,1.2846228,-0.9670977,0.033091743,0.51899076,1.4646354,-0.45079556,1.3166647,0.83313483,0.12683745,0.63473034,0.29112202,1.5292794,-1.3096703
0.2,0.0,0.9,0.0,0.0,0,-1.4837064,1.2846228,-0.9670977,0.033091743,0.51899076,1.4646354,-0.45079556,1.3166647,0.83313483,0.12683745,0.63473034,0.29112202,1.5292794,-1.3096703
0.2,0.0,0.9,0.0,0.0,0,-1.4837064,1.2846228,-0.9670977,0.033091743,0.51899076,1.4646354,-0.45079556,1.3166647,0.83313483,0.12683745,0.63473034,0.29112202,1.5292794,-1.3096703
0.2,0.0,0.9,0.0,0.0,0,-1.4837064,1.2846228,-0.9670977,0.033091743,0.51899076,1.4646354,-0.45079556,1.3166647,0.83313483,0.12683745,0.63473034,0.29112202,1.5292794,-1.3096703
0.2,0.0,0.9,0.0,0.0,0,-1.5039198,1.2778207,-1.0564573,0.04096271,0.5291651,1.5006859,-0.0854924,1.3910532,0.8965943,-0.05949257,0.69649947,0.41114283,1.5463313,-1.3498949
0.2,0.0,0.9,0.0,0.0,0,-1.5039198,1.2778207,-1.0564573,0.04096271,0.5291651,1.5006859,-0.0854924,1.3910532,0.8965943,-0.05949257,0.69649947,0.41114283,1.5463313,-1.3498949
0.2,0.0,0.9,0.0,0.0,0,-1.5039198,1.2778207,-1.0564573,0.04096271,0.5291651,1.5006859,-0.0854924,1.3910532,0.8965943,-0.05949257,0.69649947,0.41114283,1.5463313,-1.3498949
0.2,0.0,0.9,0.0,0.0,0,-1.5039198,1.2778207,-1.0564573,0.04096271,0.5291651,1.5006859,-0.0854924,1.3910532,0.8965943,-0.05949257,0.69649947,0.41114283,1.5463313,-1.3498949
0.2,0.0,0.9,0.0,0.0,0,-1.5039198,1.2778207,-1.0564573,0.04096271,0.5291651,1.5006859,-0.0854924,1.3910532,0.8965943,-0.05949257,0.69649947,0.41114283,1.5463313,-1.3498949
0.2,0.0,0.9,0.0,0.0,0,-1.5039198,1.2778207,-1.0564573,0.04096271,0.5291651,1.5006859,-0.0854924,1.3910532,0.8965943,-0.05949257,0.69649947,0.41114283,1.5463313,-1.3498949
0.2,0.0,0.9,0.0,0.0,0,-1.5039198,1.2778207,-1.0564573,0.04096271,0.5291651,1.5006859,-0.0854924,1.3910532,0.8965943,-0.05949257,0.69649947,0.41114283,1.5463313,-1.3498949
0.2,0.0,0.9,0.0,0.0,0,-1.5039198,1.2778207,-1.0564573,0.04096271,0.5291651,1.5006859,-0.0854924,1.3910532,0.8965943,-0.05949257,0.69649947,0.41114283,1.5463313,-1.3498949
0.2,0.0,0.9,0.0,0.0,0,-1.5039198,1.2778207,-1.0564573,0.04096271,0.5291651,1.5006859,-0.0854924,1.3910532,0.8965943,-0.05949257,0.69649947,0.41114283,1.5463313,-1.3498949
0.2,0.0,0.9,0.0,0.0,0,-1.5377481,1.2051593,-0.9839563,0.0058883443,0.5292963,1.5047479,-0.29844,1.3496367,0.9587313,-0.036944106,0.79308176,0.50574464,1.506021,-1.4752315
0.2,0.0,0.9,0.0,0.0,0,-1.5377481,1.2051593,-0.9839563,0.0058883443,0.5292963,1.5047479,-0.29844,1.3496367,0.9587313,-0.036944106,0.79308176,0.50574464,1.506021,-1.4752315
0.2,0.0,0.9,0.0,0.0,0,-1.5377481,1.2051593,-0.9839563,0.0058883443,0.5292963,1.5047479,-0.29844,1.3496367,0.9587313,-0.036944106,0.79308176,0.50574464,1.506021,-1.4752315
0.2,0.0,0.9,0.0,0.0,0,-1.5377481,1.2051593,-0.9839563,0.0058883443,0.5292963,1.5047479,-0.29844,1.3496367,0.9587313,-0.036944106,0.79308176,0.50574464,1.506021,-1.4752315
0.2,0.0,0.9,0.0,0.0,0,-1.5377481,1.2051593,-0.9839563,0.0058883443,0.5292963,1.5047479,-0.29844,1.3496367,0.9587313,-0.036944106,0.79308176,0.50574464,1.506021,-1.4752315
0.2,0.0,0.9,0.0,0.0,0,-1.5377481,1.2051593,-0.9839563,0.0058883443,0.5292963,1.5047479,-0.29844,1.3496367,0.9587313,-0.036944106,0.79308176,0.50574464,1.506021,-1.4752315
0.2,0.0,0.9,0.0,0.0,0,-1.5377481,1.2051593,-0.9839563,0.0058883443,0.5292963,1.5047479,-0.29844,1.3496367,0.9587313,-0.036944106,0.79308176,0.50574464,1.506021,-1.4752315
0.2,0.0,0.9,0.0,0.0,0,-1.5377481,1.2051593,-0.9839563,0.0058883443,0.5292963,1.5047479,-0.29844,1.3496367,0.9587313,-0.036944106,0.79308176,0.50574464,1.506021,-1.4752315
0.2,0.0,0.9,0.0,0.0,0,-1.5377481,1.2051593,-0.9839563,0.0058883443,0.5292963,1.5047479,-0.29844,1.3496367,0.9587313,-0.036944106,0.79308176,0.50574464,1.506021,-1.4752315
0.2,0.0,0.9,0.0,0.0,0,-1.5377481,1.2051593,-0.9839563,0.0058883443,0.5292963,1.5047479,-0.29844,1.3496367,0.9587313,-0.036944106,0.79308176,0.50574464,1.506021,-1.4752315
0.2,0.0,0.9,0.0,0.0,0,-1.5105317,1.1994852,-1.1050574,0.094039716,0.51861453,1.4663595,0.010380464,1.3935379,0.8176773,0.07458954,0.5739716,0.28601772,1.4303352,-1.1583767
0.2,0.0,0.9,0.0,0.0,0,-1.5105317,1.1994852,-1.1050574,0.094039716,0.51861453,1.4663595,0.010380464,1.3935379,0.8176773,0.07458954,0.5739716,0.28601772,1.4303352,-1.1583767
0.2,0.0,0.9,0.0,0.0,0,-1.5105317,1.1994852,-1.1050574,0.094039716,0.51861453,1.4663595,0.010380464,1.3935379,0.8176773,0.07458954,0.5739716,0.28601772,1.4303352,-1.1583767
