sanky1234/BimanualDexCatch/isaacgymenvs/cem_results/May31/football_pose_0.4_0.1_1.2_0.0_0.0_0_2025-06-03.csv
x,y,z,roll,pitch,yaw,robot1/joint1,robot1/joint2,robot1/joint3,robot1/joint4,robot1/joint5,robot1/joint6,robot1/joint7,robot2/joint1,robot2/joint2,robot2/joint3,robot2/joint4,robot2/joint5,robot2/joint6,robot2/joint7
0.4,0.1,1.2,0.0,0.0,0,-1.236984,0.5566168,-0.83588827,-0.39059204,-0.09540913,0.34526667,-1.2486411,1.1099502,1.2062804,1.2098767,-0.13308842,0.6655041,1.1280617,-0.63659036
0.4,0.1,1.2,0.0,0.0,0,-1.2489682,0.54886574,-0.8219956,-0.4090758,-0.11740755,0.43315417,-1.2749952,1.1292999,1.2514764,1.252321,-0.17556724,0.49667385,1.1475649,-0.7434264
0.4,0.1,1.2,0.0,0.0,0,-1.250457,0.55473244,-0.8334574,-0.4020075,-0.069895156,0.35854137,-1.2850374,1.0747505,1.1826087,1.1561656,-0.15143308,0.63671654,1.1181204,-0.5544004
0.4,0.1,1.2,0.0,0.0,0,-1.2563386,0.5449595,-0.82900333,-0.41338697,-0.07200656,0.37334317,-1.2632682,1.0473356,1.1652596,1.2261586,-0.09707699,0.56223524,1.1784769,-0.3941081
0.4,0.1,1.2,0.0,0.0,0,-1.2785022,0.5328716,-0.8266212,-0.3973899,-0.055565063,0.37063363,-1.2908591,1.0251075,1.1651158,1.2512954,-0.11793707,0.5616022,1.0950102,-0.62131953
0.4,0.1,1.2,0.0,0.0,0,-1.2418773,0.5539184,-0.8403068,-0.40697017,-0.03828389,0.3551075,-1.2803404,1.2408537,1.2103894,1.2074674,-0.16893095,0.59884685,1.1374826,-0.63264334
0.4,0.1,1.2,0.0,0.0,0,-1.260455,0.55098397,-0.8321581,-0.39512768,-0.041982085,0.33298725,-1.2698048,1.0924633,1.1824015,1.2391905,-0.19717206,0.65081626,1.1184899,-0.584759
0.4,0.1,1.2,0.0,0.0,0,-1.266053,0.54904276,-0.83131886,-0.40198466,-0.054484393,0.41112417,-1.2840781,1.1803179,1.1487739,1.2441843,-0.18786262,0.5691066,1.1270193,-0.68153775
0.4,0.1,1.2,0.0,0.0,0,-1.2491962,0.54950386,-0.8374186,-0.3869795,-0.06946661,0.32214773,-1.2694199,1.1530159,1.191828,1.1791791,-0.23691666,0.62260026,1.157624,-0.45041466
0.4,0.1,1.2,0.0,0.0,0,-1.2582388,0.5517099,-0.8356048,-0.40768573,-0.077344045,0.38888025,-1.2673439,1.2055566,1.2449547,1.2211533,-0.16328295,0.74354714,1.144626,-0.48736507
0.4,0.1,1.2,0.0,0.0,0,-1.2626611,0.55121565,-0.825566,-0.39071715,-0.038557597,0.33497027,-1.2733705,1.078806,1.1858459,1.2711686,-0.14267012,0.50750154,1.1349018,-0.8769638
0.4,0.1,1.2,0.0,0.0,0,-1.2583297,0.53861153,-0.83645624,-0.38068786,-0.042713635,0.41095254,-1.2880884,1.1316302,1.2290105,1.2845045,-0.16630614,0.62824935,1.160959,-0.6091776
0.4,0.1,1.2,0.0,0.0,0,-1.2461629,0.5487902,-0.8386374,-0.39430588,-0.084046625,0.32412818,-1.2703762,1.1095132,1.1975927,1.234073,-0.1338038,0.5997167,1.1961684,-0.5361327
0.4,0.1,1.2,0.0,0.0,0,-1.2541623,0.5468354,-0.826697,-0.38740537,-0.055288646,0.3740577,-1.2680919,1.167085,1.1193434,1.2313708,-0.18414891,0.66070616,1.1140891,-0.55839735
0.4,0.1,1.2,0.0,0.0,0,-1.2573589,0.5491056,-0.8317279,-0.396842,-0.050056055,0.29638934,-1.2618544,1.1453263,1.1932868,1.2052858,-0.1754333,0.6567336,1.1253124,-0.4946348
0.4,0.1,1.2,0.0,0.0,0,-1.2681527,0.5446519,-0.8358782,-0.3942177,-0.049164787,0.3929796,-1.2528638,1.0992738,1.1896521,1.250823,-0.1688925,0.49354053,1.1138514,-0.4323637
0.4,0.1,1.2,0.0,0.0,0,-1.2581774,0.53867763,-0.83638346,-0.40657905,-0.06372198,0.38251448,-1.2826656,1.0741024,1.1737256,1.2274138,-0.21499762,0.58576065,1.0920055,-0.44704244
0.4,0.1,1.2,0.0,0.0,0,-1.2451854,0.5530358,-0.8368466,-0.3942943,-0.00804981,0.29723695,-1.2640026,1.0662125,1.2766157,1.2636653,-0.16415288,0.71115357,1.1249816,-0.83630514
0.4,0.1,1.2,0.0,0.0,0,-1.2609565,0.5419249,-0.83987457,-0.39521644,-0.0614919,0.36156398,-1.2861692,1.0360909,1.1669642,1.2185464,-0.17618017,0.6472466,1.1648769,-0.75480497
0.4,0.1,1.2,0.0,0.0,0,-1.2797292,0.55337375,-0.8311281,-0.4116334,-0.08648453,0.3405614,-1.2745986,1.004008,1.190504,1.246633,-0.12745239,0.7204266,1.107827,-0.5808974
0.4,0.1,1.2,0.0,0.0,0,-1.2619967,0.5620481,-0.8334533,-0.3943201,-0.035468392,0.2797735,-1.2783695,1.1044458,1.1884924,1.2559284,-0.18388684,0.4964333,1.1209772,-0.7912037
0.4,0.1,1.2,0.0,0.0,0,-1.2544923,0.54259104,-0.8318844,-0.3963305,-0.044040624,0.32976738,-1.247992,1.0661538,1.229571,1.2118413,-0.20383117,0.6340256,1.1529073,-0.8475897
0.4,0.1,1.2,0.0,0.0,0,-1.2549527,0.54443115,-0.83352095,-0.40037262,-0.04170382,0.40225434,-1.2550253,1.1544157,1.1918843,1.2701544,-0.19302024,0.7210683,1.1133105,-0.5125782
0.4,0.1,1.2,0.0,0.0,0,-1.2347144,0.53615713,-0.84387934,-0.3972321,-0.096549995,0.4073767,-1.2888892,1.138339,1.2457004,1.3258173,-0.10583271,0.4999155,1.1660565,-0.60683846
0.4,0.1,1.2,0.0,0.0,0,-1.26778,0.54831433,-0.83228815,-0.40029362,-0.06766281,0.305594,-1.2706836,1.2107842,1.1760594,1.210601,-0.15225087,0.6356816,1.108249,-0.83571064
0.4,0.1,1.2,0.0,0.0,0,-1.2542876,0.5465003,-0.8332008,-0.39824057,-0.0581517,0.34504333,-1.2402358,1.0968378,1.2005197,1.1538291,-0.16031584,0.6270055,1.1369764,-0.8710252
0.4,0.1,1.2,0.0,0.0,0,-1.2647063,0.5451708,-0.83413696,-0.3948323,-0.029084615,0.34382546,-1.2774317,1.1318051,1.2099751,1.190673,-0.19058168,0.64704174,1.1794599,-0.6720135
0.4,0.1,1.2,0.0,0.0,0,-1.2452945,0.5377062,-0.846741,-0.38790235,-0.044957314,0.38132042,-1.2562032,1.1316795,1.1506749,1.2140654,-0.14262547,0.6962737,1.1164294,-0.7292916
0.4,0.1,1.2,0.0,0.0,0,-1.272957,0.5506864,-0.83302,-0.37777692,-0.08126652,0.31682283,-1.2733723,1.0756798,1.1851693,1.2146184,-0.15093836,0.55304956,1.1823608,-0.8512645
0.4,0.1,1.2,0.0,0.0,0,-1.2588254,0.54144055,-0.83620447,-0.38766527,-0.07156464,0.3302567,-1.2749047,1.1300393,1.1965581,1.1689945,-0.20208254,0.57939047,1.1427803,-0.6916465
0.4,0.1,1.2,0.0,0.0,0,-1.260911,0.53436106,-0.8426152,-0.39551637,-0.06781752,0.35189644,-1.2538081,1.0950747,1.1357915,1.2603707,-0.17749822,0.58006155,1.1482401,-0.5645726
0.4,0.1,1.2,0.0,0.0,0,-1.255974,0.54378474,-0.8323933,-0.39181557,-0.051070254,0.32670072,-1.2792431,1.060304,1.1856912,1.2971027,-0.14915375,0.5277319,1.1658306,-0.73332757
0.4,0.1,1.2,0.0,0.0,0,-1.2654234,0.5483479,-0.8383978,-0.4130157,-0.08252234,0.424719,-1.2587409,1.0930967,1.1652308,1.2715324,-0.137785,0.664484,1.1202837,-0.71870714
0.4,0.1,1.2,0.0,0.0,0,-1.2727357,0.54615164,-0.83202094,-0.40302026,0.00091858575,0.3303187,-1.3022392,1.0497191,1.1394873,1.1989268,-0.14956942,0.528044,1.133892,-0.9544248
0.4,0.1,1.2,0.0,0.0,0,-1.2324231,0.53831655,-0.8320698,-0.40028813,-0.10036212,0.30530956,-1.2556379,1.1162195,1.1912885,1.2132436,-0.12945813,0.47781724,1.1450204,-0.55819917
0.4,0.1,1.2,0.0,0.0,0,-1.2415344,0.5484836,-0.8433738,-0.40742385,-0.043445252,0.3450485,-1.2642951,1.0928775,1.1912452,1.1834952,-0.17909029,0.8214174,1.1659676,-0.6345805
0.4,0.1,1.2,0.0,0.0,0,-1.2525989,0.54174155,-0.82766277,-0.39908892,-0.047099497,0.42374018,-1.2624552,1.112438,1.1162304,1.2037648,-0.16413234,0.466478,1.1626806,-0.6974312
0.4,0.1,1.2,0.0,0.0,0,-1.2373267,0.5561002,-0.84590256,-0.39802366,-0.062797055,0.27713478,-1.2748581,1.1554958,1.1633451,1.1907885,-0.14063904,0.3450848,1.1409571,-0.5573536
0.4,0.1,1.2,0.0,0.0,0,-1.2379277,0.5582902,-0.82594913,-0.38671708,-0.07410128,0.32060403,-1.2436048,1.1515042,1.274015,1.278565,-0.11249785,0.4575874,1.1660746,-0.66116434
0.4,0.1,1.2,0.0,0.0,0,-1.245156,0.5445133,-0.84202945,-0.40941268,-0.07974867,0.38448578,-1.2698761,1.1257852,1.216774,1.1163836,-0.103844345,0.6012913,1.1406456,-0.3589838
0.4,0.1,1.2,0.0,0.0,0,-1.2567399,0.5556244,-0.82813793,-0.40322867,-0.071398824,0.24881722,-1.263699,1.0937401,1.1687663,1.2499962,-0.18599318,0.33910275,1.0901623,-0.46523145
0.4,0.1,1.2,0.0,0.0,0,-1.2451932,0.55861354,-0.83383983,-0.40594843,-0.067296065,0.29370913,-1.2528385,1.073915,1.1986196,1.2529088,-0.18753994,0.3143404,1.1242427,-0.6680362
0.4,0.1,1.2,0.0,0.0,0,-1.2517148,0.5379974,-0.83037853,-0.4071059,-0.09305073,0.31300142,-1.2484328,1.1775687,1.2221627,1.227509,-0.15863493,0.33732417,1.1582633,-0.39404753
0.4,0.1,1.2,0.0,0.0,0,-1.2554936,0.54480857,-0.83002806,-0.3937396,-0.04134138,0.306863,-1.2471801,1.0194914,1.1510451,1.1788613,-0.12775697,0.40851948,1.1514739,-0.6020681
0.4,0.1,1.2,0.0,0.0,0,-1.2482165,0.53567827,-0.8379218,-0.39506742,-0.0759491,0.35700876,-1.2295233,1.1608496,1.1985606,1.1281359,-0.1788956,0.45782235,1.1680509,-0.6063907
0.4,0.1,1.2,0.0,0.0,0,-1.2572788,0.5418321,-0.82189286,-0.399893,-0.04688873,0.4171491,-1.2825495,1.0809075,1.1173688,1.2084123,-0.12442167,0.5872644,1.1750547,-0.399203
0.4,0.1,1.2,0.0,0.0,0,-1.25564,0.5492156,-0.8539068,-0.39337766,-0.030393163,0.3281507,-1.259355,1.0712972,1.2204299,1.2552145,-0.13219307,0.48452473,1.1372242,-0.39365637
0.4,0.1,1.2,0.0,0.0,0,-1.2665931,0.5512231,-0.8449448,-0.40217292,-0.040364794,0.35141063,-1.2767286,1.0881929,1.1490206,1.2188935,-0.16747263,0.6102648,1.1554685,-0.54159
0.4,0.1,1.2,0.0,0.0,0,-1.2557992,0.5480658,-0.83599436,-0.40126926,-0.067850426,0.3274239,-1.2840191,1.0784526,1.1609459,1.1981019,-0.12807487,0.5749384,1.1457415,-0.39298704
0.4,0.1,1.2,0.0,0.0,0,-1.2462434,0.5382736,-0.83850306,-0.39352676,-0.04006738,0.35135934,-1.256703,1.1915005,1.20518,1.2068357,-0.2134183,0.40858266,1.1661599,-0.55976945
0.4,0.1,1.2,0.0,0.0,0,-1.2573773,0.5432106,-0.8444079,-0.3970585,-0.061362922,0.32330385,-1.26376,1.1735256,1.1842211,1.1588212,-0.17437682,0.51561207,1.1730236,-0.47073796
0.4,0.1,1.2,0.0,0.0,0,-1.2453741,0.5424768,-0.83861697,-0.39561552,-0.035797637,0.32374555,-1.2508187,1.3372736,1.1833391,1.1410421,-0.16795164,0.5271017,1.137685,-0.33398497
0.4,0.1,1.2,0.0,0.0,0,-1.2538193,0.55511594,-0.8297849,-0.4034183,-0.056431286,0.30641043,-1.2803222,1.3089967,1.2036494,1.2049261,-0.1521607,0.47454554,1.0996938,-0.58867216
0.4,0.1,1.2,0.0,0.0,0,-1.253356,0.53715557,-0.83341146,-0.40000263,-0.042547137,0.30785674,-1.2591418,1.0213199,1.2286749,1.1470313,-0.13701075,0.6676002,1.1201733,-0.38006467
0.4,0.1,1.2,0.0,0.0,0,-1.246669,0.54921645,-0.8339406,-0.39068618,-0.071259,0.30820048,-1.2658707,1.08315,1.2096163,1.2124375,-0.1615479,0.41291097,1.154333,-0.45460495
0.4,0.1,1.2,0.0,0.0,0,-1.2488043,0.55222946,-0.84239566,-0.40385014,-0.040350407,0.28681093,-1.2760688,1.1064664,1.2514786,1.2544107,-0.14464319,0.45699185,1.1146948,-0.82008934
0.4,0.1,1.2,0.0,0.0,0,-1.2402782,0.54753864,-0.8357848,-0.38537782,-0.07768697,0.3640902,-1.2870315,1.1018137,1.1768724,1.1543646,-0.19663149,0.5192343,1.1505513,-0.36490172
0.4,0.1,1.2,0.0,0.0,0,-1.2452887,0.5466322,-0.8332531,-0.40807205,-0.021174636,0.38737252,-1.2631496,1.0771257,1.216405,1.2406782,-0.19299525,0.623182,1.122522,-0.5238434
0.4,0.1,1.2,0.0,0.0,0,-1.2570403,0.5472141,-0.8304099,-0.38731453,-0.03694925,0.38635772,-1.2483181,1.039947,1.149535,1.119797,-0.17869201,0.53941804,1.1167578,-0.52624816
0.4,0.1,1.2,0.0,0.0,0,-1.2512815,0.55069876,-0.8316462,-0.39985013,-0.06772793,0.32192197,-1.2882447,1.0805537,1.1870944,1.2947782,-0.13256513,0.51381713,1.1382265,-0.7357001
0.4,0.1,1.2,0.0,0.0,0,-1.2541261,0.54652923,-0.8453225,-0.40385425,-0.05863781,0.36942244,-1.2628132,1.1502451,1.2187463,1.2316164,-0.124145865,0.4608895,1.0981007,-0.59049284
0.4,0.1,1.2,0.0,0.0,0,-1.2602967,0.54312474,-0.83769035,-0.40209222,-0.054789077,0.3646361,-1.2702107,1.120826,1.148163,1.2298496,-0.16782929,0.6033271,1.1633658,-0.6217064
0.4,0.1,1.2,0.0,0.0,0,-1.2482107,0.55261356,-0.8361421,-0.38145226,-0.054638695,0.32126096,-1.242431,1.1242284,1.2894726,1.3149602,-0.15391673,0.45704046,1.1354686,-0.57307297
0.4,0.1,1.2,0.0,0.0,0,-1.2549721,0.5470212,-0.8326686,-0.40633124,-0.05522898,0.41859534,-1.2544307,1.1069751,1.145932,1.1866347,-0.10829249,0.59835935,1.1789477,-0.58977884
0.4,0.1,1.2,0.0,0.0,0,-1.2484521,0.5503861,-0.82611185,-0.40809402,-0.046167955,0.3307249,-1.2614931,1.2932388,1.1918088,1.2296908,-0.15540043,0.44678122,1.1340096,-0.6981784
0.4,0.1,1.2,0.0,0.0,0,-1.2514979,0.5546175,-0.8431533,-0.40938982,-0.073082246,0.3242727,-1.2816708,1.0827087,1.2161252,1.2681423,-0.16778648,0.48655483,1.1369132,-0.4322903
0.4,0.1,1.2,0.0,0.0,0,-1.2538904,0.5496391,-0.8304079,-0.40547937,-0.05642308,0.2755013,-1.2675219,1.0440992,1.1971501,1.1878606,-0.133039,0.6164589,1.1042582,-0.40918523
0.4,0.1,1.2,0.0,0.0,0,-1.2359533,0.55075914,-0.8449417,-0.38987464,-0.04557148,0.3328908,-1.2603276,1.0892532,1.1676313,1.2087587,-0.17453368,0.35415068,1.1512605,-0.6905464
0.4,0.1,1.2,0.0,0.0,0,-1.2493597,0.5526441,-0.84139997,-0.39077908,-0.034115706,0.38715994,-1.2463571,1.1043801,1.1521621,1.2270527,-0.14755754,0.38243303,1.1920314,-0.51378
0.4,0.1,1.2,0.0,0.0,0,-1.2468545,0.53781515,-0.8291567,-0.38521647,-0.041603748,0.27741265,-1.2687542,1.211034,1.2188858,1.2306119,-0.18158095,0.42398608,1.1410556,-0.5902097
0.4,0.1,1.2,0.0,0.0,0,-1.2507657,0.55009496,-0.851999,-0.40380093,-0.054604415,0.3543872,-1.2611436,1.0310246,1.2150874,1.2343893,-0.19726636,0.37771672,1.1676099,-0.6190905
0.4,0.1,1.2,0.0,0.0,0,-1.2375968,0.5484678,-0.83720005,-0.4049826,-0.05607854,0.34648126,-1.2700195,1.1362802,1.2115209,1.2478071,-0.13366602,0.33167112,1.1080999,-0.7590751
0.4,0.1,1.2,0.0,0.0,0,-1.2379518,0.5504984,-0.8500482,-0.4089004,-0.05068333,0.37003207,-1.2534317,1.0561327,1.1758661,1.194104,-0.11335557,0.4068996,1.1521404,-0.44437268
0.4,0.1,1.2,0.0,0.0,0,-1.2396501,0.5421015,-0.8467519,-0.39196554,-0.016713502,0.28530008,-1.2794536,1.1029441,1.2065098,1.2003124,-0.15907393,0.54905635,1.1457161,-0.6085564
0.4,0.1,1.2,0.0,0.0,0,-1.2564406,0.565573,-0.84071755,-0.39694217,-0.032949533,0.3251489,-1.2500561,1.1535388,1.1916095,1.2626551,-0.25372526,0.479495,1.1415119,-0.31826857
0.4,0.1,1.2,0.0,0.0,0,-1.2401905,0.542584,-0.8403639,-0.40799055,-0.06794889,0.35282174,-1.2820847,1.1132995,1.1623966,1.1896782,-0.13551942,0.5124492,1.1134713,-0.6581684
0.4,0.1,1.2,0.0,0.0,0,-1.2481713,0.5509307,-0.83669716,-0.40293375,-0.05314399,0.32032892,-1.2610494,1.1074133,1.2512668,1.1907994,-0.1613055,0.54336965,1.1033492,-0.56474257
0.4,0.1,1.2,0.0,0.0,0,-1.2473693,0.54004645,-0.8366859,-0.403738,-0.05155081,0.36959943,-1.285175,1.1088191,1.197002,1.1763456,-0.20718235,0.34250796,1.15417,-0.64720154
0.4,0.1,1.2,0.0,0.0,0,-1.2399582,0.5378721,-0.83377105,-0.40005234,-0.07569003,0.3507441,-1.2734677,1.1208142,1.2040459,1.2197461,-0.14226829,0.4382002,1.1765083,-0.57543087
0.4,0.1,1.2,0.0,0.0,0,-1.2534083,0.5411532,-0.82558656,-0.39539665,-0.04591409,0.35209268,-1.2860104,1.133426,1.2032452,1.1994648,-0.14351912,0.4605285,1.1289701,-0.61828095
0.4,0.1,1.2,0.0,0.0,0,-1.2644839,0.544006,-0.8371255,-0.3913838,-0.060984787,0.3443376,-1.2566856,1.131261,1.1757989,1.1743374,-0.18322846,0.4761287,1.1982071,-0.68212956
0.4,0.1,1.2,0.0,0.0,0,-1.2663401,0.53876245,-0.84228146,-0.39927137,-0.036294118,0.3191678,-1.2491677,1.0432312,1.2136883,1.3096694,-0.19749814,0.49252608,1.1146264,-0.21915631
0.4,0.1,1.2,0.0,0.0,0,-1.2433574,0.54779094,-0.833909,-0.40026143,-0.022090664,0.3671386,-1.2528489,1.0885015,1.2317835,1.2489655,-0.18175349,0.6492188,1.1675737,-0.713072
0.4,0.1,1.2,0.0,0.0,0,-1.2502458,0.553905,-0.8315935,-0.39631242,-0.025518995,0.3177077,-1.261964,1.0617845,1.2342149,1.177902,-0.18385309,0.47068158,1.1162426,-0.7229033
0.4,0.1,1.2,0.0,0.0,0,-1.2379888,0.54520696,-0.83217937,-0.38846886,-0.06574767,0.3474547,-1.2843326,1.1046828,1.1599166,1.2166321,-0.1730961,0.7525813,1.1341479,-0.73641527
0.4,0.1,1.2,0.0,0.0,0,-1.2594484,0.53970164,-0.83375686,-0.39112493,-0.07203029,0.37150145,-1.2861978,1.198293,1.2585003,1.2165486,-0.14625295,0.5032679,1.1421392,-0.5263304
0.4,0.1,1.2,0.0,0.0,0,-1.2465996,0.556002,-0.83466536,-0.3933877,-0.08167032,0.31544828,-1.2405188,1.1270303,1.2171464,1.2101464,-0.11347436,0.50039643,1.1121874,-0.7075488
0.4,0.1,1.2,0.0,0.0,0,-1.2480158,0.54051745,-0.83189195,-0.40805525,-0.10080377,0.37289223,-1.2609285,1.1520844,1.2112082,1.1398528,-0.12821712,0.64720994,1.1274279,-0.72293067
0.4,0.1,1.2,0.0,0.0,0,-1.2567497,0.54856455,-0.8395741,-0.3907429,-0.088209346,0.33352476,-1.2641352,1.1402282,1.1491225,1.2696021,-0.19092916,0.52718115,1.1776326,-0.48758245
0.4,0.1,1.2,0.0,0.0,0,-1.2549975,0.5620439,-0.8411635,-0.41779935,-0.07164491,0.3423484,-1.280661,1.2073954,1.1910518,1.2163239,-0.17917094,0.4366782,1.1282649,-0.71651775
0.4,0.1,1.2,0.0,0.0,0,-1.265308,0.56372845,-0.83733577,-0.39757064,-0.08032769,0.33927152,-1.2517917,1.2070708,1.1634219,1.2041821,-0.20363197,0.27635312,1.1644604,-0.5545254
0.4,0.1,1.2,0.0,0.0,0,-1.2493013,0.5491601,-0.83787805,-0.3947371,-0.05568115,0.340707,-1.2714089,1.1599771,1.2550341,1.2191325,-0.1418806,0.5030027,1.1280375,-0.8466628
0.4,0.1,1.2,0.0,0.0,0,-1.2371204,0.5540988,-0.83234537,-0.39155757,-0.082773305,0.39984778,-1.2557755,1.1498193,1.2159213,1.237225,-0.14704871,0.48082528,1.0930133,-0.67411125
0.4,0.1,1.2,0.0,0.0,0,-1.2398596,0.53997654,-0.83426255,-0.3910359,-0.09931201,0.3006484,-1.2634635,1.1896309,1.1772472,1.2064291,-0.16864061,0.5523404,1.1642174,-0.3644875
0.4,0.1,1.2,0.0,0.0,0,-1.2616173,0.55068994,-0.83867794,-0.40490684,-0.06603977,0.34412643,-1.2676616,1.1805296,1.2195492,1.2463843,-0.16673577,0.43806222,1.1192814,-0.41308874
0.4,0.1,1.2,0.0,0.0,0,-1.2786051,0.5487613,-0.8319784,-0.39643142,-0.051262517,0.37893534,-1.2257487,1.1613758,1.1786648,1.1841066,-0.16396932,0.6039983,1.1396378,-0.51663184
0.4,0.1,1.2,0.0,0.0,0,-1.2687632,0.5506102,-0.83520293,-0.40656748,-0.046647783,0.40562865,-1.2522769,1.0532463,1.1919725,1.2129939,-0.08376959,0.77212805,1.1532204,-0.5868105
0.4,0.1,1.2,0.0,0.0,0,-1.2549243,0.55863106,-0.83436954,-0.39527583,-0.02861871,0.3206924,-1.2628418,1.0841434,1.1668817,1.2285669,-0.18993965,0.4526972,1.1320436,-0.5677867
0.4,0.1,1.2,0.0,0.0,0,-1.2465127,0.5436726,-0.830055,-0.3943773,-0.03734692,0.30974653,-1.2565477,1.3438817,1.2345394,1.2049179,-0.22259706,0.5263928,1.1107498,-0.79176056
0.4,0.1,1.2,0.0,0.0,0,-1.2538648,0.5620178,-0.8308128,-0.40144086,-0.045748502,0.33669382,-1.2675188,1.1640359,1.1842023,1.2695608,-0.22522591,0.5448761,1.1509788,-0.60842854
0.4,0.1,1.2,0.0,0.0,0,-1.2629602,0.5423956,-0.84434,-0.4075701,-0.052544735,0.38046968,-1.2478653,1.143015,1.2009548,1.1935383,-0.17074619,0.51534367,1.1043463,-0.41236073
0.4,0.1,1.2,0.0,0.0,0,-1.260739,0.5430532,-0.8351301,-0.3973715,-0.07641473,0.31252998,-1.2919118,1.3352255,1.229443,1.2316159,-0.15069155,0.5760963,1.1096425,-0.46572617
0.4,0.1,1.2,0.0,0.0,0,-1.2527528,0.5509605,-0.8356626,-0.3985711,-0.067823164,0.31107044,-1.304213,1.1526351,1.1874607,1.2342225,-0.19807854,0.5448625,1.1065078,-0.5915385
0.4,0.1,1.2,0.0,0.0,0,-1.2491117,0.54146135,-0.84747547,-0.40518743,-0.062083635,0.4316022,-1.2960889,1.1499456,1.1492453,1.2285533,-0.18245207,0.49977815,1.1662033,-0.565252
0.4,0.1,1.2,0.0,0.0,0,-1.2613792,0.5467977,-0.82456833,-0.40839943,-0.08436227,0.41579372,-1.2849814,1.1306041,1.2055192,1.2025967,-0.17589596,0.7090949,1.1111537,-0.4203307
0.4,0.1,1.2,0.0,0.0,0,-1.2702832,0.5563303,-0.83235073,-0.3898897,-0.07148771,0.4018781,-1.239295,1.1256546,1.2538577,1.2552384,-0.14988749,0.7146469,1.1449318,-0.49429142
0.4,0.1,1.2,0.0,0.0,0,-1.2447605,0.5431613,-0.83838534,-0.39600593,-0.07473704,0.4190636,-1.2645272,1.1833369,1.1638861,1.2369782,-0.1552157,0.72803277,1.1549418,-0.47596374
0.4,0.1,1.2,0.0,0.0,0,-1.2623217,0.54398304,-0.83684826,-0.3868312,-0.05550037,0.2973073,-1.2795659,1.0540494,1.165535,1.2054572,-0.1313686,0.6596664,1.136307,-0.47627062
0.4,0.1,1.2,0.0,0.0,0,-1.2527654,0.5366908,-0.83640766,-0.4038495,-0.054414544,0.36273688,-1.2666957,0.9848184,1.1664569,1.270023,-0.10129612,0.2626552,1.1368929,-0.7348446
0.4,0.1,1.2,0.0,0.0,0,-1.2616416,0.55381495,-0.8335057,-0.40130484,-0.047605913,0.3139876,-1.2666576,1.3840978,1.2318089,1.2147024,-0.123033434,0.42946687,1.1450886,-0.46432477
0.4,0.1,1.2,0.0,0.0,0,-1.2578214,0.5415796,-0.837312,-0.3985174,-0.08073737,0.34157708,-1.2586043,1.1291467,1.1726105,1.33684,-0.14342877,0.47410998,1.1427792,-0.6185838
0.4,0.1,1.2,0.0,0.0,0,-1.2408022,0.5403677,-0.8318,-0.40171465,-0.06607563,0.3970923,-1.2581091,1.0276546,1.1534048,1.2354482,-0.14809969,0.48075205,1.1767231,-0.5724899
0.4,0.1,1.2,0.0,0.0,0,-1.2526473,0.55255365,-0.8514542,-0.40107897,-0.058891516,0.29463562,-1.2629403,1.0337068,1.1659297,1.2511095,-0.17441821,0.40363318,1.1993909,-0.5366822
0.4,0.1,1.2,0.0,0.0,0,-1.2544198,0.547374,-0.8361055,-0.40787885,-0.046382356,0.37082168,-1.2662796,1.0436214,1.2328799,1.2049406,-0.15801376,0.5961449,1.1638225,-0.48753238
0.4,0.1,1.2,0.0,0.0,0,-1.2463495,0.55072683,-0.8354242,-0.39744008,-0.052862313,0.33816457,-1.2680088,1.0646503,1.2144752,1.2474232,-0.12152268,0.63512534,1.1122398,-0.61612296
0.4,0.1,1.2,0.0,0.0,0,-1.2523514,0.5393998,-0.8429037,-0.41510615,-0.062698424,0.33554184,-1.3031622,1.2339898,1.1179441,1.2598203,-0.23179473,0.47440937,1.1493361,-0.6936094
0.4,0.1,1.2,0.0,0.0,0,-1.2408448,0.5433224,-0.850887,-0.39699268,-0.052006207,0.42755204,-1.248099,1.0843556,1.2465696,1.1596584,-0.09606173,0.6351347,1.1292311,-0.5485882
0.4,0.1,1.2,0.0,0.0,0,-1.2650901,0.5442249,-0.84658873,-0.38910395,-0.033248924,0.33843172,-1.2670308,1.1300455,1.1881466,1.1845711,-0.19640784,0.4736863,1.1599061,-0.32882637
0.4,0.1,1.2,0.0,0.0,0,-1.2545086,0.5362729,-0.8357152,-0.3917544,-0.02212328,0.3488586,-1.2801816,1.1281279,1.2606593,1.2568277,-0.16670653,0.5353899,1.1389844,-0.6581644
0.4,0.1,1.2,0.0,0.0,0,-1.253802,0.53053665,-0.8258745,-0.4065138,-0.08745325,0.36920106,-1.2403327,1.2166897,1.2330016,1.1448311,-0.1135943,0.628008,1.1560053,-0.8028858
0.4,0.1,1.2,0.0,0.0,0,-1.2473238,0.562525,-0.82364553,-0.40371728,-0.080614306,0.38000473,-1.2760828,1.1366156,1.2455543,1.1250389,-0.16069227,0.5771524,1.147828,-0.35280377
0.4,0.1,1.2,0.0,0.0,0,-1.250126,0.5537386,-0.8258507,-0.39062873,-0.07683229,0.42718282,-1.2747349,1.1171808,1.1762614,1.2214553,-0.12601073,0.60027426,1.1154267,-0.4541891
0.4,0.1,1.2,0.0,0.0,0,-1.2552332,0.54960513,-0.8375644,-0.40185133,-0.04350718,0.35117283,-1.2495118,1.1963077,1.218391,1.2109076,-0.20059271,0.37905917,1.1284637,-0.55586594
0.4,0.1,1.2,0.0,0.0,0,-1.2409286,0.5452786,-0.8261852,-0.40013787,-0.052340295,0.39768058,-1.2757455,1.1430964,1.2357101,1.1792693,-0.17740692,0.65789723,1.1548829,-0.6404178
0.4,0.1,1.2,0.0,0.0,0,-1.2469723,0.5515744,-0.8250871,-0.40732497,-0.044057615,0.38668722,-1.2682168,1.1338806,1.2450964,1.2498461,-0.17833015,0.52970785,1.1200087,-0.45797694
0.4,0.1,1.2,0.0,0.0,0,-1.2530273,0.5537025,-0.8343046,-0.4004558,-0.07681962,0.37730405,-1.2509565,1.1408415,1.2346946,1.1759778,-0.16042426,0.73024243,1.1593633,-0.66042495
0.4,0.1,1.2,0.0,0.0,0,-1.2494732,0.5420071,-0.82163006,-0.39885733,-0.04793201,0.3742816,-1.2673138,1.2321733,1.172604,1.1071694,-0.16478272,0.5925015,1.1429234,-0.6587812
0.4,0.1,1.2,0.0,0.0,0,-1.2550952,0.54297376,-0.84025204,-0.39494643,-0.066665664,0.34325606,-1.27771,1.2640316,1.16384,1.1981852,-0.18690081,0.3013372,1.1187941,-0.69333535
0.4,0.1,1.2,0.0,0.0,0,-1.2495636,0.54550564,-0.8404342,-0.39100218,-0.09172995,0.37596604,-1.282007,1.1493229,1.172975,1.248751,-0.14693284,0.6273393,1.1153342,-0.5123923
0.4,0.1,1.2,0.0,0.0,0,-1.2547883,0.5583012,-0.8374907,-0.40354013,-0.05133573,0.41884142,-1.2479966,1.1919745,1.1512927,1.2270368,-0.16346297,0.6246557,1.1507401,-0.83857584
0.4,0.1,1.2,0.0,0.0,0,-1.247746,0.5395585,-0.83704156,-0.39345396,-0.044747077,0.31074584,-1.2762026,1.0431656,1.2501935,1.283041,-0.11779452,0.3579463,1.1588112,-0.37097842
0.4,0.1,1.2,0.0,0.0,0,-1.2649792,0.54057014,-0.83198714,-0.39587796,-0.043279085,0.32680395,-1.2576308,1.1700319,1.1665771,1.198265,-0.1199453,0.68153924,1.1773506,-0.7835713
0.4,0.1,1.2,0.0,0.0,0,-1.2220192,0.5538393,-0.83814234,-0.395742,-0.06508802,0.32946342,-1.2747426,1.0717039,1.1874565,1.2157047,-0.1807015,0.61699826,1.1217852,-0.36828536
0.4,0.1,1.2,0.0,0.0,0,-1.2289951,0.5380913,-0.83675367,-0.39116076,-0.07556611,0.42973652,-1.2691218,1.0696305,1.1600924,1.141144,-0.10846504,0.2984081,1.1432806,-0.6587856
0.4,0.1,1.2,0.0,0.0,0,-1.2423246,0.5429206,-0.84480035,-0.40312377,-0.021545056,0.34268755,-1.2741718,1.1030602,1.1401316,1.2057049,-0.14799546,0.35761687,1.1505414,-0.5399713
0.4,0.1,1.2,0.0,0.0,0,-1.2533997,0.5452277,-0.84249675,-0.3973629,-0.047177643,0.3230856,-1.2722472,1.1774143,1.2052716,1.2843077,-0.15322012,0.33639702,1.1958363,-0.6488202
0.4,0.1,1.2,0.0,0.0,0,-1.2398381,0.5519684,-0.8308952,-0.39875564,-0.08687274,0.36186147,-1.2467341,1.0986791,1.1270634,1.2743019,-0.15485771,0.52836424,1.1714875,-0.7111912
0.4,0.1,1.2,0.0,0.0,0,-1.2577367,0.5571955,-0.8320078,-0.386478,-0.08376977,0.34726036,-1.2564058,1.0788677,1.221274,1.1512779,-0.14532104,0.25631034,1.1520301,-0.6153407
0.4,0.1,1.2,0.0,0.0,0,-1.255237,0.55375516,-0.8451175,-0.3942854,-0.06529934,0.31060323,-1.2388813,1.2848991,1.2559447,1.2538122,-0.15313815,0.51658183,1.1859027,-0.5460973
0.4,0.1,1.2,0.0,0.0,0,-1.2495955,0.5388457,-0.830427,-0.40285826,-0.05299603,0.33845308,-1.2692033,1.2015206,1.1729007,1.2222235,-0.15264538,0.5242604,1.1361159,-0.89493626
0.4,0.1,1.2,0.0,0.0,0,-1.2580884,0.5512895,-0.8283239,-0.40743515,0.023586834,0.32713872,-1.2581033,1.0855138,1.1689954,1.2590188,-0.18694155,0.39182514,1.1822222,-0.5687153
0.4,0.1,1.2,0.0,0.0,0,-1.2624596,0.5546133,-0.8265719,-0.39824522,-0.048332106,0.34332377,-1.2493298,1.2043321,1.1955031,1.2220951,-0.15420921,0.7550422,1.1473958,-0.66558486
0.4,0.1,1.2,0.0,0.0,0,-1.2292756,0.55020493,-0.8352595,-0.3867697,-0.023673652,0.3313914,-1.2766285,1.2173635,1.1784408,1.2140986,-0.09801088,0.5168967,1.155446,-0.61924577
0.4,0.1,1.2,0.0,0.0,0,-1.2583965,0.53733385,-0.83768064,-0.40608495,-0.06573769,0.32806608,-1.2531565,1.0840642,1.197091,1.2429434,-0.09467064,0.6548189,1.1080861,-0.64768815
0.4,0.1,1.2,0.0,0.0,0,-1.2578816,0.5550581,-0.83463603,-0.40568617,-0.043276954,0.3441828,-1.2603967,1.223218,1.2088288,1.2477556,-0.13066594,0.521344,1.1719362,-0.77315986
0.4,0.1,1.2,0.0,0.0,0,-1.2506799,0.5460502,-0.82706,-0.39356276,-0.080562115,0.27763313,-1.2474532,1.048761,1.1606201,1.1418396,-0.1629923,0.43423536,1.1630868,-0.55195266
0.4,0.1,1.2,0.0,0.0,0,-1.2428037,0.55507404,-0.8427789,-0.39574367,-0.056826305,0.36049315,-1.2609888,1.0540783,1.1548841,1.3351861,-0.11195917,0.47696993,1.1379457,-0.63717663
0.4,0.1,1.2,0.0,0.0,0,-1.2299054,0.5462921,-0.8330373,-0.39844885,-0.06380536,0.41448176,-1.2669683,1.0597055,1.1210021,1.2332703,-0.16137983,0.46790236,1.1753287,-0.52083796
0.4,0.1,1.2,0.0,0.0,0,-1.2439954,0.55074733,-0.8298575,-0.40542495,-0.037885983,0.3216364,-1.2526594,1.0757463,1.1686139,1.2101197,-0.14290151,0.5063395,1.1651335,-0.7210224
0.4,0.1,1.2,0.0,0.0,0,-1.2524624,0.5369393,-0.8227975,-0.39475143,-0.06739007,0.39510053,-1.245747,1.3156023,1.1494133,1.1974608,-0.19142057,0.6611459,1.1593074,-0.5252197
0.4,0.1,1.2,0.0,0.0,0,-1.2383577,0.5414363,-0.83358157,-0.38866198,-0.0782212,0.34849623,-1.2504135,1.0843134,1.1298639,1.2464272,-0.0825385,0.4122651,1.1263508,-0.6924952
0.4,0.1,1.2,0.0,0.0,0,-1.2682275,0.5561609,-0.8318659,-0.39618802,-0.04972384,0.33864653,-1.286233,1.1143095,1.1971534,1.1611096,-0.1426451,0.46003193,1.1801076,-0.3604967
0.4,0.1,1.2,0.0,0.0,0,-1.2388587,0.53649765,-0.82831454,-0.4061149,-0.026009778,0.42989028,-1.2687691,1.1126323,1.1785922,1.2216207,-0.16223247,0.6768503,1.1639854,-0.6844925
0.4,0.1,1.2,0.0,0.0,0,-1.250457,0.54370123,-0.8314641,-0.4029871,-0.03653859,0.3758616,-1.2584798,1.2477473,1.150246,1.1696192,-0.10370602,0.81918967,1.126517,-0.67425597
0.4,0.1,1.2,0.0,0.0,0,-1.2559401,0.54201543,-0.8498252,-0.39317292,-0.058952644,0.39267188,-1.2837565,1.1773884,1.1677122,1.1432749,-0.112270735,0.3337151,1.1599845,-0.5683213
0.4,0.1,1.2,0.0,0.0,0,-1.254756,0.5550804,-0.8344393,-0.40677527,-0.055544183,0.34343815,-1.2827723,1.1344056,1.2032533,1.254407,-0.17590062,0.25438872,1.1472803,-0.5097284
0.4,0.1,1.2,0.0,0.0,0,-1.2523146,0.5383661,-0.8385402,-0.39865234,-0.043585546,0.33748126,-1.2495645,1.1087717,1.2197143,1.2566886,-0.12968321,0.4230715,1.1655334,-0.651415
0.4,0.1,1.2,0.0,0.0,0,-1.2464374,0.5380201,-0.83811706,-0.39371505,-0.057590608,0.33478734,-1.2763101,1.1610162,1.1816552,1.2136055,-0.1747981,0.708257,1.1756347,-0.39524314
0.4,0.1,1.2,0.0,0.0,0,-1.2446369,0.5581409,-0.8217557,-0.3973538,-0.093046464,0.29982582,-1.2708429,1.0643522,1.128716,1.2352574,-0.1726266,0.5059679,1.1359111,-0.42538446
0.4,0.1,1.2,0.0,0.0,0,-1.2430966,0.55421996,-0.830667,-0.3952725,-0.08560076,0.42045254,-1.2552019,1.1376019,1.1097996,1.2020807,-0.12733339,0.5433912,1.1434363,-0.48840427
0.4,0.1,1.2,0.0,0.0,0,-1.2543752,0.54650825,-0.84413636,-0.40030205,-0.04329486,0.40079308,-1.2677114,1.0819087,1.1825776,1.2578244,-0.13333102,0.7113626,1.1520953,-0.62982774
0.4,0.1,1.2,0.0,0.0,0,-1.2532489,0.535751,-0.83848053,-0.39227402,-0.085343234,0.41934043,-1.2815963,1.3115376,1.1936862,1.2033217,-0.12555023,0.8836627,1.1312155,-0.5175262
0.4,0.1,1.2,0.0,0.0,0,-1.2512463,0.5476296,-0.84248906,-0.3934657,-0.07432349,0.43947512,-1.2552927,1.1270461,1.2008747,1.2704859,-0.12536825,0.7156952,1.1369644,-0.53561836
0.4,0.1,1.2,0.0,0.0,0,-1.2382808,0.5502093,-0.84110665,-0.39765254,-0.04820254,0.37586787,-1.2599105,1.0939778,1.2570975,1.2031645,-0.10059092,0.4850393,1.1581069,-0.7772824
0.4,0.1,1.2,0.0,0.0,0,-1.2559114,0.5470595,-0.84086937,-0.40682292,-0.059252728,0.34089905,-1.2688129,1.1345271,1.1450151,1.2797034,-0.15720811,0.4445995,1.1687481,-0.65003294
0.4,0.1,1.2,0.0,0.0,0,-1.2704835,0.5358701,-0.8356525,-0.40485367,-0.030627193,0.38184944,-1.2808886,1.1114529,1.1536547,1.1979533,-0.15296492,0.43159837,1.1478293,-0.5694785
0.4,0.1,1.2,0.0,0.0,0,-1.2600816,0.5366135,-0.8421261,-0.3931663,-0.04629052,0.31613585,-1.2546859,1.0642822,1.2064137,1.2112701,-0.14821729,0.4508017,1.1591797,-0.4415905
0.4,0.1,1.2,0.0,0.0,0,-1.2550774,0.5320073,-0.8367645,-0.39509162,-0.05199288,0.33991507,-1.290513,1.1902866,1.1598786,1.2420835,-0.19939902,0.25979015,1.1408675,-0.43376008
0.4,0.1,1.2,0.0,0.0,0,-1.2566822,0.52771986,-0.83912903,-0.39123893,-0.043962773,0.39585757,-1.2573144,1.073527,1.1767243,1.1790456,-0.079556175,0.52874017,1.1580932,-0.6590724
0.4,0.1,1.2,0.0,0.0,0,-1.2471803,0.5500791,-0.84777683,-0.3825924,-0.11048486,0.3054374,-1.2630026,1.1665517,1.203291,1.1918787,-0.08632282,0.6432307,1.1657912,-0.82412654
0.4,0.1,1.2,0.0,0.0,0,-1.2581197,0.5554064,-0.8283719,-0.37625855,-0.017048076,0.38965705,-1.2831296,1.1357813,1.2646015,1.2616028,-0.101268776,0.7586477,1.1449996,-0.6105696
0.4,0.1,1.2,0.0,0.0,0,-1.268252,0.54203093,-0.8295992,-0.394433,-0.0673296,0.4757034,-1.2708352,1.2716057,1.1754428,1.1949037,-0.17500634,0.6273422,1.1657063,-0.5328534
0.4,0.1,1.2,0.0,0.0,0,-1.2464398,0.5492644,-0.84313715,-0.39974073,-0.0748094,0.36241886,-1.2785107,1.2477678,1.244871,1.1617831,-0.16280095,0.37462407,1.1286056,-0.56096506
0.4,0.1,1.2,0.0,0.0,0,-1.2678622,0.5492396,-0.8303857,-0.41009584,-0.0730436,0.3695082,-1.2521499,1.2994301,1.185412,1.263702,-0.16178787,0.5355531,1.1116031,-0.6193592
0.4,0.1,1.2,0.0,0.0,0,-1.2640337,0.54347014,-0.8383151,-0.38915688,-0.057828378,0.34245422,-1.2622746,1.0626864,1.1733515,1.2403635,-0.14156751,0.45292354,1.1251434,-0.44971403
0.4,0.1,1.2,0.0,0.0,0,-1.2569649,0.54998237,-0.8370842,-0.40868253,-0.0714723,0.38728493,-1.2704537,1.1740606,1.2232149,1.2778338,-0.12217666,0.72746533,1.1440374,-0.5141827
0.4,0.1,1.2,0.0,0.0,0,-1.2741497,0.5401376,-0.84500754,-0.41153336,-0.043938402,0.37407488,-1.2762542,1.115114,1.1616615,1.2571843,-0.16404375,0.6677732,1.1250672,-0.45903513
0.4,0.1,1.2,0.0,0.0,0,-1.2462503,0.5535657,-0.834152,-0.39798704,-0.076116934,0.3663454,-1.2579242,1.1550449,1.2316549,1.2275093,-0.12615986,0.45627707,1.1176913,-0.714636
0.4,0.1,1.2,0.0,0.0,0,-1.2469262,0.55113757,-0.82311493,-0.3905567,-0.078498766,0.43055263,-1.2823973,1.2702047,1.1459789,1.238272,-0.1525495,0.7616132,1.1650523,-0.6066816
0.4,0.1,1.2,0.0,0.0,0,-1.2466978,0.5455637,-0.8391583,-0.39989275,-0.037206165,0.34698167,-1.2516618,1.1870462,1.223119,1.2430065,-0.1725659,0.54150397,1.1475306,-0.6670667
0.4,0.1,1.2,0.0,0.0,0,-1.2550806,0.5563258,-0.8261499,-0.39702305,-0.08076566,0.34549275,-1.2367522,1.1636509,1.1470679,1.1945457,-0.14816585,0.45630202,1.1111443,-0.5836191
0.4,0.1,1.2,0.0,0.0,0,-1.2598459,0.55030483,-0.8440912,-0.4028794,-0.06291923,0.3493977,-1.265461,1.1511139,1.1180145,1.2038972,-0.13351715,0.55908525,1.1362392,-0.61278164
0.4,0.1,1.2,0.0,0.0,0,-1.250087,0.5505007,-0.83907396,-0.40299863,-0.06723546,0.36053804,-1.2549558,1.160155,1.1735492,1.1433283,-0.15860756,0.65091425,1.1592039,-0.44038716
0.4,0.1,1.2,0.0,0.0,0,-1.254914,0.53979963,-0.830668,-0.38954565,-0.06468881,0.3238898,-1.2597321,1.1894808,1.1755625,1.2233957,-0.15658012,0.47583774,1.1279827,-0.66733927
0.4,0.1,1.2,0.0,0.0,0,-1.263744,0.5542661,-0.8282835,-0.39630628,-0.045361526,0.37914374,-1.2814813,1.1045663,1.162389,1.241463,-0.12831631,0.67281485,1.092949,-0.6854299
0.4,0.1,1.2,0.0,0.0,0,-1.2502314,0.5538725,-0.8315272,-0.4063887,-0.04968958,0.33803308,-1.2483542,1.2503024,1.1885911,1.19121,-0.19634876,0.5097095,1.1308177,-0.7119415
0.4,0.1,1.2,0.0,0.0,0,-1.2436473,0.54347414,-0.83697766,-0.39679462,-0.05584322,0.3952676,-1.2698634,1.1615423,1.2021105,1.257743,-0.13965225,0.71916443,1.1158897,-0.5102719
0.4,0.1,1.2,0.0,0.0,0,-1.2532489,0.5531384,-0.8334075,-0.39573473,-0.05015897,0.42268163,-1.26589,1.1504346,1.193246,1.1726438,-0.116676636,0.74481183,1.1121955,-0.64715976
0.4,0.1,1.2,0.0,0.0,0,-1.2546839,0.54347986,-0.84371465,-0.40070522,-0.073332734,0.3789177,-1.2882859,1.2353921,1.1753323,1.192897,-0.18108627,0.45710695,1.1201382,-0.7146596
0.4,0.1,1.2,0.0,0.0,0,-1.2604802,0.5456934,-0.83217967,-0.40152445,-0.026616387,0.41817135,-1.2814902,1.265862,1.2088076,1.256203,-0.20276965,0.69581664,1.1530863,-0.6268923
0.4,0.1,1.2,0.0,0.0,0,-1.2554351,0.545867,-0.8290358,-0.3860481,-0.024930324,0.3812207,-1.2695855,1.1770068,1.1695046,1.2695667,-0.1790246,0.58040124,1.1042713,-0.5503524
0.4,0.1,1.2,0.0,0.0,0,-1.2411929,0.54582864,-0.8359138,-0.40195665,-0.06596321,0.38190666,-1.2602032,1.0408372,1.1234137,1.2153299,-0.09775335,0.36292577,1.1637665,-0.4837285
0.4,0.1,1.2,0.0,0.0,0,-1.2401384,0.5586581,-0.83599883,-0.40111625,-0.077996135,0.29608,-1.2605529,1.1423086,1.2210923,1.2328376,-0.095003426,0.6095987,1.1563106,-0.67044353
0.4,0.1,1.2,0.0,0.0,0,-1.2466923,0.5403941,-0.8498696,-0.39440864,-0.04687998,0.33585653,-1.2640018,1.1865522,1.1888188,1.1834522,-0.082126774,0.27646536,1.1714221,-0.4235294
0.4,0.1,1.2,0.0,0.0,0,-1.2478962,0.5377694,-0.8311491,-0.39739767,-0.048506998,0.35039437,-1.2538861,1.1235864,1.1929859,1.2361318,-0.10677951,0.5772959,1.1313083,-0.5759618
0.4,0.1,1.2,0.0,0.0,0,-1.2376727,0.5525772,-0.8486837,-0.41058594,-0.02691366,0.37195995,-1.2636926,1.1055758,1.1506273,1.1934528,-0.11969688,0.46684107,1.181027,-0.5412537
0.4,0.1,1.2,0.0,0.0,0,-1.2340672,0.54208887,-0.83995485,-0.39623252,-0.03285821,0.39777797,-1.2693624,1.153486,1.2413378,1.265055,-0.13516591,0.68043625,1.1303152,-0.56606245
0.4,0.1,1.2,0.0,0.0,0,-1.2695137,0.5475159,-0.81647533,-0.40946656,-0.045898035,0.3243101,-1.2541412,1.1404177,1.2094067,1.2103024,-0.16100997,0.47726244,1.1916648,-0.35447374
0.4,0.1,1.2,0.0,0.0,0,-1.2480793,0.54608953,-0.82208383,-0.38755006,-0.06268486,0.34624282,-1.2504257,1.0893385,1.2336451,1.171674,-0.098870255,0.546207,1.1416905,-0.24694045
0.4,0.1,1.2,0.0,0.0,0,-1.2430005,0.553545,-0.83763784,-0.39799446,-0.057440307,0.34650952,-1.2443869,1.1512244,1.2188586,1.1992589,-0.09919752,0.5745826,1.1582581,-0.6714421
0.4,0.1,1.2,0.0,0.0,0,-1.2406319,0.5491332,-0.8381684,-0.41040087,-0.05666032,0.34729484,-1.2636219,1.1352825,1.1701144,1.1247405,-0.0764314,0.45550594,1.0718455,-0.4991269
0.4,0.1,1.2,0.0,0.0,0,-1.2423623,0.5340436,-0.8450893,-0.39929575,-0.058298174,0.36281618,-1.2704335,1.1982414,1.1930554,1.1917858,-0.1152891,0.30801004,1.1664073,-0.53413016
0.4,0.1,1.2,0.0,0.0,0,-1.257513,0.5488601,-0.82587934,-0.38784853,-0.078020915,0.34046245,-1.275954,1.1781315,1.1725742,1.222457,-0.09756271,0.3698578,1.1594287,-0.6054717
0.4,0.1,1.2,0.0,0.0,0,-1.2433865,0.5501139,-0.83110416,-0.40335917,-0.05757554,0.3692502,-1.247162,1.2136687,1.1966946,1.2056549,-0.10107527,0.5710539,1.1246536,-0.46048215
0.4,0.1,1.2,0.0,0.0,0,-1.2544373,0.5477705,-0.8342291,-0.3994596,-0.041516643,0.40533102,-1.2640394,1.1976285,1.2048945,1.203545,-0.124009974,0.5096548,1.1661439,-0.5131668
0.4,0.1,1.2,0.0,0.0,0,-1.2493665,0.557659,-0.8229435,-0.40434852,-0.048798822,0.34501377,-1.2671883,1.1866636,1.2314501,1.2412095,-0.21364224,0.601203,1.1699762,-0.47192043
0.4,0.1,1.2,0.0,0.0,0,-1.2497582,0.5480848,-0.83977604,-0.40582514,-0.07233966,0.37411985,-1.2713805,1.1284385,1.2098312,1.2662781,-0.13458273,0.32955196,1.1628265,-0.5587113
0.4,0.1,1.2,0.0,0.0,0,-1.2551359,0.54662526,-0.8410114,-0.40263364,-0.03862211,0.3031582,-1.2752337,1.1905894,1.1879857,1.2393394,-0.1727795,0.59698033,1.1904461,-0.58775324
0.4,0.1,1.2,0.0,0.0,0,-1.2635972,0.5560328,-0.84007215,-0.40070796,-0.05780129,0.33371133,-1.2422667,1.1099181,1.1904224,1.2399087,-0.16380492,0.7622295,1.1237388,-0.6097412
0.4,0.1,1.2,0.0,0.0,0,-1.2557919,0.5551731,-0.8463225,-0.4060292,-0.045172524,0.33224082,-1.2378912,1.2748032,1.1825249,1.1759568,-0.115804814,0.5762821,1.1479995,-0.4356792
0.4,0.1,1.2,0.0,0.0,0,-1.2524966,0.5495862,-0.83609384,-0.40360203,-0.05209772,0.35600153,-1.2557285,1.078936,1.222456,1.1599696,-0.08401017,0.48637298,1.1153492,-0.6488835
0.4,0.1,1.2,0.0,0.0,0,-1.24726,0.5562564,-0.822911,-0.4028444,-0.05827277,0.39916483,-1.2724712,1.1255027,1.148933,1.2368574,-0.15023205,0.45870703,1.159001,-0.54755396
0.4,0.1,1.2,0.0,0.0,0,-1.2405452,0.55383706,-0.83883035,-0.40466127,-0.0062046256,0.3763332,-1.2638699,1.176464,1.2250592,1.2340564,-0.123613745,0.68454534,1.107465,-0.47619075
0.4,0.1,1.2,0.0,0.0,0,-1.2362884,0.5308287,-0.8347488,-0.3970454,-0.08433821,0.31957725,-1.2681504,1.1248436,1.2189659,1.2749887,-0.123394504,0.46839437,1.1209766,-0.43381488
0.4,0.1,1.2,0.0,0.0,0,-1.2437352,0.54205674,-0.8397971,-0.40398782,-0.05118522,0.3104463,-1.2791401,1.1656734,1.248425,1.2389508,-0.13844326,0.5100093,1.094813,-0.5656359
0.4,0.1,1.2,0.0,0.0,0,-1.2688583,0.5482012,-0.8324097,-0.4030836,-0.074901655,0.37465024,-1.2708737,1.1440142,1.1844537,1.2755076,-0.18689415,0.56113124,1.1681437,-0.45094442
0.4,0.1,1.2,0.0,0.0,0,-1.2432675,0.54362553,-0.83093756,-0.3992097,-0.056963574,0.35535583,-1.2571143,1.1644182,1.1875324,1.2081074,-0.11713177,0.42201862,1.1341406,-0.65810496
0.4,0.1,1.2,0.0,0.0,0,-1.2552675,0.5604617,-0.84558386,-0.39857212,-0.07586671,0.34935236,-1.2599083,1.1602708,1.1760495,1.2619038,-0.10953414,0.6005851,1.1481757,-0.7562015
0.4,0.1,1.2,0.0,0.0,0,-1.239158,0.542471,-0.8200935,-0.39584085,-0.021090215,0.34628436,-1.2612003,1.1548337,1.2243698,1.2236428,-0.18981338,0.46327704,1.121237,-0.5049459
0.4,0.1,1.2,0.0,0.0,0,-1.2470818,0.5424437,-0.82609135,-0.39638028,-0.069481365,0.3539785,-1.2598873,1.1706475,1.2639666,1.2761259,-0.15527987,0.4305451,1.1556478,-0.74153835
0.4,0.1,1.2,0.0,0.0,0,-1.2573085,0.552816,-0.8255513,-0.38657218,-0.046657287,0.3248266,-1.270686,1.1054497,1.1866015,1.2650028,-0.08418685,0.591527,1.103885,-0.63432735
0.4,0.1,1.2,0.0,0.0,0,-1.2604548,0.5648141,-0.8409247,-0.39864016,-0.06080352,0.3557227,-1.2627903,1.1553408,1.1530827,1.3041921,-0.12750778,0.4627765,1.1445165,-0.70044833
0.4,0.1,1.2,0.0,0.0,0,-1.2429131,0.54960334,-0.83697015,-0.4001596,-0.06058754,0.37089986,-1.2474828,1.2097931,1.2188967,1.2285708,-0.13415907,0.59695905,1.1488726,-0.7991659
0.4,0.1,1.2,0.0,0.0,0,-1.2526014,0.54517204,-0.83312756,-0.38701084,-0.06415545,0.31642053,-1.2409345,1.305251,1.1646916,1.2035792,-0.13474801,0.40248477,1.1250422,-0.47933412
0.4,0.1,1.2,0.0,0.0,0,-1.2311916,0.5466221,-0.8515932,-0.398533,-0.07698876,0.3889347,-1.2377114,1.1624231,1.2357686,1.2683513,-0.11988295,0.5872676,1.136659,-0.78665453
0.4,0.1,1.2,0.0,0.0,0,-1.2442651,0.55132645,-0.8472797,-0.39982548,-0.041916423,0.30586287,-1.2660116,1.1471425,1.1522385,1.1581075,-0.15440236,0.59441847,1.1413716,-0.56675863
0.4,0.1,1.2,0.0,0.0,0,-1.2523551,0.5569599,-0.8437533,-0.39730248,-0.041331254,0.34219018,-1.2722485,1.1282778,1.226013,1.2085383,-0.1467229,0.5812736,1.1674916,-0.44651988
0.4,0.1,1.2,0.0,0.0,0,-1.2679353,0.54650784,-0.83148134,-0.4108587,-0.07100958,0.3666507,-1.2951455,1.1148905,1.2339429,1.1956264,-0.1620718,0.5285175,1.1405789,-0.38099965
0.4,0.1,1.2,0.0,0.0,0,-1.2560173,0.556285,-0.8205644,-0.40119374,-0.040806822,0.3632449,-1.2851778,1.1311502,1.2457525,1.1785705,-0.13551119,0.54064184,1.1688681,-0.46688738
0.4,0.1,1.2,0.0,0.0,0,-1.2258329,0.55031556,-0.83828056,-0.40105563,-0.03498163,0.44601566,-1.2560031,1.1685913,1.1458644,1.165156,-0.15759161,0.69564635,1.1602426,-0.5190692
0.4,0.1,1.2,0.0,0.0,0,-1.2571335,0.54565406,-0.8337894,-0.41477993,-0.057780206,0.29930308,-1.2587209,1.1142282,1.2141142,1.2377464,-0.16864656,0.6711659,1.1275938,-0.49579585
0.4,0.1,1.2,0.0,0.0,0,-1.2613003,0.54674226,-0.83010167,-0.40878353,-0.06394946,0.37258428,-1.2588552,1.1655375,1.165139,1.2812186,-0.120186076,0.5009635,1.1222855,-0.76219004
0.4,0.1,1.2,0.0,0.0,0,-1.2574571,0.5550981,-0.8398294,-0.39500636,-0.043416675,0.30726743,-1.2530499,1.2842557,1.2320521,1.2020429,-0.13125151,0.5476724,1.1307279,-0.35676876
0.4,0.1,1.2,0.0,0.0,0,-1.2531518,0.5342582,-0.82918763,-0.3952152,-0.07366833,0.338937,-1.2659798,1.2030474,1.1727797,1.1869445,-0.13045035,0.6248264,1.174842,-0.69136107
0.4,0.1,1.2,0.0,0.0,0,-1.2654495,0.55011106,-0.83706796,-0.40356478,-0.062460463,0.32517222,-1.273107,1.216814,1.1722647,1.2463119,-0.14179082,0.49688292,1.1443791,-0.57091755
0.4,0.1,1.2,0.0,0.0,0,-1.2501982,0.5447111,-0.8340092,-0.40322965,-0.04856395,0.35494223,-1.2574255,1.1648105,1.2453843,1.1332163,-0.20170297,0.42900187,1.1472849,-0.35846716
0.4,0.1,1.2,0.0,0.0,0,-1.2491361,0.5467291,-0.84736484,-0.40744936,-0.05672551,0.3659147,-1.25608,1.1593919,1.2120339,1.2310373,-0.12318192,0.5367517,1.1399139,-0.6453625
0.4,0.1,1.2,0.0,0.0,0,-1.2555691,0.5560364,-0.8442475,-0.41020462,-0.06597404,0.37731257,-1.2852166,1.1814367,1.1998255,1.3224257,-0.15817794,0.34434617,1.1315068,-0.34309512
0.4,0.1,1.2,0.0,0.0,0,-1.2603296,0.5478607,-0.82782394,-0.3823502,-0.065848894,0.3270367,-1.2811083,1.189306,1.1742313,1.283729,-0.16422193,0.54481596,1.1390948,-0.6993548
0.4,0.1,1.2,0.0,0.0,0,-1.2420771,0.5555986,-0.8442562,-0.39735743,-0.050131008,0.31749958,-1.2743832,1.2159187,1.1505227,1.1910163,-0.12557812,0.5493078,1.1271319,-0.78188944
0.4,0.1,1.2,0.0,0.0,0,-1.243215,0.5375912,-0.842889,-0.3892043,-0.06383183,0.40631595,-1.2726609,1.2582178,1.1984562,1.2739708,-0.14534745,0.7365931,1.1050786,-0.5957627
0.4,0.1,1.2,0.0,0.0,0,-1.236599,0.5406954,-0.8348413,-0.39983276,-0.046863828,0.37517175,-1.249964,1.169438,1.2571912,1.2219372,-0.19812821,0.58230406,1.148035,-0.43946657
0.4,0.1,1.2,0.0,0.0,0,-1.2367868,0.55009615,-0.8439665,-0.3963833,-0.049979575,0.30216247,-1.2520278,1.2156607,1.2114288,1.1751323,-0.18584675,0.5085113,1.1255553,-0.6390881
0.4,0.1,1.2,0.0,0.0,0,-1.2495427,0.5469421,-0.8392157,-0.40141642,-0.04704391,0.3828048,-1.2478209,1.1562723,1.1914947,1.2290676,-0.14416987,0.61863875,1.1519895,-0.48195866
0.4,0.1,1.2,0.0,0.0,0,-1.252375,0.5526207,-0.8347456,-0.40366566,-0.046631288,0.41441208,-1.2791015,1.1836988,1.2208273,1.1602418,-0.14104174,0.47892243,1.1538618,-0.41208106
0.4,0.1,1.2,0.0,0.0,0,-1.2427648,0.54319036,-0.82943684,-0.39288703,-0.05690113,0.37475395,-1.2812388,1.2361234,1.1832889,1.2415866,-0.18458506,0.50957304,1.1822249,-0.43956673
0.4,0.1,1.2,0.0,0.0,0,-1.2553232,0.5472256,-0.83199215,-0.4036193,-0.07159276,0.34523204,-1.2428508,1.193615,1.2186109,1.2315056,-0.17629908,0.55887306,1.1885272,-0.59322596
0.4,0.1,1.2,0.0,0.0,0,-1.2559735,0.5482103,-0.8387683,-0.3878821,-0.05115759,0.33527428,-1.287136,1.1860614,1.1947294,1.2408957,-0.14247923,0.6314364,1.1759652,-0.79295653
0.4,0.1,1.2,0.0,0.0,0,-1.2610283,0.54976225,-0.8337838,-0.38945004,-0.08161314,0.32720956,-1.2644825,1.1743124,1.2401047,1.2549791,-0.17346342,0.45805758,1.1603372,-0.5436732
0.4,0.1,1.2,0.0,0.0,0,-1.251026,0.5487499,-0.84215647,-0.40479806,-0.021958327,0.3504869,-1.2715153,1.2136307,1.1963233,1.2608398,-0.16351573,0.48045334,1.1280676,-0.76525825
0.4,0.1,1.2,0.0,0.0,0,-1.2517459,0.54979086,-0.8331861,-0.39872772,-0.07419377,0.3478901,-1.2771183,1.2491128,1.1085725,1.2784308,-0.15864077,0.3815818,1.1083702,-0.60343593
0.4,0.1,1.2,0.0,0.0,0,-1.2483963,0.5365571,-0.8301242,-0.4043611,-0.08994743,0.4085751,-1.2707645,1.1292318,1.2460084,1.2108938,-0.1674804,0.3970778,1.1422083,-0.71712995
0.4,0.1,1.2,0.0,0.0,0,-1.2605399,0.55603,-0.832742,-0.3998487,-0.055726975,0.31128493,-1.2740946,1.2595905,1.1471273,1.1609125,-0.1462606,0.5575186,1.1164793,-0.7602755
0.4,0.1,1.2,0.0,0.0,0,-1.245054,0.5453138,-0.83864367,-0.39885974,-0.043844167,0.3064514,-1.2774963,1.2155825,1.2001998,1.226692,-0.16916892,0.6665902,1.1519759,-0.5595893
0.4,0.1,1.2,0.0,0.0,0,-1.2526314,0.5465666,-0.84643024,-0.4050682,-0.0944933,0.35996702,-1.2578871,1.2036813,1.1874112,1.1683297,-0.1490967,0.6871235,1.1208116,-0.5499948
0.4,0.1,1.2,0.0,0.0,0,-1.2429048,0.5598431,-0.82375693,-0.40225193,-0.035540573,0.43028155,-1.272592,1.2535286,1.1415862,1.1519079,-0.1982066,0.6092246,1.1614947,-0.5179536
0.4,0.1,1.2,0.0,0.0,0,-1.2452822,0.54763615,-0.8402567,-0.39558977,-0.04532526,0.42755544,-1.2671193,1.2376791,1.1788274,1.1453542,-0.14572167,0.7207706,1.1399211,-0.6545212
0.4,0.1,1.2,0.0,0.0,0,-1.2452822,0.54763615,-0.8402567,-0.39558977,-0.04532526,0.42755544,-1.2671193,1.2376791,1.1788274,1.1453542,-0.14572167,0.7207706,1.1399211,-0.6545212
0.4,0.1,1.2,0.0,0.0,0,-1.2452822,0.54763615,-0.8402567,-0.39558977,-0.04532526,0.42755544,-1.2671193,1.2376791,1.1788274,1.1453542,-0.14572167,0.7207706,1.1399211,-0.6545212
0.4,0.1,1.2,0.0,0.0,0,-1.2452822,0.54763615,-0.8402567,-0.39558977,-0.04532526,0.42755544,-1.2671193,1.2376791,1.1788274,1.1453542,-0.14572167,0.7207706,1.1399211,-0.6545212
0.4,0.1,1.2,0.0,0.0,0,-1.2452822,0.54763615,-0.8402567,-0.39558977,-0.04532526,0.42755544,-1.2671193,1.2376791,1.1788274,1.1453542,-0.14572167,0.7207706,1.1399211,-0.6545212
0.4,0.1,1.2,0.0,0.0,0,-1.2452822,0.54763615,-0.8402567,-0.39558977,-0.04532526,0.42755544,-1.2671193,1.2376791,1.1788274,1.1453542,-0.14572167,0.7207706,1.1399211,-0.6545212
0.4,0.1,1.2,0.0,0.0,0,-1.2452822,0.54763615,-0.8402567,-0.39558977,-0.04532526,0.42755544,-1.2671193,1.2376791,1.1788274,1.1453542,-0.14572167,0.7207706,1.1399211,-0.6545212
0.4,0.1,1.2,0.0,0.0,0,-1.2474883,0.55457443,-0.8407027,-0.39834154,-0.069132574,0.332991,-1.2708741,1.1363151,1.1681985,1.2347641,-0.14030033,0.5117326,1.1303447,-0.63200253
0.4,0.1,1.2,0.0,0.0,0,-1.2474883,0.55457443,-0.8407027,-0.39834154,-0.069132574,0.332991,-1.2708741,1.1363151,1.1681985,1.2347641,-0.14030033,0.5117326,1.1303447,-0.63200253
0.4,0.1,1.2,0.0,0.0,0,-1.2474883,0.55457443,-0.8407027,-0.39834154,-0.069132574,0.332991,-1.2708741,1.1363151,1.1681985,1.2347641,-0.14030033,0.5117326,1.1303447,-0.63200253
0.4,0.1,1.2,0.0,0.0,0,-1.2474883,0.55457443,-0.8407027,-0.39834154,-0.069132574,0.332991,-1.2708741,1.1363151,1.1681985,1.2347641,-0.14030033,0.5117326,1.1303447,-0.63200253
0.4,0.1,1.2,0.0,0.0,0,-1.2474883,0.55457443,-0.8407027,-0.39834154,-0.069132574,0.332991,-1.2708741,1.1363151,1.1681985,1.2347641,-0.14030033,0.5117326,1.1303447,-0.63200253
0.4,0.1,1.2,0.0,0.0,0,-1.2474883,0.55457443,-0.8407027,-0.39834154,-0.069132574,0.332991,-1.2708741,1.1363151,1.1681985,1.2347641,-0.14030033,0.5117326,1.1303447,-0.63200253
0.4,0.1,1.2,0.0,0.0,0,-1.2474883,0.55457443,-0.8407027,-0.39834154,-0.069132574,0.332991,-1.2708741,1.1363151,1.1681985,1.2347641,-0.14030033,0.5117326,1.1303447,-0.63200253
0.4,0.1,1.2,0.0,0.0,0,-1.2827364,0.5350587,-0.839876,-0.4061923,-0.036199503,0.43682867,-1.2706738,1.3250765,1.1472262,1.240032,-0.15482378,0.53057784,1.1586004,-0.9379115
0.4,0.1,1.2,0.0,0.0,0,-1.2827364,0.5350587,-0.839876,-0.4061923,-0.036199503,0.43682867,-1.2706738,1.3250765,1.1472262,1.240032,-0.15482378,0.53057784,1.1586004,-0.9379115
0.4,0.1,1.2,0.0,0.0,0,-1.2827364,0.5350587,-0.839876,-0.4061923,-0.036199503,0.43682867,-1.2706738,1.3250765,1.1472262,1.240032,-0.15482378,0.53057784,1.1586004,-0.9379115
0.4,0.1,1.2,0.0,0.0,0,-1.2827364,0.5350587,-0.839876,-0.4061923,-0.036199503,0.43682867,-1.2706738,1.3250765,1.1472262,1.240032,-0.15482378,0.53057784,1.1586004,-0.9379115
0.4,0.1,1.2,0.0,0.0,0,-1.2827364,0.5350587,-0.839876,-0.4061923,-0.036199503,0.43682867,-1.2706738,1.3250765,1.1472262,1.240032,-0.15482378,0.53057784,1.1586004,-0.9379115
0.4,0.1,1.2,0.0,0.0,0,-1.2827364,0.5350587,-0.839876,-0.4061923,-0.036199503,0.43682867,-1.2706738,1.3250765,1.1472262,1.240032,-0.15482378,0.53057784,1.1586004,-0.9379115
0.4,0.1,1.2,0.0,0.0,0,-1.2550205,0.54694676,-0.8353624,-0.39280635,-0.07624644,0.3747459,-1.2411497,1.2585837,1.2048236,1.2642791,-0.16652367,0.57683355,1.1086981,-0.5257221
0.4,0.1,1.2,0.0,0.0,0,-1.2550205,0.54694676,-0.8353624,-0.39280635,-0.07624644,0.3747459,-1.2411497,1.2585837,1.2048236,1.2642791,-0.16652367,0.57683355,1.1086981,-0.5257221
0.4,0.1,1.2,0.0,0.0,0,-1.2550205,0.54694676,-0.8353624,-0.39280635,-0.07624644,0.3747459,-1.2411497,1.2585837,1.2048236,1.2642791,-0.16652367,0.57683355,1.1086981,-0.5257221
0.4,0.1,1.2,0.0,0.0,0,-1.2550205,0.54694676,-0.8353624,-0.39280635,-0.07624644,0.3747459,-1.2411497,1.2585837,1.2048236,1.2642791,-0.16652367,0.57683355,1.1086981,-0.5257221
0.4,0.1,1.2,0.0,0.0,0,-1.2550205,0.54694676,-0.8353624,-0.39280635,-0.07624644,0.3747459,-1.2411497,1.2585837,1.2048236,1.2642791,-0.16652367,0.57683355,1.1086981,-0.5257221
0.4,0.1,1.2,0.0,0.0,0,-1.2550205,0.54694676,-0.8353624,-0.39280635,-0.07624644,0.3747459,-1.2411497,1.2585837,1.2048236,1.2642791,-0.16652367,0.57683355,1.1086981,-0.5257221
0.4,0.1,1.2,0.0,0.0,0,-1.2550205,0.54694676,-0.8353624,-0.39280635,-0.07624644,0.3747459,-1.2411497,1.2585837,1.2048236,1.2642791,-0.16652367,0.57683355,1.1086981,-0.5257221
0.4,0.1,1.2,0.0,0.0,0,-1.2485384,0.54443324,-0.8381068,-0.4001286,-0.09601619,0.36158928,-1.2532986,1.2568452,1.1711825,1.2902247,-0.21398571,0.24457417,1.1263312,-0.5231721
0.4,0.1,1.2,0.0,0.0,0,-1.2485384,0.54443324,-0.8381068,-0.4001286,-0.09601619,0.36158928,-1.2532986,1.2568452,1.1711825,1.2902247,-0.21398571,0.24457417,1.1263312,-0.5231721
0.4,0.1,1.2,0.0,0.0,0,-1.2485384,0.54443324,-0.8381068,-0.4001286,-0.09601619,0.36158928,-1.2532986,1.2568452,1.1711825,1.2902247,-0.21398571,0.24457417,1.1263312,-0.5231721
0.4,0.1,1.2,0.0,0.0,0,-1.2485384,0.54443324,-0.8381068,-0.4001286,-0.09601619,0.36158928,-1.2532986,1.2568452,1.1711825,1.2902247,-0.21398571,0.24457417,1.1263312,-0.5231721
0.4,0.1,1.2,0.0,0.0,0,-1.2485384,0.54443324,-0.8381068,-0.4001286,-0.09601619,0.36158928,-1.2532986,1.2568452,1.1711825,1.2902247,-0.21398571,0.24457417,1.1263312,-0.5231721
