sanky1234/BimanualDexCatch/isaacgymenvs/cem_results/May31/football_pose_0.0_-0.1_0.8_-0.5235987755982988_0.5235987755982988_0_2025-05-31.csv
x,y,z,roll,pitch,yaw,robot1/joint1,robot1/joint2,robot1/joint3,robot1/joint4,robot1/joint5,robot1/joint6,robot1/joint7,robot2/joint1,robot2/joint2,robot2/joint3,robot2/joint4,robot2/joint5,robot2/joint6,robot2/joint7
0.0,-0.1,0.8,-0.5235987755982988,0.5235987755982988,0,0.010293868,1.6708614,0.12434687,0.41324213,0.93064606,-0.08392987,0.51389515,0.53236145,1.4654565,-0.08479285,0.0173956,-0.057261262,0.57438093,1.0616851
0.0,-0.1,0.8,-0.5235987755982988,0.5235987755982988,0,0.266908,1.7903856,0.106739886,0.3390589,0.9561509,-0.16282457,0.5202113,0.37495613,1.4249545,-0.118418306,-0.035207383,0.05860068,0.5890657,-0.15193975
0.0,-0.1,0.8,-0.5235987755982988,0.5235987755982988,0,0.28078493,1.8071772,0.08179462,0.4165285,1.0569876,-0.015963702,0.76406467,0.26579583,1.310193,-0.14772587,0.07016922,0.21648067,0.6761129,0.9879924
0.0,-0.1,0.8,-0.5235987755982988,0.5235987755982988,0,0.025386162,1.5813242,0.16745676,0.57909566,0.9964874,-0.11140692,0.23657352,0.43354672,1.5160053,-0.12156851,-0.22051905,0.122161254,0.76424044,-0.18408
0.0,-0.1,0.8,-0.5235987755982988,0.5235987755982988,0,-0.12016745,1.7116528,0.058192663,0.45903814,1.0598453,-0.15713781,0.6221053,0.4774882,1.4882346,-0.14681573,-0.09299679,-0.06013533,0.57365096,1.086705
0.0,-0.1,0.8,-0.5235987755982988,0.5235987755982988,0,0.104136795,1.7313285,0.11278572,0.551071,1.029913,0.06933289,0.4678139,0.46754393,1.4134059,-0.11198178,-0.048209406,-0.09897579,0.8104204,-0.45382595
0.0,-0.1,0.8,-0.5235987755982988,0.5235987755982988,0,0.1746344,1.7060109,0.17036563,0.42096207,0.71083194,-0.034803778,0.3613393,0.57406896,1.3435564,-0.19194844,0.09711302,0.069571555,0.84531945,-0.24788389
0.0,-0.1,0.8,-0.5235987755982988,0.5235987755982988,0,-0.0143771535,1.763894,0.081614435,0.42780352,1.1237589,-0.04662963,0.4379965,0.47580603,1.3846774,-0.058258545,-0.051938772,0.028506732,0.6167846,2.1594372
0.0,-0.1,0.8,-0.5235987755982988,0.5235987755982988,0,-0.09816141,1.6598474,0.34148708,0.7229215,0.9706584,-0.09414004,0.009558641,0.58631474,1.3492486,-0.0928351,-0.06581685,0.29016092,0.826902,0.18415858
0.0,-0.1,0.8,-0.5235987755982988,0.5235987755982988,0,0.32712358,1.9189754,0.07377872,0.16967529,1.0051466,0.036076076,0.06179416,0.34624344,1.3874171,-0.09431899,0.10783273,-0.073790625,0.72363025,0.66451526
0.0,-0.1,0.8,-0.5235987755982988,0.5235987755982988,0,0.32271108,1.8522369,0.22741799,0.3457142,0.997796,0.013092209,-0.12646434,0.47289428,1.4320476,-0.17373562,0.045309223,-0.10415158,0.61665076,0.58945715
0.0,-0.1,0.8,-0.5235987755982988,0.5235987755982988,0,0.21010134,1.5515972,0.0841425,0.51042527,1.327096,-0.047314163,-0.20119709,0.44912845,1.472032,-0.18936898,0.10521616,-0.13501304,0.6565301,0.2674596
0.0,-0.1,0.8,-0.5235987755982988,0.5235987755982988,0,0.3408004,1.8125489,0.17113222,0.37160176,0.9769315,-0.03233126,0.30675852,0.42655036,1.4155567,-0.12096208,-0.076737456,0.11915674,0.61683,0.8247914
0.0,-0.1,0.8,-0.5235987755982988,0.5235987755982988,0,0.2219823,1.724873,0.13288587,0.47655123,0.8502558,-0.05707791,-0.38994327,0.5425785,1.3610396,-0.07578655,0.049491376,-0.0068089836,0.43657622,-0.29390585
0.0,-0.1,0.8,-0.5235987755982988,0.5235987755982988,0,-0.06896564,1.5921916,0.19243538,0.67496824,1.0081258,-0.057193447,0.31065246,0.5355631,1.3364981,-0.06548437,-0.05101919,0.20422722,0.63751173,-0.056540307
0.0,-0.1,0.8,-0.5235987755982988,0.5235987755982988,0,0.216155,1.730455,0.15840311,0.4564163,1.0072966,0.0019720767,0.06529359,0.45028266,1.3138021,-0.16470627,0.026341006,0.042650845,0.7646047,0.90259373
0.0,-0.1,0.8,-0.5235987755982988,0.5235987755982988,0,0.06300032,1.8263685,0.13438,0.3362635,0.93888414,-0.1149114,0.0813108,0.408806,1.2883297,-0.058969025,-0.022277452,0.13026743,0.6166714,0.2228993
0.0,-0.1,0.8,-0.5235987755982988,0.5235987755982988,0,-0.087297715,1.8176658,0.11285976,0.42059898,0.9240633,-0.0595283,0.25422612,0.33174706,1.3236985,-0.13071677,-0.1167861,-0.047890127,0.39783823,0.38756618
0.0,-0.1,0.8,-0.5235987755982988,0.5235987755982988,0,0.30399022,1.8038393,0.23029426,0.3872498,0.90255725,-0.10911499,0.46299657,0.5740852,1.4115063,-0.13775653,-0.0017030984,0.25542378,0.7564528,0.38633382
0.0,-0.1,0.8,-0.5235987755982988,0.5235987755982988,0,0.08469043,1.729957,0.027675249,0.34594575,1.0097924,-0.0045295907,0.71643966,0.4865839,1.3708681,-0.17720026,-0.16151883,0.0025128946,0.570997,0.52289957
0.0,-0.1,0.8,-0.5235987755982988,0.5235987755982988,0,0.053258035,1.7643698,0.103751026,0.3885092,0.9869548,-0.027258877,0.5182951,0.54370517,1.4565872,-0.1321541,0.054956783,0.16746975,0.74407333,0.03956625
0.0,-0.1,0.8,-0.5235987755982988,0.5235987755982988,0,-0.041857786,1.5836917,0.03389178,0.57071626,1.037862,0.053561613,0.38528818,0.41632047,1.3576255,-0.1754989,0.03347985,0.13051093,0.670028,0.35940555
0.0,-0.1,0.8,-0.5235987755982988,0.5235987755982988,0,0.16912916,1.65327,0.12650743,0.49486005,0.9578564,-0.08789925,0.47534555,0.46358365,1.4557662,-0.12725581,0.054272637,0.1775711,0.6396302,-0.78150165
0.0,-0.1,0.8,-0.5235987755982988,0.5235987755982988,0,0.40104327,1.6755569,0.2028077,0.5049024,1.1763538,-0.093611486,-0.04564848,0.43764803,1.3030775,-0.12169667,0.0754536,-0.075569585,0.61212003,0.14540759
0.0,-0.1,0.8,-0.5235987755982988,0.5235987755982988,0,0.32846904,1.7000573,0.16697057,0.53430665,0.90120804,-0.041472446,0.29992002,0.46315825,1.274665,-0.21656065,0.109026104,-0.07699755,0.58524185,0.13507228
0.0,-0.1,0.8,-0.5235987755982988,0.5235987755982988,0,0.10475556,1.8001566,0.14082658,0.43766198,1.0616741,-0.0036651867,0.5213422,0.44823626,1.3656647,-0.07367802,-0.14870588,0.03811151,0.5483676,0.39642355
0.0,-0.1,0.8,-0.5235987755982988,0.5235987755982988,0,-0.038578365,1.6211747,0.04581547,0.53325987,1.0463649,0.052836347,0.21670255,0.33115602,1.3276727,-0.0940138,-0.08791105,-0.23491511,0.7239021,0.8271415
0.0,-0.1,0.8,-0.5235987755982988,0.5235987755982988,0,0.1720375,1.775463,0.18184605,0.46329468,0.9340293,-0.034182917,0.52114546,0.3920745,1.4783815,-0.08477225,-0.09078456,0.1185134,0.4870249,0.07747194
0.0,-0.1,0.8,-0.5235987755982988,0.5235987755982988,0,0.2721942,1.7187395,0.106654614,0.45679432,1.0683993,-0.042033777,0.27577955,0.47920614,1.4152131,-0.10171717,-0.14669551,0.07625548,0.53856266,1.1943238
0.0,-0.1,0.8,-0.5235987755982988,0.5235987755982988,0,0.06353797,1.7328665,0.31659764,0.53260636,0.8529928,0.03093269,0.79020363,0.53635937,1.4227791,-0.13098115,0.10790916,-0.2318864,0.5564898,0.34949568
0.0,-0.1,0.8,-0.5235987755982988,0.5235987755982988,0,-0.035714824,1.8693491,0.1673289,0.35575962,0.82874507,-0.15837623,0.14680018,0.4487888,1.4379963,-0.074846104,-0.035143152,0.0015859617,0.5108589,1.3266305
0.0,-0.1,0.8,-0.5235987755982988,0.5235987755982988,0,0.07796769,1.6575361,0.3079485,0.3626946,1.0648173,0.0074295397,0.13326582,0.59438777,1.4905784,-0.09111662,0.0479479,0.20442654,0.48356396,0.5857038
0.0,-0.1,0.8,-0.5235987755982988,0.5235987755982988,0,-0.0113687385,1.4223847,0.13029647,0.34799036,0.9764757,0.08070259,0.5045483,0.6001916,1.4406334,-0.12754658,0.028653292,-0.27255556,0.48897332,0.36684653
0.0,-0.1,0.8,-0.5235987755982988,0.5235987755982988,0,-0.0113206385,1.6762955,0.24275972,0.39215118,0.97227496,-0.117951356,0.27643046,0.4444769,1.3246285,-0.03781792,-0.034202248,-0.0024861933,0.67367053,0.6718074
0.0,-0.1,0.8,-0.5235987755982988,0.5235987755982988,0,-0.0634503,1.6396747,0.24555805,0.50116974,1.1023961,-0.027251163,0.03957191,0.3715943,1.336806,-0.154211,-0.028116418,-0.09398766,0.7382336,0.22457866
0.0,-0.1,0.8,-0.5235987755982988,0.5235987755982988,0,0.19209552,1.830119,0.18947203,0.4723502,0.9325223,0.02632799,-0.17986773,0.5060661,1.4191267,-0.19272876,-0.004982067,-0.2199128,0.61827904,0.41495356
0.0,-0.1,0.8,-0.5235987755982988,0.5235987755982988,0,0.10723312,1.529743,0.23526709,0.6509224,1.0426978,-0.1248957,0.33680207,0.4633124,1.4301112,-0.1275512,-0.025666634,0.033250615,0.6748155,1.2769471
0.0,-0.1,0.8,-0.5235987755982988,0.5235987755982988,0,0.035695132,1.7449117,0.34670332,0.50346756,0.7720751,-0.16117445,0.38328978,0.33894157,1.3638265,-0.123510465,0.0211147,-0.18796715,0.6173301,1.3708779
0.0,-0.1,0.8,-0.5235987755982988,0.5235987755982988,0,0.16620229,1.6289628,0.15222602,0.36972287,0.93075275,-0.013002123,0.3315855,0.51310915,1.2682807,-0.23980954,0.14791499,-0.003929785,0.5913745,0.8827346
0.0,-0.1,0.8,-0.5235987755982988,0.5235987755982988,0,0.328679,1.7744074,0.34506494,0.40270218,0.9615443,-0.082241826,0.08178975,0.4955365,1.4251939,-0.07666206,0.019083686,0.029618632,0.78991234,0.6064245
0.0,-0.1,0.8,-0.5235987755982988,0.5235987755982988,0,0.31456476,1.7000146,0.26820415,0.2816199,0.9975351,-0.04502554,0.62580734,0.46589673,1.3961569,-0.12652569,0.10708857,0.03697596,0.53130305,-1.9344139
0.0,-0.1,0.8,-0.5235987755982988,0.5235987755982988,0,-0.10006075,1.8541945,0.1871862,0.4309044,0.9954015,-0.018693248,1.2446944,0.5725386,1.4790618,-0.15315884,0.002867009,0.15660715,0.6235929,1.4011747
0.0,-0.1,0.8,-0.5235987755982988,0.5235987755982988,0,0.30618322,1.7940977,0.26239565,0.7778896,0.9740984,0.00040355098,0.4049771,0.48936802,1.5166396,-0.07052202,0.013520407,-0.045442343,0.6616065,1.647953
0.0,-0.1,0.8,-0.5235987755982988,0.5235987755982988,0,0.49784815,1.7934628,0.22803886,0.2680476,0.87480026,0.06840106,0.5644583,0.41445276,1.385644,-0.104140885,0.008946888,-0.073720716,0.7872764,-0.59468627
0.0,-0.1,0.8,-0.5235987755982988,0.5235987755982988,0,0.047191445,1.7173443,0.18830246,0.38586456,0.93356794,0.022450907,0.45246407,0.563884,1.405183,-0.17802662,0.053777773,0.30076522,0.7073916,-0.32525477
0.0,-0.1,0.8,-0.5235987755982988,0.5235987755982988,0,0.11287096,1.5970596,0.26724988,0.4390718,1.0920316,-0.1768724,0.54949987,0.5709067,1.3119648,-0.15380661,0.10342584,-0.12086607,0.7192944,0.6779642
0.0,-0.1,0.8,-0.5235987755982988,0.5235987755982988,0,-0.020877628,1.7444935,0.33640364,0.31390098,0.97461194,-0.08785047,-0.18731152,0.48262423,1.41653,-0.051661555,0.09547591,0.091364555,0.6075582,0.6402593
0.0,-0.1,0.8,-0.5235987755982988,0.5235987755982988,0,0.2641826,1.6842521,0.18709493,0.60273796,0.87986267,-0.0033308002,0.1833047,0.4363035,1.4568719,-0.059944555,-0.11950576,0.087015025,0.6262882,0.54840994
0.0,-0.1,0.8,-0.5235987755982988,0.5235987755982988,0,0.29446635,1.7962168,0.22311948,0.5782222,1.1272136,0.07162611,-0.06054142,0.3903616,1.207624,-0.0917254,0.06090993,0.22890726,0.7278323,0.13500361
0.0,-0.1,0.8,-0.5235987755982988,0.5235987755982988,0,0.13454762,1.556076,0.17949697,0.6269654,1.0338823,-0.013208068,0.72132325,0.48726046,1.1743611,-0.19725916,-0.17043655,0.066085204,0.610674,1.9743913
0.0,-0.1,0.8,-0.5235987755982988,0.5235987755982988,0,0.15950608,1.7904179,0.28201708,0.49949566,0.9174884,-0.024441173,0.27115953,0.42544922,1.3175336,-0.07483657,-0.12324333,0.020922769,0.6115284,0.6382954
0.0,-0.1,0.8,-0.5235987755982988,0.5235987755982988,0,0.42918426,1.5821568,0.25466466,0.586102,1.121666,0.04308303,-0.03440527,0.527292,1.3699965,-0.10842504,-0.35735825,0.27025747,0.59219795,1.1733401
0.0,-0.1,0.8,-0.5235987755982988,0.5235987755982988,0,0.44909322,1.8315746,0.31646594,0.65150195,1.0857087,-0.13260175,0.71903354,0.5484728,1.1037577,-0.11285926,-0.08751158,0.110306956,0.7448568,0.1316926
0.0,-0.1,0.8,-0.5235987755982988,0.5235987755982988,0,0.10549341,1.5610044,0.20501915,0.71489614,0.9656212,-0.070992395,0.22738819,0.51988965,1.3810025,-0.087411016,-0.026535854,0.16249317,0.6132634,0.41175503
0.0,-0.1,0.8,-0.5235987755982988,0.5235987755982988,0,-0.051741373,1.5819129,0.3059747,0.59263146,1.0062613,-0.122454345,0.03894706,0.4970681,1.3409262,-0.09395816,0.121375665,0.11986282,0.62413144,1.517365
0.0,-0.1,0.8,-0.5235987755982988,0.5235987755982988,0,0.4094688,1.9476838,0.26843908,0.3178788,0.8852986,0.017502366,0.42353868,0.52962565,1.4397154,-0.13673025,-0.23657073,0.0044792765,0.58632505,-0.6130625
0.0,-0.1,0.8,-0.5235987755982988,0.5235987755982988,0,0.15966576,1.6473567,0.2570665,0.53176856,0.9754782,-0.0029449363,0.20956509,0.459141,1.2962222,-0.16777124,0.023462353,0.11554094,0.6399142,1.1719288
0.0,-0.1,0.8,-0.5235987755982988,0.5235987755982988,0,-0.03292263,1.7772495,0.21994647,0.37589905,0.8723208,-0.011901945,0.2452286,0.501345,1.3105806,-0.22368348,-0.042135436,-0.18283534,0.47148928,2.0908473
0.0,-0.1,0.8,-0.5235987755982988,0.5235987755982988,0,0.21380825,1.7095133,0.36759555,0.63238555,0.95983386,-0.016776333,0.7552087,0.49200338,1.3819208,-0.0034131259,-0.19436386,0.079689756,0.49417022,0.19716732
0.0,-0.1,0.8,-0.5235987755982988,0.5235987755982988,0,0.14711858,1.8219655,0.20522477,0.45137116,1.054891,-0.09608377,0.46857175,0.24337938,1.4109293,-0.17399256,-0.015075036,-0.25446662,0.39531153,0.69645876
0.0,-0.1,0.8,-0.5235987755982988,0.5235987755982988,0,0.4092598,1.7320516,0.2366573,0.512937,1.1263344,-0.05643205,0.29794627,0.37768626,1.3559209,-0.15395439,-0.0026176695,0.07256613,0.4597295,0.5633529
0.0,-0.1,0.8,-0.5235987755982988,0.5235987755982988,0,0.17779297,1.7403193,0.19873403,0.42243773,1.1173087,-0.14261417,0.31024703,0.45828992,1.233174,-0.13521981,0.06349291,-0.19094186,0.50560015,0.40335935
0.0,-0.1,0.8,-0.5235987755982988,0.5235987755982988,0,-0.03852888,1.7674288,0.19569,0.54612,1.2208499,-0.083426975,0.103990614,0.5051236,1.2514203,-0.10768066,0.12053744,-0.013251865,0.71120024,0.47589475
0.0,-0.1,0.8,-0.5235987755982988,0.5235987755982988,0,0.1497818,1.6988156,0.16080546,0.45746902,1.1703088,0.050092794,0.11238929,0.47100133,1.2372081,-0.066400334,0.102040805,0.06959055,0.38268793,0.61163265
0.0,-0.1,0.8,-0.5235987755982988,0.5235987755982988,0,0.23486532,1.6276947,0.18059678,0.48537752,0.8699289,0.017740669,0.2946349,0.50036454,1.2540654,-0.023159113,-0.0018338225,-0.056056675,0.4356833,0.14907622
0.0,-0.1,0.8,-0.5235987755982988,0.5235987755982988,0,0.27184492,1.7156676,0.24142402,0.47087893,0.9846628,-0.053524602,0.3319292,0.53660583,1.4214083,-0.007627587,0.05862992,0.22474125,0.50098467,-0.46813732
0.0,-0.1,0.8,-0.5235987755982988,0.5235987755982988,0,0.110187136,1.9415587,0.3318468,0.6251316,0.9437852,-0.1421325,0.74400085,0.5294549,1.3126138,-0.18281175,-0.037120447,-0.28462183,0.6382397,-0.2921589
0.0,-0.1,0.8,-0.5235987755982988,0.5235987755982988,0,0.021528862,1.6041843,0.138088,0.5561731,0.8445096,-0.07928499,0.25446075,0.59940416,1.3681507,-0.13810882,-0.18084149,-0.07597025,0.61414844,-0.6880786
0.0,-0.1,0.8,-0.5235987755982988,0.5235987755982988,0,-0.048062254,1.7241441,0.14280333,0.42269835,1.145914,-0.06485126,0.11183518,0.34172583,1.4196749,-0.044776555,-0.18439333,0.04214959,0.6540917,1.3893572
0.0,-0.1,0.8,-0.5235987755982988,0.5235987755982988,0,0.04061569,1.5876936,0.095848665,0.53327787,0.99568444,-0.05944417,0.16336897,0.55846673,1.4361944,-0.12993567,0.029190421,0.1539716,0.6515471,0.2091987
0.0,-0.1,0.8,-0.5235987755982988,0.5235987755982988,0,-0.04044792,1.5092524,0.14710632,0.6494438,1.0127252,-0.0024677697,0.23069608,0.4506144,1.3819926,-0.101116635,0.15684554,0.3490325,0.5062707,0.5980578
0.0,-0.1,0.8,-0.5235987755982988,0.5235987755982988,0,0.058713656,1.6781392,0.10309886,0.501176,0.9067322,-0.12783629,0.3125825,0.53842616,1.3787217,-0.12867178,0.092862666,0.050174262,0.6866937,1.9523932
0.0,-0.1,0.8,-0.5235987755982988,0.5235987755982988,0,-0.009768624,1.5982134,0.10905545,0.5696619,0.9590907,-0.01690531,0.57866746,0.5836982,1.4203799,-0.039804723,-0.0022848616,0.10289727,0.9108739,1.1889975
0.0,-0.1,0.8,-0.5235987755982988,0.5235987755982988,0,0.0508076,1.5686423,0.19629972,0.6150188,0.9902808,-0.08655052,0.39003667,0.5435477,1.3518015,-0.018780125,0.15015148,0.12768191,0.6700574,0.72239333
0.0,-0.1,0.8,-0.5235987755982988,0.5235987755982988,0,0.16798496,1.8133733,0.10393502,0.37182692,0.9594345,-0.005587909,0.322025,0.4220896,1.2236422,-0.106199324,0.043528937,0.14665264,0.47374457,-0.89424837
0.0,-0.1,0.8,-0.5235987755982988,0.5235987755982988,0,0.09407576,1.5863371,0.07827148,0.53924716,1.0514554,-0.12043667,-0.17189455,0.52395356,1.3556412,-0.16208474,-0.27507415,0.3396513,0.5918508,1.2675949
0.0,-0.1,0.8,-0.5235987755982988,0.5235987755982988,0,0.39252776,1.7996225,0.26599282,0.46219504,1.0315819,-0.09409494,-0.100241244,0.5561142,1.5433217,-0.08119304,-0.15708044,-0.1463713,0.6753723,1.54681
0.0,-0.1,0.8,-0.5235987755982988,0.5235987755982988,0,0.21995926,1.4660856,0.18120472,0.4410895,0.9921059,-0.051741187,0.18450603,0.40854988,1.443997,-0.1285907,-0.16213755,0.0742967,0.60617274,0.65764844
0.0,-0.1,0.8,-0.5235987755982988,0.5235987755982988,0,0.22535753,1.7604299,0.14693485,0.17980616,1.0075483,0.042862132,0.14077738,0.46325418,1.4248224,-0.10210666,-0.15526024,0.092967056,0.579839,1.3202834
0.0,-0.1,0.8,-0.5235987755982988,0.5235987755982988,0,-0.087285094,1.8401452,0.24381508,0.392443,1.1131607,-0.019736394,0.26537022,0.4337914,1.4342874,-0.18320054,-0.06983159,-0.043634154,0.5260789,0.037918974
0.0,-0.1,0.8,-0.5235987755982988,0.5235987755982988,0,0.15336023,1.6408571,0.24334973,0.5113969,0.72301203,-0.11959708,0.5028791,0.4208845,1.512782,-0.10196863,-0.09411863,-0.13420981,0.5420778,1.1795335
0.0,-0.1,0.8,-0.5235987755982988,0.5235987755982988,0,-0.084020995,1.8493184,0.14019248,0.542288,1.0350175,-0.037490632,0.79859024,0.43496183,1.328718,-0.14670843,-0.021982735,0.27259654,0.6067264,1.0640644
0.0,-0.1,0.8,-0.5235987755982988,0.5235987755982988,0,-0.030117447,1.7721428,0.1984916,0.66258276,1.1649673,-0.06832196,1.1512157,0.5697251,1.4431745,-0.15343508,0.021436337,0.10197665,0.49277183,0.19699967
0.0,-0.1,0.8,-0.5235987755982988,0.5235987755982988,0,0.03844332,1.6052969,0.28060102,0.44638175,1.0421326,-0.010823801,0.42397714,0.43700498,1.3728302,-0.10792858,0.09493264,0.17586118,0.74150944,0.58323157
0.0,-0.1,0.8,-0.5235987755982988,0.5235987755982988,0,-0.049969118,1.7073352,0.17512116,0.34112525,1.1546394,-0.07487625,0.34096295,0.5433407,1.3992167,-0.09749896,0.0685022,0.051895972,0.6793777,1.4401411
0.0,-0.1,0.8,-0.5235987755982988,0.5235987755982988,0,0.08404348,1.8168057,0.14651193,0.37558648,1.0001354,-0.047680076,0.5254291,0.4771328,1.4147284,-0.10737727,-0.064872235,0.16160432,0.80869013,-1.7194576
0.0,-0.1,0.8,-0.5235987755982988,0.5235987755982988,0,0.39740768,1.6711091,0.26543587,0.5863091,0.6554893,-0.06601184,0.43501675,0.44778624,1.260677,-0.07000812,-0.10946086,0.11196941,0.51280034,0.84258425
0.0,-0.1,0.8,-0.5235987755982988,0.5235987755982988,0,0.20534632,1.7191232,0.18970974,0.58594453,1.1996684,0.04812896,0.24825205,0.62443763,1.4340432,-0.1570557,-0.124030046,0.21551932,0.67592514,0.722491
0.0,-0.1,0.8,-0.5235987755982988,0.5235987755982988,0,-0.09342,1.875426,0.15583327,0.63962334,0.894456,-0.06957306,0.2412956,0.44611883,1.4320736,0.010162593,-0.07652155,0.14761904,0.38751766,0.5201586
0.0,-0.1,0.8,-0.5235987755982988,0.5235987755982988,0,0.2815891,1.7480464,0.33170897,0.65144324,0.86063987,-0.05993319,0.6287184,0.5975373,1.3689469,-0.18717562,0.061123893,0.049138874,0.6012764,-1.4402884
0.0,-0.1,0.8,-0.5235987755982988,0.5235987755982988,0,-0.0032060626,1.6573873,0.26490855,0.6685732,1.0075138,-0.09636128,0.3623777,0.39193866,1.2536898,-0.23249808,-0.049125563,0.06734685,0.65826064,1.5057948
0.0,-0.1,0.8,-0.5235987755982988,0.5235987755982988,0,-0.08175222,1.736419,0.23688254,0.57610655,0.8672572,-0.044591963,0.4098237,0.4535237,1.2256428,-0.11229946,0.033552375,0.24624617,0.6709438,0.8006622
0.0,-0.1,0.8,-0.5235987755982988,0.5235987755982988,0,0.47475085,1.6439202,0.22048381,0.56540054,0.9993733,-0.10111871,0.40345952,0.48360544,1.3463447,-0.16164954,-0.1557014,0.07484183,0.5202105,0.33471984
0.0,-0.1,0.8,-0.5235987755982988,0.5235987755982988,0,0.19807945,1.6660554,0.1058318,0.62282956,1.0579063,-0.032804072,0.8478206,0.5141072,1.3049856,-0.11491885,0.010936312,0.14044237,0.7664689,-0.25509492
0.0,-0.1,0.8,-0.5235987755982988,0.5235987755982988,0,0.13525183,1.8037052,0.15549769,0.54434854,0.8518587,-0.1596331,0.38669178,0.45217365,1.2488635,-0.09795226,0.044966735,0.295646,0.5470945,1.495158
0.0,-0.1,0.8,-0.5235987755982988,0.5235987755982988,0,0.43244696,1.6424812,0.1945586,0.51872665,0.91506076,-0.07099772,0.49911326,0.441024,1.1720958,-0.08610879,0.1644862,0.0834022,0.6056623,-0.2930555
0.0,-0.1,0.8,-0.5235987755982988,0.5235987755982988,0,-0.097154796,1.6734672,0.13989529,0.573235,0.86903805,-0.019523453,0.6007911,0.4549919,1.2138839,-0.13201892,-0.004170531,-0.035998847,0.5588849,0.31761038
0.0,-0.1,0.8,-0.5235987755982988,0.5235987755982988,0,0.24685863,1.7113229,0.06321557,0.4175553,1.0287408,-0.046574164,0.50929916,0.663692,1.2132266,-0.15966019,0.06653367,0.007943141,0.48590893,-0.59048766
0.0,-0.1,0.8,-0.5235987755982988,0.5235987755982988,0,0.18152465,1.7186607,0.2425734,0.44845128,1.0112021,-0.03899267,-0.09522891,0.5334039,1.309221,-0.08184301,-0.06362443,-0.0037671933,0.56415445,0.016257556
0.0,-0.1,0.8,-0.5235987755982988,0.5235987755982988,0,0.34369937,1.7787861,0.03063608,0.34845996,0.9199804,0.06526807,0.5534191,0.37595293,1.1911339,-0.17962418,0.100226566,0.047607154,0.5767852,1.415798
0.0,-0.1,0.8,-0.5235987755982988,0.5235987755982988,0,0.22126551,1.7171351,0.25215247,0.5823958,1.0562345,-0.056136794,0.431488,0.6523913,1.4597595,-0.023264859,-0.015008524,-0.40456572,0.55600494,-0.6411529
0.0,-0.1,0.8,-0.5235987755982988,0.5235987755982988,0,0.31138045,1.8050413,0.07374142,0.33908617,0.8866972,0.0011173316,0.083898865,0.5697526,1.3472492,-0.21610625,-0.040949162,0.0248695,0.6129696,0.91527367
0.0,-0.1,0.8,-0.5235987755982988,0.5235987755982988,0,0.11915879,1.6543723,0.08846277,0.43151274,1.0417329,0.0013026636,0.42151204,0.56250405,1.2864401,-0.14435239,0.092675135,-0.22416295,0.63097256,-0.4838062
0.0,-0.1,0.8,-0.5235987755982988,0.5235987755982988,0,0.059406564,1.596955,0.23152907,0.4659556,0.95847094,-0.05304468,0.15622772,0.64723116,1.5245837,-0.1028847,-0.048954006,0.09320457,0.57905954,-0.6455803
0.0,-0.1,0.8,-0.5235987755982988,0.5235987755982988,0,0.16893162,1.663909,0.1401793,0.48844057,0.88430023,-0.07220753,0.41940123,0.63105446,1.4856828,-0.13355574,-0.12676397,0.106128626,0.5554242,-0.37624314
0.0,-0.1,0.8,-0.5235987755982988,0.5235987755982988,0,-0.028247628,1.6806868,0.08523299,0.36131623,0.9631848,0.06664132,0.5997521,0.48600674,1.3697187,-0.1376192,-0.24745905,0.08922621,0.6332326,-0.19008839
0.0,-0.1,0.8,-0.5235987755982988,0.5235987755982988,0,0.352027,1.7325674,0.20746316,0.26396212,0.9036285,-0.07392249,0.4731785,0.48838827,1.3292221,-0.15193321,-0.09798279,-0.14195752,0.51902556,-0.19008024
0.0,-0.1,0.8,-0.5235987755982988,0.5235987755982988,0,-0.06791983,1.7421732,0.13924608,0.3523825,1.0177461,-0.0007469485,0.38887426,0.47248703,1.4031085,-0.15935402,-0.19547558,0.06660361,0.49203935,1.5753224
0.0,-0.1,0.8,-0.5235987755982988,0.5235987755982988,0,0.2368828,1.5981781,0.2104176,0.56466466,0.86079305,-0.057883702,-0.035935186,0.5418036,1.2599529,-0.14748237,-0.08856748,0.1006756,0.6500978,0.15887004
0.0,-0.1,0.8,-0.5235987755982988,0.5235987755982988,0,0.27978703,1.7234396,0.29619816,0.29627636,1.2125984,-0.06629216,0.17358214,0.5539025,1.3701888,-0.13600089,0.08422703,0.062465794,0.40222067,-0.002197853
0.0,-0.1,0.8,-0.5235987755982988,0.5235987755982988,0,0.058669038,1.7263209,0.20792374,0.40853885,0.7104236,0.03439513,0.7690584,0.39262906,1.3311031,-0.1205208,-0.13196756,0.30455533,0.74319977,0.06600985
0.0,-0.1,0.8,-0.5235987755982988,0.5235987755982988,0,-0.059241615,1.632145,0.1160717,0.44278416,0.7956152,0.027990116,0.1689366,0.38056985,1.2861319,-0.009304192,-0.20019221,0.024639681,0.73186624,-0.1373378
0.0,-0.1,0.8,-0.5235987755982988,0.5235987755982988,0,0.3713855,1.6015052,0.22074375,0.5730201,0.93032813,-0.11613257,0.015445356,0.51308215,1.4784443,-0.19135734,-0.19993214,-0.04677886,0.6128379,-0.32220843
0.0,-0.1,0.8,-0.5235987755982988,0.5235987755982988,0,0.038643476,1.7871007,0.14073507,0.492569,1.1449864,-0.14380215,0.45054147,0.4595827,1.4283748,-0.16299245,-0.19873986,-0.12678944,0.5793762,-0.86937094
0.0,-0.1,0.8,-0.5235987755982988,0.5235987755982988,0,0.021387653,1.6373798,0.13506584,0.55396515,1.1344405,-0.087509565,0.18769455,0.46893388,1.3089261,-0.18914269,-0.17317733,0.07020948,0.69522405,1.8322597
0.0,-0.1,0.8,-0.5235987755982988,0.5235987755982988,0,-0.14647192,1.885698,0.16863438,0.4225996,0.95243055,-0.07369692,0.67995083,0.41490203,1.4162453,-0.059973028,-0.09216187,-0.15343997,0.41000268,0.3085192
0.0,-0.1,0.8,-0.5235987755982988,0.5235987755982988,0,0.06616065,1.5313412,0.0594901,0.56384134,0.78671664,-0.051198,0.32016698,0.4508286,1.3829776,-0.18079644,-0.2128625,-0.03465563,0.6772468,1.8642192
0.0,-0.1,0.8,-0.5235987755982988,0.5235987755982988,0,0.036928955,1.6549587,0.069063134,0.6255017,0.8700369,-0.19632602,0.17803206,0.38723704,1.3810364,-0.1366807,-0.1707256,-0.0211244,0.6857004,-0.13302948
0.0,-0.1,0.8,-0.5235987755982988,0.5235987755982988,0,0.0063648536,1.7609059,0.2138583,0.42590496,1.0066625,-0.071817264,0.310101,0.38230902,1.2954816,-0.08739792,-0.013091806,0.25111145,0.52369684,-1.2441784
0.0,-0.1,0.8,-0.5235987755982988,0.5235987755982988,0,0.36941156,1.6079526,0.16757298,0.5824581,1.0701481,0.015399724,-0.12135415,0.42054963,1.3955274,-0.062697254,-0.14515902,0.1570774,0.6025089,-0.5721415
0.0,-0.1,0.8,-0.5235987755982988,0.5235987755982988,0,-0.09527556,1.6259786,0.1835935,0.6202202,1.2092724,-0.08729614,0.17247517,0.44376215,1.4747105,-0.15580687,-0.14507815,0.25559926,0.4780461,-0.80008376
0.0,-0.1,0.8,-0.5235987755982988,0.5235987755982988,0,0.023046143,1.7352219,0.112609714,0.50491375,0.9168831,0.006931307,0.537911,0.4343703,1.3632425,-0.16229567,-0.2020269,0.00641437,0.7281927,1.32385
0.0,-0.1,0.8,-0.5235987755982988,0.5235987755982988,0,0.124150045,1.7903131,0.27696025,0.33381572,0.92355776,-0.039439924,0.33748662,0.45987254,1.371084,-0.15938452,-0.06247519,-0.23373619,0.53056294,1.2838608
0.0,-0.1,0.8,-0.5235987755982988,0.5235987755982988,0,0.15986435,1.6948713,0.21256524,0.59843117,1.0444351,-0.11402184,0.34913003,0.56845206,1.4740593,-0.096708745,0.015238446,0.10463132,0.41403097,0.49275726
0.0,-0.1,0.8,-0.5235987755982988,0.5235987755982988,0,0.11984645,1.6197819,0.18266255,0.53033125,0.99006593,-0.042457577,0.21796122,0.41355357,1.3858687,-0.07368702,-0.1756087,0.15334022,0.73708385,0.80627084
0.0,-0.1,0.8,-0.5235987755982988,0.5235987755982988,0,0.11946149,1.6828072,0.10433262,0.35411802,1.1135255,-0.12448799,0.45665455,0.4606579,1.5763704,-0.1909851,-0.12989871,0.16565433,0.64876896,2.1170914
0.0,-0.1,0.8,-0.5235987755982988,0.5235987755982988,0,-0.041741952,1.6888328,0.1439163,0.47618917,0.89522755,-0.0073246025,0.25806206,0.62118024,1.1968379,-0.10776734,0.029408293,0.15343507,0.5062101,1.7804863
0.0,-0.1,0.8,-0.5235987755982988,0.5235987755982988,0,0.04246689,1.732602,0.20419061,0.28928274,1.0034183,-0.047487732,0.68020105,0.5633559,1.4359992,-0.06492394,-0.015952691,0.21628468,0.6661974,0.0069509344
0.0,-0.1,0.8,-0.5235987755982988,0.5235987755982988,0,0.45357552,1.6386164,0.17541839,0.18578671,0.83663356,0.052470613,0.7161581,0.3959507,1.3669196,-0.24229258,-0.022776194,0.1739017,0.654678,1.0457782
0.0,-0.1,0.8,-0.5235987755982988,0.5235987755982988,0,-0.09680936,1.7163352,0.20343123,0.5508438,0.99680483,-0.09067728,0.25849143,0.4687226,1.2817872,-0.09976525,-0.003259401,0.112561636,0.6880901,-0.5901091
0.0,-0.1,0.8,-0.5235987755982988,0.5235987755982988,0,0.18378298,1.6958644,0.17423742,0.31249946,1.144794,-0.08322585,0.54275656,0.55936754,1.454858,-0.13974147,0.00999199,0.07971238,0.45789015,-0.3437281
0.0,-0.1,0.8,-0.5235987755982988,0.5235987755982988,0,-0.062261686,1.749498,0.17316988,0.49803203,0.9484359,-0.051617116,0.405321,0.37113714,1.3685069,-0.104157105,-0.13985153,0.21263106,0.90870607,0.9112204
0.0,-0.1,0.8,-0.5235987755982988,0.5235987755982988,0,0.5118311,1.7575892,0.21309438,0.39081836,1.2480808,-0.013537946,0.07786988,0.3051726,1.3028202,-0.15276341,0.04465861,0.34352052,0.5893465,1.2315578
0.0,-0.1,0.8,-0.5235987755982988,0.5235987755982988,0,0.11327551,1.7272205,0.25278288,0.552088,0.8895936,0.042503096,0.65873694,0.36719498,1.2779928,-0.20728165,0.06834449,0.20327014,0.7377844,2.697103
0.0,-0.1,0.8,-0.5235987755982988,0.5235987755982988,0,-0.07283672,1.6743282,0.32525048,0.6669843,1.2834038,-0.19012998,0.7674964,0.4003706,1.3863705,-0.14958721,0.0992624,0.10391106,0.5690549,1.2444034
0.0,-0.1,0.8,-0.5235987755982988,0.5235987755982988,0,0.16807301,1.6592565,0.28531453,0.36740622,1.0008218,-0.10089569,0.68257284,0.44274202,1.3655324,-0.07822235,0.15502109,-0.0016814509,0.6319466,0.1934871
0.0,-0.1,0.8,-0.5235987755982988,0.5235987755982988,0,-0.020188808,1.735587,0.2624066,0.51747,0.99691707,0.04523342,0.43924662,0.38945556,1.2556119,-0.05257256,0.23805815,-0.10874965,0.6096646,0.7217494
0.0,-0.1,0.8,-0.5235987755982988,0.5235987755982988,0,-0.010726935,1.6238433,0.21380743,0.63724816,1.0210032,-0.09318236,0.040494878,0.48852327,1.2817141,-0.17990921,-0.107122935,0.25984704,0.8343817,0.24607207
0.0,-0.1,0.8,-0.5235987755982988,0.5235987755982988,0,0.18587689,1.4713709,0.23026136,0.7058247,0.99398834,-0.09798406,0.16502726,0.5064979,1.1318821,-0.25017592,0.11041421,0.092607684,0.62935823,0.78456074
0.0,-0.1,0.8,-0.5235987755982988,0.5235987755982988,0,0.1071673,1.7575077,0.16097966,0.43027654,1.0153526,-0.022852398,0.07908925,0.5231129,1.4052119,-0.0660985,-0.09342768,0.2509001,0.5225988,-0.08665638
0.0,-0.1,0.8,-0.5235987755982988,0.5235987755982988,0,-0.017304266,1.7769709,0.2542071,0.6602809,0.8879535,-0.021602176,0.7164647,0.531276,1.4180133,-0.10967196,-0.060756244,-0.020939572,0.63222986,-0.4758073
0.0,-0.1,0.8,-0.5235987755982988,0.5235987755982988,0,0.37116885,1.7930751,0.14010085,0.44286737,0.83861333,-0.06658922,0.14849462,0.7089992,1.4813623,-0.15091121,-0.13018203,-0.30140048,0.52098745,0.6137938
0.0,-0.1,0.8,-0.5235987755982988,0.5235987755982988,0,0.37444344,1.5715162,0.2616518,0.35058275,1.0234512,-0.047802527,0.8052706,0.40661648,1.3744012,-0.18378823,-0.0396822,0.040925838,0.72337985,1.2793508
0.0,-0.1,0.8,-0.5235987755982988,0.5235987755982988,0,0.1597532,1.6783453,0.22749978,0.51800996,1.1938846,-0.15491404,0.6104465,0.5896696,1.4948355,-0.13149638,-0.11983596,0.17555292,0.60661155,-0.36023796
0.0,-0.1,0.8,-0.5235987755982988,0.5235987755982988,0,0.18987499,1.55173,0.27297547,0.5026351,0.9970862,-0.09514687,0.23440334,0.5462925,1.3815824,-0.119665034,-0.12126157,-0.22180814,0.90421057,-0.70206445
0.0,-0.1,0.8,-0.5235987755982988,0.5235987755982988,0,0.009382496,1.7219363,0.22981654,0.36858934,1.1060883,0.0021961275,0.29242194,0.5467268,1.2984873,-0.11572943,0.07586613,-0.045770403,0.6866866,1.5274043
0.0,-0.1,0.8,-0.5235987755982988,0.5235987755982988,0,0.14382736,1.7843106,0.12460747,0.5114759,1.0712906,-0.06953056,0.046929117,0.38678768,1.4434122,-0.028223995,-0.18098049,-0.086115494,0.5823622,0.77373433
0.0,-0.1,0.8,-0.5235987755982988,0.5235987755982988,0,-0.052849106,1.5446004,0.30024272,0.536082,1.0560405,-0.07465895,0.6411452,0.35306478,1.377446,-0.1418533,-0.026294837,0.35022154,0.57382554,-0.5842626
0.0,-0.1,0.8,-0.5235987755982988,0.5235987755982988,0,0.23423822,1.6773537,0.078213766,0.45519873,0.92409766,0.06489617,0.11789739,0.40040782,1.4946759,-0.12562187,-0.19842987,-0.10386714,0.5248122,0.031305995
0.0,-0.1,0.8,-0.5235987755982988,0.5235987755982988,0,0.14392734,1.6985248,0.1432525,0.5167716,0.927905,-0.099380165,0.55606747,0.5056504,1.2769003,-0.14031972,-0.08774536,0.049710847,0.65383995,0.38767144
0.0,-0.1,0.8,-0.5235987755982988,0.5235987755982988,0,0.3675938,1.5092741,0.0965249,0.6374825,0.97839034,-0.089652084,0.28367597,0.36424676,1.4373345,-0.106773116,-0.10116822,-0.09842774,0.49851868,0.08487736
0.0,-0.1,0.8,-0.5235987755982988,0.5235987755982988,0,0.1924775,1.6052004,0.16573603,0.5117315,1.2549385,-0.13567439,0.7257217,0.5090711,1.3406973,-0.13816337,-0.13206235,0.077468745,0.7820378,0.022729853
0.0,-0.1,0.8,-0.5235987755982988,0.5235987755982988,0,0.17997333,1.6780303,0.15161549,0.531654,1.2097492,0.084165975,0.47676244,0.553011,1.481287,-0.1380845,-0.07687069,0.03350888,0.47922364,0.2331394
0.0,-0.1,0.8,-0.5235987755982988,0.5235987755982988,0,-0.03802889,1.6656536,0.18396576,0.38499558,0.9825953,-0.05255936,0.64382076,0.45449078,1.2545563,-0.09593866,-0.063245595,0.10274211,0.6981506,-0.5966091
0.0,-0.1,0.8,-0.5235987755982988,0.5235987755982988,0,-0.045989122,1.7597351,0.22287035,0.4756665,0.9632627,-0.14806667,0.55575097,0.48203135,1.4417069,-0.13597651,-0.12137675,0.059984077,0.55362386,-0.26663023
0.0,-0.1,0.8,-0.5235987755982988,0.5235987755982988,0,-0.12234703,1.6347181,0.1953936,0.6119908,1.0846441,-0.20518485,-0.026990566,0.38440812,1.3515131,-0.122401066,-0.05038926,-0.028773185,0.49093884,1.0705158
0.0,-0.1,0.8,-0.5235987755982988,0.5235987755982988,0,0.0529395,1.7222185,0.28576472,0.4430384,1.065556,-0.11224826,0.5600768,0.5026213,1.3049823,-0.0469258,-0.0009182596,0.101336546,0.8262682,2.1963694
0.0,-0.1,0.8,-0.5235987755982988,0.5235987755982988,0,-0.057408575,1.642727,0.18254827,0.580518,0.91215384,-0.080579944,0.1972325,0.5283872,1.3809643,-0.045550298,-0.07023553,0.06514457,0.6991422,0.45995235
0.0,-0.1,0.8,-0.5235987755982988,0.5235987755982988,0,0.113209754,1.6195284,0.12961042,0.5638166,1.0408183,-0.107188165,0.5872903,0.378166,1.211904,-0.11355214,-0.07497581,0.17207801,0.59695137,1.7742072
0.0,-0.1,0.8,-0.5235987755982988,0.5235987755982988,0,-0.077012256,1.6414521,0.25553367,0.51005894,1.0422366,0.00386166,0.76450115,0.33930665,1.4980525,-0.07818979,-0.113933265,0.003096509,0.5543139,-1.8762918
0.0,-0.1,0.8,-0.5235987755982988,0.5235987755982988,0,-0.00063715427,1.6090571,0.20740227,0.51438725,1.2022942,-0.097337194,0.59646475,0.6722202,1.2990102,-0.055335157,0.11163788,0.1085734,0.5324589,0.71752673
0.0,-0.1,0.8,-0.5235987755982988,0.5235987755982988,0,0.005962506,1.6482333,0.23752108,0.62549937,1.0110815,-0.07461257,0.5208686,0.4863819,1.3595523,-0.08098081,-0.04030205,0.060606085,0.6264744,1.0851489
0.0,-0.1,0.8,-0.5235987755982988,0.5235987755982988,0,0.24142404,1.6357775,0.26927805,0.3509578,0.99556524,-0.07369634,0.52902585,0.38558394,1.4205698,-0.058629364,-0.039521083,0.20750655,0.6399016,0.91566205
0.0,-0.1,0.8,-0.5235987755982988,0.5235987755982988,0,0.04420973,1.5671271,0.21040702,0.5573238,1.203439,-0.05966528,-0.10361521,0.5810383,1.424216,-0.22552723,-0.10304492,0.10307394,0.7193148,-0.035413887
0.0,-0.1,0.8,-0.5235987755982988,0.5235987755982988,0,0.057558913,1.5522064,0.27006933,0.5296353,1.2824398,-0.069363914,0.01377605,0.34868214,1.3321973,0.0054442757,0.06702115,0.22243533,0.53178275,0.79430383
0.0,-0.1,0.8,-0.5235987755982988,0.5235987755982988,0,0.27917367,1.4588645,0.20856428,0.57662916,1.1216532,-0.09255597,0.7496846,0.43731582,1.4719051,-0.06601364,-0.042952325,0.010783689,0.6312606,-0.29222512
0.0,-0.1,0.8,-0.5235987755982988,0.5235987755982988,0,0.056393415,1.5877818,0.2380539,0.44654346,0.8549112,0.037612017,0.21702518,0.40698513,1.1873739,-0.09352824,0.037492942,0.3333519,0.6729801,0.82086384
0.0,-0.1,0.8,-0.5235987755982988,0.5235987755982988,0,-0.10462282,1.4800385,0.2065306,0.6281768,0.9750178,-0.12660685,0.16872326,0.3765652,1.4854549,-0.18062437,-0.14326178,-0.049641144,0.7292429,-0.39831042
0.0,-0.1,0.8,-0.5235987755982988,0.5235987755982988,0,-0.087534145,1.7134264,0.21511947,0.46000618,1.0995613,-0.069930464,0.18479763,0.45645633,1.310202,-0.083758704,-0.03764942,0.04610382,0.6758236,1.6312373
0.0,-0.1,0.8,-0.5235987755982988,0.5235987755982988,0,0.017432805,1.6565281,0.21049196,0.41976014,1.0681624,0.02696888,0.7353543,0.5530186,1.343334,-0.14180227,0.08727645,0.16628706,0.4424212,0.24719399
0.0,-0.1,0.8,-0.5235987755982988,0.5235987755982988,0,0.20677835,1.6692663,0.2271099,0.36968336,0.7416043,0.029809726,0.9043252,0.5476298,1.4368535,-0.2988635,-0.02852768,0.24834764,0.65138394,0.69279885
0.0,-0.1,0.8,-0.5235987755982988,0.5235987755982988,0,0.07748645,1.7018741,0.14009714,0.5540332,0.86319244,-0.04684356,0.77657336,0.4421175,1.3276912,-0.16951694,-0.11677856,0.22900654,0.80070174,1.1581677
0.0,-0.1,0.8,-0.5235987755982988,0.5235987755982988,0,0.11364024,1.5516049,0.111365944,0.5951502,1.0362834,-0.02696371,0.27217478,0.42731115,1.3972718,-0.097187206,0.0065829293,-0.04104476,0.49493888,0.10947749
0.0,-0.1,0.8,-0.5235987755982988,0.5235987755982988,0,0.040815447,1.668153,0.20185788,0.5507348,0.93900704,-0.13526241,0.74676204,0.43753153,1.3678019,-0.067506894,-0.021746585,-0.030750273,0.6623695,1.6979294
0.0,-0.1,0.8,-0.5235987755982988,0.5235987755982988,0,-0.0573495,1.6595198,0.24696027,0.54433036,1.1418805,-0.08529774,-0.13101336,0.51741886,1.447487,-0.16387992,-0.05289704,0.12931597,0.63478655,0.8317334
0.0,-0.1,0.8,-0.5235987755982988,0.5235987755982988,0,0.28631285,1.8552803,0.32400545,0.3119243,1.1751262,0.04311629,0.535425,0.49504012,1.2991297,-0.229378,-0.028105287,0.1660154,1.0553536,1.1619278
0.0,-0.1,0.8,-0.5235987755982988,0.5235987755982988,0,-0.18895784,1.5511789,0.2554772,0.6824712,1.0409169,-0.089515485,-0.047607325,0.52699,1.4198109,-0.12945473,-0.0032206231,0.1211221,0.6865155,0.7032894
0.0,-0.1,0.8,-0.5235987755982988,0.5235987755982988,0,-0.20800562,1.6648031,0.17590296,0.56624895,0.84177333,0.08276227,0.47927484,0.505773,1.3862225,-0.17575057,-0.011717162,0.16255322,0.7460861,-0.09214113
0.0,-0.1,0.8,-0.5235987755982988,0.5235987755982988,0,0.026884105,1.6414798,0.1612911,0.48068115,0.9563319,0.001077171,0.3526347,0.5738029,1.3574424,-0.11495255,0.14535926,0.18036631,0.28849825,2.03532
0.0,-0.1,0.8,-0.5235987755982988,0.5235987755982988,0,0.2885289,1.6479723,0.21411595,0.66475916,1.0290971,0.032800943,-0.26945087,0.44002873,1.2471917,-0.08692378,0.110144354,-0.024343804,0.62905,0.112734124
0.0,-0.1,0.8,-0.5235987755982988,0.5235987755982988,0,0.20641139,1.6343538,0.26520547,0.5163971,1.0362785,0.019028457,0.39722577,0.53792065,1.4511864,-0.12720124,0.05982502,0.26460573,0.6921652,0.7782658
0.0,-0.1,0.8,-0.5235987755982988,0.5235987755982988,0,-0.040231846,1.6725127,0.23783457,0.57031834,0.97592455,-0.066906944,0.37604898,0.3604131,1.4666561,-0.1537111,0.0051118075,0.13270341,0.7758943,-0.08405873
0.0,-0.1,0.8,-0.5235987755982988,0.5235987755982988,0,0.25078988,1.6877773,0.24379492,0.5777932,0.9038323,-0.023458757,0.3755874,0.4217016,1.350297,-0.08689425,0.10236277,0.10359512,0.7663297,-1.2438669
0.0,-0.1,0.8,-0.5235987755982988,0.5235987755982988,0,0.14726943,1.7286348,0.20981354,0.5490169,0.7031561,-0.030486831,0.5259576,0.40257394,1.5705554,-0.07917735,-0.18097004,0.044468317,0.75192505,1.5945516
0.0,-0.1,0.8,-0.5235987755982988,0.5235987755982988,0,0.28845397,1.800156,0.16498397,0.4605421,0.78694504,0.012030229,0.5315827,0.48918238,1.264626,-0.14724702,0.036251973,0.11792464,0.7671003,0.4116236
0.0,-0.1,0.8,-0.5235987755982988,0.5235987755982988,0,0.30615658,1.6440878,0.231867,0.44763097,1.0505176,0.025052104,0.57802755,0.4595359,1.4516921,-0.13622597,0.010435605,0.13043126,0.45826128,0.33175159
0.0,-0.1,0.8,-0.5235987755982988,0.5235987755982988,0,0.23927681,1.828509,0.37261987,0.4155478,0.7828394,-0.09658459,0.09407767,0.43763408,1.3244413,-0.051413942,0.10962758,-0.04275736,0.6305885,-0.9220187
0.0,-0.1,0.8,-0.5235987755982988,0.5235987755982988,0,0.346494,1.4433485,0.34596735,0.6095061,0.88000983,-0.019907424,-0.3243656,0.5000032,1.4112582,-0.0911351,0.19660674,-0.090922035,0.8171718,-0.09682604
0.0,-0.1,0.8,-0.5235987755982988,0.5235987755982988,0,0.2987987,1.6744326,0.25015846,0.38343954,1.2430108,-0.046008497,0.44617668,0.5071034,1.4313389,-0.069511116,0.014882708,0.020743813,0.6351214,0.029031085
0.0,-0.1,0.8,-0.5235987755982988,0.5235987755982988,0,0.027103223,1.8853716,0.2742609,0.45439437,1.1127464,-0.07001547,0.4091603,0.42796952,1.3384452,-0.073967084,0.015226816,-0.033157744,0.62304455,1.240956
0.0,-0.1,0.8,-0.5235987755982988,0.5235987755982988,0,0.062305998,1.7018018,0.19022998,0.5169579,0.9603629,-0.0034696776,0.2526091,0.4607579,1.4183089,-0.15193439,-0.043958742,-0.02566143,0.47846246,0.77543664
0.0,-0.1,0.8,-0.5235987755982988,0.5235987755982988,0,0.12177862,1.7002808,0.23324378,0.49675545,0.86472505,-0.041846644,1.0365276,0.41300264,1.3583722,-0.17146435,0.004112034,0.0804842,0.5903549,0.096499555
0.0,-0.1,0.8,-0.5235987755982988,0.5235987755982988,0,0.12658504,1.729756,0.25373587,0.45830768,0.8549996,0.040406153,0.738916,0.35940987,1.3460255,-0.15952575,-0.003946832,-0.0012195791,0.6817066,0.24175511
0.0,-0.1,0.8,-0.5235987755982988,0.5235987755982988,0,0.25015295,1.770287,0.31386906,0.5159751,0.98503095,-0.063619964,0.28077734,0.5248968,1.3976996,-0.122837804,0.10543387,0.041057505,0.56989163,0.064157516
0.0,-0.1,0.8,-0.5235987755982988,0.5235987755982988,0,0.3002534,1.756864,0.2025324,0.4832761,0.77722436,-0.015791716,0.97238654,0.5510161,1.3594265,-0.14639708,-0.06643286,0.10065803,0.91370916,-1.4980797
0.0,-0.1,0.8,-0.5235987755982988,0.5235987755982988,0,0.11312292,1.6562924,0.15962248,0.36777654,1.1492425,0.027742747,0.5544537,0.5351554,1.3748547,-0.041682266,0.059637006,0.121298954,0.6791614,-0.17084177
0.0,-0.1,0.8,-0.5235987755982988,0.5235987755982988,0,0.05179355,1.6973172,0.27964705,0.64658093,1.0668659,-0.039116025,0.3633982,0.5527387,1.5606463,-0.14158805,0.0018587392,0.080813766,0.6134852,0.5440176
0.0,-0.1,0.8,-0.5235987755982988,0.5235987755982988,0,0.16469873,1.7036848,0.20234273,0.47785264,0.7855837,-0.16009372,0.6351723,0.5304716,1.4183642,-0.11939899,0.016394155,-0.12911585,0.5838856,-0.77582926
0.0,-0.1,0.8,-0.5235987755982988,0.5235987755982988,0,0.17662716,1.6860886,0.2395526,0.5808572,1.0640118,0.057456423,0.53406435,0.40715143,1.3120664,-0.097146295,0.099284835,-0.06328258,0.77189696,0.2926165
0.0,-0.1,0.8,-0.5235987755982988,0.5235987755982988,0,0.48565435,1.5495517,0.1852619,0.4975883,1.041504,-0.03483227,0.42856127,0.5356131,1.3827068,-0.14892043,0.072089575,-0.21758854,0.74444795,0.5004252
0.0,-0.1,0.8,-0.5235987755982988,0.5235987755982988,0,0.20566164,1.5915903,0.17677082,0.87236357,0.972495,-0.04921901,0.53406906,0.6481803,1.4940655,-0.13342549,-0.106116496,-0.101957284,0.56242967,0.8048066
0.0,-0.1,0.8,-0.5235987755982988,0.5235987755982988,0,0.012559511,1.8345176,0.26715985,0.3956643,0.9967345,-0.10673298,0.42915693,0.5169513,1.3846116,-0.13705955,-0.050229,-0.2597001,0.59765935,1.1084776
0.0,-0.1,0.8,-0.5235987755982988,0.5235987755982988,0,0.3651709,1.6217428,0.2798633,0.33203545,0.9919648,-0.02425899,0.5241287,0.3808302,1.3000327,-0.10171686,-0.006818023,0.12539108,0.64796126,0.8542923
0.0,-0.1,0.8,-0.5235987755982988,0.5235987755982988,0,-0.22785123,1.7069186,0.25781962,0.4905391,1.0337952,0.023602558,0.4471757,0.43353137,1.3822533,-0.16212647,-0.012436956,-0.13171475,0.6376544,0.13299625
0.0,-0.1,0.8,-0.5235987755982988,0.5235987755982988,0,0.06987071,1.6630398,0.12197077,0.7391917,1.022695,-0.033170752,0.24135438,0.45208523,1.3691908,-0.09978273,-0.028707212,0.21889704,0.74166596,0.084180035
0.0,-0.1,0.8,-0.5235987755982988,0.5235987755982988,0,0.1593406,1.470889,0.1857519,0.35528246,0.93784076,-0.104234576,0.033894815,0.5134687,1.3944645,-0.14926937,0.034211595,-0.0033225568,0.66650313,1.8588599
0.0,-0.1,0.8,-0.5235987755982988,0.5235987755982988,0,0.30327868,1.7788484,0.32903042,0.4936244,1.1212361,-0.11412131,0.32499897,0.37183598,1.3726153,-0.039827056,0.041678693,0.10265878,0.7480343,0.43663222
0.0,-0.1,0.8,-0.5235987755982988,0.5235987755982988,0,0.2040262,1.86068,0.35974362,0.503589,1.0881628,-0.12594576,-0.12937804,0.306028,1.4864744,-0.01490921,0.0534367,-0.0014025221,0.6508665,1.1632229
0.0,-0.1,0.8,-0.5235987755982988,0.5235987755982988,0,0.16073836,1.6953739,0.080983646,0.59706974,0.862138,-0.057378467,0.5528183,0.38823974,1.29629,-0.06571033,0.03608171,0.04169699,0.6336626,1.2034559
0.0,-0.1,0.8,-0.5235987755982988,0.5235987755982988,0,0.06843499,1.5420094,0.30711037,0.5272895,1.0398803,-0.0561816,0.43447694,0.4411755,1.245695,-0.043073595,0.13865319,0.3220779,0.8636634,0.57167745
0.0,-0.1,0.8,-0.5235987755982988,0.5235987755982988,0,0.28986466,1.7726015,0.23324107,0.4688185,0.7838711,0.038621996,0.6400324,0.39421436,1.3562553,-0.07968604,-0.0049072667,0.09110762,0.62494874,1.3238783
0.0,-0.1,0.8,-0.5235987755982988,0.5235987755982988,0,-0.18754512,1.6603413,0.43865398,0.5353787,0.9308171,-0.10919653,0.2095632,0.51411074,1.4256057,-0.05909592,0.15813278,-0.06357742,0.72192454,0.036250807
0.0,-0.1,0.8,-0.5235987755982988,0.5235987755982988,0,-0.02320142,1.6136174,0.2046089,0.51159424,0.91452795,-0.0885933,0.034905445,0.5125301,1.4696033,-0.09686333,-0.20163281,-0.2395279,0.7866979,0.18647783
0.0,-0.1,0.8,-0.5235987755982988,0.5235987755982988,0,0.18605277,1.5938126,0.2565075,0.5625509,1.0008616,-0.11775108,0.7141753,0.46277717,1.3965753,-0.119497664,0.024033805,0.2740137,0.6619873,1.1834121
0.0,-0.1,0.8,-0.5235987755982988,0.5235987755982988,0,-0.031941324,1.5825521,0.18899575,0.46400943,1.477388,0.0144966785,0.09070581,0.5407023,1.3448207,-0.10771432,0.020353513,0.033829756,0.570019,0.8861192
0.0,-0.1,0.8,-0.5235987755982988,0.5235987755982988,0,0.31940606,1.6423384,0.13032047,0.5557018,1.3836242,-0.037424114,0.26168355,0.5551516,1.4394584,-0.14878199,-0.07771775,-0.038361568,0.58254313,0.8324536
0.0,-0.1,0.8,-0.5235987755982988,0.5235987755982988,0,0.21834037,1.9044995,0.14096627,0.43400878,0.8275368,0.04754663,0.5771822,0.67875654,1.2435213,-0.16671804,0.03490704,-0.1285882,0.6049562,-0.14485663
0.0,-0.1,0.8,-0.5235987755982988,0.5235987755982988,0,0.05553704,1.7987608,0.2607021,0.53745145,1.0014572,-0.10987263,0.1377791,0.48074377,1.2623887,-0.18054216,-0.0702492,-0.2051602,0.92103654,-0.13118689
0.0,-0.1,0.8,-0.5235987755982988,0.5235987755982988,0,0.071760446,1.5990312,0.19118741,0.5051745,1.0696188,-0.06859013,0.66787004,0.44586793,1.411583,-0.10615683,0.013339812,-0.090466656,0.4150256,1.72546
0.0,-0.1,0.8,-0.5235987755982988,0.5235987755982988,0,-0.09785584,1.7012373,0.11410765,0.40193766,0.97454756,-0.14219685,-0.07162271,0.42959994,1.4102566,-0.08295241,-0.27827126,0.028738532,0.5012548,-0.51467305
0.0,-0.1,0.8,-0.5235987755982988,0.5235987755982988,0,0.28036043,1.6802553,0.23261064,0.4512383,0.9568576,0.017353885,0.24247427,0.5116925,1.4102932,-0.10959286,-0.018481435,0.19414644,0.56599873,0.5397762
0.0,-0.1,0.8,-0.5235987755982988,0.5235987755982988,0,0.08009371,1.4743905,0.19802852,0.598158,1.1181175,-0.088716604,0.7143517,0.5237219,1.4849566,-0.18301423,-0.09146956,0.06381987,0.6479693,-0.2910019
0.0,-0.1,0.8,-0.5235987755982988,0.5235987755982988,0,0.098526955,1.7808567,0.207727,0.5701082,1.1541123,-0.06395043,0.5304691,0.4723215,1.3905934,-0.10266681,-0.07474753,-0.19067533,0.7562568,1.0198905
0.0,-0.1,0.8,-0.5235987755982988,0.5235987755982988,0,-0.022734275,1.7031611,0.1957529,0.40559694,0.95966697,-0.0069067404,0.83809453,0.5941494,1.4417626,-0.100344,-0.017964842,0.17680676,0.57074505,0.79513294
0.0,-0.1,0.8,-0.5235987755982988,0.5235987755982988,0,0.30123514,1.7756803,0.1345547,0.6997348,0.9053945,-0.027966334,0.2557206,0.41480827,1.3450452,-0.10351656,0.007186096,0.14125428,0.5135796,-0.5844658
0.0,-0.1,0.8,-0.5235987755982988,0.5235987755982988,0,0.3677224,1.5121362,0.2461652,0.491493,1.0042889,-0.08842524,0.31455916,0.4725775,1.2646078,-0.13623767,-0.03407076,0.11397107,0.6576403,0.039972812
0.0,-0.1,0.8,-0.5235987755982988,0.5235987755982988,0,0.17958997,1.6070768,0.2675196,0.39030206,0.99259275,-0.01825288,0.29669967,0.37094328,1.4481015,-0.03333141,-0.14413086,0.08071594,0.6754393,1.4832544
0.0,-0.1,0.8,-0.5235987755982988,0.5235987755982988,0,-0.11246661,1.614667,0.18433785,0.49541998,0.90972936,0.03490543,0.8990696,0.41968864,1.3528942,-0.028855031,-0.17722496,-0.12211384,0.80122894,1.8911499
0.0,-0.1,0.8,-0.5235987755982988,0.5235987755982988,0,0.1945595,1.4699246,0.13672215,0.6450097,1.2603403,-0.010577167,0.6824696,0.4122917,1.264817,-0.07050478,-0.11826192,-0.17929812,0.6719647,0.6297817
0.0,-0.1,0.8,-0.5235987755982988,0.5235987755982988,0,-0.07247956,1.5754014,0.22945103,0.6144643,1.2885797,-0.09189622,0.6856185,0.4960896,1.4255506,-0.14715034,-0.15655386,-0.16507582,0.65300435,0.19653729
0.0,-0.1,0.8,-0.5235987755982988,0.5235987755982988,0,0.50245047,1.5087913,0.2655195,0.5458889,1.0687693,-0.06425817,0.2795111,0.43818653,1.4093102,-0.12731707,-0.04827204,0.17019752,0.6921642,1.3857824
0.0,-0.1,0.8,-0.5235987755982988,0.5235987755982988,0,0.4320153,1.6855888,0.17985806,0.4620742,1.0901976,0.002130594,0.44877282,0.5214951,1.3316733,-0.127512,-0.015096042,-0.083702,0.5937237,0.8708477
0.0,-0.1,0.8,-0.5235987755982988,0.5235987755982988,0,-0.12659742,1.7471435,0.15391403,0.47483817,0.94699824,0.023958804,0.83487797,0.51541424,1.4020923,-0.073499866,0.06821532,-0.13469385,0.69727844,1.2349572
0.0,-0.1,0.8,-0.5235987755982988,0.5235987755982988,0,0.120548196,1.6611176,0.22015469,0.48666924,0.96819633,-0.11395897,0.752738,0.6490633,1.3844603,-0.080255866,-0.009863341,0.08763665,0.8498721,0.2118021
0.0,-0.1,0.8,-0.5235987755982988,0.5235987755982988,0,-0.040891837,1.6629782,0.264138,0.42494696,0.96619767,-0.099977,0.36980852,0.48390204,1.3995842,-0.111213885,-0.12888557,-0.15654401,0.58819085,-0.049977746
0.0,-0.1,0.8,-0.5235987755982988,0.5235987755982988,0,-0.093675524,1.621019,0.20909066,0.6074542,1.0436343,-0.025853015,0.20854577,0.50407344,1.380076,-0.16074085,-0.08082873,-0.08897176,0.5166939,0.5892024
0.0,-0.1,0.8,-0.5235987755982988,0.5235987755982988,0,0.19137907,1.6252061,0.21123368,0.5031569,0.86436564,-0.025117943,0.41359302,0.4095395,1.4008913,-0.021305535,-0.0015387007,0.0866926,0.62413204,-0.13983908
0.0,-0.1,0.8,-0.5235987755982988,0.5235987755982988,0,0.16807915,1.6838396,0.25344124,0.45366007,1.2626735,-0.062126946,0.14843078,0.52008307,1.2637733,-0.14323448,0.056778233,-0.08468111,0.6218986,-0.36763015
0.0,-0.1,0.8,-0.5235987755982988,0.5235987755982988,0,0.20800647,1.9032391,0.296436,0.30971363,0.9806833,-0.048701096,0.53972703,0.46950662,1.3711098,-0.12533052,0.011195326,0.011828785,0.6070379,-0.36967325
0.0,-0.1,0.8,-0.5235987755982988,0.5235987755982988,0,0.3031726,1.7806649,0.19402932,0.41125628,1.1071854,-0.048136298,0.535624,0.5618573,1.3396863,-0.1615115,0.010604303,0.06739483,0.43078396,-0.6614204
0.0,-0.1,0.8,-0.5235987755982988,0.5235987755982988,0,0.13465267,1.5842221,0.28351915,0.49422207,1.016962,-0.012177044,0.4445016,0.44204527,1.4039307,-0.14218102,-0.03674724,0.06162801,0.62260985,0.76151866
0.0,-0.1,0.8,-0.5235987755982988,0.5235987755982988,0,0.19641174,1.6269352,0.31719434,0.50434583,1.0434376,-0.13276625,0.24761176,0.41712603,1.4495908,-0.09569046,-0.054242633,0.14886111,0.61205775,0.7187349
0.0,-0.1,0.8,-0.5235987755982988,0.5235987755982988,0,0.1834032,1.7135231,0.21453817,0.53070575,0.77498436,-0.08850093,0.62755406,0.48779732,1.3334223,0.049091663,0.035410963,-0.2610222,0.8558504,0.6106182
0.0,-0.1,0.8,-0.5235987755982988,0.5235987755982988,0,-0.05586886,1.6967024,0.20445125,0.41715965,1.0260053,-0.09543113,0.50933975,0.51966465,1.3711592,-0.14221549,-0.13294686,-0.03157595,0.6678016,0.56786823
0.0,-0.1,0.8,-0.5235987755982988,0.5235987755982988,0,0.2323531,1.7161973,0.28883532,0.5867147,0.9944386,-0.08098238,0.40068358,0.505132,1.310748,-0.19816464,0.070113674,-0.17723443,0.50556624,0.15966214
0.0,-0.1,0.8,-0.5235987755982988,0.5235987755982988,0,0.25532395,1.6186286,0.18457823,0.56113935,1.1164976,-0.009913667,0.375504,0.51063955,1.3471013,-0.13151586,-0.032303937,0.101468526,0.6450664,0.5398144
0.0,-0.1,0.8,-0.5235987755982988,0.5235987755982988,0,-0.35391128,1.7518243,0.24126253,0.56100917,0.75504935,0.011580446,0.030000744,0.45255455,1.3101171,-0.14496832,-0.01450762,0.32032025,0.6799742,1.5910658
0.0,-0.1,0.8,-0.5235987755982988,0.5235987755982988,0,0.28607905,1.569131,0.18796925,0.581506,0.9643252,-0.032564398,0.574361,0.44125032,1.2632877,-0.15373823,-0.045526814,0.12123402,0.73617387,0.9942851
0.0,-0.1,0.8,-0.5235987755982988,0.5235987755982988,0,0.28204605,1.6497741,0.24375829,0.7723703,1.0374974,-0.043366548,0.45642582,0.6496267,1.45919,-0.13687436,0.097754054,0.22052486,0.5302775,1.0446291
0.0,-0.1,0.8,-0.5235987755982988,0.5235987755982988,0,0.2102768,1.6468132,0.24878207,0.45340145,1.1679053,-0.05589262,0.37904432,0.6263315,1.4956673,-0.2041761,0.006890529,0.10891308,0.738424,0.19366115
0.0,-0.1,0.8,-0.5235987755982988,0.5235987755982988,0,0.16596836,1.600452,0.17633264,0.59702903,0.96776927,0.030385554,0.23581938,0.4579819,1.4064829,-0.09898542,-0.111229666,-0.1788111,0.6721179,0.58465177
0.0,-0.1,0.8,-0.5235987755982988,0.5235987755982988,0,-0.004986292,1.4690596,0.199128,0.66776234,0.87563705,-0.122480065,0.28619286,0.4697691,1.3867996,-0.13765779,-0.13833544,0.02006157,0.661342,-0.29250813
0.0,-0.1,0.8,-0.5235987755982988,0.5235987755982988,0,0.062479977,1.6388346,0.25738832,0.6659399,1.1268991,-0.03260055,0.58294713,0.37029234,1.2201289,-0.1262951,0.04860099,0.07464042,0.75514567,-0.16942038
0.0,-0.1,0.8,-0.5235987755982988,0.5235987755982988,0,-0.19369654,1.7211863,0.1902465,0.55890363,1.1924324,0.004072607,0.30927244,0.57659984,1.365689,-0.17257227,-0.01875946,0.12050968,0.7210171,2.3265247
0.0,-0.1,0.8,-0.5235987755982988,0.5235987755982988,0,0.22498418,1.4841144,0.20122078,0.5558045,1.0968373,0.0012659125,0.51926124,0.56416905,1.3844213,-0.08358326,0.058344398,-0.054054126,0.73875844,-0.9638421
0.0,-0.1,0.8,-0.5235987755982988,0.5235987755982988,0,-0.0025574642,1.6935811,0.19067417,0.62995565,1.1835613,0.034958154,0.5832614,0.4507545,1.324833,-0.07828834,0.023070704,0.15684713,0.7781968,0.8267489
0.0,-0.1,0.8,-0.5235987755982988,0.5235987755982988,0,-0.065765,1.5743806,0.29954985,0.50526184,0.8842178,-0.08213877,0.815286,0.6148058,1.4373889,-0.10457669,0.041146945,-0.2113128,0.7909311,1.539545
0.0,-0.1,0.8,-0.5235987755982988,0.5235987755982988,0,-0.065765,1.5743806,0.29954985,0.50526184,0.8842178,-0.08213877,0.815286,0.6148058,1.4373889,-0.10457669,0.041146945,-0.2113128,0.7909311,1.539545
0.0,-0.1,0.8,-0.5235987755982988,0.5235987755982988,0,-0.065765,1.5743806,0.29954985,0.50526184,0.8842178,-0.08213877,0.815286,0.6148058,1.4373889,-0.10457669,0.041146945,-0.2113128,0.7909311,1.539545
0.0,-0.1,0.8,-0.5235987755982988,0.5235987755982988,0,-0.065765,1.5743806,0.29954985,0.50526184,0.8842178,-0.08213877,0.815286,0.6148058,1.4373889,-0.10457669,0.041146945,-0.2113128,0.7909311,1.539545
0.0,-0.1,0.8,-0.5235987755982988,0.5235987755982988,0,-0.065765,1.5743806,0.29954985,0.50526184,0.8842178,-0.08213877,0.815286,0.6148058,1.4373889,-0.10457669,0.041146945,-0.2113128,0.7909311,1.539545
0.0,-0.1,0.8,-0.5235987755982988,0.5235987755982988,0,-0.065765,1.5743806,0.29954985,0.50526184,0.8842178,-0.08213877,0.815286,0.6148058,1.4373889,-0.10457669,0.041146945,-0.2113128,0.7909311,1.539545
0.0,-0.1,0.8,-0.5235987755982988,0.5235987755982988,0,-0.065765,1.5743806,0.29954985,0.50526184,0.8842178,-0.08213877,0.815286,0.6148058,1.4373889,-0.10457669,0.041146945,-0.2113128,0.7909311,1.539545
0.0,-0.1,0.8,-0.5235987755982988,0.5235987755982988,0,-0.065765,1.5743806,0.29954985,0.50526184,0.8842178,-0.08213877,0.815286,0.6148058,1.4373889,-0.10457669,0.041146945,-0.2113128,0.7909311,1.539545
0.0,-0.1,0.8,-0.5235987755982988,0.5235987755982988,0,-0.065765,1.5743806,0.29954985,0.50526184,0.8842178,-0.08213877,0.815286,0.6148058,1.4373889,-0.10457669,0.041146945,-0.2113128,0.7909311,1.539545
0.0,-0.1,0.8,-0.5235987755982988,0.5235987755982988,0,0.27010748,1.75165,0.20937714,0.9028681,1.0282955,0.04678111,0.047374412,0.32896265,1.3850943,-0.2568286,0.18000892,0.1598939,0.5145391,-0.40947112
0.0,-0.1,0.8,-0.5235987755982988,0.5235987755982988,0,0.27010748,1.75165,0.20937714,0.9028681,1.0282955,0.04678111,0.047374412,0.32896265,1.3850943,-0.2568286,0.18000892,0.1598939,0.5145391,-0.40947112
0.0,-0.1,0.8,-0.5235987755982988,0.5235987755982988,0,0.27010748,1.75165,0.20937714,0.9028681,1.0282955,0.04678111,0.047374412,0.32896265,1.3850943,-0.2568286,0.18000892,0.1598939,0.5145391,-0.40947112
0.0,-0.1,0.8,-0.5235987755982988,0.5235987755982988,0,0.27010748,1.75165,0.20937714,0.9028681,1.0282955,0.04678111,0.047374412,0.32896265,1.3850943,-0.2568286,0.18000892,0.1598939,0.5145391,-0.40947112
0.0,-0.1,0.8,-0.5235987755982988,0.5235987755982988,0,0.27010748,1.75165,0.20937714,0.9028681,1.0282955,0.04678111,0.047374412,0.32896265,1.3850943,-0.2568286,0.18000892,0.1598939,0.5145391,-0.40947112
0.0,-0.1,0.8,-0.5235987755982988,0.5235987755982988,0,0.27010748,1.75165,0.20937714,0.9028681,1.0282955,0.04678111,0.047374412,0.32896265,1.3850943,-0.2568286,0.18000892,0.1598939,0.5145391,-0.40947112
0.0,-0.1,0.8,-0.5235987755982988,0.5235987755982988,0,0.27010748,1.75165,0.20937714,0.9028681,1.0282955,0.04678111,0.047374412,0.32896265,1.3850943,-0.2568286,0.18000892,0.1598939,0.5145391,-0.40947112
0.0,-0.1,0.8,-0.5235987755982988,0.5235987755982988,0,0.27010748,1.75165,0.20937714,0.9028681,1.0282955,0.04678111,0.047374412,0.32896265,1.3850943,-0.2568286,0.18000892,0.1598939,0.5145391,-0.40947112
0.0,-0.1,0.8,-0.5235987755982988,0.5235987755982988,0,0.27010748,1.75165,0.20937714,0.9028681,1.0282955,0.04678111,0.047374412,0.32896265,1.3850943,-0.2568286,0.18000892,0.1598939,0.5145391,-0.40947112
0.0,-0.1,0.8,-0.5235987755982988,0.5235987755982988,0,0.27010748,1.75165,0.20937714,0.9028681,1.0282955,0.04678111,0.047374412,0.32896265,1.3850943,-0.2568286,0.18000892,0.1598939,0.5145391,-0.40947112
0.0,-0.1,0.8,-0.5235987755982988,0.5235987755982988,0,0.27010748,1.75165,0.20937714,0.9028681,1.0282955,0.04678111,0.047374412,0.32896265,1.3850943,-0.2568286,0.18000892,0.1598939,0.5145391,-0.40947112
0.0,-0.1,0.8,-0.5235987755982988,0.5235987755982988,0,0.27010748,1.75165,0.20937714,0.9028681,1.0282955,0.04678111,0.047374412,0.32896265,1.3850943,-0.2568286,0.18000892,0.1598939,0.5145391,-0.40947112
0.0,-0.1,0.8,-0.5235987755982988,0.5235987755982988,0,0.24208207,1.788559,0.18214406,0.81926715,0.8438552,0.009900911,0.5510184,0.466351,1.4750469,-0.082715906,-0.029903557,0.06632928,0.54221755,1.1127691
0.0,-0.1,0.8,-0.5235987755982988,0.5235987755982988,0,0.24208207,1.788559,0.18214406,0.81926715,0.8438552,0.009900911,0.5510184,0.466351,1.4750469,-0.082715906,-0.029903557,0.06632928,0.54221755,1.1127691
0.0,-0.1,0.8,-0.5235987755982988,0.5235987755982988,0,0.24208207,1.788559,0.18214406,0.81926715,0.8438552,0.009900911,0.5510184,0.466351,1.4750469,-0.082715906,-0.029903557,0.06632928,0.54221755,1.1127691
0.0,-0.1,0.8,-0.5235987755982988,0.5235987755982988,0,0.24208207,1.788559,0.18214406,0.81926715,0.8438552,0.009900911,0.5510184,0.466351,1.4750469,-0.082715906,-0.029903557,0.06632928,0.54221755,1.1127691
0.0,-0.1,0.8,-0.5235987755982988,0.5235987755982988,0,0.24208207,1.788559,0.18214406,0.81926715,0.8438552,0.009900911,0.5510184,0.466351,1.4750469,-0.082715906,-0.029903557,0.06632928,0.54221755,1.1127691
0.0,-0.1,0.8,-0.5235987755982988,0.5235987755982988,0,0.24208207,1.788559,0.18214406,0.81926715,0.8438552,0.009900911,0.5510184,0.466351,1.4750469,-0.082715906,-0.029903557,0.06632928,0.54221755,1.1127691
0.0,-0.1,0.8,-0.5235987755982988,0.5235987755982988,0,0.24208207,1.788559,0.18214406,0.81926715,0.8438552,0.009900911,0.5510184,0.466351,1.4750469,-0.082715906,-0.029903557,0.06632928,0.54221755,1.1127691
0.0,-0.1,0.8,-0.5235987755982988,0.5235987755982988,0,0.24208207,1.788559,0.18214406,0.81926715,0.8438552,0.009900911,0.5510184,0.466351,1.4750469,-0.082715906,-0.029903557,0.06632928,0.54221755,1.1127691
0.0,-0.1,0.8,-0.5235987755982988,0.5235987755982988,0,0.24208207,1.788559,0.18214406,0.81926715,0.8438552,0.009900911,0.5510184,0.466351,1.4750469,-0.082715906,-0.029903557,0.06632928,0.54221755,1.1127691
0.0,-0.1,0.8,-0.5235987755982988,0.5235987755982988,0,0.24208207,1.788559,0.18214406,0.81926715,0.8438552,0.009900911,0.5510184,0.466351,1.4750469,-0.082715906,-0.029903557,0.06632928,0.54221755,1.1127691
0.0,-0.1,0.8,-0.5235987755982988,0.5235987755982988,0,0.27657244,1.3910377,0.0024981294,0.66381866,0.58824843,0.005626982,0.11494465,0.47324076,1.5048219,0.06154157,-0.10129366,-0.06032694,0.67783403,0.967448
