sanky1234/BimanualDexCatch/isaacgymenvs/cem_results/May31/football_pose_0.0_-0.1_1.2999999999999998_-0.5235987755982988_0.5235987755982988_0_2025-05-31.csv
x,y,z,roll,pitch,yaw,robot1/joint1,robot1/joint2,robot1/joint3,robot1/joint4,robot1/joint5,robot1/joint6,robot1/joint7,robot2/joint1,robot2/joint2,robot2/joint3,robot2/joint4,robot2/joint5,robot2/joint6,robot2/joint7
0.0,-0.1,1.2999999999999998,-0.5235987755982988,0.5235987755982988,0,-0.870957,-1.1395245,-1.1209537,-0.33234882,0.18732965,0.7029748,-0.12753269,-0.09450373,-1.0012941,0.49653086,-0.5863691,-0.31176466,0.5383649,-0.491406
0.0,-0.1,1.2999999999999998,-0.5235987755982988,0.5235987755982988,0,-0.74855095,-1.0014385,-1.2706732,-0.42090356,0.2404537,0.9024057,-0.21231523,-0.3536096,-1.0347949,0.37840724,-0.7714076,-1.4646155,0.6832051,-0.51397413
0.0,-0.1,1.2999999999999998,-0.5235987755982988,0.5235987755982988,0,-0.8492016,-0.93095183,-1.367451,-0.34915814,0.018109243,0.72669107,-0.6222255,-0.2883546,-1.0520862,0.084364116,-0.3874446,-0.89971566,-0.28964907,-0.56822664
0.0,-0.1,1.2999999999999998,-0.5235987755982988,0.5235987755982988,0,-0.8962521,-1.1672632,-1.0723487,-0.29652014,-0.002401125,0.9965762,-0.49227282,-0.336654,-1.0653715,0.9392039,-0.9880664,-0.7297419,0.8614474,-0.55584025
0.0,-0.1,1.2999999999999998,-0.5235987755982988,0.5235987755982988,0,-0.8967945,-1.0695636,-1.2830485,-0.43303785,0.4177612,1.2650851,-0.58939725,-0.39509538,-1.0630322,0.35509723,-0.88834816,-0.12154731,-0.04296108,-0.49082696
0.0,-0.1,1.2999999999999998,-0.5235987755982988,0.5235987755982988,0,-0.6913547,-1.0906878,-1.4359279,-0.3577877,-0.2923288,0.8857498,-0.7677541,-0.529668,-0.8533443,0.28487518,-0.8493578,-1.1423614,0.70344377,-0.418658
0.0,-0.1,1.2999999999999998,-0.5235987755982988,0.5235987755982988,0,-0.9423819,-1.371865,-1.1409255,-0.24388091,0.64516336,0.47364315,-0.20154218,-0.55281955,-1.158273,0.2361721,-0.92095435,-0.7970251,1.4307439,-0.58413154
0.0,-0.1,1.2999999999999998,-0.5235987755982988,0.5235987755982988,0,-0.84194446,-1.1342072,-1.1196222,-0.17460828,0.1494114,1.0220225,-0.36438894,-0.23480141,-0.99072546,-0.1803653,-0.60086966,-0.54011303,0.4627228,-0.35262024
0.0,-0.1,1.2999999999999998,-0.5235987755982988,0.5235987755982988,0,-0.92096466,-1.2132125,-1.0879141,-0.32254854,0.058405664,0.7912245,-0.025032826,-0.16808935,-0.84827363,0.26880124,-1.0481833,-0.014444758,0.14935696,-0.77657884
0.0,-0.1,1.2999999999999998,-0.5235987755982988,0.5235987755982988,0,-0.855427,-0.9831541,-1.3505797,0.03905792,0.11907403,0.9523724,-0.6761872,-0.47806522,-0.88342875,-0.26362363,-0.909836,-1.4680793,0.68302685,-0.46943036
0.0,-0.1,1.2999999999999998,-0.5235987755982988,0.5235987755982988,0,-0.8635665,-1.2189665,-1.1776047,-0.16331573,0.38677725,0.6321738,-0.28092065,-0.20209427,-0.9603113,0.17896594,-0.6600711,-0.48832142,0.3333133,-0.38186735
0.0,-0.1,1.2999999999999998,-0.5235987755982988,0.5235987755982988,0,-0.81892526,-1.1356497,-1.2687982,-0.4772853,0.27382007,0.8619662,-0.5585477,-0.29966787,-1.0377423,0.6038685,-0.15470152,-0.41940102,0.4950522,-0.505645
0.0,-0.1,1.2999999999999998,-0.5235987755982988,0.5235987755982988,0,-0.8330684,-1.2041721,-1.0579149,-0.54468465,-0.085590735,0.6621962,-0.302271,-0.31470242,-0.9261341,-0.0911804,-0.6034264,0.7141596,0.7914467,-0.5482402
0.0,-0.1,1.2999999999999998,-0.5235987755982988,0.5235987755982988,0,-0.9542559,-1.1218486,-1.2280152,-0.4067791,0.32210445,0.8091582,-0.71493053,-0.28877637,-1.0933249,0.71596295,-0.48620757,-1.2596573,-0.12620306,-0.4305353
0.0,-0.1,1.2999999999999998,-0.5235987755982988,0.5235987755982988,0,-0.93041,-1.1635983,-1.16002,-0.30017537,-0.10951597,0.709045,-0.24727453,-0.6056044,-1.0858208,-0.13904156,-0.74215496,-0.47482407,0.18634428,-0.43648848
0.0,-0.1,1.2999999999999998,-0.5235987755982988,0.5235987755982988,0,-0.95937777,-1.36006,-1.1108971,-0.36277965,0.52241397,0.88827604,-0.4460315,-0.17153075,-1.044475,0.2469124,-0.29221135,-0.762778,0.23969784,-0.54603475
0.0,-0.1,1.2999999999999998,-0.5235987755982988,0.5235987755982988,0,-0.8975603,-1.1535767,-1.4458151,-0.56418324,-0.014362825,0.52373,-0.39009288,-0.3625348,-1.0620111,0.49884215,-0.54901206,-1.102785,1.128058,-0.5174112
0.0,-0.1,1.2999999999999998,-0.5235987755982988,0.5235987755982988,0,-0.61496955,-0.9915683,-1.5088702,-0.41842383,0.33604172,0.56254435,-0.37008542,-0.2661606,-0.8972492,0.2969608,-0.64865226,-0.2900993,0.27993733,-0.42565104
0.0,-0.1,1.2999999999999998,-0.5235987755982988,0.5235987755982988,0,-0.8388864,-1.1917228,-1.1909791,-0.34731796,-0.2625306,0.8477563,-0.65097076,-0.47676107,-1.1237589,0.32123056,-0.7818601,-0.57778764,-0.17279007,-0.46309614
0.0,-0.1,1.2999999999999998,-0.5235987755982988,0.5235987755982988,0,-0.8807827,-1.2802883,-1.2572424,-0.41570824,0.25553334,0.5362533,-0.050523523,-0.22257456,-0.7152722,0.40671894,-0.9230854,-0.62124556,0.93558687,-0.50789934
0.0,-0.1,1.2999999999999998,-0.5235987755982988,0.5235987755982988,0,-0.95967346,-1.2337393,-1.19359,-0.51253164,-0.09564428,0.47156674,-0.23617809,-0.19701722,-1.0295004,0.5822991,-0.6192147,-1.2267009,0.22267762,-0.46407843
0.0,-0.1,1.2999999999999998,-0.5235987755982988,0.5235987755982988,0,-0.77027774,-1.2734871,-1.0561839,-0.34399727,-0.22363073,0.64806724,-0.47767076,-0.40681365,-1.2071602,0.3519317,-0.5936132,-0.42642462,0.7674414,-0.48888436
0.0,-0.1,1.2999999999999998,-0.5235987755982988,0.5235987755982988,0,-0.9404782,-1.0935202,-1.149223,-0.22276872,-0.34497958,0.8017212,-0.60543543,-0.23199019,-1.0102661,0.13789402,-0.38989112,-0.6473357,-0.17147936,-0.8301309
0.0,-0.1,1.2999999999999998,-0.5235987755982988,0.5235987755982988,0,-0.77421576,-0.9784269,-1.3814133,-0.5309203,-0.011156906,0.8724126,-0.63134426,-0.35832646,-0.961241,0.1391893,-0.62346935,-0.65000093,0.7907397,-0.63107544
0.0,-0.1,1.2999999999999998,-0.5235987755982988,0.5235987755982988,0,-0.77714777,-1.0082468,-1.3269312,-0.1389449,-0.18210185,0.92573464,-1.1604506,-0.23961191,-1.0041187,0.26142657,-0.3592728,0.17937484,0.91127294,-0.40072978
0.0,-0.1,1.2999999999999998,-0.5235987755982988,0.5235987755982988,0,-0.96678966,-0.99612063,-1.2511728,-0.36387396,0.16179813,1.2020831,-0.24711436,-0.45027685,-1.086678,0.23266597,-0.43171874,-0.59514254,0.4416015,-0.6176588
0.0,-0.1,1.2999999999999998,-0.5235987755982988,0.5235987755982988,0,-0.93508506,-1.1274586,-1.1506743,-0.106503405,-0.38253108,0.6904002,-0.41167715,-0.21826139,-0.99988055,1.0676044,-0.8615869,-0.88492197,1.18722,-0.49119356
0.0,-0.1,1.2999999999999998,-0.5235987755982988,0.5235987755982988,0,-1.0425903,-1.2758445,-1.0762016,-0.34253272,-0.4062837,0.7397984,-0.67590934,-0.32852092,-0.9441766,0.2859867,-0.82162654,-0.4706832,1.0910063,-0.73286116
0.0,-0.1,1.2999999999999998,-0.5235987755982988,0.5235987755982988,0,-0.715752,-0.9588801,-1.4178358,-0.45721167,0.013935566,1.003109,-0.21227548,-0.13011532,-0.8401728,0.28974444,-0.8152417,-0.7360991,0.060079157,-0.46426553
0.0,-0.1,1.2999999999999998,-0.5235987755982988,0.5235987755982988,0,-0.8943206,-1.0479892,-1.273578,-0.17025514,-0.194633,0.8108557,-0.21686558,-0.3415909,-0.92711586,0.4897498,-0.6978743,-0.57698005,0.6062035,-0.5821601
0.0,-0.1,1.2999999999999998,-0.5235987755982988,0.5235987755982988,0,-0.71805656,-1.3552132,-1.1091015,-0.47768912,0.19050188,0.9703705,-0.23681626,-0.71372664,-1.0620142,0.096857436,-0.8321019,-1.2760748,0.3495734,-0.6052627
0.0,-0.1,1.2999999999999998,-0.5235987755982988,0.5235987755982988,0,-0.73635596,-1.0119594,-1.2835219,-0.33763036,-0.19837384,0.6146666,-0.47539812,-0.36208722,-0.8869338,-0.3205998,-0.5471848,-0.38876185,0.07687021,-0.39670494
0.0,-0.1,1.2999999999999998,-0.5235987755982988,0.5235987755982988,0,-0.9340195,-0.90990067,-1.4975476,-0.47025132,0.15072978,0.87745,-0.8651371,0.02251577,-0.8577657,0.44714633,-0.77769977,-0.44944328,0.5987594,-0.5616327
0.0,-0.1,1.2999999999999998,-0.5235987755982988,0.5235987755982988,0,-0.9506014,-1.2534246,-1.2302933,-0.40687695,0.4290297,1.1813743,-0.49054474,-0.31806627,-1.071819,0.21270803,-0.41299078,-0.45837772,-0.13399112,-0.4507063
0.0,-0.1,1.2999999999999998,-0.5235987755982988,0.5235987755982988,0,-0.73106736,-1.0911653,-1.1768068,-0.4545146,-0.2927713,1.3214306,-0.43488824,-0.51556647,-0.8958512,-0.47178867,-0.52863455,-0.9470383,1.4368368,-0.59609693
0.0,-0.1,1.2999999999999998,-0.5235987755982988,0.5235987755982988,0,-1.1652716,-1.0167644,-1.2067841,-0.25852814,0.13934895,0.9807633,0.00013065775,-0.26028755,-0.9528585,-0.095452815,-0.2821613,-0.85992247,0.8135967,-0.4788901
0.0,-0.1,1.2999999999999998,-0.5235987755982988,0.5235987755982988,0,-0.9399129,-1.1789707,-1.2641461,-0.33145934,0.38331968,0.8717005,-0.49682224,-0.44863313,-1.033667,0.44308865,-0.8553725,-0.58315974,1.5400597,-0.6949925
0.0,-0.1,1.2999999999999998,-0.5235987755982988,0.5235987755982988,0,-0.83576596,-1.0540476,-1.2894616,-0.4847396,-0.04733467,1.2289108,-1.0181602,-0.26197624,-1.0701513,0.66019106,-0.45493814,-0.38620886,1.3787496,-0.74019897
0.0,-0.1,1.2999999999999998,-0.5235987755982988,0.5235987755982988,0,-0.855341,-1.2163017,-1.2277037,-0.38205996,0.39059943,0.4994878,-0.41629812,-0.2860846,-0.8300937,0.3818405,-0.7960986,-0.8487625,0.11610664,-0.4084101
0.0,-0.1,1.2999999999999998,-0.5235987755982988,0.5235987755982988,0,-0.8610235,-1.1540908,-1.1655349,-0.3324456,0.09964884,1.1298286,-0.1922651,-0.5073054,-1.0653121,-0.23605809,-0.19877633,-0.77866066,1.4846594,-0.4684616
0.0,-0.1,1.2999999999999998,-0.5235987755982988,0.5235987755982988,0,-0.89418423,-1.1040739,-1.124318,-0.5320704,-0.21274363,1.4210707,-0.32643655,-0.45925298,-0.90003115,-0.13979077,-0.7486139,-1.3189595,0.49356815,-0.59759045
0.0,-0.1,1.2999999999999998,-0.5235987755982988,0.5235987755982988,0,-0.815799,-0.9475716,-1.47892,-0.32661685,0.32053614,0.73802346,-0.7043924,-0.5602008,-0.9510387,0.2610717,-1.0142584,0.0019475124,0.7034759,-0.45766485
0.0,-0.1,1.2999999999999998,-0.5235987755982988,0.5235987755982988,0,-0.9850461,-1.1281476,-1.1773189,-0.3555413,0.20481572,0.80257404,0.07578102,-0.21692748,-1.0941631,0.5026887,-0.30833697,-0.6740377,0.5596033,-0.545095
0.0,-0.1,1.2999999999999998,-0.5235987755982988,0.5235987755982988,0,-0.7909823,-0.95786625,-1.4540008,-0.2720978,0.24551795,0.799437,-0.16568023,-0.3275723,-1.0049077,0.25631934,-0.34302133,0.04443415,0.16685411,-0.72411656
0.0,-0.1,1.2999999999999998,-0.5235987755982988,0.5235987755982988,0,-0.7722899,-1.1803784,-1.269322,-0.4992807,0.049347907,0.80667096,0.036776904,-0.68558526,-1.0235333,-0.13584907,-0.81465054,-0.89065135,0.76584595,-0.3691371
0.0,-0.1,1.2999999999999998,-0.5235987755982988,0.5235987755982988,0,-1.1518017,-1.1981086,-1.1581787,-0.22308436,-0.08736803,0.6510013,-0.35274762,-0.018751256,-0.8471681,-0.04469429,-0.6743295,-0.8793975,0.42539492,-0.6272784
0.0,-0.1,1.2999999999999998,-0.5235987755982988,0.5235987755982988,0,-0.8139592,-1.0051098,-1.4215448,-0.2747202,0.055588324,1.2748841,-0.493706,-0.42141634,-0.91989374,0.41116202,-0.8441837,-0.32520282,1.1796,-0.666605
0.0,-0.1,1.2999999999999998,-0.5235987755982988,0.5235987755982988,0,-0.84559083,-1.1688799,-1.1774983,-0.438251,-0.08898301,0.6135755,-0.56937826,-0.27555746,-0.87162995,0.3943778,-0.89071274,-0.56387234,0.89013904,-0.535021
0.0,-0.1,1.2999999999999998,-0.5235987755982988,0.5235987755982988,0,-0.7715759,-1.0854428,-1.3197248,-0.50184566,0.2940019,1.0134987,-0.26291877,-0.59441864,-1.0730582,-0.0032083066,-0.5919438,-0.70829076,1.0623281,-0.651956
0.0,-0.1,1.2999999999999998,-0.5235987755982988,0.5235987755982988,0,-0.96269983,-1.0351776,-1.4417533,-0.21873349,0.49317518,1.0619708,-0.13185246,0.011303836,-0.8068869,-0.55727565,-0.74948233,-0.34767663,0.72895795,-0.6655702
0.0,-0.1,1.2999999999999998,-0.5235987755982988,0.5235987755982988,0,-0.7824162,-1.2418377,-1.160022,-0.48038888,-0.6533318,0.7985311,-0.34342694,-0.570589,-0.8543776,0.1633489,-1.0593415,-0.6255888,0.68327206,-0.5531467
0.0,-0.1,1.2999999999999998,-0.5235987755982988,0.5235987755982988,0,-1.0191458,-1.1915785,-1.1086063,-0.2967967,0.052278455,1.209478,-0.50970143,-0.074171826,-0.81417435,-0.14997162,-0.9751434,-0.2929734,0.96116644,-0.65227866
0.0,-0.1,1.2999999999999998,-0.5235987755982988,0.5235987755982988,0,-0.9993812,-1.242855,-1.2618996,-0.40535358,0.5907391,1.0910426,-0.04294762,-0.5129167,-1.0318685,0.33930522,-0.87729764,-1.2407452,0.23481587,-0.5034914
0.0,-0.1,1.2999999999999998,-0.5235987755982988,0.5235987755982988,0,-0.8146959,-1.310529,-1.148863,-0.41942665,0.15343451,1.056857,-0.45349088,-0.6260346,-1.1484168,0.18390532,-0.55560046,-0.96657324,1.0347111,-0.55111736
0.0,-0.1,1.2999999999999998,-0.5235987755982988,0.5235987755982988,0,-0.83778113,-1.1238508,-1.2751347,-0.44134545,-0.07548459,0.90579355,-0.4658985,-0.38169882,-0.90239084,-0.16115062,-0.17703201,-0.13552684,0.87657577,-0.50405496
0.0,-0.1,1.2999999999999998,-0.5235987755982988,0.5235987755982988,0,-0.6985036,-0.9444711,-1.4608824,-0.53576005,0.1917023,0.4132996,-0.034726053,-0.2880316,-1.0561602,-0.037988137,-0.15965125,-0.2828482,0.29304275,-0.6356095
0.0,-0.1,1.2999999999999998,-0.5235987755982988,0.5235987755982988,0,-0.7631532,-1.0069865,-1.3666981,-0.38102674,0.21589628,1.0325569,-0.8999953,-0.4283849,-0.9786669,0.26578677,-0.7249048,-0.78402156,0.10315285,-0.6733789
0.0,-0.1,1.2999999999999998,-0.5235987755982988,0.5235987755982988,0,-0.9256995,-1.1453968,-1.3115969,-0.107690446,0.17153904,1.0500203,-0.08801869,-0.4879584,-0.93682927,0.12988853,-0.7295287,-0.17143491,0.44114,-0.3896757
0.0,-0.1,1.2999999999999998,-0.5235987755982988,0.5235987755982988,0,-0.7871321,-0.96727157,-1.3708668,-0.36057296,-0.22053577,0.87901694,-0.59110487,-0.3721849,-0.9667396,0.14563473,-0.6750948,-0.40796313,0.022907497,-0.5130135
0.0,-0.1,1.2999999999999998,-0.5235987755982988,0.5235987755982988,0,-0.8973414,-1.1894008,-1.3291523,-0.45249796,0.39754277,0.92465967,-0.70945317,-0.3859519,-1.2710068,0.3333819,-0.39146677,-0.499504,0.48772874,-0.5495082
0.0,-0.1,1.2999999999999998,-0.5235987755982988,0.5235987755982988,0,-0.74454206,-1.0899662,-1.2414923,-0.5199605,-0.65072906,0.9537967,-0.5346681,-0.56817025,-1.0473435,0.21310176,-0.53004044,-1.3969574,0.7964914,-0.32827014
0.0,-0.1,1.2999999999999998,-0.5235987755982988,0.5235987755982988,0,-0.9081381,-0.9860174,-1.1600988,-0.50138146,-0.30963647,1.2956989,0.20180354,-0.2420237,-0.8311075,0.72332406,-0.9026201,-1.0038644,1.1663982,-0.29533944
0.0,-0.1,1.2999999999999998,-0.5235987755982988,0.5235987755982988,0,-0.85689193,-1.0822059,-1.3538299,-0.4810449,0.2651891,1.1199555,-0.44474152,-0.28870848,-0.9223936,0.4148707,-0.7753678,-1.1485788,0.7247813,-0.56184024
0.0,-0.1,1.2999999999999998,-0.5235987755982988,0.5235987755982988,0,-0.80218476,-1.3754065,-1.0175105,-0.39391428,0.57600695,0.84117347,-0.37685493,-0.42836082,-0.936982,0.41094235,-0.9285745,-0.32213798,0.53384966,-0.5731781
0.0,-0.1,1.2999999999999998,-0.5235987755982988,0.5235987755982988,0,-0.69693977,-1.1360073,-1.2539959,-0.46607754,0.5426346,1.260919,-0.39322582,-0.4898175,-0.9769454,0.40807033,-0.74884593,-0.33863688,0.47008345,-0.518706
0.0,-0.1,1.2999999999999998,-0.5235987755982988,0.5235987755982988,0,-0.8669033,-1.1920439,-1.2925711,-0.3519297,0.48934892,0.9813625,-0.11821142,-0.43364078,-1.0332099,0.49056458,-0.38520297,-0.79230314,0.98656857,-0.6159604
0.0,-0.1,1.2999999999999998,-0.5235987755982988,0.5235987755982988,0,-0.93061495,-1.1045208,-1.3687409,-0.2156551,0.3400765,1.1021161,-0.48713988,-0.2946425,-0.8626631,0.13426043,-0.53976935,-0.91286534,0.14694674,-0.47838017
0.0,-0.1,1.2999999999999998,-0.5235987755982988,0.5235987755982988,0,-1.0689743,-1.2289045,-1.1067411,-0.40645579,-0.23440826,0.80832785,-0.22063269,-0.047191195,-0.8782699,0.1762175,-0.57327,-0.4135524,0.8245245,-0.5185751
0.0,-0.1,1.2999999999999998,-0.5235987755982988,0.5235987755982988,0,-0.779879,-1.1181806,-1.2948896,-0.40568933,0.31737897,0.95584136,-0.3878726,-0.32870457,-0.8756432,0.19829297,-0.6384895,-0.82326317,0.75206,-0.6771003
0.0,-0.1,1.2999999999999998,-0.5235987755982988,0.5235987755982988,0,-0.8795582,-1.2333573,-1.1518718,-0.42535794,-0.66374546,0.58989614,-0.26329368,-0.12080686,-0.9545713,0.60075855,-0.3678808,-0.4307865,0.60436946,-0.7788443
0.0,-0.1,1.2999999999999998,-0.5235987755982988,0.5235987755982988,0,-0.85446095,-1.1964664,-1.2647129,-0.29823402,0.7078364,0.92558247,-0.41119477,-0.3591669,-0.96912503,0.9257717,-0.8647022,-0.3152531,1.0619211,-0.52126056
0.0,-0.1,1.2999999999999998,-0.5235987755982988,0.5235987755982988,0,-0.8400377,-1.1412345,-1.3687136,-0.49857014,0.5088154,0.46622372,-0.48128667,-0.5839219,-1.1078835,0.13118558,-0.49893415,-0.29264373,0.5155562,-0.57644117
0.0,-0.1,1.2999999999999998,-0.5235987755982988,0.5235987755982988,0,-0.9805943,-1.0956321,-1.3095176,-0.3979672,0.2770501,0.9923277,-0.54676336,-0.28578034,-1.0098338,0.21591692,-0.2296886,-0.2783584,1.1132619,-0.6703688
0.0,-0.1,1.2999999999999998,-0.5235987755982988,0.5235987755982988,0,-0.9143059,-1.0270393,-1.5064579,-0.19129296,0.013893106,0.5193686,-0.16047521,-0.44805697,-0.731692,0.3902071,-0.34863418,-0.21038224,1.0329,-0.43993106
0.0,-0.1,1.2999999999999998,-0.5235987755982988,0.5235987755982988,0,-0.8591805,-1.0897379,-1.4313098,-0.2833262,0.72682536,0.49789548,-0.70492166,-0.5451378,-1.4555812,0.13544232,-0.5226436,0.0032829416,0.6805509,-0.5312691
0.0,-0.1,1.2999999999999998,-0.5235987755982988,0.5235987755982988,0,-0.95953983,-1.264182,-1.2146789,-0.42236722,0.33746216,0.99288625,-0.4440038,-0.509477,-1.2576656,0.41982776,-0.5966381,-0.90672535,0.36301365,-0.38179466
0.0,-0.1,1.2999999999999998,-0.5235987755982988,0.5235987755982988,0,-0.9554361,-1.1750108,-1.4271497,-0.14152426,0.43362632,0.70326316,-0.953741,-0.35721678,-1.3447238,-0.20026666,-0.82118535,-0.9867628,0.98511577,-0.67238706
0.0,-0.1,1.2999999999999998,-0.5235987755982988,0.5235987755982988,0,-0.93649626,-1.1500158,-1.3742124,-0.39125997,0.22215272,1.0916717,-0.43020123,-0.5268252,-1.079501,0.14210488,-0.09286104,-0.17541935,0.77902615,-0.7977681
0.0,-0.1,1.2999999999999998,-0.5235987755982988,0.5235987755982988,0,-0.9534577,-1.3116598,-1.4850817,-0.516544,0.8845182,1.2534558,-0.459745,-0.24371558,-0.91623926,0.77091056,-0.30603316,-0.6442752,0.8435686,-0.50937605
0.0,-0.1,1.2999999999999998,-0.5235987755982988,0.5235987755982988,0,-0.85597396,-1.1423995,-1.2884716,-0.34983104,0.9910382,0.8446896,-0.85430765,-0.46720403,-1.247232,-0.011607679,-0.97385705,-1.099587,-0.09960335,-0.55440474
0.0,-0.1,1.2999999999999998,-0.5235987755982988,0.5235987755982988,0,-0.73906744,-0.79554576,-1.2690547,-0.1749975,-0.25924596,0.90134084,-0.093518265,-0.41653466,-1.2953835,0.50499374,-0.7190446,-1.2433133,0.6657465,-0.66332906
0.0,-0.1,1.2999999999999998,-0.5235987755982988,0.5235987755982988,0,-0.8464879,-1.037891,-1.3533059,-0.43533957,-0.731643,0.6176975,0.09377707,-0.4321701,-1.1572199,0.2923084,-0.6661776,-0.8563036,-0.10821255,-0.46976483
0.0,-0.1,1.2999999999999998,-0.5235987755982988,0.5235987755982988,0,-0.94360876,-0.9792601,-1.2903647,-0.36043486,0.6263922,1.1192957,-0.44489315,-0.38545695,-1.0839261,0.28270862,-0.8614968,-0.5946204,0.92216015,-0.35298085
0.0,-0.1,1.2999999999999998,-0.5235987755982988,0.5235987755982988,0,-0.68478364,-0.9319152,-1.2699401,-0.66743666,-0.039548967,0.7634604,-0.16771303,-0.48179296,-1.0764391,0.63910717,-0.9106744,-0.7343341,0.46228388,-0.5802271
0.0,-0.1,1.2999999999999998,-0.5235987755982988,0.5235987755982988,0,-0.9330488,-1.1554842,-1.2964983,-0.5205333,-0.20403798,0.8531096,-0.382091,-0.57767224,-0.949246,-0.41820037,-0.6012289,-0.62348825,0.7503232,-0.6249882
0.0,-0.1,1.2999999999999998,-0.5235987755982988,0.5235987755982988,0,-0.879252,-0.93992627,-1.2792434,-0.59437346,0.21430133,0.70107925,0.0030927912,-0.35908288,-1.1271336,0.1834829,-0.59430206,-0.08894029,-0.41468757,-0.7115882
0.0,-0.1,1.2999999999999998,-0.5235987755982988,0.5235987755982988,0,-1.0420588,-1.1606686,-1.3713473,-0.10838134,-0.1392437,0.9682627,-0.092523955,-0.29453057,-0.65311015,0.2757852,-0.64353085,-0.5603626,0.87010103,-0.51910007
0.0,-0.1,1.2999999999999998,-0.5235987755982988,0.5235987755982988,0,-0.8708399,-0.9438456,-1.3020042,-0.4792549,-0.6510587,1.119763,-0.7730381,-0.41302413,-1.1208929,0.057778623,-0.47474095,-0.89716434,0.07913794,-0.5849151
0.0,-0.1,1.2999999999999998,-0.5235987755982988,0.5235987755982988,0,-0.6634156,-1.1725537,-1.2424587,-0.386014,-0.6778635,0.7145402,-0.87384325,-0.5307376,-1.121372,0.4836816,-1.1552072,-0.8992037,-0.20503439,-0.6528947
0.0,-0.1,1.2999999999999998,-0.5235987755982988,0.5235987755982988,0,-1.1012174,-0.9938468,-1.3414302,-0.56742394,0.60486037,0.9990039,-0.27709514,-0.39542386,-1.1303893,-0.23042056,-0.9426979,-0.6621056,0.4322683,-0.6341858
0.0,-0.1,1.2999999999999998,-0.5235987755982988,0.5235987755982988,0,-0.93117446,-0.96653014,-1.2633208,-0.40949672,-0.1350003,0.9708439,0.11757554,-0.32093316,-1.3301117,0.543834,-0.4442753,-1.120929,0.7487475,-0.6398309
0.0,-0.1,1.2999999999999998,-0.5235987755982988,0.5235987755982988,0,-0.7502178,-0.998681,-1.2165058,-0.26078373,0.7352202,0.80498934,-0.3711904,-0.60711414,-0.95421636,0.053050604,-0.4858784,-0.4980856,0.48399115,-0.5249934
0.0,-0.1,1.2999999999999998,-0.5235987755982988,0.5235987755982988,0,-0.7304388,-1.0520841,-1.2361655,-0.5920455,0.011234948,0.77473927,-0.18474844,-0.15532254,-1.281595,0.6505411,-0.36723867,-1.1189623,0.19496734,-0.62214524
0.0,-0.1,1.2999999999999998,-0.5235987755982988,0.5235987755982988,0,-0.82386076,-0.7288176,-1.4496839,-0.4709146,0.37311193,0.771928,-0.32870632,-0.31951317,-0.9582701,-0.52738947,-1.0564505,-0.71108776,0.75758785,-0.5527905
0.0,-0.1,1.2999999999999998,-0.5235987755982988,0.5235987755982988,0,-0.8724517,-0.8979212,-1.1961939,-0.38157412,-0.60528564,0.8775759,-0.15926808,-0.43633726,-1.2501546,-0.11952937,-0.18526325,-0.84414077,-0.11358977,-0.6363813
0.0,-0.1,1.2999999999999998,-0.5235987755982988,0.5235987755982988,0,-0.9997219,-1.0971148,-1.4793447,-0.37737235,-0.20964533,0.97190744,-0.44709152,-0.3613614,-1.1577854,0.08104799,-0.44117936,-0.85869974,0.44396487,-0.6204702
0.0,-0.1,1.2999999999999998,-0.5235987755982988,0.5235987755982988,0,-0.9993388,-1.0170956,-1.2877805,-0.36891434,0.2552085,0.9284846,-0.98237187,-0.13155556,-0.8994518,0.5797388,-0.5904175,-0.46140245,0.98926926,-0.49789387
0.0,-0.1,1.2999999999999998,-0.5235987755982988,0.5235987755982988,0,-0.8639483,-0.92490864,-1.2447048,-0.3910137,-0.77683777,1.1277403,-0.3789614,-0.43257228,-1.0266148,-0.17597465,-0.63054824,-0.71881735,0.81433403,-0.5240028
0.0,-0.1,1.2999999999999998,-0.5235987755982988,0.5235987755982988,0,-0.850155,-0.9524717,-1.2710106,-0.5615596,-0.6574692,1.1462026,-0.09060321,-0.2609297,-1.0619934,-0.10316273,-0.59676456,-0.9760496,0.048549384,-0.5277886
0.0,-0.1,1.2999999999999998,-0.5235987755982988,0.5235987755982988,0,-0.8776482,-1.0799738,-1.2473354,-0.38564923,0.32109326,0.72690403,0.005618021,-0.36623317,-0.95985264,0.52856517,-0.63331777,-0.7634895,0.48840457,-0.72274405
0.0,-0.1,1.2999999999999998,-0.5235987755982988,0.5235987755982988,0,-0.9703239,-0.83228767,-1.2313863,-0.12706804,-0.067273505,0.55032086,0.085554294,-0.21378337,-1.0559044,0.5062841,-0.37950745,-1.4008719,0.264633,-0.50327265
0.0,-0.1,1.2999999999999998,-0.5235987755982988,0.5235987755982988,0,-0.7666465,-0.98063266,-1.1486686,-0.3932276,-0.77732724,0.9295347,-0.22379008,-0.44659087,-1.0377764,0.9873535,-1.0870616,-0.38549745,0.48151198,-0.6227211
0.0,-0.1,1.2999999999999998,-0.5235987755982988,0.5235987755982988,0,-0.6230749,-0.9733447,-1.2657099,-0.58449495,0.18363751,0.7099537,-0.2159736,-0.61152047,-1.1410211,0.5781316,-0.8685975,-0.09161722,0.9731101,-0.54093766
0.0,-0.1,1.2999999999999998,-0.5235987755982988,0.5235987755982988,0,-0.9893432,-0.9379007,-1.3597115,-0.4716942,0.25758544,0.8345032,0.017554192,-0.16291893,-1.0263808,0.27166715,-0.5826067,-0.40479177,0.24724336,-0.5742429
0.0,-0.1,1.2999999999999998,-0.5235987755982988,0.5235987755982988,0,-0.9329842,-0.8970592,-1.276957,-0.5226337,0.6515588,0.93646365,-0.32086602,-0.3510442,-1.0914906,-0.21888904,-0.6158862,-0.8990103,0.3671708,-0.6116324
0.0,-0.1,1.2999999999999998,-0.5235987755982988,0.5235987755982988,0,-0.639767,-1.1376243,-0.9485292,-0.40897986,0.16319574,0.73393553,-0.38168123,-0.56740063,-1.2339387,0.2417278,-0.49457964,0.09291313,0.27689767,-0.73770905
0.0,-0.1,1.2999999999999998,-0.5235987755982988,0.5235987755982988,0,-0.7285762,-0.92620015,-1.3653088,-0.4354741,-0.45273268,0.860447,-0.43481565,-0.5757933,-1.0913601,0.16590652,-0.5443341,-0.850693,0.6359119,-0.4343296
0.0,-0.1,1.2999999999999998,-0.5235987755982988,0.5235987755982988,0,-0.898204,-1.1126105,-1.3149763,-0.16306084,-0.75118756,0.6621383,-1.0785818,-0.55267507,-1.3246526,0.5689452,-0.3197559,-0.48875698,0.36589834,-0.37107554
0.0,-0.1,1.2999999999999998,-0.5235987755982988,0.5235987755982988,0,-0.69276786,-0.9562249,-1.1153866,-0.48773247,-0.3366295,0.82116693,-0.11512118,-0.03198071,-0.90741056,0.661854,-0.9017919,-0.21343216,0.9696349,-0.447516
0.0,-0.1,1.2999999999999998,-0.5235987755982988,0.5235987755982988,0,-1.0851512,-1.0858526,-1.4604497,-0.57103187,-0.21862896,1.1093314,-0.6972683,-0.16659674,-0.9229383,0.28379104,-0.8544204,-0.5802216,-0.26206157,-0.49956253
0.0,-0.1,1.2999999999999998,-0.5235987755982988,0.5235987755982988,0,-0.72823685,-1.0896955,-1.4432734,-0.48781824,-0.56155795,0.78030324,-0.43793616,-0.20087509,-1.0559517,-0.38356155,-0.85296136,-0.43110305,0.6781892,-0.43913808
0.0,-0.1,1.2999999999999998,-0.5235987755982988,0.5235987755982988,0,-0.92557895,-1.001482,-1.3888673,-0.50314236,-1.2250538,1.1005837,-0.24511218,-0.09864221,-1.3020806,0.57729566,-0.5732368,-1.0020555,0.45751742,-0.5902371
0.0,-0.1,1.2999999999999998,-0.5235987755982988,0.5235987755982988,0,-0.90615,-1.0949453,-1.1829641,-0.5231853,0.11797453,1.1323436,-0.97064024,-0.44427368,-1.0170527,0.28970027,-0.9980631,0.07423533,0.69883513,-0.78817886
0.0,-0.1,1.2999999999999998,-0.5235987755982988,0.5235987755982988,0,-1.032732,-1.0646602,-1.2759495,-0.49695477,-0.018515397,1.0570782,-0.65462565,-0.19078319,-0.9825477,-0.19534649,-0.97434866,-0.5735406,0.5926162,-0.41673708
0.0,-0.1,1.2999999999999998,-0.5235987755982988,0.5235987755982988,0,-0.9782334,-0.9726771,-1.3561457,-0.39541742,-0.6117356,0.74413973,-0.16031888,-0.4693245,-1.0125788,0.030876242,-0.45102206,-0.8976151,0.56505674,-0.43976235
0.0,-0.1,1.2999999999999998,-0.5235987755982988,0.5235987755982988,0,-0.9772589,-1.1685942,-1.0369544,-0.3546139,-0.1460918,1.0208776,-0.44442835,-0.36529443,-0.97627354,0.14259559,-1.118486,-0.7750828,1.2559749,-0.4930536
0.0,-0.1,1.2999999999999998,-0.5235987755982988,0.5235987755982988,0,-1.0620834,-1.1161641,-1.3773385,-0.65702057,-0.35864836,0.6697745,-0.4765107,-0.4355907,-1.1237806,-0.07153529,-0.61114407,-0.33092946,0.27782047,-0.5194912
0.0,-0.1,1.2999999999999998,-0.5235987755982988,0.5235987755982988,0,-0.721986,-1.089684,-1.1475912,-0.69454575,0.08609804,1.0955071,-0.35901818,-0.6758901,-1.2610813,0.16728202,-0.78460354,-0.454865,0.11987664,-0.42883813
0.0,-0.1,1.2999999999999998,-0.5235987755982988,0.5235987755982988,0,-0.7891091,-1.1333256,-1.2319787,-0.4347685,0.0059645143,1.2503814,-0.3178118,-0.44347355,-1.2127028,0.9274072,-0.9452907,-0.5107383,1.5331182,-0.4959944
0.0,-0.1,1.2999999999999998,-0.5235987755982988,0.5235987755982988,0,-0.80601174,-1.1639117,-0.88869727,-0.49321827,0.7062971,1.1939256,-0.53438264,-0.06942072,-0.91377234,0.5282336,-1.2705563,-1.6417516,0.80668336,-0.5518426
0.0,-0.1,1.2999999999999998,-0.5235987755982988,0.5235987755982988,0,-0.93310666,-0.97934276,-1.484248,-0.5185115,0.5215504,0.6256747,-0.8863105,-0.5592499,-1.006006,0.23922735,-0.7009224,-0.868719,0.8096718,-0.6116815
0.0,-0.1,1.2999999999999998,-0.5235987755982988,0.5235987755982988,0,-1.106371,-1.1388607,-1.3980244,-0.062165774,0.24192262,0.79976094,-0.32128718,-0.3360417,-1.0968198,0.63374794,-0.49189138,-0.79504573,0.048675697,-0.33583412
0.0,-0.1,1.2999999999999998,-0.5235987755982988,0.5235987755982988,0,-1.0631202,-1.0324334,-1.3057826,-0.54309344,-0.24206352,0.7761921,-0.11014068,-0.2699881,-1.014112,0.5156163,-0.86878425,0.07130911,0.8024263,-0.7829907
0.0,-0.1,1.2999999999999998,-0.5235987755982988,0.5235987755982988,0,-1.1222671,-1.246703,-1.0195096,-0.16396436,0.558621,0.58485454,-0.10011621,-0.39677808,-1.1617645,-0.6108526,-0.8489364,-0.06733172,0.64165604,-0.6425623
0.0,-0.1,1.2999999999999998,-0.5235987755982988,0.5235987755982988,0,-0.83876514,-1.1093796,-1.1006134,-0.23849979,-0.37528253,0.8853832,-0.35561976,-0.44630453,-0.9549363,-0.08585575,-0.9582818,-0.19784828,0.5886428,-0.5735834
0.0,-0.1,1.2999999999999998,-0.5235987755982988,0.5235987755982988,0,-1.0110286,-1.1025778,-1.2781913,-0.36396542,0.5876669,1.0687405,-0.28662208,-0.41220602,-1.5036538,0.42179376,-0.78453326,-1.1253208,-0.1480363,-0.4932337
0.0,-0.1,1.2999999999999998,-0.5235987755982988,0.5235987755982988,0,-0.9262311,-1.2175034,-1.2150913,-0.5989983,-0.07499183,0.78830236,-0.25687036,-0.3509562,-1.2081566,1.200352,-0.4586669,-0.7604944,0.59854156,-0.78453267
0.0,-0.1,1.2999999999999998,-0.5235987755982988,0.5235987755982988,0,-0.8719244,-0.97671324,-1.3184142,-0.40123072,0.5904572,1.0979877,-0.38355634,-0.32279095,-0.95078295,0.8250173,-0.85055566,-0.87125796,-0.095657475,-0.5116341
0.0,-0.1,1.2999999999999998,-0.5235987755982988,0.5235987755982988,0,-0.9701584,-1.1961683,-1.1675287,-0.7366679,-0.46942067,0.9072274,-0.21692972,-0.3888178,-1.0026622,-0.13801199,-0.6270056,-0.9571342,0.83968097,-0.4619962
0.0,-0.1,1.2999999999999998,-0.5235987755982988,0.5235987755982988,0,-1.152172,-0.9856797,-1.122485,-0.14880987,0.1802396,1.071563,-0.44653443,-0.4176472,-1.0134507,0.0037152753,-0.9368321,-0.7324452,1.3557858,-0.6644284
0.0,-0.1,1.2999999999999998,-0.5235987755982988,0.5235987755982988,0,-0.7960777,-1.0708208,-1.3227587,-0.2944838,-0.17631446,1.1445925,-0.15586694,-0.40637353,-1.3871802,0.6045205,-1.0414395,-0.49917176,0.84109104,-0.56674755
0.0,-0.1,1.2999999999999998,-0.5235987755982988,0.5235987755982988,0,-0.782397,-1.0964035,-1.2717377,-0.6953231,-0.4426175,0.70436734,-0.6877091,-0.32166615,-0.9804439,0.78451395,-0.91139966,-1.0632808,0.4132536,-0.4657928
0.0,-0.1,1.2999999999999998,-0.5235987755982988,0.5235987755982988,0,-1.0082866,-1.2452726,-1.1811645,-0.35669836,-0.2650679,0.9282135,-0.3231991,-0.40618247,-1.0682423,0.28431237,-0.74147826,-0.46793187,-0.061118383,-0.5162751
0.0,-0.1,1.2999999999999998,-0.5235987755982988,0.5235987755982988,0,-0.84767973,-1.1611305,-1.2529112,-0.6008704,-0.024383156,0.68389875,-0.7149555,-0.43373162,-1.4263748,0.21809511,-0.79423445,0.27037954,0.055755317,-0.47430173
0.0,-0.1,1.2999999999999998,-0.5235987755982988,0.5235987755982988,0,-0.9686131,-1.0707535,-1.3045075,-0.42160058,0.32648492,0.6516234,-0.32542312,-0.3459583,-1.0450532,0.36879137,-0.6401434,-1.047755,0.78553504,-0.5847635
0.0,-0.1,1.2999999999999998,-0.5235987755982988,0.5235987755982988,0,-0.945007,-1.1209066,-1.0312822,-0.18186505,0.088979594,0.86934376,-0.38698572,-0.5723218,-1.0166328,0.5023121,-0.86743987,-1.118268,0.86626834,-0.49474266
0.0,-0.1,1.2999999999999998,-0.5235987755982988,0.5235987755982988,0,-0.7076933,-0.95380086,-1.1361517,-0.48045942,-0.1349469,0.69707173,-1.0104585,-0.6076118,-1.1884091,1.0559101,-0.9360921,-0.60135436,0.320616,-0.6157458
0.0,-0.1,1.2999999999999998,-0.5235987755982988,0.5235987755982988,0,-0.63278514,-1.0307558,-1.4586685,-0.59121287,-0.3548003,0.54580534,-0.3216202,-0.6228222,-1.4192872,-0.4393479,-0.9650014,-0.2419005,0.55995744,-0.6074878
0.0,-0.1,1.2999999999999998,-0.5235987755982988,0.5235987755982988,0,-0.7633173,-1.2685251,-1.3181639,-0.7061919,-0.58322334,0.67246914,-0.32768416,-0.3946925,-1.104359,0.18447076,-0.45726827,-0.24829417,0.9436535,-0.71344995
0.0,-0.1,1.2999999999999998,-0.5235987755982988,0.5235987755982988,0,-0.9654779,-1.0041196,-1.2012012,-0.32987192,-0.2948807,0.9735542,-0.37705424,-0.32977158,-1.033729,1.0166165,-0.46977806,-0.7848009,0.1250604,-0.6490739
0.0,-0.1,1.2999999999999998,-0.5235987755982988,0.5235987755982988,0,-1.0311099,-0.9172092,-1.3948699,-0.56528324,-0.5525454,0.83717346,-0.27071738,-0.34727687,-1.3002601,0.27693316,-0.9428698,-0.1747887,1.0867498,-0.56855226
0.0,-0.1,1.2999999999999998,-0.5235987755982988,0.5235987755982988,0,-1.0082327,-1.218211,-1.1390892,-0.47223404,-0.07612454,0.8979136,-0.22642314,-0.30890998,-1.2728426,0.18596986,-0.652013,-0.6204538,1.073904,-0.44091374
0.0,-0.1,1.2999999999999998,-0.5235987755982988,0.5235987755982988,0,-0.8427897,-0.9597842,-1.1755449,-0.4092864,-0.30423093,1.0549783,0.11975524,-0.5537282,-0.9324163,-0.11740545,-0.75696766,-0.6905813,0.4417491,-0.35571086
0.0,-0.1,1.2999999999999998,-0.5235987755982988,0.5235987755982988,0,-0.7260018,-0.984169,-1.0941755,-0.2682572,-0.67981195,0.88321847,-0.81923604,-0.17370908,-1.2233588,-0.1433171,-0.4960827,-0.9398742,0.09008426,-0.7030681
0.0,-0.1,1.2999999999999998,-0.5235987755982988,0.5235987755982988,0,-0.7872704,-0.96395177,-1.218758,-0.29662848,-0.26587984,0.91980684,-0.24440789,-0.35310662,-1.0860627,0.28004098,-0.3439044,-0.44503316,0.02357195,-0.66797656
0.0,-0.1,1.2999999999999998,-0.5235987755982988,0.5235987755982988,0,-0.87845474,-1.0494014,-1.2004938,-0.2361267,-0.1421253,0.86135465,-0.44380894,-0.31134933,-0.9786335,1.0513527,-0.6647034,-0.7827484,1.0227954,-0.353405
0.0,-0.1,1.2999999999999998,-0.5235987755982988,0.5235987755982988,0,-0.9901033,-1.176795,-1.0362775,-0.3984065,-0.28202945,0.9521948,0.028334135,-0.25902805,-1.2289977,-0.22970885,-0.63320625,-1.1227895,0.32383192,-0.5133235
0.0,-0.1,1.2999999999999998,-0.5235987755982988,0.5235987755982988,0,-0.80411613,-1.0042983,-1.244296,-0.5446174,0.4798313,1.0227584,-0.54103416,-0.35471505,-0.98549885,-0.018974856,-0.8343759,-0.2903725,-0.2908819,-0.3874967
0.0,-0.1,1.2999999999999998,-0.5235987755982988,0.5235987755982988,0,-0.83916676,-0.84162694,-1.4984697,-0.4675664,0.023928234,1.0720104,-0.21669292,-0.19144084,-1.0927494,0.534434,-0.5525664,-0.86937886,0.7081695,-0.6877409
0.0,-0.1,1.2999999999999998,-0.5235987755982988,0.5235987755982988,0,-0.85364324,-1.0718004,-1.1392652,-0.4534836,0.43263313,0.9234604,-0.39948577,-0.17855184,-1.1938312,-0.53882104,-0.6344113,-0.37601262,0.32189772,-0.85285014
0.0,-0.1,1.2999999999999998,-0.5235987755982988,0.5235987755982988,0,-0.73202395,-0.82707155,-1.304582,-0.56022286,0.085494414,1.3880546,-0.79198,-0.24590717,-1.2707237,0.13071638,-0.60089344,-0.6216005,0.8317572,-0.67257726
0.0,-0.1,1.2999999999999998,-0.5235987755982988,0.5235987755982988,0,-0.7531678,-1.1532477,-1.2823427,-0.38508624,-0.18523787,1.011752,-0.9264396,-0.49383286,-1.1153475,0.43398324,-0.9380813,-0.0627776,0.47904238,-0.44895104
0.0,-0.1,1.2999999999999998,-0.5235987755982988,0.5235987755982988,0,-0.8081914,-1.0417944,-1.0996511,-0.29520693,-0.21833447,1.1304152,-0.29421476,-0.30305046,-1.1552472,-0.21070175,-0.85546595,-1.2035934,0.34385315,-0.5437513
0.0,-0.1,1.2999999999999998,-0.5235987755982988,0.5235987755982988,0,-0.8214815,-1.0627186,-1.0927296,-0.3910523,-0.5373928,0.67375857,-0.6375634,-0.09675311,-1.0698488,-0.38524857,-0.7931072,-0.7873208,0.57030207,-0.45436412
0.0,-0.1,1.2999999999999998,-0.5235987755982988,0.5235987755982988,0,-0.8472624,-0.8945303,-1.1921788,-0.33251852,-0.21629372,0.97389084,-0.4923259,-0.00038719826,-1.0675315,-0.41276428,-0.90470695,-1.0412103,0.4987517,-0.54325855
0.0,-0.1,1.2999999999999998,-0.5235987755982988,0.5235987755982988,0,-1.002407,-0.9016644,-1.3607315,-0.48843315,0.41339478,0.9951739,0.41492137,-0.09437424,-0.94696546,0.2740409,-1.0418342,-0.4114443,0.23655224,-0.43922555
0.0,-0.1,1.2999999999999998,-0.5235987755982988,0.5235987755982988,0,-0.7187212,-0.972888,-1.1307721,-0.15300396,-0.25731605,1.2423017,-0.49527097,-0.091349065,-1.0699141,-0.29888752,-0.8124868,-0.5295584,0.09429372,-0.59268624
0.0,-0.1,1.2999999999999998,-0.5235987755982988,0.5235987755982988,0,-0.9081546,-1.030577,-1.1117749,-0.45812657,-0.6728986,0.82985556,-0.54935557,-0.33735952,-1.2331816,0.3212834,-0.6788811,-0.66543955,0.5175523,-0.7251982
0.0,-0.1,1.2999999999999998,-0.5235987755982988,0.5235987755982988,0,-0.9753873,-1.0254123,-1.2976198,-0.5493939,0.13519508,0.7279636,-0.66189706,-0.3207958,-1.0219306,-0.2992384,-0.80986935,0.27253348,0.5836338,-0.6904871
0.0,-0.1,1.2999999999999998,-0.5235987755982988,0.5235987755982988,0,-1.1789495,-1.2132764,-1.1515541,-0.3026372,0.33715805,0.26325494,0.016856527,-0.35331213,-1.164869,-0.2253689,-0.4734728,-0.9621299,0.5162837,-0.6014651
0.0,-0.1,1.2999999999999998,-0.5235987755982988,0.5235987755982988,0,-0.87557656,-1.0794233,-1.0928289,-0.48327684,-0.23491052,0.99177945,-0.13271184,-0.1605464,-1.1158662,0.2743268,-0.3335793,-0.69606334,0.61991185,-0.4108741
0.0,-0.1,1.2999999999999998,-0.5235987755982988,0.5235987755982988,0,-0.79862475,-1.1277325,-1.0821431,-0.55685455,-0.0027752826,0.92312294,-0.098839924,-0.28629354,-1.0465727,-0.13853794,-0.5365468,-1.128221,0.94617283,-0.5221911
0.0,-0.1,1.2999999999999998,-0.5235987755982988,0.5235987755982988,0,-0.8073556,-1.0963507,-1.1413412,-0.3684925,-0.33170086,0.96006256,0.13171017,-0.2869351,-1.0054326,0.6156852,-0.51210856,-0.18324591,0.48949742,-0.5194357
0.0,-0.1,1.2999999999999998,-0.5235987755982988,0.5235987755982988,0,-0.9972156,-1.2423981,-1.1280768,-0.2733054,-0.21720654,0.97330374,-0.3285705,-0.26283157,-1.1420649,0.47990286,-0.56044567,-0.34065998,-0.14623247,-0.34384504
0.0,-0.1,1.2999999999999998,-0.5235987755982988,0.5235987755982988,0,-0.7117528,-0.8207237,-1.3673108,-0.5056555,0.6874582,1.0211146,0.15777995,-0.02455368,-0.89858025,0.14911306,-1.0208188,-0.025452543,0.2921583,-0.7840215
0.0,-0.1,1.2999999999999998,-0.5235987755982988,0.5235987755982988,0,-0.7418066,-0.9477721,-1.347351,-0.4090819,0.023618797,1.0842361,-0.045495417,-0.28008944,-1.0414709,0.19940522,-0.6815027,-0.21852194,0.6840162,-0.8911994
0.0,-0.1,1.2999999999999998,-0.5235987755982988,0.5235987755982988,0,-1.051921,-1.2048856,-1.0702267,-0.23020363,-0.31239438,0.82192296,-0.81558496,-0.17731225,-1.1117638,0.8775846,-0.39789936,-0.6227621,0.5884062,-0.6753752
0.0,-0.1,1.2999999999999998,-0.5235987755982988,0.5235987755982988,0,-0.7473331,-0.91712743,-1.275754,-0.43507954,-0.14157878,0.9195929,-0.5461206,0.022172332,-1.0505147,0.2902244,-0.70804214,-0.43529484,0.50262386,-0.4632345
0.0,-0.1,1.2999999999999998,-0.5235987755982988,0.5235987755982988,0,-0.9365925,-1.1152841,-1.3058838,-0.6052594,0.5503978,0.9178576,0.5212936,-0.36761004,-1.0170608,-0.3631424,-0.7820369,-0.8749632,0.27409384,-0.576396
0.0,-0.1,1.2999999999999998,-0.5235987755982988,0.5235987755982988,0,-0.7638946,-1.0835499,-1.1466734,-0.2750811,0.44839242,0.87246996,-0.8338085,-0.1629533,-1.0366627,-0.38676113,-0.66270995,-0.5180214,0.36433804,-0.44115308
0.0,-0.1,1.2999999999999998,-0.5235987755982988,0.5235987755982988,0,-1.1134319,-1.0206562,-1.3255501,-0.1477099,0.3873997,0.9321595,-0.2804426,-0.2085899,-0.8584494,0.24125513,-0.47763515,-1.7617493,0.5134529,-0.5664236
0.0,-0.1,1.2999999999999998,-0.5235987755982988,0.5235987755982988,0,-0.80854595,-1.1685758,-1.2293698,-0.4815629,-0.35200703,0.820529,-0.5578582,-0.41365772,-0.970482,0.9863313,-0.4614646,-0.9406665,0.16916178,-0.4311806
0.0,-0.1,1.2999999999999998,-0.5235987755982988,0.5235987755982988,0,-0.9197515,-1.098466,-1.3116512,-0.34538937,-0.11451668,1.1043758,-0.47186935,-0.42950943,-0.99822533,0.30292532,-0.72586703,-0.98608106,0.6101833,-0.6839861
0.0,-0.1,1.2999999999999998,-0.5235987755982988,0.5235987755982988,0,-0.9880896,-1.0142957,-1.5063717,-0.37712878,0.2655325,0.8149711,-0.2798634,-0.5280245,-1.0227989,0.81712455,-0.21282709,-0.027823985,1.3840847,-0.5228932
0.0,-0.1,1.2999999999999998,-0.5235987755982988,0.5235987755982988,0,-0.8414143,-0.9612938,-1.4138557,-0.37768137,-0.49747777,0.8787189,-0.5668054,-0.33835673,-0.91368544,0.3731129,-0.15831587,-0.13104975,0.87014294,-0.6006989
0.0,-0.1,1.2999999999999998,-0.5235987755982988,0.5235987755982988,0,-0.97792315,-0.90705436,-1.4473674,-0.5036811,0.10983082,1.2463386,-0.09393632,-0.15650415,-0.7816535,0.20893173,-0.59877026,-0.7996147,1.0142632,-0.4544641
0.0,-0.1,1.2999999999999998,-0.5235987755982988,0.5235987755982988,0,-0.6921689,-1.1061558,-1.4156257,-0.34119433,0.29697028,0.7612649,-0.28090566,-0.23745899,-0.8508221,0.27513865,-0.559289,-0.5560959,0.415647,-0.4678184
0.0,-0.1,1.2999999999999998,-0.5235987755982988,0.5235987755982988,0,-0.77889514,-1.2163417,-1.3604462,-0.49952435,0.98499644,1.0072256,-0.5318903,-0.5682594,-1.1427095,0.26068202,-0.83453923,-0.3834676,0.34585994,-0.56587327
0.0,-0.1,1.2999999999999998,-0.5235987755982988,0.5235987755982988,0,-1.0177975,-1.166826,-0.99722594,-0.3668715,-0.2965782,0.942815,-0.22722097,-0.23880672,-0.9998815,-0.1471459,-0.3849283,-0.117274575,-0.025990415,-0.63675314
0.0,-0.1,1.2999999999999998,-0.5235987755982988,0.5235987755982988,0,-0.96688116,-1.2469534,-1.3109411,-0.25349572,0.44508955,1.0432926,-0.6886661,-0.108895116,-0.7277773,-0.039206162,-0.734811,-0.29320818,0.6962301,-0.5688953
0.0,-0.1,1.2999999999999998,-0.5235987755982988,0.5235987755982988,0,-0.9264767,-0.9574894,-1.2352848,-0.4505795,-0.22446191,1.1401491,-0.49572423,-0.15966079,-0.9816857,-0.07416306,-0.3853432,-0.7290769,0.5085669,-0.66560644
0.0,-0.1,1.2999999999999998,-0.5235987755982988,0.5235987755982988,0,-0.9799188,-0.9001732,-1.3067651,-0.43756106,-0.11016809,1.1663593,0.013926932,-0.38833693,-1.0069841,0.123849444,-0.2674803,-1.0979156,-0.18988828,-0.33381203
0.0,-0.1,1.2999999999999998,-0.5235987755982988,0.5235987755982988,0,-0.8623693,-0.83803713,-1.4166528,-0.33416104,-0.31669822,0.9981733,-0.13922593,-0.25116512,-0.7890687,-0.57359374,-0.28117922,0.14821282,-0.02931952,-0.54322654
0.0,-0.1,1.2999999999999998,-0.5235987755982988,0.5235987755982988,0,-0.7453603,-1.1119648,-1.3630614,-0.3656148,-0.16559735,0.6904071,0.29568392,-0.3594109,-0.9429891,0.6170547,-0.50981015,-0.9270848,0.21862096,-0.51288193
0.0,-0.1,1.2999999999999998,-0.5235987755982988,0.5235987755982988,0,-0.9259024,-0.84723383,-1.4310603,-0.5147395,-0.055588525,0.90263647,0.2331592,-0.3138393,-1.1192495,0.41811818,-0.2183518,0.25939333,0.48747557,-0.5500313
0.0,-0.1,1.2999999999999998,-0.5235987755982988,0.5235987755982988,0,-0.7463968,-1.0939621,-1.3591896,-0.4430652,-0.01584032,1.0441518,-0.41626912,-0.38906106,-0.97237325,0.73531,-0.6750183,-0.72228307,0.48268566,-0.25320163
0.0,-0.1,1.2999999999999998,-0.5235987755982988,0.5235987755982988,0,-0.9064458,-1.0651898,-1.3607202,-0.21968818,0.17009194,0.8846317,0.095945984,-0.03858804,-0.9197013,-0.3727966,-0.31103268,-1.3189496,1.1508403,-0.49649546
0.0,-0.1,1.2999999999999998,-0.5235987755982988,0.5235987755982988,0,-0.99183065,-1.1373928,-1.2294405,-0.38378116,0.10870138,0.99534816,-0.17101295,-0.4876269,-0.99951935,-0.11115675,-0.68975174,-0.90446377,0.48594487,-0.5616535
0.0,-0.1,1.2999999999999998,-0.5235987755982988,0.5235987755982988,0,-0.7713955,-1.1108557,-1.3373649,-0.4408698,0.17147395,0.66195595,-0.47876662,-0.41184926,-1.2259692,0.11084486,-0.746622,-0.106757134,0.55077934,-0.71149683
0.0,-0.1,1.2999999999999998,-0.5235987755982988,0.5235987755982988,0,-0.76178306,-1.1114485,-1.2197998,-0.4357512,-0.08223839,0.8120118,-0.18625389,-0.28062144,-1.3065368,0.36583686,-0.57973516,-0.34188437,-0.1345222,-0.642667
0.0,-0.1,1.2999999999999998,-0.5235987755982988,0.5235987755982988,0,-0.81477857,-1.1162918,-1.3042034,-0.3219414,-0.049614426,0.6755517,-0.46393347,-0.49919856,-0.8692329,0.56245005,-0.7941537,-0.58934987,0.8100138,-0.6170915
0.0,-0.1,1.2999999999999998,-0.5235987755982988,0.5235987755982988,0,-0.8600703,-1.1247905,-1.1888989,-0.49535674,0.22342066,1.0669644,0.27562526,-0.30669,-1.2993664,0.36688587,-0.95232415,-0.71595496,1.5496551,-0.65063155
0.0,-0.1,1.2999999999999998,-0.5235987755982988,0.5235987755982988,0,-0.94526935,-1.2982788,-0.99757594,-0.28806934,-0.42971224,1.214335,-0.29613635,-0.49176097,-1.3260219,-0.18649164,-0.8304417,-0.07752223,0.6008349,-0.8786673
0.0,-0.1,1.2999999999999998,-0.5235987755982988,0.5235987755982988,0,-0.9893973,-1.0872649,-1.2112336,-0.58474785,0.4153888,0.88206,-0.41721702,-0.27967295,-1.2258911,0.6522943,-0.5485431,-0.16351207,0.4474801,-0.72328466
0.0,-0.1,1.2999999999999998,-0.5235987755982988,0.5235987755982988,0,-0.83725,-0.9252794,-1.712659,-0.26347107,-0.22350731,0.6864756,-0.18444489,-0.23888156,-1.2742558,-0.11223497,-0.6208815,-0.94053465,0.20406117,-0.5357785
0.0,-0.1,1.2999999999999998,-0.5235987755982988,0.5235987755982988,0,-0.8406513,-1.0873724,-1.1057545,-0.49458823,-0.72540414,0.88332075,-0.36648306,-0.43910083,-1.0990791,0.48469514,-0.76911515,-0.30731943,1.4146575,-0.56721795
0.0,-0.1,1.2999999999999998,-0.5235987755982988,0.5235987755982988,0,-1.0144893,-1.2240647,-1.2529821,-0.37350008,-0.32286182,0.9061759,-0.5032907,-0.45539764,-1.274516,0.2961414,-0.78660786,-1.0974884,-0.5964202,-0.57712394
0.0,-0.1,1.2999999999999998,-0.5235987755982988,0.5235987755982988,0,-0.97677207,-0.87920743,-1.1518408,-0.38484958,-0.25933456,0.7924156,-0.34315425,-0.28242362,-1.2398757,0.46937844,-1.0120375,-0.47329026,0.94594556,-0.73163295
0.0,-0.1,1.2999999999999998,-0.5235987755982988,0.5235987755982988,0,-0.8405556,-0.9901922,-1.1933448,-0.42220455,-0.25178993,0.92798615,-0.81518644,-0.5382186,-1.187046,-0.296106,-0.43376952,-0.35286608,-0.0030271588,-0.7000084
0.0,-0.1,1.2999999999999998,-0.5235987755982988,0.5235987755982988,0,-0.9673739,-1.2203392,-1.1436974,-0.47132602,-0.59826094,1.1620121,0.11338685,-0.34041914,-1.0669774,0.2871561,-0.5103117,-0.6966998,0.09636007,-0.52610767
0.0,-0.1,1.2999999999999998,-0.5235987755982988,0.5235987755982988,0,-0.9541011,-1.1178757,-1.2977508,-0.2471904,-0.46176603,0.5285513,-0.013508077,-0.43728095,-1.373758,0.072180845,-1.1177312,-1.1369435,1.2369465,-0.5121225
0.0,-0.1,1.2999999999999998,-0.5235987755982988,0.5235987755982988,0,-0.8742922,-0.872411,-1.060016,-0.34241232,0.39348862,0.7612778,0.07154376,-0.4167778,-1.1691166,-0.29847488,-0.79195696,-0.9856706,0.70239365,-0.68889177
0.0,-0.1,1.2999999999999998,-0.5235987755982988,0.5235987755982988,0,-0.77719444,-0.77136207,-1.5001872,-0.32188088,0.051277213,0.94477665,0.16582957,-0.23716053,-1.0513756,0.47048068,-0.38789532,-1.0209354,0.8361441,-0.5606532
0.0,-0.1,1.2999999999999998,-0.5235987755982988,0.5235987755982988,0,-0.9017987,-0.760594,-1.2241713,-0.5430031,-0.13588384,0.8979583,-0.45124137,-0.26482624,-1.0239117,-0.22319584,-1.0497993,-1.4372411,0.4694008,-0.619595
0.0,-0.1,1.2999999999999998,-0.5235987755982988,0.5235987755982988,0,-0.932472,-1.3072854,-1.1716534,-0.29417643,-0.12386556,1.0694271,-0.56987804,-0.46136257,-1.0817535,0.052921142,-0.75026727,-0.8253427,-0.32718873,-0.7495824
0.0,-0.1,1.2999999999999998,-0.5235987755982988,0.5235987755982988,0,-0.9418248,-1.2745997,-1.2459753,-0.46448982,0.049268503,1.097814,-0.40348285,-0.43843225,-1.0890822,-0.19100444,-0.6931462,-0.96701384,0.2075159,-0.62403893
0.0,-0.1,1.2999999999999998,-0.5235987755982988,0.5235987755982988,0,-1.0507706,-1.15295,-1.273188,-0.39184064,-0.331286,0.86038214,-0.3900228,-0.3799417,-1.2903066,-0.33499366,-0.48794806,-0.08037774,0.17813912,-0.5072658
0.0,-0.1,1.2999999999999998,-0.5235987755982988,0.5235987755982988,0,-0.7863138,-0.99326974,-1.2508386,-0.41883108,0.12973014,1.3572335,-0.32089582,-0.15883277,-1.2260449,0.018037073,-0.62847924,-0.84462047,0.562361,-0.7216602
0.0,-0.1,1.2999999999999998,-0.5235987755982988,0.5235987755982988,0,-1.1607745,-1.0016038,-1.18031,-0.30762774,-0.15447602,0.7528649,0.3332723,-0.034551315,-1.0958657,0.28993106,-0.6739396,-0.59929645,0.92515224,-0.67864853
0.0,-0.1,1.2999999999999998,-0.5235987755982988,0.5235987755982988,0,-0.82790786,-0.8331421,-1.3452206,-0.66094077,0.21159863,0.98780817,0.18655547,-0.056260206,-1.2907643,0.4462987,-0.60320777,-0.5745003,0.92307746,-0.47100198
0.0,-0.1,1.2999999999999998,-0.5235987755982988,0.5235987755982988,0,-0.88556945,-0.8853135,-1.4425297,-0.3261113,-0.5649242,1.0599787,-0.96918845,-0.289022,-1.1541585,0.4367887,-0.3881893,-1.0676006,0.63531053,-0.5789832
0.0,-0.1,1.2999999999999998,-0.5235987755982988,0.5235987755982988,0,-0.6921,-1.0254468,-1.0288639,-0.4870323,-1.0188799,0.98218656,0.2760541,-0.064062595,-1.1159099,0.13000326,-0.74126744,-1.199483,0.1329292,-0.48119316
0.0,-0.1,1.2999999999999998,-0.5235987755982988,0.5235987755982988,0,-0.95976305,-0.9014134,-1.2321424,-0.46546555,-0.07354924,0.84521675,-0.9410238,-0.29420123,-1.1374426,-0.21384409,-0.91095537,-0.8816169,1.0067387,-0.55182767
0.0,-0.1,1.2999999999999998,-0.5235987755982988,0.5235987755982988,0,-0.9724467,-1.1025046,-1.0806179,-0.2571781,0.089003004,0.7260722,-0.7190704,-0.24149251,-1.2247889,0.17291343,-0.5327517,-0.64975387,0.6987103,-0.56606346
0.0,-0.1,1.2999999999999998,-0.5235987755982988,0.5235987755982988,0,-0.8333005,-0.8420722,-1.4714704,-0.21670496,0.6426287,0.93886787,-0.2423259,-0.25075546,-1.0881311,0.10438351,-0.9456609,0.16332951,0.6803317,-0.7256539
0.0,-0.1,1.2999999999999998,-0.5235987755982988,0.5235987755982988,0,-0.9212663,-1.2740641,-0.9306484,-0.4381777,-0.40378976,0.90916675,-0.5846849,-0.33089775,-1.099357,-0.030434793,-0.5431479,-0.54054487,0.99052894,-0.35251355
0.0,-0.1,1.2999999999999998,-0.5235987755982988,0.5235987755982988,0,-0.8317693,-1.0823797,-1.4065288,-0.12051796,0.31326964,0.8997217,-0.03865792,-0.27388957,-0.8019996,-0.0578783,-1.0809643,-1.3064699,0.6440021,-0.50796175
0.0,-0.1,1.2999999999999998,-0.5235987755982988,0.5235987755982988,0,-0.7927973,-1.2572396,-1.2864026,-0.7792498,0.033373423,1.0250511,-0.07959179,-0.25928232,-1.1743395,0.5720929,-0.48843047,-0.26137334,0.43162256,-0.3958966
0.0,-0.1,1.2999999999999998,-0.5235987755982988,0.5235987755982988,0,-0.9463973,-1.1339236,-1.2071319,-0.39514711,0.37805223,0.9415752,-0.67680126,-0.24742629,-1.2284954,0.13388975,-0.33361915,-0.38940543,0.22354476,-0.52251405
0.0,-0.1,1.2999999999999998,-0.5235987755982988,0.5235987755982988,0,-0.7475224,-1.1726644,-1.0641083,-0.46975577,-1.1907407,0.8906279,-0.5620348,-0.3517401,-0.94595206,0.15595756,-0.7801726,-1.1634458,1.0525968,-0.43537697
0.0,-0.1,1.2999999999999998,-0.5235987755982988,0.5235987755982988,0,-0.85657126,-1.2814924,-1.2744639,-0.40676063,-0.68787867,0.5021731,-0.65173525,-0.21155843,-0.79159224,0.61654073,-0.7174309,-1.4601408,0.4421884,-0.4858524
0.0,-0.1,1.2999999999999998,-0.5235987755982988,0.5235987755982988,0,-0.9305617,-1.0003488,-1.3426794,-0.40650573,0.26194245,1.0242954,-0.5846931,-0.4652751,-1.169511,-0.1283241,-0.69334525,-0.010665479,0.84808606,-0.522572
0.0,-0.1,1.2999999999999998,-0.5235987755982988,0.5235987755982988,0,-1.0944963,-1.1357235,-1.1602575,-0.5648774,-0.26115915,1.1830429,-0.80777675,-0.4458175,-1.0652399,-0.1176248,-0.69797224,-0.24835484,0.55367756,-0.48857644
0.0,-0.1,1.2999999999999998,-0.5235987755982988,0.5235987755982988,0,-0.8703763,-0.85072297,-1.2906629,-0.2698446,-0.3771251,1.1423173,-0.3034724,-0.04592241,-1.0052224,0.054397676,-0.36566478,-0.85112613,0.733345,-0.64340407
0.0,-0.1,1.2999999999999998,-0.5235987755982988,0.5235987755982988,0,-0.94996053,-0.9985839,-1.2308205,-0.36846146,-0.32437682,1.0807022,-0.31674156,-0.23172778,-0.99118453,0.51719767,-0.449378,-0.5368501,0.37362614,-0.5552271
0.0,-0.1,1.2999999999999998,-0.5235987755982988,0.5235987755982988,0,-1.0296533,-1.027154,-1.1118984,-0.6431142,-1.0293318,1.1975251,-0.47406048,-0.45755813,-1.0087358,-0.15586059,-0.45378953,-0.046772346,0.6123907,-0.6404253
0.0,-0.1,1.2999999999999998,-0.5235987755982988,0.5235987755982988,0,-0.83115584,-1.1853713,-1.3744631,-0.4478747,0.107294805,0.51779455,-0.23953801,-0.36902273,-1.0759631,0.7328583,-0.6308454,-0.6090217,0.7086292,-0.5967329
0.0,-0.1,1.2999999999999998,-0.5235987755982988,0.5235987755982988,0,-0.9149652,-1.0467235,-1.1307642,-0.41437542,-0.106154375,1.215559,-0.36081034,-0.14730497,-1.2343242,0.7516803,-0.16791385,-0.001292069,0.38224056,-0.40096763
0.0,-0.1,1.2999999999999998,-0.5235987755982988,0.5235987755982988,0,-0.8970689,-1.1538461,-1.2902563,-0.6076387,-0.2699135,1.0533296,-0.59896094,-0.26328284,-1.0818917,-0.10493736,-0.5024475,0.0850347,0.7396996,-0.39685234
0.0,-0.1,1.2999999999999998,-0.5235987755982988,0.5235987755982988,0,-0.9669842,-0.95921946,-1.2823464,-0.39545542,-0.39065972,1.0398644,-0.715667,-0.31293812,-1.0554339,0.10356587,-0.6026708,0.093737826,1.2052622,-0.5187987
0.0,-0.1,1.2999999999999998,-0.5235987755982988,0.5235987755982988,0,-0.9460655,-1.3696238,-1.137053,-0.48141927,-0.77269965,0.5270737,-0.4806165,-0.30538735,-1.148452,0.26565626,-0.32165682,-0.8972793,0.85657215,-0.52060723
0.0,-0.1,1.2999999999999998,-0.5235987755982988,0.5235987755982988,0,-1.1622615,-0.97829086,-1.1232163,-0.5595873,-0.6051852,1.035803,-0.21026717,-0.31204242,-1.1262339,-0.0552804,-0.64719534,-0.7990416,0.41842756,-0.49214542
0.0,-0.1,1.2999999999999998,-0.5235987755982988,0.5235987755982988,0,-0.9396634,-1.0812083,-1.6046284,-0.5200466,0.064742275,0.62862504,-0.98818946,-0.47623444,-1.0044717,0.17408077,-0.48640203,-0.8832034,-0.019837162,-0.5849895
0.0,-0.1,1.2999999999999998,-0.5235987755982988,0.5235987755982988,0,-0.69194925,-1.1047801,-1.2753751,-0.44167727,-0.29372564,0.86462945,-0.18998551,-0.37849098,-0.8746001,-0.12259214,-0.47250086,-0.40026593,0.5199996,-0.47104254
0.0,-0.1,1.2999999999999998,-0.5235987755982988,0.5235987755982988,0,-0.8946827,-0.93042994,-1.2073524,-0.3278736,-0.52341974,0.96286786,-0.39631358,0.008172191,-1.062026,0.41882992,-0.6172688,-1.3973631,0.072809294,-0.5997325
0.0,-0.1,1.2999999999999998,-0.5235987755982988,0.5235987755982988,0,-0.98623556,-1.0217241,-1.3517976,-0.712773,0.1081544,1.141903,-0.7152051,-0.09740116,-0.98511666,0.113175206,-0.921919,0.10064086,0.16007519,-0.6572276
0.0,-0.1,1.2999999999999998,-0.5235987755982988,0.5235987755982988,0,-1.0032252,-0.8546399,-1.4169458,-0.7246872,-0.77643025,1.1348165,-0.032406196,-0.12694572,-1.1162517,0.7241955,-0.64055026,0.24506123,0.41621447,-0.52720493
0.0,-0.1,1.2999999999999998,-0.5235987755982988,0.5235987755982988,0,-0.81974566,-0.93507254,-1.400893,-0.4831608,-0.30866233,0.71209383,-0.25642684,-0.38531673,-0.9320175,-0.061106257,-0.5664688,-0.8403284,0.56654936,-0.43644592
0.0,-0.1,1.2999999999999998,-0.5235987755982988,0.5235987755982988,0,-1.0723721,-1.0961343,-1.3685025,-0.492715,-0.74291414,0.6419376,-0.24749927,-0.43525076,-0.93748826,-0.24334833,-0.5916835,0.15128765,0.12438574,-0.5753655
0.0,-0.1,1.2999999999999998,-0.5235987755982988,0.5235987755982988,0,-0.8472365,-0.82222503,-1.3789332,-0.34080195,-0.5362527,0.87730724,-0.7082485,-0.25127664,-1.1266594,0.17300351,-0.6124536,0.40305206,0.83429843,-0.4331082
0.0,-0.1,1.2999999999999998,-0.5235987755982988,0.5235987755982988,0,-0.9426525,-0.70213765,-1.2060176,-0.5262927,-0.8278559,1.0926039,-0.8560403,-0.25799683,-1.1405563,-0.044004068,-0.5575743,-0.28164005,0.21174665,-0.5984059
0.0,-0.1,1.2999999999999998,-0.5235987755982988,0.5235987755982988,0,-0.95303226,-1.0938694,-1.2933979,-0.59393644,0.00045306247,0.94541556,-0.50918055,-0.313559,-1.1629146,0.021270955,-0.8085728,-0.614862,0.3583553,-0.596332
0.0,-0.1,1.2999999999999998,-0.5235987755982988,0.5235987755982988,0,-0.90922475,-1.0318708,-1.2229774,-0.35835642,-0.19325218,0.92144644,-0.12581506,-0.07718341,-0.9613518,0.0032225968,-0.8125233,-0.7523886,1.2556711,-0.63237023
0.0,-0.1,1.2999999999999998,-0.5235987755982988,0.5235987755982988,0,-0.9569349,-0.8768973,-1.4408214,-0.39957917,-0.16534644,1.1055434,-0.55551624,-0.3140852,-0.69122416,-0.4679968,-0.91653484,-0.7010503,0.5954136,-0.65715045
0.0,-0.1,1.2999999999999998,-0.5235987755982988,0.5235987755982988,0,-0.88998014,-1.1371799,-1.277418,-0.6360714,-0.20326851,0.7421882,-0.26582962,0.14080694,-1.0779066,1.4873986,-0.25533387,-0.1698914,0.3854157,-0.67238003
0.0,-0.1,1.2999999999999998,-0.5235987755982988,0.5235987755982988,0,-0.90286106,-0.85665536,-1.5147239,-0.22359331,-1.176918,0.59250855,-0.23331358,-0.30521235,-1.0597253,0.17441319,-0.84702367,-0.67257786,0.045536023,-0.43806854
0.0,-0.1,1.2999999999999998,-0.5235987755982988,0.5235987755982988,0,-0.88772243,-0.8756226,-1.1472692,-0.53746665,-1.1212095,0.9279888,-0.4786505,-0.0028018667,-1.2994065,0.35850534,-0.2422796,-1.0171931,0.69376194,-0.42591062
0.0,-0.1,1.2999999999999998,-0.5235987755982988,0.5235987755982988,0,-1.0802448,-1.1183093,-1.4256445,-0.42015287,-0.3189404,0.7567235,-0.7911896,-0.31296247,-1.2048732,0.96205246,-0.41946268,-0.5354581,0.7336493,-0.53809386
0.0,-0.1,1.2999999999999998,-0.5235987755982988,0.5235987755982988,0,-1.0827208,-1.1963241,-1.3986698,-0.58797044,-0.2711738,0.7738721,-0.43290177,-0.4159914,-0.95885265,-0.1825681,-0.83076024,-0.4500604,0.41756606,-0.65136075
0.0,-0.1,1.2999999999999998,-0.5235987755982988,0.5235987755982988,0,-0.914539,-1.2353395,-1.2991637,-0.46110955,-0.3490106,0.6569781,-0.2919503,-0.3948067,-1.2195618,0.49427125,-0.55984783,-0.1516622,0.49629244,-0.44590488
0.0,-0.1,1.2999999999999998,-0.5235987755982988,0.5235987755982988,0,-0.99494606,-0.9671762,-1.2435449,-0.45067558,-0.52230096,1.0237193,-0.42308703,-0.1279207,-0.9499002,-0.19182892,-0.6590102,-0.6121754,0.37595522,-0.74648076
0.0,-0.1,1.2999999999999998,-0.5235987755982988,0.5235987755982988,0,-0.892986,-1.1534171,-1.2523098,-0.28695524,-0.9951842,0.82431716,-0.6888266,-0.78465974,-0.98950326,-0.41130057,-0.67519444,-0.5877156,0.8455998,-0.5977005
0.0,-0.1,1.2999999999999998,-0.5235987755982988,0.5235987755982988,0,-0.8984369,-1.0067496,-1.3152007,-0.407775,-0.55731577,0.9611366,-0.76904154,-0.45726493,-0.94853663,-0.07775419,-0.4220627,-1.4638451,0.6259277,-0.44254693
0.0,-0.1,1.2999999999999998,-0.5235987755982988,0.5235987755982988,0,-0.97937006,-1.0581627,-1.4722201,-0.47501194,-0.43945727,0.77449745,-0.4245303,-0.44308037,-1.0325983,0.68528277,-0.29452896,-0.27129227,0.076183066,-0.4045762
0.0,-0.1,1.2999999999999998,-0.5235987755982988,0.5235987755982988,0,-0.9548119,-1.1332359,-1.1276627,-0.51782817,-0.599114,0.9644063,-0.33382505,-0.08833513,-1.03641,0.16291894,-0.33083966,-0.86581165,0.4623476,-0.5205665
0.0,-0.1,1.2999999999999998,-0.5235987755982988,0.5235987755982988,0,-0.9525901,-1.0181638,-1.2991874,-0.6472704,-0.54323435,1.1202674,-0.64310545,-0.23293309,-1.0502149,0.7613135,-0.61293423,-0.14070925,0.23687671,-0.60810447
0.0,-0.1,1.2999999999999998,-0.5235987755982988,0.5235987755982988,0,-1.0976245,-1.1684895,-1.4294373,-0.520354,-0.53846794,0.61715287,-0.05009738,-0.15139262,-1.1625932,0.2616569,-0.15579039,-1.0819799,0.46545774,-0.43027532
0.0,-0.1,1.2999999999999998,-0.5235987755982988,0.5235987755982988,0,-1.0976245,-1.1684895,-1.4294373,-0.520354,-0.53846794,0.61715287,-0.05009738,-0.15139262,-1.1625932,0.2616569,-0.15579039,-1.0819799,0.46545774,-0.43027532
0.0,-0.1,1.2999999999999998,-0.5235987755982988,0.5235987755982988,0,-1.0976245,-1.1684895,-1.4294373,-0.520354,-0.53846794,0.61715287,-0.05009738,-0.15139262,-1.1625932,0.2616569,-0.15579039,-1.0819799,0.46545774,-0.43027532
0.0,-0.1,1.2999999999999998,-0.5235987755982988,0.5235987755982988,0,-1.0976245,-1.1684895,-1.4294373,-0.520354,-0.53846794,0.61715287,-0.05009738,-0.15139262,-1.1625932,0.2616569,-0.15579039,-1.0819799,0.46545774,-0.43027532
0.0,-0.1,1.2999999999999998,-0.5235987755982988,0.5235987755982988,0,-0.8515093,-1.1566727,-1.4450556,-0.7566097,-0.3286404,1.0537176,-0.3285519,-0.28803188,-1.182597,0.4999047,-0.3762894,-0.5847343,0.73685116,-0.74751407
0.0,-0.1,1.2999999999999998,-0.5235987755982988,0.5235987755982988,0,-0.8515093,-1.1566727,-1.4450556,-0.7566097,-0.3286404,1.0537176,-0.3285519,-0.28803188,-1.182597,0.4999047,-0.3762894,-0.5847343,0.73685116,-0.74751407
0.0,-0.1,1.2999999999999998,-0.5235987755982988,0.5235987755982988,0,-0.8936969,-1.096715,-1.2896982,-0.6266231,-0.622713,0.9427928,-0.09000637,-0.30885595,-1.0338007,0.15973522,-0.68884987,0.33514816,1.3622851,-0.67458624
0.0,-0.1,1.2999999999999998,-0.5235987755982988,0.5235987755982988,0,-0.8936969,-1.096715,-1.2896982,-0.6266231,-0.622713,0.9427928,-0.09000637,-0.30885595,-1.0338007,0.15973522,-0.68884987,0.33514816,1.3622851,-0.67458624
0.0,-0.1,1.2999999999999998,-0.5235987755982988,0.5235987755982988,0,-0.8936969,-1.096715,-1.2896982,-0.6266231,-0.622713,0.9427928,-0.09000637,-0.30885595,-1.0338007,0.15973522,-0.68884987,0.33514816,1.3622851,-0.67458624
0.0,-0.1,1.2999999999999998,-0.5235987755982988,0.5235987755982988,0,-0.8936969,-1.096715,-1.2896982,-0.6266231,-0.622713,0.9427928,-0.09000637,-0.30885595,-1.0338007,0.15973522,-0.68884987,0.33514816,1.3622851,-0.67458624
0.0,-0.1,1.2999999999999998,-0.5235987755982988,0.5235987755982988,0,-0.8936969,-1.096715,-1.2896982,-0.6266231,-0.622713,0.9427928,-0.09000637,-0.30885595,-1.0338007,0.15973522,-0.68884987,0.33514816,1.3622851,-0.67458624
0.0,-0.1,1.2999999999999998,-0.5235987755982988,0.5235987755982988,0,-0.8816775,-0.78507656,-1.3557069,-0.32957953,-0.691845,0.8322219,-0.34684822,-0.20881897,-0.9625831,-0.3520994,-0.8353372,-0.14431743,0.43488735,-0.55576587
0.0,-0.1,1.2999999999999998,-0.5235987755982988,0.5235987755982988,0,-0.8816775,-0.78507656,-1.3557069,-0.32957953,-0.691845,0.8322219,-0.34684822,-0.20881897,-0.9625831,-0.3520994,-0.8353372,-0.14431743,0.43488735,-0.55576587
0.0,-0.1,1.2999999999999998,-0.5235987755982988,0.5235987755982988,0,-0.8816775,-0.78507656,-1.3557069,-0.32957953,-0.691845,0.8322219,-0.34684822,-0.20881897,-0.9625831,-0.3520994,-0.8353372,-0.14431743,0.43488735,-0.55576587
0.0,-0.1,1.2999999999999998,-0.5235987755982988,0.5235987755982988,0,-0.9106085,-0.92674696,-1.6211009,-0.13615473,-0.21207057,1.3220872,-0.06949091,-0.37939924,-1.3381037,0.05486366,-0.90850633,-0.557805,1.3998696,-0.59213376
0.0,-0.1,1.2999999999999998,-0.5235987755982988,0.5235987755982988,0,-0.9106085,-0.92674696,-1.6211009,-0.13615473,-0.21207057,1.3220872,-0.06949091,-0.37939924,-1.3381037,0.05486366,-0.90850633,-0.557805,1.3998696,-0.59213376
0.0,-0.1,1.2999999999999998,-0.5235987755982988,0.5235987755982988,0,-0.9106085,-0.92674696,-1.6211009,-0.13615473,-0.21207057,1.3220872,-0.06949091,-0.37939924,-1.3381037,0.05486366,-0.90850633,-0.557805,1.3998696,-0.59213376
0.0,-0.1,1.2999999999999998,-0.5235987755982988,0.5235987755982988,0,-1.0751847,-1.2862991,-1.4095675,-0.6272416,-0.4457539,0.9112296,-0.34079707,-0.31529662,-1.318408,-0.01807689,-0.7477247,-0.69848174,0.8481629,-0.5146391
0.0,-0.1,1.2999999999999998,-0.5235987755982988,0.5235987755982988,0,-1.0751847,-1.2862991,-1.4095675,-0.6272416,-0.4457539,0.9112296,-0.34079707,-0.31529662,-1.318408,-0.01807689,-0.7477247,-0.69848174,0.8481629,-0.5146391
0.0,-0.1,1.2999999999999998,-0.5235987755982988,0.5235987755982988,0,-1.0751847,-1.2862991,-1.4095675,-0.6272416,-0.4457539,0.9112296,-0.34079707,-0.31529662,-1.318408,-0.01807689,-0.7477247,-0.69848174,0.8481629,-0.5146391
0.0,-0.1,1.2999999999999998,-0.5235987755982988,0.5235987755982988,0,-1.047431,-1.3780051,-1.4117167,-0.21608105,0.16121756,1.2834758,-0.39632443,-0.48490414,-1.4607613,0.119226426,-0.50189584,-1.0250566,1.0277287,-0.629244
0.0,-0.1,1.2999999999999998,-0.5235987755982988,0.5235987755982988,0,-1.047431,-1.3780051,-1.4117167,-0.21608105,0.16121756,1.2834758,-0.39632443,-0.48490414,-1.4607613,0.119226426,-0.50189584,-1.0250566,1.0277287,-0.629244
0.0,-0.1,1.2999999999999998,-0.5235987755982988,0.5235987755982988,0,-1.047431,-1.3780051,-1.4117167,-0.21608105,0.16121756,1.2834758,-0.39632443,-0.48490414,-1.4607613,0.119226426,-0.50189584,-1.0250566,1.0277287,-0.629244
0.0,-0.1,1.2999999999999998,-0.5235987755982988,0.5235987755982988,0,-1.047431,-1.3780051,-1.4117167,-0.21608105,0.16121756,1.2834758,-0.39632443,-0.48490414,-1.4607613,0.119226426,-0.50189584,-1.0250566,1.0277287,-0.629244
0.0,-0.1,1.2999999999999998,-0.5235987755982988,0.5235987755982988,0,-1.047431,-1.3780051,-1.4117167,-0.21608105,0.16121756,1.2834758,-0.39632443,-0.48490414,-1.4607613,0.119226426,-0.50189584,-1.0250566,1.0277287,-0.629244
0.0,-0.1,1.2999999999999998,-0.5235987755982988,0.5235987755982988,0,-1.047431,-1.3780051,-1.4117167,-0.21608105,0.16121756,1.2834758,-0.39632443,-0.48490414,-1.4607613,0.119226426,-0.50189584,-1.0250566,1.0277287,-0.629244
0.0,-0.1,1.2999999999999998,-0.5235987755982988,0.5235987755982988,0,-1.047431,-1.3780051,-1.4117167,-0.21608105,0.16121756,1.2834758,-0.39632443,-0.48490414,-1.4607613,0.119226426,-0.50189584,-1.0250566,1.0277287,-0.629244
0.0,-0.1,1.2999999999999998,-0.5235987755982988,0.5235987755982988,0,-0.8148209,-1.3246404,-1.2438762,-0.55606097,-0.46169388,1.1961086,-0.39422527,-0.59148186,-1.1554712,0.2997365,-0.70495296,-0.4826721,-0.2107062,-0.5547582
0.0,-0.1,1.2999999999999998,-0.5235987755982988,0.5235987755982988,0,-0.8148209,-1.3246404,-1.2438762,-0.55606097,-0.46169388,1.1961086,-0.39422527,-0.59148186,-1.1554712,0.2997365,-0.70495296,-0.4826721,-0.2107062,-0.5547582
0.0,-0.1,1.2999999999999998,-0.5235987755982988,0.5235987755982988,0,-0.8148209,-1.3246404,-1.2438762,-0.55606097,-0.46169388,1.1961086,-0.39422527,-0.59148186,-1.1554712,0.2997365,-0.70495296,-0.4826721,-0.2107062,-0.5547582
0.0,-0.1,1.2999999999999998,-0.5235987755982988,0.5235987755982988,0,-0.8148209,-1.3246404,-1.2438762,-0.55606097,-0.46169388,1.1961086,-0.39422527,-0.59148186,-1.1554712,0.2997365,-0.70495296,-0.4826721,-0.2107062,-0.5547582
0.0,-0.1,1.2999999999999998,-0.5235987755982988,0.5235987755982988,0,-0.93504435,-1.244821,-1.4343996,-0.49816203,-0.084746286,0.91823137,-0.45728055,-0.5589977,-0.9225973,0.010395135,-0.36796886,-0.62324095,0.79341894,-0.51955295
