sanky1234/BimanualDexCatch/isaacgymenvs/cem_results/football_pose_-0.2_-0.1_1.4_-0.5235987755982988_0.0_0_2025-05-24.csv
x,y,z,roll,pitch,yaw,robot1/joint1,robot1/joint2,robot1/joint3,robot1/joint4,robot1/joint5,robot1/joint6,robot1/joint7,robot2/joint1,robot2/joint2,robot2/joint3,robot2/joint4,robot2/joint5,robot2/joint6,robot2/joint7
-0.2,-0.1,1.4,-0.5235987755982988,0.0,0,1.6440605,0.7776852,1.0029104,0.27388072,-0.21996342,0.69581324,2.1990347,-1.4168092,1.2284826,-0.27509323,0.0682769,-0.054569095,1.1779696,-1.1992683
-0.2,-0.1,1.4,-0.5235987755982988,0.0,0,1.638767,0.7832527,0.9991373,0.2831954,-0.076181754,0.6981603,2.108884,-1.4510463,0.6769268,-0.36582446,0.15997177,0.38527086,1.3331052,0.27846342
-0.2,-0.1,1.4,-0.5235987755982988,0.0,0,1.6468644,0.7789682,1.0040742,0.2747509,-0.14719294,0.6649055,1.8214829,-1.4204211,1.0246519,-0.22833334,0.107865565,0.13998415,1.4748805,0.052812573
-0.2,-0.1,1.4,-0.5235987755982988,0.0,0,1.6417146,0.7826614,1.0023845,0.28540564,-0.09909018,0.7002263,2.0165427,-1.4741893,0.8043617,0.22790617,-0.13004607,-0.08027926,1.3002564,-0.09306878
-0.2,-0.1,1.4,-0.5235987755982988,0.0,0,1.6404586,0.78341216,0.9971973,0.28603315,-0.16725446,0.695922,1.7421082,-1.4866642,0.7942422,-0.1054973,0.0145984655,-0.07293508,1.1184498,-0.59778035
-0.2,-0.1,1.4,-0.5235987755982988,0.0,0,1.6430119,0.77831626,1.0025859,0.2734025,0.101228744,0.7119056,2.2101703,-1.4364204,1.1051567,0.41104892,0.07308697,0.10022481,0.95451576,-0.5511638
-0.2,-0.1,1.4,-0.5235987755982988,0.0,0,1.6428403,0.7921749,1.0025792,0.2735127,-0.18405715,0.7037359,2.0868428,-1.5560601,0.97393197,-0.06917862,-0.075220294,0.55392426,0.9674277,-0.7951655
-0.2,-0.1,1.4,-0.5235987755982988,0.0,0,1.6406102,0.7821725,1.0012604,0.27931714,-0.19467342,0.6680494,1.8962765,-1.6004087,1.0798498,-0.06216182,-0.13582854,0.22417024,1.1704605,-0.3010577
-0.2,-0.1,1.4,-0.5235987755982988,0.0,0,1.643859,0.7686245,1.004133,0.2786721,-0.24546008,0.6903589,1.8739945,-1.4797664,1.1938494,-0.09657312,-0.08988962,0.13788065,0.99667615,-1.1824894
-0.2,-0.1,1.4,-0.5235987755982988,0.0,0,1.6465008,0.7873141,1.0027373,0.27741614,-0.07915139,0.67515343,2.0526798,-1.4304832,1.2815332,0.026955117,-0.014110399,-0.22866493,1.1274884,0.46540797
-0.2,-0.1,1.4,-0.5235987755982988,0.0,0,1.6389793,0.78215843,1.0035481,0.27672556,-0.078176215,0.6778684,2.139066,-1.5314114,0.9266886,0.23973843,-0.03611096,-0.042609967,1.18298,0.34382632
-0.2,-0.1,1.4,-0.5235987755982988,0.0,0,1.6389472,0.78186315,1.0057135,0.2773933,-0.16727713,0.6709898,2.0809014,-1.5185474,1.3479601,-0.13551746,-0.11508844,-0.11186864,1.0425782,-0.44984528
-0.2,-0.1,1.4,-0.5235987755982988,0.0,0,1.6434911,0.7978915,0.9997043,0.2798124,0.124357045,0.6808349,2.0660415,-1.384953,0.92480856,-0.45027468,-0.14940117,-0.002762312,1.1327538,-0.9820994
-0.2,-0.1,1.4,-0.5235987755982988,0.0,0,1.6435475,0.77604485,0.99964756,0.2792597,0.101413295,0.7048672,2.3758101,-1.3733436,1.2023691,0.21475334,0.006268422,-0.40794572,0.97260106,0.48251343
-0.2,-0.1,1.4,-0.5235987755982988,0.0,0,1.6441379,0.78100985,1.0035753,0.2782944,0.08165122,0.6875352,2.158362,-1.4454936,0.95209676,-0.21994913,-0.0854479,-0.027276274,0.95627636,0.42976755
-0.2,-0.1,1.4,-0.5235987755982988,0.0,0,1.6416366,0.7733475,0.99912584,0.27630374,0.07994852,0.7038378,2.0832691,-1.521529,0.9883259,-0.21491234,0.0654506,0.18827394,0.93895125,-0.36683345
-0.2,-0.1,1.4,-0.5235987755982988,0.0,0,1.6437091,0.7888697,0.99704516,0.28362235,-0.010621553,0.674657,1.8984498,-1.5707678,0.9098926,-0.07748466,0.12088888,-0.26633298,1.2917293,-0.010316822
-0.2,-0.1,1.4,-0.5235987755982988,0.0,0,1.6433705,0.7818664,1.0028217,0.28169164,0.16339739,0.6794012,2.1956687,-1.4789792,0.98020744,-0.07566958,-0.107358,0.8281864,1.1702986,0.5961095
-0.2,-0.1,1.4,-0.5235987755982988,0.0,0,1.6393286,0.7846268,1.0006484,0.2773798,-0.23912534,0.6827593,2.2537339,-1.2522491,1.2797633,-0.18603788,0.120205484,0.13597345,0.9029294,0.098727964
-0.2,-0.1,1.4,-0.5235987755982988,0.0,0,1.6455048,0.7777793,1.0025482,0.27071506,0.09558546,0.69339365,2.2086692,-1.5207537,1.203053,0.39561737,0.07101925,-0.115137264,1.0410086,-0.016379954
-0.2,-0.1,1.4,-0.5235987755982988,0.0,0,1.6435165,0.7796684,1.0024403,0.28023776,0.17668918,0.68079484,2.095244,-1.6887901,1.2096583,-0.07896488,-0.096186645,-0.43937552,1.0097749,0.5339996
-0.2,-0.1,1.4,-0.5235987755982988,0.0,0,1.6423811,0.79420316,1.001431,0.273589,-0.21850663,0.6906929,1.5897794,-1.4909252,1.2123009,0.27729416,0.015417319,-0.37001893,1.1906482,-0.1935499
-0.2,-0.1,1.4,-0.5235987755982988,0.0,0,1.6441635,0.7833606,1.0102899,0.27566913,-0.012821132,0.68411434,1.963547,-1.493199,1.0935063,0.044452704,-0.018582022,0.050403006,1.0773196,-0.6255539
-0.2,-0.1,1.4,-0.5235987755982988,0.0,0,1.6368207,0.7776813,1.0024762,0.2838717,-0.16646929,0.6871013,2.3077743,-1.3891009,1.3110546,-0.20480114,-0.07990303,0.23133923,1.2845503,0.25367856
-0.2,-0.1,1.4,-0.5235987755982988,0.0,0,1.6423987,0.7923107,1.0057758,0.27911177,-0.0013304654,0.705866,2.0779996,-1.518581,0.99201304,0.18634382,-0.07951065,0.19455944,1.2668645,-0.15096468
-0.2,-0.1,1.4,-0.5235987755982988,0.0,0,1.6416988,0.7729072,1.0042917,0.28754747,0.14607818,0.6612939,1.904332,-1.6423283,0.94461304,-0.12861197,-0.18138687,0.63987464,1.2993711,-0.6719766
-0.2,-0.1,1.4,-0.5235987755982988,0.0,0,1.6409117,0.7843831,1.0062575,0.2791035,0.10418189,0.6819333,1.9266391,-1.3874246,0.8446657,0.013073379,-0.035416637,0.046578452,1.0176187,-0.05383451
-0.2,-0.1,1.4,-0.5235987755982988,0.0,0,1.6399289,0.7863436,1.0054104,0.2735966,-0.03320751,0.70778126,2.0852711,-1.409854,1.3764791,-0.13117877,-0.06426813,-0.0013065552,1.2897875,0.4722565
-0.2,-0.1,1.4,-0.5235987755982988,0.0,0,1.6394484,0.7763495,1.0010965,0.27875745,-0.18276186,0.6765046,1.7856044,-1.5235054,0.9896823,0.04293828,-0.0484247,0.5123137,1.104878,0.32594767
-0.2,-0.1,1.4,-0.5235987755982988,0.0,0,1.6382596,0.78543466,1.0050037,0.2790513,-0.2518122,0.6783476,2.4792697,-1.5252433,0.85742956,0.06788465,-0.08418899,0.6710755,1.1261019,0.13324657
-0.2,-0.1,1.4,-0.5235987755982988,0.0,0,1.6408339,0.7867798,1.0007012,0.2829317,0.17618713,0.6998426,1.906828,-1.5437795,1.5786685,-0.15112719,0.25835836,-0.039390784,0.9164673,-0.44429347
-0.2,-0.1,1.4,-0.5235987755982988,0.0,0,1.642616,0.78996915,0.9938723,0.28109455,0.05867894,0.7035413,2.1865242,-1.5344673,1.3676351,0.23327743,-0.029817713,-0.96749616,1.0551306,-0.42857072
-0.2,-0.1,1.4,-0.5235987755982988,0.0,0,1.6422244,0.7905217,1.0047944,0.27809823,0.16987708,0.68353784,1.8427522,-1.4356503,1.0063359,-0.117534004,-0.080032475,1.0293386,1.0875338,-0.72072154
-0.2,-0.1,1.4,-0.5235987755982988,0.0,0,1.6378475,0.78744805,1.0002434,0.28469566,-0.008275555,0.68158674,1.6827714,-1.4395387,0.821193,0.08645453,-0.13548031,-0.041134153,1.1339095,0.5340248
-0.2,-0.1,1.4,-0.5235987755982988,0.0,0,1.6393548,0.7829727,1.0031877,0.28212622,-0.009561546,0.69847786,1.9378773,-1.6452434,1.3093055,-0.16079853,-0.10499673,0.3417652,1.1649089,-0.4194496
-0.2,-0.1,1.4,-0.5235987755982988,0.0,0,1.6418715,0.7873034,1.0073888,0.28054693,-0.0051937806,0.68666154,1.9554257,-1.5315531,1.3154808,-0.033847887,-0.058397777,-0.31261498,1.0845089,0.24100883
-0.2,-0.1,1.4,-0.5235987755982988,0.0,0,1.6419344,0.7817003,1.0013852,0.2794106,-0.011352854,0.6925187,2.186676,-1.4280052,1.0227667,-0.28604698,0.103274934,0.40789014,1.145604,-0.012346339
-0.2,-0.1,1.4,-0.5235987755982988,0.0,0,1.6379735,0.78737587,0.99906725,0.26749894,0.047666382,0.6835002,1.7330468,-1.4013108,0.998812,-0.07654415,-0.15860836,-0.4988138,0.92293555,-0.45531434
-0.2,-0.1,1.4,-0.5235987755982988,0.0,0,1.6424671,0.77403647,1.0031254,0.2814154,0.09938272,0.67648166,1.777271,-1.5051605,0.7444032,-0.17051058,-0.021332527,0.56422687,1.1447701,-0.82682586
-0.2,-0.1,1.4,-0.5235987755982988,0.0,0,1.6417675,0.7815157,1.00096,0.27950293,-0.068940066,0.6827466,1.8946486,-1.5185727,1.1918788,-0.061736755,-0.015938401,0.2475595,1.1322851,-0.17171118
-0.2,-0.1,1.4,-0.5235987755982988,0.0,0,1.6412854,0.77872753,1.0043532,0.27646726,-0.21959068,0.69146085,1.9593372,-1.3930434,1.3409662,0.11365324,-0.026894487,0.28374353,1.1051813,0.14950415
-0.2,-0.1,1.4,-0.5235987755982988,0.0,0,1.6460303,0.76967174,0.9976177,0.28101033,-0.20138127,0.70136094,1.5416845,-1.5329303,1.0432446,-0.005333692,0.06810616,-0.08855964,1.2006589,-0.5434528
-0.2,-0.1,1.4,-0.5235987755982988,0.0,0,1.6365587,0.77556944,1.0054636,0.27983683,0.080004014,0.69735634,2.138219,-1.4414538,1.186022,0.07703641,0.15581317,0.07930189,1.081306,-0.009339671
-0.2,-0.1,1.4,-0.5235987755982988,0.0,0,1.6435665,0.7689382,0.9994832,0.2799346,-0.034398317,0.6792595,1.8639748,-1.3927758,1.1684581,-0.4003349,-0.034064654,0.12719287,1.3836732,-0.10825864
-0.2,-0.1,1.4,-0.5235987755982988,0.0,0,1.6445855,0.79029655,1.0064452,0.28145587,0.15890656,0.709736,1.9542004,-1.308506,1.2372545,0.06669436,-0.1796418,-1.0711159,1.1406263,-0.53063905
-0.2,-0.1,1.4,-0.5235987755982988,0.0,0,1.6412235,0.7835385,1.0024605,0.27900755,-0.2546558,0.6859131,1.9296865,-1.4811237,1.1673887,-0.28096554,-0.19260049,-0.21354714,1.0440314,-0.15843855
-0.2,-0.1,1.4,-0.5235987755982988,0.0,0,1.6404495,0.7781715,1.0018351,0.27197006,-0.19343702,0.7011422,1.8733125,-1.658441,1.1959531,0.0040692626,-0.0041850572,-0.01214302,1.0109785,0.0019343388
-0.2,-0.1,1.4,-0.5235987755982988,0.0,0,1.6431328,0.77793944,1.0015302,0.27622458,0.13084377,0.711549,2.1770346,-1.5170758,0.7716685,-0.031935,-0.029457217,-0.25458476,0.9041573,-0.77261865
-0.2,-0.1,1.4,-0.5235987755982988,0.0,0,1.6407154,0.7831194,1.0009314,0.27873993,0.12443681,0.66149676,1.9329704,-1.4065709,1.1529293,-0.061468102,-0.16125034,0.3692402,1.2121648,-0.08340593
-0.2,-0.1,1.4,-0.5235987755982988,0.0,0,1.6447407,0.7744023,0.9967725,0.28629118,-0.12468852,0.70320356,1.9197693,-1.4513537,1.4377071,-0.11262793,0.061026216,-0.97643244,0.9395591,0.40307152
-0.2,-0.1,1.4,-0.5235987755982988,0.0,0,1.642717,0.7742639,0.9966751,0.28525135,0.015014682,0.6816718,2.0488532,-1.6191807,1.2263836,-0.08748702,-0.110094905,-0.3788542,1.133937,1.3012145
-0.2,-0.1,1.4,-0.5235987755982988,0.0,0,1.6378124,0.76540214,1.0049732,0.27666837,0.015967632,0.6827723,1.9653949,-1.4715763,0.91101384,-0.015542951,-0.0031262373,0.60474515,1.0941087,-0.536811
-0.2,-0.1,1.4,-0.5235987755982988,0.0,0,1.643472,0.78207093,0.99953085,0.276228,-0.095220864,0.69163173,1.9996636,-1.303818,1.1993148,0.019774994,0.05518142,-0.24917233,1.2438033,-0.07402656
-0.2,-0.1,1.4,-0.5235987755982988,0.0,0,1.6381623,0.7862127,1.0017582,0.2772322,-0.1449139,0.67907786,1.8772696,-1.3138165,1.2887272,-0.20687439,-0.07051257,-0.54934376,1.2146281,-0.2683033
-0.2,-0.1,1.4,-0.5235987755982988,0.0,0,1.6410414,0.7774473,0.99635947,0.28396517,0.046215486,0.7124073,1.9769298,-1.5608939,0.93485034,-0.02420867,0.21688244,-0.28049985,0.9203589,0.7193894
-0.2,-0.1,1.4,-0.5235987755982988,0.0,0,1.6445426,0.7811863,1.0049428,0.27606437,0.14553902,0.69661915,1.9954005,-1.5212107,1.1936288,0.3050596,-0.058318287,0.008520727,1.2294945,-0.54237264
-0.2,-0.1,1.4,-0.5235987755982988,0.0,0,1.6441088,0.7822514,1.0067887,0.27844235,0.053298064,0.6628562,2.1999578,-1.3118199,0.95075184,-0.18630026,0.04433107,0.50379723,1.1106819,-0.67267215
-0.2,-0.1,1.4,-0.5235987755982988,0.0,0,1.6392823,0.7868232,1.0009978,0.27537882,0.023364909,0.6633295,1.7867028,-1.5733331,1.3614709,1.1566649e-05,0.09427714,0.093102306,1.2287794,-6.0947026e-05
-0.2,-0.1,1.4,-0.5235987755982988,0.0,0,1.6413201,0.77993774,1.0033195,0.27664208,0.05050347,0.69907767,2.1452625,-1.494855,1.2451044,-0.0732863,-0.14126119,0.7877417,1.102137,-0.69210064
-0.2,-0.1,1.4,-0.5235987755982988,0.0,0,1.640579,0.78282034,1.0032079,0.28074187,0.1418233,0.6722619,1.7144256,-1.5607722,0.90700954,-0.06610596,0.24520059,0.13594115,1.0036999,-0.42878798
-0.2,-0.1,1.4,-0.5235987755982988,0.0,0,1.64061,0.7774975,1.0043659,0.278575,-0.0379494,0.676232,1.7476299,-1.6262456,0.7956676,-0.114416376,-0.009318543,0.3433157,1.2850441,-0.08763117
-0.2,-0.1,1.4,-0.5235987755982988,0.0,0,1.641825,0.7761535,1.0009358,0.27545232,-0.2964667,0.69023156,2.2454147,-1.3923573,0.9300445,-0.19215788,0.18249919,0.28411886,1.0536999,-0.32707536
-0.2,-0.1,1.4,-0.5235987755982988,0.0,0,1.6459072,0.78677696,1.0036244,0.28004882,0.048964366,0.6960499,1.894015,-1.4762708,1.141857,0.21722203,-0.106221765,-0.12212172,1.1237886,-0.22158588
-0.2,-0.1,1.4,-0.5235987755982988,0.0,0,1.6413031,0.78624785,1.002607,0.27982584,0.16824208,0.66271037,2.0107822,-1.5303229,1.2419723,-0.10115061,-0.16048415,-0.13625371,1.2788754,-0.24881206
-0.2,-0.1,1.4,-0.5235987755982988,0.0,0,1.6429409,0.78114945,1.0010865,0.28104496,0.22360295,0.6812637,2.0785766,-1.4973629,0.98679924,-0.010902719,-0.046818145,0.16146447,1.0085958,-0.45306927
-0.2,-0.1,1.4,-0.5235987755982988,0.0,0,1.6403856,0.7846991,1.0002446,0.27968153,-0.18156268,0.6817128,2.0978868,-1.372521,1.155923,0.049645584,0.055439327,-0.14180915,1.03193,-0.5306366
-0.2,-0.1,1.4,-0.5235987755982988,0.0,0,1.6405035,0.78524494,1.0035895,0.27662405,-0.07056565,0.6877657,1.7328928,-1.5291517,0.8810229,0.0041024764,0.10306563,0.9282373,1.0550555,-0.32584456
-0.2,-0.1,1.4,-0.5235987755982988,0.0,0,1.6393428,0.7907281,0.9983223,0.2781302,-0.061335668,0.6749046,1.9154385,-1.4905179,1.1458203,-0.034392025,0.022309411,-0.022850694,1.1419553,-1.186075
-0.2,-0.1,1.4,-0.5235987755982988,0.0,0,1.6422188,0.773039,1.0035986,0.27854952,-0.15907973,0.6832462,1.9616047,-1.3291489,1.3037616,-0.1154031,0.012940909,-0.9919192,1.2949038,-0.5844477
-0.2,-0.1,1.4,-0.5235987755982988,0.0,0,1.6383691,0.7889937,1.0010904,0.27520168,0.1621088,0.67328256,1.855103,-1.5874096,1.0614775,-0.040473975,-0.05271764,-0.07793546,1.1873468,-0.43352062
-0.2,-0.1,1.4,-0.5235987755982988,0.0,0,1.6425333,0.79250854,0.99902064,0.277216,-0.25528246,0.68822616,1.9398564,-1.4569603,1.1342696,0.20974366,0.026517458,-0.048167247,1.2205011,0.014129341
-0.2,-0.1,1.4,-0.5235987755982988,0.0,0,1.6413962,0.7957112,1.0037166,0.27601013,-0.16430384,0.69574744,1.8263936,-1.3438011,1.416405,0.14478561,0.04516726,0.4158466,1.0856187,-0.4738748
-0.2,-0.1,1.4,-0.5235987755982988,0.0,0,1.6399977,0.7846497,1.0012348,0.28291133,0.008219488,0.68484694,2.1839418,-1.4025532,0.89388686,-0.14129986,-0.028766593,0.26266533,0.9675709,-0.25528705
-0.2,-0.1,1.4,-0.5235987755982988,0.0,0,1.6431328,0.7856978,1.001302,0.283544,0.03512292,0.64975524,1.8879268,-1.4163438,0.85754985,-0.036758043,0.04482886,-0.11028413,1.2464905,0.07721297
-0.2,-0.1,1.4,-0.5235987755982988,0.0,0,1.642235,0.7758191,1.0010828,0.27793783,0.045022797,0.7080096,1.9987385,-1.468363,1.2582408,-0.00571991,0.08599385,-0.35398173,1.3349272,0.47805667
-0.2,-0.1,1.4,-0.5235987755982988,0.0,0,1.6418408,0.77502465,1.0080329,0.28065228,0.1852181,0.67567587,2.0413465,-1.4714068,1.1032673,-0.11380169,-0.0013941436,-0.10860139,1.1497107,-1.1236792
-0.2,-0.1,1.4,-0.5235987755982988,0.0,0,1.6400056,0.78304267,1.0051147,0.27534294,0.1506474,0.69215286,2.0115633,-1.5106989,1.0510001,-0.05345484,0.0717759,0.021819087,0.9849011,-0.8434888
-0.2,-0.1,1.4,-0.5235987755982988,0.0,0,1.6443802,0.7726689,0.9995609,0.27954212,0.18133098,0.7038995,1.9462374,-1.2436914,1.1595478,-0.102997325,0.24523613,0.41569594,1.183841,0.052919652
-0.2,-0.1,1.4,-0.5235987755982988,0.0,0,1.6420227,0.7806365,1.0045131,0.27783337,0.1187869,0.7043422,1.8079966,-1.4452137,1.2640713,0.1415265,-0.0730971,-0.20801589,1.1220491,-0.62262875
-0.2,-0.1,1.4,-0.5235987755982988,0.0,0,1.6429279,0.79020816,0.9946136,0.27320898,-0.46382192,0.67717314,1.9189843,-1.3521221,1.3470153,0.2079938,0.0817494,0.3906664,1.1687394,-0.6748846
-0.2,-0.1,1.4,-0.5235987755982988,0.0,0,1.6437883,0.76866966,0.9991406,0.27784136,0.11422381,0.66305965,1.9338679,-1.5654415,0.7925434,0.04437237,-0.048730593,-0.9235809,0.9546543,-0.25976858
-0.2,-0.1,1.4,-0.5235987755982988,0.0,0,1.647185,0.7915049,1.00238,0.27694035,0.17801207,0.7147341,2.0424836,-1.3943485,0.78662163,0.10846849,0.012116762,-0.481472,1.0365094,-0.7492257
-0.2,-0.1,1.4,-0.5235987755982988,0.0,0,1.6394618,0.7880385,1.0024945,0.28330657,0.010922411,0.6887351,1.6695418,-1.5204296,1.0253472,0.16820048,-0.11651791,-0.037057504,1.0333583,-0.4010102
-0.2,-0.1,1.4,-0.5235987755982988,0.0,0,1.6434977,0.7874224,1.0047802,0.2801554,0.18145838,0.6875165,2.3473332,-1.5118668,1.2752433,0.11126237,0.06752266,-0.6346514,1.417907,-0.2911179
-0.2,-0.1,1.4,-0.5235987755982988,0.0,0,1.6455778,0.7843174,1.0034496,0.2781748,-0.21210885,0.6823633,2.2265565,-1.3778198,1.0018852,0.03696912,0.09394256,-0.08906716,1.1215316,-0.15011148
-0.2,-0.1,1.4,-0.5235987755982988,0.0,0,1.6446034,0.78834534,0.9954276,0.2851836,0.046103276,0.6705732,2.0975552,-1.4251952,1.3856765,-0.41711333,0.17118026,-0.34781706,1.1312646,-0.51516664
-0.2,-0.1,1.4,-0.5235987755982988,0.0,0,1.6455338,0.77274054,1.0038512,0.27629206,0.13037102,0.66999173,1.8934599,-1.5665637,1.1595131,-0.08524478,0.15623662,0.5957003,1.2043363,-0.3612523
-0.2,-0.1,1.4,-0.5235987755982988,0.0,0,1.6461136,0.77857083,1.0034924,0.27620485,0.09970997,0.6806618,1.7025214,-1.4757814,1.2029836,-0.045161698,-0.018571604,0.055838447,1.1571666,-0.50659895
-0.2,-0.1,1.4,-0.5235987755982988,0.0,0,1.6408018,0.77312285,1.0030755,0.27765122,0.13295576,0.6852376,1.9779934,-1.645184,1.2781103,0.029789066,-0.03797725,-0.03372712,1.0013969,0.44789156
-0.2,-0.1,1.4,-0.5235987755982988,0.0,0,1.641356,0.7799073,0.99548644,0.2761001,-0.11535357,0.6939231,2.0236442,-1.421196,1.1100775,0.01818307,-0.020166019,0.23772135,1.0432222,-0.087009475
-0.2,-0.1,1.4,-0.5235987755982988,0.0,0,1.6406951,0.7895962,0.9988595,0.27907375,0.046491396,0.7074063,1.9085106,-1.4389452,1.2837945,0.14012048,0.15614279,-0.8134579,1.1447763,-0.9884581
-0.2,-0.1,1.4,-0.5235987755982988,0.0,0,1.642578,0.7707311,1.0038192,0.2760236,0.056153037,0.6928822,1.9591296,-1.3769875,1.3186861,0.032108735,-0.060793567,-0.30364615,1.1886806,-0.58074725
-0.2,-0.1,1.4,-0.5235987755982988,0.0,0,1.6389228,0.7836139,1.0004431,0.2896359,0.011276437,0.6911438,1.9580272,-1.4544338,1.2795045,0.04407065,-0.03175838,0.2324207,1.1493928,0.5679196
-0.2,-0.1,1.4,-0.5235987755982988,0.0,0,1.6423358,0.7780385,0.99854565,0.2808389,0.19623803,0.69657236,2.0285354,-1.4181724,0.99044377,0.005036281,-0.011432872,-0.033748318,1.1147994,-0.75947666
-0.2,-0.1,1.4,-0.5235987755982988,0.0,0,1.6428944,0.7829486,0.99539727,0.28197145,0.07467957,0.64280915,2.0392797,-1.4074079,1.0112395,-0.13190848,-0.013153562,0.22216934,1.2004913,-0.21648265
-0.2,-0.1,1.4,-0.5235987755982988,0.0,0,1.6399244,0.76925755,1.0011364,0.27930412,-0.13740626,0.654575,1.9533002,-1.543746,1.0850245,-0.03081845,-0.0023729473,0.11922985,0.9527471,-0.98882
-0.2,-0.1,1.4,-0.5235987755982988,0.0,0,1.6453946,0.77440065,0.9992587,0.27928528,-0.07938129,0.6769165,2.095693,-1.4137592,1.2472517,-0.15093811,0.08276566,-0.41821903,0.95170414,-0.4363284
-0.2,-0.1,1.4,-0.5235987755982988,0.0,0,1.6364596,0.7810878,1.00341,0.28320277,0.08089504,0.6432324,1.9552532,-1.496592,1.1223793,0.20948608,-0.098887466,-0.9041531,1.1555394,-0.56319255
-0.2,-0.1,1.4,-0.5235987755982988,0.0,0,1.6412086,0.77894604,1.0006511,0.2797839,0.14748958,0.6836369,1.958437,-1.6220675,1.2927198,0.027060082,0.20809188,0.46835113,0.96371096,-0.19040823
-0.2,-0.1,1.4,-0.5235987755982988,0.0,0,1.6415114,0.77597094,1.0019547,0.28042036,-0.13477597,0.68705904,2.0346456,-1.6484472,1.2286383,0.18915507,-0.0060968837,0.098612234,1.0579472,-0.687357
-0.2,-0.1,1.4,-0.5235987755982988,0.0,0,1.6401411,0.77719027,1.0002022,0.28850776,0.08793747,0.68899226,2.1181607,-1.5487846,1.2903426,-0.12970164,-0.11810915,0.49882022,1.2261825,0.7001156
-0.2,-0.1,1.4,-0.5235987755982988,0.0,0,1.6410997,0.79612166,1.0025239,0.27082655,-0.06406718,0.70364505,1.9817429,-1.3226197,1.1300668,-0.33924365,0.21993054,-0.15948251,1.0330765,-0.56922835
-0.2,-0.1,1.4,-0.5235987755982988,0.0,0,1.6413344,0.7800043,0.99624085,0.281167,-0.054409094,0.6875577,1.8802093,-1.4500345,1.1609416,-0.416437,0.07469834,0.07552335,0.8622874,-0.4767174
-0.2,-0.1,1.4,-0.5235987755982988,0.0,0,1.6419905,0.76819307,1.0069605,0.27170655,-0.08122383,0.6826981,2.0669768,-1.364949,0.9558863,-0.11120942,0.09750099,-0.2710781,1.3725008,-0.75458133
-0.2,-0.1,1.4,-0.5235987755982988,0.0,0,1.6435119,0.7807302,1.0007263,0.27560687,0.12931332,0.69462067,2.009873,-1.5339895,1.4016724,-0.29074788,0.04791512,0.21417724,1.1402283,-0.5363354
-0.2,-0.1,1.4,-0.5235987755982988,0.0,0,1.6464883,0.78083396,1.0033308,0.28302804,0.03735143,0.6952978,1.804794,-1.3898228,0.94539714,0.023126662,0.026485555,0.4364779,1.0249078,0.305469
-0.2,-0.1,1.4,-0.5235987755982988,0.0,0,1.6354302,0.78606653,1.0032212,0.27623484,0.122601375,0.6913628,2.1309328,-1.4154227,1.2122191,-0.22799101,-0.024451163,0.83688074,1.1131226,-0.34349895
-0.2,-0.1,1.4,-0.5235987755982988,0.0,0,1.6430556,0.79744047,1.0033218,0.27192077,-0.051021058,0.6892005,1.990451,-1.5236356,1.2858857,0.10148685,0.22416584,-0.2958067,1.1790707,0.1445502
-0.2,-0.1,1.4,-0.5235987755982988,0.0,0,1.643393,0.791133,1.0053054,0.27854538,0.19580556,0.6695249,1.9427775,-1.2852179,1.1727272,-0.031428903,-0.21166462,0.38736534,1.087893,-0.011888377
-0.2,-0.1,1.4,-0.5235987755982988,0.0,0,1.6411341,0.7820404,0.99571687,0.28665215,0.13477823,0.6812904,1.9725428,-1.48698,1.0203613,-0.31245092,-0.19321747,0.10206352,1.1643226,-0.69565105
-0.2,-0.1,1.4,-0.5235987755982988,0.0,0,1.639495,0.77785194,0.9996574,0.27865347,-0.06469775,0.69238734,2.0354207,-1.4093124,1.4306557,0.13200969,-0.14064132,-0.12893699,1.2470922,-0.62851727
-0.2,-0.1,1.4,-0.5235987755982988,0.0,0,1.6402836,0.7796835,1.0038079,0.27987775,0.19450283,0.6984753,1.9566191,-1.5895219,1.5589714,-0.2563144,0.06576648,0.60016614,1.0245838,-0.090465
-0.2,-0.1,1.4,-0.5235987755982988,0.0,0,1.6419971,0.78530234,1.0040439,0.2854025,0.012704222,0.6870724,1.8872067,-1.3769686,1.1726665,0.090199746,0.053659476,-0.59032273,1.1472479,-0.57078505
-0.2,-0.1,1.4,-0.5235987755982988,0.0,0,1.6426339,0.7865196,1.0019428,0.2790867,0.2085449,0.6694931,1.854674,-1.542155,1.1623341,0.075363114,-0.008611931,-0.65088874,1.1239374,-0.6005139
-0.2,-0.1,1.4,-0.5235987755982988,0.0,0,1.6384374,0.77776104,1.0044185,0.27280977,0.06573181,0.70355374,1.988685,-1.4832151,0.8653778,0.11264144,0.009355805,-0.25946268,1.2938414,0.13712807
-0.2,-0.1,1.4,-0.5235987755982988,0.0,0,1.6405472,0.7860925,1.0011686,0.2735072,0.16334414,0.68371654,2.1016266,-1.2665006,0.9641101,0.20976406,0.06022141,-0.3486169,1.255415,-0.7261319
-0.2,-0.1,1.4,-0.5235987755982988,0.0,0,1.6402005,0.7626042,1.0038002,0.2823149,0.16359127,0.69859564,1.9966248,-1.4301975,0.98518,0.05640547,-0.020419063,-0.011707394,1.1074859,-0.59066993
-0.2,-0.1,1.4,-0.5235987755982988,0.0,0,1.6358714,0.79525846,1.0020005,0.27945656,-0.0035766333,0.70099014,2.0157366,-1.4056063,1.4014819,0.12713863,-0.043378685,-0.42456627,1.307402,-0.8850041
-0.2,-0.1,1.4,-0.5235987755982988,0.0,0,1.6450603,0.7816941,1.0115688,0.27537373,0.0871526,0.69350106,1.9993806,-1.4464779,1.1640081,-0.08951766,-0.011248063,0.014410087,1.2405431,0.40863422
-0.2,-0.1,1.4,-0.5235987755982988,0.0,0,1.6397936,0.77012753,0.99611574,0.28090724,0.078762524,0.6539216,1.5822577,-1.4426993,1.0495065,0.3769126,-0.055153977,-0.09329896,1.1579287,-0.08818406
-0.2,-0.1,1.4,-0.5235987755982988,0.0,0,1.6426148,0.7791961,0.9972105,0.2798173,-0.046330336,0.68113464,1.8244466,-1.4543687,1.0393422,-0.11533444,0.38615322,0.42413998,1.1279323,-0.00059818744
-0.2,-0.1,1.4,-0.5235987755982988,0.0,0,1.6421146,0.7885836,1.0043155,0.27005202,0.14412707,0.70329195,1.8638475,-1.4763451,0.97613996,-0.28382164,-0.08235939,0.2854719,1.1688244,0.36603642
-0.2,-0.1,1.4,-0.5235987755982988,0.0,0,1.6425853,0.77773774,1.0025887,0.28182104,0.16858734,0.6780256,1.9296347,-1.326857,0.996217,0.16662115,-0.0015610383,-0.5058667,1.1315141,0.06324369
-0.2,-0.1,1.4,-0.5235987755982988,0.0,0,1.6407263,0.7873791,0.99805826,0.2765858,-0.036381796,0.7000631,2.1812901,-1.512913,1.2107533,0.043170936,0.06532498,-0.15749095,1.1118534,-0.23193306
-0.2,-0.1,1.4,-0.5235987755982988,0.0,0,1.6400393,0.7870866,0.9969623,0.278241,0.19788384,0.69166285,1.8617023,-1.4466549,1.2871668,0.09405394,0.031002443,0.73973405,1.1972073,-0.7147592
-0.2,-0.1,1.4,-0.5235987755982988,0.0,0,1.6406776,0.7839621,1.0029801,0.27694744,-0.114077024,0.6875746,2.0131428,-1.4556665,1.0186934,-0.13724013,0.004795812,-0.0457994,1.161406,-0.32377926
-0.2,-0.1,1.4,-0.5235987755982988,0.0,0,1.6453906,0.77736753,1.0046093,0.28594282,0.08018792,0.68591267,2.1290143,-1.3703568,1.3925892,-0.014175624,0.051367626,-0.3635508,1.2417821,-0.54123586
-0.2,-0.1,1.4,-0.5235987755982988,0.0,0,1.6438684,0.7792011,1.0028406,0.28176585,-0.057437938,0.7100042,1.8828573,-1.2931706,1.0367357,-0.08908777,-0.11090684,0.29510927,0.97329843,-0.5490951
-0.2,-0.1,1.4,-0.5235987755982988,0.0,0,1.6443077,0.77757937,0.9962895,0.27718776,0.0802546,0.6896992,1.9050026,-1.4277356,1.2600762,0.13315946,-0.062182784,0.26712257,1.1451427,-0.41502658
-0.2,-0.1,1.4,-0.5235987755982988,0.0,0,1.6457372,0.7882282,1.0095863,0.27836275,-0.010172356,0.66932255,1.824942,-1.5637023,1.484276,0.12016802,0.06848928,0.42187455,1.1364313,-0.18137033
-0.2,-0.1,1.4,-0.5235987755982988,0.0,0,1.6415998,0.78121847,1.001194,0.28536338,0.018258668,0.68354553,1.9208025,-1.3067753,1.1674094,-0.06128996,0.092303805,0.052872054,1.1430485,0.06634167
-0.2,-0.1,1.4,-0.5235987755982988,0.0,0,1.6449056,0.7920609,0.99884385,0.2761808,0.030764868,0.7044289,1.8446035,-1.4954119,1.101735,-0.18200538,0.14880928,0.027135238,0.8664778,-0.3107252
-0.2,-0.1,1.4,-0.5235987755982988,0.0,0,1.642787,0.7894018,1.0059102,0.28240904,0.15930727,0.69385004,2.0376627,-1.4166961,1.2516813,0.031306032,-0.039061125,-0.45893213,1.0095397,-0.27654678
-0.2,-0.1,1.4,-0.5235987755982988,0.0,0,1.6386216,0.7873556,1.0034057,0.2808687,0.048449155,0.6934633,2.1351264,-1.4976208,1.0118368,-0.042324368,-0.06516859,0.069191635,1.1282308,-0.54058313
-0.2,-0.1,1.4,-0.5235987755982988,0.0,0,1.6410007,0.7922773,1.007607,0.2802682,0.13111813,0.6833238,2.0637865,-1.3987403,0.923639,-0.27184364,0.13924055,0.20896627,1.094366,-0.9941149
-0.2,-0.1,1.4,-0.5235987755982988,0.0,0,1.6449142,0.7744016,1.0020038,0.27997518,0.1415425,0.6967426,1.9980382,-1.4342716,0.82987666,-0.2628641,-0.02129589,0.039329223,1.2080663,-0.04813201
-0.2,-0.1,1.4,-0.5235987755982988,0.0,0,1.6391394,0.7818365,1.0037671,0.27693844,-0.04758859,0.68217653,2.2153463,-1.436152,1.2946438,0.17218836,-0.06965417,-0.09427709,1.1761364,0.17846526
-0.2,-0.1,1.4,-0.5235987755982988,0.0,0,1.644379,0.7901639,1.0028133,0.27265427,0.24884035,0.7090903,1.7702125,-1.3914708,1.2686546,-0.1532729,-0.21230091,0.64163184,1.2019287,-0.7761169
-0.2,-0.1,1.4,-0.5235987755982988,0.0,0,1.6390034,0.78078175,1.004315,0.2766712,-0.20509541,0.68484294,2.096578,-1.483023,1.225623,0.27587557,0.10178666,-0.61262983,1.0597124,-0.60213995
-0.2,-0.1,1.4,-0.5235987755982988,0.0,0,1.6418118,0.7863393,0.9985213,0.28181314,0.054341555,0.6984781,1.8438208,-1.3946105,1.3037181,-0.122027114,-0.16600303,-0.32533354,1.199832,-0.25522783
-0.2,-0.1,1.4,-0.5235987755982988,0.0,0,1.642664,0.7872237,1.006978,0.2772205,0.22275372,0.7133334,1.8255857,-1.6511197,1.2698307,-0.0069619096,0.02144545,-0.09745178,1.0143324,0.14819531
-0.2,-0.1,1.4,-0.5235987755982988,0.0,0,1.6418723,0.7904832,1.0046971,0.28028098,0.08704219,0.6840721,2.0491984,-1.494601,1.1463472,-0.2360581,0.034486424,-0.73192686,1.0966537,0.13497919
-0.2,-0.1,1.4,-0.5235987755982988,0.0,0,1.6433816,0.77401173,1.0045229,0.27862817,0.14046107,0.65169317,1.6780509,-1.4538918,0.94437903,-0.3443302,-0.011681194,0.28494424,1.1461264,-0.6202475
-0.2,-0.1,1.4,-0.5235987755982988,0.0,0,1.640508,0.79317516,1.0019946,0.28294882,0.06395504,0.7228776,2.0817866,-1.4025927,1.050527,-0.20873316,-0.019825391,-0.116195686,1.0893431,0.14385152
-0.2,-0.1,1.4,-0.5235987755982988,0.0,0,1.6432632,0.78041834,1.0005888,0.2821468,0.12083808,0.67965734,2.0111256,-1.5100132,1.1089946,0.14834797,0.080200195,-0.3394759,1.0621859,-0.10993913
-0.2,-0.1,1.4,-0.5235987755982988,0.0,0,1.6422713,0.7783181,0.99860317,0.27672485,0.13803172,0.6669629,1.6646775,-1.4091254,1.1008921,0.08957142,0.113853164,-0.23395257,1.1001275,-0.35737824
-0.2,-0.1,1.4,-0.5235987755982988,0.0,0,1.6386082,0.79214907,0.9996814,0.28044683,-0.02078946,0.6690339,2.1815062,-1.3975587,1.1755325,-0.06726391,-0.006013068,-0.4219922,1.2106413,-0.2935703
-0.2,-0.1,1.4,-0.5235987755982988,0.0,0,1.6422919,0.7764066,0.99821985,0.28359884,0.16428718,0.6822133,1.9293529,-1.5613704,1.2707291,0.5245171,0.040162545,0.0025530716,1.1854343,-0.5861548
-0.2,-0.1,1.4,-0.5235987755982988,0.0,0,1.6401199,0.7795003,1.0048866,0.27750573,0.082043424,0.67824256,2.0245662,-1.5686766,1.268602,-0.16933003,-0.08426369,0.3383505,0.918089,0.21410285
-0.2,-0.1,1.4,-0.5235987755982988,0.0,0,1.6472833,0.77433896,1.0036408,0.28512636,0.11292919,0.6976895,1.521879,-1.4524157,1.2212263,-0.054356657,-0.10865315,0.09357209,0.9927943,-0.4027543
-0.2,-0.1,1.4,-0.5235987755982988,0.0,0,1.6404012,0.7857469,1.0038393,0.27562368,0.1627013,0.7160226,2.2904725,-1.5262467,1.0176275,-0.27750587,0.03840581,-0.06387109,1.2433622,0.065488175
-0.2,-0.1,1.4,-0.5235987755982988,0.0,0,1.64112,0.7853237,1.0066415,0.2773406,0.19605672,0.69693875,1.8348978,-1.3133436,1.2197236,0.23684536,-0.004010426,0.40327102,1.2977722,0.2749808
-0.2,-0.1,1.4,-0.5235987755982988,0.0,0,1.6382402,0.77734107,0.9984534,0.27745876,0.15433164,0.6639303,1.8538352,-1.3826703,1.2004327,0.012025054,-0.034763854,0.39195907,1.1717678,0.01641269
-0.2,-0.1,1.4,-0.5235987755982988,0.0,0,1.6416836,0.779727,1.0033374,0.2788721,0.08220347,0.6702858,2.1940248,-1.5238082,1.0988449,-0.1022462,0.008955319,1.0732235,1.238585,0.38474876
-0.2,-0.1,1.4,-0.5235987755982988,0.0,0,1.6421956,0.7813097,0.99991745,0.28203872,-0.09550089,0.6790249,1.4813803,-1.3269268,1.3230706,0.049863778,0.037377596,0.48520127,1.1300195,-0.20324214
-0.2,-0.1,1.4,-0.5235987755982988,0.0,0,1.641468,0.7722026,1.002099,0.27406624,0.14945343,0.6840501,2.0817852,-1.4730808,1.272073,0.1820075,0.056703247,-0.73765016,1.1576847,-0.7717836
-0.2,-0.1,1.4,-0.5235987755982988,0.0,0,1.6422904,0.7806052,1.0046686,0.28213152,-0.03158212,0.6716723,1.9463973,-1.4493036,1.1488069,0.30623883,-0.024349807,-0.69777864,1.2389127,0.39386195
-0.2,-0.1,1.4,-0.5235987755982988,0.0,0,1.644328,0.7821189,1.0045831,0.278949,-0.029829953,0.7131862,2.282604,-1.56893,0.9957968,-0.114983566,-0.06225146,0.6760338,1.1988322,0.108365946
-0.2,-0.1,1.4,-0.5235987755982988,0.0,0,1.641599,0.77160215,1.0005091,0.28299928,-0.06179987,0.69358987,2.0195608,-1.5241159,1.0433114,-0.15749145,-0.05533769,0.110068366,1.0865746,-0.5949802
-0.2,-0.1,1.4,-0.5235987755982988,0.0,0,1.6414806,0.78485584,1.0043527,0.28065804,0.16726628,0.6949962,1.9448162,-1.3006305,0.94213176,-0.20076178,-0.11442855,-0.07390591,1.1310344,-0.14149201
-0.2,-0.1,1.4,-0.5235987755982988,0.0,0,1.6428847,0.80276805,1.0021055,0.27815384,0.1643533,0.6858072,2.026083,-1.4518027,1.155436,-0.0014553476,0.0073492387,0.670944,1.2846833,-1.0175716
-0.2,-0.1,1.4,-0.5235987755982988,0.0,0,1.6400391,0.78125066,1.0028381,0.28175378,0.07044666,0.66852295,2.24398,-1.6056118,1.0360962,-0.016165199,0.081870325,-0.14032024,1.1303552,-0.4094191
-0.2,-0.1,1.4,-0.5235987755982988,0.0,0,1.6448047,0.78378034,1.0017337,0.27932352,0.15241984,0.67632633,2.0276067,-1.5410538,1.0521299,-0.32939452,0.07588521,0.9306586,1.1594391,-0.1739315
-0.2,-0.1,1.4,-0.5235987755982988,0.0,0,1.6388441,0.7789664,1.0037261,0.28750244,0.1769543,0.6675576,1.9207356,-1.5614489,1.194067,-0.0637133,-0.0877976,-0.4328218,1.2627114,-0.77892596
-0.2,-0.1,1.4,-0.5235987755982988,0.0,0,1.639791,0.78855675,1.0006312,0.28214428,-0.028709585,0.71179634,1.9576862,-1.5548449,1.2911803,-0.24502505,-0.080358714,-1.0800185,1.1397312,-0.879649
-0.2,-0.1,1.4,-0.5235987755982988,0.0,0,1.6370339,0.790793,0.99665695,0.2819143,0.04320636,0.7154259,1.8360602,-1.4368836,0.95118386,-0.48804,-0.099258475,0.2546241,1.0669401,-0.8804284
-0.2,-0.1,1.4,-0.5235987755982988,0.0,0,1.6427815,0.77850854,0.99805397,0.27328268,-0.28355825,0.7183788,2.1597288,-1.5476552,1.2296306,-0.3283966,0.1220593,0.41308627,1.2069664,-1.4171249
-0.2,-0.1,1.4,-0.5235987755982988,0.0,0,1.6404637,0.78094345,1.0021514,0.28098017,-0.025628764,0.6818371,1.9720339,-1.2804632,1.4162736,-0.034823384,0.09644921,0.2621802,1.0636638,-0.48956734
-0.2,-0.1,1.4,-0.5235987755982988,0.0,0,1.6463864,0.77785486,1.0007358,0.27866396,-0.075702295,0.68822205,1.9905633,-1.3765627,1.2495694,0.11394003,0.090543814,0.79835546,1.1864265,-0.07143009
-0.2,-0.1,1.4,-0.5235987755982988,0.0,0,1.6419587,0.7866781,0.9990493,0.277543,0.14994207,0.70871836,1.8581871,-1.6153897,0.98689353,0.14742848,-0.020752437,-0.24287786,1.0997046,-0.58122164
-0.2,-0.1,1.4,-0.5235987755982988,0.0,0,1.6413836,0.77416515,0.9999311,0.2733759,-0.20333357,0.6889529,2.1112382,-1.4770519,1.1326339,0.11345647,-0.109358996,-0.2622107,1.2456071,-0.11006319
-0.2,-0.1,1.4,-0.5235987755982988,0.0,0,1.6420081,0.792614,1.0065262,0.278283,-0.038319577,0.68658745,1.7689211,-1.4434545,1.0426368,-0.2577898,-0.04284876,-0.33539307,1.0710275,-0.23522247
-0.2,-0.1,1.4,-0.5235987755982988,0.0,0,1.6431086,0.783959,1.0017481,0.28016093,-0.012049837,0.6949604,2.32807,-1.3847876,1.1687036,-0.04360419,-0.017097814,0.5065476,1.0162258,-0.33233607
-0.2,-0.1,1.4,-0.5235987755982988,0.0,0,1.6417692,0.7835998,1.0048333,0.27779028,0.18482369,0.70183593,1.9415156,-1.3130037,0.9507454,0.14893451,-0.28652677,0.7268469,1.0358101,-0.48205414
-0.2,-0.1,1.4,-0.5235987755982988,0.0,0,1.6388623,0.7833843,1.0045764,0.27537405,0.028800765,0.6513002,2.247723,-1.4523677,1.1200323,0.17732455,0.1978228,-0.043305468,1.1178769,-0.42963764
-0.2,-0.1,1.4,-0.5235987755982988,0.0,0,1.6424906,0.78263324,1.0045011,0.2840486,0.10546216,0.6680719,2.0916834,-1.543116,1.5317665,0.20761117,0.0003449166,-0.05351665,1.137794,0.42413074
-0.2,-0.1,1.4,-0.5235987755982988,0.0,0,1.6429881,0.7945694,0.99766695,0.28712094,0.17259595,0.7045175,2.0225198,-1.3673861,1.2251422,0.089722,0.012796197,-1.0769144,1.0746351,-0.26612753
-0.2,-0.1,1.4,-0.5235987755982988,0.0,0,1.642006,0.78708553,0.99843395,0.27700007,0.0817299,0.6824958,1.546448,-1.5461106,1.128912,-0.017301973,0.026109235,0.3590386,1.1659331,-0.73109823
-0.2,-0.1,1.4,-0.5235987755982988,0.0,0,1.6429093,0.78850657,1.0014347,0.28027868,0.15135498,0.6964682,1.8278775,-1.4787836,0.9444683,-0.28527233,-0.005628711,-0.26333693,1.0829967,-0.04648471
-0.2,-0.1,1.4,-0.5235987755982988,0.0,0,1.6382464,0.77752614,1.0009397,0.27981544,-0.05906676,0.6820452,2.0310142,-1.3813779,1.1690823,-0.08366911,0.0016416142,-0.7820017,0.9992584,-0.7774873
-0.2,-0.1,1.4,-0.5235987755982988,0.0,0,1.6459038,0.78504264,1.0001078,0.27358463,0.15205884,0.6769486,1.9542661,-1.546676,1.2879026,0.20570956,0.07056514,-0.36929533,1.2549697,0.41657925
-0.2,-0.1,1.4,-0.5235987755982988,0.0,0,1.6424209,0.7817587,1.0014328,0.27492282,0.13057858,0.6968931,1.8864164,-1.4409199,0.96282566,-0.0440116,-0.0055870498,0.093969345,1.1580489,-0.7801823
-0.2,-0.1,1.4,-0.5235987755982988,0.0,0,1.6404177,0.7848742,1.0029608,0.27813554,0.11278043,0.69821995,2.0078793,-1.3746583,1.1346889,0.06818119,-0.12306087,0.45951873,1.0778006,-0.12965511
-0.2,-0.1,1.4,-0.5235987755982988,0.0,0,1.6380103,0.7798441,1.0030224,0.2846344,-0.09697845,0.6886935,1.7878407,-1.5436327,1.2959387,0.04638207,0.08383372,0.34428847,1.0440874,0.016697694
-0.2,-0.1,1.4,-0.5235987755982988,0.0,0,1.6425043,0.7889451,0.999609,0.28567928,0.18370502,0.6890844,2.0169663,-1.3207375,1.0327166,-0.041412357,0.10478347,0.34781858,0.96325934,0.0049727294
-0.2,-0.1,1.4,-0.5235987755982988,0.0,0,1.6394683,0.7878056,1.002892,0.27335575,0.18523945,0.6858388,1.8995258,-1.529389,1.096258,-0.13376997,-0.009420903,0.5906114,1.1182363,-0.06514433
-0.2,-0.1,1.4,-0.5235987755982988,0.0,0,1.6405537,0.78587437,1.0026312,0.28214455,0.08240593,0.6675875,2.2474926,-1.4307525,1.2688314,-0.1294602,0.04976194,0.0759523,0.87751025,-0.41035292
-0.2,-0.1,1.4,-0.5235987755982988,0.0,0,1.6433225,0.7816775,1.0012007,0.27846652,-0.08013667,0.6776838,1.9001441,-1.4504726,0.91233563,-0.13374154,-0.052185707,0.15768282,1.057066,0.27671722
-0.2,-0.1,1.4,-0.5235987755982988,0.0,0,1.6454405,0.7771594,0.99971676,0.2833866,0.19267789,0.6891835,1.9660221,-1.4246492,1.4225365,-0.28563833,-0.21142389,-0.18840052,1.0133915,-0.34758633
-0.2,-0.1,1.4,-0.5235987755982988,0.0,0,1.6427606,0.77083766,1.0019389,0.27903503,0.17095098,0.69360405,1.9476962,-1.4130093,1.0929275,0.05651205,-0.05919526,-0.041349724,1.2155192,-0.020781783
-0.2,-0.1,1.4,-0.5235987755982988,0.0,0,1.63809,0.77528864,0.99582636,0.27599815,0.16665386,0.6820181,2.1530147,-1.4845737,0.9079861,0.25198936,-0.03474019,-0.29802334,1.2641885,0.04400547
-0.2,-0.1,1.4,-0.5235987755982988,0.0,0,1.6404482,0.78162813,0.9943649,0.2779036,0.13618147,0.71658653,2.0630991,-1.3817242,1.2758645,-0.36243302,0.09357245,0.32597014,1.1299882,-0.3101869
-0.2,-0.1,1.4,-0.5235987755982988,0.0,0,1.640314,0.7873071,1.0054481,0.28025374,0.1306991,0.6831355,2.122021,-1.4764705,1.2392355,-0.112033434,0.024995524,0.10368976,1.165628,-0.05476039
-0.2,-0.1,1.4,-0.5235987755982988,0.0,0,1.6416491,0.7906028,1.003438,0.2767532,0.13573998,0.68024004,1.9174768,-1.4555244,1.3212652,-0.024126627,0.1326169,0.8028418,0.9774168,-0.28944582
-0.2,-0.1,1.4,-0.5235987755982988,0.0,0,1.6446933,0.79856336,1.0040405,0.27724305,-0.014032808,0.6976426,2.1712134,-1.483101,0.94221044,-0.20487991,0.08990821,0.14687213,1.2365975,-0.7325824
-0.2,-0.1,1.4,-0.5235987755982988,0.0,0,1.6421208,0.7796567,0.99564654,0.27904993,0.11664246,0.6996256,2.213313,-1.4524986,1.2549251,-0.1991858,-0.019942207,-0.34956688,1.142717,-0.59289646
-0.2,-0.1,1.4,-0.5235987755982988,0.0,0,1.6382928,0.7786963,1.0041296,0.28226823,0.17277575,0.6896105,2.2023523,-1.4500954,0.88737977,-0.1383921,0.07752828,0.31454885,1.2123923,0.2498077
-0.2,-0.1,1.4,-0.5235987755982988,0.0,0,1.6414173,0.7781886,1.0007876,0.27147263,0.06342154,0.6758725,2.1690135,-1.4927922,1.2966325,-0.03404633,-0.047871146,-0.52836305,1.175762,0.41630715
-0.2,-0.1,1.4,-0.5235987755982988,0.0,0,1.6469071,0.78198695,1.0033666,0.2808647,0.02334479,0.6960149,2.1655266,-1.4806131,1.3435786,0.06464996,-0.0006763636,-0.6616943,1.1906681,0.020319737
-0.2,-0.1,1.4,-0.5235987755982988,0.0,0,1.6405139,0.78165346,1.0006014,0.27819848,0.12769823,0.67604417,2.0271907,-1.43658,1.0689012,-0.045899436,-0.030833999,-0.10927116,1.0175405,-0.34771332
-0.2,-0.1,1.4,-0.5235987755982988,0.0,0,1.6439713,0.7808566,0.99860257,0.28547084,-0.11106436,0.69065887,2.183067,-1.4448258,1.1559162,0.028124949,-0.13573024,0.034320228,1.1599208,0.43835473
-0.2,-0.1,1.4,-0.5235987755982988,0.0,0,1.6400186,0.78397834,1.0053551,0.2779974,0.15329686,0.6778157,1.9731743,-1.3598772,1.1315436,-0.11928848,-0.10790408,0.085115835,1.1087894,-0.29727873
-0.2,-0.1,1.4,-0.5235987755982988,0.0,0,1.6384985,0.7898341,1.0028435,0.27285013,0.11722823,0.69222766,1.8511392,-1.4964559,1.0125425,0.13135467,0.022965312,-0.046099562,1.0132742,-0.5759707
-0.2,-0.1,1.4,-0.5235987755982988,0.0,0,1.6409527,0.75742716,0.9994543,0.27885368,0.15210855,0.7009118,1.9389042,-1.4839172,1.209425,0.15381303,-0.21040107,0.271023,1.0858109,0.17099565
-0.2,-0.1,1.4,-0.5235987755982988,0.0,0,1.6369509,0.7909603,1.0019257,0.27570343,0.08872904,0.6879646,1.9866307,-1.4234515,0.78873813,0.1289522,0.0395686,-0.07204717,0.9428644,-0.36957002
-0.2,-0.1,1.4,-0.5235987755982988,0.0,0,1.6408631,0.77107185,1.0031344,0.27469984,0.12109837,0.71433586,1.9970425,-1.449322,1.1710533,-0.020960856,0.06929173,0.51925635,0.9921986,0.15540345
-0.2,-0.1,1.4,-0.5235987755982988,0.0,0,1.6403706,0.76900923,1.0050558,0.2885217,0.12962013,0.6875897,1.9227957,-1.5360138,1.0420904,0.0017554936,0.02812755,0.05374379,1.1155763,-0.09122212
-0.2,-0.1,1.4,-0.5235987755982988,0.0,0,1.640666,0.78532416,1.0059599,0.28228104,0.1299329,0.68346626,2.0925963,-1.3313938,1.0178967,-0.08058154,0.09889217,-0.038881496,1.0956341,-0.019358875
-0.2,-0.1,1.4,-0.5235987755982988,0.0,0,1.6409636,0.7843324,1.0051256,0.2743659,0.1459827,0.6845725,1.998327,-1.5867307,1.3834366,-0.19105588,-0.11742589,0.28882998,1.0309511,-1.0771567
-0.2,-0.1,1.4,-0.5235987755982988,0.0,0,1.6437852,0.7800547,1.0012765,0.2793635,-0.041444857,0.69888264,1.8225782,-1.4180877,1.0152482,-0.038181633,0.14358982,0.42844167,1.1543185,0.25772384
-0.2,-0.1,1.4,-0.5235987755982988,0.0,0,1.6391734,0.78229374,0.99978673,0.28168866,-0.09646627,0.6824212,1.9328692,-1.3022691,1.647848,0.15452908,0.08986433,0.36044717,1.0511522,0.25440794
-0.2,-0.1,1.4,-0.5235987755982988,0.0,0,1.6432351,0.78649235,0.9997126,0.2760394,0.1649628,0.679461,2.0506089,-1.7078593,1.2155051,-0.42583206,-0.14153361,0.1464249,1.2569703,-0.41650328
-0.2,-0.1,1.4,-0.5235987755982988,0.0,0,1.6406748,0.7765725,0.9983667,0.2713427,0.08327591,0.6736666,2.0912774,-1.5073309,1.5041206,-0.02167735,0.11190144,0.06262669,1.17304,0.1353517
-0.2,-0.1,1.4,-0.5235987755982988,0.0,0,1.6405857,0.7739089,1.000573,0.28413087,0.06119668,0.6630562,1.9572848,-1.5848066,1.0741146,-0.37926286,0.016358104,0.72469354,1.1357039,0.73938054
-0.2,-0.1,1.4,-0.5235987755982988,0.0,0,1.6395507,0.7755119,1.0051932,0.28168496,0.1612922,0.71307224,1.7747209,-1.5615504,1.0416493,-0.15626915,0.15026176,0.4962807,1.1545146,-0.21457505
-0.2,-0.1,1.4,-0.5235987755982988,0.0,0,1.639822,0.77422553,0.9948189,0.2843233,0.022781081,0.71298635,1.9004719,-1.5081233,1.0079384,0.1327785,-0.018203322,0.08768426,1.0503986,-0.20764154
-0.2,-0.1,1.4,-0.5235987755982988,0.0,0,1.6401376,0.7818028,1.0091449,0.2775374,-0.05706608,0.69057024,1.6876644,-1.4512305,1.227298,-0.12286146,-0.0040180795,0.0020606117,1.029343,-0.91775155
-0.2,-0.1,1.4,-0.5235987755982988,0.0,0,1.6430966,0.7902987,0.9978695,0.27497852,0.091231994,0.6996181,1.9899744,-1.4070748,1.1078984,-0.115198895,-0.040351722,0.015359807,1.2245417,-0.19123901
-0.2,-0.1,1.4,-0.5235987755982988,0.0,0,1.6446674,0.77624136,1.0054578,0.27930656,-0.1329115,0.70778865,1.8554002,-1.3984606,1.224199,-0.10074688,0.26153016,-0.65408605,1.0959892,-0.2834784
-0.2,-0.1,1.4,-0.5235987755982988,0.0,0,1.6394074,0.77946633,1.0066363,0.2859368,0.14539431,0.71361864,2.1350923,-1.4832473,1.3911299,0.10418521,-0.064832054,0.3634476,0.98533154,0.1320503
-0.2,-0.1,1.4,-0.5235987755982988,0.0,0,1.6430135,0.7778512,1.0082912,0.27527717,0.14439778,0.7027212,1.9812137,-1.5496114,1.3111136,-0.04229602,0.07247479,-0.17519002,0.9609364,-0.517841
-0.2,-0.1,1.4,-0.5235987755982988,0.0,0,1.6406019,0.7743399,0.99800766,0.2762525,0.1438287,0.70647913,1.7507097,-1.4400023,1.0993441,-0.14187822,0.10946711,0.47083682,1.076396,-0.44681168
-0.2,-0.1,1.4,-0.5235987755982988,0.0,0,1.6402531,0.8008081,1.0083741,0.2779545,-0.058532566,0.6888425,2.075577,-1.3405252,1.3984768,-0.011136498,0.16410968,-0.17965789,1.3781211,0.025931565
-0.2,-0.1,1.4,-0.5235987755982988,0.0,0,1.6432976,0.8002893,1.0061911,0.27264157,-0.07866108,0.6983612,2.0493643,-1.5293853,0.9814284,-0.080218494,0.08576888,-0.19090709,1.2749418,-0.17048468
-0.2,-0.1,1.4,-0.5235987755982988,0.0,0,1.6397862,0.77915424,1.0047894,0.27803198,-0.07035259,0.69017136,2.0315022,-1.5954478,1.2520671,-0.26170155,-0.056226503,0.12126399,1.1049715,-0.2915875
-0.2,-0.1,1.4,-0.5235987755982988,0.0,0,1.6450723,0.7742834,1.0053676,0.2748171,-0.22502019,0.6692379,1.86659,-1.501933,1.4686062,-0.093571045,-0.08096945,-0.64039505,1.0319291,-0.6808251
-0.2,-0.1,1.4,-0.5235987755982988,0.0,0,1.6412926,0.78194165,0.996126,0.2824606,0.17187728,0.7198251,2.2172487,-1.4871073,1.0302414,0.046052717,0.010100727,-0.15268435,1.1417524,-0.90635836
-0.2,-0.1,1.4,-0.5235987755982988,0.0,0,1.6419227,0.78931826,1.0022181,0.27929616,0.16257156,0.692117,2.1254764,-1.4521676,1.4030751,-0.16790025,0.11364634,1.0004983,1.1929232,0.6141227
-0.2,-0.1,1.4,-0.5235987755982988,0.0,0,1.6434375,0.7834518,1.0024841,0.28131145,-0.058800355,0.6866515,1.9375038,-1.5088179,1.4744327,0.03113042,-0.099182434,0.06614563,1.1517316,0.016338838
-0.2,-0.1,1.4,-0.5235987755982988,0.0,0,1.641197,0.77598685,1.0003874,0.28292662,-0.08990431,0.69247794,2.1618633,-1.39043,1.1223749,-0.02312737,-0.06564959,-0.6845445,1.1937829,-0.46031135
-0.2,-0.1,1.4,-0.5235987755982988,0.0,0,1.6416373,0.77071613,1.0023905,0.28222042,0.14421077,0.7195636,1.9513918,-1.6040008,0.8077827,0.34156668,0.024890382,0.43174964,1.1357588,0.81654465
-0.2,-0.1,1.4,-0.5235987755982988,0.0,0,1.6381023,0.7715088,1.0080981,0.27852017,-0.07779925,0.70704794,1.9208081,-1.430462,1.249812,-0.17317447,0.1287406,0.4057909,0.87224466,0.4302812
-0.2,-0.1,1.4,-0.5235987755982988,0.0,0,1.6420014,0.77651656,1.0038822,0.28284338,-0.07723924,0.67587733,1.8025029,-1.5068213,1.047346,-0.22777587,-0.092995286,0.00061950315,1.1924946,-0.3478754
-0.2,-0.1,1.4,-0.5235987755982988,0.0,0,1.641663,0.7812771,1.0029874,0.283428,-0.07440728,0.6931375,2.2563927,-1.4749715,1.0500106,0.055628426,-0.008482962,0.29157162,1.1628817,-0.25708786
-0.2,-0.1,1.4,-0.5235987755982988,0.0,0,1.6417679,0.78361386,1.0049012,0.2846063,-0.041801557,0.66963243,2.2621188,-1.5218588,1.1091079,0.13387662,0.04677954,-0.021916538,1.1548153,-0.54528165
-0.2,-0.1,1.4,-0.5235987755982988,0.0,0,1.640605,0.78323936,1.0094719,0.27799085,-0.040641345,0.70843804,2.0010166,-1.4455332,1.2438635,0.005608579,0.05078333,0.38494208,1.1739575,-0.10437811
-0.2,-0.1,1.4,-0.5235987755982988,0.0,0,1.6395121,0.7878769,0.997975,0.2819446,-0.09629441,0.7193845,1.7110438,-1.518338,1.3567342,-0.007923521,0.10419958,0.6387366,1.3707292,-1.3741702
-0.2,-0.1,1.4,-0.5235987755982988,0.0,0,1.6422024,0.78019226,1.0029558,0.2863924,-0.042812385,0.6923459,1.9911164,-1.3626072,1.0540867,0.16123088,-0.06984497,-0.96598005,0.88677466,0.2512986
-0.2,-0.1,1.4,-0.5235987755982988,0.0,0,1.6419318,0.7805652,1.0037376,0.28102845,-0.046654552,0.7124842,2.022269,-1.2410685,1.1831553,-0.010562386,0.021530565,-0.06096101,1.3401766,-0.4594253
-0.2,-0.1,1.4,-0.5235987755982988,0.0,0,1.640365,0.79219204,1.0083314,0.27997652,-0.06495825,0.6745126,1.9142016,-1.4783565,1.0263155,-0.4435509,-0.0023138323,0.27175188,1.2158173,-0.04778946
-0.2,-0.1,1.4,-0.5235987755982988,0.0,0,1.6428686,0.78816754,1.0024074,0.28441036,0.0050019613,0.7027233,1.7647772,-1.447389,0.99383646,-0.0066055297,0.07346898,0.28759524,1.0167621,0.14216764
-0.2,-0.1,1.4,-0.5235987755982988,0.0,0,1.6407063,0.78828603,1.0051333,0.2851962,-0.066669345,0.67115057,2.1421852,-1.5650088,1.2621931,0.00468536,0.08552939,0.03232628,1.1642493,-0.99458647
-0.2,-0.1,1.4,-0.5235987755982988,0.0,0,1.6457309,0.79059863,1.00419,0.28364873,-0.002930825,0.67796636,1.8321704,-1.4216636,1.0303608,0.0072339666,-0.112713665,0.51864177,0.99700725,-0.42657074
-0.2,-0.1,1.4,-0.5235987755982988,0.0,0,1.6454173,0.7889402,1.004005,0.28449768,-0.033775892,0.6552151,2.2274418,-1.6122525,0.9904951,-0.13204196,-0.15131405,0.36513305,1.2493993,0.16758916
-0.2,-0.1,1.4,-0.5235987755982988,0.0,0,1.6397187,0.7732906,1.0034063,0.2804075,-0.0507172,0.7200332,1.9782507,-1.5650492,1.1231056,0.028511314,-0.13247165,0.20779423,1.0685791,-0.32022867
-0.2,-0.1,1.4,-0.5235987755982988,0.0,0,1.6446135,0.7805248,1.0016558,0.274229,-0.09394028,0.71207154,2.110349,-1.5623106,1.0324444,-0.122042835,0.08395969,-0.13237277,1.0677136,0.14219967
-0.2,-0.1,1.4,-0.5235987755982988,0.0,0,1.6444205,0.7913099,1.0085493,0.27419245,-0.07175182,0.6854271,2.1174295,-1.3303651,1.0995471,0.19528826,0.14223003,0.44260496,1.2174685,0.006605561
-0.2,-0.1,1.4,-0.5235987755982988,0.0,0,1.6442386,0.7810757,1.0048724,0.2824177,-0.0039291163,0.70097244,1.8540767,-1.6031427,1.0830126,0.06382071,-0.036959354,-0.121120095,1.2008125,0.5329497
-0.2,-0.1,1.4,-0.5235987755982988,0.0,0,1.6433301,0.7724799,1.0012101,0.2869939,-0.049726494,0.6722009,2.1430962,-1.4927036,1.2008157,-0.24797826,-0.1154474,0.36254793,1.17405,-1.0751119
-0.2,-0.1,1.4,-0.5235987755982988,0.0,0,1.6412573,0.76780975,0.99966526,0.2825406,-0.06191435,0.7175357,1.7995305,-1.4935986,1.3088043,-0.17648791,-0.02231811,-0.53440344,0.8809954,0.38841957
-0.2,-0.1,1.4,-0.5235987755982988,0.0,0,1.637157,0.7910435,1.0077055,0.2821543,-0.13100976,0.68790454,2.2086275,-1.4186825,0.9855275,-0.030310262,0.079442054,0.66931415,1.0257641,0.26352718
-0.2,-0.1,1.4,-0.5235987755982988,0.0,0,1.6401254,0.7832929,1.0054628,0.28126127,0.039706938,0.7132954,1.8852308,-1.6255839,1.3662425,-0.21981454,-0.10156092,-1.0223037,1.222589,-0.43257454
-0.2,-0.1,1.4,-0.5235987755982988,0.0,0,1.643551,0.7812073,1.0046973,0.28154537,0.20072122,0.7060538,2.0199015,-1.5824503,1.1775877,0.010642742,-0.092492364,-0.017626036,1.1237872,-0.8502283
-0.2,-0.1,1.4,-0.5235987755982988,0.0,0,1.6408077,0.7796869,1.0016857,0.28666592,0.047176298,0.6898235,1.8221254,-1.4124552,1.0185236,0.04416219,-0.12206417,0.06422654,1.3483568,-0.1866219
-0.2,-0.1,1.4,-0.5235987755982988,0.0,0,1.6416625,0.7717643,1.0037761,0.28301683,-0.108569734,0.69786364,1.916835,-1.4016576,1.0823385,-0.18891475,-0.15638323,0.3265453,1.2805829,0.27644894
-0.2,-0.1,1.4,-0.5235987755982988,0.0,0,1.6432782,0.7809139,1.0054209,0.2775778,0.229717,0.71476364,2.0667064,-1.4598248,1.0703095,-0.03628399,0.018925846,0.098689854,1.0639749,-0.053016715
