sanky1234/BimanualDexCatch/isaacgymenvs/cem_results/football_pose_0.1_-0.1_1.4_0.0_0.0_0_2025-05-26.csv
x,y,z,roll,pitch,yaw,robot1/joint1,robot1/joint2,robot1/joint3,robot1/joint4,robot1/joint5,robot1/joint6,robot1/joint7,robot2/joint1,robot2/joint2,robot2/joint3,robot2/joint4,robot2/joint5,robot2/joint6,robot2/joint7
0.1,-0.1,1.4,0.0,0.0,0,-1.6401265,1.1445985,-0.65545005,0.6339504,-0.18604575,1.0197351,-0.15270685,-0.615048,-1.1960775,0.6847517,0.22488989,0.108716585,0.8751756,-0.64881945
0.1,-0.1,1.4,0.0,0.0,0,-1.6386291,1.1327767,-0.6589769,0.63487214,-0.17941795,1.0154597,-0.15282503,-0.6191302,-1.1971483,0.6814176,0.21519203,-0.10432425,0.9267185,-0.011410505
0.1,-0.1,1.4,0.0,0.0,0,-1.642052,1.1470466,-0.6582553,0.63351774,-0.19212359,1.0161493,-0.115073375,-0.602318,-1.1925273,0.69645894,0.23933452,-0.17466378,1.1808907,-0.14356667
0.1,-0.1,1.4,0.0,0.0,0,-1.6494166,1.1486197,-0.65953135,0.6331442,-0.17992944,1.0173429,-0.13863038,-0.6076606,-1.1975675,0.6752744,0.26472196,-0.21617524,0.8029909,-0.7922913
0.1,-0.1,1.4,0.0,0.0,0,-1.6385856,1.1707851,-0.65772367,0.6366707,-0.18175815,1.013076,-0.14401105,-0.61460495,-1.1981164,0.696997,0.2495074,-0.0050946213,0.8376648,-0.70276386
0.1,-0.1,1.4,0.0,0.0,0,-1.6305163,1.1412674,-0.6585349,0.6350813,-0.19270086,1.0121176,-0.1551063,-0.6019791,-1.1984096,0.6717358,0.24731466,-0.26555,0.7157226,-1.0761452
0.1,-0.1,1.4,0.0,0.0,0,-1.6442959,1.1618845,-0.65876967,0.6345905,-0.18457723,1.0174018,-0.15058944,-0.6173336,-1.1959425,0.66220134,0.22993226,-0.07010198,0.957466,-1.0574362
0.1,-0.1,1.4,0.0,0.0,0,-1.6373682,1.1369143,-0.6567606,0.63670963,-0.19936559,1.0196856,-0.16732107,-0.6069287,-1.1941411,0.6525033,0.2548329,0.23154423,0.7131836,-0.8597509
0.1,-0.1,1.4,0.0,0.0,0,-1.6388321,1.1590419,-0.6575253,0.63593215,-0.19849053,1.0151696,-0.11352296,-0.6179643,-1.1937938,0.6909011,0.2352394,-0.05891877,0.77499217,-0.52104294
0.1,-0.1,1.4,0.0,0.0,0,-1.6475027,1.1511865,-0.6555966,0.63701344,-0.18701129,1.0125725,-0.11615092,-0.6197557,-1.1912436,0.669668,0.20521627,0.2021155,0.74801147,-0.23153259
0.1,-0.1,1.4,0.0,0.0,0,-1.6383014,1.1449775,-0.6552023,0.63577217,-0.19346899,1.0174272,-0.15323043,-0.61440897,-1.1927521,0.6789583,0.23429695,-0.05320091,0.94593513,0.0017100144
0.1,-0.1,1.4,0.0,0.0,0,-1.6380506,1.1514316,-0.6603153,0.63645077,-0.18093659,1.014934,-0.12036108,-0.6121152,-1.1943698,0.70234007,0.21779713,0.115326226,0.9104552,-1.0595856
0.1,-0.1,1.4,0.0,0.0,0,-1.6270037,1.1383216,-0.6567392,0.6373872,-0.2013134,1.0166202,-0.15712878,-0.6010244,-1.1961187,0.66208494,0.26077464,-0.001863863,0.9295717,0.08739512
0.1,-0.1,1.4,0.0,0.0,0,-1.6337526,1.1374943,-0.655823,0.6340748,-0.19531524,1.0108154,-0.13335977,-0.6103464,-1.194548,0.67571723,0.24033248,-0.013553097,0.86033136,-1.2258132
0.1,-0.1,1.4,0.0,0.0,0,-1.6417795,1.1425679,-0.6578805,0.6328796,-0.18565817,1.0125643,-0.12565629,-0.60561454,-1.1976043,0.6653458,0.2594502,-0.095417835,0.7911277,0.018853888
0.1,-0.1,1.4,0.0,0.0,0,-1.6407504,1.1539801,-0.6581825,0.63227856,-0.1868429,1.016911,-0.13497639,-0.6109826,-1.1949149,0.6669623,0.24254791,0.05140842,0.86021954,-0.47295573
0.1,-0.1,1.4,0.0,0.0,0,-1.6306976,1.1510916,-0.6570788,0.6349466,-0.21069284,1.0205401,-0.12801386,-0.6096253,-1.1920482,0.7017639,0.24678671,-0.13033833,0.76044375,-0.35082555
0.1,-0.1,1.4,0.0,0.0,0,-1.634223,1.1553181,-0.66274613,0.63438684,-0.18890664,1.0153959,-0.13229991,-0.6155676,-1.1922666,0.6949971,0.24998073,-0.048003722,0.9396877,-1.042216
0.1,-0.1,1.4,0.0,0.0,0,-1.6307378,1.1460919,-0.66234267,0.6351501,-0.19710156,1.0152969,-0.16057298,-0.6181122,-1.194503,0.6805777,0.22141328,-0.105393685,1.0125299,-0.60475886
0.1,-0.1,1.4,0.0,0.0,0,-1.6452711,1.1487674,-0.65307015,0.6336283,-0.19283557,1.0144233,-0.100689925,-0.611256,-1.1962367,0.6752688,0.26574916,0.0055087516,0.9061554,-0.8574008
0.1,-0.1,1.4,0.0,0.0,0,-1.6388587,1.1549627,-0.6581665,0.63350993,-0.19434921,1.0155681,-0.15967856,-0.6146522,-1.1994727,0.6928123,0.27207422,-0.11172631,1.0582442,-1.1439979
0.1,-0.1,1.4,0.0,0.0,0,-1.6326054,1.1444637,-0.65789884,0.63361806,-0.18944809,1.0155715,-0.14096068,-0.6091482,-1.194073,0.68861103,0.22112438,-0.030849403,0.7630426,-0.35747075
0.1,-0.1,1.4,0.0,0.0,0,-1.6404839,1.1703448,-0.65767896,0.6370284,-0.20270544,1.0108533,-0.09985054,-0.6180291,-1.1913211,0.6610268,0.25176385,0.02263126,0.9379882,0.4021365
0.1,-0.1,1.4,0.0,0.0,0,-1.6259255,1.1474518,-0.6553138,0.6338206,-0.1999867,1.0187769,-0.13789807,-0.6140294,-1.1946042,0.6704109,0.2524861,0.0073215477,0.73203146,0.2219988
0.1,-0.1,1.4,0.0,0.0,0,-1.6334658,1.1559957,-0.66118324,0.63524574,-0.19511956,1.0134668,-0.14347874,-0.61210287,-1.1953084,0.71524477,0.26128727,-0.09960704,0.7849905,-0.2749541
0.1,-0.1,1.4,0.0,0.0,0,-1.6366929,1.1682723,-0.66117704,0.637469,-0.18387477,1.0170926,-0.13660426,-0.6150497,-1.1945654,0.6673255,0.20791145,-0.0793622,0.85438657,-0.062265947
0.1,-0.1,1.4,0.0,0.0,0,-1.6373357,1.146597,-0.6585225,0.63351476,-0.20022026,1.0143433,-0.14994378,-0.62731475,-1.1925398,0.6764865,0.21728711,0.03183518,0.73392427,-1.0529422
0.1,-0.1,1.4,0.0,0.0,0,-1.6307064,1.1432663,-0.6591195,0.63664633,-0.18583375,1.019671,-0.13125823,-0.59875554,-1.1975468,0.65083003,0.25985432,-0.386223,0.7895151,-0.8703952
0.1,-0.1,1.4,0.0,0.0,0,-1.6352394,1.130872,-0.6583166,0.6327798,-0.19359672,1.0170453,-0.13424383,-0.61803895,-1.1915075,0.66129017,0.23312922,-0.06387081,1.0397623,-0.4776929
0.1,-0.1,1.4,0.0,0.0,0,-1.6364181,1.151644,-0.655481,0.63391834,-0.19184084,1.0187622,-0.12497239,-0.62033284,-1.1974357,0.6848494,0.23969053,-0.07838803,0.9386212,-0.06848903
0.1,-0.1,1.4,0.0,0.0,0,-1.6412003,1.1459831,-0.65788597,0.63808066,-0.18772507,1.0160918,-0.14960644,-0.61915684,-1.1936502,0.6854556,0.2465223,0.0944872,0.6148366,-1.1305223
0.1,-0.1,1.4,0.0,0.0,0,-1.6381627,1.1564238,-0.65772164,0.6357446,-0.20414288,1.0148729,-0.11834769,-0.61284494,-1.1961392,0.67590296,0.25410146,-0.08704393,0.89978343,-0.3838987
0.1,-0.1,1.4,0.0,0.0,0,-1.6414839,1.1470484,-0.6567536,0.6331378,-0.18210292,1.0187912,-0.14474827,-0.6142128,-1.1946868,0.7075572,0.2377432,-0.06306945,0.9852688,-0.46519876
0.1,-0.1,1.4,0.0,0.0,0,-1.637541,1.1668267,-0.6578722,0.6350505,-0.17658873,1.0179077,-0.12942162,-0.6196845,-1.193603,0.6795351,0.22162886,-0.06427091,0.8357731,-0.19216438
0.1,-0.1,1.4,0.0,0.0,0,-1.6356466,1.1718779,-0.6618989,0.63355535,-0.19748452,1.0176519,-0.15753901,-0.6067974,-1.1953795,0.6914883,0.23018478,-0.18212631,0.8507658,-1.215155
0.1,-0.1,1.4,0.0,0.0,0,-1.6344995,1.159157,-0.6577061,0.6349478,-0.18906233,1.0177237,-0.13519552,-0.6084914,-1.1972066,0.7004788,0.24422443,0.10096736,0.78929967,-0.6317455
0.1,-0.1,1.4,0.0,0.0,0,-1.6419983,1.1558553,-0.65705466,0.63571733,-0.19723265,1.0158217,-0.13251404,-0.6120851,-1.1935672,0.6692427,0.23992968,-0.08251132,0.9507821,-0.3900986
0.1,-0.1,1.4,0.0,0.0,0,-1.6392336,1.1427159,-0.65711397,0.63736975,-0.18289904,1.0151393,-0.14604093,-0.6170166,-1.1925155,0.6965815,0.22921173,0.1722817,0.99659437,-1.1510913
0.1,-0.1,1.4,0.0,0.0,0,-1.6281145,1.1660266,-0.65984803,0.6328141,-0.2049754,1.0206218,-0.13456221,-0.6093146,-1.1906527,0.6779076,0.26172447,0.026025807,0.8036271,-0.9403106
0.1,-0.1,1.4,0.0,0.0,0,-1.6432049,1.1585169,-0.65649056,0.6327055,-0.19798315,1.0174004,-0.1371115,-0.6148826,-1.195758,0.6962191,0.23618582,-0.0238306,0.83967453,-0.51389676
0.1,-0.1,1.4,0.0,0.0,0,-1.6332024,1.1398952,-0.65882736,0.63516766,-0.19551022,1.0133082,-0.13301843,-0.6125414,-1.198558,0.6870268,0.23493052,-0.25830328,0.8495894,-0.69168854
0.1,-0.1,1.4,0.0,0.0,0,-1.63662,1.1626582,-0.6552813,0.6322177,-0.19211869,1.0204742,-0.13014358,-0.60498136,-1.1955115,0.6843066,0.24938585,0.037949555,0.75769365,-1.0609394
0.1,-0.1,1.4,0.0,0.0,0,-1.6374336,1.1599928,-0.658342,0.6381846,-0.16832699,1.0163925,-0.143252,-0.6155452,-1.19603,0.6677214,0.24507448,0.030235376,0.7175549,-0.9699121
0.1,-0.1,1.4,0.0,0.0,0,-1.6477958,1.1513072,-0.65710413,0.6346339,-0.1906322,1.0156676,-0.11635726,-0.614695,-1.1891224,0.6923867,0.22755145,-0.41209972,0.7739631,-0.61197865
0.1,-0.1,1.4,0.0,0.0,0,-1.6311632,1.1442007,-0.6614475,0.6350007,-0.19922003,1.0119132,-0.14379437,-0.6155865,-1.191195,0.6881038,0.26024303,-0.23436266,0.9563207,-0.2564563
0.1,-0.1,1.4,0.0,0.0,0,-1.6275203,1.1397651,-0.65891516,0.636321,-0.19862723,1.0199641,-0.13673268,-0.61710006,-1.1931889,0.6764808,0.23536424,-0.06821374,0.75479966,-1.7972231
0.1,-0.1,1.4,0.0,0.0,0,-1.643037,1.1550318,-0.6609393,0.6336687,-0.17692588,1.0184746,-0.13036183,-0.6170834,-1.1916656,0.67528236,0.2500276,0.0032996503,0.9806625,-0.5947697
0.1,-0.1,1.4,0.0,0.0,0,-1.6341839,1.1584085,-0.6575222,0.6326133,-0.18571825,1.017532,-0.11094324,-0.61384386,-1.1946414,0.6962364,0.23428003,-0.27476096,0.92962444,-0.6136728
0.1,-0.1,1.4,0.0,0.0,0,-1.6459771,1.1525251,-0.66064614,0.6316245,-0.1745164,1.0170941,-0.11313383,-0.6214973,-1.1881368,0.67722815,0.25573215,0.12574527,0.89034045,-0.5894591
0.1,-0.1,1.4,0.0,0.0,0,-1.6363701,1.147783,-0.65943396,0.637612,-0.18798766,1.0176387,-0.144708,-0.61400336,-1.1968461,0.69437325,0.20957014,0.26829615,0.9737327,-0.9251577
0.1,-0.1,1.4,0.0,0.0,0,-1.6324333,1.1480123,-0.66016984,0.6327116,-0.16672285,1.0175297,-0.12255104,-0.62131965,-1.1995633,0.6713942,0.23596357,0.24046987,0.8789492,-0.49986193
0.1,-0.1,1.4,0.0,0.0,0,-1.6366541,1.148064,-0.65882117,0.63512504,-0.19540198,1.016043,-0.13124447,-0.6222017,-1.1984898,0.67475986,0.265592,-0.16193727,0.9200925,-0.20452489
0.1,-0.1,1.4,0.0,0.0,0,-1.6390213,1.1605678,-0.6605847,0.63489616,-0.18306352,1.0187246,-0.14575653,-0.62239474,-1.1951096,0.6996677,0.24840964,0.057187114,0.9545277,-0.6415599
0.1,-0.1,1.4,0.0,0.0,0,-1.6417019,1.1695048,-0.65691555,0.63555235,-0.1929561,1.0157971,-0.10577552,-0.6101066,-1.1959354,0.69704497,0.24744247,-0.043683246,0.87118787,-0.5996447
0.1,-0.1,1.4,0.0,0.0,0,-1.6339369,1.1475644,-0.65864027,0.63424665,-0.18739298,1.0184697,-0.13398981,-0.6085607,-1.1925758,0.6915167,0.26127845,-0.22011341,0.88322604,0.39883128
0.1,-0.1,1.4,0.0,0.0,0,-1.6308596,1.1514925,-0.659277,0.63257366,-0.19065657,1.0169878,-0.12547058,-0.6142044,-1.1928012,0.6914327,0.21444894,0.13583276,1.0834231,-0.99171245
0.1,-0.1,1.4,0.0,0.0,0,-1.6354476,1.1472862,-0.6545948,0.63410866,-0.20138898,1.0167869,-0.15301159,-0.61010545,-1.1947768,0.70619464,0.23337847,0.038136136,0.9174749,-0.76886046
0.1,-0.1,1.4,0.0,0.0,0,-1.6388559,1.1623677,-0.6592339,0.63493,-0.21572736,1.0144683,-0.14860739,-0.61082757,-1.1961689,0.67006516,0.24000575,0.13170838,0.73960876,-1.5760783
0.1,-0.1,1.4,0.0,0.0,0,-1.6361929,1.1427523,-0.65831393,0.6334384,-0.1970788,1.013166,-0.1368498,-0.6202947,-1.1926085,0.67101896,0.26186866,-0.05171716,0.74339163,-1.4708185
0.1,-0.1,1.4,0.0,0.0,0,-1.6445643,1.1430999,-0.6566172,0.6367162,-0.18618612,1.0131387,-0.15921204,-0.6146243,-1.193621,0.6761484,0.25572616,0.037198737,0.7526266,-0.5562597
0.1,-0.1,1.4,0.0,0.0,0,-1.6238507,1.1546745,-0.6583348,0.6334573,-0.18913332,1.0160682,-0.12322624,-0.61264324,-1.1938205,0.67562145,0.25743032,-0.081912406,0.7805518,-0.8450415
0.1,-0.1,1.4,0.0,0.0,0,-1.643626,1.1543198,-0.6569761,0.63520604,-0.20408513,1.0198954,-0.14582957,-0.61939186,-1.192032,0.68249744,0.23256974,-0.010321688,0.7570428,-1.3115819
0.1,-0.1,1.4,0.0,0.0,0,-1.6404108,1.1498587,-0.65987676,0.6359215,-0.17693138,1.015273,-0.12533475,-0.6199369,-1.1948915,0.6813192,0.24440645,0.22216097,0.8833126,-0.9345653
0.1,-0.1,1.4,0.0,0.0,0,-1.6388361,1.1596369,-0.6591628,0.6310736,-0.19321027,1.0200068,-0.13437425,-0.61354625,-1.193501,0.7037594,0.22947232,0.5046432,0.84805006,-0.32741553
0.1,-0.1,1.4,0.0,0.0,0,-1.628332,1.1451223,-0.65730566,0.6358283,-0.19348355,1.0174222,-0.14520016,-0.61537236,-1.1904544,0.70143026,0.26125962,-0.26808855,0.9948097,-0.0728841
0.1,-0.1,1.4,0.0,0.0,0,-1.6370231,1.1513835,-0.6592754,0.6360746,-0.19123323,1.0175564,-0.11444011,-0.6177276,-1.197133,0.65634346,0.23083775,-0.05742931,0.8633192,0.319674
0.1,-0.1,1.4,0.0,0.0,0,-1.6332911,1.1625669,-0.65702635,0.6335347,-0.19686618,1.0169734,-0.12950121,-0.61430764,-1.1941361,0.6581074,0.26622146,-0.11623993,0.92456615,-0.59473085
0.1,-0.1,1.4,0.0,0.0,0,-1.6398226,1.1585628,-0.65793276,0.6331512,-0.19101948,1.0168539,-0.14361483,-0.6140646,-1.1983141,0.67383677,0.25258726,-0.1696085,0.93466365,-0.6911981
0.1,-0.1,1.4,0.0,0.0,0,-1.637021,1.1589364,-0.6605503,0.6370274,-0.18481225,1.0184517,-0.14661098,-0.6113761,-1.1991676,0.6685312,0.2690083,0.20567477,0.9429677,-0.49202248
0.1,-0.1,1.4,0.0,0.0,0,-1.6376307,1.1607615,-0.6549859,0.636224,-0.19385442,1.0172268,-0.13273598,-0.6150344,-1.1925563,0.67770946,0.23201124,0.086943515,0.8568058,-0.31385344
0.1,-0.1,1.4,0.0,0.0,0,-1.6348372,1.1425005,-0.65548146,0.6337173,-0.18350545,1.018909,-0.1391225,-0.61667156,-1.1986222,0.6794498,0.25317764,-0.047174335,0.7440485,-0.4375465
0.1,-0.1,1.4,0.0,0.0,0,-1.6474559,1.1670477,-0.6595555,0.63587534,-0.18346168,1.0175256,-0.14568354,-0.6122923,-1.1877834,0.67111343,0.23616293,-0.33523616,0.8005951,-0.08443368
0.1,-0.1,1.4,0.0,0.0,0,-1.6412697,1.1404492,-0.6568253,0.63285863,-0.1947862,1.0175856,-0.1316666,-0.6241629,-1.1925583,0.69843525,0.2325524,-0.11418789,0.7786175,-0.47242224
0.1,-0.1,1.4,0.0,0.0,0,-1.6344198,1.1568412,-0.65735406,0.63167435,-0.21197551,1.0202131,-0.13197261,-0.6107416,-1.189844,0.69392,0.2396695,-0.20338494,0.7717599,-0.41935852
0.1,-0.1,1.4,0.0,0.0,0,-1.6369466,1.1520144,-0.6579013,0.63397527,-0.19178249,1.0150374,-0.14475717,-0.61212456,-1.1909235,0.6894545,0.25198278,0.13358706,0.80889714,0.08093238
0.1,-0.1,1.4,0.0,0.0,0,-1.6370331,1.1432807,-0.65842277,0.6350071,-0.18365248,1.0169749,-0.1342888,-0.6229371,-1.1895647,0.67953277,0.23804821,-0.043779675,0.8322617,-0.91143745
0.1,-0.1,1.4,0.0,0.0,0,-1.6433777,1.1480926,-0.65709704,0.63601476,-0.18606745,1.0173753,-0.14328402,-0.6156971,-1.1974282,0.6777921,0.25285432,-0.09640186,0.8241778,-0.8582737
0.1,-0.1,1.4,0.0,0.0,0,-1.6389539,1.1497028,-0.65737534,0.6351676,-0.17558193,1.0143886,-0.1345911,-0.6111714,-1.1947271,0.66896766,0.24089149,0.37350187,0.8476222,-0.5872813
0.1,-0.1,1.4,0.0,0.0,0,-1.6389494,1.1658103,-0.65861785,0.6356257,-0.19548853,1.019278,-0.11776919,-0.6149928,-1.190488,0.69833696,0.2357099,-0.03565933,0.97015494,0.023321487
0.1,-0.1,1.4,0.0,0.0,0,-1.6449885,1.1303984,-0.6582658,0.634441,-0.18184282,1.0169383,-0.14525579,-0.6062235,-1.2007248,0.66516936,0.23628785,-0.15601003,0.83700037,-1.495113
0.1,-0.1,1.4,0.0,0.0,0,-1.6370075,1.1490496,-0.6602504,0.6357356,-0.18177599,1.0154191,-0.1383322,-0.61403865,-1.2020752,0.66337794,0.24711184,0.051461536,0.8013615,-0.18776338
0.1,-0.1,1.4,0.0,0.0,0,-1.6377224,1.158753,-0.65749145,0.6345283,-0.17830162,1.0174294,-0.13009763,-0.61458945,-1.1958339,0.6750202,0.23658688,-0.03302981,0.9640725,-0.54270446
0.1,-0.1,1.4,0.0,0.0,0,-1.6330237,1.156719,-0.6559496,0.6331618,-0.1948944,1.0216086,-0.13372672,-0.6131271,-1.1953597,0.68199885,0.20543219,0.14991933,0.90893644,0.046107225
0.1,-0.1,1.4,0.0,0.0,0,-1.635016,1.1588485,-0.65777206,0.6340839,-0.19042633,1.0204237,-0.1485785,-0.61956066,-1.1922998,0.68625754,0.20775019,-0.2573859,1.0886261,-0.86500186
0.1,-0.1,1.4,0.0,0.0,0,-1.6389023,1.1595489,-0.65777135,0.63613164,-0.20451273,1.0196532,-0.12604702,-0.6152342,-1.1920357,0.70108443,0.25324214,0.16399175,1.0583409,-0.3287874
0.1,-0.1,1.4,0.0,0.0,0,-1.6549802,1.143536,-0.6555998,0.6331736,-0.17442779,1.013179,-0.11294982,-0.6209984,-1.1981295,0.64979774,0.23644866,0.13576342,0.7767329,-0.33713385
0.1,-0.1,1.4,0.0,0.0,0,-1.636429,1.1460285,-0.65521806,0.6349328,-0.18222894,1.016691,-0.13502054,-0.60763645,-1.1917927,0.67347527,0.23199014,-0.109953456,1.022838,-0.38668564
0.1,-0.1,1.4,0.0,0.0,0,-1.6353711,1.1528547,-0.65907955,0.6348399,-0.20019676,1.0156841,-0.12163324,-0.61344856,-1.1924658,0.68105614,0.2393186,-0.31691188,0.87948793,-1.0593928
0.1,-0.1,1.4,0.0,0.0,0,-1.6451606,1.1466078,-0.6585356,0.63482344,-0.20503493,1.0164498,-0.15699503,-0.6128049,-1.1933223,0.66923714,0.22524236,0.14208509,0.76507086,-1.4073251
0.1,-0.1,1.4,0.0,0.0,0,-1.6303132,1.1493446,-0.6581645,0.6363447,-0.18912047,1.0150169,-0.12558131,-0.61272377,-1.1916363,0.68778455,0.2628828,0.15317285,1.109169,-1.2351993
0.1,-0.1,1.4,0.0,0.0,0,-1.6345844,1.1542084,-0.6539884,0.6348559,-0.20020036,1.0198052,-0.11048231,-0.61277175,-1.1906372,0.6760908,0.2567271,-0.06165796,0.8101341,-0.74101657
0.1,-0.1,1.4,0.0,0.0,0,-1.6407628,1.158368,-0.6598261,0.63401914,-0.18069966,1.0208166,-0.12029259,-0.6071633,-1.1936748,0.6790596,0.26593223,-0.023791438,0.6523008,0.16753758
0.1,-0.1,1.4,0.0,0.0,0,-1.633562,1.147256,-0.6576802,0.6365267,-0.20950662,1.0123028,-0.13156706,-0.60737216,-1.1948171,0.6914326,0.25078362,-0.13230029,0.98525494,0.0878159
0.1,-0.1,1.4,0.0,0.0,0,-1.638776,1.1532544,-0.6608515,0.63372177,-0.18946928,1.0181762,-0.14027697,-0.6177952,-1.1950326,0.69462615,0.22436316,0.2762084,0.93696433,-1.1088413
0.1,-0.1,1.4,0.0,0.0,0,-1.6361331,1.1546758,-0.65851897,0.6361783,-0.20222099,1.0168792,-0.1236887,-0.6180597,-1.1913196,0.700369,0.24252237,0.24608593,0.81856936,-0.94305265
0.1,-0.1,1.4,0.0,0.0,0,-1.634526,1.1441214,-0.6567463,0.6363708,-0.18625592,1.0201366,-0.14473212,-0.6030028,-1.1886666,0.6804465,0.22923383,0.055784833,0.70767385,-0.9161908
0.1,-0.1,1.4,0.0,0.0,0,-1.6457258,1.1412523,-0.65885854,0.6353806,-0.18682505,1.015548,-0.12295215,-0.61642176,-1.1958213,0.6924701,0.24310882,0.14505649,0.7817783,-1.0819888
0.1,-0.1,1.4,0.0,0.0,0,-1.6250775,1.1571574,-0.6569184,0.6334661,-0.20054114,1.0205154,-0.10511325,-0.61164325,-1.1939044,0.6925214,0.23318373,0.101953834,0.9385278,-0.6390798
0.1,-0.1,1.4,0.0,0.0,0,-1.6443073,1.1602337,-0.6554918,0.63675475,-0.19833253,1.0176435,-0.13996848,-0.61800146,-1.1917802,0.6848548,0.21876502,-0.07226605,0.8816115,-0.23090416
0.1,-0.1,1.4,0.0,0.0,0,-1.6334893,1.1433438,-0.6604197,0.6330317,-0.20300367,1.0198325,-0.14017722,-0.60895324,-1.1950173,0.69770676,0.23371707,0.26529163,0.92763644,-0.44551966
0.1,-0.1,1.4,0.0,0.0,0,-1.6390966,1.1666671,-0.65628666,0.63417286,-0.19528207,1.0154536,-0.115007766,-0.6156249,-1.1937131,0.6997996,0.25502646,-0.028050106,0.7577117,-0.84325665
0.1,-0.1,1.4,0.0,0.0,0,-1.6363124,1.1394633,-0.6563277,0.6336566,-0.20237102,1.0215008,-0.15232804,-0.6201797,-1.1898875,0.6713361,0.2414786,0.11581801,0.89376396,-0.73201936
0.1,-0.1,1.4,0.0,0.0,0,-1.6361135,1.1570022,-0.6576031,0.637466,-0.1986711,1.0152615,-0.12793371,-0.61043257,-1.192861,0.70151335,0.22402835,-0.252843,0.9570245,0.15391329
0.1,-0.1,1.4,0.0,0.0,0,-1.6414285,1.1616949,-0.6607368,0.6345276,-0.18841903,1.0193549,-0.15045688,-0.6138581,-1.1954516,0.64305216,0.23203933,-0.03540141,0.6775594,-0.34300873
0.1,-0.1,1.4,0.0,0.0,0,-1.6317077,1.1527045,-0.6578446,0.6347048,-0.1841528,1.0198725,-0.14380147,-0.60371983,-1.1971596,0.666375,0.22690907,-0.019998388,0.88791037,-1.0185345
0.1,-0.1,1.4,0.0,0.0,0,-1.6330367,1.1498932,-0.65682983,0.6327709,-0.18779358,1.0177497,-0.14654657,-0.6082534,-1.1938646,0.68553716,0.23089753,0.25166324,0.6651793,-0.7612907
0.1,-0.1,1.4,0.0,0.0,0,-1.6297731,1.1344342,-0.6582647,0.6359732,-0.19196904,1.0210539,-0.13869281,-0.6162309,-1.1930363,0.6852885,0.23015785,-0.05748409,0.914001,-0.12955374
0.1,-0.1,1.4,0.0,0.0,0,-1.6411895,1.1488904,-0.6580873,0.639814,-0.17812982,1.012379,-0.17205451,-0.6097101,-1.1957995,0.6983035,0.25561386,0.14207347,0.8586935,-0.16403279
0.1,-0.1,1.4,0.0,0.0,0,-1.6495781,1.1661223,-0.6541301,0.6353628,-0.21048388,1.019396,-0.1425806,-0.61156434,-1.1892152,0.69293207,0.24904947,-0.05202499,0.8292291,-0.70369595
0.1,-0.1,1.4,0.0,0.0,0,-1.6357934,1.1423947,-0.6597451,0.63257235,-0.19528551,1.0174762,-0.12723099,-0.6098586,-1.1941621,0.6659565,0.24339926,-0.021158453,1.0249743,0.13047943
0.1,-0.1,1.4,0.0,0.0,0,-1.6382949,1.1601762,-0.65523493,0.63892525,-0.20993043,1.0193801,-0.12901588,-0.6123601,-1.1919643,0.69349784,0.20603418,-0.04987174,0.93081623,-0.37981477
0.1,-0.1,1.4,0.0,0.0,0,-1.6417431,1.1322169,-0.65602094,0.6354407,-0.19646579,1.019808,-0.12354695,-0.6168476,-1.1909375,0.7013773,0.25258514,-0.11906628,0.77480483,-1.3475362
0.1,-0.1,1.4,0.0,0.0,0,-1.6410105,1.1617007,-0.6569869,0.6348515,-0.18110797,1.019159,-0.13849166,-0.60806376,-1.1930159,0.6881306,0.23180842,0.2588493,0.9219156,-0.056840565
0.1,-0.1,1.4,0.0,0.0,0,-1.6396214,1.1458973,-0.6566951,0.6346422,-0.19697982,1.012603,-0.09532718,-0.60525125,-1.1907806,0.68464446,0.25486356,-0.23548236,0.81667745,0.124621615
0.1,-0.1,1.4,0.0,0.0,0,-1.6269315,1.1329365,-0.6582987,0.6340636,-0.1932148,1.0151696,-0.11683231,-0.6223893,-1.1966937,0.68429655,0.24540082,0.07873542,0.8704778,-1.5848049
0.1,-0.1,1.4,0.0,0.0,0,-1.6459676,1.159939,-0.6554899,0.63720447,-0.18875457,1.0167853,-0.118988805,-0.6065232,-1.1963881,0.6757823,0.23424862,-0.20310512,0.73658305,-0.92233187
0.1,-0.1,1.4,0.0,0.0,0,-1.6373769,1.1455758,-0.65770334,0.63788295,-0.20148091,1.0124972,-0.1344304,-0.6138637,-1.1922967,0.68401814,0.23236133,0.13765271,0.8553728,-1.2711332
0.1,-0.1,1.4,0.0,0.0,0,-1.644064,1.162559,-0.6590943,0.635922,-0.17403054,1.0161337,-0.12569794,-0.6202005,-1.1963968,0.6782012,0.21316361,0.1079738,0.8624544,-0.6917083
0.1,-0.1,1.4,0.0,0.0,0,-1.6309925,1.1598265,-0.6602224,0.63562334,-0.19161901,1.0187614,-0.109501705,-0.6089677,-1.1938802,0.66845316,0.23826012,-0.094342,0.86535317,-0.04620257
0.1,-0.1,1.4,0.0,0.0,0,-1.6348717,1.1456165,-0.6585947,0.63687134,-0.1846143,1.0131402,-0.11441515,-0.60922194,-1.1936629,0.6771545,0.24802501,0.12521401,0.9498512,-0.73749274
0.1,-0.1,1.4,0.0,0.0,0,-1.6368053,1.1511786,-0.6620903,0.6371908,-0.1977382,1.0141773,-0.11678493,-0.62021154,-1.1887541,0.6825431,0.23323905,-0.25324446,0.8342101,-0.950199
0.1,-0.1,1.4,0.0,0.0,0,-1.6343254,1.1392174,-0.6574894,0.6362513,-0.19796354,1.0162311,-0.12932992,-0.60603726,-1.1948044,0.6722611,0.22593567,0.07733409,0.70123345,0.28734836
0.1,-0.1,1.4,0.0,0.0,0,-1.6383219,1.1555804,-0.6618806,0.6359757,-0.19835767,1.0154115,-0.1370193,-0.61409277,-1.1947888,0.71216625,0.26735365,-0.002745698,0.92048234,-1.0333734
0.1,-0.1,1.4,0.0,0.0,0,-1.6411239,1.14282,-0.6567784,0.63551265,-0.18685256,1.0173163,-0.14131486,-0.61399287,-1.1936132,0.6917396,0.2409819,0.10648074,0.87749475,-0.108999334
0.1,-0.1,1.4,0.0,0.0,0,-1.6341977,1.1623158,-0.6591373,0.63562083,-0.20618801,1.022002,-0.13565664,-0.6076071,-1.1950196,0.68244714,0.24178803,0.1356663,0.7792302,-0.9337752
0.1,-0.1,1.4,0.0,0.0,0,-1.626758,1.1264241,-0.65922093,0.63574016,-0.17697191,1.0143107,-0.1472114,-0.6100299,-1.1924717,0.6870885,0.26638433,0.05997844,0.770044,-0.17779937
0.1,-0.1,1.4,0.0,0.0,0,-1.6355867,1.1418762,-0.66150296,0.6342305,-0.19262993,1.0170467,-0.13044219,-0.6030821,-1.1929152,0.7121953,0.23925816,0.049486816,0.8264238,-0.9781911
0.1,-0.1,1.4,0.0,0.0,0,-1.6335931,1.1293385,-0.6563818,0.6324607,-0.20786077,1.0178185,-0.13651833,-0.6144106,-1.1995348,0.664778,0.23425297,-0.1569986,0.72814226,-0.52084583
0.1,-0.1,1.4,0.0,0.0,0,-1.6469646,1.1385394,-0.65448844,0.6350302,-0.18913257,1.0183303,-0.113807954,-0.61446726,-1.1889882,0.67064315,0.2198358,-0.3039811,0.81215245,-0.28172672
0.1,-0.1,1.4,0.0,0.0,0,-1.6380922,1.1385735,-0.65722615,0.6362332,-0.1771561,1.0149648,-0.11667352,-0.6075514,-1.197994,0.6896525,0.24385649,0.059812654,0.9136246,-0.8424993
0.1,-0.1,1.4,0.0,0.0,0,-1.6404401,1.1488823,-0.6580897,0.6340896,-0.19786313,1.0191798,-0.15339227,-0.611299,-1.195044,0.6649116,0.24846394,-0.1451699,0.9280134,-0.6055746
0.1,-0.1,1.4,0.0,0.0,0,-1.6377244,1.1512108,-0.6545968,0.6344116,-0.18990606,1.0167714,-0.1403263,-0.6184955,-1.1978564,0.6801631,0.2500024,-0.109366275,0.8143382,0.120164186
0.1,-0.1,1.4,0.0,0.0,0,-1.6403077,1.1597747,-0.6582903,0.63618535,-0.18381226,1.0178504,-0.12140569,-0.60730606,-1.1897218,0.67546123,0.25161996,-0.25243676,0.91445476,-0.047674194
0.1,-0.1,1.4,0.0,0.0,0,-1.6418694,1.1630646,-0.65482515,0.6366621,-0.20517011,1.017614,-0.15642887,-0.61599034,-1.1928393,0.6758342,0.23838373,0.17143577,0.853134,-0.47575924
0.1,-0.1,1.4,0.0,0.0,0,-1.6300572,1.1250843,-0.6607727,0.6351241,-0.16818273,1.0170083,-0.13739505,-0.6224684,-1.1939384,0.6870404,0.23351394,0.17175864,0.82936305,-0.6675381
0.1,-0.1,1.4,0.0,0.0,0,-1.632771,1.1601667,-0.65661764,0.6357711,-0.19395457,1.0181656,-0.11232351,-0.6091927,-1.1910596,0.6645668,0.25468698,-0.2160326,1.0153319,-0.17927234
0.1,-0.1,1.4,0.0,0.0,0,-1.6434573,1.1507449,-0.6593676,0.6341072,-0.18918867,1.0166868,-0.10389367,-0.61602783,-1.1933632,0.68552744,0.24085177,-0.015766062,0.9568179,-0.14799596
0.1,-0.1,1.4,0.0,0.0,0,-1.6425118,1.1572263,-0.6576009,0.634766,-0.190986,1.0146105,-0.14773777,-0.61320966,-1.1903362,0.67788345,0.2308384,0.0839079,0.854346,-0.58845097
0.1,-0.1,1.4,0.0,0.0,0,-1.6383399,1.147045,-0.6598261,0.63796306,-0.1860567,1.0146294,-0.13211407,-0.61622673,-1.1953853,0.6886065,0.22723106,0.10480213,0.8604349,0.21086046
0.1,-0.1,1.4,0.0,0.0,0,-1.6322758,1.1585485,-0.655539,0.6352696,-0.17661442,1.0179409,-0.112448595,-0.6115688,-1.1954855,0.69993937,0.21942583,0.12264036,0.9220779,-0.21015035
0.1,-0.1,1.4,0.0,0.0,0,-1.6392373,1.138484,-0.65860486,0.63463783,-0.2069662,1.0191076,-0.13260658,-0.6154136,-1.2005203,0.6697803,0.25315705,-0.18165688,0.92560333,-0.7809857
0.1,-0.1,1.4,0.0,0.0,0,-1.639658,1.1760046,-0.6564072,0.6375807,-0.2066872,1.0131413,-0.118581794,-0.6008577,-1.1963847,0.6812955,0.22394215,-0.14475784,0.8695742,-0.38361794
0.1,-0.1,1.4,0.0,0.0,0,-1.6460054,1.1259218,-0.65854436,0.63306516,-0.19073851,1.0168402,-0.1483019,-0.61824065,-1.194311,0.70692396,0.22239114,-0.10689591,0.8433458,-1.3342506
0.1,-0.1,1.4,0.0,0.0,0,-1.6391951,1.1661028,-0.6595,0.6377548,-0.18591985,1.0152617,-0.12552842,-0.6086659,-1.1924057,0.68075466,0.22997311,0.19563748,0.829362,-1.404668
0.1,-0.1,1.4,0.0,0.0,0,-1.6361074,1.148585,-0.6562517,0.63660055,-0.19719934,1.0169463,-0.13619845,-0.6085709,-1.1995778,0.68633085,0.2505717,0.09825958,1.0115759,0.21461871
0.1,-0.1,1.4,0.0,0.0,0,-1.6276565,1.1560112,-0.65525734,0.63520277,-0.19045645,1.0151731,-0.11555369,-0.6134846,-1.1948423,0.68128973,0.26918632,-0.12006264,0.88613945,-0.9051052
0.1,-0.1,1.4,0.0,0.0,0,-1.6431371,1.1443833,-0.6538074,0.63448364,-0.16928706,1.0201504,-0.11765006,-0.62194836,-1.1948953,0.69841015,0.22981003,-0.06554078,0.82785434,-0.058477633
0.1,-0.1,1.4,0.0,0.0,0,-1.638196,1.1473776,-0.65708804,0.63519424,-0.19468193,1.017068,-0.12841558,-0.6139292,-1.1879177,0.68168586,0.22429426,-0.09747438,0.8913949,-0.67469627
0.1,-0.1,1.4,0.0,0.0,0,-1.6449817,1.152498,-0.6586688,0.6367763,-0.1994966,1.0133939,-0.17820823,-0.6145816,-1.1948279,0.6971443,0.2368898,0.13800368,0.7052743,0.17890196
0.1,-0.1,1.4,0.0,0.0,0,-1.6389922,1.1498003,-0.66405874,0.63568455,-0.18712965,1.013243,-0.15585275,-0.61618096,-1.1928543,0.666766,0.24297297,-0.09488952,0.7568537,-0.9831049
0.1,-0.1,1.4,0.0,0.0,0,-1.641094,1.15672,-0.6571109,0.6362049,-0.19331247,1.0165145,-0.13449477,-0.6124289,-1.1920264,0.69669396,0.24196118,-0.060216248,0.8473444,-0.23646139
0.1,-0.1,1.4,0.0,0.0,0,-1.6450062,1.1526076,-0.6587436,0.63534623,-0.19409041,1.0167879,-0.121406734,-0.61175907,-1.1955931,0.6718665,0.2420859,0.03256445,0.92289203,-0.20469654
0.1,-0.1,1.4,0.0,0.0,0,-1.6284145,1.158237,-0.6596559,0.63362545,-0.1728157,1.0154177,-0.10388268,-0.6122924,-1.1963036,0.6805306,0.25090814,0.06997979,0.85694265,-0.17856836
0.1,-0.1,1.4,0.0,0.0,0,-1.6332761,1.1423556,-0.6576775,0.6344183,-0.1978212,1.0152919,-0.123982094,-0.618748,-1.1963468,0.6862953,0.22958627,-0.11972238,0.8053476,-0.2969928
0.1,-0.1,1.4,0.0,0.0,0,-1.6358308,1.1433765,-0.6579824,0.6353724,-0.18394889,1.016982,-0.101994134,-0.6224282,-1.2002311,0.68549275,0.23476914,-0.40131155,0.82552445,-0.30743903
0.1,-0.1,1.4,0.0,0.0,0,-1.6389561,1.16078,-0.6584546,0.63594335,-0.21886705,1.0161692,-0.15623704,-0.60916764,-1.1951498,0.70823556,0.25307295,-0.120452434,0.8188039,-0.5230043
0.1,-0.1,1.4,0.0,0.0,0,-1.6376401,1.1550121,-0.66134447,0.6341675,-0.20363894,1.0164707,-0.1470086,-0.6144502,-1.1914277,0.68497646,0.21035399,-0.15028003,0.89355093,-0.5271162
0.1,-0.1,1.4,0.0,0.0,0,-1.6454111,1.1440208,-0.65943813,0.63514286,-0.1895048,1.0135915,-0.1493597,-0.61350787,-1.1949992,0.6965839,0.22704862,0.033723548,0.73084426,0.044775426
0.1,-0.1,1.4,0.0,0.0,0,-1.6390507,1.1802887,-0.65771425,0.6327068,-0.1963431,1.0171243,-0.13809215,-0.6102572,-1.1945807,0.7110743,0.22084533,0.115559846,0.85017633,-0.018704696
0.1,-0.1,1.4,0.0,0.0,0,-1.6382785,1.1615227,-0.65636516,0.6352496,-0.19861539,1.0159875,-0.15695642,-0.61974883,-1.1966199,0.69117767,0.23973298,0.0038261244,0.814097,-0.20946793
0.1,-0.1,1.4,0.0,0.0,0,-1.6425025,1.1379755,-0.6587825,0.63610375,-0.18314992,1.0159329,-0.14512312,-0.6168146,-1.1900555,0.68676287,0.23894577,-0.12662728,0.88954604,-0.63607264
0.1,-0.1,1.4,0.0,0.0,0,-1.6360849,1.1519043,-0.66144305,0.63676363,-0.16927646,1.0161266,-0.13353452,-0.61350393,-1.1955442,0.6650267,0.22882803,-0.094573036,1.0872136,-0.06517255
0.1,-0.1,1.4,0.0,0.0,0,-1.6425377,1.1527938,-0.65954655,0.6388593,-0.2050901,1.018121,-0.15165421,-0.61604923,-1.1965593,0.6844547,0.21517532,0.032893136,0.8397526,-0.42981842
0.1,-0.1,1.4,0.0,0.0,0,-1.6415126,1.1538522,-0.659569,0.6379236,-0.19695772,1.0153935,-0.13426685,-0.6125705,-1.2006986,0.6905076,0.25083214,0.39867282,0.91045356,-0.96242833
0.1,-0.1,1.4,0.0,0.0,0,-1.635031,1.1596869,-0.66075855,0.63773954,-0.1926825,1.0170747,-0.12664215,-0.6122986,-1.1924529,0.67285645,0.22758701,0.08057403,0.82165265,-0.921063
0.1,-0.1,1.4,0.0,0.0,0,-1.6390532,1.1520855,-0.6557305,0.63569194,-0.1814956,1.0141523,-0.11677143,-0.6078675,-1.1968274,0.69159454,0.2533672,-0.11310011,0.8743118,-0.5719195
0.1,-0.1,1.4,0.0,0.0,0,-1.6318883,1.1386007,-0.6580648,0.6357188,-0.18751937,1.0207095,-0.1261233,-0.6126462,-1.1923997,0.70171714,0.25337076,-0.17866383,1.0384421,-0.8006064
0.1,-0.1,1.4,0.0,0.0,0,-1.6418451,1.1425884,-0.6599511,0.63560355,-0.17322958,1.0201735,-0.15829454,-0.61659837,-1.197217,0.68916655,0.223576,-0.15243475,0.8497318,-0.73434025
0.1,-0.1,1.4,0.0,0.0,0,-1.6217122,1.135894,-0.6593372,0.63446754,-0.19899623,1.0180831,-0.13021967,-0.62692297,-1.1930089,0.6792299,0.24355364,-0.04163431,0.9693186,0.009578547
0.1,-0.1,1.4,0.0,0.0,0,-1.6431408,1.1565112,-0.65809846,0.63480186,-0.20136306,1.0159072,-0.14728434,-0.6101219,-1.1932737,0.6811988,0.22503647,0.05114079,0.87022895,-0.71891034
0.1,-0.1,1.4,0.0,0.0,0,-1.6421444,1.1696562,-0.65729386,0.635983,-0.21231115,1.0142367,-0.12393004,-0.608758,-1.1909468,0.68166745,0.22196996,0.14915197,0.8424758,-0.16163778
0.1,-0.1,1.4,0.0,0.0,0,-1.6410551,1.1539881,-0.6583643,0.63751584,-0.20442882,1.0128921,-0.16003287,-0.6138365,-1.187775,0.67171514,0.23166378,0.22123775,0.82555604,-0.7572027
0.1,-0.1,1.4,0.0,0.0,0,-1.6326805,1.1559345,-0.6635099,0.63379633,-0.20006618,1.014792,-0.12857115,-0.6104637,-1.1951296,0.6766341,0.23027961,-0.0073712748,0.85025156,-1.7368591
0.1,-0.1,1.4,0.0,0.0,0,-1.6373332,1.1530008,-0.6586331,0.636622,-0.19659266,1.0177577,-0.15098202,-0.6077341,-1.1938983,0.69124955,0.23280787,-0.16236416,0.68666804,0.5934787
0.1,-0.1,1.4,0.0,0.0,0,-1.6303536,1.1384184,-0.658079,0.6365164,-0.21360496,1.0152053,-0.11953338,-0.6088799,-1.1902438,0.65495545,0.24495202,0.03152435,0.87044805,-0.33801547
0.1,-0.1,1.4,0.0,0.0,0,-1.6396432,1.1468625,-0.6602518,0.6329619,-0.19443892,1.0173062,-0.12177025,-0.6261576,-1.1909932,0.67764837,0.2212341,0.20252927,0.88658345,0.21738607
0.1,-0.1,1.4,0.0,0.0,0,-1.6402054,1.1528102,-0.66089535,0.6367008,-0.19469167,1.0222914,-0.14579396,-0.6139909,-1.193329,0.6595964,0.24916513,0.37333256,0.8493578,-0.84972996
0.1,-0.1,1.4,0.0,0.0,0,-1.6416044,1.150676,-0.65959656,0.6363554,-0.1932894,1.0162346,-0.14596441,-0.6112813,-1.1968437,0.6819588,0.23920353,-0.14066198,0.95991254,0.20212975
0.1,-0.1,1.4,0.0,0.0,0,-1.6309631,1.1422275,-0.6600043,0.63648945,-0.18761571,1.0217739,-0.14473201,-0.6138739,-1.1929479,0.68697524,0.25138444,0.09995151,0.8409614,-1.4625907
0.1,-0.1,1.4,0.0,0.0,0,-1.6396545,1.166555,-0.6595668,0.6333207,-0.1838441,1.0179302,-0.122875035,-0.60281366,-1.1936616,0.674135,0.23333223,0.1872303,0.758291,-0.10324275
0.1,-0.1,1.4,0.0,0.0,0,-1.6462188,1.1545885,-0.66365784,0.63222665,-0.19921577,1.012304,-0.14551541,-0.61014533,-1.1951926,0.66976655,0.24668726,0.024658533,0.9406865,-1.2204285
0.1,-0.1,1.4,0.0,0.0,0,-1.6374487,1.1517048,-0.6596863,0.63533044,-0.20559306,1.018793,-0.14774422,-0.6117009,-1.1934798,0.6889881,0.25140017,-0.023861764,0.8668503,-1.6041765
0.1,-0.1,1.4,0.0,0.0,0,-1.642395,1.1476392,-0.6570917,0.63527566,-0.18216048,1.0195225,-0.1177016,-0.6091479,-1.1936183,0.6767643,0.2323048,0.1211221,0.83252317,0.5524923
0.1,-0.1,1.4,0.0,0.0,0,-1.6344367,1.1498519,-0.6574673,0.6367752,-0.19907826,1.0191138,-0.118532404,-0.6125588,-1.1973418,0.69621557,0.22485721,0.04932359,0.91109353,-0.55846643
0.1,-0.1,1.4,0.0,0.0,0,-1.6331645,1.150066,-0.66176057,0.6386434,-0.18657687,1.0187693,-0.1121238,-0.6112558,-1.1968989,0.6769393,0.22593807,-0.16513558,0.68570673,-0.54988796
0.1,-0.1,1.4,0.0,0.0,0,-1.6362387,1.1490319,-0.6586047,0.6348955,-0.18895498,1.0168296,-0.111517936,-0.61080474,-1.1918678,0.70810866,0.26093665,0.028464993,0.9780178,-0.62284046
0.1,-0.1,1.4,0.0,0.0,0,-1.6393276,1.1485264,-0.66015565,0.6360644,-0.19461516,1.0157316,-0.10223882,-0.6155,-1.1961777,0.68170416,0.2306912,-0.065874055,0.79360044,-0.4655591
0.1,-0.1,1.4,0.0,0.0,0,-1.6333423,1.1423773,-0.6566752,0.6318774,-0.18196681,1.0137442,-0.105505295,-0.61247754,-1.1925113,0.6614738,0.23909692,0.04390395,0.9558215,-0.5186881
0.1,-0.1,1.4,0.0,0.0,0,-1.6396031,1.1597813,-0.6572694,0.6377061,-0.20635654,1.0213497,-0.13070856,-0.6150576,-1.1947558,0.6737283,0.2521201,-0.2424164,0.73090476,-1.2751721
0.1,-0.1,1.4,0.0,0.0,0,-1.641456,1.1399446,-0.65939516,0.63606024,-0.19895656,1.0181623,-0.11467783,-0.6072755,-1.193041,0.66670406,0.22842492,0.1188324,0.6433986,-0.17777312
0.1,-0.1,1.4,0.0,0.0,0,-1.6327957,1.1405495,-0.65980804,0.6330301,-0.19923286,1.0190579,-0.13671291,-0.60944945,-1.1926477,0.6708416,0.24643417,-0.15180634,0.791006,0.32951546
0.1,-0.1,1.4,0.0,0.0,0,-1.648036,1.1620761,-0.65893877,0.63410896,-0.19138552,1.0202264,-0.1526026,-0.6130326,-1.1900709,0.68505806,0.27180654,-0.078172766,0.94366276,-0.48801404
0.1,-0.1,1.4,0.0,0.0,0,-1.6406415,1.1399285,-0.6583511,0.63639176,-0.203604,1.01357,-0.09802956,-0.61508745,-1.1930811,0.669566,0.24900438,0.1494883,0.7458,-0.38152727
0.1,-0.1,1.4,0.0,0.0,0,-1.6380169,1.1543767,-0.6597348,0.6341103,-0.1798018,1.0157889,-0.102302924,-0.6162582,-1.1974174,0.6909631,0.23394877,0.05665476,0.7222158,-1.1507887
0.1,-0.1,1.4,0.0,0.0,0,-1.6424946,1.1330004,-0.6591319,0.63578814,-0.20379172,1.0156442,-0.1412409,-0.61868083,-1.1996329,0.68126166,0.23525909,-0.18447122,0.94410694,-0.5280739
0.1,-0.1,1.4,0.0,0.0,0,-1.6474061,1.1455361,-0.6618345,0.63336277,-0.19979098,1.0180045,-0.1158372,-0.6126981,-1.1933202,0.6986665,0.26043323,-0.054031577,0.871526,-1.5378689
0.1,-0.1,1.4,0.0,0.0,0,-1.6414045,1.1406604,-0.6562962,0.6339442,-0.19413355,1.0148907,-0.11202794,-0.6177208,-1.1935346,0.6924385,0.23849191,-0.030661594,0.9407501,-1.9363244
0.1,-0.1,1.4,0.0,0.0,0,-1.6373224,1.1301751,-0.658057,0.6371314,-0.20574543,1.017984,-0.11267888,-0.61273175,-1.1911701,0.69859785,0.24156359,-0.08582819,0.8318838,-0.80535734
0.1,-0.1,1.4,0.0,0.0,0,-1.634203,1.1310488,-0.658139,0.6360181,-0.19056426,1.0169024,-0.10380746,-0.62241304,-1.1924417,0.6758493,0.22484995,0.058440425,1.0478532,-1.1562581
0.1,-0.1,1.4,0.0,0.0,0,-1.6377492,1.1416037,-0.661815,0.63534856,-0.19165897,1.02151,-0.14018504,-0.60614747,-1.1907537,0.67126185,0.25289416,-0.09565611,0.7705348,-0.5748211
0.1,-0.1,1.4,0.0,0.0,0,-1.6370245,1.1619995,-0.65614957,0.63614285,-0.19997236,1.0170443,-0.14453427,-0.60980016,-1.1966686,0.65177256,0.2526441,0.053642537,0.7594801,-0.54688954
0.1,-0.1,1.4,0.0,0.0,0,-1.6399728,1.1376435,-0.66220725,0.63477504,-0.17044224,1.0124742,-0.14185159,-0.60560626,-1.1971198,0.67247665,0.25110102,-0.0820992,0.88185567,-0.5095396
0.1,-0.1,1.4,0.0,0.0,0,-1.6367254,1.1641462,-0.6571548,0.632026,-0.18483575,1.0185477,-0.12439082,-0.61187994,-1.1943172,0.6878325,0.26553744,-0.029135248,0.9314634,-0.92885244
0.1,-0.1,1.4,0.0,0.0,0,-1.6396945,1.1578528,-0.6540662,0.63357913,-0.18349296,1.0137209,-0.1563912,-0.61840636,-1.1941122,0.6893894,0.21842797,0.011336045,0.77417386,-0.15226726
0.1,-0.1,1.4,0.0,0.0,0,-1.6357555,1.1842263,-0.65602064,0.63418716,-0.18675944,1.0156494,-0.1574206,-0.6198717,-1.1907363,0.69910645,0.22246376,0.094793275,0.63574785,-0.31765965
0.1,-0.1,1.4,0.0,0.0,0,-1.6378629,1.1684691,-0.65945774,0.636985,-0.18237843,1.0147985,-0.14078245,-0.6150505,-1.1906141,0.69127184,0.24499504,0.06381065,1.019284,0.44825947
0.1,-0.1,1.4,0.0,0.0,0,-1.6208344,1.1659533,-0.661459,0.6336288,-0.19556098,1.0136172,-0.15955025,-0.61447597,-1.1957917,0.6770137,0.23210151,-0.0056829755,0.9306726,-0.51668346
0.1,-0.1,1.4,0.0,0.0,0,-1.6229687,1.1527611,-0.6585588,0.6357904,-0.19296251,1.0160697,-0.15593438,-0.61412865,-1.1939187,0.65451103,0.25057814,0.21177432,0.87791216,-0.5345446
0.1,-0.1,1.4,0.0,0.0,0,-1.6282421,1.1574005,-0.657156,0.6335756,-0.17945652,1.0170989,-0.13349517,-0.6175479,-1.1947882,0.67488337,0.21794616,-0.16177507,0.9611788,-0.7638574
0.1,-0.1,1.4,0.0,0.0,0,-1.644905,1.1568838,-0.6603744,0.6315539,-0.1939065,1.0110313,-0.16140194,-0.61584526,-1.1921357,0.66615736,0.24616481,0.2315249,0.80282354,0.11377075
0.1,-0.1,1.4,0.0,0.0,0,-1.6368704,1.1645579,-0.6567049,0.633695,-0.2037638,1.0153155,-0.12405436,-0.608212,-1.1963978,0.68601674,0.26838613,-0.1308962,0.885051,-0.76933753
0.1,-0.1,1.4,0.0,0.0,0,-1.632672,1.1560223,-0.6604746,0.6324816,-0.19605479,1.017851,-0.13361031,-0.6176147,-1.1955669,0.6732889,0.21617633,-0.0048342273,0.72601235,-1.3053995
0.1,-0.1,1.4,0.0,0.0,0,-1.6383814,1.1655728,-0.6576683,0.63174814,-0.19761053,1.0131211,-0.16195029,-0.6175464,-1.191316,0.66589355,0.21820053,0.01946429,0.7566788,-0.20605044
0.1,-0.1,1.4,0.0,0.0,0,-1.6399063,1.1591406,-0.6572208,0.63734454,-0.16975968,1.0176039,-0.14224444,-0.6141816,-1.1965781,0.71713054,0.2508622,0.2211855,0.8461545,0.04273859
0.1,-0.1,1.4,0.0,0.0,0,-1.6322058,1.1579014,-0.6567746,0.6361734,-0.19685547,1.0108007,-0.1589204,-0.6119061,-1.1973797,0.6691468,0.27185044,0.03751281,0.85504895,-0.8482379
0.1,-0.1,1.4,0.0,0.0,0,-1.6311969,1.1690625,-0.6590383,0.6333355,-0.1769142,1.0149,-0.12711933,-0.6198193,-1.195157,0.68434864,0.2833525,0.10738461,0.8980319,-0.75344735
0.1,-0.1,1.4,0.0,0.0,0,-1.6264306,1.1485454,-0.6601655,0.6348727,-0.18923207,1.0178,-0.1226846,-0.6224099,-1.1933843,0.66056556,0.25640467,-0.19175759,0.7837729,-0.5658148
0.1,-0.1,1.4,0.0,0.0,0,-1.6296027,1.1465791,-0.6596222,0.63466233,-0.1915527,1.0146408,-0.18378618,-0.606069,-1.1955243,0.64864093,0.23962991,0.20514548,0.86202186,0.09814218
0.1,-0.1,1.4,0.0,0.0,0,-1.6325095,1.1543418,-0.65990245,0.63593143,-0.18481436,1.018601,-0.12967853,-0.6153685,-1.1953576,0.6791843,0.23322037,0.148458,0.7640933,-0.12517321
0.1,-0.1,1.4,0.0,0.0,0,-1.6347871,1.145797,-0.6598135,0.63634986,-0.19320473,1.0186278,-0.15730737,-0.6213679,-1.1922146,0.6815948,0.24565253,-0.007629789,0.7191171,-1.0411279
0.1,-0.1,1.4,0.0,0.0,0,-1.6430275,1.1757543,-0.66022384,0.63465387,-0.18691489,1.015004,-0.12391423,-0.6158713,-1.1937397,0.6601443,0.2357206,-0.23249498,0.7634161,0.8765522
0.1,-0.1,1.4,0.0,0.0,0,-1.6298938,1.1572537,-0.65866864,0.63385534,-0.19529708,1.0181273,-0.1272176,-0.62039363,-1.1948781,0.6839275,0.21249261,-0.17621242,0.7276842,-0.28262746
0.1,-0.1,1.4,0.0,0.0,0,-1.63224,1.1455358,-0.65602887,0.6366793,-0.18778414,1.0077051,-0.13316101,-0.61353934,-1.1970797,0.6897745,0.2477306,-0.06654482,0.8982823,-0.22187611
0.1,-0.1,1.4,0.0,0.0,0,-1.6346668,1.1677836,-0.658391,0.6321829,-0.19382094,1.0170308,-0.12658687,-0.6075037,-1.1931117,0.6641525,0.23878036,-0.21728876,0.90607315,-0.38008603
0.1,-0.1,1.4,0.0,0.0,0,-1.6358129,1.1401149,-0.6576255,0.6339657,-0.17295277,1.0184189,-0.14877033,-0.6149854,-1.1877345,0.6615959,0.24228185,0.1231472,0.8957332,-0.7280992
0.1,-0.1,1.4,0.0,0.0,0,-1.6390865,1.1608093,-0.65868616,0.63512254,-0.19374354,1.0162429,-0.15091814,-0.61742514,-1.191885,0.6749334,0.23548152,-0.119256645,0.7435809,0.17526053
0.1,-0.1,1.4,0.0,0.0,0,-1.6324557,1.1498592,-0.6564181,0.63573873,-0.20755106,1.0186175,-0.15775932,-0.6150872,-1.1932681,0.6486303,0.2564677,0.024832226,0.8232746,-0.1982809
0.1,-0.1,1.4,0.0,0.0,0,-1.6233196,1.1591109,-0.65785176,0.6349729,-0.19396985,1.0166246,-0.14427301,-0.6062631,-1.1935264,0.69798535,0.24742714,0.09855284,0.9052169,-0.6800938
0.1,-0.1,1.4,0.0,0.0,0,-1.6339464,1.1685817,-0.6570085,0.6352414,-0.1928878,1.017824,-0.11378197,-0.6107213,-1.1947801,0.68237567,0.22594035,-0.11975288,1.0300825,-0.5104333
0.1,-0.1,1.4,0.0,0.0,0,-1.6387548,1.1594684,-0.65714943,0.6374281,-0.19448744,1.0185219,-0.16945894,-0.61892176,-1.1947961,0.6474464,0.23682752,-0.03075344,0.8762761,-0.5247335
0.1,-0.1,1.4,0.0,0.0,0,-1.6378723,1.1610296,-0.6595857,0.63417315,-0.18664336,1.0196812,-0.12067195,-0.61630106,-1.1985743,0.690212,0.25377,-0.097474344,0.8627498,-0.4854083
0.1,-0.1,1.4,0.0,0.0,0,-1.6446091,1.1540372,-0.65887034,0.63332766,-0.19315276,1.0159353,-0.15205258,-0.61972797,-1.1900101,0.6771216,0.23871341,0.12282071,0.95000017,-0.89827234
0.1,-0.1,1.4,0.0,0.0,0,-1.6421282,1.1564134,-0.6599478,0.6366603,-0.17865692,1.0179809,-0.12612325,-0.6226878,-1.1896797,0.67391837,0.25316682,-0.0048258333,0.74609834,-0.66997206
0.1,-0.1,1.4,0.0,0.0,0,-1.6429646,1.1423389,-0.6611691,0.6363163,-0.1980049,1.0189085,-0.1478586,-0.6225929,-1.1942383,0.67196155,0.24608274,-0.18043894,0.9412103,0.19340979
0.1,-0.1,1.4,0.0,0.0,0,-1.6372998,1.140088,-0.6571322,0.6347897,-0.1950482,1.0203265,-0.18314104,-0.613947,-1.1961925,0.6945519,0.22371343,-0.07397953,0.9241101,-0.2240552
0.1,-0.1,1.4,0.0,0.0,0,-1.6324341,1.1262078,-0.6573164,0.63459724,-0.17378056,1.0182871,-0.1223179,-0.61419195,-1.199342,0.68788457,0.21441258,0.06928414,0.65205556,-0.25421187
0.1,-0.1,1.4,0.0,0.0,0,-1.6450279,1.1520883,-0.6582086,0.63184875,-0.18606699,1.0152049,-0.13783999,-0.61840224,-1.1965605,0.6901162,0.25840607,0.17167541,0.7936531,-0.45931667
0.1,-0.1,1.4,0.0,0.0,0,-1.6392676,1.1447064,-0.66178197,0.63753647,-0.17524694,1.0169858,-0.14528967,-0.6131417,-1.192489,0.6735068,0.25347403,0.15321873,0.8131622,-0.91702217
0.1,-0.1,1.4,0.0,0.0,0,-1.6443506,1.1544864,-0.66173893,0.6364035,-0.18856803,1.0180455,-0.13727649,-0.6222188,-1.193738,0.6706251,0.256673,-0.066441335,0.8789585,-1.2914793
0.1,-0.1,1.4,0.0,0.0,0,-1.6308526,1.1529386,-0.6597218,0.63623214,-0.20071983,1.0138588,-0.14935437,-0.6165111,-1.1928941,0.68358564,0.23294461,-0.12341891,0.82918525,-0.9701341
0.1,-0.1,1.4,0.0,0.0,0,-1.6279905,1.1522033,-0.6583713,0.6372659,-0.1912917,1.0195442,-0.13117808,-0.61219865,-1.1964015,0.66738844,0.25369883,0.038710896,0.7538105,-1.4928081
0.1,-0.1,1.4,0.0,0.0,0,-1.6365119,1.1740639,-0.66253895,0.6380869,-0.18969199,1.0187137,-0.12756282,-0.6103349,-1.1914527,0.6859738,0.252415,0.11738825,0.77203774,-0.7868846
0.1,-0.1,1.4,0.0,0.0,0,-1.6444477,1.1428128,-0.65832454,0.63457024,-0.19219369,1.0155803,-0.123600475,-0.61611,-1.1943074,0.65243304,0.24406993,-0.07169767,0.85058457,0.7447235
0.1,-0.1,1.4,0.0,0.0,0,-1.630785,1.1401594,-0.6591077,0.6353236,-0.19479397,1.0203309,-0.13726993,-0.61431915,-1.1949929,0.6758935,0.25033662,-0.13092627,0.8524923,-0.75871456
0.1,-0.1,1.4,0.0,0.0,0,-1.6410612,1.1488254,-0.6581086,0.6356201,-0.19545865,1.0181258,-0.1463025,-0.6042711,-1.1921729,0.68059605,0.22758591,0.04083538,0.7696927,0.40026367
0.1,-0.1,1.4,0.0,0.0,0,-1.6404303,1.1612148,-0.6585928,0.6382473,-0.18396808,1.0197649,-0.15062155,-0.6160942,-1.1903132,0.672385,0.23043159,0.09201163,0.7729489,-0.8657897
0.1,-0.1,1.4,0.0,0.0,0,-1.6354209,1.1421039,-0.65883666,0.63420385,-0.19963825,1.0142044,-0.11689156,-0.6215298,-1.1894351,0.70958006,0.23653364,-0.10883733,0.85211784,-0.22884755
0.1,-0.1,1.4,0.0,0.0,0,-1.6380539,1.1468383,-0.6560092,0.63576806,-0.19324693,1.0216757,-0.129826,-0.6115574,-1.1923313,0.67281395,0.25481647,0.12095655,0.9044485,-0.4916318
0.1,-0.1,1.4,0.0,0.0,0,-1.6415896,1.1477692,-0.66114116,0.6368342,-0.1999934,1.0158365,-0.14218645,-0.6101167,-1.189641,0.6841194,0.25275505,0.13567156,0.70483124,0.3021985
0.1,-0.1,1.4,0.0,0.0,0,-1.6434107,1.1277041,-0.6584625,0.63572,-0.18552773,1.0201777,-0.15124287,-0.6206725,-1.1987609,0.6833161,0.23446079,-0.1386451,0.88060653,-0.63552666
0.1,-0.1,1.4,0.0,0.0,0,-1.6421033,1.1607858,-0.6595857,0.63669395,-0.17686541,1.0159457,-0.11943908,-0.6195322,-1.1953017,0.66834486,0.23260997,-0.11456836,0.8805898,-0.89194703
0.1,-0.1,1.4,0.0,0.0,0,-1.6300886,1.1591609,-0.66077316,0.63145846,-0.18684287,1.0180717,-0.12224364,-0.6138152,-1.193621,0.68217397,0.25287235,-0.054787293,0.8530397,-0.6538221
0.1,-0.1,1.4,0.0,0.0,0,-1.6352594,1.1509866,-0.6584947,0.63668835,-0.18179113,1.0167263,-0.1332714,-0.615735,-1.1936389,0.6922534,0.23869078,0.15407985,0.91956383,-1.115536
0.1,-0.1,1.4,0.0,0.0,0,-1.6326624,1.1669375,-0.6603432,0.6376041,-0.18782648,1.0179667,-0.13879006,-0.61508673,-1.1935927,0.67941254,0.21052678,0.11232033,0.7802038,-1.2374138
0.1,-0.1,1.4,0.0,0.0,0,-1.6387234,1.1557221,-0.66113013,0.6344138,-0.20219752,1.0216469,-0.14772671,-0.6131036,-1.1960166,0.68852365,0.21995933,0.03154245,0.87018824,-0.18052496
0.1,-0.1,1.4,0.0,0.0,0,-1.6362499,1.1447864,-0.6562326,0.632248,-0.190894,1.0193194,-0.15676023,-0.61846375,-1.1921684,0.6850555,0.22398748,-0.2652888,0.81337994,-0.7162489
