sanky1234/BimanualDexCatch/isaacgymenvs/cem_results/football_pose_0.1_0.0_1.2999999999999998_0.0_0.0_0_2025-05-26.csv
x,y,z,roll,pitch,yaw,robot1/joint1,robot1/joint2,robot1/joint3,robot1/joint4,robot1/joint5,robot1/joint6,robot1/joint7,robot2/joint1,robot2/joint2,robot2/joint3,robot2/joint4,robot2/joint5,robot2/joint6,robot2/joint7
0.1,0.0,1.2999999999999998,0.0,0.0,0,-0.6633391,0.69884783,-0.8378791,0.7664609,-0.6643677,0.96044123,-2.6633902,1.5167104,1.2186278,0.18217474,-0.12153147,0.22216202,1.0653858,-1.9042804
0.1,0.0,1.2999999999999998,0.0,0.0,0,-0.66074497,0.70870453,-0.8369082,0.7664423,-0.66461015,0.9582944,-2.6683953,1.3632281,1.4256811,0.3847347,0.013920372,0.13912188,1.1810514,-0.1386141
0.1,0.0,1.2999999999999998,0.0,0.0,0,-0.662333,0.7085145,-0.8439217,0.7674203,-0.6682611,0.9559198,-2.6686363,1.1902763,1.3768119,0.4169739,-0.031079156,-0.013579957,1.0568963,-2.3107433
0.1,0.0,1.2999999999999998,0.0,0.0,0,-0.66436255,0.70153296,-0.8410742,0.7674227,-0.6663039,0.95819384,-2.6636307,1.3988255,1.343091,0.22485179,0.021347502,-0.049648825,1.093432,-1.5169275
0.1,0.0,1.2999999999999998,0.0,0.0,0,-0.66303915,0.7091785,-0.8394743,0.76757246,-0.6672387,0.9551972,-2.6672006,1.0926651,1.2393408,0.20363525,-0.19465187,-0.029732501,1.2977065,0.48508567
0.1,0.0,1.2999999999999998,0.0,0.0,0,-0.6634191,0.7146907,-0.83596385,0.7658809,-0.662823,0.9568227,-2.6611433,1.5042653,1.3721454,0.40801427,-0.046577696,0.01088389,1.2535381,-0.6847641
0.1,0.0,1.2999999999999998,0.0,0.0,0,-0.6634772,0.7111093,-0.8380406,0.76673377,-0.6655872,0.95931005,-2.6593773,1.3236922,1.2508868,0.19366665,-0.17959222,-0.05445618,1.0941001,-1.5208759
0.1,0.0,1.2999999999999998,0.0,0.0,0,-0.6620871,0.70352674,-0.8414025,0.76673704,-0.6636707,0.95919955,-2.6810708,1.5679708,1.4056602,0.46454924,-0.14331196,0.08093055,1.1732887,-0.65492505
0.1,0.0,1.2999999999999998,0.0,0.0,0,-0.6622227,0.70945626,-0.84043545,0.7657537,-0.6684338,0.9576863,-2.6603725,1.0382813,1.304181,0.15635674,-0.09107229,-0.23676415,1.2844669,-1.5359097
0.1,0.0,1.2999999999999998,0.0,0.0,0,-0.66240114,0.7165191,-0.83932453,0.76499075,-0.6692789,0.9588671,-2.663593,1.3690783,1.2978106,0.28426677,-0.12053125,-0.36888638,1.0697114,-0.31462613
0.1,0.0,1.2999999999999998,0.0,0.0,0,-0.6640546,0.70457816,-0.8378724,0.76750064,-0.66941416,0.9595745,-2.6873384,1.1428756,1.3055785,0.20148338,-0.0084793875,-0.094501175,0.97147727,-0.502465
0.1,0.0,1.2999999999999998,0.0,0.0,0,-0.66173726,0.7110761,-0.84138894,0.76589257,-0.6680575,0.95703906,-2.6689487,1.1033746,1.3763018,0.29234293,-0.26510993,-0.013168132,1.358564,-0.33955425
0.1,0.0,1.2999999999999998,0.0,0.0,0,-0.6623193,0.7153283,-0.8407389,0.7660744,-0.6695243,0.95603675,-2.6478853,0.7912753,1.2910287,0.17610233,-0.20401381,-0.002630556,1.1742016,-0.67597634
0.1,0.0,1.2999999999999998,0.0,0.0,0,-0.6633264,0.7093115,-0.8353086,0.7669396,-0.6664108,0.9574532,-2.6795323,1.0426865,1.3173915,0.0051677735,-0.06103512,0.08002387,1.1911356,-0.38665542
0.1,0.0,1.2999999999999998,0.0,0.0,0,-0.66376126,0.70465976,-0.8402008,0.76586485,-0.6675183,0.9585653,-2.6502056,1.423762,1.4158471,0.35226396,-0.08453617,-0.023243321,1.135502,-1.8785716
0.1,0.0,1.2999999999999998,0.0,0.0,0,-0.6621078,0.6980787,-0.84212035,0.767236,-0.6650957,0.9538748,-2.6541348,1.4039941,1.3210698,0.35361406,-0.04003637,-0.096276395,1.1063269,0.45498034
0.1,0.0,1.2999999999999998,0.0,0.0,0,-0.664423,0.710336,-0.83920944,0.76590407,-0.6673409,0.96175116,-2.678028,1.1608881,1.0898471,0.33533615,-0.10182564,-0.19616207,1.2744343,-1.147139
0.1,0.0,1.2999999999999998,0.0,0.0,0,-0.6628132,0.70050144,-0.8430458,0.76487285,-0.66630036,0.96139944,-2.6589937,1.8024566,1.2701324,0.26609716,0.08599924,-0.07604394,1.0830587,0.08909434
0.1,0.0,1.2999999999999998,0.0,0.0,0,-0.6635309,0.7135436,-0.8395228,0.7662739,-0.666332,0.9586059,-2.677164,1.3001976,1.3682584,0.07064929,-0.06838165,0.27414334,0.9434976,-0.6254395
0.1,0.0,1.2999999999999998,0.0,0.0,0,-0.6625656,0.7143926,-0.84000486,0.76678616,-0.6679501,0.95866275,-2.6709034,0.6863152,1.2663392,0.22130893,-0.080848865,-0.09959983,1.2025872,-0.6407945
0.1,0.0,1.2999999999999998,0.0,0.0,0,-0.6620931,0.70859313,-0.840056,0.76626647,-0.6695607,0.9597765,-2.6604285,1.205559,1.3797349,0.2911223,-0.04488699,-0.38370404,1.1025167,-0.5512903
0.1,0.0,1.2999999999999998,0.0,0.0,0,-0.662833,0.7086204,-0.8391836,0.76689273,-0.67140216,0.9613917,-2.6594732,1.132345,1.1958311,0.22693445,-0.17067869,0.28008306,0.9864734,-0.039486658
0.1,0.0,1.2999999999999998,0.0,0.0,0,-0.66189533,0.7084311,-0.8415479,0.76577216,-0.66936916,0.96167016,-2.6762335,1.4436339,1.3751986,0.0056942496,-0.13873373,0.053067826,1.215099,0.11093231
0.1,0.0,1.2999999999999998,0.0,0.0,0,-0.6631342,0.7022882,-0.84148586,0.7664357,-0.6669442,0.9599676,-2.6559649,1.0197403,1.236845,0.23183005,-0.061387632,-0.30711424,1.186088,-2.1225717
0.1,0.0,1.2999999999999998,0.0,0.0,0,-0.66224986,0.7146805,-0.8383783,0.7662827,-0.6686143,0.9590823,-2.6627939,1.2878219,1.347347,0.36452407,-0.092055805,-0.3363881,1.1137931,-2.1668236
0.1,0.0,1.2999999999999998,0.0,0.0,0,-0.66347075,0.7051278,-0.8409257,0.7677285,-0.66844904,0.9570961,-2.694094,1.4337193,1.3181161,0.07683777,-0.035454813,-0.09315536,1.3207825,-0.48581147
0.1,0.0,1.2999999999999998,0.0,0.0,0,-0.6631415,0.71249604,-0.8370526,0.76601076,-0.66884077,0.9596236,-2.6557732,1.4166338,1.3695387,0.29133388,-0.082131736,-0.026315322,1.2776079,-0.8567717
0.1,0.0,1.2999999999999998,0.0,0.0,0,-0.6629977,0.7010667,-0.8356131,0.76555085,-0.66818076,0.96187615,-2.6565034,1.4079032,1.318461,0.067719564,-0.074064784,-0.09148819,0.9635576,-1.2498658
0.1,0.0,1.2999999999999998,0.0,0.0,0,-0.66307896,0.6992946,-0.84162676,0.76604813,-0.6671369,0.9586584,-2.6487288,1.2509004,1.3675267,0.100433186,-0.11161079,-0.026610821,1.1579974,-0.8199999
0.1,0.0,1.2999999999999998,0.0,0.0,0,-0.6614488,0.70780146,-0.84233993,0.76604104,-0.6654323,0.959658,-2.6681576,1.398537,1.3313944,0.11014435,0.06711824,-0.014584401,1.3521125,-0.8231909
0.1,0.0,1.2999999999999998,0.0,0.0,0,-0.663328,0.70593834,-0.83885413,0.76596314,-0.6677364,0.9622118,-2.676605,1.4750937,1.306381,0.101082616,0.05992066,-0.01685613,1.3097214,-1.5919154
0.1,0.0,1.2999999999999998,0.0,0.0,0,-0.6621262,0.7092797,-0.8415608,0.7663853,-0.667204,0.9579859,-2.670125,1.0730581,1.2237446,0.25290537,-0.008478457,0.067404404,1.1359882,0.36073086
0.1,0.0,1.2999999999999998,0.0,0.0,0,-0.66328734,0.7028859,-0.842819,0.7666233,-0.66388553,0.9584494,-2.6627285,0.9437251,1.1555089,0.24946825,-0.14140013,-0.068220116,0.92851985,-1.0369678
0.1,0.0,1.2999999999999998,0.0,0.0,0,-0.6618527,0.7035147,-0.8403638,0.76630175,-0.66412914,0.95756847,-2.6779585,1.0084791,1.1164532,0.11245284,-0.097958244,-0.11507905,1.4633191,-1.835778
0.1,0.0,1.2999999999999998,0.0,0.0,0,-0.6622187,0.7118099,-0.8383387,0.7662421,-0.6662786,0.9588081,-2.6780508,1.1642995,1.3522668,0.27452046,-0.039267834,0.46355283,1.2203885,-1.0919714
0.1,0.0,1.2999999999999998,0.0,0.0,0,-0.6621152,0.7078115,-0.8406112,0.7666605,-0.6733895,0.9594237,-2.6578066,1.1905155,1.3098304,0.07883781,-0.022413127,0.42041528,1.2420741,-0.044847142
0.1,0.0,1.2999999999999998,0.0,0.0,0,-0.6618892,0.70079845,-0.8412602,0.7654891,-0.6655585,0.9565186,-2.663279,1.3574044,1.3303993,0.11333849,-0.18244559,-0.055573974,1.319975,0.9809544
0.1,0.0,1.2999999999999998,0.0,0.0,0,-0.6613189,0.7093676,-0.84013087,0.76514524,-0.6633482,0.9580686,-2.670726,1.1700305,1.1326517,0.19459802,-0.048265398,0.06892048,1.1360397,-0.96170545
0.1,0.0,1.2999999999999998,0.0,0.0,0,-0.66283554,0.7080459,-0.8390787,0.7668543,-0.66678107,0.9555002,-2.6566038,1.4076055,1.3057523,0.13044477,-0.152001,0.21572825,1.1775304,-1.4434965
0.1,0.0,1.2999999999999998,0.0,0.0,0,-0.6618479,0.71097326,-0.84012485,0.7669038,-0.6703936,0.95973855,-2.674884,0.88608754,1.359513,0.21383028,-0.08895025,0.22645023,1.153853,-0.3610115
0.1,0.0,1.2999999999999998,0.0,0.0,0,-0.66269475,0.7086915,-0.838767,0.76509005,-0.6634278,0.9581574,-2.6560192,1.4568975,1.2173613,0.33674133,-0.08104948,0.09894675,1.0267944,-0.8099813
0.1,0.0,1.2999999999999998,0.0,0.0,0,-0.6632568,0.7121414,-0.83885443,0.76646286,-0.6656632,0.95574325,-2.6899312,1.5453732,1.1190882,0.21375987,-0.175824,-0.047323827,1.0578862,-1.0152863
0.1,0.0,1.2999999999999998,0.0,0.0,0,-0.6638211,0.6997371,-0.8398426,0.7666423,-0.66708624,0.960634,-2.6556728,1.2164643,1.2593441,0.24494562,-0.065256886,-0.43366298,1.006281,-0.05597808
0.1,0.0,1.2999999999999998,0.0,0.0,0,-0.662997,0.7090704,-0.8413815,0.7655207,-0.6660131,0.9567339,-2.6828225,1.7284702,1.2426828,0.20445862,-0.043057382,-0.229069,1.120874,-0.21815446
0.1,0.0,1.2999999999999998,0.0,0.0,0,-0.66429156,0.7092083,-0.83950204,0.767071,-0.6706646,0.9550851,-2.6897056,1.3771434,1.3020289,0.30787826,-0.017345838,-0.23332918,1.0227866,-0.09098714
0.1,0.0,1.2999999999999998,0.0,0.0,0,-0.66169167,0.7138385,-0.8392851,0.7673192,-0.67303973,0.9619662,-2.6637175,1.2126752,1.162868,0.33088523,-0.19779937,0.02680477,1.3193187,-0.493617
0.1,0.0,1.2999999999999998,0.0,0.0,0,-0.6629098,0.71759635,-0.8382525,0.7662765,-0.67502046,0.961409,-2.6597514,1.1069452,1.4046195,0.30793577,-0.053958453,-0.007062656,1.2523828,-1.2170192
0.1,0.0,1.2999999999999998,0.0,0.0,0,-0.663423,0.70781773,-0.83845115,0.7660318,-0.6703434,0.9548195,-2.6560676,1.3539352,1.0520915,0.12833562,-0.13696896,0.07380476,1.257196,-0.5694588
0.1,0.0,1.2999999999999998,0.0,0.0,0,-0.66186565,0.7109181,-0.8391446,0.76499635,-0.6688163,0.95769346,-2.644138,1.090231,1.4237765,0.16217978,-0.19275567,-0.12691183,1.1853347,-0.46245828
0.1,0.0,1.2999999999999998,0.0,0.0,0,-0.6627482,0.7012697,-0.8417401,0.76686454,-0.664566,0.95990705,-2.665638,1.3202184,1.392332,0.16679645,-0.054808028,0.19438235,1.0289392,0.13873355
0.1,0.0,1.2999999999999998,0.0,0.0,0,-0.6625189,0.69713527,-0.83797896,0.7684873,-0.66839147,0.95824176,-2.6768756,1.1526048,1.3991306,0.021333264,-0.12753248,0.24992077,1.2532511,-0.5536512
0.1,0.0,1.2999999999999998,0.0,0.0,0,-0.6610697,0.71724117,-0.84135395,0.7657975,-0.6684464,0.95853645,-2.6712985,1.0219228,1.3141309,0.3051272,-0.15246329,-0.16227446,1.1796557,-1.7926593
0.1,0.0,1.2999999999999998,0.0,0.0,0,-0.66271013,0.70557016,-0.84212804,0.76647776,-0.6653708,0.9613054,-2.6832213,1.3096623,1.4071755,0.17613596,-0.11609868,-0.08550903,1.107719,-0.64379287
0.1,0.0,1.2999999999999998,0.0,0.0,0,-0.6634261,0.70184535,-0.8398968,0.7673619,-0.66915214,0.95757526,-2.650083,1.2678151,1.4035887,0.24077637,-0.23840535,0.12703305,1.0831847,-0.09224162
0.1,0.0,1.2999999999999998,0.0,0.0,0,-0.66258293,0.70039934,-0.8395284,0.7650443,-0.6606116,0.9605052,-2.6688,0.9102581,1.3089725,0.23465912,-0.04307342,0.14187104,1.0551138,-1.2151937
0.1,0.0,1.2999999999999998,0.0,0.0,0,-0.6631039,0.7092224,-0.8397594,0.7665776,-0.6663275,0.9545535,-2.6828792,1.1577488,1.2193321,0.05649849,-0.010821735,0.08523907,1.1973263,0.035392497
0.1,0.0,1.2999999999999998,0.0,0.0,0,-0.66341907,0.7087093,-0.837665,0.7668839,-0.66816354,0.9569864,-2.652479,1.1242982,1.2259865,0.28873894,-0.12839763,-0.28859466,1.287536,-1.3096788
0.1,0.0,1.2999999999999998,0.0,0.0,0,-0.662196,0.71299726,-0.8394313,0.7653552,-0.6732499,0.9606206,-2.6586077,1.4880334,1.4858916,0.28529668,-0.19815448,0.15786296,0.92145,-1.2272935
0.1,0.0,1.2999999999999998,0.0,0.0,0,-0.6628858,0.7110027,-0.83936816,0.76733863,-0.6647865,0.96093273,-2.6720808,1.1929773,1.5362337,0.28916016,-0.01792528,-0.24751681,1.2193805,-1.2359843
0.1,0.0,1.2999999999999998,0.0,0.0,0,-0.66285974,0.7057854,-0.84135205,0.7666987,-0.66431475,0.9588598,-2.680439,1.5899923,1.2852992,0.16975684,-0.047204114,-0.15526435,1.2217268,-1.0575509
0.1,0.0,1.2999999999999998,0.0,0.0,0,-0.6627432,0.70632637,-0.8397242,0.7671303,-0.67126423,0.96034306,-2.6577601,1.1905375,1.1808509,0.21175697,-0.049161434,0.008763984,1.1113296,-0.89101195
0.1,0.0,1.2999999999999998,0.0,0.0,0,-0.6631995,0.707414,-0.83818114,0.7674283,-0.66784316,0.9584312,-2.6741068,1.4785318,1.2923666,0.22406739,-0.0045336494,-0.2815893,1.3448201,0.3388106
0.1,0.0,1.2999999999999998,0.0,0.0,0,-0.6615785,0.7108086,-0.84043324,0.76667476,-0.6660433,0.96160215,-2.6784506,1.1325629,1.2130141,0.015047116,-0.056881245,-0.2381932,1.237944,-1.8419757
0.1,0.0,1.2999999999999998,0.0,0.0,0,-0.6623396,0.71285933,-0.8377488,0.7660049,-0.6687765,0.9621443,-2.6612012,1.4138943,1.1400821,0.40181684,-0.1316176,0.14227219,1.254057,-0.7465193
0.1,0.0,1.2999999999999998,0.0,0.0,0,-0.6625627,0.7160598,-0.838699,0.76520306,-0.6664328,0.9610975,-2.6950254,1.5021945,1.1019497,0.24243061,-0.073032856,0.10652405,1.3245851,-0.7091163
0.1,0.0,1.2999999999999998,0.0,0.0,0,-0.662363,0.71442425,-0.83850265,0.76522785,-0.6635444,0.9550627,-2.6648111,1.2365232,1.2620711,0.2751317,-0.21038525,0.40244946,0.9912884,-0.5548208
0.1,0.0,1.2999999999999998,0.0,0.0,0,-0.6614797,0.6968771,-0.8437998,0.7673836,-0.6681542,0.9625088,-2.6952143,1.5014216,1.3424109,0.37312815,-0.14633368,0.0005756071,1.2495979,-0.8041804
0.1,0.0,1.2999999999999998,0.0,0.0,0,-0.6616179,0.7015702,-0.8413166,0.767542,-0.66451544,0.9562538,-2.6835904,1.2569076,1.432479,0.34503964,-0.05149237,-0.29989815,1.4069432,-0.8075518
0.1,0.0,1.2999999999999998,0.0,0.0,0,-0.6618128,0.70650584,-0.8400271,0.76548123,-0.6649291,0.9593422,-2.662533,1.1678349,1.2088288,0.31555176,0.007976396,-0.3211414,1.0625191,0.45209244
0.1,0.0,1.2999999999999998,0.0,0.0,0,-0.6625572,0.7030437,-0.8394837,0.7657744,-0.6640148,0.9584329,-2.6720684,1.4381891,1.3495111,0.18780382,-0.15898493,0.3242945,1.0812588,-0.8507085
0.1,0.0,1.2999999999999998,0.0,0.0,0,-0.66189474,0.7052301,-0.84094304,0.7665307,-0.6674396,0.9612166,-2.6880596,1.017434,1.5575781,0.38543475,-0.19401208,0.36038518,1.0145646,-1.6579351
0.1,0.0,1.2999999999999998,0.0,0.0,0,-0.6625068,0.70026475,-0.84000283,0.7658211,-0.6634326,0.9581763,-2.6716678,1.0837709,1.327545,0.308272,0.02701239,0.17193055,1.3622665,-0.7772604
0.1,0.0,1.2999999999999998,0.0,0.0,0,-0.6631603,0.7045797,-0.83896434,0.76477075,-0.66696733,0.96050864,-2.6488235,0.9430801,1.3896142,0.16513978,-0.11147165,-0.07871422,1.2008033,-1.617121
0.1,0.0,1.2999999999999998,0.0,0.0,0,-0.6634322,0.706155,-0.84079045,0.76725113,-0.6704534,0.9584125,-2.6622488,1.3628985,1.5410523,0.21685916,-0.13829142,-0.12209439,1.1148639,-2.0661643
0.1,0.0,1.2999999999999998,0.0,0.0,0,-0.6619833,0.7056417,-0.8432117,0.7670043,-0.6666631,0.9598828,-2.6897693,1.1127741,1.1960618,0.23344435,0.03983486,0.035385046,1.2247264,-0.6443341
0.1,0.0,1.2999999999999998,0.0,0.0,0,-0.6634395,0.7143408,-0.8376826,0.7658261,-0.6663786,0.9578175,-2.6809456,1.4571699,1.3130877,0.20042911,-0.013597692,-0.14070846,1.2104859,-1.0195289
0.1,0.0,1.2999999999999998,0.0,0.0,0,-0.66270405,0.7080182,-0.8411576,0.7655429,-0.6679146,0.9574702,-2.6610992,1.0909659,1.2940912,0.16732083,-0.06987477,-0.06554928,1.2400538,-1.8016987
0.1,0.0,1.2999999999999998,0.0,0.0,0,-0.66252744,0.70903885,-0.84064347,0.7660845,-0.66841376,0.9613698,-2.6822934,0.9847776,1.2392447,0.04117365,0.044523828,0.04002166,1.2933459,-0.0054386035
0.1,0.0,1.2999999999999998,0.0,0.0,0,-0.66272384,0.7007201,-0.84097207,0.7665888,-0.6645533,0.960357,-2.654314,1.0801762,1.3423871,0.19126414,-0.209148,0.113489084,1.3193623,-1.2520866
0.1,0.0,1.2999999999999998,0.0,0.0,0,-0.66159797,0.70675546,-0.84116125,0.7652406,-0.6728163,0.96197796,-2.6687212,1.1016914,1.2463664,0.09013083,-0.11616164,0.16413589,1.1393104,-0.36795002
0.1,0.0,1.2999999999999998,0.0,0.0,0,-0.6615486,0.7136432,-0.8412574,0.7662295,-0.6732666,0.9596728,-2.6675334,1.3309772,1.2896233,0.13405713,-0.03444705,-0.13613376,1.1436436,-0.6800374
0.1,0.0,1.2999999999999998,0.0,0.0,0,-0.66243863,0.70171154,-0.8460183,0.7654673,-0.6676237,0.9615782,-2.6727722,1.6031345,1.2487327,0.3891008,-0.039988533,0.06439161,1.0241452,-1.0300059
0.1,0.0,1.2999999999999998,0.0,0.0,0,-0.6634231,0.70494044,-0.8416888,0.7666781,-0.6691577,0.96036035,-2.6791027,1.0521691,1.4180756,0.17807293,-0.12580395,-0.017303532,1.1654097,-1.2654278
0.1,0.0,1.2999999999999998,0.0,0.0,0,-0.66139525,0.70692575,-0.8422665,0.76427865,-0.66708523,0.96244717,-2.6793916,1.2330917,1.2979738,0.21270081,-0.13239846,-0.15586463,1.3246212,-0.35772473
0.1,0.0,1.2999999999999998,0.0,0.0,0,-0.6617048,0.7075612,-0.84162015,0.76650816,-0.66366786,0.96231264,-2.6819024,1.2124841,1.1928139,0.22931077,0.0009098762,0.06799875,1.2030295,-1.8643764
0.1,0.0,1.2999999999999998,0.0,0.0,0,-0.66147065,0.70542485,-0.8376261,0.7670229,-0.6702934,0.9582049,-2.6591034,1.4037656,1.3338026,0.2972996,-0.011376747,0.23931181,1.0925095,-0.3066716
0.1,0.0,1.2999999999999998,0.0,0.0,0,-0.6628185,0.7044223,-0.8409776,0.76595294,-0.6641462,0.95747346,-2.6782851,1.3200729,1.3799541,0.2985026,-0.0836105,0.0336595,1.1991851,-0.08201319
0.1,0.0,1.2999999999999998,0.0,0.0,0,-0.661756,0.69963,-0.842756,0.76666975,-0.66910905,0.9598011,-2.6796217,0.88051826,1.4164188,0.37788352,-0.06327798,-0.076949514,1.1873428,-0.93582
0.1,0.0,1.2999999999999998,0.0,0.0,0,-0.6628358,0.7070331,-0.8443811,0.76620406,-0.67001444,0.95825565,-2.663662,1.4711171,1.338345,0.1302972,-0.22252028,0.12423294,1.3357295,-1.6526043
0.1,0.0,1.2999999999999998,0.0,0.0,0,-0.66194373,0.7106933,-0.844459,0.7656303,-0.66937244,0.95964664,-2.6739988,1.0102596,1.4258208,0.23167972,-0.15024103,0.013901156,1.3626469,-0.6971943
0.1,0.0,1.2999999999999998,0.0,0.0,0,-0.6618628,0.69480455,-0.8427595,0.76639694,-0.6704812,0.95917034,-2.6560962,1.2637582,1.3706,0.10838778,-0.09898461,-0.08999405,1.3025997,-2.3295066
0.1,0.0,1.2999999999999998,0.0,0.0,0,-0.6608235,0.71193385,-0.8397143,0.7653256,-0.6666371,0.95873207,-2.65415,1.3340248,1.2264812,0.22367088,-0.036295455,0.040934835,1.1152022,-0.4687237
0.1,0.0,1.2999999999999998,0.0,0.0,0,-0.6631025,0.70577294,-0.8404293,0.7655361,-0.6691412,0.96053845,-2.6746838,1.0813321,1.2495333,0.2433821,-0.09523472,-0.18177281,1.319512,-0.3008139
0.1,0.0,1.2999999999999998,0.0,0.0,0,-0.6608523,0.70724183,-0.8405114,0.7667479,-0.66561043,0.9558648,-2.670575,1.1965654,1.4086958,0.12905103,-0.07739785,0.08034396,1.1585099,-0.23318416
0.1,0.0,1.2999999999999998,0.0,0.0,0,-0.66253656,0.70685047,-0.8404213,0.76589364,-0.6662711,0.95657754,-2.669447,0.97578526,1.3725252,0.2725397,0.011368232,0.34914213,1.2897478,-0.28815174
0.1,0.0,1.2999999999999998,0.0,0.0,0,-0.66259414,0.70484954,-0.84149545,0.76581645,-0.6652453,0.95902747,-2.6447928,0.9883898,1.3349947,0.2668023,-0.0040052086,-0.30831435,1.3074976,-1.7641184
0.1,0.0,1.2999999999999998,0.0,0.0,0,-0.6619413,0.7079217,-0.8411166,0.7664751,-0.66785514,0.9597202,-2.6747193,1.3896143,1.1180663,0.18081053,-0.04665562,0.19769742,1.0853043,-0.6911077
0.1,0.0,1.2999999999999998,0.0,0.0,0,-0.6630984,0.71077365,-0.84072125,0.7661941,-0.6671464,0.9567952,-2.6840541,1.1277474,1.4251727,0.31564844,-0.123929866,0.12553258,1.5231352,-1.0604098
0.1,0.0,1.2999999999999998,0.0,0.0,0,-0.6626801,0.7115294,-0.8405851,0.7664235,-0.67272496,0.9594691,-2.6853168,1.0709982,1.3031868,0.20207493,0.09232788,-0.20660283,1.0131104,-1.327372
0.1,0.0,1.2999999999999998,0.0,0.0,0,-0.6622854,0.70552546,-0.83689,0.76599795,-0.6623221,0.95848,-2.671871,1.1636003,1.2001467,0.3279857,-0.08013195,0.19327936,1.0367934,-1.0303386
0.1,0.0,1.2999999999999998,0.0,0.0,0,-0.66245353,0.7039361,-0.8393715,0.767579,-0.67149836,0.95826423,-2.6725006,1.5058775,1.2709894,0.12205269,-0.10537319,-0.36197323,0.962786,-0.33003634
0.1,0.0,1.2999999999999998,0.0,0.0,0,-0.6633441,0.7034625,-0.8427691,0.7664176,-0.67241555,0.95761335,-2.657519,1.2983273,1.2741905,0.21878286,-0.07190268,0.08752676,1.1208509,0.18585585
0.1,0.0,1.2999999999999998,0.0,0.0,0,-0.6616922,0.70416766,-0.843021,0.76643294,-0.6681256,0.960396,-2.6761348,1.1785182,1.2819777,0.025508218,-0.1286568,-0.054615237,0.97158885,-0.44117746
0.1,0.0,1.2999999999999998,0.0,0.0,0,-0.66210306,0.70225734,-0.84151363,0.76577467,-0.66639304,0.9608207,-2.679293,1.201415,1.3835754,0.38835177,-0.044671927,0.039568976,1.2198266,-0.21726511
0.1,0.0,1.2999999999999998,0.0,0.0,0,-0.6613812,0.7067554,-0.84052676,0.76523864,-0.6702281,0.96144587,-2.6538153,1.2158111,1.2133487,0.39585218,0.010703452,-0.032020763,1.1687015,-1.4811217
0.1,0.0,1.2999999999999998,0.0,0.0,0,-0.6619815,0.7057142,-0.8400582,0.7656196,-0.66350347,0.95687133,-2.6755633,1.1340094,1.2035617,0.17954664,-0.08627958,-0.12646383,1.2594155,-1.5918398
0.1,0.0,1.2999999999999998,0.0,0.0,0,-0.6629622,0.7134279,-0.8385859,0.7642346,-0.66446584,0.959041,-2.6913083,1.3341599,1.2533393,0.5217712,-0.074844226,-0.20673493,1.0320557,-0.7699508
0.1,0.0,1.2999999999999998,0.0,0.0,0,-0.6622221,0.7008432,-0.8425534,0.7664501,-0.67212063,0.9610042,-2.6877105,1.3709177,1.2525197,0.2377159,0.046133548,0.11613686,1.057996,-1.683742
0.1,0.0,1.2999999999999998,0.0,0.0,0,-0.66225743,0.7048179,-0.8392408,0.7654107,-0.66967326,0.956832,-2.6514518,1.0555427,1.4226373,0.2406467,-0.08199528,0.11119614,1.1350542,-0.666778
0.1,0.0,1.2999999999999998,0.0,0.0,0,-0.662838,0.7080541,-0.83987665,0.7664248,-0.6686584,0.95705587,-2.6760845,1.2728956,1.2057467,0.41278276,-0.066305555,0.37183473,1.0467815,-0.825441
0.1,0.0,1.2999999999999998,0.0,0.0,0,-0.6618896,0.7076372,-0.84010625,0.76684475,-0.6638348,0.9580253,-2.678273,1.2744918,1.2155944,0.39497313,-0.14934283,-0.2007669,1.0210207,-1.5647546
0.1,0.0,1.2999999999999998,0.0,0.0,0,-0.6622465,0.7067168,-0.84032184,0.76542264,-0.66515464,0.9608113,-2.6835358,1.038863,1.1764245,0.15301375,-0.07510688,0.42974067,1.2195616,-0.3666126
0.1,0.0,1.2999999999999998,0.0,0.0,0,-0.6630976,0.7089348,-0.8400267,0.7671345,-0.66837686,0.95468265,-2.6885433,1.1533399,1.1991976,0.083043434,-0.08505391,-0.24969818,1.1001188,-0.8457517
0.1,0.0,1.2999999999999998,0.0,0.0,0,-0.6624044,0.6992656,-0.8460426,0.76615363,-0.67376745,0.9605862,-2.687436,1.123024,1.3404167,0.24972463,-0.0633218,0.06378736,1.2405218,-0.56201464
0.1,0.0,1.2999999999999998,0.0,0.0,0,-0.66269064,0.70167726,-0.8401867,0.76597697,-0.67193997,0.961756,-2.6721978,1.2774179,1.3014114,0.33042234,-0.04781915,-0.15239021,1.0589051,-0.9455958
0.1,0.0,1.2999999999999998,0.0,0.0,0,-0.6619867,0.70572096,-0.84071255,0.7654842,-0.66522086,0.95825446,-2.673152,1.0780877,1.243084,0.38021022,-0.15229815,-0.06660256,1.1137187,-0.99988216
0.1,0.0,1.2999999999999998,0.0,0.0,0,-0.6627541,0.70000803,-0.8410419,0.7670321,-0.6687674,0.9576107,-2.6596487,1.0711181,1.061205,0.21658339,-0.14655367,-0.1152286,1.0093396,0.47676903
0.1,0.0,1.2999999999999998,0.0,0.0,0,-0.6618188,0.69776845,-0.8378799,0.76447153,-0.6628103,0.95846057,-2.6565466,1.1870093,1.4834813,0.11117098,-0.034055952,-0.061545208,1.1389961,-0.85501
0.1,0.0,1.2999999999999998,0.0,0.0,0,-0.66339993,0.70722556,-0.8351396,0.7682847,-0.6703664,0.95579714,-2.6684375,1.1192304,1.2148503,0.015495622,-0.051180385,-0.0870004,1.1430124,-1.6762093
0.1,0.0,1.2999999999999998,0.0,0.0,0,-0.66250443,0.6983274,-0.8355725,0.7686759,-0.66486186,0.958809,-2.6855044,1.5407302,1.3338554,0.2330369,-0.038971417,-0.25092533,1.1460373,-1.9669046
0.1,0.0,1.2999999999999998,0.0,0.0,0,-0.6629119,0.7098311,-0.8424723,0.76593727,-0.6694193,0.9622748,-2.68062,1.2965952,1.3999052,0.2814496,-0.019327272,0.45351058,1.2745838,-0.8112639
0.1,0.0,1.2999999999999998,0.0,0.0,0,-0.6636892,0.7038477,-0.84111166,0.76542205,-0.6676423,0.9548311,-2.666547,1.0320822,1.183817,0.12476158,-0.22675157,0.12885898,1.2661622,-1.6379089
0.1,0.0,1.2999999999999998,0.0,0.0,0,-0.6614863,0.71137184,-0.83998626,0.76500434,-0.6690496,0.95953655,-2.65665,1.2194037,1.2889735,0.3642415,-0.12266232,-0.097034186,1.3731122,-0.5324251
0.1,0.0,1.2999999999999998,0.0,0.0,0,-0.66172874,0.7067577,-0.8406437,0.76661104,-0.66911006,0.9583065,-2.6700747,1.2970054,1.2585382,0.23310599,-0.12033798,-0.107710846,1.0847291,-0.32097813
0.1,0.0,1.2999999999999998,0.0,0.0,0,-0.66311204,0.70214,-0.842916,0.7650296,-0.6655121,0.95703346,-2.6701288,1.1618896,1.1223207,0.35327712,-0.112342656,0.045684256,1.0165808,-2.2253337
0.1,0.0,1.2999999999999998,0.0,0.0,0,-0.6631169,0.71427864,-0.83877665,0.7662901,-0.671464,0.9574551,-2.6751091,1.5722232,1.2352686,0.22772801,-0.11940998,0.03966785,1.2617797,-1.250519
0.1,0.0,1.2999999999999998,0.0,0.0,0,-0.66086537,0.7150817,-0.8426958,0.766058,-0.66901517,0.9618082,-2.6708767,1.1677628,1.3566569,0.25693518,-0.16028085,-0.018623142,1.2871337,-1.2368877
0.1,0.0,1.2999999999999998,0.0,0.0,0,-0.66323537,0.71105367,-0.8376824,0.7654963,-0.6726638,0.96127737,-2.659326,0.8741686,1.1920259,0.27380666,-0.1408832,0.029874476,1.3378313,-1.8371003
0.1,0.0,1.2999999999999998,0.0,0.0,0,-0.66457283,0.7072659,-0.8392187,0.7647724,-0.66749626,0.9602735,-2.6693654,1.1881943,1.2350813,0.20159608,-0.08623386,0.12235552,1.2149873,-2.4167542
0.1,0.0,1.2999999999999998,0.0,0.0,0,-0.66333306,0.7088333,-0.8393165,0.764863,-0.6692184,0.9623399,-2.6619236,1.4253781,1.3700949,0.3281042,-0.13014027,0.49590486,1.1111155,-1.1425688
0.1,0.0,1.2999999999999998,0.0,0.0,0,-0.6617665,0.7128516,-0.8387434,0.76705986,-0.66728836,0.9579243,-2.660017,1.228749,1.4006643,0.392552,-0.03396121,-0.123613626,1.1168963,-1.0014046
0.1,0.0,1.2999999999999998,0.0,0.0,0,-0.6626154,0.70263433,-0.83915037,0.7680335,-0.6712892,0.95882314,-2.677184,1.290113,1.1980706,0.15927555,-0.055102285,-0.13623604,1.3174225,-0.9500495
0.1,0.0,1.2999999999999998,0.0,0.0,0,-0.6624692,0.69701004,-0.8434436,0.76573557,-0.666895,0.96301854,-2.6928859,1.2525065,1.2741266,0.21472365,-0.11424061,-0.1433716,1.0164188,0.00013888994
0.1,0.0,1.2999999999999998,0.0,0.0,0,-0.6631124,0.7025561,-0.8423306,0.7647956,-0.6667981,0.9563661,-2.6720088,1.2719743,1.4144944,0.09184212,-0.12875961,0.18383786,1.0184653,0.018328482
0.1,0.0,1.2999999999999998,0.0,0.0,0,-0.66249555,0.70732385,-0.84047735,0.76597404,-0.6708295,0.95884836,-2.6687233,1.0366963,1.3715107,0.26693356,-0.031594563,0.06301657,1.1219103,-0.7307331
0.1,0.0,1.2999999999999998,0.0,0.0,0,-0.66234607,0.7088695,-0.8380076,0.76636934,-0.6675661,0.9583527,-2.6733344,1.2042301,1.3744591,0.03860009,-0.103992686,0.100032315,1.1648625,-1.0413189
0.1,0.0,1.2999999999999998,0.0,0.0,0,-0.6615234,0.7062642,-0.84103465,0.7663944,-0.6689746,0.9607559,-2.6639316,1.3475322,1.2974749,0.31809092,-0.00017582838,0.0675454,1.2292079,-0.6547488
0.1,0.0,1.2999999999999998,0.0,0.0,0,-0.6636123,0.70917195,-0.83691853,0.76705456,-0.6680542,0.95974034,-2.6886528,0.87064004,1.385393,0.14510602,-0.04204744,0.19824532,1.3147732,-1.6468681
0.1,0.0,1.2999999999999998,0.0,0.0,0,-0.6641861,0.69719636,-0.84061915,0.7666168,-0.6677523,0.9578068,-2.673868,1.3454425,1.2560675,0.2229294,-0.10561711,-0.14220445,1.241948,-1.4964168
0.1,0.0,1.2999999999999998,0.0,0.0,0,-0.6624364,0.7038289,-0.84291154,0.7645806,-0.6634019,0.96125245,-2.6937485,1.2851193,1.11653,0.06732179,-0.057025112,0.048417505,1.0482372,-0.7933679
0.1,0.0,1.2999999999999998,0.0,0.0,0,-0.6634236,0.709778,-0.8375528,0.76696354,-0.67058545,0.9582066,-2.671114,1.1672614,1.2535646,0.18395688,-0.13692793,-0.03712586,0.9539087,-1.3254122
0.1,0.0,1.2999999999999998,0.0,0.0,0,-0.66226196,0.7044254,-0.8417755,0.76524127,-0.6672544,0.96057636,-2.6772916,1.0374802,1.3626035,0.3557685,0.08146369,-0.18280482,1.2599703,-0.8604285
0.1,0.0,1.2999999999999998,0.0,0.0,0,-0.66190284,0.7128124,-0.8367067,0.76731604,-0.6718382,0.9613736,-2.6676078,1.0404497,1.3183439,0.15233502,-0.14338411,-0.07378497,1.1543293,-1.3693749
0.1,0.0,1.2999999999999998,0.0,0.0,0,-0.66118044,0.7116966,-0.8344174,0.76547194,-0.6637783,0.95921344,-2.6699767,1.2405279,1.3163649,0.4038322,-0.15707377,0.12468112,1.2803767,-1.2047971
0.1,0.0,1.2999999999999998,0.0,0.0,0,-0.661369,0.6967451,-0.8379891,0.7667578,-0.66680366,0.9614281,-2.6736457,1.3120018,1.2758017,0.29732594,-0.14570948,-0.06913666,1.3554053,-0.13719949
0.1,0.0,1.2999999999999998,0.0,0.0,0,-0.6630478,0.7038749,-0.8383411,0.76550645,-0.66171205,0.95776105,-2.675825,1.3672603,1.3499851,0.2034744,-0.047324624,0.313478,1.0999328,-1.3338511
0.1,0.0,1.2999999999999998,0.0,0.0,0,-0.66238725,0.7057193,-0.84259003,0.76639605,-0.668662,0.96088433,-2.671682,1.2645842,1.3516833,0.34219867,-0.17609449,-0.08027212,1.2823198,-1.4854126
0.1,0.0,1.2999999999999998,0.0,0.0,0,-0.6632299,0.6998015,-0.8364015,0.76577395,-0.664456,0.9618594,-2.6641057,1.4585326,1.3264381,0.22288111,-0.019029392,0.0035837353,1.1968212,-0.93113095
0.1,0.0,1.2999999999999998,0.0,0.0,0,-0.6622974,0.7032956,-0.84388036,0.7665162,-0.669117,0.9632809,-2.6828482,1.1369898,1.1480751,0.08769403,-0.06436273,-0.06379757,0.9936806,0.36492425
0.1,0.0,1.2999999999999998,0.0,0.0,0,-0.6613024,0.7122182,-0.84277546,0.76635635,-0.6690155,0.9598021,-2.661961,1.3119491,1.2534207,0.12978505,-0.03902149,0.072215125,1.0084779,-0.9485068
0.1,0.0,1.2999999999999998,0.0,0.0,0,-0.66255474,0.70255846,-0.8389551,0.7666065,-0.6711976,0.9592903,-2.6515703,1.0721589,1.415419,0.33383992,-0.020231064,-0.11772177,1.015938,-1.0746719
0.1,0.0,1.2999999999999998,0.0,0.0,0,-0.6621671,0.7123879,-0.8389822,0.7664244,-0.667536,0.9577952,-2.6883368,0.9951544,1.2879444,0.50258577,-0.0923968,-0.13440394,1.129044,-0.7050703
0.1,0.0,1.2999999999999998,0.0,0.0,0,-0.66321063,0.70707935,-0.8420033,0.7650476,-0.6700828,0.95802027,-2.6624534,1.4520043,1.375317,0.17335083,-0.10267539,-0.088993646,1.2140435,-0.23733565
0.1,0.0,1.2999999999999998,0.0,0.0,0,-0.6619601,0.70600927,-0.8398199,0.7660929,-0.6680361,0.9585055,-2.669507,1.0282626,1.4262394,0.05686782,0.022543127,-0.112418465,1.1196718,-0.8989005
0.1,0.0,1.2999999999999998,0.0,0.0,0,-0.66219765,0.70362073,-0.84101796,0.76624113,-0.6684652,0.96122056,-2.6772344,1.6613892,1.253935,0.36827964,-0.10496583,-0.1619277,1.1355507,-2.0827193
0.1,0.0,1.2999999999999998,0.0,0.0,0,-0.66190875,0.70122564,-0.8389601,0.7677346,-0.6712371,0.9599426,-2.6641166,1.112196,1.1704797,0.18880874,-0.079736575,0.058301184,1.0671037,-1.3894757
0.1,0.0,1.2999999999999998,0.0,0.0,0,-0.6634088,0.7011591,-0.8431635,0.76527715,-0.66907376,0.960784,-2.6759155,0.98375386,1.3373942,0.3077881,-0.041283425,-0.11810348,1.1253073,0.76849145
0.1,0.0,1.2999999999999998,0.0,0.0,0,-0.6639366,0.70061964,-0.84399647,0.764513,-0.665178,0.95677245,-2.6751614,1.2126453,1.4196628,0.3611706,-0.06534626,-0.08754351,1.0753695,-1.0061326
0.1,0.0,1.2999999999999998,0.0,0.0,0,-0.662433,0.71135205,-0.8438552,0.7650152,-0.6718752,0.9580016,-2.6802654,1.1937017,1.2784374,0.19410194,-0.06169811,-0.2226296,1.177654,-0.91857874
0.1,0.0,1.2999999999999998,0.0,0.0,0,-0.6614226,0.7073371,-0.83959,0.7662049,-0.6676499,0.9574381,-2.6604683,1.2771348,1.3911886,0.48358557,-0.006359492,-0.20132641,1.1073561,-1.6654321
0.1,0.0,1.2999999999999998,0.0,0.0,0,-0.6631515,0.7075556,-0.83942896,0.7642383,-0.6679284,0.9616726,-2.6716292,1.0566319,1.4112169,0.10763951,-0.08459813,0.28183183,1.0679406,-0.039519757
0.1,0.0,1.2999999999999998,0.0,0.0,0,-0.66225576,0.70792836,-0.83936244,0.766039,-0.6686831,0.95857495,-2.6667747,1.23463,1.4034828,0.2965185,-0.038962163,-0.0153907295,1.1811565,-0.124964006
0.1,0.0,1.2999999999999998,0.0,0.0,0,-0.6635899,0.7044575,-0.83928066,0.7663172,-0.6722843,0.9611248,-2.6633587,1.1608871,1.3949443,0.37457672,-0.13084058,-0.12346639,1.1503897,-0.19888937
0.1,0.0,1.2999999999999998,0.0,0.0,0,-0.66103506,0.7069811,-0.8424702,0.7676036,-0.6720178,0.957729,-2.6808097,1.2868125,1.516066,0.33198774,-0.13058336,0.02856484,1.1808639,-1.0606424
0.1,0.0,1.2999999999999998,0.0,0.0,0,-0.6627462,0.70373976,-0.83603233,0.7658898,-0.66798985,0.9613841,-2.6595657,0.95791894,1.176477,0.3361955,-0.033569228,0.13574608,1.1295114,-0.15809985
0.1,0.0,1.2999999999999998,0.0,0.0,0,-0.6639473,0.70820296,-0.8403599,0.7641083,-0.6654765,0.9590467,-2.6840932,0.96300215,1.378214,0.21438618,0.025875622,0.22427358,1.1224331,-1.0988929
0.1,0.0,1.2999999999999998,0.0,0.0,0,-0.66273797,0.7065641,-0.8406304,0.76613325,-0.6721031,0.96112466,-2.6842954,1.556964,1.4096081,0.31102118,-0.011808555,0.15358956,1.0806231,0.6239624
0.1,0.0,1.2999999999999998,0.0,0.0,0,-0.661421,0.6976555,-0.8410062,0.76596475,-0.66591734,0.96093893,-2.679561,1.2613089,1.2540406,0.086413726,-0.16018352,0.21082503,1.0877143,-1.1135107
0.1,0.0,1.2999999999999998,0.0,0.0,0,-0.6618841,0.7023933,-0.8428418,0.7662579,-0.6689016,0.9606447,-2.6776416,1.1968701,1.3163421,0.0685539,-0.1012753,0.39067966,1.1683652,0.022060843
0.1,0.0,1.2999999999999998,0.0,0.0,0,-0.6635149,0.69131815,-0.84365857,0.76606077,-0.669328,0.95792246,-2.646328,1.1317419,1.3014423,0.25818223,-0.1255665,0.13476358,1.2861129,0.270448
0.1,0.0,1.2999999999999998,0.0,0.0,0,-0.6621811,0.70635235,-0.83888096,0.7658781,-0.67180425,0.96154046,-2.665266,1.5289981,1.276243,0.12438069,-0.030362736,-0.011193503,1.0911698,0.09690614
0.1,0.0,1.2999999999999998,0.0,0.0,0,-0.6630649,0.7086099,-0.8387913,0.7661402,-0.667483,0.96027976,-2.6893222,1.5552487,1.436374,0.28522262,-0.1585517,-0.19102512,1.1418625,-1.7878697
0.1,0.0,1.2999999999999998,0.0,0.0,0,-0.6619175,0.6992039,-0.83990085,0.76755,-0.66865265,0.95643413,-2.64657,1.3042743,1.174544,0.25916156,-0.14325547,0.06559678,1.1137769,0.09759908
0.1,0.0,1.2999999999999998,0.0,0.0,0,-0.66287273,0.71189445,-0.8419134,0.7656059,-0.6697661,0.9650077,-2.6801517,1.1104645,1.2846589,0.3571686,-0.15606558,-0.34164497,1.0921105,-1.4325167
0.1,0.0,1.2999999999999998,0.0,0.0,0,-0.6624035,0.7121364,-0.8439787,0.766726,-0.6679513,0.95874876,-2.681729,1.1166013,1.4970196,0.21501814,-0.11025617,0.0948688,0.86910033,-0.6629789
0.1,0.0,1.2999999999999998,0.0,0.0,0,-0.6621492,0.70334035,-0.8396156,0.7654119,-0.6678876,0.96107334,-2.662721,1.3402796,1.357604,0.17577994,-0.13609807,0.23599984,1.2246927,-0.19678321
0.1,0.0,1.2999999999999998,0.0,0.0,0,-0.6627373,0.70265675,-0.8387574,0.7682439,-0.6699984,0.96256953,-2.6894302,1.2135954,1.4487977,0.2678299,-0.045810837,0.12674618,1.2029301,-1.087425
0.1,0.0,1.2999999999999998,0.0,0.0,0,-0.66319364,0.7028916,-0.8421296,0.7655092,-0.6665573,0.9579693,-2.674952,1.470597,1.3028266,0.17123906,-0.10805813,0.1936904,1.0946958,-0.69939446
0.1,0.0,1.2999999999999998,0.0,0.0,0,-0.66159683,0.7109908,-0.8405705,0.76567525,-0.66825837,0.96251273,-2.664445,1.2824676,1.3946651,0.34602994,-0.042011894,0.38901404,1.3083175,-0.42227894
0.1,0.0,1.2999999999999998,0.0,0.0,0,-0.66299087,0.7104887,-0.84067595,0.7657038,-0.66946846,0.96367073,-2.7057326,1.3281785,1.2439767,0.12218408,-0.035963435,-0.31562796,1.2089103,-2.0112782
0.1,0.0,1.2999999999999998,0.0,0.0,0,-0.6624421,0.7069523,-0.84239435,0.76751,-0.6713818,0.95751184,-2.6535819,1.3864671,1.3240585,0.39098945,-0.05622041,-0.059711233,1.17171,-0.630561
0.1,0.0,1.2999999999999998,0.0,0.0,0,-0.6617879,0.70243484,-0.8375551,0.7661262,-0.66471916,0.9588027,-2.672969,1.2208416,1.327408,0.30792955,-0.09851718,0.2768399,1.2908671,-0.4626203
0.1,0.0,1.2999999999999998,0.0,0.0,0,-0.66333556,0.7168434,-0.8427841,0.7662376,-0.67152315,0.96150196,-2.6834555,1.2890078,1.158931,0.3008068,-0.15362686,0.04186562,1.2685838,-0.88010025
0.1,0.0,1.2999999999999998,0.0,0.0,0,-0.66285837,0.7045703,-0.8386684,0.76620007,-0.6678788,0.96095407,-2.6816444,0.8424102,1.1956227,0.18620047,-0.08463854,-0.17144099,1.1619489,-1.0593597
0.1,0.0,1.2999999999999998,0.0,0.0,0,-0.6628867,0.70901674,-0.8437485,0.7658704,-0.6657691,0.9604377,-2.687147,1.1196744,1.3657043,0.30894127,-0.11561865,-0.058440752,1.2092278,-1.1639671
0.1,0.0,1.2999999999999998,0.0,0.0,0,-0.66204995,0.71038294,-0.83884645,0.76418644,-0.66603863,0.9594639,-2.6588955,1.1497973,1.5283066,0.4008535,-0.06618733,-0.047004394,1.2312388,-0.91057277
0.1,0.0,1.2999999999999998,0.0,0.0,0,-0.66181535,0.7013589,-0.8389576,0.7655798,-0.66711265,0.9608396,-2.668437,1.2405965,1.2768986,0.18964735,-0.0824219,-0.003144693,1.3135564,-0.9958198
0.1,0.0,1.2999999999999998,0.0,0.0,0,-0.6622159,0.70021874,-0.83914894,0.7653477,-0.66601443,0.9603582,-2.6697779,1.0548034,1.4169004,0.16797873,-0.12783708,-0.1027834,1.0856204,-0.7893798
0.1,0.0,1.2999999999999998,0.0,0.0,0,-0.6633854,0.70500886,-0.84199196,0.7654291,-0.6668176,0.9550114,-2.704694,1.3332161,1.4537905,0.06751666,-0.15298158,0.029019888,1.1787181,-1.2345567
0.1,0.0,1.2999999999999998,0.0,0.0,0,-0.66311467,0.7090863,-0.83818376,0.7667106,-0.66772074,0.95998615,-2.6846411,1.2596031,1.2899197,0.22873925,-0.008827784,-0.10697716,1.1751039,0.18328792
0.1,0.0,1.2999999999999998,0.0,0.0,0,-0.6641845,0.7040525,-0.8411404,0.7674986,-0.672058,0.95657516,-2.6804426,1.261554,1.2836831,0.18498139,-0.06882256,-0.262589,1.1527745,1.0681683
0.1,0.0,1.2999999999999998,0.0,0.0,0,-0.6643372,0.7033352,-0.8362088,0.76621705,-0.66732377,0.95991933,-2.6892023,1.5034578,1.2963804,0.25046173,-0.05497863,-0.26805004,1.1146351,-1.4939541
0.1,0.0,1.2999999999999998,0.0,0.0,0,-0.6626776,0.706521,-0.84020674,0.76575166,-0.67026633,0.9662535,-2.6671307,1.4148391,1.3308014,0.23392098,-0.16621685,0.0012346157,1.2599341,-1.7987359
0.1,0.0,1.2999999999999998,0.0,0.0,0,-0.6626054,0.714092,-0.8433571,0.76462734,-0.6668213,0.9616655,-2.6795845,1.238552,1.2223964,0.37041548,-0.017532786,-0.25061005,1.2217382,-1.8266063
0.1,0.0,1.2999999999999998,0.0,0.0,0,-0.66274667,0.7057532,-0.8428199,0.76637673,-0.67321116,0.9635328,-2.681515,1.2521367,1.4875712,0.39026853,-0.024972223,0.09932867,1.2265683,-0.80799407
0.1,0.0,1.2999999999999998,0.0,0.0,0,-0.6621431,0.71287817,-0.8377612,0.76654094,-0.6607772,0.9595405,-2.666129,0.8550843,1.3840032,0.19983833,-0.21950923,0.15782048,1.0387703,-0.43370223
0.1,0.0,1.2999999999999998,0.0,0.0,0,-0.6634798,0.7017343,-0.83665866,0.76540446,-0.6703915,0.9610021,-2.6609793,0.664105,1.2926755,0.36192364,-0.06803065,-0.08295861,1.0875612,-0.65640366
0.1,0.0,1.2999999999999998,0.0,0.0,0,-0.6624046,0.7038043,-0.8381811,0.7655293,-0.6651735,0.95727813,-2.681218,0.9644289,1.2643957,0.112346105,-0.11889684,-0.15243994,1.2379615,0.1842807
0.1,0.0,1.2999999999999998,0.0,0.0,0,-0.6625838,0.70431226,-0.83920264,0.767692,-0.6735595,0.9595691,-2.67576,1.4487088,1.3667241,0.32106408,-0.09025666,0.27065277,1.3100611,-1.2574451
0.1,0.0,1.2999999999999998,0.0,0.0,0,-0.66292953,0.71567607,-0.8391318,0.76830614,-0.6667973,0.95702684,-2.6649504,1.3536061,1.186336,0.037488703,-0.18499954,0.24072486,0.9825571,-1.9378108
0.1,0.0,1.2999999999999998,0.0,0.0,0,-0.66304296,0.7029963,-0.8403616,0.7658878,-0.67051244,0.9607048,-2.6817522,1.0739704,1.369654,0.25562352,-0.009826104,-0.06910125,1.1473154,-2.0040271
0.1,0.0,1.2999999999999998,0.0,0.0,0,-0.6634939,0.7119388,-0.8392086,0.76609427,-0.6665837,0.95835215,-2.6705592,1.0399363,1.3189157,0.2726405,-0.035950225,-0.10323452,1.018506,-0.8492199
0.1,0.0,1.2999999999999998,0.0,0.0,0,-0.66231275,0.71480936,-0.838204,0.76631236,-0.6653599,0.9582637,-2.6732256,1.3399357,1.1978158,0.25103638,-0.11076514,-0.051018115,1.1193905,-2.0052269
0.1,0.0,1.2999999999999998,0.0,0.0,0,-0.66121066,0.7087775,-0.84181714,0.76631385,-0.6705669,0.957165,-2.6813688,1.1190869,1.2560755,0.26662987,-0.1294215,-0.11039699,1.2988211,-0.30477232
0.1,0.0,1.2999999999999998,0.0,0.0,0,-0.66126627,0.7050602,-0.8444303,0.76604915,-0.6722591,0.96271515,-2.6794198,1.2396141,1.1746621,0.27064908,-0.06840965,0.028994966,0.980089,-0.20307228
0.1,0.0,1.2999999999999998,0.0,0.0,0,-0.6626511,0.7027086,-0.8369447,0.7672201,-0.6704016,0.958814,-2.6689267,1.2951205,1.2762426,0.18299587,-0.119197056,0.21384826,0.9889412,-0.5019445
0.1,0.0,1.2999999999999998,0.0,0.0,0,-0.662886,0.71437144,-0.83947974,0.7654821,-0.66385514,0.9589588,-2.6721501,0.8602585,1.3719023,0.119430974,-0.039513234,-0.106429316,1.2870265,-0.13040422
0.1,0.0,1.2999999999999998,0.0,0.0,0,-0.66257757,0.71210146,-0.83673006,0.76598054,-0.6692049,0.95742124,-2.6801302,0.9097692,1.2792482,0.21844475,-0.10131978,0.26951927,1.0907829,-0.96715546
0.1,0.0,1.2999999999999998,0.0,0.0,0,-0.6608186,0.71138203,-0.8369319,0.7677028,-0.6698447,0.9585464,-2.6818333,1.0445749,1.4048916,0.27076164,-0.104271404,0.06733255,1.2752854,-0.6070155
0.1,0.0,1.2999999999999998,0.0,0.0,0,-0.6622539,0.7010146,-0.84002614,0.7660976,-0.6674585,0.9569285,-2.67744,1.3127853,1.2867645,0.16290358,-0.010662128,-0.0116070295,1.3009375,-2.0086308
0.1,0.0,1.2999999999999998,0.0,0.0,0,-0.66245604,0.70597124,-0.83870184,0.768639,-0.66618174,0.95932513,-2.660462,0.92577386,1.3052245,0.17904642,-0.10414328,-0.12584083,0.9756611,-0.24471918
0.1,0.0,1.2999999999999998,0.0,0.0,0,-0.66291803,0.70786184,-0.8378383,0.766962,-0.6645566,0.9611358,-2.6828983,1.3486269,1.3392221,0.26202744,-0.033082843,0.28513345,1.107617,-0.7145465
0.1,0.0,1.2999999999999998,0.0,0.0,0,-0.6631447,0.7131027,-0.8400856,0.76714015,-0.6697406,0.9588771,-2.6663516,1.1280731,1.28554,0.25452667,-0.02699294,0.1391594,1.1414962,-0.8696533
0.1,0.0,1.2999999999999998,0.0,0.0,0,-0.6642403,0.7094891,-0.84101295,0.76497644,-0.6683309,0.9596318,-2.656056,1.3892826,1.1268744,0.30148104,0.061177976,0.056069307,1.2431873,-0.93660706
0.1,0.0,1.2999999999999998,0.0,0.0,0,-0.66237843,0.7138786,-0.83986074,0.7661839,-0.6696893,0.96008444,-2.6561804,1.0958693,1.3406291,0.25011867,0.03804321,0.12708668,1.2586471,-0.8273391
0.1,0.0,1.2999999999999998,0.0,0.0,0,-0.6626283,0.7134987,-0.84058106,0.7657168,-0.66824025,0.9583297,-2.6494677,1.1405576,1.5007792,0.16355784,0.07709144,0.0679101,0.9319046,-0.9508651
0.1,0.0,1.2999999999999998,0.0,0.0,0,-0.6644948,0.7065345,-0.84246033,0.766203,-0.67034066,0.9597066,-2.6627214,1.3267007,1.1972145,0.19948247,-0.16050224,-0.1290554,1.1045682,-0.887917
0.1,0.0,1.2999999999999998,0.0,0.0,0,-0.66306823,0.71301717,-0.8443248,0.76618385,-0.67086065,0.96020126,-2.6664782,1.1711497,1.2331955,0.40519097,-0.032831173,0.25296742,1.2103044,-1.8810077
0.1,0.0,1.2999999999999998,0.0,0.0,0,-0.66229975,0.70847446,-0.84453803,0.76750344,-0.6689182,0.9606684,-2.6734357,1.3506035,1.3415366,0.25198326,-0.114584535,-0.30769768,1.2094545,-0.48226282
0.1,0.0,1.2999999999999998,0.0,0.0,0,-0.6624214,0.7022567,-0.83966047,0.7667126,-0.65873325,0.9592124,-2.6661167,1.0306398,1.2184987,0.2930671,-0.010101478,0.24929276,1.2250085,-0.14364041
0.1,0.0,1.2999999999999998,0.0,0.0,0,-0.66199934,0.7070357,-0.843306,0.76711607,-0.6672398,0.9582479,-2.6680627,0.9000461,1.3179948,0.371085,-0.16872016,0.088935286,1.2058783,-1.3812207
0.1,0.0,1.2999999999999998,0.0,0.0,0,-0.6630601,0.72006136,-0.83944875,0.7643822,-0.66677505,0.958992,-2.65278,1.407133,1.2894211,0.36694348,-0.108063586,-0.21016751,1.1378636,-0.9519688
0.1,0.0,1.2999999999999998,0.0,0.0,0,-0.6627269,0.70758283,-0.8430663,0.766082,-0.6670779,0.95792276,-2.656884,1.5333678,1.2406318,0.16528131,-0.08152707,0.17222649,1.3143476,-2.267038
0.1,0.0,1.2999999999999998,0.0,0.0,0,-0.66334784,0.71038836,-0.8445613,0.7670884,-0.6714308,0.9596616,-2.6761513,1.2128034,1.5355948,0.35596082,-0.10083048,-0.021270841,1.2396142,0.1606123
0.1,0.0,1.2999999999999998,0.0,0.0,0,-0.66185254,0.71198326,-0.8432953,0.76556647,-0.6622237,0.9572453,-2.688784,1.3539325,1.3809973,0.23585817,-0.06928839,-0.14241694,1.0998185,-0.89676267
0.1,0.0,1.2999999999999998,0.0,0.0,0,-0.6615162,0.7163653,-0.8394915,0.766296,-0.6645002,0.9590338,-2.6743627,1.2875792,1.3187733,0.25870666,-0.09120907,0.040202904,1.1452435,-0.4637521
0.1,0.0,1.2999999999999998,0.0,0.0,0,-0.6624948,0.71504205,-0.8394532,0.76626706,-0.6660452,0.9596985,-2.6769872,1.4734299,1.2788637,0.27736512,-0.06609424,-0.05002178,1.0319192,-0.5344936
0.1,0.0,1.2999999999999998,0.0,0.0,0,-0.66273326,0.7125322,-0.8388394,0.76774853,-0.66716087,0.95869035,-2.6638882,1.4464407,1.3481016,0.32214284,-0.05790622,-0.032565013,0.9841797,-0.6333377
0.1,0.0,1.2999999999999998,0.0,0.0,0,-0.6620006,0.70993835,-0.8352414,0.76670134,-0.6643203,0.9593989,-2.6684937,1.3675841,1.2005414,0.15707129,-0.029275369,0.3185212,1.2264094,-1.6085773
0.1,0.0,1.2999999999999998,0.0,0.0,0,-0.664146,0.7063164,-0.8407412,0.76679426,-0.66708946,0.9596259,-2.6832244,1.3616107,1.3420173,0.093011834,-0.15735433,-0.071384996,1.0078753,-0.39025354
0.1,0.0,1.2999999999999998,0.0,0.0,0,-0.6626814,0.7065973,-0.839757,0.7646764,-0.6623496,0.95840865,-2.6680455,1.303927,1.0930002,0.3687159,-0.022710828,0.035570752,1.0673333,-1.868555
0.1,0.0,1.2999999999999998,0.0,0.0,0,-0.663992,0.70786285,-0.8391265,0.76560307,-0.6666438,0.9613611,-2.6726296,1.1377712,1.4986714,0.30234963,-0.09279603,0.018797027,1.1815584,-0.7271035
0.1,0.0,1.2999999999999998,0.0,0.0,0,-0.6621561,0.69688267,-0.8367325,0.7667977,-0.67155963,0.96378744,-2.6472015,1.4677314,1.3867208,0.36208373,-0.18359236,0.2433964,1.259487,-1.1687742
0.1,0.0,1.2999999999999998,0.0,0.0,0,-0.66344774,0.70896477,-0.8410122,0.7667008,-0.67221695,0.96173507,-2.6864028,1.1264509,1.3654739,0.4157848,-0.0842172,0.17759605,1.2931547,-1.166266
0.1,0.0,1.2999999999999998,0.0,0.0,0,-0.6638007,0.70758617,-0.8390786,0.76628244,-0.6656066,0.9626326,-2.6707594,1.155109,1.2959534,0.09277795,-0.2648045,0.028042655,1.152922,0.45310074
0.1,0.0,1.2999999999999998,0.0,0.0,0,-0.6625494,0.7122167,-0.8402406,0.76558095,-0.6701706,0.95944315,-2.6682863,1.1444193,1.3027952,0.32564998,-0.13118558,-0.28178492,0.98905545,-0.66842335
0.1,0.0,1.2999999999999998,0.0,0.0,0,-0.6621025,0.71767724,-0.83550596,0.76646644,-0.6713304,0.9567432,-2.665425,1.0214999,1.4045802,0.03858705,-0.09767676,-0.03881396,1.1761794,-0.64244103
0.1,0.0,1.2999999999999998,0.0,0.0,0,-0.66254705,0.7047085,-0.83891624,0.76678395,-0.6634878,0.9568434,-2.6919377,1.3136559,1.2319984,0.19022459,-0.09315219,0.30834115,1.1866906,0.15345487
0.1,0.0,1.2999999999999998,0.0,0.0,0,-0.6621487,0.6963629,-0.84140414,0.7649523,-0.66199976,0.95881397,-2.6686177,1.0592449,1.2818809,0.3671001,-0.10769544,0.11414008,1.0800221,-1.9168699
0.1,0.0,1.2999999999999998,0.0,0.0,0,-0.66270304,0.70942867,-0.8389932,0.7672633,-0.67081136,0.9598167,-2.6804345,1.418392,1.3239995,0.21884707,-0.048505712,0.22988345,1.2160941,-0.983323
0.1,0.0,1.2999999999999998,0.0,0.0,0,-0.6620869,0.7144078,-0.8392288,0.76687324,-0.6665566,0.95839685,-2.698828,1.0628219,1.2937883,0.19901226,-0.046511743,-0.058404762,1.4120177,-0.851099
0.1,0.0,1.2999999999999998,0.0,0.0,0,-0.66391826,0.70837265,-0.8432654,0.7664721,-0.6686263,0.9559742,-2.689601,1.2398343,1.4151762,0.0027811376,-0.14505696,-0.011555334,1.1375058,-0.596563
0.1,0.0,1.2999999999999998,0.0,0.0,0,-0.66200185,0.70821756,-0.83985114,0.7667187,-0.66958755,0.9601091,-2.6824515,1.1268368,1.3855166,0.367404,-0.14169665,0.009476656,0.9833947,-1.2770742
0.1,0.0,1.2999999999999998,0.0,0.0,0,-0.6623017,0.7058546,-0.83894324,0.76592475,-0.6689736,0.9577048,-2.6629562,1.0415218,1.3013147,0.20286484,-0.12635732,0.26112658,1.1733354,-0.6733842
0.1,0.0,1.2999999999999998,0.0,0.0,0,-0.66327506,0.7072683,-0.84250754,0.7654292,-0.66463304,0.95659876,-2.6773818,1.4850699,1.2004545,0.103611775,0.06969872,-0.07437673,1.1559917,-1.202045
0.1,0.0,1.2999999999999998,0.0,0.0,0,-0.66255766,0.703275,-0.84194523,0.76432383,-0.66588557,0.9598763,-2.6537752,1.265339,1.2353868,0.33808234,-0.11571036,-0.2217932,1.2847476,-1.3495557
0.1,0.0,1.2999999999999998,0.0,0.0,0,-0.6612939,0.7067029,-0.83473486,0.7671637,-0.66903424,0.95733756,-2.6789443,0.80417496,1.4792037,0.14437726,-0.20874755,0.32358748,1.2297742,-1.6112443
0.1,0.0,1.2999999999999998,0.0,0.0,0,-0.6623493,0.7008098,-0.83906174,0.7668153,-0.6616839,0.9581345,-2.6759415,1.1987411,1.2381977,0.2850824,-0.02158829,-0.027541805,1.2114785,-1.3315907
0.1,0.0,1.2999999999999998,0.0,0.0,0,-0.6611999,0.70773333,-0.84033215,0.76503485,-0.66500354,0.96074826,-2.6774118,1.431267,1.4138366,0.061360706,-0.08980534,-0.067359634,1.1625342,-1.3391248
0.1,0.0,1.2999999999999998,0.0,0.0,0,-0.66312945,0.70600367,-0.8398848,0.7659396,-0.6678865,0.95932037,-2.6864045,1.4054612,1.2366431,0.19957016,0.027093766,-0.13219726,1.1383356,-1.4548488
0.1,0.0,1.2999999999999998,0.0,0.0,0,-0.66278887,0.70875305,-0.8368223,0.7653307,-0.6690468,0.9631983,-2.67304,1.4033612,1.3043518,0.24167724,-0.04751144,-0.03984499,1.2134682,-1.9783223
0.1,0.0,1.2999999999999998,0.0,0.0,0,-0.6629542,0.7108194,-0.8401341,0.7655933,-0.6682025,0.9573652,-2.6775217,1.3368236,1.3555514,0.38052735,-0.07019961,-0.16084631,1.1058041,-0.0086580105
0.1,0.0,1.2999999999999998,0.0,0.0,0,-0.66303545,0.7213975,-0.8398951,0.76595426,-0.66691256,0.96030647,-2.6802433,1.3262264,1.2362767,0.08225299,-0.048495434,0.056394298,1.2534564,-0.1093843
0.1,0.0,1.2999999999999998,0.0,0.0,0,-0.6609425,0.7048439,-0.84166515,0.7678932,-0.66933405,0.9594406,-2.66029,1.0592362,1.2643547,0.16432677,-0.2523816,0.016302355,1.2010369,-0.28841662
0.1,0.0,1.2999999999999998,0.0,0.0,0,-0.6631483,0.70151114,-0.8417228,0.76617074,-0.67017376,0.95832086,-2.652714,1.2796961,1.2921512,0.31583995,-0.087601975,0.23680185,1.0702788,-2.0499852
0.1,0.0,1.2999999999999998,0.0,0.0,0,-0.6630185,0.7072745,-0.8409835,0.766047,-0.666333,0.960737,-2.6699944,1.267424,1.3163518,0.3209592,-0.1453965,0.08443333,1.2681488,-0.9801124
