sanky1234/BimanualDexCatch/isaacgymenvs/cem_results/football_pose_-0.1_-0.2_0.7999999999999999_0.5235987755982988_0.5235987755982988_0_2025-05-25.csv
x,y,z,roll,pitch,yaw,robot1/joint1,robot1/joint2,robot1/joint3,robot1/joint4,robot1/joint5,robot1/joint6,robot1/joint7,robot2/joint1,robot2/joint2,robot2/joint3,robot2/joint4,robot2/joint5,robot2/joint6,robot2/joint7
-0.1,-0.2,0.7999999999999999,0.5235987755982988,0.5235987755982988,0,2.073786,1.722501,0.27175722,-0.5735668,0.16962202,1.0346644,0.3377599,-1.1305976,0.26592943,0.26825604,0.11372899,0.33137798,1.5649616,-1.9157503
-0.1,-0.2,0.7999999999999999,0.5235987755982988,0.5235987755982988,0,1.9006884,1.7166822,0.21090284,-0.53637046,0.20772554,1.1547363,-0.10682302,-1.1383494,0.2692748,0.2950945,0.14040768,0.36989778,1.5621369,-1.9184809
-0.1,-0.2,0.7999999999999999,0.5235987755982988,0.5235987755982988,0,1.9879315,1.8070406,0.3338021,-0.60632056,0.11626525,1.0956144,-0.06093364,-1.1238892,0.2736695,0.27339867,0.1528055,0.31949478,1.5610349,-1.9126576
-0.1,-0.2,0.7999999999999999,0.5235987755982988,0.5235987755982988,0,1.9602185,1.8030316,0.2772037,-0.5904322,0.24014294,1.1816586,0.089273006,-1.1061342,0.2646163,0.28084323,0.123851284,0.3482791,1.5679108,-1.9280126
-0.1,-0.2,0.7999999999999999,0.5235987755982988,0.5235987755982988,0,2.0698202,1.8654675,0.2686246,-0.8000219,0.13320822,1.3233991,-0.4515852,-1.1243305,0.28137255,0.2882499,0.1601679,0.34448674,1.5652434,-1.9378512
-0.1,-0.2,0.7999999999999999,0.5235987755982988,0.5235987755982988,0,2.1110165,1.8228064,0.2541729,-0.69957566,0.058931995,1.1585621,-0.22493283,-1.1482626,0.2807992,0.28425077,0.12771158,0.3458837,1.5594519,-1.9211416
-0.1,-0.2,0.7999999999999999,0.5235987755982988,0.5235987755982988,0,2.0061977,1.8054706,0.3706929,-0.7927402,0.1733012,1.2155889,0.48575824,-1.1230195,0.281947,0.28565615,0.11591216,0.3304559,1.559921,-1.9191223
-0.1,-0.2,0.7999999999999999,0.5235987755982988,0.5235987755982988,0,2.0478723,1.6892765,0.33390164,-0.6645055,0.017036578,1.2213744,0.025388665,-1.1144753,0.26929754,0.26608238,0.14519909,0.33215457,1.5653182,-1.939833
-0.1,-0.2,0.7999999999999999,0.5235987755982988,0.5235987755982988,0,1.9613729,1.8259579,0.27038792,-0.61030596,-0.010180519,0.98077834,0.09629719,-1.0881867,0.26823917,0.28992274,0.14469963,0.34605068,1.5674754,-1.937236
-0.1,-0.2,0.7999999999999999,0.5235987755982988,0.5235987755982988,0,2.002263,1.7715105,0.2844718,-0.54965365,0.2690749,1.0038444,0.35929507,-1.1064895,0.26962903,0.28172627,0.15867019,0.37274092,1.5621845,-1.926833
-0.1,-0.2,0.7999999999999999,0.5235987755982988,0.5235987755982988,0,2.026945,1.7770939,0.25934684,-0.59106183,0.09741175,1.0792103,0.27162486,-1.1300938,0.2871254,0.30384558,0.11866062,0.350753,1.5663549,-1.9248222
-0.1,-0.2,0.7999999999999999,0.5235987755982988,0.5235987755982988,0,1.901873,1.7223167,0.25832585,-0.54051775,0.2375391,1.0263758,-0.31807923,-1.1223292,0.26323593,0.27871874,0.14916284,0.3632036,1.5591873,-1.9011583
-0.1,-0.2,0.7999999999999999,0.5235987755982988,0.5235987755982988,0,2.0853467,1.703948,0.34278795,-0.66169554,0.03291975,1.0455997,0.36343527,-1.1198568,0.27078557,0.27915052,0.14376748,0.35283634,1.5624839,-1.9386977
-0.1,-0.2,0.7999999999999999,0.5235987755982988,0.5235987755982988,0,2.1206894,1.6687449,0.26551127,-0.70665824,0.286331,1.2201761,-0.1254364,-1.1420659,0.27998823,0.2790926,0.130565,0.32943153,1.5590287,-1.9256691
-0.1,-0.2,0.7999999999999999,0.5235987755982988,0.5235987755982988,0,1.933423,1.7996178,0.32253984,-0.5422903,0.20018075,1.0905064,-0.029222416,-1.1482471,0.28708038,0.3084781,0.13612069,0.36207867,1.56527,-1.9178193
-0.1,-0.2,0.7999999999999999,0.5235987755982988,0.5235987755982988,0,2.1158102,1.762937,0.28597444,-0.59034735,0.1281257,0.93035465,-0.21830809,-1.122057,0.2663662,0.26269215,0.13120762,0.34186938,1.5587127,-1.9301258
-0.1,-0.2,0.7999999999999999,0.5235987755982988,0.5235987755982988,0,1.9458348,1.7642723,0.36778507,-0.54276437,-0.04052205,1.0414649,0.17170885,-1.1073164,0.27089366,0.2883378,0.13290085,0.36789876,1.5614969,-1.9240006
-0.1,-0.2,0.7999999999999999,0.5235987755982988,0.5235987755982988,0,2.153373,1.7212138,0.2968197,-0.6238546,0.0049152253,1.0459116,0.43923417,-1.1019446,0.27631268,0.27166036,0.12960637,0.38061488,1.5684944,-1.9247794
-0.1,-0.2,0.7999999999999999,0.5235987755982988,0.5235987755982988,0,2.1041021,1.7673719,0.2992182,-0.66303724,0.079918124,1.0478692,0.71247554,-1.0981824,0.2718689,0.30279526,0.16042878,0.34940624,1.565412,-1.9331101
-0.1,-0.2,0.7999999999999999,0.5235987755982988,0.5235987755982988,0,1.9516782,1.7795048,0.32259464,-0.5714443,0.023937687,0.9657582,0.07191044,-1.1214293,0.2667896,0.30826738,0.12930429,0.33789825,1.5627463,-1.9363549
-0.1,-0.2,0.7999999999999999,0.5235987755982988,0.5235987755982988,0,1.964586,1.6440878,0.26383048,-0.51281357,0.1107896,1.1329163,0.23711999,-1.0752697,0.27713865,0.27753574,0.12704392,0.3265213,1.5640103,-1.946027
-0.1,-0.2,0.7999999999999999,0.5235987755982988,0.5235987755982988,0,2.0302093,1.8164265,0.22155325,-0.54396504,0.01876987,1.1166127,-0.1267512,-1.0659727,0.26756945,0.28347257,0.14806604,0.338519,1.5613948,-1.9295846
-0.1,-0.2,0.7999999999999999,0.5235987755982988,0.5235987755982988,0,2.0087683,1.7221699,0.23379025,-0.49856448,0.10074229,1.1139162,0.039049905,-1.1066325,0.27020416,0.30252352,0.16460317,0.33435294,1.5600545,-1.9157575
-0.1,-0.2,0.7999999999999999,0.5235987755982988,0.5235987755982988,0,2.0026672,1.798294,0.28732735,-0.50831026,0.062134884,0.9414008,-0.14557104,-1.1278015,0.2655998,0.28460497,0.1651423,0.38103318,1.5633345,-1.9167671
-0.1,-0.2,0.7999999999999999,0.5235987755982988,0.5235987755982988,0,1.9977825,1.8404336,0.28068987,-0.60239065,0.2726659,1.0399767,-0.09537131,-1.0616643,0.26374272,0.27721637,0.15305483,0.39205888,1.56254,-1.9358329
-0.1,-0.2,0.7999999999999999,0.5235987755982988,0.5235987755982988,0,1.9629171,1.7837819,0.34846628,-0.5854261,0.11300253,1.0960263,-0.3965158,-1.125394,0.26660195,0.2713313,0.13476643,0.34864268,1.563174,-1.9305159
-0.1,-0.2,0.7999999999999999,0.5235987755982988,0.5235987755982988,0,2.081614,1.7435515,0.32405186,-0.72475165,0.14346851,1.1680121,0.49506655,-1.0782623,0.26768336,0.2847654,0.16733682,0.3331107,1.5598423,-1.9292011
-0.1,-0.2,0.7999999999999999,0.5235987755982988,0.5235987755982988,0,1.892166,1.7692231,0.31792408,-0.62731296,0.24168773,0.98771477,0.16400808,-1.1185545,0.2624259,0.27916557,0.16879761,0.33301416,1.5594709,-1.9290965
-0.1,-0.2,0.7999999999999999,0.5235987755982988,0.5235987755982988,0,1.9060248,1.8498942,0.370739,-0.6438181,0.1579832,1.0307868,-0.14939,-1.1252477,0.2718032,0.31350556,0.10893089,0.35449326,1.5616586,-1.941129
-0.1,-0.2,0.7999999999999999,0.5235987755982988,0.5235987755982988,0,1.9889913,1.8200576,0.39325753,-0.5955113,0.0921625,1.0414629,0.3416316,-1.1156856,0.2605718,0.27066934,0.1398277,0.3684498,1.5635229,-1.9127249
-0.1,-0.2,0.7999999999999999,0.5235987755982988,0.5235987755982988,0,2.1396377,1.7596315,0.4169324,-0.8651091,0.044126697,1.2766031,-0.44174606,-1.0935764,0.27787155,0.2748529,0.1715353,0.3931721,1.5612395,-1.9237868
-0.1,-0.2,0.7999999999999999,0.5235987755982988,0.5235987755982988,0,2.0993764,1.8110796,0.31290755,-0.7082222,0.13871412,1.1853976,0.035490595,-1.0927558,0.2908327,0.2510343,0.14710924,0.36714077,1.564674,-1.9378172
-0.1,-0.2,0.7999999999999999,0.5235987755982988,0.5235987755982988,0,2.0314503,1.7096186,0.38756427,-0.690333,0.12645577,1.0627364,-0.25926164,-1.1210147,0.26449305,0.30933928,0.13604952,0.33408517,1.564304,-1.9482486
-0.1,-0.2,0.7999999999999999,0.5235987755982988,0.5235987755982988,0,1.9388894,1.7595999,0.34938326,-0.53910196,0.21825036,1.1366674,0.15841398,-1.1358964,0.26982608,0.27741712,0.19547664,0.36068013,1.558333,-1.9212613
-0.1,-0.2,0.7999999999999999,0.5235987755982988,0.5235987755982988,0,1.9196073,1.8532274,0.33217087,-0.77173066,0.42398065,1.3613224,-0.34618422,-1.1197909,0.26873586,0.28328413,0.18796578,0.31361324,1.5659918,-1.9264109
-0.1,-0.2,0.7999999999999999,0.5235987755982988,0.5235987755982988,0,2.015383,1.7416791,0.3952314,-0.64747125,0.06647217,1.0753533,-0.44827026,-1.1504065,0.28473172,0.2806234,0.15388468,0.34432435,1.5606112,-1.9080694
-0.1,-0.2,0.7999999999999999,0.5235987755982988,0.5235987755982988,0,2.1473646,1.7944252,0.21540803,-0.7147413,0.2447733,1.1560441,-0.16889781,-1.0873901,0.28913647,0.28435713,0.15087338,0.3586652,1.5631138,-1.9345012
-0.1,-0.2,0.7999999999999999,0.5235987755982988,0.5235987755982988,0,2.034146,1.7823374,0.4073861,-0.693445,0.07031968,1.0806623,0.6171826,-1.1331557,0.26255515,0.2835577,0.16736104,0.35390761,1.5598533,-1.918218
-0.1,-0.2,0.7999999999999999,0.5235987755982988,0.5235987755982988,0,1.8829908,1.7986684,0.30861485,-0.5910872,0.2735368,1.0901729,-0.14931004,-1.1113478,0.27315208,0.28128546,0.14296077,0.37528303,1.5633186,-1.9165033
-0.1,-0.2,0.7999999999999999,0.5235987755982988,0.5235987755982988,0,2.1113276,1.7138946,0.38571516,-0.727948,0.07949381,1.1791178,-0.050662328,-1.0823103,0.28528047,0.28433415,0.18507114,0.35890168,1.5662105,-1.9182276
-0.1,-0.2,0.7999999999999999,0.5235987755982988,0.5235987755982988,0,2.0478482,1.6573367,0.40925446,-0.63397497,0.13009311,1.134832,0.33692613,-1.0870069,0.26635832,0.28157133,0.16871664,0.34749326,1.5616606,-1.9321064
-0.1,-0.2,0.7999999999999999,0.5235987755982988,0.5235987755982988,0,2.1218247,1.6701185,0.30892754,-0.6402401,-0.003772087,1.1343492,-0.39576307,-1.1384083,0.26420283,0.29936522,0.14829442,0.36676645,1.5598718,-1.9154129
-0.1,-0.2,0.7999999999999999,0.5235987755982988,0.5235987755982988,0,1.9383689,1.8006699,0.27340376,-0.6062163,0.18191369,1.1456304,0.3824094,-1.1313931,0.26990607,0.2715935,0.13732947,0.36236778,1.562551,-1.9231693
-0.1,-0.2,0.7999999999999999,0.5235987755982988,0.5235987755982988,0,2.2064512,1.679053,0.27566874,-0.730378,0.08056569,1.1066489,-0.4061712,-1.1060814,0.27651528,0.293268,0.20620748,0.3679665,1.5577488,-1.944601
-0.1,-0.2,0.7999999999999999,0.5235987755982988,0.5235987755982988,0,1.9330231,1.7905189,0.3725558,-0.6106465,0.1023628,0.86961687,0.07904309,-1.1426034,0.26072982,0.2945628,0.1338865,0.354132,1.5643122,-1.9248723
-0.1,-0.2,0.7999999999999999,0.5235987755982988,0.5235987755982988,0,2.0573459,1.8173282,0.28647593,-0.6591625,0.2548665,1.0093946,0.5785311,-1.124678,0.28728926,0.27813664,0.13550244,0.33601734,1.5639919,-1.9498479
-0.1,-0.2,0.7999999999999999,0.5235987755982988,0.5235987755982988,0,2.1212282,1.7836057,0.18591838,-0.6992903,0.18487337,1.1341066,0.022413196,-1.1291207,0.27320138,0.2695089,0.14276347,0.35978597,1.5633761,-1.9140878
-0.1,-0.2,0.7999999999999999,0.5235987755982988,0.5235987755982988,0,2.0264547,1.737634,0.27854064,-0.60967714,0.17866719,1.0850011,0.12018975,-1.1372697,0.27869508,0.28117234,0.116025485,0.34750125,1.5621088,-1.91126
-0.1,-0.2,0.7999999999999999,0.5235987755982988,0.5235987755982988,0,2.0168912,1.7411617,0.32371688,-0.6407435,0.12836516,1.0833572,0.008934985,-1.1606195,0.26896045,0.28776306,0.13039523,0.33360705,1.5620924,-1.9105704
-0.1,-0.2,0.7999999999999999,0.5235987755982988,0.5235987755982988,0,2.1659045,1.73276,0.18672855,-0.6610566,0.18344085,1.170171,-0.22271483,-1.0966198,0.28153926,0.2903439,0.18525724,0.34419847,1.5669026,-1.9125187
-0.1,-0.2,0.7999999999999999,0.5235987755982988,0.5235987755982988,0,2.027829,1.8348348,0.26333272,-0.65799373,0.21723443,1.0875982,0.354303,-1.07586,0.26740265,0.28407317,0.12921636,0.3625441,1.5615722,-1.936496
-0.1,-0.2,0.7999999999999999,0.5235987755982988,0.5235987755982988,0,2.0274062,1.7427243,0.14395262,-0.6301464,0.29700834,1.1076262,0.23803788,-1.1163255,0.26555678,0.2920765,0.13689303,0.32672822,1.5636734,-1.9271473
-0.1,-0.2,0.7999999999999999,0.5235987755982988,0.5235987755982988,0,2.025318,1.765447,0.38897786,-0.71841836,0.20598987,1.1010051,-0.5199855,-1.1073151,0.26400024,0.27955952,0.17977352,0.34522822,1.565053,-1.9374487
-0.1,-0.2,0.7999999999999999,0.5235987755982988,0.5235987755982988,0,2.0460026,1.7643641,0.38330618,-0.7040206,-0.032857038,1.0468932,0.6378295,-1.0604234,0.25952297,0.28318822,0.1864309,0.3851803,1.5655816,-1.9487721
-0.1,-0.2,0.7999999999999999,0.5235987755982988,0.5235987755982988,0,2.017587,1.6982158,0.30594173,-0.6220945,0.30965096,1.0719693,0.28718266,-1.1474177,0.26010707,0.26633185,0.13303702,0.35109586,1.5631139,-1.9193937
-0.1,-0.2,0.7999999999999999,0.5235987755982988,0.5235987755982988,0,2.070316,1.7696393,0.3834113,-0.6051843,0.106318064,0.9368711,0.36694145,-1.1103846,0.28036597,0.28164637,0.139608,0.32811174,1.5625455,-1.892324
-0.1,-0.2,0.7999999999999999,0.5235987755982988,0.5235987755982988,0,2.2247956,1.6933345,0.23798253,-0.6357303,0.15927312,0.9999753,0.012898493,-1.1099187,0.2657433,0.2774043,0.13457005,0.33631572,1.5643678,-1.9205958
-0.1,-0.2,0.7999999999999999,0.5235987755982988,0.5235987755982988,0,1.9885489,1.8573306,0.31290868,-0.65807784,0.02480326,1.154979,0.50457764,-1.1155,0.26337028,0.27606323,0.15185606,0.34030008,1.5646966,-1.9272416
-0.1,-0.2,0.7999999999999999,0.5235987755982988,0.5235987755982988,0,2.0262594,1.7909418,0.31912112,-0.6065874,0.18703996,0.97843945,0.37435332,-1.1166184,0.27492592,0.28027263,0.11598933,0.33489785,1.5684316,-1.9437152
-0.1,-0.2,0.7999999999999999,0.5235987755982988,0.5235987755982988,0,1.9461555,1.750216,0.4338728,-0.697354,0.14150369,1.1956862,-0.62383795,-1.0701838,0.27521172,0.26404297,0.118189625,0.34876662,1.56368,-1.9025707
-0.1,-0.2,0.7999999999999999,0.5235987755982988,0.5235987755982988,0,1.9867251,1.7251928,0.2913545,-0.54152083,0.18700995,1.0109813,0.19310886,-1.0898944,0.28174716,0.29184517,0.13957106,0.3165584,1.5610723,-1.9213605
-0.1,-0.2,0.7999999999999999,0.5235987755982988,0.5235987755982988,0,1.9619691,1.8115638,0.41639397,-0.65377843,0.10139712,0.9778709,0.050532695,-1.1621971,0.28470638,0.26655114,0.09073894,0.30040345,1.5625322,-1.9198202
-0.1,-0.2,0.7999999999999999,0.5235987755982988,0.5235987755982988,0,2.040551,1.8168262,0.26405576,-0.63062656,0.2586588,1.0679255,0.33425432,-1.1048999,0.27128303,0.28606242,0.12890844,0.34796733,1.5611321,-1.9434694
-0.1,-0.2,0.7999999999999999,0.5235987755982988,0.5235987755982988,0,2.125319,1.6891629,0.3350085,-0.6813828,0.128155,1.0486954,0.11076164,-1.1116349,0.2532211,0.2752019,0.15347907,0.33741757,1.5611193,-1.9332463
-0.1,-0.2,0.7999999999999999,0.5235987755982988,0.5235987755982988,0,2.124562,1.7448437,0.28344417,-0.7050959,0.024536371,1.1550138,-0.029560974,-1.1504772,0.28235784,0.29453665,0.124122135,0.30513924,1.5600058,-1.932638
-0.1,-0.2,0.7999999999999999,0.5235987755982988,0.5235987755982988,0,2.1113782,1.8223381,0.36338672,-0.7985821,-0.0017004428,1.1019975,0.09594356,-1.0711035,0.26484457,0.28761834,0.15989052,0.32678717,1.5613286,-1.9069114
-0.1,-0.2,0.7999999999999999,0.5235987755982988,0.5235987755982988,0,2.0135412,1.7795131,0.2924507,-0.5945648,0.0815167,1.1888561,0.032653157,-1.1040686,0.29473695,0.26932284,0.1799701,0.34167463,1.5640031,-1.9444003
-0.1,-0.2,0.7999999999999999,0.5235987755982988,0.5235987755982988,0,2.1111698,1.7839301,0.33062324,-0.7680472,0.11273021,1.1602404,0.43474227,-1.1210787,0.27718043,0.2808426,0.16331913,0.3565114,1.5669796,-1.9317663
-0.1,-0.2,0.7999999999999999,0.5235987755982988,0.5235987755982988,0,2.1652255,1.6742448,0.28868827,-0.6552863,0.1338351,1.0787216,0.2915452,-1.0835164,0.2725003,0.29711875,0.21048754,0.36059487,1.5664824,-1.9387801
-0.1,-0.2,0.7999999999999999,0.5235987755982988,0.5235987755982988,0,2.0920777,1.6936868,0.35133007,-0.6645202,0.11558459,1.087969,0.27064022,-1.1141539,0.28387702,0.27546385,0.14937365,0.3482164,1.5692917,-1.9337813
-0.1,-0.2,0.7999999999999999,0.5235987755982988,0.5235987755982988,0,1.9829415,1.8016547,0.27946484,-0.7281541,0.26006514,1.0814321,0.2880396,-1.1891915,0.2648726,0.28684458,0.17933527,0.35396522,1.5602994,-1.9354982
-0.1,-0.2,0.7999999999999999,0.5235987755982988,0.5235987755982988,0,2.0331633,1.7332091,0.29908356,-0.62234485,0.27673617,1.0216594,0.67022204,-1.146579,0.26288083,0.2728194,0.17150164,0.35885108,1.5678078,-1.9258441
-0.1,-0.2,0.7999999999999999,0.5235987755982988,0.5235987755982988,0,2.001259,1.7556167,0.28717703,-0.62369096,0.15368932,1.213144,-0.26298437,-1.0663347,0.29861116,0.2780235,0.18601067,0.3745036,1.5619816,-1.9346082
-0.1,-0.2,0.7999999999999999,0.5235987755982988,0.5235987755982988,0,2.010983,1.7271389,0.24799196,-0.5320717,0.45088243,0.9926144,0.28959855,-1.1064492,0.27743778,0.30020338,0.18449053,0.36032638,1.5647836,-1.9149938
-0.1,-0.2,0.7999999999999999,0.5235987755982988,0.5235987755982988,0,1.9523485,1.8197718,0.36728513,-0.64156806,0.15664507,0.9886419,0.05945984,-1.1007043,0.2757782,0.30146405,0.1899553,0.39002556,1.5630186,-1.9247257
-0.1,-0.2,0.7999999999999999,0.5235987755982988,0.5235987755982988,0,1.9391241,1.9096849,0.34857628,-0.6371057,0.1992918,1.1157776,-0.22187902,-1.1230316,0.2734353,0.25944197,0.14634211,0.35104823,1.5672039,-1.9476417
-0.1,-0.2,0.7999999999999999,0.5235987755982988,0.5235987755982988,0,1.9788055,1.8211765,0.29980135,-0.59165037,0.35319114,1.0541962,0.05420073,-1.0892481,0.28402013,0.27461436,0.11081159,0.33148757,1.5635642,-1.921891
-0.1,-0.2,0.7999999999999999,0.5235987755982988,0.5235987755982988,0,2.043958,1.7463398,0.30624792,-0.60955745,0.15930814,1.0186912,-0.07401047,-1.1118194,0.27371356,0.27826265,0.16265912,0.35452455,1.5608264,-1.9302115
-0.1,-0.2,0.7999999999999999,0.5235987755982988,0.5235987755982988,0,1.9810399,1.7619252,0.20637693,-0.6184347,0.2935097,1.2118644,-0.23165314,-1.1014223,0.27879143,0.28260586,0.13698003,0.3520033,1.5660077,-1.9133699
-0.1,-0.2,0.7999999999999999,0.5235987755982988,0.5235987755982988,0,2.0020132,1.759077,0.28081834,-0.74529344,0.1455674,1.3951002,0.14828552,-1.1147243,0.28538582,0.29633924,0.16708457,0.3634461,1.5674603,-1.9203697
-0.1,-0.2,0.7999999999999999,0.5235987755982988,0.5235987755982988,0,1.9222702,1.7045947,0.37389436,-0.5320629,0.23804532,1.0206484,0.07271374,-1.1356385,0.26900098,0.26160163,0.115592875,0.35781974,1.5609207,-1.945776
-0.1,-0.2,0.7999999999999999,0.5235987755982988,0.5235987755982988,0,2.0780134,1.785532,0.18174773,-0.5976125,0.16854651,1.1449379,0.23413895,-1.1083739,0.2689124,0.27575332,0.15865842,0.3264145,1.5604944,-1.9280294
-0.1,-0.2,0.7999999999999999,0.5235987755982988,0.5235987755982988,0,2.0291522,1.7315432,0.32819882,-0.6629386,0.25696188,1.0381799,-0.18968362,-1.1608261,0.27925637,0.26925683,0.19330227,0.34077677,1.5601794,-1.9404701
-0.1,-0.2,0.7999999999999999,0.5235987755982988,0.5235987755982988,0,1.9977038,1.6779561,0.36738083,-0.59490275,0.21282583,1.0148531,0.51794165,-1.1628014,0.283761,0.2675516,0.16063754,0.3778784,1.561709,-1.9236864
-0.1,-0.2,0.7999999999999999,0.5235987755982988,0.5235987755982988,0,2.0139194,1.6640853,0.38739178,-0.5232117,0.065186076,0.9428838,0.119240716,-1.0811771,0.26900724,0.30513486,0.1855843,0.37712955,1.5630877,-1.9421031
-0.1,-0.2,0.7999999999999999,0.5235987755982988,0.5235987755982988,0,2.043932,1.7961804,0.22948295,-0.63024575,0.2917897,1.2427164,0.37865955,-1.1209121,0.26754,0.2821143,0.1752837,0.35572007,1.5616503,-1.9249718
-0.1,-0.2,0.7999999999999999,0.5235987755982988,0.5235987755982988,0,2.053816,1.825137,0.1853129,-0.5086075,0.16225584,1.1499135,0.20099184,-1.1297134,0.26677522,0.2697833,0.13420285,0.3564642,1.5638814,-1.9231511
-0.1,-0.2,0.7999999999999999,0.5235987755982988,0.5235987755982988,0,2.0004666,1.7566631,0.31487283,-0.7108236,0.25358334,1.213037,0.31172588,-1.1196241,0.27215347,0.26098678,0.13542686,0.38245577,1.5619501,-1.9101022
-0.1,-0.2,0.7999999999999999,0.5235987755982988,0.5235987755982988,0,2.1437018,1.6923131,0.22849187,-0.5321259,-0.020257182,0.9751301,-0.10859003,-1.130063,0.28969216,0.28624153,0.11938444,0.34907177,1.567688,-1.9475958
-0.1,-0.2,0.7999999999999999,0.5235987755982988,0.5235987755982988,0,1.9543678,1.8589243,0.3385113,-0.6569566,0.28641677,1.0479409,0.20713057,-1.1638634,0.27365583,0.26982147,0.18347447,0.33870652,1.56381,-1.9279002
-0.1,-0.2,0.7999999999999999,0.5235987755982988,0.5235987755982988,0,2.0193298,1.819784,0.36065146,-0.6772466,0.12538053,0.99040955,0.15554942,-1.074411,0.2802777,0.27809116,0.15910476,0.35618934,1.5586123,-1.9415729
-0.1,-0.2,0.7999999999999999,0.5235987755982988,0.5235987755982988,0,2.0707586,1.8136588,0.32482696,-0.6621334,0.21780361,1.088692,-0.65642345,-1.1330565,0.29262108,0.28018916,0.18830948,0.35562164,1.5592405,-1.914066
-0.1,-0.2,0.7999999999999999,0.5235987755982988,0.5235987755982988,0,1.9339098,1.8070258,0.2685506,-0.5857499,0.19198215,1.2522408,0.12829794,-1.0838739,0.27069843,0.29126745,0.16060309,0.35432503,1.5594866,-1.9455813
-0.1,-0.2,0.7999999999999999,0.5235987755982988,0.5235987755982988,0,2.0560815,1.6849018,0.31936827,-0.6529206,0.20171583,1.1353263,0.3074236,-1.0790077,0.2748326,0.2853943,0.13820839,0.31778458,1.5646232,-1.9377109
-0.1,-0.2,0.7999999999999999,0.5235987755982988,0.5235987755982988,0,1.9707601,1.8028967,0.3913216,-0.7119058,0.17162056,1.1975877,0.6225411,-1.097205,0.2566933,0.28359255,0.24562702,0.35596147,1.5649348,-1.9297067
-0.1,-0.2,0.7999999999999999,0.5235987755982988,0.5235987755982988,0,1.9493492,1.8226101,0.3147737,-0.62852556,0.19650182,1.2410606,0.50146574,-1.1505523,0.28391507,0.27288774,0.18780486,0.35344258,1.5617126,-1.9323543
-0.1,-0.2,0.7999999999999999,0.5235987755982988,0.5235987755982988,0,2.1540253,1.7017778,0.2378075,-0.74394524,0.011838831,1.2822548,0.3404871,-1.0752802,0.27850166,0.29344672,0.1590082,0.33558148,1.5633701,-1.9288245
-0.1,-0.2,0.7999999999999999,0.5235987755982988,0.5235987755982988,0,1.9139218,1.7845742,0.36067027,-0.54466224,0.10953755,1.0528413,-0.19330758,-1.124184,0.27778193,0.2688463,0.19171229,0.3729535,1.5623213,-1.9184836
-0.1,-0.2,0.7999999999999999,0.5235987755982988,0.5235987755982988,0,2.0305612,1.7215774,0.26377347,-0.59783137,0.30626348,1.0785595,-0.15627465,-1.0830667,0.26295272,0.2534476,0.1476225,0.33245263,1.5683682,-1.9191399
-0.1,-0.2,0.7999999999999999,0.5235987755982988,0.5235987755982988,0,1.9678986,1.7694461,0.2725732,-0.554575,0.30964327,1.0056152,0.025109157,-1.0924665,0.27624366,0.28888306,0.13044561,0.34641525,1.5642478,-1.9181126
-0.1,-0.2,0.7999999999999999,0.5235987755982988,0.5235987755982988,0,2.0377147,1.783973,0.2721515,-0.52964216,0.021984262,0.9539733,-0.15341355,-1.1009301,0.25879768,0.26003325,0.17759255,0.37336674,1.5613643,-1.9444771
-0.1,-0.2,0.7999999999999999,0.5235987755982988,0.5235987755982988,0,2.07577,1.7512195,0.31698343,-0.6518298,0.19967161,0.9977078,0.14688835,-1.085744,0.27675173,0.28499782,0.20054507,0.35857004,1.568433,-1.9330157
-0.1,-0.2,0.7999999999999999,0.5235987755982988,0.5235987755982988,0,2.0604267,1.7022158,0.28987423,-0.6270469,0.08941687,1.1659056,0.11060854,-1.1260084,0.25542238,0.30063173,0.22536619,0.35697022,1.5633131,-1.9351999
-0.1,-0.2,0.7999999999999999,0.5235987755982988,0.5235987755982988,0,2.0189028,1.6895305,0.30893856,-0.59075284,0.0538521,1.1430668,-0.27688685,-1.0967366,0.27125657,0.27290934,0.15877761,0.32856423,1.5624132,-1.9313124
-0.1,-0.2,0.7999999999999999,0.5235987755982988,0.5235987755982988,0,2.089531,1.7454754,0.32898438,-0.60550916,0.24117726,0.99728346,-0.13119332,-1.1053925,0.2613975,0.2879127,0.13352641,0.33717465,1.5652893,-1.9335959
-0.1,-0.2,0.7999999999999999,0.5235987755982988,0.5235987755982988,0,2.0977368,1.8770424,0.34452757,-0.7719699,0.16470805,1.0540403,-0.11383849,-1.1486895,0.2717253,0.27423388,0.1342975,0.3519617,1.5628073,-1.9273416
-0.1,-0.2,0.7999999999999999,0.5235987755982988,0.5235987755982988,0,2.0371268,1.7249601,0.300087,-0.6533595,0.03837426,1.2571341,-0.17967515,-1.1207526,0.2830951,0.27978286,0.24814917,0.35818705,1.5616081,-1.941606
-0.1,-0.2,0.7999999999999999,0.5235987755982988,0.5235987755982988,0,1.9576492,1.8353528,0.33808103,-0.70614356,0.28000814,1.3334018,-0.060923442,-1.1501689,0.27977738,0.28136387,0.19134514,0.34481013,1.5661902,-1.9215609
-0.1,-0.2,0.7999999999999999,0.5235987755982988,0.5235987755982988,0,2.002131,1.7838283,0.3003636,-0.60301954,0.20957597,0.9698717,0.45579764,-1.1352549,0.2749216,0.28899562,0.14805096,0.35641477,1.5653229,-1.879585
-0.1,-0.2,0.7999999999999999,0.5235987755982988,0.5235987755982988,0,2.0654695,1.7907861,0.30148974,-0.71926033,0.17112367,1.1297671,-0.29424798,-1.1074188,0.27680165,0.276112,0.14252704,0.3684128,1.5599577,-1.9179612
-0.1,-0.2,0.7999999999999999,0.5235987755982988,0.5235987755982988,0,1.9893483,1.8351811,0.2592582,-0.65283394,0.21171176,1.0959685,0.28456786,-1.1206074,0.26508012,0.29424006,0.1581697,0.35038033,1.5608019,-1.9380428
-0.1,-0.2,0.7999999999999999,0.5235987755982988,0.5235987755982988,0,2.0318413,1.8190724,0.33713827,-0.5789107,0.02175734,1.060487,0.01030673,-1.1172128,0.26609018,0.30267307,0.16286077,0.36063004,1.5646176,-1.9233289
-0.1,-0.2,0.7999999999999999,0.5235987755982988,0.5235987755982988,0,2.095054,1.6767697,0.29045892,-0.6112373,0.13756849,1.0051855,-0.031607613,-1.1712208,0.29010755,0.28992465,0.15864734,0.3968873,1.5604221,-1.9061996
-0.1,-0.2,0.7999999999999999,0.5235987755982988,0.5235987755982988,0,2.0649304,1.7673371,0.3253524,-0.6698033,0.0546611,1.1070143,0.054675177,-1.1392847,0.26572132,0.28232947,0.14548853,0.36147726,1.5658071,-1.9194438
-0.1,-0.2,0.7999999999999999,0.5235987755982988,0.5235987755982988,0,1.968716,1.790107,0.27032572,-0.6418186,0.23508158,1.2817391,0.21343622,-1.1326288,0.2689164,0.29510108,0.1972635,0.3648324,1.5656117,-1.9299492
-0.1,-0.2,0.7999999999999999,0.5235987755982988,0.5235987755982988,0,2.0913508,1.7264936,0.2135316,-0.62695116,0.24349116,1.173818,-0.16932628,-1.1041702,0.26782975,0.30479822,0.14699592,0.3621668,1.5615231,-1.9307218
-0.1,-0.2,0.7999999999999999,0.5235987755982988,0.5235987755982988,0,1.9773521,1.7878462,0.1735585,-0.54455924,0.419732,1.0275152,0.040394872,-1.1342081,0.2754737,0.29683116,0.14725862,0.33391106,1.5640798,-1.9194757
-0.1,-0.2,0.7999999999999999,0.5235987755982988,0.5235987755982988,0,2.0857954,1.7331525,0.26225108,-0.6720788,0.13408126,1.017865,0.3451735,-1.1439613,0.26945028,0.28661978,0.1438032,0.35216564,1.5615274,-1.929916
-0.1,-0.2,0.7999999999999999,0.5235987755982988,0.5235987755982988,0,2.037928,1.7662245,0.3420573,-0.5616219,-0.0022844514,1.0765996,0.13774903,-1.0473707,0.270474,0.27434087,0.16841498,0.335865,1.563897,-1.9180968
-0.1,-0.2,0.7999999999999999,0.5235987755982988,0.5235987755982988,0,2.0233889,1.7954283,0.29225904,-0.6701368,0.14416318,1.256963,0.43252465,-1.1103164,0.26320726,0.27652663,0.16914307,0.39719826,1.5632689,-1.9417324
-0.1,-0.2,0.7999999999999999,0.5235987755982988,0.5235987755982988,0,2.0678895,1.8274491,0.36835268,-0.6354036,0.0014647894,1.0811485,0.12495036,-1.1325448,0.28021625,0.27977377,0.22384739,0.37277102,1.5678339,-1.9362979
-0.1,-0.2,0.7999999999999999,0.5235987755982988,0.5235987755982988,0,2.032634,1.7858682,0.25519374,-0.5168112,0.20966475,1.0173333,-0.08119924,-1.1245756,0.27021405,0.28821346,0.20102365,0.32464284,1.5646704,-1.9323269
-0.1,-0.2,0.7999999999999999,0.5235987755982988,0.5235987755982988,0,1.9932438,1.7163486,0.39054927,-0.5567647,0.2822063,0.97262454,0.02708531,-1.1127802,0.2606198,0.2899724,0.1300679,0.34851187,1.5643877,-1.9127191
-0.1,-0.2,0.7999999999999999,0.5235987755982988,0.5235987755982988,0,1.9724053,1.7447022,0.29540968,-0.55740905,0.36645317,1.0017192,0.50927967,-1.1142617,0.2595987,0.28569028,0.22413562,0.3170506,1.5628409,-1.9359742
-0.1,-0.2,0.7999999999999999,0.5235987755982988,0.5235987755982988,0,2.0376475,1.7424189,0.36369035,-0.5961277,0.21895938,0.98883444,0.14726746,-1.1131854,0.27166206,0.28992456,0.15137203,0.33975247,1.5608357,-1.9486188
-0.1,-0.2,0.7999999999999999,0.5235987755982988,0.5235987755982988,0,2.0475256,1.6790738,0.39644456,-0.5869946,-0.09469969,1.0774088,0.425298,-1.1029637,0.26863578,0.28024152,0.23197493,0.32695296,1.5609163,-1.9354879
-0.1,-0.2,0.7999999999999999,0.5235987755982988,0.5235987755982988,0,2.0780933,1.7903695,0.2972661,-0.6393722,0.22216904,1.0200666,0.28932565,-1.1083587,0.2725311,0.28257528,0.16677503,0.37839597,1.5591099,-1.9419109
-0.1,-0.2,0.7999999999999999,0.5235987755982988,0.5235987755982988,0,2.0089653,1.8209822,0.3661859,-0.66133213,0.14831236,1.0140871,-0.30088437,-1.1258215,0.2630631,0.27816454,0.19918819,0.348824,1.5597632,-1.9265279
-0.1,-0.2,0.7999999999999999,0.5235987755982988,0.5235987755982988,0,2.1169326,1.7181681,0.3350152,-0.69263935,0.19448002,1.0794942,0.09718743,-1.1414759,0.27184343,0.2845046,0.17414272,0.33477408,1.5627464,-1.943136
-0.1,-0.2,0.7999999999999999,0.5235987755982988,0.5235987755982988,0,1.9870727,1.7826447,0.26406664,-0.6091528,0.13977054,1.0827353,0.18880902,-1.1302652,0.28631794,0.27546722,0.1556744,0.3613743,1.5631402,-1.9332762
-0.1,-0.2,0.7999999999999999,0.5235987755982988,0.5235987755982988,0,2.030167,1.683061,0.27390704,-0.514112,0.014429233,1.106781,0.056425937,-1.1388584,0.27069828,0.28670162,0.16200861,0.32836738,1.562309,-1.9269152
-0.1,-0.2,0.7999999999999999,0.5235987755982988,0.5235987755982988,0,2.025696,1.6817172,0.44330248,-0.5531595,0.12408232,0.9090412,-0.14511994,-1.0937016,0.29462025,0.2637806,0.14325722,0.37068817,1.5663874,-1.9191349
-0.1,-0.2,0.7999999999999999,0.5235987755982988,0.5235987755982988,0,2.1078146,1.6873546,0.36547655,-0.58043796,0.05999179,0.9460111,-0.079109505,-1.1249944,0.28214228,0.29482618,0.15193619,0.35164693,1.5692391,-1.9488422
-0.1,-0.2,0.7999999999999999,0.5235987755982988,0.5235987755982988,0,2.0267565,1.7839478,0.3443202,-0.6076058,0.33198956,1.0613747,0.1155239,-1.0948112,0.2720651,0.27859426,0.21805447,0.3539168,1.5614883,-1.9021297
-0.1,-0.2,0.7999999999999999,0.5235987755982988,0.5235987755982988,0,2.0396447,1.8531829,0.28330806,-0.5965352,0.20902288,1.0681489,-0.055007406,-1.0965382,0.26987144,0.28999743,0.21076176,0.3478569,1.5605619,-1.9138279
-0.1,-0.2,0.7999999999999999,0.5235987755982988,0.5235987755982988,0,2.0324755,1.7473625,0.342895,-0.60450155,0.06503722,1.0044825,0.17619634,-1.1223532,0.27804333,0.30198678,0.14988416,0.3370893,1.565235,-1.9300736
-0.1,-0.2,0.7999999999999999,0.5235987755982988,0.5235987755982988,0,1.9027426,1.7684797,0.35530522,-0.4736963,0.14249623,1.0463029,0.08818564,-1.0988661,0.2660919,0.2859205,0.21852772,0.35017622,1.5642185,-1.933781
-0.1,-0.2,0.7999999999999999,0.5235987755982988,0.5235987755982988,0,2.033667,1.8537673,0.24265906,-0.61048025,0.15520732,1.0659599,0.18559797,-1.1264442,0.2640856,0.27924448,0.13086046,0.33426654,1.5657766,-1.9398663
-0.1,-0.2,0.7999999999999999,0.5235987755982988,0.5235987755982988,0,1.9716133,1.6661965,0.29051816,-0.47591132,0.062891975,1.1567965,0.21117309,-1.0996699,0.29223427,0.28092647,0.107594416,0.33229053,1.5600576,-1.9254395
-0.1,-0.2,0.7999999999999999,0.5235987755982988,0.5235987755982988,0,1.9257597,1.7917696,0.36725053,-0.5079638,0.19418679,1.0467497,0.34761423,-1.109603,0.2700562,0.2882733,0.18720055,0.35455072,1.5599163,-1.941938
-0.1,-0.2,0.7999999999999999,0.5235987755982988,0.5235987755982988,0,2.1571815,1.7529141,0.25927857,-0.6580594,0.21791928,0.980137,-0.051694628,-1.1197157,0.2796133,0.26193374,0.16361563,0.309367,1.5672514,-1.9314821
-0.1,-0.2,0.7999999999999999,0.5235987755982988,0.5235987755982988,0,2.0844812,1.6973653,0.37465766,-0.5705509,-0.1118483,1.0076926,0.5992765,-1.1066868,0.26738134,0.25766575,0.18553612,0.36388335,1.5628666,-1.9321303
-0.1,-0.2,0.7999999999999999,0.5235987755982988,0.5235987755982988,0,1.933707,1.8030038,0.44693238,-0.63066965,0.2980107,1.121263,0.2637787,-1.2082545,0.2448377,0.26153255,0.14055783,0.30612138,1.5630429,-1.9214551
-0.1,-0.2,0.7999999999999999,0.5235987755982988,0.5235987755982988,0,2.0601187,1.7653258,0.4054003,-0.66965014,0.102347665,1.0631431,0.14599018,-1.117651,0.27138835,0.28936747,0.15226845,0.3516404,1.558224,-1.9086443
-0.1,-0.2,0.7999999999999999,0.5235987755982988,0.5235987755982988,0,2.1110692,1.6988149,0.26420245,-0.64012337,0.14396583,1.1809614,0.35643187,-1.0874316,0.2627586,0.2766764,0.17647858,0.34212664,1.5637608,-1.9045528
-0.1,-0.2,0.7999999999999999,0.5235987755982988,0.5235987755982988,0,2.043674,1.8382027,0.20147012,-0.60527265,0.43685678,1.1903809,0.16092096,-1.1326288,0.25242552,0.3008982,0.19474193,0.36851197,1.559247,-1.9094821
-0.1,-0.2,0.7999999999999999,0.5235987755982988,0.5235987755982988,0,2.0069432,1.8631097,0.37866002,-0.6827388,0.10999594,1.0609756,0.3507499,-1.1147751,0.26625758,0.30012196,0.14670078,0.30656976,1.5669744,-1.9262706
-0.1,-0.2,0.7999999999999999,0.5235987755982988,0.5235987755982988,0,1.9371296,1.8416406,0.35887703,-0.6310639,0.11341709,1.0607499,-0.4215864,-1.105665,0.28238997,0.30135772,0.18294224,0.33893475,1.5633154,-1.9269257
-0.1,-0.2,0.7999999999999999,0.5235987755982988,0.5235987755982988,0,1.9690657,1.7729765,0.23345293,-0.5196761,0.37927148,0.88408023,-0.04352957,-1.1316059,0.2576444,0.28023002,0.16545951,0.3302303,1.5641797,-1.9394587
-0.1,-0.2,0.7999999999999999,0.5235987755982988,0.5235987755982988,0,2.0179431,1.7778732,0.2686981,-0.5613439,0.055435453,1.0236647,0.39565814,-1.1029143,0.27623054,0.27281192,0.16972458,0.3499925,1.5637105,-1.9671434
-0.1,-0.2,0.7999999999999999,0.5235987755982988,0.5235987755982988,0,2.0093656,1.8412197,0.3755697,-0.66754484,0.1841347,1.023327,0.44416004,-1.0734184,0.26296237,0.26999062,0.21472995,0.37393212,1.5636209,-1.9486691
-0.1,-0.2,0.7999999999999999,0.5235987755982988,0.5235987755982988,0,2.0674078,1.783132,0.24960707,-0.6784986,0.22846626,1.0768594,0.2945468,-1.1296449,0.26599216,0.29141265,0.1859783,0.36013192,1.5647243,-1.9314929
-0.1,-0.2,0.7999999999999999,0.5235987755982988,0.5235987755982988,0,2.0366833,1.8019658,0.27530712,-0.6566074,0.109197885,1.1661174,0.07295326,-1.0783157,0.27221283,0.28446862,0.13343698,0.33752516,1.5587329,-1.9199141
-0.1,-0.2,0.7999999999999999,0.5235987755982988,0.5235987755982988,0,2.1290123,1.739184,0.4041148,-0.6882779,-0.017082848,1.0351542,0.18351892,-1.0970687,0.27837574,0.2700366,0.10082643,0.37891743,1.5645081,-1.9365016
-0.1,-0.2,0.7999999999999999,0.5235987755982988,0.5235987755982988,0,2.078296,1.7082299,0.19238533,-0.49192718,0.27057448,1.0514215,0.07026352,-1.1058933,0.26605913,0.29106462,0.26220873,0.33658716,1.5564611,-1.9264592
-0.1,-0.2,0.7999999999999999,0.5235987755982988,0.5235987755982988,0,2.0190926,1.8319091,0.3463241,-0.62165564,-0.0977251,1.1847675,0.12928712,-1.0721005,0.25879058,0.2685156,0.18695934,0.325881,1.5600129,-1.9313639
-0.1,-0.2,0.7999999999999999,0.5235987755982988,0.5235987755982988,0,2.0533206,1.7179483,0.34954068,-0.6500259,0.09937731,1.1454221,0.21673225,-1.1350626,0.259371,0.26961017,0.1347246,0.38525414,1.5607759,-1.9529755
-0.1,-0.2,0.7999999999999999,0.5235987755982988,0.5235987755982988,0,2.0220912,1.6664318,0.32108086,-0.55674165,0.42370743,1.0145285,-0.022748671,-1.1026324,0.2896558,0.29315862,0.16365927,0.33510548,1.5638542,-1.9487151
-0.1,-0.2,0.7999999999999999,0.5235987755982988,0.5235987755982988,0,2.0351179,1.8233738,0.23630857,-0.58450365,0.054197263,1.1982497,-0.12429198,-1.0984974,0.2584188,0.302925,0.14191781,0.3562963,1.5551324,-1.9394586
-0.1,-0.2,0.7999999999999999,0.5235987755982988,0.5235987755982988,0,2.003046,1.723413,0.3153468,-0.5498689,0.04974417,1.0983922,-0.022229677,-1.1027215,0.26480123,0.2886708,0.1042442,0.34767807,1.5630302,-1.9158355
-0.1,-0.2,0.7999999999999999,0.5235987755982988,0.5235987755982988,0,2.0835924,1.7183256,0.26173267,-0.6018683,0.04278318,1.0466386,0.56695783,-1.1195266,0.2723709,0.28264302,0.16336724,0.33565965,1.5701817,-1.9410669
-0.1,-0.2,0.7999999999999999,0.5235987755982988,0.5235987755982988,0,2.065634,1.7062868,0.28007224,-0.5490171,0.14663553,1.04521,-0.03399139,-1.1541406,0.2789583,0.29742855,0.13176742,0.3643912,1.5603316,-1.9025074
-0.1,-0.2,0.7999999999999999,0.5235987755982988,0.5235987755982988,0,2.0297608,1.7526712,0.36241758,-0.5958562,0.08127628,1.0241176,-0.024673697,-1.111125,0.25255248,0.2798247,0.15932335,0.34695506,1.561059,-1.9329361
-0.1,-0.2,0.7999999999999999,0.5235987755982988,0.5235987755982988,0,1.9180511,1.7554481,0.36293563,-0.46273008,0.06234725,0.97626865,0.10161366,-1.1358173,0.27789876,0.27664813,0.10671554,0.34757036,1.5654464,-1.9262491
-0.1,-0.2,0.7999999999999999,0.5235987755982988,0.5235987755982988,0,1.9042437,1.7818985,0.27853966,-0.48808584,0.21646203,1.0960727,0.49808395,-1.1375839,0.26859048,0.27424222,0.19802715,0.37649524,1.5663949,-1.9290873
-0.1,-0.2,0.7999999999999999,0.5235987755982988,0.5235987755982988,0,1.9660358,1.771184,0.3007406,-0.5271784,0.22580278,1.061921,-0.05186996,-1.0989254,0.27595943,0.2789094,0.15710904,0.34687197,1.5661371,-1.9383223
-0.1,-0.2,0.7999999999999999,0.5235987755982988,0.5235987755982988,0,1.9864225,1.765952,0.31454995,-0.5625224,0.26966682,1.0894226,0.21946697,-1.1409869,0.26491147,0.28455332,0.1596048,0.4092123,1.5592697,-1.9265448
-0.1,-0.2,0.7999999999999999,0.5235987755982988,0.5235987755982988,0,2.0672708,1.7463479,0.23799151,-0.56691986,0.12729363,1.1116165,0.05414637,-1.1281048,0.2761215,0.2740407,0.1449506,0.32608217,1.5628599,-1.9439554
-0.1,-0.2,0.7999999999999999,0.5235987755982988,0.5235987755982988,0,2.0303483,1.6828349,0.41416487,-0.6248171,0.20444731,1.1277957,0.0023664997,-1.1183618,0.26159972,0.2693906,0.19908103,0.33868384,1.5651784,-1.9213465
-0.1,-0.2,0.7999999999999999,0.5235987755982988,0.5235987755982988,0,2.0905988,1.7154973,0.19058885,-0.54912657,0.32140523,1.0155874,0.09432245,-1.110841,0.27581933,0.28125837,0.14991802,0.33300412,1.565956,-1.9251769
-0.1,-0.2,0.7999999999999999,0.5235987755982988,0.5235987755982988,0,2.0425053,1.7425884,0.225494,-0.5738248,0.23029749,1.1425092,0.034175437,-1.1287193,0.26170215,0.2631886,0.12499669,0.36950678,1.5634216,-1.9273175
-0.1,-0.2,0.7999999999999999,0.5235987755982988,0.5235987755982988,0,2.0763874,1.8469483,0.31273764,-0.6729986,0.21276046,1.080814,0.08421205,-1.1210374,0.26708618,0.2826292,0.14495018,0.38143042,1.557816,-1.9369687
-0.1,-0.2,0.7999999999999999,0.5235987755982988,0.5235987755982988,0,2.0062382,1.7429701,0.32817894,-0.60082746,0.08401137,1.1453527,0.17667063,-1.0936762,0.25036827,0.27625594,0.1073932,0.3524561,1.5671023,-1.9342384
-0.1,-0.2,0.7999999999999999,0.5235987755982988,0.5235987755982988,0,1.9860886,1.7391329,0.25064093,-0.5226117,0.07965686,1.1968604,0.31952822,-1.1196146,0.28274706,0.28091714,0.13906418,0.33762535,1.5572582,-1.9518644
-0.1,-0.2,0.7999999999999999,0.5235987755982988,0.5235987755982988,0,2.0310178,1.75999,0.2973327,-0.6500811,0.32684734,1.0800804,0.4465785,-1.1200403,0.27117658,0.29672235,0.21705474,0.36054236,1.564943,-1.9355263
-0.1,-0.2,0.7999999999999999,0.5235987755982988,0.5235987755982988,0,2.1027272,1.7053589,0.32892603,-0.6190403,0.11691028,0.9966965,-0.16231023,-1.0985789,0.28954026,0.2909456,0.22757418,0.32318863,1.563306,-1.9146683
-0.1,-0.2,0.7999999999999999,0.5235987755982988,0.5235987755982988,0,2.0782757,1.7375984,0.26745,-0.5743301,0.04624849,1.0519357,0.24510905,-1.1078008,0.27061322,0.26452875,0.21852791,0.36748013,1.55941,-1.9219068
-0.1,-0.2,0.7999999999999999,0.5235987755982988,0.5235987755982988,0,2.1082017,1.6941833,0.36884588,-0.5636868,-0.029963646,0.9450961,0.26655212,-1.0710553,0.26336217,0.2835449,0.18989827,0.3603067,1.5625758,-1.9064742
-0.1,-0.2,0.7999999999999999,0.5235987755982988,0.5235987755982988,0,2.0766242,1.8563497,0.30639902,-0.62692213,0.25561392,1.0104427,-0.38568407,-1.0910591,0.2664638,0.2527556,0.1020454,0.37761387,1.5601184,-1.9112444
-0.1,-0.2,0.7999999999999999,0.5235987755982988,0.5235987755982988,0,1.9648594,1.718637,0.3168722,-0.4916518,0.08981382,0.92437273,0.39384672,-1.1331731,0.2791837,0.28402376,0.18135604,0.35317758,1.5644326,-1.9238473
-0.1,-0.2,0.7999999999999999,0.5235987755982988,0.5235987755982988,0,2.031179,1.7140563,0.30261132,-0.6317515,0.31884488,1.1588321,-0.08255106,-1.1259987,0.2704077,0.29660276,0.1520845,0.3358952,1.5646515,-1.9086251
-0.1,-0.2,0.7999999999999999,0.5235987755982988,0.5235987755982988,0,2.0920568,1.8623495,0.30944094,-0.704005,0.13114093,1.1762098,0.1631652,-1.079771,0.2675099,0.28794482,0.22287136,0.34262964,1.5567914,-1.9328932
-0.1,-0.2,0.7999999999999999,0.5235987755982988,0.5235987755982988,0,2.034371,1.7062988,0.28893113,-0.49579546,0.27690196,0.9011408,0.004633042,-1.1157138,0.2833242,0.26943332,0.15409493,0.3471454,1.5587181,-1.9215442
-0.1,-0.2,0.7999999999999999,0.5235987755982988,0.5235987755982988,0,2.074887,1.8298929,0.25766963,-0.68955815,0.2269991,1.2114944,-0.12329172,-1.10532,0.2804179,0.2578572,0.13980345,0.3410176,1.5634942,-1.9125317
-0.1,-0.2,0.7999999999999999,0.5235987755982988,0.5235987755982988,0,2.0319936,1.8453519,0.33445624,-0.64777374,0.016720785,1.1668767,-0.0006982954,-1.1257969,0.27335262,0.28164956,0.1939785,0.35001388,1.560513,-1.9254034
-0.1,-0.2,0.7999999999999999,0.5235987755982988,0.5235987755982988,0,2.037536,1.7605268,0.2893546,-0.538005,0.14673424,1.0042715,-0.039595313,-1.1012571,0.2794917,0.29570264,0.19487332,0.3219742,1.5642028,-1.9422762
-0.1,-0.2,0.7999999999999999,0.5235987755982988,0.5235987755982988,0,1.9414886,1.813888,0.3626371,-0.56036824,0.22512619,1.0550998,0.08481535,-1.1267934,0.2662533,0.26128066,0.1477208,0.32651544,1.5655689,-1.920507
-0.1,-0.2,0.7999999999999999,0.5235987755982988,0.5235987755982988,0,1.9826074,1.7605484,0.37238806,-0.53177005,0.041201986,0.97617376,0.4683376,-1.1189996,0.27248472,0.2859013,0.19374417,0.34135327,1.5653099,-1.9349318
-0.1,-0.2,0.7999999999999999,0.5235987755982988,0.5235987755982988,0,2.0535872,1.7999396,0.27872404,-0.6083784,0.23304656,1.0786742,-0.19249329,-1.102141,0.29150572,0.2800291,0.16912402,0.37540713,1.5651606,-1.9308496
-0.1,-0.2,0.7999999999999999,0.5235987755982988,0.5235987755982988,0,2.1727912,1.6854305,0.31423235,-0.6925967,0.2284895,1.1098257,0.2843985,-1.1507747,0.2723023,0.28247026,0.17235589,0.35693443,1.5665174,-1.9227432
-0.1,-0.2,0.7999999999999999,0.5235987755982988,0.5235987755982988,0,1.9892547,1.7452724,0.3090128,-0.4902908,0.18536271,0.9683412,-0.015866067,-1.1227341,0.28699324,0.27053636,0.18526955,0.36597434,1.5582922,-1.9340302
-0.1,-0.2,0.7999999999999999,0.5235987755982988,0.5235987755982988,0,2.0751274,1.7496034,0.35235885,-0.6104972,0.07089184,1.0133542,0.28724086,-1.1266754,0.28978464,0.29282752,0.19613884,0.30682525,1.5631582,-1.9389158
-0.1,-0.2,0.7999999999999999,0.5235987755982988,0.5235987755982988,0,2.0614526,1.7228593,0.30431274,-0.6285691,0.32506973,1.126895,0.17944144,-1.130764,0.2673326,0.26903355,0.20517595,0.34689906,1.5618674,-1.9032204
-0.1,-0.2,0.7999999999999999,0.5235987755982988,0.5235987755982988,0,2.128427,1.7905827,0.20327069,-0.5671637,0.30437097,1.0196002,0.38477755,-1.071749,0.29004416,0.2922059,0.1933462,0.34901407,1.5645405,-1.9382088
-0.1,-0.2,0.7999999999999999,0.5235987755982988,0.5235987755982988,0,1.9716625,1.8099047,0.37730733,-0.657032,0.12818487,1.0767214,0.3554468,-1.1157197,0.27567372,0.26012376,0.18380332,0.34213135,1.5618954,-1.9393849
-0.1,-0.2,0.7999999999999999,0.5235987755982988,0.5235987755982988,0,2.0835836,1.7098999,0.22104928,-0.54749066,0.11736067,1.1135467,0.08857037,-1.1062964,0.2862417,0.26555356,0.1826111,0.33220267,1.5601127,-1.9220943
-0.1,-0.2,0.7999999999999999,0.5235987755982988,0.5235987755982988,0,2.0344632,1.7879423,0.2574091,-0.6186992,0.21036462,1.1510149,0.29240608,-1.1374711,0.27469555,0.26101816,0.22101314,0.3434088,1.5583178,-1.9448999
-0.1,-0.2,0.7999999999999999,0.5235987755982988,0.5235987755982988,0,2.0339432,1.7114013,0.2533673,-0.56915754,0.14335074,1.1457293,0.59819776,-1.1405866,0.27757224,0.30535656,0.15835223,0.34826672,1.5621842,-1.9098184
-0.1,-0.2,0.7999999999999999,0.5235987755982988,0.5235987755982988,0,2.0289772,1.7650235,0.26732847,-0.58024293,0.10706866,1.0931491,0.3823652,-1.113365,0.27172956,0.29671714,0.20401503,0.33050406,1.5644262,-1.9010886
-0.1,-0.2,0.7999999999999999,0.5235987755982988,0.5235987755982988,0,2.1171885,1.7319138,0.27203658,-0.50407463,0.095420934,0.9171083,0.70034844,-1.0904502,0.26751545,0.2585061,0.16148525,0.36146238,1.557854,-1.9364868
-0.1,-0.2,0.7999999999999999,0.5235987755982988,0.5235987755982988,0,2.0385158,1.8119612,0.23624259,-0.5556038,0.18555206,1.0330912,-0.06824698,-1.1436667,0.26988348,0.28042704,0.21602765,0.34442693,1.5601898,-1.9098264
-0.1,-0.2,0.7999999999999999,0.5235987755982988,0.5235987755982988,0,1.9839699,1.8349011,0.37771946,-0.57411087,0.039335065,1.0336623,-0.057408728,-1.1218388,0.28633758,0.27131915,0.13676329,0.36399212,1.5647908,-1.9044781
-0.1,-0.2,0.7999999999999999,0.5235987755982988,0.5235987755982988,0,2.0360432,1.6851594,0.31908554,-0.5575847,0.3137563,1.0463911,0.13769192,-1.1433119,0.26386437,0.2946787,0.16962443,0.3348675,1.5606807,-1.9176834
-0.1,-0.2,0.7999999999999999,0.5235987755982988,0.5235987755982988,0,1.878706,1.7737339,0.38612872,-0.49312723,0.08759459,1.0047357,-0.17632128,-1.0801117,0.27629822,0.28185335,0.16154204,0.33890638,1.5588086,-1.9241072
-0.1,-0.2,0.7999999999999999,0.5235987755982988,0.5235987755982988,0,2.00983,1.6764402,0.381562,-0.54446155,0.16873457,1.0254622,0.1694284,-1.1310498,0.27508098,0.26046076,0.1508113,0.33804595,1.5658729,-1.9363291
-0.1,-0.2,0.7999999999999999,0.5235987755982988,0.5235987755982988,0,2.1329834,1.7838644,0.26850578,-0.78518265,0.1948127,1.2753171,0.33547992,-1.117201,0.2761954,0.2882438,0.19602828,0.34975997,1.5604036,-1.9631698
-0.1,-0.2,0.7999999999999999,0.5235987755982988,0.5235987755982988,0,1.9596037,1.8267483,0.30105206,-0.5584418,0.192009,1.0628102,0.09677871,-1.1132196,0.26677057,0.26174295,0.19208038,0.34885257,1.5600771,-1.9200197
-0.1,-0.2,0.7999999999999999,0.5235987755982988,0.5235987755982988,0,2.024056,1.8124853,0.3602286,-0.6136239,0.15548898,1.0028913,0.48815447,-1.1260235,0.26943654,0.27322787,0.13111508,0.33747655,1.56151,-1.9263265
-0.1,-0.2,0.7999999999999999,0.5235987755982988,0.5235987755982988,0,2.0484934,1.8197818,0.27741528,-0.5705047,0.0612279,1.088109,0.28538322,-1.150503,0.27462,0.26676866,0.16522492,0.3524849,1.5660998,-1.925678
-0.1,-0.2,0.7999999999999999,0.5235987755982988,0.5235987755982988,0,1.9811997,1.7728796,0.38411385,-0.6481982,0.06118218,1.179706,-0.20052503,-1.130421,0.26505536,0.26714173,0.19001433,0.37242067,1.5678949,-1.9230847
-0.1,-0.2,0.7999999999999999,0.5235987755982988,0.5235987755982988,0,2.0569441,1.7828655,0.2904002,-0.6368886,0.35389984,1.0809116,0.20039336,-1.0972292,0.2639604,0.27038476,0.19202402,0.33879542,1.5596576,-1.9481261
-0.1,-0.2,0.7999999999999999,0.5235987755982988,0.5235987755982988,0,2.1537452,1.6955527,0.28801307,-0.66607934,0.23576431,1.104783,-0.14769399,-1.1015182,0.27163526,0.28594998,0.17289448,0.37903133,1.5601568,-1.9557155
-0.1,-0.2,0.7999999999999999,0.5235987755982988,0.5235987755982988,0,2.0017,1.798799,0.31194022,-0.6404869,0.14176771,1.2630787,0.17455523,-1.0680836,0.2529009,0.2759878,0.11468369,0.35033622,1.5664445,-1.8913124
-0.1,-0.2,0.7999999999999999,0.5235987755982988,0.5235987755982988,0,1.9082098,1.8328567,0.42829707,-0.5393837,0.25791004,0.99045545,0.31757095,-1.135734,0.2727428,0.277856,0.2100625,0.32432264,1.5683335,-1.9242224
-0.1,-0.2,0.7999999999999999,0.5235987755982988,0.5235987755982988,0,2.011571,1.7663043,0.27537102,-0.5719233,0.3189177,1.0959069,0.06633083,-1.1423265,0.27883896,0.27497476,0.12652957,0.36286083,1.5658586,-1.9188851
-0.1,-0.2,0.7999999999999999,0.5235987755982988,0.5235987755982988,0,1.9913865,1.7561707,0.32256436,-0.5597877,0.13449505,1.0905432,0.26338384,-1.1274084,0.28121766,0.3035836,0.18058605,0.3573068,1.5619752,-1.9399141
-0.1,-0.2,0.7999999999999999,0.5235987755982988,0.5235987755982988,0,2.0326273,1.7819451,0.2525109,-0.48800376,0.23103525,1.0011139,0.48050088,-1.104645,0.27278784,0.2872454,0.15793401,0.3613416,1.5595812,-1.9407762
-0.1,-0.2,0.7999999999999999,0.5235987755982988,0.5235987755982988,0,2.2802093,1.7155896,0.22071898,-0.617676,0.2321075,0.94943887,0.08603143,-1.1376544,0.28548926,0.27989766,0.12012416,0.3418315,1.564688,-1.9111913
-0.1,-0.2,0.7999999999999999,0.5235987755982988,0.5235987755982988,0,1.9962305,1.7345271,0.2957416,-0.58292377,0.15794854,1.1572405,0.2104336,-1.1141804,0.27530223,0.2960198,0.19668642,0.38059253,1.5678443,-1.9457709
-0.1,-0.2,0.7999999999999999,0.5235987755982988,0.5235987755982988,0,2.0035803,1.7906616,0.2903902,-0.603886,0.28205755,1.1370653,-0.06516847,-1.1318206,0.2711448,0.28540096,0.12213551,0.3399167,1.5657536,-1.9271708
-0.1,-0.2,0.7999999999999999,0.5235987755982988,0.5235987755982988,0,2.0462675,1.7614721,0.27909148,-0.62922055,0.14931947,1.1810834,-0.06920422,-1.110389,0.27733725,0.28032923,0.19146246,0.36863825,1.5630947,-1.9381028
-0.1,-0.2,0.7999999999999999,0.5235987755982988,0.5235987755982988,0,2.1485214,1.8067414,0.29465875,-0.6561184,0.12761381,0.9946141,0.57752746,-1.1368214,0.27657428,0.2759631,0.14579906,0.3527177,1.558867,-1.932899
-0.1,-0.2,0.7999999999999999,0.5235987755982988,0.5235987755982988,0,1.9127834,1.9036133,0.28449684,-0.6441955,0.27605465,1.0717357,0.28779268,-1.10658,0.28913468,0.26328093,0.15615885,0.33755687,1.5635096,-1.930321
-0.1,-0.2,0.7999999999999999,0.5235987755982988,0.5235987755982988,0,1.9906442,1.7966737,0.3423884,-0.56614566,0.1656096,1.0075395,0.507091,-1.094822,0.2612741,0.301074,0.17711999,0.295132,1.5648054,-1.9051923
-0.1,-0.2,0.7999999999999999,0.5235987755982988,0.5235987755982988,0,1.9191166,1.8011504,0.4113221,-0.538339,-0.095906004,1.1533523,0.40640852,-1.1473019,0.2784697,0.28456175,0.19897032,0.31056318,1.5626414,-1.9235852
-0.1,-0.2,0.7999999999999999,0.5235987755982988,0.5235987755982988,0,2.0648797,1.7476649,0.35643414,-0.60100794,0.11376316,1.0383298,0.3673525,-1.1125587,0.2809922,0.25921667,0.22109713,0.3594971,1.5626605,-1.9455595
-0.1,-0.2,0.7999999999999999,0.5235987755982988,0.5235987755982988,0,2.0750437,1.7199348,0.23607391,-0.5566005,0.34815133,1.0017611,0.4631327,-1.1222131,0.27731663,0.28371626,0.16090187,0.36934638,1.5676726,-1.9177201
-0.1,-0.2,0.7999999999999999,0.5235987755982988,0.5235987755982988,0,2.0602255,1.6782614,0.28138113,-0.55575055,0.24789192,1.0669377,0.23050769,-1.13639,0.27490962,0.25483775,0.16305457,0.36366624,1.5595293,-1.9373494
-0.1,-0.2,0.7999999999999999,0.5235987755982988,0.5235987755982988,0,2.0854807,1.8174382,0.292251,-0.68072164,0.2497579,1.1024158,-0.23011585,-1.1049292,0.2849179,0.253017,0.1787215,0.34464538,1.5680699,-1.9248216
-0.1,-0.2,0.7999999999999999,0.5235987755982988,0.5235987755982988,0,2.0396438,1.792589,0.3656201,-0.59980124,0.060932115,1.0154763,-0.061805654,-1.0819417,0.27095544,0.27573,0.16344002,0.34044132,1.5648036,-1.91182
-0.1,-0.2,0.7999999999999999,0.5235987755982988,0.5235987755982988,0,2.1045358,1.796151,0.31464788,-0.6750811,0.23374474,1.1016855,-0.055415343,-1.088109,0.2695662,0.29123664,0.11578708,0.3307519,1.5607196,-1.9197519
-0.1,-0.2,0.7999999999999999,0.5235987755982988,0.5235987755982988,0,2.0866652,1.7412716,0.33906287,-0.6791818,0.34719032,1.0894257,-0.48937657,-1.1057676,0.2600246,0.2578692,0.1444868,0.3656631,1.5641663,-1.9264332
-0.1,-0.2,0.7999999999999999,0.5235987755982988,0.5235987755982988,0,2.015044,1.7494626,0.3159939,-0.5839939,0.25370288,1.1404159,0.061310507,-1.1009442,0.27395654,0.2577333,0.22258985,0.32644328,1.5681396,-1.9453964
-0.1,-0.2,0.7999999999999999,0.5235987755982988,0.5235987755982988,0,2.0666761,1.7674352,0.36164343,-0.6844949,0.17637385,1.1847982,-0.25173336,-1.1208051,0.28823036,0.2881394,0.18771727,0.3581799,1.5631024,-1.9346242
-0.1,-0.2,0.7999999999999999,0.5235987755982988,0.5235987755982988,0,2.017883,1.7642404,0.2983082,-0.520037,0.31214648,0.99703497,-0.0027473813,-1.174854,0.26344833,0.26387557,0.16484608,0.32498145,1.5656563,-1.9114156
-0.1,-0.2,0.7999999999999999,0.5235987755982988,0.5235987755982988,0,2.088485,1.7066684,0.33223164,-0.5389867,0.10590918,1.0057696,0.107915826,-1.1444079,0.27395374,0.27100956,0.20359448,0.35684332,1.561061,-1.9092613
-0.1,-0.2,0.7999999999999999,0.5235987755982988,0.5235987755982988,0,2.08313,1.7052846,0.32922816,-0.59620905,0.11630249,1.065996,0.20599405,-1.0874277,0.27079597,0.2707101,0.16019021,0.32616493,1.5609679,-1.921306
-0.1,-0.2,0.7999999999999999,0.5235987755982988,0.5235987755982988,0,1.8406252,1.7667638,0.353925,-0.4302267,0.20626381,1.0212163,-0.4145274,-1.1170758,0.2687182,0.269808,0.17013755,0.33859232,1.5621438,-1.928432
-0.1,-0.2,0.7999999999999999,0.5235987755982988,0.5235987755982988,0,2.0523558,1.6815765,0.37404105,-0.540156,0.14436388,0.9529573,0.1013947,-1.1359094,0.26772732,0.2790745,0.15518859,0.34604773,1.5602689,-1.9443417
-0.1,-0.2,0.7999999999999999,0.5235987755982988,0.5235987755982988,0,2.0636528,1.807219,0.3104136,-0.6377336,0.14658867,1.1153193,-0.2168436,-1.1330835,0.27722102,0.30015987,0.21668465,0.35254276,1.5633472,-1.930818
-0.1,-0.2,0.7999999999999999,0.5235987755982988,0.5235987755982988,0,1.9270524,1.7767572,0.36060667,-0.48660067,0.047619157,1.0594187,0.29207587,-1.1300725,0.2661308,0.27938282,0.20931087,0.34220406,1.561215,-1.9262652
-0.1,-0.2,0.7999999999999999,0.5235987755982988,0.5235987755982988,0,2.0262299,1.7462844,0.31003928,-0.58923525,0.12075812,1.1438793,0.17858289,-1.0765078,0.27285627,0.29893547,0.19345552,0.3471219,1.5629181,-1.9498502
-0.1,-0.2,0.7999999999999999,0.5235987755982988,0.5235987755982988,0,1.9193566,1.81141,0.42631894,-0.57871145,0.1302258,1.1169491,-0.0046946406,-1.1047788,0.27588427,0.27963027,0.19555871,0.37345427,1.5600752,-1.9521824
-0.1,-0.2,0.7999999999999999,0.5235987755982988,0.5235987755982988,0,2.0164597,1.835767,0.2506884,-0.6158058,0.27970645,1.1964531,0.08616173,-1.1237394,0.2733038,0.26182082,0.14137115,0.3504473,1.5651495,-1.9452477
-0.1,-0.2,0.7999999999999999,0.5235987755982988,0.5235987755982988,0,2.0554426,1.73778,0.26474398,-0.54012203,0.14937757,1.0717785,-0.05125917,-1.1212734,0.27326688,0.2929186,0.15119286,0.37272108,1.5641142,-1.9376605
-0.1,-0.2,0.7999999999999999,0.5235987755982988,0.5235987755982988,0,2.0282798,1.8094085,0.35280097,-0.59791297,0.29108226,1.0414735,-0.090449095,-1.0731535,0.2825808,0.23824662,0.1519407,0.36255413,1.558094,-1.9441965
-0.1,-0.2,0.7999999999999999,0.5235987755982988,0.5235987755982988,0,2.012112,1.800831,0.3358407,-0.55977076,0.28924343,1.0230913,0.0029304663,-1.126691,0.269024,0.27358833,0.108424306,0.3458484,1.56166,-1.9143645
-0.1,-0.2,0.7999999999999999,0.5235987755982988,0.5235987755982988,0,2.0611513,1.7538483,0.27579868,-0.5214546,0.22694856,1.031361,0.30924132,-1.097337,0.27723458,0.27667126,0.16423744,0.382076,1.5621933,-1.9251606
-0.1,-0.2,0.7999999999999999,0.5235987755982988,0.5235987755982988,0,2.0276344,1.8058053,0.33521625,-0.67781276,0.047279097,1.0321978,-0.2534526,-1.1141325,0.26641926,0.29041412,0.11899763,0.33623695,1.5650992,-1.9444796
-0.1,-0.2,0.7999999999999999,0.5235987755982988,0.5235987755982988,0,1.9765921,1.7873616,0.37043297,-0.5146427,0.12460116,0.85767406,0.4955774,-1.1687287,0.26822564,0.27497295,0.12335879,0.34974432,1.5636687,-1.9262323
-0.1,-0.2,0.7999999999999999,0.5235987755982988,0.5235987755982988,0,2.0339255,1.831795,0.27270603,-0.59527683,0.013817871,1.0972233,-0.32466465,-1.0951889,0.27715817,0.28208455,0.11017413,0.32936627,1.5644343,-1.9458122
-0.1,-0.2,0.7999999999999999,0.5235987755982988,0.5235987755982988,0,2.00698,1.8450328,0.23033124,-0.5401537,0.23273765,1.0785174,0.26859012,-1.1238726,0.2729033,0.26478153,0.13430451,0.33651403,1.5581149,-1.9369253
-0.1,-0.2,0.7999999999999999,0.5235987755982988,0.5235987755982988,0,2.0137544,1.8520706,0.3486933,-0.5916105,0.10257074,1.0584767,0.29434663,-1.1253546,0.28584415,0.29145288,0.13518985,0.32149103,1.5702646,-1.9242802
-0.1,-0.2,0.7999999999999999,0.5235987755982988,0.5235987755982988,0,2.0881054,1.864211,0.23384291,-0.5361341,0.14744954,0.9452295,-0.11505903,-1.0778044,0.2643889,0.26590648,0.14969654,0.35034,1.5619726,-1.9390087
-0.1,-0.2,0.7999999999999999,0.5235987755982988,0.5235987755982988,0,2.0599988,1.8447787,0.24196754,-0.7013824,0.16843502,1.2090323,-0.52954257,-1.1184652,0.2737182,0.2698203,0.16904472,0.37465563,1.5595222,-1.9265455
-0.1,-0.2,0.7999999999999999,0.5235987755982988,0.5235987755982988,0,1.9828018,1.8552867,0.31199387,-0.57143307,0.22807845,1.0657712,0.36862627,-1.0996541,0.25821885,0.26341337,0.14970239,0.35272658,1.5598022,-1.9304619
