sanky1234/BimanualDexCatch/isaacgymenvs/cem_results/football_pose_0.1_0.0_0.9999999999999999_0.0_0.0_0_2025-05-26.csv
x,y,z,roll,pitch,yaw,robot1/joint1,robot1/joint2,robot1/joint3,robot1/joint4,robot1/joint5,robot1/joint6,robot1/joint7,robot2/joint1,robot2/joint2,robot2/joint3,robot2/joint4,robot2/joint5,robot2/joint6,robot2/joint7
0.1,0.0,0.9999999999999999,0.0,0.0,0,-1.4931333,1.0627645,-0.5632599,0.73157907,-0.60139585,1.0382168,-2.4331017,1.9047703,1.4656819,0.05581849,-0.09928718,0.1344771,1.2486898,0.15307902
0.1,0.0,0.9999999999999999,0.0,0.0,0,-1.4909418,1.061801,-0.56215334,0.73258835,-0.60370785,1.0379417,-2.2721689,1.8871295,1.4111499,0.18831293,-0.093800046,-0.0978349,1.2121657,0.31284136
0.1,0.0,0.9999999999999999,0.0,0.0,0,-1.4918257,1.0631753,-0.56259453,0.73278755,-0.59571546,1.0378355,-2.4012117,1.8810271,1.4686244,-0.010939902,-0.085603416,0.012145224,1.2634995,0.15700755
0.1,0.0,0.9999999999999999,0.0,0.0,0,-1.4910135,1.0631999,-0.5635855,0.7315464,-0.6003166,1.0379679,-2.3513343,1.9202293,1.4007475,-0.2883988,-0.08395915,0.31992942,1.3435546,0.17888376
0.1,0.0,0.9999999999999999,0.0,0.0,0,-1.4911047,1.0666938,-0.5638401,0.73310995,-0.5990622,1.0401176,-2.326927,1.9029943,1.3846008,-0.2239145,-0.020030046,0.21716495,1.1522827,-0.08056766
0.1,0.0,0.9999999999999999,0.0,0.0,0,-1.4907885,1.0636132,-0.56217426,0.73271596,-0.5979792,1.0376129,-2.3496408,1.9268688,1.4886894,0.019215625,-0.08693333,0.2594699,1.2472618,-0.03172966
0.1,0.0,0.9999999999999999,0.0,0.0,0,-1.4909444,1.064823,-0.563359,0.7324844,-0.59750533,1.0375241,-2.299186,1.9366317,1.3873427,0.0063901786,-0.070554554,0.07943548,1.1814098,0.70632356
0.1,0.0,0.9999999999999999,0.0,0.0,0,-1.491569,1.0658417,-0.56269604,0.733898,-0.6007971,1.0412675,-2.2632568,1.9041586,1.3357586,-0.052465238,-0.08741644,0.27319536,1.2639239,0.62092525
0.1,0.0,0.9999999999999999,0.0,0.0,0,-1.4932772,1.0609994,-0.5625774,0.7310081,-0.6004375,1.0356853,-2.3021476,1.922591,1.3815606,-0.21653493,0.011311252,0.07198747,1.1711093,0.29523674
0.1,0.0,0.9999999999999999,0.0,0.0,0,-1.4925772,1.0648835,-0.5627777,0.7325389,-0.5938401,1.0379806,-2.3807652,1.9137365,1.4403085,-0.06668585,-0.08865066,-0.041893143,1.3193717,1.6869161
0.1,0.0,0.9999999999999999,0.0,0.0,0,-1.4921325,1.0659751,-0.5613623,0.73326856,-0.6033491,1.0394888,-2.4630227,1.9266177,1.4406817,-0.20011099,-0.02099267,-0.12661354,1.2698535,0.07533816
0.1,0.0,0.9999999999999999,0.0,0.0,0,-1.4917771,1.0656871,-0.56217694,0.7322002,-0.5945319,1.0334578,-2.3773699,1.914962,1.4504501,-0.2219232,-0.10236779,0.33004823,1.2629279,0.36586058
0.1,0.0,0.9999999999999999,0.0,0.0,0,-1.4919946,1.0637956,-0.5625209,0.7338183,-0.5981876,1.0386137,-2.3882196,1.9187683,1.4751714,-0.33878997,-0.0069032023,0.20781094,1.167546,0.58836776
0.1,0.0,0.9999999999999999,0.0,0.0,0,-1.4913484,1.0656987,-0.56239575,0.73282325,-0.60345054,1.0325314,-2.2721813,1.9286195,1.373552,-0.08991271,-0.066807866,-0.03288413,1.320233,1.0926355
0.1,0.0,0.9999999999999999,0.0,0.0,0,-1.4910698,1.0666909,-0.5625165,0.731882,-0.593036,1.0419711,-2.3443518,1.8902196,1.4028381,-0.06419209,-0.101920016,-0.35529378,1.1947997,0.07636101
0.1,0.0,0.9999999999999999,0.0,0.0,0,-1.4923166,1.067418,-0.5633353,0.7324496,-0.5979677,1.0392424,-2.3830132,1.9376174,1.3374325,-0.022215575,-0.010845846,0.16409439,1.2818162,0.63855916
0.1,0.0,0.9999999999999999,0.0,0.0,0,-1.4903618,1.0633113,-0.5617953,0.73199886,-0.59825677,1.0368514,-2.293536,1.9444994,1.3839668,-0.40288156,-0.027146358,0.16087008,1.1979489,0.4157031
0.1,0.0,0.9999999999999999,0.0,0.0,0,-1.491034,1.0642229,-0.5620391,0.73127735,-0.599359,1.0397264,-2.2692955,1.9757408,1.3846214,-0.29642624,-0.0016378608,-0.033653915,1.2799819,0.66392356
0.1,0.0,0.9999999999999999,0.0,0.0,0,-1.4926542,1.0619576,-0.56165284,0.73191136,-0.60089326,1.0358151,-2.2801862,1.8704492,1.4175926,-0.16449349,-0.09630031,0.24223751,1.1831275,0.42162612
0.1,0.0,0.9999999999999999,0.0,0.0,0,-1.4919016,1.063707,-0.5623673,0.73337394,-0.5936267,1.0402422,-2.328652,1.9431876,1.4404522,-0.019204805,-0.08091905,0.2815951,1.1882207,0.83558863
0.1,0.0,0.9999999999999999,0.0,0.0,0,-1.4919877,1.063456,-0.56305337,0.7315761,-0.6011103,1.0375503,-2.4017375,1.9311465,1.3089538,-0.06692157,-0.038084533,0.24189186,1.2467374,1.1477847
0.1,0.0,0.9999999999999999,0.0,0.0,0,-1.4922361,1.0647858,-0.56287664,0.7332232,-0.59583306,1.0375158,-2.4078434,1.9180962,1.4045336,-0.20152779,-0.07298625,0.123680584,1.1946969,0.4670545
0.1,0.0,0.9999999999999999,0.0,0.0,0,-1.4931605,1.0648444,-0.5620076,0.730874,-0.5978691,1.0397127,-2.3905816,1.9026997,1.3912405,-0.18737654,-0.14137965,0.106208585,1.2818451,0.6064211
0.1,0.0,0.9999999999999999,0.0,0.0,0,-1.4912007,1.0634916,-0.560783,0.7332038,-0.59525865,1.0434182,-2.4275277,1.9245071,1.416945,-0.023595672,-0.12790923,-0.0648043,1.2838633,-0.3475187
0.1,0.0,0.9999999999999999,0.0,0.0,0,-1.4904381,1.0656407,-0.5635982,0.73216456,-0.5961574,1.0366197,-2.3063157,1.9403658,1.3164856,-0.16098732,-0.07470415,0.09587127,1.2867055,0.8493199
0.1,0.0,0.9999999999999999,0.0,0.0,0,-1.4915354,1.0655917,-0.5615181,0.73212457,-0.5983999,1.0352443,-2.3300157,1.9368978,1.4527222,-0.14545757,-0.11555576,0.2632951,1.1083069,1.1710191
0.1,0.0,0.9999999999999999,0.0,0.0,0,-1.4924115,1.0636559,-0.5616876,0.73276025,-0.6018336,1.0381746,-2.4138544,1.8990403,1.4450155,-0.3803304,-0.07630856,0.096190214,1.1777173,0.18503627
0.1,0.0,0.9999999999999999,0.0,0.0,0,-1.4928018,1.0646118,-0.56288934,0.7329674,-0.5933171,1.0373653,-2.3747222,1.9175316,1.3787514,-0.096363395,-0.1234096,-0.12877451,1.0956728,0.4520962
0.1,0.0,0.9999999999999999,0.0,0.0,0,-1.4922134,1.064513,-0.5631373,0.7313152,-0.59895164,1.0344678,-2.3320346,1.9377228,1.3959098,-0.16194406,-0.01158205,0.1813652,1.2246283,-0.22381052
0.1,0.0,0.9999999999999999,0.0,0.0,0,-1.4924086,1.064397,-0.5618863,0.7335551,-0.5955214,1.0389903,-2.3677938,1.9470881,1.3702811,-0.31715235,-0.012123896,0.15777405,1.214129,-0.1226464
0.1,0.0,0.9999999999999999,0.0,0.0,0,-1.4938759,1.0626779,-0.5617042,0.7325609,-0.5935507,1.0390531,-2.3937764,1.8679256,1.4063479,-0.1624706,-0.01796187,0.19608462,1.2562366,0.17153981
0.1,0.0,0.9999999999999999,0.0,0.0,0,-1.4909235,1.0636804,-0.562636,0.73262435,-0.5963486,1.042028,-2.2327583,1.8967934,1.4627503,-0.15333617,-0.058588546,0.09603185,1.2185268,-0.3373945
0.1,0.0,0.9999999999999999,0.0,0.0,0,-1.4929518,1.0639893,-0.56245625,0.73333234,-0.5956215,1.042026,-2.2730544,1.9323853,1.3901211,0.041822053,0.032186598,-0.32719502,1.2394028,0.030711958
0.1,0.0,0.9999999999999999,0.0,0.0,0,-1.4902159,1.0642861,-0.5622382,0.7317112,-0.5990887,1.0427542,-2.406682,1.9052774,1.3944731,-0.084481135,-0.100600205,0.17911379,1.1234487,0.4558152
0.1,0.0,0.9999999999999999,0.0,0.0,0,-1.4927016,1.0644679,-0.5629921,0.73265743,-0.59942466,1.0374584,-2.375574,1.9235902,1.4170138,-0.040184483,-0.041373614,0.29067564,1.1075747,0.7530914
0.1,0.0,0.9999999999999999,0.0,0.0,0,-1.491501,1.0639497,-0.5633419,0.7328581,-0.5981983,1.0368541,-2.3634152,1.9201448,1.3821927,-0.22175677,-0.14756264,-0.06622046,1.3064705,0.42844304
0.1,0.0,0.9999999999999999,0.0,0.0,0,-1.492565,1.0668745,-0.5628167,0.7325582,-0.59634197,1.03725,-2.3077545,1.9522741,1.4016578,-0.19614953,-0.027659003,-0.08628565,1.1685847,0.38554546
0.1,0.0,0.9999999999999999,0.0,0.0,0,-1.4921759,1.0648141,-0.56238616,0.73323834,-0.59643126,1.0369749,-2.3224797,1.935055,1.425183,-0.13081059,-0.09387568,0.02367891,1.196428,0.35649627
0.1,0.0,0.9999999999999999,0.0,0.0,0,-1.4919821,1.0649482,-0.5623248,0.73319787,-0.5958927,1.0397221,-2.3390737,1.9342685,1.425022,-0.11530376,-0.055581674,-0.014534952,1.2656637,-0.16079777
0.1,0.0,0.9999999999999999,0.0,0.0,0,-1.491446,1.0613688,-0.56247234,0.73253405,-0.5968164,1.038597,-2.3938727,1.9245901,1.3883415,-0.13784832,-0.035355713,0.08857284,1.2686762,0.82626015
0.1,0.0,0.9999999999999999,0.0,0.0,0,-1.4905761,1.0646617,-0.5618526,0.7325955,-0.5967697,1.0402936,-2.34704,1.9417429,1.4323463,-0.056733985,0.0008874962,0.013042737,1.17754,0.041366164
0.1,0.0,0.9999999999999999,0.0,0.0,0,-1.4920257,1.0633503,-0.5624521,0.73290306,-0.59863687,1.0369313,-2.3952596,1.9462316,1.3878578,-0.049121875,-0.0025208092,-0.07389862,1.1875938,0.019855812
0.1,0.0,0.9999999999999999,0.0,0.0,0,-1.4923356,1.0624684,-0.56210154,0.7338599,-0.5940014,1.0393202,-2.2944446,1.9396977,1.4519227,-0.18269756,-0.10118099,0.27942163,1.2316855,0.3991844
0.1,0.0,0.9999999999999999,0.0,0.0,0,-1.4921207,1.0621568,-0.5627103,0.7313137,-0.5964427,1.0379003,-2.3251302,1.9178054,1.3709544,-0.21093385,-0.07339624,0.05849002,1.2303288,0.5044397
0.1,0.0,0.9999999999999999,0.0,0.0,0,-1.4911747,1.0656514,-0.56321275,0.73216957,-0.5940609,1.0377523,-2.473026,1.9819702,1.3634719,-0.23606949,-0.04829091,-0.11628793,1.2798898,0.88239306
0.1,0.0,0.9999999999999999,0.0,0.0,0,-1.4915538,1.0640836,-0.56171906,0.73277956,-0.59937674,1.0353767,-2.389676,1.8916947,1.4330138,-0.17558552,-0.121913575,0.09453517,1.1425531,0.2040244
0.1,0.0,0.9999999999999999,0.0,0.0,0,-1.4907491,1.0634532,-0.56282026,0.7343867,-0.5983821,1.0385371,-2.3986146,1.878802,1.4149076,-0.11672463,-0.13525634,-0.23956499,1.3455216,0.10188205
0.1,0.0,0.9999999999999999,0.0,0.0,0,-1.4909449,1.0658344,-0.56323683,0.7337383,-0.59214425,1.0395643,-2.3202996,1.932913,1.4269166,-0.06615171,0.0213197,0.0024924253,1.2581009,0.50913596
0.1,0.0,0.9999999999999999,0.0,0.0,0,-1.4918333,1.0628432,-0.5625362,0.7310579,-0.5948567,1.0346099,-2.3694806,1.9180586,1.4323199,-0.07010697,-0.0016285918,0.09615496,1.1951773,-0.022922304
0.1,0.0,0.9999999999999999,0.0,0.0,0,-1.4918811,1.0650897,-0.5624564,0.7337448,-0.59858537,1.035278,-2.3218362,1.913373,1.408588,-0.18549156,-0.08842541,0.13359858,1.1862315,0.83082926
0.1,0.0,0.9999999999999999,0.0,0.0,0,-1.4907514,1.0633167,-0.56248873,0.73392904,-0.600353,1.0391811,-2.3662362,1.931513,1.409348,-0.09531967,-0.061220735,0.13126986,1.2170739,0.68938714
0.1,0.0,0.9999999999999999,0.0,0.0,0,-1.4908769,1.064626,-0.562261,0.7325877,-0.60099286,1.039329,-2.3837454,1.9360414,1.4877831,-0.379862,-0.074477784,-0.08653285,1.2402285,-0.20342699
0.1,0.0,0.9999999999999999,0.0,0.0,0,-1.4914602,1.0669416,-0.5617945,0.73389536,-0.5961132,1.0401664,-2.4751596,1.915877,1.404453,0.04246486,-0.029267928,-0.026018476,1.1848366,0.64639306
0.1,0.0,0.9999999999999999,0.0,0.0,0,-1.4904858,1.06398,-0.5625113,0.7331872,-0.5964059,1.0374547,-2.4020612,1.89288,1.414079,-0.070290394,-0.05753148,-0.27829805,1.3778868,0.8373282
0.1,0.0,0.9999999999999999,0.0,0.0,0,-1.4925061,1.0632491,-0.56270474,0.73248434,-0.60214514,1.0344967,-2.3672514,1.9302458,1.4158264,-0.11491112,-0.079998635,0.16924547,1.2412584,0.27037477
0.1,0.0,0.9999999999999999,0.0,0.0,0,-1.493801,1.0641394,-0.56284857,0.7338903,-0.5978358,1.0353308,-2.5366988,1.9232411,1.4114357,-0.21510753,-0.115201905,0.23406592,1.2334781,0.92642224
0.1,0.0,0.9999999999999999,0.0,0.0,0,-1.4928049,1.0637583,-0.56212807,0.73249817,-0.5972732,1.0389475,-2.3147342,1.9438343,1.3447407,-0.11488965,-0.09360159,0.25951454,1.1546328,0.81166357
0.1,0.0,0.9999999999999999,0.0,0.0,0,-1.4928268,1.0641845,-0.56235003,0.73381823,-0.59872055,1.0415268,-2.4122117,1.9272314,1.4571339,-0.24060987,-0.018512536,0.13242394,1.2702788,0.7447836
0.1,0.0,0.9999999999999999,0.0,0.0,0,-1.4925319,1.0633571,-0.56176454,0.7340339,-0.6025059,1.0341307,-2.3398418,1.9163561,1.4534892,0.030206205,-0.117977984,0.4044265,1.2613776,0.9579605
0.1,0.0,0.9999999999999999,0.0,0.0,0,-1.4919814,1.0636027,-0.56200737,0.73288214,-0.599192,1.0378019,-2.333689,1.8907137,1.4377267,-0.18295065,-0.029714154,0.36485362,1.172571,-0.10465004
0.1,0.0,0.9999999999999999,0.0,0.0,0,-1.4915134,1.0630841,-0.5620841,0.7335865,-0.59979445,1.0387545,-2.3801217,1.9237528,1.3982147,0.07001,-0.08404038,-0.090619214,1.2559662,0.7220546
0.1,0.0,0.9999999999999999,0.0,0.0,0,-1.4914716,1.0665655,-0.5639355,0.7326791,-0.5942712,1.0423765,-2.381845,1.9310775,1.3528805,-0.20705815,-0.08823128,0.25450736,1.3359256,0.09116056
0.1,0.0,0.9999999999999999,0.0,0.0,0,-1.4919991,1.0647019,-0.56212664,0.73199856,-0.5979505,1.0305171,-2.4075918,1.9020778,1.41518,-0.052628893,-0.014377726,0.29224575,1.1783266,0.10453746
0.1,0.0,0.9999999999999999,0.0,0.0,0,-1.4920161,1.0633515,-0.5622145,0.7327427,-0.59871465,1.0391673,-2.4337044,1.8929757,1.3721821,-0.2501815,-0.065248646,-0.12607384,1.3208922,1.5976024
0.1,0.0,0.9999999999999999,0.0,0.0,0,-1.4916061,1.0660458,-0.5633157,0.7337509,-0.5988551,1.0366117,-2.380854,1.9100583,1.4302902,-0.20266859,-0.11226246,-0.14013146,1.1583612,0.55618495
0.1,0.0,0.9999999999999999,0.0,0.0,0,-1.4909207,1.0664151,-0.5628401,0.7322583,-0.5964594,1.0349644,-2.365347,1.9349278,1.3692868,-0.09065737,-0.061191734,-0.11808572,1.1777731,0.49919158
0.1,0.0,0.9999999999999999,0.0,0.0,0,-1.4913898,1.060358,-0.561768,0.7338402,-0.5940672,1.0391749,-2.3664443,1.9402032,1.4813569,-0.42621556,-0.057632912,-0.1359772,1.2310506,0.8990511
0.1,0.0,0.9999999999999999,0.0,0.0,0,-1.4921436,1.0647268,-0.5620099,0.7330642,-0.5985931,1.032168,-2.3663163,1.903377,1.454635,-0.12886769,-0.056479514,0.10818971,1.2471184,0.024795787
0.1,0.0,0.9999999999999999,0.0,0.0,0,-1.4919345,1.0660267,-0.5621419,0.73417515,-0.60279953,1.0344033,-2.3762848,1.9215995,1.4312385,-0.3343349,-0.12913296,0.17299664,1.1309923,-0.39451864
0.1,0.0,0.9999999999999999,0.0,0.0,0,-1.4908609,1.0633999,-0.561551,0.73317933,-0.60027575,1.0404797,-2.3182607,1.8969724,1.4256151,-0.16320172,-0.09548068,0.29812095,1.140942,0.22660369
0.1,0.0,0.9999999999999999,0.0,0.0,0,-1.4906312,1.0633109,-0.5624101,0.73293877,-0.59908587,1.0378356,-2.321089,1.8993587,1.4219412,0.0053554443,-0.05258194,0.39195856,1.3093451,0.1961321
0.1,0.0,0.9999999999999999,0.0,0.0,0,-1.4950163,1.066298,-0.561957,0.73267967,-0.60085934,1.0354389,-2.3554854,1.9190749,1.373928,-0.2403328,-0.08846796,-0.13365601,1.2832677,0.74869233
0.1,0.0,0.9999999999999999,0.0,0.0,0,-1.4919773,1.0664743,-0.5617662,0.73280376,-0.60158587,1.03957,-2.3794534,1.9146343,1.3811221,-0.029169817,-0.058673713,0.21383084,1.3304079,0.5065347
0.1,0.0,0.9999999999999999,0.0,0.0,0,-1.4910688,1.0632607,-0.5629317,0.7325198,-0.59800905,1.0386473,-2.3965147,1.9066569,1.3907248,-0.110196434,-0.10845385,0.12312478,1.1693271,0.27549437
0.1,0.0,0.9999999999999999,0.0,0.0,0,-1.4920936,1.0624056,-0.562132,0.7344231,-0.5962848,1.0404354,-2.3648574,1.9303674,1.3595173,0.060317103,-0.08692207,0.23390651,1.2271634,0.9016653
0.1,0.0,0.9999999999999999,0.0,0.0,0,-1.4914646,1.066244,-0.5634443,0.7331008,-0.59477377,1.0338,-2.5110757,1.9327191,1.3601264,-0.09103208,-0.112167716,-0.011233643,1.2585597,-0.43060893
0.1,0.0,0.9999999999999999,0.0,0.0,0,-1.4915925,1.0631142,-0.5630206,0.73290235,-0.59907174,1.0395992,-2.441571,1.9285289,1.4175068,-0.19127694,-0.065823704,0.25004867,1.1675957,0.39289898
0.1,0.0,0.9999999999999999,0.0,0.0,0,-1.4911138,1.065603,-0.56334895,0.7331132,-0.59653187,1.0362685,-2.3424926,1.9513513,1.3949168,-0.1920081,-0.11722011,-0.0114874765,1.1855761,0.67094356
0.1,0.0,0.9999999999999999,0.0,0.0,0,-1.4936274,1.064618,-0.56253207,0.73366857,-0.5992531,1.0412766,-2.4420698,1.9394209,1.34168,-0.40925348,-0.11819249,-0.29474324,1.3489673,-0.22225936
0.1,0.0,0.9999999999999999,0.0,0.0,0,-1.4922249,1.0636775,-0.56200224,0.733242,-0.59833884,1.0338651,-2.387003,1.9083523,1.446699,-0.29184666,-0.037627127,0.10208371,1.1843833,-0.43650365
0.1,0.0,0.9999999999999999,0.0,0.0,0,-1.4920945,1.0646905,-0.5625191,0.7338765,-0.5954846,1.038396,-2.4366546,1.9058921,1.4509292,-0.25558925,-0.12146035,0.25085667,1.1894107,0.67384046
0.1,0.0,0.9999999999999999,0.0,0.0,0,-1.4912666,1.0642707,-0.5634465,0.7338069,-0.59979904,1.0364835,-2.4162247,1.9507847,1.386148,-0.15238145,-0.009120042,0.20742534,1.2281991,0.12144434
0.1,0.0,0.9999999999999999,0.0,0.0,0,-1.4936104,1.0643408,-0.5621957,0.7332919,-0.5996539,1.0386477,-2.3306565,1.9083604,1.4713167,-0.10434237,-0.011228625,0.007686969,1.1677577,0.1500294
0.1,0.0,0.9999999999999999,0.0,0.0,0,-1.4918267,1.06312,-0.56189895,0.73332584,-0.5945439,1.0362633,-2.40075,1.8966347,1.4051958,-0.093163766,-0.12569502,0.17860536,1.2023234,-0.28093645
0.1,0.0,0.9999999999999999,0.0,0.0,0,-1.4925748,1.064202,-0.56178117,0.73243314,-0.5994936,1.0369117,-2.499068,1.9436115,1.4723761,-0.15858203,-0.042278953,0.32275733,1.2659897,1.5077173
0.1,0.0,0.9999999999999999,0.0,0.0,0,-1.4923129,1.0642496,-0.56282276,0.73227763,-0.59555185,1.0410194,-2.3853765,1.940274,1.4177986,-0.4675789,-0.10777507,-0.0129260775,1.183553,1.1619637
0.1,0.0,0.9999999999999999,0.0,0.0,0,-1.4913547,1.0661045,-0.5618367,0.7338023,-0.597495,1.036488,-2.3849347,1.904598,1.3728867,0.04830173,-0.024458846,0.21149935,1.2770206,0.36624813
0.1,0.0,0.9999999999999999,0.0,0.0,0,-1.4930156,1.0647506,-0.5623712,0.73165953,-0.6032057,1.0351775,-2.4385436,1.8949609,1.3756427,-0.32976538,-0.10271759,0.4470771,1.2703639,0.4203068
0.1,0.0,0.9999999999999999,0.0,0.0,0,-1.4925514,1.0640868,-0.5617848,0.7334822,-0.5972676,1.0384333,-2.3088653,1.8925415,1.3903937,-0.07343696,-0.039486762,0.16924126,1.3928124,0.86080855
0.1,0.0,0.9999999999999999,0.0,0.0,0,-1.4928972,1.0634843,-0.5619684,0.73340005,-0.59605575,1.0357727,-2.3404937,1.8745551,1.4567846,0.09414134,-0.07882056,-0.027460836,1.1560847,0.6421536
0.1,0.0,0.9999999999999999,0.0,0.0,0,-1.4924763,1.0637774,-0.56279916,0.7332681,-0.6007418,1.0384153,-2.4319046,1.8910793,1.4390328,-0.060688242,-0.16352776,-0.0740429,1.1467861,-0.705351
0.1,0.0,0.9999999999999999,0.0,0.0,0,-1.4913261,1.0642598,-0.56150407,0.7334058,-0.59715176,1.0387316,-2.3731387,1.8998154,1.4613848,-0.026674595,-0.06346149,0.14273684,1.1649969,0.38346663
0.1,0.0,0.9999999999999999,0.0,0.0,0,-1.491629,1.0648997,-0.56159675,0.73237646,-0.5965176,1.0365669,-2.361085,1.9352424,1.3846122,0.021191157,-0.09753874,0.027160786,1.1739323,0.1002578
0.1,0.0,0.9999999999999999,0.0,0.0,0,-1.4922274,1.0650452,-0.5640796,0.733691,-0.5954828,1.0384587,-2.3723395,1.9421021,1.3508809,-0.09384515,-0.07055795,0.022138475,1.2732015,0.50965345
0.1,0.0,0.9999999999999999,0.0,0.0,0,-1.4924912,1.0629764,-0.5618845,0.73186356,-0.5948467,1.0346974,-2.4395869,1.9336317,1.4068931,-0.15682502,-0.12151504,-0.20803802,1.336592,0.25062153
0.1,0.0,0.9999999999999999,0.0,0.0,0,-1.4903955,1.0644803,-0.5629488,0.7345936,-0.60008955,1.0369309,-2.3800852,1.9045105,1.4041389,0.13801612,-0.12117332,0.06389109,1.2127177,0.17084771
0.1,0.0,0.9999999999999999,0.0,0.0,0,-1.491866,1.065266,-0.5627188,0.7329527,-0.59940225,1.041572,-2.4033499,1.9393727,1.4310066,-0.08299843,-0.049708914,0.1637221,1.2617201,-0.010711415
0.1,0.0,0.9999999999999999,0.0,0.0,0,-1.4903374,1.0659044,-0.5634267,0.7339122,-0.5961354,1.0379622,-2.3709188,1.8895773,1.3202769,0.10766812,-0.010373026,0.22081555,1.3628713,0.42272764
0.1,0.0,0.9999999999999999,0.0,0.0,0,-1.4912881,1.0642221,-0.5625411,0.73317015,-0.599015,1.0339173,-2.3578808,1.9005905,1.407509,-0.08748726,-0.07391084,0.000121965575,1.3431071,0.61084664
0.1,0.0,0.9999999999999999,0.0,0.0,0,-1.4914348,1.0632972,-0.56248844,0.73273593,-0.6020287,1.036924,-2.4150813,1.9319714,1.3503225,0.105940886,-0.06853996,0.054786634,1.2274582,0.3750647
0.1,0.0,0.9999999999999999,0.0,0.0,0,-1.4913743,1.0641934,-0.56155074,0.732411,-0.60006684,1.0356843,-2.3949277,1.9248059,1.3590854,-0.13866058,-0.06252552,0.054128528,1.1729409,-0.124484286
0.1,0.0,0.9999999999999999,0.0,0.0,0,-1.4919096,1.0653287,-0.56201035,0.7346,-0.6004417,1.0352877,-2.4281769,1.8908083,1.409981,-0.27591586,-0.093918465,0.3626456,1.2953093,1.1550187
0.1,0.0,0.9999999999999999,0.0,0.0,0,-1.4918039,1.0645347,-0.5619931,0.731905,-0.59927297,1.0337307,-2.3947186,1.9313211,1.3793429,-0.13154343,-0.03129743,-0.29931107,1.2495832,0.7398971
0.1,0.0,0.9999999999999999,0.0,0.0,0,-1.4918549,1.0643233,-0.5626653,0.7327913,-0.595136,1.0334996,-2.393149,1.9098929,1.3916905,0.008564254,-0.1337588,0.011444185,1.255534,1.6473877
0.1,0.0,0.9999999999999999,0.0,0.0,0,-1.4941689,1.0644534,-0.56218606,0.7317692,-0.5997564,1.0383034,-2.3813176,1.9291277,1.441446,-0.08358684,-0.0039023922,-0.022077685,1.2144445,-0.24193521
0.1,0.0,0.9999999999999999,0.0,0.0,0,-1.4931244,1.0630661,-0.5621174,0.73345953,-0.5969726,1.0451747,-2.338646,1.9427829,1.3788284,-0.29086465,-0.15367511,0.014932261,1.1625777,0.3908065
0.1,0.0,0.9999999999999999,0.0,0.0,0,-1.4922749,1.0647575,-0.5615946,0.7326062,-0.59550923,1.0407414,-2.3405185,1.9320676,1.3759,-0.06968347,-0.06794535,-0.19831501,1.2670634,0.17472334
0.1,0.0,0.9999999999999999,0.0,0.0,0,-1.4933538,1.0669616,-0.5630519,0.73351884,-0.5969562,1.0398508,-2.2974887,1.9265039,1.3104507,-0.16400401,-0.046490632,0.025312964,1.2069086,0.04560968
0.1,0.0,0.9999999999999999,0.0,0.0,0,-1.4929862,1.0664507,-0.56161064,0.7315643,-0.5961277,1.0371667,-2.343103,1.9183855,1.419921,-0.10973081,-0.07011466,-0.06026094,1.2400784,-0.588406
0.1,0.0,0.9999999999999999,0.0,0.0,0,-1.4929636,1.0648073,-0.56173486,0.73437595,-0.59420514,1.0348058,-2.5208795,1.9028697,1.3698118,-0.32120603,-0.08655213,0.086502396,1.3474269,0.094507515
0.1,0.0,0.9999999999999999,0.0,0.0,0,-1.4927014,1.0623899,-0.56222147,0.7324786,-0.597389,1.0352792,-2.3363912,1.9266807,1.3955522,-0.13568878,-0.086445995,0.00043651744,1.0977217,0.4485312
0.1,0.0,0.9999999999999999,0.0,0.0,0,-1.492579,1.0643753,-0.56429857,0.73283106,-0.59505117,1.0362538,-2.3487086,1.9179977,1.4377224,-0.18841279,-0.07711066,0.22536388,1.2277803,0.29605332
0.1,0.0,0.9999999999999999,0.0,0.0,0,-1.4918195,1.0639244,-0.56312066,0.73437375,-0.5990228,1.0378089,-2.335449,1.9267073,1.4239868,-0.12689412,-0.12811613,-0.22135681,1.2970042,0.15545088
0.1,0.0,0.9999999999999999,0.0,0.0,0,-1.4927975,1.0636176,-0.561509,0.73315287,-0.5957339,1.0342788,-2.347553,1.9238354,1.373095,-0.41718376,-0.05908964,0.20284995,1.2332066,-0.5950546
0.1,0.0,0.9999999999999999,0.0,0.0,0,-1.4927403,1.0661767,-0.5636075,0.73298246,-0.5983843,1.0393093,-2.3786745,1.9276152,1.4714577,-0.03478393,-0.10788527,0.3066326,1.1088883,0.3760324
0.1,0.0,0.9999999999999999,0.0,0.0,0,-1.4914476,1.0633527,-0.5624657,0.73231673,-0.59500927,1.0360721,-2.3850253,1.8859448,1.3463181,0.060836907,-0.03118282,-0.2280543,1.2821735,-0.4543651
0.1,0.0,0.9999999999999999,0.0,0.0,0,-1.4934868,1.0623527,-0.5632093,0.73297346,-0.596027,1.0374544,-2.514249,1.9150324,1.4294964,-0.03446179,-0.102239095,-0.0017452994,1.1520933,0.14074564
0.1,0.0,0.9999999999999999,0.0,0.0,0,-1.4929101,1.0660031,-0.56074,0.73392504,-0.6019317,1.0421746,-2.3703358,1.9256821,1.4148767,-0.17165112,-0.065669574,0.51730824,1.22762,-0.10718684
0.1,0.0,0.9999999999999999,0.0,0.0,0,-1.4926218,1.0650496,-0.56360805,0.7330144,-0.60019565,1.0379131,-2.2860017,1.9061105,1.4101267,-0.17889246,-0.12458021,0.31465143,1.2083261,-0.38678965
0.1,0.0,0.9999999999999999,0.0,0.0,0,-1.4920688,1.0658109,-0.56199616,0.733785,-0.6013243,1.0338535,-2.3766508,1.9035412,1.3557416,-0.06472963,-0.10560865,-0.031539667,1.1797171,-0.1013991
0.1,0.0,0.9999999999999999,0.0,0.0,0,-1.4921716,1.0658001,-0.5613898,0.7344852,-0.59942293,1.0350033,-2.3299203,1.9219538,1.3394083,-0.10239623,-0.05160692,-0.2505807,1.2023332,0.61962473
0.1,0.0,0.9999999999999999,0.0,0.0,0,-1.492473,1.0639447,-0.5636119,0.734008,-0.6000707,1.040239,-2.403993,1.9675434,1.3505452,-0.062452145,-0.062645994,0.18913001,1.2678446,0.56649023
0.1,0.0,0.9999999999999999,0.0,0.0,0,-1.4942077,1.0640267,-0.5620668,0.7333554,-0.5986176,1.0392721,-2.3471358,1.8955106,1.4584223,-0.12577502,0.020108428,0.2646561,1.2905728,0.6244918
0.1,0.0,0.9999999999999999,0.0,0.0,0,-1.492189,1.0645695,-0.56323826,0.7318949,-0.59121174,1.0361726,-2.3354993,1.9069029,1.4471107,-0.27388382,-0.113185935,0.2571626,1.2833841,0.7814077
0.1,0.0,0.9999999999999999,0.0,0.0,0,-1.493673,1.0649844,-0.56306005,0.73373485,-0.59713745,1.0421598,-2.4471462,1.8872095,1.4248945,-0.021773972,-0.07615119,0.01846295,1.2224785,-0.84908926
0.1,0.0,0.9999999999999999,0.0,0.0,0,-1.4940066,1.0653319,-0.5627906,0.73396796,-0.59245414,1.0399892,-2.3954098,1.9368302,1.380581,0.013127872,-0.08913964,-0.19790433,1.2121674,0.15810747
0.1,0.0,0.9999999999999999,0.0,0.0,0,-1.493087,1.0654191,-0.5635433,0.73340714,-0.5992591,1.0340354,-2.4661846,1.904308,1.358696,-0.076842494,-0.15909587,0.096430816,1.143099,0.706312
0.1,0.0,0.9999999999999999,0.0,0.0,0,-1.4920427,1.0664835,-0.56177443,0.7328644,-0.60146993,1.035441,-2.2761729,1.859281,1.4024816,0.0065340744,-0.031612184,0.34101194,1.1585939,-0.03811917
0.1,0.0,0.9999999999999999,0.0,0.0,0,-1.4934543,1.0647167,-0.5633963,0.7333776,-0.60325074,1.0376242,-2.329646,1.8818707,1.3960391,-0.026879855,-0.06427061,0.17650926,1.1162544,1.0348568
0.1,0.0,0.9999999999999999,0.0,0.0,0,-1.4923909,1.063239,-0.56213516,0.73249346,-0.5968343,1.0383497,-2.3934193,1.8977959,1.4094627,-0.07303039,-0.0757763,0.2685299,1.2082454,1.1339395
0.1,0.0,0.9999999999999999,0.0,0.0,0,-1.4921033,1.0643232,-0.5627835,0.7332226,-0.5987168,1.0380843,-2.2905989,1.914957,1.468046,-0.02949628,-0.08857394,-0.086096816,1.095364,0.9307991
0.1,0.0,0.9999999999999999,0.0,0.0,0,-1.4923954,1.0629256,-0.5633478,0.73365504,-0.59566164,1.0415819,-2.3718321,1.8986834,1.4109577,-0.11226491,-0.13704203,0.10591698,1.1436517,-0.24465428
0.1,0.0,0.9999999999999999,0.0,0.0,0,-1.4926817,1.0628551,-0.5638659,0.73270357,-0.5946911,1.0381145,-2.388289,1.9269444,1.456436,-0.1770499,-0.15180837,0.114026666,1.2477236,0.07582047
0.1,0.0,0.9999999999999999,0.0,0.0,0,-1.4923893,1.064151,-0.56380504,0.7338302,-0.6002318,1.0350167,-2.3243704,1.9026409,1.4197558,-0.34474385,-0.13999799,0.5049822,1.2338926,0.11250463
0.1,0.0,0.9999999999999999,0.0,0.0,0,-1.4928622,1.0631258,-0.5620925,0.7327671,-0.6012866,1.042797,-2.4196138,1.9561542,1.4203176,-0.2502784,-0.11391399,-0.20959812,1.2772223,0.4391199
0.1,0.0,0.9999999999999999,0.0,0.0,0,-1.4932063,1.0642033,-0.56335384,0.7342619,-0.5968161,1.0410296,-2.3965485,1.9137572,1.4454755,-0.3173861,-0.17536929,-0.0017566744,1.2899017,0.11926034
0.1,0.0,0.9999999999999999,0.0,0.0,0,-1.4932362,1.0650526,-0.5625489,0.733798,-0.5924518,1.0347722,-2.4163494,1.9102825,1.4652946,-0.15647513,-0.14316282,0.06633802,1.1895756,0.12800112
0.1,0.0,0.9999999999999999,0.0,0.0,0,-1.4937196,1.0651903,-0.5628231,0.7326802,-0.5960245,1.041326,-2.3697488,1.9043919,1.4036899,-0.11894059,-0.14685562,0.18098898,1.2002786,0.8991177
0.1,0.0,0.9999999999999999,0.0,0.0,0,-1.492859,1.063815,-0.5619144,0.7332827,-0.5937747,1.0347345,-2.39942,1.9265388,1.4071254,-0.14612165,-0.052024107,0.2701144,1.0966842,0.30042914
0.1,0.0,0.9999999999999999,0.0,0.0,0,-1.4934186,1.0647259,-0.5612275,0.7342628,-0.5953033,1.035394,-2.3045185,1.8598925,1.3950737,0.19393723,-0.038922794,0.41405335,1.2476532,0.97817
0.1,0.0,0.9999999999999999,0.0,0.0,0,-1.4921385,1.0665174,-0.56228065,0.7333923,-0.6035316,1.0345408,-2.4426832,1.9504758,1.394412,-0.17957374,-0.071288735,0.09238045,1.2670825,-0.02723029
0.1,0.0,0.9999999999999999,0.0,0.0,0,-1.4936384,1.0641638,-0.56171685,0.7330226,-0.59642094,1.0338473,-2.3448272,1.8999604,1.3126558,-0.11442056,-0.15689035,-0.06933012,1.1304194,-0.5293977
0.1,0.0,0.9999999999999999,0.0,0.0,0,-1.493676,1.0648794,-0.56213987,0.7324186,-0.5973721,1.0438317,-2.3691623,1.9523729,1.3922399,-0.26900133,-0.032006223,0.04630638,1.2211308,-0.1188417
0.1,0.0,0.9999999999999999,0.0,0.0,0,-1.4936873,1.0630156,-0.56288666,0.7329774,-0.5961133,1.0377442,-2.3755007,1.900154,1.3980266,-0.24222831,-0.054988485,0.2713679,1.1342475,0.4451823
0.1,0.0,0.9999999999999999,0.0,0.0,0,-1.4923767,1.0650148,-0.56312495,0.73316294,-0.59780806,1.0353931,-2.3437474,1.9109167,1.399221,-0.040432665,-0.058781657,-0.16773108,1.1649611,1.0462149
0.1,0.0,0.9999999999999999,0.0,0.0,0,-1.4933509,1.0633194,-0.56297886,0.7334574,-0.59673905,1.0411792,-2.391163,1.9312909,1.4179323,-0.14105655,-0.08164535,0.40162963,1.2479576,-0.14498703
0.1,0.0,0.9999999999999999,0.0,0.0,0,-1.49314,1.062894,-0.5636979,0.73399514,-0.59427524,1.0394301,-2.4450004,1.9377952,1.3554312,-0.06209119,-0.062291875,-0.12380071,1.3265531,0.7310314
0.1,0.0,0.9999999999999999,0.0,0.0,0,-1.4926555,1.063387,-0.5636179,0.7331777,-0.5995997,1.0381949,-2.3543725,1.9257643,1.3994436,0.0050287107,-0.080355,0.20208773,1.30195,0.6571402
0.1,0.0,0.9999999999999999,0.0,0.0,0,-1.4929796,1.0647386,-0.5631534,0.7333207,-0.5974712,1.0388614,-2.338857,1.9178386,1.3756659,-0.24979515,0.0063238284,-0.10925804,1.2605611,0.13826855
0.1,0.0,0.9999999999999999,0.0,0.0,0,-1.4927385,1.062971,-0.56356364,0.73396343,-0.5967611,1.0371287,-2.2928505,1.9186945,1.436997,-0.1386746,-0.03792832,0.16780102,1.2153621,-0.48957992
0.1,0.0,0.9999999999999999,0.0,0.0,0,-1.494023,1.0640321,-0.56205297,0.73275816,-0.5959999,1.0367843,-2.4006703,1.9243616,1.4082972,-0.13061042,-0.056574427,0.059232194,1.2970858,0.46986258
0.1,0.0,0.9999999999999999,0.0,0.0,0,-1.4915664,1.0611552,-0.56364864,0.73462725,-0.5992942,1.0382996,-2.3508744,1.9325722,1.4447899,-0.10828315,-0.015167369,0.07974654,1.2633009,0.8984233
0.1,0.0,0.9999999999999999,0.0,0.0,0,-1.4931016,1.0623046,-0.56285805,0.7342112,-0.59648466,1.0404958,-2.3891034,1.929195,1.4035597,-0.35049513,-0.09909097,0.06866262,1.2312255,0.34243813
0.1,0.0,0.9999999999999999,0.0,0.0,0,-1.4928105,1.0650377,-0.56319505,0.7328338,-0.60292464,1.0406725,-2.4389687,1.9581321,1.3558671,-0.185216,-0.026588134,-0.34852177,1.2610892,0.7388704
0.1,0.0,0.9999999999999999,0.0,0.0,0,-1.4936514,1.0663024,-0.5627317,0.7326748,-0.5983994,1.0329733,-2.3205419,1.9451089,1.4191606,-0.02974626,-0.12498831,0.17426951,1.2044065,0.67771196
0.1,0.0,0.9999999999999999,0.0,0.0,0,-1.493663,1.0639753,-0.56287736,0.73311514,-0.5996573,1.0379319,-2.427877,1.9297546,1.4344379,-0.26285714,-0.023140134,0.024714662,1.1231233,-0.11273991
0.1,0.0,0.9999999999999999,0.0,0.0,0,-1.4923708,1.0631574,-0.5633937,0.7338375,-0.5978734,1.0377159,-2.3214388,1.9407133,1.3852514,-0.48831692,-0.051752817,0.04630064,1.084033,0.11006564
0.1,0.0,0.9999999999999999,0.0,0.0,0,-1.49184,1.0656054,-0.5628443,0.7316337,-0.5938493,1.0403768,-2.4275327,1.9687788,1.3990111,-0.058414318,-0.13582133,0.2769204,1.373791,0.42329594
0.1,0.0,0.9999999999999999,0.0,0.0,0,-1.4926732,1.0624028,-0.5625507,0.7339898,-0.5977559,1.0361648,-2.3895738,1.8892163,1.387228,0.08061918,-0.03998307,0.22415571,1.1391789,0.020927463
0.1,0.0,0.9999999999999999,0.0,0.0,0,-1.491879,1.0641049,-0.5631095,0.73271996,-0.59517753,1.0418448,-2.4429736,1.9073021,1.37119,-0.20286837,-0.0721715,0.029774552,1.2285298,-0.24000521
0.1,0.0,0.9999999999999999,0.0,0.0,0,-1.4934332,1.0668012,-0.5629201,0.7332701,-0.5958138,1.0382358,-2.3074026,1.9289317,1.3993492,-0.014742288,-0.06851974,-0.3412141,1.1719172,-0.2858728
0.1,0.0,0.9999999999999999,0.0,0.0,0,-1.4922436,1.0674465,-0.5630336,0.7319698,-0.5937726,1.0354531,-2.3902528,1.8890003,1.343514,-0.1944731,-0.059753682,0.06460043,1.1216501,1.035748
0.1,0.0,0.9999999999999999,0.0,0.0,0,-1.4930038,1.0670952,-0.56219137,0.7318194,-0.59822184,1.0392553,-2.3021946,1.8722649,1.3912851,-0.05192252,-0.034181867,0.1989117,1.1447105,0.68956065
0.1,0.0,0.9999999999999999,0.0,0.0,0,-1.4919015,1.0651711,-0.5624148,0.7325316,-0.598956,1.038508,-2.4513333,1.9468694,1.4561143,-0.026014175,-0.12880771,-0.089052655,1.2120465,0.54365003
0.1,0.0,0.9999999999999999,0.0,0.0,0,-1.4922539,1.0648394,-0.56306165,0.7333008,-0.5933441,1.0399913,-2.224737,1.9106535,1.3833435,-0.01448818,-0.0395628,0.0060998774,1.2309228,0.5907362
0.1,0.0,0.9999999999999999,0.0,0.0,0,-1.4919382,1.0634108,-0.56273097,0.73237437,-0.59738964,1.0379411,-2.368483,1.9282529,1.4125863,-0.26345557,-0.056671157,0.30438566,1.2495239,1.2945936
0.1,0.0,0.9999999999999999,0.0,0.0,0,-1.4922076,1.0639243,-0.5617534,0.7331255,-0.6005578,1.039188,-2.4018314,1.8970958,1.3697227,0.0300058,-0.045964427,-0.3344774,1.128224,0.14768717
0.1,0.0,0.9999999999999999,0.0,0.0,0,-1.4920156,1.0639462,-0.5625192,0.73222923,-0.5970458,1.0379232,-2.338949,1.8864514,1.4156828,-0.25246957,-0.08144828,0.1965266,1.2457266,0.12161544
0.1,0.0,0.9999999999999999,0.0,0.0,0,-1.4907278,1.0647333,-0.5628757,0.73271555,-0.5975028,1.0373607,-2.4100509,1.9094588,1.419114,-0.11996349,-0.10659401,-0.14547008,1.1906753,0.9469044
0.1,0.0,0.9999999999999999,0.0,0.0,0,-1.4903933,1.0646921,-0.5633939,0.7333896,-0.6028623,1.0370574,-2.4206767,1.8966249,1.3969377,-0.07050032,-0.04133384,-0.3441855,1.1408106,-0.3042015
0.1,0.0,0.9999999999999999,0.0,0.0,0,-1.4908278,1.0671564,-0.5609186,0.7347817,-0.5992802,1.0393265,-2.399408,1.9040003,1.3605561,-0.009457988,-0.06211438,-0.11936457,1.2254858,0.781185
0.1,0.0,0.9999999999999999,0.0,0.0,0,-1.4912711,1.0630019,-0.56281793,0.73160774,-0.5945498,1.0375535,-2.3745441,1.8711641,1.4672719,-0.0044086454,-0.090631545,0.11922818,1.330436,0.15139422
0.1,0.0,0.9999999999999999,0.0,0.0,0,-1.4921618,1.0648589,-0.56250364,0.73233676,-0.59655744,1.0377817,-2.4330704,1.8921262,1.4101254,-0.22938925,-0.06756726,0.07335319,1.1830178,-0.11242686
0.1,0.0,0.9999999999999999,0.0,0.0,0,-1.4905484,1.0658482,-0.56202865,0.7320432,-0.5985501,1.041592,-2.466332,1.9158442,1.4483742,-0.32524613,-0.097238116,0.26715398,1.2585728,1.2750013
0.1,0.0,0.9999999999999999,0.0,0.0,0,-1.4920158,1.0651932,-0.56249785,0.7338916,-0.60228264,1.0389729,-2.321549,1.9491713,1.408903,-0.3615545,-0.062721774,0.37950927,1.3179975,0.26612288
0.1,0.0,0.9999999999999999,0.0,0.0,0,-1.4922947,1.0669938,-0.56322813,0.7348294,-0.5974147,1.0394691,-2.3043175,1.947785,1.4178876,-0.05729278,-0.10186537,0.43423495,1.1618918,0.83235556
0.1,0.0,0.9999999999999999,0.0,0.0,0,-1.4929771,1.0616074,-0.56282586,0.73208404,-0.594825,1.0371011,-2.3205585,1.88668,1.3370427,-0.13306634,-0.06597919,-0.0860138,1.2438012,1.3760569
0.1,0.0,0.9999999999999999,0.0,0.0,0,-1.4919801,1.0621692,-0.5625999,0.7328383,-0.6016319,1.0372202,-2.3870142,1.9443752,1.4018184,0.022416953,-0.042657863,-0.11984844,1.3494081,0.38012102
0.1,0.0,0.9999999999999999,0.0,0.0,0,-1.4911013,1.064517,-0.56224364,0.7329611,-0.59693646,1.0382982,-2.3119566,1.919063,1.3574665,-0.078509845,-0.045755267,-0.299282,1.2800255,-0.31354582
0.1,0.0,0.9999999999999999,0.0,0.0,0,-1.4915601,1.066166,-0.56248564,0.7332353,-0.5956981,1.0354311,-2.4757445,1.9098973,1.4854579,-0.17215303,-0.098109245,0.12693849,1.2012484,0.7533035
0.1,0.0,0.9999999999999999,0.0,0.0,0,-1.4914253,1.0647836,-0.5621507,0.73194367,-0.5979277,1.0368333,-2.3870976,1.8777969,1.3813229,-0.23764452,-0.15324596,-0.40742767,1.2781087,1.4448301
0.1,0.0,0.9999999999999999,0.0,0.0,0,-1.4919463,1.065359,-0.56170523,0.7320516,-0.5977417,1.0355493,-2.383158,1.9037596,1.3696082,0.11823898,-0.03457669,-0.120190874,1.2894462,0.5622066
0.1,0.0,0.9999999999999999,0.0,0.0,0,-1.4907963,1.0659658,-0.5630488,0.73121774,-0.59919906,1.0397836,-2.2890763,1.9079053,1.3568094,-0.009758215,-0.086865425,-0.012187842,1.1993248,0.6270117
0.1,0.0,0.9999999999999999,0.0,0.0,0,-1.4943898,1.0673115,-0.5619467,0.7325084,-0.59689593,1.0385256,-2.2826748,1.9293668,1.4483713,-0.077644885,-0.028013099,-0.13387786,1.2371813,-0.15828477
0.1,0.0,0.9999999999999999,0.0,0.0,0,-1.4912915,1.0643322,-0.5616839,0.73315096,-0.60186493,1.034883,-2.3940158,1.863401,1.4401838,-0.13027948,-0.03968794,0.4422688,1.1488483,0.19251719
0.1,0.0,0.9999999999999999,0.0,0.0,0,-1.4933287,1.0649426,-0.5620899,0.732663,-0.59301037,1.0389097,-2.4595716,1.9265878,1.3547246,-0.19543722,-0.04975065,0.033743795,1.3099395,1.0684167
0.1,0.0,0.9999999999999999,0.0,0.0,0,-1.4931519,1.0658023,-0.5612633,0.73249567,-0.5946793,1.039418,-2.3479676,1.9159197,1.4642528,-0.13808928,-0.09180354,-0.08480869,1.1574756,0.44058198
0.1,0.0,0.9999999999999999,0.0,0.0,0,-1.4917277,1.0632948,-0.5628305,0.7343553,-0.5935699,1.0360775,-2.3518126,1.8867012,1.481812,-0.16476667,-0.05743186,0.06667154,1.3378432,0.20946223
0.1,0.0,0.9999999999999999,0.0,0.0,0,-1.4896283,1.0635415,-0.5622633,0.73354584,-0.60140127,1.0372643,-2.3258214,1.9266787,1.350249,-0.051514503,-0.12193441,-0.16424033,1.2751659,-0.5725214
0.1,0.0,0.9999999999999999,0.0,0.0,0,-1.4920015,1.0645111,-0.56187826,0.73328894,-0.59975463,1.0375396,-2.3258111,1.8925778,1.4541364,0.02894319,-0.07090874,-0.1131466,1.170465,1.0292952
0.1,0.0,0.9999999999999999,0.0,0.0,0,-1.4922652,1.0657836,-0.56266457,0.7322121,-0.595223,1.0381088,-2.3734634,1.8983351,1.431794,-0.10674923,-0.051515423,-0.08012103,1.1306059,0.46837616
0.1,0.0,0.9999999999999999,0.0,0.0,0,-1.492035,1.0637889,-0.5622928,0.7336246,-0.598359,1.0394665,-2.3749418,1.9155083,1.413057,-0.15622671,-0.100542404,0.30538058,1.3298569,0.2566114
0.1,0.0,0.9999999999999999,0.0,0.0,0,-1.4919847,1.0663139,-0.56116843,0.7331059,-0.5978852,1.0397016,-2.3616352,1.9250865,1.4173005,-0.11851799,-0.05652095,0.009816544,1.2073807,0.40091917
0.1,0.0,0.9999999999999999,0.0,0.0,0,-1.4928648,1.064153,-0.56244755,0.733963,-0.59604263,1.0369339,-2.3427546,1.9611859,1.4459077,-0.119376406,-0.07726743,0.26274496,1.2846069,0.45822477
0.1,0.0,0.9999999999999999,0.0,0.0,0,-1.4909942,1.063202,-0.56289756,0.73366123,-0.60311687,1.0370569,-2.3731422,1.9228269,1.3483205,-0.06080779,-0.042713493,0.11062492,1.2381755,0.56573397
0.1,0.0,0.9999999999999999,0.0,0.0,0,-1.4920273,1.0641108,-0.5622535,0.731872,-0.5952295,1.0404392,-2.3592253,1.8978424,1.4013896,-0.23856246,-0.11301843,0.17106612,1.3624352,1.2534283
0.1,0.0,0.9999999999999999,0.0,0.0,0,-1.4914016,1.0626067,-0.5637479,0.7332781,-0.59835684,1.0335518,-2.3817518,1.9096305,1.3807845,-0.2109959,-0.06871432,0.38002613,1.3029652,-0.014366955
0.1,0.0,0.9999999999999999,0.0,0.0,0,-1.4919081,1.0648767,-0.56255364,0.7327009,-0.59537554,1.0393022,-2.3991437,1.9313834,1.4288869,-0.38233092,-0.040872775,-0.18315648,1.1391505,0.5403167
0.1,0.0,0.9999999999999999,0.0,0.0,0,-1.4921198,1.0624567,-0.5621878,0.7335946,-0.59567875,1.0336798,-2.3148384,1.9362159,1.4238076,-0.04551647,-0.100926146,-0.1102548,1.2222803,0.16316554
0.1,0.0,0.9999999999999999,0.0,0.0,0,-1.492231,1.0656946,-0.5625938,0.7342123,-0.6010907,1.0357265,-2.392936,1.9095358,1.4174924,0.023393674,-0.06612623,-0.15105392,1.3005395,0.9445008
0.1,0.0,0.9999999999999999,0.0,0.0,0,-1.489694,1.0637996,-0.56204045,0.7329153,-0.6013812,1.0380874,-2.3628519,1.9479383,1.3479337,-0.18328463,-0.092834495,-0.005441322,1.157517,0.99286944
0.1,0.0,0.9999999999999999,0.0,0.0,0,-1.4914602,1.0655687,-0.56236786,0.7344458,-0.59654313,1.0442339,-2.364531,1.893452,1.4050672,-0.27689922,-0.02746117,0.03900294,1.281434,1.5272305
0.1,0.0,0.9999999999999999,0.0,0.0,0,-1.4917598,1.0653187,-0.5618664,0.73299116,-0.59839064,1.0364196,-2.3673215,1.9373546,1.3849851,-0.08727455,-0.1245754,0.06326551,1.1883385,0.52828676
0.1,0.0,0.9999999999999999,0.0,0.0,0,-1.4933865,1.0615367,-0.561865,0.73279005,-0.5961799,1.0321453,-2.4149933,1.8805685,1.4419019,-0.070101276,-0.08840981,0.059466816,1.3443773,0.6427832
0.1,0.0,0.9999999999999999,0.0,0.0,0,-1.4930326,1.0657648,-0.5629634,0.732924,-0.6015033,1.0364301,-2.420002,1.9133056,1.4390328,-0.3315673,-0.015623961,0.043392617,1.207945,-0.19148786
0.1,0.0,0.9999999999999999,0.0,0.0,0,-1.4924124,1.0661429,-0.56225485,0.73440534,-0.5978874,1.0352676,-2.4702902,1.9016274,1.4466673,-0.16332461,-0.038509667,0.5284277,1.2805731,1.0919679
0.1,0.0,0.9999999999999999,0.0,0.0,0,-1.4913832,1.064902,-0.56385005,0.73363775,-0.5967856,1.0345739,-2.3406327,1.9320971,1.4696338,-0.41634962,-0.06695405,0.2565469,1.2073356,-0.05464537
0.1,0.0,0.9999999999999999,0.0,0.0,0,-1.4918863,1.0659547,-0.563587,0.7331062,-0.6007686,1.0318303,-2.4005795,1.8853909,1.40535,-0.28898183,-0.04773231,0.17834663,1.2129555,0.7369738
0.1,0.0,0.9999999999999999,0.0,0.0,0,-1.4914911,1.0633426,-0.5621219,0.7334301,-0.6037973,1.036958,-2.2846093,1.922386,1.4295932,-0.3096528,-0.08252636,-0.30717114,1.2128016,-0.54701394
0.1,0.0,0.9999999999999999,0.0,0.0,0,-1.4940187,1.0644189,-0.56289667,0.7328628,-0.60119647,1.0450443,-2.390974,1.8785082,1.3711003,-0.03662243,-0.017489532,-0.007841014,1.2724316,0.73150295
0.1,0.0,0.9999999999999999,0.0,0.0,0,-1.4933552,1.0649083,-0.5621591,0.73334605,-0.6011023,1.0339545,-2.4318433,1.9056425,1.408719,-0.0266379,-0.023047695,0.10885747,1.292128,0.61051434
0.1,0.0,0.9999999999999999,0.0,0.0,0,-1.4931234,1.0659941,-0.56315845,0.73220485,-0.5981457,1.0400921,-2.4108286,1.9136345,1.3692127,-0.28840762,-0.09606912,-0.5379161,1.1895748,1.1310258
0.1,0.0,0.9999999999999999,0.0,0.0,0,-1.4931439,1.0658259,-0.56208277,0.7336397,-0.5918243,1.0383313,-2.429493,1.9236176,1.4459455,-0.22306485,-0.008845637,-0.04910649,1.2750113,2.3464923
0.1,0.0,0.9999999999999999,0.0,0.0,0,-1.4921803,1.0658716,-0.56307787,0.7314937,-0.5966469,1.0366565,-2.427475,1.9212233,1.3580489,-0.015241482,-0.05070648,-0.16458806,1.1800098,0.2311488
0.1,0.0,0.9999999999999999,0.0,0.0,0,-1.4936676,1.0675035,-0.56287056,0.73279136,-0.5977124,1.0422144,-2.3753839,1.9036807,1.4485749,0.11947399,-0.016318107,0.1518654,1.2848146,0.8574419
0.1,0.0,0.9999999999999999,0.0,0.0,0,-1.4937307,1.0640205,-0.56274414,0.7334115,-0.60368437,1.038186,-2.3880453,1.939829,1.465555,-0.038425315,-0.03435372,0.006937812,1.2034822,0.6195484
0.1,0.0,0.9999999999999999,0.0,0.0,0,-1.4911032,1.064244,-0.56262577,0.7332199,-0.6004371,1.0363797,-2.3255363,1.9381286,1.432465,-0.143628,-0.053654008,0.073346734,1.1970745,-0.16350201
0.1,0.0,0.9999999999999999,0.0,0.0,0,-1.4932883,1.0637966,-0.56213456,0.7331139,-0.5956724,1.0381896,-2.3330817,1.9584433,1.3405392,-0.1157119,-0.054624587,0.36025003,1.2651929,-0.3494439
0.1,0.0,0.9999999999999999,0.0,0.0,0,-1.4915361,1.0649078,-0.5633444,0.7343878,-0.5981902,1.0371186,-2.3498807,1.8812796,1.4274985,-0.019369027,-0.08726094,-0.17524809,1.2177782,0.60642993
0.1,0.0,0.9999999999999999,0.0,0.0,0,-1.4929686,1.0643618,-0.56387764,0.73406184,-0.5997534,1.0386657,-2.3499703,1.8747146,1.4117246,-0.27253115,-0.115396425,0.02447255,1.2711737,1.1243489
0.1,0.0,0.9999999999999999,0.0,0.0,0,-1.4931823,1.0651635,-0.56256384,0.73391235,-0.598864,1.038991,-2.4078186,1.9260978,1.3993155,-0.10771115,-0.13182892,-0.12398229,1.2394683,0.5935722
0.1,0.0,0.9999999999999999,0.0,0.0,0,-1.4911057,1.0647507,-0.562569,0.7323482,-0.59813297,1.0382682,-2.3684752,1.8698056,1.4238733,0.0848078,-0.12380406,0.10557244,1.1243634,-0.33571026
0.1,0.0,0.9999999999999999,0.0,0.0,0,-1.491336,1.0636948,-0.56407416,0.7323047,-0.59930736,1.0369968,-2.4323125,1.8993686,1.3819649,-0.18919876,-0.118522204,-0.06189412,1.2606322,1.1200516
0.1,0.0,0.9999999999999999,0.0,0.0,0,-1.491453,1.0622029,-0.56219625,0.7333608,-0.59533906,1.040778,-2.3824975,1.9326404,1.4045793,-0.1644846,-0.07850303,0.4282497,1.2519125,0.4777671
0.1,0.0,0.9999999999999999,0.0,0.0,0,-1.4908143,1.0647211,-0.56142145,0.73417896,-0.6013886,1.0403688,-2.3684788,1.9204669,1.4653578,0.022006951,-0.059757657,0.0044292617,1.0985715,-0.29434144
0.1,0.0,0.9999999999999999,0.0,0.0,0,-1.4911054,1.0658485,-0.56236553,0.7339447,-0.59603107,1.0421944,-2.3935905,1.9172233,1.4338758,-0.11032553,-0.011508375,-0.22247878,1.2796394,0.84010273
0.1,0.0,0.9999999999999999,0.0,0.0,0,-1.4928256,1.065128,-0.56168056,0.7324812,-0.5946806,1.0342742,-2.403605,1.9436435,1.3888472,-0.11597592,-0.12438548,0.14316663,1.277791,0.26618126
0.1,0.0,0.9999999999999999,0.0,0.0,0,-1.4914231,1.06436,-0.5634359,0.7337296,-0.5962948,1.0412363,-2.368464,1.916399,1.4143773,-0.21165167,-0.01695806,0.24090293,1.3024272,1.2954894
0.1,0.0,0.9999999999999999,0.0,0.0,0,-1.4923276,1.0647063,-0.56152594,0.7332133,-0.5947487,1.0356917,-2.2927306,1.9266132,1.4551767,-0.25964808,-0.052635174,-0.03708619,1.2471075,0.377612
0.1,0.0,0.9999999999999999,0.0,0.0,0,-1.4910376,1.0650256,-0.56312495,0.73292094,-0.5995341,1.0395814,-2.3337998,1.8867404,1.4418434,-0.2040561,-0.0979048,0.0788985,1.2034525,0.387934
0.1,0.0,0.9999999999999999,0.0,0.0,0,-1.4919832,1.064594,-0.5616062,0.7328725,-0.594653,1.0389869,-2.492819,1.9025675,1.3715175,-0.124392964,-0.0044098333,0.14510037,1.1508307,0.6669802
0.1,0.0,0.9999999999999999,0.0,0.0,0,-1.49213,1.0646806,-0.5634742,0.73472834,-0.6001506,1.0362705,-2.4308906,1.9418203,1.3888192,-0.16934524,-0.07333719,-0.11614097,1.2367507,0.40225923
0.1,0.0,0.9999999999999999,0.0,0.0,0,-1.4929494,1.0621792,-0.56154746,0.7317612,-0.6001102,1.0427116,-2.3364882,1.8984778,1.4178228,-0.34710836,-0.08106812,-0.034476463,1.1969199,0.20712395
0.1,0.0,0.9999999999999999,0.0,0.0,0,-1.4919744,1.062491,-0.56208646,0.73301363,-0.5965792,1.0373266,-2.3595583,1.9223409,1.3691789,-0.14929983,-0.02707515,0.18545854,1.1426474,0.46804306
0.1,0.0,0.9999999999999999,0.0,0.0,0,-1.4928317,1.0640769,-0.56174713,0.73283964,-0.59699184,1.0356605,-2.4305441,1.9475865,1.3769634,-0.17670856,-0.09610534,-0.09524815,1.1476963,1.6509826
0.1,0.0,0.9999999999999999,0.0,0.0,0,-1.4918977,1.0651764,-0.5615902,0.7331972,-0.5972949,1.0388323,-2.279986,1.9134488,1.4104308,-0.074285455,-0.119578734,-0.1463425,1.1562804,0.6942104
0.1,0.0,0.9999999999999999,0.0,0.0,0,-1.4920814,1.0654694,-0.5628757,0.73272127,-0.59267104,1.0322778,-2.4116902,1.8846848,1.4326708,-0.22824949,-0.12232377,0.064438224,1.2538294,0.66053337
0.1,0.0,0.9999999999999999,0.0,0.0,0,-1.491221,1.0614679,-0.5628532,0.7336634,-0.5988016,1.0366434,-2.3737817,1.8895732,1.3854474,-0.09044983,-0.14033121,-0.11921757,1.2268188,0.5135988
0.1,0.0,0.9999999999999999,0.0,0.0,0,-1.4931711,1.066124,-0.561764,0.73243374,-0.5958086,1.0360516,-2.4056902,1.9238371,1.3579721,-0.24726014,-0.122211576,0.1214231,1.1901295,1.1334578
0.1,0.0,0.9999999999999999,0.0,0.0,0,-1.4927124,1.0644157,-0.56238824,0.7342127,-0.598616,1.0353981,-2.4167323,1.9188572,1.4954133,-0.3424494,-0.061355907,0.23062263,1.314673,0.2140289
0.1,0.0,0.9999999999999999,0.0,0.0,0,-1.4934151,1.0636879,-0.5630878,0.7324883,-0.59595454,1.035639,-2.383684,1.8967307,1.3850062,-0.11533636,-0.06405696,0.23959462,1.1629498,0.41775
0.1,0.0,0.9999999999999999,0.0,0.0,0,-1.4911457,1.0650041,-0.56271726,0.73237807,-0.599253,1.040203,-2.4390662,1.9359938,1.4727644,-0.16926076,-0.17244408,0.057919018,1.1250838,0.601629
0.1,0.0,0.9999999999999999,0.0,0.0,0,-1.4917725,1.0641434,-0.5625776,0.73269993,-0.5979093,1.0345323,-2.4142942,1.943776,1.4398329,-0.040610183,-0.09911323,-0.32037988,1.1232107,0.80308557
0.1,0.0,0.9999999999999999,0.0,0.0,0,-1.4923927,1.0640471,-0.56174946,0.7333065,-0.59678966,1.0385712,-2.3552809,1.9137856,1.4417219,-0.070547864,-0.06963153,0.23386711,1.1814365,0.13288243
0.1,0.0,0.9999999999999999,0.0,0.0,0,-1.4906435,1.0643513,-0.5620955,0.73372227,-0.59990025,1.0365348,-2.3860414,1.9297917,1.3441178,0.052952085,-0.07326709,-0.089243926,1.2200078,1.3403878
0.1,0.0,0.9999999999999999,0.0,0.0,0,-1.4920722,1.0630913,-0.56228936,0.7335605,-0.59660596,1.0382183,-2.4407554,1.9295338,1.4003832,-0.06748996,-0.050665013,0.07542468,1.2976302,-0.26837036
0.1,0.0,0.9999999999999999,0.0,0.0,0,-1.4934124,1.0661703,-0.56288356,0.7330923,-0.5949994,1.0390669,-2.3568766,1.9162413,1.4176217,-0.41511273,-0.1212408,0.21204162,1.2298293,0.21832332
0.1,0.0,0.9999999999999999,0.0,0.0,0,-1.4893833,1.0636408,-0.5624365,0.73251724,-0.6014464,1.0397667,-2.4024115,1.8983722,1.4140555,0.005820105,-0.07727297,-0.042244915,1.223395,0.8430389
0.1,0.0,0.9999999999999999,0.0,0.0,0,-1.4916743,1.062888,-0.5622134,0.73358107,-0.593813,1.0387968,-2.3430655,1.9302016,1.3651052,-0.263413,-0.046739027,0.106887825,1.3244246,-0.16025963
0.1,0.0,0.9999999999999999,0.0,0.0,0,-1.4919441,1.065859,-0.5630951,0.7325583,-0.59197295,1.0394307,-2.307115,1.9057404,1.3860445,-0.13994865,-0.11281208,0.059154812,1.2772677,0.1420403
0.1,0.0,0.9999999999999999,0.0,0.0,0,-1.491458,1.0669961,-0.5625632,0.73352736,-0.5993781,1.0408926,-2.401669,1.9010968,1.3369398,-0.3392024,-0.07356414,0.20719124,1.2972968,0.7221263
0.1,0.0,0.9999999999999999,0.0,0.0,0,-1.4919358,1.0646611,-0.56223184,0.7329116,-0.5996065,1.0417145,-2.4459262,1.8838638,1.4046047,0.06889143,-0.121282846,0.041727014,1.1917208,0.2227702
0.1,0.0,0.9999999999999999,0.0,0.0,0,-1.4910697,1.0658618,-0.5613595,0.73501176,-0.60007584,1.0318824,-2.3476183,1.9425493,1.369662,-0.18007052,-0.059340276,-0.1500303,1.2540114,0.3757569
0.1,0.0,0.9999999999999999,0.0,0.0,0,-1.4924697,1.0641347,-0.5614893,0.7323417,-0.5959274,1.034592,-2.370071,1.8725842,1.4224802,-0.20266038,-0.056477193,0.28758785,1.1606303,0.47459283
0.1,0.0,0.9999999999999999,0.0,0.0,0,-1.4919208,1.0627667,-0.5616982,0.73303795,-0.59877425,1.0388227,-2.2600064,1.9458352,1.3783668,-0.2715371,-0.077327475,0.55303884,1.2047317,-0.8656289
0.1,0.0,0.9999999999999999,0.0,0.0,0,-1.4930369,1.0660532,-0.56165123,0.7323662,-0.60088146,1.0379449,-2.3571312,1.8651137,1.4589384,-0.15828253,0.027104706,-0.27851924,1.1768316,0.15464476
