sanky1234/BimanualDexCatch/isaacgymenvs/cem_results/football_pose_0.0_0.0_0.6_-0.5235987755982988_0.5235987755982988_0_2025-05-26.csv
x,y,z,roll,pitch,yaw,robot1/joint1,robot1/joint2,robot1/joint3,robot1/joint4,robot1/joint5,robot1/joint6,robot1/joint7,robot2/joint1,robot2/joint2,robot2/joint3,robot2/joint4,robot2/joint5,robot2/joint6,robot2/joint7
0.0,0.0,0.6,-0.5235987755982988,0.5235987755982988,0,0.22376886,1.9653331,-0.15919374,-0.6694064,-0.11369661,1.4236375,-2.94343,0.013232184,1.7749019,0.2056612,-0.72878426,0.02355849,1.5643033,-2.3689308
0.0,0.0,0.6,-0.5235987755982988,0.5235987755982988,0,0.22931746,1.965821,-0.18105511,-0.66537476,-0.110448845,1.4319845,-3.0061352,0.0093818195,1.7735472,0.2071483,-0.7245878,0.03674549,1.565876,-2.364706
0.0,0.0,0.6,-0.5235987755982988,0.5235987755982988,0,0.21602933,1.9655429,-0.15527399,-0.674038,-0.13594358,1.4227986,-3.0103035,0.008335043,1.7726365,0.21108681,-0.7260346,0.03296274,1.5663537,-2.377122
0.0,0.0,0.6,-0.5235987755982988,0.5235987755982988,0,0.21441236,1.9661684,-0.1459012,-0.6761184,-0.1975789,1.427936,-3.005842,0.0050901887,1.7737455,0.19546321,-0.72703785,0.04066567,1.5605377,-2.362268
0.0,0.0,0.6,-0.5235987755982988,0.5235987755982988,0,0.20551008,1.9712107,-0.15995128,-0.6658449,-0.13178004,1.4262035,-2.9635146,0.0073716138,1.7699906,0.20275907,-0.72607297,0.02265637,1.5647339,-2.3575933
0.0,0.0,0.6,-0.5235987755982988,0.5235987755982988,0,0.22060075,1.9682454,-0.15293507,-0.67051226,-0.14064224,1.4259247,-2.9562275,0.016664421,1.773416,0.20047516,-0.7250341,0.03580909,1.5640527,-2.3507187
0.0,0.0,0.6,-0.5235987755982988,0.5235987755982988,0,0.22028594,1.9692438,-0.16603716,-0.6677152,-0.10457908,1.4141152,-2.8715765,0.020758824,1.7726616,0.2081979,-0.7271388,0.032762762,1.5634584,-2.3484628
0.0,0.0,0.6,-0.5235987755982988,0.5235987755982988,0,0.22645013,1.9706305,-0.17337531,-0.6839684,-0.11778756,1.4203959,-3.017734,0.0114517035,1.7726038,0.20159322,-0.7267089,0.029818283,1.5599921,-2.3627393
0.0,0.0,0.6,-0.5235987755982988,0.5235987755982988,0,0.20622551,1.9602189,-0.15872262,-0.6678886,-0.10485635,1.4286236,-2.9915884,0.011146377,1.7724615,0.20867385,-0.7243301,0.03647926,1.5617787,-2.3578222
0.0,0.0,0.6,-0.5235987755982988,0.5235987755982988,0,0.22164135,1.9668189,-0.14200832,-0.67091954,-0.08958617,1.417466,-2.9893734,0.004321535,1.7726502,0.20396325,-0.72704774,0.039481714,1.5667762,-2.3523571
0.0,0.0,0.6,-0.5235987755982988,0.5235987755982988,0,0.2265213,1.9648719,-0.18394132,-0.66097265,-0.11231164,1.4163268,-2.9980264,0.009689339,1.7709471,0.20451424,-0.7268502,0.032205563,1.5658354,-2.3640883
0.0,0.0,0.6,-0.5235987755982988,0.5235987755982988,0,0.23636913,1.966566,-0.14696118,-0.6611998,-0.13643174,1.4236993,-2.9771671,0.010798086,1.7716441,0.2048112,-0.72468776,0.032411758,1.5605055,-2.330447
0.0,0.0,0.6,-0.5235987755982988,0.5235987755982988,0,0.22619404,1.9695581,-0.17894962,-0.67666936,-0.078129396,1.4199152,-2.9711485,0.015238922,1.7740216,0.20638672,-0.7245954,0.039203033,1.5607171,-2.3662865
0.0,0.0,0.6,-0.5235987755982988,0.5235987755982988,0,0.23013306,1.9632219,-0.16266334,-0.6704526,-0.104329504,1.428807,-2.9860086,0.0040557534,1.7731309,0.20311652,-0.7304013,0.036477864,1.5664525,-2.3710036
0.0,0.0,0.6,-0.5235987755982988,0.5235987755982988,0,0.23187679,1.9604996,-0.19372047,-0.6637504,-0.08116157,1.4247723,-2.9501495,0.007960402,1.7761066,0.20515548,-0.72777474,0.035120253,1.5685003,-2.3633547
0.0,0.0,0.6,-0.5235987755982988,0.5235987755982988,0,0.225918,1.961068,-0.16349134,-0.67023844,-0.09502176,1.4374694,-3.0282845,0.001272097,1.7733217,0.20816779,-0.7281586,0.040850017,1.5638531,-2.3710008
0.0,0.0,0.6,-0.5235987755982988,0.5235987755982988,0,0.21281439,1.9709091,-0.16840678,-0.6625655,-0.18128866,1.425894,-3.0530915,0.02949526,1.7752788,0.20948224,-0.733282,0.030537806,1.5671774,-2.3431432
0.0,0.0,0.6,-0.5235987755982988,0.5235987755982988,0,0.21450362,1.9612148,-0.18795028,-0.6606486,-0.1303787,1.4163828,-2.9667668,0.0028310893,1.772881,0.20618951,-0.721035,0.04033429,1.5624162,-2.3582966
0.0,0.0,0.6,-0.5235987755982988,0.5235987755982988,0,0.2342213,1.9615804,-0.17215367,-0.6732744,-0.19762523,1.4365964,-2.9515588,0.012033342,1.7753571,0.20735474,-0.7281029,0.039805304,1.5612997,-2.3489344
0.0,0.0,0.6,-0.5235987755982988,0.5235987755982988,0,0.21995997,1.970123,-0.16334659,-0.6714054,-0.12494255,1.426135,-2.9522088,0.022970257,1.775122,0.2066465,-0.7263057,0.026979655,1.5643432,-2.3609731
0.0,0.0,0.6,-0.5235987755982988,0.5235987755982988,0,0.22734745,1.969754,-0.15466274,-0.6736405,-0.10370247,1.4358531,-3.0034912,0.0054228907,1.7697909,0.20838664,-0.7211308,0.041376438,1.561983,-2.3683083
0.0,0.0,0.6,-0.5235987755982988,0.5235987755982988,0,0.2109101,1.9669569,-0.17479935,-0.6777272,-0.09681839,1.4489331,-3.0093896,0.004342262,1.7714783,0.20471911,-0.7218409,0.042912792,1.5628307,-2.362813
0.0,0.0,0.6,-0.5235987755982988,0.5235987755982988,0,0.20850395,1.9664488,-0.15284644,-0.67407715,-0.1520534,1.4302953,-3.0245068,0.025219277,1.7750267,0.2049648,-0.7299963,0.035856612,1.5656133,-2.3598998
0.0,0.0,0.6,-0.5235987755982988,0.5235987755982988,0,0.21508689,1.9662658,-0.17082597,-0.6608597,-0.147908,1.4332137,-2.923949,0.013271083,1.7746487,0.19995877,-0.7317735,0.038741864,1.5668865,-2.366834
0.0,0.0,0.6,-0.5235987755982988,0.5235987755982988,0,0.201177,1.9683504,-0.15892966,-0.6754457,-0.09475146,1.425275,-2.9516606,0.007913,1.7746785,0.20442194,-0.7270667,0.042841703,1.5633754,-2.3735697
0.0,0.0,0.6,-0.5235987755982988,0.5235987755982988,0,0.20122105,1.9716681,-0.16033997,-0.66066635,-0.08941542,1.4215816,-3.0106888,0.010059059,1.7719859,0.21056232,-0.7203816,0.033625383,1.5634776,-2.3662417
0.0,0.0,0.6,-0.5235987755982988,0.5235987755982988,0,0.22512534,1.9743665,-0.17281948,-0.6754953,-0.07283289,1.4301788,-2.9516761,0.016700497,1.7736148,0.20466341,-0.7293281,0.036983155,1.5668402,-2.372358
0.0,0.0,0.6,-0.5235987755982988,0.5235987755982988,0,0.219985,1.9633075,-0.15390693,-0.6714074,-0.15541147,1.4254636,-3.0115514,-0.0017210001,1.7747535,0.20708612,-0.7188958,0.03452912,1.5602529,-2.384616
0.0,0.0,0.6,-0.5235987755982988,0.5235987755982988,0,0.22527376,1.9692513,-0.18049271,-0.6725171,-0.10186981,1.4399993,-2.9759142,0.0075307605,1.7719735,0.20936878,-0.7289975,0.03712191,1.5643458,-2.3551626
0.0,0.0,0.6,-0.5235987755982988,0.5235987755982988,0,0.241374,1.9716886,-0.15850976,-0.6754477,-0.11516683,1.4340508,-2.939271,0.0021487498,1.7744094,0.20850188,-0.7244834,0.042682458,1.5616266,-2.3527443
0.0,0.0,0.6,-0.5235987755982988,0.5235987755982988,0,0.21292466,1.9688907,-0.15384845,-0.6703275,-0.11864948,1.4297748,-2.9115782,0.022231592,1.7716194,0.19973081,-0.72817326,0.033529606,1.5641642,-2.379671
0.0,0.0,0.6,-0.5235987755982988,0.5235987755982988,0,0.23835264,1.969974,-0.15968882,-0.67250705,-0.06954844,1.4345517,-3.1132998,0.008042403,1.773344,0.20630983,-0.7287455,0.041543543,1.5625368,-2.3781276
0.0,0.0,0.6,-0.5235987755982988,0.5235987755982988,0,0.23703393,1.969201,-0.16752167,-0.66580987,-0.08028079,1.4307557,-3.0401802,0.008515249,1.7735788,0.2076265,-0.7238175,0.035012577,1.5633109,-2.3659673
0.0,0.0,0.6,-0.5235987755982988,0.5235987755982988,0,0.22709663,1.9655765,-0.1488633,-0.6700909,-0.1140266,1.4273976,-3.098326,0.0053165522,1.7735956,0.20409131,-0.7275536,0.036659226,1.5621727,-2.3680775
0.0,0.0,0.6,-0.5235987755982988,0.5235987755982988,0,0.2156041,1.9651067,-0.16286573,-0.66776913,-0.09157206,1.4254308,-2.980473,0.020230703,1.771957,0.20311663,-0.7261766,0.03340751,1.5639302,-2.3443203
0.0,0.0,0.6,-0.5235987755982988,0.5235987755982988,0,0.23958759,1.9673008,-0.15725148,-0.6663561,-0.100757524,1.4165663,-2.9942653,0.014946916,1.7741629,0.2069533,-0.73012465,0.039668616,1.5696322,-2.3740137
0.0,0.0,0.6,-0.5235987755982988,0.5235987755982988,0,0.23141891,1.9672477,-0.16579165,-0.6762711,-0.12233699,1.4153609,-2.97211,0.0076158983,1.7723368,0.20651463,-0.7260035,0.028967334,1.5669028,-2.3716192
0.0,0.0,0.6,-0.5235987755982988,0.5235987755982988,0,0.22058325,1.9683694,-0.16501613,-0.6608783,-0.13190576,1.41959,-3.059938,0.01837989,1.7758044,0.20577529,-0.7246586,0.03671809,1.5623927,-2.3627508
0.0,0.0,0.6,-0.5235987755982988,0.5235987755982988,0,0.2358235,1.9769428,-0.17818841,-0.6630512,-0.104644924,1.4194558,-2.9824214,0.017521942,1.7737057,0.20905225,-0.72654444,0.03995929,1.5649865,-2.3688502
0.0,0.0,0.6,-0.5235987755982988,0.5235987755982988,0,0.21720171,1.9677218,-0.15836212,-0.66825026,-0.11734588,1.4323586,-3.0969923,0.0017933826,1.774489,0.19891824,-0.7249551,0.037878904,1.5605634,-2.346078
0.0,0.0,0.6,-0.5235987755982988,0.5235987755982988,0,0.21174859,1.9681791,-0.1660664,-0.6717527,-0.1193153,1.4281442,-2.90893,0.008643997,1.7744321,0.21135698,-0.72379446,0.03562476,1.5625063,-2.3575053
0.0,0.0,0.6,-0.5235987755982988,0.5235987755982988,0,0.23546654,1.9705012,-0.16749382,-0.6708397,-0.1302724,1.4289733,-3.0092084,0.002031623,1.7747061,0.19443549,-0.7269413,0.035010677,1.5603986,-2.3437252
0.0,0.0,0.6,-0.5235987755982988,0.5235987755982988,0,0.21208113,1.967002,-0.15390348,-0.6549743,-0.12698981,1.4285475,-2.9578655,0.005020433,1.7726918,0.21044743,-0.7288689,0.0398892,1.5646536,-2.374663
0.0,0.0,0.6,-0.5235987755982988,0.5235987755982988,0,0.22159824,1.970949,-0.16196582,-0.67243505,-0.14750205,1.4251548,-2.9534736,0.022270134,1.7733808,0.21644592,-0.72803515,0.039382543,1.565995,-2.3584075
0.0,0.0,0.6,-0.5235987755982988,0.5235987755982988,0,0.22317412,1.9720517,-0.16829139,-0.6628608,-0.15028313,1.4318328,-3.0294955,0.015414609,1.7711159,0.20724343,-0.7276092,0.044247463,1.5663809,-2.3676462
0.0,0.0,0.6,-0.5235987755982988,0.5235987755982988,0,0.22294089,1.9614781,-0.17429623,-0.6731096,-0.047871202,1.4314928,-3.0534284,-0.00048397097,1.773853,0.20892744,-0.7314908,0.03914996,1.5635078,-2.3713622
0.0,0.0,0.6,-0.5235987755982988,0.5235987755982988,0,0.22684544,1.9691577,-0.16676468,-0.6772074,-0.09603674,1.4301174,-3.0945191,0.006641873,1.7722929,0.20549881,-0.7255274,0.042732824,1.5650334,-2.382582
0.0,0.0,0.6,-0.5235987755982988,0.5235987755982988,0,0.2103094,1.9668614,-0.1734607,-0.6681704,-0.10479338,1.4302709,-2.8975697,0.014061365,1.7708704,0.20563029,-0.72800756,0.027902592,1.5672475,-2.3514016
0.0,0.0,0.6,-0.5235987755982988,0.5235987755982988,0,0.23363572,1.9667076,-0.16968493,-0.6682291,-0.15606275,1.4185379,-2.993782,0.015632436,1.7749318,0.20597999,-0.729089,0.03814612,1.5650505,-2.3449054
0.0,0.0,0.6,-0.5235987755982988,0.5235987755982988,0,0.23683253,1.9686114,-0.13767031,-0.6697918,-0.18973656,1.4047087,-2.9756353,0.008375052,1.7722079,0.2086606,-0.72624034,0.037761286,1.5663458,-2.3797143
0.0,0.0,0.6,-0.5235987755982988,0.5235987755982988,0,0.22015634,1.9685367,-0.14452301,-0.66255766,-0.14262493,1.4363487,-2.9447246,0.008667853,1.7738937,0.20814326,-0.72558475,0.037792444,1.5622323,-2.3739262
0.0,0.0,0.6,-0.5235987755982988,0.5235987755982988,0,0.22435698,1.9659883,-0.14659053,-0.67397153,-0.1303809,1.4418875,-2.9157624,0.009743777,1.7742635,0.20288762,-0.7289019,0.035435107,1.5666096,-2.3485627
0.0,0.0,0.6,-0.5235987755982988,0.5235987755982988,0,0.21619962,1.9708196,-0.15358697,-0.67389655,-0.14532924,1.410068,-2.9744387,0.012670783,1.7727365,0.19920366,-0.72331136,0.040831525,1.564722,-2.3722692
0.0,0.0,0.6,-0.5235987755982988,0.5235987755982988,0,0.2200482,1.9786676,-0.16419183,-0.67311054,-0.15148196,1.4330125,-3.0196476,0.013417575,1.7754664,0.21264021,-0.730689,0.039237414,1.5646223,-2.3614979
0.0,0.0,0.6,-0.5235987755982988,0.5235987755982988,0,0.22104271,1.9646381,-0.1585304,-0.67777836,-0.16562334,1.419571,-3.0175447,0.013989442,1.7743948,0.20731997,-0.73220336,0.040878434,1.5651456,-2.370527
0.0,0.0,0.6,-0.5235987755982988,0.5235987755982988,0,0.22339906,1.9727935,-0.14332156,-0.674516,-0.11639606,1.4301313,-3.0193005,0.014810584,1.772864,0.20483443,-0.72573507,0.042103145,1.5628499,-2.369826
0.0,0.0,0.6,-0.5235987755982988,0.5235987755982988,0,0.22097974,1.975747,-0.1519216,-0.6759851,-0.12654515,1.4293188,-2.9790962,0.020537779,1.7735388,0.20453316,-0.72609246,0.028287804,1.5648433,-2.368048
0.0,0.0,0.6,-0.5235987755982988,0.5235987755982988,0,0.22179876,1.9686263,-0.16100204,-0.6727718,-0.11173075,1.4382759,-2.9807124,0.0013486702,1.7721614,0.20234956,-0.7272597,0.038377423,1.5650727,-2.3805144
0.0,0.0,0.6,-0.5235987755982988,0.5235987755982988,0,0.21905376,1.9709004,-0.17137617,-0.6772243,-0.033258073,1.4250422,-2.9621623,0.00042192382,1.7736456,0.20442036,-0.7298762,0.037388418,1.5685459,-2.3671956
0.0,0.0,0.6,-0.5235987755982988,0.5235987755982988,0,0.20000182,1.963758,-0.19490752,-0.67985934,-0.13938445,1.4249027,-3.018193,0.005986193,1.7715472,0.202578,-0.7248573,0.044734553,1.5633036,-2.3552
0.0,0.0,0.6,-0.5235987755982988,0.5235987755982988,0,0.221417,1.9596695,-0.17000294,-0.67433,-0.15112464,1.451712,-2.997171,0.018682932,1.773273,0.20536223,-0.7244547,0.027285118,1.5621927,-2.3637044
0.0,0.0,0.6,-0.5235987755982988,0.5235987755982988,0,0.24546173,1.9734106,-0.19757487,-0.67007023,-0.149394,1.4292676,-3.0833423,0.014692145,1.7701025,0.20731013,-0.7286394,0.033349223,1.5680338,-2.3649945
0.0,0.0,0.6,-0.5235987755982988,0.5235987755982988,0,0.22629113,1.9690374,-0.15521927,-0.6729894,-0.17329277,1.4228896,-3.0289237,0.004755272,1.7692266,0.20568158,-0.7232069,0.03198927,1.5680786,-2.377329
0.0,0.0,0.6,-0.5235987755982988,0.5235987755982988,0,0.23105994,1.9605384,-0.1549557,-0.6633303,-0.10683257,1.4155068,-2.9841754,0.015025545,1.7736956,0.2014683,-0.729258,0.032406554,1.5625575,-2.3552802
0.0,0.0,0.6,-0.5235987755982988,0.5235987755982988,0,0.20589367,1.964149,-0.16554265,-0.6681726,-0.11048703,1.4211626,-3.0561182,0.008483917,1.7710316,0.20651942,-0.72394365,0.033808894,1.567288,-2.365604
0.0,0.0,0.6,-0.5235987755982988,0.5235987755982988,0,0.21125847,1.9668864,-0.15052836,-0.66617084,-0.13177145,1.4273444,-2.9058805,0.0037420685,1.7752504,0.20980667,-0.72852176,0.037798576,1.5654647,-2.3538198
0.0,0.0,0.6,-0.5235987755982988,0.5235987755982988,0,0.22242649,1.9677409,-0.16946746,-0.6662439,-0.11848215,1.4335694,-2.9876285,0.006115616,1.7715609,0.2072308,-0.72057754,0.03986019,1.5619072,-2.3776162
0.0,0.0,0.6,-0.5235987755982988,0.5235987755982988,0,0.23554826,1.9695889,-0.16015327,-0.6663595,-0.13134848,1.4361612,-2.9344757,0.022226408,1.7733083,0.20793104,-0.7251235,0.036756445,1.5615479,-2.36276
0.0,0.0,0.6,-0.5235987755982988,0.5235987755982988,0,0.20612109,1.9679592,-0.15432642,-0.66395825,-0.17580241,1.4216902,-3.0771062,-0.013681216,1.7758179,0.20522194,-0.7278324,0.032544795,1.5652658,-2.3624947
0.0,0.0,0.6,-0.5235987755982988,0.5235987755982988,0,0.22521743,1.9673223,-0.16515926,-0.6647661,-0.10540503,1.435173,-2.954485,0.0027289896,1.7729048,0.20784439,-0.7240704,0.037035182,1.562439,-2.362844
0.0,0.0,0.6,-0.5235987755982988,0.5235987755982988,0,0.21757945,1.973817,-0.17498738,-0.67282027,-0.106504366,1.4076579,-3.0073037,-0.0036546239,1.7721028,0.20881759,-0.7259957,0.036609843,1.5636113,-2.3505044
0.0,0.0,0.6,-0.5235987755982988,0.5235987755982988,0,0.2040232,1.9667407,-0.18288223,-0.68054545,-0.15303828,1.4334966,-3.0103416,0.005848453,1.7710811,0.2127698,-0.72540027,0.02628526,1.5680252,-2.3724978
0.0,0.0,0.6,-0.5235987755982988,0.5235987755982988,0,0.22871335,1.9712139,-0.18333504,-0.674172,-0.12080697,1.419779,-3.0100086,0.004428969,1.7751303,0.21691553,-0.72421587,0.031643573,1.5652901,-2.3747678
0.0,0.0,0.6,-0.5235987755982988,0.5235987755982988,0,0.20214838,1.9708277,-0.17483597,-0.6723829,-0.11838917,1.4299581,-2.8964252,0.01109842,1.771904,0.2078676,-0.72539616,0.033820923,1.5698323,-2.3748865
0.0,0.0,0.6,-0.5235987755982988,0.5235987755982988,0,0.22962356,1.9731463,-0.15542428,-0.667813,-0.1278797,1.4217538,-2.9966836,0.004451461,1.7742949,0.21158752,-0.7252603,0.024485271,1.564653,-2.3758237
0.0,0.0,0.6,-0.5235987755982988,0.5235987755982988,0,0.2293102,1.9677837,-0.17523167,-0.6737747,-0.13893817,1.4415356,-2.9670215,0.01134736,1.7705581,0.21046308,-0.72399974,0.03670551,1.5620071,-2.3600593
0.0,0.0,0.6,-0.5235987755982988,0.5235987755982988,0,0.22519869,1.9716475,-0.17253818,-0.6714914,-0.15738447,1.4235321,-3.0458777,0.02086563,1.7738787,0.2092969,-0.7275366,0.04068464,1.5655265,-2.38326
0.0,0.0,0.6,-0.5235987755982988,0.5235987755982988,0,0.23121217,1.96833,-0.15025058,-0.6795423,-0.14413182,1.4273534,-2.9878025,0.027043823,1.772081,0.20049953,-0.72198915,0.04202174,1.5641762,-2.3764768
0.0,0.0,0.6,-0.5235987755982988,0.5235987755982988,0,0.2378769,1.9730405,-0.14530207,-0.671628,-0.122323774,1.4257015,-2.8997006,0.010551093,1.775139,0.21124302,-0.7251308,0.03635882,1.5655571,-2.3746805
0.0,0.0,0.6,-0.5235987755982988,0.5235987755982988,0,0.22787644,1.9641241,-0.16013543,-0.6731081,-0.09387284,1.422398,-3.0066197,0.013524886,1.7748966,0.20364699,-0.7299272,0.044487793,1.5653685,-2.369308
0.0,0.0,0.6,-0.5235987755982988,0.5235987755982988,0,0.22265498,1.9690921,-0.15672632,-0.6671437,-0.10609375,1.4375018,-2.999886,0.009183777,1.7721101,0.2070821,-0.7262742,0.042202283,1.566469,-2.3852813
0.0,0.0,0.6,-0.5235987755982988,0.5235987755982988,0,0.20122151,1.9597362,-0.15372778,-0.66630983,-0.13134094,1.4276809,-2.9569325,0.0010808611,1.7712318,0.2042772,-0.7269811,0.03360579,1.5694381,-2.3781784
0.0,0.0,0.6,-0.5235987755982988,0.5235987755982988,0,0.22324672,1.9725057,-0.16285974,-0.6652981,-0.1393434,1.4305615,-3.021046,0.012457704,1.7732873,0.20495756,-0.7248343,0.04380397,1.5626206,-2.3582811
0.0,0.0,0.6,-0.5235987755982988,0.5235987755982988,0,0.22432986,1.9672917,-0.15287295,-0.6762548,-0.10496972,1.4304658,-2.9934406,0.024250232,1.7776057,0.20581865,-0.7320835,0.032506198,1.5668924,-2.361521
0.0,0.0,0.6,-0.5235987755982988,0.5235987755982988,0,0.21856521,1.9699011,-0.18388334,-0.6696938,-0.099087745,1.4203594,-2.9980423,0.029900858,1.7710199,0.2003433,-0.72259533,0.039917827,1.5633345,-2.3710146
0.0,0.0,0.6,-0.5235987755982988,0.5235987755982988,0,0.23418267,1.9651163,-0.19727696,-0.6685669,-0.09707682,1.4146982,-2.933407,-0.0002518454,1.7722507,0.2060319,-0.72753406,0.038938172,1.5643295,-2.3478956
0.0,0.0,0.6,-0.5235987755982988,0.5235987755982988,0,0.22238533,1.9679849,-0.15693633,-0.66957307,-0.07907893,1.4360769,-3.011772,0.009423987,1.7749423,0.21148936,-0.72911614,0.038424004,1.566152,-2.370314
0.0,0.0,0.6,-0.5235987755982988,0.5235987755982988,0,0.22757328,1.9663788,-0.16299525,-0.67180496,-0.12912257,1.4160334,-3.0238173,0.013232618,1.7712834,0.20957655,-0.7202567,0.03966336,1.5605098,-2.3638878
0.0,0.0,0.6,-0.5235987755982988,0.5235987755982988,0,0.21913008,1.9720294,-0.18131118,-0.66443986,-0.12658253,1.416197,-3.0231183,0.020928986,1.7719313,0.20431298,-0.7251836,0.033108212,1.5628287,-2.3588722
0.0,0.0,0.6,-0.5235987755982988,0.5235987755982988,0,0.21997078,1.9713976,-0.14069684,-0.6692202,-0.047229446,1.4307975,-3.0476923,0.014596575,1.7723767,0.20507254,-0.7221334,0.035280515,1.56521,-2.382197
0.0,0.0,0.6,-0.5235987755982988,0.5235987755982988,0,0.21895187,1.9684803,-0.14512353,-0.65455705,-0.12207475,1.4245464,-3.0089273,0.0120024625,1.7722135,0.20345166,-0.7258448,0.034122262,1.5640203,-2.3637068
0.0,0.0,0.6,-0.5235987755982988,0.5235987755982988,0,0.22988735,1.9642684,-0.17370601,-0.6812142,-0.12845562,1.4170789,-2.9435384,0.026145108,1.7714523,0.19598496,-0.72278804,0.041111294,1.5654325,-2.3865306
0.0,0.0,0.6,-0.5235987755982988,0.5235987755982988,0,0.23195268,1.9655875,-0.15680373,-0.67941207,-0.06634017,1.4437642,-3.0304277,0.017831156,1.7718772,0.20612374,-0.72064763,0.034799155,1.5613903,-2.3591864
0.0,0.0,0.6,-0.5235987755982988,0.5235987755982988,0,0.21244958,1.9719652,-0.15942277,-0.6712116,-0.15835132,1.4348389,-2.9525952,0.01199288,1.771427,0.20736162,-0.72428244,0.031154707,1.565207,-2.3766718
0.0,0.0,0.6,-0.5235987755982988,0.5235987755982988,0,0.21153975,1.9615037,-0.15916367,-0.6541181,-0.155304,1.4285791,-2.9347012,0.007064169,1.7738905,0.20752771,-0.72410804,0.032098502,1.5660245,-2.3843951
0.0,0.0,0.6,-0.5235987755982988,0.5235987755982988,0,0.2243526,1.9735287,-0.16323674,-0.67275465,-0.18215695,1.4356308,-2.9588609,0.015938353,1.7725178,0.21019538,-0.72380894,0.044805776,1.5674345,-2.3589892
0.0,0.0,0.6,-0.5235987755982988,0.5235987755982988,0,0.21475191,1.9684026,-0.17669971,-0.66218567,-0.1778973,1.4166672,-2.9732878,0.0047250595,1.7717732,0.20521146,-0.7289287,0.033644293,1.5670424,-2.3755667
0.0,0.0,0.6,-0.5235987755982988,0.5235987755982988,0,0.23539902,1.9756796,-0.18963087,-0.67177683,-0.074823655,1.4312828,-3.0074863,0.021759039,1.7717193,0.20524365,-0.72829276,0.030943222,1.5663292,-2.3603303
0.0,0.0,0.6,-0.5235987755982988,0.5235987755982988,0,0.23748896,1.9694788,-0.16102283,-0.67029375,-0.13370055,1.4339106,-2.9905365,0.027244987,1.772149,0.20405968,-0.72384024,0.039735608,1.5655977,-2.3672068
0.0,0.0,0.6,-0.5235987755982988,0.5235987755982988,0,0.21966699,1.96801,-0.17046806,-0.668844,-0.06700082,1.4363732,-2.9720633,0.017216751,1.772408,0.20552891,-0.7243738,0.03600483,1.5682954,-2.3899782
0.0,0.0,0.6,-0.5235987755982988,0.5235987755982988,0,0.23062713,1.9688792,-0.15808803,-0.6756432,-0.13204768,1.4360075,-3.0193894,0.0022465128,1.7729737,0.20815894,-0.71922165,0.032157008,1.562547,-2.374558
0.0,0.0,0.6,-0.5235987755982988,0.5235987755982988,0,0.21494158,1.9735727,-0.16219488,-0.6668633,-0.10064162,1.4195185,-2.9947023,0.011890004,1.7694441,0.20753469,-0.7256418,0.036901947,1.56598,-2.37991
0.0,0.0,0.6,-0.5235987755982988,0.5235987755982988,0,0.21676043,1.9618691,-0.16919996,-0.67537767,-0.1260852,1.445601,-3.088187,-0.004757062,1.7720383,0.20761858,-0.727334,0.03141901,1.5655271,-2.3585644
0.0,0.0,0.6,-0.5235987755982988,0.5235987755982988,0,0.21482345,1.964947,-0.1724234,-0.67157805,-0.10386465,1.4151393,-2.957348,0.006605121,1.7719246,0.20910825,-0.72784686,0.040496282,1.5632465,-2.3672113
0.0,0.0,0.6,-0.5235987755982988,0.5235987755982988,0,0.22673431,1.9707232,-0.16589831,-0.6620597,-0.1357089,1.4359541,-3.052769,0.006244975,1.7678195,0.20296115,-0.7232489,0.03768809,1.5659466,-2.3710496
0.0,0.0,0.6,-0.5235987755982988,0.5235987755982988,0,0.22971867,1.970147,-0.14980789,-0.6729303,-0.1669548,1.4305031,-3.1126065,-0.001236834,1.7731509,0.20661655,-0.7250793,0.033138573,1.5614105,-2.3781567
0.0,0.0,0.6,-0.5235987755982988,0.5235987755982988,0,0.22575244,1.9677739,-0.15946576,-0.6698787,-0.16827159,1.4241211,-2.9559336,0.00412192,1.77185,0.20615458,-0.7258551,0.028365752,1.5636263,-2.3708413
0.0,0.0,0.6,-0.5235987755982988,0.5235987755982988,0,0.23049214,1.9741417,-0.16233648,-0.67819035,-0.12776208,1.423654,-3.0635765,0.022611223,1.7744395,0.21532553,-0.7220547,0.042074785,1.564571,-2.370765
0.0,0.0,0.6,-0.5235987755982988,0.5235987755982988,0,0.22896147,1.9637376,-0.17874853,-0.6668335,-0.118287794,1.4129736,-2.907844,-0.0048784255,1.7730489,0.2073629,-0.7272254,0.03676791,1.5666343,-2.3772333
0.0,0.0,0.6,-0.5235987755982988,0.5235987755982988,0,0.23131219,1.9624388,-0.15580882,-0.65902174,-0.12721957,1.4111567,-2.9428747,0.016465116,1.7722467,0.20352408,-0.72976434,0.031900734,1.568644,-2.3795755
0.0,0.0,0.6,-0.5235987755982988,0.5235987755982988,0,0.2129646,1.9712844,-0.14862056,-0.6763463,-0.10670362,1.4234344,-2.9553728,0.00020633618,1.7716508,0.20829819,-0.72105086,0.037525214,1.565491,-2.3696585
0.0,0.0,0.6,-0.5235987755982988,0.5235987755982988,0,0.23307492,1.9690682,-0.1610508,-0.6637945,-0.13907517,1.424114,-2.9790554,0.00781636,1.7704033,0.21483982,-0.72222525,0.0326077,1.5639534,-2.3738058
0.0,0.0,0.6,-0.5235987755982988,0.5235987755982988,0,0.22170018,1.9732732,-0.16064785,-0.65996325,-0.11587524,1.4343351,-3.0062752,0.02389431,1.7702721,0.20175804,-0.7302933,0.03235295,1.56735,-2.3520975
0.0,0.0,0.6,-0.5235987755982988,0.5235987755982988,0,0.22477655,1.9558966,-0.1642416,-0.65901333,-0.13572459,1.4246284,-3.0588574,0.008307424,1.7739359,0.20129499,-0.7267683,0.039591145,1.5643634,-2.3835652
0.0,0.0,0.6,-0.5235987755982988,0.5235987755982988,0,0.22195403,1.9704137,-0.1644953,-0.6695837,-0.22547218,1.4388429,-3.0526981,0.002215136,1.7738332,0.20346408,-0.72501284,0.030232523,1.5671505,-2.3556943
0.0,0.0,0.6,-0.5235987755982988,0.5235987755982988,0,0.2164666,1.9660871,-0.1690025,-0.67495084,-0.116320096,1.4426607,-2.885174,0.023833722,1.7753143,0.20686184,-0.7269728,0.033403084,1.5693505,-2.3645606
0.0,0.0,0.6,-0.5235987755982988,0.5235987755982988,0,0.21165276,1.9694793,-0.15830058,-0.66331613,-0.09523991,1.4280111,-3.0065596,0.01655131,1.7735112,0.2032907,-0.72457623,0.04671027,1.5599834,-2.3556046
0.0,0.0,0.6,-0.5235987755982988,0.5235987755982988,0,0.23262122,1.9644269,-0.17396401,-0.6614612,-0.095091075,1.4499977,-3.01779,0.013252867,1.7740314,0.20810437,-0.72922015,0.045816585,1.5662488,-2.3699446
0.0,0.0,0.6,-0.5235987755982988,0.5235987755982988,0,0.21930085,1.9645164,-0.14687635,-0.66033787,-0.14622971,1.4203138,-2.9942853,0.015125248,1.7748436,0.21237344,-0.730987,0.03252861,1.5637373,-2.3617754
0.0,0.0,0.6,-0.5235987755982988,0.5235987755982988,0,0.22330347,1.9708526,-0.16055503,-0.6790105,-0.090990104,1.4212457,-3.0609968,0.0123485215,1.7716314,0.20010287,-0.72649866,0.023948565,1.5651135,-2.360671
0.0,0.0,0.6,-0.5235987755982988,0.5235987755982988,0,0.23403691,1.9680405,-0.15956387,-0.6661283,-0.10958644,1.4339962,-2.9290533,0.02281754,1.7733967,0.2001955,-0.72291976,0.035697024,1.5644537,-2.381445
0.0,0.0,0.6,-0.5235987755982988,0.5235987755982988,0,0.2313023,1.9714483,-0.1596877,-0.6727966,-0.13428871,1.4136262,-2.998462,0.032498993,1.7694224,0.20687164,-0.7227367,0.03739739,1.564306,-2.3834546
0.0,0.0,0.6,-0.5235987755982988,0.5235987755982988,0,0.22824532,1.9634992,-0.16076317,-0.67258614,-0.09718598,1.4213634,-3.0325074,0.012039341,1.7757578,0.20468037,-0.732598,0.033213466,1.5657148,-2.374707
0.0,0.0,0.6,-0.5235987755982988,0.5235987755982988,0,0.21372485,1.9684496,-0.15518355,-0.67949533,-0.093065515,1.4423654,-2.9942675,0.008332336,1.774461,0.20461227,-0.7270962,0.026822548,1.5622152,-2.3523169
0.0,0.0,0.6,-0.5235987755982988,0.5235987755982988,0,0.21642676,1.9680289,-0.17295031,-0.6716844,-0.14142218,1.4334586,-2.9822896,0.016943468,1.7737184,0.20418197,-0.7301045,0.036038637,1.5617553,-2.3414254
0.0,0.0,0.6,-0.5235987755982988,0.5235987755982988,0,0.22729509,1.9638059,-0.18594716,-0.68144035,-0.12814246,1.4167312,-3.1073647,0.0005990901,1.7738209,0.20379913,-0.73913246,0.03625481,1.5615253,-2.3839614
0.0,0.0,0.6,-0.5235987755982988,0.5235987755982988,0,0.22530918,1.968938,-0.16860929,-0.67296386,-0.15662123,1.4335288,-3.0354548,0.004659723,1.7748941,0.20598653,-0.7331449,0.033081733,1.5610781,-2.364452
0.0,0.0,0.6,-0.5235987755982988,0.5235987755982988,0,0.2044824,1.9721458,-0.16220492,-0.67173505,-0.12009368,1.4114007,-3.0259404,0.00046910683,1.7743862,0.2000666,-0.7332964,0.04191392,1.5652385,-2.3754306
0.0,0.0,0.6,-0.5235987755982988,0.5235987755982988,0,0.2218125,1.9698324,-0.17558844,-0.6658994,-0.14644237,1.4227222,-2.9711983,0.009036156,1.7720417,0.20459913,-0.7256595,0.038094882,1.5639621,-2.3904433
0.0,0.0,0.6,-0.5235987755982988,0.5235987755982988,0,0.24006636,1.9668106,-0.15225634,-0.6777306,-0.11799774,1.4349262,-2.956449,0.0005059621,1.7770479,0.19565521,-0.7284832,0.034416944,1.5606455,-2.379284
0.0,0.0,0.6,-0.5235987755982988,0.5235987755982988,0,0.24467278,1.9689401,-0.17604932,-0.66869056,-0.14274317,1.4243802,-3.0416257,0.012350637,1.7733434,0.19888297,-0.7329113,0.034521557,1.5642622,-2.3544362
0.0,0.0,0.6,-0.5235987755982988,0.5235987755982988,0,0.22460526,1.9649416,-0.17590094,-0.67460084,-0.16243151,1.4192293,-2.9223578,0.014095339,1.771086,0.20651425,-0.7273448,0.036274433,1.5591577,-2.3757656
0.0,0.0,0.6,-0.5235987755982988,0.5235987755982988,0,0.21778142,1.9581758,-0.16519877,-0.6697266,-0.1268721,1.4256366,-2.9399786,0.010951439,1.7723126,0.20750639,-0.7305926,0.02151015,1.5600935,-2.3541524
0.0,0.0,0.6,-0.5235987755982988,0.5235987755982988,0,0.22739294,1.9675665,-0.14966287,-0.67076224,-0.113202184,1.4284872,-2.9679825,0.0106203025,1.7719365,0.2095955,-0.7328049,0.037162274,1.557064,-2.3644032
0.0,0.0,0.6,-0.5235987755982988,0.5235987755982988,0,0.23375958,1.9667449,-0.15434435,-0.6711375,-0.096143894,1.4340198,-3.0187128,0.01578384,1.7781311,0.20968986,-0.7378113,0.03518305,1.5650425,-2.3805776
0.0,0.0,0.6,-0.5235987755982988,0.5235987755982988,0,0.2380949,1.9601146,-0.14105089,-0.6666296,-0.10856546,1.418571,-2.9968805,0.016134439,1.7709103,0.1986464,-0.7318953,0.040902883,1.562322,-2.358962
0.0,0.0,0.6,-0.5235987755982988,0.5235987755982988,0,0.22109824,1.9683448,-0.17296624,-0.67938375,-0.12820359,1.4347894,-2.9491677,-0.012531555,1.7775815,0.21232992,-0.734591,0.039037764,1.5624723,-2.3870149
0.0,0.0,0.6,-0.5235987755982988,0.5235987755982988,0,0.22255439,1.9719635,-0.14686322,-0.67038006,-0.121618085,1.428813,-2.9292305,-0.004907979,1.7743822,0.2070126,-0.7410591,0.031448048,1.5633514,-2.3635612
0.0,0.0,0.6,-0.5235987755982988,0.5235987755982988,0,0.23328306,1.9661313,-0.16835906,-0.6680518,-0.09915834,1.4314247,-3.029327,-0.0055983197,1.7744212,0.20184544,-0.7278509,0.033810556,1.5626833,-2.3701828
0.0,0.0,0.6,-0.5235987755982988,0.5235987755982988,0,0.24485858,1.9667994,-0.1679427,-0.67989933,-0.16530941,1.4309717,-2.9986336,0.003744677,1.7726532,0.20601295,-0.7190118,0.03931593,1.5643189,-2.3526578
0.0,0.0,0.6,-0.5235987755982988,0.5235987755982988,0,0.22088058,1.9734975,-0.18169518,-0.67255014,-0.10660348,1.4294053,-3.0243099,0.0021962868,1.7716848,0.21048667,-0.7371245,0.037700515,1.5633383,-2.3555174
0.0,0.0,0.6,-0.5235987755982988,0.5235987755982988,0,0.23362863,1.9635103,-0.16342977,-0.6740311,-0.09582976,1.4325207,-3.039063,0.00043759623,1.7732558,0.19670571,-0.72583723,0.0256434,1.5671451,-2.3528566
0.0,0.0,0.6,-0.5235987755982988,0.5235987755982988,0,0.21126562,1.9706832,-0.14803585,-0.66728026,-0.094312765,1.4150006,-2.9571872,-0.0038461536,1.7724189,0.2046818,-0.731562,0.03663967,1.5613917,-2.3612723
0.0,0.0,0.6,-0.5235987755982988,0.5235987755982988,0,0.23155168,1.9683319,-0.16059716,-0.6730931,-0.12431608,1.4382924,-2.99555,-0.000852129,1.7708797,0.20245379,-0.72999454,0.035411716,1.5673177,-2.3570588
0.0,0.0,0.6,-0.5235987755982988,0.5235987755982988,0,0.24354205,1.9663905,-0.16783918,-0.66976804,-0.07902145,1.4158032,-2.9654417,-0.0037016848,1.7686557,0.19860978,-0.7294185,0.04104297,1.564421,-2.3533776
0.0,0.0,0.6,-0.5235987755982988,0.5235987755982988,0,0.23333238,1.9674828,-0.17393176,-0.67124975,-0.11658271,1.4250786,-2.9816482,0.010116631,1.7714547,0.19726095,-0.7229041,0.038282923,1.5631406,-2.3670475
0.0,0.0,0.6,-0.5235987755982988,0.5235987755982988,0,0.22899136,1.9672288,-0.1654738,-0.6703016,-0.09904827,1.4314235,-2.9519277,0.017393958,1.7735299,0.20012021,-0.72825205,0.027683208,1.5665746,-2.370029
0.0,0.0,0.6,-0.5235987755982988,0.5235987755982988,0,0.22141716,1.9639231,-0.15643317,-0.666741,-0.11320687,1.4278048,-3.01366,0.0018337955,1.7740055,0.20521726,-0.72503537,0.030839248,1.5629562,-2.3661222
0.0,0.0,0.6,-0.5235987755982988,0.5235987755982988,0,0.22382674,1.9669194,-0.13623558,-0.6703878,-0.075741515,1.4355474,-3.0404377,0.021740163,1.7704282,0.20659363,-0.7309187,0.028129341,1.5648967,-2.3548558
0.0,0.0,0.6,-0.5235987755982988,0.5235987755982988,0,0.22020124,1.9666489,-0.18287614,-0.6670147,-0.15243869,1.4166272,-3.0050578,0.016930068,1.7713838,0.20565383,-0.7292612,0.04061678,1.5634975,-2.3745797
0.0,0.0,0.6,-0.5235987755982988,0.5235987755982988,0,0.24123578,1.970945,-0.17106906,-0.66687936,-0.13158277,1.4312681,-3.0084121,0.007370383,1.7712251,0.20723115,-0.7346407,0.03681394,1.5693356,-2.3791983
0.0,0.0,0.6,-0.5235987755982988,0.5235987755982988,0,0.22087675,1.9678229,-0.16689001,-0.6717143,-0.07737289,1.4328151,-2.991564,0.0048299604,1.7747974,0.19778073,-0.72614497,0.034717955,1.5637797,-2.389408
0.0,0.0,0.6,-0.5235987755982988,0.5235987755982988,0,0.21564676,1.9676679,-0.15480107,-0.67071813,-0.112966225,1.4327693,-3.0882435,0.004092455,1.7707689,0.21099885,-0.72886837,0.032282654,1.5656211,-2.3740437
0.0,0.0,0.6,-0.5235987755982988,0.5235987755982988,0,0.23218156,1.9737692,-0.14385656,-0.6648374,-0.105882846,1.4217808,-3.0229897,0.0040436587,1.7743233,0.19961926,-0.73397976,0.04530792,1.5661085,-2.369647
0.0,0.0,0.6,-0.5235987755982988,0.5235987755982988,0,0.21842127,1.9640311,-0.16899903,-0.66239244,-0.14652227,1.428828,-2.9424336,0.01808784,1.7713993,0.205211,-0.7355388,0.030361114,1.5634418,-2.3765934
0.0,0.0,0.6,-0.5235987755982988,0.5235987755982988,0,0.24390338,1.969045,-0.15438242,-0.6741469,-0.10188048,1.4343907,-3.0494044,-0.003697138,1.7752848,0.20765913,-0.72904885,0.03629625,1.5638239,-2.3704615
0.0,0.0,0.6,-0.5235987755982988,0.5235987755982988,0,0.21350221,1.9682052,-0.14138843,-0.6645033,-0.13908543,1.4183847,-2.9523823,0.020251852,1.7730864,0.20613083,-0.729543,0.041410252,1.5676945,-2.3628073
0.0,0.0,0.6,-0.5235987755982988,0.5235987755982988,0,0.22686289,1.9720005,-0.14654447,-0.6617853,-0.13129815,1.4230248,-2.9918652,0.006801237,1.7706779,0.20787933,-0.7275874,0.029943582,1.5650513,-2.3684132
0.0,0.0,0.6,-0.5235987755982988,0.5235987755982988,0,0.23521996,1.962102,-0.15777366,-0.66730297,-0.11272695,1.4369743,-3.0037718,0.004824837,1.7721454,0.20481397,-0.72987515,0.032641627,1.5659181,-2.3430545
0.0,0.0,0.6,-0.5235987755982988,0.5235987755982988,0,0.21757519,1.9647251,-0.16549002,-0.6738193,-0.18860383,1.4345803,-3.016647,8.390854e-05,1.7725248,0.20815396,-0.72548187,0.031810842,1.5659355,-2.3599734
0.0,0.0,0.6,-0.5235987755982988,0.5235987755982988,0,0.23326519,1.9709362,-0.16387081,-0.6641934,-0.11256641,1.4390932,-2.924048,0.009382448,1.7750227,0.2048932,-0.73226535,0.03819441,1.5646179,-2.3837805
0.0,0.0,0.6,-0.5235987755982988,0.5235987755982988,0,0.22175564,1.9680561,-0.18027917,-0.66191465,-0.12137839,1.4352827,-2.9787195,0.019208748,1.7761737,0.2063244,-0.73315537,0.02387007,1.5604025,-2.3839197
0.0,0.0,0.6,-0.5235987755982988,0.5235987755982988,0,0.21185555,1.9674112,-0.1626781,-0.66374475,-0.12440851,1.4314047,-2.9680169,0.0059925746,1.7723073,0.19674145,-0.735621,0.03995376,1.5636489,-2.3801503
0.0,0.0,0.6,-0.5235987755982988,0.5235987755982988,0,0.20179233,1.9733069,-0.1543197,-0.6644583,-0.09281104,1.4198859,-2.976464,0.012458701,1.7734275,0.2032143,-0.72421306,0.03433493,1.5638025,-2.3771327
0.0,0.0,0.6,-0.5235987755982988,0.5235987755982988,0,0.23270392,1.9720863,-0.16595611,-0.67624354,-0.12964022,1.4337872,-2.9638374,0.016632393,1.7743936,0.19798236,-0.7244609,0.02870218,1.5618349,-2.3620183
0.0,0.0,0.6,-0.5235987755982988,0.5235987755982988,0,0.22353406,1.975226,-0.17343108,-0.6691621,-0.13316873,1.4312776,-2.945002,0.012024451,1.7737731,0.20349486,-0.73185766,0.03686212,1.5643625,-2.3587258
0.0,0.0,0.6,-0.5235987755982988,0.5235987755982988,0,0.23464261,1.9663992,-0.17764463,-0.66457844,-0.16483778,1.4442031,-2.976943,0.015742337,1.7753322,0.1987921,-0.72903854,0.03534923,1.5636632,-2.364465
0.0,0.0,0.6,-0.5235987755982988,0.5235987755982988,0,0.22606428,1.9777002,-0.15542512,-0.67012846,-0.10219733,1.4299852,-2.843433,0.005791215,1.7734797,0.2076614,-0.73150903,0.045820966,1.5648651,-2.3781114
0.0,0.0,0.6,-0.5235987755982988,0.5235987755982988,0,0.2202854,1.9688706,-0.16870673,-0.66813827,-0.15138039,1.4230422,-2.991032,0.008905272,1.7735213,0.20445837,-0.73328596,0.045940835,1.567784,-2.3762567
0.0,0.0,0.6,-0.5235987755982988,0.5235987755982988,0,0.19995046,1.9658622,-0.17402065,-0.6615431,-0.049861718,1.4264126,-3.1100218,-0.0037318242,1.7743578,0.20738108,-0.725578,0.029296326,1.5626267,-2.3743143
0.0,0.0,0.6,-0.5235987755982988,0.5235987755982988,0,0.2342916,1.968092,-0.14401956,-0.66775006,-0.15597329,1.4254562,-3.0174117,0.0018548245,1.7747475,0.2048909,-0.7306849,0.04656277,1.5672255,-2.3914356
0.0,0.0,0.6,-0.5235987755982988,0.5235987755982988,0,0.23149022,1.9651848,-0.17157015,-0.675297,-0.08576343,1.4182719,-2.9494152,0.01089633,1.7722429,0.20992808,-0.72949153,0.031042812,1.5638068,-2.3708756
0.0,0.0,0.6,-0.5235987755982988,0.5235987755982988,0,0.22070573,1.9712962,-0.16023494,-0.67012095,-0.1656028,1.4245594,-2.9943137,0.0056545516,1.7737768,0.20162296,-0.7239845,0.037880737,1.5645738,-2.3800135
0.0,0.0,0.6,-0.5235987755982988,0.5235987755982988,0,0.23718852,1.9689479,-0.16699629,-0.66686094,-0.124001324,1.4358003,-2.9323483,0.017679162,1.7709646,0.21264887,-0.7257592,0.035479225,1.5648643,-2.3689377
0.0,0.0,0.6,-0.5235987755982988,0.5235987755982988,0,0.22322516,1.9650866,-0.17914055,-0.663144,-0.12669636,1.4304512,-2.959409,0.0018025244,1.7731154,0.19689316,-0.72132355,0.026672687,1.5649463,-2.360812
0.0,0.0,0.6,-0.5235987755982988,0.5235987755982988,0,0.2189433,1.9717643,-0.17723592,-0.67436516,-0.1326249,1.4301075,-2.9174285,0.009232757,1.7747035,0.20544523,-0.7248316,0.029600063,1.5640907,-2.3588974
0.0,0.0,0.6,-0.5235987755982988,0.5235987755982988,0,0.22150026,1.9682966,-0.17921689,-0.66847277,-0.13458906,1.4314187,-2.972448,0.009848758,1.7733811,0.20147242,-0.73111874,0.04514004,1.5632432,-2.3451703
0.0,0.0,0.6,-0.5235987755982988,0.5235987755982988,0,0.22145855,1.9688951,-0.15001407,-0.67499983,-0.12215087,1.4228486,-2.9836698,0.002596866,1.7714698,0.20788598,-0.7305746,0.027595432,1.5630261,-2.3646953
0.0,0.0,0.6,-0.5235987755982988,0.5235987755982988,0,0.22608344,1.9691168,-0.15852132,-0.6614566,-0.09794033,1.4287237,-2.9469318,0.0059651663,1.7749934,0.20436703,-0.7210972,0.028136322,1.5582415,-2.357889
0.0,0.0,0.6,-0.5235987755982988,0.5235987755982988,0,0.22023246,1.9702548,-0.14360724,-0.67040336,-0.11359213,1.4203285,-3.0068872,0.0075998195,1.7746603,0.20117716,-0.7221901,0.029267315,1.5619518,-2.369014
0.0,0.0,0.6,-0.5235987755982988,0.5235987755982988,0,0.23033324,1.964238,-0.1616765,-0.6707496,-0.08477171,1.4195809,-3.0620592,0.0050190636,1.774662,0.21052584,-0.7318971,0.039738733,1.5653123,-2.3654222
0.0,0.0,0.6,-0.5235987755982988,0.5235987755982988,0,0.22904924,1.9683162,-0.15987472,-0.66587436,-0.14885367,1.4172388,-3.037282,-0.00072248164,1.7695806,0.21299595,-0.7262127,0.029212452,1.5643079,-2.3564975
0.0,0.0,0.6,-0.5235987755982988,0.5235987755982988,0,0.21864344,1.9720218,-0.16166915,-0.66339105,-0.038735494,1.4265045,-2.9960725,0.0067013223,1.775503,0.19955076,-0.72912943,0.039397888,1.5683045,-2.3604972
0.0,0.0,0.6,-0.5235987755982988,0.5235987755982988,0,0.22868454,1.964752,-0.16082396,-0.6706982,-0.19012287,1.424937,-3.0088646,-0.0014967956,1.7770122,0.20535316,-0.716754,0.04146417,1.5658345,-2.3644028
0.0,0.0,0.6,-0.5235987755982988,0.5235987755982988,0,0.21459857,1.9703009,-0.14389522,-0.6656643,-0.13148524,1.4348342,-3.0188081,0.0037764271,1.7797849,0.20858498,-0.7272444,0.029263765,1.563809,-2.3816655
0.0,0.0,0.6,-0.5235987755982988,0.5235987755982988,0,0.21914916,1.972117,-0.16587727,-0.66551894,-0.09554031,1.4101962,-2.9362338,0.009700761,1.7759091,0.20437157,-0.7267125,0.026988955,1.5681541,-2.3580396
0.0,0.0,0.6,-0.5235987755982988,0.5235987755982988,0,0.23872192,1.969758,-0.14953144,-0.6623135,-0.13378486,1.4269723,-2.9231644,0.015911875,1.7691834,0.20943283,-0.7277133,0.027041476,1.5651809,-2.3553264
0.0,0.0,0.6,-0.5235987755982988,0.5235987755982988,0,0.2124796,1.9663731,-0.15763344,-0.67636293,-0.12932517,1.4212936,-3.0424945,0.009819253,1.7725952,0.2052987,-0.7338452,0.022872213,1.5653421,-2.3309605
0.0,0.0,0.6,-0.5235987755982988,0.5235987755982988,0,0.21692263,1.9698662,-0.16537169,-0.6780725,-0.12391922,1.425634,-3.0040627,-0.00015291937,1.7729126,0.20731741,-0.72833455,0.04379495,1.5642109,-2.3531914
0.0,0.0,0.6,-0.5235987755982988,0.5235987755982988,0,0.21040142,1.963624,-0.15312202,-0.68192506,-0.1426967,1.4351591,-2.9845839,0.007010018,1.7738552,0.20707032,-0.73805463,0.04202781,1.5662172,-2.3709674
0.0,0.0,0.6,-0.5235987755982988,0.5235987755982988,0,0.2386472,1.9696072,-0.16996834,-0.6773065,-0.10448159,1.4302707,-2.9908864,0.0014112832,1.7736251,0.20459463,-0.7147024,0.036856633,1.5632901,-2.3590028
0.0,0.0,0.6,-0.5235987755982988,0.5235987755982988,0,0.22356406,1.9767249,-0.15021624,-0.6754437,-0.14391042,1.4346237,-3.0256686,-0.0002781083,1.7683542,0.20758043,-0.72963125,0.035930548,1.5663551,-2.368052
0.0,0.0,0.6,-0.5235987755982988,0.5235987755982988,0,0.231427,1.9645885,-0.18232155,-0.66771406,-0.14509754,1.4415145,-2.9286358,0.016118204,1.7713265,0.20148762,-0.7309931,0.03962092,1.5670626,-2.3765812
0.0,0.0,0.6,-0.5235987755982988,0.5235987755982988,0,0.21627532,1.9731266,-0.16733871,-0.66728586,-0.11487604,1.4373243,-3.0821762,-0.003359424,1.7701342,0.20078605,-0.7316476,0.044040002,1.5685484,-2.3664346
0.0,0.0,0.6,-0.5235987755982988,0.5235987755982988,0,0.23645991,1.9684392,-0.19219428,-0.6714147,-0.13362174,1.4293252,-2.9396815,0.013208822,1.7672954,0.21223891,-0.7273936,0.035133846,1.5625381,-2.3592002
0.0,0.0,0.6,-0.5235987755982988,0.5235987755982988,0,0.21943972,1.9639895,-0.15833184,-0.6727993,-0.11343208,1.4166309,-3.0095441,0.007056792,1.7699691,0.20662096,-0.72860295,0.036203295,1.567033,-2.3564427
0.0,0.0,0.6,-0.5235987755982988,0.5235987755982988,0,0.21320172,1.961507,-0.15742396,-0.6721333,-0.13659154,1.432113,-2.881145,-0.00039739045,1.775608,0.20324221,-0.72977376,0.04552615,1.5639608,-2.3650808
0.0,0.0,0.6,-0.5235987755982988,0.5235987755982988,0,0.21704549,1.9684919,-0.14318173,-0.6778716,-0.1425381,1.4199286,-3.0041788,0.0022758343,1.7735347,0.20644851,-0.72541934,0.040655367,1.5666331,-2.361838
0.0,0.0,0.6,-0.5235987755982988,0.5235987755982988,0,0.20920472,1.9628456,-0.1534982,-0.66469836,-0.10446304,1.4427842,-2.9503546,0.0012827523,1.7740753,0.20538,-0.7236314,0.03572081,1.562501,-2.3712566
0.0,0.0,0.6,-0.5235987755982988,0.5235987755982988,0,0.22391927,1.9644316,-0.15595882,-0.6647435,-0.0779875,1.4175524,-3.074852,0.011100031,1.7750635,0.20608841,-0.73113173,0.032817643,1.5642579,-2.3701317
0.0,0.0,0.6,-0.5235987755982988,0.5235987755982988,0,0.2379381,1.97019,-0.18306121,-0.6691777,-0.12895751,1.4291894,-3.0413477,-0.00624037,1.7737741,0.20504539,-0.72078216,0.02899111,1.5639181,-2.3442557
0.0,0.0,0.6,-0.5235987755982988,0.5235987755982988,0,0.23770046,1.9749306,-0.18021876,-0.6684412,-0.07490017,1.4241236,-3.0319166,-0.006700963,1.7756635,0.20062086,-0.723009,0.03942185,1.5637884,-2.3755333
0.0,0.0,0.6,-0.5235987755982988,0.5235987755982988,0,0.22925891,1.9715147,-0.15167244,-0.68352133,-0.138146,1.4269286,-2.9362733,0.0031519714,1.7730125,0.19904198,-0.729405,0.04110009,1.5639476,-2.368492
0.0,0.0,0.6,-0.5235987755982988,0.5235987755982988,0,0.2177995,1.9708128,-0.14658044,-0.6681191,-0.13769786,1.4251678,-2.956817,-0.00077162415,1.7753888,0.19913478,-0.7240149,0.03890178,1.5629094,-2.3579738
0.0,0.0,0.6,-0.5235987755982988,0.5235987755982988,0,0.22259764,1.9734066,-0.16983528,-0.6768826,-0.088166974,1.4237785,-2.9969075,-0.0001299495,1.7753685,0.1989239,-0.7217092,0.027510872,1.5622524,-2.3661938
0.0,0.0,0.6,-0.5235987755982988,0.5235987755982988,0,0.22216924,1.9659247,-0.15560488,-0.6657728,-0.09851206,1.4290608,-2.9875054,-0.0018066536,1.7716361,0.20103039,-0.73294026,0.034074016,1.5670017,-2.3693218
0.0,0.0,0.6,-0.5235987755982988,0.5235987755982988,0,0.22904846,1.9657772,-0.14856571,-0.6848288,-0.13799001,1.4172271,-2.9628792,0.0025512502,1.7758646,0.21143307,-0.73260695,0.04261893,1.5629995,-2.3741057
0.0,0.0,0.6,-0.5235987755982988,0.5235987755982988,0,0.22827406,1.9655464,-0.16360351,-0.67970496,-0.14868611,1.4188209,-3.0856795,0.015905077,1.7726237,0.20180221,-0.73834145,0.03994888,1.5599083,-2.3702912
0.0,0.0,0.6,-0.5235987755982988,0.5235987755982988,0,0.24148579,1.9683777,-0.14160715,-0.6717877,-0.12902907,1.4207473,-2.9628863,0.0005684367,1.7706944,0.19909726,-0.7265994,0.038636677,1.5640361,-2.356051
0.0,0.0,0.6,-0.5235987755982988,0.5235987755982988,0,0.21701315,1.9599401,-0.16282842,-0.67647403,-0.079009324,1.4233458,-2.9621766,0.0117590735,1.7697558,0.20512205,-0.721962,0.031221665,1.5655239,-2.3648353
0.0,0.0,0.6,-0.5235987755982988,0.5235987755982988,0,0.21788256,1.9649044,-0.17695858,-0.6819193,-0.1505168,1.419907,-2.9877555,0.009230385,1.7733853,0.20357777,-0.72894764,0.031257913,1.5607065,-2.3912354
0.0,0.0,0.6,-0.5235987755982988,0.5235987755982988,0,0.21899423,1.9692744,-0.16922846,-0.671751,-0.09625621,1.4161242,-2.908132,0.0158613,1.7746947,0.20157175,-0.7307553,0.033483673,1.563594,-2.3586085
0.0,0.0,0.6,-0.5235987755982988,0.5235987755982988,0,0.21325344,1.965219,-0.17969243,-0.67755824,-0.18754978,1.4294245,-3.0338063,0.009405076,1.7721558,0.19905673,-0.72603416,0.04094514,1.5640221,-2.3834305
0.0,0.0,0.6,-0.5235987755982988,0.5235987755982988,0,0.22954524,1.9718424,-0.1589407,-0.66842055,-0.106604986,1.4220634,-2.9338136,-0.006293265,1.7736593,0.2011289,-0.73289937,0.026955478,1.5635324,-2.3473265
0.0,0.0,0.6,-0.5235987755982988,0.5235987755982988,0,0.21687606,1.9671881,-0.16558565,-0.6701843,-0.08260259,1.4086292,-3.0030086,0.00866299,1.7740455,0.20929277,-0.7255791,0.03201245,1.5604655,-2.3688352
0.0,0.0,0.6,-0.5235987755982988,0.5235987755982988,0,0.22136109,1.9647688,-0.1630865,-0.66602385,-0.10412873,1.413867,-2.9811752,0.011016506,1.7692964,0.20807016,-0.73061144,0.028155718,1.5622827,-2.363067
0.0,0.0,0.6,-0.5235987755982988,0.5235987755982988,0,0.22525583,1.969809,-0.16396193,-0.6706007,-0.13530037,1.4254616,-2.9811566,0.013779028,1.7737273,0.2088265,-0.7315073,0.034181353,1.5658193,-2.3729472
0.0,0.0,0.6,-0.5235987755982988,0.5235987755982988,0,0.22219181,1.9672772,-0.16106302,-0.67536217,-0.06441531,1.4266778,-3.0027707,0.008587441,1.7701128,0.19317198,-0.7210785,0.042530064,1.5623436,-2.3543336
0.0,0.0,0.6,-0.5235987755982988,0.5235987755982988,0,0.22698924,1.9716678,-0.18083905,-0.6697252,-0.12977669,1.4251102,-2.953329,0.01842137,1.7732834,0.2094014,-0.7271862,0.0416126,1.5635568,-2.3692787
0.0,0.0,0.6,-0.5235987755982988,0.5235987755982988,0,0.24297898,1.9700958,-0.16850527,-0.6727563,-0.17603858,1.4202657,-2.897774,0.000642333,1.7713912,0.1996365,-0.71996474,0.04176975,1.5650489,-2.3791
0.0,0.0,0.6,-0.5235987755982988,0.5235987755982988,0,0.23599786,1.9678363,-0.1379345,-0.6651323,-0.11344159,1.4296564,-3.0149157,0.005085476,1.7729292,0.20512365,-0.73030126,0.037685923,1.567244,-2.3671541
0.0,0.0,0.6,-0.5235987755982988,0.5235987755982988,0,0.22987504,1.9779997,-0.15464516,-0.6675238,-0.12271345,1.4294666,-3.004906,0.014009749,1.7706149,0.2001615,-0.73744947,0.045466855,1.5635593,-2.3643746
0.0,0.0,0.6,-0.5235987755982988,0.5235987755982988,0,0.24218331,1.9711131,-0.18846445,-0.670747,-0.113030314,1.4391295,-3.047595,0.005334459,1.7721399,0.20909852,-0.73072946,0.03248794,1.5658929,-2.3594265
0.0,0.0,0.6,-0.5235987755982988,0.5235987755982988,0,0.22544636,1.9665599,-0.16186202,-0.6593473,-0.13867928,1.4179045,-3.0173707,0.0106493905,1.7697773,0.20433143,-0.73430926,0.038025506,1.5650735,-2.362426
0.0,0.0,0.6,-0.5235987755982988,0.5235987755982988,0,0.2266998,1.9724411,-0.15753496,-0.67349046,-0.13677953,1.4322915,-2.9270341,0.0071913004,1.7711484,0.20838036,-0.7234326,0.03104449,1.5668162,-2.375178
0.0,0.0,0.6,-0.5235987755982988,0.5235987755982988,0,0.22133332,1.9701799,-0.1489881,-0.6687315,-0.098303005,1.4310354,-2.9213285,0.010778615,1.7723641,0.20281048,-0.7334976,0.037433807,1.5634384,-2.3510275
0.0,0.0,0.6,-0.5235987755982988,0.5235987755982988,0,0.22377539,1.9697864,-0.1635839,-0.6633521,-0.06641192,1.4215932,-2.992474,0.0085914815,1.7732648,0.20524107,-0.7309521,0.023917472,1.5647628,-2.366927
0.0,0.0,0.6,-0.5235987755982988,0.5235987755982988,0,0.21036322,1.9715587,-0.16143225,-0.6746521,-0.12436416,1.420671,-3.0656905,-0.0010596059,1.7693291,0.19367905,-0.72432417,0.03487348,1.5628089,-2.35501
0.0,0.0,0.6,-0.5235987755982988,0.5235987755982988,0,0.23783581,1.9661735,-0.18041487,-0.670986,-0.09257759,1.4312339,-2.981374,0.008871295,1.7743042,0.19814053,-0.7235195,0.03303047,1.5648191,-2.3585694
0.0,0.0,0.6,-0.5235987755982988,0.5235987755982988,0,0.24108955,1.9739885,-0.15050401,-0.67301065,-0.1617592,1.4333131,-3.0146155,0.017849635,1.7727216,0.19834296,-0.72696465,0.033559885,1.5634332,-2.379047
0.0,0.0,0.6,-0.5235987755982988,0.5235987755982988,0,0.22725908,1.968088,-0.1518822,-0.66926783,-0.095246136,1.4157181,-3.0093303,0.00038931842,1.7725945,0.20493336,-0.7226065,0.036948312,1.5650203,-2.367903
0.0,0.0,0.6,-0.5235987755982988,0.5235987755982988,0,0.21498314,1.9665258,-0.16458683,-0.6674861,-0.10846802,1.4315596,-2.9309888,0.010277695,1.7714492,0.19940014,-0.7285631,0.032652818,1.5666169,-2.3587744
0.0,0.0,0.6,-0.5235987755982988,0.5235987755982988,0,0.22349507,1.9747665,-0.17044438,-0.67105186,-0.15020928,1.4379267,-2.9362175,0.008631061,1.7755325,0.20333841,-0.7332832,0.035159152,1.5682199,-2.374401
0.0,0.0,0.6,-0.5235987755982988,0.5235987755982988,0,0.22704694,1.9695994,-0.16078745,-0.6642803,-0.13173139,1.4322072,-2.9567995,-0.0017254427,1.7696197,0.20123628,-0.72375125,0.039032158,1.5643882,-2.366534
0.0,0.0,0.6,-0.5235987755982988,0.5235987755982988,0,0.21859837,1.9716339,-0.17191274,-0.66537154,-0.08670001,1.418537,-3.0018728,-0.008206562,1.7755859,0.19927463,-0.7317841,0.037118256,1.5669961,-2.3553238
0.0,0.0,0.6,-0.5235987755982988,0.5235987755982988,0,0.22036205,1.9682152,-0.15863936,-0.66506815,-0.09479485,1.4316117,-2.989019,0.0031404041,1.7703702,0.20105657,-0.7242998,0.037706386,1.5612292,-2.3549092
0.0,0.0,0.6,-0.5235987755982988,0.5235987755982988,0,0.21874045,1.9710084,-0.14310765,-0.6649194,-0.12436615,1.4453728,-2.9851632,0.0073967334,1.7711737,0.2038785,-0.7241748,0.03210143,1.5667777,-2.3752494
0.0,0.0,0.6,-0.5235987755982988,0.5235987755982988,0,0.22545786,1.9707862,-0.16013366,-0.66764015,-0.097912766,1.4258436,-2.9418285,0.017132554,1.7776419,0.2111485,-0.72491443,0.029567901,1.5646262,-2.3670943
0.0,0.0,0.6,-0.5235987755982988,0.5235987755982988,0,0.21943583,1.9693198,-0.16951503,-0.6635308,-0.13603544,1.4317496,-2.863012,0.007391483,1.7747059,0.20353223,-0.7284303,0.02849552,1.5694215,-2.3467453
0.0,0.0,0.6,-0.5235987755982988,0.5235987755982988,0,0.22441487,1.9664721,-0.17189825,-0.65825766,-0.10622072,1.4317954,-3.0119293,0.010497043,1.7761618,0.20808849,-0.72099626,0.03534648,1.5622112,-2.3561385
0.0,0.0,0.6,-0.5235987755982988,0.5235987755982988,0,0.22646466,1.9723849,-0.18325864,-0.6632381,-0.10542974,1.4268758,-2.9472046,0.012084423,1.7751794,0.20960926,-0.7175883,0.03668426,1.5624001,-2.37256
0.0,0.0,0.6,-0.5235987755982988,0.5235987755982988,0,0.22006117,1.972602,-0.15834102,-0.6738467,-0.1304321,1.4190012,-2.9891396,0.0112074185,1.7724853,0.21637958,-0.7392974,0.035460062,1.568148,-2.3732388
0.0,0.0,0.6,-0.5235987755982988,0.5235987755982988,0,0.21073978,1.9700716,-0.17329076,-0.67358786,-0.11654807,1.4287393,-3.042769,0.016378682,1.7729914,0.21642143,-0.74558616,0.04237122,1.563204,-2.342564
0.0,0.0,0.6,-0.5235987755982988,0.5235987755982988,0,0.22509739,1.9688028,-0.14881518,-0.66589534,-0.13849992,1.4179822,-3.0304198,0.015239995,1.7697387,0.20290855,-0.73224324,0.033738792,1.5649245,-2.368471
0.0,0.0,0.6,-0.5235987755982988,0.5235987755982988,0,0.21919717,1.9750576,-0.13523401,-0.66644937,-0.030397814,1.4385978,-2.9125056,0.007921997,1.7732108,0.21193904,-0.7292235,0.038832266,1.5645478,-2.3779342
0.0,0.0,0.6,-0.5235987755982988,0.5235987755982988,0,0.24713314,1.9693211,-0.16514167,-0.6689301,-0.15284505,1.4276537,-2.9034202,0.011162129,1.7720518,0.20018183,-0.7279416,0.036864646,1.5646349,-2.3619382
0.0,0.0,0.6,-0.5235987755982988,0.5235987755982988,0,0.21492232,1.9655651,-0.15540037,-0.6703055,-0.11160057,1.4268566,-2.9300497,0.018236447,1.7734693,0.20546718,-0.7268556,0.03699639,1.5604812,-2.3454661
0.0,0.0,0.6,-0.5235987755982988,0.5235987755982988,0,0.23027585,1.9680344,-0.14258553,-0.6642018,-0.2044097,1.4277079,-3.0175703,0.018979153,1.7724816,0.20996834,-0.7232797,0.03320516,1.5634904,-2.3571062
0.0,0.0,0.6,-0.5235987755982988,0.5235987755982988,0,0.2309752,1.9635888,-0.14337729,-0.6766789,-0.16652197,1.4326882,-2.9450483,0.006926921,1.7731129,0.20314285,-0.7235581,0.041479092,1.5655231,-2.3670487
0.0,0.0,0.6,-0.5235987755982988,0.5235987755982988,0,0.2308909,1.9691776,-0.15966345,-0.6727823,-0.15393394,1.4318966,-3.045734,0.0065710056,1.7746556,0.21160436,-0.7417311,0.043378644,1.5658474,-2.3538444
0.0,0.0,0.6,-0.5235987755982988,0.5235987755982988,0,0.23276934,1.9655585,-0.18499413,-0.6722652,-0.11715695,1.4290332,-3.00037,0.007025261,1.7721673,0.21127929,-0.73187685,0.043735113,1.5633854,-2.3683958
0.0,0.0,0.6,-0.5235987755982988,0.5235987755982988,0,0.24081981,1.9733375,-0.14290082,-0.6703736,-0.14026742,1.4355289,-3.0364869,0.00354504,1.775372,0.22052914,-0.74144983,0.03689888,1.5646173,-2.360946
0.0,0.0,0.6,-0.5235987755982988,0.5235987755982988,0,0.22156084,1.9676471,-0.15626876,-0.6662986,-0.121413365,1.4046394,-3.0064461,0.0004311634,1.7710259,0.21257176,-0.7205174,0.028508214,1.5642015,-2.391255
0.0,0.0,0.6,-0.5235987755982988,0.5235987755982988,0,0.21812227,1.9677426,-0.15738316,-0.6724491,-0.062433477,1.4280736,-2.9981143,0.015329967,1.7706074,0.21558085,-0.72601926,0.039440747,1.5584455,-2.350991
0.0,0.0,0.6,-0.5235987755982988,0.5235987755982988,0,0.2295224,1.962539,-0.16089116,-0.66467834,-0.10546906,1.4368513,-3.0022802,0.0062106997,1.7713002,0.21204276,-0.7255751,0.038533073,1.5652406,-2.3708918
0.0,0.0,0.6,-0.5235987755982988,0.5235987755982988,0,0.21923277,1.9710857,-0.16116896,-0.66687286,-0.105926886,1.4312513,-2.8920584,0.02712849,1.7710207,0.20404433,-0.73015535,0.025614033,1.5648091,-2.3789163
