sanky1234/BimanualDexCatch/isaacgymenvs/cem_results/football_pose_-0.2_-0.2_1.1999999999999997_-0.5235987755982988_-0.5235987755982988_0_2025-05-24.csv
x,y,z,roll,pitch,yaw,robot1/joint1,robot1/joint2,robot1/joint3,robot1/joint4,robot1/joint5,robot1/joint6,robot1/joint7,robot2/joint1,robot2/joint2,robot2/joint3,robot2/joint4,robot2/joint5,robot2/joint6,robot2/joint7
-0.2,-0.2,1.1999999999999997,-0.5235987755982988,-0.5235987755982988,0,-0.0089166295,-1.632654,0.39867264,-0.06643066,0.13249695,1.1959461,-1.7935162,-1.8917717,0.6567266,-1.3602027,0.7797281,-0.25291497,0.94427544,-0.17027038
-0.2,-0.2,1.1999999999999997,-0.5235987755982988,-0.5235987755982988,0,-0.0059646233,-1.6377118,0.4039028,-0.07039229,0.06946476,1.181541,-0.14388396,-1.8919829,0.6573144,-1.3603164,0.77985007,-0.10667474,1.0092095,-0.54675394
-0.2,-0.2,1.1999999999999997,-0.5235987755982988,-0.5235987755982988,0,-0.0069952505,-1.6309618,0.3325361,-0.07775669,-0.08681659,1.2355633,0.61970365,-1.8918722,0.65750414,-1.3602663,0.7811315,-0.32748604,0.95484865,-1.0115069
-0.2,-0.2,1.1999999999999997,-0.5235987755982988,-0.5235987755982988,0,-0.007396289,-1.6329772,0.38443273,-0.033104103,0.08168241,1.1210271,-0.54852545,-1.8924109,0.6562864,-1.3609011,0.7785935,-0.21125244,0.99395454,-0.5236367
-0.2,-0.2,1.1999999999999997,-0.5235987755982988,-0.5235987755982988,0,-0.006743127,-1.632358,0.33836117,-0.06782588,0.055321734,1.175623,0.079862244,-1.8910056,0.6573515,-1.3588158,0.77989393,-0.24469322,0.94714856,-0.6846692
-0.2,-0.2,1.1999999999999997,-0.5235987755982988,-0.5235987755982988,0,-0.011285669,-1.6292316,0.4086224,-0.10166362,0.053723805,1.1952608,-1.2833544,-1.8911027,0.6565477,-1.3599454,0.7804322,-0.09194416,0.9220456,-1.2501798
-0.2,-0.2,1.1999999999999997,-0.5235987755982988,-0.5235987755982988,0,-0.005246163,-1.6331167,0.39469767,-0.0034225215,-0.08383679,1.1562943,1.0667621,-1.8926929,0.6580019,-1.3597351,0.7797249,-0.3286973,0.9977755,-0.5262493
-0.2,-0.2,1.1999999999999997,-0.5235987755982988,-0.5235987755982988,0,-0.010736007,-1.6264997,0.38991025,-0.09179501,0.07754861,1.1437495,1.5200845,-1.8916428,0.6579009,-1.3623658,0.77996206,-0.06627876,1.0234796,-1.5637001
-0.2,-0.2,1.1999999999999997,-0.5235987755982988,-0.5235987755982988,0,-0.002187953,-1.6272744,0.33538982,-0.032922786,0.22914624,1.2207787,1.6910266,-1.8909208,0.65800244,-1.361094,0.77926147,-0.1315868,0.97217137,-0.90696883
-0.2,-0.2,1.1999999999999997,-0.5235987755982988,-0.5235987755982988,0,-0.0146409925,-1.6284945,0.38557175,-0.06952033,0.050493088,1.2217566,1.9304204,-1.892212,0.65719867,-1.3599498,0.7797963,-0.17986183,1.0363151,0.5599364
-0.2,-0.2,1.1999999999999997,-0.5235987755982988,-0.5235987755982988,0,-0.0036691169,-1.6366563,0.38522586,-0.1122813,0.015652414,1.1352699,-0.24764723,-1.8927618,0.6566807,-1.3620571,0.7797719,-0.04099075,1.0445712,-0.7799543
-0.2,-0.2,1.1999999999999997,-0.5235987755982988,-0.5235987755982988,0,-0.006135411,-1.6302564,0.34394145,-0.05928727,0.13802478,1.1567098,0.22721174,-1.8907613,0.65653527,-1.3597856,0.7797373,-0.2653034,0.9354541,0.64708245
-0.2,-0.2,1.1999999999999997,-0.5235987755982988,-0.5235987755982988,0,-0.0075528645,-1.6344064,0.39841965,-0.013128734,0.096439205,1.1819439,-0.10924199,-1.8914837,0.6583143,-1.3623756,0.7794868,-0.25076374,0.98688006,-1.4070815
-0.2,-0.2,1.1999999999999997,-0.5235987755982988,-0.5235987755982988,0,-0.009628542,-1.6337166,0.4027199,-0.06445729,0.16010138,1.1687706,0.64729434,-1.8914952,0.6563765,-1.3611765,0.7801067,-0.32591584,0.94194525,-0.68625915
-0.2,-0.2,1.1999999999999997,-0.5235987755982988,-0.5235987755982988,0,-0.015334808,-1.622025,0.35320306,-0.053620245,0.06184839,1.1758968,1.1444135,-1.8921274,0.6560529,-1.3611898,0.7803828,-0.25382265,0.9596146,-0.38496146
-0.2,-0.2,1.1999999999999997,-0.5235987755982988,-0.5235987755982988,0,-0.0043343576,-1.6320288,0.4310418,-0.1005562,0.07277814,1.1999545,0.59590226,-1.8924545,0.6577082,-1.3587099,0.7790973,-0.27242592,0.9639417,-0.7797084
-0.2,-0.2,1.1999999999999997,-0.5235987755982988,-0.5235987755982988,0,-0.012692787,-1.6309065,0.38559398,-0.06705463,0.06347254,1.2091161,1.1780128,-1.8921196,0.65700954,-1.3590102,0.78047276,-0.21065436,0.99885565,-0.48977584
-0.2,-0.2,1.1999999999999997,-0.5235987755982988,-0.5235987755982988,0,-0.011551009,-1.6311697,0.3500975,-0.023013012,-0.018480951,1.1705791,-0.31980655,-1.8919697,0.6569076,-1.358697,0.7803692,-0.25082538,1.0444293,0.74394184
-0.2,-0.2,1.1999999999999997,-0.5235987755982988,-0.5235987755982988,0,-0.011888944,-1.6276898,0.40799338,-0.072609216,0.035434194,1.1456444,0.12526202,-1.8913351,0.6564357,-1.3607829,0.78093684,-0.24474,0.9678727,-1.3534456
-0.2,-0.2,1.1999999999999997,-0.5235987755982988,-0.5235987755982988,0,-0.00500479,-1.6281656,0.34839514,-0.0399225,-0.08852884,1.1266834,-0.7077806,-1.8915987,0.6573561,-1.359408,0.7808365,-0.18256752,1.138304,-0.720532
-0.2,-0.2,1.1999999999999997,-0.5235987755982988,-0.5235987755982988,0,-0.0007827624,-1.6261783,0.4149736,-0.08075606,0.1272926,1.1756822,2.5479815,-1.8914471,0.6569687,-1.3595722,0.7805693,-0.13491379,0.99478567,-0.5902701
-0.2,-0.2,1.1999999999999997,-0.5235987755982988,-0.5235987755982988,0,-0.012175658,-1.6353024,0.3663438,-0.05729276,0.11283627,1.1464905,1.4451004,-1.8928484,0.6574898,-1.3619239,0.7808603,-0.15232758,1.0058066,-0.8328014
-0.2,-0.2,1.1999999999999997,-0.5235987755982988,-0.5235987755982988,0,-0.0065081357,-1.6305659,0.36609542,-0.030926688,0.17380804,1.1922249,0.038076345,-1.8918368,0.65691733,-1.3594487,0.78017277,-0.2459477,0.9640806,-0.8189607
-0.2,-0.2,1.1999999999999997,-0.5235987755982988,-0.5235987755982988,0,-0.014736249,-1.6265953,0.3836424,-0.06792548,-0.04529702,1.1503826,0.7320841,-1.8915653,0.6567735,-1.3600763,0.78002876,-0.17785572,0.9224665,-0.71095884
-0.2,-0.2,1.1999999999999997,-0.5235987755982988,-0.5235987755982988,0,-0.013046832,-1.6323767,0.38854888,-0.043602202,-0.0032138638,1.1256403,1.5459677,-1.8919054,0.6574974,-1.3603137,0.77989495,-0.12136309,0.91849273,-0.9062757
-0.2,-0.2,1.1999999999999997,-0.5235987755982988,-0.5235987755982988,0,-0.00629496,-1.6249049,0.40713617,-0.075942114,0.017613012,1.1474383,1.015034,-1.8923451,0.65653276,-1.3596239,0.7796968,-0.25294766,1.0060456,-0.41040453
-0.2,-0.2,1.1999999999999997,-0.5235987755982988,-0.5235987755982988,0,-0.020577623,-1.6299456,0.39133725,-0.11155607,0.025559284,1.1699225,-1.3257029,-1.8912227,0.65560734,-1.3611671,0.7799967,-0.1339963,0.97047496,-0.7496465
-0.2,-0.2,1.1999999999999997,-0.5235987755982988,-0.5235987755982988,0,-0.013469826,-1.629146,0.35552484,-0.03605888,0.05555327,1.1045207,0.20787506,-1.8910512,0.6575546,-1.360591,0.77953374,-0.24280146,0.9810541,-0.3933247
-0.2,-0.2,1.1999999999999997,-0.5235987755982988,-0.5235987755982988,0,-0.008908004,-1.6248507,0.3653296,-0.10592207,0.11832375,1.1336535,1.0565374,-1.8927097,0.657001,-1.3593693,0.78075814,-0.18847646,0.9041856,-0.27932486
-0.2,-0.2,1.1999999999999997,-0.5235987755982988,-0.5235987755982988,0,-0.002787237,-1.6291441,0.3735869,-0.08118849,0.2198321,1.186539,1.7156249,-1.8914773,0.65737617,-1.3596238,0.7812582,-0.1617454,0.93856925,-1.2739248
-0.2,-0.2,1.1999999999999997,-0.5235987755982988,-0.5235987755982988,0,-0.012320522,-1.6262696,0.35904285,-0.116961345,-0.07516806,1.15457,1.147998,-1.891869,0.6565724,-1.3601135,0.7800983,-0.19248594,0.9840098,-0.83451885
-0.2,-0.2,1.1999999999999997,-0.5235987755982988,-0.5235987755982988,0,-0.008603965,-1.633732,0.40779525,-0.042157166,0.11755141,1.1223547,1.3443155,-1.8909817,0.65582913,-1.3607947,0.7807592,-0.25369447,1.0194753,0.35622144
-0.2,-0.2,1.1999999999999997,-0.5235987755982988,-0.5235987755982988,0,-0.0060134684,-1.6337385,0.3753165,-0.14911316,0.13034628,1.161826,0.18033761,-1.8916343,0.6560977,-1.3597953,0.7796534,-0.29536402,0.95485455,-0.4651497
-0.2,-0.2,1.1999999999999997,-0.5235987755982988,-0.5235987755982988,0,-0.014041455,-1.6321182,0.35398287,-0.044234592,0.16958982,1.098907,0.422517,-1.8912692,0.65576804,-1.3613521,0.77950853,-0.092580184,1.0043397,-0.7494965
-0.2,-0.2,1.1999999999999997,-0.5235987755982988,-0.5235987755982988,0,-0.009838581,-1.6356316,0.43320236,-0.03939338,0.14788215,1.2404606,0.12193645,-1.8921081,0.6569413,-1.3596147,0.78042716,-0.25027353,1.0491878,-0.671276
-0.2,-0.2,1.1999999999999997,-0.5235987755982988,-0.5235987755982988,0,-0.016475474,-1.6255839,0.34961548,-0.048921414,0.035959378,1.139512,1.9412969,-1.8921741,0.6583543,-1.3616118,0.7803332,-0.18883377,1.0032663,-0.21714702
-0.2,-0.2,1.1999999999999997,-0.5235987755982988,-0.5235987755982988,0,-0.005170182,-1.626208,0.36510578,-0.10471113,0.13320193,1.1899058,1.3434265,-1.8927402,0.6568333,-1.3613579,0.7804814,-0.33576545,0.96924174,-0.35596368
-0.2,-0.2,1.1999999999999997,-0.5235987755982988,-0.5235987755982988,0,-0.011206002,-1.6370567,0.38164052,-0.07577719,-0.17421554,1.20853,1.7069446,-1.8929902,0.65703726,-1.3621136,0.77964807,-0.25006962,0.9167883,-0.10998043
-0.2,-0.2,1.1999999999999997,-0.5235987755982988,-0.5235987755982988,0,-0.01646191,-1.6204985,0.36775026,-0.11367018,0.014465903,1.1401997,-0.24306177,-1.8921099,0.6570494,-1.3583641,0.7797875,-0.13762723,0.96788365,-0.99861693
-0.2,-0.2,1.1999999999999997,-0.5235987755982988,-0.5235987755982988,0,-0.010870898,-1.6240505,0.39231527,-0.044991728,0.1267607,1.1459903,1.1676927,-1.8918235,0.65679514,-1.3609406,0.77932805,-0.14309227,0.8778452,0.27693242
-0.2,-0.2,1.1999999999999997,-0.5235987755982988,-0.5235987755982988,0,-0.003342279,-1.6335857,0.38133746,-0.054078825,0.059853587,1.2038854,0.35484833,-1.8921003,0.6586244,-1.3598425,0.7811374,-0.19489434,0.9637927,-0.2761209
-0.2,-0.2,1.1999999999999997,-0.5235987755982988,-0.5235987755982988,0,-0.013169048,-1.6329036,0.40018085,-0.06588884,0.017675426,1.165138,1.8869487,-1.8914764,0.65675014,-1.3609401,0.7793561,-0.23746,0.91288865,-1.278955
-0.2,-0.2,1.1999999999999997,-0.5235987755982988,-0.5235987755982988,0,-0.006755679,-1.6273109,0.3667674,-0.07374243,0.10875833,1.172224,-0.3966487,-1.8911352,0.65741825,-1.3583462,0.78195447,-0.11389747,1.0497544,-0.20219702
-0.2,-0.2,1.1999999999999997,-0.5235987755982988,-0.5235987755982988,0,-0.009667584,-1.6236963,0.36058894,-0.045847267,0.10939842,1.1740799,-0.5850713,-1.8911364,0.65594256,-1.361045,0.7798258,-0.22129545,0.9337796,-0.16680692
-0.2,-0.2,1.1999999999999997,-0.5235987755982988,-0.5235987755982988,0,-0.0074221534,-1.6275754,0.40082532,-0.08466755,0.0040339157,1.2245119,0.3300996,-1.8924253,0.6569687,-1.3623939,0.7800929,-0.21924351,0.90046656,-0.75690347
-0.2,-0.2,1.1999999999999997,-0.5235987755982988,-0.5235987755982988,0,-0.014661513,-1.6261295,0.35961443,-0.049214214,0.017933086,1.1734368,0.41160992,-1.8911281,0.65715355,-1.3589437,0.77887666,-0.24209927,1.100528,-0.040727604
-0.2,-0.2,1.1999999999999997,-0.5235987755982988,-0.5235987755982988,0,-0.0094871335,-1.6244631,0.39391935,-0.028842844,-0.043320555,1.1969261,2.3547685,-1.8914182,0.6584825,-1.360387,0.78068465,-0.086716615,0.99322015,-0.045945507
-0.2,-0.2,1.1999999999999997,-0.5235987755982988,-0.5235987755982988,0,-0.009375191,-1.6296892,0.40415797,-0.04018929,0.1789058,1.1220901,1.2529229,-1.8914268,0.6576154,-1.3614864,0.78101254,-0.28038946,0.8662848,0.36789572
-0.2,-0.2,1.1999999999999997,-0.5235987755982988,-0.5235987755982988,0,-0.010883582,-1.6260412,0.4024023,-0.09273661,0.12822746,1.1340182,0.8819923,-1.891237,0.65590787,-1.3606944,0.77942306,-0.04326529,0.9110438,-0.7774571
-0.2,-0.2,1.1999999999999997,-0.5235987755982988,-0.5235987755982988,0,-0.008750269,-1.6259165,0.35173398,-0.06786153,0.15347917,1.2370281,0.5645643,-1.892399,0.6572734,-1.3600785,0.78032696,-0.28989443,0.98152107,-0.6641557
-0.2,-0.2,1.1999999999999997,-0.5235987755982988,-0.5235987755982988,0,-0.009204058,-1.6324384,0.35700634,-0.06007639,0.22755058,1.1362897,0.86457676,-1.890156,0.65661013,-1.3593152,0.7781172,-0.17183913,0.9915132,-0.74042875
-0.2,-0.2,1.1999999999999997,-0.5235987755982988,-0.5235987755982988,0,-0.017084738,-1.6249038,0.42346337,-0.07473971,0.012460521,1.1815772,-0.045665544,-1.8932388,0.6559217,-1.358806,0.77854264,-0.19853988,0.93744123,-0.10840045
-0.2,-0.2,1.1999999999999997,-0.5235987755982988,-0.5235987755982988,0,-0.012089124,-1.6276845,0.3797904,-0.08087618,0.098072745,1.1935098,-0.0710394,-1.8912866,0.65766156,-1.3596288,0.77977914,-0.17244393,1.0184236,-0.2681309
-0.2,-0.2,1.1999999999999997,-0.5235987755982988,-0.5235987755982988,0,-0.012321874,-1.6305858,0.3563317,-0.05314319,0.0019020236,1.1266496,0.12785903,-1.8917034,0.6560754,-1.360066,0.7804021,-0.38096842,0.91484505,-0.0047481726
-0.2,-0.2,1.1999999999999997,-0.5235987755982988,-0.5235987755982988,0,-0.00012051149,-1.6277894,0.40494007,-0.046945874,0.015073461,1.1328248,0.20905858,-1.8918849,0.65654004,-1.3611447,0.7800136,-0.16606449,0.9670274,-0.8076092
-0.2,-0.2,1.1999999999999997,-0.5235987755982988,-0.5235987755982988,0,-0.013272233,-1.6269084,0.34969682,-0.080939725,0.1758021,1.1369249,-0.061386485,-1.893074,0.6573021,-1.3595631,0.7803103,-0.14534,1.0249306,-0.16629447
-0.2,-0.2,1.1999999999999997,-0.5235987755982988,-0.5235987755982988,0,-0.005066917,-1.637088,0.38654196,-0.10715157,0.032257657,1.1200267,0.68852496,-1.8919429,0.65644306,-1.361665,0.779218,-0.16187292,0.96479154,-0.92927057
-0.2,-0.2,1.1999999999999997,-0.5235987755982988,-0.5235987755982988,0,-0.007033211,-1.6305016,0.38601413,-0.06587853,0.17414486,1.1856068,0.3291483,-1.8909281,0.6573805,-1.3614742,0.77930844,-0.0805886,0.9305432,-0.66971624
-0.2,-0.2,1.1999999999999997,-0.5235987755982988,-0.5235987755982988,0,-0.012166839,-1.6254095,0.33926514,-0.12833807,0.13246287,1.1223968,1.8213284,-1.8912894,0.65681404,-1.3594426,0.78001064,-0.16590822,0.9565948,-0.7182905
-0.2,-0.2,1.1999999999999997,-0.5235987755982988,-0.5235987755982988,0,-0.007793278,-1.6295086,0.35817182,-0.04586825,0.11607742,1.1578456,0.9674248,-1.8912628,0.6569507,-1.3608065,0.7804801,-0.1541426,1.0866872,-0.19620512
-0.2,-0.2,1.1999999999999997,-0.5235987755982988,-0.5235987755982988,0,-0.012660386,-1.6310475,0.41518044,-0.07954752,-0.034892492,1.1414125,1.8566462,-1.8930796,0.6563315,-1.3609021,0.77992886,-0.16666934,1.0351613,-0.73188895
-0.2,-0.2,1.1999999999999997,-0.5235987755982988,-0.5235987755982988,0,-0.0070659323,-1.6315769,0.33990934,-0.0671887,-0.018712072,1.1718141,0.16078663,-1.8924462,0.657034,-1.3604922,0.77867615,-0.16612038,0.8650708,0.1353107
-0.2,-0.2,1.1999999999999997,-0.5235987755982988,-0.5235987755982988,0,-0.013258542,-1.6281488,0.37157395,-0.040076002,0.060561262,1.2068862,0.7078963,-1.8923131,0.6564824,-1.3607054,0.7797384,-0.23760729,0.9419595,-0.9158315
-0.2,-0.2,1.1999999999999997,-0.5235987755982988,-0.5235987755982988,0,-0.0004178117,-1.633247,0.38871336,-0.04246148,0.12937203,1.2414482,2.5214484,-1.8936332,0.65724736,-1.3600758,0.7803394,-0.18748342,1.0113755,-0.11723837
-0.2,-0.2,1.1999999999999997,-0.5235987755982988,-0.5235987755982988,0,-0.015923208,-1.6283784,0.3755678,-0.061701283,0.035655577,1.0695436,0.7512244,-1.8925349,0.65696746,-1.3590984,0.7807983,-0.033094157,0.9557963,-0.25685647
-0.2,-0.2,1.1999999999999997,-0.5235987755982988,-0.5235987755982988,0,-0.001987176,-1.6308142,0.3551802,-0.06783252,-0.08746809,1.1782386,-0.76719314,-1.8925228,0.6569402,-1.36019,0.78084534,-0.22380899,0.9692114,-0.4597771
-0.2,-0.2,1.1999999999999997,-0.5235987755982988,-0.5235987755982988,0,-0.00990929,-1.6349524,0.34423828,-0.046793174,0.08049844,1.2235628,0.042002916,-1.8931609,0.65692717,-1.3597245,0.7804073,-0.31130186,0.933552,-0.48638555
-0.2,-0.2,1.1999999999999997,-0.5235987755982988,-0.5235987755982988,0,-0.014289504,-1.639146,0.392105,-0.045408845,0.16381355,1.1064495,2.398504,-1.8913169,0.65620136,-1.3606098,0.77820677,-0.31767738,1.002402,0.10625458
-0.2,-0.2,1.1999999999999997,-0.5235987755982988,-0.5235987755982988,0,-0.016898843,-1.6222693,0.375334,-0.08172238,0.07374111,1.163497,1.9886949,-1.8917018,0.65725356,-1.3579242,0.7809124,-0.08014751,0.90792245,-0.24099393
-0.2,-0.2,1.1999999999999997,-0.5235987755982988,-0.5235987755982988,0,-0.007985897,-1.6306995,0.38831723,-0.1184275,0.16884637,1.2013026,0.21894735,-1.8908625,0.65831774,-1.3622255,0.78069204,-0.08914088,0.97951084,-0.4584191
-0.2,-0.2,1.1999999999999997,-0.5235987755982988,-0.5235987755982988,0,-0.009956307,-1.6268548,0.372654,-0.08753661,-0.14246212,1.1289232,0.26682687,-1.8930733,0.6567976,-1.3617077,0.7789933,-0.16296497,1.0836349,-0.2633002
-0.2,-0.2,1.1999999999999997,-0.5235987755982988,-0.5235987755982988,0,-0.016204808,-1.6371914,0.37179792,-0.048372973,0.08653518,1.2371732,0.49454352,-1.893794,0.65643436,-1.3593986,0.77993536,-0.114518866,0.9508407,-0.1460194
-0.2,-0.2,1.1999999999999997,-0.5235987755982988,-0.5235987755982988,0,-0.015963968,-1.6319801,0.4257295,-0.10991039,-0.03244024,1.1463785,-1.20654,-1.8912594,0.6569132,-1.3603033,0.77992946,-0.19911388,0.9326244,-0.15003155
-0.2,-0.2,1.1999999999999997,-0.5235987755982988,-0.5235987755982988,0,-0.009126628,-1.6300269,0.39053953,-0.0663221,0.11332836,1.1163661,1.3726083,-1.8909597,0.6573389,-1.3590618,0.7813017,-0.19045416,1.0168244,-0.8580029
-0.2,-0.2,1.1999999999999997,-0.5235987755982988,-0.5235987755982988,0,-0.017634446,-1.6356632,0.36671093,-0.087549746,0.13950603,1.2419342,1.0223753,-1.8928845,0.65636694,-1.3599218,0.7812751,-0.15576889,0.9805541,-0.1534236
-0.2,-0.2,1.1999999999999997,-0.5235987755982988,-0.5235987755982988,0,-0.010643476,-1.632622,0.38982886,-0.09370657,0.08305478,1.1316081,0.24509558,-1.892472,0.6568474,-1.3586378,0.78028125,-0.30156744,0.9550496,-1.2326622
-0.2,-0.2,1.1999999999999997,-0.5235987755982988,-0.5235987755982988,0,-0.0091419695,-1.6299218,0.3351785,0.0082382085,0.01447182,1.1827568,0.4720628,-1.8898244,0.6573848,-1.3605167,0.7797225,-0.25864825,0.97364,-0.4626481
-0.2,-0.2,1.1999999999999997,-0.5235987755982988,-0.5235987755982988,0,-0.011731527,-1.6347387,0.36209735,-0.010507509,-0.008398654,1.1356158,0.064047515,-1.8924552,0.65624374,-1.3592308,0.78035957,-0.25680512,0.8814421,0.41410166
-0.2,-0.2,1.1999999999999997,-0.5235987755982988,-0.5235987755982988,0,-0.016229412,-1.6300088,0.410582,-0.056592632,0.09481433,1.1423295,0.7073015,-1.8905172,0.6567102,-1.3613242,0.78056335,-0.31217802,0.9694911,-0.6169601
-0.2,-0.2,1.1999999999999997,-0.5235987755982988,-0.5235987755982988,0,-0.0033751007,-1.6215647,0.3901565,-0.08446635,-0.02391517,1.2200438,0.38949332,-1.8929206,0.6562021,-1.3581095,0.7800192,-0.28071648,0.9889858,-0.36164224
-0.2,-0.2,1.1999999999999997,-0.5235987755982988,-0.5235987755982988,0,-0.0014674165,-1.6276432,0.3719475,-0.05321379,0.23206876,1.1319563,1.5649453,-1.8919835,0.65747076,-1.360829,0.77903706,-0.0069077713,1.0302594,-0.48660067
-0.2,-0.2,1.1999999999999997,-0.5235987755982988,-0.5235987755982988,0,-0.01048476,-1.6284709,0.40835255,-0.10938591,-0.110260345,1.1480974,0.10329015,-1.892609,0.6585695,-1.3582985,0.7811292,-0.18738873,0.95188916,-0.5132284
-0.2,-0.2,1.1999999999999997,-0.5235987755982988,-0.5235987755982988,0,-0.0018196548,-1.6335315,0.40024406,-0.032293778,0.036109626,1.1922683,0.6997955,-1.8917148,0.65744513,-1.3615968,0.7807291,-0.05362144,0.9344606,0.29972398
-0.2,-0.2,1.1999999999999997,-0.5235987755982988,-0.5235987755982988,0,-0.003440795,-1.6331054,0.3733402,-0.0024044863,0.19425255,1.2009089,0.2917151,-1.8917885,0.656797,-1.3609836,0.7797762,-0.2933852,1.0295498,-0.5456804
-0.2,-0.2,1.1999999999999997,-0.5235987755982988,-0.5235987755982988,0,-0.018395146,-1.6306047,0.4288782,-0.055336475,0.14843337,1.1071905,-0.39706945,-1.891876,0.65671426,-1.3604223,0.78056026,-0.26618418,1.0257735,-0.5122152
-0.2,-0.2,1.1999999999999997,-0.5235987755982988,-0.5235987755982988,0,-0.014967061,-1.6264033,0.39028466,-0.061019044,-0.020767456,1.1320442,0.98326284,-1.8908302,0.65630263,-1.3600283,0.7815758,-0.22814651,1.0069501,-0.6095618
-0.2,-0.2,1.1999999999999997,-0.5235987755982988,-0.5235987755982988,0,-0.006226224,-1.6326474,0.33434382,-0.10243158,0.09147765,1.23727,0.44268987,-1.8925104,0.65652066,-1.3602549,0.7800205,-0.15961991,0.98226947,-0.4741471
-0.2,-0.2,1.1999999999999997,-0.5235987755982988,-0.5235987755982988,0,-0.010129833,-1.6314657,0.39812005,-0.09751628,0.06373936,1.1889778,0.5405768,-1.8923602,0.6565478,-1.3596778,0.78119576,-0.15772647,0.9998858,-0.61467814
-0.2,-0.2,1.1999999999999997,-0.5235987755982988,-0.5235987755982988,0,-0.00838426,-1.6242051,0.3532359,-0.07371506,-0.009359786,1.3142273,-0.90435874,-1.8920435,0.6573059,-1.3620301,0.77911013,-0.23444907,0.9674124,-0.94612837
-0.2,-0.2,1.1999999999999997,-0.5235987755982988,-0.5235987755982988,0,-0.014600088,-1.6293526,0.37532556,-0.12725161,0.07386605,1.1297312,1.5207409,-1.8913902,0.65717345,-1.3596042,0.77962124,-0.07151905,0.9195229,0.5233318
-0.2,-0.2,1.1999999999999997,-0.5235987755982988,-0.5235987755982988,0,-0.01361238,-1.6279191,0.32411462,-0.07570735,0.0043181903,1.1595976,-1.0433617,-1.8917706,0.65735066,-1.3594233,0.78098583,-0.15080114,0.9444332,0.1096641
-0.2,-0.2,1.1999999999999997,-0.5235987755982988,-0.5235987755982988,0,-0.0072507327,-1.629422,0.37249407,-0.041406672,-0.15983814,1.1031951,0.8110058,-1.8914404,0.6572504,-1.3623717,0.7797972,-0.26608017,1.0280517,-0.9887834
-0.2,-0.2,1.1999999999999997,-0.5235987755982988,-0.5235987755982988,0,-0.017187906,-1.6297659,0.35399282,-0.0895352,0.09003667,1.1574085,-0.20918588,-1.8923028,0.6566616,-1.3626122,0.7799656,-0.22896467,0.9591983,-0.8220045
-0.2,-0.2,1.1999999999999997,-0.5235987755982988,-0.5235987755982988,0,-0.016763318,-1.6318806,0.39763418,-0.05720059,0.08333412,1.2086139,1.3552471,-1.8918862,0.6564455,-1.3602879,0.77960724,-0.19921792,1.0399065,-0.3699073
-0.2,-0.2,1.1999999999999997,-0.5235987755982988,-0.5235987755982988,0,-0.00028657794,-1.633713,0.38314885,-0.10783353,0.1791881,1.154792,0.08572768,-1.8930794,0.65734404,-1.3594384,0.77907145,-0.14912671,0.9868734,-0.16302656
-0.2,-0.2,1.1999999999999997,-0.5235987755982988,-0.5235987755982988,0,-0.007662107,-1.6325927,0.35959783,-0.043883454,0.042748846,1.1920696,0.12298937,-1.891816,0.65652376,-1.3607081,0.7797328,-0.12840046,0.9437662,-1.0424429
-0.2,-0.2,1.1999999999999997,-0.5235987755982988,-0.5235987755982988,0,-0.012917766,-1.6229843,0.39389628,-0.047119115,-0.02137001,1.1740184,0.9432392,-1.8916289,0.65682846,-1.3597751,0.7798795,-0.14295918,1.0930852,-0.15823583
-0.2,-0.2,1.1999999999999997,-0.5235987755982988,-0.5235987755982988,0,-0.01071634,-1.6270177,0.3621862,-0.08570369,0.12049435,1.1508125,-0.98080254,-1.8918233,0.6564311,-1.3601187,0.7793664,-0.24287821,0.92762196,-0.3280112
-0.2,-0.2,1.1999999999999997,-0.5235987755982988,-0.5235987755982988,0,-0.0017476536,-1.6285217,0.35430992,-0.06799692,0.014302778,1.1298045,1.8389423,-1.8923262,0.6575884,-1.359561,0.77928364,-0.20435853,0.98168296,-0.36691836
-0.2,-0.2,1.1999999999999997,-0.5235987755982988,-0.5235987755982988,0,-0.011375621,-1.6383017,0.373799,-0.0498067,-0.061638758,1.1527034,0.3926252,-1.8917592,0.6572194,-1.360865,0.77879703,-0.21151832,1.0090401,-0.8180084
-0.2,-0.2,1.1999999999999997,-0.5235987755982988,-0.5235987755982988,0,-0.0075394944,-1.6319045,0.37490848,-0.097978525,-0.019094804,1.1633251,1.1136853,-1.8921216,0.6575295,-1.3591613,0.7802232,-0.123509355,0.91948766,0.40105605
-0.2,-0.2,1.1999999999999997,-0.5235987755982988,-0.5235987755982988,0,-0.013769938,-1.6288403,0.37366098,-0.09868893,-0.005558489,1.2433714,0.77807367,-1.8921882,0.65561074,-1.3590591,0.7789757,-0.18171257,0.9943451,-0.6786853
-0.2,-0.2,1.1999999999999997,-0.5235987755982988,-0.5235987755982988,0,-0.008371905,-1.6369079,0.36428013,-0.03608683,-0.117752425,1.2412105,0.23137373,-1.8914394,0.65715724,-1.3600154,0.779867,-0.27667812,1.0439186,-0.4785124
-0.2,-0.2,1.1999999999999997,-0.5235987755982988,-0.5235987755982988,0,-0.010726504,-1.6377761,0.3159314,-0.0762017,0.24669603,1.1630431,0.9489708,-1.8927504,0.65676916,-1.3603741,0.7796574,-0.29124245,0.9113891,-0.06371657
-0.2,-0.2,1.1999999999999997,-0.5235987755982988,-0.5235987755982988,0,-0.014398372,-1.6249117,0.39589626,-0.08002966,0.105304465,1.2128731,0.650875,-1.8920343,0.6576849,-1.3599933,0.77932537,-0.14165725,1.0297903,-1.1041492
-0.2,-0.2,1.1999999999999997,-0.5235987755982988,-0.5235987755982988,0,-0.0044979593,-1.6327914,0.35734877,-0.04461682,0.016209105,1.2040056,0.37738422,-1.8919199,0.6570209,-1.360709,0.7795311,-0.21976699,0.85728025,-0.5036469
-0.2,-0.2,1.1999999999999997,-0.5235987755982988,-0.5235987755982988,0,-0.00692298,-1.6345847,0.38739514,-0.049776614,-0.07320392,1.1621077,-0.44666994,-1.8913577,0.6578021,-1.360767,0.7802721,-0.22620237,0.98580116,-0.060723897
-0.2,-0.2,1.1999999999999997,-0.5235987755982988,-0.5235987755982988,0,-0.010276602,-1.6306447,0.38321796,-0.07453661,0.020660736,1.087232,0.37400532,-1.8914303,0.65696424,-1.3581167,0.77909696,-0.07823214,0.93901914,-0.9221884
-0.2,-0.2,1.1999999999999997,-0.5235987755982988,-0.5235987755982988,0,-0.015513625,-1.6312687,0.40421236,-0.08811771,0.01570406,1.1461837,0.8223899,-1.8939513,0.65664685,-1.3586513,0.77868706,-0.23538372,0.9049588,-0.38849673
-0.2,-0.2,1.1999999999999997,-0.5235987755982988,-0.5235987755982988,0,-0.0062907618,-1.6290056,0.3873578,-0.13202067,0.0038802226,1.1957728,0.44587925,-1.892031,0.65586066,-1.3602134,0.7804031,-0.16626045,0.929612,-0.98265946
-0.2,-0.2,1.1999999999999997,-0.5235987755982988,-0.5235987755982988,0,-0.010876869,-1.6210077,0.38468188,-0.025541227,0.09940455,1.1099432,0.18051885,-1.8923506,0.656835,-1.359971,0.7807392,-0.12828508,1.0005096,0.1390802
-0.2,-0.2,1.1999999999999997,-0.5235987755982988,-0.5235987755982988,0,-0.005344538,-1.630829,0.4019703,-0.061047744,0.31542087,1.1551576,1.8328707,-1.8925711,0.65755045,-1.3596494,0.7799232,-0.2055498,0.93073505,-0.09391394
-0.2,-0.2,1.1999999999999997,-0.5235987755982988,-0.5235987755982988,0,-0.0086903805,-1.6300483,0.3951707,-0.06957724,0.12437702,1.1598998,1.2978537,-1.8934265,0.6574585,-1.3575343,0.7788305,-0.07239407,1.0005652,-0.0750711
-0.2,-0.2,1.1999999999999997,-0.5235987755982988,-0.5235987755982988,0,-0.0048905374,-1.6282454,0.37953553,-0.09735854,0.0052840873,1.1309516,-0.6786426,-1.8916435,0.6578134,-1.3602616,0.77960205,-0.23408622,0.97593653,0.60324305
-0.2,-0.2,1.1999999999999997,-0.5235987755982988,-0.5235987755982988,0,-0.014604279,-1.6321865,0.3860411,-0.05026399,0.04787345,1.1445664,-0.1488666,-1.8905253,0.6566809,-1.3593047,0.7798978,-0.17764726,1.0221058,-1.6108626
-0.2,-0.2,1.1999999999999997,-0.5235987755982988,-0.5235987755982988,0,-0.0018143693,-1.6292632,0.40455303,-0.0988082,0.19354773,1.1587251,1.4514885,-1.8917642,0.6572541,-1.3614266,0.77969587,-0.2972114,0.9449614,0.45136172
-0.2,-0.2,1.1999999999999997,-0.5235987755982988,-0.5235987755982988,0,-0.01547149,-1.6304152,0.4224348,-0.06519899,-0.04521392,1.1464725,0.9053359,-1.891836,0.65724313,-1.360273,0.77982926,-0.28618777,1.0395933,-0.7501597
-0.2,-0.2,1.1999999999999997,-0.5235987755982988,-0.5235987755982988,0,-0.014597651,-1.6278188,0.37997305,-0.13368267,0.10064466,1.2057076,0.99980754,-1.8928953,0.65649945,-1.3607423,0.78006244,-0.2541987,0.9779096,-0.36147556
-0.2,-0.2,1.1999999999999997,-0.5235987755982988,-0.5235987755982988,0,-0.012004592,-1.6368161,0.38423952,-0.090834305,0.242042,1.2193606,-0.14025025,-1.8931657,0.6571301,-1.3583319,0.7797245,-0.20192473,0.9139095,-0.5561698
-0.2,-0.2,1.1999999999999997,-0.5235987755982988,-0.5235987755982988,0,-0.003111021,-1.6279598,0.4079298,-0.05315386,0.075453095,1.1496183,0.5975289,-1.8920572,0.65722626,-1.3602751,0.7798893,-0.31037608,0.9612525,-0.9182375
-0.2,-0.2,1.1999999999999997,-0.5235987755982988,-0.5235987755982988,0,-0.015127765,-1.632034,0.3500399,-0.07124509,0.11653226,1.1980472,-1.1626397,-1.8930424,0.65630054,-1.3591577,0.7804747,-0.16248639,1.0576377,-0.30950248
-0.2,-0.2,1.1999999999999997,-0.5235987755982988,-0.5235987755982988,0,-0.005935343,-1.6340212,0.3881946,-0.058157362,-0.08807885,1.1836692,-0.08699152,-1.8907878,0.65663177,-1.3595111,0.77965796,-0.10607685,1.0013524,-0.050670806
-0.2,-0.2,1.1999999999999997,-0.5235987755982988,-0.5235987755982988,0,-0.007512894,-1.6303325,0.398544,-0.102870315,0.07356254,1.1722168,-0.25437972,-1.8916394,0.65608287,-1.3601708,0.78006315,-0.32843873,0.94760126,-0.8669099
-0.2,-0.2,1.1999999999999997,-0.5235987755982988,-0.5235987755982988,0,-0.015760222,-1.6229972,0.41185293,-0.058899216,0.08838379,1.1575168,0.938939,-1.8909644,0.65593356,-1.3593998,0.77977985,-0.21901214,0.98313934,-0.8409669
-0.2,-0.2,1.1999999999999997,-0.5235987755982988,-0.5235987755982988,0,-0.012937514,-1.6253749,0.4605234,-0.08289282,0.21221152,1.2034847,1.50124,-1.8919477,0.6579853,-1.3609039,0.7789372,-0.20304884,1.0099587,-0.98362327
-0.2,-0.2,1.1999999999999997,-0.5235987755982988,-0.5235987755982988,0,-0.0080053685,-1.6253432,0.39477143,-0.04597175,0.15686868,1.1112716,1.1588299,-1.8918731,0.6582222,-1.359917,0.77976495,-0.18794015,1.031504,-0.9407715
-0.2,-0.2,1.1999999999999997,-0.5235987755982988,-0.5235987755982988,0,-0.012357885,-1.6310624,0.3710639,-0.038215484,0.024844997,1.1265625,-0.23437624,-1.8918437,0.65799075,-1.3587742,0.7797038,-0.072118685,0.9852786,-0.85808426
-0.2,-0.2,1.1999999999999997,-0.5235987755982988,-0.5235987755982988,0,-0.015601114,-1.6330158,0.3941594,-0.07957435,-0.08106692,1.2161679,-0.1082977,-1.8922076,0.6560524,-1.3613468,0.77972156,-0.21772337,1.0034794,-0.87651426
-0.2,-0.2,1.1999999999999997,-0.5235987755982988,-0.5235987755982988,0,-0.011304717,-1.6329026,0.3765155,-0.06600564,0.19804215,1.2004793,-0.49081102,-1.8915129,0.6567911,-1.3602186,0.7807858,-0.20585874,0.93495643,0.12899175
-0.2,-0.2,1.1999999999999997,-0.5235987755982988,-0.5235987755982988,0,-0.0138649205,-1.6351587,0.3699132,-0.07384409,0.19252501,1.1268471,0.946379,-1.8910962,0.656245,-1.3596087,0.7802968,-0.14784385,0.9497029,-0.13258757
-0.2,-0.2,1.1999999999999997,-0.5235987755982988,-0.5235987755982988,0,-0.01360774,-1.6283643,0.41254485,-0.051505268,-0.0031136335,1.1842237,1.5786818,-1.8909342,0.6570225,-1.3595692,0.7805105,-0.1526524,1.0067078,-0.17071263
-0.2,-0.2,1.1999999999999997,-0.5235987755982988,-0.5235987755982988,0,-0.02325885,-1.6333567,0.37676433,-0.14122519,0.07358241,1.1637888,0.093420915,-1.8912125,0.6564445,-1.3589573,0.77898073,-0.08278306,0.9709627,-0.904485
-0.2,-0.2,1.1999999999999997,-0.5235987755982988,-0.5235987755982988,0,-0.015314199,-1.6258526,0.3820675,-0.0239136,0.014319499,1.1394879,2.2020776,-1.8922081,0.6575584,-1.3600553,0.779276,-0.20587826,0.9045596,-0.54462105
-0.2,-0.2,1.1999999999999997,-0.5235987755982988,-0.5235987755982988,0,-0.007902654,-1.6248652,0.38920128,-0.09915912,-0.019012023,1.1308388,1.1523498,-1.8902506,0.6559085,-1.3617216,0.7813017,-0.20681824,1.0115329,0.18382184
-0.2,-0.2,1.1999999999999997,-0.5235987755982988,-0.5235987755982988,0,-0.0054928833,-1.6312506,0.40682784,-0.09944819,0.10391966,1.1792071,-0.9562344,-1.8926985,0.65768325,-1.3595715,0.77982944,-0.23867954,0.9534162,-1.3138852
-0.2,-0.2,1.1999999999999997,-0.5235987755982988,-0.5235987755982988,0,-0.016048122,-1.6356629,0.3487465,-0.095173374,-0.022601398,1.1377794,0.63253254,-1.8918927,0.65666556,-1.359185,0.7789079,-0.16525128,0.98916787,-0.5794587
-0.2,-0.2,1.1999999999999997,-0.5235987755982988,-0.5235987755982988,0,-0.005803598,-1.6339327,0.3628716,-0.080659494,0.0174321,1.1193612,-1.1961191,-1.8921546,0.65712893,-1.358359,0.7809725,-0.216336,0.9148858,-0.2989469
-0.2,-0.2,1.1999999999999997,-0.5235987755982988,-0.5235987755982988,0,-0.012641571,-1.6288117,0.35349548,-0.06136666,0.0028500846,1.1499664,0.69744873,-1.8914071,0.65728015,-1.3606843,0.7804551,-0.15932414,0.99894416,-0.48911908
-0.2,-0.2,1.1999999999999997,-0.5235987755982988,-0.5235987755982988,0,-0.013380309,-1.6206356,0.36395565,-0.0350155,0.059898503,1.190147,0.25435874,-1.8916885,0.65623856,-1.3575062,0.78050095,-0.11223544,0.94523156,-0.82610136
-0.2,-0.2,1.1999999999999997,-0.5235987755982988,-0.5235987755982988,0,-0.015051219,-1.6244159,0.36974898,-0.06198014,-0.01931251,1.1361617,-0.41264164,-1.8929814,0.65605134,-1.3611242,0.7797611,-0.2688894,1.0914491,-0.9694272
-0.2,-0.2,1.1999999999999997,-0.5235987755982988,-0.5235987755982988,0,-0.020753045,-1.6272805,0.35094014,-0.01855886,-0.012370734,1.1498247,-1.0974675,-1.8926905,0.6565426,-1.3612075,0.77999574,-0.16098951,0.9415895,-0.6261737
-0.2,-0.2,1.1999999999999997,-0.5235987755982988,-0.5235987755982988,0,-0.01154382,-1.6305878,0.38330588,-0.13663636,-0.048734553,1.224262,0.6801425,-1.8929571,0.65580404,-1.359762,0.77929497,-0.1505354,0.966068,-0.58855337
-0.2,-0.2,1.1999999999999997,-0.5235987755982988,-0.5235987755982988,0,-0.02062964,-1.624726,0.38872546,-0.12278041,0.014800596,1.1515129,0.35742325,-1.8917884,0.6565414,-1.3602158,0.78085834,-0.20983611,1.0090175,-0.76820284
-0.2,-0.2,1.1999999999999997,-0.5235987755982988,-0.5235987755982988,0,-0.01142502,-1.6240374,0.37859216,-0.03946105,0.2613591,1.1236608,0.41302592,-1.8923904,0.6569762,-1.3612392,0.78032637,-0.13786314,1.016765,-0.82376546
-0.2,-0.2,1.1999999999999997,-0.5235987755982988,-0.5235987755982988,0,-0.0073103523,-1.6319526,0.36731973,-0.074578546,0.08670261,1.163105,0.47367045,-1.8929669,0.656467,-1.3601508,0.77950084,-0.3243007,0.983803,-0.5021221
-0.2,-0.2,1.1999999999999997,-0.5235987755982988,-0.5235987755982988,0,-0.009614172,-1.6330103,0.4010672,-0.07928922,0.18062112,1.2254963,0.48908716,-1.8912894,0.6565977,-1.3618206,0.7798025,-0.22827278,0.9848914,-0.43007955
-0.2,-0.2,1.1999999999999997,-0.5235987755982988,-0.5235987755982988,0,-0.014800775,-1.6291933,0.36277404,-0.06868729,0.122828,1.1194829,2.170697,-1.8927172,0.6575919,-1.3594141,0.77919185,-0.14690602,0.9082527,-0.20227164
-0.2,-0.2,1.1999999999999997,-0.5235987755982988,-0.5235987755982988,0,-0.007270799,-1.6308268,0.40833738,-0.031051042,0.17288381,1.1782956,0.68262154,-1.890178,0.65648174,-1.3596305,0.7788596,-0.13695344,1.0016114,-0.34296644
-0.2,-0.2,1.1999999999999997,-0.5235987755982988,-0.5235987755982988,0,-0.010998478,-1.6288295,0.40901092,-0.020019168,-0.0907873,1.2010273,-0.27033848,-1.8917273,0.6573655,-1.3608979,0.7796413,-0.2336747,0.93672794,-0.8823302
-0.2,-0.2,1.1999999999999997,-0.5235987755982988,-0.5235987755982988,0,-0.009036399,-1.633853,0.35274804,-0.07220386,0.18731327,1.1730692,0.882857,-1.8926806,0.6560218,-1.3604574,0.7800431,-0.033143613,0.9866115,-0.8270825
-0.2,-0.2,1.1999999999999997,-0.5235987755982988,-0.5235987755982988,0,-0.009529552,-1.6324389,0.3882713,-0.08278493,-0.002729069,1.1034361,0.4502776,-1.8917428,0.657071,-1.3589151,0.7796158,-0.22594541,0.9857818,-0.59378225
-0.2,-0.2,1.1999999999999997,-0.5235987755982988,-0.5235987755982988,0,-0.0117532,-1.6283295,0.3785469,-0.054316793,0.03775424,1.0668105,1.6708927,-1.8925612,0.65636766,-1.3602896,0.7802986,-0.11810214,0.8765147,-0.4351366
-0.2,-0.2,1.1999999999999997,-0.5235987755982988,-0.5235987755982988,0,-0.008683486,-1.6258916,0.4002164,-0.08054169,-0.015684683,1.0989133,-0.31560096,-1.8924583,0.657405,-1.3615654,0.7806444,-0.10823234,1.0665171,-0.7247935
-0.2,-0.2,1.1999999999999997,-0.5235987755982988,-0.5235987755982988,0,-0.014742708,-1.632123,0.40759906,-0.012703615,0.11864898,1.2145538,0.18741417,-1.890349,0.6561971,-1.3617377,0.77892745,-0.07851089,1.0290494,-1.4206134
-0.2,-0.2,1.1999999999999997,-0.5235987755982988,-0.5235987755982988,0,-0.009926993,-1.6255587,0.37667087,-0.07080929,0.112496465,1.1407353,-0.54716736,-1.8926634,0.6576823,-1.359014,0.77966315,-0.026616931,0.9001892,-1.2162477
-0.2,-0.2,1.1999999999999997,-0.5235987755982988,-0.5235987755982988,0,-0.008171019,-1.6359421,0.305928,-0.084421575,0.13353479,1.1962076,1.5046191,-1.8910781,0.6571815,-1.3596085,0.77998406,-0.27690372,1.0306479,-0.34444714
-0.2,-0.2,1.1999999999999997,-0.5235987755982988,-0.5235987755982988,0,-0.018470112,-1.62803,0.39355326,-0.068071514,0.15519409,1.246713,-0.4819228,-1.8919342,0.6571205,-1.3600379,0.7810304,-0.16726902,1.0219378,-0.30717143
-0.2,-0.2,1.1999999999999997,-0.5235987755982988,-0.5235987755982988,0,-0.0070750606,-1.6333686,0.45588335,-0.12172711,-0.04195745,1.1704117,-0.2080433,-1.8914798,0.6560005,-1.361733,0.78028274,-0.024147222,1.0413232,-0.43283287
-0.2,-0.2,1.1999999999999997,-0.5235987755982988,-0.5235987755982988,0,-0.0073923166,-1.6322829,0.37302524,-0.08919731,0.038702272,1.1920606,1.5558858,-1.8920066,0.6558051,-1.3601404,0.7799858,-0.1442285,1.0035245,-0.45687717
-0.2,-0.2,1.1999999999999997,-0.5235987755982988,-0.5235987755982988,0,-0.016207863,-1.6290745,0.30342016,-0.06544519,0.036770053,1.1509551,0.8926558,-1.8919497,0.6572074,-1.36225,0.7803112,-0.20654942,0.91454923,-0.94772977
-0.2,-0.2,1.1999999999999997,-0.5235987755982988,-0.5235987755982988,0,-0.0062572067,-1.6301951,0.35803673,-0.07453035,0.020676518,1.1453879,-0.27753428,-1.8924563,0.6568906,-1.3615648,0.7793849,-0.17266366,0.9841958,-1.0216266
-0.2,-0.2,1.1999999999999997,-0.5235987755982988,-0.5235987755982988,0,-0.0102495495,-1.6273044,0.40822548,-0.10797764,0.13633221,1.2451049,1.2743059,-1.8915447,0.65672624,-1.3608607,0.77999663,-0.2937483,0.9969347,-0.7262936
-0.2,-0.2,1.1999999999999997,-0.5235987755982988,-0.5235987755982988,0,-0.0040517724,-1.6276312,0.40900278,-0.10020642,0.17752007,1.1449152,-0.11016398,-1.8913791,0.65727323,-1.3611506,0.7796054,-0.1443916,0.8743591,-0.34692687
-0.2,-0.2,1.1999999999999997,-0.5235987755982988,-0.5235987755982988,0,-0.017849267,-1.6305575,0.39264363,-0.08190308,0.09316113,1.1211225,-0.6408176,-1.8901693,0.6567932,-1.3615626,0.7802498,-0.21661246,0.9035765,-0.55995876
-0.2,-0.2,1.1999999999999997,-0.5235987755982988,-0.5235987755982988,0,-0.014176987,-1.6276394,0.35275164,-0.089366965,0.21769734,1.0890193,-0.53498983,-1.8926623,0.6569815,-1.3611735,0.78061205,-0.26462486,0.9375403,-1.1405083
-0.2,-0.2,1.1999999999999997,-0.5235987755982988,-0.5235987755982988,0,-0.011880391,-1.6299567,0.3777214,-0.08445293,0.20942245,1.1757498,0.41938207,-1.8908223,0.6555987,-1.3591989,0.7795217,-0.12826797,0.97094446,-0.5997384
-0.2,-0.2,1.1999999999999997,-0.5235987755982988,-0.5235987755982988,0,-0.0106961075,-1.633221,0.4158835,-0.099870965,0.18747215,1.1199647,0.96754813,-1.8926715,0.6578171,-1.3601804,0.77989936,-0.07963953,0.96213186,-0.44388404
-0.2,-0.2,1.1999999999999997,-0.5235987755982988,-0.5235987755982988,0,-0.012691266,-1.6277063,0.3537788,-0.025297549,0.025509175,1.2112093,0.3858272,-1.8903327,0.65675473,-1.3600727,0.78089035,-0.21510194,1.0417068,-1.2621008
-0.2,-0.2,1.1999999999999997,-0.5235987755982988,-0.5235987755982988,0,-0.012846183,-1.6219703,0.38492113,-0.089032516,0.029625505,1.1675717,0.32873648,-1.8933973,0.6562317,-1.3595757,0.77943933,-0.2631805,1.0166564,-0.426232
-0.2,-0.2,1.1999999999999997,-0.5235987755982988,-0.5235987755982988,0,-0.020039678,-1.63257,0.36532646,-0.032723587,0.03353081,1.136914,0.11771089,-1.893797,0.6575741,-1.3602258,0.77959436,-0.18481137,1.0044327,-1.1925969
-0.2,-0.2,1.1999999999999997,-0.5235987755982988,-0.5235987755982988,0,-0.015277561,-1.6345189,0.39698952,-0.080786936,0.09522328,1.1721903,-0.5047579,-1.8911476,0.65772724,-1.3612064,0.7806552,-0.11745516,1.0780084,-0.17564923
-0.2,-0.2,1.1999999999999997,-0.5235987755982988,-0.5235987755982988,0,-0.012391947,-1.6319438,0.3934808,-0.004159706,0.10403243,1.1817216,-0.44397077,-1.892552,0.6577213,-1.3612237,0.78039837,-0.23190096,0.99719197,-0.46049768
-0.2,-0.2,1.1999999999999997,-0.5235987755982988,-0.5235987755982988,0,-0.011771811,-1.6289508,0.35685351,-0.023278214,0.042014197,1.1254144,-1.9627112,-1.8909788,0.65630305,-1.3584212,0.77995133,-0.20955962,0.9890952,0.12529525
-0.2,-0.2,1.1999999999999997,-0.5235987755982988,-0.5235987755982988,0,-0.007951329,-1.6346477,0.35117757,-0.05093015,0.024712717,1.2012374,-0.255536,-1.891572,0.6573605,-1.3609992,0.7803289,-0.21816479,0.9721902,-0.86773044
-0.2,-0.2,1.1999999999999997,-0.5235987755982988,-0.5235987755982988,0,-0.011537102,-1.6274716,0.36968753,-0.11428576,0.1044274,1.1572709,-2.1198595,-1.8928392,0.65688646,-1.361183,0.77971584,-0.294148,0.8311748,-0.29865915
-0.2,-0.2,1.1999999999999997,-0.5235987755982988,-0.5235987755982988,0,-0.01730784,-1.6362474,0.39543304,-0.09954328,0.040983293,1.1754005,0.36993587,-1.8915045,0.65683323,-1.3597118,0.7796475,-0.10689066,1.0199648,-0.7825272
-0.2,-0.2,1.1999999999999997,-0.5235987755982988,-0.5235987755982988,0,-0.015252661,-1.627938,0.38176078,-0.062382422,0.11439596,1.1617439,0.07262363,-1.8922179,0.6584814,-1.3604624,0.78000575,-0.22923101,0.97515297,-0.6947916
-0.2,-0.2,1.1999999999999997,-0.5235987755982988,-0.5235987755982988,0,-0.015588826,-1.6264853,0.3494062,-0.07004655,0.18700044,1.197961,1.3789471,-1.8919833,0.6553486,-1.3609315,0.77948296,-0.13895448,0.92703855,-0.4220037
-0.2,-0.2,1.1999999999999997,-0.5235987755982988,-0.5235987755982988,0,-0.007866806,-1.6317782,0.3899645,-0.08977039,0.09888546,1.222734,1.9844612,-1.8937908,0.6572936,-1.3595252,0.780007,-0.10879522,0.9581853,-0.894999
-0.2,-0.2,1.1999999999999997,-0.5235987755982988,-0.5235987755982988,0,-0.008878961,-1.635447,0.3714587,-0.025864419,0.09849666,1.2817817,0.013350422,-1.8927675,0.6567721,-1.3598282,0.7788847,-0.13789074,1.0032985,-0.92100674
-0.2,-0.2,1.1999999999999997,-0.5235987755982988,-0.5235987755982988,0,-0.010427213,-1.6300496,0.3708924,-0.060275387,-0.06112629,1.2003967,0.23116744,-1.8930169,0.65783525,-1.359976,0.7805854,-0.25557867,0.9933202,-0.5923893
-0.2,-0.2,1.1999999999999997,-0.5235987755982988,-0.5235987755982988,0,-0.0077074156,-1.6279854,0.3803737,-0.11296094,0.073506325,1.1463717,2.207429,-1.8915039,0.65735203,-1.3628626,0.78069293,-0.15857354,1.0130528,-0.99142146
-0.2,-0.2,1.1999999999999997,-0.5235987755982988,-0.5235987755982988,0,-0.007022456,-1.6286806,0.39477825,-0.035528097,0.18645142,1.2024634,0.52014774,-1.892552,0.65630364,-1.3600881,0.7802647,-0.1428926,1.0702355,-0.8617649
-0.2,-0.2,1.1999999999999997,-0.5235987755982988,-0.5235987755982988,0,-0.010276498,-1.6339319,0.38629937,0.028378902,0.10291005,1.1739451,-0.6519785,-1.8929541,0.6579411,-1.3585329,0.780046,-0.1409749,0.94472617,-1.0976331
-0.2,-0.2,1.1999999999999997,-0.5235987755982988,-0.5235987755982988,0,-0.01205828,-1.6297607,0.35236907,-0.08242137,0.20565291,1.1278584,0.14425887,-1.8917174,0.65621597,-1.3601224,0.78069025,-0.18148682,0.99464697,-1.0854474
-0.2,-0.2,1.1999999999999997,-0.5235987755982988,-0.5235987755982988,0,-0.013143157,-1.6255115,0.40244317,-0.09681537,0.08145987,1.123121,1.6477144,-1.8924158,0.6559811,-1.3593189,0.78040844,-0.19824445,1.0635371,-0.5435601
-0.2,-0.2,1.1999999999999997,-0.5235987755982988,-0.5235987755982988,0,-0.0117973415,-1.6330659,0.39086303,-0.062237907,-0.0074305423,1.1835736,-1.4471719,-1.8930893,0.6576951,-1.3611617,0.7797958,-0.29131186,1.0218828,-1.2697028
-0.2,-0.2,1.1999999999999997,-0.5235987755982988,-0.5235987755982988,0,-0.013155264,-1.6298852,0.38154206,-0.07186136,0.08897506,1.2332952,-0.11873789,-1.8916436,0.65630525,-1.3612931,0.7811047,-0.19152911,0.9511764,-0.08426755
-0.2,-0.2,1.1999999999999997,-0.5235987755982988,-0.5235987755982988,0,-0.017830035,-1.6306975,0.3713974,-0.088033676,-0.06926381,1.1834083,0.26930904,-1.8911229,0.6565355,-1.3584824,0.77966434,-0.10319182,0.99202627,-1.0672598
-0.2,-0.2,1.1999999999999997,-0.5235987755982988,-0.5235987755982988,0,-0.007322495,-1.6290879,0.39481738,-0.1148842,0.23935193,1.1194233,0.83761257,-1.8916026,0.65591514,-1.3620816,0.7808103,-0.15058744,0.9149698,-0.7366146
-0.2,-0.2,1.1999999999999997,-0.5235987755982988,-0.5235987755982988,0,-0.005259202,-1.6262995,0.38708028,-0.11375984,0.0032340824,1.1526142,0.92693484,-1.8923756,0.6573444,-1.3585116,0.78009474,-0.21781674,0.8536812,-0.19476475
-0.2,-0.2,1.1999999999999997,-0.5235987755982988,-0.5235987755982988,0,-0.009422482,-1.6256545,0.391478,-0.0340615,0.13140383,1.1186471,-0.40993038,-1.8938807,0.65633935,-1.3590561,0.7799205,-0.27490374,0.96331733,0.059954926
-0.2,-0.2,1.1999999999999997,-0.5235987755982988,-0.5235987755982988,0,-0.010051647,-1.6278683,0.37584996,-0.10470241,-0.11185482,1.2041508,1.090445,-1.8929865,0.65643877,-1.3601053,0.78051955,-0.18625528,0.95766187,-0.45024452
-0.2,-0.2,1.1999999999999997,-0.5235987755982988,-0.5235987755982988,0,-0.016532337,-1.6314965,0.357906,-0.053209897,0.003029865,1.1333755,0.3542677,-1.8925958,0.6572233,-1.3605942,0.7792137,-0.21160705,0.9741714,-0.57852787
-0.2,-0.2,1.1999999999999997,-0.5235987755982988,-0.5235987755982988,0,-0.010614497,-1.6274666,0.37072054,-0.05762778,0.0445138,1.1644927,1.0785009,-1.8918737,0.6556122,-1.3598922,0.78132474,-0.18097429,0.943112,-0.30933386
-0.2,-0.2,1.1999999999999997,-0.5235987755982988,-0.5235987755982988,0,-0.015528429,-1.6299043,0.36309835,-0.08532069,0.04600863,1.141682,0.22544691,-1.8914537,0.6575234,-1.3613738,0.7807076,-0.24560536,0.9428371,-1.6206456
-0.2,-0.2,1.1999999999999997,-0.5235987755982988,-0.5235987755982988,0,-0.007418862,-1.6373972,0.38608134,-0.07751034,-0.104456976,1.1875589,0.63895404,-1.8917876,0.65694183,-1.3628081,0.779135,-0.13447632,0.97918445,0.13111469
-0.2,-0.2,1.1999999999999997,-0.5235987755982988,-0.5235987755982988,0,-0.007964228,-1.6302836,0.37912002,-0.10188892,-0.062775716,1.1192677,0.41705933,-1.891952,0.6567842,-1.3609853,0.78058237,-0.19311999,1.0060366,-0.21918707
-0.2,-0.2,1.1999999999999997,-0.5235987755982988,-0.5235987755982988,0,-0.009638884,-1.6400639,0.36504418,-0.12083558,0.18012838,1.1683663,0.5023723,-1.8911805,0.6572341,-1.359568,0.78035593,-0.15214202,0.94449484,-0.93414176
-0.2,-0.2,1.1999999999999997,-0.5235987755982988,-0.5235987755982988,0,-0.012939575,-1.632585,0.36839923,-0.09460313,0.06333793,1.2123268,-0.527315,-1.8914013,0.65636,-1.3588176,0.7797204,-0.1332006,1.0278188,-0.99524516
-0.2,-0.2,1.1999999999999997,-0.5235987755982988,-0.5235987755982988,0,-0.012629327,-1.6290612,0.39390296,-0.07066429,0.0047855014,1.2016728,0.3492392,-1.892107,0.65596604,-1.359607,0.77872497,-0.007140864,0.95171916,-0.38248307
-0.2,-0.2,1.1999999999999997,-0.5235987755982988,-0.5235987755982988,0,-0.0047891005,-1.6324923,0.39146438,-0.061520755,0.071168184,1.1185843,-0.28939998,-1.892494,0.65672433,-1.3609624,0.7796407,-0.17554808,0.97994876,-0.5972699
-0.2,-0.2,1.1999999999999997,-0.5235987755982988,-0.5235987755982988,0,-0.004934789,-1.626876,0.37378457,-0.06595812,0.13830324,1.1359645,0.07228093,-1.8912445,0.6575506,-1.3612138,0.7796094,-0.18272832,0.9379916,-0.15389588
-0.2,-0.2,1.1999999999999997,-0.5235987755982988,-0.5235987755982988,0,-0.012675632,-1.6245701,0.39048162,-0.084728934,0.023004051,1.1070557,1.8835326,-1.8912097,0.6580161,-1.3593856,0.77951515,-0.13849556,1.0103223,-0.967926
-0.2,-0.2,1.1999999999999997,-0.5235987755982988,-0.5235987755982988,0,-0.007300346,-1.6285102,0.40609777,-0.04753749,0.12314747,1.152117,0.76396805,-1.8921654,0.6564622,-1.3604296,0.77969337,-0.22114244,0.99929154,-0.5157299
-0.2,-0.2,1.1999999999999997,-0.5235987755982988,-0.5235987755982988,0,-0.013173883,-1.6323596,0.3716565,-0.06095671,0.044191364,1.1447693,-0.61812675,-1.8921974,0.6565635,-1.3621701,0.78046757,-0.15679114,0.9481158,-0.3852829
-0.2,-0.2,1.1999999999999997,-0.5235987755982988,-0.5235987755982988,0,-0.015193024,-1.6331542,0.36936912,-0.058836892,0.018742636,1.1782116,1.0179427,-1.8923287,0.65705496,-1.3604087,0.78112745,-0.25310594,1.0333924,0.09026598
-0.2,-0.2,1.1999999999999997,-0.5235987755982988,-0.5235987755982988,0,-0.012654716,-1.6249288,0.38557047,-0.056732472,0.17869115,1.1404202,0.7313592,-1.8923842,0.6570336,-1.3607346,0.78131896,-0.10776316,0.92628425,-0.30352882
-0.2,-0.2,1.1999999999999997,-0.5235987755982988,-0.5235987755982988,0,-0.013636389,-1.6302755,0.37926373,-0.09276202,-0.012928406,1.166169,0.7886155,-1.8916912,0.6564328,-1.3608762,0.78026587,-0.07594398,0.93075204,-0.85342216
-0.2,-0.2,1.1999999999999997,-0.5235987755982988,-0.5235987755982988,0,-0.016523158,-1.6333375,0.3806624,-0.07922836,0.16440926,1.1322911,-0.46229795,-1.8928158,0.65776396,-1.3588876,0.779225,-0.114536315,1.0093552,-0.791247
-0.2,-0.2,1.1999999999999997,-0.5235987755982988,-0.5235987755982988,0,-0.0028032502,-1.6266911,0.39255673,-0.058095418,0.1385672,1.1220528,0.48656788,-1.8922728,0.6578129,-1.3596156,0.7794319,-0.13648613,0.92345685,-0.78850406
-0.2,-0.2,1.1999999999999997,-0.5235987755982988,-0.5235987755982988,0,-0.010672122,-1.633857,0.37636277,-0.09582109,0.09945032,1.1236959,0.7464858,-1.891426,0.65595955,-1.3618003,0.78000396,-0.21868761,1.0123003,-0.17181864
-0.2,-0.2,1.1999999999999997,-0.5235987755982988,-0.5235987755982988,0,-0.013300537,-1.628856,0.36927208,-0.076423354,8.490832e-05,1.1941276,1.4959066,-1.8930336,0.6571578,-1.360399,0.7798206,-0.17456342,0.86325735,-0.20420253
-0.2,-0.2,1.1999999999999997,-0.5235987755982988,-0.5235987755982988,0,-0.016631342,-1.6295701,0.4181438,-0.060329825,0.08885208,1.246057,1.2514918,-1.8914676,0.6568454,-1.3587216,0.7801972,-0.18394463,0.9796984,-0.2542914
-0.2,-0.2,1.1999999999999997,-0.5235987755982988,-0.5235987755982988,0,-0.0042975405,-1.634225,0.40220043,-0.07790119,0.07459458,1.1866405,0.377111,-1.8922118,0.6573741,-1.361343,0.7799842,-0.14276023,0.917001,-0.5938165
-0.2,-0.2,1.1999999999999997,-0.5235987755982988,-0.5235987755982988,0,-0.008719105,-1.6333313,0.36268792,-0.06635822,0.0938686,1.1757532,0.022859178,-1.8925878,0.65662026,-1.3618011,0.78013813,-0.116598494,0.90276253,0.085936084
-0.2,-0.2,1.1999999999999997,-0.5235987755982988,-0.5235987755982988,0,-0.01427123,-1.6311507,0.453844,-0.048776653,0.13313274,1.0698022,1.0020838,-1.8920823,0.65734327,-1.3593564,0.77950275,-0.15970598,0.8867604,-0.5663571
-0.2,-0.2,1.1999999999999997,-0.5235987755982988,-0.5235987755982988,0,-0.012119321,-1.6295599,0.42055944,-0.07254734,0.009920444,1.1753289,1.5061705,-1.8911093,0.65604717,-1.3601967,0.78042763,-0.15983367,0.9321988,-0.29067674
-0.2,-0.2,1.1999999999999997,-0.5235987755982988,-0.5235987755982988,0,-0.012879636,-1.6323249,0.39434823,-0.039030705,0.048707705,1.225016,-0.16359454,-1.8924773,0.65679306,-1.3614606,0.7801702,-0.15344717,1.0005587,-0.1483506
-0.2,-0.2,1.1999999999999997,-0.5235987755982988,-0.5235987755982988,0,-0.0022159128,-1.6354976,0.37311867,-0.09770177,0.0141927935,1.1281345,-2.22284,-1.8919005,0.65743536,-1.36001,0.7795611,-0.13704363,1.0677593,-0.4672471
-0.2,-0.2,1.1999999999999997,-0.5235987755982988,-0.5235987755982988,0,-0.015746152,-1.6312981,0.37821448,-0.1008771,0.06599843,1.1072073,0.6860035,-1.8924221,0.6565907,-1.3618636,0.77967805,-0.21296266,0.9250674,0.27133372
-0.2,-0.2,1.1999999999999997,-0.5235987755982988,-0.5235987755982988,0,0.0007421909,-1.6277523,0.40392575,-0.042378455,-0.036518607,1.1897615,0.013201323,-1.892582,0.6573314,-1.3594763,0.7804324,-0.2717023,0.92817384,1.0246173
-0.2,-0.2,1.1999999999999997,-0.5235987755982988,-0.5235987755982988,0,-0.013472581,-1.6318963,0.39710954,-0.04342122,-0.05479462,1.2128185,-1.0288432,-1.8926694,0.65643233,-1.3606663,0.78053576,-0.19094019,1.0763156,-0.7222745
-0.2,-0.2,1.1999999999999997,-0.5235987755982988,-0.5235987755982988,0,-0.004532986,-1.638177,0.36501426,-0.09425861,-0.06389826,1.2046685,0.91857374,-1.8932339,0.6569708,-1.3604281,0.77944547,-0.27884474,1.0172068,-1.1411942
-0.2,-0.2,1.1999999999999997,-0.5235987755982988,-0.5235987755982988,0,-0.0065190387,-1.627251,0.38175896,-0.052293375,-0.05075048,1.1720697,1.4451479,-1.8922576,0.6577186,-1.3585131,0.7798136,-0.13935763,1.0180027,-0.49339873
-0.2,-0.2,1.1999999999999997,-0.5235987755982988,-0.5235987755982988,0,-0.0065925517,-1.6364392,0.3913272,-0.10211313,0.08861737,1.1824099,-0.37127528,-1.8918526,0.65746546,-1.3601977,0.7804596,-0.069277704,1.0256969,-0.76396763
-0.2,-0.2,1.1999999999999997,-0.5235987755982988,-0.5235987755982988,0,-0.0069207437,-1.6278071,0.33125967,-0.13090056,0.088606134,1.2108178,0.33373725,-1.8929671,0.6571614,-1.3616922,0.780174,-0.2322043,0.94316685,0.02483037
-0.2,-0.2,1.1999999999999997,-0.5235987755982988,-0.5235987755982988,0,-0.014970118,-1.6271073,0.3463646,-0.12228621,-0.031840168,1.1998585,1.0688083,-1.8920125,0.6576057,-1.3615605,0.77959555,-0.13764012,0.94189185,-0.5406072
-0.2,-0.2,1.1999999999999997,-0.5235987755982988,-0.5235987755982988,0,-0.009369111,-1.635574,0.41510874,-0.051826164,-0.007426419,1.2237612,1.3778882,-1.8919665,0.6562237,-1.3595223,0.77956927,-0.14319567,1.047662,-0.7157125
-0.2,-0.2,1.1999999999999997,-0.5235987755982988,-0.5235987755982988,0,-0.013029749,-1.6279507,0.39995268,-0.07771876,0.01895447,1.0837631,0.44402927,-1.892322,0.6571763,-1.361647,0.7809236,-0.2662829,0.97641027,-0.2764243
-0.2,-0.2,1.1999999999999997,-0.5235987755982988,-0.5235987755982988,0,-0.00856445,-1.6339033,0.37253863,-0.1557277,0.15673089,1.1057175,-0.23815767,-1.8913674,0.6565937,-1.3612607,0.77944994,-0.2353048,0.9601484,-1.0454756
-0.2,-0.2,1.1999999999999997,-0.5235987755982988,-0.5235987755982988,0,-0.008935078,-1.6283842,0.4215676,-0.052144866,0.09773373,1.10983,1.2334642,-1.891624,0.65703547,-1.3600287,0.7793514,-0.35382843,1.048883,-0.42240766
-0.2,-0.2,1.1999999999999997,-0.5235987755982988,-0.5235987755982988,0,-0.006827427,-1.6319779,0.34911007,-0.053057972,0.013435172,1.0791281,0.98715025,-1.891892,0.6575461,-1.3601407,0.7809201,-0.090929136,0.88090265,-0.2085391
-0.2,-0.2,1.1999999999999997,-0.5235987755982988,-0.5235987755982988,0,-0.010333305,-1.6350183,0.36256826,-0.16426341,0.019472558,1.2168632,0.2694304,-1.8914531,0.65669364,-1.3598412,0.7798992,-0.22701614,1.0533715,-0.16379449
-0.2,-0.2,1.1999999999999997,-0.5235987755982988,-0.5235987755982988,0,-0.0076414347,-1.6288397,0.34931636,-0.092933856,-0.007167083,1.2664448,0.33710808,-1.8921764,0.65727556,-1.3604616,0.78038394,-0.27552226,0.98191947,-0.87648773
-0.2,-0.2,1.1999999999999997,-0.5235987755982988,-0.5235987755982988,0,-0.008401331,-1.6300521,0.3826979,-0.0619243,0.18635358,1.1688739,0.66799814,-1.8928118,0.65633553,-1.3616312,0.78105986,-0.091204755,0.9218446,-0.15143466
-0.2,-0.2,1.1999999999999997,-0.5235987755982988,-0.5235987755982988,0,-0.012592842,-1.6269277,0.35457084,-0.092089534,0.058286153,1.1887307,-1.6216282,-1.8917832,0.6570272,-1.3603747,0.7799802,-0.19445801,1.0036101,-0.26228055
-0.2,-0.2,1.1999999999999997,-0.5235987755982988,-0.5235987755982988,0,-0.007853237,-1.6262892,0.3662212,-0.028368207,0.15462764,1.1892353,0.7581836,-1.8928509,0.65677804,-1.3611143,0.77989703,-0.21479869,0.93381286,-1.4446915
-0.2,-0.2,1.1999999999999997,-0.5235987755982988,-0.5235987755982988,0,-0.009135516,-1.6296152,0.3661593,-0.11402921,0.21734467,1.220234,1.1753867,-1.8917046,0.65603304,-1.3615232,0.7800502,-0.25256735,0.9363084,-0.5288462
-0.2,-0.2,1.1999999999999997,-0.5235987755982988,-0.5235987755982988,0,-0.013707832,-1.6283436,0.36988887,-0.07230624,0.15549068,1.1236261,-0.100785926,-1.8919082,0.6563798,-1.3621832,0.77974063,-0.20420311,0.9764449,-1.4096714
-0.2,-0.2,1.1999999999999997,-0.5235987755982988,-0.5235987755982988,0,-0.0076131425,-1.6225975,0.40789285,-0.087201364,0.012883383,1.1903182,-0.32380748,-1.8901289,0.6571203,-1.3609902,0.7802452,-0.20914887,0.9413263,-0.32888192
-0.2,-0.2,1.1999999999999997,-0.5235987755982988,-0.5235987755982988,0,-0.013898968,-1.6258564,0.39721215,-0.075777784,-0.121840425,1.199913,1.0004344,-1.8920469,0.6566063,-1.3584992,0.7798787,-0.09711271,0.93827915,-0.45859882
-0.2,-0.2,1.1999999999999997,-0.5235987755982988,-0.5235987755982988,0,-0.008716215,-1.6346489,0.3601497,-0.056828238,0.05745046,1.2007898,1.030437,-1.8905166,0.6562194,-1.3594664,0.7791142,-0.279894,0.9113461,-0.8897599
-0.2,-0.2,1.1999999999999997,-0.5235987755982988,-0.5235987755982988,0,-0.013307822,-1.6291515,0.34360623,-0.13924077,0.013753887,1.1076932,-0.35957628,-1.8915136,0.6558164,-1.3580521,0.7803501,-0.15939783,0.9156778,-0.63692945
-0.2,-0.2,1.1999999999999997,-0.5235987755982988,-0.5235987755982988,0,-0.00892139,-1.6333061,0.3578356,-0.042954635,0.13790658,1.135615,0.15393692,-1.8925643,0.6560556,-1.3600173,0.7799154,-0.18086368,0.9683436,-0.6751059
-0.2,-0.2,1.1999999999999997,-0.5235987755982988,-0.5235987755982988,0,-0.01808317,-1.6285205,0.39407474,-0.023147603,0.028874986,1.2009714,1.6867465,-1.8905878,0.6573331,-1.3627095,0.78076977,-0.13809538,0.9299614,-0.34600502
-0.2,-0.2,1.1999999999999997,-0.5235987755982988,-0.5235987755982988,0,-0.009055017,-1.6309495,0.3529711,-0.08605374,0.036815833,1.2150068,2.0271056,-1.8910226,0.6565942,-1.3604782,0.7801572,-0.111317754,1.0980464,-1.1666834
-0.2,-0.2,1.1999999999999997,-0.5235987755982988,-0.5235987755982988,0,-0.011789642,-1.6356775,0.37900835,-0.033685252,0.13149688,1.1912092,0.42648175,-1.8919787,0.6571381,-1.3600253,0.78011173,-0.22142752,0.89712864,-0.7667916
-0.2,-0.2,1.1999999999999997,-0.5235987755982988,-0.5235987755982988,0,-0.011266512,-1.6340165,0.38530266,-0.067492835,0.06285928,1.1717418,0.08783385,-1.8917123,0.6574104,-1.3598814,0.7797683,-0.04093224,1.0091505,-0.3926157
-0.2,-0.2,1.1999999999999997,-0.5235987755982988,-0.5235987755982988,0,-0.005503478,-1.6323227,0.3659313,-0.14132673,0.0803983,1.1494527,1.1416973,-1.8909475,0.6577371,-1.3587384,0.7798928,-0.1858586,1.0761571,-0.6220283
-0.2,-0.2,1.1999999999999997,-0.5235987755982988,-0.5235987755982988,0,-0.0044976342,-1.6371449,0.36232215,-0.068467684,0.09087967,1.1427356,1.1264814,-1.8918442,0.6558869,-1.3591747,0.78034747,-0.22074676,1.0285006,-0.5815489
-0.2,-0.2,1.1999999999999997,-0.5235987755982988,-0.5235987755982988,0,-0.017204843,-1.6285117,0.40442708,-0.12473142,0.13434957,1.2088954,0.31612998,-1.8920563,0.6568486,-1.3602269,0.7807683,-0.27945876,0.96439195,0.29958677
-0.2,-0.2,1.1999999999999997,-0.5235987755982988,-0.5235987755982988,0,-0.008828463,-1.6370353,0.30925044,-0.039858907,0.058682483,1.1556073,0.35040057,-1.892468,0.6565962,-1.3618585,0.7798445,-0.20986257,0.9718534,-0.9242822
-0.2,-0.2,1.1999999999999997,-0.5235987755982988,-0.5235987755982988,0,-0.0025477682,-1.6341023,0.38479856,-0.088322446,-0.053566236,1.1735046,2.3736541,-1.8930475,0.65707713,-1.3602821,0.77964574,-0.16558659,0.8973692,-0.5520264
-0.2,-0.2,1.1999999999999997,-0.5235987755982988,-0.5235987755982988,0,-0.008511145,-1.6293292,0.3518141,-0.039920617,-0.014858422,1.1458689,0.54030395,-1.8926868,0.65681356,-1.3596278,0.7787777,-0.22506861,1.0115777,-0.7753461
-0.2,-0.2,1.1999999999999997,-0.5235987755982988,-0.5235987755982988,0,-0.007576909,-1.632296,0.36359322,-0.09247988,0.03240713,1.1629705,0.65817773,-1.8920617,0.6562633,-1.358997,0.7802642,-0.12188945,0.93340605,0.21164764
