sanky1234/BimanualDexCatch/isaacgymenvs/cem_results/football_pose_-0.2_-0.2_0.6_-0.5235987755982988_0.34906585039886606_1.1102230246251565e-16.csv
x,y,z,roll,pitch,yaw,robot1/joint1,robot1/joint2,robot1/joint3,robot1/joint4,robot1/joint5,robot1/joint6,robot1/joint7,robot2/joint1,robot2/joint2,robot2/joint3,robot2/joint4,robot2/joint5,robot2/joint6,robot2/joint7
-0.2,-0.2,0.6,-0.5235987755982988,0.34906585039886606,1.1102230246251565e-16,1.4210613,1.6418037,0.39140362,0.09946623,0.09605222,0.45988154,0.7947433,-0.4654678,1.4861456,-0.24136424,-0.719494,-0.13728677,1.3250513,1.5737271
-0.2,-0.2,0.6,-0.5235987755982988,0.34906585039886606,1.1102230246251565e-16,1.424966,1.6333675,0.39659977,0.1046762,0.09723822,0.44470915,0.8278625,-0.47492382,1.4855869,-0.25749934,-0.72058266,-0.13099046,1.3278968,1.4461445
-0.2,-0.2,0.6,-0.5235987755982988,0.34906585039886606,1.1102230246251565e-16,1.4193372,1.6420108,0.3927718,0.09988267,0.108846426,0.4571519,0.78694975,-0.44572198,1.4846903,-0.24302071,-0.7112339,-0.1295079,1.3194072,1.3183919
-0.2,-0.2,0.6,-0.5235987755982988,0.34906585039886606,1.1102230246251565e-16,1.4199097,1.6420817,0.38794234,0.098300554,0.106346965,0.47169974,0.822043,-0.4727627,1.4861108,-0.23385084,-0.7214787,-0.16382526,1.3217871,1.3543321
-0.2,-0.2,0.6,-0.5235987755982988,0.34906585039886606,1.1102230246251565e-16,1.4290597,1.6251087,0.3903359,0.09547327,0.10580798,0.4462164,0.81179893,-0.45946375,1.4802434,-0.25165683,-0.7176019,-0.15685022,1.3189441,1.4036384
-0.2,-0.2,0.6,-0.5235987755982988,0.34906585039886606,1.1102230246251565e-16,1.4187753,1.6360391,0.39891055,0.08837485,0.108461134,0.43592045,0.82488275,-0.4614475,1.4854038,-0.2524517,-0.7150913,-0.10224837,1.3175219,1.3472424
-0.2,-0.2,0.6,-0.5235987755982988,0.34906585039886606,1.1102230246251565e-16,1.4174968,1.640706,0.39795044,0.10013163,0.11026617,0.4498821,0.78483224,-0.46344587,1.4851357,-0.2468648,-0.7168534,-0.11941501,1.3239713,1.5247833
-0.2,-0.2,0.6,-0.5235987755982988,0.34906585039886606,1.1102230246251565e-16,1.424574,1.6587738,0.38587505,0.10737115,0.107792445,0.4608062,0.8275885,-0.45525923,1.4814606,-0.23849362,-0.71738076,-0.17531888,1.31612,1.528747
-0.2,-0.2,0.6,-0.5235987755982988,0.34906585039886606,1.1102230246251565e-16,1.4222465,1.6435202,0.39328292,0.100265674,0.10305162,0.45470732,0.82890606,-0.46791363,1.4833851,-0.25624517,-0.7101698,-0.12038018,1.3174945,1.4834362
-0.2,-0.2,0.6,-0.5235987755982988,0.34906585039886606,1.1102230246251565e-16,1.4314637,1.6313994,0.39426535,0.10208317,0.08666658,0.4407635,0.8263722,-0.4440677,1.486827,-0.24492478,-0.71768737,-0.14659311,1.3205408,1.5934186
-0.2,-0.2,0.6,-0.5235987755982988,0.34906585039886606,1.1102230246251565e-16,1.421465,1.6478196,0.39491507,0.104076564,0.09686273,0.45505372,0.785081,-0.47415164,1.4859272,-0.25028756,-0.7151497,-0.09512936,1.316453,1.3842015
-0.2,-0.2,0.6,-0.5235987755982988,0.34906585039886606,1.1102230246251565e-16,1.4186141,1.6425918,0.38787168,0.09790577,0.09719177,0.4584914,0.8375378,-0.4537866,1.486789,-0.25049245,-0.7192306,-0.12796777,1.3210768,1.4950734
-0.2,-0.2,0.6,-0.5235987755982988,0.34906585039886606,1.1102230246251565e-16,1.4144785,1.62613,0.38954455,0.106746055,0.094217494,0.45881942,0.8163774,-0.46847704,1.4860344,-0.23503007,-0.72089297,-0.08349422,1.3211559,1.456651
-0.2,-0.2,0.6,-0.5235987755982988,0.34906585039886606,1.1102230246251565e-16,1.4277313,1.6363165,0.40222716,0.093813516,0.105080575,0.42899776,0.8250627,-0.4606109,1.4877915,-0.25442702,-0.713122,-0.12880297,1.322676,1.5053961
-0.2,-0.2,0.6,-0.5235987755982988,0.34906585039886606,1.1102230246251565e-16,1.4197749,1.6375356,0.39644742,0.089705616,0.10136054,0.45146373,0.84004873,-0.47032523,1.486199,-0.25513485,-0.7144847,-0.109134756,1.3187202,1.5310843
-0.2,-0.2,0.6,-0.5235987755982988,0.34906585039886606,1.1102230246251565e-16,1.4265367,1.6439599,0.3897363,0.11318616,0.09896046,0.4445918,0.80451626,-0.45789424,1.4845326,-0.27350506,-0.71634597,-0.065998256,1.3243169,1.3829498
-0.2,-0.2,0.6,-0.5235987755982988,0.34906585039886606,1.1102230246251565e-16,1.4220318,1.6510249,0.39343226,0.10131806,0.10660632,0.44471598,0.81262225,-0.45429504,1.4879997,-0.2803576,-0.71843714,-0.14633197,1.3188671,1.3821304
-0.2,-0.2,0.6,-0.5235987755982988,0.34906585039886606,1.1102230246251565e-16,1.4202535,1.6370662,0.39304322,0.10731424,0.09035213,0.44613102,0.8067646,-0.45597214,1.4848696,-0.21350852,-0.7182561,-0.21793446,1.3211198,1.3618474
-0.2,-0.2,0.6,-0.5235987755982988,0.34906585039886606,1.1102230246251565e-16,1.4139053,1.6290026,0.39368528,0.09806023,0.10674007,0.45556152,0.8080823,-0.4765597,1.4848292,-0.24287082,-0.72553563,-0.15409154,1.3212954,1.395037
-0.2,-0.2,0.6,-0.5235987755982988,0.34906585039886606,1.1102230246251565e-16,1.4123971,1.6443269,0.3912284,0.10094841,0.09030675,0.45695928,0.82850605,-0.46491927,1.4862716,-0.23278482,-0.71957636,-0.13989805,1.3152106,1.4864997
-0.2,-0.2,0.6,-0.5235987755982988,0.34906585039886606,1.1102230246251565e-16,1.4227153,1.6442536,0.39432955,0.10804867,0.08860374,0.431942,0.8131843,-0.45730966,1.4838176,-0.27486923,-0.7208883,-0.14456376,1.3177141,1.4067397
-0.2,-0.2,0.6,-0.5235987755982988,0.34906585039886606,1.1102230246251565e-16,1.4183943,1.6354196,0.39362437,0.10731677,0.08900297,0.4574202,0.80363023,-0.4641706,1.4838482,-0.24309209,-0.7181547,-0.1876776,1.3218969,1.4867132
-0.2,-0.2,0.6,-0.5235987755982988,0.34906585039886606,1.1102230246251565e-16,1.416513,1.6472764,0.39412168,0.10750422,0.08572283,0.45117584,0.8113138,-0.4563757,1.487385,-0.27870432,-0.7141044,-0.14521201,1.312896,1.4204872
-0.2,-0.2,0.6,-0.5235987755982988,0.34906585039886606,1.1102230246251565e-16,1.4205531,1.6364096,0.39832193,0.10419596,0.09180795,0.46566945,0.81357855,-0.4693062,1.4865427,-0.27398363,-0.71178627,-0.09367456,1.3230524,1.4501746
-0.2,-0.2,0.6,-0.5235987755982988,0.34906585039886606,1.1102230246251565e-16,1.4215542,1.6563537,0.39414996,0.098840944,0.09224964,0.44933438,0.8179334,-0.45869133,1.4863586,-0.24637364,-0.71883845,-0.13733993,1.3168385,1.5629334
-0.2,-0.2,0.6,-0.5235987755982988,0.34906585039886606,1.1102230246251565e-16,1.4178237,1.6416662,0.39275137,0.10292836,0.11144134,0.4532022,0.837833,-0.46462235,1.4871522,-0.25914475,-0.7162122,-0.105656385,1.3191972,1.4532065
-0.2,-0.2,0.6,-0.5235987755982988,0.34906585039886606,1.1102230246251565e-16,1.4239672,1.6381449,0.39917317,0.10019036,0.101567075,0.45853654,0.8198105,-0.46895385,1.4842526,-0.2710265,-0.7151765,-0.13836089,1.327907,1.3713008
-0.2,-0.2,0.6,-0.5235987755982988,0.34906585039886606,1.1102230246251565e-16,1.4168535,1.6403095,0.39925078,0.10275218,0.092587195,0.44434938,0.8058594,-0.46426606,1.4845562,-0.25132164,-0.71700037,-0.112747476,1.3121562,1.4560599
-0.2,-0.2,0.6,-0.5235987755982988,0.34906585039886606,1.1102230246251565e-16,1.4163567,1.6451482,0.3939611,0.101595104,0.09877178,0.45614016,0.8089008,-0.4536358,1.4875648,-0.2554907,-0.7144088,-0.10123864,1.3120376,1.3849584
-0.2,-0.2,0.6,-0.5235987755982988,0.34906585039886606,1.1102230246251565e-16,1.4212375,1.6402068,0.3934765,0.10380427,0.09700555,0.4497371,0.7907172,-0.4578996,1.4846767,-0.2605982,-0.7165778,-0.103263706,1.3170764,1.3597995
-0.2,-0.2,0.6,-0.5235987755982988,0.34906585039886606,1.1102230246251565e-16,1.4236898,1.6360615,0.38854423,0.11638419,0.08824521,0.4450114,0.80349666,-0.4620563,1.4809079,-0.24703316,-0.70955354,-0.109636426,1.3218279,1.4979
-0.2,-0.2,0.6,-0.5235987755982988,0.34906585039886606,1.1102230246251565e-16,1.4249538,1.6328423,0.38952973,0.106286116,0.09040312,0.4535683,0.80716616,-0.4587946,1.4834714,-0.22575565,-0.71608704,-0.16052401,1.3273399,1.4050844
-0.2,-0.2,0.6,-0.5235987755982988,0.34906585039886606,1.1102230246251565e-16,1.4232805,1.6249888,0.38954535,0.10601828,0.08219347,0.4614923,0.8108472,-0.46285447,1.48468,-0.26009136,-0.7160579,-0.09809248,1.3196732,1.4549716
-0.2,-0.2,0.6,-0.5235987755982988,0.34906585039886606,1.1102230246251565e-16,1.4186478,1.6424743,0.3955928,0.10308213,0.09931687,0.46003008,0.8263991,-0.4662541,1.4863052,-0.25003195,-0.7151691,-0.14167099,1.322509,1.4697028
-0.2,-0.2,0.6,-0.5235987755982988,0.34906585039886606,1.1102230246251565e-16,1.4202203,1.6276875,0.39832732,0.1055987,0.08892212,0.44179448,0.7899942,-0.46208996,1.4869026,-0.2540986,-0.71224916,-0.08381899,1.3212843,1.3954659
-0.2,-0.2,0.6,-0.5235987755982988,0.34906585039886606,1.1102230246251565e-16,1.4226186,1.6355885,0.39364278,0.09792157,0.091004774,0.45990756,0.81038475,-0.45986032,1.4850869,-0.21922936,-0.7137938,-0.10178172,1.3229092,1.5360317
-0.2,-0.2,0.6,-0.5235987755982988,0.34906585039886606,1.1102230246251565e-16,1.4221054,1.6431812,0.38877136,0.10048733,0.08769666,0.45882925,0.8139347,-0.46366626,1.4844375,-0.25250253,-0.7166962,-0.09117685,1.31935,1.4009686
-0.2,-0.2,0.6,-0.5235987755982988,0.34906585039886606,1.1102230246251565e-16,1.4145346,1.6371711,0.39341354,0.11499124,0.09479623,0.43565077,0.8287063,-0.47177768,1.482793,-0.24081159,-0.71523356,-0.12106575,1.3211075,1.3748871
-0.2,-0.2,0.6,-0.5235987755982988,0.34906585039886606,1.1102230246251565e-16,1.4243069,1.6461253,0.39075398,0.10839711,0.087811016,0.44936144,0.8265378,-0.46247217,1.4811223,-0.23559372,-0.7183461,-0.0819136,1.325269,1.5270042
-0.2,-0.2,0.6,-0.5235987755982988,0.34906585039886606,1.1102230246251565e-16,1.4246399,1.6288229,0.39266527,0.111507356,0.10189536,0.43052414,0.7888157,-0.4681782,1.4828968,-0.25071135,-0.72459185,-0.08673456,1.3268812,1.4044294
-0.2,-0.2,0.6,-0.5235987755982988,0.34906585039886606,1.1102230246251565e-16,1.4211065,1.6350316,0.394681,0.09649995,0.09146312,0.45946681,0.81245756,-0.46522602,1.4873286,-0.2655096,-0.7228034,-0.124839075,1.314088,1.4235573
-0.2,-0.2,0.6,-0.5235987755982988,0.34906585039886606,1.1102230246251565e-16,1.4188358,1.6566973,0.39342815,0.09819491,0.108258314,0.46394306,0.8066701,-0.4677332,1.4844425,-0.25653553,-0.71604514,-0.14350015,1.3187108,1.4627875
-0.2,-0.2,0.6,-0.5235987755982988,0.34906585039886606,1.1102230246251565e-16,1.4252677,1.6388786,0.39793712,0.09523077,0.089058615,0.43071222,0.83655167,-0.4649235,1.4819251,-0.26005346,-0.7189383,-0.08075488,1.3228475,1.6243372
-0.2,-0.2,0.6,-0.5235987755982988,0.34906585039886606,1.1102230246251565e-16,1.4214311,1.64184,0.40126884,0.0993862,0.08645397,0.44965735,0.83944035,-0.46385148,1.4837745,-0.24892955,-0.7036318,-0.12919,1.31863,1.2825749
-0.2,-0.2,0.6,-0.5235987755982988,0.34906585039886606,1.1102230246251565e-16,1.4133276,1.6414851,0.39820072,0.11141731,0.09031926,0.45182815,0.81601256,-0.46054628,1.4853597,-0.2703586,-0.71279,-0.085282214,1.3220917,1.3216591
-0.2,-0.2,0.6,-0.5235987755982988,0.34906585039886606,1.1102230246251565e-16,1.4191194,1.6377621,0.3892714,0.110125765,0.111140475,0.4612381,0.8026745,-0.46661702,1.4862947,-0.2656473,-0.7153185,-0.15126914,1.3214998,1.437967
-0.2,-0.2,0.6,-0.5235987755982988,0.34906585039886606,1.1102230246251565e-16,1.4209142,1.6398664,0.38739398,0.107369035,0.09354126,0.46251756,0.8224398,-0.47292528,1.4863677,-0.24992761,-0.7267221,-0.10068336,1.3260988,1.3297894
-0.2,-0.2,0.6,-0.5235987755982988,0.34906585039886606,1.1102230246251565e-16,1.4211352,1.636379,0.39035913,0.09963754,0.10352771,0.45013124,0.8348869,-0.46567753,1.4865704,-0.2549603,-0.71947324,-0.106834896,1.3171179,1.4954032
-0.2,-0.2,0.6,-0.5235987755982988,0.34906585039886606,1.1102230246251565e-16,1.432327,1.6459372,0.39688408,0.099285476,0.08158172,0.45681548,0.7914054,-0.4772211,1.4816835,-0.24796264,-0.7190754,-0.15579511,1.3206078,1.4284451
-0.2,-0.2,0.6,-0.5235987755982988,0.34906585039886606,1.1102230246251565e-16,1.4170698,1.6208556,0.3964355,0.10230019,0.09275882,0.44339144,0.827263,-0.45394507,1.4873353,-0.23712477,-0.7183281,-0.10023032,1.3262329,1.3882807
-0.2,-0.2,0.6,-0.5235987755982988,0.34906585039886606,1.1102230246251565e-16,1.4259592,1.6354204,0.39251408,0.10507884,0.1004199,0.44929484,0.78314996,-0.466033,1.4837611,-0.23647435,-0.71591616,-0.1506232,1.3229802,1.5134056
-0.2,-0.2,0.6,-0.5235987755982988,0.34906585039886606,1.1102230246251565e-16,1.423108,1.6340877,0.39006022,0.10635834,0.10494931,0.45249197,0.80779064,-0.46042675,1.4833102,-0.2472616,-0.7176036,-0.07907854,1.3261744,1.6168894
-0.2,-0.2,0.6,-0.5235987755982988,0.34906585039886606,1.1102230246251565e-16,1.4254909,1.6376911,0.39300352,0.10918128,0.10763386,0.4482778,0.80325705,-0.4655756,1.4884443,-0.23996226,-0.71730316,-0.07003127,1.3236179,1.4844859
-0.2,-0.2,0.6,-0.5235987755982988,0.34906585039886606,1.1102230246251565e-16,1.4311589,1.6287179,0.3881227,0.0937239,0.09530773,0.45243958,0.84048134,-0.4627902,1.4856116,-0.25999072,-0.716241,-0.08639496,1.3144454,1.4316592
-0.2,-0.2,0.6,-0.5235987755982988,0.34906585039886606,1.1102230246251565e-16,1.4281439,1.6482805,0.39263555,0.10360741,0.088505596,0.4582234,0.80417657,-0.46964562,1.4843671,-0.2512244,-0.7148211,-0.12252725,1.3246917,1.556845
-0.2,-0.2,0.6,-0.5235987755982988,0.34906585039886606,1.1102230246251565e-16,1.4214444,1.6323555,0.39641678,0.103611834,0.10802884,0.4508708,0.83394027,-0.46565744,1.4836664,-0.2520817,-0.7113903,-0.14527014,1.3262997,1.4301735
-0.2,-0.2,0.6,-0.5235987755982988,0.34906585039886606,1.1102230246251565e-16,1.4248109,1.6361265,0.39469066,0.10569608,0.103615284,0.44777763,0.8099275,-0.45921072,1.4857064,-0.26523778,-0.7157804,-0.11788864,1.3146664,1.4755247
-0.2,-0.2,0.6,-0.5235987755982988,0.34906585039886606,1.1102230246251565e-16,1.4229814,1.6372156,0.39726147,0.09099556,0.10283776,0.46301422,0.8337171,-0.46976158,1.4836559,-0.26585895,-0.7116745,-0.113948904,1.3158361,1.3963331
-0.2,-0.2,0.6,-0.5235987755982988,0.34906585039886606,1.1102230246251565e-16,1.4228969,1.640847,0.3949332,0.10666395,0.09084206,0.44583803,0.8034472,-0.4616639,1.4860684,-0.24479413,-0.7174906,-0.18334754,1.3195713,1.3254422
-0.2,-0.2,0.6,-0.5235987755982988,0.34906585039886606,1.1102230246251565e-16,1.4225955,1.6428438,0.3964489,0.09998381,0.09340881,0.43825474,0.85179317,-0.46149504,1.4853257,-0.2536245,-0.7138244,-0.12023498,1.3208635,1.463697
-0.2,-0.2,0.6,-0.5235987755982988,0.34906585039886606,1.1102230246251565e-16,1.4246784,1.6415703,0.3945706,0.10268337,0.095072076,0.45271817,0.8429015,-0.4661941,1.4850596,-0.28042635,-0.7150112,-0.0948867,1.3177377,1.4208306
-0.2,-0.2,0.6,-0.5235987755982988,0.34906585039886606,1.1102230246251565e-16,1.4128003,1.6393578,0.39955983,0.105057746,0.087583885,0.4567887,0.8247876,-0.4601683,1.4875765,-0.26846018,-0.71480864,-0.12923744,1.3249794,1.361007
-0.2,-0.2,0.6,-0.5235987755982988,0.34906585039886606,1.1102230246251565e-16,1.4244763,1.6424527,0.38673177,0.11796022,0.10499699,0.44189474,0.77070236,-0.4633789,1.4830407,-0.24565949,-0.7124881,-0.15992539,1.3149474,1.4236519
-0.2,-0.2,0.6,-0.5235987755982988,0.34906585039886606,1.1102230246251565e-16,1.4178149,1.6411355,0.39718607,0.09211099,0.084876016,0.45620665,0.8373158,-0.4490853,1.4860742,-0.22772147,-0.71717256,-0.1672605,1.3183577,1.4409964
-0.2,-0.2,0.6,-0.5235987755982988,0.34906585039886606,1.1102230246251565e-16,1.4264588,1.6335475,0.39037323,0.09500316,0.10121668,0.45074147,0.82999647,-0.4633868,1.4866846,-0.23915617,-0.72094303,-0.116079666,1.3200644,1.536805
-0.2,-0.2,0.6,-0.5235987755982988,0.34906585039886606,1.1102230246251565e-16,1.4245958,1.6429672,0.3912701,0.10884024,0.09902766,0.45008898,0.7933836,-0.47355226,1.4832126,-0.24681686,-0.717563,-0.14024729,1.3154219,1.5427502
-0.2,-0.2,0.6,-0.5235987755982988,0.34906585039886606,1.1102230246251565e-16,1.4260553,1.6520295,0.3926441,0.10678534,0.105054796,0.43575758,0.8298021,-0.45622066,1.4865427,-0.23823743,-0.7126843,-0.11944417,1.3196386,1.3769599
-0.2,-0.2,0.6,-0.5235987755982988,0.34906585039886606,1.1102230246251565e-16,1.4152136,1.640504,0.39599013,0.10626083,0.09297873,0.45516798,0.804163,-0.46240628,1.4845614,-0.25525397,-0.7096898,-0.13025981,1.3201847,1.5780044
-0.2,-0.2,0.6,-0.5235987755982988,0.34906585039886606,1.1102230246251565e-16,1.4193472,1.6416972,0.39059305,0.106525145,0.08943796,0.46386155,0.80849224,-0.46853969,1.4865541,-0.24163593,-0.72086537,-0.14721291,1.3195877,1.5697452
-0.2,-0.2,0.6,-0.5235987755982988,0.34906585039886606,1.1102230246251565e-16,1.4235624,1.6353991,0.39588422,0.09474744,0.09359443,0.44300532,0.8192562,-0.45442906,1.4815506,-0.27741322,-0.7192236,-0.12793757,1.3172355,1.4515002
-0.2,-0.2,0.6,-0.5235987755982988,0.34906585039886606,1.1102230246251565e-16,1.4281135,1.6361223,0.39326072,0.11910735,0.0890302,0.42896673,0.78525966,-0.4610968,1.4859557,-0.23376352,-0.7166067,-0.05612616,1.3275039,1.4634817
-0.2,-0.2,0.6,-0.5235987755982988,0.34906585039886606,1.1102230246251565e-16,1.4224049,1.6391087,0.38915023,0.099055804,0.090188034,0.47918138,0.8169646,-0.4647904,1.48307,-0.24264884,-0.7122443,-0.10451911,1.3118078,1.4639962
-0.2,-0.2,0.6,-0.5235987755982988,0.34906585039886606,1.1102230246251565e-16,1.424963,1.6392384,0.39949206,0.09832567,0.08449923,0.45725453,0.8158775,-0.4621483,1.4871112,-0.25211325,-0.7177851,-0.12238897,1.3234658,1.4468846
-0.2,-0.2,0.6,-0.5235987755982988,0.34906585039886606,1.1102230246251565e-16,1.4220569,1.6322507,0.3934237,0.09158463,0.09831779,0.44117966,0.858084,-0.462828,1.486694,-0.24127825,-0.717768,-0.15602103,1.3207091,1.3736565
-0.2,-0.2,0.6,-0.5235987755982988,0.34906585039886606,1.1102230246251565e-16,1.4186653,1.6510699,0.3948214,0.10339153,0.08621921,0.4625376,0.8463542,-0.46740645,1.4830109,-0.24980213,-0.71729934,-0.15660302,1.3131466,1.3810635
-0.2,-0.2,0.6,-0.5235987755982988,0.34906585039886606,1.1102230246251565e-16,1.4266635,1.6407826,0.39257252,0.10190348,0.08539312,0.44941267,0.83955306,-0.4677487,1.4846033,-0.22949778,-0.71294534,-0.15683275,1.3201914,1.4026712
-0.2,-0.2,0.6,-0.5235987755982988,0.34906585039886606,1.1102230246251565e-16,1.4257016,1.6435105,0.3924063,0.113246486,0.08958548,0.43535495,0.813125,-0.4625005,1.484391,-0.24923652,-0.7156776,-0.13388081,1.3220887,1.4175678
-0.2,-0.2,0.6,-0.5235987755982988,0.34906585039886606,1.1102230246251565e-16,1.4219551,1.6429825,0.39653185,0.096883304,0.10285643,0.44637036,0.8361503,-0.46158707,1.4845133,-0.2364669,-0.71569264,-0.089477174,1.3232965,1.4506755
-0.2,-0.2,0.6,-0.5235987755982988,0.34906585039886606,1.1102230246251565e-16,1.4189737,1.6336217,0.39406142,0.10034391,0.10953838,0.4559529,0.80262846,-0.468825,1.4856795,-0.23373085,-0.7158156,-0.12616605,1.3166072,1.3759162
-0.2,-0.2,0.6,-0.5235987755982988,0.34906585039886606,1.1102230246251565e-16,1.4180735,1.6366364,0.3984519,0.09581092,0.08251258,0.4606148,0.8156056,-0.47203606,1.4829181,-0.2461588,-0.7161948,-0.09480101,1.318915,1.3954966
-0.2,-0.2,0.6,-0.5235987755982988,0.34906585039886606,1.1102230246251565e-16,1.4199592,1.6489668,0.39486995,0.10885294,0.09767118,0.44407076,0.8409521,-0.46857876,1.4846789,-0.24172916,-0.7159155,-0.109192975,1.3183596,1.433868
-0.2,-0.2,0.6,-0.5235987755982988,0.34906585039886606,1.1102230246251565e-16,1.4227885,1.6422564,0.39323106,0.103419065,0.09763637,0.437287,0.8307808,-0.44362122,1.4850283,-0.2574754,-0.7140251,-0.15364315,1.3201,1.4608856
-0.2,-0.2,0.6,-0.5235987755982988,0.34906585039886606,1.1102230246251565e-16,1.4283482,1.6411172,0.39541286,0.103625365,0.09338117,0.4507702,0.77144694,-0.45923457,1.4837259,-0.2571836,-0.71798736,-0.14751248,1.3135884,1.4467858
-0.2,-0.2,0.6,-0.5235987755982988,0.34906585039886606,1.1102230246251565e-16,1.428624,1.6453047,0.3916903,0.10136597,0.097960666,0.44583455,0.805071,-0.46662053,1.482782,-0.25304988,-0.72085994,-0.10980643,1.3192586,1.4912431
-0.2,-0.2,0.6,-0.5235987755982988,0.34906585039886606,1.1102230246251565e-16,1.4214113,1.6346674,0.39306256,0.100938395,0.09441498,0.4537713,0.83124626,-0.46487585,1.4858834,-0.24862887,-0.71524096,-0.19834508,1.3146611,1.3890586
-0.2,-0.2,0.6,-0.5235987755982988,0.34906585039886606,1.1102230246251565e-16,1.4131714,1.6323189,0.39405578,0.1050891,0.08823782,0.4572933,0.80214965,-0.4570593,1.4848944,-0.24547271,-0.71236444,-0.11986416,1.3124161,1.430776
-0.2,-0.2,0.6,-0.5235987755982988,0.34906585039886606,1.1102230246251565e-16,1.4324671,1.6413611,0.39108616,0.10255798,0.095771484,0.4453316,0.8067166,-0.45377642,1.4861853,-0.27307457,-0.7151376,-0.114324376,1.3145596,1.4141643
-0.2,-0.2,0.6,-0.5235987755982988,0.34906585039886606,1.1102230246251565e-16,1.428,1.6391218,0.3948516,0.10122443,0.08706841,0.4470957,0.82809705,-0.46456656,1.4875289,-0.27111608,-0.71996665,-0.092305034,1.3221455,1.416563
-0.2,-0.2,0.6,-0.5235987755982988,0.34906585039886606,1.1102230246251565e-16,1.4285275,1.6357864,0.39664993,0.102784544,0.08725327,0.44969684,0.8044417,-0.47640166,1.48422,-0.24261908,-0.7186786,-0.13198695,1.3254232,1.4581022
-0.2,-0.2,0.6,-0.5235987755982988,0.34906585039886606,1.1102230246251565e-16,1.4289514,1.6365007,0.39757538,0.10012671,0.09454877,0.43573385,0.81372577,-0.4656688,1.4859507,-0.26556084,-0.7170331,-0.08404484,1.3213915,1.5356537
-0.2,-0.2,0.6,-0.5235987755982988,0.34906585039886606,1.1102230246251565e-16,1.4226332,1.6432415,0.399226,0.10245567,0.08243334,0.4501955,0.8374808,-0.46874055,1.484913,-0.23527274,-0.7103552,-0.1724827,1.3254339,1.5025494
-0.2,-0.2,0.6,-0.5235987755982988,0.34906585039886606,1.1102230246251565e-16,1.4189067,1.6440288,0.39432538,0.09846383,0.10831916,0.45265257,0.7931758,-0.44814795,1.4842398,-0.24695627,-0.71589714,-0.068433456,1.3213412,1.3839804
-0.2,-0.2,0.6,-0.5235987755982988,0.34906585039886606,1.1102230246251565e-16,1.4165045,1.6404012,0.39018968,0.11126559,0.09286876,0.4491553,0.8041933,-0.45393547,1.4850422,-0.24564089,-0.7150118,-0.14059076,1.3199669,1.3966156
-0.2,-0.2,0.6,-0.5235987755982988,0.34906585039886606,1.1102230246251565e-16,1.4172039,1.6337644,0.39697388,0.09724485,0.10027675,0.44732222,0.80780727,-0.469047,1.4810456,-0.23383881,-0.72292024,-0.14545885,1.3208348,1.3769025
-0.2,-0.2,0.6,-0.5235987755982988,0.34906585039886606,1.1102230246251565e-16,1.4206725,1.639055,0.39588597,0.096145436,0.08689071,0.45667762,0.81526744,-0.45925197,1.4849546,-0.24488045,-0.7207898,-0.15114091,1.3175488,1.4107385
-0.2,-0.2,0.6,-0.5235987755982988,0.34906585039886606,1.1102230246251565e-16,1.4159633,1.6453524,0.40459055,0.09440313,0.09090682,0.44324845,0.8310955,-0.4615316,1.4869169,-0.248969,-0.71460456,-0.1319751,1.3216901,1.4286758
-0.2,-0.2,0.6,-0.5235987755982988,0.34906585039886606,1.1102230246251565e-16,1.4242562,1.632947,0.39717358,0.098601334,0.09452897,0.45526865,0.8052611,-0.46379197,1.4855902,-0.24900042,-0.7134173,-0.17889467,1.3246193,1.4190618
-0.2,-0.2,0.6,-0.5235987755982988,0.34906585039886606,1.1102230246251565e-16,1.412802,1.6366088,0.3925476,0.100148164,0.09298367,0.45980597,0.83511347,-0.45632043,1.4856637,-0.27257416,-0.71579856,-0.1822468,1.3191254,1.5345944
-0.2,-0.2,0.6,-0.5235987755982988,0.34906585039886606,1.1102230246251565e-16,1.4214591,1.6428195,0.393638,0.10444503,0.08117896,0.45411485,0.8471643,-0.4654184,1.4850028,-0.23966934,-0.7169638,-0.14144625,1.3248999,1.4600033
-0.2,-0.2,0.6,-0.5235987755982988,0.34906585039886606,1.1102230246251565e-16,1.4278286,1.6392546,0.39364076,0.090892866,0.09728991,0.45078585,0.81854934,-0.45642877,1.4840136,-0.24030046,-0.71736264,-0.11594768,1.3241493,1.4218036
-0.2,-0.2,0.6,-0.5235987755982988,0.34906585039886606,1.1102230246251565e-16,1.424232,1.6406907,0.3885431,0.100165345,0.10195452,0.4583047,0.81709915,-0.45411402,1.4853733,-0.2671184,-0.71315753,-0.13911045,1.3097287,1.5347271
-0.2,-0.2,0.6,-0.5235987755982988,0.34906585039886606,1.1102230246251565e-16,1.4194635,1.6379471,0.39456335,0.10552211,0.085596494,0.4599667,0.8072243,-0.46904626,1.4847995,-0.2484476,-0.7172419,-0.106829934,1.3192497,1.5051843
-0.2,-0.2,0.6,-0.5235987755982988,0.34906585039886606,1.1102230246251565e-16,1.4192785,1.6271532,0.39824253,0.10794683,0.08406528,0.44843948,0.79249364,-0.46556315,1.4856167,-0.23874526,-0.7148549,-0.16353917,1.3169913,1.4576656
-0.2,-0.2,0.6,-0.5235987755982988,0.34906585039886606,1.1102230246251565e-16,1.4272538,1.6395183,0.3964342,0.092119,0.091285944,0.45959523,0.80765283,-0.46090317,1.4838814,-0.27037618,-0.72002256,-0.11060426,1.3225156,1.4316435
-0.2,-0.2,0.6,-0.5235987755982988,0.34906585039886606,1.1102230246251565e-16,1.4163169,1.6452613,0.3906044,0.10913333,0.102489196,0.45575616,0.8513533,-0.4677838,1.4825995,-0.23899512,-0.7166743,-0.13735835,1.3196945,1.4021094
-0.2,-0.2,0.6,-0.5235987755982988,0.34906585039886606,1.1102230246251565e-16,1.4374218,1.6528208,0.39421588,0.10732952,0.089643255,0.44576246,0.81685275,-0.47102997,1.4861277,-0.25451523,-0.7183175,-0.1370814,1.332366,1.5192915
-0.2,-0.2,0.6,-0.5235987755982988,0.34906585039886606,1.1102230246251565e-16,1.4140916,1.6510197,0.39157712,0.11153789,0.086294316,0.45360002,0.8138737,-0.45949447,1.4850359,-0.2549869,-0.72291875,-0.12014496,1.3213376,1.4935088
-0.2,-0.2,0.6,-0.5235987755982988,0.34906585039886606,1.1102230246251565e-16,1.4288509,1.6347034,0.39565068,0.09808605,0.084806494,0.44757098,0.8312619,-0.46477428,1.4851218,-0.23284389,-0.71480656,-0.107599035,1.3185214,1.426995
-0.2,-0.2,0.6,-0.5235987755982988,0.34906585039886606,1.1102230246251565e-16,1.4230702,1.6400682,0.39382723,0.103605375,0.089881755,0.45874906,0.8043891,-0.47910225,1.4848425,-0.23844191,-0.7200863,-0.120423816,1.3266996,1.4723625
-0.2,-0.2,0.6,-0.5235987755982988,0.34906585039886606,1.1102230246251565e-16,1.4158123,1.6574248,0.39048514,0.113549225,0.08894186,0.45956698,0.81997263,-0.46093103,1.4854332,-0.27532253,-0.71756166,-0.090194754,1.3217126,1.3546054
-0.2,-0.2,0.6,-0.5235987755982988,0.34906585039886606,1.1102230246251565e-16,1.4254129,1.6338054,0.39430714,0.10465926,0.09024788,0.4695988,0.7858527,-0.46262732,1.4861313,-0.2648434,-0.7173331,-0.12703913,1.3251133,1.4381877
-0.2,-0.2,0.6,-0.5235987755982988,0.34906585039886606,1.1102230246251565e-16,1.4088888,1.6324024,0.3942557,0.10956077,0.09876391,0.4510907,0.80966926,-0.4725982,1.4832453,-0.24354446,-0.7168529,-0.13318451,1.3219367,1.5481873
-0.2,-0.2,0.6,-0.5235987755982988,0.34906585039886606,1.1102230246251565e-16,1.4171582,1.6439209,0.39738408,0.10501787,0.10793965,0.44826034,0.8013731,-0.47458115,1.4862286,-0.24618123,-0.72262037,-0.14755695,1.3252077,1.4248161
-0.2,-0.2,0.6,-0.5235987755982988,0.34906585039886606,1.1102230246251565e-16,1.4333078,1.6453214,0.3917155,0.09639513,0.10518081,0.45098263,0.81027937,-0.45806226,1.4850465,-0.25144726,-0.70778596,-0.11512255,1.3181201,1.4570793
-0.2,-0.2,0.6,-0.5235987755982988,0.34906585039886606,1.1102230246251565e-16,1.4199361,1.6400105,0.3928122,0.09733808,0.098078,0.46849614,0.78415865,-0.4641013,1.4839152,-0.25591546,-0.71885777,-0.11857931,1.3225987,1.5738289
-0.2,-0.2,0.6,-0.5235987755982988,0.34906585039886606,1.1102230246251565e-16,1.4196272,1.6257775,0.39085028,0.11354123,0.10563619,0.4480807,0.7711649,-0.46347558,1.4834491,-0.2423584,-0.71794045,-0.10851495,1.3225448,1.450637
-0.2,-0.2,0.6,-0.5235987755982988,0.34906585039886606,1.1102230246251565e-16,1.4193323,1.644159,0.3999149,0.09930806,0.096774295,0.43988776,0.7963228,-0.4608141,1.4852692,-0.24220085,-0.71441275,-0.14441442,1.3191439,1.5366945
-0.2,-0.2,0.6,-0.5235987755982988,0.34906585039886606,1.1102230246251565e-16,1.4284202,1.63553,0.39275134,0.11026298,0.09271979,0.4399215,0.80165017,-0.4610958,1.4834584,-0.269513,-0.7193313,-0.11783311,1.3251778,1.404566
-0.2,-0.2,0.6,-0.5235987755982988,0.34906585039886606,1.1102230246251565e-16,1.4227221,1.6266528,0.39363793,0.095178746,0.09770127,0.45957723,0.8158237,-0.4579287,1.4862744,-0.23226222,-0.7191093,-0.11428552,1.3232518,1.4831362
-0.2,-0.2,0.6,-0.5235987755982988,0.34906585039886606,1.1102230246251565e-16,1.4242132,1.628198,0.39185134,0.10099787,0.10577244,0.46131772,0.81033397,-0.46499497,1.4828821,-0.24934308,-0.7108392,-0.106662564,1.3184503,1.4533143
-0.2,-0.2,0.6,-0.5235987755982988,0.34906585039886606,1.1102230246251565e-16,1.4197683,1.6427916,0.39416814,0.10563476,0.09714724,0.4548618,0.7988607,-0.47136235,1.4841659,-0.26093376,-0.7166013,-0.12990265,1.3161758,1.5576972
-0.2,-0.2,0.6,-0.5235987755982988,0.34906585039886606,1.1102230246251565e-16,1.4186312,1.6306257,0.3919078,0.09961985,0.09588335,0.46663222,0.8189036,-0.45642525,1.4818836,-0.2538268,-0.71643037,-0.14119849,1.324829,1.357978
-0.2,-0.2,0.6,-0.5235987755982988,0.34906585039886606,1.1102230246251565e-16,1.4144312,1.6458242,0.40045476,0.1039793,0.09199694,0.4561229,0.8211372,-0.4730212,1.4841,-0.22436081,-0.71090865,-0.10228587,1.3272535,1.5238324
-0.2,-0.2,0.6,-0.5235987755982988,0.34906585039886606,1.1102230246251565e-16,1.4240237,1.6479306,0.39431065,0.10720784,0.107077606,0.45859805,0.8466015,-0.46887344,1.4846905,-0.2515995,-0.7138504,-0.18653902,1.318916,1.4498259
-0.2,-0.2,0.6,-0.5235987755982988,0.34906585039886606,1.1102230246251565e-16,1.415242,1.6468785,0.38976133,0.10883938,0.08228842,0.45681998,0.8556465,-0.45449647,1.4823945,-0.24990658,-0.71871173,-0.15549882,1.3222117,1.3827461
-0.2,-0.2,0.6,-0.5235987755982988,0.34906585039886606,1.1102230246251565e-16,1.4226637,1.6387885,0.39177978,0.09557061,0.11122931,0.43934876,0.8442152,-0.45129555,1.4888663,-0.28270805,-0.71799123,-0.11358115,1.31145,1.3873693
-0.2,-0.2,0.6,-0.5235987755982988,0.34906585039886606,1.1102230246251565e-16,1.4282393,1.6420683,0.39469573,0.100025766,0.09700567,0.4444631,0.8399642,-0.46561107,1.4851117,-0.24109486,-0.71173847,-0.12700193,1.3208151,1.3150856
-0.2,-0.2,0.6,-0.5235987755982988,0.34906585039886606,1.1102230246251565e-16,1.4275593,1.6481556,0.39744172,0.0944341,0.102205,0.4643277,0.8023559,-0.46482375,1.4822593,-0.2442422,-0.7110747,-0.06829564,1.3212014,1.482389
-0.2,-0.2,0.6,-0.5235987755982988,0.34906585039886606,1.1102230246251565e-16,1.4188625,1.6404698,0.39552036,0.09895073,0.09025027,0.4546823,0.83624506,-0.46470365,1.4846898,-0.2773264,-0.7184627,-0.11654339,1.313126,1.4640658
-0.2,-0.2,0.6,-0.5235987755982988,0.34906585039886606,1.1102230246251565e-16,1.4295326,1.654331,0.39282754,0.099926375,0.09790383,0.4484952,0.79741,-0.44812018,1.4830695,-0.25137183,-0.7186259,-0.12680832,1.3243827,1.4793718
-0.2,-0.2,0.6,-0.5235987755982988,0.34906585039886606,1.1102230246251565e-16,1.4227223,1.6334407,0.39677593,0.09394728,0.108555116,0.44028488,0.82126737,-0.46452573,1.4865913,-0.2467595,-0.7223586,-0.14103287,1.3267499,1.505615
-0.2,-0.2,0.6,-0.5235987755982988,0.34906585039886606,1.1102230246251565e-16,1.4269624,1.6447858,0.38981473,0.10598759,0.10322251,0.45238745,0.82208997,-0.47028682,1.4846318,-0.27403477,-0.7181492,-0.13770153,1.3166932,1.4076331
-0.2,-0.2,0.6,-0.5235987755982988,0.34906585039886606,1.1102230246251565e-16,1.4221992,1.6415087,0.39559218,0.09991929,0.09004839,0.45084536,0.829043,-0.46312755,1.4862963,-0.22786249,-0.71260333,-0.16029406,1.316852,1.3944166
-0.2,-0.2,0.6,-0.5235987755982988,0.34906585039886606,1.1102230246251565e-16,1.4187484,1.6324178,0.3924015,0.09743707,0.10414458,0.4536833,0.8113356,-0.45785445,1.4857347,-0.25711375,-0.7161459,-0.13822943,1.3171355,1.574478
-0.2,-0.2,0.6,-0.5235987755982988,0.34906585039886606,1.1102230246251565e-16,1.4230056,1.6459191,0.3940001,0.10664655,0.09579221,0.44654682,0.82129264,-0.4702036,1.479832,-0.24112828,-0.7158066,-0.0807038,1.3167806,1.4837188
-0.2,-0.2,0.6,-0.5235987755982988,0.34906585039886606,1.1102230246251565e-16,1.4265922,1.6569511,0.39198804,0.09511358,0.087387696,0.4604474,0.8416584,-0.4552097,1.4827924,-0.23893397,-0.7171763,-0.18632817,1.3213596,1.515449
-0.2,-0.2,0.6,-0.5235987755982988,0.34906585039886606,1.1102230246251565e-16,1.4240649,1.6467656,0.39365813,0.11181825,0.08345135,0.4490995,0.8032672,-0.45703888,1.4867119,-0.2579335,-0.7150699,-0.14819632,1.3213943,1.5127249
-0.2,-0.2,0.6,-0.5235987755982988,0.34906585039886606,1.1102230246251565e-16,1.424148,1.6426264,0.39020586,0.10149914,0.09999912,0.45471054,0.81973815,-0.44803318,1.4833225,-0.24860121,-0.7110394,-0.1469969,1.3198954,1.5916573
-0.2,-0.2,0.6,-0.5235987755982988,0.34906585039886606,1.1102230246251565e-16,1.4108496,1.6436322,0.39292637,0.10815086,0.09027335,0.45455074,0.8588426,-0.4704469,1.485747,-0.254817,-0.7238609,-0.08900817,1.3173045,1.3443695
-0.2,-0.2,0.6,-0.5235987755982988,0.34906585039886606,1.1102230246251565e-16,1.42524,1.643858,0.3986172,0.0965365,0.1003432,0.46397233,0.7866084,-0.46363363,1.4862744,-0.24202576,-0.7135266,-0.096003786,1.3165282,1.3590819
-0.2,-0.2,0.6,-0.5235987755982988,0.34906585039886606,1.1102230246251565e-16,1.4240243,1.6319789,0.39563864,0.113082506,0.07842732,0.45611727,0.8063351,-0.46685484,1.48439,-0.2491138,-0.711564,-0.11673536,1.3191596,1.4333907
-0.2,-0.2,0.6,-0.5235987755982988,0.34906585039886606,1.1102230246251565e-16,1.4264816,1.6438801,0.3978947,0.098118365,0.092437215,0.44577277,0.80033433,-0.46458688,1.4790142,-0.2430083,-0.7200555,-0.08354129,1.3222789,1.3329875
-0.2,-0.2,0.6,-0.5235987755982988,0.34906585039886606,1.1102230246251565e-16,1.4204618,1.642175,0.39667714,0.108130135,0.09348319,0.44961566,0.81245726,-0.45633096,1.4862362,-0.23907347,-0.7083078,-0.10336695,1.3227468,1.5513799
-0.2,-0.2,0.6,-0.5235987755982988,0.34906585039886606,1.1102230246251565e-16,1.4194881,1.647499,0.39538127,0.10426951,0.09879928,0.45539343,0.78598344,-0.46152255,1.4849416,-0.24822553,-0.71415156,-0.11903354,1.3235623,1.5406095
-0.2,-0.2,0.6,-0.5235987755982988,0.34906585039886606,1.1102230246251565e-16,1.420451,1.6438632,0.39026818,0.10788339,0.100654654,0.4570464,0.7910167,-0.47233096,1.4854045,-0.2688357,-0.72249687,-0.121123604,1.3177123,1.4312606
-0.2,-0.2,0.6,-0.5235987755982988,0.34906585039886606,1.1102230246251565e-16,1.4207973,1.6359166,0.39329323,0.1024917,0.08718892,0.46461833,0.8187156,-0.46737695,1.4853991,-0.2423212,-0.7134843,-0.09099999,1.3166424,1.4863924
-0.2,-0.2,0.6,-0.5235987755982988,0.34906585039886606,1.1102230246251565e-16,1.4191089,1.6374505,0.38726237,0.098248325,0.09985285,0.4519103,0.85596246,-0.4588258,1.4844947,-0.24692096,-0.7209049,-0.15596296,1.3239557,1.3838463
-0.2,-0.2,0.6,-0.5235987755982988,0.34906585039886606,1.1102230246251565e-16,1.4157666,1.6363006,0.39477444,0.10335413,0.09399737,0.4465968,0.855894,-0.46146014,1.4837568,-0.23792852,-0.7093898,-0.109638795,1.3130578,1.4480053
-0.2,-0.2,0.6,-0.5235987755982988,0.34906585039886606,1.1102230246251565e-16,1.415866,1.6292465,0.39068732,0.10944914,0.09702077,0.44882813,0.859884,-0.46630225,1.4847436,-0.2513522,-0.71361756,-0.1343821,1.317368,1.2959251
-0.2,-0.2,0.6,-0.5235987755982988,0.34906585039886606,1.1102230246251565e-16,1.4176604,1.6455313,0.39196438,0.111566536,0.104369216,0.44962075,0.82158136,-0.455237,1.4875247,-0.23546137,-0.7119887,-0.16577631,1.3138387,1.4368879
-0.2,-0.2,0.6,-0.5235987755982988,0.34906585039886606,1.1102230246251565e-16,1.4221879,1.6453917,0.39382017,0.09782726,0.099465154,0.45896506,0.84332055,-0.45649052,1.4811614,-0.24480109,-0.71454215,-0.1847017,1.3269774,1.4752982
-0.2,-0.2,0.6,-0.5235987755982988,0.34906585039886606,1.1102230246251565e-16,1.4262185,1.6318773,0.39475492,0.10800804,0.08947693,0.4663349,0.8327565,-0.46676704,1.486738,-0.25873077,-0.7185572,-0.18276776,1.331803,1.3917557
-0.2,-0.2,0.6,-0.5235987755982988,0.34906585039886606,1.1102230246251565e-16,1.4186809,1.6338359,0.39547828,0.103196226,0.09616985,0.44142297,0.81733537,-0.46113983,1.4828326,-0.26785654,-0.71676403,-0.11453146,1.3106449,1.3702168
-0.2,-0.2,0.6,-0.5235987755982988,0.34906585039886606,1.1102230246251565e-16,1.4202764,1.6319695,0.39651057,0.10852689,0.10388588,0.45631808,0.8214564,-0.4641486,1.4849854,-0.25340775,-0.7109732,-0.14138304,1.3264837,1.3977472
-0.2,-0.2,0.6,-0.5235987755982988,0.34906585039886606,1.1102230246251565e-16,1.425082,1.6352181,0.38913208,0.1011843,0.10046284,0.45822114,0.8452631,-0.45543972,1.4870101,-0.24673493,-0.71615016,-0.10051589,1.3183714,1.2524204
-0.2,-0.2,0.6,-0.5235987755982988,0.34906585039886606,1.1102230246251565e-16,1.4208308,1.633642,0.39072332,0.095078796,0.10672883,0.46447074,0.82167757,-0.4626538,1.4860567,-0.23936565,-0.7136797,-0.12700935,1.3220935,1.4802684
-0.2,-0.2,0.6,-0.5235987755982988,0.34906585039886606,1.1102230246251565e-16,1.4075487,1.6436044,0.39613324,0.10976807,0.097656,0.4533787,0.82374406,-0.4687996,1.484192,-0.23651262,-0.71773565,-0.10495536,1.3194125,1.4204369
-0.2,-0.2,0.6,-0.5235987755982988,0.34906585039886606,1.1102230246251565e-16,1.4244336,1.6319158,0.38959083,0.1049676,0.0983725,0.46537074,0.8337315,-0.465129,1.4879704,-0.24617511,-0.7163887,-0.16702704,1.3293196,1.285707
-0.2,-0.2,0.6,-0.5235987755982988,0.34906585039886606,1.1102230246251565e-16,1.42735,1.6465334,0.3886513,0.1061466,0.10256141,0.45238864,0.79863906,-0.45792758,1.487486,-0.2436892,-0.7186691,-0.13148077,1.3184493,1.5442064
-0.2,-0.2,0.6,-0.5235987755982988,0.34906585039886606,1.1102230246251565e-16,1.4223423,1.6396086,0.39171058,0.107899934,0.09074526,0.45124653,0.8610141,-0.46290082,1.4844166,-0.2642495,-0.71040744,-0.15137547,1.3120854,1.5049039
-0.2,-0.2,0.6,-0.5235987755982988,0.34906585039886606,1.1102230246251565e-16,1.4238629,1.6288435,0.39669752,0.100818634,0.10362886,0.44557238,0.7838178,-0.46141613,1.4846265,-0.24318653,-0.7134579,-0.034143724,1.3233466,1.430088
-0.2,-0.2,0.6,-0.5235987755982988,0.34906585039886606,1.1102230246251565e-16,1.4161923,1.6294407,0.3948314,0.10659724,0.099248186,0.4371394,0.82029295,-0.46142444,1.4835643,-0.23067443,-0.71701586,-0.0840312,1.3195384,1.3386008
-0.2,-0.2,0.6,-0.5235987755982988,0.34906585039886606,1.1102230246251565e-16,1.4263551,1.6384153,0.38942575,0.09630529,0.108419284,0.45555848,0.8301184,-0.4643548,1.4848542,-0.2562886,-0.7228129,-0.16109443,1.3163264,1.4162406
-0.2,-0.2,0.6,-0.5235987755982988,0.34906585039886606,1.1102230246251565e-16,1.4310644,1.6357312,0.39197108,0.10164719,0.10956128,0.4331736,0.80724365,-0.46341407,1.4815679,-0.26505908,-0.7152372,-0.07233281,1.3139577,1.4690452
-0.2,-0.2,0.6,-0.5235987755982988,0.34906585039886606,1.1102230246251565e-16,1.4182476,1.6424786,0.39425406,0.111040145,0.08204309,0.4500651,0.8300249,-0.4583659,1.4867764,-0.27565363,-0.7184894,-0.1672963,1.32282,1.4495907
-0.2,-0.2,0.6,-0.5235987755982988,0.34906585039886606,1.1102230246251565e-16,1.4232817,1.6479346,0.38926348,0.112902716,0.087834135,0.45357046,0.8148786,-0.45734236,1.4866123,-0.25586554,-0.7131518,-0.12146258,1.315815,1.4380157
-0.2,-0.2,0.6,-0.5235987755982988,0.34906585039886606,1.1102230246251565e-16,1.427046,1.6373613,0.3899573,0.10216188,0.09779776,0.4500591,0.8388408,-0.46533868,1.4850134,-0.25329337,-0.7165169,-0.14097646,1.3229752,1.3926007
-0.2,-0.2,0.6,-0.5235987755982988,0.34906585039886606,1.1102230246251565e-16,1.4198982,1.6285161,0.3944014,0.11018841,0.1143737,0.42739654,0.8274661,-0.46625462,1.486261,-0.2770019,-0.719179,-0.13320431,1.32259,1.4314378
-0.2,-0.2,0.6,-0.5235987755982988,0.34906585039886606,1.1102230246251565e-16,1.4115311,1.6301134,0.39447013,0.1081516,0.10250854,0.4447946,0.8049721,-0.45865333,1.4842119,-0.22185005,-0.71156335,-0.083057225,1.3165777,1.532265
-0.2,-0.2,0.6,-0.5235987755982988,0.34906585039886606,1.1102230246251565e-16,1.4249761,1.6439986,0.39357904,0.10141973,0.10881656,0.43713525,0.7918762,-0.4668477,1.4818496,-0.22135794,-0.71563315,-0.12732705,1.3208512,1.4584612
-0.2,-0.2,0.6,-0.5235987755982988,0.34906585039886606,1.1102230246251565e-16,1.4229982,1.643113,0.39384478,0.10735825,0.1020382,0.44688004,0.8152377,-0.46968985,1.4873023,-0.24439603,-0.71536696,-0.10364117,1.321368,1.4480491
-0.2,-0.2,0.6,-0.5235987755982988,0.34906585039886606,1.1102230246251565e-16,1.414044,1.6355767,0.3901108,0.10050181,0.11123387,0.45786014,0.8134962,-0.4495796,1.484418,-0.23216718,-0.71394986,-0.13961205,1.3212606,1.4629369
-0.2,-0.2,0.6,-0.5235987755982988,0.34906585039886606,1.1102230246251565e-16,1.4311618,1.6456155,0.3887303,0.10960403,0.096211895,0.44663307,0.8350208,-0.4714513,1.48377,-0.28485233,-0.72207785,-0.13360499,1.3163946,1.4509366
-0.2,-0.2,0.6,-0.5235987755982988,0.34906585039886606,1.1102230246251565e-16,1.4202993,1.6381048,0.39246392,0.10559827,0.08397608,0.44874734,0.8389959,-0.46331543,1.4841698,-0.24797416,-0.71728724,-0.07805482,1.3211981,1.5004041
-0.2,-0.2,0.6,-0.5235987755982988,0.34906585039886606,1.1102230246251565e-16,1.4214596,1.6437491,0.3914736,0.1084419,0.102606885,0.46964645,0.8225151,-0.4737591,1.4823931,-0.25954473,-0.71615624,-0.109452315,1.3257734,1.4955909
-0.2,-0.2,0.6,-0.5235987755982988,0.34906585039886606,1.1102230246251565e-16,1.4173248,1.6378901,0.39219436,0.106203035,0.099786505,0.4467293,0.81476945,-0.46617877,1.482747,-0.26691034,-0.71752524,-0.1224858,1.3081391,1.4050447
-0.2,-0.2,0.6,-0.5235987755982988,0.34906585039886606,1.1102230246251565e-16,1.4273083,1.6388786,0.39496925,0.10661492,0.08921416,0.44643712,0.8311175,-0.4622172,1.4862207,-0.2788621,-0.71319836,-0.1282423,1.3215488,1.5262798
-0.2,-0.2,0.6,-0.5235987755982988,0.34906585039886606,1.1102230246251565e-16,1.4242674,1.6359271,0.38844985,0.12010311,0.10985704,0.4550227,0.78658694,-0.46192163,1.4843043,-0.26875076,-0.71324146,-0.10832403,1.330095,1.3618984
-0.2,-0.2,0.6,-0.5235987755982988,0.34906585039886606,1.1102230246251565e-16,1.4245747,1.6225065,0.39205816,0.094533175,0.09081004,0.45984885,0.8351328,-0.46627626,1.4874548,-0.26451263,-0.7239567,-0.11384701,1.3238833,1.402762
-0.2,-0.2,0.6,-0.5235987755982988,0.34906585039886606,1.1102230246251565e-16,1.4265505,1.6344944,0.39360273,0.09140429,0.09861175,0.4417327,0.8163337,-0.4540626,1.4828993,-0.23267113,-0.71802884,-0.085763685,1.322656,1.4924396
-0.2,-0.2,0.6,-0.5235987755982988,0.34906585039886606,1.1102230246251565e-16,1.4251676,1.6489502,0.39567426,0.100035615,0.080554806,0.45047212,0.81689817,-0.4735767,1.4805905,-0.22984724,-0.7162517,-0.06961597,1.3269042,1.5787703
-0.2,-0.2,0.6,-0.5235987755982988,0.34906585039886606,1.1102230246251565e-16,1.4268419,1.643665,0.38854504,0.1102488,0.088377275,0.4577483,0.7971638,-0.45198604,1.4856443,-0.2585155,-0.7178107,-0.14528756,1.3222755,1.4890727
-0.2,-0.2,0.6,-0.5235987755982988,0.34906585039886606,1.1102230246251565e-16,1.4248155,1.6315473,0.39133602,0.10401398,0.10141154,0.45392537,0.8129419,-0.47593087,1.4826843,-0.23664635,-0.71833825,-0.1380458,1.329224,1.3636484
-0.2,-0.2,0.6,-0.5235987755982988,0.34906585039886606,1.1102230246251565e-16,1.4154509,1.6361004,0.39375713,0.10046353,0.101306945,0.45004815,0.8188025,-0.45453218,1.4822583,-0.26959762,-0.7217569,-0.10282124,1.3260145,1.4550695
-0.2,-0.2,0.6,-0.5235987755982988,0.34906585039886606,1.1102230246251565e-16,1.4247103,1.635602,0.39309692,0.11327124,0.09692366,0.44414288,0.81478035,-0.46205768,1.4834716,-0.24980907,-0.7078174,-0.14613606,1.3148569,1.3940673
-0.2,-0.2,0.6,-0.5235987755982988,0.34906585039886606,1.1102230246251565e-16,1.4217751,1.6381572,0.3952596,0.10362607,0.08399577,0.4525396,0.80813926,-0.45745283,1.4812042,-0.26487425,-0.7177934,-0.17235821,1.3182148,1.3966038
-0.2,-0.2,0.6,-0.5235987755982988,0.34906585039886606,1.1102230246251565e-16,1.4235239,1.6510742,0.38939768,0.10582109,0.09546628,0.45456535,0.8430928,-0.4603166,1.4835013,-0.2690166,-0.7193877,-0.14928599,1.3153023,1.3844485
-0.2,-0.2,0.6,-0.5235987755982988,0.34906585039886606,1.1102230246251565e-16,1.4195613,1.6364771,0.39735997,0.09235205,0.09867942,0.44232517,0.8526088,-0.44672978,1.484183,-0.2783398,-0.7100234,-0.13508052,1.3153892,1.3985075
-0.2,-0.2,0.6,-0.5235987755982988,0.34906585039886606,1.1102230246251565e-16,1.4204103,1.6311367,0.39542925,0.09788102,0.09358267,0.45275533,0.8334432,-0.47715026,1.4823227,-0.26535013,-0.7183662,-0.09998903,1.3195294,1.388436
-0.2,-0.2,0.6,-0.5235987755982988,0.34906585039886606,1.1102230246251565e-16,1.42518,1.631655,0.39681906,0.10398076,0.087825105,0.45774505,0.83075595,-0.46824872,1.4822487,-0.23258953,-0.70718,-0.13295819,1.3186651,1.3688446
-0.2,-0.2,0.6,-0.5235987755982988,0.34906585039886606,1.1102230246251565e-16,1.4194227,1.6421158,0.39001632,0.110065654,0.08782983,0.45822608,0.8296803,-0.45814535,1.486969,-0.23854944,-0.7122022,-0.10038386,1.3219328,1.312544
-0.2,-0.2,0.6,-0.5235987755982988,0.34906585039886606,1.1102230246251565e-16,1.4196551,1.6418492,0.3906876,0.11071106,0.10120383,0.4391706,0.80474293,-0.45710915,1.4856298,-0.26234958,-0.7166178,-0.14453661,1.3180988,1.3704338
-0.2,-0.2,0.6,-0.5235987755982988,0.34906585039886606,1.1102230246251565e-16,1.4242897,1.6451749,0.39317548,0.095484555,0.095598206,0.44909218,0.83979744,-0.4587071,1.4853538,-0.25654462,-0.72102195,-0.12317218,1.3180643,1.4970968
-0.2,-0.2,0.6,-0.5235987755982988,0.34906585039886606,1.1102230246251565e-16,1.4236037,1.6280755,0.39514175,0.09893771,0.097503215,0.45389116,0.8042823,-0.45895103,1.485604,-0.25767165,-0.7229911,-0.19041905,1.3234208,1.4221045
-0.2,-0.2,0.6,-0.5235987755982988,0.34906585039886606,1.1102230246251565e-16,1.4287218,1.6395441,0.40008396,0.09259288,0.110314,0.45347634,0.8006392,-0.47114477,1.4825498,-0.24095902,-0.71252257,-0.11233123,1.3236375,1.5053319
-0.2,-0.2,0.6,-0.5235987755982988,0.34906585039886606,1.1102230246251565e-16,1.4221026,1.6350094,0.39230102,0.09884507,0.08137846,0.4613815,0.8380497,-0.4516409,1.4821306,-0.24944673,-0.7164928,-0.10407931,1.3197818,1.3461181
-0.2,-0.2,0.6,-0.5235987755982988,0.34906585039886606,1.1102230246251565e-16,1.4182621,1.6437356,0.39497083,0.09858469,0.09979119,0.4637242,0.83846605,-0.46236894,1.484119,-0.2568898,-0.7148776,-0.1658256,1.326675,1.4652431
-0.2,-0.2,0.6,-0.5235987755982988,0.34906585039886606,1.1102230246251565e-16,1.4161273,1.6343917,0.39593524,0.1068697,0.099577874,0.4568013,0.80635643,-0.45890203,1.4855314,-0.26832998,-0.71280825,-0.13207874,1.3220718,1.3715566
-0.2,-0.2,0.6,-0.5235987755982988,0.34906585039886606,1.1102230246251565e-16,1.422068,1.6338873,0.39283937,0.104667254,0.104646765,0.4531742,0.7946093,-0.465095,1.48491,-0.23154663,-0.7147904,-0.1038905,1.3238084,1.456349
-0.2,-0.2,0.6,-0.5235987755982988,0.34906585039886606,1.1102230246251565e-16,1.4176395,1.639999,0.40513662,0.104095325,0.09892563,0.4390906,0.7987806,-0.4534337,1.4823529,-0.25912648,-0.7131471,-0.15744735,1.3237381,1.3271261
-0.2,-0.2,0.6,-0.5235987755982988,0.34906585039886606,1.1102230246251565e-16,1.4279177,1.6399162,0.395482,0.112170175,0.08090083,0.45094004,0.77886677,-0.45420435,1.4839268,-0.2533894,-0.7138321,-0.14086951,1.3226135,1.4313724
-0.2,-0.2,0.6,-0.5235987755982988,0.34906585039886606,1.1102230246251565e-16,1.4345737,1.6398017,0.39006636,0.09863299,0.10670757,0.4426398,0.8323304,-0.45291415,1.484668,-0.2605948,-0.71070564,-0.09706017,1.3218918,1.2777053
-0.2,-0.2,0.6,-0.5235987755982988,0.34906585039886606,1.1102230246251565e-16,1.4248993,1.6492461,0.39662212,0.09662898,0.09934475,0.45203876,0.8111768,-0.46116439,1.4850628,-0.24265276,-0.7095501,-0.11439124,1.3180813,1.3484159
-0.2,-0.2,0.6,-0.5235987755982988,0.34906585039886606,1.1102230246251565e-16,1.4253837,1.6491917,0.389496,0.10746423,0.09908897,0.4591958,0.8093415,-0.47118634,1.4847355,-0.2570772,-0.7228614,-0.11606211,1.321745,1.4601469
-0.2,-0.2,0.6,-0.5235987755982988,0.34906585039886606,1.1102230246251565e-16,1.4137169,1.6318698,0.4008041,0.08827564,0.093748085,0.46182352,0.85816294,-0.47187,1.4832509,-0.24173558,-0.71418786,-0.1384892,1.323588,1.4470891
-0.2,-0.2,0.6,-0.5235987755982988,0.34906585039886606,1.1102230246251565e-16,1.4211535,1.6359711,0.388521,0.114352904,0.100517705,0.44581378,0.80845964,-0.44718045,1.4877961,-0.23841372,-0.71259683,-0.10671206,1.3245885,1.4813812
-0.2,-0.2,0.6,-0.5235987755982988,0.34906585039886606,1.1102230246251565e-16,1.4233174,1.6483315,0.39327943,0.1024729,0.09306015,0.4609605,0.8183851,-0.46422222,1.484356,-0.24678378,-0.7148785,-0.1506097,1.3183224,1.5068948
-0.2,-0.2,0.6,-0.5235987755982988,0.34906585039886606,1.1102230246251565e-16,1.417136,1.6383431,0.39362982,0.10384745,0.090366684,0.4496994,0.8341567,-0.46962443,1.4851552,-0.23085587,-0.7226276,-0.11341452,1.3236946,1.4786742
-0.2,-0.2,0.6,-0.5235987755982988,0.34906585039886606,1.1102230246251565e-16,1.4161683,1.6335683,0.39047995,0.10690428,0.09939902,0.45505747,0.82019264,-0.46917745,1.4829018,-0.25032163,-0.71545494,-0.11007625,1.3193816,1.383905
-0.2,-0.2,0.6,-0.5235987755982988,0.34906585039886606,1.1102230246251565e-16,1.4271259,1.6302681,0.39197153,0.09404933,0.107405044,0.4579779,0.8222782,-0.46677023,1.480169,-0.2539659,-0.7162831,-0.19707748,1.3249338,1.4474045
-0.2,-0.2,0.6,-0.5235987755982988,0.34906585039886606,1.1102230246251565e-16,1.4211968,1.6568573,0.39472175,0.10396449,0.09721959,0.45984834,0.8068077,-0.46972078,1.4846953,-0.25259045,-0.7203235,-0.129408,1.328891,1.4063585
-0.2,-0.2,0.6,-0.5235987755982988,0.34906585039886606,1.1102230246251565e-16,1.4163592,1.65111,0.40468347,0.09604706,0.0975063,0.44971693,0.80050725,-0.45716515,1.4883978,-0.2482317,-0.7153677,-0.13588999,1.3239769,1.3574773
-0.2,-0.2,0.6,-0.5235987755982988,0.34906585039886606,1.1102230246251565e-16,1.4263568,1.6430575,0.39692032,0.09534384,0.10416389,0.45008066,0.80402404,-0.4615004,1.485858,-0.26695278,-0.71562296,-0.08490026,1.3225288,1.4551423
-0.2,-0.2,0.6,-0.5235987755982988,0.34906585039886606,1.1102230246251565e-16,1.4331264,1.6577833,0.39450902,0.086939126,0.08785832,0.46650374,0.83509517,-0.4543026,1.4855553,-0.22789904,-0.71677107,-0.13185771,1.3187869,1.3660856
-0.2,-0.2,0.6,-0.5235987755982988,0.34906585039886606,1.1102230246251565e-16,1.4196637,1.6269035,0.39758956,0.097988896,0.10218175,0.44854787,0.8294446,-0.46758163,1.4848834,-0.26906115,-0.71648985,-0.10505176,1.3281201,1.4534782
-0.2,-0.2,0.6,-0.5235987755982988,0.34906585039886606,1.1102230246251565e-16,1.4227409,1.6340767,0.3889427,0.1229543,0.085577264,0.44856957,0.7995741,-0.4539315,1.4854367,-0.24890432,-0.717447,-0.1428058,1.329493,1.3698837
-0.2,-0.2,0.6,-0.5235987755982988,0.34906585039886606,1.1102230246251565e-16,1.4211985,1.6419109,0.3958445,0.09844932,0.08693571,0.4663112,0.8054943,-0.44883987,1.4847091,-0.24254453,-0.716035,-0.11085666,1.3173261,1.4225655
-0.2,-0.2,0.6,-0.5235987755982988,0.34906585039886606,1.1102230246251565e-16,1.4194484,1.6255193,0.39398608,0.10514262,0.09941423,0.45086387,0.79435503,-0.48003227,1.4811262,-0.24792744,-0.71692115,-0.14760374,1.3179702,1.4503441
-0.2,-0.2,0.6,-0.5235987755982988,0.34906585039886606,1.1102230246251565e-16,1.423332,1.6546205,0.3908574,0.11032566,0.10169589,0.46146947,0.7938942,-0.4620606,1.485387,-0.24959607,-0.7153493,-0.096894175,1.324256,1.3629093
-0.2,-0.2,0.6,-0.5235987755982988,0.34906585039886606,1.1102230246251565e-16,1.4185045,1.6441641,0.39361,0.10393859,0.09538237,0.45043057,0.81999516,-0.4597447,1.4833573,-0.2631421,-0.7168171,-0.10759189,1.3243309,1.3855865
-0.2,-0.2,0.6,-0.5235987755982988,0.34906585039886606,1.1102230246251565e-16,1.4263704,1.6410451,0.39595228,0.09870396,0.097302645,0.4382243,0.8354951,-0.4460922,1.4866138,-0.24155715,-0.7154695,-0.17870985,1.3192259,1.4335433
-0.2,-0.2,0.6,-0.5235987755982988,0.34906585039886606,1.1102230246251565e-16,1.4061534,1.6343809,0.39417166,0.10491416,0.1026214,0.45719188,0.8447224,-0.46744496,1.4833177,-0.2623293,-0.7174186,-0.123055704,1.3249286,1.4138987
-0.2,-0.2,0.6,-0.5235987755982988,0.34906585039886606,1.1102230246251565e-16,1.4227928,1.6458598,0.39293718,0.09718354,0.086837284,0.46068606,0.81770897,-0.45373362,1.4888312,-0.26265824,-0.7196103,-0.13358669,1.3207551,1.5564902
-0.2,-0.2,0.6,-0.5235987755982988,0.34906585039886606,1.1102230246251565e-16,1.4170612,1.6473988,0.39414987,0.099770986,0.08944186,0.45120043,0.84837824,-0.4523323,1.4834529,-0.26819536,-0.71190816,-0.13405667,1.3151028,1.3913368
-0.2,-0.2,0.6,-0.5235987755982988,0.34906585039886606,1.1102230246251565e-16,1.4259335,1.6467534,0.39110395,0.09921096,0.11753666,0.4433786,0.86379355,-0.46109787,1.4864175,-0.25470516,-0.7169067,-0.14209005,1.315851,1.4488204
-0.2,-0.2,0.6,-0.5235987755982988,0.34906585039886606,1.1102230246251565e-16,1.4140649,1.6412121,0.39953703,0.10505134,0.09495179,0.45002395,0.8203393,-0.46059358,1.4858202,-0.25720337,-0.7153505,-0.13119815,1.318822,1.348705
-0.2,-0.2,0.6,-0.5235987755982988,0.34906585039886606,1.1102230246251565e-16,1.4275664,1.6304086,0.4004379,0.10088741,0.08780593,0.44970897,0.8051033,-0.46413785,1.4821831,-0.2387395,-0.71764183,-0.061782327,1.3250142,1.5452057
-0.2,-0.2,0.6,-0.5235987755982988,0.34906585039886606,1.1102230246251565e-16,1.4231675,1.6385034,0.39714566,0.092607036,0.08302485,0.46481088,0.8325487,-0.47458118,1.481484,-0.23856218,-0.7187339,-0.12991478,1.314972,1.37513
-0.2,-0.2,0.6,-0.5235987755982988,0.34906585039886606,1.1102230246251565e-16,1.4195641,1.6411933,0.4041073,0.09425903,0.11002762,0.43711126,0.82061934,-0.468769,1.4840666,-0.23780148,-0.7132264,-0.094507866,1.3220394,1.4697231
-0.2,-0.2,0.6,-0.5235987755982988,0.34906585039886606,1.1102230246251565e-16,1.4162873,1.6326405,0.39318714,0.108298354,0.09046476,0.45843962,0.8161631,-0.45617867,1.4853978,-0.25455302,-0.7173494,-0.1393202,1.326444,1.4520394
-0.2,-0.2,0.6,-0.5235987755982988,0.34906585039886606,1.1102230246251565e-16,1.4253442,1.6380639,0.38946494,0.113404796,0.084257446,0.45443708,0.8096958,-0.47120357,1.4833966,-0.25474906,-0.7204572,-0.08591992,1.3171122,1.3862622
-0.2,-0.2,0.6,-0.5235987755982988,0.34906585039886606,1.1102230246251565e-16,1.4242545,1.6442317,0.39222193,0.09388808,0.10632833,0.44559583,0.84265685,-0.4535513,1.4849285,-0.23689196,-0.71662885,-0.14421515,1.3271157,1.4577537
-0.2,-0.2,0.6,-0.5235987755982988,0.34906585039886606,1.1102230246251565e-16,1.4215351,1.6443055,0.40317926,0.0916354,0.09008018,0.446472,0.8125864,-0.4696721,1.4838012,-0.28813034,-0.72270864,-0.13177769,1.313636,1.3103828
-0.2,-0.2,0.6,-0.5235987755982988,0.34906585039886606,1.1102230246251565e-16,1.4223337,1.6467305,0.40058282,0.10792633,0.092905395,0.44229746,0.7945021,-0.46068946,1.4842662,-0.25606143,-0.7116083,-0.14495745,1.3190603,1.4915088
-0.2,-0.2,0.6,-0.5235987755982988,0.34906585039886606,1.1102230246251565e-16,1.4188725,1.6502782,0.3901288,0.10682077,0.09566087,0.45476595,0.8124765,-0.4572652,1.4859273,-0.2742787,-0.7188286,-0.12756032,1.3194479,1.5102737
-0.2,-0.2,0.6,-0.5235987755982988,0.34906585039886606,1.1102230246251565e-16,1.417235,1.6368238,0.3912471,0.09900734,0.10179681,0.46707398,0.82713133,-0.46119553,1.4861848,-0.23922756,-0.7132334,-0.11852352,1.3228054,1.4714799
-0.2,-0.2,0.6,-0.5235987755982988,0.34906585039886606,1.1102230246251565e-16,1.4189849,1.6532536,0.3911899,0.10836392,0.08375438,0.45806107,0.8161219,-0.46327713,1.4826862,-0.261531,-0.7193403,-0.102984175,1.3183262,1.2267487
-0.2,-0.2,0.6,-0.5235987755982988,0.34906585039886606,1.1102230246251565e-16,1.4199281,1.6376017,0.3937629,0.099288486,0.104901895,0.44461948,0.81483346,-0.4495065,1.4865335,-0.23541944,-0.71696407,-0.10037759,1.3209953,1.3605489
-0.2,-0.2,0.6,-0.5235987755982988,0.34906585039886606,1.1102230246251565e-16,1.422309,1.639569,0.39169008,0.10723545,0.09760855,0.45925885,0.8187602,-0.46758914,1.4853225,-0.2595205,-0.71795523,-0.15950918,1.3266547,1.4235598
-0.2,-0.2,0.6,-0.5235987755982988,0.34906585039886606,1.1102230246251565e-16,1.4241072,1.6286672,0.39370257,0.10381482,0.09559386,0.45138445,0.8306529,-0.46738994,1.4833515,-0.25558528,-0.7061069,-0.09902868,1.3211768,1.5225015
-0.2,-0.2,0.6,-0.5235987755982988,0.34906585039886606,1.1102230246251565e-16,1.4186492,1.6235652,0.38643643,0.10453013,0.09414699,0.46782777,0.8411742,-0.4719018,1.4820638,-0.23265037,-0.7140362,-0.15979615,1.3160319,1.4516515
-0.2,-0.2,0.6,-0.5235987755982988,0.34906585039886606,1.1102230246251565e-16,1.4163847,1.6289886,0.39062542,0.10206543,0.104179755,0.45161206,0.81542826,-0.46117222,1.483565,-0.2523156,-0.71638817,-0.18143815,1.3177907,1.3930913
-0.2,-0.2,0.6,-0.5235987755982988,0.34906585039886606,1.1102230246251565e-16,1.4184781,1.6338484,0.3915546,0.10761981,0.087695636,0.4513015,0.83428484,-0.46439928,1.4844967,-0.25204557,-0.71455896,-0.116576955,1.3207858,1.4533497
-0.2,-0.2,0.6,-0.5235987755982988,0.34906585039886606,1.1102230246251565e-16,1.4195547,1.6441907,0.39363655,0.10118048,0.091103494,0.4688489,0.8273058,-0.45930892,1.4860728,-0.25103617,-0.7186661,-0.12334337,1.3213639,1.4293252
-0.2,-0.2,0.6,-0.5235987755982988,0.34906585039886606,1.1102230246251565e-16,1.4176774,1.6435188,0.39374268,0.10418851,0.09983257,0.4441328,0.82950085,-0.46496704,1.4849116,-0.24628489,-0.71421796,-0.11283268,1.3173101,1.3303417
-0.2,-0.2,0.6,-0.5235987755982988,0.34906585039886606,1.1102230246251565e-16,1.424151,1.6357409,0.391095,0.10718854,0.0902928,0.44730198,0.8393013,-0.4717277,1.4846057,-0.2247363,-0.71819067,-0.111092515,1.3234152,1.3872706
-0.2,-0.2,0.6,-0.5235987755982988,0.34906585039886606,1.1102230246251565e-16,1.4187797,1.6477913,0.39023796,0.10584656,0.108442314,0.45208538,0.81773454,-0.4672639,1.4845823,-0.25590137,-0.7209623,-0.11049057,1.3237814,1.4838096
-0.2,-0.2,0.6,-0.5235987755982988,0.34906585039886606,1.1102230246251565e-16,1.4288744,1.6374438,0.38932195,0.09709674,0.1081883,0.45762673,0.80066854,-0.47260416,1.4829885,-0.2661763,-0.7277598,-0.07640239,1.3276086,1.4434426
-0.2,-0.2,0.6,-0.5235987755982988,0.34906585039886606,1.1102230246251565e-16,1.4301314,1.6393051,0.39841115,0.09093641,0.110339515,0.4616038,0.84955794,-0.46135864,1.4829776,-0.26094553,-0.7074338,-0.11180895,1.323998,1.494449
-0.2,-0.2,0.6,-0.5235987755982988,0.34906585039886606,1.1102230246251565e-16,1.4253967,1.6471679,0.39943767,0.1058278,0.095892146,0.43968546,0.8516862,-0.46479654,1.482663,-0.292774,-0.7131639,-0.15987661,1.3188665,1.321012
-0.2,-0.2,0.6,-0.5235987755982988,0.34906585039886606,1.1102230246251565e-16,1.4119614,1.6408908,0.39800444,0.10957164,0.1067201,0.45661864,0.7842377,-0.4572921,1.4853292,-0.282688,-0.71169454,-0.13930643,1.3179219,1.4860512
-0.2,-0.2,0.6,-0.5235987755982988,0.34906585039886606,1.1102230246251565e-16,1.4186082,1.6383594,0.3971264,0.09786085,0.10761458,0.44690356,0.80452627,-0.46021056,1.484308,-0.25876933,-0.7134123,-0.14408626,1.3132975,1.3933176
-0.2,-0.2,0.6,-0.5235987755982988,0.34906585039886606,1.1102230246251565e-16,1.4244114,1.6426529,0.39388016,0.096713945,0.09369908,0.46289298,0.8143662,-0.44900155,1.4894816,-0.23812155,-0.71808904,-0.14225398,1.3284086,1.384995
-0.2,-0.2,0.6,-0.5235987755982988,0.34906585039886606,1.1102230246251565e-16,1.4300219,1.6254399,0.39183486,0.10454279,0.10874231,0.43198645,0.7962438,-0.4528027,1.486705,-0.24872863,-0.7172346,-0.108236745,1.3197535,1.3191372
-0.2,-0.2,0.6,-0.5235987755982988,0.34906585039886606,1.1102230246251565e-16,1.4224304,1.6261203,0.39220327,0.09551432,0.09617847,0.46823,0.8439825,-0.4591874,1.4856508,-0.23957977,-0.71020263,-0.17837417,1.3178127,1.370468
-0.2,-0.2,0.6,-0.5235987755982988,0.34906585039886606,1.1102230246251565e-16,1.427896,1.6394935,0.39226243,0.10433842,0.10876744,0.44074592,0.8127299,-0.46528727,1.4871014,-0.26203194,-0.71911293,-0.17287135,1.3213817,1.4412348
-0.2,-0.2,0.6,-0.5235987755982988,0.34906585039886606,1.1102230246251565e-16,1.4171232,1.6452153,0.39910376,0.09967776,0.100827895,0.46462777,0.8472853,-0.46674183,1.4816768,-0.25437027,-0.71379006,-0.15309756,1.326398,1.3609562
-0.2,-0.2,0.6,-0.5235987755982988,0.34906585039886606,1.1102230246251565e-16,1.4163233,1.650392,0.39681396,0.11088196,0.1008686,0.45627135,0.80324364,-0.4600356,1.4851372,-0.24610002,-0.71468484,-0.1409418,1.3225745,1.4280907
-0.2,-0.2,0.6,-0.5235987755982988,0.34906585039886606,1.1102230246251565e-16,1.4237313,1.6305925,0.40115875,0.09520574,0.10167308,0.4533226,0.8015367,-0.45462677,1.4847816,-0.24863155,-0.71168226,-0.1330554,1.3193105,1.4407738
-0.2,-0.2,0.6,-0.5235987755982988,0.34906585039886606,1.1102230246251565e-16,1.4175189,1.6463674,0.39186323,0.104258105,0.09682866,0.45505306,0.8203685,-0.4591998,1.4789689,-0.2519577,-0.71786875,-0.09769647,1.3196372,1.3703496
-0.2,-0.2,0.6,-0.5235987755982988,0.34906585039886606,1.1102230246251565e-16,1.4186329,1.634419,0.39514107,0.10478653,0.09694671,0.43762425,0.8387773,-0.4584091,1.4874399,-0.24198292,-0.7169254,-0.15604098,1.3273742,1.3720677
-0.2,-0.2,0.6,-0.5235987755982988,0.34906585039886606,1.1102230246251565e-16,1.4237905,1.6482854,0.39640737,0.10252322,0.08608567,0.45379728,0.80502033,-0.46905962,1.4799513,-0.24494107,-0.7172002,-0.20193587,1.3142908,1.385461
-0.2,-0.2,0.6,-0.5235987755982988,0.34906585039886606,1.1102230246251565e-16,1.4269798,1.6421663,0.38865957,0.11476351,0.09783862,0.45136985,0.79952353,-0.4752506,1.4859325,-0.25614336,-0.71514916,-0.12998176,1.3123719,1.3788947
-0.2,-0.2,0.6,-0.5235987755982988,0.34906585039886606,1.1102230246251565e-16,1.4212594,1.6367369,0.3893503,0.10392052,0.10810453,0.45671296,0.83196443,-0.45768985,1.4872596,-0.25216472,-0.71637446,-0.08687442,1.3216019,1.5121425
-0.2,-0.2,0.6,-0.5235987755982988,0.34906585039886606,1.1102230246251565e-16,1.4236984,1.6345586,0.39018166,0.11157023,0.11713945,0.4572415,0.8090764,-0.4632771,1.4853488,-0.26792023,-0.7135964,-0.117400154,1.3251612,1.4073225
-0.2,-0.2,0.6,-0.5235987755982988,0.34906585039886606,1.1102230246251565e-16,1.4168829,1.6377975,0.3905647,0.11276669,0.09959074,0.4542589,0.7880381,-0.4691607,1.480719,-0.25044262,-0.7160356,-0.16977979,1.315953,1.4175972
-0.2,-0.2,0.6,-0.5235987755982988,0.34906585039886606,1.1102230246251565e-16,1.420648,1.6310165,0.39616328,0.10398992,0.10012423,0.44972998,0.80882126,-0.46470913,1.4834057,-0.26003492,-0.71569335,-0.095571116,1.3273904,1.4187546
-0.2,-0.2,0.6,-0.5235987755982988,0.34906585039886606,1.1102230246251565e-16,1.4131465,1.6412038,0.39798242,0.108029395,0.0955346,0.4562759,0.7989239,-0.45866796,1.4855319,-0.23854382,-0.722099,-0.14390938,1.323775,1.5048817
-0.2,-0.2,0.6,-0.5235987755982988,0.34906585039886606,1.1102230246251565e-16,1.4230596,1.6465759,0.39318165,0.10236449,0.107030496,0.44301042,0.8028815,-0.46036735,1.4838234,-0.26161736,-0.71660817,-0.10965371,1.3202776,1.4856113
-0.2,-0.2,0.6,-0.5235987755982988,0.34906585039886606,1.1102230246251565e-16,1.4264688,1.6268532,0.38926226,0.1070778,0.09588144,0.44298866,0.82382417,-0.456781,1.4836218,-0.25792548,-0.7164032,-0.13816085,1.3218578,1.4852822
-0.2,-0.2,0.6,-0.5235987755982988,0.34906585039886606,1.1102230246251565e-16,1.42509,1.6368601,0.39692596,0.10095293,0.089027464,0.4466771,0.81682205,-0.46647742,1.4835316,-0.24377756,-0.71474785,-0.17618565,1.3161702,1.400931
-0.2,-0.2,0.6,-0.5235987755982988,0.34906585039886606,1.1102230246251565e-16,1.4188048,1.6340599,0.39915323,0.09459675,0.10057967,0.45608643,0.82051146,-0.46029264,1.4869794,-0.2764518,-0.7171268,-0.15190424,1.3196869,1.4277296
-0.2,-0.2,0.6,-0.5235987755982988,0.34906585039886606,1.1102230246251565e-16,1.431973,1.63828,0.38983494,0.1057619,0.09894884,0.45624194,0.796323,-0.45804304,1.4853404,-0.24978635,-0.715367,-0.08096498,1.321435,1.5369878
-0.2,-0.2,0.6,-0.5235987755982988,0.34906585039886606,1.1102230246251565e-16,1.424422,1.6401945,0.39435503,0.118101545,0.095510624,0.43821675,0.8032739,-0.4608062,1.4851289,-0.2599952,-0.7111696,-0.15627089,1.3273907,1.4719293
-0.2,-0.2,0.6,-0.5235987755982988,0.34906585039886606,1.1102230246251565e-16,1.4267682,1.6465813,0.39605093,0.09466138,0.088268824,0.45378384,0.85969657,-0.4667073,1.4839526,-0.24991985,-0.71220726,-0.07493629,1.3249955,1.4382936
-0.2,-0.2,0.6,-0.5235987755982988,0.34906585039886606,1.1102230246251565e-16,1.4216207,1.6319402,0.38846073,0.10299498,0.102513775,0.44961825,0.8481931,-0.4575709,1.483244,-0.25647792,-0.7120546,-0.12191488,1.3146881,1.3936739
-0.2,-0.2,0.6,-0.5235987755982988,0.34906585039886606,1.1102230246251565e-16,1.4153816,1.647028,0.3958571,0.09926332,0.102172054,0.45427987,0.81533825,-0.4581795,1.4825363,-0.22524051,-0.71623147,-0.14472139,1.3196927,1.3800715
-0.2,-0.2,0.6,-0.5235987755982988,0.34906585039886606,1.1102230246251565e-16,1.4190443,1.6473304,0.39699462,0.09943371,0.0895032,0.46028885,0.81731653,-0.45800722,1.4856602,-0.2525952,-0.7095532,-0.10678797,1.3232254,1.4816422
-0.2,-0.2,0.6,-0.5235987755982988,0.34906585039886606,1.1102230246251565e-16,1.422638,1.6427026,0.39929846,0.10005825,0.10070585,0.44571927,0.7972678,-0.46111986,1.485354,-0.2705494,-0.7166985,-0.07062655,1.3187355,1.4954387
-0.2,-0.2,0.6,-0.5235987755982988,0.34906585039886606,1.1102230246251565e-16,1.4210436,1.6405747,0.39683065,0.10472276,0.08151159,0.45672327,0.8006683,-0.45090976,1.4840639,-0.25683174,-0.71395814,-0.10772325,1.322924,1.3378253
-0.2,-0.2,0.6,-0.5235987755982988,0.34906585039886606,1.1102230246251565e-16,1.418392,1.6302006,0.39353848,0.107440546,0.09406838,0.45775503,0.8053049,-0.45841363,1.4851489,-0.2512507,-0.71040493,-0.11253098,1.3202837,1.4902658
-0.2,-0.2,0.6,-0.5235987755982988,0.34906585039886606,1.1102230246251565e-16,1.4298381,1.6413743,0.39520642,0.09475667,0.089617595,0.45056865,0.84905857,-0.45158306,1.4874606,-0.25756407,-0.7153222,-0.19773053,1.3145041,1.3608935
-0.2,-0.2,0.6,-0.5235987755982988,0.34906585039886606,1.1102230246251565e-16,1.4257286,1.6487477,0.4034916,0.08716221,0.099212125,0.4428797,0.8389083,-0.46641293,1.4881394,-0.23615517,-0.71403974,-0.15248457,1.3243357,1.4076799
-0.2,-0.2,0.6,-0.5235987755982988,0.34906585039886606,1.1102230246251565e-16,1.4192983,1.63921,0.3935673,0.11007861,0.12020754,0.44529572,0.7801241,-0.46582848,1.4841847,-0.21915022,-0.7144069,-0.11359983,1.3278968,1.490531
-0.2,-0.2,0.6,-0.5235987755982988,0.34906585039886606,1.1102230246251565e-16,1.4196734,1.6427271,0.3869234,0.12168101,0.087899774,0.4534104,0.8241808,-0.47125554,1.4851679,-0.25919604,-0.7228635,-0.12945253,1.3245902,1.4585453
-0.2,-0.2,0.6,-0.5235987755982988,0.34906585039886606,1.1102230246251565e-16,1.4248608,1.6510667,0.39801604,0.10434633,0.09355241,0.4535411,0.80996495,-0.45397887,1.4849336,-0.2635,-0.70719606,-0.092347756,1.3215584,1.5074809
-0.2,-0.2,0.6,-0.5235987755982988,0.34906585039886606,1.1102230246251565e-16,1.4156367,1.6403807,0.39563307,0.10970491,0.102558576,0.45072293,0.8394813,-0.46177658,1.4852995,-0.25331616,-0.7122575,-0.1607521,1.3299696,1.523038
-0.2,-0.2,0.6,-0.5235987755982988,0.34906585039886606,1.1102230246251565e-16,1.4202766,1.6459423,0.3936267,0.09798151,0.09955987,0.4557533,0.81724626,-0.4550186,1.4848219,-0.26498964,-0.71333784,-0.10216978,1.314804,1.4148304
-0.2,-0.2,0.6,-0.5235987755982988,0.34906585039886606,1.1102230246251565e-16,1.4166232,1.6360166,0.3937751,0.10254266,0.095926024,0.46032372,0.83234876,-0.46337104,1.485764,-0.25451854,-0.71570534,-0.07890009,1.3188685,1.415707
-0.2,-0.2,0.6,-0.5235987755982988,0.34906585039886606,1.1102230246251565e-16,1.421524,1.6361926,0.39867774,0.09904458,0.09823236,0.45323426,0.7958093,-0.4542562,1.4826334,-0.24285658,-0.7207683,-0.06943319,1.3233212,1.4346272
-0.2,-0.2,0.6,-0.5235987755982988,0.34906585039886606,1.1102230246251565e-16,1.417908,1.6364776,0.39498353,0.1042723,0.10540432,0.44761875,0.8129772,-0.4588882,1.4859755,-0.24869353,-0.71133333,-0.12588222,1.3200303,1.5428189
-0.2,-0.2,0.6,-0.5235987755982988,0.34906585039886606,1.1102230246251565e-16,1.4217322,1.6369765,0.4029342,0.10939782,0.093301825,0.45474017,0.7915127,-0.46223596,1.4853091,-0.27871644,-0.7161792,-0.10597202,1.3305606,1.4768246
-0.2,-0.2,0.6,-0.5235987755982988,0.34906585039886606,1.1102230246251565e-16,1.4245218,1.6304547,0.39830413,0.10245603,0.099740885,0.44865638,0.8143297,-0.461432,1.4876664,-0.25404903,-0.71733975,-0.14858513,1.3263701,1.4234501
-0.2,-0.2,0.6,-0.5235987755982988,0.34906585039886606,1.1102230246251565e-16,1.419035,1.6383737,0.39529088,0.09930976,0.099078655,0.46189994,0.7995101,-0.4661934,1.4815128,-0.24137302,-0.7183521,-0.09590439,1.3250204,1.4939291
-0.2,-0.2,0.6,-0.5235987755982988,0.34906585039886606,1.1102230246251565e-16,1.4248879,1.6434376,0.39231253,0.100395516,0.09699054,0.4589258,0.82395875,-0.4724775,1.480295,-0.27305117,-0.7198915,-0.14057226,1.3234755,1.3609688
-0.2,-0.2,0.6,-0.5235987755982988,0.34906585039886606,1.1102230246251565e-16,1.4225426,1.6344247,0.39409965,0.10721657,0.09132884,0.45411393,0.7935623,-0.45804036,1.4823067,-0.23164085,-0.71223176,-0.15573516,1.31596,1.4296857
-0.2,-0.2,0.6,-0.5235987755982988,0.34906585039886606,1.1102230246251565e-16,1.4173014,1.642245,0.39318955,0.107631125,0.10759309,0.44065067,0.81314653,-0.45498538,1.4860008,-0.22398303,-0.7151624,-0.1458302,1.3196619,1.4086597
-0.2,-0.2,0.6,-0.5235987755982988,0.34906585039886606,1.1102230246251565e-16,1.4303573,1.6447014,0.39359772,0.10768135,0.090943374,0.44441092,0.81539553,-0.46479797,1.4855784,-0.27731925,-0.71554506,-0.13479662,1.3220644,1.4313699
-0.2,-0.2,0.6,-0.5235987755982988,0.34906585039886606,1.1102230246251565e-16,1.4173101,1.6442983,0.4043422,0.10461367,0.087610245,0.46092424,0.8111296,-0.4643381,1.4816289,-0.24886267,-0.70825565,-0.095801815,1.3303269,1.3476297
-0.2,-0.2,0.6,-0.5235987755982988,0.34906585039886606,1.1102230246251565e-16,1.419461,1.6381713,0.39361468,0.10739644,0.082103446,0.46569675,0.80520105,-0.4517146,1.4815516,-0.2538272,-0.72032785,-0.16345336,1.3210393,1.4298098
-0.2,-0.2,0.6,-0.5235987755982988,0.34906585039886606,1.1102230246251565e-16,1.4213953,1.638451,0.38896126,0.1027098,0.09532195,0.45517144,0.83663595,-0.46384594,1.4823048,-0.26217398,-0.71578455,-0.13180895,1.3139542,1.3973857
-0.2,-0.2,0.6,-0.5235987755982988,0.34906585039886606,1.1102230246251565e-16,1.4220911,1.6442206,0.40006658,0.107109316,0.094152264,0.43997344,0.8172213,-0.4545983,1.4864165,-0.2489919,-0.7122116,-0.13228193,1.326406,1.4805739
-0.2,-0.2,0.6,-0.5235987755982988,0.34906585039886606,1.1102230246251565e-16,1.4124365,1.6311158,0.39032748,0.10108663,0.09100391,0.4615487,0.8467423,-0.44276628,1.4862883,-0.2464115,-0.7158695,-0.10445618,1.3216324,1.5121152
-0.2,-0.2,0.6,-0.5235987755982988,0.34906585039886606,1.1102230246251565e-16,1.4145868,1.6453536,0.39477357,0.10252168,0.08912438,0.46080753,0.8223424,-0.46317083,1.4849471,-0.26878247,-0.7201752,-0.0894574,1.3205594,1.5051385
-0.2,-0.2,0.6,-0.5235987755982988,0.34906585039886606,1.1102230246251565e-16,1.4341376,1.640176,0.3909213,0.105741,0.102037296,0.4557353,0.83019173,-0.4556196,1.4848903,-0.27054888,-0.71564937,-0.17888592,1.3279935,1.4002633
-0.2,-0.2,0.6,-0.5235987755982988,0.34906585039886606,1.1102230246251565e-16,1.4283851,1.638843,0.39249626,0.106160074,0.09579545,0.45282686,0.826649,-0.46586496,1.4864302,-0.2529006,-0.71753746,-0.13358289,1.3188115,1.4411312
-0.2,-0.2,0.6,-0.5235987755982988,0.34906585039886606,1.1102230246251565e-16,1.421419,1.6516154,0.38993055,0.108472444,0.09373093,0.45296997,0.83931446,-0.4567275,1.4834988,-0.23986837,-0.7139281,-0.1449391,1.318536,1.4307303
-0.2,-0.2,0.6,-0.5235987755982988,0.34906585039886606,1.1102230246251565e-16,1.4273219,1.6483322,0.39418387,0.093880646,0.10687104,0.45787895,0.8460067,-0.457533,1.4850335,-0.2571794,-0.71258456,-0.073660426,1.3192474,1.3954393
-0.2,-0.2,0.6,-0.5235987755982988,0.34906585039886606,1.1102230246251565e-16,1.4265285,1.6381288,0.39388534,0.10304287,0.08575904,0.45786464,0.814255,-0.46199733,1.4851369,-0.24414062,-0.71493006,-0.15110813,1.3170379,1.3848413
-0.2,-0.2,0.6,-0.5235987755982988,0.34906585039886606,1.1102230246251565e-16,1.4258066,1.6493013,0.39431107,0.10457228,0.104455315,0.45491135,0.8312371,-0.4720506,1.4819283,-0.24335931,-0.71467626,-0.15990125,1.3209798,1.4608927
-0.2,-0.2,0.6,-0.5235987755982988,0.34906585039886606,1.1102230246251565e-16,1.4181186,1.6318316,0.39513773,0.106921874,0.08726683,0.44641298,0.8294067,-0.45599538,1.4839548,-0.267839,-0.71648777,-0.11653702,1.3150529,1.4947169
-0.2,-0.2,0.6,-0.5235987755982988,0.34906585039886606,1.1102230246251565e-16,1.425209,1.6329802,0.39751178,0.1070989,0.09205221,0.44176355,0.8124697,-0.4578286,1.4852533,-0.26413932,-0.7126355,-0.09583845,1.3191032,1.4693308
-0.2,-0.2,0.6,-0.5235987755982988,0.34906585039886606,1.1102230246251565e-16,1.4314705,1.6293483,0.39129937,0.099134475,0.09091621,0.47162336,0.83263993,-0.4633654,1.4833395,-0.26804924,-0.7106494,-0.11528844,1.3165618,1.4312896
-0.2,-0.2,0.6,-0.5235987755982988,0.34906585039886606,1.1102230246251565e-16,1.4188813,1.6433336,0.40120107,0.09773851,0.117190465,0.44499096,0.82179147,-0.45863724,1.485994,-0.2694726,-0.7135869,-0.12200833,1.3312159,1.4169443
-0.2,-0.2,0.6,-0.5235987755982988,0.34906585039886606,1.1102230246251565e-16,1.4216387,1.6356033,0.39460275,0.1012831,0.10665598,0.4445183,0.84611267,-0.46170264,1.4844815,-0.25909185,-0.7160818,-0.15777916,1.3176508,1.510559
-0.2,-0.2,0.6,-0.5235987755982988,0.34906585039886606,1.1102230246251565e-16,1.4196138,1.6459416,0.39260134,0.10055027,0.092170656,0.4630027,0.83058214,-0.45160735,1.4849867,-0.24569623,-0.7156256,-0.107482724,1.3184575,1.4528133
-0.2,-0.2,0.6,-0.5235987755982988,0.34906585039886606,1.1102230246251565e-16,1.4338052,1.6481434,0.39431196,0.10922324,0.07414214,0.4540531,0.79388916,-0.45065737,1.4886842,-0.23706625,-0.716545,-0.13840418,1.3198049,1.4486778
-0.2,-0.2,0.6,-0.5235987755982988,0.34906585039886606,1.1102230246251565e-16,1.4238902,1.6484014,0.39431185,0.10400891,0.0909918,0.4413622,0.85565186,-0.45589766,1.4873891,-0.26334563,-0.71657753,-0.15261327,1.3153147,1.3826538
-0.2,-0.2,0.6,-0.5235987755982988,0.34906585039886606,1.1102230246251565e-16,1.4118454,1.6307951,0.39565593,0.098036624,0.089915626,0.44419137,0.87381494,-0.45963842,1.4842795,-0.23711278,-0.71250975,-0.16642876,1.3195488,1.3507177
-0.2,-0.2,0.6,-0.5235987755982988,0.34906585039886606,1.1102230246251565e-16,1.4159985,1.6348258,0.3913694,0.10353913,0.10440444,0.45673442,0.826246,-0.46517196,1.4816116,-0.25677332,-0.7117497,-0.112572275,1.3226353,1.487773
-0.2,-0.2,0.6,-0.5235987755982988,0.34906585039886606,1.1102230246251565e-16,1.4236158,1.6411912,0.38879266,0.10716034,0.100158416,0.45541558,0.7995121,-0.45743918,1.4857011,-0.25231302,-0.71990585,-0.12816931,1.3217678,1.396242
-0.2,-0.2,0.6,-0.5235987755982988,0.34906585039886606,1.1102230246251565e-16,1.4210207,1.6347024,0.39376915,0.10221805,0.085397415,0.46073163,0.81919354,-0.44542626,1.4840881,-0.25580144,-0.7131223,-0.15414834,1.3200754,1.4474214
-0.2,-0.2,0.6,-0.5235987755982988,0.34906585039886606,1.1102230246251565e-16,1.4195191,1.6266161,0.39440784,0.088649295,0.113407314,0.44419202,0.8543676,-0.45448866,1.48559,-0.26226145,-0.71330357,-0.08445528,1.3181634,1.5306863
-0.2,-0.2,0.6,-0.5235987755982988,0.34906585039886606,1.1102230246251565e-16,1.4222314,1.6405253,0.39271274,0.09632603,0.103840835,0.45486477,0.82186645,-0.46088424,1.4835291,-0.24764493,-0.71379256,-0.03796868,1.3196656,1.4746073
-0.2,-0.2,0.6,-0.5235987755982988,0.34906585039886606,1.1102230246251565e-16,1.4282843,1.6442009,0.3895114,0.10727246,0.10243964,0.44148368,0.8169713,-0.44906107,1.485372,-0.23860112,-0.71493334,-0.150463,1.3229569,1.4270511
-0.2,-0.2,0.6,-0.5235987755982988,0.34906585039886606,1.1102230246251565e-16,1.4112618,1.6466755,0.39404628,0.101997845,0.11483635,0.45345348,0.811753,-0.45925453,1.4814715,-0.23272656,-0.71334267,-0.16941616,1.3195864,1.3511845
-0.2,-0.2,0.6,-0.5235987755982988,0.34906585039886606,1.1102230246251565e-16,1.4156253,1.6408257,0.39127097,0.10406645,0.09841924,0.4624732,0.80417,-0.45729476,1.4841976,-0.27257887,-0.71779716,-0.17078237,1.3191594,1.536902
-0.2,-0.2,0.6,-0.5235987755982988,0.34906585039886606,1.1102230246251565e-16,1.433282,1.6338322,0.38991103,0.10865491,0.08940905,0.45078906,0.8217827,-0.4660983,1.4834318,-0.22352692,-0.71318626,-0.13452086,1.323876,1.4910576
-0.2,-0.2,0.6,-0.5235987755982988,0.34906585039886606,1.1102230246251565e-16,1.4243981,1.6258744,0.3944291,0.10562506,0.10705049,0.44562843,0.81268716,-0.46929252,1.4835833,-0.23252055,-0.7173786,-0.10227934,1.3261262,1.3917812
-0.2,-0.2,0.6,-0.5235987755982988,0.34906585039886606,1.1102230246251565e-16,1.4144953,1.6476916,0.3972342,0.09963551,0.10771364,0.4554241,0.8402306,-0.46213895,1.4839214,-0.24043441,-0.7116038,-0.1537869,1.3186854,1.290156
-0.2,-0.2,0.6,-0.5235987755982988,0.34906585039886606,1.1102230246251565e-16,1.4242855,1.6424664,0.39210153,0.10387484,0.0877748,0.46684957,0.82534057,-0.46537134,1.4846421,-0.27267373,-0.7129533,-0.14560944,1.3181087,1.3266491
-0.2,-0.2,0.6,-0.5235987755982988,0.34906585039886606,1.1102230246251565e-16,1.4304035,1.6500132,0.39226457,0.10373526,0.10267217,0.46268654,0.797833,-0.45775956,1.4832995,-0.27133068,-0.71085995,-0.09887141,1.3171068,1.3641059
-0.2,-0.2,0.6,-0.5235987755982988,0.34906585039886606,1.1102230246251565e-16,1.4187423,1.6317441,0.39447844,0.11515236,0.09627841,0.44485775,0.80917525,-0.45526335,1.4853325,-0.27698067,-0.71297485,-0.16101046,1.3227124,1.3351353
-0.2,-0.2,0.6,-0.5235987755982988,0.34906585039886606,1.1102230246251565e-16,1.4226494,1.6327763,0.39655045,0.093833216,0.09500204,0.46666533,0.8315156,-0.46255407,1.4857681,-0.23189268,-0.7148469,-0.17612736,1.328978,1.3706442
-0.2,-0.2,0.6,-0.5235987755982988,0.34906585039886606,1.1102230246251565e-16,1.4213619,1.638299,0.388333,0.11824564,0.08947137,0.45375502,0.8239305,-0.45878112,1.4862018,-0.2661604,-0.7112484,-0.15648186,1.3137211,1.5227057
-0.2,-0.2,0.6,-0.5235987755982988,0.34906585039886606,1.1102230246251565e-16,1.4285738,1.6326072,0.38716903,0.10360407,0.09644884,0.45110714,0.8507577,-0.46428758,1.48404,-0.24788883,-0.71793544,-0.15367362,1.3214492,1.3860817
-0.2,-0.2,0.6,-0.5235987755982988,0.34906585039886606,1.1102230246251565e-16,1.4182234,1.6424043,0.39391652,0.0890977,0.109273806,0.45763972,0.8358242,-0.460968,1.4831226,-0.24910693,-0.7180083,-0.14694333,1.3207009,1.4457071
-0.2,-0.2,0.6,-0.5235987755982988,0.34906585039886606,1.1102230246251565e-16,1.4256506,1.6398884,0.39082935,0.10442992,0.094681606,0.44853368,0.83203965,-0.4645577,1.4835087,-0.217376,-0.7141877,-0.0976627,1.3220874,1.4444858
-0.2,-0.2,0.6,-0.5235987755982988,0.34906585039886606,1.1102230246251565e-16,1.4285666,1.6521484,0.3905554,0.10728785,0.117846385,0.45668203,0.83010864,-0.45927715,1.4837897,-0.25744432,-0.70859677,-0.11582077,1.3265657,1.5098296
-0.2,-0.2,0.6,-0.5235987755982988,0.34906585039886606,1.1102230246251565e-16,1.4184616,1.6290591,0.39449468,0.09500904,0.09650264,0.45719552,0.82218546,-0.46417445,1.483271,-0.22423135,-0.7185899,-0.114019416,1.3294734,1.3498816
-0.2,-0.2,0.6,-0.5235987755982988,0.34906585039886606,1.1102230246251565e-16,1.4237992,1.6327794,0.39082205,0.102546565,0.09989255,0.45072687,0.8195369,-0.46431246,1.4804163,-0.254904,-0.7163517,-0.09998749,1.3260334,1.4323318
-0.2,-0.2,0.6,-0.5235987755982988,0.34906585039886606,1.1102230246251565e-16,1.4275662,1.6337332,0.39532268,0.10702657,0.09232022,0.45395744,0.7960538,-0.4607085,1.4850053,-0.25619334,-0.7134429,-0.09994522,1.3188026,1.4483321
-0.2,-0.2,0.6,-0.5235987755982988,0.34906585039886606,1.1102230246251565e-16,1.4184674,1.6340908,0.39232954,0.10449788,0.10650583,0.44748572,0.8177768,-0.4552857,1.4861727,-0.2738751,-0.7190687,-0.17081156,1.3174783,1.4706835
-0.2,-0.2,0.6,-0.5235987755982988,0.34906585039886606,1.1102230246251565e-16,1.4240084,1.6451848,0.39283052,0.10629827,0.106855944,0.4447596,0.8125325,-0.4613005,1.4846841,-0.2627039,-0.7142226,-0.12514809,1.3255167,1.4143492
-0.2,-0.2,0.6,-0.5235987755982988,0.34906585039886606,1.1102230246251565e-16,1.4324837,1.6373314,0.39434296,0.10119726,0.09269555,0.44646657,0.81768453,-0.46571076,1.4849119,-0.255386,-0.72024053,-0.06355016,1.3274204,1.4941515
-0.2,-0.2,0.6,-0.5235987755982988,0.34906585039886606,1.1102230246251565e-16,1.4309702,1.6369154,0.39022735,0.10437975,0.09675197,0.45404574,0.8045773,-0.46355557,1.483061,-0.23856911,-0.7165483,-0.09757898,1.3205446,1.4107034
-0.2,-0.2,0.6,-0.5235987755982988,0.34906585039886606,1.1102230246251565e-16,1.4151788,1.6443665,0.3913571,0.1119441,0.105464876,0.44975063,0.82450706,-0.4659241,1.4842187,-0.25251654,-0.71745396,-0.10583961,1.3270799,1.383364
-0.2,-0.2,0.6,-0.5235987755982988,0.34906585039886606,1.1102230246251565e-16,1.42147,1.6453223,0.3939209,0.104187705,0.094849214,0.44456235,0.83631164,-0.45909446,1.4847791,-0.25123718,-0.7157262,-0.12914842,1.3222932,1.5623192
-0.2,-0.2,0.6,-0.5235987755982988,0.34906585039886606,1.1102230246251565e-16,1.4197105,1.6400379,0.39924666,0.105944514,0.09920023,0.44903648,0.82699287,-0.4644449,1.484412,-0.27183515,-0.71613145,-0.14714485,1.3234329,1.3900274
-0.2,-0.2,0.6,-0.5235987755982988,0.34906585039886606,1.1102230246251565e-16,1.4195791,1.62909,0.3924851,0.10213046,0.095663965,0.45266378,0.8283663,-0.4556699,1.484814,-0.25729278,-0.7161265,-0.12789662,1.3195829,1.4209712
-0.2,-0.2,0.6,-0.5235987755982988,0.34906585039886606,1.1102230246251565e-16,1.4179475,1.6363679,0.39608207,0.092123725,0.10858665,0.46008188,0.8110871,-0.46525076,1.4822501,-0.2531277,-0.71572596,-0.14267676,1.3219509,1.5703996
-0.2,-0.2,0.6,-0.5235987755982988,0.34906585039886606,1.1102230246251565e-16,1.4216186,1.6374509,0.39006475,0.11812855,0.08468083,0.45639336,0.85080624,-0.4629186,1.4833935,-0.2632699,-0.71578515,-0.21814033,1.3260679,1.3986123
-0.2,-0.2,0.6,-0.5235987755982988,0.34906585039886606,1.1102230246251565e-16,1.4270276,1.6338767,0.39302668,0.10494279,0.09802585,0.44929898,0.8174791,-0.45501098,1.486868,-0.2517947,-0.71150327,-0.17466226,1.3242928,1.3408914
-0.2,-0.2,0.6,-0.5235987755982988,0.34906585039886606,1.1102230246251565e-16,1.4205352,1.6262957,0.39091748,0.11755526,0.10536238,0.45614824,0.7672016,-0.46769866,1.4834901,-0.2569443,-0.7189725,-0.1337823,1.3246089,1.4919548
-0.2,-0.2,0.6,-0.5235987755982988,0.34906585039886606,1.1102230246251565e-16,1.4298589,1.6431277,0.39147288,0.10647618,0.09782996,0.44792026,0.81235147,-0.46707404,1.4834962,-0.23911673,-0.71947163,-0.10685212,1.3310118,1.5031533
-0.2,-0.2,0.6,-0.5235987755982988,0.34906585039886606,1.1102230246251565e-16,1.4137696,1.6454045,0.39429492,0.105990306,0.082706995,0.46704346,0.8192048,-0.4553895,1.4799068,-0.2556695,-0.7163502,-0.13244943,1.3174503,1.3013933
-0.2,-0.2,0.6,-0.5235987755982988,0.34906585039886606,1.1102230246251565e-16,1.4224972,1.6447425,0.38932857,0.10815485,0.102906786,0.44658026,0.82610697,-0.4577088,1.483196,-0.24873264,-0.7186887,-0.16531694,1.3222812,1.464596
-0.2,-0.2,0.6,-0.5235987755982988,0.34906585039886606,1.1102230246251565e-16,1.4124777,1.6451347,0.4033064,0.10173152,0.10407438,0.44358718,0.8321845,-0.4657513,1.4877878,-0.2532973,-0.7087933,-0.1253178,1.3210485,1.4762572
-0.2,-0.2,0.6,-0.5235987755982988,0.34906585039886606,1.1102230246251565e-16,1.4219112,1.6342149,0.39788684,0.09931458,0.10142972,0.46414065,0.77780485,-0.46520576,1.482808,-0.260488,-0.7196115,-0.12748739,1.3172419,1.2742412
-0.2,-0.2,0.6,-0.5235987755982988,0.34906585039886606,1.1102230246251565e-16,1.4288481,1.6401716,0.3938345,0.10541689,0.09444722,0.4568067,0.8226646,-0.46796784,1.4831486,-0.25993592,-0.7176144,-0.16850285,1.3251919,1.3627123
-0.2,-0.2,0.6,-0.5235987755982988,0.34906585039886606,1.1102230246251565e-16,1.4143124,1.6408942,0.38890484,0.10289978,0.11428627,0.46688214,0.8438319,-0.44557008,1.485078,-0.25255227,-0.718785,-0.13517115,1.3261565,1.4291686
-0.2,-0.2,0.6,-0.5235987755982988,0.34906585039886606,1.1102230246251565e-16,1.4282215,1.640417,0.39471218,0.09826916,0.09336685,0.44735643,0.8302576,-0.46772134,1.4834138,-0.27823496,-0.72138965,-0.14268476,1.3182898,1.5423223
-0.2,-0.2,0.6,-0.5235987755982988,0.34906585039886606,1.1102230246251565e-16,1.4227844,1.6455443,0.39539632,0.09541502,0.10058682,0.45885533,0.82057613,-0.4601091,1.481873,-0.23625435,-0.71427256,-0.113357276,1.3215435,1.501196
-0.2,-0.2,0.6,-0.5235987755982988,0.34906585039886606,1.1102230246251565e-16,1.4131316,1.6293348,0.39228934,0.104861856,0.09548203,0.4699722,0.7920859,-0.46478638,1.4805124,-0.267044,-0.7170045,-0.15982899,1.3181909,1.4204823
-0.2,-0.2,0.6,-0.5235987755982988,0.34906585039886606,1.1102230246251565e-16,1.4212587,1.6349945,0.39700967,0.10088106,0.09854823,0.45586738,0.7999237,-0.44953933,1.4832542,-0.2495244,-0.71459615,-0.1522685,1.3194488,1.4475132
-0.2,-0.2,0.6,-0.5235987755982988,0.34906585039886606,1.1102230246251565e-16,1.4229352,1.6473641,0.40168446,0.10357686,0.074792,0.45213678,0.85996956,-0.45978644,1.4855913,-0.27133512,-0.71531916,-0.15553375,1.3219137,1.3246933
-0.2,-0.2,0.6,-0.5235987755982988,0.34906585039886606,1.1102230246251565e-16,1.4151735,1.632914,0.39374456,0.11189095,0.1079234,0.43890873,0.79540163,-0.45395312,1.4848821,-0.24609977,-0.7132093,-0.0663878,1.3272417,1.4820548
-0.2,-0.2,0.6,-0.5235987755982988,0.34906585039886606,1.1102230246251565e-16,1.4284792,1.6409708,0.39453793,0.10375519,0.09005457,0.45736474,0.86030066,-0.45716,1.4858198,-0.2603557,-0.71358687,-0.16919336,1.3213149,1.3732104
-0.2,-0.2,0.6,-0.5235987755982988,0.34906585039886606,1.1102230246251565e-16,1.4259433,1.6477783,0.38812822,0.11405841,0.08473899,0.44827843,0.84964037,-0.45830512,1.4816251,-0.24672194,-0.723146,-0.16088699,1.3250873,1.4100211
-0.2,-0.2,0.6,-0.5235987755982988,0.34906585039886606,1.1102230246251565e-16,1.4158956,1.6390647,0.39645046,0.09952911,0.097706325,0.4460057,0.8318502,-0.45677757,1.4810544,-0.26884994,-0.71370524,-0.103844315,1.3226074,1.3609418
-0.2,-0.2,0.6,-0.5235987755982988,0.34906585039886606,1.1102230246251565e-16,1.4102314,1.6299728,0.39765927,0.098550506,0.0918307,0.44871604,0.8625721,-0.46906418,1.4831449,-0.24367295,-0.71910614,-0.07385756,1.3220605,1.3991667
-0.2,-0.2,0.6,-0.5235987755982988,0.34906585039886606,1.1102230246251565e-16,1.4148511,1.629525,0.38763794,0.11154969,0.10419969,0.45487976,0.8542296,-0.46560657,1.4852319,-0.261168,-0.7209171,-0.17078489,1.323583,1.5522906
-0.2,-0.2,0.6,-0.5235987755982988,0.34906585039886606,1.1102230246251565e-16,1.4253163,1.6454451,0.39797494,0.09532237,0.1052823,0.45241714,0.8012765,-0.45832542,1.4841071,-0.24685815,-0.71892947,-0.14776747,1.3233514,1.5190386
-0.2,-0.2,0.6,-0.5235987755982988,0.34906585039886606,1.1102230246251565e-16,1.4257358,1.6323886,0.39027113,0.09597694,0.10275179,0.45376056,0.8418895,-0.46007618,1.4858731,-0.24184711,-0.72073555,-0.15291403,1.3236197,1.4021883
-0.2,-0.2,0.6,-0.5235987755982988,0.34906585039886606,1.1102230246251565e-16,1.4278361,1.6467254,0.3892791,0.10739074,0.09392289,0.4475461,0.84005195,-0.46362734,1.4818262,-0.25859883,-0.7214447,-0.096957095,1.3314558,1.4159958
-0.2,-0.2,0.6,-0.5235987755982988,0.34906585039886606,1.1102230246251565e-16,1.4159279,1.6378933,0.3952571,0.11826567,0.09789853,0.44607013,0.7772949,-0.45512766,1.4852726,-0.24188149,-0.7096613,-0.17758669,1.3219023,1.315447
-0.2,-0.2,0.6,-0.5235987755982988,0.34906585039886606,1.1102230246251565e-16,1.4149826,1.6512539,0.39800826,0.10972094,0.09726417,0.45978338,0.7767976,-0.45571035,1.4831736,-0.25606668,-0.7149672,-0.13036036,1.323923,1.3519914
-0.2,-0.2,0.6,-0.5235987755982988,0.34906585039886606,1.1102230246251565e-16,1.4158388,1.6379377,0.39383906,0.1032631,0.1008117,0.45144424,0.8164531,-0.4593954,1.484087,-0.241753,-0.7144142,-0.15702885,1.3240103,1.4311271
-0.2,-0.2,0.6,-0.5235987755982988,0.34906585039886606,1.1102230246251565e-16,1.4250218,1.6493363,0.39271897,0.10258301,0.10303035,0.45139495,0.81840986,-0.46563652,1.4819915,-0.25154603,-0.72308064,-0.07946067,1.3266745,1.3777599
-0.2,-0.2,0.6,-0.5235987755982988,0.34906585039886606,1.1102230246251565e-16,1.4143909,1.6427938,0.3919986,0.10993616,0.10464074,0.44905877,0.8457543,-0.45738786,1.4842045,-0.26841852,-0.71705663,-0.11558168,1.3179682,1.3987535
-0.2,-0.2,0.6,-0.5235987755982988,0.34906585039886606,1.1102230246251565e-16,1.4226575,1.6397712,0.3969075,0.10256138,0.09699951,0.45745006,0.8120242,-0.46297646,1.4814591,-0.24963282,-0.7071389,-0.053663053,1.3219469,1.2758311
-0.2,-0.2,0.6,-0.5235987755982988,0.34906585039886606,1.1102230246251565e-16,1.4134525,1.6460255,0.399987,0.113342136,0.09916545,0.45956483,0.82877165,-0.45333967,1.4849942,-0.25515214,-0.71297216,-0.16324681,1.3303363,1.4144614
-0.2,-0.2,0.6,-0.5235987755982988,0.34906585039886606,1.1102230246251565e-16,1.4304527,1.6339327,0.3969706,0.10458917,0.09268021,0.45540658,0.8116256,-0.46710518,1.482974,-0.26908544,-0.71161264,-0.06511782,1.322303,1.3749909
-0.2,-0.2,0.6,-0.5235987755982988,0.34906585039886606,1.1102230246251565e-16,1.4286098,1.6098508,0.38680485,0.110391326,0.09199629,0.44749466,0.82497644,-0.4643648,1.4829708,-0.22390036,-0.7155187,-0.1435969,1.3254557,1.5054795
-0.2,-0.2,0.6,-0.5235987755982988,0.34906585039886606,1.1102230246251565e-16,1.4220973,1.6394459,0.39634827,0.10294782,0.103453055,0.45756382,0.78798413,-0.45729655,1.4812739,-0.26457548,-0.7141594,-0.12802821,1.3158705,1.454846
-0.2,-0.2,0.6,-0.5235987755982988,0.34906585039886606,1.1102230246251565e-16,1.4232776,1.6460463,0.39096498,0.101201266,0.10288549,0.4607294,0.77818215,-0.4731167,1.4819124,-0.25114202,-0.72463775,-0.12163452,1.3207338,1.3957863
-0.2,-0.2,0.6,-0.5235987755982988,0.34906585039886606,1.1102230246251565e-16,1.4303776,1.641466,0.39206827,0.10959839,0.08805536,0.44537932,0.8276516,-0.46679527,1.4825335,-0.2593795,-0.71445525,-0.13929385,1.3193325,1.4521784
-0.2,-0.2,0.6,-0.5235987755982988,0.34906585039886606,1.1102230246251565e-16,1.4277457,1.6339686,0.3908294,0.09361856,0.112335116,0.45986408,0.79001814,-0.46020436,1.4864837,-0.2496678,-0.71888685,-0.12724596,1.3213289,1.3714501
-0.2,-0.2,0.6,-0.5235987755982988,0.34906585039886606,1.1102230246251565e-16,1.4191198,1.634376,0.39593297,0.09722125,0.09171187,0.45717022,0.8301226,-0.46817794,1.4829254,-0.23916474,-0.71742225,-0.07808251,1.3282963,1.4546264
-0.2,-0.2,0.6,-0.5235987755982988,0.34906585039886606,1.1102230246251565e-16,1.4177518,1.6396896,0.3959642,0.10077567,0.09669239,0.46497083,0.8067012,-0.4597428,1.4855467,-0.25600642,-0.7171493,-0.15789445,1.3269861,1.570879
-0.2,-0.2,0.6,-0.5235987755982988,0.34906585039886606,1.1102230246251565e-16,1.4235132,1.6479939,0.38999015,0.10754402,0.10335306,0.45313683,0.81730616,-0.45574856,1.4806602,-0.2619363,-0.71529746,-0.14683172,1.3178955,1.3935118
-0.2,-0.2,0.6,-0.5235987755982988,0.34906585039886606,1.1102230246251565e-16,1.4184692,1.6422285,0.39291716,0.0983522,0.103032604,0.47235322,0.81021947,-0.45305744,1.4864198,-0.26006764,-0.71235996,-0.12960269,1.318664,1.5061884
-0.2,-0.2,0.6,-0.5235987755982988,0.34906585039886606,1.1102230246251565e-16,1.4252117,1.6498573,0.3947216,0.10153419,0.1068251,0.46276864,0.78848547,-0.46547407,1.4873536,-0.23189548,-0.7192597,-0.11754772,1.3276309,1.5068655
-0.2,-0.2,0.6,-0.5235987755982988,0.34906585039886606,1.1102230246251565e-16,1.4168583,1.6419054,0.39943013,0.1051358,0.07861415,0.44367093,0.83869755,-0.45785207,1.4839554,-0.26587787,-0.72259355,-0.19084626,1.3265038,1.4445004
-0.2,-0.2,0.6,-0.5235987755982988,0.34906585039886606,1.1102230246251565e-16,1.4156712,1.6469136,0.39926487,0.10692442,0.09073175,0.4582981,0.81636375,-0.46734554,1.4832892,-0.26745543,-0.7180453,-0.20538016,1.3211508,1.4203523
-0.2,-0.2,0.6,-0.5235987755982988,0.34906585039886606,1.1102230246251565e-16,1.4212631,1.6481619,0.39713454,0.10862966,0.09900126,0.44320127,0.8442324,-0.46683893,1.4853836,-0.26448038,-0.71000046,-0.12321687,1.3169482,1.5619396
-0.2,-0.2,0.6,-0.5235987755982988,0.34906585039886606,1.1102230246251565e-16,1.4147134,1.644378,0.39687878,0.09812558,0.11787678,0.44934905,0.8169154,-0.46176234,1.4826095,-0.25151673,-0.7178275,-0.14047344,1.3202144,1.3772093
-0.2,-0.2,0.6,-0.5235987755982988,0.34906585039886606,1.1102230246251565e-16,1.4252503,1.6370583,0.39491796,0.09926475,0.088590786,0.44715226,0.83517176,-0.47385854,1.4821818,-0.26589718,-0.72370225,-0.12122816,1.3258517,1.3785943
-0.2,-0.2,0.6,-0.5235987755982988,0.34906585039886606,1.1102230246251565e-16,1.4270024,1.6375185,0.38896772,0.10340626,0.09615117,0.45221618,0.81724006,-0.45451024,1.483973,-0.25295392,-0.7138435,-0.13792099,1.3230876,1.3811148
-0.2,-0.2,0.6,-0.5235987755982988,0.34906585039886606,1.1102230246251565e-16,1.4163549,1.6463784,0.39978576,0.10067717,0.10050913,0.45872784,0.8373661,-0.46000296,1.4879532,-0.2548416,-0.7144503,-0.15969557,1.3204042,1.5011061
-0.2,-0.2,0.6,-0.5235987755982988,0.34906585039886606,1.1102230246251565e-16,1.4239281,1.6434358,0.3913058,0.11153445,0.094998956,0.44613525,0.82673573,-0.4466325,1.4865515,-0.26026705,-0.7131769,-0.10037873,1.3213859,1.4480009
-0.2,-0.2,0.6,-0.5235987755982988,0.34906585039886606,1.1102230246251565e-16,1.422923,1.6526636,0.40182063,0.09392884,0.105623774,0.4488205,0.8019043,-0.46200475,1.4818177,-0.24180153,-0.71165305,-0.1089581,1.3226506,1.379808
-0.2,-0.2,0.6,-0.5235987755982988,0.34906585039886606,1.1102230246251565e-16,1.4300773,1.6282704,0.39619172,0.09992176,0.10056985,0.44121784,0.81535923,-0.45246837,1.4835256,-0.27319467,-0.71527535,-0.15138933,1.316502,1.3994075
-0.2,-0.2,0.6,-0.5235987755982988,0.34906585039886606,1.1102230246251565e-16,1.4191146,1.6479586,0.3927786,0.10224331,0.10254326,0.46695313,0.80509853,-0.45140383,1.4869437,-0.25522938,-0.71346337,-0.09926646,1.3194872,1.3768327
-0.2,-0.2,0.6,-0.5235987755982988,0.34906585039886606,1.1102230246251565e-16,1.4199325,1.6403242,0.3932045,0.11399972,0.0891507,0.45611808,0.84146655,-0.45577902,1.4865563,-0.24772573,-0.7131893,-0.1360167,1.3281034,1.4362026
-0.2,-0.2,0.6,-0.5235987755982988,0.34906585039886606,1.1102230246251565e-16,1.4284478,1.6341995,0.39381224,0.09949924,0.101465166,0.4587462,0.8015483,-0.47389904,1.4826214,-0.25215498,-0.71622664,-0.07230089,1.3203156,1.2912905
-0.2,-0.2,0.6,-0.5235987755982988,0.34906585039886606,1.1102230246251565e-16,1.415739,1.6328479,0.3980126,0.10156625,0.08899199,0.4471474,0.84461147,-0.4537413,1.487326,-0.2364604,-0.71784854,-0.13548054,1.3239051,1.3590546
-0.2,-0.2,0.6,-0.5235987755982988,0.34906585039886606,1.1102230246251565e-16,1.4174579,1.6490195,0.40372336,0.0958391,0.10636501,0.43879116,0.80628866,-0.46449986,1.4822195,-0.25274098,-0.7196353,-0.103386395,1.327431,1.41377
-0.2,-0.2,0.6,-0.5235987755982988,0.34906585039886606,1.1102230246251565e-16,1.4258515,1.6359258,0.39949223,0.09702079,0.100819744,0.45230097,0.8276831,-0.46054667,1.4823917,-0.26279315,-0.70961654,-0.15448388,1.3212444,1.498758
-0.2,-0.2,0.6,-0.5235987755982988,0.34906585039886606,1.1102230246251565e-16,1.4241647,1.6462439,0.39685065,0.09984568,0.1063238,0.4547293,0.78791654,-0.463353,1.4812278,-0.2317217,-0.7117781,-0.1041653,1.3201016,1.377253
-0.2,-0.2,0.6,-0.5235987755982988,0.34906585039886606,1.1102230246251565e-16,1.4283234,1.6445118,0.3849742,0.111440554,0.109104775,0.45793155,0.8092882,-0.45549357,1.4851702,-0.25136912,-0.7128554,-0.13313363,1.3203282,1.5274447
-0.2,-0.2,0.6,-0.5235987755982988,0.34906585039886606,1.1102230246251565e-16,1.4250792,1.6435204,0.390822,0.0943776,0.09470252,0.45227835,0.86854094,-0.46065712,1.4810367,-0.27378702,-0.71434385,-0.065873794,1.3220136,1.4670733
-0.2,-0.2,0.6,-0.5235987755982988,0.34906585039886606,1.1102230246251565e-16,1.4221439,1.6381222,0.3926282,0.10984533,0.08601648,0.4475577,0.8297417,-0.46074575,1.4836209,-0.23898955,-0.71430326,-0.12201086,1.3286444,1.4986134
-0.2,-0.2,0.6,-0.5235987755982988,0.34906585039886606,1.1102230246251565e-16,1.4242971,1.6265899,0.39217812,0.10079384,0.09981778,0.45259747,0.8218849,-0.455167,1.4843208,-0.23973785,-0.71355176,-0.072512746,1.3241991,1.4845353
-0.2,-0.2,0.6,-0.5235987755982988,0.34906585039886606,1.1102230246251565e-16,1.4103746,1.6412897,0.39685395,0.10448443,0.10104882,0.46009594,0.8075661,-0.4671636,1.4825512,-0.2672975,-0.7164417,-0.14029308,1.3169924,1.41107
-0.2,-0.2,0.6,-0.5235987755982988,0.34906585039886606,1.1102230246251565e-16,1.4190029,1.638686,0.39156184,0.10504575,0.100321926,0.44561198,0.8377909,-0.45602393,1.484831,-0.25571445,-0.72118217,-0.1765151,1.3275566,1.4117709
-0.2,-0.2,0.6,-0.5235987755982988,0.34906585039886606,1.1102230246251565e-16,1.4283861,1.6399057,0.39257708,0.11203327,0.10661076,0.44517076,0.802688,-0.45446423,1.486979,-0.24927516,-0.7142696,-0.19443129,1.3304402,1.465219
-0.2,-0.2,0.6,-0.5235987755982988,0.34906585039886606,1.1102230246251565e-16,1.4169723,1.6412503,0.38885167,0.11025508,0.10583127,0.45890576,0.8212224,-0.459009,1.4844989,-0.24970971,-0.71550936,-0.15827717,1.3234451,1.4531004
-0.2,-0.2,0.6,-0.5235987755982988,0.34906585039886606,1.1102230246251565e-16,1.4225104,1.6331763,0.3930488,0.103608705,0.10830466,0.45048606,0.8299729,-0.46395347,1.4817011,-0.26313305,-0.71797216,-0.15947604,1.3275205,1.4236218
-0.2,-0.2,0.6,-0.5235987755982988,0.34906585039886606,1.1102230246251565e-16,1.4242411,1.6347789,0.39438832,0.091393575,0.09456164,0.46349302,0.8464648,-0.4581989,1.4844989,-0.24446678,-0.7119268,-0.13313216,1.3293408,1.4605293
-0.2,-0.2,0.6,-0.5235987755982988,0.34906585039886606,1.1102230246251565e-16,1.4167864,1.6313214,0.3956031,0.10669509,0.10012927,0.45514265,0.8041131,-0.4532372,1.4826499,-0.26610225,-0.7209241,-0.11142972,1.3306401,1.4323416
-0.2,-0.2,0.6,-0.5235987755982988,0.34906585039886606,1.1102230246251565e-16,1.4224353,1.6320177,0.3914524,0.111294895,0.09871032,0.45735648,0.81570244,-0.46150059,1.4828198,-0.26698852,-0.71304834,-0.1431125,1.3195539,1.3405988
-0.2,-0.2,0.6,-0.5235987755982988,0.34906585039886606,1.1102230246251565e-16,1.4226305,1.636321,0.38912836,0.11077956,0.10527607,0.4556768,0.810741,-0.4574188,1.4851934,-0.2609731,-0.71839833,-0.0990519,1.3254687,1.5201207
-0.2,-0.2,0.6,-0.5235987755982988,0.34906585039886606,1.1102230246251565e-16,1.4244242,1.6397059,0.38953635,0.11644497,0.0938828,0.44052616,0.8260871,-0.45417047,1.4825945,-0.2512803,-0.7140778,-0.08516255,1.3252141,1.4533405
-0.2,-0.2,0.6,-0.5235987755982988,0.34906585039886606,1.1102230246251565e-16,1.4258503,1.6470673,0.3983813,0.097073875,0.10184602,0.44810167,0.8151826,-0.45696366,1.4854248,-0.25323138,-0.71466875,-0.17446582,1.3202475,1.2943527
-0.2,-0.2,0.6,-0.5235987755982988,0.34906585039886606,1.1102230246251565e-16,1.4280398,1.6425296,0.3974584,0.09775014,0.10183601,0.45894876,0.81343037,-0.45776317,1.484751,-0.24067244,-0.71116745,-0.13130945,1.3257091,1.4588339
-0.2,-0.2,0.6,-0.5235987755982988,0.34906585039886606,1.1102230246251565e-16,1.4202712,1.6351594,0.396653,0.104503945,0.09387605,0.44550857,0.794032,-0.45836556,1.4861894,-0.25354245,-0.7214569,-0.17085436,1.3243952,1.3113648
-0.2,-0.2,0.6,-0.5235987755982988,0.34906585039886606,1.1102230246251565e-16,1.4177833,1.6465493,0.4027307,0.10105466,0.08562469,0.45526502,0.8088073,-0.46179292,1.4831606,-0.2601999,-0.7132784,-0.14543176,1.3182852,1.3630797
-0.2,-0.2,0.6,-0.5235987755982988,0.34906585039886606,1.1102230246251565e-16,1.4252527,1.6402367,0.39333618,0.10807001,0.091480866,0.45659733,0.8352862,-0.47804445,1.4854548,-0.25208545,-0.71736526,-0.20117794,1.3156561,1.4399695
-0.2,-0.2,0.6,-0.5235987755982988,0.34906585039886606,1.1102230246251565e-16,1.415923,1.6345787,0.4005608,0.11133385,0.083555594,0.447669,0.81454,-0.46069422,1.4845743,-0.25802273,-0.7151303,-0.07104128,1.3239671,1.3312137
-0.2,-0.2,0.6,-0.5235987755982988,0.34906585039886606,1.1102230246251565e-16,1.4273471,1.6323193,0.39785144,0.10828328,0.09177562,0.4518363,0.7959187,-0.46251777,1.4854294,-0.22350681,-0.71147525,-0.15761593,1.3216915,1.4460341
-0.2,-0.2,0.6,-0.5235987755982988,0.34906585039886606,1.1102230246251565e-16,1.4298623,1.6201198,0.39500582,0.106484026,0.099005595,0.43735096,0.8302353,-0.45673537,1.484238,-0.26526755,-0.7120295,-0.12453096,1.3187765,1.3357047
-0.2,-0.2,0.6,-0.5235987755982988,0.34906585039886606,1.1102230246251565e-16,1.4248394,1.6472131,0.38866037,0.11397057,0.09945219,0.45280457,0.8439361,-0.45702302,1.483862,-0.24098164,-0.7121061,-0.16260886,1.3223125,1.3410914
-0.2,-0.2,0.6,-0.5235987755982988,0.34906585039886606,1.1102230246251565e-16,1.430446,1.6378261,0.40001535,0.10379803,0.0942017,0.45483786,0.76225114,-0.4651255,1.4822613,-0.24676086,-0.7183735,-0.15251674,1.3260444,1.4859793
-0.2,-0.2,0.6,-0.5235987755982988,0.34906585039886606,1.1102230246251565e-16,1.4243678,1.6337886,0.39437407,0.10651681,0.09114493,0.45317522,0.8201474,-0.4562741,1.4835914,-0.26066262,-0.7130505,-0.14379436,1.3189958,1.4927388
-0.2,-0.2,0.6,-0.5235987755982988,0.34906585039886606,1.1102230246251565e-16,1.4279817,1.6392491,0.39304072,0.11218734,0.086699195,0.45176056,0.81672376,-0.46381968,1.4839019,-0.25683838,-0.7195908,-0.1402927,1.3270367,1.4189354
-0.2,-0.2,0.6,-0.5235987755982988,0.34906585039886606,1.1102230246251565e-16,1.4317435,1.6427888,0.39746198,0.09845723,0.09257752,0.44022232,0.8374391,-0.4584028,1.4831542,-0.25809148,-0.7145571,-0.085608356,1.3251747,1.4650937
-0.2,-0.2,0.6,-0.5235987755982988,0.34906585039886606,1.1102230246251565e-16,1.42241,1.6372129,0.40124348,0.11345179,0.088517055,0.44724178,0.7958857,-0.46673742,1.4860573,-0.2385777,-0.72097546,-0.11554228,1.3302957,1.420805
-0.2,-0.2,0.6,-0.5235987755982988,0.34906585039886606,1.1102230246251565e-16,1.4231068,1.6277877,0.39753038,0.09768981,0.11149514,0.4525439,0.8030231,-0.4592066,1.4835789,-0.23999283,-0.71983343,-0.16066898,1.329509,1.464557
