sanky1234/BimanualDexCatch/isaacgymenvs/cem_results/football_pose_-0.2_0.10000000000000003_1.1999999999999997_-0.5235987755982988_-0.5235987755982988_0_2025-05-25.csv
x,y,z,roll,pitch,yaw,robot1/joint1,robot1/joint2,robot1/joint3,robot1/joint4,robot1/joint5,robot1/joint6,robot1/joint7,robot2/joint1,robot2/joint2,robot2/joint3,robot2/joint4,robot2/joint5,robot2/joint6,robot2/joint7
-0.2,0.10000000000000003,1.1999999999999997,-0.5235987755982988,-0.5235987755982988,0,0.7467831,0.35852754,0.91264254,0.4367166,0.69467825,0.38139963,-0.007539145,-0.25563118,1.2483478,0.17007974,0.005946421,-0.63050354,-1.3968879,-0.355484
-0.2,0.10000000000000003,1.1999999999999997,-0.5235987755982988,-0.5235987755982988,0,0.7464338,0.3581225,0.9119546,0.4365276,0.6934717,0.38068208,0.0040417085,-0.01425577,1.2612565,0.14975202,-0.10126849,-0.061702263,-1.4480599,-1.6608552
-0.2,0.10000000000000003,1.1999999999999997,-0.5235987755982988,-0.5235987755982988,0,0.7465873,0.3572979,0.9141744,0.43636364,0.69341075,0.38101628,-0.014427205,-0.6016918,1.1491337,0.27339068,-0.009455823,-0.8992577,-1.4802482,-1.7474296
-0.2,0.10000000000000003,1.1999999999999997,-0.5235987755982988,-0.5235987755982988,0,0.7472372,0.358332,0.9125302,0.4363647,0.6929045,0.38342264,0.0020906231,0.055437136,1.1991483,-0.07317114,0.07758622,-1.724311,-1.4343908,-0.8013266
-0.2,0.10000000000000003,1.1999999999999997,-0.5235987755982988,-0.5235987755982988,0,0.74778587,0.35806507,0.91291976,0.43600038,0.6952099,0.38194576,-0.011370823,-0.24243738,1.1425587,0.10100624,-0.09905608,0.5346713,-1.4547862,-0.9515077
-0.2,0.10000000000000003,1.1999999999999997,-0.5235987755982988,-0.5235987755982988,0,0.7479962,0.3578411,0.91438586,0.43659732,0.6950949,0.3807172,-0.015496422,0.32471204,1.2622958,-0.048651304,0.04860858,-0.4221782,-1.4223589,-0.74891114
-0.2,0.10000000000000003,1.1999999999999997,-0.5235987755982988,-0.5235987755982988,0,0.7478274,0.35793352,0.9131922,0.43620488,0.69419265,0.38276947,-0.0042883647,-0.13233405,1.1138445,0.054665692,-0.10369349,-0.96904695,-1.4276248,-0.4073917
-0.2,0.10000000000000003,1.1999999999999997,-0.5235987755982988,-0.5235987755982988,0,0.7491577,0.3582071,0.9130686,0.43601987,0.69382304,0.38006625,-0.0098699415,-0.106226645,1.349685,-0.012802117,-0.20032252,-0.20826064,-1.4376814,-0.4622979
-0.2,0.10000000000000003,1.1999999999999997,-0.5235987755982988,-0.5235987755982988,0,0.7471794,0.35814095,0.914108,0.43655056,0.69324106,0.3826956,-0.006231846,0.0916492,1.4162184,-0.10463405,-0.11562653,0.666024,-1.417127,-0.5746979
-0.2,0.10000000000000003,1.1999999999999997,-0.5235987755982988,-0.5235987755982988,0,0.74651974,0.3584783,0.9120825,0.43684742,0.6930724,0.37992474,-0.021365015,-0.7585191,1.1408932,-0.17370357,-0.09692948,0.58810097,-1.4166801,0.58086616
-0.2,0.10000000000000003,1.1999999999999997,-0.5235987755982988,-0.5235987755982988,0,0.7457506,0.3574922,0.91274166,0.43670148,0.6935348,0.38334933,-0.00078400475,-0.19275984,1.1905556,-0.052534476,-0.13225935,-1.1706637,-1.4648038,0.12879701
-0.2,0.10000000000000003,1.1999999999999997,-0.5235987755982988,-0.5235987755982988,0,0.74647146,0.35782835,0.9133449,0.4366776,0.6932675,0.38422927,-0.015435699,-0.89650273,1.2306136,0.048534054,-0.0013686565,-0.5269978,-1.4166923,-0.6041637
-0.2,0.10000000000000003,1.1999999999999997,-0.5235987755982988,-0.5235987755982988,0,0.7465464,0.35788056,0.9121671,0.43638077,0.6943559,0.3823459,0.009928047,-0.502394,1.1245973,0.12587914,-0.0052600815,-0.99423784,-1.5045797,0.20309335
-0.2,0.10000000000000003,1.1999999999999997,-0.5235987755982988,-0.5235987755982988,0,0.74847335,0.35884383,0.9138359,0.43644634,0.69396585,0.38079205,-0.015596844,0.025016023,0.96831363,0.1931041,-0.023983274,0.06975138,-1.3695425,-0.24060887
-0.2,0.10000000000000003,1.1999999999999997,-0.5235987755982988,-0.5235987755982988,0,0.74609536,0.35848275,0.91354173,0.4364708,0.6923428,0.38276595,0.019297794,0.6104554,1.028867,-0.01175326,-0.1308863,0.66137654,-1.4047928,-1.0038689
-0.2,0.10000000000000003,1.1999999999999997,-0.5235987755982988,-0.5235987755982988,0,0.74750525,0.35792878,0.9131387,0.43631265,0.69352293,0.38167256,-0.0028654533,-0.094513394,1.1913816,0.039721567,-0.04101405,0.5939834,-1.4889885,-0.3744484
-0.2,0.10000000000000003,1.1999999999999997,-0.5235987755982988,-0.5235987755982988,0,0.74757415,0.35705176,0.91197306,0.43632972,0.69388884,0.3811334,-0.014979263,-0.5935861,1.319713,-0.0070690047,-0.13819562,-1.9757448,-1.3730017,0.20613936
-0.2,0.10000000000000003,1.1999999999999997,-0.5235987755982988,-0.5235987755982988,0,0.74733084,0.3583295,0.9130203,0.43656152,0.6946281,0.37899908,0.008280712,-0.49870783,1.311827,-0.27035233,0.010313818,-1.5880357,-1.348312,-0.33871874
-0.2,0.10000000000000003,1.1999999999999997,-0.5235987755982988,-0.5235987755982988,0,0.7457798,0.3579631,0.9132615,0.43631032,0.69403213,0.38070095,0.0078832675,0.013946703,1.1862861,0.07224898,-0.0073753167,-0.09836174,-1.4732119,0.5752945
-0.2,0.10000000000000003,1.1999999999999997,-0.5235987755982988,-0.5235987755982988,0,0.74684167,0.35868627,0.9124869,0.43623132,0.69414705,0.37994096,-0.01956701,0.40726194,1.2445704,-0.1015162,-0.14794508,-1.6130283,-1.4250036,1.2891021
-0.2,0.10000000000000003,1.1999999999999997,-0.5235987755982988,-0.5235987755982988,0,0.7468315,0.35808372,0.9141311,0.4365124,0.6942978,0.38101372,0.0091748,0.12426913,1.1574361,0.0014796961,-0.10803451,-0.8755025,-1.4171927,-1.8298496
-0.2,0.10000000000000003,1.1999999999999997,-0.5235987755982988,-0.5235987755982988,0,0.74680805,0.3584659,0.9134411,0.43660527,0.69359845,0.3815188,0.0053120814,-0.23265757,0.9569206,0.028270034,-0.12764777,-0.17977189,-1.4458047,-2.0511653
-0.2,0.10000000000000003,1.1999999999999997,-0.5235987755982988,-0.5235987755982988,0,0.74760896,0.35814342,0.91301006,0.43655655,0.6925614,0.3821423,-0.013146921,0.09145531,1.3300824,0.059566,0.026399229,-1.0739505,-1.5245595,-0.6242936
-0.2,0.10000000000000003,1.1999999999999997,-0.5235987755982988,-0.5235987755982988,0,0.74659437,0.35793468,0.9127525,0.43657672,0.69332093,0.3815848,-0.010256265,-0.024811702,1.1011395,0.26457456,-0.15649106,-1.7788287,-1.450817,-1.7558357
-0.2,0.10000000000000003,1.1999999999999997,-0.5235987755982988,-0.5235987755982988,0,0.7468088,0.35902345,0.9120354,0.43641692,0.6927389,0.3814129,0.0030920994,-0.46550643,1.3407239,-0.04292926,-0.13318092,-0.9241291,-1.4456635,0.15418519
-0.2,0.10000000000000003,1.1999999999999997,-0.5235987755982988,-0.5235987755982988,0,0.7469369,0.35790372,0.91315526,0.4369034,0.69357646,0.38238892,0.010105485,-0.27362135,1.0340896,0.055905133,-0.12709957,-0.72045046,-1.3822017,-1.3439257
-0.2,0.10000000000000003,1.1999999999999997,-0.5235987755982988,-0.5235987755982988,0,0.7472948,0.35825908,0.9121261,0.43614453,0.69338566,0.38265496,-0.0097072935,0.45543998,1.0670202,0.084950164,-0.0070047737,-0.02334899,-1.5168476,-0.005439637
-0.2,0.10000000000000003,1.1999999999999997,-0.5235987755982988,-0.5235987755982988,0,0.74607426,0.35860118,0.91319937,0.43641785,0.69478106,0.38448343,0.008999795,-0.5713669,1.1051029,-0.10562939,0.04628811,0.45616618,-1.4064596,0.10525446
-0.2,0.10000000000000003,1.1999999999999997,-0.5235987755982988,-0.5235987755982988,0,0.74752766,0.35762197,0.91292125,0.4364014,0.69262123,0.3868196,-0.0040176157,0.27516803,1.3338151,0.124364756,-0.10284197,-0.8606471,-1.4062204,0.49368
-0.2,0.10000000000000003,1.1999999999999997,-0.5235987755982988,-0.5235987755982988,0,0.7473219,0.35773668,0.9121406,0.43655318,0.69554424,0.3819841,0.008497068,-0.76805997,1.1301258,-0.01399922,-0.1675722,-0.9541181,-1.4397064,-1.3161589
-0.2,0.10000000000000003,1.1999999999999997,-0.5235987755982988,-0.5235987755982988,0,0.7476745,0.35777923,0.91387177,0.4364109,0.6950487,0.38629755,0.010003149,0.29085246,1.1924994,0.058614537,0.089082755,-0.6430408,-1.4116906,-0.90958613
-0.2,0.10000000000000003,1.1999999999999997,-0.5235987755982988,-0.5235987755982988,0,0.74603343,0.35769725,0.9134496,0.43644884,0.69399095,0.37970278,0.0021393057,-0.45198062,1.1163914,-0.16760418,-0.08643507,1.0565184,-1.468641,-0.4213843
-0.2,0.10000000000000003,1.1999999999999997,-0.5235987755982988,-0.5235987755982988,0,0.74693006,0.35741463,0.9135115,0.4366706,0.6937178,0.38299382,-0.012355422,0.7766709,1.0459402,-0.13591523,-0.08417032,-0.85720146,-1.4479413,-0.915738
-0.2,0.10000000000000003,1.1999999999999997,-0.5235987755982988,-0.5235987755982988,0,0.74715763,0.3573316,0.91403466,0.43628052,0.6940097,0.384706,0.01044487,0.24097818,1.0907278,-0.030807573,-0.0779758,-1.1333915,-1.3689536,-0.14091803
-0.2,0.10000000000000003,1.1999999999999997,-0.5235987755982988,-0.5235987755982988,0,0.7485844,0.35809186,0.9122721,0.43615732,0.69374573,0.38403168,0.004269415,-0.4951833,1.0961345,0.11957313,-0.14127453,-0.34687126,-1.4168316,-0.5645705
-0.2,0.10000000000000003,1.1999999999999997,-0.5235987755982988,-0.5235987755982988,0,0.74879485,0.3575856,0.9129338,0.43602204,0.69336873,0.38151988,-0.005097065,0.035304036,1.2370148,0.09314412,-0.055013053,-1.1023422,-1.4680951,0.09735246
-0.2,0.10000000000000003,1.1999999999999997,-0.5235987755982988,-0.5235987755982988,0,0.7480098,0.35848776,0.91312397,0.4365122,0.69252515,0.3856015,-0.013195967,0.0015328419,1.1063249,0.16374789,-0.16425084,0.0610566,-1.4080988,1.1150383
-0.2,0.10000000000000003,1.1999999999999997,-0.5235987755982988,-0.5235987755982988,0,0.7474247,0.3579999,0.9130884,0.43658778,0.69337755,0.3825902,0.0026305625,0.45900717,1.3290884,0.12413493,-0.020549387,-1.5427598,-1.4001617,-0.38609663
-0.2,0.10000000000000003,1.1999999999999997,-0.5235987755982988,-0.5235987755982988,0,0.747638,0.35857576,0.91165876,0.43627313,0.6927,0.3801067,-0.0015321032,-0.6053279,1.2334843,0.098894864,-0.060532566,0.48361823,-1.4793072,-0.5853712
-0.2,0.10000000000000003,1.1999999999999997,-0.5235987755982988,-0.5235987755982988,0,0.7475303,0.35797036,0.91202617,0.436587,0.69418436,0.38112828,0.007012518,-0.60330164,1.3338089,0.09641695,-0.028345142,-1.1726114,-1.4244431,-0.68019426
-0.2,0.10000000000000003,1.1999999999999997,-0.5235987755982988,-0.5235987755982988,0,0.74717927,0.3578696,0.9147902,0.43655923,0.6935599,0.37899405,0.00019633058,-0.6140358,1.0129014,0.09459582,0.02878588,-0.9388698,-1.4596591,0.78077173
-0.2,0.10000000000000003,1.1999999999999997,-0.5235987755982988,-0.5235987755982988,0,0.74726,0.35769814,0.9130523,0.43618968,0.6944135,0.38161597,-0.001981202,-0.15246607,1.239457,0.16691288,-0.0023383712,0.0033881145,-1.5090355,0.03717105
-0.2,0.10000000000000003,1.1999999999999997,-0.5235987755982988,-0.5235987755982988,0,0.7483048,0.35829893,0.91461724,0.4364252,0.69433135,0.38126075,-0.0062152413,-0.46064028,1.3090705,-0.07785858,-0.05621238,-0.28494242,-1.3469187,-0.5915663
-0.2,0.10000000000000003,1.1999999999999997,-0.5235987755982988,-0.5235987755982988,0,0.7477576,0.35760045,0.9131464,0.43642387,0.6938007,0.3809103,0.0056640627,-0.35468426,1.2691374,0.040200047,-0.05831297,1.1459278,-1.431191,-0.35752422
-0.2,0.10000000000000003,1.1999999999999997,-0.5235987755982988,-0.5235987755982988,0,0.7465863,0.35850096,0.91380656,0.43615165,0.6937611,0.38327175,-0.012134003,0.1593005,1.1855102,-0.19633374,-0.06944819,1.4531893,-1.3951163,-1.4290293
-0.2,0.10000000000000003,1.1999999999999997,-0.5235987755982988,-0.5235987755982988,0,0.74757856,0.35786763,0.91337883,0.4364267,0.69322056,0.37981206,-0.028603882,-0.7105786,1.2657373,-0.19607702,-0.13793686,-1.0109692,-1.4834666,1.4281733
-0.2,0.10000000000000003,1.1999999999999997,-0.5235987755982988,-0.5235987755982988,0,0.7464007,0.3576583,0.91378003,0.43618745,0.69394386,0.38448977,-0.007422901,-0.2545785,1.2713777,0.03117331,0.0076470175,2.079048,-1.4165312,-0.73068947
-0.2,0.10000000000000003,1.1999999999999997,-0.5235987755982988,-0.5235987755982988,0,0.7467387,0.3577602,0.9129947,0.4364567,0.69367284,0.3811006,-0.013193453,-0.33458924,1.1800299,-0.123455174,-0.074470535,-1.3902851,-1.4512463,-1.660715
-0.2,0.10000000000000003,1.1999999999999997,-0.5235987755982988,-0.5235987755982988,0,0.74763906,0.3569195,0.9120558,0.43653324,0.69434625,0.38165995,-0.006204777,0.058263272,1.1240561,0.082953304,-0.1636123,-1.933547,-1.3966465,-0.21767126
-0.2,0.10000000000000003,1.1999999999999997,-0.5235987755982988,-0.5235987755982988,0,0.7484445,0.35810688,0.913861,0.43624604,0.69358784,0.38578853,0.005925164,-0.16824508,1.117786,0.10415229,-0.10815404,-0.20071653,-1.4079981,-1.3418678
-0.2,0.10000000000000003,1.1999999999999997,-0.5235987755982988,-0.5235987755982988,0,0.74693394,0.3582878,0.91358566,0.43621695,0.6915349,0.3843561,-0.0009655162,-0.78094417,1.1323391,0.1805403,-0.0048378836,-1.7504957,-1.4117857,0.7568796
-0.2,0.10000000000000003,1.1999999999999997,-0.5235987755982988,-0.5235987755982988,0,0.7482723,0.35756257,0.91079086,0.43647462,0.69400585,0.38298815,-0.0037074056,-0.48740196,1.190044,-0.11114166,0.05164621,-1.566499,-1.4852992,-0.41884547
-0.2,0.10000000000000003,1.1999999999999997,-0.5235987755982988,-0.5235987755982988,0,0.74706584,0.35837364,0.9124303,0.4367064,0.69247276,0.38444918,0.011605593,0.16045429,1.2027571,0.058036588,-0.35642004,2.0747387,-1.4438288,-1.6469893
-0.2,0.10000000000000003,1.1999999999999997,-0.5235987755982988,-0.5235987755982988,0,0.7478418,0.35818124,0.91123456,0.4364755,0.6948392,0.3812008,-0.004940523,-0.14101577,1.2956517,-0.52476066,-0.15200466,-0.6866894,-1.444462,1.25852
-0.2,0.10000000000000003,1.1999999999999997,-0.5235987755982988,-0.5235987755982988,0,0.7469897,0.3578444,0.91312927,0.43672255,0.6930934,0.3794659,0.00074088475,-0.5340553,1.1560771,0.13631351,-0.113079205,1.0829136,-1.4248883,-0.8559402
-0.2,0.10000000000000003,1.1999999999999997,-0.5235987755982988,-0.5235987755982988,0,0.74704957,0.35844365,0.9135669,0.43634093,0.6935436,0.38365257,0.01803543,-0.04048322,1.3603408,-0.27272373,-0.09674573,-0.57335144,-1.4627749,-0.58700085
-0.2,0.10000000000000003,1.1999999999999997,-0.5235987755982988,-0.5235987755982988,0,0.7469118,0.35797444,0.91324514,0.43661627,0.6929655,0.3828681,0.006963569,0.117484845,1.2031797,0.07887467,-0.011770839,-1.1156311,-1.4416424,-0.6921232
-0.2,0.10000000000000003,1.1999999999999997,-0.5235987755982988,-0.5235987755982988,0,0.74846846,0.35818008,0.9129068,0.43646345,0.6925336,0.38463414,-0.011206592,-0.030421097,1.2300407,0.17068712,-0.09598619,-0.3325683,-1.3811431,-0.32461575
-0.2,0.10000000000000003,1.1999999999999997,-0.5235987755982988,-0.5235987755982988,0,0.7466913,0.35876632,0.91373324,0.43624538,0.69434524,0.3827556,-0.015912492,0.61171,1.3073238,0.04074708,-0.15445086,-1.004365,-1.4220916,-0.74317384
-0.2,0.10000000000000003,1.1999999999999997,-0.5235987755982988,-0.5235987755982988,0,0.7464423,0.35789895,0.9137571,0.4368045,0.6954086,0.38274196,-0.0065369075,-0.07397968,1.2356355,-0.123360924,-0.092835404,-0.16602902,-1.3912717,-0.5151195
-0.2,0.10000000000000003,1.1999999999999997,-0.5235987755982988,-0.5235987755982988,0,0.7469639,0.35796654,0.9123681,0.436545,0.6951722,0.38297638,-0.00048976246,0.007994175,1.0024004,0.0901947,-0.116585694,-0.11063412,-1.4443444,-0.40687072
-0.2,0.10000000000000003,1.1999999999999997,-0.5235987755982988,-0.5235987755982988,0,0.74617225,0.3583072,0.9129644,0.43663514,0.69494814,0.38279358,-0.010884789,-0.12139468,1.0663769,-0.029145416,-0.17805277,-0.702215,-1.5076956,0.44924638
-0.2,0.10000000000000003,1.1999999999999997,-0.5235987755982988,-0.5235987755982988,0,0.7465179,0.35812616,0.9123091,0.43653655,0.6938496,0.38243362,0.011762605,-0.039119396,1.0722358,0.2617432,-0.011700316,0.70813495,-1.4696752,-0.53475803
-0.2,0.10000000000000003,1.1999999999999997,-0.5235987755982988,-0.5235987755982988,0,0.74728405,0.35815153,0.91244376,0.4365206,0.6949059,0.3828329,0.0077606426,0.21466514,1.1538246,0.057423472,0.039677728,0.6918922,-1.3883181,-0.6367782
-0.2,0.10000000000000003,1.1999999999999997,-0.5235987755982988,-0.5235987755982988,0,0.747745,0.35885826,0.9136061,0.43642917,0.6943992,0.38204136,-0.010851563,0.9516624,1.317736,-0.047799394,0.04527689,-1.4822782,-1.4179837,1.3194716
-0.2,0.10000000000000003,1.1999999999999997,-0.5235987755982988,-0.5235987755982988,0,0.74757123,0.3585,0.911896,0.4365352,0.69361025,0.38153833,-0.002059126,-0.323995,1.3197938,0.20327958,0.0045055184,0.6691857,-1.5030371,-0.7447025
-0.2,0.10000000000000003,1.1999999999999997,-0.5235987755982988,-0.5235987755982988,0,0.74598753,0.35837397,0.9139384,0.43661627,0.6940714,0.3813949,-0.007723718,0.111991495,1.3499874,-0.0929534,-0.040553235,-0.21349593,-1.499197,0.59937394
-0.2,0.10000000000000003,1.1999999999999997,-0.5235987755982988,-0.5235987755982988,0,0.74850774,0.35819638,0.9128255,0.43607792,0.69414777,0.38441154,0.0019943905,0.21730788,1.0994446,0.16000555,-0.15407924,0.24934204,-1.4220208,0.7835908
-0.2,0.10000000000000003,1.1999999999999997,-0.5235987755982988,-0.5235987755982988,0,0.74738955,0.35810092,0.9128487,0.43645963,0.6941302,0.38347453,-0.007034704,-0.66291285,1.1237346,0.068840876,-0.1494948,0.3926635,-1.4530033,-0.5005008
-0.2,0.10000000000000003,1.1999999999999997,-0.5235987755982988,-0.5235987755982988,0,0.7468018,0.3587114,0.9133046,0.43626952,0.6944661,0.38661563,-0.014104906,-0.6832132,1.1780308,0.49318814,-0.24525104,1.0615239,-1.4423484,0.48496154
-0.2,0.10000000000000003,1.1999999999999997,-0.5235987755982988,-0.5235987755982988,0,0.7471784,0.35773596,0.9155533,0.4363073,0.69348836,0.38031706,-0.0098199,0.21752377,1.2031069,0.12110651,-0.045487493,0.38973865,-1.4634526,0.8895074
-0.2,0.10000000000000003,1.1999999999999997,-0.5235987755982988,-0.5235987755982988,0,0.7470328,0.3581702,0.9133551,0.4364609,0.69347745,0.3846084,-0.0045605167,0.69727546,1.1768726,0.0030881427,0.012485347,-0.34239694,-1.410238,0.53109235
-0.2,0.10000000000000003,1.1999999999999997,-0.5235987755982988,-0.5235987755982988,0,0.7478353,0.35755807,0.9126896,0.43634823,0.69506186,0.3835479,-0.020431316,-0.2835895,1.316425,-0.15784898,-0.17877695,-0.7734392,-1.4703978,-1.5103961
-0.2,0.10000000000000003,1.1999999999999997,-0.5235987755982988,-0.5235987755982988,0,0.7475987,0.3577191,0.9139569,0.43663347,0.6925079,0.38049752,-0.003949486,-0.20837116,1.2051635,0.116538025,-0.04126801,-0.6267642,-1.4562312,-0.6141853
-0.2,0.10000000000000003,1.1999999999999997,-0.5235987755982988,-0.5235987755982988,0,0.74814343,0.35891157,0.91217256,0.43639413,0.69421107,0.38403177,0.007781609,0.17631555,1.1495618,0.4146197,-0.024259344,0.04539007,-1.4112343,-0.046813272
-0.2,0.10000000000000003,1.1999999999999997,-0.5235987755982988,-0.5235987755982988,0,0.74607456,0.35843936,0.91408294,0.43635103,0.6929062,0.38147733,-0.0025553035,-0.5942063,1.1412917,0.04181736,-0.07835273,-1.5604959,-1.4473788,0.22479272
-0.2,0.10000000000000003,1.1999999999999997,-0.5235987755982988,-0.5235987755982988,0,0.74783003,0.35756314,0.91376156,0.43658286,0.69500375,0.38138276,-0.007370662,0.37956104,1.4033924,-0.12903681,-0.26677576,-1.4178604,-1.4912274,-0.87715906
-0.2,0.10000000000000003,1.1999999999999997,-0.5235987755982988,-0.5235987755982988,0,0.74582624,0.35907605,0.9140552,0.43674573,0.69259405,0.38472643,-0.01063373,-0.056081135,1.0890542,-0.15697652,-0.015444117,0.49991715,-1.392832,-1.0957747
-0.2,0.10000000000000003,1.1999999999999997,-0.5235987755982988,-0.5235987755982988,0,0.7468502,0.35874376,0.911939,0.43627253,0.69611585,0.38217872,-0.005289762,-0.18234266,1.2407726,0.13326605,0.018896924,-1.5587252,-1.4502438,0.56364983
-0.2,0.10000000000000003,1.1999999999999997,-0.5235987755982988,-0.5235987755982988,0,0.74804276,0.35825613,0.91289186,0.43651998,0.69374204,0.38341945,-0.0004228595,-0.7938187,1.167916,0.37751982,-0.033782605,-0.020990549,-1.4307748,-1.1333079
-0.2,0.10000000000000003,1.1999999999999997,-0.5235987755982988,-0.5235987755982988,0,0.74639547,0.35850838,0.91220015,0.43647304,0.6938953,0.38136598,0.005934121,0.6690867,1.3817692,0.00043066614,-0.065045595,-1.4696512,-1.5013198,0.16091755
-0.2,0.10000000000000003,1.1999999999999997,-0.5235987755982988,-0.5235987755982988,0,0.7472577,0.35832068,0.9138447,0.4366859,0.69439423,0.38312593,0.00394682,0.4602929,1.1504508,-0.4145299,-0.03634129,1.0408198,-1.3948646,-1.2977033
-0.2,0.10000000000000003,1.1999999999999997,-0.5235987755982988,-0.5235987755982988,0,0.74789727,0.3579575,0.9131182,0.4366537,0.69418466,0.38332573,-0.014573179,0.41947064,1.1765649,0.046005707,0.057802957,-0.14862701,-1.4208468,-1.2850573
-0.2,0.10000000000000003,1.1999999999999997,-0.5235987755982988,-0.5235987755982988,0,0.7479316,0.3576619,0.91136605,0.4367206,0.6927545,0.38251987,-0.018269332,0.646892,1.1299865,0.019451447,-0.061967835,1.4818987,-1.4495958,-0.5237489
-0.2,0.10000000000000003,1.1999999999999997,-0.5235987755982988,-0.5235987755982988,0,0.7458182,0.3586938,0.9129637,0.43692002,0.6943547,0.38380736,-0.0071846615,0.22129461,1.1226575,0.04917485,-0.09398598,-0.7488416,-1.4426271,-0.63171804
-0.2,0.10000000000000003,1.1999999999999997,-0.5235987755982988,-0.5235987755982988,0,0.7468699,0.35866913,0.9147124,0.43634823,0.69380933,0.38295692,-0.0019850407,-0.19443242,1.2302811,-0.0920678,-0.011726897,0.6599664,-1.4354068,-0.11533466
-0.2,0.10000000000000003,1.1999999999999997,-0.5235987755982988,-0.5235987755982988,0,0.7471171,0.3585678,0.91403544,0.4365159,0.6924378,0.38241237,-0.0009836818,-0.44151154,1.1661156,0.037925165,-0.039458416,0.6226015,-1.5373747,-1.010235
-0.2,0.10000000000000003,1.1999999999999997,-0.5235987755982988,-0.5235987755982988,0,0.74605954,0.35778475,0.91370684,0.4363742,0.6950675,0.38451383,-0.00073354936,-0.21410531,1.1956778,-0.1667469,0.034151074,-1.1059089,-1.4624356,0.17119075
-0.2,0.10000000000000003,1.1999999999999997,-0.5235987755982988,-0.5235987755982988,0,0.74675834,0.35760948,0.9125029,0.4363098,0.6938403,0.3827099,0.005743505,0.15756871,1.193757,0.01673792,-0.07311107,0.031628508,-1.4948887,-0.060131636
-0.2,0.10000000000000003,1.1999999999999997,-0.5235987755982988,-0.5235987755982988,0,0.74747014,0.35762808,0.9136573,0.436506,0.69369733,0.3838577,0.017048111,0.5135649,1.24853,0.18773824,-0.027921066,-1.2307992,-1.4340472,-1.0008825
-0.2,0.10000000000000003,1.1999999999999997,-0.5235987755982988,-0.5235987755982988,0,0.7473687,0.35852593,0.9140259,0.43667012,0.6943678,0.38341826,-0.0137547115,0.42392272,1.1993071,0.18850233,-0.031176558,-0.21746384,-1.383067,0.13928959
-0.2,0.10000000000000003,1.1999999999999997,-0.5235987755982988,-0.5235987755982988,0,0.7463728,0.35861892,0.91366076,0.43661565,0.69218445,0.38465485,-0.0009738802,-0.6607442,1.2711654,0.14346462,0.04811383,-0.75210893,-1.4549284,0.063884676
-0.2,0.10000000000000003,1.1999999999999997,-0.5235987755982988,-0.5235987755982988,0,0.7476057,0.3570113,0.91419065,0.436639,0.693461,0.38292387,0.0017640367,-0.7468804,1.3327398,-0.24782482,-0.033172205,-1.6850995,-1.4875009,-0.99090135
-0.2,0.10000000000000003,1.1999999999999997,-0.5235987755982988,-0.5235987755982988,0,0.74885213,0.35815173,0.9131773,0.43620467,0.6942824,0.38055402,-0.0027887446,0.5337247,1.1299834,0.19858344,-0.035452496,-0.3789392,-1.4720438,0.19692366
-0.2,0.10000000000000003,1.1999999999999997,-0.5235987755982988,-0.5235987755982988,0,0.7474414,0.35813797,0.91387135,0.43631938,0.6959868,0.38607332,-0.0071392925,-0.11745891,1.1694835,0.10973256,-0.056361727,0.07146604,-1.3626426,0.051381256
-0.2,0.10000000000000003,1.1999999999999997,-0.5235987755982988,-0.5235987755982988,0,0.7480115,0.3573294,0.912619,0.4365303,0.69392836,0.3835554,-0.0025416242,-0.05254965,1.0798448,-0.0018958456,-0.0023127138,-1.8239137,-1.416087,-1.5994773
-0.2,0.10000000000000003,1.1999999999999997,-0.5235987755982988,-0.5235987755982988,0,0.74818677,0.3577854,0.91403925,0.4364604,0.69316363,0.3799313,0.0031835497,-0.46759742,1.2343975,-0.017772555,-0.111713625,-0.861673,-1.440021,-1.199395
-0.2,0.10000000000000003,1.1999999999999997,-0.5235987755982988,-0.5235987755982988,0,0.74913514,0.35840616,0.9134366,0.4363006,0.6927211,0.37881294,-0.01047648,0.6430052,1.2125437,-0.0033452564,-0.09703145,1.3254747,-1.4011732,-0.5752827
-0.2,0.10000000000000003,1.1999999999999997,-0.5235987755982988,-0.5235987755982988,0,0.7465388,0.35849342,0.91443175,0.43640563,0.69347715,0.3831318,-0.010644244,-0.36121437,1.1726227,-0.09355931,0.020807192,-1.8055506,-1.3865784,0.61641014
-0.2,0.10000000000000003,1.1999999999999997,-0.5235987755982988,-0.5235987755982988,0,0.7466179,0.3582514,0.9139776,0.43638378,0.69371796,0.381221,0.004198329,0.5975367,1.2975452,-0.23040096,-0.16331664,-1.8805137,-1.4976056,-1.1118077
-0.2,0.10000000000000003,1.1999999999999997,-0.5235987755982988,-0.5235987755982988,0,0.74799395,0.35836026,0.9112911,0.43679875,0.6936225,0.3853928,0.00050461624,-0.41825414,1.1272467,0.065756686,0.055491384,-0.5504861,-1.4215924,0.62342536
-0.2,0.10000000000000003,1.1999999999999997,-0.5235987755982988,-0.5235987755982988,0,0.7477339,0.3576624,0.91482556,0.43647674,0.6928064,0.38384208,0.0034952373,0.22828716,1.0187502,-0.010142749,-0.084669076,-0.8773218,-1.4638213,-0.015678821
-0.2,0.10000000000000003,1.1999999999999997,-0.5235987755982988,-0.5235987755982988,0,0.7464253,0.35911027,0.91301864,0.4363676,0.6942353,0.380948,-0.022905199,0.24634685,1.1344621,0.07001225,-0.07420994,-0.95289326,-1.416115,-0.61518085
-0.2,0.10000000000000003,1.1999999999999997,-0.5235987755982988,-0.5235987755982988,0,0.74836266,0.3580148,0.9130217,0.4364958,0.6918746,0.38042518,-0.0126611255,-0.015570398,1.0454875,-0.04610004,0.018479446,-2.0077913,-1.5029002,-0.0003866025
-0.2,0.10000000000000003,1.1999999999999997,-0.5235987755982988,-0.5235987755982988,0,0.7468875,0.35852474,0.91385263,0.43645102,0.69513094,0.38298452,0.00079483626,-0.9018036,1.047584,-0.115718625,-0.033562683,-1.5753634,-1.4532738,-1.1190864
-0.2,0.10000000000000003,1.1999999999999997,-0.5235987755982988,-0.5235987755982988,0,0.74913275,0.35771656,0.9126236,0.43656275,0.69347125,0.38225198,-0.0066279834,-1.0113188,1.207162,0.14473678,-0.09050496,-0.34121498,-1.4717613,-1.6689295
-0.2,0.10000000000000003,1.1999999999999997,-0.5235987755982988,-0.5235987755982988,0,0.74715316,0.3595716,0.9124737,0.4364169,0.6931828,0.38415682,0.021098688,0.5158507,1.0965189,0.20338069,0.06613546,-1.1877979,-1.458357,0.14987685
-0.2,0.10000000000000003,1.1999999999999997,-0.5235987755982988,-0.5235987755982988,0,0.7465082,0.35854787,0.9131898,0.43658194,0.6925869,0.38129994,-0.01217765,-0.22819555,1.3034416,0.20303212,-0.14673239,-1.6841277,-1.4467448,-0.1230386
-0.2,0.10000000000000003,1.1999999999999997,-0.5235987755982988,-0.5235987755982988,0,0.746725,0.3580214,0.9136063,0.43702576,0.6936118,0.38340384,-0.016899686,-0.46952534,1.316341,-0.059285015,-0.07784274,-1.2111759,-1.3897215,0.11435599
-0.2,0.10000000000000003,1.1999999999999997,-0.5235987755982988,-0.5235987755982988,0,0.7472196,0.3588317,0.9132243,0.4364543,0.693056,0.38273272,-0.0012562779,-0.43889177,1.2731172,0.1846477,-0.13078812,-1.4211473,-1.3490282,0.5321677
-0.2,0.10000000000000003,1.1999999999999997,-0.5235987755982988,-0.5235987755982988,0,0.74686754,0.3585693,0.91169995,0.43675607,0.6936939,0.3828221,-0.01117469,0.007738027,1.3540558,0.17393993,-0.15948398,-2.266326,-1.3778592,-0.06840365
-0.2,0.10000000000000003,1.1999999999999997,-0.5235987755982988,-0.5235987755982988,0,0.7469849,0.35838893,0.9131632,0.43668368,0.69404656,0.3823361,-0.0041785208,0.21824484,1.4564886,-0.037326716,-0.13825473,0.7006102,-1.5514902,-0.6881514
-0.2,0.10000000000000003,1.1999999999999997,-0.5235987755982988,-0.5235987755982988,0,0.7479675,0.358266,0.91368586,0.43665946,0.69495195,0.38197654,-0.0015902256,0.5850499,1.1851317,0.009924993,0.0392418,0.7101872,-1.4377084,-1.2930506
-0.2,0.10000000000000003,1.1999999999999997,-0.5235987755982988,-0.5235987755982988,0,0.7470638,0.35855713,0.91458374,0.43651938,0.695301,0.38143176,-0.008886737,-0.16399047,1.2456836,0.100885145,-0.04500382,-0.49501845,-1.4707546,0.12586753
-0.2,0.10000000000000003,1.1999999999999997,-0.5235987755982988,-0.5235987755982988,0,0.74771255,0.3578438,0.9145864,0.43655726,0.69476485,0.38099593,-0.003414559,0.5194885,1.2403022,-0.15040095,-0.046293143,1.5010651,-1.4282624,-0.53669274
-0.2,0.10000000000000003,1.1999999999999997,-0.5235987755982988,-0.5235987755982988,0,0.7475023,0.3593391,0.9129895,0.43634656,0.6926113,0.38230255,-0.012222785,-0.5134908,1.2733209,0.12994817,-0.06254078,0.08359429,-1.474984,-0.46878877
-0.2,0.10000000000000003,1.1999999999999997,-0.5235987755982988,-0.5235987755982988,0,0.74747074,0.357821,0.91237706,0.43627784,0.69493115,0.38027334,-0.0041117086,0.0032388428,1.2004769,-0.20515317,0.0006540156,-2.661862,-1.3612947,0.09014695
-0.2,0.10000000000000003,1.1999999999999997,-0.5235987755982988,-0.5235987755982988,0,0.74891067,0.3579954,0.9125615,0.43664384,0.69528234,0.38215375,-0.007972099,-0.6191068,1.1797137,0.011953265,-0.18930806,0.20777392,-1.4284577,-0.22721992
-0.2,0.10000000000000003,1.1999999999999997,-0.5235987755982988,-0.5235987755982988,0,0.7477912,0.3586809,0.913505,0.43672207,0.6932593,0.38076544,-0.00473503,-0.41930783,1.0876313,-0.11913723,0.04826206,-0.73859125,-1.4655513,0.521917
-0.2,0.10000000000000003,1.1999999999999997,-0.5235987755982988,-0.5235987755982988,0,0.74919206,0.35849723,0.91330963,0.43665555,0.69431734,0.3832738,-0.015128718,-0.14478968,1.1393505,0.0042873467,-0.15448637,-0.2312318,-1.474723,-0.3972487
-0.2,0.10000000000000003,1.1999999999999997,-0.5235987755982988,-0.5235987755982988,0,0.74825454,0.35836574,0.91365933,0.43646687,0.69399893,0.3800557,-0.0033162243,0.3119123,1.1812446,0.17781796,-0.12755273,-2.265702,-1.4936024,0.13601173
-0.2,0.10000000000000003,1.1999999999999997,-0.5235987755982988,-0.5235987755982988,0,0.7477187,0.35799348,0.91217846,0.4368793,0.69444424,0.38032556,-0.007814252,-0.67462796,1.2354912,0.030919917,-0.10530993,-0.93411946,-1.4620115,0.35884866
-0.2,0.10000000000000003,1.1999999999999997,-0.5235987755982988,-0.5235987755982988,0,0.7466195,0.35869765,0.9103551,0.43622166,0.69149405,0.37992758,-0.010040997,-0.23627046,1.0197042,-0.28099248,-0.038308315,-1.3090045,-1.4110173,-0.24153446
-0.2,0.10000000000000003,1.1999999999999997,-0.5235987755982988,-0.5235987755982988,0,0.746209,0.35892,0.9125341,0.43648234,0.6941122,0.38015407,-0.0032361764,-0.59418476,1.1881378,-0.15980075,-0.119045,-2.6567693,-1.3806027,0.25356343
-0.2,0.10000000000000003,1.1999999999999997,-0.5235987755982988,-0.5235987755982988,0,0.74723303,0.35850373,0.91335326,0.43667614,0.69349617,0.38394508,-0.0045066774,-0.29667345,1.1624982,0.047247805,-0.17328145,-1.0817114,-1.5320797,-0.05257427
-0.2,0.10000000000000003,1.1999999999999997,-0.5235987755982988,-0.5235987755982988,0,0.7481495,0.35759664,0.91428506,0.4364816,0.69458884,0.38249585,-0.0047268695,0.5968599,1.1413124,0.2638441,-0.04282459,-2.4773433,-1.4446591,0.21988176
-0.2,0.10000000000000003,1.1999999999999997,-0.5235987755982988,-0.5235987755982988,0,0.7471683,0.359568,0.91284806,0.436566,0.6923726,0.38230258,0.0028184045,-0.34742144,1.1141776,-0.0042227227,-0.0834543,0.90135,-1.4435189,-0.85511756
-0.2,0.10000000000000003,1.1999999999999997,-0.5235987755982988,-0.5235987755982988,0,0.7471764,0.35902917,0.9137971,0.43640924,0.6960713,0.38078347,0.012258329,-0.921175,1.1192974,0.09142778,-0.051977135,1.688825,-1.4231131,-0.055998217
-0.2,0.10000000000000003,1.1999999999999997,-0.5235987755982988,-0.5235987755982988,0,0.7472687,0.35811043,0.9155814,0.43674242,0.6956739,0.38273415,-0.007804356,-0.44181466,1.1749003,0.007502453,-0.049030077,0.026680378,-1.4155818,-1.2084165
-0.2,0.10000000000000003,1.1999999999999997,-0.5235987755982988,-0.5235987755982988,0,0.74826056,0.35867745,0.9133413,0.4366069,0.69455165,0.38253367,0.0033188912,0.43135694,1.190492,0.23542507,-0.09233719,1.1382744,-1.4687395,1.2422006
-0.2,0.10000000000000003,1.1999999999999997,-0.5235987755982988,-0.5235987755982988,0,0.74839383,0.35924187,0.91228193,0.43643695,0.6941297,0.38260856,-0.015699007,-0.20369054,1.122503,-0.02462391,-0.049420998,-0.811564,-1.4663211,-0.28627422
-0.2,0.10000000000000003,1.1999999999999997,-0.5235987755982988,-0.5235987755982988,0,0.74757034,0.35908738,0.91387427,0.4367151,0.694003,0.38333473,0.0009946756,-0.12618536,1.2008518,-0.29094547,-0.14049636,0.63885635,-1.4340756,-0.4331995
-0.2,0.10000000000000003,1.1999999999999997,-0.5235987755982988,-0.5235987755982988,0,0.7490255,0.35886136,0.9133502,0.43651947,0.69416803,0.3830444,0.0034440218,-0.08982735,1.1323107,-0.074585296,-0.011126409,-0.64756167,-1.4861345,-0.25163308
-0.2,0.10000000000000003,1.1999999999999997,-0.5235987755982988,-0.5235987755982988,0,0.74837863,0.35866004,0.912995,0.43642047,0.69579864,0.38465217,-0.011595511,-0.08333829,1.0742426,-0.1273702,-0.16740224,-1.2749075,-1.4928844,-1.1784604
-0.2,0.10000000000000003,1.1999999999999997,-0.5235987755982988,-0.5235987755982988,0,0.74865395,0.3588171,0.9134516,0.436643,0.6925157,0.38281867,0.0014449946,-0.3499837,1.1393205,0.0018029318,-0.15046544,-1.0948946,-1.4706908,-0.106597185
-0.2,0.10000000000000003,1.1999999999999997,-0.5235987755982988,-0.5235987755982988,0,0.7467737,0.35736707,0.9129268,0.43637636,0.6962341,0.38013476,-0.010023778,-0.40373063,1.2717519,-0.15673669,-0.121048465,-1.2096,-1.4964879,-1.6174979
-0.2,0.10000000000000003,1.1999999999999997,-0.5235987755982988,-0.5235987755982988,0,0.74789214,0.35852057,0.9130898,0.43668154,0.6940882,0.38310406,-0.001202252,0.06615617,1.1700753,0.056649316,-0.040898573,-2.2808716,-1.4796356,-1.6183252
-0.2,0.10000000000000003,1.1999999999999997,-0.5235987755982988,-0.5235987755982988,0,0.74612546,0.3576393,0.9140534,0.4363655,0.6920451,0.38004395,0.0020198068,0.8094626,1.238257,0.018204018,0.0013182806,-0.688065,-1.3772866,-0.0033485924
-0.2,0.10000000000000003,1.1999999999999997,-0.5235987755982988,-0.5235987755982988,0,0.7450736,0.35795194,0.91401803,0.4362792,0.69239837,0.38053843,-0.012780368,-0.081828475,1.2084022,0.14846434,-0.19047217,-0.19915903,-1.4513125,0.27710283
-0.2,0.10000000000000003,1.1999999999999997,-0.5235987755982988,-0.5235987755982988,0,0.7464695,0.35752913,0.9135251,0.43617332,0.6923781,0.3806516,-0.014895733,-0.72458804,1.0649171,-0.1732798,-0.06625647,-0.6855387,-1.4403784,-0.004625003
-0.2,0.10000000000000003,1.1999999999999997,-0.5235987755982988,-0.5235987755982988,0,0.7455656,0.3577857,0.91385305,0.43626323,0.6931866,0.3819006,0.006986954,-0.31473592,1.1661999,-0.09070869,-0.15466435,0.6802787,-1.4462732,0.31504682
-0.2,0.10000000000000003,1.1999999999999997,-0.5235987755982988,-0.5235987755982988,0,0.746744,0.35831347,0.91195816,0.43622917,0.694612,0.3812709,0.0013412515,0.36846355,1.2165667,0.2841156,-0.039149318,-0.84373456,-1.3857652,-0.42906606
-0.2,0.10000000000000003,1.1999999999999997,-0.5235987755982988,-0.5235987755982988,0,0.7465189,0.35758144,0.9146964,0.43663976,0.6927908,0.38279516,-0.012228617,-0.37456605,1.2295996,0.22359043,-0.0884036,-0.72674865,-1.3860928,-1.0752721
-0.2,0.10000000000000003,1.1999999999999997,-0.5235987755982988,-0.5235987755982988,0,0.7476994,0.35866863,0.9133495,0.43649408,0.69432664,0.3836821,-0.00909454,0.07055477,1.1858759,0.044107646,-0.12161151,0.4888042,-1.4101458,-0.095739916
-0.2,0.10000000000000003,1.1999999999999997,-0.5235987755982988,-0.5235987755982988,0,0.74502575,0.3575899,0.9132895,0.43658474,0.6957356,0.38088733,-0.00081701844,-0.69422054,1.3223672,-0.010219559,-0.27818525,-0.6899052,-1.3493205,-1.2615173
-0.2,0.10000000000000003,1.1999999999999997,-0.5235987755982988,-0.5235987755982988,0,0.74653035,0.357767,0.91341627,0.4360878,0.6942402,0.38311934,-0.0067418497,-0.60711914,1.3089477,-0.012568112,-0.11398855,-0.011597341,-1.2783517,-0.58855057
-0.2,0.10000000000000003,1.1999999999999997,-0.5235987755982988,-0.5235987755982988,0,0.74674463,0.35816336,0.91213506,0.4361849,0.6959566,0.38143608,-0.01028973,0.71142673,1.0304849,0.28263357,-0.23685454,-0.7544486,-1.3711491,-1.1129558
-0.2,0.10000000000000003,1.1999999999999997,-0.5235987755982988,-0.5235987755982988,0,0.7457518,0.35797453,0.91263634,0.43647724,0.69147635,0.38303277,-0.011421596,0.27924144,1.0906953,0.36173677,-0.13116045,-0.31337452,-1.4176142,-0.38689807
-0.2,0.10000000000000003,1.1999999999999997,-0.5235987755982988,-0.5235987755982988,0,0.74563634,0.3582679,0.91351783,0.43644494,0.6939106,0.38160992,-0.0028082703,0.050677087,1.246205,-0.037389617,0.032395635,-0.25973415,-1.3589839,-0.4834853
-0.2,0.10000000000000003,1.1999999999999997,-0.5235987755982988,-0.5235987755982988,0,0.7460609,0.3572256,0.9130127,0.43651307,0.693317,0.381192,-0.009604842,0.37332946,0.932458,0.033283718,-0.16108173,-0.46406966,-1.4122694,-0.09263704
-0.2,0.10000000000000003,1.1999999999999997,-0.5235987755982988,-0.5235987755982988,0,0.74639344,0.35789433,0.9123005,0.43627265,0.694689,0.3804395,-0.024656959,0.046494447,1.0774683,0.015311015,0.15614292,0.29366246,-1.4949973,-1.6445817
-0.2,0.10000000000000003,1.1999999999999997,-0.5235987755982988,-0.5235987755982988,0,0.74726874,0.35761,0.9135142,0.43635195,0.69326967,0.38090122,-0.0023946292,-0.5220823,1.1776214,-0.2007993,-0.1565968,1.0618728,-1.3069916,-0.69924796
-0.2,0.10000000000000003,1.1999999999999997,-0.5235987755982988,-0.5235987755982988,0,0.7463514,0.3588568,0.91162443,0.43619367,0.6955544,0.38024604,0.005510735,-0.69206613,1.3198273,0.3371135,-0.110982366,-0.30497622,-1.3744389,2.2167897
-0.2,0.10000000000000003,1.1999999999999997,-0.5235987755982988,-0.5235987755982988,0,0.7463659,0.35721788,0.912894,0.4367801,0.6933523,0.38204437,-0.016522037,-0.6798077,1.185083,-0.19602534,-0.09463741,0.7056006,-1.2994097,0.840292
-0.2,0.10000000000000003,1.1999999999999997,-0.5235987755982988,-0.5235987755982988,0,0.746588,0.35810503,0.912414,0.43651366,0.69319797,0.38331905,-0.028935038,0.20262434,1.1657012,0.2847166,-0.113422625,-0.5117172,-1.3462471,-0.9897776
-0.2,0.10000000000000003,1.1999999999999997,-0.5235987755982988,-0.5235987755982988,0,0.7456311,0.35813448,0.9140166,0.43642232,0.69353265,0.38090193,-0.012890924,-0.45941374,0.8795507,-0.026314063,-0.02537289,0.14601758,-1.3959337,-1.6501821
-0.2,0.10000000000000003,1.1999999999999997,-0.5235987755982988,-0.5235987755982988,0,0.745658,0.35780472,0.91387326,0.4365153,0.69327533,0.38169587,0.0023388937,-0.60420185,1.1579527,0.17658325,0.012859611,-0.7842045,-1.3983593,0.52381796
-0.2,0.10000000000000003,1.1999999999999997,-0.5235987755982988,-0.5235987755982988,0,0.74626404,0.3578578,0.9126841,0.43648997,0.692725,0.3806271,0.0019536568,-0.7236767,1.1842415,0.14044365,-0.012238781,-0.98180205,-1.3876684,-0.18444705
-0.2,0.10000000000000003,1.1999999999999997,-0.5235987755982988,-0.5235987755982988,0,0.74711305,0.35777742,0.91287416,0.43653098,0.6952033,0.3826117,0.0008403094,-0.39460924,1.225446,-0.19342656,-0.24286713,0.033034977,-1.3536919,0.6253957
-0.2,0.10000000000000003,1.1999999999999997,-0.5235987755982988,-0.5235987755982988,0,0.74625325,0.35777,0.9123514,0.43619615,0.6938247,0.38302162,0.003901174,-0.4138314,1.2276803,0.07226322,-0.13116686,-0.5921776,-1.4174447,-0.12926677
-0.2,0.10000000000000003,1.1999999999999997,-0.5235987755982988,-0.5235987755982988,0,0.74767387,0.3584635,0.9119169,0.4362273,0.69404876,0.38156992,-0.021515561,-0.18549888,1.4272785,-0.044488374,-0.11978857,0.21108478,-1.4006878,0.7352062
-0.2,0.10000000000000003,1.1999999999999997,-0.5235987755982988,-0.5235987755982988,0,0.7467919,0.35815245,0.9125849,0.43654472,0.6948186,0.38233525,-0.020046122,-0.23134792,1.3414117,-0.07777327,-0.08214063,-0.047867592,-1.35386,-1.2374607
-0.2,0.10000000000000003,1.1999999999999997,-0.5235987755982988,-0.5235987755982988,0,0.7467323,0.3584446,0.9116117,0.43638465,0.69359404,0.3814862,0.002258175,-0.20415854,1.1345488,-0.15060934,0.06312718,0.9381685,-1.4223263,-1.3266832
-0.2,0.10000000000000003,1.1999999999999997,-0.5235987755982988,-0.5235987755982988,0,0.74730015,0.35756898,0.9133658,0.43630347,0.6947377,0.38093257,-0.012913348,-0.34175244,1.2962482,-0.00028196585,-0.22349441,0.05384992,-1.3991715,0.7775437
-0.2,0.10000000000000003,1.1999999999999997,-0.5235987755982988,-0.5235987755982988,0,0.7468882,0.35730004,0.91201293,0.43625304,0.6957016,0.38147143,-0.0060332497,-0.1527536,1.1071539,0.052389607,-0.02363806,-0.32626966,-1.4364368,-1.9173075
-0.2,0.10000000000000003,1.1999999999999997,-0.5235987755982988,-0.5235987755982988,0,0.74627405,0.35767558,0.91439354,0.4364385,0.6939075,0.37965363,-0.020861456,0.6429445,1.3004982,-0.47737363,-0.0666565,-0.06317049,-1.4236362,0.025443703
-0.2,0.10000000000000003,1.1999999999999997,-0.5235987755982988,-0.5235987755982988,0,0.74656373,0.35770383,0.9134671,0.43679777,0.6933965,0.38043395,-0.008090916,0.050019495,1.048757,0.16487142,-0.22244129,0.23940392,-1.4503235,-0.726325
-0.2,0.10000000000000003,1.1999999999999997,-0.5235987755982988,-0.5235987755982988,0,0.7468063,0.35738644,0.91112405,0.43608683,0.6938808,0.38142604,0.0072863074,-0.09962718,1.3688984,0.2611918,-0.16388853,-1.8629644,-1.4211491,-0.086071365
-0.2,0.10000000000000003,1.1999999999999997,-0.5235987755982988,-0.5235987755982988,0,0.7464446,0.35721627,0.91247773,0.4363501,0.6953606,0.38130686,-0.0071549616,-0.56295973,1.1613519,0.30512747,-0.12167569,-1.1406507,-1.4975718,-0.4204486
-0.2,0.10000000000000003,1.1999999999999997,-0.5235987755982988,-0.5235987755982988,0,0.747463,0.3580249,0.9115324,0.43604103,0.69416714,0.3808365,-0.0046635903,-0.19402505,1.1867067,0.15277335,-0.072897546,-0.21004534,-1.4117479,0.1815082
-0.2,0.10000000000000003,1.1999999999999997,-0.5235987755982988,-0.5235987755982988,0,0.74740314,0.3584761,0.91172403,0.43665892,0.6937691,0.38158676,-0.012960902,-0.9113115,1.0944724,-0.034483198,-0.04372908,0.062271263,-1.376423,1.1089195
-0.2,0.10000000000000003,1.1999999999999997,-0.5235987755982988,-0.5235987755982988,0,0.74812555,0.35842815,0.91244733,0.43632224,0.69255656,0.38002163,-0.011764356,0.0019981225,1.2855263,0.29942685,0.064968124,0.5017336,-1.4709699,0.73920625
-0.2,0.10000000000000003,1.1999999999999997,-0.5235987755982988,-0.5235987755982988,0,0.74679977,0.3581043,0.9124202,0.43646637,0.69211453,0.38435578,-0.0029861822,0.25396746,1.3134238,-0.18552512,-0.107884124,-0.6561878,-1.4598583,-0.9054011
-0.2,0.10000000000000003,1.1999999999999997,-0.5235987755982988,-0.5235987755982988,0,0.74780566,0.3578055,0.91325736,0.43642542,0.69287807,0.38274413,-0.018609773,-0.068220355,1.2214453,-0.31120816,-0.20404047,1.2779614,-1.3458273,0.72149724
-0.2,0.10000000000000003,1.1999999999999997,-0.5235987755982988,-0.5235987755982988,0,0.7475305,0.35838073,0.91213346,0.43647408,0.69366425,0.3830443,0.0004990382,-0.7212084,1.2329118,0.17431283,-0.07116566,0.20134947,-1.4005855,-0.58464015
-0.2,0.10000000000000003,1.1999999999999997,-0.5235987755982988,-0.5235987755982988,0,0.74783075,0.35781953,0.913395,0.43629906,0.69294614,0.3834533,-0.011565234,0.07455278,1.0915201,0.47997668,-0.15077916,-1.1187696,-1.4238062,-0.8511646
-0.2,0.10000000000000003,1.1999999999999997,-0.5235987755982988,-0.5235987755982988,0,0.746125,0.35815328,0.91408604,0.43619078,0.6945113,0.38120145,-0.0002787846,-0.15767883,1.0695065,0.06368728,-0.12335422,0.73258305,-1.4403317,0.12991025
-0.2,0.10000000000000003,1.1999999999999997,-0.5235987755982988,-0.5235987755982988,0,0.74789035,0.35877788,0.91215366,0.43631664,0.6944378,0.38089183,0.01706431,-0.20957571,1.1004202,0.050771113,-0.007554575,-0.077789575,-1.3734231,-0.10384194
-0.2,0.10000000000000003,1.1999999999999997,-0.5235987755982988,-0.5235987755982988,0,0.7477972,0.3583472,0.91345537,0.43630636,0.69299126,0.3787102,-0.0037148641,-0.44504946,1.2707516,-0.10164,-0.112115934,0.17571521,-1.4262662,0.3224472
-0.2,0.10000000000000003,1.1999999999999997,-0.5235987755982988,-0.5235987755982988,0,0.74715966,0.3580793,0.912893,0.43628874,0.6946085,0.38320708,0.0070487573,0.9426198,1.3587879,-0.24734916,-0.01951179,-0.42014056,-1.4414719,-0.42766112
-0.2,0.10000000000000003,1.1999999999999997,-0.5235987755982988,-0.5235987755982988,0,0.7467668,0.3590073,0.91347224,0.43632153,0.6931205,0.37892148,-0.019653473,0.30165288,1.2110304,-0.10766509,-0.09497737,-0.96587336,-1.3882022,0.3652056
-0.2,0.10000000000000003,1.1999999999999997,-0.5235987755982988,-0.5235987755982988,0,0.74711746,0.35868514,0.9123564,0.43637863,0.6930684,0.37836412,-0.0023677421,-0.96930534,1.0720792,0.071880706,-0.028393108,-0.65188944,-1.3890711,0.44058177
-0.2,0.10000000000000003,1.1999999999999997,-0.5235987755982988,-0.5235987755982988,0,0.7457986,0.35811445,0.91418064,0.43630078,0.6937775,0.38148066,-0.01381015,-0.095518254,1.0532548,-0.10661117,-0.06959231,-0.54676265,-1.4855502,0.44048926
-0.2,0.10000000000000003,1.1999999999999997,-0.5235987755982988,-0.5235987755982988,0,0.7460603,0.35856065,0.91409373,0.4360529,0.6942676,0.3808625,-0.013013585,0.017098969,1.1429442,0.11687337,-0.035598334,-1.370389,-1.3695222,-0.061386675
-0.2,0.10000000000000003,1.1999999999999997,-0.5235987755982988,-0.5235987755982988,0,0.74694645,0.35744178,0.9124369,0.4363514,0.6946249,0.38661548,-0.005051136,-0.04507185,1.105778,-0.23865564,-0.1044522,-0.16470528,-1.4259362,0.35201252
-0.2,0.10000000000000003,1.1999999999999997,-0.5235987755982988,-0.5235987755982988,0,0.7465108,0.3576339,0.9124117,0.4364108,0.6946895,0.38121006,-0.00215785,-0.23361659,1.1863286,-0.015056148,-0.0733946,1.5055374,-1.4210428,-2.1233644
-0.2,0.10000000000000003,1.1999999999999997,-0.5235987755982988,-0.5235987755982988,0,0.74689376,0.35764745,0.91323906,0.4365427,0.693655,0.37977538,0.0010048382,-0.099084206,1.1410273,-0.073029704,-0.10064812,0.20692788,-1.4487848,-0.04325261
-0.2,0.10000000000000003,1.1999999999999997,-0.5235987755982988,-0.5235987755982988,0,0.74612314,0.35870197,0.913887,0.43651047,0.6937977,0.38134283,-0.015023971,-0.449573,1.188688,0.13376592,-0.09388856,0.69173616,-1.3668998,-0.23947659
-0.2,0.10000000000000003,1.1999999999999997,-0.5235987755982988,-0.5235987755982988,0,0.746871,0.35771754,0.91250145,0.4364064,0.69539076,0.3839528,-0.005944722,-0.023843314,1.1148508,0.16924693,-0.06258098,-0.4804648,-1.4551003,1.3047503
-0.2,0.10000000000000003,1.1999999999999997,-0.5235987755982988,-0.5235987755982988,0,0.74776036,0.35803244,0.9127413,0.43670663,0.69424915,0.38233587,-0.0019234819,0.46399975,1.0109925,0.26679766,-0.11345282,-0.42625064,-1.4888306,0.04166527
-0.2,0.10000000000000003,1.1999999999999997,-0.5235987755982988,-0.5235987755982988,0,0.7477618,0.3576892,0.9133608,0.43660524,0.69482327,0.3829143,-0.011223315,-0.58279365,1.2602603,0.048471935,-0.20621277,0.32393098,-1.4086388,0.48912016
-0.2,0.10000000000000003,1.1999999999999997,-0.5235987755982988,-0.5235987755982988,0,0.74632597,0.35862097,0.9129781,0.4364398,0.69426715,0.38193417,-0.005268143,0.7384615,1.2788818,-0.02348196,-0.048867144,-1.2918395,-1.4145414,-0.3730907
-0.2,0.10000000000000003,1.1999999999999997,-0.5235987755982988,-0.5235987755982988,0,0.74891686,0.35805708,0.9128101,0.43655327,0.6933105,0.38129768,0.0050996114,0.3489272,1.0959504,0.20528212,-0.058829505,0.67839885,-1.4067451,-0.8465506
-0.2,0.10000000000000003,1.1999999999999997,-0.5235987755982988,-0.5235987755982988,0,0.74773216,0.35892546,0.91287607,0.43621102,0.6942339,0.38235313,-0.023034787,0.13238567,1.1450328,0.01925041,-0.036141265,-0.038027976,-1.4201171,-1.1415054
-0.2,0.10000000000000003,1.1999999999999997,-0.5235987755982988,-0.5235987755982988,0,0.74718475,0.35795856,0.91420114,0.43631637,0.6935301,0.38371095,-0.00043014804,-1.0482746,1.1409527,-0.057644416,0.07096265,-0.4665306,-1.4425392,1.4967442
-0.2,0.10000000000000003,1.1999999999999997,-0.5235987755982988,-0.5235987755982988,0,0.74823284,0.35746527,0.9136876,0.4364116,0.6929391,0.3811759,-0.005812936,0.23376714,1.2272393,-0.19051692,-0.17796725,-1.3213336,-1.4046752,0.14292969
-0.2,0.10000000000000003,1.1999999999999997,-0.5235987755982988,-0.5235987755982988,0,0.74759686,0.358296,0.91269046,0.43668172,0.6946076,0.3829678,-0.0061826794,-0.12786579,1.361612,0.061631966,-0.028263777,-1.131423,-1.3581445,1.6327113
-0.2,0.10000000000000003,1.1999999999999997,-0.5235987755982988,-0.5235987755982988,0,0.7478723,0.35865527,0.9120988,0.43636438,0.694586,0.38252002,-0.00021241857,-0.2736752,1.1809433,0.11986851,-0.013785204,0.40604413,-1.4095598,-1.1900743
-0.2,0.10000000000000003,1.1999999999999997,-0.5235987755982988,-0.5235987755982988,0,0.7463699,0.35895705,0.9130112,0.43623558,0.69371706,0.38103315,0.0060445573,-1.0155188,1.1707482,0.25477737,-0.0264589,-1.4866538,-1.4027988,-1.6820486
-0.2,0.10000000000000003,1.1999999999999997,-0.5235987755982988,-0.5235987755982988,0,0.74785376,0.3578819,0.91292626,0.43627715,0.6931365,0.381485,-0.012416985,0.5591194,1.0682654,0.02184508,-0.12121371,-0.42591396,-1.5200081,-1.091234
-0.2,0.10000000000000003,1.1999999999999997,-0.5235987755982988,-0.5235987755982988,0,0.7464255,0.35947946,0.9130491,0.4363522,0.6939045,0.38012582,-0.0018709087,-0.5132079,1.174852,-0.115371384,-0.06741817,-1.6998036,-1.3807272,1.0623233
-0.2,0.10000000000000003,1.1999999999999997,-0.5235987755982988,-0.5235987755982988,0,0.7469072,0.35790682,0.9135008,0.43677425,0.693817,0.38416997,-0.0011909514,0.2780521,1.0076785,0.20543796,-0.06472203,-0.5724812,-1.4661242,0.38738418
-0.2,0.10000000000000003,1.1999999999999997,-0.5235987755982988,-0.5235987755982988,0,0.747273,0.35809734,0.91385794,0.4366073,0.6943406,0.38330927,-0.0110256,0.41615647,1.2085123,-0.21937712,-0.15459786,-0.62467283,-1.3964989,-0.5170379
-0.2,0.10000000000000003,1.1999999999999997,-0.5235987755982988,-0.5235987755982988,0,0.74666154,0.358259,0.91365016,0.43666375,0.69415975,0.38413346,0.021114478,-0.39691028,1.1239754,0.15177818,-0.17794101,1.1508384,-1.4054905,0.12898704
-0.2,0.10000000000000003,1.1999999999999997,-0.5235987755982988,-0.5235987755982988,0,0.7459955,0.35826832,0.91321576,0.43673676,0.693046,0.3845224,-0.0024689995,-0.25364754,1.2595111,0.088390835,-0.083831325,0.49290055,-1.4834971,0.7235825
-0.2,0.10000000000000003,1.1999999999999997,-0.5235987755982988,-0.5235987755982988,0,0.74804157,0.35762367,0.91285187,0.43700176,0.69471705,0.3816196,0.01069149,-0.46540353,1.0634478,0.30258012,-0.09917941,-0.40071484,-1.4668036,-1.3386308
-0.2,0.10000000000000003,1.1999999999999997,-0.5235987755982988,-0.5235987755982988,0,0.74754524,0.3578923,0.9132877,0.43653256,0.69548136,0.38228017,0.00048706972,-0.36029297,1.2680355,-0.18077171,0.08941927,-0.637872,-1.4567348,0.97619194
-0.2,0.10000000000000003,1.1999999999999997,-0.5235987755982988,-0.5235987755982988,0,0.74787784,0.35744104,0.91429543,0.4365931,0.69514966,0.38209277,-0.0023637859,0.11387677,1.2719101,0.34710065,-0.23513009,-0.29734957,-1.4470462,0.09219546
-0.2,0.10000000000000003,1.1999999999999997,-0.5235987755982988,-0.5235987755982988,0,0.74740607,0.35915348,0.9141398,0.43636754,0.69491595,0.38304344,-0.0120379515,-0.043677967,0.9729219,0.0013500826,0.038403377,-0.5591134,-1.4333385,-0.8612108
-0.2,0.10000000000000003,1.1999999999999997,-0.5235987755982988,-0.5235987755982988,0,0.7460446,0.35854244,0.91316795,0.43641615,0.69379354,0.3837507,-0.0056142746,0.5630703,1.0377276,0.1694356,-0.08168631,-2.456499,-1.4348689,-0.02304844
-0.2,0.10000000000000003,1.1999999999999997,-0.5235987755982988,-0.5235987755982988,0,0.7481433,0.35898677,0.913964,0.43620595,0.69314754,0.3813651,-0.023892285,-0.19104056,1.1360979,-0.11732149,-0.18786015,-0.800621,-1.4007311,0.69520575
-0.2,0.10000000000000003,1.1999999999999997,-0.5235987755982988,-0.5235987755982988,0,0.7464114,0.35793224,0.9128409,0.4366912,0.6948899,0.38553712,-0.009104472,0.4805611,0.9916718,0.2188338,-0.15003845,-2.0537152,-1.3490918,0.16288348
-0.2,0.10000000000000003,1.1999999999999997,-0.5235987755982988,-0.5235987755982988,0,0.7478512,0.35726663,0.9129442,0.43643492,0.695539,0.38469526,-0.0013584966,0.07353332,1.2431833,0.2942795,-0.0069623915,-1.2495213,-1.4029956,-0.20811594
-0.2,0.10000000000000003,1.1999999999999997,-0.5235987755982988,-0.5235987755982988,0,0.7475795,0.35836408,0.91353875,0.4365834,0.69473493,0.38406166,0.007981472,-0.06918555,1.2733386,0.20196386,-0.08726657,-0.12063332,-1.3825682,0.38754672
-0.2,0.10000000000000003,1.1999999999999997,-0.5235987755982988,-0.5235987755982988,0,0.7475041,0.35838494,0.9122626,0.43660232,0.69294405,0.38259283,0.0073356032,-0.36590663,1.1803966,0.076643,-0.06131509,0.7796322,-1.5393784,-1.2391585
-0.2,0.10000000000000003,1.1999999999999997,-0.5235987755982988,-0.5235987755982988,0,0.74752724,0.3580661,0.913707,0.43659568,0.69288963,0.38492104,0.002087474,-0.27273893,1.1786144,0.0432577,-0.079280294,0.050805937,-1.4417768,-0.1638419
-0.2,0.10000000000000003,1.1999999999999997,-0.5235987755982988,-0.5235987755982988,0,0.74749154,0.35864645,0.9134096,0.43644166,0.69253784,0.38133264,-0.0028987355,-0.38675642,1.034743,0.080768175,-0.044847988,1.2847137,-1.4245851,0.3252604
-0.2,0.10000000000000003,1.1999999999999997,-0.5235987755982988,-0.5235987755982988,0,0.749252,0.35831314,0.9124618,0.43659732,0.6933951,0.38317928,-0.004137194,0.1431974,1.3001854,0.15215588,-0.11061507,-0.498342,-1.3943655,-0.17602347
-0.2,0.10000000000000003,1.1999999999999997,-0.5235987755982988,-0.5235987755982988,0,0.7477824,0.35923418,0.9124401,0.43640196,0.69302714,0.38194126,-0.00765268,0.23891196,1.1074044,0.121242486,-0.08523263,-0.045046147,-1.489855,0.4241004
-0.2,0.10000000000000003,1.1999999999999997,-0.5235987755982988,-0.5235987755982988,0,0.7476719,0.3573327,0.9142276,0.4364304,0.6935703,0.38551924,0.008801887,-0.5286752,1.1460468,0.26981172,-0.10085209,-0.20457186,-1.5024196,0.054472398
-0.2,0.10000000000000003,1.1999999999999997,-0.5235987755982988,-0.5235987755982988,0,0.74784464,0.3577139,0.9139533,0.43663245,0.69404364,0.3844583,-0.004485957,-0.5189385,1.0890152,0.014802146,-0.13267204,0.65150905,-1.3828773,0.8940973
-0.2,0.10000000000000003,1.1999999999999997,-0.5235987755982988,-0.5235987755982988,0,0.7477587,0.35890043,0.91400796,0.43648648,0.6932476,0.38257983,0.005715983,-0.26320887,1.209017,0.14037393,-0.026871797,1.1675292,-1.4365002,-1.1415917
-0.2,0.10000000000000003,1.1999999999999997,-0.5235987755982988,-0.5235987755982988,0,0.74455935,0.35762137,0.91372955,0.43676245,0.69622433,0.38374758,-0.0006385053,1.2194214,1.1673878,0.26387534,-0.04370481,-0.99065536,-1.4996781,-0.85369587
-0.2,0.10000000000000003,1.1999999999999997,-0.5235987755982988,-0.5235987755982988,0,0.74739635,0.3587964,0.91282517,0.43634784,0.693544,0.38270423,-0.011001944,-0.80037874,1.3047968,0.11080996,-0.079430655,-1.5539434,-1.4288167,-1.7317123
-0.2,0.10000000000000003,1.1999999999999997,-0.5235987755982988,-0.5235987755982988,0,0.74659956,0.35895526,0.9139956,0.43649918,0.6934639,0.38547733,0.003233721,0.012281109,1.1411912,0.025108743,-0.05489154,-0.08005068,-1.4532286,-2.5920892
-0.2,0.10000000000000003,1.1999999999999997,-0.5235987755982988,-0.5235987755982988,0,0.7478562,0.3582381,0.9145494,0.43663388,0.6947841,0.38324735,0.0072451252,0.38851124,1.3501643,-0.07413705,-0.10905756,-1.1685047,-1.3680937,-1.5082408
-0.2,0.10000000000000003,1.1999999999999997,-0.5235987755982988,-0.5235987755982988,0,0.746971,0.35843825,0.91464555,0.43677965,0.6944523,0.38488853,-0.0024566152,-0.43773162,1.1870766,-0.18415481,-0.12089757,-1.9635581,-1.4285282,0.9732895
-0.2,0.10000000000000003,1.1999999999999997,-0.5235987755982988,-0.5235987755982988,0,0.7454933,0.35710803,0.912433,0.4366047,0.69393253,0.3801387,-0.008846509,0.16836315,1.1645887,0.16750538,-0.10141688,-1.1597348,-1.4724792,-0.18226434
-0.2,0.10000000000000003,1.1999999999999997,-0.5235987755982988,-0.5235987755982988,0,0.7473945,0.3581845,0.9139445,0.43626738,0.69235635,0.3819666,-0.0040558055,-0.52239686,1.2447505,0.111302495,-0.0981232,-0.2894514,-1.3853667,-1.5907574
-0.2,0.10000000000000003,1.1999999999999997,-0.5235987755982988,-0.5235987755982988,0,0.74461013,0.35793898,0.9125825,0.4365031,0.694716,0.38373628,-0.0033007476,-1.0214112,1.2956127,-0.051971883,-0.078183584,-1.0802373,-1.3899019,-0.3713353
-0.2,0.10000000000000003,1.1999999999999997,-0.5235987755982988,-0.5235987755982988,0,0.7469137,0.35791883,0.9120775,0.43631023,0.694298,0.3821385,-0.015902678,-0.031066308,1.2957892,-0.062143676,0.007866053,-0.5994811,-1.4040185,-0.7666166
-0.2,0.10000000000000003,1.1999999999999997,-0.5235987755982988,-0.5235987755982988,0,0.74617434,0.35843998,0.9123155,0.43614087,0.69209206,0.38287026,-0.01232795,0.04756549,1.3785464,0.34286985,-0.09079515,-0.5380068,-1.3773437,0.34693563
-0.2,0.10000000000000003,1.1999999999999997,-0.5235987755982988,-0.5235987755982988,0,0.74660456,0.35757208,0.9132287,0.43662554,0.69470704,0.38306424,0.0068235793,-0.11683816,1.0938637,-0.18771128,-0.1425434,-0.1237527,-1.3684078,-0.8736914
-0.2,0.10000000000000003,1.1999999999999997,-0.5235987755982988,-0.5235987755982988,0,0.7448805,0.35853902,0.9112928,0.43676388,0.6952359,0.38022098,-0.0036428603,0.41908923,1.2854382,0.13659956,-0.14299072,-1.1659172,-1.4388487,-0.2892046
-0.2,0.10000000000000003,1.1999999999999997,-0.5235987755982988,-0.5235987755982988,0,0.746639,0.3577551,0.9146201,0.43648893,0.6942056,0.38284957,0.01037818,0.7314807,1.2865101,-0.17028497,-0.060751896,0.91177803,-1.3512604,0.5374153
-0.2,0.10000000000000003,1.1999999999999997,-0.5235987755982988,-0.5235987755982988,0,0.74683464,0.35837635,0.9142447,0.436108,0.69487554,0.3817894,-0.019638404,-0.19403201,1.1803297,0.08337519,-0.004133762,-0.005857287,-1.3957018,0.16502595
-0.2,0.10000000000000003,1.1999999999999997,-0.5235987755982988,-0.5235987755982988,0,0.7475493,0.35801458,0.9131974,0.43658057,0.6929478,0.38214365,-0.0034627586,0.34244865,0.9849325,0.03281688,-0.06752715,-0.39582267,-1.3583916,-0.16524217
-0.2,0.10000000000000003,1.1999999999999997,-0.5235987755982988,-0.5235987755982988,0,0.74675214,0.3566223,0.91210866,0.43639657,0.69384277,0.38157332,-0.012143799,-0.49077037,1.18177,-0.09393909,0.046009764,-1.3019817,-1.4588779,-0.16298695
-0.2,0.10000000000000003,1.1999999999999997,-0.5235987755982988,-0.5235987755982988,0,0.74674857,0.35937312,0.9128524,0.4365805,0.6921705,0.38141933,-0.012386292,0.030684903,1.2011936,0.37657252,-0.15482329,0.10083696,-1.3926204,-0.70658946
-0.2,0.10000000000000003,1.1999999999999997,-0.5235987755982988,-0.5235987755982988,0,0.74644953,0.35833004,0.9131739,0.43648285,0.6958483,0.38086444,-0.017538453,0.05505941,0.9234907,0.030949362,-0.09101079,-1.0884645,-1.4341493,-0.05015673
-0.2,0.10000000000000003,1.1999999999999997,-0.5235987755982988,-0.5235987755982988,0,0.74566686,0.35813406,0.91270226,0.43645978,0.6935755,0.38623077,0.0044514746,-0.17500594,1.1951853,-0.15067726,-0.16114958,-0.71199805,-1.4603033,-0.10585063
-0.2,0.10000000000000003,1.1999999999999997,-0.5235987755982988,-0.5235987755982988,0,0.74792737,0.35842332,0.911948,0.43645602,0.69375324,0.38090894,-0.0018197319,-1.4342482,1.0444056,-0.26969713,-0.061040398,-1.041916,-1.4092968,-0.5143706
-0.2,0.10000000000000003,1.1999999999999997,-0.5235987755982988,-0.5235987755982988,0,0.74642175,0.3582275,0.91351396,0.43642712,0.69336873,0.38264683,-0.021581816,-0.17310284,1.1472925,-0.02236496,-0.060098268,-1.2428817,-1.4363294,-0.2706723
-0.2,0.10000000000000003,1.1999999999999997,-0.5235987755982988,-0.5235987755982988,0,0.74775547,0.35829437,0.91275066,0.43662313,0.69389707,0.3809771,-0.0065506226,-0.99055964,1.3229315,0.32627398,-0.111791864,-1.4919645,-1.4001796,0.6200955
-0.2,0.10000000000000003,1.1999999999999997,-0.5235987755982988,-0.5235987755982988,0,0.7471228,0.3580457,0.91178864,0.43627834,0.6935399,0.38632056,-0.0075772745,0.34420907,1.0036726,0.09166479,-0.14024222,-2.076149,-1.4173356,-0.38798907
-0.2,0.10000000000000003,1.1999999999999997,-0.5235987755982988,-0.5235987755982988,0,0.74575096,0.3592555,0.91562444,0.43650606,0.6937113,0.3827637,-0.004236452,0.36164814,0.99236995,0.2950087,0.0005898845,0.024943613,-1.4602091,-1.3763303
-0.2,0.10000000000000003,1.1999999999999997,-0.5235987755982988,-0.5235987755982988,0,0.7476185,0.35838613,0.91200644,0.43645412,0.6941527,0.3816785,0.0012667008,-0.3547353,1.1789498,0.11991651,-0.088227734,0.41127107,-1.4886175,0.6081996
-0.2,0.10000000000000003,1.1999999999999997,-0.5235987755982988,-0.5235987755982988,0,0.7477486,0.35800526,0.9133433,0.4361631,0.69544005,0.3840935,0.0024121704,-0.17943671,1.1382961,0.06004105,-0.042908743,-0.54240274,-1.4697621,-0.4102396
-0.2,0.10000000000000003,1.1999999999999997,-0.5235987755982988,-0.5235987755982988,0,0.7474886,0.35808846,0.91358745,0.43654594,0.6935315,0.38217267,-0.0005337058,0.043442108,1.201989,0.22571701,-0.21552138,-1.3988296,-1.4654983,-0.6852211
-0.2,0.10000000000000003,1.1999999999999997,-0.5235987755982988,-0.5235987755982988,0,0.74838084,0.3575352,0.912428,0.43649486,0.69601285,0.38468587,0.020236827,-0.37486655,1.2665993,-0.22417338,0.0045292918,-1.1569129,-1.475057,0.3681745
-0.2,0.10000000000000003,1.1999999999999997,-0.5235987755982988,-0.5235987755982988,0,0.7473654,0.3582519,0.9142703,0.4363938,0.695082,0.38453287,-0.012865069,-0.4229921,1.2266792,0.20065418,-0.09244886,-1.9202007,-1.4376329,-0.6754543
-0.2,0.10000000000000003,1.1999999999999997,-0.5235987755982988,-0.5235987755982988,0,0.74773365,0.35794368,0.9127369,0.43650702,0.69404876,0.38183537,-0.011224748,0.107842505,1.1123284,0.052800585,0.045170765,0.2724326,-1.4019703,-0.94314647
-0.2,0.10000000000000003,1.1999999999999997,-0.5235987755982988,-0.5235987755982988,0,0.7455094,0.35866302,0.9122681,0.43647608,0.69406855,0.384814,-0.0009649437,0.31322888,1.1616815,0.13494378,-0.16705036,0.38685682,-1.4418528,-0.63962585
-0.2,0.10000000000000003,1.1999999999999997,-0.5235987755982988,-0.5235987755982988,0,0.7470644,0.35786617,0.91296256,0.43661734,0.69447803,0.38035423,-0.015616142,-0.3874955,1.1792037,-0.2366711,-0.05469329,-2.1887174,-1.4028547,-0.28843734
-0.2,0.10000000000000003,1.1999999999999997,-0.5235987755982988,-0.5235987755982988,0,0.74747026,0.35804722,0.9120317,0.43671933,0.69398034,0.3825207,-0.010105435,0.4305958,1.200796,0.16722609,-0.026897417,-1.3696394,-1.4336112,0.19185916
-0.2,0.10000000000000003,1.1999999999999997,-0.5235987755982988,-0.5235987755982988,0,0.74727154,0.35810998,0.91355646,0.43638137,0.6944021,0.38282076,-0.012999521,-0.35969412,1.385645,-0.15440665,-0.04784449,0.027473006,-1.3350971,-0.4663037
