sanky1234/BimanualDexCatch/isaacgymenvs/cem_results/football_pose_0.1_0.0_1.4999999999999998_-0.5235987755982988_0.5235987755982988_0_2025-05-27.csv
x,y,z,roll,pitch,yaw,robot1/joint1,robot1/joint2,robot1/joint3,robot1/joint4,robot1/joint5,robot1/joint6,robot1/joint7,robot2/joint1,robot2/joint2,robot2/joint3,robot2/joint4,robot2/joint5,robot2/joint6,robot2/joint7
0.1,0.0,1.4999999999999998,-0.5235987755982988,0.5235987755982988,0,-0.4859134,0.34684366,-0.8369206,0.9347239,-0.8230388,0.5449423,-1.6608225,0.71393657,-0.94467586,1.9016361,1.2181873,-0.45822817,0.17197661,0.18301462
0.1,0.0,1.4999999999999998,-0.5235987755982988,0.5235987755982988,0,-0.47874913,0.31024867,-0.84726965,0.9228611,-0.88961965,0.5519837,-1.9241936,0.71343845,-0.91804045,1.8912653,1.2218137,-0.4667091,0.18287928,0.24132079
0.1,0.0,1.4999999999999998,-0.5235987755982988,0.5235987755982988,0,-0.4995376,0.3263652,-0.85288143,0.9274092,-0.8778903,0.53070784,-1.8733234,0.71007806,-0.93634003,1.8788407,1.2234477,-0.4672879,0.16597876,0.2900191
0.1,0.0,1.4999999999999998,-0.5235987755982988,0.5235987755982988,0,-0.47952333,0.32998353,-0.850059,0.918937,-0.89400506,0.5576869,-1.8263986,0.7047594,-0.9433619,1.8935554,1.2076732,-0.46349767,0.19307137,0.18839994
0.1,0.0,1.4999999999999998,-0.5235987755982988,0.5235987755982988,0,-0.484171,0.32186955,-0.84559053,0.92514575,-0.8749109,0.5508324,-1.6950037,0.6970121,-0.90733427,1.8894219,1.2080905,-0.45867044,0.18604353,0.26249966
0.1,0.0,1.4999999999999998,-0.5235987755982988,0.5235987755982988,0,-0.48991418,0.3342102,-0.82879955,0.920739,-0.8750586,0.57920986,-1.8773409,0.70092,-0.9559022,1.885405,1.2144809,-0.4837163,0.18106766,0.31469882
0.1,0.0,1.4999999999999998,-0.5235987755982988,0.5235987755982988,0,-0.47724476,0.33462834,-0.8515532,0.9260527,-0.89182216,0.5113275,-2.0661104,0.70917326,-0.933326,1.9026997,1.2117057,-0.46892446,0.1847693,0.22257821
0.1,0.0,1.4999999999999998,-0.5235987755982988,0.5235987755982988,0,-0.49454147,0.34704918,-0.82822484,0.92626804,-0.90143937,0.5467562,-1.8470631,0.7096388,-0.9392556,1.8978802,1.2159672,-0.45538282,0.18879563,0.23079716
0.1,0.0,1.4999999999999998,-0.5235987755982988,0.5235987755982988,0,-0.48613483,0.31842324,-0.8420742,0.93262416,-0.89495796,0.51928216,-1.7103455,0.7098371,-0.9464912,1.8961319,1.2029068,-0.45138845,0.18535356,0.26930785
0.1,0.0,1.4999999999999998,-0.5235987755982988,0.5235987755982988,0,-0.4842718,0.36006683,-0.8501675,0.91683525,-0.8825726,0.5345834,-1.7901686,0.69702077,-0.9410638,1.8919367,1.2092212,-0.46860036,0.17688507,0.3315831
0.1,0.0,1.4999999999999998,-0.5235987755982988,0.5235987755982988,0,-0.46060133,0.3741703,-0.8434355,0.91849625,-0.88570005,0.54655224,-1.618171,0.7201075,-0.9349818,1.8800349,1.2125852,-0.425389,0.1737231,0.3439235
0.1,0.0,1.4999999999999998,-0.5235987755982988,0.5235987755982988,0,-0.48092803,0.33468306,-0.8619958,0.9234613,-0.87038267,0.5384783,-1.9030085,0.70004463,-0.94362235,1.9034325,1.2139597,-0.4782536,0.1842771,0.23758373
0.1,0.0,1.4999999999999998,-0.5235987755982988,0.5235987755982988,0,-0.49689516,0.35337365,-0.86354756,0.92100364,-0.8507878,0.5406874,-1.6717887,0.7166738,-0.9188061,1.8924782,1.2207282,-0.48233473,0.18891214,0.27444133
0.1,0.0,1.4999999999999998,-0.5235987755982988,0.5235987755982988,0,-0.5087973,0.364213,-0.84485257,0.9230117,-0.85963035,0.54788274,-1.6738341,0.71178615,-0.9225939,1.8846333,1.2312216,-0.43427378,0.18132897,0.2657648
0.1,0.0,1.4999999999999998,-0.5235987755982988,0.5235987755982988,0,-0.50955445,0.3550011,-0.8492054,0.9190398,-0.88965297,0.53095883,-1.6794977,0.7110918,-0.93463427,1.8813515,1.21498,-0.47565508,0.17995082,0.21720633
0.1,0.0,1.4999999999999998,-0.5235987755982988,0.5235987755982988,0,-0.50061995,0.326438,-0.8156317,0.92592144,-0.8988372,0.54305524,-1.5498306,0.71797425,-0.95206726,1.9147754,1.2160764,-0.48099875,0.20265752,0.21244049
0.1,0.0,1.4999999999999998,-0.5235987755982988,0.5235987755982988,0,-0.4899362,0.31660065,-0.8647552,0.93130565,-0.8759522,0.5472942,-1.9013693,0.7142045,-0.96421075,1.902404,1.226058,-0.46980032,0.18720229,0.27186957
0.1,0.0,1.4999999999999998,-0.5235987755982988,0.5235987755982988,0,-0.5001235,0.3412456,-0.851688,0.9281278,-0.89883643,0.5263258,-1.7418453,0.7030415,-0.9336296,1.8949487,1.2058276,-0.48169902,0.17781654,0.23466152
0.1,0.0,1.4999999999999998,-0.5235987755982988,0.5235987755982988,0,-0.5084466,0.34102005,-0.84872615,0.9187145,-0.86952484,0.5696916,-1.8030422,0.7151036,-0.9473876,1.8896704,1.2139099,-0.45180672,0.18055908,0.23273535
0.1,0.0,1.4999999999999998,-0.5235987755982988,0.5235987755982988,0,-0.50873286,0.3137091,-0.8587036,0.9314522,-0.8796527,0.52614,-2.1090124,0.7094614,-0.959512,1.8982177,1.2099699,-0.48809424,0.17233448,0.27231655
0.1,0.0,1.4999999999999998,-0.5235987755982988,0.5235987755982988,0,-0.4595358,0.35354167,-0.81527215,0.9140131,-0.8385549,0.5327659,-1.6191002,0.6942956,-0.9469087,1.8827193,1.2163842,-0.48281965,0.17847216,0.20712633
0.1,0.0,1.4999999999999998,-0.5235987755982988,0.5235987755982988,0,-0.46342587,0.30678067,-0.83550525,0.9147063,-0.88747054,0.51331115,-1.6869797,0.71642953,-0.9383616,1.88075,1.2146093,-0.47851235,0.18251757,0.25165382
0.1,0.0,1.4999999999999998,-0.5235987755982988,0.5235987755982988,0,-0.44338223,0.3405676,-0.8384221,0.92423505,-0.8615826,0.54037094,-1.5110221,0.70507115,-0.9220296,1.8827245,1.2121887,-0.45101017,0.19550477,0.30145258
0.1,0.0,1.4999999999999998,-0.5235987755982988,0.5235987755982988,0,-0.47812086,0.32443333,-0.8192224,0.9277825,-0.90090823,0.5389276,-1.5666629,0.71576625,-0.92289317,1.8829463,1.2251072,-0.4807832,0.17845167,0.2716549
0.1,0.0,1.4999999999999998,-0.5235987755982988,0.5235987755982988,0,-0.48005846,0.33474547,-0.83415794,0.92027456,-0.838345,0.5212354,-1.7846042,0.70432657,-0.9422706,1.882084,1.2263452,-0.48049173,0.20137691,0.2844288
0.1,0.0,1.4999999999999998,-0.5235987755982988,0.5235987755982988,0,-0.46600917,0.35289648,-0.82582104,0.9208689,-0.8591422,0.53301316,-1.5452051,0.69334173,-0.92517406,1.903624,1.2186204,-0.46912065,0.18614128,0.34339085
0.1,0.0,1.4999999999999998,-0.5235987755982988,0.5235987755982988,0,-0.4778136,0.32270324,-0.84002846,0.919054,-0.835943,0.54186463,-1.5682058,0.7054141,-0.93476325,1.890911,1.2180256,-0.4778244,0.18316579,0.13663828
0.1,0.0,1.4999999999999998,-0.5235987755982988,0.5235987755982988,0,-0.47384351,0.33146146,-0.83423936,0.9238866,-0.88794583,0.5477849,-1.4936402,0.68740445,-0.9308707,1.8839139,1.217327,-0.46707174,0.17276452,0.24554403
0.1,0.0,1.4999999999999998,-0.5235987755982988,0.5235987755982988,0,-0.4813649,0.31668684,-0.83366275,0.9244432,-0.89253217,0.5291383,-1.7220103,0.6935332,-0.94235384,1.886576,1.2202568,-0.479673,0.18593247,0.17326629
0.1,0.0,1.4999999999999998,-0.5235987755982988,0.5235987755982988,0,-0.4918766,0.3284707,-0.79405785,0.92333156,-0.84168017,0.54844284,-1.8611916,0.70011395,-0.9284919,1.8835355,1.2124294,-0.47738314,0.20422205,0.22578983
0.1,0.0,1.4999999999999998,-0.5235987755982988,0.5235987755982988,0,-0.49055362,0.3230518,-0.82985336,0.91615695,-0.8707386,0.55980396,-1.7086893,0.69524914,-0.93324256,1.8803631,1.223648,-0.48016164,0.18712081,0.3181697
0.1,0.0,1.4999999999999998,-0.5235987755982988,0.5235987755982988,0,-0.46099043,0.32390067,-0.823523,0.9156556,-0.89587265,0.5699419,-1.7604638,0.7044437,-0.9399305,1.8768898,1.2155393,-0.45755145,0.18255424,0.22839777
0.1,0.0,1.4999999999999998,-0.5235987755982988,0.5235987755982988,0,-0.47164527,0.37271068,-0.8095865,0.9197966,-0.87757725,0.5393818,-1.6321555,0.7071909,-0.93715686,1.8644277,1.2094436,-0.46275514,0.1604296,0.30631617
0.1,0.0,1.4999999999999998,-0.5235987755982988,0.5235987755982988,0,-0.47973868,0.37289387,-0.819642,0.9192687,-0.84012455,0.5352962,-1.5561568,0.7069955,-0.9526177,1.8917618,1.2121547,-0.44838396,0.17394869,0.32610893
0.1,0.0,1.4999999999999998,-0.5235987755982988,0.5235987755982988,0,-0.45955706,0.35411492,-0.82233334,0.9209267,-0.8837091,0.5548808,-1.8793973,0.7081157,-0.92894226,1.8837463,1.2239081,-0.44793707,0.18751788,0.23374274
0.1,0.0,1.4999999999999998,-0.5235987755982988,0.5235987755982988,0,-0.49467367,0.3074132,-0.79792124,0.9155927,-0.8576153,0.54058856,-2.1545808,0.709522,-0.9230566,1.8877056,1.2122427,-0.498298,0.2211432,0.21488178
0.1,0.0,1.4999999999999998,-0.5235987755982988,0.5235987755982988,0,-0.4582137,0.32536107,-0.84637725,0.92293394,-0.835667,0.53587264,-1.9071426,0.6871094,-0.9433428,1.8764352,1.2198833,-0.46649876,0.1659132,0.18972386
0.1,0.0,1.4999999999999998,-0.5235987755982988,0.5235987755982988,0,-0.47822702,0.33361825,-0.82038337,0.9236696,-0.8661105,0.5501524,-1.7243627,0.7114485,-0.9375665,1.8824589,1.2195452,-0.4678511,0.17983411,0.23381591
0.1,0.0,1.4999999999999998,-0.5235987755982988,0.5235987755982988,0,-0.47144118,0.33426878,-0.82985705,0.9195722,-0.88184476,0.58073604,-1.675865,0.70855767,-0.94915265,1.8705218,1.227016,-0.47657123,0.18345381,0.3381655
0.1,0.0,1.4999999999999998,-0.5235987755982988,0.5235987755982988,0,-0.4792022,0.3263287,-0.8215794,0.91354996,-0.8858887,0.5499319,-1.9527433,0.7038345,-0.94202566,1.8727022,1.2177374,-0.4520193,0.1818544,0.20762704
0.1,0.0,1.4999999999999998,-0.5235987755982988,0.5235987755982988,0,-0.46418825,0.32207388,-0.84452146,0.9226354,-0.8572538,0.5327487,-1.5869555,0.7163025,-0.92609596,1.8769627,1.2163376,-0.43504214,0.18869913,0.28506207
0.1,0.0,1.4999999999999998,-0.5235987755982988,0.5235987755982988,0,-0.4747337,0.30962422,-0.85353774,0.9114238,-0.8347583,0.5445856,-1.7530777,0.71132493,-0.9337868,1.8813599,1.2242867,-0.4636059,0.1943793,0.18620294
0.1,0.0,1.4999999999999998,-0.5235987755982988,0.5235987755982988,0,-0.46456695,0.3479147,-0.8089027,0.91950715,-0.8822648,0.527554,-2.04488,0.7228828,-0.9474316,1.8899858,1.2153795,-0.4534518,0.20655207,0.19466467
0.1,0.0,1.4999999999999998,-0.5235987755982988,0.5235987755982988,0,-0.47317475,0.3214002,-0.84606594,0.9183629,-0.8655002,0.5376327,-1.723425,0.7051762,-0.93313074,1.8741595,1.2180603,-0.45566764,0.16759576,0.28712112
0.1,0.0,1.4999999999999998,-0.5235987755982988,0.5235987755982988,0,-0.48320675,0.31757146,-0.8475236,0.9235947,-0.8700503,0.55018187,-1.5414618,0.7097803,-0.94678944,1.8726006,1.2271123,-0.46376508,0.18505403,0.22762196
0.1,0.0,1.4999999999999998,-0.5235987755982988,0.5235987755982988,0,-0.5034129,0.32685027,-0.8231517,0.91029066,-0.8758862,0.5448333,-1.4324794,0.7003752,-0.9048902,1.8712631,1.2213098,-0.4750804,0.18835942,0.2825867
0.1,0.0,1.4999999999999998,-0.5235987755982988,0.5235987755982988,0,-0.48027357,0.3318992,-0.8504522,0.9143559,-0.8883142,0.5700018,-1.7154517,0.6892492,-0.9345501,1.889285,1.2305479,-0.47329196,0.19626644,0.2547589
0.1,0.0,1.4999999999999998,-0.5235987755982988,0.5235987755982988,0,-0.47493276,0.3282032,-0.8330329,0.9194132,-0.8708827,0.527213,-1.9728609,0.681476,-0.9354559,1.8904616,1.2116969,-0.4790164,0.19105858,0.2745806
0.1,0.0,1.4999999999999998,-0.5235987755982988,0.5235987755982988,0,-0.48986384,0.32723886,-0.8316037,0.9224242,-0.8876758,0.5708394,-1.6319472,0.704644,-0.9317576,1.8690283,1.2263077,-0.4570936,0.20189323,0.2433272
0.1,0.0,1.4999999999999998,-0.5235987755982988,0.5235987755982988,0,-0.4573622,0.3549956,-0.8428931,0.9288233,-0.861765,0.54170847,-1.576725,0.7039488,-0.94652647,1.8792778,1.2191947,-0.46003836,0.16879216,0.24632517
0.1,0.0,1.4999999999999998,-0.5235987755982988,0.5235987755982988,0,-0.49706045,0.32426116,-0.8335189,0.9267792,-0.8431287,0.535246,-1.5895432,0.7100766,-0.93538487,1.8857448,1.2225089,-0.45357674,0.19614178,0.239049
0.1,0.0,1.4999999999999998,-0.5235987755982988,0.5235987755982988,0,-0.46838728,0.31476867,-0.8297614,0.92141604,-0.87965566,0.55996567,-1.9289684,0.71013445,-0.93994665,1.8850557,1.2171935,-0.47440827,0.17904532,0.2529834
0.1,0.0,1.4999999999999998,-0.5235987755982988,0.5235987755982988,0,-0.48317617,0.35597616,-0.8237499,0.9135571,-0.9014983,0.53092986,-2.1910696,0.7117403,-0.94879514,1.8935349,1.2261692,-0.46973267,0.17273167,0.20479803
0.1,0.0,1.4999999999999998,-0.5235987755982988,0.5235987755982988,0,-0.46830013,0.31208774,-0.85019296,0.920195,-0.88315374,0.55539215,-1.6192216,0.71426857,-0.93384606,1.8855134,1.214862,-0.4553332,0.20519818,0.22874297
0.1,0.0,1.4999999999999998,-0.5235987755982988,0.5235987755982988,0,-0.4687664,0.3809771,-0.81855017,0.9224142,-0.8523521,0.53207046,-1.776813,0.717749,-0.93089426,1.8824575,1.217641,-0.46687365,0.20243104,0.26440462
0.1,0.0,1.4999999999999998,-0.5235987755982988,0.5235987755982988,0,-0.49018934,0.3034584,-0.82440907,0.92859155,-0.83634406,0.54111093,-1.7909803,0.69991267,-0.9265907,1.8841612,1.2230711,-0.44465283,0.18115962,0.23773025
0.1,0.0,1.4999999999999998,-0.5235987755982988,0.5235987755982988,0,-0.4758377,0.3671616,-0.81163746,0.926228,-0.8520653,0.5471205,-1.7464283,0.70280665,-0.95183885,1.8757691,1.2151484,-0.47256094,0.17101532,0.15818352
0.1,0.0,1.4999999999999998,-0.5235987755982988,0.5235987755982988,0,-0.46014932,0.35584372,-0.8282139,0.922442,-0.845583,0.54025143,-1.9444417,0.7047694,-0.93109864,1.8933238,1.2089411,-0.4423358,0.1876352,0.24899839
0.1,0.0,1.4999999999999998,-0.5235987755982988,0.5235987755982988,0,-0.45580798,0.377107,-0.838587,0.91873765,-0.8639348,0.5317496,-1.7911551,0.71250415,-0.92728525,1.8917423,1.2162079,-0.47832152,0.18494505,0.36228612
0.1,0.0,1.4999999999999998,-0.5235987755982988,0.5235987755982988,0,-0.49680611,0.33681405,-0.8413726,0.9162405,-0.8696621,0.50956446,-1.6662834,0.7083895,-0.9282172,1.887833,1.2138509,-0.4556853,0.1670855,0.21775736
0.1,0.0,1.4999999999999998,-0.5235987755982988,0.5235987755982988,0,-0.4733656,0.33873752,-0.8439152,0.9210084,-0.87425536,0.5425996,-1.4101791,0.7168971,-0.9171186,1.8898835,1.2107302,-0.47327057,0.18675591,0.21866144
0.1,0.0,1.4999999999999998,-0.5235987755982988,0.5235987755982988,0,-0.46886316,0.3198386,-0.8505097,0.91080266,-0.8893304,0.5451889,-1.9048079,0.7055518,-0.94240093,1.8981487,1.220495,-0.47985104,0.17608935,0.18821803
0.1,0.0,1.4999999999999998,-0.5235987755982988,0.5235987755982988,0,-0.4802343,0.32851022,-0.83982843,0.91914594,-0.8372156,0.51317084,-1.7812234,0.70511436,-0.9367559,1.890107,1.21022,-0.44839516,0.18348671,0.24817486
0.1,0.0,1.4999999999999998,-0.5235987755982988,0.5235987755982988,0,-0.47116578,0.31239155,-0.8573197,0.92620736,-0.89574724,0.5451566,-1.7662075,0.70013493,-0.9358061,1.8805866,1.2228668,-0.4764329,0.18531859,0.2950648
0.1,0.0,1.4999999999999998,-0.5235987755982988,0.5235987755982988,0,-0.5036093,0.35339049,-0.8223752,0.9146062,-0.84493816,0.529058,-1.6563419,0.69515646,-0.9330931,1.895199,1.2165767,-0.46456116,0.1611115,0.31472287
0.1,0.0,1.4999999999999998,-0.5235987755982988,0.5235987755982988,0,-0.46834227,0.3360167,-0.8403176,0.9249336,-0.84424335,0.55722666,-1.8411936,0.6993569,-0.943093,1.8932234,1.2285228,-0.47138208,0.17809153,0.24517263
0.1,0.0,1.4999999999999998,-0.5235987755982988,0.5235987755982988,0,-0.4955432,0.32918626,-0.8432514,0.9185814,-0.9345737,0.531923,-1.6971833,0.70940197,-0.9393377,1.8966084,1.2249465,-0.46991375,0.18020017,0.24689968
0.1,0.0,1.4999999999999998,-0.5235987755982988,0.5235987755982988,0,-0.47998467,0.35934058,-0.8308297,0.9165621,-0.8622624,0.55906016,-1.7087728,0.7091749,-0.9321903,1.8765416,1.2125932,-0.44189584,0.17859843,0.33209252
0.1,0.0,1.4999999999999998,-0.5235987755982988,0.5235987755982988,0,-0.47976556,0.3309197,-0.8567226,0.9186245,-0.8182273,0.5393938,-1.9644852,0.69120216,-0.93242455,1.8795311,1.2229992,-0.47051528,0.19056429,0.18940176
0.1,0.0,1.4999999999999998,-0.5235987755982988,0.5235987755982988,0,-0.4982513,0.35428074,-0.8202519,0.9274095,-0.87312746,0.5305689,-1.7783254,0.691041,-0.94155055,1.8925086,1.2151095,-0.47690848,0.1707197,0.34721395
0.1,0.0,1.4999999999999998,-0.5235987755982988,0.5235987755982988,0,-0.4852207,0.33996183,-0.82259697,0.92083114,-0.9059253,0.5535054,-1.7826074,0.71174014,-0.93586737,1.8894109,1.221305,-0.4807269,0.18061268,0.27140635
0.1,0.0,1.4999999999999998,-0.5235987755982988,0.5235987755982988,0,-0.4527924,0.3493869,-0.8492678,0.91858816,-0.85968035,0.5246034,-1.7805318,0.705889,-0.9360572,1.9103051,1.2228343,-0.46829146,0.16718584,0.2856342
0.1,0.0,1.4999999999999998,-0.5235987755982988,0.5235987755982988,0,-0.49626976,0.36900413,-0.8276879,0.92115885,-0.88329285,0.54612964,-1.5491589,0.70908475,-0.95058924,1.8938378,1.215721,-0.46280083,0.19882461,0.22797641
0.1,0.0,1.4999999999999998,-0.5235987755982988,0.5235987755982988,0,-0.49940225,0.33948314,-0.8214939,0.92118716,-0.8772805,0.5382476,-1.9518377,0.7090516,-0.9388213,1.8850695,1.2153963,-0.46155524,0.19380985,0.27304307
0.1,0.0,1.4999999999999998,-0.5235987755982988,0.5235987755982988,0,-0.46620193,0.34354988,-0.8302409,0.921465,-0.8673434,0.54846734,-1.9103575,0.7069009,-0.9348913,1.9043199,1.2146555,-0.46517038,0.18152791,0.11999655
0.1,0.0,1.4999999999999998,-0.5235987755982988,0.5235987755982988,0,-0.4866124,0.31370637,-0.8481185,0.91629857,-0.9097529,0.53705555,-1.7953377,0.72119176,-0.9524355,1.8857747,1.2162621,-0.46398497,0.17659968,0.23748915
0.1,0.0,1.4999999999999998,-0.5235987755982988,0.5235987755982988,0,-0.49370298,0.3232109,-0.8407955,0.9212293,-0.8595869,0.53411776,-1.8501672,0.7240503,-0.93839216,1.8770857,1.2245795,-0.46997002,0.2061484,0.24781056
0.1,0.0,1.4999999999999998,-0.5235987755982988,0.5235987755982988,0,-0.48336047,0.33631998,-0.8326254,0.9203756,-0.8618339,0.55564946,-1.6424154,0.7116696,-0.9500041,1.8843043,1.2164958,-0.49957472,0.183205,0.2677761
0.1,0.0,1.4999999999999998,-0.5235987755982988,0.5235987755982988,0,-0.4990921,0.30178124,-0.8423256,0.929319,-0.8686262,0.5258244,-1.6741043,0.70764124,-0.9386668,1.8941013,1.2088882,-0.43899065,0.17881925,0.26476952
0.1,0.0,1.4999999999999998,-0.5235987755982988,0.5235987755982988,0,-0.47229573,0.29300833,-0.8198903,0.92037123,-0.83226746,0.56616586,-1.9079621,0.7139559,-0.9247524,1.8683568,1.2024918,-0.47681868,0.1800607,0.17610273
0.1,0.0,1.4999999999999998,-0.5235987755982988,0.5235987755982988,0,-0.5036647,0.3153303,-0.8571919,0.922279,-0.8395689,0.50789076,-1.8768829,0.694932,-0.9419022,1.8901378,1.2197036,-0.470585,0.18508321,0.25944376
0.1,0.0,1.4999999999999998,-0.5235987755982988,0.5235987755982988,0,-0.50489885,0.31796753,-0.84277666,0.92083055,-0.8676403,0.5290834,-1.7552234,0.700628,-0.9273862,1.9039165,1.2242961,-0.4358717,0.19752617,0.26979184
0.1,0.0,1.4999999999999998,-0.5235987755982988,0.5235987755982988,0,-0.47796527,0.32297856,-0.84220195,0.92389995,-0.86813277,0.5604157,-1.7969491,0.71236444,-0.9241238,1.8768104,1.2140598,-0.4620216,0.17419356,0.21787117
0.1,0.0,1.4999999999999998,-0.5235987755982988,0.5235987755982988,0,-0.49894765,0.3790255,-0.84125686,0.918877,-0.8406443,0.52269334,-1.6798495,0.7017878,-0.9206827,1.8715144,1.2137635,-0.44505972,0.1846669,0.19368404
0.1,0.0,1.4999999999999998,-0.5235987755982988,0.5235987755982988,0,-0.4817387,0.33825952,-0.84605205,0.9152243,-0.8874403,0.53940886,-1.9314659,0.7124609,-0.93624616,1.8883144,1.2154896,-0.45902842,0.19300087,0.2766885
0.1,0.0,1.4999999999999998,-0.5235987755982988,0.5235987755982988,0,-0.45722935,0.35900262,-0.84283584,0.9194164,-0.8874629,0.5590198,-1.908822,0.71264315,-0.94207,1.8944707,1.2196828,-0.4605434,0.17076945,0.13724558
0.1,0.0,1.4999999999999998,-0.5235987755982988,0.5235987755982988,0,-0.48814264,0.30476996,-0.826172,0.93125325,-0.85610425,0.54482204,-2.2871377,0.70632213,-0.9250482,1.9023494,1.2227383,-0.4493732,0.18933776,0.2570896
0.1,0.0,1.4999999999999998,-0.5235987755982988,0.5235987755982988,0,-0.5122398,0.31673023,-0.8319858,0.91649115,-0.83734345,0.55787534,-1.7016371,0.7096265,-0.9315267,1.8814394,1.2109052,-0.45614275,0.191381,0.28102005
0.1,0.0,1.4999999999999998,-0.5235987755982988,0.5235987755982988,0,-0.4724314,0.33600116,-0.83889896,0.9220878,-0.84572595,0.55189806,-1.865329,0.7208482,-0.94245285,1.8866584,1.2095829,-0.4624385,0.17612469,0.38007718
0.1,0.0,1.4999999999999998,-0.5235987755982988,0.5235987755982988,0,-0.49635947,0.31930405,-0.8523598,0.92536354,-0.8736111,0.519915,-1.8470377,0.70474166,-0.94789076,1.8762846,1.2082776,-0.4610278,0.1876235,0.20005938
0.1,0.0,1.4999999999999998,-0.5235987755982988,0.5235987755982988,0,-0.48113608,0.3321975,-0.8300536,0.91783285,-0.85668653,0.5552224,-1.9251381,0.7099705,-0.9358987,1.8904136,1.2158129,-0.48098344,0.17175241,0.1976065
0.1,0.0,1.4999999999999998,-0.5235987755982988,0.5235987755982988,0,-0.470088,0.32457766,-0.84667045,0.9222825,-0.8848805,0.559557,-1.85201,0.71176547,-0.9331359,1.8757739,1.2088436,-0.4566649,0.18558097,0.30916214
0.1,0.0,1.4999999999999998,-0.5235987755982988,0.5235987755982988,0,-0.46891698,0.3478926,-0.83286744,0.9214398,-0.855009,0.5489725,-1.9194936,0.72088045,-0.9368016,1.8647293,1.2113211,-0.47355062,0.17691405,0.35697925
0.1,0.0,1.4999999999999998,-0.5235987755982988,0.5235987755982988,0,-0.4716792,0.35241178,-0.83395106,0.91962093,-0.8348094,0.5297084,-1.8164716,0.7087695,-0.9107004,1.8857056,1.1989821,-0.49854326,0.18621589,0.36661512
0.1,0.0,1.4999999999999998,-0.5235987755982988,0.5235987755982988,0,-0.4885026,0.34044406,-0.8303924,0.93351537,-0.88925314,0.5526097,-1.5223877,0.7142836,-0.9135182,1.8914162,1.2121233,-0.47662908,0.17806582,0.24949652
0.1,0.0,1.4999999999999998,-0.5235987755982988,0.5235987755982988,0,-0.47918618,0.3208843,-0.8519013,0.9187186,-0.8756862,0.5466177,-1.8391333,0.71923804,-0.93861735,1.8881005,1.2220044,-0.45140624,0.1931459,0.23440754
0.1,0.0,1.4999999999999998,-0.5235987755982988,0.5235987755982988,0,-0.47371805,0.3144148,-0.84675443,0.9297316,-0.910176,0.59262043,-1.7475421,0.6889041,-0.91445583,1.8794637,1.2148879,-0.47528958,0.19313934,0.2760857
0.1,0.0,1.4999999999999998,-0.5235987755982988,0.5235987755982988,0,-0.4505739,0.34669816,-0.85052,0.9239593,-0.8631859,0.53662723,-2.0572686,0.71609044,-0.96571887,1.9013646,1.216682,-0.46781832,0.16692674,0.22235234
0.1,0.0,1.4999999999999998,-0.5235987755982988,0.5235987755982988,0,-0.5045621,0.3405413,-0.8501225,0.9259215,-0.84351325,0.53142804,-1.6532743,0.6976071,-0.9179169,1.8896072,1.2226338,-0.46738407,0.17409743,0.3108854
0.1,0.0,1.4999999999999998,-0.5235987755982988,0.5235987755982988,0,-0.49608994,0.36331972,-0.8457934,0.90774685,-0.8690665,0.55300754,-1.7363642,0.70062,-0.92940056,1.8845304,1.2163706,-0.45332813,0.16974252,0.23470618
0.1,0.0,1.4999999999999998,-0.5235987755982988,0.5235987755982988,0,-0.49736187,0.351834,-0.8253508,0.926226,-0.8240413,0.5470795,-1.6568133,0.7009251,-0.91755676,1.8917235,1.2132359,-0.4495709,0.16643924,0.35740346
0.1,0.0,1.4999999999999998,-0.5235987755982988,0.5235987755982988,0,-0.48036253,0.3444486,-0.86991274,0.9195166,-0.87661576,0.53464234,-1.8919737,0.6929716,-0.9408398,1.8935281,1.2110773,-0.4657779,0.19962785,0.32082936
0.1,0.0,1.4999999999999998,-0.5235987755982988,0.5235987755982988,0,-0.48431587,0.313291,-0.85446215,0.91760796,-0.90914005,0.53521264,-1.8972125,0.70763147,-0.9307874,1.8941531,1.215908,-0.4644872,0.17971309,0.30248535
0.1,0.0,1.4999999999999998,-0.5235987755982988,0.5235987755982988,0,-0.4957822,0.39669806,-0.83945864,0.9259652,-0.89474803,0.52794373,-1.7476282,0.7028916,-0.9463139,1.8870741,1.2115359,-0.45242107,0.18986966,0.31959605
0.1,0.0,1.4999999999999998,-0.5235987755982988,0.5235987755982988,0,-0.50388795,0.32490394,-0.8605803,0.91556436,-0.8659504,0.54949236,-1.7858355,0.7151168,-0.9281655,1.8690914,1.2114342,-0.4735271,0.1884911,0.23049061
0.1,0.0,1.4999999999999998,-0.5235987755982988,0.5235987755982988,0,-0.4717555,0.31490383,-0.87419075,0.9244533,-0.8504232,0.54334867,-1.882019,0.7151647,-0.929279,1.8872188,1.215237,-0.43828776,0.18375868,0.2123256
0.1,0.0,1.4999999999999998,-0.5235987755982988,0.5235987755982988,0,-0.5119648,0.32272986,-0.85766226,0.91933066,-0.8802049,0.52599007,-1.4283209,0.7128704,-0.9230371,1.8907987,1.2116133,-0.44123384,0.1700567,0.2267716
0.1,0.0,1.4999999999999998,-0.5235987755982988,0.5235987755982988,0,-0.4861877,0.3627093,-0.8337179,0.9285122,-0.8319347,0.55929834,-1.7926831,0.7092726,-0.92013997,1.8815765,1.2142711,-0.46978602,0.18187636,0.13819292
0.1,0.0,1.4999999999999998,-0.5235987755982988,0.5235987755982988,0,-0.47752762,0.3407848,-0.8448445,0.9275323,-0.8546952,0.53412557,-1.9010552,0.70147866,-0.9181653,1.8923554,1.210762,-0.47123864,0.17903775,0.18027496
0.1,0.0,1.4999999999999998,-0.5235987755982988,0.5235987755982988,0,-0.48920733,0.34123045,-0.83686703,0.9204083,-0.85429525,0.56579405,-1.9496846,0.7169244,-0.95408255,1.8812081,1.2183986,-0.4646565,0.17385875,0.33095163
0.1,0.0,1.4999999999999998,-0.5235987755982988,0.5235987755982988,0,-0.50921464,0.34197825,-0.84566116,0.9299745,-0.82270175,0.5623429,-1.6625402,0.70042837,-0.94935244,1.8868496,1.2121923,-0.4686469,0.18861394,0.27887347
0.1,0.0,1.4999999999999998,-0.5235987755982988,0.5235987755982988,0,-0.49314266,0.33738434,-0.8485732,0.92238146,-0.88404346,0.57697254,-2.0010915,0.70084256,-0.923861,1.898482,1.2211692,-0.46959522,0.18398333,0.33922258
0.1,0.0,1.4999999999999998,-0.5235987755982988,0.5235987755982988,0,-0.50930434,0.31065896,-0.8684663,0.93067956,-0.88999707,0.5433834,-1.5132611,0.7043372,-0.9459362,1.8705168,1.2061591,-0.48697326,0.1675206,0.19694683
0.1,0.0,1.4999999999999998,-0.5235987755982988,0.5235987755982988,0,-0.4736577,0.30997467,-0.80747545,0.92301834,-0.8495555,0.5221535,-1.7049689,0.7080622,-0.9372969,1.8885894,1.2075865,-0.4578811,0.17287594,0.33261573
0.1,0.0,1.4999999999999998,-0.5235987755982988,0.5235987755982988,0,-0.48960784,0.30989283,-0.8354329,0.91467756,-0.8487074,0.5474713,-1.5919032,0.7007806,-0.9405626,1.8705214,1.2218721,-0.46970168,0.1723332,0.19090231
0.1,0.0,1.4999999999999998,-0.5235987755982988,0.5235987755982988,0,-0.47955784,0.3176283,-0.81767476,0.9242952,-0.8615864,0.53276587,-1.4393232,0.7099399,-0.948096,1.8992604,1.2104474,-0.44608957,0.1954234,0.23148625
0.1,0.0,1.4999999999999998,-0.5235987755982988,0.5235987755982988,0,-0.46101642,0.32290745,-0.8363169,0.9213787,-0.84303904,0.5118797,-1.773539,0.711966,-0.9410041,1.8919921,1.2153257,-0.47169074,0.16821574,0.14821528
0.1,0.0,1.4999999999999998,-0.5235987755982988,0.5235987755982988,0,-0.4651532,0.32053587,-0.81571156,0.92795897,-0.9116044,0.55590034,-1.3956076,0.7107149,-0.93259716,1.8798903,1.209456,-0.48935482,0.17524898,0.24004069
0.1,0.0,1.4999999999999998,-0.5235987755982988,0.5235987755982988,0,-0.458879,0.34440383,-0.82787925,0.92443216,-0.88323015,0.51814353,-1.6566851,0.7157711,-0.9272742,1.8871912,1.218912,-0.48820907,0.1636234,0.21560647
0.1,0.0,1.4999999999999998,-0.5235987755982988,0.5235987755982988,0,-0.4801229,0.3845575,-0.82228583,0.9119615,-0.84336865,0.5128104,-1.7836341,0.69572467,-0.9482601,1.8864,1.2141215,-0.4919078,0.17658919,0.26082334
0.1,0.0,1.4999999999999998,-0.5235987755982988,0.5235987755982988,0,-0.48662823,0.3525235,-0.83202505,0.9236738,-0.8755496,0.5284513,-1.5958459,0.71697223,-0.9365305,1.8746451,1.2202955,-0.48568586,0.1982734,0.18562889
0.1,0.0,1.4999999999999998,-0.5235987755982988,0.5235987755982988,0,-0.49763012,0.32129726,-0.8402493,0.924322,-0.8397092,0.53710437,-1.5797653,0.70547426,-0.9382664,1.8646754,1.2170745,-0.48463097,0.20316064,0.18560958
0.1,0.0,1.4999999999999998,-0.5235987755982988,0.5235987755982988,0,-0.47171852,0.34667766,-0.80627,0.9190465,-0.8609597,0.5426288,-1.8023059,0.697323,-0.9397641,1.8905988,1.203538,-0.4861776,0.18473597,0.26201487
0.1,0.0,1.4999999999999998,-0.5235987755982988,0.5235987755982988,0,-0.46750015,0.3416291,-0.82639194,0.92081296,-0.83459276,0.53191775,-1.7595836,0.7227062,-0.936831,1.8874974,1.2195494,-0.43672198,0.1960821,0.16013062
0.1,0.0,1.4999999999999998,-0.5235987755982988,0.5235987755982988,0,-0.4588357,0.32314774,-0.85318625,0.916401,-0.85163975,0.51960504,-1.7341211,0.7110038,-0.9159375,1.8888875,1.2136226,-0.44702166,0.1831819,0.252927
0.1,0.0,1.4999999999999998,-0.5235987755982988,0.5235987755982988,0,-0.44061366,0.3189065,-0.8473953,0.9236291,-0.8731713,0.56189114,-1.8937236,0.7180677,-0.92785156,1.8773892,1.2217147,-0.47799549,0.18225576,0.29811767
0.1,0.0,1.4999999999999998,-0.5235987755982988,0.5235987755982988,0,-0.44541425,0.33134335,-0.83689404,0.9332463,-0.88197446,0.5420595,-1.7820619,0.70810914,-0.9307803,1.8691666,1.2174021,-0.4742623,0.17651404,0.181762
0.1,0.0,1.4999999999999998,-0.5235987755982988,0.5235987755982988,0,-0.47142616,0.29686508,-0.8444571,0.92198384,-0.8683575,0.5122616,-1.6241271,0.71438944,-0.9410789,1.8823878,1.2070439,-0.4483513,0.17805967,0.2520857
0.1,0.0,1.4999999999999998,-0.5235987755982988,0.5235987755982988,0,-0.45871332,0.30757332,-0.8540591,0.929341,-0.89784604,0.5375614,-1.595321,0.7194236,-0.92184865,1.8709904,1.2172586,-0.47462285,0.18447904,0.1994123
0.1,0.0,1.4999999999999998,-0.5235987755982988,0.5235987755982988,0,-0.47985607,0.35161132,-0.83903176,0.92013437,-0.86805385,0.5149912,-1.6414797,0.71980315,-0.947523,1.8752671,1.2129992,-0.4511786,0.18391043,0.20194592
0.1,0.0,1.4999999999999998,-0.5235987755982988,0.5235987755982988,0,-0.47377408,0.31682083,-0.84729534,0.9137135,-0.8461246,0.5306317,-1.7170568,0.6990373,-0.9452838,1.8903228,1.2213184,-0.46225068,0.16759507,0.23476689
0.1,0.0,1.4999999999999998,-0.5235987755982988,0.5235987755982988,0,-0.47991243,0.30853975,-0.83625,0.928787,-0.88081086,0.51626605,-1.486301,0.72017187,-0.9378569,1.8763185,1.215387,-0.47342652,0.18660681,0.24412046
0.1,0.0,1.4999999999999998,-0.5235987755982988,0.5235987755982988,0,-0.47060674,0.30644274,-0.8327356,0.92590874,-0.8584526,0.55554736,-1.4962991,0.7135193,-0.9350066,1.8856035,1.2057644,-0.4449654,0.1765905,0.27456984
0.1,0.0,1.4999999999999998,-0.5235987755982988,0.5235987755982988,0,-0.45901886,0.3319925,-0.83903706,0.9152714,-0.8710864,0.5578571,-1.6644768,0.69566107,-0.9253251,1.893145,1.2146035,-0.47497588,0.16123769,0.24108903
0.1,0.0,1.4999999999999998,-0.5235987755982988,0.5235987755982988,0,-0.4727272,0.34391305,-0.8341707,0.92003524,-0.8688933,0.518705,-1.8330839,0.70826626,-0.9275431,1.8927987,1.2176586,-0.45456293,0.19005604,0.3017681
0.1,0.0,1.4999999999999998,-0.5235987755982988,0.5235987755982988,0,-0.45829222,0.34180614,-0.82667303,0.91185457,-0.83352447,0.5682878,-1.9674454,0.70826584,-0.91592425,1.8764192,1.2212611,-0.45450243,0.17841457,0.2631793
0.1,0.0,1.4999999999999998,-0.5235987755982988,0.5235987755982988,0,-0.46725768,0.317621,-0.834519,0.9172213,-0.82534575,0.55052394,-1.9103509,0.7105933,-0.921881,1.872425,1.2149079,-0.4573656,0.19395268,0.24570794
0.1,0.0,1.4999999999999998,-0.5235987755982988,0.5235987755982988,0,-0.4815768,0.31554767,-0.8263174,0.9214978,-0.84768766,0.53279227,-1.8436353,0.70748156,-0.94773746,1.8822079,1.2130132,-0.45497024,0.17255943,0.16089539
0.1,0.0,1.4999999999999998,-0.5235987755982988,0.5235987755982988,0,-0.479503,0.3063105,-0.8079161,0.9197797,-0.8690236,0.55639184,-1.8262599,0.694881,-0.93758553,1.8925526,1.2056512,-0.46942633,0.17275377,0.1768141
0.1,0.0,1.4999999999999998,-0.5235987755982988,0.5235987755982988,0,-0.46705744,0.33389023,-0.8412514,0.9298456,-0.8565442,0.5460359,-1.6889058,0.70621645,-0.930803,1.8852185,1.22711,-0.48262987,0.1766377,0.270203
0.1,0.0,1.4999999999999998,-0.5235987755982988,0.5235987755982988,0,-0.4789489,0.31311837,-0.83138126,0.9205971,-0.86727524,0.5241686,-1.6734364,0.7016232,-0.9326246,1.9021487,1.2078577,-0.45644197,0.17891711,0.24181455
0.1,0.0,1.4999999999999998,-0.5235987755982988,0.5235987755982988,0,-0.48251426,0.32610184,-0.8345129,0.9215288,-0.8815717,0.5393111,-1.6515123,0.6998406,-0.91596437,1.8760976,1.2188743,-0.45451102,0.1757799,0.22002022
0.1,0.0,1.4999999999999998,-0.5235987755982988,0.5235987755982988,0,-0.47048503,0.36126047,-0.81883067,0.9274761,-0.84551185,0.5619156,-1.5992715,0.72092694,-0.93711954,1.8626044,1.2108884,-0.46744868,0.18151385,0.21545611
0.1,0.0,1.4999999999999998,-0.5235987755982988,0.5235987755982988,0,-0.48335633,0.32950407,-0.84116393,0.9249898,-0.88011736,0.5472152,-1.3725648,0.7273425,-0.9340368,1.8716569,1.216067,-0.47675556,0.19891933,0.25920656
0.1,0.0,1.4999999999999998,-0.5235987755982988,0.5235987755982988,0,-0.4692721,0.30662274,-0.85444576,0.92270863,-0.8562246,0.5449515,-1.602013,0.70729375,-0.91726416,1.8773764,1.2203118,-0.45178428,0.16731969,0.30241176
0.1,0.0,1.4999999999999998,-0.5235987755982988,0.5235987755982988,0,-0.4898417,0.34960878,-0.83956426,0.9257945,-0.8283695,0.5054626,-1.7727262,0.72438747,-0.94144124,1.8747754,1.2237289,-0.45633432,0.18798523,0.2298249
0.1,0.0,1.4999999999999998,-0.5235987755982988,0.5235987755982988,0,-0.49595553,0.33639503,-0.8293345,0.9233501,-0.8714936,0.5164873,-1.8379763,0.71953535,-0.9584626,1.8758284,1.2189863,-0.47472066,0.1888317,0.20622604
0.1,0.0,1.4999999999999998,-0.5235987755982988,0.5235987755982988,0,-0.4707728,0.32494703,-0.85423154,0.91542226,-0.88494766,0.53278524,-1.8580291,0.7104613,-0.91580313,1.87917,1.2229142,-0.47974864,0.18678899,0.30286974
0.1,0.0,1.4999999999999998,-0.5235987755982988,0.5235987755982988,0,-0.4652208,0.3509876,-0.83952534,0.92380637,-0.82986134,0.5530336,-1.5611818,0.71781564,-0.9326929,1.8882104,1.2268121,-0.46572942,0.18733695,0.22258706
0.1,0.0,1.4999999999999998,-0.5235987755982988,0.5235987755982988,0,-0.4859126,0.33330584,-0.8099119,0.9257442,-0.8889977,0.5420418,-1.711688,0.710703,-0.9406142,1.8827517,1.2165542,-0.45570233,0.1673432,0.23149759
0.1,0.0,1.4999999999999998,-0.5235987755982988,0.5235987755982988,0,-0.48234165,0.31502286,-0.82897466,0.92902917,-0.8443927,0.5323982,-1.595617,0.69304603,-0.9641535,1.8931009,1.2139693,-0.4584896,0.16964814,0.2918594
0.1,0.0,1.4999999999999998,-0.5235987755982988,0.5235987755982988,0,-0.47909048,0.3464408,-0.82817864,0.91963446,-0.9072206,0.54598653,-1.7093542,0.7152724,-0.93115807,1.8956945,1.2251618,-0.46539122,0.1810828,0.20859517
0.1,0.0,1.4999999999999998,-0.5235987755982988,0.5235987755982988,0,-0.5014571,0.3403083,-0.8190276,0.9154147,-0.85833555,0.5503861,-1.5420064,0.7177079,-0.9480436,1.8873532,1.2247503,-0.47910172,0.18453194,0.23134167
0.1,0.0,1.4999999999999998,-0.5235987755982988,0.5235987755982988,0,-0.48246822,0.32108474,-0.8403107,0.9207966,-0.87136334,0.5206303,-1.8202264,0.7134958,-0.93397903,1.8978976,1.2238122,-0.46435657,0.1775471,0.26321864
0.1,0.0,1.4999999999999998,-0.5235987755982988,0.5235987755982988,0,-0.46762863,0.3286549,-0.83281124,0.9222807,-0.8809223,0.54461426,-1.8655175,0.70907235,-0.9492218,1.8804609,1.2147238,-0.5062058,0.1946089,0.1584179
0.1,0.0,1.4999999999999998,-0.5235987755982988,0.5235987755982988,0,-0.4542787,0.33243412,-0.86288124,0.92368126,-0.9048578,0.53587866,-1.6918807,0.7088353,-0.92415625,1.8666162,1.2008576,-0.4777036,0.20199037,0.29449266
0.1,0.0,1.4999999999999998,-0.5235987755982988,0.5235987755982988,0,-0.48572513,0.3334869,-0.8341821,0.9270099,-0.83637494,0.55004925,-1.7119429,0.7150113,-0.9285633,1.8623862,1.2220442,-0.48795944,0.18002465,0.16734202
0.1,0.0,1.4999999999999998,-0.5235987755982988,0.5235987755982988,0,-0.49163744,0.3107163,-0.82603925,0.92348164,-0.8488726,0.53744674,-1.8342688,0.69623995,-0.92667884,1.8842674,1.2202502,-0.47253516,0.16087097,0.1970654
0.1,0.0,1.4999999999999998,-0.5235987755982988,0.5235987755982988,0,-0.48189068,0.34048107,-0.83150595,0.91812694,-0.8842349,0.5139685,-1.9727211,0.69765055,-0.9384251,1.8984342,1.2136736,-0.46323738,0.16097105,0.20368566
0.1,0.0,1.4999999999999998,-0.5235987755982988,0.5235987755982988,0,-0.49169296,0.33303708,-0.8462413,0.9217664,-0.88438505,0.51997375,-1.6078148,0.6998152,-0.9182925,1.8757236,1.220793,-0.46548238,0.16789214,0.24501982
0.1,0.0,1.4999999999999998,-0.5235987755982988,0.5235987755982988,0,-0.47715312,0.31492144,-0.8328133,0.92029136,-0.87841654,0.53572786,-1.9628098,0.71767783,-0.9390085,1.8805308,1.2095838,-0.47714272,0.1825618,0.16244066
0.1,0.0,1.4999999999999998,-0.5235987755982988,0.5235987755982988,0,-0.49913827,0.3173373,-0.84963566,0.9247237,-0.8894861,0.51117295,-1.6354171,0.7143492,-0.92757696,1.885108,1.2255689,-0.4689521,0.17811039,0.26677948
0.1,0.0,1.4999999999999998,-0.5235987755982988,0.5235987755982988,0,-0.47579917,0.3216267,-0.8269037,0.9308192,-0.86933494,0.5845167,-1.5172316,0.69245815,-0.93837476,1.8848529,1.2125825,-0.482224,0.17511609,0.3128402
0.1,0.0,1.4999999999999998,-0.5235987755982988,0.5235987755982988,0,-0.4830873,0.32424283,-0.8455621,0.9264174,-0.8588394,0.54492146,-1.4929562,0.70001584,-0.94165385,1.9023392,1.2124829,-0.47013056,0.18607643,0.21785396
0.1,0.0,1.4999999999999998,-0.5235987755982988,0.5235987755982988,0,-0.48701453,0.32992652,-0.84174895,0.92329824,-0.876412,0.55387247,-1.4262491,0.7148821,-0.9407581,1.8834116,1.221026,-0.45895892,0.1633022,0.20916417
0.1,0.0,1.4999999999999998,-0.5235987755982988,0.5235987755982988,0,-0.486371,0.34546596,-0.81855094,0.92480797,-0.875759,0.53190166,-1.8778404,0.6967943,-0.94872475,1.901694,1.211858,-0.4632788,0.17969611,0.17609462
0.1,0.0,1.4999999999999998,-0.5235987755982988,0.5235987755982988,0,-0.46815464,0.3283994,-0.85751384,0.91090417,-0.8474786,0.56253916,-1.6701721,0.7101582,-0.92711794,1.8797702,1.2203454,-0.45361447,0.17733563,0.24080355
0.1,0.0,1.4999999999999998,-0.5235987755982988,0.5235987755982988,0,-0.49619895,0.32695144,-0.81667686,0.93114114,-0.8505516,0.52400225,-1.901696,0.7057724,-0.9429628,1.8866909,1.2093592,-0.47635436,0.17535114,0.30321795
0.1,0.0,1.4999999999999998,-0.5235987755982988,0.5235987755982988,0,-0.49194592,0.3268179,-0.817752,0.9306289,-0.8425893,0.5131328,-1.8460451,0.7136041,-0.9448766,1.8844436,1.215575,-0.46595675,0.17151709,0.3449959
0.1,0.0,1.4999999999999998,-0.5235987755982988,0.5235987755982988,0,-0.508239,0.3305638,-0.8274657,0.92286026,-0.8983943,0.50802267,-1.8256192,0.7067787,-0.9358899,1.8939706,1.2191095,-0.4678068,0.18743213,0.17060988
0.1,0.0,1.4999999999999998,-0.5235987755982988,0.5235987755982988,0,-0.4757516,0.302942,-0.8372877,0.92535096,-0.86454964,0.51835215,-2.1827183,0.7170632,-0.9260242,1.8737878,1.2173419,-0.46242845,0.17962797,0.20827939
0.1,0.0,1.4999999999999998,-0.5235987755982988,0.5235987755982988,0,-0.47768152,0.33456972,-0.83128375,0.91724175,-0.879967,0.52702415,-2.000207,0.71267784,-0.9260528,1.894747,1.2216016,-0.46391156,0.17867069,0.280523
0.1,0.0,1.4999999999999998,-0.5235987755982988,0.5235987755982988,0,-0.48316145,0.35065016,-0.8244949,0.9188403,-0.88061714,0.5490446,-1.8080933,0.7102275,-0.93551785,1.8882608,1.21464,-0.4447909,0.19361596,0.20371795
0.1,0.0,1.4999999999999998,-0.5235987755982988,0.5235987755982988,0,-0.48529604,0.33447528,-0.83131576,0.9209107,-0.8934628,0.5541508,-1.6883382,0.70167565,-0.92480606,1.8940582,1.2183539,-0.48000512,0.17732728,0.29389298
0.1,0.0,1.4999999999999998,-0.5235987755982988,0.5235987755982988,0,-0.49368778,0.3338194,-0.8168265,0.9244605,-0.90016794,0.5346198,-1.7604946,0.7115275,-0.9382486,1.887267,1.2085794,-0.4526392,0.20279668,0.3229544
0.1,0.0,1.4999999999999998,-0.5235987755982988,0.5235987755982988,0,-0.5070917,0.3056375,-0.8240962,0.92631006,-0.88454515,0.5209184,-1.7143345,0.7143342,-0.92880374,1.8845532,1.2128481,-0.45401022,0.1975075,0.27714357
0.1,0.0,1.4999999999999998,-0.5235987755982988,0.5235987755982988,0,-0.48472863,0.3482813,-0.8411449,0.9225145,-0.8588145,0.5368103,-1.8356572,0.69772583,-0.9252036,1.8701131,1.213528,-0.46133614,0.194356,0.16130355
0.1,0.0,1.4999999999999998,-0.5235987755982988,0.5235987755982988,0,-0.48705018,0.32708305,-0.83652806,0.9204738,-0.8782938,0.5341872,-1.5924436,0.71064395,-0.92666626,1.8895345,1.2086192,-0.45488903,0.17160249,0.20528744
0.1,0.0,1.4999999999999998,-0.5235987755982988,0.5235987755982988,0,-0.45781386,0.35279852,-0.8380832,0.9335252,-0.8836763,0.52631706,-2.0818806,0.68594885,-0.9352987,1.8991411,1.2072725,-0.4525792,0.19197004,0.28727785
0.1,0.0,1.4999999999999998,-0.5235987755982988,0.5235987755982988,0,-0.4846709,0.32861158,-0.8517368,0.9273291,-0.86557484,0.5290313,-1.6346787,0.70391303,-0.93095237,1.8863875,1.2204444,-0.45448688,0.17925034,0.15109251
0.1,0.0,1.4999999999999998,-0.5235987755982988,0.5235987755982988,0,-0.50736326,0.3387552,-0.8454184,0.9174883,-0.8407277,0.5114798,-1.8864667,0.70659494,-0.933482,1.8848797,1.2149565,-0.46346074,0.19797179,0.18483439
0.1,0.0,1.4999999999999998,-0.5235987755982988,0.5235987755982988,0,-0.49593276,0.34292397,-0.8350725,0.9260629,-0.8874865,0.5228345,-1.7292798,0.7057179,-0.9403258,1.8860812,1.2182978,-0.49036458,0.1739884,0.27934983
0.1,0.0,1.4999999999999998,-0.5235987755982988,0.5235987755982988,0,-0.49524552,0.32062387,-0.83768976,0.91938066,-0.8505386,0.50389695,-1.8733798,0.7081041,-0.95464665,1.888298,1.21346,-0.45231542,0.18641537,0.24743326
0.1,0.0,1.4999999999999998,-0.5235987755982988,0.5235987755982988,0,-0.52072144,0.30257404,-0.8261305,0.9178623,-0.8642689,0.53171736,-1.877699,0.6953406,-0.9447275,1.8926041,1.2220758,-0.47455907,0.15338825,0.32743984
0.1,0.0,1.4999999999999998,-0.5235987755982988,0.5235987755982988,0,-0.49606168,0.34083843,-0.8241678,0.92742574,-0.8773071,0.53510046,-1.6640306,0.7158263,-0.93955976,1.8876045,1.2199496,-0.4801959,0.18215369,0.24232957
0.1,0.0,1.4999999999999998,-0.5235987755982988,0.5235987755982988,0,-0.4755143,0.2956328,-0.83541393,0.92128783,-0.84474635,0.5673555,-1.7964071,0.7221861,-0.9429508,1.8754648,1.2181883,-0.46598157,0.16491275,0.23014307
0.1,0.0,1.4999999999999998,-0.5235987755982988,0.5235987755982988,0,-0.4989578,0.34153673,-0.82855,0.91015035,-0.85896635,0.55948234,-1.7218915,0.7166405,-0.93442994,1.8745347,1.2095892,-0.47109202,0.18029922,0.2858614
0.1,0.0,1.4999999999999998,-0.5235987755982988,0.5235987755982988,0,-0.51110965,0.3392707,-0.8088336,0.92027545,-0.8531292,0.51525784,-1.700076,0.7076802,-0.9335474,1.8897814,1.2018487,-0.46461624,0.19487487,0.23010328
0.1,0.0,1.4999999999999998,-0.5235987755982988,0.5235987755982988,0,-0.47730473,0.33615923,-0.8458929,0.9248708,-0.8994834,0.5311015,-1.85309,0.6959878,-0.92628384,1.8864424,1.2143414,-0.46702465,0.18164767,0.28346917
0.1,0.0,1.4999999999999998,-0.5235987755982988,0.5235987755982988,0,-0.48297086,0.35477477,-0.8137076,0.9237827,-0.85024166,0.56882846,-1.5992234,0.72500193,-0.9375805,1.8861501,1.2134784,-0.47072682,0.16733994,0.24435411
0.1,0.0,1.4999999999999998,-0.5235987755982988,0.5235987755982988,0,-0.4966349,0.3158338,-0.83457416,0.9172642,-0.8367952,0.53192204,-2.0684195,0.7118555,-0.9491084,1.901163,1.2171288,-0.46012,0.18885975,0.2374999
0.1,0.0,1.4999999999999998,-0.5235987755982988,0.5235987755982988,0,-0.49779359,0.33375987,-0.8221907,0.92670053,-0.85226023,0.55921054,-1.6541966,0.69959724,-0.9310603,1.9004405,1.2179475,-0.46078312,0.19269621,0.18959756
0.1,0.0,1.4999999999999998,-0.5235987755982988,0.5235987755982988,0,-0.49239445,0.3473848,-0.8238095,0.92915636,-0.86217564,0.54146224,-1.680619,0.7068011,-0.9513492,1.8812898,1.2209036,-0.47084463,0.18160774,0.2600203
0.1,0.0,1.4999999999999998,-0.5235987755982988,0.5235987755982988,0,-0.48445243,0.34802312,-0.81375057,0.9154037,-0.88214,0.5636387,-1.8231001,0.71881586,-0.9268375,1.8886337,1.2190176,-0.45027667,0.17396706,0.22748007
0.1,0.0,1.4999999999999998,-0.5235987755982988,0.5235987755982988,0,-0.48196742,0.338718,-0.8337768,0.9196232,-0.8640174,0.55101436,-1.6258278,0.7136974,-0.94680333,1.8809574,1.2075099,-0.45457628,0.18414181,0.12192295
0.1,0.0,1.4999999999999998,-0.5235987755982988,0.5235987755982988,0,-0.49655887,0.33238843,-0.824326,0.9234583,-0.86471885,0.5448087,-1.8427595,0.7073532,-0.9308641,1.8857067,1.2205106,-0.46465394,0.17583215,0.29143366
0.1,0.0,1.4999999999999998,-0.5235987755982988,0.5235987755982988,0,-0.48289907,0.33437282,-0.83484435,0.9234502,-0.8766392,0.5281616,-1.7690455,0.712521,-0.93801296,1.9031626,1.2176241,-0.4608277,0.17989129,0.25650308
0.1,0.0,1.4999999999999998,-0.5235987755982988,0.5235987755982988,0,-0.4754052,0.31004718,-0.8345172,0.92766774,-0.87366205,0.5305532,-1.7661338,0.7133688,-0.945273,1.9037371,1.2172428,-0.48792595,0.1713151,0.2847746
0.1,0.0,1.4999999999999998,-0.5235987755982988,0.5235987755982988,0,-0.50213635,0.3237886,-0.8341916,0.92191046,-0.87713194,0.53274465,-2.0756326,0.69014335,-0.93053466,1.8808509,1.218047,-0.44258487,0.18817136,0.116671346
0.1,0.0,1.4999999999999998,-0.5235987755982988,0.5235987755982988,0,-0.45661607,0.3706687,-0.85875154,0.92913765,-0.8419568,0.5256663,-1.7505171,0.7130781,-0.9443669,1.8855333,1.2276016,-0.50697327,0.18854864,0.098336466
0.1,0.0,1.4999999999999998,-0.5235987755982988,0.5235987755982988,0,-0.46131253,0.3574857,-0.84711975,0.9228141,-0.8334098,0.5382102,-1.8772453,0.7060326,-0.92549545,1.9037336,1.2144736,-0.46378168,0.18798204,0.21049185
0.1,0.0,1.4999999999999998,-0.5235987755982988,0.5235987755982988,0,-0.4889682,0.30304894,-0.81751347,0.9250105,-0.8430289,0.55495465,-2.0633092,0.7079641,-0.9290663,1.8946915,1.210246,-0.4534411,0.16540356,0.27650923
0.1,0.0,1.4999999999999998,-0.5235987755982988,0.5235987755982988,0,-0.48339605,0.34648874,-0.83827114,0.922534,-0.810531,0.56999767,-1.6803846,0.6968345,-0.92833596,1.8926762,1.2207258,-0.45620954,0.17428575,0.24768849
0.1,0.0,1.4999999999999998,-0.5235987755982988,0.5235987755982988,0,-0.50540763,0.30141667,-0.8441429,0.92038846,-0.84146404,0.541201,-1.844096,0.7161348,-0.92793745,1.8870536,1.2292508,-0.4667994,0.19465387,0.20256351
0.1,0.0,1.4999999999999998,-0.5235987755982988,0.5235987755982988,0,-0.48327306,0.36979306,-0.84306943,0.9174438,-0.8434205,0.54278827,-1.8673538,0.7067558,-0.9422682,1.8746953,1.21671,-0.45823443,0.1798689,0.17596959
0.1,0.0,1.4999999999999998,-0.5235987755982988,0.5235987755982988,0,-0.47629106,0.3509281,-0.84745973,0.9210888,-0.8845994,0.532037,-1.7401186,0.7168946,-0.96109253,1.8979957,1.2132307,-0.4520325,0.17190021,0.2687313
0.1,0.0,1.4999999999999998,-0.5235987755982988,0.5235987755982988,0,-0.4687293,0.35809484,-0.8344778,0.9236967,-0.86089975,0.555548,-1.6463219,0.7070064,-0.95581377,1.8899122,1.2165108,-0.47688738,0.1868089,0.24792895
0.1,0.0,1.4999999999999998,-0.5235987755982988,0.5235987755982988,0,-0.49885923,0.3165209,-0.85076123,0.9110637,-0.8844825,0.538485,-1.9085714,0.70997024,-0.94154316,1.8845856,1.2210712,-0.48885763,0.17135917,0.18939233
0.1,0.0,1.4999999999999998,-0.5235987755982988,0.5235987755982988,0,-0.47437075,0.3646369,-0.84680957,0.92158926,-0.8865843,0.5320704,-1.7375857,0.72028184,-0.9323695,1.883918,1.2242357,-0.4665028,0.18128885,0.21137765
0.1,0.0,1.4999999999999998,-0.5235987755982988,0.5235987755982988,0,-0.49037594,0.3328266,-0.83407557,0.9253546,-0.86257833,0.55220705,-1.8523037,0.6931134,-0.9455324,1.9005471,1.2174042,-0.4651365,0.16423485,0.23242126
0.1,0.0,1.4999999999999998,-0.5235987755982988,0.5235987755982988,0,-0.46952182,0.347658,-0.8371579,0.9237076,-0.8907223,0.53698564,-1.7599636,0.6950588,-0.92681974,1.8994817,1.2138814,-0.50325394,0.16628881,0.22306275
0.1,0.0,1.4999999999999998,-0.5235987755982988,0.5235987755982988,0,-0.49932542,0.3545359,-0.8130828,0.92149144,-0.88900965,0.5619506,-2.1451244,0.68964535,-0.9311827,1.8827146,1.2161089,-0.46031892,0.1894476,0.30151722
0.1,0.0,1.4999999999999998,-0.5235987755982988,0.5235987755982988,0,-0.4709807,0.32664445,-0.830182,0.9149299,-0.89978635,0.56888855,-1.841942,0.7094027,-0.93687654,1.8938065,1.2034209,-0.44330558,0.19943461,0.16258536
0.1,0.0,1.4999999999999998,-0.5235987755982988,0.5235987755982988,0,-0.49316052,0.33423856,-0.8351081,0.92261124,-0.8799179,0.5543768,-1.5138175,0.7122231,-0.92257977,1.8861465,1.2200289,-0.44659773,0.15289189,0.27841604
0.1,0.0,1.4999999999999998,-0.5235987755982988,0.5235987755982988,0,-0.49350053,0.33996874,-0.8143414,0.9276617,-0.88347536,0.5537201,-1.7743897,0.7136093,-0.9176849,1.8922149,1.2152904,-0.45149875,0.19911167,0.2059407
0.1,0.0,1.4999999999999998,-0.5235987755982988,0.5235987755982988,0,-0.49603823,0.2996368,-0.8415365,0.9303562,-0.88956165,0.538524,-1.8682178,0.6866375,-0.9420468,1.8818423,1.2007111,-0.44263202,0.18785322,0.24305518
0.1,0.0,1.4999999999999998,-0.5235987755982988,0.5235987755982988,0,-0.48680162,0.34624407,-0.84860724,0.9247308,-0.82615083,0.53536475,-1.9694177,0.7023072,-0.94499314,1.8805746,1.2191103,-0.48282406,0.17747293,0.22799172
0.1,0.0,1.4999999999999998,-0.5235987755982988,0.5235987755982988,0,-0.4943652,0.3305718,-0.84503084,0.9215079,-0.8873048,0.54120255,-1.7506008,0.70791227,-0.943142,1.8850896,1.2197176,-0.49297726,0.18499413,0.15881577
0.1,0.0,1.4999999999999998,-0.5235987755982988,0.5235987755982988,0,-0.51759285,0.33699986,-0.8229258,0.92785907,-0.91005474,0.52756554,-1.6435224,0.70049226,-0.93136716,1.8934215,1.2204741,-0.44677863,0.16674706,0.22216442
0.1,0.0,1.4999999999999998,-0.5235987755982988,0.5235987755982988,0,-0.4840415,0.3368941,-0.84468603,0.9224638,-0.8587963,0.54085827,-1.7051244,0.7116516,-0.9220584,1.8898779,1.2121913,-0.48371288,0.1674347,0.23255731
0.1,0.0,1.4999999999999998,-0.5235987755982988,0.5235987755982988,0,-0.5154161,0.3374608,-0.83047175,0.92304116,-0.8709705,0.51429904,-1.786149,0.71337587,-0.9285572,1.8832732,1.2129642,-0.45951512,0.20096385,0.28509453
0.1,0.0,1.4999999999999998,-0.5235987755982988,0.5235987755982988,0,-0.47834945,0.33655083,-0.8551791,0.9194505,-0.8608999,0.536854,-1.8779181,0.69760746,-0.9471721,1.8959733,1.2061602,-0.43194,0.17617211,0.09119125
0.1,0.0,1.4999999999999998,-0.5235987755982988,0.5235987755982988,0,-0.4845436,0.34858176,-0.85212594,0.9253119,-0.8641801,0.5332457,-1.8098983,0.69830817,-0.9318266,1.8843918,1.2170745,-0.49765188,0.17013362,0.34630096
0.1,0.0,1.4999999999999998,-0.5235987755982988,0.5235987755982988,0,-0.50278157,0.33962545,-0.8386134,0.92530775,-0.84073514,0.5346101,-1.5005293,0.7061411,-0.9420765,1.892065,1.2203716,-0.48784488,0.16329227,0.21099545
0.1,0.0,1.4999999999999998,-0.5235987755982988,0.5235987755982988,0,-0.4899648,0.33679807,-0.85791194,0.92133623,-0.9026063,0.52773315,-1.8933839,0.71272904,-0.925543,1.8825562,1.2136158,-0.45523548,0.18035425,0.2799734
0.1,0.0,1.4999999999999998,-0.5235987755982988,0.5235987755982988,0,-0.47216177,0.33431187,-0.8473415,0.9305859,-0.8932184,0.5438226,-1.8554486,0.71654445,-0.9296767,1.8848435,1.2161767,-0.45593032,0.18892094,0.17888188
0.1,0.0,1.4999999999999998,-0.5235987755982988,0.5235987755982988,0,-0.50054395,0.2954395,-0.8417802,0.9150546,-0.9257394,0.5611983,-1.7752604,0.71456224,-0.952403,1.8847464,1.20606,-0.4533654,0.18591708,0.093933396
0.1,0.0,1.4999999999999998,-0.5235987755982988,0.5235987755982988,0,-0.48870477,0.313386,-0.8519373,0.9230162,-0.8563457,0.54858494,-1.9134037,0.70838016,-0.93141127,1.8906839,1.2184885,-0.46912462,0.19272766,0.22977605
0.1,0.0,1.4999999999999998,-0.5235987755982988,0.5235987755982988,0,-0.5057455,0.3239955,-0.852519,0.9240114,-0.86527056,0.49953038,-1.9891348,0.6967172,-0.9355632,1.8906199,1.2086301,-0.49399152,0.17037289,0.200536
0.1,0.0,1.4999999999999998,-0.5235987755982988,0.5235987755982988,0,-0.4979742,0.34377465,-0.832988,0.9193453,-0.8912666,0.53524506,-1.9554996,0.7028633,-0.9349997,1.9028519,1.2142022,-0.4745296,0.18710999,0.25969398
0.1,0.0,1.4999999999999998,-0.5235987755982988,0.5235987755982988,0,-0.5241295,0.30830824,-0.8291345,0.9277258,-0.88081425,0.53456604,-1.9429545,0.69251746,-0.9356673,1.8869013,1.2145269,-0.48365864,0.17183632,0.27408713
0.1,0.0,1.4999999999999998,-0.5235987755982988,0.5235987755982988,0,-0.50259113,0.32421288,-0.85661036,0.921956,-0.8510443,0.51638484,-1.7367637,0.7078228,-0.9548305,1.8781743,1.2188869,-0.47296056,0.17821014,0.19909316
0.1,0.0,1.4999999999999998,-0.5235987755982988,0.5235987755982988,0,-0.5086321,0.31657878,-0.85050356,0.9155215,-0.89526176,0.54314196,-1.7532883,0.7118667,-0.92694134,1.8915212,1.2161992,-0.47192672,0.16013321,0.15278177
0.1,0.0,1.4999999999999998,-0.5235987755982988,0.5235987755982988,0,-0.4918244,0.3224232,-0.8522179,0.9188042,-0.92302996,0.5532638,-1.6771985,0.7053352,-0.9290384,1.8813126,1.2037902,-0.48085284,0.17029996,0.21274194
0.1,0.0,1.4999999999999998,-0.5235987755982988,0.5235987755982988,0,-0.5100084,0.30627686,-0.8298539,0.91290444,-0.86395377,0.57791144,-1.9268552,0.70242023,-0.94568354,1.9042978,1.2070519,-0.4589169,0.19052637,0.26455462
0.1,0.0,1.4999999999999998,-0.5235987755982988,0.5235987755982988,0,-0.49902067,0.3404577,-0.8411822,0.9287365,-0.8873095,0.5194834,-1.9096878,0.71633244,-0.92948776,1.884337,1.2184846,-0.4630754,0.17961669,0.22723307
0.1,0.0,1.4999999999999998,-0.5235987755982988,0.5235987755982988,0,-0.48080945,0.35785323,-0.8465351,0.9232298,-0.873063,0.5534689,-1.8665522,0.7046392,-0.9333178,1.8854876,1.2131308,-0.49496132,0.160522,0.26935896
0.1,0.0,1.4999999999999998,-0.5235987755982988,0.5235987755982988,0,-0.50502187,0.32468036,-0.84551185,0.9284755,-0.8717627,0.5297108,-1.8147173,0.70517963,-0.937893,1.901703,1.214561,-0.4659906,0.17277056,0.28773528
0.1,0.0,1.4999999999999998,-0.5235987755982988,0.5235987755982988,0,-0.48907766,0.35682166,-0.85979617,0.92279625,-0.88978064,0.53080344,-1.751383,0.72623086,-0.92777354,1.8935251,1.2106726,-0.454277,0.17467085,0.19529478
0.1,0.0,1.4999999999999998,-0.5235987755982988,0.5235987755982988,0,-0.51314265,0.3159125,-0.82929355,0.92908585,-0.8660072,0.55315804,-1.853131,0.7111822,-0.944697,1.8829697,1.2090862,-0.46190336,0.1689457,0.15507226
0.1,0.0,1.4999999999999998,-0.5235987755982988,0.5235987755982988,0,-0.49664038,0.36829758,-0.86117357,0.923305,-0.89777523,0.50994974,-1.8180947,0.715606,-0.9326351,1.8696065,1.2211304,-0.45620754,0.16859737,0.2168918
0.1,0.0,1.4999999999999998,-0.5235987755982988,0.5235987755982988,0,-0.5239324,0.32633352,-0.8135829,0.9274762,-0.8785876,0.55977124,-1.7819389,0.70314085,-0.934595,1.8846152,1.2029345,-0.46539524,0.1676672,0.14595965
0.1,0.0,1.4999999999999998,-0.5235987755982988,0.5235987755982988,0,-0.49432924,0.31824198,-0.8428899,0.93145555,-0.8485184,0.5326438,-2.40511,0.7050648,-0.93164194,1.891995,1.2090827,-0.45885402,0.17115,0.2264921
0.1,0.0,1.4999999999999998,-0.5235987755982988,0.5235987755982988,0,-0.508742,0.37190843,-0.8399081,0.9168649,-0.90649754,0.51739705,-2.0364158,0.70230764,-0.9365977,1.8910902,1.2055066,-0.43378156,0.16728584,0.3093128
0.1,0.0,1.4999999999999998,-0.5235987755982988,0.5235987755982988,0,-0.5059404,0.34364018,-0.84287965,0.92826134,-0.8699381,0.55038404,-1.876038,0.70079195,-0.9255455,1.8843145,1.2173811,-0.44478732,0.18403026,0.21111746
0.1,0.0,1.4999999999999998,-0.5235987755982988,0.5235987755982988,0,-0.5023656,0.3421625,-0.83289,0.9219088,-0.9109839,0.59478563,-1.7155536,0.71115994,-0.9437259,1.893201,1.2174268,-0.45719683,0.17379709,0.19135773
0.1,0.0,1.4999999999999998,-0.5235987755982988,0.5235987755982988,0,-0.5042598,0.33837843,-0.8435468,0.9225614,-0.83843976,0.5673316,-1.8159575,0.71180254,-0.93447566,1.8961341,1.2140805,-0.46571052,0.17248908,0.3563626
0.1,0.0,1.4999999999999998,-0.5235987755982988,0.5235987755982988,0,-0.5206339,0.32047313,-0.8635945,0.9252369,-0.87682575,0.52872455,-1.7673347,0.7171826,-0.94218564,1.8870236,1.2080352,-0.441008,0.18580243,0.1954528
0.1,0.0,1.4999999999999998,-0.5235987755982988,0.5235987755982988,0,-0.4758711,0.35045335,-0.8321283,0.92947906,-0.8282517,0.55480856,-1.9740593,0.72744834,-0.9379207,1.9036653,1.2098129,-0.47167268,0.17332079,0.15884165
0.1,0.0,1.4999999999999998,-0.5235987755982988,0.5235987755982988,0,-0.48368114,0.3376291,-0.8311319,0.9183558,-0.85102594,0.5391648,-1.7813938,0.6998657,-0.9355263,1.8812057,1.2136202,-0.48310983,0.17219223,0.186812
0.1,0.0,1.4999999999999998,-0.5235987755982988,0.5235987755982988,0,-0.50324655,0.29663405,-0.81236815,0.9262686,-0.8499577,0.5094481,-1.9270954,0.72249216,-0.93657136,1.8823692,1.2133619,-0.4430735,0.18376885,0.13809526
0.1,0.0,1.4999999999999998,-0.5235987755982988,0.5235987755982988,0,-0.49554542,0.3582815,-0.8500958,0.91679466,-0.8331441,0.50674164,-1.6818024,0.7120695,-0.93516296,1.9007913,1.2207897,-0.46878254,0.18041228,0.21353264
0.1,0.0,1.4999999999999998,-0.5235987755982988,0.5235987755982988,0,-0.48371586,0.33521447,-0.85661757,0.9275143,-0.897975,0.52745897,-1.5654545,0.70494014,-0.9356148,1.8816038,1.2216866,-0.45177892,0.15861893,0.27343285
0.1,0.0,1.4999999999999998,-0.5235987755982988,0.5235987755982988,0,-0.48170885,0.32112145,-0.85439163,0.92091715,-0.8316397,0.56600374,-1.6059192,0.71364564,-0.93518275,1.8932215,1.2156196,-0.4487013,0.1843724,0.22116227
0.1,0.0,1.4999999999999998,-0.5235987755982988,0.5235987755982988,0,-0.48922622,0.31617314,-0.852787,0.92658794,-0.87354195,0.5109611,-1.6239251,0.7168968,-0.92504907,1.8844571,1.2049713,-0.459219,0.1744219,0.2787368
0.1,0.0,1.4999999999999998,-0.5235987755982988,0.5235987755982988,0,-0.50715166,0.30616882,-0.84684867,0.92180836,-0.86311483,0.5464973,-1.8699791,0.7106374,-0.93929076,1.8865566,1.213489,-0.486219,0.18102512,0.1973273
