sanky1234/BimanualDexCatch/isaacgymenvs/cem_results/football_pose_0.0_-0.1_1.0999999999999999_-0.5235987755982988_-0.5235987755982988_0_2025-05-26.csv
x,y,z,roll,pitch,yaw,robot1/joint1,robot1/joint2,robot1/joint3,robot1/joint4,robot1/joint5,robot1/joint6,robot1/joint7,robot2/joint1,robot2/joint2,robot2/joint3,robot2/joint4,robot2/joint5,robot2/joint6,robot2/joint7
0.0,-0.1,1.0999999999999999,-0.5235987755982988,-0.5235987755982988,0,-0.09677082,-1.4091659,-0.21663375,-0.055704717,0.10528223,1.0595242,0.24273896,-0.069064125,-0.19503924,-2.0575922,0.5427244,0.12712866,0.6365494,-0.4020117
0.0,-0.1,1.0999999999999999,-0.5235987755982988,-0.5235987755982988,0,-0.10062845,-1.4070152,-0.21064922,-0.056630038,-0.09288671,1.194555,-0.37249687,-0.06666015,-0.19497854,-2.0553577,0.5539117,0.11527919,0.5096658,-0.46224022
0.0,-0.1,1.0999999999999999,-0.5235987755982988,-0.5235987755982988,0,-0.10446963,-1.4094211,-0.21440914,-0.053956077,0.08206544,1.213213,0.44339454,-0.06307795,-0.19717258,-2.0606995,0.5493309,-0.013699642,0.47010267,0.1859631
0.0,-0.1,1.0999999999999999,-0.5235987755982988,-0.5235987755982988,0,-0.101421595,-1.4077778,-0.21452254,-0.08109951,0.025285102,1.0516704,0.56405383,-0.063781016,-0.19674136,-2.058342,0.553907,0.068226404,0.37055516,-0.3315557
0.0,-0.1,1.0999999999999999,-0.5235987755982988,-0.5235987755982988,0,-0.10315871,-1.407756,-0.21284649,-0.021684337,-0.08993884,1.050362,0.18286464,-0.06758523,-0.19421765,-2.0576005,0.55798537,0.16142309,0.35923144,0.14021115
0.0,-0.1,1.0999999999999999,-0.5235987755982988,-0.5235987755982988,0,-0.09960531,-1.4090288,-0.22628488,-0.010752421,-0.16785519,1.1130499,1.899344,-0.067151345,-0.19693777,-2.0559182,0.5521081,-0.1680312,0.47236982,0.033943918
0.0,-0.1,1.0999999999999999,-0.5235987755982988,-0.5235987755982988,0,-0.098100305,-1.4078134,-0.20072542,-0.04435115,-0.019034956,1.1139404,-0.49723777,-0.065543205,-0.1990788,-2.0550802,0.55566597,0.21782842,0.3109457,-0.23711486
0.0,-0.1,1.0999999999999999,-0.5235987755982988,-0.5235987755982988,0,-0.10006496,-1.4073422,-0.22166836,-0.012902734,0.05766203,1.1321495,2.10012,-0.06262908,-0.19935946,-2.053546,0.56070787,0.4857681,0.3370647,-0.418775
0.0,-0.1,1.0999999999999999,-0.5235987755982988,-0.5235987755982988,0,-0.10206805,-1.4067715,-0.2229195,-0.036585797,0.008878642,1.0767844,0.5087233,-0.06276188,-0.20016584,-2.0516527,0.5487604,-0.03541186,0.6512441,-0.93253934
0.0,-0.1,1.0999999999999999,-0.5235987755982988,-0.5235987755982988,0,-0.101537056,-1.4083884,-0.2147493,-0.048360743,0.18692392,1.0474079,0.9621792,-0.05925133,-0.20004904,-2.0570164,0.55738074,-0.0406378,0.619325,-0.8195157
0.0,-0.1,1.0999999999999999,-0.5235987755982988,-0.5235987755982988,0,-0.09989152,-1.40937,-0.20177127,-0.018601824,-0.11752953,1.1082623,-0.15364996,-0.06613988,-0.19814,-2.05141,0.551841,0.002195699,0.560523,0.0041863895
0.0,-0.1,1.0999999999999999,-0.5235987755982988,-0.5235987755982988,0,-0.101009704,-1.4065993,-0.21243852,-0.07992108,0.005097467,1.0471947,-0.77489424,-0.061170705,-0.1989856,-2.0569282,0.54753226,0.18070963,0.5016707,0.082821935
0.0,-0.1,1.0999999999999999,-0.5235987755982988,-0.5235987755982988,0,-0.10169025,-1.40785,-0.22390683,-0.06891274,0.018363854,1.085565,0.40719786,-0.0620697,-0.197944,-2.0572052,0.55643433,-0.09494176,0.4108048,-0.02747487
0.0,-0.1,1.0999999999999999,-0.5235987755982988,-0.5235987755982988,0,-0.10328792,-1.4081877,-0.22213693,-0.04548924,-0.080252275,1.2404673,0.4423039,-0.06490616,-0.19672126,-2.057501,0.5490762,0.34381407,0.61800474,-0.25231314
0.0,-0.1,1.0999999999999999,-0.5235987755982988,-0.5235987755982988,0,-0.10011738,-1.4080994,-0.21841007,-0.045581535,0.06526107,1.062638,1.1061037,-0.06474525,-0.19862573,-2.0625885,0.5334738,0.09960091,0.57920843,0.19240086
0.0,-0.1,1.0999999999999999,-0.5235987755982988,-0.5235987755982988,0,-0.100731045,-1.409241,-0.21499899,-0.022366041,0.004007734,1.0248656,-0.24294882,-0.06152289,-0.20100622,-2.0552375,0.54814035,0.30809936,0.53172046,0.005179653
0.0,-0.1,1.0999999999999999,-0.5235987755982988,-0.5235987755982988,0,-0.101033054,-1.408968,-0.21680294,-0.009900743,0.17276643,1.0533938,0.91214955,-0.06233532,-0.19981349,-2.0588398,0.5492707,0.022920687,0.39141256,-0.28969666
0.0,-0.1,1.0999999999999999,-0.5235987755982988,-0.5235987755982988,0,-0.102339104,-1.407983,-0.22174264,0.010006066,-0.06479757,1.0118506,0.84600234,-0.055286895,-0.20137963,-2.053456,0.5655472,-0.13131008,0.40948534,-0.11280358
0.0,-0.1,1.0999999999999999,-0.5235987755982988,-0.5235987755982988,0,-0.10002063,-1.4082043,-0.22407062,-0.05369502,-0.10076665,1.0945332,-0.81675345,-0.06526906,-0.19576192,-2.0617933,0.54366523,-0.18344419,0.5487454,-0.2571155
0.0,-0.1,1.0999999999999999,-0.5235987755982988,-0.5235987755982988,0,-0.09786634,-1.410042,-0.20942669,0.017920172,0.024792062,1.0212301,1.0752382,-0.06556462,-0.19598797,-2.056455,0.55391955,-0.115515165,0.49852657,-0.30747575
0.0,-0.1,1.0999999999999999,-0.5235987755982988,-0.5235987755982988,0,-0.09755533,-1.410246,-0.21592508,-0.061641887,-0.22068201,1.009177,0.7613371,-0.062109657,-0.19975115,-2.0571837,0.5583043,-0.074934214,0.7009225,-0.627994
0.0,-0.1,1.0999999999999999,-0.5235987755982988,-0.5235987755982988,0,-0.098125055,-1.4099562,-0.21201271,-0.04397091,-0.07307697,1.070552,0.9378714,-0.06140685,-0.19898452,-2.056511,0.55557,0.41656667,0.45904908,-0.18747945
0.0,-0.1,1.0999999999999999,-0.5235987755982988,-0.5235987755982988,0,-0.10138705,-1.4116421,-0.21233715,-0.06628148,-0.041212182,1.1032177,-0.5057842,-0.06258965,-0.19320153,-2.0621989,0.5545081,-0.1518293,0.6971818,-0.24552122
0.0,-0.1,1.0999999999999999,-0.5235987755982988,-0.5235987755982988,0,-0.09859746,-1.4074649,-0.21820432,-0.054548454,-0.008643492,1.0351253,0.8379691,-0.05879747,-0.19568096,-2.0617454,0.5502852,0.117153056,0.66278076,-0.1838207
0.0,-0.1,1.0999999999999999,-0.5235987755982988,-0.5235987755982988,0,-0.09824634,-1.4101316,-0.22527891,-0.07300871,0.10084759,1.0706544,1.1675178,-0.060981825,-0.1938385,-2.0642974,0.55810463,-0.07259966,0.6698928,0.31952193
0.0,-0.1,1.0999999999999999,-0.5235987755982988,-0.5235987755982988,0,-0.10286415,-1.4097741,-0.2209797,-0.0042549716,-0.123607256,1.0600508,0.78410774,-0.0599358,-0.19571507,-2.0589817,0.5613807,-0.016878664,0.61781865,-0.10121589
0.0,-0.1,1.0999999999999999,-0.5235987755982988,-0.5235987755982988,0,-0.10412635,-1.4069903,-0.21277452,-0.0031031065,-0.042470034,1.0573621,0.46919644,-0.061539218,-0.19927016,-2.056697,0.5476267,0.100428335,0.61305636,-0.4978507
0.0,-0.1,1.0999999999999999,-0.5235987755982988,-0.5235987755982988,0,-0.09898407,-1.4081697,-0.21686211,-0.008686121,0.099721,1.0734593,0.7730641,-0.06444692,-0.19832855,-2.0611002,0.54890007,0.114801034,0.51815546,-0.08682955
0.0,-0.1,1.0999999999999999,-0.5235987755982988,-0.5235987755982988,0,-0.10260272,-1.4076546,-0.21374898,-0.006363643,-0.06460212,1.0226718,-1.4311451,-0.060125753,-0.20120764,-2.05648,0.5623986,-0.23313852,0.5130609,-0.6856177
0.0,-0.1,1.0999999999999999,-0.5235987755982988,-0.5235987755982988,0,-0.09912789,-1.4085908,-0.20632029,-0.04484293,-0.036481537,0.889702,1.532446,-0.06237912,-0.19844775,-2.0599933,0.5523661,0.13775283,0.41911173,-0.7251559
0.0,-0.1,1.0999999999999999,-0.5235987755982988,-0.5235987755982988,0,-0.09714125,-1.4077072,-0.21476021,0.009420001,-0.097569734,1.0478567,-1.9377714,-0.06626895,-0.19796231,-2.0581374,0.5422488,0.13386373,0.48315036,-0.46680808
0.0,-0.1,1.0999999999999999,-0.5235987755982988,-0.5235987755982988,0,-0.09833911,-1.4070075,-0.21226,-0.03858616,-0.072057664,0.9884106,0.051643394,-0.061508425,-0.19418064,-2.0669448,0.551998,0.04607777,0.6472036,0.30101046
0.0,-0.1,1.0999999999999999,-0.5235987755982988,-0.5235987755982988,0,-0.1022107,-1.4068747,-0.2110515,-0.028680142,0.0874687,1.0786705,-0.704732,-0.061633054,-0.20145714,-2.0617824,0.55220276,0.15327904,0.5367796,0.23339511
0.0,-0.1,1.0999999999999999,-0.5235987755982988,-0.5235987755982988,0,-0.09661914,-1.4094476,-0.21703319,-0.037437595,0.06334372,1.0194275,-0.04060512,-0.05716172,-0.20060797,-2.0535345,0.56035626,0.2842456,0.5254979,0.8401091
0.0,-0.1,1.0999999999999999,-0.5235987755982988,-0.5235987755982988,0,-0.0965524,-1.408206,-0.20757456,-0.022332303,0.076741844,1.097207,-0.13257143,-0.06861547,-0.19731113,-2.0536559,0.55022323,-0.15806678,0.5249028,-0.6357006
0.0,-0.1,1.0999999999999999,-0.5235987755982988,-0.5235987755982988,0,-0.09945705,-1.4077958,-0.21534687,-0.04667801,-0.119950846,1.0481598,0.04794892,-0.06038329,-0.19876808,-2.0567372,0.5575674,0.016176822,0.4683252,0.57904965
0.0,-0.1,1.0999999999999999,-0.5235987755982988,-0.5235987755982988,0,-0.0966136,-1.4080255,-0.20696154,0.0041609057,-0.07146229,1.2503955,0.29497394,-0.05859595,-0.19994526,-2.0596485,0.5532868,0.087662205,0.42017025,0.6112528
0.0,-0.1,1.0999999999999999,-0.5235987755982988,-0.5235987755982988,0,-0.09963267,-1.408679,-0.21916273,-0.034611758,-0.0021463346,0.9840192,1.1199555,-0.060868345,-0.20011693,-2.0566797,0.5501656,0.16928282,0.5790172,-0.029225996
0.0,-0.1,1.0999999999999999,-0.5235987755982988,-0.5235987755982988,0,-0.1020049,-1.4091647,-0.22107998,0.00070499117,-0.019901427,1.0666829,1.7573767,-0.061557274,-0.19991027,-2.059087,0.5478336,-0.007719299,0.54090923,-0.25606167
0.0,-0.1,1.0999999999999999,-0.5235987755982988,-0.5235987755982988,0,-0.09947813,-1.4063357,-0.21553719,-0.0822341,-0.11010997,1.0791923,1.00075,-0.06179254,-0.19963425,-2.0547538,0.55512637,-0.13304785,0.4168583,-0.7889678
0.0,-0.1,1.0999999999999999,-0.5235987755982988,-0.5235987755982988,0,-0.095232226,-1.409792,-0.22272809,-0.000103833234,0.06956966,1.0259508,0.48858544,-0.064692535,-0.19812417,-2.0574498,0.55023474,-0.06504468,0.7941342,-0.18892743
0.0,-0.1,1.0999999999999999,-0.5235987755982988,-0.5235987755982988,0,-0.1019733,-1.4069308,-0.21592991,-0.007166378,-0.18904702,0.9033792,1.1863204,-0.058171514,-0.1970271,-2.0652397,0.55205697,0.19928838,0.6021232,-0.13124199
0.0,-0.1,1.0999999999999999,-0.5235987755982988,-0.5235987755982988,0,-0.10068476,-1.407061,-0.23740919,-0.08688546,-0.00251732,1.1178601,-0.051865507,-0.060727503,-0.19599931,-2.0634046,0.54874784,0.31782988,0.65331537,-0.35741416
0.0,-0.1,1.0999999999999999,-0.5235987755982988,-0.5235987755982988,0,-0.09989994,-1.4077121,-0.21491545,-0.0061132903,0.01562664,1.1889106,1.6881707,-0.06236942,-0.19766757,-2.061599,0.54503655,0.25777045,0.6167613,-0.44134435
0.0,-0.1,1.0999999999999999,-0.5235987755982988,-0.5235987755982988,0,-0.1009443,-1.4066687,-0.20630005,-0.06046936,-0.096378475,1.08132,0.40474275,-0.06413555,-0.19823757,-2.0541248,0.55516815,-0.004598435,0.65879166,-0.4416385
0.0,-0.1,1.0999999999999999,-0.5235987755982988,-0.5235987755982988,0,-0.10051945,-1.4084845,-0.21846612,-0.08441083,-0.15359701,1.0385734,-0.5871982,-0.061595943,-0.19906934,-2.0535655,0.5556196,0.24841608,0.68075836,0.18065321
0.0,-0.1,1.0999999999999999,-0.5235987755982988,-0.5235987755982988,0,-0.09948287,-1.4078177,-0.20573665,-0.03680603,-0.13424142,1.0777209,-0.3094855,-0.062469788,-0.20184015,-2.055789,0.5586098,0.2513887,0.4141814,0.16479088
0.0,-0.1,1.0999999999999999,-0.5235987755982988,-0.5235987755982988,0,-0.10102015,-1.4083,-0.22099958,-0.022197383,-0.12921186,1.0698138,0.32039303,-0.06070227,-0.20020838,-2.059279,0.5509904,0.07611102,0.46155965,0.10904836
0.0,-0.1,1.0999999999999999,-0.5235987755982988,-0.5235987755982988,0,-0.10165994,-1.4072449,-0.22344296,-0.014586904,0.020368185,1.2034497,0.017680274,-0.06262603,-0.20086722,-2.0554557,0.5437561,0.3553892,0.71535885,0.17057683
0.0,-0.1,1.0999999999999999,-0.5235987755982988,-0.5235987755982988,0,-0.09780972,-1.4087303,-0.21654788,-0.041422293,0.15392837,1.1867042,-1.0365807,-0.053588882,-0.19962907,-2.0655336,0.5548947,-0.008250897,0.600466,0.013075719
0.0,-0.1,1.0999999999999999,-0.5235987755982988,-0.5235987755982988,0,-0.09774997,-1.4068929,-0.21553715,-0.018647013,-0.19793244,1.160929,0.3002197,-0.05807053,-0.2031169,-2.0555365,0.55406636,-0.18816672,0.65485805,-0.29345116
0.0,-0.1,1.0999999999999999,-0.5235987755982988,-0.5235987755982988,0,-0.09970338,-1.4068971,-0.22227827,-0.035114974,0.0089818835,0.9283995,0.018036447,-0.061766926,-0.20050861,-2.0567193,0.5579264,-0.1062214,0.65213794,-0.17382333
0.0,-0.1,1.0999999999999999,-0.5235987755982988,-0.5235987755982988,0,-0.10123102,-1.4072777,-0.20602185,0.011865513,-0.089199066,0.90504885,-0.26375636,-0.058116984,-0.20000279,-2.0574105,0.5569268,0.1552739,0.5524613,0.27860942
0.0,-0.1,1.0999999999999999,-0.5235987755982988,-0.5235987755982988,0,-0.09941205,-1.4086158,-0.21487328,-0.014447221,-0.1243118,1.0188687,0.4039471,-0.0660794,-0.1979486,-2.0584166,0.5471425,-0.06460308,0.55782866,-0.1660775
0.0,-0.1,1.0999999999999999,-0.5235987755982988,-0.5235987755982988,0,-0.10405631,-1.4087698,-0.20812914,-0.030628959,-0.097439624,1.1934745,0.30435082,-0.060409125,-0.19858259,-2.0584736,0.55658543,-0.28165308,0.58337295,-0.7639373
0.0,-0.1,1.0999999999999999,-0.5235987755982988,-0.5235987755982988,0,-0.10206931,-1.4072765,-0.2184809,-0.023858622,-0.22105955,1.0408345,0.80285263,-0.06861797,-0.19452779,-2.0580533,0.5540744,0.18697354,0.6263365,0.15604192
0.0,-0.1,1.0999999999999999,-0.5235987755982988,-0.5235987755982988,0,-0.10137884,-1.4075955,-0.20422643,-0.01635529,-0.07771685,1.1058041,1.5504731,-0.06176486,-0.19835123,-2.065484,0.5473332,0.10463041,0.482843,0.07503027
0.0,-0.1,1.0999999999999999,-0.5235987755982988,-0.5235987755982988,0,-0.10240851,-1.4094135,-0.2232508,-0.03116728,-0.07983859,1.0285976,0.4602174,-0.06245676,-0.19736645,-2.0597298,0.5537605,0.11108255,0.62399465,0.4206729
0.0,-0.1,1.0999999999999999,-0.5235987755982988,-0.5235987755982988,0,-0.09663655,-1.4079365,-0.20929718,-0.051286835,-0.028918529,1.0410402,-1.7290767,-0.06845128,-0.19657564,-2.0571127,0.5484687,0.024585595,0.54164404,-0.33414015
0.0,-0.1,1.0999999999999999,-0.5235987755982988,-0.5235987755982988,0,-0.096695885,-1.409918,-0.22260688,-0.029684927,0.0099792555,1.0723357,0.2636168,-0.06309381,-0.19757797,-2.059629,0.55148524,0.19391581,0.6267616,-0.30259004
0.0,-0.1,1.0999999999999999,-0.5235987755982988,-0.5235987755982988,0,-0.10143008,-1.4067862,-0.2204037,-0.04626003,0.04420607,1.0969692,-0.8046277,-0.06585872,-0.19746004,-2.058933,0.55045676,-0.246665,0.4950407,0.4608327
0.0,-0.1,1.0999999999999999,-0.5235987755982988,-0.5235987755982988,0,-0.10025245,-1.4075991,-0.20262882,-0.022709563,0.04702127,1.003345,1.3379736,-0.063382514,-0.19645536,-2.059827,0.5463308,0.2574792,0.78575116,-0.14409423
0.0,-0.1,1.0999999999999999,-0.5235987755982988,-0.5235987755982988,0,-0.09758203,-1.4056616,-0.21606566,0.006153823,-0.24052075,1.0697036,-0.93997127,-0.06233309,-0.19982089,-2.0590467,0.5639968,-0.036129717,0.5764586,0.027153611
0.0,-0.1,1.0999999999999999,-0.5235987755982988,-0.5235987755982988,0,-0.1006196,-1.4067299,-0.21165399,-0.0399861,0.1926399,0.9197612,1.545395,-0.0680007,-0.19702281,-2.0596406,0.5433458,0.03992886,0.77368927,-0.27164182
0.0,-0.1,1.0999999999999999,-0.5235987755982988,-0.5235987755982988,0,-0.10328542,-1.4084024,-0.22224177,-0.026701398,-0.16995294,1.1131927,0.9667747,-0.054670405,-0.20007588,-2.0633054,0.55256456,-0.19270171,0.5573871,0.52606964
0.0,-0.1,1.0999999999999999,-0.5235987755982988,-0.5235987755982988,0,-0.104766205,-1.4078083,-0.20732234,-0.012554394,0.058231782,1.1610392,-0.21805142,-0.06502931,-0.1989396,-2.0624843,0.5413522,-0.11605971,0.49442965,-0.50800896
0.0,-0.1,1.0999999999999999,-0.5235987755982988,-0.5235987755982988,0,-0.097698085,-1.4078937,-0.21507283,-0.040723655,-0.003103766,1.1669562,-1.1045052,-0.062655605,-0.1978678,-2.0585592,0.555087,0.3878465,0.66344017,0.8529001
0.0,-0.1,1.0999999999999999,-0.5235987755982988,-0.5235987755982988,0,-0.10091716,-1.40752,-0.2072955,-0.003169586,0.12463976,1.08127,-1.3722372,-0.06516722,-0.1968903,-2.0570142,0.5532583,0.33141294,0.7628427,-0.28258723
0.0,-0.1,1.0999999999999999,-0.5235987755982988,-0.5235987755982988,0,-0.10120788,-1.4085861,-0.22355506,-0.025712846,-0.12874576,1.0765568,-0.5091967,-0.058744136,-0.19827963,-2.0569358,0.5590009,0.22068495,0.75562817,0.019968526
0.0,-0.1,1.0999999999999999,-0.5235987755982988,-0.5235987755982988,0,-0.10143565,-1.4079863,-0.21827878,-0.06539414,-0.11286544,1.083637,0.6527182,-0.062064204,-0.19982713,-2.0550227,0.56076837,0.12901555,0.4604527,0.043439634
0.0,-0.1,1.0999999999999999,-0.5235987755982988,-0.5235987755982988,0,-0.10240405,-1.4057623,-0.2123297,0.01160224,0.042095773,0.9822374,0.012180868,-0.069052674,-0.1979607,-2.0585907,0.5522346,0.07867911,0.5460378,-0.43241414
0.0,-0.1,1.0999999999999999,-0.5235987755982988,-0.5235987755982988,0,-0.09973325,-1.406805,-0.21542133,-0.055809475,0.20625845,1.088727,1.9308517,-0.06386229,-0.19796441,-2.0595512,0.5480301,0.15064754,0.6647008,0.24302433
0.0,-0.1,1.0999999999999999,-0.5235987755982988,-0.5235987755982988,0,-0.09658912,-1.4065547,-0.21341968,0.017147254,-0.07836304,1.1664883,0.20299637,-0.06377032,-0.19520989,-2.0642216,0.5486115,0.20101006,0.57451814,-0.10870782
0.0,-0.1,1.0999999999999999,-0.5235987755982988,-0.5235987755982988,0,-0.099834986,-1.4074482,-0.21544138,-0.036943194,0.022198565,1.0215738,1.4028581,-0.061409067,-0.19961311,-2.062136,0.54483974,0.21099517,0.6373905,-0.09614408
0.0,-0.1,1.0999999999999999,-0.5235987755982988,-0.5235987755982988,0,-0.10285108,-1.409126,-0.2060075,-0.021288542,0.074762665,0.9942637,0.38426715,-0.062478967,-0.19837232,-2.0556142,0.5587553,0.071752615,0.65219027,0.14634842
0.0,-0.1,1.0999999999999999,-0.5235987755982988,-0.5235987755982988,0,-0.097969204,-1.4102145,-0.20449315,-0.04801571,-0.063989714,1.1945288,-0.8182084,-0.06070695,-0.19972245,-2.056357,0.5569701,-0.009681681,0.6433206,-0.028844265
0.0,-0.1,1.0999999999999999,-0.5235987755982988,-0.5235987755982988,0,-0.0987454,-1.4065095,-0.21611047,-0.0416265,0.038864877,0.9972335,0.8749407,-0.0609107,-0.20148128,-2.059745,0.54883236,0.12320905,0.7943548,0.16810519
0.0,-0.1,1.0999999999999999,-0.5235987755982988,-0.5235987755982988,0,-0.10001654,-1.4097328,-0.20494847,-0.10398609,-0.009880941,1.0973907,-0.1208099,-0.058382135,-0.19747409,-2.0603216,0.55861944,0.08584491,0.66932833,0.017314848
0.0,-0.1,1.0999999999999999,-0.5235987755982988,-0.5235987755982988,0,-0.09736746,-1.4078506,-0.2098311,-0.05298445,0.040768266,1.1897292,-0.019627929,-0.059706815,-0.20096824,-2.0612714,0.5538353,0.034177504,0.37137753,0.05924228
0.0,-0.1,1.0999999999999999,-0.5235987755982988,-0.5235987755982988,0,-0.0966662,-1.4077507,-0.2052837,-0.08108979,-0.1409758,0.9576053,1.5649735,-0.062367268,-0.20202069,-2.0552845,0.5549141,0.050139427,0.6805631,-0.29778
0.0,-0.1,1.0999999999999999,-0.5235987755982988,-0.5235987755982988,0,-0.10053258,-1.4063044,-0.21036798,0.014729359,0.032522805,1.0429342,-0.57774156,-0.06548009,-0.19499102,-2.0593755,0.55303806,0.25442985,0.74194324,-0.3591883
0.0,-0.1,1.0999999999999999,-0.5235987755982988,-0.5235987755982988,0,-0.09877905,-1.4048728,-0.21776827,-0.10190654,-0.019491777,1.1422668,1.3265513,-0.06700829,-0.20036793,-2.05463,0.5489764,-0.016079023,0.4695288,-0.075034834
0.0,-0.1,1.0999999999999999,-0.5235987755982988,-0.5235987755982988,0,-0.1028102,-1.4098134,-0.21910831,0.0044924775,-0.006723198,1.1135658,0.6581487,-0.0581509,-0.1980286,-2.0667949,0.5527971,-0.07234297,0.6006365,-0.42406628
0.0,-0.1,1.0999999999999999,-0.5235987755982988,-0.5235987755982988,0,-0.09863993,-1.4062611,-0.21549967,0.0009053081,0.069538236,1.0279568,-0.65502447,-0.058679815,-0.19931525,-2.0567284,0.55504966,0.038068872,0.70118296,0.12319531
0.0,-0.1,1.0999999999999999,-0.5235987755982988,-0.5235987755982988,0,-0.096526235,-1.4063855,-0.2161593,-0.013246953,-0.106794,1.0114158,0.56392354,-0.060630884,-0.20087968,-2.0615432,0.5509077,0.20443907,0.8168627,0.03293117
0.0,-0.1,1.0999999999999999,-0.5235987755982988,-0.5235987755982988,0,-0.10295935,-1.4104131,-0.21336582,-0.032896444,0.13329615,1.0423872,1.3941141,-0.06251855,-0.19997425,-2.0608358,0.5447547,0.20604804,0.74287677,-0.05735014
0.0,-0.1,1.0999999999999999,-0.5235987755982988,-0.5235987755982988,0,-0.100543596,-1.4081264,-0.21760732,-0.04738567,-0.013369661,1.0866138,-0.65663886,-0.063834645,-0.19698536,-2.0631058,0.5521905,0.116526596,0.5422334,-0.5706114
0.0,-0.1,1.0999999999999999,-0.5235987755982988,-0.5235987755982988,0,-0.09745938,-1.409923,-0.20543137,-0.007686942,-0.061106216,1.0869596,1.3215011,-0.06669928,-0.19888645,-2.05566,0.55840236,-0.065946065,0.4498797,0.21412408
0.0,-0.1,1.0999999999999999,-0.5235987755982988,-0.5235987755982988,0,-0.09913916,-1.407268,-0.21264097,-0.08297009,-0.10476029,1.0976417,0.44730565,-0.07242582,-0.19786885,-2.0547838,0.55998355,0.18251987,0.72319704,0.78081304
0.0,-0.1,1.0999999999999999,-0.5235987755982988,-0.5235987755982988,0,-0.101395585,-1.408566,-0.21103989,-0.048618026,0.17272188,1.0283217,0.52571994,-0.0650623,-0.1974327,-2.0636725,0.55061114,0.09401662,0.56630415,0.23086473
0.0,-0.1,1.0999999999999999,-0.5235987755982988,-0.5235987755982988,0,-0.10260524,-1.4092094,-0.22149044,-0.012223866,0.0058684833,1.1681489,1.2395788,-0.05894894,-0.19929619,-2.0613046,0.5512967,0.08815537,0.829829,0.19852774
0.0,-0.1,1.0999999999999999,-0.5235987755982988,-0.5235987755982988,0,-0.10425357,-1.4073128,-0.21375644,-0.03730473,-0.036376383,1.1538007,1.2589142,-0.059820037,-0.19960096,-2.0572965,0.5578956,0.1966911,0.7167329,0.03250779
0.0,-0.1,1.0999999999999999,-0.5235987755982988,-0.5235987755982988,0,-0.09817301,-1.4094962,-0.21455412,-0.053178173,0.21049523,0.95769227,0.471581,-0.063364305,-0.20095721,-2.0571468,0.5531959,-0.10140299,0.6967729,0.15484703
0.0,-0.1,1.0999999999999999,-0.5235987755982988,-0.5235987755982988,0,-0.097461894,-1.4078169,-0.21510161,-0.048519943,-0.06685707,1.114326,-1.1067843,-0.058335617,-0.20000021,-2.0605495,0.56227446,0.07985637,0.48613808,-0.21784966
0.0,-0.1,1.0999999999999999,-0.5235987755982988,-0.5235987755982988,0,-0.09781382,-1.4079926,-0.22386126,-0.0453711,-0.04848832,0.9559799,-0.9693028,-0.059021514,-0.19978453,-2.060077,0.5551313,0.20859158,0.841411,-0.6375866
0.0,-0.1,1.0999999999999999,-0.5235987755982988,-0.5235987755982988,0,-0.1012408,-1.4070451,-0.20822911,-0.0330797,0.004965445,1.008462,-0.20260249,-0.06729941,-0.20128654,-2.0559528,0.5474862,0.07048713,0.5493984,0.566185
0.0,-0.1,1.0999999999999999,-0.5235987755982988,-0.5235987755982988,0,-0.10077075,-1.4078535,-0.20907934,-0.017740007,-0.02747453,1.1607915,0.34622687,-0.059663158,-0.19983865,-2.058562,0.5547912,0.013978309,0.7751634,-0.4681273
0.0,-0.1,1.0999999999999999,-0.5235987755982988,-0.5235987755982988,0,-0.09897306,-1.408473,-0.21479675,-0.06188381,-0.06864546,1.1800859,0.16981763,-0.06587205,-0.19889113,-2.0602314,0.5515303,0.1041526,0.59139687,-0.22679588
0.0,-0.1,1.0999999999999999,-0.5235987755982988,-0.5235987755982988,0,-0.101606324,-1.4070274,-0.21815078,-0.06898593,-0.09674099,1.0198328,-0.18501411,-0.0545064,-0.20102522,-2.0620859,0.56469107,0.34567627,0.617532,0.14466017
0.0,-0.1,1.0999999999999999,-0.5235987755982988,-0.5235987755982988,0,-0.0987363,-1.4067547,-0.21776257,-0.057197347,-0.0115660615,1.0848992,-0.12076613,-0.056521803,-0.2014868,-2.0590131,0.5651858,0.07031744,0.58829707,0.27668315
0.0,-0.1,1.0999999999999999,-0.5235987755982988,-0.5235987755982988,0,-0.096826844,-1.4086853,-0.21077685,-0.04154121,0.009909695,1.0370421,0.6705964,-0.06533663,-0.1962324,-2.0577383,0.54418314,0.33697265,0.4801266,-0.14269814
0.0,-0.1,1.0999999999999999,-0.5235987755982988,-0.5235987755982988,0,-0.100696504,-1.4068141,-0.21252,-0.022843022,-0.060691692,1.0519669,-0.1377106,-0.06338914,-0.19808923,-2.0601873,0.5499961,0.097846195,0.6000488,-0.014949381
0.0,-0.1,1.0999999999999999,-0.5235987755982988,-0.5235987755982988,0,-0.09936823,-1.4064481,-0.21261027,-0.05256804,-0.28977078,1.0326877,-0.080000654,-0.058407564,-0.19859308,-2.055111,0.5435707,0.12481486,0.6026918,-0.77310795
0.0,-0.1,1.0999999999999999,-0.5235987755982988,-0.5235987755982988,0,-0.096881285,-1.4081907,-0.20717192,0.01778765,-0.1478113,1.1706554,0.5199845,-0.071555294,-0.19702162,-2.0540078,0.54202026,-0.025071617,0.43605086,-0.72729456
0.0,-0.1,1.0999999999999999,-0.5235987755982988,-0.5235987755982988,0,-0.10024444,-1.4063352,-0.21653529,-0.1059705,0.08931352,1.0883842,1.0125452,-0.06166385,-0.19519134,-2.0553527,0.54455894,0.33977678,0.51706064,-0.18529573
0.0,-0.1,1.0999999999999999,-0.5235987755982988,-0.5235987755982988,0,-0.09827697,-1.4079214,-0.22499524,-0.061069738,0.010906853,1.1322092,1.292626,-0.05830551,-0.1956487,-2.0572932,0.5399444,0.18855093,0.4157621,-0.80878854
0.0,-0.1,1.0999999999999999,-0.5235987755982988,-0.5235987755982988,0,-0.096891694,-1.4087639,-0.20832619,0.02403094,0.079901464,0.88818616,0.036258765,-0.057704035,-0.1982041,-2.053633,0.54960835,0.066905856,0.2780072,0.10585202
0.0,-0.1,1.0999999999999999,-0.5235987755982988,-0.5235987755982988,0,-0.10407533,-1.4079492,-0.21891236,-0.022862786,-0.1084897,1.0103525,0.8073889,-0.06432939,-0.1917773,-2.0556786,0.5542936,0.3686721,0.4873497,-0.2610523
0.0,-0.1,1.0999999999999999,-0.5235987755982988,-0.5235987755982988,0,-0.09896158,-1.4079559,-0.22042657,-0.040451095,0.26637694,1.0046247,0.14623742,-0.06405518,-0.1910693,-2.0585349,0.5514106,0.08754294,0.47946286,-0.21084435
0.0,-0.1,1.0999999999999999,-0.5235987755982988,-0.5235987755982988,0,-0.09828717,-1.4084877,-0.22446375,-0.04952703,-0.015535357,0.98446554,-0.74630433,-0.061240047,-0.19449657,-2.057972,0.55800116,0.22554816,0.3487236,0.26178163
0.0,-0.1,1.0999999999999999,-0.5235987755982988,-0.5235987755982988,0,-0.099082604,-1.4080642,-0.21841651,-0.0016619915,0.02746215,1.0877529,-0.52205884,-0.06096064,-0.19677211,-2.0499554,0.5586472,0.25752592,0.5148301,0.025328971
0.0,-0.1,1.0999999999999999,-0.5235987755982988,-0.5235987755982988,0,-0.101571485,-1.4076395,-0.20584954,-0.034871217,-0.12957826,1.1565228,0.5216825,-0.064242885,-0.19397423,-2.0531785,0.5512543,-0.09959717,0.54685134,0.12342623
0.0,-0.1,1.0999999999999999,-0.5235987755982988,-0.5235987755982988,0,-0.09975629,-1.4072981,-0.21040948,-0.061911464,0.03135942,1.2063309,0.73981017,-0.0650273,-0.19621836,-2.0609372,0.53589064,-0.13373034,0.33427128,0.122742474
0.0,-0.1,1.0999999999999999,-0.5235987755982988,-0.5235987755982988,0,-0.101960756,-1.4082465,-0.22405511,-0.083003335,0.059925128,0.9966884,-0.28586614,-0.051104162,-0.19880293,-2.0608358,0.560937,0.021249902,0.39060643,0.0882931
0.0,-0.1,1.0999999999999999,-0.5235987755982988,-0.5235987755982988,0,-0.10268689,-1.4077722,-0.21947677,-0.025095165,0.046799876,1.132505,-0.44369817,-0.058148965,-0.19514328,-2.062128,0.5533514,-0.2625943,0.4321549,-0.06619796
0.0,-0.1,1.0999999999999999,-0.5235987755982988,-0.5235987755982988,0,-0.10151963,-1.408306,-0.22019714,-0.005236785,-0.07873079,1.1249839,0.111349575,-0.060143746,-0.19370535,-2.058875,0.5408289,0.3187731,0.80178523,-0.3341921
0.0,-0.1,1.0999999999999999,-0.5235987755982988,-0.5235987755982988,0,-0.1004459,-1.408378,-0.20916401,-0.056394294,-0.10200871,1.0229815,-0.06875122,-0.05976865,-0.19838454,-2.0560834,0.5563244,-0.084454104,0.2864756,-0.07304163
0.0,-0.1,1.0999999999999999,-0.5235987755982988,-0.5235987755982988,0,-0.09467023,-1.4072801,-0.21729384,-0.03591989,-0.018016748,0.99726796,-1.7682201,-0.059120905,-0.19834824,-2.0531557,0.5520874,0.01563252,0.602046,0.36861804
0.0,-0.1,1.0999999999999999,-0.5235987755982988,-0.5235987755982988,0,-0.09911644,-1.4096509,-0.19533981,0.028528884,-0.0168482,1.1874125,0.89805067,-0.06440126,-0.19363269,-2.0571756,0.550956,0.15250105,0.53030425,-0.751544
0.0,-0.1,1.0999999999999999,-0.5235987755982988,-0.5235987755982988,0,-0.10025207,-1.4088421,-0.22350827,-0.013932087,0.009305315,1.1795381,0.47791252,-0.06584645,-0.19528821,-2.0615609,0.5309434,-0.029618254,0.61003256,-0.5810011
0.0,-0.1,1.0999999999999999,-0.5235987755982988,-0.5235987755982988,0,-0.09863091,-1.4100232,-0.21770136,-0.013448341,0.23547767,1.0533938,0.4061443,-0.05209841,-0.20172401,-2.0556948,0.55425733,0.20784116,0.45979515,-0.1425812
0.0,-0.1,1.0999999999999999,-0.5235987755982988,-0.5235987755982988,0,-0.096881986,-1.4086348,-0.21655437,0.032557234,-0.044042498,1.0429527,0.06712069,-0.062313996,-0.19198419,-2.0585785,0.5595349,0.032242358,0.6986582,-0.02534324
0.0,-0.1,1.0999999999999999,-0.5235987755982988,-0.5235987755982988,0,-0.099916324,-1.408986,-0.22069678,0.014828706,-0.031968266,0.9262805,0.7800606,-0.057150956,-0.19592401,-2.0612373,0.55815053,0.1226738,0.5698385,-0.004231198
0.0,-0.1,1.0999999999999999,-0.5235987755982988,-0.5235987755982988,0,-0.09675636,-1.4081091,-0.21914516,-0.048740968,-0.008259253,1.0515455,-0.626187,-0.061637226,-0.19688468,-2.0550582,0.555273,0.5349513,0.5761959,-0.34037298
0.0,-0.1,1.0999999999999999,-0.5235987755982988,-0.5235987755982988,0,-0.09626525,-1.4069294,-0.21130982,-0.009902803,-0.057081506,1.0658311,1.6007217,-0.06326506,-0.20159346,-2.0527222,0.53791386,0.14644267,0.3139528,-0.19273312
0.0,-0.1,1.0999999999999999,-0.5235987755982988,-0.5235987755982988,0,-0.09718731,-1.4059181,-0.2197703,-0.10163748,0.09059878,1.1032661,-0.602374,-0.06083927,-0.19957909,-2.055936,0.5429591,-0.04651711,0.4802347,0.14128296
0.0,-0.1,1.0999999999999999,-0.5235987755982988,-0.5235987755982988,0,-0.09819436,-1.4074234,-0.21161228,-0.072151355,-0.08125756,1.0233239,-0.14391936,-0.058786582,-0.19302016,-2.059758,0.5498777,-0.19866252,0.69838655,0.38735798
0.0,-0.1,1.0999999999999999,-0.5235987755982988,-0.5235987755982988,0,-0.098499455,-1.4077642,-0.21432357,-0.021477625,0.002260588,0.88844216,0.1490539,-0.061774515,-0.1949335,-2.0634835,0.5500584,-0.12000247,0.5326529,-0.6502354
0.0,-0.1,1.0999999999999999,-0.5235987755982988,-0.5235987755982988,0,-0.09910153,-1.4114777,-0.21440238,-0.0408688,-0.040081248,1.1440942,0.51526076,-0.06258708,-0.19788508,-2.051799,0.55717963,0.10655166,0.7089169,-0.6372868
0.0,-0.1,1.0999999999999999,-0.5235987755982988,-0.5235987755982988,0,-0.09899502,-1.4080253,-0.20908989,-0.12867494,0.015894782,1.0988632,0.06029136,-0.056442223,-0.19759527,-2.0587263,0.5595746,-0.030812636,0.60630816,-0.1236098
0.0,-0.1,1.0999999999999999,-0.5235987755982988,-0.5235987755982988,0,-0.09697205,-1.4067122,-0.21849848,-0.034606114,-0.040047154,1.091036,-1.643589,-0.0666283,-0.19569449,-2.0585034,0.550573,0.09102443,0.44694185,-0.41325128
0.0,-0.1,1.0999999999999999,-0.5235987755982988,-0.5235987755982988,0,-0.09877857,-1.406644,-0.19747044,0.0014774278,0.13953088,1.0806972,-0.4197688,-0.06651473,-0.19908816,-2.0535288,0.5585416,0.043355837,0.4246615,-0.40117347
0.0,-0.1,1.0999999999999999,-0.5235987755982988,-0.5235987755982988,0,-0.099619225,-1.4085113,-0.21078253,-0.027683487,0.011678471,1.1640185,-1.1196214,-0.06359528,-0.20188165,-2.0485406,0.55618674,0.08061937,0.6520856,-0.37672168
0.0,-0.1,1.0999999999999999,-0.5235987755982988,-0.5235987755982988,0,-0.099097274,-1.4063829,-0.23151971,-0.079812996,-0.05937085,1.1011733,-0.045997087,-0.06314078,-0.19847415,-2.0562172,0.5470138,0.26568553,0.7121229,-0.2049404
0.0,-0.1,1.0999999999999999,-0.5235987755982988,-0.5235987755982988,0,-0.099564336,-1.4101493,-0.20513892,-0.015368021,-0.16625284,1.1069084,-1.220938,-0.053206667,-0.20017499,-2.0557485,0.56298923,0.23402828,0.74556446,-0.19430858
0.0,-0.1,1.0999999999999999,-0.5235987755982988,-0.5235987755982988,0,-0.10035173,-1.4074107,-0.2164395,-0.02815577,0.09897099,1.0430194,-0.5954259,-0.06625504,-0.19559386,-2.0544052,0.5507877,0.16185577,0.76738954,0.27492523
0.0,-0.1,1.0999999999999999,-0.5235987755982988,-0.5235987755982988,0,-0.10214467,-1.4091414,-0.2093093,0.011022471,0.011285074,1.1936085,-0.000297067,-0.0635714,-0.19068013,-2.0556579,0.5541884,0.1391589,0.42500162,-0.05157946
0.0,-0.1,1.0999999999999999,-0.5235987755982988,-0.5235987755982988,0,-0.09578285,-1.4101939,-0.20756483,-0.01969674,0.11132649,1.0448269,0.22911158,-0.05883635,-0.1987534,-2.058292,0.54624957,0.1552387,0.7121861,-0.07362714
0.0,-0.1,1.0999999999999999,-0.5235987755982988,-0.5235987755982988,0,-0.100061186,-1.4092059,-0.21886617,0.034551807,0.07147114,0.98547363,0.9365186,-0.06783148,-0.19065946,-2.0554492,0.5489001,-0.057751115,0.50941163,-0.26841512
0.0,-0.1,1.0999999999999999,-0.5235987755982988,-0.5235987755982988,0,-0.09741984,-1.4093112,-0.21796846,-0.014936414,-0.09594447,1.1742465,0.6189649,-0.059318766,-0.19416541,-2.0600915,0.5479563,-0.19192316,0.4212473,-0.29733995
0.0,-0.1,1.0999999999999999,-0.5235987755982988,-0.5235987755982988,0,-0.103201084,-1.4099677,-0.22093745,-0.050200783,-0.20742433,1.14176,0.5206828,-0.054085128,-0.19514807,-2.0611763,0.54014426,0.15645076,0.67860234,-0.47623911
0.0,-0.1,1.0999999999999999,-0.5235987755982988,-0.5235987755982988,0,-0.10235104,-1.4077288,-0.21182129,-0.053899992,-0.15616822,1.1040205,-1.1744564,-0.06586542,-0.193132,-2.0539718,0.5467369,0.12219334,0.3811846,-0.004634043
0.0,-0.1,1.0999999999999999,-0.5235987755982988,-0.5235987755982988,0,-0.099811256,-1.407443,-0.22165644,-0.048899885,-0.07137843,1.2164146,0.06929106,-0.06448316,-0.19794261,-2.051769,0.5516484,-0.08750567,0.4286233,-0.122763075
0.0,-0.1,1.0999999999999999,-0.5235987755982988,-0.5235987755982988,0,-0.099899985,-1.4082655,-0.2045395,-0.010470001,0.04932115,1.0910612,-1.5466304,-0.06358068,-0.19682722,-2.0601854,0.55304533,0.017086899,0.56815296,-0.021913491
0.0,-0.1,1.0999999999999999,-0.5235987755982988,-0.5235987755982988,0,-0.10408664,-1.4074886,-0.21348439,-0.0154536655,-0.0010730326,0.99115807,0.6530212,-0.059843794,-0.19436878,-2.0546324,0.5419647,-0.020696755,0.51392233,0.19869152
0.0,-0.1,1.0999999999999999,-0.5235987755982988,-0.5235987755982988,0,-0.10063177,-1.4083314,-0.20782554,-0.02732813,0.062236797,1.011159,0.32885623,-0.06092039,-0.19440426,-2.0595813,0.5594136,0.044091392,0.2894493,-1.0063652
0.0,-0.1,1.0999999999999999,-0.5235987755982988,-0.5235987755982988,0,-0.09895688,-1.4071591,-0.21541925,-0.0130315125,0.0067338566,1.1835461,0.65509444,-0.062211167,-0.19438632,-2.0529206,0.5542015,0.06764046,0.75714886,-0.098934986
0.0,-0.1,1.0999999999999999,-0.5235987755982988,-0.5235987755982988,0,-0.10267663,-1.4070168,-0.20614286,0.0006801225,0.1594758,0.9397429,0.7620371,-0.06076889,-0.19974272,-2.0557046,0.5485749,0.1821213,0.58868223,-0.23980983
0.0,-0.1,1.0999999999999999,-0.5235987755982988,-0.5235987755982988,0,-0.09834804,-1.4091392,-0.20942125,-0.021761432,-0.06098865,1.12525,-0.519543,-0.066657856,-0.19669554,-2.061716,0.53186405,0.43011966,0.55506945,-0.048702832
0.0,-0.1,1.0999999999999999,-0.5235987755982988,-0.5235987755982988,0,-0.098840155,-1.4068137,-0.22368927,-0.012669071,-0.2153975,1.0728668,1.1085174,-0.06421544,-0.19926064,-2.0588858,0.5563095,0.15805355,0.716294,-0.19800016
0.0,-0.1,1.0999999999999999,-0.5235987755982988,-0.5235987755982988,0,-0.09965343,-1.4076619,-0.21436809,-0.0012577518,0.14482094,1.0011615,-0.9790054,-0.057897005,-0.19750592,-2.0572293,0.5555046,0.1541043,0.4701185,0.044676583
0.0,-0.1,1.0999999999999999,-0.5235987755982988,-0.5235987755982988,0,-0.09967575,-1.4098018,-0.22019973,-0.021987172,0.050968103,1.0230936,0.07317632,-0.05929039,-0.19788122,-2.0582266,0.5420437,-0.018171465,0.6871051,-0.23835313
0.0,-0.1,1.0999999999999999,-0.5235987755982988,-0.5235987755982988,0,-0.096572295,-1.4089414,-0.21401617,-0.07144274,-0.008890869,0.9839944,0.22758397,-0.06627219,-0.19373286,-2.0599554,0.55866283,-0.2737997,0.46903896,-0.26521593
0.0,-0.1,1.0999999999999999,-0.5235987755982988,-0.5235987755982988,0,-0.10153481,-1.4097707,-0.20127636,0.022464462,-0.015250146,1.0090877,0.6431215,-0.06160275,-0.19614667,-2.057614,0.5538897,0.07905437,0.72102886,0.16051154
0.0,-0.1,1.0999999999999999,-0.5235987755982988,-0.5235987755982988,0,-0.09751834,-1.406984,-0.22264826,-0.053724226,-0.083502024,1.1336287,-0.47489673,-0.06703897,-0.19646691,-2.0569155,0.5459402,0.105320014,0.29870677,0.32160327
0.0,-0.1,1.0999999999999999,-0.5235987755982988,-0.5235987755982988,0,-0.101576865,-1.4095739,-0.22838287,-0.04547913,-0.0035843006,1.0882919,0.07816927,-0.056880973,-0.2002232,-2.0586798,0.5450164,0.023377724,0.33083937,0.08221748
0.0,-0.1,1.0999999999999999,-0.5235987755982988,-0.5235987755982988,0,-0.10277818,-1.4087001,-0.22525391,0.013114379,0.07162297,1.0787109,-0.27362037,-0.058904435,-0.19826426,-2.054906,0.55066967,0.033070184,0.27360618,-0.17860726
0.0,-0.1,1.0999999999999999,-0.5235987755982988,-0.5235987755982988,0,-0.10427191,-1.4091644,-0.21103892,-0.022781169,-0.24455495,1.2309769,0.41968158,-0.05756972,-0.19843872,-2.0527184,0.55862933,0.0035750305,0.32172966,0.07920143
0.0,-0.1,1.0999999999999999,-0.5235987755982988,-0.5235987755982988,0,-0.10431434,-1.4088056,-0.21275987,-0.039922453,0.07371414,1.0273144,0.63819736,-0.056349818,-0.19881172,-2.059092,0.5477843,-0.015847279,0.5265776,-0.15598932
0.0,-0.1,1.0999999999999999,-0.5235987755982988,-0.5235987755982988,0,-0.099738196,-1.4081181,-0.2176501,-0.12783585,-0.045780443,1.0596746,0.6268615,-0.06338023,-0.19413431,-2.0572643,0.54814696,-0.09979541,0.4648206,0.035594575
0.0,-0.1,1.0999999999999999,-0.5235987755982988,-0.5235987755982988,0,-0.10108749,-1.4087938,-0.21631381,-0.026174204,-0.19233857,1.0310742,-0.93981755,-0.058525912,-0.19755203,-2.058857,0.55002296,0.11594789,0.47716236,-0.11031373
0.0,-0.1,1.0999999999999999,-0.5235987755982988,-0.5235987755982988,0,-0.09907295,-1.4081011,-0.20828533,-0.015848508,0.00039365428,1.2129076,-1.0914538,-0.05962332,-0.199229,-2.054656,0.5626132,-0.19447498,0.24089561,0.14270192
0.0,-0.1,1.0999999999999999,-0.5235987755982988,-0.5235987755982988,0,-0.0997531,-1.4088964,-0.20679286,-0.05104608,0.25151485,1.0696611,1.0971775,-0.06541409,-0.19684869,-2.0561144,0.5431273,0.35043344,0.43736327,-0.56095773
0.0,-0.1,1.0999999999999999,-0.5235987755982988,-0.5235987755982988,0,-0.10048944,-1.4082204,-0.21683416,-0.059095494,-0.0664545,0.9150626,-1.067553,-0.06648243,-0.19472833,-2.0580785,0.5473072,0.16923329,0.50938517,-0.12865824
0.0,-0.1,1.0999999999999999,-0.5235987755982988,-0.5235987755982988,0,-0.09906346,-1.4086615,-0.21304245,-0.052186415,-0.07696793,0.95283365,0.39267915,-0.06506614,-0.19924852,-2.0526195,0.544019,0.09747692,0.33580664,-0.03248376
0.0,-0.1,1.0999999999999999,-0.5235987755982988,-0.5235987755982988,0,-0.10538396,-1.4086686,-0.22303817,0.033876665,0.13209893,1.2086024,1.5994624,-0.062102836,-0.19560699,-2.0588732,0.5473964,-0.0074419454,0.48526624,0.36498126
0.0,-0.1,1.0999999999999999,-0.5235987755982988,-0.5235987755982988,0,-0.10195133,-1.4080179,-0.22664507,-0.07926303,-0.0047906977,1.011231,-0.12598243,-0.06358056,-0.1991877,-2.051935,0.5468049,0.18955907,0.42670768,0.2634042
0.0,-0.1,1.0999999999999999,-0.5235987755982988,-0.5235987755982988,0,-0.0993343,-1.4082681,-0.22805777,-0.048771575,0.0111529725,1.1116694,0.5217338,-0.0631583,-0.1929159,-2.059649,0.55071956,-0.36216438,0.319681,0.06705333
0.0,-0.1,1.0999999999999999,-0.5235987755982988,-0.5235987755982988,0,-0.099445455,-1.4090631,-0.21944804,-0.09883463,0.07123229,1.0480783,-0.23763247,-0.06078151,-0.20032841,-2.0562172,0.5423647,0.3573445,0.45594615,-0.48985308
0.0,-0.1,1.0999999999999999,-0.5235987755982988,-0.5235987755982988,0,-0.098314196,-1.4087697,-0.22005932,-0.093545794,0.0160021,1.0526009,-0.5509737,-0.064078815,-0.19455847,-2.057247,0.5504562,0.15703283,0.59490144,-0.078676924
0.0,-0.1,1.0999999999999999,-0.5235987755982988,-0.5235987755982988,0,-0.0971249,-1.4077967,-0.2286699,-0.06627584,0.14215149,1.1386718,-0.19059147,-0.06386386,-0.19633691,-2.0599377,0.54553765,0.06406203,0.72025335,0.61201894
0.0,-0.1,1.0999999999999999,-0.5235987755982988,-0.5235987755982988,0,-0.09797226,-1.4086665,-0.224,-0.04330936,-0.02807966,1.2223204,-0.33594674,-0.058256317,-0.19860579,-2.053344,0.5587493,0.039040614,0.45823783,0.09258934
0.0,-0.1,1.0999999999999999,-0.5235987755982988,-0.5235987755982988,0,-0.100599475,-1.407299,-0.22664191,-0.037698306,0.07896637,1.0318882,1.222575,-0.060011372,-0.19623215,-2.0635498,0.5613488,0.25109285,0.25653902,-0.14019585
0.0,-0.1,1.0999999999999999,-0.5235987755982988,-0.5235987755982988,0,-0.10085167,-1.4083536,-0.2112088,-0.017769841,0.1712619,1.1031524,0.66025007,-0.060193244,-0.19953941,-2.0569606,0.5448982,0.30113283,0.44976753,0.06651409
0.0,-0.1,1.0999999999999999,-0.5235987755982988,-0.5235987755982988,0,-0.098174445,-1.4071765,-0.21362251,-0.019244531,-0.10950721,1.1571218,0.66453177,-0.06225686,-0.19975471,-2.0598536,0.5443879,0.44903928,0.22838734,-0.2938281
0.0,-0.1,1.0999999999999999,-0.5235987755982988,-0.5235987755982988,0,-0.10015664,-1.4082477,-0.21769236,0.012252157,-0.0950029,1.1824367,0.58204424,-0.066718295,-0.19470967,-2.0570729,0.5469324,0.12161938,0.71453017,-0.04350914
0.0,-0.1,1.0999999999999999,-0.5235987755982988,-0.5235987755982988,0,-0.1018968,-1.4076066,-0.20943898,-0.021842321,0.0770433,0.9928729,1.5365307,-0.05983676,-0.20042273,-2.0525925,0.56310385,0.13197903,0.65158266,0.34656197
0.0,-0.1,1.0999999999999999,-0.5235987755982988,-0.5235987755982988,0,-0.10432956,-1.406772,-0.21550451,-0.089834556,0.058424346,1.1184626,1.3548688,-0.061417487,-0.19865707,-2.0587263,0.5545482,-0.06219628,0.46594176,0.33911386
0.0,-0.1,1.0999999999999999,-0.5235987755982988,-0.5235987755982988,0,-0.1037739,-1.4070861,-0.21437857,-0.026278282,0.064054586,1.2675333,-1.4113063,-0.063408196,-0.19713645,-2.0570645,0.54343,0.308929,0.7943192,0.0381195
0.0,-0.1,1.0999999999999999,-0.5235987755982988,-0.5235987755982988,0,-0.09874724,-1.408017,-0.21410163,-0.0643594,0.038984265,0.89113903,0.31267717,-0.0632062,-0.19688682,-2.0578165,0.55116236,0.080529556,0.71727145,-0.30923483
0.0,-0.1,1.0999999999999999,-0.5235987755982988,-0.5235987755982988,0,-0.09959464,-1.4089462,-0.22908401,-0.038291357,-0.047895733,1.0942004,-0.9375566,-0.06484563,-0.19584149,-2.0616167,0.54308134,0.0066852104,0.60602057,-0.68609315
0.0,-0.1,1.0999999999999999,-0.5235987755982988,-0.5235987755982988,0,-0.10360587,-1.4078772,-0.21224079,-0.051442463,-0.04229207,1.0042092,0.5293234,-0.06357009,-0.1958988,-2.0630617,0.5449641,0.020098053,0.44895402,0.5948495
0.0,-0.1,1.0999999999999999,-0.5235987755982988,-0.5235987755982988,0,-0.103875406,-1.4098264,-0.20650385,-0.057827894,0.120614864,1.0052328,-0.12456351,-0.066000216,-0.19597165,-2.0553498,0.54724926,0.08162144,0.65324414,0.2342297
0.0,-0.1,1.0999999999999999,-0.5235987755982988,-0.5235987755982988,0,-0.099280074,-1.4081573,-0.22336635,0.042036697,-0.14668794,1.0696166,-0.8348605,-0.060375866,-0.19828418,-2.0565166,0.54158133,0.15296207,0.64851993,-0.1630717
0.0,-0.1,1.0999999999999999,-0.5235987755982988,-0.5235987755982988,0,-0.097154975,-1.406698,-0.21914123,-0.0057696,-0.31918985,0.94820285,-1.0978395,-0.06827627,-0.20199065,-2.0546398,0.5599708,-0.18825124,0.42000657,0.2550831
0.0,-0.1,1.0999999999999999,-0.5235987755982988,-0.5235987755982988,0,-0.09793979,-1.4083328,-0.22292867,0.010512039,0.066752605,1.0633184,-0.5208559,-0.056989,-0.20041795,-2.0591877,0.548664,-0.0912845,0.5220617,-0.15676871
0.0,-0.1,1.0999999999999999,-0.5235987755982988,-0.5235987755982988,0,-0.10251284,-1.4101244,-0.21977645,-0.059977714,-0.049808636,1.0326921,0.5963409,-0.060799483,-0.19469154,-2.0550084,0.55901283,0.057368044,0.81840044,0.16571252
0.0,-0.1,1.0999999999999999,-0.5235987755982988,-0.5235987755982988,0,-0.102946535,-1.4087061,-0.21754538,-0.020315249,0.06447545,1.071989,1.1896757,-0.05959147,-0.19837849,-2.0561862,0.55919826,-0.016961012,0.6755318,0.21055532
0.0,-0.1,1.0999999999999999,-0.5235987755982988,-0.5235987755982988,0,-0.103300005,-1.408909,-0.21225902,-0.04998727,0.22781907,1.0691402,1.0588646,-0.06327081,-0.19587098,-2.0588846,0.553089,-0.16958378,0.50488263,-0.06711633
0.0,-0.1,1.0999999999999999,-0.5235987755982988,-0.5235987755982988,0,-0.096354835,-1.4084629,-0.22072728,-0.03335341,-0.253031,1.1654623,0.25490323,-0.059402563,-0.19844742,-2.0570722,0.5504266,0.048278138,0.64746135,-0.7427518
0.0,-0.1,1.0999999999999999,-0.5235987755982988,-0.5235987755982988,0,-0.10103579,-1.4072596,-0.2231669,0.0022129202,-0.3023955,1.0593187,0.7553924,-0.06317026,-0.19788764,-2.0602715,0.54521793,0.25909388,0.45513844,-0.6269717
0.0,-0.1,1.0999999999999999,-0.5235987755982988,-0.5235987755982988,0,-0.10051525,-1.4066169,-0.21578705,-0.037525892,-0.10676599,0.9593522,0.06916403,-0.06621033,-0.19844624,-2.0530684,0.5498403,0.10726598,0.60712546,-0.16154736
0.0,-0.1,1.0999999999999999,-0.5235987755982988,-0.5235987755982988,0,-0.10252075,-1.4078059,-0.21835127,-0.08397309,-0.16419242,1.0448047,-0.46782678,-0.0680494,-0.19523735,-2.0550134,0.5527245,0.28065524,0.53140795,-0.011908862
0.0,-0.1,1.0999999999999999,-0.5235987755982988,-0.5235987755982988,0,-0.09773641,-1.4080824,-0.21137498,0.0014349194,-0.04306368,1.0957024,0.13304588,-0.061480775,-0.19922629,-2.061067,0.55063665,-0.04215693,0.2090304,0.67607313
0.0,-0.1,1.0999999999999999,-0.5235987755982988,-0.5235987755982988,0,-0.100649215,-1.4071691,-0.2276786,-0.0019064461,-0.0052307644,1.1042354,-1.4880137,-0.060836352,-0.20128088,-2.0544627,0.5475142,0.21387291,0.54797435,-0.12422055
0.0,-0.1,1.0999999999999999,-0.5235987755982988,-0.5235987755982988,0,-0.09658284,-1.4065856,-0.21265279,-0.018014159,-0.07822208,1.1087948,-0.20227844,-0.05936969,-0.20356998,-2.060512,0.5498789,0.19947575,0.23918024,-0.64908385
0.0,-0.1,1.0999999999999999,-0.5235987755982988,-0.5235987755982988,0,-0.10187626,-1.4085844,-0.1988287,-0.0012393673,-0.026032012,1.0816704,0.11237057,-0.063705966,-0.20244284,-2.0574856,0.54849696,-0.17468911,0.45557937,-0.88050234
0.0,-0.1,1.0999999999999999,-0.5235987755982988,-0.5235987755982988,0,-0.10138007,-1.4081788,-0.21461703,-0.07643994,0.04098223,1.1883535,1.0628822,-0.062891014,-0.19726656,-2.0556705,0.56109023,0.14416157,0.48082513,0.010875288
0.0,-0.1,1.0999999999999999,-0.5235987755982988,-0.5235987755982988,0,-0.09779432,-1.4068645,-0.21494178,-0.06325433,-0.021515174,0.92402095,-1.4192299,-0.058909077,-0.19917127,-2.0560515,0.5573885,-0.029556885,0.7174493,-0.15510218
0.0,-0.1,1.0999999999999999,-0.5235987755982988,-0.5235987755982988,0,-0.09685625,-1.4094949,-0.22856398,-0.005205493,0.046806283,0.97533184,-1.281459,-0.057458088,-0.19703995,-2.0627937,0.55762506,0.34212354,0.52659965,-0.5526345
0.0,-0.1,1.0999999999999999,-0.5235987755982988,-0.5235987755982988,0,-0.09639631,-1.4073111,-0.21533516,-0.052092344,-0.13415459,1.089837,-1.1676162,-0.06761465,-0.19388388,-2.059358,0.54471165,-0.1394275,0.6419593,0.21492517
0.0,-0.1,1.0999999999999999,-0.5235987755982988,-0.5235987755982988,0,-0.09773029,-1.409084,-0.21022809,-0.02012354,-0.08498243,1.1067,-0.012778547,-0.061257567,-0.19861665,-2.0574844,0.5560368,-0.049103517,0.5527094,-0.26903144
0.0,-0.1,1.0999999999999999,-0.5235987755982988,-0.5235987755982988,0,-0.09777237,-1.4065278,-0.22608364,0.039032206,0.007325465,1.2286166,-0.6482515,-0.06251367,-0.19730712,-2.0614,0.54817295,0.16321054,0.5708887,0.31832656
0.0,-0.1,1.0999999999999999,-0.5235987755982988,-0.5235987755982988,0,-0.09802984,-1.4065168,-0.21583822,-0.034688517,0.094978146,1.0247018,0.67755926,-0.0643793,-0.19926861,-2.0629919,0.54543597,0.19669951,0.5862241,0.50394416
0.0,-0.1,1.0999999999999999,-0.5235987755982988,-0.5235987755982988,0,-0.10185399,-1.4062933,-0.22204298,-0.00096028333,0.022922922,1.1476269,0.66673166,-0.06187815,-0.20006233,-2.0597508,0.54668987,0.2706463,0.4473725,0.053791545
0.0,-0.1,1.0999999999999999,-0.5235987755982988,-0.5235987755982988,0,-0.097885914,-1.4082282,-0.21419278,-0.039918922,-0.094337106,1.0574574,-1.9686323,-0.06431002,-0.19736607,-2.0582,0.5537106,0.09776699,0.56895214,-0.11971421
0.0,-0.1,1.0999999999999999,-0.5235987755982988,-0.5235987755982988,0,-0.10148566,-1.4064027,-0.20983976,-0.07357271,-0.22587748,1.0919952,-0.5487461,-0.06432412,-0.19812527,-2.0523388,0.55682445,-0.2815244,0.6677275,-0.07209261
0.0,-0.1,1.0999999999999999,-0.5235987755982988,-0.5235987755982988,0,-0.09882986,-1.4079629,-0.20107819,-0.08701564,-0.10900112,1.2143883,1.6811311,-0.062583774,-0.19961666,-2.0564535,0.54889774,0.12254347,0.3928017,-0.14643995
0.0,-0.1,1.0999999999999999,-0.5235987755982988,-0.5235987755982988,0,-0.09864278,-1.4059805,-0.21563566,-0.011189669,0.017454736,1.1035221,-0.16030084,-0.06485969,-0.19634248,-2.0606503,0.54774106,0.13370743,0.515789,-0.345265
0.0,-0.1,1.0999999999999999,-0.5235987755982988,-0.5235987755982988,0,-0.09998344,-1.4075893,-0.20772126,-0.06803757,0.07123817,1.1448519,0.40180054,-0.06701641,-0.20000269,-2.0556653,0.54582685,0.23013799,0.2911334,-0.5621315
0.0,-0.1,1.0999999999999999,-0.5235987755982988,-0.5235987755982988,0,-0.09716715,-1.4084251,-0.20906591,-0.024638556,-0.16003342,0.98420745,-0.47706744,-0.066287294,-0.20147207,-2.056741,0.55077213,0.1356067,0.51246613,-0.83984095
0.0,-0.1,1.0999999999999999,-0.5235987755982988,-0.5235987755982988,0,-0.09694883,-1.406899,-0.21550198,-0.014626236,0.025040435,1.153605,0.28639263,-0.06476682,-0.19859391,-2.0555818,0.5494313,0.24569602,0.5589479,-0.35180935
0.0,-0.1,1.0999999999999999,-0.5235987755982988,-0.5235987755982988,0,-0.10035202,-1.4091074,-0.20669846,-0.003917254,-0.09521056,1.0273097,0.021447174,-0.06902254,-0.19813474,-2.0579104,0.5448324,0.21756783,0.64529866,0.27810475
0.0,-0.1,1.0999999999999999,-0.5235987755982988,-0.5235987755982988,0,-0.09746033,-1.4074237,-0.21509093,-0.02312538,0.060888443,1.1167192,1.389505,-0.059866972,-0.19542956,-2.0608163,0.55927765,0.2206352,0.678635,0.20389518
0.0,-0.1,1.0999999999999999,-0.5235987755982988,-0.5235987755982988,0,-0.09631104,-1.4069676,-0.21368895,-0.029387606,-0.15075079,1.0680834,-0.46716788,-0.05830687,-0.20092449,-2.0594711,0.55729884,0.084382564,0.4630544,-0.035640124
0.0,-0.1,1.0999999999999999,-0.5235987755982988,-0.5235987755982988,0,-0.10022583,-1.4078325,-0.21806717,-0.012113922,0.026162958,1.0797786,-0.04521288,-0.06602819,-0.19613963,-2.0617273,0.5474686,-0.03022173,0.5422824,0.4761681
0.0,-0.1,1.0999999999999999,-0.5235987755982988,-0.5235987755982988,0,-0.09785859,-1.4064064,-0.21643645,-0.04009144,-0.037525147,0.96816885,1.310951,-0.06180838,-0.20018648,-2.0539067,0.5543812,0.23273158,0.5792651,-0.2467336
0.0,-0.1,1.0999999999999999,-0.5235987755982988,-0.5235987755982988,0,-0.09892433,-1.4085616,-0.21743502,-0.046932932,-0.23335893,0.99292076,0.22255099,-0.06533694,-0.19814305,-2.059244,0.5427711,0.15764251,0.6140826,-0.4480889
0.0,-0.1,1.0999999999999999,-0.5235987755982988,-0.5235987755982988,0,-0.09877035,-1.4076806,-0.22351684,-0.00920306,-0.013577246,1.0876158,-0.36570397,-0.055144213,-0.19846554,-2.0616875,0.55710447,-0.014996913,0.6194962,-0.18745416
0.0,-0.1,1.0999999999999999,-0.5235987755982988,-0.5235987755982988,0,-0.10323302,-1.4087746,-0.20413391,-0.009703773,0.0007831505,0.890005,-0.18547137,-0.065460406,-0.19418627,-2.0580943,0.55439085,0.038684092,0.82375234,0.08029892
0.0,-0.1,1.0999999999999999,-0.5235987755982988,-0.5235987755982988,0,-0.10146623,-1.4086409,-0.21495251,-0.095084,-0.12224634,1.0709753,-0.63649076,-0.063705966,-0.19710407,-2.056923,0.5538834,0.012742323,0.5771819,0.11578222
0.0,-0.1,1.0999999999999999,-0.5235987755982988,-0.5235987755982988,0,-0.098541476,-1.4058253,-0.21822761,0.009546759,0.04651284,0.99806565,0.9993233,-0.058667235,-0.201607,-2.0551343,0.55036074,0.19320104,0.7052102,0.07594621
0.0,-0.1,1.0999999999999999,-0.5235987755982988,-0.5235987755982988,0,-0.09727264,-1.4076344,-0.21591836,-0.07066092,0.16646145,1.0320549,0.04748763,-0.065606475,-0.19814001,-2.0608919,0.5414011,-0.13706596,0.6296208,-0.5967594
0.0,-0.1,1.0999999999999999,-0.5235987755982988,-0.5235987755982988,0,-0.10137007,-1.4072412,-0.2008292,0.024483645,-0.12048512,1.0662841,0.14985774,-0.060032576,-0.19967695,-2.059219,0.5503807,0.29980135,0.70430744,0.17457122
0.0,-0.1,1.0999999999999999,-0.5235987755982988,-0.5235987755982988,0,-0.10039667,-1.408453,-0.21451144,-0.08375576,0.045917522,1.0656532,0.37518844,-0.06718428,-0.19868912,-2.0529773,0.5545359,0.15612286,0.6040411,-0.11818265
0.0,-0.1,1.0999999999999999,-0.5235987755982988,-0.5235987755982988,0,-0.09810108,-1.4087107,-0.21312995,-0.02262939,-0.06985357,1.2023045,0.6923116,-0.06614067,-0.19950323,-2.0552976,0.54690576,0.2610705,0.7816812,0.527304
0.0,-0.1,1.0999999999999999,-0.5235987755982988,-0.5235987755982988,0,-0.1000594,-1.4079579,-0.2144847,-0.06610642,0.06545616,0.9860354,0.21715066,-0.06921886,-0.19751462,-2.0556006,0.5488814,-0.034116,0.69106054,-0.3656514
0.0,-0.1,1.0999999999999999,-0.5235987755982988,-0.5235987755982988,0,-0.09349602,-1.4069233,-0.22122796,-0.028634533,0.017345978,1.0764374,0.15398751,-0.0643385,-0.19711769,-2.0615003,0.5516154,0.10993881,0.619708,-0.27521038
0.0,-0.1,1.0999999999999999,-0.5235987755982988,-0.5235987755982988,0,-0.10094156,-1.4063398,-0.213875,-0.07237235,-0.0060516745,1.0177771,-0.5975507,-0.06294694,-0.20036885,-2.0569046,0.55938953,0.056366716,0.37594298,-0.36449108
0.0,-0.1,1.0999999999999999,-0.5235987755982988,-0.5235987755982988,0,-0.09660347,-1.4073492,-0.20787482,-0.006695345,0.050815817,1.0760713,-0.31069902,-0.071026914,-0.19849579,-2.0523384,0.5555801,0.14299932,0.6894017,-0.11557068
0.0,-0.1,1.0999999999999999,-0.5235987755982988,-0.5235987755982988,0,-0.09770994,-1.4100549,-0.2105805,-0.014443906,-0.087053694,1.1186844,0.2792906,-0.061891705,-0.20013662,-2.0582397,0.55725074,0.15931426,0.5712745,-0.28465855
0.0,-0.1,1.0999999999999999,-0.5235987755982988,-0.5235987755982988,0,-0.1021619,-1.4074924,-0.19905655,-0.033253875,-0.004360318,1.030051,0.996038,-0.06579237,-0.20200664,-2.0533109,0.55416757,-0.22721858,0.5382509,-0.3746415
0.0,-0.1,1.0999999999999999,-0.5235987755982988,-0.5235987755982988,0,-0.10126356,-1.4086628,-0.21874608,-0.007907818,-0.16821685,1.0598692,1.5102382,-0.0626726,-0.19313845,-2.0624664,0.55076015,0.2064499,0.49654797,0.012742961
0.0,-0.1,1.0999999999999999,-0.5235987755982988,-0.5235987755982988,0,-0.10023623,-1.4079707,-0.2165252,-0.009252792,0.038546037,1.0893686,-0.53500664,-0.06464295,-0.19744322,-2.0570183,0.54353714,0.4859245,0.5681606,-0.3916366
0.0,-0.1,1.0999999999999999,-0.5235987755982988,-0.5235987755982988,0,-0.095844634,-1.4073834,-0.20963901,-0.01523398,0.022619275,1.0292995,-0.27358797,-0.06460086,-0.19533418,-2.0575373,0.55609584,0.2029246,0.41147795,-0.17989047
0.0,-0.1,1.0999999999999999,-0.5235987755982988,-0.5235987755982988,0,-0.10334942,-1.4084449,-0.20779411,-0.042911902,-0.13811707,1.1577699,-0.14648467,-0.057465345,-0.19834712,-2.0598211,0.55832464,0.0032552052,0.6020214,0.13204686
0.0,-0.1,1.0999999999999999,-0.5235987755982988,-0.5235987755982988,0,-0.09814291,-1.4065292,-0.2102089,-0.009199599,-0.0042714304,1.0955904,-0.14558537,-0.06484609,-0.19977294,-2.059016,0.53694415,-0.007886171,0.39950377,0.16034721
0.0,-0.1,1.0999999999999999,-0.5235987755982988,-0.5235987755982988,0,-0.10044705,-1.4085909,-0.21548845,-0.032447677,0.008119523,0.9668136,0.66265637,-0.05810273,-0.19330592,-2.0599313,0.55157226,-0.096173316,0.36147875,-0.31515974
0.0,-0.1,1.0999999999999999,-0.5235987755982988,-0.5235987755982988,0,-0.098685816,-1.4064791,-0.21370727,-0.021738905,-0.07644569,0.97187227,-1.2770475,-0.06040817,-0.19477376,-2.0569775,0.5496579,0.34220642,0.7139491,0.030587874
0.0,-0.1,1.0999999999999999,-0.5235987755982988,-0.5235987755982988,0,-0.10263714,-1.4078537,-0.22552791,-0.05625761,-0.12727462,1.033559,0.73204786,-0.062339555,-0.19870403,-2.0474524,0.5536492,-0.08039524,0.4648852,-0.48578686
0.0,-0.1,1.0999999999999999,-0.5235987755982988,-0.5235987755982988,0,-0.10371595,-1.4079262,-0.22561502,-0.053549223,-0.1019063,1.2372257,1.0140965,-0.057535525,-0.19152954,-2.054605,0.5573719,-0.099764675,0.4966037,-0.43917122
0.0,-0.1,1.0999999999999999,-0.5235987755982988,-0.5235987755982988,0,-0.09601456,-1.4082261,-0.21310276,0.020083237,-0.03364594,1.2196529,1.0660924,-0.062872715,-0.19815335,-2.061118,0.550494,-0.07159855,0.4518539,-0.14112769
0.0,-0.1,1.0999999999999999,-0.5235987755982988,-0.5235987755982988,0,-0.10017599,-1.4072745,-0.21365933,-0.019682085,-0.06289645,1.0002826,-0.43983686,-0.061829813,-0.19962758,-2.0546558,0.5526607,0.1147022,0.19607173,-0.52656156
0.0,-0.1,1.0999999999999999,-0.5235987755982988,-0.5235987755982988,0,-0.098147824,-1.408741,-0.21219371,-0.035112064,-0.09211435,1.0245028,0.9107361,-0.060808208,-0.19903076,-2.0601888,0.54230535,-0.30728906,0.3756298,-0.2877018
0.0,-0.1,1.0999999999999999,-0.5235987755982988,-0.5235987755982988,0,-0.10281831,-1.4080421,-0.209237,-0.018261459,0.008730708,1.0684035,1.8995423,-0.05649355,-0.19998743,-2.060572,0.56016874,0.1374228,0.52819765,-0.35834542
0.0,-0.1,1.0999999999999999,-0.5235987755982988,-0.5235987755982988,0,-0.09595822,-1.4100002,-0.21849172,-0.023860764,-0.07803697,1.0485784,0.783709,-0.06358047,-0.1986409,-2.0574715,0.5412745,0.07211046,0.43579927,-0.013351046
0.0,-0.1,1.0999999999999999,-0.5235987755982988,-0.5235987755982988,0,-0.10392312,-1.406749,-0.21296233,0.014908563,0.06169966,0.9057681,-0.96838087,-0.05974148,-0.1959491,-2.059191,0.555883,0.19486213,0.47584826,0.56113714
0.0,-0.1,1.0999999999999999,-0.5235987755982988,-0.5235987755982988,0,-0.09822883,-1.4104575,-0.20303126,-0.0175224,-0.12794545,1.1428643,1.2641883,-0.06580644,-0.20213583,-2.0559297,0.5500182,0.25068668,0.48699987,1.0090723
0.0,-0.1,1.0999999999999999,-0.5235987755982988,-0.5235987755982988,0,-0.0999949,-1.4075475,-0.22064956,-0.011218384,0.008984787,1.1177659,0.5333664,-0.053883165,-0.20204537,-2.061355,0.5525989,0.28086224,0.47501582,0.24339774
0.0,-0.1,1.0999999999999999,-0.5235987755982988,-0.5235987755982988,0,-0.10007185,-1.4080453,-0.21253066,-0.022395449,0.081084,1.1518458,0.57142293,-0.06645178,-0.19809666,-2.0570202,0.54608274,0.21117562,0.61327606,-0.0049644136
0.0,-0.1,1.0999999999999999,-0.5235987755982988,-0.5235987755982988,0,-0.10190723,-1.4099791,-0.20512226,0.03913154,-0.0003805638,0.94963247,0.63584554,-0.06489082,-0.19716267,-2.056295,0.5546532,0.22802979,0.694292,0.0005319854
0.0,-0.1,1.0999999999999999,-0.5235987755982988,-0.5235987755982988,0,-0.09784131,-1.4086607,-0.22069508,-0.047225602,-0.030412098,1.1902001,-0.48738766,-0.06306441,-0.19607107,-2.0560708,0.56054896,0.0055272416,0.75498044,-0.5420355
0.0,-0.1,1.0999999999999999,-0.5235987755982988,-0.5235987755982988,0,-0.09913448,-1.4063467,-0.21344799,-0.010775468,-0.054022633,1.1014432,-1.2865466,-0.06663286,-0.197606,-2.059855,0.5448161,-0.037846535,0.7216618,0.04610447
0.0,-0.1,1.0999999999999999,-0.5235987755982988,-0.5235987755982988,0,-0.09887361,-1.4071584,-0.21093267,-0.024696812,0.16683921,1.0900828,-1.0164073,-0.072921656,-0.19777706,-2.0571442,0.543053,0.017226126,0.61225075,0.5792755
0.0,-0.1,1.0999999999999999,-0.5235987755982988,-0.5235987755982988,0,-0.098799214,-1.4076352,-0.21508966,-0.033548646,0.13688914,1.0617521,-1.420442,-0.057102717,-0.19608086,-2.05954,0.5602203,-0.14187019,0.6919484,-0.14326702
0.0,-0.1,1.0999999999999999,-0.5235987755982988,-0.5235987755982988,0,-0.09770848,-1.4077895,-0.21176334,-0.02721578,-0.120336615,1.1547698,-1.1771315,-0.05706895,-0.20164967,-2.0587869,0.54961425,0.26494604,0.68718785,-0.0054840352
