sanky1234/BimanualDexCatch/isaacgymenvs/cem_results/football_pose_0.1_0.1_0.7999999999999999_-0.5235987755982988_0.5235987755982988_0_2025-05-27.csv
x,y,z,roll,pitch,yaw,robot1/joint1,robot1/joint2,robot1/joint3,robot1/joint4,robot1/joint5,robot1/joint6,robot1/joint7,robot2/joint1,robot2/joint2,robot2/joint3,robot2/joint4,robot2/joint5,robot2/joint6,robot2/joint7
0.1,0.1,0.7999999999999999,-0.5235987755982988,0.5235987755982988,0,0.64027566,1.229792,-0.27907193,-0.0422735,0.19771385,1.228881,0.4432934,1.4476855,1.2009692,0.20364894,-0.06140416,0.12670758,1.27692,0.624654
0.1,0.1,0.7999999999999999,-0.5235987755982988,0.5235987755982988,0,0.64074147,1.2164133,0.037456483,-0.0821072,-0.21327315,1.245112,0.5860557,1.4472964,1.202053,0.20584062,-0.05707137,0.13161404,1.2803701,0.62738496
0.1,0.1,0.7999999999999999,-0.5235987755982988,0.5235987755982988,0,0.6324642,1.2268032,-0.12853184,-0.122383654,0.22936065,1.2400241,-0.079587206,1.4467933,1.2054315,0.20642255,-0.06291487,0.12704602,1.2845808,0.6198818
0.1,0.1,0.7999999999999999,-0.5235987755982988,0.5235987755982988,0,0.6323041,1.210881,-0.08792301,-0.05688645,-0.06011188,1.197919,0.9901746,1.4449351,1.2025542,0.202918,-0.06439327,0.12504649,1.2777072,0.6236988
0.1,0.1,0.7999999999999999,-0.5235987755982988,0.5235987755982988,0,0.6340733,1.2222104,-0.17851706,-0.038409803,-0.25952142,1.2894868,0.8901211,1.4451785,1.2019528,0.20881814,-0.06266891,0.13055243,1.2784218,0.62571156
0.1,0.1,0.7999999999999999,-0.5235987755982988,0.5235987755982988,0,0.6392056,1.2162002,-0.17882152,-0.03705583,-0.2756969,1.2698424,-0.88751215,1.4461174,1.2024624,0.20344637,-0.05535483,0.12887502,1.2816008,0.6227949
0.1,0.1,0.7999999999999999,-0.5235987755982988,0.5235987755982988,0,0.64960825,1.2221234,-0.07479882,-0.039537795,-0.0949987,1.2701637,-0.5543843,1.4471642,1.2015954,0.2046652,-0.05763155,0.13098124,1.2768353,0.62500125
0.1,0.1,0.7999999999999999,-0.5235987755982988,0.5235987755982988,0,0.6384361,1.2211716,-0.41707146,-0.11825027,-0.16591136,1.277962,0.59855676,1.4468926,1.2041364,0.20577022,-0.056273717,0.13321744,1.2871729,0.624227
0.1,0.1,0.7999999999999999,-0.5235987755982988,0.5235987755982988,0,0.6380304,1.2282629,0.030597156,-0.05365785,0.049166624,1.1102769,0.18476023,1.4445355,1.1993612,0.20499758,-0.062137693,0.12985502,1.2778469,0.61766565
0.1,0.1,0.7999999999999999,-0.5235987755982988,0.5235987755982988,0,0.6313657,1.215994,-0.091899194,-0.13296728,-0.15005338,1.23232,0.28607994,1.4485233,1.2018583,0.20373379,-0.061953936,0.13290721,1.2797545,0.6290939
0.1,0.1,0.7999999999999999,-0.5235987755982988,0.5235987755982988,0,0.6303682,1.2162232,-0.29678178,-0.06846619,0.026842183,1.1976051,1.405437,1.4415313,1.202192,0.20547828,-0.06154529,0.13163455,1.2815509,0.6240604
0.1,0.1,0.7999999999999999,-0.5235987755982988,0.5235987755982988,0,0.6395359,1.2074777,-0.059732378,0.01944023,0.007523246,1.1733832,0.053598665,1.4444672,1.202241,0.20591794,-0.06468793,0.12630169,1.2738918,0.62885743
0.1,0.1,0.7999999999999999,-0.5235987755982988,0.5235987755982988,0,0.6397137,1.2114022,-0.74189943,-0.105005056,0.04892244,1.0806108,0.36114404,1.4461428,1.2011778,0.2030571,-0.05963549,0.12819041,1.2809404,0.6259729
0.1,0.1,0.7999999999999999,-0.5235987755982988,0.5235987755982988,0,0.63684577,1.2227321,-0.15452091,-0.18519881,-0.0800582,1.1823922,0.40310255,1.4465362,1.2055262,0.20391186,-0.061191216,0.12503095,1.2807686,0.62563753
0.1,0.1,0.7999999999999999,-0.5235987755982988,0.5235987755982988,0,0.6363506,1.2217588,-0.18904932,-0.0841001,0.124600224,1.2405771,0.036061715,1.4482274,1.2028785,0.20644324,-0.058577124,0.13236693,1.2853328,0.63147414
0.1,0.1,0.7999999999999999,-0.5235987755982988,0.5235987755982988,0,0.64086986,1.218675,-0.026755689,-0.060671356,0.15896243,1.2494187,0.74934536,1.4447477,1.2027372,0.20573813,-0.063914016,0.12840587,1.2857978,0.62246895
0.1,0.1,0.7999999999999999,-0.5235987755982988,0.5235987755982988,0,0.6311127,1.2083997,-0.34440285,-0.0367432,-0.33131364,1.2420695,0.71596634,1.4438924,1.1984091,0.20348185,-0.062379986,0.13428503,1.2830939,0.62790287
0.1,0.1,0.7999999999999999,-0.5235987755982988,0.5235987755982988,0,0.63050926,1.2150128,-0.57885003,-0.05913524,0.007319577,1.1815208,0.5881425,1.4479132,1.1997615,0.20372662,-0.062387705,0.13617042,1.2833192,0.6274623
0.1,0.1,0.7999999999999999,-0.5235987755982988,0.5235987755982988,0,0.63015276,1.2240727,-0.44664368,-0.055893186,-0.12418047,1.1535069,0.18133868,1.4455829,1.2013702,0.20518966,-0.05832954,0.1272878,1.2842133,0.6280766
0.1,0.1,0.7999999999999999,-0.5235987755982988,0.5235987755982988,0,0.63300574,1.2200284,0.23976973,-0.09879088,-0.09560006,1.1139196,0.61230063,1.445558,1.2035611,0.20549381,-0.058869775,0.13591674,1.2853917,0.6270855
0.1,0.1,0.7999999999999999,-0.5235987755982988,0.5235987755982988,0,0.63223714,1.2260631,-0.60012585,-0.11938469,-0.103096224,1.2324435,0.56010044,1.4494834,1.2055738,0.20384623,-0.058458596,0.13758996,1.2803782,0.62509346
0.1,0.1,0.7999999999999999,-0.5235987755982988,0.5235987755982988,0,0.6348594,1.2083043,-0.19731008,-0.029962018,0.16126944,1.1838033,0.023746874,1.4455407,1.202499,0.20379238,-0.063642964,0.13147484,1.2768894,0.63005024
0.1,0.1,0.7999999999999999,-0.5235987755982988,0.5235987755982988,0,0.63449395,1.2153507,0.15766267,-0.1030053,-0.1493662,1.236639,-0.49576154,1.4455955,1.2005345,0.20641716,-0.059595063,0.13242741,1.2749201,0.622156
0.1,0.1,0.7999999999999999,-0.5235987755982988,0.5235987755982988,0,0.63139915,1.2152022,-0.058399487,-0.07318399,-0.103278406,1.2464913,-0.75582707,1.4461972,1.2035216,0.2062795,-0.056896854,0.12844212,1.2810701,0.6262144
0.1,0.1,0.7999999999999999,-0.5235987755982988,0.5235987755982988,0,0.6416423,1.2286761,-0.32204542,0.011155592,0.24109818,1.2366109,-0.042221047,1.446331,1.2040782,0.20643197,-0.061910927,0.1379787,1.2836376,0.6229876
0.1,0.1,0.7999999999999999,-0.5235987755982988,0.5235987755982988,0,0.6420906,1.2181925,-0.17434129,-0.07490255,-0.052602455,1.1968935,-0.17265682,1.446461,1.2045021,0.20504528,-0.05788813,0.13062897,1.2802901,0.62692446
0.1,0.1,0.7999999999999999,-0.5235987755982988,0.5235987755982988,0,0.6171113,1.2059716,-0.38980955,0.034415256,0.056415636,1.2023636,0.47932738,1.4444709,1.2004707,0.20425692,-0.06586484,0.13250686,1.2892485,0.62576324
0.1,0.1,0.7999999999999999,-0.5235987755982988,0.5235987755982988,0,0.6341563,1.2177635,0.13713771,-0.10928379,-0.38287538,1.2462553,0.8276169,1.4459532,1.2040817,0.20696017,-0.05691774,0.13618796,1.2827704,0.62766224
0.1,0.1,0.7999999999999999,-0.5235987755982988,0.5235987755982988,0,0.6368886,1.2177569,-0.07760969,-0.03840782,0.13877676,1.2512761,0.9745896,1.4452094,1.1997463,0.20421259,-0.058088727,0.13154829,1.282441,0.63044095
0.1,0.1,0.7999999999999999,-0.5235987755982988,0.5235987755982988,0,0.62897915,1.223885,0.18934387,-0.06177307,-0.18878688,1.2814617,0.44089723,1.446903,1.203922,0.20618977,-0.060099434,0.13241605,1.2845026,0.6264134
0.1,0.1,0.7999999999999999,-0.5235987755982988,0.5235987755982988,0,0.6406408,1.2186916,0.10209784,-0.10827913,0.05240654,1.3045337,0.76642644,1.4460796,1.2053928,0.20338939,-0.06285626,0.13026236,1.2762535,0.6265473
0.1,0.1,0.7999999999999999,-0.5235987755982988,0.5235987755982988,0,0.6414833,1.2122359,-0.49543643,0.03734563,0.035274908,1.2511156,0.08424368,1.442515,1.1998032,0.20513211,-0.0637769,0.13274944,1.2795693,0.6235896
0.1,0.1,0.7999999999999999,-0.5235987755982988,0.5235987755982988,0,0.63883156,1.2092178,-0.26085588,-0.07401299,-0.30617315,1.2095658,0.8459209,1.4508113,1.2027652,0.20597541,-0.060660638,0.13264976,1.2837396,0.62832904
0.1,0.1,0.7999999999999999,-0.5235987755982988,0.5235987755982988,0,0.6353696,1.2162027,-0.05059752,-0.06657372,-0.2918884,1.2632935,-0.65742403,1.44692,1.2018745,0.20579648,-0.060384262,0.1340681,1.2822595,0.62755054
0.1,0.1,0.7999999999999999,-0.5235987755982988,0.5235987755982988,0,0.6433357,1.2205591,-0.14745386,0.053821605,0.32955262,1.2514204,1.6849158,1.4466174,1.2038643,0.20364149,-0.06190599,0.13041787,1.2809294,0.6294798
0.1,0.1,0.7999999999999999,-0.5235987755982988,0.5235987755982988,0,0.63498765,1.2208443,-0.17493522,-0.07055524,0.0064175962,1.2496157,-0.031144828,1.4452418,1.2030165,0.20337537,-0.061104,0.13069293,1.2831163,0.6211552
0.1,0.1,0.7999999999999999,-0.5235987755982988,0.5235987755982988,0,0.64162254,1.2142669,0.07246853,-0.011707723,-0.14496183,1.2318524,0.56078017,1.4469202,1.2034115,0.20610957,-0.06282252,0.12664507,1.2762884,0.6300299
0.1,0.1,0.7999999999999999,-0.5235987755982988,0.5235987755982988,0,0.64018136,1.2144332,-0.33962816,-0.096853025,-0.05269783,1.2960018,0.18593457,1.4444505,1.2002745,0.20456453,-0.05739107,0.12701595,1.2740955,0.6275263
0.1,0.1,0.7999999999999999,-0.5235987755982988,0.5235987755982988,0,0.6401608,1.2251242,-0.2395044,-0.053970497,-0.07412584,1.2153374,0.71304333,1.4471632,1.204239,0.20563571,-0.05828934,0.13053256,1.2818702,0.62028176
0.1,0.1,0.7999999999999999,-0.5235987755982988,0.5235987755982988,0,0.64471596,1.2100884,-0.06766145,-0.06730415,-0.29543296,1.1962652,-0.38071612,1.4458811,1.2011056,0.20391296,-0.06236591,0.13521956,1.2846048,0.6229025
0.1,0.1,0.7999999999999999,-0.5235987755982988,0.5235987755982988,0,0.6371179,1.2173437,0.06067095,-0.0725001,0.076510765,1.1751022,-0.23425068,1.4471537,1.201642,0.20553504,-0.05658384,0.13417177,1.283126,0.62708974
0.1,0.1,0.7999999999999999,-0.5235987755982988,0.5235987755982988,0,0.63766426,1.2165815,-0.12729552,-0.016058428,0.19279836,1.1707541,-0.32585964,1.4451884,1.2021265,0.20638518,-0.056925938,0.1293665,1.2814906,0.62725234
0.1,0.1,0.7999999999999999,-0.5235987755982988,0.5235987755982988,0,0.6257682,1.2209969,-0.21555479,0.012987544,-0.36938754,1.2497402,-0.288887,1.4463255,1.2028486,0.20529771,-0.06048298,0.12589411,1.2840617,0.62406564
0.1,0.1,0.7999999999999999,-0.5235987755982988,0.5235987755982988,0,0.64026695,1.2226939,-0.24598694,-0.05994322,0.23851323,1.2177153,0.37790242,1.448788,1.2021568,0.20398286,-0.06325843,0.13489336,1.2819021,0.6252162
0.1,0.1,0.7999999999999999,-0.5235987755982988,0.5235987755982988,0,0.64120424,1.2143356,-0.056009203,-0.09803499,-0.1977905,1.3158345,0.8273224,1.4435316,1.1979941,0.20507702,-0.062773906,0.13255449,1.276446,0.62502736
0.1,0.1,0.7999999999999999,-0.5235987755982988,0.5235987755982988,0,0.6434397,1.2087276,-0.2881579,-0.12410026,0.04683214,1.2229128,-0.048420414,1.4445344,1.199616,0.2045786,-0.0673147,0.12544718,1.2759326,0.6297871
0.1,0.1,0.7999999999999999,-0.5235987755982988,0.5235987755982988,0,0.6359091,1.2145591,-0.08157421,-0.040333666,-0.1494319,1.1864017,0.17221935,1.4433717,1.2050959,0.20467964,-0.057190217,0.13000503,1.2865199,0.62039715
0.1,0.1,0.7999999999999999,-0.5235987755982988,0.5235987755982988,0,0.6408675,1.2143394,-0.054781962,-0.10728595,0.036386658,1.2072253,-0.09925013,1.4446586,1.2044083,0.2040319,-0.06417741,0.12879111,1.2810652,0.62405884
0.1,0.1,0.7999999999999999,-0.5235987755982988,0.5235987755982988,0,0.638265,1.2157397,-0.047710206,-0.12390797,-0.12926349,1.3387816,0.040007442,1.4420573,1.2027076,0.20718078,-0.06196583,0.13399242,1.2828686,0.6282518
0.1,0.1,0.7999999999999999,-0.5235987755982988,0.5235987755982988,0,0.63806397,1.2226307,-0.15094711,-0.0050505493,-0.30735034,1.2880456,0.15798189,1.4446822,1.1998484,0.20515002,-0.057622932,0.12375107,1.282182,0.62880325
0.1,0.1,0.7999999999999999,-0.5235987755982988,0.5235987755982988,0,0.6347541,1.2147787,-0.21171436,-0.013885964,0.27394396,1.219018,0.85995716,1.444943,1.2037563,0.20504111,-0.0616787,0.1315925,1.287137,0.6302449
0.1,0.1,0.7999999999999999,-0.5235987755982988,0.5235987755982988,0,0.6377386,1.2185329,-0.15387326,-0.08638922,-0.44224474,1.1532023,1.2028799,1.4455088,1.202936,0.20636536,-0.059340682,0.1272217,1.2828748,0.62724745
0.1,0.1,0.7999999999999999,-0.5235987755982988,0.5235987755982988,0,0.6351167,1.2218108,-0.18964244,-0.050433096,-0.3188751,1.2187207,0.69304544,1.4464711,1.2016966,0.20615123,-0.06198372,0.1337031,1.2781199,0.63404
0.1,0.1,0.7999999999999999,-0.5235987755982988,0.5235987755982988,0,0.63282496,1.2310097,0.0077641895,-0.107848346,0.006384879,1.276171,0.21947733,1.4480954,1.2050812,0.20435679,-0.059144758,0.12803574,1.2813196,0.62448263
0.1,0.1,0.7999999999999999,-0.5235987755982988,0.5235987755982988,0,0.63391155,1.2183449,-0.1416217,-0.022938222,-0.13674761,1.2440596,-0.5020301,1.4451356,1.2011346,0.20444646,-0.06343442,0.13450162,1.2823999,0.6298713
0.1,0.1,0.7999999999999999,-0.5235987755982988,0.5235987755982988,0,0.6454676,1.2196653,-0.102389075,-0.02120081,-0.07633874,1.2861819,0.515751,1.4475724,1.2066972,0.20535448,-0.061075628,0.12937264,1.2835085,0.62725693
0.1,0.1,0.7999999999999999,-0.5235987755982988,0.5235987755982988,0,0.63501257,1.2148484,0.1763753,-0.035931677,-0.3765612,1.1608394,-0.7970988,1.4471444,1.204633,0.20380358,-0.059041407,0.13000046,1.2847109,0.6228216
0.1,0.1,0.7999999999999999,-0.5235987755982988,0.5235987755982988,0,0.64359665,1.2277226,-0.22477788,-0.09962558,-0.22154157,1.2103444,-0.21274543,1.4460135,1.2023813,0.20452787,-0.05653492,0.12921903,1.2856088,0.6226202
0.1,0.1,0.7999999999999999,-0.5235987755982988,0.5235987755982988,0,0.63484406,1.2280536,-0.30065262,-0.09865656,-0.026478104,1.2330047,0.9376897,1.4446471,1.1987098,0.20483278,-0.057815306,0.13568152,1.2804688,0.6232768
0.1,0.1,0.7999999999999999,-0.5235987755982988,0.5235987755982988,0,0.6450046,1.217605,-0.44990215,-0.10221903,-0.13723011,1.2153987,-0.7984251,1.4465888,1.2027406,0.20440254,-0.061489828,0.12902027,1.2773752,0.6270023
0.1,0.1,0.7999999999999999,-0.5235987755982988,0.5235987755982988,0,0.6420328,1.2134304,-0.68368727,-0.06657105,-0.13856162,1.2357055,0.27839047,1.4468346,1.2015239,0.2059875,-0.05683613,0.1343544,1.2845371,0.62435234
0.1,0.1,0.7999999999999999,-0.5235987755982988,0.5235987755982988,0,0.640507,1.2145622,0.26953316,-0.08423839,0.12633131,1.253656,0.6009974,1.4452734,1.2022111,0.20425141,-0.067095034,0.13302667,1.278142,0.623365
0.1,0.1,0.7999999999999999,-0.5235987755982988,0.5235987755982988,0,0.63930714,1.2163712,-0.123200215,-0.10133484,-0.0364498,1.2196275,-0.16543512,1.4464442,1.2077823,0.2061062,-0.060787972,0.13366942,1.2800689,0.6275569
0.1,0.1,0.7999999999999999,-0.5235987755982988,0.5235987755982988,0,0.6352853,1.2161995,-0.30326417,-0.08540745,-0.34584662,1.129959,0.0042406353,1.4485993,1.2036358,0.20501424,-0.064841114,0.12568533,1.2736968,0.62844634
0.1,0.1,0.7999999999999999,-0.5235987755982988,0.5235987755982988,0,0.6439566,1.220585,0.00069709227,-0.10290983,0.09999433,1.1863428,0.9384606,1.4477825,1.2004138,0.2054113,-0.061379388,0.13820457,1.2816864,0.6292644
0.1,0.1,0.7999999999999999,-0.5235987755982988,0.5235987755982988,0,0.6296707,1.2198648,-0.082539745,-0.078097954,-0.18353923,1.2390093,-0.063843176,1.449386,1.2008686,0.20518555,-0.05662132,0.13343659,1.2800684,0.630658
0.1,0.1,0.7999999999999999,-0.5235987755982988,0.5235987755982988,0,0.63884187,1.2223599,0.37569508,-0.10371014,0.339933,1.2126117,0.7039379,1.4451842,1.202757,0.2064641,-0.06091734,0.13125142,1.278722,0.6249062
0.1,0.1,0.7999999999999999,-0.5235987755982988,0.5235987755982988,0,0.6291147,1.2222974,-0.30070886,-0.0643598,-0.286009,1.2993468,0.76152265,1.4444951,1.204951,0.20351723,-0.060511626,0.1330911,1.2813002,0.62664384
0.1,0.1,0.7999999999999999,-0.5235987755982988,0.5235987755982988,0,0.6401262,1.2242234,0.07010469,-0.10230428,-0.01266146,1.1410002,0.51435137,1.4478455,1.2004602,0.20457594,-0.05681446,0.13378362,1.2742178,0.628953
0.1,0.1,0.7999999999999999,-0.5235987755982988,0.5235987755982988,0,0.6395244,1.2118485,0.2521161,-0.011688882,0.12774323,1.2170354,-0.36666763,1.4448051,1.2052579,0.20583113,-0.06307793,0.1312202,1.2853372,0.6286481
0.1,0.1,0.7999999999999999,-0.5235987755982988,0.5235987755982988,0,0.63846475,1.2263384,-0.15733743,-0.11796073,0.23643498,1.1655588,0.63862836,1.4438239,1.1991348,0.2063099,-0.059071664,0.13613589,1.2850884,0.626915
0.1,0.1,0.7999999999999999,-0.5235987755982988,0.5235987755982988,0,0.63543665,1.2220486,-0.38526115,-0.037246708,0.15859061,1.2297482,0.46892622,1.4452947,1.2032659,0.20577654,-0.0609499,0.12477351,1.2781472,0.63343716
0.1,0.1,0.7999999999999999,-0.5235987755982988,0.5235987755982988,0,0.6341274,1.22449,-0.27019635,-0.022140374,-0.18102422,1.2780243,-0.030010734,1.446435,1.2020009,0.20454657,-0.059668522,0.1349279,1.2843597,0.62754637
0.1,0.1,0.7999999999999999,-0.5235987755982988,0.5235987755982988,0,0.6358386,1.222258,0.05715491,-0.05878845,-0.0001975169,1.1891946,0.49575022,1.4467183,1.204909,0.20480227,-0.056096047,0.13141663,1.2756746,0.6307265
0.1,0.1,0.7999999999999999,-0.5235987755982988,0.5235987755982988,0,0.638765,1.2155378,0.0021270486,-0.028101934,-0.23262729,1.1816658,-0.1152069,1.4462938,1.1994865,0.20237905,-0.059646364,0.1338602,1.2822967,0.6266802
0.1,0.1,0.7999999999999999,-0.5235987755982988,0.5235987755982988,0,0.6368369,1.2271779,0.034857396,-0.027816497,-0.4362801,1.1790422,-0.22712173,1.4463699,1.2012736,0.20687635,-0.059691373,0.13144846,1.2791063,0.6267235
0.1,0.1,0.7999999999999999,-0.5235987755982988,0.5235987755982988,0,0.63909537,1.2271119,-0.4136585,0.01090828,-0.17898373,1.235988,0.6761518,1.4470857,1.2044232,0.20598531,-0.059398554,0.13375802,1.2792602,0.6277456
0.1,0.1,0.7999999999999999,-0.5235987755982988,0.5235987755982988,0,0.63917005,1.227142,-0.5717766,-0.042363614,-0.13979484,1.2925996,0.1370461,1.4429268,1.2002897,0.2067714,-0.05837992,0.1305358,1.2812791,0.6193302
0.1,0.1,0.7999999999999999,-0.5235987755982988,0.5235987755982988,0,0.6363475,1.209564,0.21685235,-0.061287683,-0.042305537,1.3020049,0.42473722,1.4470718,1.2017409,0.20099112,-0.05549781,0.13373327,1.2832314,0.6219393
0.1,0.1,0.7999999999999999,-0.5235987755982988,0.5235987755982988,0,0.6359047,1.2125645,0.118601955,0.036074117,0.13115591,1.2015207,0.5018971,1.4467459,1.2032633,0.20365974,-0.05999886,0.13122155,1.2797043,0.6269591
0.1,0.1,0.7999999999999999,-0.5235987755982988,0.5235987755982988,0,0.6360439,1.2161183,0.28941444,-0.0608156,0.37975222,1.1500298,0.6934965,1.4447047,1.1996645,0.20681229,-0.06025633,0.13338739,1.287809,0.6295113
0.1,0.1,0.7999999999999999,-0.5235987755982988,0.5235987755982988,0,0.6406922,1.2184904,0.092130385,-0.056356132,0.17032443,1.1509305,-0.09652915,1.4470013,1.2028667,0.20322923,-0.061029874,0.13252771,1.2890415,0.624169
0.1,0.1,0.7999999999999999,-0.5235987755982988,0.5235987755982988,0,0.6258704,1.2173498,-0.056798123,-0.06058937,0.47739702,1.2701482,1.5057151,1.4447002,1.2050217,0.20759434,-0.058698498,0.12799488,1.2838858,0.6263099
0.1,0.1,0.7999999999999999,-0.5235987755982988,0.5235987755982988,0,0.6373921,1.2210909,-0.09420232,-0.125855,0.09013951,1.1681483,0.030797724,1.4482915,1.2031155,0.20416111,-0.06096431,0.1291896,1.279477,0.62995815
0.1,0.1,0.7999999999999999,-0.5235987755982988,0.5235987755982988,0,0.62772393,1.2131677,0.004934399,-0.07815001,-0.080099426,1.1291231,0.6449651,1.4467475,1.201608,0.20677473,-0.06356678,0.12997559,1.2802273,0.6250542
0.1,0.1,0.7999999999999999,-0.5235987755982988,0.5235987755982988,0,0.63015485,1.2183435,-0.02684518,-0.06456261,-0.054286566,1.2929142,0.91060334,1.4455343,1.2027183,0.20695598,-0.058673654,0.13375661,1.2751794,0.6317699
0.1,0.1,0.7999999999999999,-0.5235987755982988,0.5235987755982988,0,0.6300314,1.221679,-0.12442861,-0.04870534,-0.6131028,1.1479607,0.87920344,1.4474589,1.2024302,0.205019,-0.0670182,0.13184105,1.2879027,0.6221045
0.1,0.1,0.7999999999999999,-0.5235987755982988,0.5235987755982988,0,0.63818735,1.2140889,-0.6837076,-0.042319376,0.2828176,1.2424285,-0.0031734407,1.4448391,1.2017298,0.20532846,-0.0595331,0.13255237,1.2776928,0.6220507
0.1,0.1,0.7999999999999999,-0.5235987755982988,0.5235987755982988,0,0.6451284,1.2132952,-0.10495787,-0.013187415,-0.22240454,1.2505035,-0.21654183,1.4467287,1.1982508,0.20504086,-0.056749314,0.13482985,1.2804385,0.623437
0.1,0.1,0.7999999999999999,-0.5235987755982988,0.5235987755982988,0,0.6383494,1.2239151,-0.043077998,-0.10505651,-0.14263706,1.2277436,1.1601642,1.4470804,1.2018,0.20583169,-0.05973481,0.1281776,1.2828035,0.6322737
0.1,0.1,0.7999999999999999,-0.5235987755982988,0.5235987755982988,0,0.6399629,1.2187792,-0.6008481,-0.04131986,0.27119118,1.2641315,0.40253022,1.4473697,1.2044982,0.2068977,-0.062626585,0.13195695,1.2825646,0.6242604
0.1,0.1,0.7999999999999999,-0.5235987755982988,0.5235987755982988,0,0.64162284,1.2104876,0.2247604,-0.015210754,-0.46901324,1.2381254,1.0486553,1.4471419,1.19911,0.20761196,-0.059947163,0.13199486,1.2875963,0.62691265
0.1,0.1,0.7999999999999999,-0.5235987755982988,0.5235987755982988,0,0.6407069,1.2187278,-0.22975634,-0.036905326,0.12176834,1.1966876,-0.42104876,1.4467756,1.2020427,0.20492749,-0.0639116,0.1339811,1.2838173,0.6280552
0.1,0.1,0.7999999999999999,-0.5235987755982988,0.5235987755982988,0,0.6406472,1.21593,0.069366634,-0.085913315,-0.21656953,1.2247411,-0.10275949,1.4451689,1.2010112,0.20658228,-0.061844204,0.13044584,1.2733686,0.62713337
0.1,0.1,0.7999999999999999,-0.5235987755982988,0.5235987755982988,0,0.64195555,1.2239462,0.30197802,-0.036694776,-0.111057684,1.1898514,0.8639803,1.4471309,1.2058489,0.2057827,-0.06010662,0.13209397,1.276061,0.62537855
0.1,0.1,0.7999999999999999,-0.5235987755982988,0.5235987755982988,0,0.64006007,1.2211593,-0.41632095,-0.09691252,-0.24449131,1.2161006,1.2945976,1.4455453,1.2000185,0.20553045,-0.064353354,0.12935327,1.2864883,0.6243609
0.1,0.1,0.7999999999999999,-0.5235987755982988,0.5235987755982988,0,0.63866735,1.2077072,0.032745004,-0.053284235,0.23487681,1.199468,-0.50999874,1.4472177,1.1989287,0.20425083,-0.059741266,0.12899801,1.2862476,0.62430704
0.1,0.1,0.7999999999999999,-0.5235987755982988,0.5235987755982988,0,0.63340527,1.2103875,0.24740553,-0.056434587,0.14734308,1.304274,0.7636114,1.4485096,1.2031666,0.20339061,-0.0583264,0.13142009,1.2766361,0.6268429
0.1,0.1,0.7999999999999999,-0.5235987755982988,0.5235987755982988,0,0.6361607,1.2165707,0.0030281593,-0.07477205,-0.032972254,1.176515,0.28226882,1.4458032,1.202689,0.20127678,-0.058020215,0.13349172,1.2829474,0.62292856
0.1,0.1,0.7999999999999999,-0.5235987755982988,0.5235987755982988,0,0.63948184,1.2270223,-0.39249516,-0.052609075,-0.08415933,1.1876041,0.55557346,1.4450839,1.2017194,0.20731965,-0.055119418,0.1338291,1.2824832,0.6225278
0.1,0.1,0.7999999999999999,-0.5235987755982988,0.5235987755982988,0,0.63741475,1.2145772,-0.0010480587,-0.01643327,-0.05192022,1.1413704,-0.029711515,1.443717,1.1978167,0.20730707,-0.060790468,0.13354011,1.2776423,0.6272906
0.1,0.1,0.7999999999999999,-0.5235987755982988,0.5235987755982988,0,0.6381315,1.2151809,0.23809993,-0.039180767,0.24067932,1.1304632,0.30298352,1.4485555,1.2026649,0.20614985,-0.06680708,0.12702054,1.2796984,0.62667036
0.1,0.1,0.7999999999999999,-0.5235987755982988,0.5235987755982988,0,0.63491815,1.198821,-0.096178465,-0.08070796,-0.29267898,1.1689856,0.50696623,1.4463562,1.2001144,0.20432228,-0.06047776,0.13007858,1.2753911,0.62709546
0.1,0.1,0.7999999999999999,-0.5235987755982988,0.5235987755982988,0,0.6365317,1.2163426,-0.18726318,-0.13154705,-0.0024539721,1.2765863,0.23526783,1.4474571,1.2005111,0.20590355,-0.06394168,0.13469143,1.2838953,0.62979084
0.1,0.1,0.7999999999999999,-0.5235987755982988,0.5235987755982988,0,0.63629615,1.2094394,-0.30454293,-0.07155188,0.047660306,1.1690559,0.21789497,1.4438106,1.2040176,0.20573434,-0.06139621,0.13463362,1.2828169,0.62451655
0.1,0.1,0.7999999999999999,-0.5235987755982988,0.5235987755982988,0,0.63725823,1.2125889,-0.3685077,-0.074440956,-0.2307994,1.2250347,0.08457459,1.4437355,1.2008771,0.20419401,-0.060228612,0.13512655,1.2836423,0.62568295
0.1,0.1,0.7999999999999999,-0.5235987755982988,0.5235987755982988,0,0.6401239,1.2227606,-0.078701615,-0.075231105,-0.0059660426,1.2606182,-0.32694086,1.4453509,1.2002187,0.20346554,-0.05998881,0.13022152,1.286012,0.62409353
0.1,0.1,0.7999999999999999,-0.5235987755982988,0.5235987755982988,0,0.63965344,1.2237136,-0.18829472,-0.107915886,-0.17011786,1.3390064,0.23718981,1.44926,1.2020129,0.20242462,-0.059235312,0.13513166,1.2808774,0.625512
0.1,0.1,0.7999999999999999,-0.5235987755982988,0.5235987755982988,0,0.6398255,1.2206635,-0.1169189,0.0394825,0.16565481,1.2832271,-0.6236118,1.4477108,1.1997052,0.20482439,-0.058695413,0.13343123,1.2788227,0.63081735
0.1,0.1,0.7999999999999999,-0.5235987755982988,0.5235987755982988,0,0.63698566,1.2072854,-0.25361806,-0.020744545,-0.20216553,1.2275923,0.79520965,1.4462287,1.2015333,0.20526089,-0.056524206,0.1302044,1.2868162,0.6223636
0.1,0.1,0.7999999999999999,-0.5235987755982988,0.5235987755982988,0,0.6307253,1.2170525,-0.13869247,-0.06147272,0.042316165,1.2139755,0.77725554,1.4488056,1.2012144,0.20269221,-0.06409195,0.12907344,1.2859699,0.6328142
0.1,0.1,0.7999999999999999,-0.5235987755982988,0.5235987755982988,0,0.6389197,1.2119597,-0.008076485,-0.13540216,-0.01829952,1.1799172,1.1831542,1.442378,1.1984141,0.20494767,-0.06291329,0.13308151,1.2766666,0.62492144
0.1,0.1,0.7999999999999999,-0.5235987755982988,0.5235987755982988,0,0.63648295,1.2192324,-0.04348662,-0.06786394,-0.31805548,1.1719594,-0.22788559,1.4450037,1.1970782,0.205143,-0.063226424,0.12903234,1.2810825,0.625537
0.1,0.1,0.7999999999999999,-0.5235987755982988,0.5235987755982988,0,0.63990206,1.213399,-0.22707227,-0.06024495,0.14622785,1.1989642,-0.9247682,1.4501213,1.2006662,0.20286411,-0.05585565,0.13447732,1.2760559,0.62907016
0.1,0.1,0.7999999999999999,-0.5235987755982988,0.5235987755982988,0,0.6354936,1.2254319,0.24629162,-0.10210388,-0.14677761,1.1998438,0.5195964,1.4449216,1.2029341,0.2075429,-0.06199088,0.13282219,1.2815968,0.6279472
0.1,0.1,0.7999999999999999,-0.5235987755982988,0.5235987755982988,0,0.636228,1.228367,-0.20092672,-0.03984441,0.0017026522,1.2004445,-0.08331265,1.4471579,1.1987909,0.20569718,-0.05831584,0.13074987,1.2813479,0.6240413
0.1,0.1,0.7999999999999999,-0.5235987755982988,0.5235987755982988,0,0.62674344,1.2204725,0.040670615,-0.1321601,0.08566204,1.1553794,0.78251946,1.4469421,1.2041783,0.20781371,-0.059694942,0.12737034,1.2823323,0.632664
0.1,0.1,0.7999999999999999,-0.5235987755982988,0.5235987755982988,0,0.6369784,1.2134228,-0.3046496,-0.049684834,0.18581773,1.2530301,0.45020816,1.4468893,1.2006689,0.2058014,-0.062328186,0.13270248,1.2763406,0.6261691
0.1,0.1,0.7999999999999999,-0.5235987755982988,0.5235987755982988,0,0.62831336,1.221077,-0.07077272,-0.09432915,0.090932414,1.2246488,0.8136235,1.4467939,1.2016213,0.20376462,-0.06266669,0.1409985,1.279036,0.63150316
0.1,0.1,0.7999999999999999,-0.5235987755982988,0.5235987755982988,0,0.6305909,1.2132478,-0.20360748,-0.025218917,-0.19253132,1.2195299,1.0794054,1.4445118,1.2002635,0.2017966,-0.05873865,0.1310779,1.2861052,0.62741673
0.1,0.1,0.7999999999999999,-0.5235987755982988,0.5235987755982988,0,0.63373315,1.2176031,0.21253218,-0.0056663393,0.037179805,1.2283123,1.4681826,1.448896,1.2048635,0.20613776,-0.062532306,0.12952723,1.2805618,0.6259372
0.1,0.1,0.7999999999999999,-0.5235987755982988,0.5235987755982988,0,0.63521415,1.2211311,-0.28168416,-0.1022434,0.3802704,1.2503233,1.262949,1.4470353,1.2032801,0.20673937,-0.060536765,0.12786616,1.2813572,0.62808245
0.1,0.1,0.7999999999999999,-0.5235987755982988,0.5235987755982988,0,0.6373604,1.2190441,-0.0094282115,-0.09560545,-0.2887325,1.2085285,-0.56537825,1.4464071,1.2018886,0.20411812,-0.0584463,0.13439119,1.2812402,0.6241652
0.1,0.1,0.7999999999999999,-0.5235987755982988,0.5235987755982988,0,0.6433191,1.2109246,-0.29481703,-0.13569508,-0.039194893,1.162641,0.4245757,1.4498817,1.2006059,0.20704381,-0.06396694,0.1263095,1.2801038,0.62570727
0.1,0.1,0.7999999999999999,-0.5235987755982988,0.5235987755982988,0,0.6422997,1.2169924,-0.2688032,-0.14938572,-0.61155987,1.2908415,0.27824682,1.4499205,1.2031449,0.20771414,-0.056716032,0.12737119,1.2781247,0.6217666
0.1,0.1,0.7999999999999999,-0.5235987755982988,0.5235987755982988,0,0.6403417,1.2118114,-0.4076863,-0.10002579,-0.08090039,1.1795322,-0.026688226,1.4459049,1.2020175,0.20626672,-0.06242484,0.1325077,1.2806106,0.62521416
0.1,0.1,0.7999999999999999,-0.5235987755982988,0.5235987755982988,0,0.63688344,1.224611,0.18558563,-0.04893367,0.07399717,1.1730851,1.8142506,1.446953,1.2039613,0.2064712,-0.06273792,0.12539941,1.2814312,0.6268744
0.1,0.1,0.7999999999999999,-0.5235987755982988,0.5235987755982988,0,0.63898265,1.2229493,-0.1924655,-0.036648348,-0.10759697,1.1888914,0.35527137,1.4482158,1.2034719,0.2047283,-0.059380736,0.13356166,1.2810255,0.6235164
0.1,0.1,0.7999999999999999,-0.5235987755982988,0.5235987755982988,0,0.637225,1.2129431,-0.21948233,0.0074242735,0.0342261,1.2734084,0.289229,1.4468586,1.2005558,0.20157754,-0.059461527,0.13423464,1.2831957,0.62348986
0.1,0.1,0.7999999999999999,-0.5235987755982988,0.5235987755982988,0,0.6388479,1.211973,-0.22245458,0.0046562003,-0.17642193,1.1608425,-0.1871442,1.4470899,1.2012732,0.20231141,-0.05637961,0.13193054,1.2803997,0.6245031
0.1,0.1,0.7999999999999999,-0.5235987755982988,0.5235987755982988,0,0.6417833,1.2140139,-0.25632596,-0.12849401,-0.07959811,1.2296569,1.3399527,1.4471557,1.2010311,0.2040189,-0.0651364,0.13316561,1.2823709,0.6278773
0.1,0.1,0.7999999999999999,-0.5235987755982988,0.5235987755982988,0,0.6357862,1.2132137,0.08724226,-0.11670229,0.6948585,1.2920902,1.3035008,1.4466257,1.2054328,0.20518053,-0.06208867,0.13147642,1.2797927,0.6272794
0.1,0.1,0.7999999999999999,-0.5235987755982988,0.5235987755982988,0,0.64439654,1.211108,-0.17192489,-0.06262834,-0.4051702,1.1802372,-0.94580424,1.4448872,1.2016803,0.20476419,-0.062128775,0.12748341,1.2821921,0.62627965
0.1,0.1,0.7999999999999999,-0.5235987755982988,0.5235987755982988,0,0.6278522,1.217213,-0.1264127,-0.13913777,-0.09131532,1.2682482,0.06811471,1.4455776,1.1970841,0.20542884,-0.06334127,0.13364522,1.2866583,0.6225385
0.1,0.1,0.7999999999999999,-0.5235987755982988,0.5235987755982988,0,0.64190644,1.2108805,-0.30319503,-0.12513697,-0.12759793,1.2501879,0.27556637,1.4466279,1.2028607,0.20768651,-0.06577914,0.12970343,1.2804091,0.62429345
0.1,0.1,0.7999999999999999,-0.5235987755982988,0.5235987755982988,0,0.6378709,1.2077763,-0.3503181,-0.028301235,-0.094718,1.1590736,0.49196947,1.4460343,1.202416,0.20495954,-0.06491828,0.13087201,1.2833542,0.6240486
0.1,0.1,0.7999999999999999,-0.5235987755982988,0.5235987755982988,0,0.644067,1.2186236,-0.51763,-0.028833887,-0.18607873,1.2466894,1.2325829,1.4442561,1.2027974,0.20619081,-0.064875804,0.13383715,1.2835171,0.62649286
0.1,0.1,0.7999999999999999,-0.5235987755982988,0.5235987755982988,0,0.6306437,1.2249517,-0.07837388,-0.12639885,0.038647175,1.3398812,0.085186034,1.4513451,1.2016939,0.205021,-0.063971676,0.13185248,1.2827193,0.6208821
0.1,0.1,0.7999999999999999,-0.5235987755982988,0.5235987755982988,0,0.634754,1.2061436,-0.22275932,-0.034808524,0.03333396,1.2807218,0.19037539,1.4460344,1.2020347,0.2027169,-0.058416422,0.13490316,1.2809918,0.6216307
0.1,0.1,0.7999999999999999,-0.5235987755982988,0.5235987755982988,0,0.6366148,1.2190753,-0.24151048,0.014689834,-0.05313685,1.2360001,1.552121,1.4482864,1.2029483,0.20156768,-0.06451917,0.1328952,1.2830368,0.6256263
0.1,0.1,0.7999999999999999,-0.5235987755982988,0.5235987755982988,0,0.6384459,1.2253203,0.02257121,-0.06212683,0.17083529,1.2286915,0.21011214,1.4520829,1.2013081,0.20400526,-0.06471536,0.13423488,1.2803284,0.6277733
0.1,0.1,0.7999999999999999,-0.5235987755982988,0.5235987755982988,0,0.63503504,1.2172784,0.00033875942,-0.06401495,-0.30467469,1.140585,0.41722688,1.4449712,1.2033049,0.20472334,-0.063246176,0.13420054,1.2850949,0.6277454
0.1,0.1,0.7999999999999999,-0.5235987755982988,0.5235987755982988,0,0.6380322,1.2240286,0.08908304,-0.05661911,-0.04494498,1.1848406,1.0739604,1.4462144,1.2038319,0.20499094,-0.059665233,0.13390307,1.2807014,0.6262047
0.1,0.1,0.7999999999999999,-0.5235987755982988,0.5235987755982988,0,0.63912505,1.219086,-0.18833044,-0.13698322,-0.16600892,1.1294546,-0.3544243,1.4502842,1.2036963,0.20697588,-0.06158132,0.12836693,1.2801223,0.6283272
0.1,0.1,0.7999999999999999,-0.5235987755982988,0.5235987755982988,0,0.6447594,1.2206825,0.08560578,-0.124110684,0.09673535,1.1927459,0.8146856,1.4496405,1.2002589,0.20412049,-0.060995422,0.13239452,1.28214,0.62871754
0.1,0.1,0.7999999999999999,-0.5235987755982988,0.5235987755982988,0,0.6333988,1.21558,-0.6163013,-0.06664935,-0.13500664,1.2308105,0.7989616,1.446361,1.2008908,0.2058572,-0.058216535,0.12790461,1.2800477,0.6241003
0.1,0.1,0.7999999999999999,-0.5235987755982988,0.5235987755982988,0,0.6328993,1.2168221,-0.043021042,-0.052816894,-0.15089323,1.2436992,-0.056765072,1.446595,1.2026064,0.205389,-0.058400918,0.12913871,1.2756059,0.6253695
0.1,0.1,0.7999999999999999,-0.5235987755982988,0.5235987755982988,0,0.6471621,1.215561,-0.23613136,-0.02476505,0.26345032,1.2588072,0.46545428,1.4503607,1.2003971,0.20595738,-0.060653675,0.13406058,1.2765473,0.6284394
0.1,0.1,0.7999999999999999,-0.5235987755982988,0.5235987755982988,0,0.6365254,1.2225639,0.008951603,0.021740485,0.092206866,1.2290928,0.6917936,1.4470372,1.2050765,0.20543316,-0.0641213,0.13164935,1.2837647,0.62290627
0.1,0.1,0.7999999999999999,-0.5235987755982988,0.5235987755982988,0,0.63832957,1.225032,-0.22305459,-0.06138576,0.23234376,1.1959956,0.715169,1.4466295,1.2022121,0.20493063,-0.06477763,0.12889367,1.2830303,0.62299484
0.1,0.1,0.7999999999999999,-0.5235987755982988,0.5235987755982988,0,0.63832307,1.2126073,-0.08427497,-0.059189834,-0.048967283,1.3083578,0.28028727,1.4441863,1.2034202,0.20427974,-0.05838823,0.1351639,1.2801422,0.6194219
0.1,0.1,0.7999999999999999,-0.5235987755982988,0.5235987755982988,0,0.6304874,1.2017856,-0.64823633,-0.020089949,0.17784198,1.2196988,0.2032317,1.4444518,1.2036893,0.20507142,-0.060040664,0.12964427,1.2783961,0.6243754
0.1,0.1,0.7999999999999999,-0.5235987755982988,0.5235987755982988,0,0.6426791,1.2232921,-0.023236796,-0.008510752,-0.108125344,1.1306154,0.5349136,1.4485976,1.2033852,0.20516977,-0.059853446,0.13291727,1.2834648,0.623157
0.1,0.1,0.7999999999999999,-0.5235987755982988,0.5235987755982988,0,0.64082146,1.2213244,0.15602618,-0.01195232,-0.32341164,1.25923,-0.26701334,1.4462227,1.1994478,0.20554647,-0.058722764,0.13017343,1.284817,0.6256583
0.1,0.1,0.7999999999999999,-0.5235987755982988,0.5235987755982988,0,0.6415791,1.2135638,-0.21677923,-0.09298339,-0.055146072,1.2388488,0.49640176,1.447124,1.203557,0.20623058,-0.061150458,0.13016167,1.279396,0.62599736
0.1,0.1,0.7999999999999999,-0.5235987755982988,0.5235987755982988,0,0.6351869,1.2118214,0.07821057,-0.07465094,-0.30465734,1.224377,0.89112836,1.4453211,1.2039433,0.20549698,-0.0617485,0.1265632,1.2841905,0.6263774
0.1,0.1,0.7999999999999999,-0.5235987755982988,0.5235987755982988,0,0.6409518,1.2093121,-0.048373755,-0.068509616,-0.15821482,1.2929645,0.25172496,1.4449878,1.2017324,0.20476258,-0.06122303,0.13029596,1.2839127,0.62539905
0.1,0.1,0.7999999999999999,-0.5235987755982988,0.5235987755982988,0,0.6419185,1.214656,-0.3198125,-0.06715958,-0.034701437,1.340693,0.30294332,1.4486959,1.2016453,0.20566516,-0.060923517,0.1280995,1.2756139,0.62950987
0.1,0.1,0.7999999999999999,-0.5235987755982988,0.5235987755982988,0,0.6401404,1.2151207,-0.053416573,-0.13083513,-0.09072705,1.2458243,0.18775806,1.443267,1.2011042,0.2041932,-0.056467555,0.13567387,1.2813389,0.6200606
0.1,0.1,0.7999999999999999,-0.5235987755982988,0.5235987755982988,0,0.63630444,1.2242261,0.18244642,-0.022582283,-0.24088205,1.2430974,0.5796819,1.4470038,1.1999892,0.20400651,-0.06150929,0.13236924,1.2818757,0.62964463
0.1,0.1,0.7999999999999999,-0.5235987755982988,0.5235987755982988,0,0.6396463,1.2145782,-0.17512368,-0.0730725,0.0052358196,1.207653,1.2896129,1.4466645,1.1988035,0.20398708,-0.059225842,0.13455532,1.2764083,0.6244939
0.1,0.1,0.7999999999999999,-0.5235987755982988,0.5235987755982988,0,0.6378039,1.2216058,-0.49658766,-0.03931486,0.14120248,1.1819782,-0.09552325,1.4466739,1.2027016,0.2046489,-0.060916092,0.1349075,1.2779202,0.6204643
0.1,0.1,0.7999999999999999,-0.5235987755982988,0.5235987755982988,0,0.63421553,1.2166537,-0.3454831,-0.043153968,-0.31703633,1.2016767,0.7542618,1.4467204,1.200834,0.20561132,-0.062495437,0.12907895,1.278774,0.6248933
0.1,0.1,0.7999999999999999,-0.5235987755982988,0.5235987755982988,0,0.6390353,1.2089846,0.14966387,-0.07386707,0.02228143,1.2097176,-0.17233478,1.446182,1.2017128,0.20254861,-0.06026671,0.13141714,1.276529,0.6273696
0.1,0.1,0.7999999999999999,-0.5235987755982988,0.5235987755982988,0,0.6325293,1.2244238,-0.05087586,-0.045982067,-0.32391557,1.2553419,0.89245224,1.4464368,1.2040746,0.2056227,-0.06340409,0.13423675,1.2831984,0.6262135
0.1,0.1,0.7999999999999999,-0.5235987755982988,0.5235987755982988,0,0.642589,1.2196411,-0.25963268,-0.030670261,-0.042495817,1.2933182,0.7546527,1.446373,1.1991601,0.20532332,-0.061780155,0.13194568,1.2810246,0.6276354
0.1,0.1,0.7999999999999999,-0.5235987755982988,0.5235987755982988,0,0.63207424,1.2203894,-0.09826412,-0.078537576,0.03202889,1.2074696,-0.41645464,1.4458634,1.1999531,0.20729621,-0.065044984,0.13045987,1.2859837,0.6294981
0.1,0.1,0.7999999999999999,-0.5235987755982988,0.5235987755982988,0,0.63246185,1.2145069,0.40788963,-0.12068399,-0.14626178,1.2260482,0.31419232,1.4437506,1.2033321,0.2048601,-0.061665777,0.13387537,1.2803581,0.62327045
0.1,0.1,0.7999999999999999,-0.5235987755982988,0.5235987755982988,0,0.6365513,1.2108274,-0.42488515,-0.011630767,-0.28783262,1.1535326,0.30170414,1.4473397,1.201658,0.20556748,-0.060908005,0.12854786,1.2808027,0.6257191
0.1,0.1,0.7999999999999999,-0.5235987755982988,0.5235987755982988,0,0.6322499,1.2130522,0.16535324,-0.05399754,0.17950456,1.1901244,-0.596785,1.447353,1.2012556,0.20403853,-0.06221452,0.13248219,1.2851266,0.6272131
0.1,0.1,0.7999999999999999,-0.5235987755982988,0.5235987755982988,0,0.63392395,1.2127994,-0.21720798,-0.023588413,-0.34233472,1.2098763,-0.3093251,1.445478,1.1995238,0.2058516,-0.056437597,0.13088298,1.2804768,0.6254883
0.1,0.1,0.7999999999999999,-0.5235987755982988,0.5235987755982988,0,0.63730127,1.2157571,-0.27871543,-0.08584544,-0.1456105,1.25484,-0.34113073,1.4476086,1.2047536,0.20557465,-0.06298739,0.12556885,1.2810012,0.63003284
0.1,0.1,0.7999999999999999,-0.5235987755982988,0.5235987755982988,0,0.6304689,1.22276,-0.23943809,-0.033215936,0.07114895,1.195066,0.42521927,1.4441385,1.1955794,0.20729819,-0.055598196,0.12939484,1.2768536,0.6237489
0.1,0.1,0.7999999999999999,-0.5235987755982988,0.5235987755982988,0,0.6356677,1.2179538,0.2373352,0.030490244,0.31880248,1.2282544,0.11280665,1.4477245,1.2016953,0.20668511,-0.061370112,0.12740041,1.2807282,0.6281501
0.1,0.1,0.7999999999999999,-0.5235987755982988,0.5235987755982988,0,0.6261036,1.2042379,-0.22173391,-0.087985836,-0.13562791,1.2026882,-0.5212681,1.444676,1.2031909,0.20226824,-0.057378307,0.13317516,1.2789954,0.62189287
0.1,0.1,0.7999999999999999,-0.5235987755982988,0.5235987755982988,0,0.63969153,1.2116417,-0.13260561,-0.060001336,0.05228171,1.3277483,-0.025783457,1.4471779,1.1995914,0.20479777,-0.06405898,0.12717041,1.2795588,0.62431765
0.1,0.1,0.7999999999999999,-0.5235987755982988,0.5235987755982988,0,0.63473696,1.2126795,0.12178411,0.015945673,-0.39704317,1.2638562,0.69523674,1.4458853,1.2025365,0.20599905,-0.056835346,0.12706427,1.2775123,0.62369895
0.1,0.1,0.7999999999999999,-0.5235987755982988,0.5235987755982988,0,0.634836,1.2155325,0.023272902,-0.10244221,-0.4244264,1.1971471,1.4050679,1.4470435,1.2044246,0.20590965,-0.060029216,0.13207981,1.2795159,0.6256152
0.1,0.1,0.7999999999999999,-0.5235987755982988,0.5235987755982988,0,0.63695437,1.2168251,-0.4086378,-0.117457494,0.3100693,1.2272027,0.15401556,1.4460405,1.201448,0.20459771,-0.061844025,0.13190085,1.2840391,0.6239683
0.1,0.1,0.7999999999999999,-0.5235987755982988,0.5235987755982988,0,0.636668,1.214771,0.058404557,-0.020875478,0.18513627,1.2204434,1.0354482,1.4475982,1.2043079,0.20261973,-0.062359706,0.13481946,1.2772949,0.623513
0.1,0.1,0.7999999999999999,-0.5235987755982988,0.5235987755982988,0,0.64138836,1.2291445,-0.24213557,-0.062065404,-0.1725426,1.2079431,0.47994253,1.4492388,1.2012045,0.20486218,-0.063796625,0.12935452,1.2845279,0.623477
0.1,0.1,0.7999999999999999,-0.5235987755982988,0.5235987755982988,0,0.6456997,1.2135986,-0.04368975,-0.059761774,0.18349439,1.113891,-0.13464367,1.4469041,1.2008648,0.20597503,-0.060006287,0.13090909,1.2810423,0.6245684
0.1,0.1,0.7999999999999999,-0.5235987755982988,0.5235987755982988,0,0.6345734,1.2143668,-0.03375705,-0.09328793,0.4129992,1.1765949,1.1331959,1.4475553,1.2006578,0.20383188,-0.06169952,0.13055536,1.2833058,0.6243625
0.1,0.1,0.7999999999999999,-0.5235987755982988,0.5235987755982988,0,0.63978547,1.2160676,-0.14959492,-0.060247224,0.090038076,1.1781911,0.6422884,1.4479445,1.201699,0.20580226,-0.060299125,0.13312359,1.28338,0.62227196
0.1,0.1,0.7999999999999999,-0.5235987755982988,0.5235987755982988,0,0.6403876,1.2200317,-0.064618036,-0.09855745,0.27982116,1.1111665,0.92173326,1.4463018,1.2018971,0.2082349,-0.061162252,0.13108408,1.2806959,0.6267504
0.1,0.1,0.7999999999999999,-0.5235987755982988,0.5235987755982988,0,0.64024216,1.2237376,-0.20865637,-0.07348982,-0.17755914,1.2493227,0.08650071,1.4443088,1.2036613,0.20526998,-0.06175101,0.13306837,1.278496,0.6297174
0.1,0.1,0.7999999999999999,-0.5235987755982988,0.5235987755982988,0,0.64664453,1.2110219,-0.0041842046,-0.14265016,0.39003,1.2340766,0.8024765,1.4435698,1.200032,0.20457357,-0.06240036,0.13155201,1.2774782,0.62055326
0.1,0.1,0.7999999999999999,-0.5235987755982988,0.5235987755982988,0,0.6356657,1.2240661,0.05424895,-0.05432924,-0.14790384,1.1964887,0.8750816,1.4484482,1.2003477,0.20390844,-0.06126826,0.12659629,1.2866194,0.6268364
0.1,0.1,0.7999999999999999,-0.5235987755982988,0.5235987755982988,0,0.6296758,1.2101369,-0.35667855,-0.09038346,-0.16099426,1.18301,1.0877779,1.4446013,1.2021788,0.20461398,-0.062469978,0.13117066,1.2848502,0.62151927
0.1,0.1,0.7999999999999999,-0.5235987755982988,0.5235987755982988,0,0.6352452,1.213621,-0.2790967,-0.019952673,0.017480638,1.345518,0.44906288,1.4443989,1.1983796,0.20496464,-0.060163703,0.13589191,1.2793578,0.6267434
0.1,0.1,0.7999999999999999,-0.5235987755982988,0.5235987755982988,0,0.63986826,1.2171048,-0.009519222,-0.016799413,0.0035003799,1.233388,-0.043381643,1.4454346,1.2024125,0.20546429,-0.06157743,0.13637605,1.2822218,0.6191896
0.1,0.1,0.7999999999999999,-0.5235987755982988,0.5235987755982988,0,0.6388229,1.2207335,-0.34264794,-0.04267904,0.17428593,1.2592955,1.068063,1.4444048,1.2034843,0.20685266,-0.0637742,0.12899718,1.2835467,0.62289804
0.1,0.1,0.7999999999999999,-0.5235987755982988,0.5235987755982988,0,0.6314378,1.2140791,-0.11817288,-0.08032504,0.10330142,1.1496692,0.6765299,1.4464467,1.2012933,0.2041513,-0.06074216,0.13484973,1.2806813,0.6258198
0.1,0.1,0.7999999999999999,-0.5235987755982988,0.5235987755982988,0,0.6407231,1.210093,-0.3387669,-0.09870916,-0.08405971,1.315624,0.89744735,1.445904,1.2005574,0.2049171,-0.060655177,0.13429263,1.278849,0.62143284
0.1,0.1,0.7999999999999999,-0.5235987755982988,0.5235987755982988,0,0.63679385,1.2156984,-0.19833697,-0.09433023,-0.041336503,1.2609957,1.1597397,1.4452894,1.2027003,0.20523816,-0.06390282,0.13031985,1.2859914,0.62361956
0.1,0.1,0.7999999999999999,-0.5235987755982988,0.5235987755982988,0,0.6320553,1.212752,-0.11865731,-0.10036024,-0.059128314,1.2131509,-0.04971147,1.4459286,1.2009555,0.20504989,-0.059828963,0.13033076,1.2786834,0.6285659
0.1,0.1,0.7999999999999999,-0.5235987755982988,0.5235987755982988,0,0.62856,1.2046161,-0.27074346,-0.026705686,-0.052809834,1.1742169,-0.43774152,1.4484266,1.2003713,0.2044782,-0.060568463,0.13044077,1.2829607,0.6282973
0.1,0.1,0.7999999999999999,-0.5235987755982988,0.5235987755982988,0,0.63764393,1.220165,-0.34797707,-0.11622311,0.21948034,1.2332965,0.17693645,1.4468828,1.1994056,0.20507191,-0.060435914,0.12992828,1.2797003,0.62576234
0.1,0.1,0.7999999999999999,-0.5235987755982988,0.5235987755982988,0,0.634814,1.2250931,0.2332465,-0.10902288,-0.37901515,1.2268604,0.56295556,1.4474121,1.200173,0.20684527,-0.060782753,0.13267975,1.2814386,0.6272303
0.1,0.1,0.7999999999999999,-0.5235987755982988,0.5235987755982988,0,0.64438176,1.220425,-0.13399354,-0.027354978,-0.052782297,1.217963,0.47635946,1.4457898,1.2015526,0.20587377,-0.059530225,0.13374287,1.2792928,0.6233662
0.1,0.1,0.7999999999999999,-0.5235987755982988,0.5235987755982988,0,0.6375837,1.218182,-0.17477167,-0.020012472,0.29933512,1.1833622,0.53670156,1.4452801,1.2023405,0.20391835,-0.061660625,0.13294907,1.2776239,0.62182987
0.1,0.1,0.7999999999999999,-0.5235987755982988,0.5235987755982988,0,0.63389516,1.2211586,-0.41015217,-0.05921591,0.04115204,1.1844665,0.55576783,1.449113,1.2018845,0.2048626,-0.062060494,0.13192813,1.2818066,0.6271607
0.1,0.1,0.7999999999999999,-0.5235987755982988,0.5235987755982988,0,0.64112175,1.2258183,-0.21886627,-0.029409582,-0.38128847,1.2832217,0.8222007,1.4472188,1.2058966,0.20586662,-0.061872177,0.12922321,1.2783978,0.618108
0.1,0.1,0.7999999999999999,-0.5235987755982988,0.5235987755982988,0,0.6325614,1.213467,-0.15616643,-0.1187967,0.039531037,1.3120518,1.0945096,1.4436953,1.2023361,0.20560944,-0.06594961,0.13588111,1.2855346,0.6276324
0.1,0.1,0.7999999999999999,-0.5235987755982988,0.5235987755982988,0,0.62920403,1.2101289,-0.059964433,-0.06897845,-0.10604975,1.2065356,1.2207754,1.4507264,1.198631,0.20513725,-0.060164187,0.13263942,1.279167,0.6315154
0.1,0.1,0.7999999999999999,-0.5235987755982988,0.5235987755982988,0,0.6336439,1.2174073,-0.10945753,0.031560577,-0.29138923,1.2586304,0.65093493,1.4454154,1.1995951,0.20537007,-0.06141743,0.13254826,1.2809434,0.62701726
0.1,0.1,0.7999999999999999,-0.5235987755982988,0.5235987755982988,0,0.6285585,1.2036434,0.18544875,-0.009812324,-0.22124138,1.257609,-0.040317286,1.4496421,1.2022488,0.2041133,-0.058048073,0.12521161,1.281787,0.6257496
0.1,0.1,0.7999999999999999,-0.5235987755982988,0.5235987755982988,0,0.63482213,1.222033,-0.5012065,-0.060045235,-0.008917434,1.2836821,0.5906442,1.4457837,1.2013261,0.2045417,-0.06444052,0.1310671,1.2826575,0.6230528
0.1,0.1,0.7999999999999999,-0.5235987755982988,0.5235987755982988,0,0.6378613,1.2180492,0.054797795,0.005105999,-0.17401823,1.2463425,0.6519713,1.4448066,1.200395,0.2051516,-0.06181987,0.12832665,1.2841212,0.6229742
0.1,0.1,0.7999999999999999,-0.5235987755982988,0.5235987755982988,0,0.6360811,1.2116143,-0.11398036,-0.114802964,-0.20964068,1.2994218,0.7528721,1.4453329,1.1989532,0.2031215,-0.059506733,0.1330169,1.2772638,0.62266177
0.1,0.1,0.7999999999999999,-0.5235987755982988,0.5235987755982988,0,0.64012736,1.2050962,-0.10803904,-0.0038654935,0.076104894,1.2734615,0.31071028,1.447833,1.2030572,0.20323002,-0.064065024,0.13062127,1.2825415,0.62299013
0.1,0.1,0.7999999999999999,-0.5235987755982988,0.5235987755982988,0,0.63710904,1.2099252,-0.39957687,-0.059108842,0.12283802,1.2582784,0.020541964,1.4466081,1.2010196,0.20393677,-0.06204402,0.13084537,1.2827607,0.62040067
0.1,0.1,0.7999999999999999,-0.5235987755982988,0.5235987755982988,0,0.63599825,1.2196559,0.32336885,-0.116366066,0.056886733,1.2771482,0.44729307,1.4475205,1.1994977,0.20472531,-0.06375943,0.13048786,1.2819921,0.6258195
0.1,0.1,0.7999999999999999,-0.5235987755982988,0.5235987755982988,0,0.63444644,1.2106278,-0.4727941,-0.017402494,-0.068896726,1.2515819,1.3534033,1.444494,1.203113,0.20621826,-0.06177484,0.1266005,1.2815895,0.6163884
0.1,0.1,0.7999999999999999,-0.5235987755982988,0.5235987755982988,0,0.6345244,1.2142397,-0.12990214,-0.020235041,0.1516311,1.2561173,0.14201213,1.44698,1.200277,0.204376,-0.06203651,0.1259987,1.2821268,0.6284624
0.1,0.1,0.7999999999999999,-0.5235987755982988,0.5235987755982988,0,0.6329042,1.21811,-0.3824722,-0.02844904,-0.08360772,1.2072241,0.141387,1.448563,1.198872,0.20442756,-0.062018946,0.13719031,1.2797079,0.62859714
0.1,0.1,0.7999999999999999,-0.5235987755982988,0.5235987755982988,0,0.6375872,1.2224933,0.20028625,-0.029030954,-0.44816378,1.2738447,0.48461694,1.447133,1.2017012,0.20513304,-0.057431772,0.13484685,1.2805775,0.6298656
0.1,0.1,0.7999999999999999,-0.5235987755982988,0.5235987755982988,0,0.6292634,1.213329,-0.089906774,-0.026412984,-0.26258275,1.1865914,0.54337764,1.4463384,1.2027144,0.20114517,-0.0625979,0.13416821,1.2866108,0.6219288
0.1,0.1,0.7999999999999999,-0.5235987755982988,0.5235987755982988,0,0.6420871,1.2053134,-0.16549177,-0.103408344,-0.15195459,1.197812,0.6561803,1.4478164,1.2038252,0.20417896,-0.064400464,0.13391098,1.2783978,0.62590396
0.1,0.1,0.7999999999999999,-0.5235987755982988,0.5235987755982988,0,0.6314561,1.2151148,0.020109763,-0.05655719,0.033635497,1.1715698,-0.75397134,1.4435245,1.2038832,0.20780416,-0.06282907,0.13231169,1.2829008,0.6269541
0.1,0.1,0.7999999999999999,-0.5235987755982988,0.5235987755982988,0,0.63030297,1.2272626,-0.32707414,-0.025206428,-0.042134076,1.2322832,0.5556697,1.4450552,1.2024715,0.20367819,-0.062005274,0.13249671,1.2820492,0.6262955
0.1,0.1,0.7999999999999999,-0.5235987755982988,0.5235987755982988,0,0.6432721,1.213844,-0.19428372,-0.07717876,0.2710522,1.1811681,-0.12934545,1.44517,1.2011038,0.2043945,-0.060893692,0.13548665,1.2792516,0.62464017
0.1,0.1,0.7999999999999999,-0.5235987755982988,0.5235987755982988,0,0.6376002,1.2288281,0.17832965,-0.082733974,-0.13814805,1.2466935,1.2760098,1.4475912,1.2040886,0.20513812,-0.06250785,0.13037002,1.2851125,0.62372893
0.1,0.1,0.7999999999999999,-0.5235987755982988,0.5235987755982988,0,0.6379932,1.2152845,-0.14579147,-0.06917009,0.09610384,1.2449126,0.05261635,1.4438341,1.2015625,0.20576853,-0.061830096,0.13144296,1.2868519,0.62594146
0.1,0.1,0.7999999999999999,-0.5235987755982988,0.5235987755982988,0,0.6438988,1.2061002,-0.47198752,0.020669889,-0.04088089,1.1458611,0.83357185,1.4476552,1.2045379,0.20547661,-0.066439316,0.12880029,1.28449,0.62390745
0.1,0.1,0.7999999999999999,-0.5235987755982988,0.5235987755982988,0,0.6296444,1.2132989,-0.17951484,-0.098594,-0.017554099,1.2238598,0.23748094,1.4455525,1.2016275,0.20370723,-0.06620403,0.1330934,1.2783264,0.6173869
0.1,0.1,0.7999999999999999,-0.5235987755982988,0.5235987755982988,0,0.63918275,1.2040008,-0.17224911,0.0016466196,0.108089164,1.273295,0.5946431,1.4441025,1.2015532,0.20362711,-0.061409786,0.1331603,1.277421,0.6309116
0.1,0.1,0.7999999999999999,-0.5235987755982988,0.5235987755982988,0,0.63987327,1.2217016,0.084974214,-0.09538274,-0.35444924,1.1078119,-0.645758,1.4507891,1.2016705,0.2026692,-0.06432109,0.13166957,1.2779233,0.6320764
0.1,0.1,0.7999999999999999,-0.5235987755982988,0.5235987755982988,0,0.63905257,1.2245274,-0.22406048,-0.1055852,-0.086767375,1.1215174,0.34243977,1.4433911,1.2005736,0.206218,-0.061722536,0.13587297,1.2757907,0.62747985
0.1,0.1,0.7999999999999999,-0.5235987755982988,0.5235987755982988,0,0.6448022,1.2086034,-0.30517814,-0.06742059,0.15618257,1.1798375,2.036105,1.4423087,1.2013563,0.20488352,-0.056278057,0.1277936,1.28359,0.623161
0.1,0.1,0.7999999999999999,-0.5235987755982988,0.5235987755982988,0,0.6447208,1.2157346,-0.27823284,-0.044279598,-0.3409467,1.2854141,0.8631003,1.444212,1.2031347,0.2050138,-0.06023881,0.1389414,1.2825835,0.63001275
0.1,0.1,0.7999999999999999,-0.5235987755982988,0.5235987755982988,0,0.6342484,1.2280779,-0.69338214,-0.032777388,0.1732679,1.1958681,1.2312943,1.4487014,1.2013291,0.20672503,-0.058798224,0.1346239,1.2881002,0.62521136
0.1,0.1,0.7999999999999999,-0.5235987755982988,0.5235987755982988,0,0.64317435,1.2231195,-0.43726397,-0.05386034,-0.010313782,1.2493565,1.1057912,1.4459095,1.205194,0.20772192,-0.064674765,0.13499963,1.2824031,0.6338731
0.1,0.1,0.7999999999999999,-0.5235987755982988,0.5235987755982988,0,0.64070845,1.2090597,0.26760823,-0.0793202,-0.01884763,1.2246449,0.66286725,1.4429634,1.1995871,0.2051701,-0.059370205,0.13024156,1.2792903,0.63069785
0.1,0.1,0.7999999999999999,-0.5235987755982988,0.5235987755982988,0,0.6341045,1.2113119,-0.14651537,-0.01597537,-0.20624903,1.2061911,-0.80964106,1.4467219,1.2032254,0.20567323,-0.06337008,0.13354042,1.2869204,0.6313025
0.1,0.1,0.7999999999999999,-0.5235987755982988,0.5235987755982988,0,0.6465097,1.2154541,0.029518139,-0.026092768,-0.07935456,1.2597023,0.027084561,1.4468277,1.2034045,0.20521139,-0.059086014,0.12849355,1.2815555,0.62519103
0.1,0.1,0.7999999999999999,-0.5235987755982988,0.5235987755982988,0,0.6387927,1.2295042,-0.37092373,-0.034096178,-0.16941953,1.2782013,0.17581189,1.4466988,1.2018085,0.20515008,-0.05903078,0.13109572,1.2811817,0.62759376
0.1,0.1,0.7999999999999999,-0.5235987755982988,0.5235987755982988,0,0.6320649,1.2130299,-0.050711457,-0.12208973,0.23090512,1.2414968,0.19631621,1.4464558,1.2034426,0.20574111,-0.061378714,0.13796595,1.2899401,0.62991714
0.1,0.1,0.7999999999999999,-0.5235987755982988,0.5235987755982988,0,0.6374763,1.2171599,-0.14650774,-0.09555811,0.13834889,1.2724255,0.8213833,1.4464307,1.1987811,0.20545428,-0.06066659,0.13323075,1.2866975,0.6305767
0.1,0.1,0.7999999999999999,-0.5235987755982988,0.5235987755982988,0,0.64362466,1.211807,-0.30987576,-0.10473739,0.011914213,1.1417038,0.22637801,1.4448675,1.2051054,0.20897362,-0.067408495,0.12937182,1.278099,0.6260347
0.1,0.1,0.7999999999999999,-0.5235987755982988,0.5235987755982988,0,0.6378374,1.2133424,-0.3853284,-0.115066506,-0.024519283,1.1879948,0.62903047,1.4457343,1.2031258,0.2055278,-0.058992136,0.13466656,1.2789726,0.6287641
0.1,0.1,0.7999999999999999,-0.5235987755982988,0.5235987755982988,0,0.6412048,1.2121365,-0.27323034,-0.115240075,-0.25306132,1.1458766,0.42134488,1.4459693,1.2033653,0.20560499,-0.058368184,0.13185441,1.287135,0.6194011
0.1,0.1,0.7999999999999999,-0.5235987755982988,0.5235987755982988,0,0.63958013,1.211746,-0.13393122,-0.036681004,0.2959267,1.1552163,-0.030113038,1.4442512,1.2028008,0.20657982,-0.05698161,0.13095231,1.2820444,0.6254084
0.1,0.1,0.7999999999999999,-0.5235987755982988,0.5235987755982988,0,0.6399363,1.2092614,-0.17102143,-0.13150793,-0.1609075,1.2310042,0.43619046,1.4464592,1.2049066,0.20645998,-0.058919515,0.13147013,1.2873461,0.6256416
0.1,0.1,0.7999999999999999,-0.5235987755982988,0.5235987755982988,0,0.6395616,1.2053498,-0.44913185,-0.049441725,0.06541367,1.2442487,-0.27027,1.447262,1.2000123,0.20530638,-0.061110485,0.13563797,1.2860011,0.6270948
0.1,0.1,0.7999999999999999,-0.5235987755982988,0.5235987755982988,0,0.6365068,1.2118088,0.010855286,-0.10989383,-0.14103304,1.1863705,1.2855226,1.4434603,1.2025083,0.20623253,-0.057494316,0.13446973,1.279147,0.6277527
0.1,0.1,0.7999999999999999,-0.5235987755982988,0.5235987755982988,0,0.6368286,1.2166969,-0.25858027,-0.11227768,-0.104545616,1.1958157,0.0660749,1.4458009,1.1999606,0.20606177,-0.060929127,0.13425773,1.2813298,0.63154584
0.1,0.1,0.7999999999999999,-0.5235987755982988,0.5235987755982988,0,0.63475615,1.2302517,-0.08271685,-0.025730805,-0.21433534,1.18139,-0.07391158,1.4468157,1.2014191,0.20457691,-0.058786936,0.1335746,1.279682,0.6331375
0.1,0.1,0.7999999999999999,-0.5235987755982988,0.5235987755982988,0,0.63880944,1.2095479,-0.039499808,-0.031369083,-0.2791137,1.1864654,-0.582482,1.44314,1.2020944,0.20751157,-0.06066388,0.13563299,1.2775786,0.6243198
0.1,0.1,0.7999999999999999,-0.5235987755982988,0.5235987755982988,0,0.6423424,1.2280086,-0.07618374,-0.062984556,-0.13779952,1.2807208,-0.4745856,1.447562,1.1999716,0.20527883,-0.059557915,0.13239215,1.2838162,0.6215676
0.1,0.1,0.7999999999999999,-0.5235987755982988,0.5235987755982988,0,0.6386258,1.2143203,-0.25089186,0.007533435,0.18326138,1.2058136,0.6703773,1.4443455,1.2017515,0.20629828,-0.061138358,0.13369682,1.2774241,0.62202555
0.1,0.1,0.7999999999999999,-0.5235987755982988,0.5235987755982988,0,0.635883,1.2125664,-0.39373228,-0.098034866,-0.12590118,1.1841555,0.8119048,1.4481868,1.2001201,0.20458631,-0.060560066,0.12520996,1.2822824,0.6236894
0.1,0.1,0.7999999999999999,-0.5235987755982988,0.5235987755982988,0,0.6455403,1.2242682,0.25091487,-0.008361312,-0.040671602,1.2020812,-0.35773677,1.4455999,1.2040215,0.20533678,-0.057973586,0.13690871,1.2852011,0.6220246
0.1,0.1,0.7999999999999999,-0.5235987755982988,0.5235987755982988,0,0.6363994,1.2177074,-0.0012203594,-0.07475741,-0.36711016,1.2322516,0.72815377,1.4440498,1.202044,0.20602432,-0.06510222,0.12706897,1.2772803,0.6270224
0.1,0.1,0.7999999999999999,-0.5235987755982988,0.5235987755982988,0,0.6353059,1.2283872,-0.2834997,0.011455815,-0.20702332,1.2081758,0.54863536,1.4443287,1.2074744,0.20514438,-0.06312869,0.12907857,1.2754458,0.62464076
0.1,0.1,0.7999999999999999,-0.5235987755982988,0.5235987755982988,0,0.63430953,1.2269442,-0.27621812,0.014431861,0.12720683,1.2893695,0.58177817,1.4464136,1.2019541,0.20369276,-0.061776884,0.12973346,1.278584,0.6248786
