sanky1234/BimanualDexCatch/isaacgymenvs/cem_results/football_pose_0.0_0.0_0.8999999999999999_0.0_0.0_0_2025-05-26.csv
x,y,z,roll,pitch,yaw,robot1/joint1,robot1/joint2,robot1/joint3,robot1/joint4,robot1/joint5,robot1/joint6,robot1/joint7,robot2/joint1,robot2/joint2,robot2/joint3,robot2/joint4,robot2/joint5,robot2/joint6,robot2/joint7
0.0,0.0,0.8999999999999999,0.0,0.0,0,-1.5243447,-1.1122366,-2.3403692,0.21488956,0.088205904,1.3676208,0.264826,0.08403919,-1.0959007,-2.0373826,-0.07152125,-0.1386721,1.1649561,0.8414139
0.0,0.0,0.8999999999999999,0.0,0.0,0,-1.5263908,-1.1313345,-2.3262377,0.2204157,0.09101509,1.3724399,0.34329236,0.1469372,-1.09722,-2.0294452,-0.07653422,0.0037607322,1.1377119,0.13773091
0.0,0.0,0.8999999999999999,0.0,0.0,0,-1.5122052,-1.1225506,-2.3440583,0.21907857,0.10914329,1.3685045,0.37708947,0.14376482,-1.0942497,-1.9722143,-0.06962412,0.040547498,1.0722941,-1.0311124
0.0,0.0,0.8999999999999999,0.0,0.0,0,-1.5163304,-1.1400664,-2.3187802,0.21286218,0.10406024,1.3721601,0.22618102,0.17971402,-1.0886414,-2.045841,-0.06892607,-0.058007944,1.1643975,-0.43949744
0.0,0.0,0.8999999999999999,0.0,0.0,0,-1.515393,-1.1441844,-2.334433,0.21606158,0.08673774,1.3758647,0.39233625,0.17355955,-1.098038,-1.9697889,-0.10386178,-0.04160398,1.0871454,0.11739319
0.0,0.0,0.8999999999999999,0.0,0.0,0,-1.5434427,-1.1202997,-2.3275912,0.21658517,0.088770434,1.3747324,0.25822452,0.17249367,-1.0959387,-1.9710202,-0.07469389,-0.15817657,1.1399412,-0.8442821
0.0,0.0,0.8999999999999999,0.0,0.0,0,-1.512466,-1.122427,-2.3273342,0.22045472,0.07806497,1.3764023,0.3204473,0.16432703,-1.0928079,-2.0996106,-0.051974304,0.20650278,1.135977,0.48584995
0.0,0.0,0.8999999999999999,0.0,0.0,0,-1.5381178,-1.1232228,-2.325146,0.21805725,0.10387275,1.3746594,0.3181543,0.22199455,-1.0943662,-2.1495824,-0.07007436,-0.06676999,1.1035771,0.6952938
0.0,0.0,0.8999999999999999,0.0,0.0,0,-1.519658,-1.0983044,-2.328227,0.2202072,0.092598945,1.3727586,0.25239146,0.21147214,-1.0930955,-2.0402205,-0.127785,-0.14671215,1.1370119,0.46779487
0.0,0.0,0.8999999999999999,0.0,0.0,0,-1.5074674,-1.128196,-2.329388,0.22783972,0.09047219,1.364568,0.33251402,0.08171597,-1.0937529,-1.9553313,-0.100010574,0.06587811,1.1875143,0.06795072
0.0,0.0,0.8999999999999999,0.0,0.0,0,-1.5264353,-1.1200864,-2.3310351,0.21764348,0.08746354,1.3724233,0.23362671,0.17280984,-1.0895953,-1.9876542,-0.07110988,0.02940583,1.2231842,-0.81500953
0.0,0.0,0.8999999999999999,0.0,0.0,0,-1.5241956,-1.1347796,-2.3241422,0.23088361,0.089567915,1.3649751,0.21291989,0.1349035,-1.0916089,-2.0068362,-0.0228022,0.021937698,1.1167034,0.202603
0.0,0.0,0.8999999999999999,0.0,0.0,0,-1.5361155,-1.1217526,-2.3429103,0.21965067,0.087041184,1.3693311,0.30291286,0.192174,-1.0911393,-1.9442914,-0.036995668,-0.08618722,1.15332,-0.20820364
0.0,0.0,0.8999999999999999,0.0,0.0,0,-1.5195041,-1.1357974,-2.3268473,0.21516278,0.10162725,1.3659984,0.27303988,0.107963234,-1.0919485,-2.0896885,-0.058798183,0.10591452,1.1613258,-0.3779539
0.0,0.0,0.8999999999999999,0.0,0.0,0,-1.5284489,-1.1266183,-2.32986,0.20919403,0.08893847,1.3712294,0.27768403,0.14485137,-1.0943447,-2.0893717,-0.09549681,-0.05348496,1.2038879,0.40739727
0.0,0.0,0.8999999999999999,0.0,0.0,0,-1.534619,-1.1324903,-2.323677,0.2069913,0.098142534,1.3765141,0.39117783,0.107439,-1.0913092,-1.9551135,-0.1072741,0.13191772,1.198527,0.21543802
0.0,0.0,0.8999999999999999,0.0,0.0,0,-1.5340055,-1.140404,-2.326687,0.21449845,0.08897997,1.375359,0.30849284,0.1844922,-1.0909522,-2.084531,-0.12878713,0.031851813,1.0903399,-1.121452
0.0,0.0,0.8999999999999999,0.0,0.0,0,-1.523315,-1.1078823,-2.3223789,0.22334561,0.085943714,1.3635365,0.34419498,0.08358774,-1.092667,-2.0540304,-0.10360293,0.066890456,1.2166137,0.12277206
0.0,0.0,0.8999999999999999,0.0,0.0,0,-1.5221702,-1.1325624,-2.335176,0.22193038,0.10273611,1.3693981,0.33001238,0.084745474,-1.0982038,-2.002761,-0.10464765,-0.06613649,1.1346949,0.0008676945
0.0,0.0,0.8999999999999999,0.0,0.0,0,-1.5135301,-1.1341122,-2.333658,0.21667936,0.10012668,1.3655813,0.21608768,0.17042339,-1.0931467,-2.2885344,-0.110837325,0.15479378,1.1194035,0.23948067
0.0,0.0,0.8999999999999999,0.0,0.0,0,-1.5262707,-1.1123221,-2.3188226,0.21291369,0.085347295,1.3720171,0.2523167,0.1315352,-1.100075,-2.0764127,-0.07153438,-0.16239242,1.1621658,0.011849315
0.0,0.0,0.8999999999999999,0.0,0.0,0,-1.5279963,-1.1419781,-2.3278437,0.22647773,0.08437014,1.3685541,0.39651117,0.048010964,-1.0896448,-1.9832003,-0.106743716,-0.018624568,1.2221286,-0.47518718
0.0,0.0,0.8999999999999999,0.0,0.0,0,-1.5256901,-1.1250801,-2.3398845,0.21795605,0.08765345,1.3631868,0.36537763,0.17616312,-1.0937924,-2.1423018,-0.038669847,-0.07095133,1.1929216,-0.34605947
0.0,0.0,0.8999999999999999,0.0,0.0,0,-1.52224,-1.1387515,-2.3403416,0.22958925,0.08342952,1.3720231,0.21492518,0.16291927,-1.0876446,-1.969572,-0.14893968,-0.009517843,1.1303124,-0.017242758
0.0,0.0,0.8999999999999999,0.0,0.0,0,-1.5193294,-1.1265982,-2.3312273,0.22060457,0.085983895,1.3719417,0.34009033,0.06098791,-1.0906534,-1.9956739,-0.057010584,-0.060585935,1.180589,0.39479122
0.0,0.0,0.8999999999999999,0.0,0.0,0,-1.5274107,-1.1260843,-2.341591,0.2211846,0.098325685,1.3626355,0.2511816,0.16284291,-1.098167,-1.9184455,-0.079522565,-0.06501225,1.1819626,-0.17172149
0.0,0.0,0.8999999999999999,0.0,0.0,0,-1.5111185,-1.1381887,-2.3314824,0.22062415,0.09062865,1.3674166,0.35439104,0.1514746,-1.0914965,-2.2003486,-0.014081884,-0.14247897,1.2432649,0.14412914
0.0,0.0,0.8999999999999999,0.0,0.0,0,-1.5217241,-1.1227907,-2.3061082,0.21637984,0.083416425,1.3758314,0.23817284,0.19751798,-1.0995653,-1.9781783,-0.06777417,0.058268134,1.1943858,-0.2037466
0.0,0.0,0.8999999999999999,0.0,0.0,0,-1.5257515,-1.1273152,-2.3452811,0.21944432,0.10118775,1.3667767,0.32089987,0.15712091,-1.0911646,-2.1884263,-0.043825414,0.001236813,1.2501975,-0.59097326
0.0,0.0,0.8999999999999999,0.0,0.0,0,-1.5217578,-1.1371964,-2.3382185,0.2168569,0.09518873,1.3687721,0.28566933,0.16450307,-1.0970833,-1.992604,-0.057534087,-0.0015345018,1.1958271,0.34181717
0.0,0.0,0.8999999999999999,0.0,0.0,0,-1.5219605,-1.1036026,-2.3328705,0.21319394,0.08352343,1.3716599,0.31671804,0.18141125,-1.092088,-1.998104,-0.10572893,0.0054862704,1.2624747,-0.27895933
0.0,0.0,0.8999999999999999,0.0,0.0,0,-1.5015393,-1.0927352,-2.3233542,0.23268689,0.0643528,1.3726606,0.21350357,0.19012928,-1.0862291,-2.0289805,-0.10207535,0.0035127108,1.1927681,0.32556447
0.0,0.0,0.8999999999999999,0.0,0.0,0,-1.5098675,-1.1466483,-2.3468018,0.21719983,0.10817454,1.3672262,0.36243773,0.15296473,-1.0950179,-2.0082884,-0.013458968,-0.04312423,1.1973656,0.17897873
0.0,0.0,0.8999999999999999,0.0,0.0,0,-1.5297077,-1.1425793,-2.3305352,0.22340156,0.06622322,1.3723764,0.29221636,0.19028494,-1.0905485,-2.088685,-0.08608292,-0.13528313,1.2168306,-0.4230085
0.0,0.0,0.8999999999999999,0.0,0.0,0,-1.5123316,-1.1188836,-2.3215177,0.21588752,0.089032866,1.3677001,0.3596811,0.16030185,-1.1001258,-2.0559945,-0.11395339,0.1586507,1.2137612,0.18824314
0.0,0.0,0.8999999999999999,0.0,0.0,0,-1.529603,-1.1035143,-2.32977,0.21706556,0.090979874,1.3749756,0.33976978,0.12729008,-1.0923526,-2.1639335,-0.13315943,0.056699693,1.1717504,0.1580585
0.0,0.0,0.8999999999999999,0.0,0.0,0,-1.5469694,-1.1350152,-2.3119402,0.22072783,0.08219297,1.3708206,0.23383746,0.15402706,-1.0931412,-2.1010778,-0.07805343,-0.076876976,1.1338997,0.40429553
0.0,0.0,0.8999999999999999,0.0,0.0,0,-1.522202,-1.1032579,-2.322205,0.21170413,0.08899276,1.3657265,0.3301166,0.12948777,-1.0959917,-1.8535684,-0.066293426,-0.24427591,1.2140031,-0.30048075
0.0,0.0,0.8999999999999999,0.0,0.0,0,-1.530073,-1.1387084,-2.3275914,0.21253209,0.08073751,1.3657221,0.2466141,0.079949096,-1.0928695,-1.8301042,-0.09515792,-0.12953745,1.225468,-0.061805923
0.0,0.0,0.8999999999999999,0.0,0.0,0,-1.5219522,-1.1365225,-2.3306522,0.2180643,0.10622627,1.3704872,0.28779766,0.1270479,-1.0886934,-2.0359514,-0.088194184,-0.11848623,1.2074246,-0.06071141
0.0,0.0,0.8999999999999999,0.0,0.0,0,-1.5394157,-1.1333427,-2.333297,0.216727,0.08115531,1.3691411,0.32365707,0.15700588,-1.0958365,-1.951431,-0.049262997,-0.1442366,1.1664197,-0.33878008
0.0,0.0,0.8999999999999999,0.0,0.0,0,-1.528076,-1.108057,-2.32228,0.220459,0.080469616,1.356741,0.34618643,0.11656534,-1.0927587,-2.0684316,-0.061124478,-0.06418841,1.1968112,-0.49836364
0.0,0.0,0.8999999999999999,0.0,0.0,0,-1.5130906,-1.1473786,-2.3306167,0.2227522,0.103251025,1.3698181,0.2839456,0.09632158,-1.0956393,-1.9756733,-0.09077028,-0.013957163,1.2222816,-0.262009
0.0,0.0,0.8999999999999999,0.0,0.0,0,-1.4976745,-1.1377647,-2.3291516,0.22115165,0.09248858,1.3619577,0.23611116,0.094056875,-1.0916673,-1.9864749,-0.10351984,-0.10899587,1.1800183,-0.78156096
0.0,0.0,0.8999999999999999,0.0,0.0,0,-1.5324805,-1.1274116,-2.3333585,0.21241759,0.096521765,1.3728229,0.27607217,0.15991803,-1.0962894,-2.1264062,-0.067234516,-0.1551101,1.2153866,-1.3203888
0.0,0.0,0.8999999999999999,0.0,0.0,0,-1.5318753,-1.1449369,-2.3346758,0.21847391,0.07337879,1.3695971,0.37680912,0.030685864,-1.093375,-2.0681293,-0.10078151,-0.13059036,1.1661966,0.21565516
0.0,0.0,0.8999999999999999,0.0,0.0,0,-1.5289165,-1.1352853,-2.3247032,0.22007667,0.08743553,1.370304,0.3063593,0.1545739,-1.0929639,-2.2826655,-0.06534553,-0.19464229,1.2007307,-0.44755447
0.0,0.0,0.8999999999999999,0.0,0.0,0,-1.5306523,-1.1216577,-2.3350346,0.21689364,0.097521424,1.3669393,0.32521972,0.07242058,-1.0968957,-1.9403232,-0.125713,0.15623657,1.2392231,0.05499996
0.0,0.0,0.8999999999999999,0.0,0.0,0,-1.535522,-1.1312983,-2.3441195,0.22213174,0.09990941,1.3708694,0.3663647,0.13546985,-1.0858388,-1.9533969,-0.09113838,-0.081208274,1.1952988,-0.3261866
0.0,0.0,0.8999999999999999,0.0,0.0,0,-1.5355781,-1.1385928,-2.324011,0.21149623,0.10619165,1.3711753,0.28204829,0.110581435,-1.0935493,-2.0842526,-0.06692179,-0.0944806,1.189302,-0.033559788
0.0,0.0,0.8999999999999999,0.0,0.0,0,-1.5247693,-1.1388539,-2.3171968,0.22433276,0.09220005,1.3725555,0.22714905,0.1585108,-1.093999,-1.9422255,-0.007864372,-0.067517646,1.1348586,0.100072056
0.0,0.0,0.8999999999999999,0.0,0.0,0,-1.5369177,-1.1395959,-2.3277528,0.21582747,0.08575412,1.370121,0.31357348,0.10158408,-1.0970509,-1.9892175,-0.084657855,-0.07111504,1.1881586,-0.023280667
0.0,0.0,0.8999999999999999,0.0,0.0,0,-1.5289451,-1.1327946,-2.331592,0.21908937,0.0964097,1.3681502,0.29227915,0.20466779,-1.0993319,-2.0472798,-0.073828675,-0.12644042,1.1894861,0.36076948
0.0,0.0,0.8999999999999999,0.0,0.0,0,-1.5276784,-1.1257267,-2.3347552,0.22378743,0.10148192,1.3638127,0.29795286,0.16065168,-1.0904274,-2.056107,-0.074849896,-0.14646745,1.1826832,0.46222323
0.0,0.0,0.8999999999999999,0.0,0.0,0,-1.508131,-1.1280651,-2.3138728,0.21489504,0.08848039,1.3702334,0.2832471,0.15394954,-1.0921117,-1.9689966,-0.057543524,0.07233153,1.2231002,-0.45348155
0.0,0.0,0.8999999999999999,0.0,0.0,0,-1.5435216,-1.1272666,-2.3427813,0.22209756,0.10950967,1.3743232,0.20191252,0.19107321,-1.0898741,-1.9876326,-0.02571212,-0.2430038,1.1011393,-0.5552012
0.0,0.0,0.8999999999999999,0.0,0.0,0,-1.5411943,-1.1295396,-2.3345573,0.2219416,0.12164547,1.36427,0.28190452,0.14971271,-1.0959662,-2.094812,-0.10353088,-0.08236062,1.2096502,-0.51190275
0.0,0.0,0.8999999999999999,0.0,0.0,0,-1.5184575,-1.133953,-2.3262253,0.21835876,0.09042519,1.3703815,0.24887714,0.13579226,-1.0939493,-2.0640335,-0.055049203,0.07928903,1.1505184,-0.49131575
0.0,0.0,0.8999999999999999,0.0,0.0,0,-1.5296228,-1.1323831,-2.3339136,0.21747425,0.080452435,1.3753899,0.24175224,0.2064022,-1.0891193,-2.1691713,-0.061104964,0.048876595,1.088678,0.65764457
0.0,0.0,0.8999999999999999,0.0,0.0,0,-1.5213813,-1.1276972,-2.315046,0.21826142,0.103687614,1.3722626,0.33959782,0.17712228,-1.0877037,-2.0125182,-0.047817174,-0.1530508,1.16993,0.064070046
0.0,0.0,0.8999999999999999,0.0,0.0,0,-1.5063893,-1.0996836,-2.3386893,0.22215797,0.08769975,1.3683902,0.31497923,-0.020905267,-1.0936078,-1.963866,-0.053086236,0.068441406,1.2112496,0.7390261
0.0,0.0,0.8999999999999999,0.0,0.0,0,-1.5215766,-1.1031945,-2.3370023,0.21620804,0.08066902,1.3668281,0.26580405,0.14188872,-1.0932075,-2.065955,-0.093931474,0.04345701,1.1650076,-0.124189876
0.0,0.0,0.8999999999999999,0.0,0.0,0,-1.5314726,-1.1274177,-2.3365507,0.22218488,0.08038822,1.3715372,0.256433,0.21554212,-1.097636,-2.2575538,-0.07192256,0.1035599,1.1499996,0.77921027
0.0,0.0,0.8999999999999999,0.0,0.0,0,-1.5271709,-1.110395,-2.332716,0.21886107,0.093213074,1.3665844,0.3784312,0.08389547,-1.0983776,-1.9614869,-0.07985107,0.03283814,1.1340398,0.034924883
0.0,0.0,0.8999999999999999,0.0,0.0,0,-1.5143487,-1.1255137,-2.3197088,0.21441424,0.10490106,1.3730704,0.26758707,0.094968125,-1.0903941,-1.7960311,-0.11345007,-0.16839887,1.2405238,-0.17121126
0.0,0.0,0.8999999999999999,0.0,0.0,0,-1.5258297,-1.1268684,-2.3170247,0.21762002,0.10861344,1.3731896,0.29042405,0.137009,-1.0941514,-1.992473,-0.031229017,-0.060837954,1.1363899,-0.37239847
0.0,0.0,0.8999999999999999,0.0,0.0,0,-1.5452247,-1.1203876,-2.3294268,0.21736455,0.0957582,1.3679693,0.242,0.14699984,-1.0928099,-1.937795,-0.06048556,0.09575657,1.2574096,0.1827537
0.0,0.0,0.8999999999999999,0.0,0.0,0,-1.5315673,-1.1195961,-2.3317077,0.22177577,0.097202376,1.3678187,0.3291571,0.13673289,-1.0928968,-2.0456154,-0.0666894,-0.052463602,1.0733858,-0.21499844
0.0,0.0,0.8999999999999999,0.0,0.0,0,-1.5231504,-1.1567563,-2.3229578,0.22599316,0.097498134,1.3642223,0.32036737,0.09748649,-1.0919279,-1.9451611,-0.09353451,-0.04262516,1.1474446,-0.24166434
0.0,0.0,0.8999999999999999,0.0,0.0,0,-1.5389944,-1.1456771,-2.318748,0.21452124,0.09833315,1.3776587,0.32707068,0.069338076,-1.087779,-2.0285897,-0.07422456,-0.25254613,1.1941323,-0.15184967
0.0,0.0,0.8999999999999999,0.0,0.0,0,-1.534164,-1.1229359,-2.3212225,0.21486166,0.07882383,1.3538789,0.3018826,0.1990444,-1.0946343,-2.1877735,-0.0446905,-0.09316258,1.1910042,-0.46441212
0.0,0.0,0.8999999999999999,0.0,0.0,0,-1.5225306,-1.1228534,-2.3241613,0.22185299,0.102415085,1.3611207,0.32487005,0.13766432,-1.091506,-2.1930618,-0.12490223,-0.1437878,1.1277232,-0.3176308
0.0,0.0,0.8999999999999999,0.0,0.0,0,-1.5154587,-1.1165872,-2.333264,0.21518953,0.09656526,1.3638318,0.27287826,0.12517348,-1.1009736,-1.799622,-0.10383235,0.016693242,1.1227629,1.1774598
0.0,0.0,0.8999999999999999,0.0,0.0,0,-1.5205706,-1.1499579,-2.3304129,0.22575277,0.08298851,1.3632512,0.28561342,0.09308634,-1.0935459,-2.0620959,-0.13398875,-0.068727925,1.223799,-0.53228503
0.0,0.0,0.8999999999999999,0.0,0.0,0,-1.5237957,-1.1434917,-2.3201325,0.22102286,0.07986189,1.3755151,0.24763544,0.16232198,-1.0923628,-2.1417701,-0.055313498,-0.1666557,1.2569593,0.20357582
0.0,0.0,0.8999999999999999,0.0,0.0,0,-1.5365182,-1.1262708,-2.3477309,0.22100325,0.08251499,1.362392,0.29850724,0.11639807,-1.0875847,-2.0349197,-0.058597565,0.07687132,1.2097219,-0.8641284
0.0,0.0,0.8999999999999999,0.0,0.0,0,-1.5281893,-1.1111308,-2.335674,0.2270809,0.10929713,1.3737833,0.25822487,0.2747906,-1.0920924,-1.9967679,-0.07727335,-0.12798,1.218774,1.3608028
0.0,0.0,0.8999999999999999,0.0,0.0,0,-1.5057926,-1.1159008,-2.336332,0.22045738,0.09150519,1.3693634,0.32290152,0.078703456,-1.0937184,-1.996116,-0.14639093,-0.1895713,1.2085229,0.0014551502
0.0,0.0,0.8999999999999999,0.0,0.0,0,-1.5371302,-1.1395483,-2.3236141,0.21970491,0.10436143,1.3755113,0.35210806,0.17927672,-1.0936903,-1.8696289,-0.11409595,0.019374218,1.1876086,-0.18651749
0.0,0.0,0.8999999999999999,0.0,0.0,0,-1.5050226,-1.0892547,-2.3330255,0.21743026,0.07608057,1.3630924,0.23183401,0.11793265,-1.0910786,-2.103205,-0.084138036,0.09207891,1.1174223,0.7087211
0.0,0.0,0.8999999999999999,0.0,0.0,0,-1.516052,-1.1208572,-2.332771,0.22359522,0.09154988,1.3721107,0.32839122,0.25971925,-1.090941,-1.8533727,-0.059504535,0.061551217,1.2477013,0.18616681
0.0,0.0,0.8999999999999999,0.0,0.0,0,-1.5303613,-1.1244324,-2.3231473,0.21776098,0.09704492,1.372447,0.3275129,0.13521375,-1.0941044,-2.0977302,-0.120415956,0.092386186,1.1226206,0.39983433
0.0,0.0,0.8999999999999999,0.0,0.0,0,-1.5342273,-1.1372129,-2.3222432,0.22007619,0.09306154,1.3677977,0.33083043,0.06918497,-1.094006,-2.143562,-0.10103032,-0.1089798,1.1495664,0.45183885
0.0,0.0,0.8999999999999999,0.0,0.0,0,-1.5132065,-1.1313494,-2.3310142,0.21606717,0.09898683,1.3715138,0.23945183,0.14678487,-1.0884933,-2.2670765,-0.10443266,-0.07235329,1.1657196,0.06755041
0.0,0.0,0.8999999999999999,0.0,0.0,0,-1.5245944,-1.1334468,-2.31995,0.2225626,0.11131644,1.3649403,0.343183,0.16215137,-1.0962274,-1.9413134,-0.08250032,-0.21717039,1.231844,0.049478214
0.0,0.0,0.8999999999999999,0.0,0.0,0,-1.5405353,-1.1318265,-2.344571,0.22429048,0.11189335,1.372922,0.33605283,0.12579787,-1.0894278,-2.0684354,-0.08881875,-0.14713584,1.1218635,0.15295924
0.0,0.0,0.8999999999999999,0.0,0.0,0,-1.5023682,-1.1346248,-2.32874,0.21164435,0.113189675,1.3674873,0.36404973,0.143136,-1.0977713,-2.0621727,-0.0848157,-0.13242495,1.1943824,0.4592992
0.0,0.0,0.8999999999999999,0.0,0.0,0,-1.5227566,-1.1321018,-2.3252413,0.21650693,0.08864359,1.372795,0.352666,0.14159252,-1.091912,-2.0642436,-0.050371177,-0.05213864,1.2295277,0.36782342
0.0,0.0,0.8999999999999999,0.0,0.0,0,-1.5278603,-1.1357852,-2.3398516,0.2255759,0.11064975,1.3645097,0.40773076,0.17455174,-1.0937476,-1.9133255,-0.061433073,-0.12168247,1.2241634,-0.87157595
0.0,0.0,0.8999999999999999,0.0,0.0,0,-1.5023698,-1.1375892,-2.3283167,0.21904494,0.071051165,1.3814689,0.41635624,0.1271321,-1.0879287,-2.088078,-0.03305582,-0.043332104,1.2128304,-0.5925668
0.0,0.0,0.8999999999999999,0.0,0.0,0,-1.509926,-1.1182787,-2.344317,0.21814229,0.09470263,1.3692197,0.30079442,0.20650123,-1.0946895,-2.110523,-0.040317208,-0.080837086,1.1281784,0.5629398
0.0,0.0,0.8999999999999999,0.0,0.0,0,-1.5197273,-1.1230292,-2.3459191,0.21729444,0.10002385,1.3703896,0.23340002,0.06781431,-1.0925511,-1.9727814,-0.043389156,-0.027261943,1.2285551,0.2986125
0.0,0.0,0.8999999999999999,0.0,0.0,0,-1.5440805,-1.1189415,-2.3347235,0.21860765,0.074371316,1.3662689,0.34099716,0.14899515,-1.0957034,-1.8471825,-0.03826736,-0.13551737,1.2221596,0.8970909
0.0,0.0,0.8999999999999999,0.0,0.0,0,-1.5353295,-1.1142262,-2.346011,0.21729809,0.09237579,1.3679951,0.29846144,0.17751834,-1.0942017,-2.0423326,-0.08170783,0.07261653,1.2290733,0.24442351
0.0,0.0,0.8999999999999999,0.0,0.0,0,-1.5326009,-1.1263161,-2.3107007,0.21588264,0.098706916,1.3739831,0.4119776,0.14118014,-1.0938457,-2.0842812,-0.051100224,0.13479738,1.2260224,-0.366887
0.0,0.0,0.8999999999999999,0.0,0.0,0,-1.5278064,-1.1347004,-2.325254,0.21548654,0.09733478,1.3744957,0.25211972,0.2004406,-1.0873471,-1.9560112,-0.09533049,-0.03461658,1.156778,-0.43767527
0.0,0.0,0.8999999999999999,0.0,0.0,0,-1.5031394,-1.1387324,-2.3295841,0.20989804,0.09921606,1.3683829,0.27035472,0.11172064,-1.0909547,-2.0927715,-0.05053373,0.101729885,1.202418,-0.016717771
0.0,0.0,0.8999999999999999,0.0,0.0,0,-1.5255015,-1.1374148,-2.3249319,0.21678284,0.100296415,1.3756727,0.31017223,0.21986507,-1.0933237,-2.0395837,-0.061155207,0.15713407,1.1881248,-1.1843324
0.0,0.0,0.8999999999999999,0.0,0.0,0,-1.5455589,-1.1218573,-2.3267457,0.21424542,0.08812047,1.3642426,0.32960856,0.12585707,-1.0899267,-2.2177842,-0.07842099,0.048652567,1.1833755,-0.40494102
0.0,0.0,0.8999999999999999,0.0,0.0,0,-1.5239561,-1.1387523,-2.3347712,0.22229385,0.09774725,1.3675627,0.39140904,0.13597427,-1.0950576,-2.163022,-0.055819057,-0.006972577,1.1697569,0.17248286
0.0,0.0,0.8999999999999999,0.0,0.0,0,-1.5132805,-1.1029997,-2.3465915,0.21706013,0.10261091,1.3697009,0.2531505,0.05687838,-1.0940322,-1.9998281,-0.03675141,-0.1359413,1.196916,-0.85758984
0.0,0.0,0.8999999999999999,0.0,0.0,0,-1.518361,-1.1108546,-2.3274586,0.22246006,0.08521844,1.3637958,0.34460458,0.13193044,-1.0964515,-2.126899,-0.05250847,0.016117593,1.1602987,0.5818209
0.0,0.0,0.8999999999999999,0.0,0.0,0,-1.5279595,-1.1267087,-2.3204029,0.21912985,0.08148901,1.3639383,0.3393919,0.10117428,-1.0915984,-2.1912754,-0.124044545,0.1520455,1.2046018,-0.22833844
0.0,0.0,0.8999999999999999,0.0,0.0,0,-1.5247022,-1.1350278,-2.3327534,0.2173969,0.09021274,1.3696789,0.3418892,0.15566106,-1.0959855,-1.923577,-0.009992837,-0.13493443,1.1857903,-0.0037582319
0.0,0.0,0.8999999999999999,0.0,0.0,0,-1.5178907,-1.1062156,-2.3258297,0.21632174,0.09831859,1.3734932,0.28151992,0.07953602,-1.091206,-1.9495562,-0.120636396,0.010998433,1.1549026,0.15580566
0.0,0.0,0.8999999999999999,0.0,0.0,0,-1.5390649,-1.121499,-2.3268945,0.21786115,0.10035859,1.3698857,0.32717416,0.1588415,-1.0937151,-1.9574904,-0.113210805,-0.25176835,1.1357938,0.5277236
0.0,0.0,0.8999999999999999,0.0,0.0,0,-1.51233,-1.1171414,-2.3329182,0.21681051,0.099013634,1.3661954,0.2726377,0.19277029,-1.0979089,-2.1274154,-0.103012994,-0.085814945,1.1878833,-0.58807003
0.0,0.0,0.8999999999999999,0.0,0.0,0,-1.5301746,-1.1296495,-2.3259199,0.22030987,0.065436244,1.3664516,0.23474242,0.04683453,-1.0951285,-1.8190035,-0.061772373,-0.06081332,1.2288328,0.5490763
0.0,0.0,0.8999999999999999,0.0,0.0,0,-1.5161537,-1.1346737,-2.3293405,0.21560916,0.0829997,1.3635613,0.2705375,0.19874744,-1.0945488,-2.1358616,-0.0909175,-0.076259464,1.1775559,0.1633963
0.0,0.0,0.8999999999999999,0.0,0.0,0,-1.5303309,-1.1379274,-2.3279626,0.21594849,0.09843894,1.3683443,0.2567796,0.09613987,-1.0923278,-2.0935397,-0.11024367,-0.09358847,1.1933765,-0.16117355
0.0,0.0,0.8999999999999999,0.0,0.0,0,-1.5218822,-1.1245965,-2.3264515,0.21704589,0.08053288,1.3745968,0.30085388,0.0610356,-1.092348,-1.9381374,-0.0905664,-0.06599979,1.1286336,0.46222568
0.0,0.0,0.8999999999999999,0.0,0.0,0,-1.5233176,-1.1031094,-2.3373075,0.21999404,0.0935907,1.3696302,0.24470672,0.17007026,-1.0974038,-2.1669228,-0.102067634,-0.08913391,1.2001126,-0.5166962
0.0,0.0,0.8999999999999999,0.0,0.0,0,-1.509505,-1.1412529,-2.3282368,0.22376636,0.10042157,1.3615118,0.28249288,0.13709238,-1.0922711,-2.187446,-0.09955844,-0.06940251,1.148352,0.356497
0.0,0.0,0.8999999999999999,0.0,0.0,0,-1.5235484,-1.1216389,-2.3145351,0.22362946,0.07904785,1.3672978,0.32780996,0.21192822,-1.0943668,-1.9368471,-0.08721793,-0.09656168,1.1710492,-0.8814921
0.0,0.0,0.8999999999999999,0.0,0.0,0,-1.5277108,-1.1260213,-2.3102052,0.21930853,0.0977964,1.365452,0.28116924,0.114542924,-1.0916629,-1.9371622,-0.056031473,-0.15035503,1.1145113,-0.36077973
0.0,0.0,0.8999999999999999,0.0,0.0,0,-1.521464,-1.131121,-2.3271587,0.2139087,0.07884101,1.3691074,0.32717162,0.2406392,-1.0922309,-2.017889,-0.05416212,0.083489046,1.214076,-0.027009422
0.0,0.0,0.8999999999999999,0.0,0.0,0,-1.5188777,-1.144623,-2.321308,0.22355258,0.09869412,1.3677568,0.34160143,0.13667327,-1.0932239,-1.8472724,-0.0542441,-0.017155215,1.1790477,-0.37889135
0.0,0.0,0.8999999999999999,0.0,0.0,0,-1.52911,-1.1288722,-2.3393526,0.21918605,0.098142296,1.3725928,0.21008551,0.14688663,-1.091357,-2.0622125,-0.07267383,0.02306695,1.2142335,-0.103774555
0.0,0.0,0.8999999999999999,0.0,0.0,0,-1.5097511,-1.1183885,-2.3294766,0.21786973,0.0908215,1.367521,0.39186385,0.12522793,-1.092953,-2.0202932,-0.1072827,-0.10731317,1.2032398,-0.24509655
0.0,0.0,0.8999999999999999,0.0,0.0,0,-1.5414256,-1.112671,-2.3438642,0.21531835,0.08030055,1.3703841,0.27844727,0.16387953,-1.0918986,-2.0077813,-0.09358087,-0.09097277,1.2006984,0.18015939
0.0,0.0,0.8999999999999999,0.0,0.0,0,-1.5561754,-1.1396667,-2.334418,0.21379009,0.10240111,1.3658507,0.28879872,0.12576956,-1.0980222,-2.054011,-0.09739581,-0.006868113,1.1376008,-0.31402543
0.0,0.0,0.8999999999999999,0.0,0.0,0,-1.5421886,-1.1186421,-2.345809,0.20917712,0.09731978,1.3731366,0.22809063,0.1603431,-1.0941293,-1.9358677,-0.055891722,0.005923864,1.1933393,-0.41907194
0.0,0.0,0.8999999999999999,0.0,0.0,0,-1.5170056,-1.1274894,-2.3095362,0.21781653,0.08275403,1.3679105,0.30586427,0.11336278,-1.09442,-1.8703831,-0.09726551,-0.09606258,1.1725711,0.55349165
0.0,0.0,0.8999999999999999,0.0,0.0,0,-1.5222503,-1.1455007,-2.3213103,0.21567087,0.08807491,1.3642865,0.26600024,0.04872114,-1.0907869,-1.934235,-0.07333407,-0.073151775,1.1537336,-0.18139021
0.0,0.0,0.8999999999999999,0.0,0.0,0,-1.5194994,-1.1417034,-2.3363576,0.21406484,0.11634837,1.3703588,0.26857153,0.16181335,-1.0947814,-2.1322434,-0.09299297,-0.14211148,1.2043471,-0.45574242
0.0,0.0,0.8999999999999999,0.0,0.0,0,-1.5119193,-1.1036577,-2.328661,0.22333431,0.09035301,1.3714358,0.2093431,0.15053631,-1.0910281,-1.9675161,-0.017940441,-0.1438152,1.1744239,0.26710105
0.0,0.0,0.8999999999999999,0.0,0.0,0,-1.5340768,-1.1259096,-2.3335087,0.22130303,0.1035914,1.3614849,0.29182613,0.08426863,-1.0885504,-2.0275247,-0.076455295,0.07285123,1.2051525,-0.49510083
0.0,0.0,0.8999999999999999,0.0,0.0,0,-1.5066525,-1.1276858,-2.3462832,0.22106157,0.08737092,1.3760769,0.2514165,0.14881438,-1.0913863,-2.2484868,-0.06273221,-0.12246057,1.164192,0.16899242
0.0,0.0,0.8999999999999999,0.0,0.0,0,-1.5129789,-1.1379681,-2.3265412,0.21020763,0.10367861,1.3749237,0.2746423,0.15829463,-1.0874074,-1.9979064,-0.121658824,0.006155713,1.0785654,-0.029743752
0.0,0.0,0.8999999999999999,0.0,0.0,0,-1.5523779,-1.1341584,-2.3343074,0.21427235,0.07709831,1.3641,0.3623685,0.1386709,-1.0924423,-2.0616224,-0.09821951,-0.084760346,1.215692,-0.0207773
0.0,0.0,0.8999999999999999,0.0,0.0,0,-1.5380366,-1.1418611,-2.332929,0.21671431,0.089014634,1.3804837,0.35345995,0.17875396,-1.0929062,-2.1710167,-0.05551951,0.034857746,1.1025199,-0.5027562
0.0,0.0,0.8999999999999999,0.0,0.0,0,-1.5182258,-1.1253773,-2.325464,0.21184215,0.08398892,1.3752757,0.28963494,0.21506284,-1.091409,-2.0267184,-0.094192035,-0.08230473,1.1834236,1.1039814
0.0,0.0,0.8999999999999999,0.0,0.0,0,-1.5251867,-1.1232281,-2.3229256,0.21838562,0.101952255,1.3695705,0.25550765,0.06919079,-1.092926,-1.9904746,-0.05116214,0.06403297,1.199268,-0.003113305
0.0,0.0,0.8999999999999999,0.0,0.0,0,-1.5106746,-1.1180367,-2.322951,0.21727683,0.07364219,1.3800966,0.32087958,0.13829313,-1.0873663,-1.9914553,-0.0664794,-0.08564991,1.1944963,-0.23356687
0.0,0.0,0.8999999999999999,0.0,0.0,0,-1.5012369,-1.1278644,-2.3300948,0.22360475,0.088809766,1.374349,0.28265572,0.25026634,-1.091781,-2.05194,-0.03974689,-0.09267235,1.1929953,0.88346595
0.0,0.0,0.8999999999999999,0.0,0.0,0,-1.5244889,-1.1261871,-2.3266451,0.21664913,0.10630464,1.3694938,0.36901137,0.1401351,-1.0935085,-1.970469,-0.077284545,0.050835032,1.1819937,-0.19327451
0.0,0.0,0.8999999999999999,0.0,0.0,0,-1.5424831,-1.1198714,-2.3447459,0.21617162,0.09664171,1.3761686,0.2671064,0.1762708,-1.0957325,-2.0708168,-0.08337793,-0.12905815,1.2788901,0.08739803
0.0,0.0,0.8999999999999999,0.0,0.0,0,-1.512295,-1.1299785,-2.3324287,0.22055191,0.08722522,1.3707575,0.28095117,0.21107486,-1.0957888,-1.9942691,-0.094459996,-0.08794629,1.2299594,1.1789821
0.0,0.0,0.8999999999999999,0.0,0.0,0,-1.5538442,-1.1328077,-2.3359077,0.21741037,0.10885091,1.364188,0.30795848,0.06501649,-1.0905803,-1.9484918,-0.08176876,0.043601003,1.1499301,-0.4170194
0.0,0.0,0.8999999999999999,0.0,0.0,0,-1.5312947,-1.1404469,-2.3161912,0.22331081,0.0971894,1.3646566,0.30857873,0.07818183,-1.0880914,-2.1550167,-0.07828645,-0.11901293,1.2089092,-0.52049667
0.0,0.0,0.8999999999999999,0.0,0.0,0,-1.5358078,-1.1512593,-2.319276,0.22555849,0.08302862,1.3654716,0.16809206,0.24396567,-1.0984281,-2.070725,-0.12588611,-0.0131147485,1.2207935,-0.5903096
0.0,0.0,0.8999999999999999,0.0,0.0,0,-1.5235008,-1.1484405,-2.3195038,0.22401944,0.104309455,1.3644218,0.27226874,0.25963557,-1.0903505,-1.9895933,-0.02685304,-0.008200389,1.1414669,-0.16243109
0.0,0.0,0.8999999999999999,0.0,0.0,0,-1.535829,-1.1316043,-2.3267775,0.21379074,0.09002484,1.3743091,0.19627126,0.18111768,-1.0941745,-2.0709794,-0.053651042,0.0738775,1.1727735,-0.59760576
0.0,0.0,0.8999999999999999,0.0,0.0,0,-1.5216267,-1.1102796,-2.3292344,0.22002412,0.09545375,1.3783213,0.313676,0.16597036,-1.0866402,-1.9091605,-0.04152708,-0.03564259,1.1271819,0.5012274
0.0,0.0,0.8999999999999999,0.0,0.0,0,-1.5497854,-1.1358565,-2.3143685,0.21388426,0.09755515,1.3628076,0.33039123,0.1256504,-1.0883417,-2.0934918,-0.06938032,-0.006909951,1.1011126,-0.0052857897
0.0,0.0,0.8999999999999999,0.0,0.0,0,-1.5490272,-1.1245728,-2.3198915,0.21913014,0.08902523,1.3652579,0.33028698,0.15656713,-1.0927213,-2.0337167,-0.071618244,0.033039078,1.1898324,-1.132719
0.0,0.0,0.8999999999999999,0.0,0.0,0,-1.5261537,-1.1531307,-2.331976,0.2194403,0.10172874,1.3764465,0.28776956,0.056844577,-1.0922946,-2.0573342,-0.11203934,-0.18866514,1.1914197,0.415999
0.0,0.0,0.8999999999999999,0.0,0.0,0,-1.5259243,-1.1320863,-2.3311992,0.21717294,0.09510483,1.3741767,0.24976176,0.21444604,-1.0928451,-2.0341065,-0.037197754,-0.15281169,1.241879,-0.14374799
0.0,0.0,0.8999999999999999,0.0,0.0,0,-1.5247095,-1.1281672,-2.3365154,0.21930157,0.08674002,1.3692784,0.269708,0.07731614,-1.0939528,-1.9740814,-0.09137982,-0.16207087,1.1710744,0.1355942
0.0,0.0,0.8999999999999999,0.0,0.0,0,-1.5140911,-1.1383182,-2.3521726,0.22326154,0.103248835,1.3711737,0.3551971,0.11429491,-1.0950505,-2.0370736,-0.09175162,0.031591587,1.1855502,0.61165065
0.0,0.0,0.8999999999999999,0.0,0.0,0,-1.5294311,-1.1188445,-2.3353724,0.21640536,0.10110179,1.3747741,0.36410746,0.24908747,-1.0933104,-2.0576875,-0.07668498,-0.120599195,1.2695093,0.39838967
0.0,0.0,0.8999999999999999,0.0,0.0,0,-1.5290719,-1.1086197,-2.3265302,0.22204769,0.1026557,1.3730365,0.26899862,0.03445298,-1.0921003,-1.9166657,-0.04585605,-0.011385154,1.138678,0.53488034
0.0,0.0,0.8999999999999999,0.0,0.0,0,-1.5430772,-1.1391003,-2.3404968,0.21850196,0.08915088,1.3674054,0.2779687,0.22925988,-1.0942291,-1.902493,-0.09246933,-0.011188796,1.1720155,-0.02631976
0.0,0.0,0.8999999999999999,0.0,0.0,0,-1.5204362,-1.123092,-2.312547,0.2161791,0.09891372,1.3687606,0.38378105,0.22464675,-1.0918937,-1.8714494,-0.07067614,-0.028756775,1.176622,0.035578378
0.0,0.0,0.8999999999999999,0.0,0.0,0,-1.5231271,-1.1396472,-2.33789,0.2132658,0.08803451,1.3699226,0.27532613,0.1918725,-1.0906602,-2.036432,-0.07695628,0.011819687,1.1907458,0.1751911
0.0,0.0,0.8999999999999999,0.0,0.0,0,-1.5337899,-1.108547,-2.3373377,0.22222692,0.10039491,1.3760432,0.32102048,0.16688526,-1.091302,-2.0340333,-0.05648741,0.071040526,1.208049,1.0249767
0.0,0.0,0.8999999999999999,0.0,0.0,0,-1.5361323,-1.1175197,-2.347107,0.21527682,0.09338839,1.3663507,0.34453565,0.08949214,-1.0923976,-2.0966716,-0.041875344,-0.19896704,1.1943703,-0.19120444
0.0,0.0,0.8999999999999999,0.0,0.0,0,-1.5112118,-1.1284357,-2.331,0.22076158,0.10902632,1.3655785,0.26575497,0.109565355,-1.0968221,-2.0265064,-0.07042596,-0.059811287,1.1671926,0.69062173
0.0,0.0,0.8999999999999999,0.0,0.0,0,-1.5241165,-1.128063,-2.3304336,0.21691565,0.0841152,1.3627274,0.33046895,0.091265656,-1.0881276,-2.0709274,-0.058903243,0.011668018,1.1726466,0.33599302
0.0,0.0,0.8999999999999999,0.0,0.0,0,-1.5142853,-1.1403761,-2.317045,0.21446253,0.086896814,1.3667444,0.23517369,0.16109963,-1.0875248,-1.9924797,-0.09722781,-0.011429695,1.1545,0.042454265
0.0,0.0,0.8999999999999999,0.0,0.0,0,-1.5212897,-1.1230203,-2.3248982,0.21460575,0.09598181,1.3719952,0.31339294,0.21223985,-1.09471,-2.074756,-0.113463774,-0.06007518,1.2070442,-0.8566792
0.0,0.0,0.8999999999999999,0.0,0.0,0,-1.5240943,-1.1169121,-2.326037,0.22109492,0.096020214,1.3668537,0.31150928,0.16690665,-1.0913707,-2.0212045,-0.012696833,0.022296825,1.2009892,0.29218426
0.0,0.0,0.8999999999999999,0.0,0.0,0,-1.5328757,-1.155585,-2.3236108,0.21255985,0.10965017,1.3683262,0.2177977,0.14983411,-1.0966524,-2.1463003,-0.067992926,0.0780831,1.2202926,-0.43920133
0.0,0.0,0.8999999999999999,0.0,0.0,0,-1.5312443,-1.1391847,-2.3395436,0.21919326,0.09883478,1.3696157,0.3601393,0.16203614,-1.0920672,-1.9570161,-0.08349233,-0.08231042,1.201011,-0.42408127
0.0,0.0,0.8999999999999999,0.0,0.0,0,-1.5363762,-1.135165,-2.3335097,0.21573846,0.08856686,1.3636429,0.27743095,0.1061736,-1.0995387,-1.9975237,-0.10068393,0.0737184,1.1698788,-0.0051987777
0.0,0.0,0.8999999999999999,0.0,0.0,0,-1.5087218,-1.1294184,-2.3239996,0.22083367,0.08462072,1.3607436,0.26613972,0.043100227,-1.0958219,-2.01157,-0.06619549,-0.004509392,1.1421117,0.9930508
0.0,0.0,0.8999999999999999,0.0,0.0,0,-1.519553,-1.1222711,-2.329428,0.21637307,0.09210963,1.370306,0.30029768,0.14737739,-1.088711,-1.9001026,-0.045262195,0.0007229852,1.2001534,-1.591677
0.0,0.0,0.8999999999999999,0.0,0.0,0,-1.5194871,-1.1286482,-2.3412702,0.21793209,0.10677291,1.3691622,0.32136565,0.1457878,-1.09099,-2.1138542,-0.0411382,0.032844488,1.17535,0.013663053
0.0,0.0,0.8999999999999999,0.0,0.0,0,-1.5286005,-1.1354586,-2.333174,0.21753356,0.088130504,1.36404,0.31949314,0.10487229,-1.0909789,-2.0320075,-0.08020454,-0.08229141,1.1397873,0.10246865
0.0,0.0,0.8999999999999999,0.0,0.0,0,-1.5284438,-1.1380072,-2.338126,0.21208909,0.07983415,1.3636814,0.40772912,0.055495653,-1.0946499,-1.9577345,-0.09453512,-0.31509498,1.1806927,-0.4009775
0.0,0.0,0.8999999999999999,0.0,0.0,0,-1.5093269,-1.1130214,-2.3233008,0.22159387,0.08453292,1.3656622,0.2798389,0.020805743,-1.0906882,-2.0104125,-0.027672004,0.04551182,1.2400833,0.4582086
0.0,0.0,0.8999999999999999,0.0,0.0,0,-1.5176488,-1.1331728,-2.3364286,0.21750887,0.07148734,1.3633064,0.2877455,0.19524121,-1.0958469,-1.9913095,-0.024143586,-0.12826143,1.2500606,0.14525889
0.0,0.0,0.8999999999999999,0.0,0.0,0,-1.5301538,-1.1054677,-2.3287516,0.21959065,0.09568785,1.3762989,0.33259547,0.09808572,-1.0908234,-2.0311246,-0.10811687,-0.0021139388,1.1596535,-0.33118883
0.0,0.0,0.8999999999999999,0.0,0.0,0,-1.5217197,-1.1256392,-2.3153563,0.22238448,0.09542801,1.3637573,0.29342574,0.10757103,-1.0956392,-2.2390172,-0.08276538,-0.080492444,1.1460515,0.36107573
0.0,0.0,0.8999999999999999,0.0,0.0,0,-1.5353007,-1.1318427,-2.3283253,0.21953481,0.080771975,1.3689126,0.32028747,0.14358833,-1.0955676,-1.9491266,-0.09951087,0.18445261,1.203378,0.02199961
0.0,0.0,0.8999999999999999,0.0,0.0,0,-1.519896,-1.1290104,-2.351009,0.21755801,0.09236881,1.3790534,0.28506437,0.2683105,-1.0906545,-2.007108,-0.046012536,0.013123365,1.233175,-0.05247807
0.0,0.0,0.8999999999999999,0.0,0.0,0,-1.5381621,-1.1289456,-2.3145888,0.22150144,0.09283898,1.3673136,0.33068144,0.20969686,-1.0914501,-2.0315328,-0.027911834,0.08848059,1.1709888,-1.0673872
0.0,0.0,0.8999999999999999,0.0,0.0,0,-1.5174078,-1.1163565,-2.3299277,0.21613696,0.105383076,1.367889,0.38073784,0.1928162,-1.0921301,-2.0842087,-0.058387075,-0.12104608,1.1079495,0.4199368
0.0,0.0,0.8999999999999999,0.0,0.0,0,-1.5239238,-1.1179738,-2.323451,0.21313731,0.09134569,1.3624796,0.3332772,0.20711592,-1.0885864,-2.1113498,-0.028287468,-0.2408381,1.0979279,-0.09161664
0.0,0.0,0.8999999999999999,0.0,0.0,0,-1.5196893,-1.1101927,-2.344159,0.21646285,0.08877744,1.3619668,0.36540037,0.085943796,-1.0977129,-1.912376,-0.06550913,0.070657484,1.12228,-0.98176366
0.0,0.0,0.8999999999999999,0.0,0.0,0,-1.5293086,-1.1102893,-2.338693,0.2227012,0.0732331,1.3640792,0.2594898,0.086960025,-1.0939057,-1.9935243,-0.091924,-0.015725633,1.1546433,0.9576198
0.0,0.0,0.8999999999999999,0.0,0.0,0,-1.5329236,-1.1175954,-2.3385837,0.22243127,0.100190856,1.3714112,0.33014366,0.17639916,-1.0935451,-2.0458033,-0.082487114,-0.060402263,1.1374779,0.24330853
0.0,0.0,0.8999999999999999,0.0,0.0,0,-1.5260558,-1.1317376,-2.3360827,0.21374115,0.0952893,1.371031,0.29100454,0.122642286,-1.0932789,-2.0841613,-0.0727559,0.041722436,1.1614717,-0.8676106
0.0,0.0,0.8999999999999999,0.0,0.0,0,-1.525131,-1.1321594,-2.320887,0.22089218,0.078908004,1.378999,0.28038943,0.03990434,-1.0953017,-2.0366127,-0.11976346,-0.17920531,1.1912968,0.15120876
0.0,0.0,0.8999999999999999,0.0,0.0,0,-1.5297158,-1.1180013,-2.3311028,0.21292101,0.09146088,1.3636845,0.3904513,0.1143477,-1.091238,-2.2501476,-0.09192358,0.005425522,1.1918595,-0.10424677
0.0,0.0,0.8999999999999999,0.0,0.0,0,-1.5221217,-1.1321683,-2.3215387,0.2180393,0.086721204,1.3740178,0.27497867,0.1343069,-1.0901347,-1.9461786,-0.063123725,-0.21401598,1.2451143,-0.213552
0.0,0.0,0.8999999999999999,0.0,0.0,0,-1.5261173,-1.1302389,-2.3163512,0.21613543,0.09917288,1.3671963,0.25179183,0.108820364,-1.0963753,-2.0665698,-0.06780592,-0.013025421,1.1414917,0.58833545
0.0,0.0,0.8999999999999999,0.0,0.0,0,-1.5346781,-1.1124203,-2.3275557,0.22152857,0.101571634,1.3693608,0.32042617,0.11664758,-1.094034,-2.0502596,-0.07338807,0.054356944,1.1724079,-0.6456811
0.0,0.0,0.8999999999999999,0.0,0.0,0,-1.5251886,-1.121013,-2.3239071,0.22258614,0.08174851,1.3682282,0.2086556,0.18040009,-1.0957704,-2.1098948,-0.08013979,-0.07303612,1.1445029,-0.6383822
0.0,0.0,0.8999999999999999,0.0,0.0,0,-1.5126691,-1.1336404,-2.338515,0.22034337,0.0758688,1.3731271,0.23106486,0.015587427,-1.0883033,-2.0012057,-0.074299656,-0.12292942,1.0868667,0.4004477
0.0,0.0,0.8999999999999999,0.0,0.0,0,-1.5289066,-1.1422633,-2.3267446,0.21954232,0.08524554,1.3660368,0.293133,0.126348,-1.0898265,-2.014218,-0.1405293,0.060572736,1.2114546,0.8456508
0.0,0.0,0.8999999999999999,0.0,0.0,0,-1.5302978,-1.139536,-2.3235934,0.22171769,0.08554579,1.3742702,0.28749898,0.19358729,-1.0896841,-2.0093527,-0.06340833,0.026485972,1.1929296,-0.061195787
0.0,0.0,0.8999999999999999,0.0,0.0,0,-1.5286479,-1.1519669,-2.3377016,0.21958996,0.10104034,1.373672,0.3189186,0.1489513,-1.089887,-2.2069757,-0.11970185,-0.08797746,1.1445209,-0.15613797
0.0,0.0,0.8999999999999999,0.0,0.0,0,-1.5325902,-1.1160322,-2.3327725,0.22054541,0.09092671,1.3677874,0.3209053,0.07970969,-1.0862099,-1.9339672,-0.103427365,0.107326895,1.1372317,0.6447141
0.0,0.0,0.8999999999999999,0.0,0.0,0,-1.5189704,-1.1074634,-2.323752,0.21852356,0.081989005,1.3740219,0.345745,0.12903653,-1.0922631,-1.987126,-0.07414428,0.08887651,1.1667043,-0.03554159
0.0,0.0,0.8999999999999999,0.0,0.0,0,-1.5318165,-1.1426381,-2.3188872,0.2190934,0.08897344,1.3651264,0.3047836,0.16363208,-1.0916551,-2.0845554,-0.030810598,-0.030716142,1.2619488,0.35802725
0.0,0.0,0.8999999999999999,0.0,0.0,0,-1.5285035,-1.143622,-2.3463027,0.21106629,0.08820375,1.369943,0.25751585,0.1432393,-1.0876905,-1.998966,-0.078259505,-0.072787724,1.1973305,0.8213889
0.0,0.0,0.8999999999999999,0.0,0.0,0,-1.5295906,-1.1168277,-2.3292105,0.2210535,0.10377811,1.3684974,0.3693764,0.11314672,-1.095675,-2.0229888,-0.10340264,0.030155426,1.2084675,-0.3367341
0.0,0.0,0.8999999999999999,0.0,0.0,0,-1.5218545,-1.1413512,-2.3319573,0.21939541,0.08164655,1.3741543,0.3016229,0.14324008,-1.090585,-1.8154966,-0.08159486,0.13082252,1.1427994,-0.7922796
0.0,0.0,0.8999999999999999,0.0,0.0,0,-1.5236578,-1.1112394,-2.323431,0.21955396,0.10231892,1.3694793,0.36332384,0.095228754,-1.0865219,-2.1100106,-0.048614014,-0.009793347,1.1333722,0.060546968
0.0,0.0,0.8999999999999999,0.0,0.0,0,-1.5235527,-1.1312705,-2.3248496,0.21343625,0.09905426,1.3662597,0.3469245,0.12437218,-1.0901406,-2.1004286,-0.06260267,0.0028523381,1.206175,-0.4539572
0.0,0.0,0.8999999999999999,0.0,0.0,0,-1.5237513,-1.1160067,-2.3234475,0.22155894,0.08145132,1.3737271,0.3166355,0.20103665,-1.0957252,-2.0707593,-0.029563278,-0.051124502,1.1840352,-0.53651243
0.0,0.0,0.8999999999999999,0.0,0.0,0,-1.5365874,-1.1499594,-2.3412654,0.21507755,0.076852284,1.3635726,0.26980558,0.14914684,-1.0927616,-2.05229,-0.028995268,-0.01459609,1.1733328,0.07394556
0.0,0.0,0.8999999999999999,0.0,0.0,0,-1.5294805,-1.1350896,-2.3308456,0.22191371,0.0904436,1.3661968,0.29104263,0.057434667,-1.0928019,-2.1028848,-0.034019347,0.011935701,1.1546605,0.24220917
0.0,0.0,0.8999999999999999,0.0,0.0,0,-1.5247306,-1.1264594,-2.329082,0.22172433,0.09294996,1.369099,0.3156958,0.12960851,-1.0985087,-2.0842993,-0.049853668,0.040058535,1.1823676,-0.07242878
0.0,0.0,0.8999999999999999,0.0,0.0,0,-1.5241578,-1.1448094,-2.3369627,0.21322608,0.0912294,1.3630545,0.2817761,0.14712805,-1.0905669,-2.3394775,-0.11415463,-0.05450219,1.1663213,0.8211171
0.0,0.0,0.8999999999999999,0.0,0.0,0,-1.5131942,-1.1111917,-2.3443828,0.22267862,0.09146533,1.3667167,0.3222868,0.20376085,-1.0952028,-2.0684602,-0.081789255,-0.07353575,1.2172196,-1.1962279
0.0,0.0,0.8999999999999999,0.0,0.0,0,-1.5200515,-1.1190883,-2.3453522,0.21590441,0.10024939,1.3747505,0.20379637,0.13189618,-1.0967705,-2.0150654,-0.0938441,-0.15578708,1.2507281,0.35082012
0.0,0.0,0.8999999999999999,0.0,0.0,0,-1.5308602,-1.1255739,-2.336802,0.22582982,0.09438702,1.3635998,0.30658183,0.2040108,-1.0933999,-2.161945,-0.09838197,-0.004785482,1.2312688,0.09506025
0.0,0.0,0.8999999999999999,0.0,0.0,0,-1.5284029,-1.125256,-2.3346856,0.22061667,0.079456575,1.3754691,0.27358952,0.1952743,-1.0948532,-2.0146394,-0.038648464,-0.0781512,1.1903479,-0.95708585
0.0,0.0,0.8999999999999999,0.0,0.0,0,-1.5040891,-1.137329,-2.3587856,0.22052932,0.09851802,1.3643857,0.33217353,0.17521766,-1.0944408,-1.9497914,-0.04446158,0.08444889,1.2178497,-1.0160744
0.0,0.0,0.8999999999999999,0.0,0.0,0,-1.5416896,-1.1276598,-2.3208077,0.21819852,0.102207825,1.3757823,0.3482402,0.09252926,-1.0933894,-2.0560093,-0.048439328,-0.0551071,1.1207703,-0.19155656
0.0,0.0,0.8999999999999999,0.0,0.0,0,-1.5479903,-1.1515775,-2.3303096,0.22326016,0.078854345,1.3499326,0.36104378,0.18141268,-1.0922664,-2.0083718,-0.02395555,-0.010320384,1.2371391,-0.27728418
0.0,0.0,0.8999999999999999,0.0,0.0,0,-1.534806,-1.1283082,-2.3332043,0.21600148,0.09627151,1.37103,0.39342326,0.14387389,-1.0885662,-1.8472602,-0.08070449,0.043696284,1.2481753,-0.72781676
0.0,0.0,0.8999999999999999,0.0,0.0,0,-1.5317366,-1.1403309,-2.3360064,0.21583116,0.10611176,1.3625706,0.34058338,0.16379887,-1.0838616,-2.0062268,-0.008351599,-0.06834675,1.0875607,0.41591573
0.0,0.0,0.8999999999999999,0.0,0.0,0,-1.5227305,-1.1130321,-2.3342726,0.21590309,0.081189424,1.3697761,0.2876379,0.17304488,-1.0928844,-1.9842958,-0.027080808,-0.17804207,1.2657814,-0.486252
0.0,0.0,0.8999999999999999,0.0,0.0,0,-1.5308477,-1.137247,-2.3139253,0.2188069,0.09384662,1.3726097,0.25068587,0.15216324,-1.0966522,-2.197696,-0.030594116,-0.061272435,1.171775,-0.26876408
0.0,0.0,0.8999999999999999,0.0,0.0,0,-1.5218381,-1.1118845,-2.333056,0.22115473,0.086647294,1.3564742,0.35306114,0.11921281,-1.0945066,-2.2718158,-0.043236695,-0.11420513,1.147374,0.080541365
0.0,0.0,0.8999999999999999,0.0,0.0,0,-1.5148647,-1.1289209,-2.3162968,0.220859,0.08992372,1.3745211,0.25211576,0.17582875,-1.0936719,-2.0713015,-0.0303108,-0.095033176,1.2546691,-0.72925967
0.0,0.0,0.8999999999999999,0.0,0.0,0,-1.538533,-1.1342556,-2.3170407,0.21808417,0.10259574,1.3598372,0.23542066,0.16676235,-1.0895395,-1.8238226,-0.062946126,0.044711072,1.2237574,-0.47104532
0.0,0.0,0.8999999999999999,0.0,0.0,0,-1.5382489,-1.1239357,-2.3294282,0.21957125,0.096299455,1.3578659,0.3707235,0.20909941,-1.0900664,-2.0607965,-0.06229382,-0.04604929,1.2377956,-0.98798037
0.0,0.0,0.8999999999999999,0.0,0.0,0,-1.5294152,-1.1129314,-2.3299036,0.21088272,0.1016468,1.372679,0.13630076,0.14406922,-1.0940555,-2.135871,-0.063215144,-0.022388712,1.1830921,-0.9888481
0.0,0.0,0.8999999999999999,0.0,0.0,0,-1.5283312,-1.138665,-2.3310714,0.22060885,0.09242288,1.3644763,0.24584927,0.18842626,-1.0918164,-1.9596695,-0.020330463,-0.0129469065,1.2738799,0.37238312
0.0,0.0,0.8999999999999999,0.0,0.0,0,-1.5228455,-1.1333675,-2.3471384,0.21448699,0.09619717,1.3714114,0.20484026,0.09857943,-1.0925614,-2.1998866,-0.10866641,0.020113219,1.191729,-0.35947597
0.0,0.0,0.8999999999999999,0.0,0.0,0,-1.5113156,-1.1354067,-2.3379948,0.2201853,0.11102725,1.3809302,0.35332596,0.22853422,-1.0931879,-2.067563,-0.03938713,0.049610626,1.2468333,-1.150795
0.0,0.0,0.8999999999999999,0.0,0.0,0,-1.5371089,-1.1390011,-2.3225589,0.22454038,0.08190602,1.3730344,0.32757074,0.10098631,-1.0914032,-2.0119183,-0.10956353,-0.028163219,1.2056521,-0.82412803
0.0,0.0,0.8999999999999999,0.0,0.0,0,-1.5265895,-1.1418471,-2.3450274,0.22837554,0.10020253,1.370983,0.25905758,0.25374866,-1.0936872,-2.1183217,-0.08400702,0.04027997,1.1583084,0.79746914
0.0,0.0,0.8999999999999999,0.0,0.0,0,-1.5410721,-1.1039324,-2.339059,0.21773069,0.11478741,1.3643187,0.29039532,0.19771014,-1.0946636,-2.1452522,-0.09755529,0.068768315,1.2081971,0.8825357
0.0,0.0,0.8999999999999999,0.0,0.0,0,-1.5360504,-1.1325529,-2.3204865,0.22534287,0.1003857,1.3692334,0.3184428,0.08482095,-1.0923308,-1.9196788,-0.07549836,-0.1353476,1.1053145,-0.3789618
0.0,0.0,0.8999999999999999,0.0,0.0,0,-1.533716,-1.1363381,-2.3272564,0.21437696,0.08731949,1.3770679,0.23512664,0.121584825,-1.0957704,-1.9600382,-0.0999691,-0.043058768,1.2030941,1.108832
0.0,0.0,0.8999999999999999,0.0,0.0,0,-1.5273687,-1.1205895,-2.3375216,0.21672551,0.07761533,1.3816308,0.391292,0.11583513,-1.098366,-2.1270669,-0.03553934,0.042771425,1.1574795,0.45175424
0.0,0.0,0.8999999999999999,0.0,0.0,0,-1.5281199,-1.1384706,-2.3252943,0.22151119,0.09051519,1.3726882,0.23728874,0.21713035,-1.0887711,-1.9188123,-0.062520444,0.051894482,1.1462297,-0.28152025
0.0,0.0,0.8999999999999999,0.0,0.0,0,-1.5310454,-1.1322154,-2.337521,0.21899463,0.08758339,1.3805192,0.34339917,0.10309622,-1.0936375,-2.0978696,-0.13618758,-0.023000326,1.3146977,0.40582296
0.0,0.0,0.8999999999999999,0.0,0.0,0,-1.5333321,-1.100763,-2.35331,0.22189954,0.11021743,1.3615994,0.26193485,0.08016088,-1.0929594,-1.9611444,0.0023321083,0.012079773,1.1891565,-1.4141941
0.0,0.0,0.8999999999999999,0.0,0.0,0,-1.5341759,-1.1212647,-2.3246095,0.21779117,0.07728231,1.3739439,0.25719538,0.12574793,-1.0897436,-2.0457048,-0.07633455,0.08875584,1.1221502,-0.65327394
0.0,0.0,0.8999999999999999,0.0,0.0,0,-1.5073813,-1.1151462,-2.334174,0.22633772,0.107230924,1.3718873,0.28172562,0.09614963,-1.0978172,-2.0642593,-0.13284706,-0.05122965,1.1991515,0.46499217
0.0,0.0,0.8999999999999999,0.0,0.0,0,-1.5283685,-1.1126245,-2.3235054,0.22296575,0.07360217,1.3713881,0.32191846,0.32887962,-1.0874778,-2.1764982,-0.042653702,0.02372392,1.1955651,0.20690818
0.0,0.0,0.8999999999999999,0.0,0.0,0,-1.5525675,-1.1402578,-2.3368104,0.21853903,0.08009586,1.3680975,0.37310955,0.17262992,-1.091149,-2.017437,-0.075585045,0.021348018,1.1012866,-1.2682735
0.0,0.0,0.8999999999999999,0.0,0.0,0,-1.5123897,-1.1138463,-2.3127136,0.2215051,0.10571681,1.3621178,0.26914582,0.13843542,-1.0864638,-1.9301275,-0.06273624,-0.062404815,1.2010361,-0.6791892
0.0,0.0,0.8999999999999999,0.0,0.0,0,-1.5328084,-1.1247613,-2.3229,0.21674238,0.09937526,1.3791952,0.26794112,0.018651286,-1.0960833,-2.0049717,-0.067858145,-0.096344836,1.2367302,0.1852651
0.0,0.0,0.8999999999999999,0.0,0.0,0,-1.5223694,-1.1056263,-2.332321,0.22135617,0.07734094,1.3706678,0.3237195,0.16900691,-1.0930817,-1.9618063,-0.08896768,0.006530708,1.1545564,-0.39520496
0.0,0.0,0.8999999999999999,0.0,0.0,0,-1.5149184,-1.1314664,-2.3232508,0.21887805,0.089171395,1.3802567,0.35421437,0.100232564,-1.0877887,-1.8917979,-0.08524587,-0.05475293,1.1568998,-0.7191226
0.0,0.0,0.8999999999999999,0.0,0.0,0,-1.5361536,-1.1262878,-2.3141458,0.22385904,0.09795308,1.3681307,0.23426868,0.12619834,-1.0904665,-2.0407815,-0.077695586,0.26055458,1.1946199,-0.9233909
0.0,0.0,0.8999999999999999,0.0,0.0,0,-1.5377347,-1.117908,-2.3282454,0.22104482,0.09442038,1.3704898,0.25258398,0.020144332,-1.0930752,-1.9149426,-0.061731767,0.051825386,1.1239088,-0.03288506
0.0,0.0,0.8999999999999999,0.0,0.0,0,-1.5301946,-1.1259016,-2.3336308,0.22952798,0.088036306,1.367413,0.30380693,0.18144174,-1.088121,-2.0211356,-0.023483673,0.09273155,1.1840999,0.17086917
0.0,0.0,0.8999999999999999,0.0,0.0,0,-1.525226,-1.1279182,-2.3257866,0.21826813,0.09065689,1.3659928,0.35720736,0.2021671,-1.0944988,-2.150232,-0.09836368,0.118481174,1.1853927,-0.9325261
0.0,0.0,0.8999999999999999,0.0,0.0,0,-1.5432785,-1.1411831,-2.3489425,0.21735018,0.084090866,1.3680835,0.2661959,0.16583775,-1.0864428,-2.074225,-0.08271088,0.039943654,1.2691189,0.37776613
0.0,0.0,0.8999999999999999,0.0,0.0,0,-1.5130357,-1.1216009,-2.3320978,0.21704619,0.08475745,1.3744919,0.34291348,0.13511422,-1.0918475,-2.1856563,-0.04533926,0.31477994,1.2288351,0.31083503
0.0,0.0,0.8999999999999999,0.0,0.0,0,-1.5133928,-1.1333724,-2.3353002,0.2249029,0.09232126,1.3695874,0.2880702,0.14043766,-1.0913228,-2.0922625,-0.035314713,-0.10096465,1.1175562,0.13623466
0.0,0.0,0.8999999999999999,0.0,0.0,0,-1.5224719,-1.1421217,-2.3233562,0.22521865,0.09523751,1.3662848,0.34372896,0.1610186,-1.0933456,-1.8110172,-0.06838228,0.061522722,1.2645497,-0.09367845
0.0,0.0,0.8999999999999999,0.0,0.0,0,-1.5356878,-1.1177766,-2.3357985,0.22206724,0.087894365,1.3738251,0.3266423,0.18688925,-1.0916448,-1.8320566,-0.06407087,-0.031976935,1.1846855,-0.1850503
0.0,0.0,0.8999999999999999,0.0,0.0,0,-1.5295414,-1.1474311,-2.3176372,0.21157093,0.09361813,1.3589598,0.25107712,0.18132675,-1.0916895,-1.9630265,-0.07727823,0.023374993,1.1760007,-0.061001677
0.0,0.0,0.8999999999999999,0.0,0.0,0,-1.5256724,-1.1204342,-2.3370233,0.21199107,0.08246564,1.3704522,0.24818122,0.23485725,-1.0884709,-1.9399626,-0.080448106,0.09997965,1.1538566,0.8115539
0.0,0.0,0.8999999999999999,0.0,0.0,0,-1.5195543,-1.1371499,-2.3371925,0.22418162,0.10228124,1.364139,0.33692154,0.14726543,-1.0886621,-1.876297,-0.113436945,0.004357101,1.2847134,0.51315564
0.0,0.0,0.8999999999999999,0.0,0.0,0,-1.5092173,-1.1239985,-2.323202,0.21809347,0.100919746,1.3671086,0.22109844,0.14311595,-1.0928594,-2.1788762,-0.023249235,-0.10920712,1.2155278,0.155154
0.0,0.0,0.8999999999999999,0.0,0.0,0,-1.5186181,-1.1126091,-2.3198998,0.21749923,0.095942274,1.3809264,0.28335837,0.14340025,-1.0929209,-2.173712,-0.0856806,-0.042611774,1.1685913,0.2399067
