sanky1234/BimanualDexCatch/isaacgymenvs/cem_results/football_pose_-0.2_0.10000000000000003_1.4_0.0_0.5235987755982988_0_2025-05-25.csv
x,y,z,roll,pitch,yaw,robot1/joint1,robot1/joint2,robot1/joint3,robot1/joint4,robot1/joint5,robot1/joint6,robot1/joint7,robot2/joint1,robot2/joint2,robot2/joint3,robot2/joint4,robot2/joint5,robot2/joint6,robot2/joint7
-0.2,0.10000000000000003,1.4,0.0,0.5235987755982988,0,0.7204387,0.28226656,1.2176985,0.4967356,0.6813262,0.49062586,2.1725497,0.5258602,-1.6365563,-0.78070426,0.37868196,-0.19017977,0.60437244,-0.7386396
-0.2,0.10000000000000003,1.4,0.0,0.5235987755982988,0,0.7043606,0.27862376,1.234776,0.5042053,0.7541577,0.5013667,2.1109095,0.53339994,-1.6550549,-0.6316414,0.37011847,0.46703273,0.84273887,-0.315971
-0.2,0.10000000000000003,1.4,0.0,0.5235987755982988,0,0.70821655,0.2796952,1.2198603,0.50048345,0.7165843,0.47476727,2.1491666,0.4985217,-1.6469041,-0.6323897,0.4628722,-0.014495055,0.7623739,-0.5365624
-0.2,0.10000000000000003,1.4,0.0,0.5235987755982988,0,0.70835555,0.28159937,1.2361063,0.497305,0.7309339,0.50416446,2.093007,0.4880714,-1.6538175,-0.59022456,0.3056716,-0.3730329,0.5577048,-1.0029637
-0.2,0.10000000000000003,1.4,0.0,0.5235987755982988,0,0.7159858,0.250248,1.2361419,0.4969307,0.7412918,0.50043356,2.1533444,0.51670873,-1.6537303,-0.6361088,0.32826155,0.13364798,0.053660437,-1.2835882
-0.2,0.10000000000000003,1.4,0.0,0.5235987755982988,0,0.70538515,0.2709315,1.2263325,0.5060539,0.7195155,0.48142684,2.0842109,0.4997976,-1.6507354,-0.6696538,0.35953692,-0.2311929,0.6310713,0.7207014
-0.2,0.10000000000000003,1.4,0.0,0.5235987755982988,0,0.7230838,0.26308942,1.2255594,0.50045264,0.7548831,0.48237488,2.1824238,0.5062284,-1.6407527,-0.6417738,0.6350297,-0.0785537,0.5918651,0.41376612
-0.2,0.10000000000000003,1.4,0.0,0.5235987755982988,0,0.71921706,0.28355885,1.2239159,0.4981184,0.71019083,0.48754045,2.2000954,0.5066514,-1.6457707,-0.54003686,0.56116796,0.33788666,0.23165801,-0.985468
-0.2,0.10000000000000003,1.4,0.0,0.5235987755982988,0,0.71626234,0.27878058,1.2275064,0.49646315,0.7221263,0.47683096,2.1474366,0.503688,-1.6408931,-0.6624439,0.45367616,0.09037098,0.46419084,0.016119517
-0.2,0.10000000000000003,1.4,0.0,0.5235987755982988,0,0.71338093,0.26126692,1.2297626,0.49547362,0.7274467,0.48523936,2.153823,0.5148877,-1.6571385,-0.44918773,0.45048797,0.171907,0.059103854,-0.7786066
-0.2,0.10000000000000003,1.4,0.0,0.5235987755982988,0,0.7061026,0.26198235,1.2267674,0.4987094,0.7290153,0.49769726,2.1260293,0.504031,-1.651954,-0.52706534,0.2666544,-0.078279816,0.37262028,-0.30503777
-0.2,0.10000000000000003,1.4,0.0,0.5235987755982988,0,0.7140692,0.28646132,1.237041,0.50490427,0.66680783,0.48825043,2.052219,0.50156397,-1.6499915,-0.65876615,0.5937023,-0.2052448,0.91798705,0.36298198
-0.2,0.10000000000000003,1.4,0.0,0.5235987755982988,0,0.7183872,0.2963829,1.2370824,0.49519104,0.72427404,0.5081328,2.1862223,0.52019143,-1.6445814,-0.6203187,0.022705538,0.35747853,0.68113583,0.7215741
-0.2,0.10000000000000003,1.4,0.0,0.5235987755982988,0,0.70871234,0.2731881,1.2273204,0.50156313,0.7306897,0.48144004,2.1260145,0.5132935,-1.6428763,-0.39499056,0.38314322,-0.12939681,0.40118283,0.7642687
-0.2,0.10000000000000003,1.4,0.0,0.5235987755982988,0,0.71747965,0.27193284,1.2333701,0.4970135,0.7773566,0.5002297,2.0513403,0.53096944,-1.6699457,-0.79938453,0.3934326,0.3694734,0.49572945,1.2763884
-0.2,0.10000000000000003,1.4,0.0,0.5235987755982988,0,0.7119806,0.25379634,1.2209592,0.49699375,0.6774698,0.48514447,2.1876526,0.50558066,-1.6448756,-0.6405813,0.11934921,-0.35170665,0.4720508,-1.4506913
-0.2,0.10000000000000003,1.4,0.0,0.5235987755982988,0,0.7164164,0.28714284,1.2355814,0.50284076,0.7324423,0.48018727,2.0965889,0.51142895,-1.6520315,-0.5128866,0.2939477,-0.52815855,0.61938393,0.65577
-0.2,0.10000000000000003,1.4,0.0,0.5235987755982988,0,0.71690494,0.286739,1.2381914,0.50639206,0.7235302,0.4909633,2.0657535,0.5228366,-1.6459492,-0.39446896,0.19818707,0.55231774,0.3815283,0.5772466
-0.2,0.10000000000000003,1.4,0.0,0.5235987755982988,0,0.7163005,0.26506758,1.2230737,0.49512017,0.74839145,0.47260943,2.1007795,0.5012448,-1.6454101,-0.50994426,0.5341317,0.06970426,0.7928213,-0.25647122
-0.2,0.10000000000000003,1.4,0.0,0.5235987755982988,0,0.722751,0.26342267,1.2246186,0.49797598,0.70056355,0.49609023,2.1610372,0.5236672,-1.6574246,-0.5461518,0.3994243,0.32628056,0.6119237,0.6685213
-0.2,0.10000000000000003,1.4,0.0,0.5235987755982988,0,0.7158267,0.28493664,1.2247158,0.49410817,0.71703595,0.47161493,2.18226,0.49339488,-1.6522261,-0.5285979,0.22318166,-0.14506662,0.49651715,0.17669623
-0.2,0.10000000000000003,1.4,0.0,0.5235987755982988,0,0.7085152,0.2807907,1.2350868,0.5004559,0.70420134,0.49884456,2.1964989,0.5263067,-1.6492851,-0.53199303,0.12942478,0.18335001,0.6485664,-0.104531296
-0.2,0.10000000000000003,1.4,0.0,0.5235987755982988,0,0.71847695,0.2873362,1.2345701,0.49950534,0.71048105,0.49375448,2.1341257,0.51484543,-1.6489938,-0.7322306,0.14834632,0.12511553,0.2659148,0.53364
-0.2,0.10000000000000003,1.4,0.0,0.5235987755982988,0,0.7137376,0.27229956,1.2422525,0.49447006,0.7007963,0.48886696,2.1661499,0.51865816,-1.6574323,-0.6148284,0.06350534,0.014358936,0.3541745,0.19790114
-0.2,0.10000000000000003,1.4,0.0,0.5235987755982988,0,0.7208462,0.268126,1.2333719,0.49602216,0.7019927,0.494624,2.1774905,0.50200576,-1.6482745,-0.5847912,0.20645674,0.07985152,0.6186837,0.023335576
-0.2,0.10000000000000003,1.4,0.0,0.5235987755982988,0,0.71016717,0.2793375,1.2321347,0.49616435,0.7054112,0.4871498,2.1063461,0.53042024,-1.6494515,-0.5498424,0.53484994,0.30053458,0.1780533,-0.08536498
-0.2,0.10000000000000003,1.4,0.0,0.5235987755982988,0,0.7007653,0.29487255,1.2211074,0.4990622,0.7059656,0.4997642,2.1137168,0.50418437,-1.6540414,-0.697002,0.40618053,0.19257243,0.37134078,-0.18217282
-0.2,0.10000000000000003,1.4,0.0,0.5235987755982988,0,0.7144885,0.29127747,1.2353983,0.5021821,0.73404354,0.49820706,2.151691,0.50274384,-1.6585284,-0.8084057,0.6529679,0.08141967,0.42286104,-0.09673625
-0.2,0.10000000000000003,1.4,0.0,0.5235987755982988,0,0.70780355,0.28707603,1.2369925,0.50186926,0.7273757,0.4876771,2.1633348,0.50664395,-1.637878,-0.45545894,0.35352385,-0.60914785,0.56402236,0.26284438
-0.2,0.10000000000000003,1.4,0.0,0.5235987755982988,0,0.71405727,0.26986438,1.2302773,0.49954927,0.7128822,0.484829,2.2026992,0.5003058,-1.655115,-0.6901218,0.3385119,-0.12119867,0.24784562,0.9761293
-0.2,0.10000000000000003,1.4,0.0,0.5235987755982988,0,0.715487,0.27974096,1.2276716,0.50320345,0.71003795,0.50165135,2.197517,0.49444652,-1.6414695,-0.7584806,0.36572385,0.12994228,1.0177612,-0.7138003
-0.2,0.10000000000000003,1.4,0.0,0.5235987755982988,0,0.7209846,0.24445426,1.231612,0.49622762,0.7096354,0.47928113,2.140129,0.4999458,-1.6774048,-0.52552956,0.35821232,-0.09392144,0.48949894,-0.19104847
-0.2,0.10000000000000003,1.4,0.0,0.5235987755982988,0,0.71521723,0.29091874,1.2327154,0.5020207,0.7524102,0.51010245,2.1276505,0.4980033,-1.6652691,-0.6875365,0.4431175,-0.10650267,0.42491567,-0.2850332
-0.2,0.10000000000000003,1.4,0.0,0.5235987755982988,0,0.72138906,0.29053736,1.2334685,0.5002536,0.75822234,0.4905775,2.1884184,0.5032402,-1.6486466,-0.62246305,0.23495853,-0.31190246,0.48626217,0.041242253
-0.2,0.10000000000000003,1.4,0.0,0.5235987755982988,0,0.7183274,0.2689365,1.2290998,0.4983733,0.7133054,0.4940728,2.1706529,0.49714556,-1.6544994,-0.6277454,0.36240205,0.122295,0.60623175,-0.20987363
-0.2,0.10000000000000003,1.4,0.0,0.5235987755982988,0,0.7163812,0.28720143,1.222578,0.50238127,0.7272781,0.49330094,2.1488752,0.50680304,-1.6364663,-0.47321916,0.17796525,0.1605723,0.8587276,0.2431855
-0.2,0.10000000000000003,1.4,0.0,0.5235987755982988,0,0.70864135,0.2789402,1.2273092,0.50114304,0.7628702,0.505219,2.1604266,0.53011495,-1.6592512,-0.46933758,0.64471406,-0.25067145,0.720239,-0.27408752
-0.2,0.10000000000000003,1.4,0.0,0.5235987755982988,0,0.7064013,0.26204184,1.2309731,0.49812734,0.72581416,0.47753465,2.1394434,0.51628923,-1.6468467,-0.5796839,0.31998202,0.06760725,0.42076638,-0.23132424
-0.2,0.10000000000000003,1.4,0.0,0.5235987755982988,0,0.719489,0.2721667,1.2253411,0.5002888,0.71100724,0.4881534,2.1723504,0.49427515,-1.6418989,-0.60209876,0.52869606,0.14021471,0.78988963,-0.09143341
-0.2,0.10000000000000003,1.4,0.0,0.5235987755982988,0,0.70573527,0.28131428,1.2315668,0.50074244,0.7630141,0.50856656,2.141565,0.5143483,-1.6380913,-0.22694923,0.22625948,-0.24106835,0.5526245,-0.7443877
-0.2,0.10000000000000003,1.4,0.0,0.5235987755982988,0,0.714616,0.2927301,1.2305665,0.49070704,0.700051,0.4886706,2.178097,0.52755594,-1.6499925,-0.63017446,0.27664298,0.12747298,0.88577884,-0.29514396
-0.2,0.10000000000000003,1.4,0.0,0.5235987755982988,0,0.71763945,0.27860233,1.2326692,0.4984528,0.7373323,0.48689345,2.116682,0.5233361,-1.6492115,-0.85133034,0.5509557,-0.26012158,0.7515598,-0.6107087
-0.2,0.10000000000000003,1.4,0.0,0.5235987755982988,0,0.71708834,0.2787952,1.2354032,0.5026996,0.69206184,0.4767328,2.1342037,0.52774453,-1.6482207,-0.1752805,0.46588695,0.04184147,0.66680974,-0.01685292
-0.2,0.10000000000000003,1.4,0.0,0.5235987755982988,0,0.7084273,0.28149736,1.227173,0.49822772,0.7396292,0.5070207,2.1814375,0.5024659,-1.6651131,-0.5811915,0.16124333,0.18225272,0.8614976,-0.052357696
-0.2,0.10000000000000003,1.4,0.0,0.5235987755982988,0,0.7120336,0.2892097,1.2290556,0.49690247,0.73716825,0.49528924,2.1213112,0.50484025,-1.6503361,-0.33632815,0.3103365,-0.30439514,0.5166098,0.5814106
-0.2,0.10000000000000003,1.4,0.0,0.5235987755982988,0,0.71251225,0.2745519,1.2289081,0.4995287,0.73659205,0.49580112,2.1441514,0.51923484,-1.6384251,-0.8810874,0.08381798,0.023088798,0.7286433,1.093629
-0.2,0.10000000000000003,1.4,0.0,0.5235987755982988,0,0.71565247,0.29128888,1.2276595,0.5022737,0.73440117,0.4851927,2.106249,0.49942982,-1.647898,-0.599835,0.23820974,-0.3342744,0.7225872,-0.37977237
-0.2,0.10000000000000003,1.4,0.0,0.5235987755982988,0,0.71717596,0.23360398,1.2253644,0.50186807,0.7169496,0.4796041,2.1034386,0.5099797,-1.6494212,-0.6139185,0.51655704,-0.28822854,0.14694926,0.35051817
-0.2,0.10000000000000003,1.4,0.0,0.5235987755982988,0,0.716133,0.2579404,1.2359633,0.50073135,0.7398441,0.49558434,2.0938597,0.52285784,-1.6488149,-0.7595923,0.42244434,-0.40256608,0.86378753,0.3184754
-0.2,0.10000000000000003,1.4,0.0,0.5235987755982988,0,0.72853744,0.30210006,1.2246132,0.50189775,0.74919397,0.47083068,2.1165082,0.51938224,-1.6544353,-0.75774467,0.3674241,0.36860952,0.74548453,0.032318566
-0.2,0.10000000000000003,1.4,0.0,0.5235987755982988,0,0.71609515,0.26823494,1.2294273,0.50304556,0.75884223,0.485279,2.0539486,0.4966065,-1.6463706,-0.5933186,0.69203323,0.31010866,0.52016014,-0.1269973
-0.2,0.10000000000000003,1.4,0.0,0.5235987755982988,0,0.72014964,0.282065,1.2191048,0.4990499,0.7874344,0.5159638,2.1450083,0.5058364,-1.6441969,-0.6909373,0.27948037,-0.116334274,0.15086618,-0.028169854
-0.2,0.10000000000000003,1.4,0.0,0.5235987755982988,0,0.7084238,0.28993574,1.2269957,0.50103277,0.7204991,0.4877324,2.0921915,0.51335746,-1.6426201,-0.58279115,0.24601445,-0.23333775,0.056175884,0.3378049
-0.2,0.10000000000000003,1.4,0.0,0.5235987755982988,0,0.7184949,0.28589046,1.2332721,0.5001159,0.7321798,0.49151,2.1959982,0.49279392,-1.6592517,-0.73461735,0.46153143,0.031320956,0.60699946,0.12479892
-0.2,0.10000000000000003,1.4,0.0,0.5235987755982988,0,0.7191652,0.2661887,1.2386662,0.49515402,0.7084593,0.47960505,2.0536463,0.50875247,-1.6605272,-0.32511202,0.15030733,0.083662786,0.81681764,0.19559444
-0.2,0.10000000000000003,1.4,0.0,0.5235987755982988,0,0.70814824,0.27337518,1.2304492,0.5007079,0.74252224,0.48717272,2.1262937,0.52447075,-1.6565322,-0.53887075,0.4821771,0.17792527,0.19369814,-0.7181563
-0.2,0.10000000000000003,1.4,0.0,0.5235987755982988,0,0.712867,0.2516755,1.237491,0.49803188,0.70772666,0.47784722,2.2256079,0.5022561,-1.6523963,-0.73521286,0.3306526,0.09216425,0.7332181,0.88118356
-0.2,0.10000000000000003,1.4,0.0,0.5235987755982988,0,0.7179022,0.25703555,1.2295071,0.4984385,0.7126369,0.5048328,2.1435902,0.5107787,-1.651387,-0.6975632,0.544075,-0.1915681,0.6989146,-0.34271115
-0.2,0.10000000000000003,1.4,0.0,0.5235987755982988,0,0.7186169,0.29990253,1.2361895,0.4973575,0.72113377,0.4837005,2.1607263,0.5064329,-1.6637675,-0.61780953,0.2682667,0.67401665,0.23620474,0.81267685
-0.2,0.10000000000000003,1.4,0.0,0.5235987755982988,0,0.71276176,0.283039,1.2309355,0.5009596,0.71306527,0.47264755,2.1535811,0.5023337,-1.6495574,-0.5319088,0.5375586,-0.8077129,0.60542834,-0.6304703
-0.2,0.10000000000000003,1.4,0.0,0.5235987755982988,0,0.71001524,0.29206893,1.2396142,0.49861097,0.7247284,0.47477642,2.1120577,0.52438617,-1.6442661,-0.85815096,0.21140411,0.10527946,0.5269595,-0.052498084
-0.2,0.10000000000000003,1.4,0.0,0.5235987755982988,0,0.7157325,0.27575344,1.2283018,0.50108933,0.7320955,0.4820773,2.1287758,0.50354654,-1.6535395,-0.49727052,0.2843873,-0.18867555,0.55459845,1.055052
-0.2,0.10000000000000003,1.4,0.0,0.5235987755982988,0,0.7106515,0.27213886,1.2305331,0.50138646,0.7122441,0.4873725,2.0741134,0.51147366,-1.6471397,-0.4175129,0.32793722,0.25779825,0.2134533,-0.08529788
-0.2,0.10000000000000003,1.4,0.0,0.5235987755982988,0,0.7095793,0.290622,1.2296007,0.49954203,0.72579706,0.49010643,2.1252413,0.52681834,-1.644128,-0.23005095,0.24989057,0.33617467,0.07765568,0.5412939
-0.2,0.10000000000000003,1.4,0.0,0.5235987755982988,0,0.70780146,0.2699054,1.2385801,0.5018108,0.74542516,0.48431113,2.1674592,0.49124923,-1.6402141,-0.5519234,0.37116393,-0.18229632,0.37621933,-0.36444148
-0.2,0.10000000000000003,1.4,0.0,0.5235987755982988,0,0.71121836,0.27782297,1.2271755,0.5024656,0.7311722,0.4802597,2.1750278,0.52339363,-1.6471636,-0.78452843,0.5301179,-0.0658996,0.52789825,-0.17719606
-0.2,0.10000000000000003,1.4,0.0,0.5235987755982988,0,0.7185837,0.28937054,1.2346888,0.49829152,0.7382198,0.4797639,2.1423495,0.5303747,-1.6549665,-0.4763942,0.38943067,-0.0306175,0.53386045,-0.77909297
-0.2,0.10000000000000003,1.4,0.0,0.5235987755982988,0,0.71618307,0.27878577,1.2381096,0.50457466,0.7293235,0.49795038,2.117073,0.5385442,-1.6458817,-0.6115199,0.30069876,-0.016317932,0.76505715,-0.2065145
-0.2,0.10000000000000003,1.4,0.0,0.5235987755982988,0,0.72401667,0.27855325,1.2220899,0.49666446,0.7247197,0.49244073,2.2225099,0.51788193,-1.6568736,-0.4655816,0.43846864,0.4411977,0.51606196,-1.269159
-0.2,0.10000000000000003,1.4,0.0,0.5235987755982988,0,0.7133924,0.29100662,1.2280521,0.50129426,0.72138834,0.490192,2.1453207,0.5151158,-1.662721,-0.7997534,0.35746154,0.32228416,0.6843095,0.509707
-0.2,0.10000000000000003,1.4,0.0,0.5235987755982988,0,0.71945316,0.278508,1.2219862,0.49808866,0.7090279,0.496933,2.136018,0.5331913,-1.6609708,-0.2202442,0.5432173,0.052685134,0.61750776,-0.30390593
-0.2,0.10000000000000003,1.4,0.0,0.5235987755982988,0,0.7169794,0.26940742,1.2332295,0.4957484,0.7192689,0.46555543,2.118074,0.5426968,-1.658092,-0.6188185,-0.023169579,-0.2286442,0.52399844,0.34942004
-0.2,0.10000000000000003,1.4,0.0,0.5235987755982988,0,0.7201934,0.2915794,1.2297153,0.4925996,0.6958778,0.4868699,2.1576161,0.51577485,-1.6531737,-0.8361935,0.360142,-0.027393337,0.297791,0.18233345
-0.2,0.10000000000000003,1.4,0.0,0.5235987755982988,0,0.7210412,0.27434653,1.2353127,0.49611548,0.7006565,0.48487005,2.1875618,0.5083835,-1.6379559,-0.76459825,0.35986173,-0.32376572,0.5902047,-0.88155806
-0.2,0.10000000000000003,1.4,0.0,0.5235987755982988,0,0.70420235,0.2777823,1.2335976,0.49424872,0.7031502,0.49376324,2.1608446,0.5345784,-1.6495119,-0.62594336,0.16593221,-0.2728819,0.23253551,-0.121387675
-0.2,0.10000000000000003,1.4,0.0,0.5235987755982988,0,0.71854657,0.29057527,1.2311362,0.49888235,0.7359149,0.4846129,2.1070266,0.5115033,-1.6463908,-0.6584378,0.32048643,-0.12021206,0.2111732,0.9804747
-0.2,0.10000000000000003,1.4,0.0,0.5235987755982988,0,0.71612495,0.26212728,1.224944,0.497557,0.71958184,0.4946868,2.1273358,0.50897807,-1.6583319,-0.36438403,0.33791593,0.12135802,-0.1975691,0.30820957
-0.2,0.10000000000000003,1.4,0.0,0.5235987755982988,0,0.7246744,0.28168544,1.2269044,0.49735817,0.7392566,0.47931778,2.1688929,0.5219367,-1.6633383,-0.68628836,0.23283263,-0.4900979,0.5733776,-0.5804786
-0.2,0.10000000000000003,1.4,0.0,0.5235987755982988,0,0.72160983,0.26629654,1.2315869,0.49592584,0.7186367,0.48426023,2.1795957,0.50307196,-1.6643577,-0.5844946,0.36967456,0.15089566,0.6458098,-0.58456504
-0.2,0.10000000000000003,1.4,0.0,0.5235987755982988,0,0.71421176,0.27401727,1.2373836,0.49918914,0.7351547,0.48428035,2.18679,0.50219476,-1.6502544,-0.4997466,0.459363,-0.20605576,0.52411383,0.7464426
-0.2,0.10000000000000003,1.4,0.0,0.5235987755982988,0,0.71128017,0.27715573,1.2273211,0.49504673,0.74147725,0.48369107,2.2179527,0.51237667,-1.6481389,-0.80276746,0.5425323,0.016269196,0.651407,0.9488293
-0.2,0.10000000000000003,1.4,0.0,0.5235987755982988,0,0.71306837,0.29340684,1.2302346,0.50019765,0.727858,0.47872028,2.154689,0.5000059,-1.6514122,-0.8367929,0.10921789,0.008761703,0.7574147,-0.563015
-0.2,0.10000000000000003,1.4,0.0,0.5235987755982988,0,0.7052238,0.28374395,1.2335098,0.50079477,0.72677994,0.48759288,2.1471415,0.5054839,-1.653084,-0.73069996,0.44455004,0.0015226983,0.5552164,0.3658144
-0.2,0.10000000000000003,1.4,0.0,0.5235987755982988,0,0.7105729,0.29429683,1.2257268,0.50230455,0.7164689,0.47728544,2.1798453,0.5016519,-1.6494131,-0.6929726,0.27058402,0.12402846,0.25975066,0.48494735
-0.2,0.10000000000000003,1.4,0.0,0.5235987755982988,0,0.70825887,0.27826792,1.2304955,0.49665108,0.69832134,0.4851569,2.093676,0.53158444,-1.6597124,-0.41286504,0.3125545,0.14534348,0.5200323,-0.40739354
-0.2,0.10000000000000003,1.4,0.0,0.5235987755982988,0,0.71736145,0.29162073,1.2308534,0.49448475,0.73580575,0.49846756,2.1467144,0.5151372,-1.6547984,-0.67800105,0.40845755,0.17954622,0.39038092,-0.27459347
-0.2,0.10000000000000003,1.4,0.0,0.5235987755982988,0,0.7149231,0.28569847,1.2303345,0.49850076,0.6964867,0.47820923,2.1334665,0.51139593,-1.6482078,-0.51667535,0.294278,0.035554115,0.9666056,1.4363351
-0.2,0.10000000000000003,1.4,0.0,0.5235987755982988,0,0.70511115,0.27506462,1.2363715,0.49737895,0.73759264,0.49875876,2.1148393,0.48925683,-1.6440158,-0.4861435,0.3811207,-0.027057366,0.5974421,-0.15644647
-0.2,0.10000000000000003,1.4,0.0,0.5235987755982988,0,0.71506745,0.2738465,1.2297018,0.49451646,0.69547045,0.49838778,2.1546576,0.5113704,-1.6472287,-0.73925734,0.21397781,0.13698813,0.3784921,0.034426644
-0.2,0.10000000000000003,1.4,0.0,0.5235987755982988,0,0.71006316,0.27361175,1.2333018,0.50022084,0.71875656,0.47830442,2.1365387,0.51601243,-1.6465603,-0.5066253,0.3581028,0.10476146,0.6492001,0.18365176
-0.2,0.10000000000000003,1.4,0.0,0.5235987755982988,0,0.71610487,0.3005154,1.2332729,0.5011563,0.7128508,0.49316254,2.1760502,0.5240725,-1.6452751,-0.8950709,0.13342783,0.1877436,0.2235992,0.79986465
-0.2,0.10000000000000003,1.4,0.0,0.5235987755982988,0,0.7069463,0.25363398,1.2355821,0.50830674,0.6792115,0.48676765,2.1590867,0.49887887,-1.6457554,-0.69882584,0.34301975,-0.29928014,0.63494897,-0.029103868
-0.2,0.10000000000000003,1.4,0.0,0.5235987755982988,0,0.70660454,0.2876184,1.2328534,0.5017427,0.70726544,0.48869273,2.0897686,0.48165268,-1.640066,-0.45176005,0.39494556,-0.5025327,0.33902806,-0.31487837
-0.2,0.10000000000000003,1.4,0.0,0.5235987755982988,0,0.713418,0.29589254,1.218593,0.50429255,0.751727,0.4973347,2.16284,0.51075107,-1.6466837,-0.6796748,0.45389545,-0.0012252281,0.16238315,-1.1903462
-0.2,0.10000000000000003,1.4,0.0,0.5235987755982988,0,0.7202907,0.30114207,1.2331,0.5016077,0.724353,0.47514257,2.0931785,0.48804182,-1.6499614,-0.67902267,0.3527269,0.2589008,0.1996519,0.26175344
-0.2,0.10000000000000003,1.4,0.0,0.5235987755982988,0,0.70734006,0.2757553,1.2321491,0.5000178,0.702391,0.4715599,2.1310809,0.5037558,-1.6459031,-0.40165904,0.64908475,-0.16963445,0.41828158,0.48333207
-0.2,0.10000000000000003,1.4,0.0,0.5235987755982988,0,0.71894264,0.24696639,1.2333819,0.4995356,0.7278129,0.47499087,2.1384294,0.5186663,-1.6616659,-0.8151899,0.20451768,-0.3738841,0.41886282,0.005185554
-0.2,0.10000000000000003,1.4,0.0,0.5235987755982988,0,0.7071143,0.2808718,1.2370344,0.48969755,0.7242354,0.49325258,2.1027162,0.4948744,-1.647829,-0.6904807,0.23296174,0.34457758,0.9178313,-0.10376776
-0.2,0.10000000000000003,1.4,0.0,0.5235987755982988,0,0.72209406,0.27797398,1.2222692,0.49552745,0.7445224,0.5004352,2.0886621,0.47700852,-1.6457899,-0.7536329,0.124342725,0.3421962,0.5194636,0.6047359
-0.2,0.10000000000000003,1.4,0.0,0.5235987755982988,0,0.71765053,0.28333923,1.2335913,0.50044477,0.73599124,0.48452166,2.089552,0.50647515,-1.6713957,-0.48265472,0.48002762,-0.14078183,0.48616877,1.0278927
-0.2,0.10000000000000003,1.4,0.0,0.5235987755982988,0,0.72562236,0.26670706,1.2315911,0.49518323,0.7517734,0.49289572,2.1141448,0.5195651,-1.6674291,-0.438826,0.15584531,-0.00033605463,0.62460035,0.38426077
-0.2,0.10000000000000003,1.4,0.0,0.5235987755982988,0,0.7077578,0.27398127,1.2307085,0.50471866,0.7118934,0.48255542,2.1666143,0.49414632,-1.6479783,-0.54867107,0.3729035,0.28864396,0.39606768,0.8406704
-0.2,0.10000000000000003,1.4,0.0,0.5235987755982988,0,0.7188818,0.28769398,1.2313786,0.49746138,0.7198768,0.48966992,2.1356492,0.5631949,-1.6553072,-0.73195946,0.4710942,0.2550089,0.8246039,-0.076954015
-0.2,0.10000000000000003,1.4,0.0,0.5235987755982988,0,0.7106008,0.29834947,1.2296517,0.50182164,0.71643966,0.4711324,2.0752504,0.5268952,-1.6591862,-0.50465107,0.26226166,-0.20878042,-0.046764903,0.2536071
-0.2,0.10000000000000003,1.4,0.0,0.5235987755982988,0,0.7207355,0.29185992,1.2459451,0.5046721,0.71404546,0.47599682,2.1879146,0.50731707,-1.6693673,-0.33129734,0.51681924,0.07566056,0.21650732,0.12649362
-0.2,0.10000000000000003,1.4,0.0,0.5235987755982988,0,0.7186412,0.24744204,1.2287422,0.500546,0.71607333,0.49782276,2.1705859,0.5227715,-1.6572131,-0.7511125,0.295834,-0.025010671,0.38858297,0.5890487
-0.2,0.10000000000000003,1.4,0.0,0.5235987755982988,0,0.7110646,0.2836605,1.2274704,0.49578357,0.7351734,0.49663743,2.107794,0.51051867,-1.6463536,-0.73239744,0.28777978,0.051261086,0.24437244,0.27430293
-0.2,0.10000000000000003,1.4,0.0,0.5235987755982988,0,0.7252633,0.2919192,1.222091,0.50313866,0.70396096,0.50608367,2.1701503,0.53670275,-1.6550874,-0.64773554,0.28086725,-0.55135655,0.31363982,-0.19086255
-0.2,0.10000000000000003,1.4,0.0,0.5235987755982988,0,0.7133223,0.27233872,1.2308166,0.5058234,0.7137845,0.4923011,2.154576,0.5161749,-1.637029,-0.75717205,0.19808784,0.3815366,0.523172,-0.85822254
-0.2,0.10000000000000003,1.4,0.0,0.5235987755982988,0,0.72544223,0.28695488,1.2283827,0.50344706,0.700579,0.49100095,2.1301115,0.49502113,-1.6625098,-0.49673358,0.48818827,0.11245971,0.16427368,-1.3469777
-0.2,0.10000000000000003,1.4,0.0,0.5235987755982988,0,0.71604145,0.28541645,1.229773,0.5045301,0.74001217,0.47823504,2.146205,0.5119184,-1.6478981,-0.6308588,0.18972625,0.0032681501,0.81745553,-0.2739052
-0.2,0.10000000000000003,1.4,0.0,0.5235987755982988,0,0.7226947,0.28453586,1.2409762,0.4983666,0.7529545,0.46510282,2.1265516,0.5154146,-1.6429421,-0.6552158,0.33011526,0.16756195,0.22335954,-0.16469648
-0.2,0.10000000000000003,1.4,0.0,0.5235987755982988,0,0.7055829,0.29717237,1.2292888,0.49819505,0.734865,0.51306605,2.1875825,0.51406294,-1.6530613,-0.59479445,0.24245003,-0.33919725,0.83721983,0.3276827
-0.2,0.10000000000000003,1.4,0.0,0.5235987755982988,0,0.70888615,0.27820283,1.2314389,0.49703574,0.73794895,0.4936962,2.0928936,0.5181045,-1.6431507,-0.48862797,0.34511694,0.19435586,0.22619702,0.053241644
-0.2,0.10000000000000003,1.4,0.0,0.5235987755982988,0,0.7123702,0.28981966,1.2198983,0.49706754,0.71241474,0.5135606,2.1982183,0.5003704,-1.6448765,-0.49245787,0.36813977,-0.53549135,0.58693403,-0.047504656
-0.2,0.10000000000000003,1.4,0.0,0.5235987755982988,0,0.719931,0.28558293,1.2289269,0.4971934,0.703202,0.49712354,2.1518342,0.5194991,-1.654519,-0.48217136,0.37205037,0.05798311,0.46029323,0.0702609
-0.2,0.10000000000000003,1.4,0.0,0.5235987755982988,0,0.72303945,0.27510953,1.2287027,0.49417087,0.71320385,0.4779485,2.0979538,0.50760376,-1.6567087,-0.40066907,0.25819382,0.80926037,0.62865835,0.22095895
-0.2,0.10000000000000003,1.4,0.0,0.5235987755982988,0,0.72210246,0.27214122,1.2138493,0.503648,0.7081338,0.49179748,2.178414,0.50293255,-1.6658632,-0.61707747,0.2843834,-0.015347426,0.071998775,0.14085242
-0.2,0.10000000000000003,1.4,0.0,0.5235987755982988,0,0.72665215,0.25486055,1.22666,0.49948952,0.69596213,0.49538788,2.1854024,0.51365167,-1.6460443,-0.36608526,0.121502176,0.32569233,0.9355181,-0.03337503
-0.2,0.10000000000000003,1.4,0.0,0.5235987755982988,0,0.7163114,0.2665186,1.236511,0.5037765,0.6941362,0.48843968,2.1781802,0.517367,-1.6438192,-0.6199497,0.4662322,-0.081947096,0.5738972,0.3983562
-0.2,0.10000000000000003,1.4,0.0,0.5235987755982988,0,0.71579325,0.28637743,1.2331619,0.5022628,0.70825297,0.49145213,2.1345706,0.5208767,-1.6733451,-0.522607,0.4707347,0.57130635,0.38955605,0.92520446
-0.2,0.10000000000000003,1.4,0.0,0.5235987755982988,0,0.7142598,0.27069607,1.2269118,0.5013689,0.7046665,0.4854984,2.178993,0.50293446,-1.6498109,-0.44569543,0.23593806,0.08447584,0.6581465,1.0163645
-0.2,0.10000000000000003,1.4,0.0,0.5235987755982988,0,0.7174526,0.28393164,1.2267739,0.50211126,0.7216492,0.4777912,2.1551015,0.5290926,-1.64541,-0.4786299,0.34360886,-0.037668277,0.21092942,0.78182477
-0.2,0.10000000000000003,1.4,0.0,0.5235987755982988,0,0.7132107,0.2935012,1.2334657,0.504889,0.76277286,0.4721321,2.114162,0.5180125,-1.6447352,-0.78585625,0.71333957,-0.08409973,0.630224,0.5359642
-0.2,0.10000000000000003,1.4,0.0,0.5235987755982988,0,0.71534127,0.2647261,1.2309822,0.50189704,0.7182142,0.46708387,2.2032168,0.5043966,-1.6618179,-0.6011221,0.36406067,-0.2944511,0.72324866,0.9529081
-0.2,0.10000000000000003,1.4,0.0,0.5235987755982988,0,0.7110465,0.27723822,1.2277749,0.50019604,0.71362764,0.474959,2.1341429,0.530637,-1.6373739,-0.7399285,0.29570705,0.31430283,0.716656,0.14712693
-0.2,0.10000000000000003,1.4,0.0,0.5235987755982988,0,0.72043186,0.26319534,1.2268239,0.49738494,0.72954535,0.48431692,2.097793,0.49893567,-1.6472236,-0.6629666,0.096592054,0.18504176,0.25437254,0.1735824
-0.2,0.10000000000000003,1.4,0.0,0.5235987755982988,0,0.71643454,0.26371002,1.2315724,0.50130916,0.7176407,0.4695685,2.1223836,0.49493012,-1.6418055,-0.48964068,0.17930266,0.6959152,0.32395095,0.95971173
-0.2,0.10000000000000003,1.4,0.0,0.5235987755982988,0,0.7083546,0.27639708,1.2300287,0.5028605,0.7216037,0.49315497,2.1375797,0.49389103,-1.6482965,-0.66465527,0.31985357,0.11239497,0.46136537,-0.46770623
-0.2,0.10000000000000003,1.4,0.0,0.5235987755982988,0,0.72474694,0.26074836,1.2238386,0.4986514,0.73384106,0.4697759,2.1190577,0.49995965,-1.6513429,-0.6072831,0.3615031,0.16935755,0.26448596,0.61596775
-0.2,0.10000000000000003,1.4,0.0,0.5235987755982988,0,0.714888,0.29172337,1.2226464,0.4963852,0.7065881,0.49292967,2.1519558,0.5217274,-1.6337479,-0.6555985,0.32816252,-0.47625303,0.5921404,-1.0552093
-0.2,0.10000000000000003,1.4,0.0,0.5235987755982988,0,0.7170814,0.29194912,1.2279376,0.5079021,0.73524743,0.49906796,2.1497085,0.49976522,-1.6575433,-0.72072333,0.47128075,-0.42584747,0.32746917,1.064027
-0.2,0.10000000000000003,1.4,0.0,0.5235987755982988,0,0.7201016,0.2651324,1.2380207,0.5041034,0.7013014,0.48641154,2.1194153,0.51620096,-1.6601325,-0.79932016,0.34167126,-0.17632775,0.48419118,-0.07588653
-0.2,0.10000000000000003,1.4,0.0,0.5235987755982988,0,0.7226271,0.28011897,1.221995,0.49584997,0.711054,0.4781328,2.156011,0.51905686,-1.650547,-0.64544135,0.26266542,-0.51409304,0.4467877,-0.6085134
-0.2,0.10000000000000003,1.4,0.0,0.5235987755982988,0,0.7104344,0.2660207,1.2287751,0.50202113,0.76418674,0.4918618,2.132703,0.47376844,-1.6565037,-0.6263863,0.3356988,-0.074906774,0.8399503,1.0199344
-0.2,0.10000000000000003,1.4,0.0,0.5235987755982988,0,0.7107213,0.28172836,1.2274914,0.50268614,0.70753765,0.49215314,2.078365,0.51936686,-1.6482824,-0.8141857,0.3577622,0.13305123,0.21584573,-0.64128184
-0.2,0.10000000000000003,1.4,0.0,0.5235987755982988,0,0.7186434,0.26822042,1.221421,0.4961084,0.70327926,0.5051432,2.1548917,0.53193676,-1.6518815,-0.42514881,0.42069238,-0.07920444,0.4070945,-0.9448722
-0.2,0.10000000000000003,1.4,0.0,0.5235987755982988,0,0.70534843,0.2851005,1.2360198,0.5000963,0.7597885,0.463408,2.1875515,0.4873661,-1.6456348,-0.65026927,0.25294533,-0.01955595,0.4620515,0.28749728
-0.2,0.10000000000000003,1.4,0.0,0.5235987755982988,0,0.7029546,0.28319383,1.2354145,0.49760073,0.7274231,0.4941862,2.1283987,0.4972768,-1.6524805,-0.45813727,0.4534935,-0.40766928,0.59547895,0.7390083
-0.2,0.10000000000000003,1.4,0.0,0.5235987755982988,0,0.72035843,0.29222232,1.2268815,0.49602595,0.72672534,0.49607748,2.1194925,0.50066626,-1.6539776,-0.54786825,0.10753185,-0.4127425,0.4178263,-0.17581339
-0.2,0.10000000000000003,1.4,0.0,0.5235987755982988,0,0.706171,0.2638021,1.2240524,0.49918732,0.6884249,0.49538666,2.2501705,0.50494134,-1.655626,-0.8041031,0.4119939,0.0283622,0.37096286,0.7550348
-0.2,0.10000000000000003,1.4,0.0,0.5235987755982988,0,0.7089804,0.28458062,1.228629,0.49773547,0.72730505,0.4958666,2.2149315,0.51115197,-1.6622009,-0.41918933,0.5103563,0.13668297,0.41364107,-0.6061911
-0.2,0.10000000000000003,1.4,0.0,0.5235987755982988,0,0.71513206,0.27906615,1.2279123,0.5031658,0.72486913,0.49202633,2.1860366,0.5226049,-1.6450171,-0.65172654,0.34343687,-0.49412113,0.57811815,0.41977018
-0.2,0.10000000000000003,1.4,0.0,0.5235987755982988,0,0.7208261,0.27982396,1.2259617,0.4980383,0.71228164,0.48633665,2.1433687,0.50636196,-1.645174,-0.63085324,0.24984129,0.013551892,0.53588456,-0.14032094
-0.2,0.10000000000000003,1.4,0.0,0.5235987755982988,0,0.71908313,0.26087344,1.2275232,0.49479946,0.6984516,0.47922716,2.0447586,0.49131963,-1.6563536,-0.37870976,0.37303987,0.7092086,0.6482265,0.091418885
-0.2,0.10000000000000003,1.4,0.0,0.5235987755982988,0,0.70362103,0.2736045,1.229978,0.5052474,0.7209279,0.47838098,2.1245914,0.49465632,-1.6416708,-0.2720898,0.34855196,-0.15866244,0.44682062,0.674966
-0.2,0.10000000000000003,1.4,0.0,0.5235987755982988,0,0.71709806,0.28332892,1.2263954,0.49300542,0.6920682,0.47520086,2.1731677,0.5234567,-1.663429,-0.39613807,0.16475914,0.52442855,0.7112501,0.45274237
-0.2,0.10000000000000003,1.4,0.0,0.5235987755982988,0,0.71772355,0.25362256,1.2263001,0.5041057,0.73050964,0.49356896,2.0626636,0.52162266,-1.647912,-0.45099437,0.044076785,0.015245909,0.35148627,0.33066168
-0.2,0.10000000000000003,1.4,0.0,0.5235987755982988,0,0.7028838,0.28456336,1.2314284,0.49590784,0.7305709,0.5015211,2.117394,0.5275771,-1.6527131,-0.6978267,0.26292288,-0.0013065701,0.66634804,0.5753471
-0.2,0.10000000000000003,1.4,0.0,0.5235987755982988,0,0.7134599,0.2830721,1.2353237,0.5015669,0.69026273,0.48564714,2.1493397,0.49022067,-1.6536077,-0.4283625,0.37044507,-0.012575745,0.35537705,0.6404791
-0.2,0.10000000000000003,1.4,0.0,0.5235987755982988,0,0.7021692,0.2792164,1.2378241,0.5036142,0.6956849,0.4915169,2.198694,0.5140583,-1.6444602,-0.57391804,0.19902939,0.05417691,0.2297702,-0.8289165
-0.2,0.10000000000000003,1.4,0.0,0.5235987755982988,0,0.71953225,0.29273078,1.2318441,0.49823034,0.71078503,0.49615502,2.1107962,0.50352734,-1.6536564,-0.41165602,0.29794738,-0.35507792,0.20023116,0.5485903
-0.2,0.10000000000000003,1.4,0.0,0.5235987755982988,0,0.7190127,0.25325745,1.2287987,0.4969353,0.70730966,0.4995179,2.0965993,0.5037907,-1.6567734,-0.39075562,0.12480464,-0.28958026,0.73540866,-0.008862422
-0.2,0.10000000000000003,1.4,0.0,0.5235987755982988,0,0.7104211,0.2931947,1.2318379,0.49881122,0.7296413,0.48440307,2.0895839,0.49807346,-1.6535777,-0.6861337,0.32362998,-0.18536961,0.47202563,-1.0040258
-0.2,0.10000000000000003,1.4,0.0,0.5235987755982988,0,0.7209799,0.28777453,1.2238848,0.49785495,0.7338498,0.47399217,2.0556715,0.5117436,-1.6639409,-0.38668856,0.34107617,-0.39890048,0.41402543,0.7731722
-0.2,0.10000000000000003,1.4,0.0,0.5235987755982988,0,0.7220161,0.27830932,1.2300768,0.50053775,0.6815212,0.4978514,2.0906467,0.50748605,-1.6608348,-0.52546006,0.2883833,-0.09936158,0.57664496,0.23770194
-0.2,0.10000000000000003,1.4,0.0,0.5235987755982988,0,0.7249372,0.29852048,1.2324892,0.50260043,0.7309021,0.4803166,2.099198,0.5215807,-1.6471578,-0.8832572,0.37209773,0.28870484,0.4970106,0.33470845
-0.2,0.10000000000000003,1.4,0.0,0.5235987755982988,0,0.7162124,0.28331906,1.2225057,0.50321704,0.723952,0.48231873,2.1225116,0.50590336,-1.659021,-0.5902355,0.39750132,0.30136308,0.5023239,0.90003717
-0.2,0.10000000000000003,1.4,0.0,0.5235987755982988,0,0.7111452,0.2679662,1.2338072,0.4970109,0.6931283,0.4748634,2.0310252,0.526258,-1.6570903,-0.6342334,0.34880432,-0.54958135,0.69924915,0.57207227
-0.2,0.10000000000000003,1.4,0.0,0.5235987755982988,0,0.71666807,0.29237792,1.2348607,0.50180346,0.6989688,0.4832274,2.1178856,0.5279958,-1.6463321,-0.44645151,0.39910206,0.028625418,0.31229848,-0.81660616
-0.2,0.10000000000000003,1.4,0.0,0.5235987755982988,0,0.72419757,0.2872651,1.2341063,0.4949077,0.7331233,0.486231,2.2856112,0.5001036,-1.650406,-0.55940515,0.38255793,0.39445528,0.43335682,-0.7508449
-0.2,0.10000000000000003,1.4,0.0,0.5235987755982988,0,0.70870996,0.29953814,1.2345521,0.50077873,0.69968754,0.51764417,2.1439831,0.5470678,-1.6519924,-0.4897393,0.32392034,0.14451215,0.42350468,-0.46773565
-0.2,0.10000000000000003,1.4,0.0,0.5235987755982988,0,0.70373183,0.26365688,1.2287011,0.4998752,0.6943004,0.4922132,2.07541,0.5341929,-1.6453815,-0.75707054,0.31175038,0.008921792,0.53280795,0.34591606
-0.2,0.10000000000000003,1.4,0.0,0.5235987755982988,0,0.7208756,0.27404743,1.2375089,0.5024654,0.7681949,0.48596343,2.102647,0.49734205,-1.6503209,-0.85727364,0.60027283,0.09340973,0.38365883,-0.26772636
-0.2,0.10000000000000003,1.4,0.0,0.5235987755982988,0,0.7115958,0.29382113,1.2306402,0.4949869,0.70607364,0.49748805,2.182939,0.51065475,-1.6572659,-0.45726413,0.43195832,0.13544989,-0.035602793,0.27090356
-0.2,0.10000000000000003,1.4,0.0,0.5235987755982988,0,0.7044413,0.27802786,1.2254436,0.5015891,0.7349353,0.47692144,2.1149433,0.5073963,-1.6570191,-0.50617737,0.41820055,0.005212982,0.81743354,0.18498874
-0.2,0.10000000000000003,1.4,0.0,0.5235987755982988,0,0.7171411,0.29703844,1.2313215,0.5015311,0.68570775,0.4987756,2.1610043,0.51016957,-1.6569196,-0.6364383,0.42105234,-0.42466086,0.34973255,-0.31039646
-0.2,0.10000000000000003,1.4,0.0,0.5235987755982988,0,0.71873105,0.27043653,1.2394624,0.5007088,0.68954647,0.48291448,2.1862621,0.5125834,-1.6536486,-0.54685074,0.38692987,0.4306338,0.9709287,-0.19911972
-0.2,0.10000000000000003,1.4,0.0,0.5235987755982988,0,0.7180842,0.2874581,1.2219602,0.49843755,0.6976383,0.5011695,2.1943645,0.49542886,-1.6569343,-0.45868117,0.24465264,0.1806669,0.56947404,0.36928374
-0.2,0.10000000000000003,1.4,0.0,0.5235987755982988,0,0.71682006,0.26761693,1.232417,0.50368196,0.73853195,0.47597086,2.2114127,0.4956659,-1.6559117,-0.60798794,0.24835221,0.3936233,0.8455845,-0.045170557
-0.2,0.10000000000000003,1.4,0.0,0.5235987755982988,0,0.70547396,0.27604467,1.234303,0.50548077,0.7118301,0.47823578,2.1788998,0.5049674,-1.6609049,-0.62889796,0.12466234,0.7464788,0.60583764,-0.5590853
-0.2,0.10000000000000003,1.4,0.0,0.5235987755982988,0,0.7243044,0.30558753,1.234048,0.50016344,0.6933541,0.48184913,2.0707502,0.5050388,-1.654033,-0.3839783,0.23619539,-0.23431237,0.5753591,0.085842416
-0.2,0.10000000000000003,1.4,0.0,0.5235987755982988,0,0.7023924,0.29486609,1.2287449,0.49566633,0.72834605,0.4927687,2.1455007,0.5103701,-1.6673201,-0.5059829,0.467878,0.067110814,0.97048867,0.27163708
-0.2,0.10000000000000003,1.4,0.0,0.5235987755982988,0,0.7140866,0.26390168,1.2248026,0.49071604,0.7037113,0.5105001,2.1460478,0.5013344,-1.6439747,-0.6502684,0.1087732,0.3071542,0.8082279,-1.1068805
-0.2,0.10000000000000003,1.4,0.0,0.5235987755982988,0,0.7090191,0.25714758,1.2211164,0.49442154,0.7460229,0.4957884,2.1580963,0.5061901,-1.6605515,-0.7118503,0.21317409,0.23585483,0.5200729,-0.140414
-0.2,0.10000000000000003,1.4,0.0,0.5235987755982988,0,0.7208408,0.28803495,1.231999,0.4949642,0.7185376,0.46583426,2.075136,0.529173,-1.6500112,-0.48419422,0.34952077,-0.09261662,0.41510785,-0.4209299
-0.2,0.10000000000000003,1.4,0.0,0.5235987755982988,0,0.71650684,0.27018556,1.232715,0.5002712,0.68379265,0.4894722,2.1178896,0.5040633,-1.6576562,-0.8009646,0.28131554,0.31562358,0.11261098,0.62229276
-0.2,0.10000000000000003,1.4,0.0,0.5235987755982988,0,0.70976734,0.2604966,1.2280984,0.50222355,0.7073699,0.49868548,2.1353693,0.5188886,-1.644989,-0.6116845,0.4377273,0.26197517,0.19414204,-0.44834805
-0.2,0.10000000000000003,1.4,0.0,0.5235987755982988,0,0.7167389,0.28724772,1.2358097,0.50332177,0.7161254,0.4831843,2.0801342,0.5051744,-1.6536502,-0.52750796,0.43867648,-0.17419063,0.57438165,-0.35706294
-0.2,0.10000000000000003,1.4,0.0,0.5235987755982988,0,0.7170647,0.27896914,1.2300769,0.4997588,0.72215927,0.4727079,2.1038244,0.50472885,-1.6359054,-0.6131535,0.43981576,0.506983,0.42379382,-0.51841944
-0.2,0.10000000000000003,1.4,0.0,0.5235987755982988,0,0.70902455,0.25691855,1.2279437,0.49843258,0.7113283,0.49029896,2.1287036,0.52027273,-1.6629318,-0.7577788,0.32349664,0.0020581083,0.46158892,-0.5556577
-0.2,0.10000000000000003,1.4,0.0,0.5235987755982988,0,0.7120568,0.28061023,1.2334646,0.5012028,0.70965534,0.5011169,2.11294,0.5040423,-1.6531441,-0.48784396,0.20601012,-0.5636146,0.3373522,0.9461873
-0.2,0.10000000000000003,1.4,0.0,0.5235987755982988,0,0.71815896,0.25108907,1.2274771,0.501691,0.7385034,0.45696563,2.195818,0.5064459,-1.6598412,-0.5508685,0.40057617,-0.06648416,0.37231416,-0.076544166
-0.2,0.10000000000000003,1.4,0.0,0.5235987755982988,0,0.72152513,0.2701804,1.2276585,0.5009422,0.7595728,0.4854398,2.12979,0.5192715,-1.6625834,-0.6892099,0.32763132,0.07604687,0.5624041,1.2068022
-0.2,0.10000000000000003,1.4,0.0,0.5235987755982988,0,0.7106387,0.28354597,1.2321345,0.49934,0.724998,0.50850034,2.0924242,0.504699,-1.6592366,-0.5455357,0.13555935,-0.060154047,1.0106684,-0.5568891
-0.2,0.10000000000000003,1.4,0.0,0.5235987755982988,0,0.7207296,0.3035123,1.2290714,0.49699068,0.70856744,0.5032696,2.042137,0.49423948,-1.6508688,-0.4347558,0.16286725,-0.16395782,0.14326432,-0.48565373
-0.2,0.10000000000000003,1.4,0.0,0.5235987755982988,0,0.71741503,0.30780998,1.2270491,0.5028416,0.70777446,0.5032508,2.2142518,0.5079048,-1.6590565,-0.58692527,0.47251496,0.12451522,0.1938795,0.45176473
-0.2,0.10000000000000003,1.4,0.0,0.5235987755982988,0,0.7202514,0.3046389,1.230346,0.5032211,0.7069431,0.4786029,2.1558256,0.5044839,-1.6518424,-0.5879794,0.56008947,-0.09343312,0.97549677,-0.40020257
-0.2,0.10000000000000003,1.4,0.0,0.5235987755982988,0,0.7175862,0.29789302,1.2295035,0.49760798,0.7275711,0.4854557,2.0686355,0.51010597,-1.6616718,-0.52906734,0.4706678,-0.20748863,0.6711973,0.29405585
-0.2,0.10000000000000003,1.4,0.0,0.5235987755982988,0,0.7215624,0.27799365,1.2250639,0.50164783,0.7356459,0.48054138,2.1411414,0.48316652,-1.638348,-0.6157259,0.21948814,-0.17684339,0.5083179,-1.3551878
-0.2,0.10000000000000003,1.4,0.0,0.5235987755982988,0,0.7128943,0.26099554,1.231793,0.4969607,0.7003134,0.49563137,2.1243794,0.53224194,-1.6558732,-0.51508665,0.30689108,0.13485698,0.5740063,0.97437847
-0.2,0.10000000000000003,1.4,0.0,0.5235987755982988,0,0.72192633,0.28109157,1.2233541,0.50632936,0.6853809,0.488649,2.1812031,0.50895137,-1.6561888,-0.55998105,0.15271457,-0.01967367,0.089585885,-1.501934
-0.2,0.10000000000000003,1.4,0.0,0.5235987755982988,0,0.71057224,0.28630358,1.2294774,0.5024383,0.7310714,0.5009724,2.0755308,0.5301301,-1.6525059,-0.56131804,0.13097954,0.27547252,0.47014436,0.08923454
-0.2,0.10000000000000003,1.4,0.0,0.5235987755982988,0,0.717662,0.30017823,1.2370832,0.5004428,0.7384947,0.4945767,2.1059544,0.48432025,-1.6475496,-0.8699674,0.4760312,0.060777538,0.6794731,-0.17058812
-0.2,0.10000000000000003,1.4,0.0,0.5235987755982988,0,0.7142287,0.27736062,1.2343873,0.50509864,0.73969656,0.49710035,2.0629075,0.51345044,-1.6618156,-0.48313412,0.30504632,-0.5980748,0.8005788,1.689755
-0.2,0.10000000000000003,1.4,0.0,0.5235987755982988,0,0.70409936,0.28106493,1.2274855,0.50503916,0.7035271,0.4817119,2.0987372,0.504703,-1.6456403,-0.7525854,0.33427602,-0.37077916,0.48916605,1.0789342
-0.2,0.10000000000000003,1.4,0.0,0.5235987755982988,0,0.71132123,0.30079842,1.2307127,0.49918407,0.748411,0.49197453,2.0877676,0.5333808,-1.6581738,-0.6892145,0.4755022,0.08089269,0.86806333,-0.2582971
-0.2,0.10000000000000003,1.4,0.0,0.5235987755982988,0,0.7171766,0.2609684,1.2312914,0.5004923,0.7328827,0.47412714,2.0635524,0.520288,-1.6654149,-0.74671054,0.33258763,0.106134586,0.526708,0.9019997
-0.2,0.10000000000000003,1.4,0.0,0.5235987755982988,0,0.7102501,0.28824812,1.2361373,0.50432736,0.69047385,0.47602636,2.189171,0.52467084,-1.6477966,-0.86188513,0.17206965,0.20805715,0.6550084,0.53100157
-0.2,0.10000000000000003,1.4,0.0,0.5235987755982988,0,0.7220161,0.27749735,1.2277036,0.4990494,0.71101093,0.5037541,2.1390831,0.52078944,-1.6681712,-0.6686184,0.2995094,0.7779596,0.4094056,1.527286
-0.2,0.10000000000000003,1.4,0.0,0.5235987755982988,0,0.70572454,0.27119353,1.2329888,0.5007452,0.69770765,0.5036071,2.1788056,0.4912006,-1.6458452,-0.42830437,0.42430723,0.020234196,0.69874996,-0.50404865
-0.2,0.10000000000000003,1.4,0.0,0.5235987755982988,0,0.71547276,0.2814602,1.2373149,0.4988246,0.74860865,0.4737671,2.1274905,0.49963158,-1.6548783,-0.6960774,0.2406825,0.27025217,0.43490863,-0.37373978
-0.2,0.10000000000000003,1.4,0.0,0.5235987755982988,0,0.7140877,0.28824526,1.2321246,0.49799323,0.72978383,0.49303213,2.0534163,0.51727057,-1.6516669,-0.45205885,0.29137245,-0.27525914,0.5202052,-0.6720454
-0.2,0.10000000000000003,1.4,0.0,0.5235987755982988,0,0.7198726,0.28226596,1.2305332,0.50185907,0.72049916,0.48574367,2.0746624,0.5160167,-1.6520978,-0.6681978,0.39665437,0.07139424,0.6750912,0.5399843
-0.2,0.10000000000000003,1.4,0.0,0.5235987755982988,0,0.7153885,0.29180354,1.23331,0.5005851,0.71431303,0.48098502,2.137122,0.51633984,-1.6450722,-0.6226236,0.30467463,-0.2434408,0.36292505,-0.032654278
-0.2,0.10000000000000003,1.4,0.0,0.5235987755982988,0,0.7141557,0.28609255,1.2301022,0.49881887,0.71607995,0.4871676,2.1230986,0.5118311,-1.6506066,-0.6581056,0.5576846,0.19661473,0.46813655,-0.89590913
-0.2,0.10000000000000003,1.4,0.0,0.5235987755982988,0,0.70991576,0.25663036,1.2274617,0.5007466,0.69634074,0.46593168,2.1319096,0.5068512,-1.6568975,-0.7693674,0.29690236,-0.23722008,0.6930444,0.95731616
-0.2,0.10000000000000003,1.4,0.0,0.5235987755982988,0,0.7149581,0.26010686,1.2292374,0.4996217,0.72235966,0.49487454,2.0669072,0.50218475,-1.6470784,-0.56624454,-0.11312613,-0.15166815,0.580672,1.4471463
-0.2,0.10000000000000003,1.4,0.0,0.5235987755982988,0,0.7102877,0.27604,1.232107,0.5009125,0.72666466,0.49653322,2.1015937,0.5000059,-1.6560677,-0.7232493,0.44720173,-0.46443915,0.2805183,0.016933555
-0.2,0.10000000000000003,1.4,0.0,0.5235987755982988,0,0.7187337,0.26920846,1.22391,0.5005405,0.71022326,0.50228614,2.0827165,0.5736028,-1.6485372,-0.31847802,0.4891736,0.064082004,0.38865262,0.00830049
-0.2,0.10000000000000003,1.4,0.0,0.5235987755982988,0,0.7229248,0.31070638,1.230333,0.50348866,0.7279805,0.4788185,2.1159985,0.51341945,-1.6405902,-0.44462928,0.044786256,0.2844664,0.79661655,0.7747272
-0.2,0.10000000000000003,1.4,0.0,0.5235987755982988,0,0.71191365,0.26293314,1.2382035,0.49681786,0.6861192,0.48249832,2.0750518,0.50319564,-1.6519257,-0.6603225,0.23277026,0.26459384,0.6779245,-0.16673787
-0.2,0.10000000000000003,1.4,0.0,0.5235987755982988,0,0.71269447,0.2777159,1.2296503,0.5002879,0.70238423,0.47911736,2.1547773,0.5061901,-1.6541858,-0.42968342,0.33943242,0.21202879,0.55670935,-0.71294224
-0.2,0.10000000000000003,1.4,0.0,0.5235987755982988,0,0.71390766,0.26033133,1.2250854,0.49865493,0.7325085,0.5027228,2.0305057,0.4966122,-1.645595,-0.5825041,0.33661595,-0.13103054,0.95560247,0.7614944
-0.2,0.10000000000000003,1.4,0.0,0.5235987755982988,0,0.7169718,0.2818029,1.2248962,0.5005863,0.7000749,0.475309,2.1284387,0.49288455,-1.6625768,-0.32572827,0.3887323,0.14265332,0.7044349,-0.14146355
-0.2,0.10000000000000003,1.4,0.0,0.5235987755982988,0,0.71764547,0.2779405,1.2380934,0.5022527,0.7305521,0.48912218,2.1036217,0.5017404,-1.638777,-0.47668985,0.4596409,-0.099149294,0.5454585,-0.5559541
-0.2,0.10000000000000003,1.4,0.0,0.5235987755982988,0,0.71811026,0.285171,1.2305603,0.50035197,0.7166251,0.4801,2.1073039,0.5128849,-1.639363,-0.5221956,0.38263014,-0.23482154,0.3648364,0.17882523
-0.2,0.10000000000000003,1.4,0.0,0.5235987755982988,0,0.721344,0.2775484,1.2306942,0.4960225,0.7206932,0.4860642,2.0735233,0.5535539,-1.651949,-0.5724246,0.3748319,-0.065024,0.22856773,-0.01720087
-0.2,0.10000000000000003,1.4,0.0,0.5235987755982988,0,0.7065369,0.29516822,1.2280877,0.49809244,0.7454545,0.5054062,2.1272185,0.51048905,-1.6565303,-0.53127474,0.24921636,0.19812375,0.5452217,0.3810205
-0.2,0.10000000000000003,1.4,0.0,0.5235987755982988,0,0.71437734,0.2655321,1.2292268,0.49519295,0.686423,0.5076026,2.1420321,0.51185286,-1.6610752,-0.6985251,0.15343823,-0.08941227,0.7403853,-0.41425878
-0.2,0.10000000000000003,1.4,0.0,0.5235987755982988,0,0.7231001,0.28099906,1.2249864,0.5021073,0.72328633,0.48177624,2.092703,0.5194094,-1.6600068,-0.6336337,0.24645942,-0.24119428,0.5436068,1.0907435
-0.2,0.10000000000000003,1.4,0.0,0.5235987755982988,0,0.7101286,0.27657193,1.2259727,0.50882286,0.72443694,0.48498556,2.2012985,0.5133818,-1.651265,-0.53527236,0.31142446,0.08563741,0.4910347,-0.20451711
-0.2,0.10000000000000003,1.4,0.0,0.5235987755982988,0,0.721016,0.27066407,1.2267791,0.49704403,0.7239112,0.48694468,2.0744512,0.52070725,-1.6531743,-0.46439677,0.46253255,-0.09645689,0.5179392,-0.99457806
-0.2,0.10000000000000003,1.4,0.0,0.5235987755982988,0,0.72316206,0.29313412,1.2290627,0.50296575,0.7414752,0.48104692,2.097515,0.5088848,-1.649027,-0.48260647,0.18652658,0.14148195,0.58436483,-0.20829417
-0.2,0.10000000000000003,1.4,0.0,0.5235987755982988,0,0.7108927,0.29709968,1.227384,0.50386083,0.7192283,0.50293404,2.1436405,0.5322036,-1.643258,-0.7354139,0.4941202,0.025667697,0.62167597,0.5647237
-0.2,0.10000000000000003,1.4,0.0,0.5235987755982988,0,0.72003275,0.2743183,1.2298462,0.50088024,0.70997655,0.50351846,2.1244202,0.512681,-1.651102,-0.7213955,0.3637905,0.3232802,0.2703998,-0.031176578
-0.2,0.10000000000000003,1.4,0.0,0.5235987755982988,0,0.71067107,0.27024606,1.2432346,0.5023197,0.71376497,0.51365274,2.1290755,0.52373856,-1.654213,-0.87075335,0.21886717,-0.7626951,0.38968426,-0.18409386
-0.2,0.10000000000000003,1.4,0.0,0.5235987755982988,0,0.70923877,0.2786957,1.2254001,0.5007195,0.7197784,0.5041145,2.0416737,0.5160972,-1.6552205,-0.48211947,0.44749457,0.3733824,0.59209555,-0.8488159
-0.2,0.10000000000000003,1.4,0.0,0.5235987755982988,0,0.71051097,0.26741636,1.2248753,0.50143284,0.7495141,0.494607,2.0566454,0.526618,-1.6515123,-0.5938614,0.572922,0.0861182,0.4066988,-0.54323584
-0.2,0.10000000000000003,1.4,0.0,0.5235987755982988,0,0.7116537,0.27295855,1.2325002,0.49923345,0.693667,0.47407132,2.116324,0.50552773,-1.6566813,-0.43654862,0.42973056,0.20951349,0.7616695,-0.09868968
-0.2,0.10000000000000003,1.4,0.0,0.5235987755982988,0,0.7162363,0.25260437,1.2279423,0.49696955,0.71654177,0.4925684,2.2414792,0.5124329,-1.6541373,-0.7977498,0.46640047,0.32390207,0.4701512,-1.1067859
-0.2,0.10000000000000003,1.4,0.0,0.5235987755982988,0,0.72307634,0.27993006,1.226561,0.5031802,0.72044265,0.4770143,2.123175,0.5038355,-1.6477526,-0.5639039,0.25808397,0.004009469,0.32103708,0.4786284
-0.2,0.10000000000000003,1.4,0.0,0.5235987755982988,0,0.72129285,0.3101378,1.2386647,0.503019,0.72298336,0.49842292,2.1405034,0.48798513,-1.6631798,-0.44792444,0.3578935,-0.5285652,0.63618493,-0.11681805
-0.2,0.10000000000000003,1.4,0.0,0.5235987755982988,0,0.72466385,0.28960755,1.2306532,0.49658722,0.7307303,0.49236226,2.0986028,0.51681334,-1.6521252,-0.37854177,0.45770168,-0.03259614,0.5116392,0.38180003
-0.2,0.10000000000000003,1.4,0.0,0.5235987755982988,0,0.70751834,0.28808206,1.2309746,0.49568847,0.71159494,0.48606417,2.0512598,0.5245284,-1.6430247,-0.443202,0.1590634,0.06794501,0.880373,-0.20456843
-0.2,0.10000000000000003,1.4,0.0,0.5235987755982988,0,0.7163359,0.27471456,1.2309399,0.50187683,0.7217126,0.4961077,2.0707917,0.48582515,-1.6394947,-0.83805466,0.53346705,-0.09616507,0.31473017,-0.87396777
-0.2,0.10000000000000003,1.4,0.0,0.5235987755982988,0,0.71727306,0.30149087,1.2336965,0.4990805,0.7432229,0.47497356,2.1339638,0.4953338,-1.6535323,-0.47293243,0.2803781,0.2895709,0.41423288,-0.89183646
-0.2,0.10000000000000003,1.4,0.0,0.5235987755982988,0,0.72333705,0.28870952,1.2271502,0.50229776,0.7448943,0.50149816,2.1655047,0.5534668,-1.6559767,-0.48038593,0.12852308,-0.3109573,0.2786808,-0.2108768
-0.2,0.10000000000000003,1.4,0.0,0.5235987755982988,0,0.71154803,0.27432466,1.2346244,0.49992272,0.7022125,0.49705726,2.134684,0.51284873,-1.6575315,-0.54267657,0.24329904,-0.24939668,0.8400173,-0.4364751
-0.2,0.10000000000000003,1.4,0.0,0.5235987755982988,0,0.7158625,0.2771856,1.2269171,0.50496036,0.73033017,0.5118896,2.1309233,0.52717155,-1.6749593,-0.34003162,0.33062804,-0.13412058,0.23270394,-0.095894516
-0.2,0.10000000000000003,1.4,0.0,0.5235987755982988,0,0.71941054,0.30615413,1.2323995,0.50515854,0.7276987,0.47595486,2.079326,0.5269059,-1.6507835,-0.59521896,0.19756776,0.35385004,0.74627817,0.5191677
-0.2,0.10000000000000003,1.4,0.0,0.5235987755982988,0,0.71345156,0.2898369,1.2316658,0.5047772,0.7370972,0.48994145,2.0747442,0.52392185,-1.6482289,-0.61822486,0.3662681,0.060140643,0.4522166,-0.80533963
-0.2,0.10000000000000003,1.4,0.0,0.5235987755982988,0,0.719177,0.2795562,1.2250829,0.50442195,0.7213784,0.4754575,2.0822232,0.51618165,-1.6614609,-0.48803887,0.38126963,-0.1691723,0.48398396,-0.157502
-0.2,0.10000000000000003,1.4,0.0,0.5235987755982988,0,0.7175884,0.2988775,1.2417532,0.49539044,0.7440389,0.49690297,2.0460656,0.52503926,-1.6584123,-0.28258708,0.3240662,0.06844139,0.31723434,0.067292504
-0.2,0.10000000000000003,1.4,0.0,0.5235987755982988,0,0.71318084,0.27737448,1.2334473,0.4998444,0.7076938,0.4926717,2.0814793,0.49154186,-1.6672595,-0.5370486,0.55127656,0.16860516,0.1579852,-0.20063518
-0.2,0.10000000000000003,1.4,0.0,0.5235987755982988,0,0.71874183,0.27468693,1.2323139,0.502203,0.7288812,0.49814713,2.0540347,0.522094,-1.6478511,-0.29850036,0.21346316,-0.11558617,0.48994026,-0.9130483
-0.2,0.10000000000000003,1.4,0.0,0.5235987755982988,0,0.7187068,0.2999166,1.2377738,0.5034028,0.70622563,0.50022423,2.2118418,0.5417757,-1.6477181,-0.44160715,0.13119653,-0.36492532,0.24778907,-0.24656269
-0.2,0.10000000000000003,1.4,0.0,0.5235987755982988,0,0.7142554,0.2899814,1.2317923,0.4981632,0.7637044,0.48852363,2.2388947,0.5135113,-1.6489407,-0.5053607,0.37416384,0.28584057,0.73918134,-0.3348787
-0.2,0.10000000000000003,1.4,0.0,0.5235987755982988,0,0.7113412,0.27029523,1.2261661,0.5033171,0.7391614,0.4924912,2.108617,0.5308282,-1.6508534,-0.43892482,0.17260699,-0.24762765,0.1295251,-0.29767624
-0.2,0.10000000000000003,1.4,0.0,0.5235987755982988,0,0.71307844,0.2928844,1.2293866,0.49654943,0.76709354,0.50048226,2.1023307,0.508557,-1.640115,-0.6943561,0.3124112,0.552428,0.6127677,-0.041992754
-0.2,0.10000000000000003,1.4,0.0,0.5235987755982988,0,0.70799917,0.27953574,1.2366072,0.49638733,0.70616734,0.49424714,2.21165,0.49990427,-1.6428046,-0.38459936,0.35786694,-0.02878174,0.39801762,1.542085
-0.2,0.10000000000000003,1.4,0.0,0.5235987755982988,0,0.7151916,0.27568462,1.2303002,0.5008874,0.7061225,0.49601242,2.1298985,0.5273445,-1.6441025,-0.5386135,0.52155304,-0.12749678,0.23067336,0.8878427
-0.2,0.10000000000000003,1.4,0.0,0.5235987755982988,0,0.71001667,0.2645946,1.2308284,0.50201887,0.7093789,0.5009271,2.1352777,0.5171134,-1.6528764,-0.4670076,0.2775611,-0.28082788,0.28463542,0.21416111
-0.2,0.10000000000000003,1.4,0.0,0.5235987755982988,0,0.71212596,0.3155206,1.220172,0.50185835,0.7068257,0.5001526,2.1682453,0.5204071,-1.643911,-0.5671716,0.45470408,0.02260337,0.30245203,-0.3286152
-0.2,0.10000000000000003,1.4,0.0,0.5235987755982988,0,0.7193406,0.28388554,1.2304083,0.49991465,0.7298719,0.48946816,2.0818655,0.52815336,-1.6515261,-0.4552716,0.40061498,0.33969688,0.19611041,-1.3711107
-0.2,0.10000000000000003,1.4,0.0,0.5235987755982988,0,0.71978545,0.27323765,1.2404758,0.50144416,0.76616746,0.49992427,2.0430996,0.51363635,-1.645136,-0.7184125,0.25705293,-0.22815897,0.4740307,0.56357396
