sanky1234/BimanualDexCatch/isaacgymenvs/cem_results/football_pose_-0.1_-0.1_1.0999999999999999_0.5235987755982988_0.0_0_2025-05-25.csv
x,y,z,roll,pitch,yaw,robot1/joint1,robot1/joint2,robot1/joint3,robot1/joint4,robot1/joint5,robot1/joint6,robot1/joint7,robot2/joint1,robot2/joint2,robot2/joint3,robot2/joint4,robot2/joint5,robot2/joint6,robot2/joint7
-0.1,-0.1,1.0999999999999999,0.5235987755982988,0.0,0,-0.69692576,0.6203486,1.4140022,0.6407038,0.3466451,0.6102555,-0.04852792,0.100573674,1.2425684,-0.12639208,0.05334659,-0.15974632,1.2947227,0.15189485
-0.1,-0.1,1.0999999999999999,0.5235987755982988,0.0,0,-0.6994335,0.6145538,1.4141623,0.64014053,0.34039605,0.6115159,-0.08474875,0.09660441,1.2360452,0.1260039,-0.09031827,-0.014877173,1.238726,-0.28373203
-0.1,-0.1,1.0999999999999999,0.5235987755982988,0.0,0,-0.6984791,0.6137089,1.4105599,0.63878846,0.3390913,0.61479926,-0.101026714,0.10672109,1.2305727,0.104776844,-0.015326096,0.19101927,1.2060738,-0.08079852
-0.1,-0.1,1.0999999999999999,0.5235987755982988,0.0,0,-0.69803274,0.6188466,1.4161896,0.6399024,0.34902766,0.61200994,-0.076805696,0.09448964,1.2181497,-0.081729904,-0.09942459,-0.049682025,1.2628115,-0.3620616
-0.1,-0.1,1.0999999999999999,0.5235987755982988,0.0,0,-0.69918984,0.6121,1.4141589,0.6409568,0.34364188,0.6124899,-0.08994235,0.07132294,1.1914722,0.14152244,-0.0837504,-0.077708445,1.3713772,0.30202156
-0.1,-0.1,1.0999999999999999,0.5235987755982988,0.0,0,-0.6979421,0.61692595,1.4123706,0.64150804,0.34288302,0.6109211,-0.08338646,0.094693355,1.2150017,-0.20061849,-0.06384891,-0.17282616,1.2681556,-0.32726166
-0.1,-0.1,1.0999999999999999,0.5235987755982988,0.0,0,-0.6993952,0.61389804,1.4148115,0.6411951,0.34410736,0.6095387,-0.099177584,0.08703495,1.2402925,-0.16787072,0.010471691,-0.21626626,1.2632192,0.106828876
-0.1,-0.1,1.0999999999999999,0.5235987755982988,0.0,0,-0.6973126,0.6182457,1.4097658,0.6409538,0.34744498,0.6147403,-0.06416089,0.096808404,1.2613106,0.086744346,-0.006034478,0.24857631,1.2153022,-0.45368627
-0.1,-0.1,1.0999999999999999,0.5235987755982988,0.0,0,-0.6996764,0.61597276,1.41573,0.63984275,0.33989614,0.61131865,-0.060707476,0.08692711,1.2286072,0.107502624,-0.107494,-0.22073616,1.1719464,0.17103612
-0.1,-0.1,1.0999999999999999,0.5235987755982988,0.0,0,-0.69753015,0.61229074,1.4141679,0.64051735,0.33777818,0.61334664,-0.057566468,0.07203624,1.1976656,0.15371795,-0.004033784,0.30713546,1.3081176,0.48541802
-0.1,-0.1,1.0999999999999999,0.5235987755982988,0.0,0,-0.6970439,0.6152579,1.4136976,0.6409751,0.328722,0.6141689,-0.066285625,0.10738256,1.2345626,0.16352335,-0.04254555,-0.12825231,1.2950606,-0.09884778
-0.1,-0.1,1.0999999999999999,0.5235987755982988,0.0,0,-0.69899917,0.61347854,1.4146509,0.64045787,0.34455508,0.6139574,-0.05557617,0.10602775,1.2472517,0.16503176,-0.077313334,-0.28451928,1.1641519,0.30820173
-0.1,-0.1,1.0999999999999999,0.5235987755982988,0.0,0,-0.6967624,0.6182964,1.4145924,0.64079314,0.33607566,0.60789734,-0.06757648,0.10543548,1.2133981,0.19877699,-0.11367657,-0.1295155,1.3380045,-0.009217351
-0.1,-0.1,1.0999999999999999,0.5235987755982988,0.0,0,-0.6972765,0.6192679,1.4119037,0.6392431,0.33840892,0.61717653,-0.05125586,0.094982155,1.232275,0.121446475,-0.024664503,-0.07800499,1.3367676,-0.6786112
-0.1,-0.1,1.0999999999999999,0.5235987755982988,0.0,0,-0.6973622,0.6125381,1.4132004,0.64074147,0.34277856,0.61391383,-0.042432107,0.101412535,1.2383162,-0.12689365,-0.048371978,0.06889703,1.4705647,-0.31559893
-0.1,-0.1,1.0999999999999999,0.5235987755982988,0.0,0,-0.6998095,0.6140393,1.416884,0.6405191,0.34649485,0.6146132,-0.04867357,0.096450746,1.2238667,0.3329267,0.0068430863,0.038379043,1.4264245,0.74969375
-0.1,-0.1,1.0999999999999999,0.5235987755982988,0.0,0,-0.69670814,0.6115653,1.4151874,0.64057946,0.34645,0.61174834,-0.07669616,0.10350496,1.2384465,-0.35974348,-0.0721611,0.023137707,1.4277364,0.06389539
-0.1,-0.1,1.0999999999999999,0.5235987755982988,0.0,0,-0.6975655,0.6121773,1.4163814,0.6409785,0.33842018,0.6119878,-0.07626338,0.09664959,1.252796,-0.33909944,-0.15189004,-0.39445212,1.4433559,0.94909036
-0.1,-0.1,1.0999999999999999,0.5235987755982988,0.0,0,-0.6999703,0.61338514,1.4156551,0.6397351,0.33420914,0.6135934,-0.06957961,0.070041984,1.2101271,0.56228197,-0.063066565,-0.072624624,1.1340132,0.041806057
-0.1,-0.1,1.0999999999999999,0.5235987755982988,0.0,0,-0.697455,0.6156167,1.4144243,0.64009154,0.33941814,0.6154962,-0.05397315,0.11034097,1.2416047,0.33384258,0.013796893,-0.0037676373,1.1811409,-0.6480798
-0.1,-0.1,1.0999999999999999,0.5235987755982988,0.0,0,-0.6971079,0.6120428,1.4136508,0.6407242,0.32499424,0.61167186,-0.08754386,0.08181849,1.2191777,0.25985873,-0.102140084,-0.34175324,1.2740222,-0.078016885
-0.1,-0.1,1.0999999999999999,0.5235987755982988,0.0,0,-0.6973792,0.6166816,1.4145273,0.6396265,0.34740916,0.6119962,-0.0735092,0.093921,1.2640661,-0.10348754,-0.025197057,0.15828067,1.1279879,-0.1470319
-0.1,-0.1,1.0999999999999999,0.5235987755982988,0.0,0,-0.7012653,0.61451715,1.4170603,0.6406356,0.33389091,0.61421394,-0.07814765,0.07708833,1.2418685,-0.2646124,-0.10485236,-0.11168917,1.1914834,0.30096686
-0.1,-0.1,1.0999999999999999,0.5235987755982988,0.0,0,-0.6987336,0.6193505,1.416642,0.64109063,0.35511318,0.61187994,-0.050281655,0.07285935,1.2411604,0.24345823,0.009462301,0.36001292,1.3526707,0.22163707
-0.1,-0.1,1.0999999999999999,0.5235987755982988,0.0,0,-0.6953457,0.6135531,1.4139894,0.64068365,0.3491477,0.6113393,-0.067292996,0.07040588,1.242189,0.56269664,-0.10136661,-0.1935449,1.3406554,0.31136483
-0.1,-0.1,1.0999999999999999,0.5235987755982988,0.0,0,-0.6969959,0.6157237,1.4174865,0.63912696,0.34137186,0.61335564,-0.055811778,0.09614371,1.2131457,0.09320403,-0.078251645,-0.036475368,1.1391659,0.2322398
-0.1,-0.1,1.0999999999999999,0.5235987755982988,0.0,0,-0.6975628,0.6179994,1.4116154,0.64105517,0.347756,0.6116368,-0.06999053,0.08471537,1.2458855,-0.22973327,-0.0052117705,-0.3033199,1.448068,-0.07491904
-0.1,-0.1,1.0999999999999999,0.5235987755982988,0.0,0,-0.69783086,0.61594504,1.414874,0.6406634,0.33572873,0.61259085,-0.04332608,0.07512322,1.2021428,-0.23747838,-0.044114914,-0.032649264,1.3016311,-0.40092972
-0.1,-0.1,1.0999999999999999,0.5235987755982988,0.0,0,-0.69906735,0.6154156,1.4192815,0.6395085,0.34296456,0.61500144,-0.07751993,0.08652523,1.2218482,0.16592503,-0.08264926,0.079643,1.2575232,0.20355779
-0.1,-0.1,1.0999999999999999,0.5235987755982988,0.0,0,-0.6982241,0.6191797,1.4133737,0.63955706,0.34712583,0.61355287,-0.08295542,0.10140878,1.2256545,-0.013462547,-0.124697514,-0.17924103,1.3040142,-0.023240589
-0.1,-0.1,1.0999999999999999,0.5235987755982988,0.0,0,-0.6975407,0.617922,1.4153907,0.64142704,0.348326,0.6134625,-0.08598666,0.08186192,1.2284443,-0.15355307,-0.08047223,-0.05336552,1.2091501,0.16218324
-0.1,-0.1,1.0999999999999999,0.5235987755982988,0.0,0,-0.69805247,0.61735684,1.4146386,0.64084244,0.34271207,0.6127842,-0.08171654,0.09737968,1.2133611,-0.22778057,-0.07071844,0.14047255,1.2287692,-0.1735664
-0.1,-0.1,1.0999999999999999,0.5235987755982988,0.0,0,-0.69964707,0.6150393,1.4129553,0.6399416,0.34152067,0.6138681,-0.06451151,0.085188426,1.2701621,0.07104166,-0.1430841,-0.0056836894,1.3451623,0.30897787
-0.1,-0.1,1.0999999999999999,0.5235987755982988,0.0,0,-0.6957156,0.61112225,1.4159489,0.63930154,0.3395903,0.61266553,-0.08654354,0.09192418,1.2270988,0.16965163,-0.0569984,-0.057096545,1.382604,-0.12663457
-0.1,-0.1,1.0999999999999999,0.5235987755982988,0.0,0,-0.69854015,0.6151641,1.4124473,0.639716,0.34185535,0.611814,-0.09635094,0.06747902,1.2191135,-0.44814563,-0.117988065,-0.018119266,1.1606226,-0.31427902
-0.1,-0.1,1.0999999999999999,0.5235987755982988,0.0,0,-0.69752604,0.6160921,1.4147213,0.638725,0.34933224,0.6112957,-0.08478064,0.10080539,1.2286584,0.47793603,-0.05766309,-0.07321417,1.1490166,0.13511747
-0.1,-0.1,1.0999999999999999,0.5235987755982988,0.0,0,-0.6976178,0.61326593,1.4126359,0.63957393,0.34792742,0.6132071,-0.06787734,0.104807965,1.240726,0.29108006,-0.10606198,-0.43708906,1.4069295,-0.16064934
-0.1,-0.1,1.0999999999999999,0.5235987755982988,0.0,0,-0.69720066,0.6123301,1.4161812,0.6399264,0.34237888,0.61192536,-0.084928505,0.10253235,1.2507888,0.064458065,-0.09954404,0.108396955,1.3332576,-0.07825705
-0.1,-0.1,1.0999999999999999,0.5235987755982988,0.0,0,-0.70034856,0.6151728,1.4171145,0.6387984,0.35481957,0.6139217,-0.08880101,0.084496275,1.2612606,0.06858301,-0.0025283773,-0.0079824645,1.2222325,0.12144889
-0.1,-0.1,1.0999999999999999,0.5235987755982988,0.0,0,-0.6966814,0.6166478,1.4145125,0.64130527,0.33353558,0.6095682,-0.071892574,0.09717254,1.2136678,0.17000769,-0.038033113,0.10594594,1.4804387,-0.38779092
-0.1,-0.1,1.0999999999999999,0.5235987755982988,0.0,0,-0.697932,0.61426187,1.413442,0.64040816,0.33838135,0.61515063,-0.06769556,0.10688038,1.2037196,0.19922827,-0.03206865,0.010954746,1.4504542,-0.20379433
-0.1,-0.1,1.0999999999999999,0.5235987755982988,0.0,0,-0.69871765,0.6193973,1.4113493,0.64123267,0.33596107,0.6108716,-0.081538185,0.10674268,1.2403318,-0.05078777,-0.011552168,-0.31674886,1.1651775,-0.38214362
-0.1,-0.1,1.0999999999999999,0.5235987755982988,0.0,0,-0.69983417,0.6134581,1.4138741,0.6418814,0.3386361,0.6086793,-0.0907731,0.09545333,1.2175186,0.066015646,-0.09048145,-0.059486415,1.1559716,0.4347673
-0.1,-0.1,1.0999999999999999,0.5235987755982988,0.0,0,-0.69975585,0.61578953,1.4122114,0.6393598,0.33088496,0.61185265,-0.07503853,0.071538,1.2221569,-0.0649008,-0.07743503,0.24395564,1.3689392,-0.5458069
-0.1,-0.1,1.0999999999999999,0.5235987755982988,0.0,0,-0.69784987,0.6135887,1.4169564,0.64049256,0.348536,0.61218524,-0.080921,0.10562095,1.2355605,0.32939082,-0.018899448,-0.043656766,1.3386449,-0.09379303
-0.1,-0.1,1.0999999999999999,0.5235987755982988,0.0,0,-0.6970354,0.6119542,1.4167912,0.6410463,0.33975056,0.61405146,-0.06926491,0.082991965,1.2398219,-0.24822065,-0.010714346,0.14616495,1.3290868,-0.120783016
-0.1,-0.1,1.0999999999999999,0.5235987755982988,0.0,0,-0.7000393,0.61580735,1.4125938,0.64065254,0.34470177,0.6170423,-0.09629672,0.08681505,1.2398465,-0.1498129,-0.07773911,0.023255639,1.2352895,0.18697591
-0.1,-0.1,1.0999999999999999,0.5235987755982988,0.0,0,-0.6983387,0.61292297,1.4133105,0.639707,0.34375286,0.61042345,-0.0657124,0.071219735,1.2361578,0.11284572,-0.00299681,-0.22326489,1.228149,-0.5761901
-0.1,-0.1,1.0999999999999999,0.5235987755982988,0.0,0,-0.69769204,0.61587137,1.4179645,0.6415343,0.33909115,0.6147244,-0.071276546,0.10157008,1.2429669,0.2888124,-0.17637108,0.13067599,1.3381901,0.1012336
-0.1,-0.1,1.0999999999999999,0.5235987755982988,0.0,0,-0.6977943,0.61335784,1.4145417,0.6402836,0.34320572,0.608704,-0.085363545,0.09671152,1.2291865,0.19519018,0.021033509,0.08195389,1.415895,-0.31389347
-0.1,-0.1,1.0999999999999999,0.5235987755982988,0.0,0,-0.6976443,0.61121374,1.411258,0.64197505,0.33649614,0.61165637,-0.06158858,0.06816071,1.2227405,0.027152577,-0.035912506,-0.37203553,1.2942873,0.079264686
-0.1,-0.1,1.0999999999999999,0.5235987755982988,0.0,0,-0.69812995,0.618664,1.4142126,0.64005816,0.33221352,0.61500835,-0.06980108,0.10087926,1.2328212,-0.09252393,-0.12477824,-0.021224886,1.109303,-0.23476593
-0.1,-0.1,1.0999999999999999,0.5235987755982988,0.0,0,-0.70064145,0.6128884,1.4167199,0.64027196,0.33494955,0.60880315,-0.07818001,0.094832495,1.2395749,-0.26712826,-0.08855345,-0.12382858,1.3961867,-0.063847974
-0.1,-0.1,1.0999999999999999,0.5235987755982988,0.0,0,-0.6978053,0.61375207,1.4127088,0.6411419,0.34239638,0.6104965,-0.059723873,0.07385452,1.2313093,0.3722566,-0.024701925,-0.15870018,1.3814974,0.18130891
-0.1,-0.1,1.0999999999999999,0.5235987755982988,0.0,0,-0.69694185,0.61046344,1.4146364,0.63973224,0.3453046,0.61292064,-0.07510868,0.08453423,1.2368137,0.1631445,-0.064839706,-0.4600621,1.4138552,0.22695759
-0.1,-0.1,1.0999999999999999,0.5235987755982988,0.0,0,-0.69852453,0.6166884,1.412425,0.6410968,0.34582317,0.61367,-0.07534819,0.093610026,1.235488,0.03158567,-0.058941633,0.0076250196,1.3588566,-0.0471605
-0.1,-0.1,1.0999999999999999,0.5235987755982988,0.0,0,-0.6983252,0.6180587,1.4168305,0.6409384,0.35022524,0.6161148,-0.08251319,0.09702988,1.2252446,-0.026209967,0.028399989,0.13324408,1.2735819,-0.14783962
-0.1,-0.1,1.0999999999999999,0.5235987755982988,0.0,0,-0.69888234,0.6114836,1.4159571,0.63851386,0.33331752,0.61260474,-0.063291654,0.07361465,1.2528058,0.11169071,0.018624926,-0.07846882,1.2625937,-0.17485921
-0.1,-0.1,1.0999999999999999,0.5235987755982988,0.0,0,-0.699258,0.6119897,1.4127067,0.639792,0.34833187,0.6125047,-0.078928046,0.08562661,1.2419165,-0.28568986,0.02039677,0.0020051633,1.2945012,-0.012827252
-0.1,-0.1,1.0999999999999999,0.5235987755982988,0.0,0,-0.69687456,0.6067905,1.4142958,0.6400538,0.3401277,0.61664546,-0.0838875,0.08285641,1.260561,0.769504,-0.0279593,-0.3848135,1.2104627,0.40576518
-0.1,-0.1,1.0999999999999999,0.5235987755982988,0.0,0,-0.6992646,0.61965156,1.416438,0.6405892,0.3340781,0.61243623,-0.06010407,0.09559176,1.256508,0.17635179,-0.06410609,-0.10475896,1.2492946,0.31949696
-0.1,-0.1,1.0999999999999999,0.5235987755982988,0.0,0,-0.69633615,0.61645156,1.409413,0.64023757,0.33441767,0.6134587,-0.067912415,0.06845266,1.2376603,-0.028487828,-0.12563486,0.0017169316,1.3187865,0.062761925
-0.1,-0.1,1.0999999999999999,0.5235987755982988,0.0,0,-0.6969396,0.61951435,1.4179448,0.63891095,0.33805993,0.61008847,-0.089166895,0.106658265,1.2093252,0.10647355,-0.017054237,0.038078275,1.1795571,-0.27243704
-0.1,-0.1,1.0999999999999999,0.5235987755982988,0.0,0,-0.6970153,0.6130321,1.4140384,0.6410408,0.343563,0.61121774,-0.054908846,0.069454096,1.2136736,0.11955679,-0.077384695,-0.09737367,1.2893898,-0.10491913
-0.1,-0.1,1.0999999999999999,0.5235987755982988,0.0,0,-0.699656,0.6137514,1.4167957,0.64229983,0.35821605,0.6148232,-0.082829624,0.10396396,1.2320023,-0.44784036,-0.021140898,0.012068061,1.3332434,0.45682603
-0.1,-0.1,1.0999999999999999,0.5235987755982988,0.0,0,-0.69842774,0.6142712,1.4124291,0.6410673,0.35103005,0.6109878,-0.061889548,0.08456413,1.2101686,-0.36725026,-0.073761635,-0.22766782,1.3005284,0.18925224
-0.1,-0.1,1.0999999999999999,0.5235987755982988,0.0,0,-0.6961069,0.6147965,1.4117913,0.6392468,0.33178857,0.612426,-0.100148566,0.07286939,1.2282335,0.18176688,-0.02282801,0.30468386,1.2506671,0.35859123
-0.1,-0.1,1.0999999999999999,0.5235987755982988,0.0,0,-0.69934165,0.611488,1.4185765,0.64117575,0.35206443,0.615815,-0.0636955,0.09645282,1.2229228,-0.16263734,-0.023682682,0.17402636,1.2064447,0.27140084
-0.1,-0.1,1.0999999999999999,0.5235987755982988,0.0,0,-0.6964465,0.6135386,1.4143536,0.64008725,0.34744713,0.6131929,-0.04933174,0.07280186,1.2477658,0.18876366,-0.0695945,-0.08600223,1.1218944,-0.36620638
-0.1,-0.1,1.0999999999999999,0.5235987755982988,0.0,0,-0.6985429,0.62176514,1.4160074,0.6405427,0.347021,0.61499244,-0.06390575,0.10026369,1.2399046,0.24283768,-0.023922177,0.103300974,1.2807782,-0.4527901
-0.1,-0.1,1.0999999999999999,0.5235987755982988,0.0,0,-0.6978027,0.61262316,1.4142513,0.64080215,0.3353528,0.61214393,-0.07891923,0.07181842,1.2617445,-0.039523322,-0.116088584,-0.2185758,1.1239606,-0.12673473
-0.1,-0.1,1.0999999999999999,0.5235987755982988,0.0,0,-0.6975101,0.6150426,1.4128139,0.6414913,0.33542892,0.61066127,-0.0669111,0.08381758,1.2251393,-0.22101767,-0.08213101,0.027995422,1.2825316,-0.20945244
-0.1,-0.1,1.0999999999999999,0.5235987755982988,0.0,0,-0.6971225,0.6151359,1.4174968,0.6404453,0.34478468,0.6123582,-0.065864585,0.0864898,1.2474226,-0.30701914,-0.029622078,-0.07911864,1.1509284,-0.07448157
-0.1,-0.1,1.0999999999999999,0.5235987755982988,0.0,0,-0.696591,0.6181446,1.41667,0.64131516,0.35008952,0.61127585,-0.05156803,0.10446486,1.2413957,0.22103456,-0.06281598,-0.30497465,1.2995701,0.08383902
-0.1,-0.1,1.0999999999999999,0.5235987755982988,0.0,0,-0.69708496,0.6179003,1.411327,0.6405499,0.351149,0.6118651,-0.06413054,0.08524205,1.2148792,0.05911247,-0.032131743,0.07791263,1.3600212,0.1346486
-0.1,-0.1,1.0999999999999999,0.5235987755982988,0.0,0,-0.6977404,0.6129697,1.4147505,0.63943774,0.3454091,0.6121187,-0.05843909,0.071377724,1.264782,-0.06748374,-0.11038415,-0.09698675,1.2398887,-0.30069304
-0.1,-0.1,1.0999999999999999,0.5235987755982988,0.0,0,-0.69884014,0.6172244,1.4148077,0.6405901,0.33232427,0.61248034,-0.09562195,0.100268885,1.2354785,0.08592049,-0.11515396,0.06860025,1.218165,-0.43172362
-0.1,-0.1,1.0999999999999999,0.5235987755982988,0.0,0,-0.69806385,0.6152114,1.4148101,0.6409147,0.35463014,0.6128762,-0.0884225,0.11022541,1.2122269,0.26555204,-0.007931036,-0.16544211,1.2873737,-0.026301809
-0.1,-0.1,1.0999999999999999,0.5235987755982988,0.0,0,-0.69618714,0.61893,1.4119099,0.6416184,0.34704173,0.6113197,-0.0886371,0.08304277,1.2301778,0.11103098,-0.20489195,0.11498402,1.1466585,0.21381573
-0.1,-0.1,1.0999999999999999,0.5235987755982988,0.0,0,-0.69883025,0.6139504,1.4142032,0.6401025,0.34583235,0.6148083,-0.08008183,0.09703428,1.2173119,-0.012211821,-0.07887136,-0.19606894,1.2999362,-0.48173618
-0.1,-0.1,1.0999999999999999,0.5235987755982988,0.0,0,-0.6979243,0.615483,1.4106282,0.641376,0.34329882,0.61422855,-0.06511609,0.07107201,1.249665,0.30605927,-0.1326466,0.010516265,1.3052349,-0.49028948
-0.1,-0.1,1.0999999999999999,0.5235987755982988,0.0,0,-0.70040303,0.6179072,1.4155846,0.6392803,0.3478897,0.61171174,-0.08484217,0.08306303,1.2193669,-0.2871594,-0.060680415,-0.014671156,1.3224506,0.00011829019
-0.1,-0.1,1.0999999999999999,0.5235987755982988,0.0,0,-0.69988674,0.6107393,1.4154512,0.63978326,0.33740997,0.6141268,-0.0875499,0.06979012,1.2611594,0.1430803,-0.09611131,-0.002458481,1.3794394,-0.08991611
-0.1,-0.1,1.0999999999999999,0.5235987755982988,0.0,0,-0.6981134,0.61550075,1.4118276,0.641142,0.34261712,0.61008424,-0.082555965,0.085140035,1.2169204,0.2175959,-0.102220185,-0.23497869,1.1888083,-0.31944698
-0.1,-0.1,1.0999999999999999,0.5235987755982988,0.0,0,-0.69890213,0.6120944,1.4158069,0.6403212,0.34796494,0.6126025,-0.065000474,0.083028324,1.2155151,-0.23181014,-0.107137516,-0.2952198,1.3178004,-0.21437918
-0.1,-0.1,1.0999999999999999,0.5235987755982988,0.0,0,-0.69817954,0.6118524,1.411046,0.6411808,0.3294423,0.6145273,-0.07680555,0.08467056,1.2418556,-0.6179298,-0.14099436,0.23476656,1.373804,-0.16041669
-0.1,-0.1,1.0999999999999999,0.5235987755982988,0.0,0,-0.6972689,0.613829,1.4130889,0.64114165,0.34591565,0.613186,-0.08340704,0.09558858,1.2474732,-0.23756365,-0.103883855,-0.16089675,1.327619,0.5990603
-0.1,-0.1,1.0999999999999999,0.5235987755982988,0.0,0,-0.6982401,0.6160372,1.4163564,0.6400223,0.35493025,0.6134697,-0.08144888,0.08224224,1.208484,-0.33230126,-0.037749663,0.0065141916,1.1597148,-0.2483739
-0.1,-0.1,1.0999999999999999,0.5235987755982988,0.0,0,-0.69825584,0.6113672,1.418496,0.6398376,0.33294022,0.61474735,-0.0493874,0.08975686,1.2500072,0.1792901,-0.020396374,0.0050094556,1.2044901,0.48428455
-0.1,-0.1,1.0999999999999999,0.5235987755982988,0.0,0,-0.6972797,0.6140502,1.4144193,0.6413529,0.34176433,0.61240697,-0.078806415,0.10564259,1.2338465,0.33135548,-0.082541585,0.19531395,1.1893663,-0.016529411
-0.1,-0.1,1.0999999999999999,0.5235987755982988,0.0,0,-0.6987868,0.6159828,1.4141974,0.63930583,0.3350812,0.6118054,-0.06491573,0.08338233,1.226097,0.113882676,-0.042474028,0.31419122,1.2282741,-0.022380348
-0.1,-0.1,1.0999999999999999,0.5235987755982988,0.0,0,-0.6968127,0.6115975,1.4118711,0.64086217,0.35023424,0.61433107,-0.072898015,0.07141895,1.2431114,0.111712106,-0.060684826,0.12065201,1.3025869,-0.21638876
-0.1,-0.1,1.0999999999999999,0.5235987755982988,0.0,0,-0.6965452,0.6131316,1.4136733,0.6403324,0.34295952,0.61346143,-0.0797915,0.11188694,1.2399571,0.26312393,-0.09375122,0.328301,1.2633297,-0.5656962
-0.1,-0.1,1.0999999999999999,0.5235987755982988,0.0,0,-0.69735605,0.61820686,1.415841,0.6415185,0.35339528,0.60758966,-0.07110955,0.10667122,1.244412,0.08718862,-0.02315866,0.09690567,1.152328,0.14863327
-0.1,-0.1,1.0999999999999999,0.5235987755982988,0.0,0,-0.6969859,0.6103113,1.410793,0.6388778,0.34404847,0.61086375,-0.081888095,0.08581866,1.212793,0.12623394,-0.082081184,0.1228169,1.2816447,-0.40624255
-0.1,-0.1,1.0999999999999999,0.5235987755982988,0.0,0,-0.7004437,0.61677253,1.4153683,0.6414958,0.33964366,0.61045897,-0.094702624,0.08568381,1.2178456,-0.26349965,-0.04203966,-0.13080956,1.1993698,0.1225192
-0.1,-0.1,1.0999999999999999,0.5235987755982988,0.0,0,-0.6984806,0.6173788,1.4150317,0.64034635,0.3386289,0.60967594,-0.07340185,0.08553336,1.1901063,-0.5797262,-0.026957327,-0.07962872,1.0221763,-0.18396279
-0.1,-0.1,1.0999999999999999,0.5235987755982988,0.0,0,-0.69865555,0.6182839,1.4107481,0.642095,0.34387666,0.61568046,-0.07842603,0.06890004,1.2036743,-0.21848032,-0.089438565,0.5592412,1.4372044,-0.25941956
-0.1,-0.1,1.0999999999999999,0.5235987755982988,0.0,0,-0.69677275,0.61440253,1.4143856,0.640293,0.34821185,0.60942066,-0.086333826,0.08570939,1.2498931,0.28677097,-0.026250798,-0.3270339,1.3315496,-0.47665602
-0.1,-0.1,1.0999999999999999,0.5235987755982988,0.0,0,-0.69858724,0.62156177,1.4159855,0.64050853,0.35151073,0.6126224,-0.08729054,0.104415484,1.2284029,0.043374013,-0.023297142,0.3921943,1.4374735,-0.091358
-0.1,-0.1,1.0999999999999999,0.5235987755982988,0.0,0,-0.6984845,0.6166421,1.4125589,0.6395045,0.34907264,0.61532533,-0.08542827,0.08331664,1.2215787,-0.2977782,-0.060443927,0.114254154,1.2356193,-0.01204148
-0.1,-0.1,1.0999999999999999,0.5235987755982988,0.0,0,-0.6968343,0.6146798,1.4152462,0.63993704,0.34046233,0.6108757,-0.09346894,0.08497233,1.2393644,0.037240785,-0.041069146,0.066627875,1.2447429,0.14087458
-0.1,-0.1,1.0999999999999999,0.5235987755982988,0.0,0,-0.6990994,0.61455333,1.4136691,0.642037,0.3350908,0.6151941,-0.08308454,0.08662006,1.2300531,-0.47125527,-0.15597515,-0.20485497,1.2977805,0.17902304
-0.1,-0.1,1.0999999999999999,0.5235987755982988,0.0,0,-0.69662565,0.6220031,1.4148382,0.6414621,0.346741,0.61150014,-0.074697785,0.08277498,1.1914155,0.3801299,-0.01755196,0.3291487,1.2389529,-0.15568255
-0.1,-0.1,1.0999999999999999,0.5235987755982988,0.0,0,-0.6973618,0.61501753,1.4116402,0.639161,0.3465596,0.615562,-0.08528474,0.105592534,1.2280514,0.123102516,-0.085265554,-0.16167302,1.2699978,0.12616412
-0.1,-0.1,1.0999999999999999,0.5235987755982988,0.0,0,-0.6980277,0.61500835,1.4124794,0.63986546,0.33928412,0.6175047,-0.085308865,0.08160452,1.2066962,0.30395648,-0.09601957,-0.07156097,1.3033371,-0.19599244
-0.1,-0.1,1.0999999999999999,0.5235987755982988,0.0,0,-0.6972793,0.61859804,1.4143612,0.6401506,0.3549929,0.61450136,-0.08924048,0.07260167,1.2510494,0.21501984,-0.123096295,-0.3299848,1.2164928,0.41543403
-0.1,-0.1,1.0999999999999999,0.5235987755982988,0.0,0,-0.6978793,0.6111165,1.414284,0.6405146,0.33908755,0.61328757,-0.0585027,0.08503104,1.2332468,0.22572832,-0.04760949,0.09682204,1.3415557,-0.16270536
-0.1,-0.1,1.0999999999999999,0.5235987755982988,0.0,0,-0.69798756,0.6178407,1.4114102,0.6410208,0.34632176,0.61368835,-0.08802203,0.08561125,1.2362195,0.12195677,-0.053583194,0.0119349845,1.1552075,-0.28146756
-0.1,-0.1,1.0999999999999999,0.5235987755982988,0.0,0,-0.69791454,0.6114277,1.4169357,0.640876,0.33999267,0.615387,-0.0612287,0.10715797,1.2180424,0.2047621,-0.07684186,0.1806987,1.2972885,0.5448133
-0.1,-0.1,1.0999999999999999,0.5235987755982988,0.0,0,-0.6972402,0.6169341,1.4155746,0.6407334,0.3432443,0.6097142,-0.05564332,0.08498278,1.2053773,-0.3421228,-0.07256769,0.22226673,1.1225518,-0.60379213
-0.1,-0.1,1.0999999999999999,0.5235987755982988,0.0,0,-0.6976953,0.6147574,1.4127853,0.64131105,0.34155238,0.6115252,-0.07399534,0.08637047,1.2487334,-0.23581102,-0.102135554,-0.05016078,1.234226,-0.15431315
-0.1,-0.1,1.0999999999999999,0.5235987755982988,0.0,0,-0.6975226,0.61773777,1.4106768,0.63923514,0.3451632,0.61369336,-0.0518592,0.07090284,1.2589413,-0.28216082,-0.04332644,-0.59399265,1.2855806,-0.5504627
-0.1,-0.1,1.0999999999999999,0.5235987755982988,0.0,0,-0.6973631,0.61298937,1.4168422,0.64158005,0.33866322,0.6084922,-0.0890522,0.08281234,1.2219406,0.13532382,-0.06756207,-0.44925568,1.2507643,0.095394164
-0.1,-0.1,1.0999999999999999,0.5235987755982988,0.0,0,-0.697392,0.61603975,1.4159019,0.64179856,0.34349304,0.61205095,-0.09759525,0.10478904,1.2338547,0.1545493,-0.06812538,-0.061110478,1.3655038,0.07084027
-0.1,-0.1,1.0999999999999999,0.5235987755982988,0.0,0,-0.69723004,0.61293215,1.4141643,0.63988715,0.34096226,0.61300564,-0.058732454,0.08286678,1.2384475,0.6673671,-0.04643689,-0.50190437,1.1155052,0.3698815
-0.1,-0.1,1.0999999999999999,0.5235987755982988,0.0,0,-0.697573,0.614777,1.4167337,0.64073753,0.3393929,0.6129315,-0.056132462,0.07165441,1.2390115,0.38426635,-0.040527284,-0.062193006,1.1596112,0.21605827
-0.1,-0.1,1.0999999999999999,0.5235987755982988,0.0,0,-0.6966931,0.6141914,1.4187049,0.64099944,0.3417904,0.61713296,-0.07448509,0.08218782,1.1931692,-0.65486926,-0.06516898,0.13675918,1.0108399,-0.42032203
-0.1,-0.1,1.0999999999999999,0.5235987755982988,0.0,0,-0.69590855,0.6157007,1.4150887,0.6417575,0.3505119,0.61344135,-0.075816035,0.085453264,1.2475549,0.35581034,-0.016938565,-0.088089705,1.2785656,0.0012852915
-0.1,-0.1,1.0999999999999999,0.5235987755982988,0.0,0,-0.6964455,0.61861175,1.412744,0.63976264,0.3402602,0.61635655,-0.07810308,0.07410413,1.2434937,0.022568418,0.054168075,-0.07639953,1.3282777,-0.46241465
-0.1,-0.1,1.0999999999999999,0.5235987755982988,0.0,0,-0.6969759,0.61461943,1.4186423,0.64010966,0.34788805,0.6161671,-0.073172845,0.08399597,1.233708,0.19447044,-0.108423986,-0.19877592,1.2739816,-0.35384518
-0.1,-0.1,1.0999999999999999,0.5235987755982988,0.0,0,-0.6972992,0.6138996,1.4127884,0.64071643,0.34493664,0.6103261,-0.088321514,0.08421685,1.2379836,0.29080418,-0.14144482,-0.2267327,1.1353654,0.122764386
-0.1,-0.1,1.0999999999999999,0.5235987755982988,0.0,0,-0.69711614,0.61542434,1.4119588,0.6403069,0.34080893,0.61279017,-0.072396986,0.06846454,1.2515298,0.19621415,-0.03381082,-0.07666751,1.2413251,0.33230627
-0.1,-0.1,1.0999999999999999,0.5235987755982988,0.0,0,-0.69680333,0.6123834,1.4124207,0.6403058,0.33985588,0.61049527,-0.08616118,0.08609292,1.2417191,-0.06703575,-0.017228913,-0.4880726,1.3410639,0.2944316
-0.1,-0.1,1.0999999999999999,0.5235987755982988,0.0,0,-0.6977371,0.6174403,1.4133829,0.6405509,0.35113427,0.6129178,-0.08921486,0.08487678,1.2363757,0.20951071,-0.063800655,-0.053037994,1.3382045,0.85527045
-0.1,-0.1,1.0999999999999999,0.5235987755982988,0.0,0,-0.6977259,0.6146579,1.4168994,0.64201,0.33284187,0.61189693,-0.044702303,0.06888888,1.2179544,0.22644866,-0.020559968,0.34499505,1.3573884,-0.0036483933
-0.1,-0.1,1.0999999999999999,0.5235987755982988,0.0,0,-0.69808865,0.61402905,1.4130262,0.6407719,0.3335742,0.6150718,-0.08806891,0.0836414,1.223844,-0.17232968,-0.07180498,0.094177045,1.2022525,-0.43659377
-0.1,-0.1,1.0999999999999999,0.5235987755982988,0.0,0,-0.6993642,0.61738694,1.4164801,0.6404607,0.3474128,0.61268324,-0.07959716,0.07394757,1.2193005,0.015066278,-0.054478135,0.19561759,1.4134324,0.58332986
-0.1,-0.1,1.0999999999999999,0.5235987755982988,0.0,0,-0.6964313,0.6143904,1.4105567,0.6394577,0.34383196,0.61247116,-0.07207853,0.08408776,1.1932127,0.23571596,-0.13360368,-0.009744431,1.1594431,-0.35010543
-0.1,-0.1,1.0999999999999999,0.5235987755982988,0.0,0,-0.69760615,0.61633044,1.414519,0.6413048,0.33350226,0.6114683,-0.092127524,0.084551595,1.2479703,0.19021711,-0.098644614,0.085565165,1.2220794,0.0051389826
-0.1,-0.1,1.0999999999999999,0.5235987755982988,0.0,0,-0.69695,0.6123612,1.4115434,0.64130753,0.33620405,0.612054,-0.057440467,0.08461965,1.2159822,-0.22391334,-0.07343052,0.11036039,1.4533298,0.045853753
-0.1,-0.1,1.0999999999999999,0.5235987755982988,0.0,0,-0.6954518,0.6138219,1.414916,0.6401342,0.34505054,0.6123079,-0.06697845,0.08327421,1.2131766,0.05470793,0.009658333,-0.06852266,1.3350066,-0.45913848
-0.1,-0.1,1.0999999999999999,0.5235987755982988,0.0,0,-0.69464993,0.6139642,1.4136817,0.63953406,0.33251172,0.61234814,-0.04171936,0.085687704,1.2345691,-0.11078425,-0.028349198,-0.074185416,1.3366916,-0.22650342
-0.1,-0.1,1.0999999999999999,0.5235987755982988,0.0,0,-0.6975827,0.61772114,1.4137498,0.64120734,0.3359301,0.61547446,-0.09315914,0.0734319,1.2377656,0.27776366,-0.1004229,0.13617367,1.1798587,0.8576761
-0.1,-0.1,1.0999999999999999,0.5235987755982988,0.0,0,-0.69681346,0.6169289,1.4162058,0.6404046,0.3419495,0.61113554,-0.09050261,0.084599614,1.2142847,0.6125038,-0.06585681,-0.19588569,1.2213864,0.05000897
-0.1,-0.1,1.0999999999999999,0.5235987755982988,0.0,0,-0.6972899,0.61407214,1.414259,0.64087373,0.3461903,0.6129534,-0.07755648,0.08452128,1.2473992,-0.063242994,-0.16547261,-0.07031762,1.07693,0.03724065
-0.1,-0.1,1.0999999999999999,0.5235987755982988,0.0,0,-0.69591415,0.6178036,1.4139818,0.640456,0.342569,0.6129128,-0.087610826,0.10659157,1.2570257,-0.07745742,-0.0889592,0.1591598,1.2143686,0.3945135
-0.1,-0.1,1.0999999999999999,0.5235987755982988,0.0,0,-0.6965385,0.6100266,1.4125389,0.63878274,0.34043455,0.61439455,-0.08051992,0.085139796,1.1983323,-0.03597766,0.025296982,-0.14842516,1.3374354,-0.2948949
-0.1,-0.1,1.0999999999999999,0.5235987755982988,0.0,0,-0.6979613,0.6192931,1.4145744,0.6409324,0.35116237,0.61291915,-0.09623468,0.08375201,1.2292173,-0.17648053,-0.10253347,-0.020662138,1.4530625,-0.034224756
-0.1,-0.1,1.0999999999999999,0.5235987755982988,0.0,0,-0.69826174,0.6106901,1.4110514,0.6400279,0.3471612,0.61520857,-0.08890451,0.0839114,1.1683552,0.09076857,-0.004945675,0.11948451,1.2123984,-0.9658006
-0.1,-0.1,1.0999999999999999,0.5235987755982988,0.0,0,-0.69781846,0.61736983,1.4135959,0.64056337,0.34134838,0.60960305,-0.07776502,0.08403945,1.2363425,0.31580698,-0.087495595,-0.03942121,1.3582758,-0.08563425
-0.1,-0.1,1.0999999999999999,0.5235987755982988,0.0,0,-0.69857097,0.6194269,1.4167752,0.64039713,0.342287,0.61096144,-0.07755336,0.0712253,1.244161,-0.077833116,-0.012156322,0.1337904,1.2913554,0.5277244
-0.1,-0.1,1.0999999999999999,0.5235987755982988,0.0,0,-0.6964071,0.61456734,1.4145341,0.64122736,0.34591466,0.6131271,-0.06389322,0.08423477,1.2348207,-0.15317711,-0.1048027,-0.35510516,1.2513162,0.1050839
-0.1,-0.1,1.0999999999999999,0.5235987755982988,0.0,0,-0.6970651,0.6140784,1.4162524,0.64050144,0.3528353,0.6158311,-0.08898724,0.08647688,1.2581805,-0.0759929,-0.14697525,-0.06388585,1.2108992,0.37186342
-0.1,-0.1,1.0999999999999999,0.5235987755982988,0.0,0,-0.6969203,0.61360574,1.4202266,0.63997716,0.32749206,0.6117074,-0.079666585,0.082242794,1.2011815,0.038789693,-0.05221705,0.24875645,1.2614925,-0.23352785
-0.1,-0.1,1.0999999999999999,0.5235987755982988,0.0,0,-0.6980912,0.61082596,1.4165143,0.6401123,0.344265,0.61498684,-0.11231328,0.08435428,1.2155148,0.67267793,-0.08001124,-0.23981547,1.2689366,-0.13389154
-0.1,-0.1,1.0999999999999999,0.5235987755982988,0.0,0,-0.6983828,0.6138986,1.4143027,0.63951033,0.34531465,0.6145493,-0.08286839,0.07308425,1.2319124,-0.07137802,-0.082875736,0.06225909,1.303037,0.2089956
-0.1,-0.1,1.0999999999999999,0.5235987755982988,0.0,0,-0.69784963,0.61035144,1.4118143,0.64137876,0.33100027,0.6162234,-0.0667872,0.08448982,1.2365084,0.38666242,-0.1211273,-0.11175411,1.3609353,0.025117455
-0.1,-0.1,1.0999999999999999,0.5235987755982988,0.0,0,-0.69908965,0.61591554,1.4189848,0.640946,0.34473845,0.6179924,-0.09998764,0.08558945,1.1970204,0.06707434,-0.08520303,-0.01080405,1.2699151,-0.670063
-0.1,-0.1,1.0999999999999999,0.5235987755982988,0.0,0,-0.6979169,0.61359376,1.4165343,0.6407177,0.34559545,0.6143588,-0.0700966,0.07107937,1.240193,0.052546356,-0.03496587,0.14767659,1.32101,-0.13389592
-0.1,-0.1,1.0999999999999999,0.5235987755982988,0.0,0,-0.6961125,0.6116107,1.4152606,0.6394861,0.33855423,0.6152474,-0.08207893,0.08741843,1.2291951,-0.17503664,-0.10994171,0.22721939,1.2750221,-0.23515561
-0.1,-0.1,1.0999999999999999,0.5235987755982988,0.0,0,-0.69894123,0.61352897,1.4149868,0.6408323,0.3434557,0.6144124,-0.08395554,0.07766551,1.223714,-0.041690893,-0.118026875,0.01938516,1.1201608,0.018583577
-0.1,-0.1,1.0999999999999999,0.5235987755982988,0.0,0,-0.69636583,0.6177322,1.4146488,0.6413989,0.3452411,0.6128138,-0.081066854,0.070242874,1.2731076,0.20016706,-0.08352557,0.036423944,1.3590504,0.41090256
-0.1,-0.1,1.0999999999999999,0.5235987755982988,0.0,0,-0.6973073,0.6216583,1.41765,0.6403883,0.34009176,0.61312604,-0.08505968,0.0837043,1.1988672,-0.19840795,-0.15687943,0.09105885,1.2775062,-0.323985
-0.1,-0.1,1.0999999999999999,0.5235987755982988,0.0,0,-0.6968261,0.6156825,1.4137676,0.64052427,0.32983857,0.61473167,-0.112653546,0.08239205,1.2171619,-0.09325739,-0.10950712,-0.15654017,1.3009712,-0.088908024
-0.1,-0.1,1.0999999999999999,0.5235987755982988,0.0,0,-0.6968441,0.6134615,1.4139819,0.64095134,0.34446186,0.6152028,-0.071861826,0.083947904,1.230845,0.13803019,-0.0069452664,0.26471478,1.3143543,-0.42715603
-0.1,-0.1,1.0999999999999999,0.5235987755982988,0.0,0,-0.6980134,0.61572564,1.4161679,0.6407426,0.33293146,0.612422,-0.095802665,0.08370896,1.2071811,-0.18102872,-0.020296196,-0.109143935,1.2681749,0.38502413
-0.1,-0.1,1.0999999999999999,0.5235987755982988,0.0,0,-0.69821775,0.6149169,1.412766,0.64160305,0.34175143,0.61260897,-0.09374262,0.10862241,1.2542597,0.31574026,-0.072157554,0.05818361,1.2656919,-0.3718998
-0.1,-0.1,1.0999999999999999,0.5235987755982988,0.0,0,-0.6992602,0.61296314,1.4115335,0.63956726,0.34023404,0.61231035,-0.059350442,0.09245778,1.2198313,0.0014893793,-0.07493436,-0.09283658,1.3458997,0.424961
-0.1,-0.1,1.0999999999999999,0.5235987755982988,0.0,0,-0.6973327,0.61036986,1.4128457,0.6411347,0.35025302,0.61458224,-0.08509053,0.07126541,1.2877849,-0.029700594,-0.0074084406,-0.21760167,1.3010651,0.159347
-0.1,-0.1,1.0999999999999999,0.5235987755982988,0.0,0,-0.6967766,0.6148047,1.4150653,0.6396437,0.34565273,0.6155833,-0.076477855,0.09071701,1.2116243,-0.07266768,0.010754865,-0.04083533,1.3109002,0.13783382
-0.1,-0.1,1.0999999999999999,0.5235987755982988,0.0,0,-0.69824076,0.6102872,1.4170767,0.6410067,0.33147982,0.6126299,-0.08960504,0.08492599,1.2202616,-0.39130402,-0.12076317,-0.15633826,1.2381272,-0.21940337
-0.1,-0.1,1.0999999999999999,0.5235987755982988,0.0,0,-0.69889563,0.6165261,1.414961,0.6403642,0.33216128,0.6122333,-0.07016559,0.07655372,1.2491062,0.2424054,-0.09205862,-0.12527715,1.2067828,-0.3910685
-0.1,-0.1,1.0999999999999999,0.5235987755982988,0.0,0,-0.70080465,0.607511,1.4167464,0.6395852,0.32507992,0.60846406,-0.08896047,0.084496886,1.220212,-0.06953977,-0.121980205,-0.03777929,1.187444,0.8213633
-0.1,-0.1,1.0999999999999999,0.5235987755982988,0.0,0,-0.6969303,0.61298096,1.4169997,0.64006364,0.34682062,0.6142569,-0.069047876,0.10467629,1.261449,-0.36915272,-0.026234847,-0.18400553,1.2647853,-0.24113433
-0.1,-0.1,1.0999999999999999,0.5235987755982988,0.0,0,-0.6983386,0.62011963,1.4171492,0.6401705,0.35078585,0.61575484,-0.07240524,0.08621667,1.2257178,-0.09234784,-0.05400241,-0.16536573,1.3354921,0.24448025
-0.1,-0.1,1.0999999999999999,0.5235987755982988,0.0,0,-0.6986006,0.615707,1.4130974,0.6411967,0.33562636,0.6114583,-0.05090108,0.109270245,1.2183166,0.364023,-0.0039303144,-0.10836345,1.1653473,-0.4582402
-0.1,-0.1,1.0999999999999999,0.5235987755982988,0.0,0,-0.6975669,0.61808926,1.4161305,0.6408224,0.35429204,0.61185956,-0.092099756,0.09393395,1.232415,0.13520437,-0.03236695,-0.11877896,1.3319091,-0.014059912
-0.1,-0.1,1.0999999999999999,0.5235987755982988,0.0,0,-0.696743,0.6122618,1.4149953,0.64075977,0.33995274,0.6150189,-0.08522486,0.07441933,1.2183039,0.23820199,-0.059229568,0.048832405,1.3763615,0.97476435
-0.1,-0.1,1.0999999999999999,0.5235987755982988,0.0,0,-0.69728535,0.61639047,1.4111406,0.6391495,0.34641427,0.6140104,-0.051501963,0.0928178,1.2692955,-0.060516644,-0.06067956,-0.4298473,1.1499242,0.14996538
-0.1,-0.1,1.0999999999999999,0.5235987755982988,0.0,0,-0.6974884,0.61261624,1.4114507,0.64033365,0.33836645,0.61312854,-0.08378019,0.08610635,1.2105309,0.19654855,-0.08247313,0.15426198,1.2280484,0.5893257
-0.1,-0.1,1.0999999999999999,0.5235987755982988,0.0,0,-0.6968172,0.616899,1.4159153,0.6400227,0.34481415,0.6143611,-0.07628429,0.08359478,1.1918808,0.26616925,-0.027788848,0.024304172,1.312588,-0.062466104
-0.1,-0.1,1.0999999999999999,0.5235987755982988,0.0,0,-0.69524175,0.6202168,1.4148865,0.64108145,0.34951183,0.6135876,-0.0782656,0.082405016,1.2075379,0.08557519,-0.15467907,-0.050821967,1.3131136,0.70029014
-0.1,-0.1,1.0999999999999999,0.5235987755982988,0.0,0,-0.69653124,0.607767,1.4135319,0.64162165,0.34955302,0.6130087,-0.0696387,0.096744046,1.2621614,0.18849792,-0.08234453,-0.009365361,1.3204871,0.052845772
-0.1,-0.1,1.0999999999999999,0.5235987755982988,0.0,0,-0.6981477,0.61557525,1.4166303,0.63934565,0.344382,0.6149616,-0.09078813,0.0875501,1.2154319,0.39203566,-0.05851273,0.18482159,1.3234133,0.44460687
-0.1,-0.1,1.0999999999999999,0.5235987755982988,0.0,0,-0.69503534,0.6172107,1.4167467,0.639437,0.34357545,0.6111147,-0.11063417,0.079639494,1.2315534,0.40996936,-0.115676746,0.30997536,1.4319531,0.021556798
-0.1,-0.1,1.0999999999999999,0.5235987755982988,0.0,0,-0.6983021,0.61408937,1.4131738,0.6409899,0.34003776,0.614464,-0.0884342,0.08563354,1.2184565,-0.23788613,-0.09539916,-0.03732992,1.2426459,-0.7568248
-0.1,-0.1,1.0999999999999999,0.5235987755982988,0.0,0,-0.69670033,0.61626655,1.4158785,0.64018476,0.34499633,0.61149246,-0.09703709,0.08051265,1.2138535,0.32878077,-0.0996082,0.26037103,1.3140373,0.23165706
-0.1,-0.1,1.0999999999999999,0.5235987755982988,0.0,0,-0.69879603,0.61845404,1.4162809,0.6409278,0.34900877,0.6140548,-0.08450579,0.08813231,1.2150948,-0.19136678,-0.07616559,-0.014158482,1.2594308,-0.49983543
-0.1,-0.1,1.0999999999999999,0.5235987755982988,0.0,0,-0.6988928,0.6153676,1.4176815,0.64141047,0.3342963,0.60917586,-0.061438497,0.088912345,1.2254454,-0.3457432,-0.08205838,0.020846047,1.189967,0.38276985
-0.1,-0.1,1.0999999999999999,0.5235987755982988,0.0,0,-0.6973102,0.61167383,1.414078,0.640425,0.3387005,0.60955316,-0.08119394,0.08972562,1.225067,-0.41924265,-0.10978377,-0.050818596,1.3171662,0.2322113
-0.1,-0.1,1.0999999999999999,0.5235987755982988,0.0,0,-0.6986444,0.6116329,1.4138609,0.6397543,0.3408491,0.6083788,-0.09532071,0.11030184,1.2480928,0.18126546,-0.011623005,-0.29536712,1.1911179,0.19451901
-0.1,-0.1,1.0999999999999999,0.5235987755982988,0.0,0,-0.6990734,0.6139241,1.4144491,0.6406913,0.33108428,0.61144316,-0.08088912,0.08435836,1.2323712,0.034020755,-0.13372238,-0.21549423,1.2131445,0.3437933
-0.1,-0.1,1.0999999999999999,0.5235987755982988,0.0,0,-0.69787157,0.6117323,1.4132953,0.6409242,0.3268502,0.61055565,-0.09964581,0.10877309,1.2018484,0.5094118,0.0069337287,0.08525558,1.4975541,-0.27504697
-0.1,-0.1,1.0999999999999999,0.5235987755982988,0.0,0,-0.69893974,0.60858065,1.4156196,0.6401896,0.33408764,0.611035,-0.08178072,0.099535614,1.2199628,0.058374327,-0.0021128012,-0.0013933975,1.3934463,0.48583817
-0.1,-0.1,1.0999999999999999,0.5235987755982988,0.0,0,-0.6985303,0.61626387,1.4144633,0.64043266,0.3409458,0.610641,-0.076294616,0.09221813,1.2478429,0.06560074,-0.041167974,-0.1356304,1.27267,0.023999715
-0.1,-0.1,1.0999999999999999,0.5235987755982988,0.0,0,-0.6966611,0.6182255,1.4132365,0.63912976,0.33823657,0.6124849,-0.07187667,0.08613953,1.2264609,0.07471451,-0.056901343,-0.10512394,1.3550823,-0.093558274
-0.1,-0.1,1.0999999999999999,0.5235987755982988,0.0,0,-0.6964338,0.61822027,1.4136118,0.63967437,0.34392148,0.6124498,-0.09662394,0.07861633,1.2202576,0.12862527,-0.009007556,-0.43108633,1.0973116,0.26558644
-0.1,-0.1,1.0999999999999999,0.5235987755982988,0.0,0,-0.69754237,0.6072189,1.4136409,0.64056015,0.35705733,0.6128292,-0.05501496,0.067611225,1.2524896,-0.047120627,-0.04013218,0.17309518,1.255442,-0.62152725
-0.1,-0.1,1.0999999999999999,0.5235987755982988,0.0,0,-0.69768584,0.6140346,1.414157,0.6402013,0.3485076,0.61202043,-0.10371125,0.09087096,1.2285671,-0.25135824,-0.050489318,-0.1412072,1.3879483,-0.13765074
-0.1,-0.1,1.0999999999999999,0.5235987755982988,0.0,0,-0.69816524,0.61735773,1.4077361,0.64026207,0.3427697,0.6166759,-0.066447556,0.089886226,1.2507985,0.009578946,-0.12341429,0.25013316,1.2483616,0.1215072
-0.1,-0.1,1.0999999999999999,0.5235987755982988,0.0,0,-0.69880325,0.61252093,1.4161996,0.6407598,0.33855218,0.61291116,-0.07994906,0.080019794,1.2453213,-0.18661825,-0.08694833,-0.2442987,1.3016566,-0.873107
-0.1,-0.1,1.0999999999999999,0.5235987755982988,0.0,0,-0.69747186,0.6166316,1.4114572,0.64010155,0.33618292,0.6138496,-0.06389492,0.07687714,1.238595,-0.10439348,-0.16835436,0.108867235,1.2920984,-0.594264
-0.1,-0.1,1.0999999999999999,0.5235987755982988,0.0,0,-0.69716805,0.6126778,1.412389,0.6402731,0.3319463,0.61177915,-0.11245394,0.078570396,1.2585107,0.19996625,-0.02776039,-0.06382194,1.3277671,-0.26398993
-0.1,-0.1,1.0999999999999999,0.5235987755982988,0.0,0,-0.7003055,0.61204666,1.4170707,0.63848525,0.3400628,0.6131566,-0.07665292,0.081653565,1.2424859,0.24607979,-0.12388783,-0.3287147,1.2881938,-0.37948376
-0.1,-0.1,1.0999999999999999,0.5235987755982988,0.0,0,-0.6966141,0.6200362,1.4167584,0.63995343,0.33831304,0.61230105,-0.083325036,0.0936923,1.2507616,-0.24365954,0.015655566,0.06793739,1.2201594,-0.5545701
-0.1,-0.1,1.0999999999999999,0.5235987755982988,0.0,0,-0.69563246,0.61533785,1.4115779,0.6406351,0.34166685,0.6158477,-0.09019157,0.0926739,1.2271575,-0.22004454,-0.015818305,-0.3807329,1.3358012,0.6064043
-0.1,-0.1,1.0999999999999999,0.5235987755982988,0.0,0,-0.6979338,0.61781234,1.4142056,0.64087087,0.33709309,0.61221695,-0.06722445,0.092226274,1.2422699,-0.12389929,-0.04214433,-0.18933323,1.1619074,0.11400735
-0.1,-0.1,1.0999999999999999,0.5235987755982988,0.0,0,-0.6967474,0.61506885,1.4121714,0.6401614,0.34036532,0.6128439,-0.094366826,0.08670953,1.2167307,-0.0401091,-0.007496678,-0.5077063,1.2849792,-0.2258418
-0.1,-0.1,1.0999999999999999,0.5235987755982988,0.0,0,-0.69843894,0.616239,1.4162494,0.64202964,0.3403639,0.6096281,-0.06432087,0.07818782,1.2416165,0.29822186,-0.067690305,0.14518683,1.1959364,0.3304148
-0.1,-0.1,1.0999999999999999,0.5235987755982988,0.0,0,-0.69900435,0.6169928,1.4134883,0.6397041,0.3466891,0.61407685,-0.08400037,0.07804429,1.2093695,0.05381357,-0.0103013795,0.051476117,1.2469808,0.34721407
-0.1,-0.1,1.0999999999999999,0.5235987755982988,0.0,0,-0.69805235,0.6161116,1.415845,0.6393294,0.33406034,0.61026335,-0.06686631,0.09938308,1.2334726,0.5278147,-0.090463795,-0.109639145,1.3687078,-0.09558126
-0.1,-0.1,1.0999999999999999,0.5235987755982988,0.0,0,-0.6984308,0.61337453,1.4111284,0.6401546,0.3515545,0.6112859,-0.05185848,0.09348365,1.2387935,-0.3810017,-0.076217614,0.14136249,1.2483939,-0.30524492
-0.1,-0.1,1.0999999999999999,0.5235987755982988,0.0,0,-0.6978662,0.6130417,1.4150366,0.6411256,0.3464392,0.6145156,-0.073842116,0.09672574,1.2155967,-0.17285144,-0.12381652,-0.0044509196,1.3082439,0.3717022
-0.1,-0.1,1.0999999999999999,0.5235987755982988,0.0,0,-0.6993543,0.61450964,1.4156235,0.6403742,0.3342985,0.6084722,-0.060487818,0.09180045,1.2198527,0.22217397,-0.08216064,0.3126895,1.3373975,-0.7068355
-0.1,-0.1,1.0999999999999999,0.5235987755982988,0.0,0,-0.6978701,0.6161368,1.4147755,0.6399993,0.3343672,0.6118666,-0.08260868,0.09259616,1.2320219,0.03765512,-0.091438405,-0.303952,1.4450817,0.28803357
-0.1,-0.1,1.0999999999999999,0.5235987755982988,0.0,0,-0.6971122,0.61694866,1.412674,0.6408419,0.34027594,0.61255276,-0.07196097,0.08987489,1.2306715,0.5832693,-0.1369556,-0.17355582,1.3656534,-0.6469
-0.1,-0.1,1.0999999999999999,0.5235987755982988,0.0,0,-0.69886774,0.61825067,1.4131943,0.639638,0.35858023,0.6123308,-0.05917829,0.10656657,1.2839953,0.024103077,-0.04547759,0.18624528,1.1387328,0.7654672
-0.1,-0.1,1.0999999999999999,0.5235987755982988,0.0,0,-0.6987103,0.6146779,1.4136572,0.6414536,0.33187,0.60959595,-0.028733436,0.08636922,1.2293217,0.33889976,-0.09247747,0.043598417,1.3632941,-0.5242133
-0.1,-0.1,1.0999999999999999,0.5235987755982988,0.0,0,-0.69837725,0.61334956,1.4156264,0.6402517,0.34351557,0.6140251,-0.056734934,0.07674595,1.2472653,0.11716502,-0.00812975,-0.5087515,1.2553471,0.3806151
-0.1,-0.1,1.0999999999999999,0.5235987755982988,0.0,0,-0.6989522,0.6171247,1.4149097,0.6410753,0.34430906,0.614196,-0.05918403,0.08872696,1.2288746,0.16011457,-0.0011019938,-0.22785275,1.2133342,-0.64627886
-0.1,-0.1,1.0999999999999999,0.5235987755982988,0.0,0,-0.6996007,0.6146704,1.4125905,0.6398687,0.35707948,0.6116647,-0.08747036,0.08998995,1.2006758,-0.106933944,-0.09026426,-0.037212014,1.1971916,-0.023255391
-0.1,-0.1,1.0999999999999999,0.5235987755982988,0.0,0,-0.6957316,0.6094168,1.4134532,0.6393958,0.35439676,0.6145931,-0.062289283,0.094240144,1.259727,-0.06708159,-0.045505177,0.31972784,1.3308759,-0.3505849
-0.1,-0.1,1.0999999999999999,0.5235987755982988,0.0,0,-0.69646996,0.61115694,1.4174656,0.6402213,0.338509,0.6103821,-0.06394029,0.0897816,1.2030196,-0.049918585,-0.08563537,0.10966853,1.2772605,-0.85962945
-0.1,-0.1,1.0999999999999999,0.5235987755982988,0.0,0,-0.6951557,0.61328983,1.4145794,0.640023,0.34238547,0.6132844,-0.047808237,0.09257715,1.2575021,-0.00787303,0.04932716,0.14381452,1.2981462,-0.06437899
-0.1,-0.1,1.0999999999999999,0.5235987755982988,0.0,0,-0.6998395,0.6098539,1.41639,0.64000434,0.34272966,0.61113966,-0.06696399,0.09279082,1.2512866,0.12530565,-0.08309473,0.13235886,1.2116164,-0.14083475
-0.1,-0.1,1.0999999999999999,0.5235987755982988,0.0,0,-0.6990481,0.6079798,1.4151031,0.639114,0.33752987,0.61030275,-0.066632845,0.09942783,1.2271221,0.29270288,-0.047703292,0.123205245,1.25535,0.1568127
-0.1,-0.1,1.0999999999999999,0.5235987755982988,0.0,0,-0.6977576,0.61422426,1.4182189,0.64100945,0.34005415,0.60940784,-0.054652855,0.09624979,1.2393125,-0.63659745,0.056533314,-0.12756144,1.2298479,-0.6420914
-0.1,-0.1,1.0999999999999999,0.5235987755982988,0.0,0,-0.69858116,0.61446935,1.4130765,0.6409658,0.34611067,0.61455697,-0.072989926,0.08813869,1.229901,-0.35690117,-0.011375456,0.04540458,1.3056166,-0.48979363
-0.1,-0.1,1.0999999999999999,0.5235987755982988,0.0,0,-0.6983469,0.6120808,1.4206667,0.6397388,0.33160976,0.6154776,-0.06502788,0.080384895,1.2638459,0.12990451,-0.10617707,0.16476002,1.144374,-0.3571939
-0.1,-0.1,1.0999999999999999,0.5235987755982988,0.0,0,-0.6975366,0.6147655,1.4124638,0.63916796,0.35274637,0.6146424,-0.0673386,0.08805407,1.2087892,-0.050711524,-0.05170494,-0.0019904228,1.3690717,0.30053636
-0.1,-0.1,1.0999999999999999,0.5235987755982988,0.0,0,-0.69645256,0.61392885,1.4147304,0.6386636,0.34165084,0.60940295,-0.06531065,0.105371594,1.2593708,-0.23982605,-0.03255333,0.11446528,1.1249074,-0.17248474
-0.1,-0.1,1.0999999999999999,0.5235987755982988,0.0,0,-0.6984842,0.615068,1.4168849,0.64115566,0.3418977,0.60977,-0.045074597,0.08633216,1.2153392,-0.11532515,-0.07051958,-0.0744122,1.325656,0.030538328
-0.1,-0.1,1.0999999999999999,0.5235987755982988,0.0,0,-0.6970068,0.6152904,1.4189032,0.64124596,0.33680817,0.6099228,-0.059548568,0.09526432,1.2258621,-0.15548073,-0.05025027,-0.1821237,1.3121111,0.19466025
-0.1,-0.1,1.0999999999999999,0.5235987755982988,0.0,0,-0.6955667,0.6157334,1.4187866,0.6415943,0.35010192,0.6164994,-0.06956087,0.100634634,1.2209651,0.022183506,-0.048499312,-0.3196353,1.2707344,0.21315932
-0.1,-0.1,1.0999999999999999,0.5235987755982988,0.0,0,-0.69809896,0.61279714,1.4130435,0.641507,0.35349244,0.61182725,-0.06021848,0.08738953,1.2333705,0.5099631,-0.12572496,0.05590313,1.281288,0.1894789
-0.1,-0.1,1.0999999999999999,0.5235987755982988,0.0,0,-0.6995013,0.61066455,1.4160262,0.642147,0.3450798,0.6136526,-0.049438924,0.08732595,1.2422031,-0.28460538,-0.03591125,0.34312302,1.3483559,0.087044775
-0.1,-0.1,1.0999999999999999,0.5235987755982988,0.0,0,-0.6991253,0.6144176,1.4153874,0.63897073,0.33906886,0.6106789,-0.075232476,0.08636686,1.2130147,-0.10509586,-0.041837774,-0.41419733,1.3025017,-0.028916981
-0.1,-0.1,1.0999999999999999,0.5235987755982988,0.0,0,-0.6963263,0.6209575,1.4158293,0.6399991,0.35331103,0.61143726,-0.08200583,0.09590411,1.2055755,-0.6977622,-0.0926314,-0.32757476,1.2349051,0.40431568
-0.1,-0.1,1.0999999999999999,0.5235987755982988,0.0,0,-0.6977307,0.6149224,1.4161971,0.64015615,0.34416926,0.611777,-0.056395218,0.105311126,1.2383808,-0.18259342,-0.08351281,0.05402199,1.2724584,-0.47065365
-0.1,-0.1,1.0999999999999999,0.5235987755982988,0.0,0,-0.6992371,0.6136761,1.4156137,0.6410309,0.34064877,0.61117905,-0.06369889,0.08420031,1.2074271,-0.08815469,-0.094278455,0.07750368,1.1541553,0.13089098
-0.1,-0.1,1.0999999999999999,0.5235987755982988,0.0,0,-0.695824,0.6116434,1.4142652,0.64021665,0.3532335,0.613851,-0.07823511,0.10424524,1.2130265,0.33487085,-0.015209968,-0.3646062,1.2670605,-0.36176574
-0.1,-0.1,1.0999999999999999,0.5235987755982988,0.0,0,-0.69587857,0.6167959,1.4145888,0.6400165,0.33315584,0.6131268,-0.06753792,0.08551555,1.2182477,0.20094754,-0.071888484,-0.14455408,1.2521474,-0.3802892
-0.1,-0.1,1.0999999999999999,0.5235987755982988,0.0,0,-0.69567627,0.6126657,1.4129636,0.6395997,0.33349818,0.61302036,-0.08432685,0.08206477,1.2217466,0.4182962,-0.058892254,-0.23423718,1.2768185,-0.5186554
-0.1,-0.1,1.0999999999999999,0.5235987755982988,0.0,0,-0.69538754,0.6163405,1.4138467,0.63999057,0.34887773,0.6162136,-0.07277123,0.10168861,1.2613637,-0.14729339,-0.06570034,-0.05818497,1.2022606,0.23796056
-0.1,-0.1,1.0999999999999999,0.5235987755982988,0.0,0,-0.6983718,0.6199616,1.414612,0.64097035,0.34767774,0.6115169,-0.10796966,0.08301898,1.2189672,-0.70382386,-0.0458803,-0.1278264,1.1972219,0.10437333
-0.1,-0.1,1.0999999999999999,0.5235987755982988,0.0,0,-0.70028496,0.6115546,1.4191052,0.6412673,0.34482074,0.6131056,-0.067928195,0.08575792,1.2535753,-0.03931588,-0.027500125,-0.20846951,1.2986107,-0.4645646
-0.1,-0.1,1.0999999999999999,0.5235987755982988,0.0,0,-0.6983317,0.60901237,1.4162961,0.6411531,0.35509354,0.60888857,-0.09202038,0.09147571,1.2138,-0.09390597,-0.04498586,-0.43358952,1.1764938,-0.09443975
-0.1,-0.1,1.0999999999999999,0.5235987755982988,0.0,0,-0.70028,0.6170715,1.4125673,0.6403789,0.34222883,0.6098078,-0.053308833,0.0896575,1.2350993,0.29457,-0.060761835,-0.12643212,1.1731462,-0.15186745
-0.1,-0.1,1.0999999999999999,0.5235987755982988,0.0,0,-0.6995046,0.6168288,1.4134994,0.63910925,0.33505076,0.6139877,-0.09406976,0.09171495,1.1875185,0.051113103,-0.0056354436,-0.08530037,1.2538652,-0.5195572
-0.1,-0.1,1.0999999999999999,0.5235987755982988,0.0,0,-0.69860846,0.61253774,1.4142793,0.6406429,0.3552558,0.6095172,-0.07240326,0.09458751,1.2627501,-0.10004308,-0.080406524,0.3277344,1.1167643,-0.015513667
-0.1,-0.1,1.0999999999999999,0.5235987755982988,0.0,0,-0.6988094,0.6157874,1.4134582,0.63949305,0.346968,0.61130756,-0.06892901,0.07779079,1.2210784,0.35434198,0.0054859878,-0.15027644,1.0523245,0.65306747
-0.1,-0.1,1.0999999999999999,0.5235987755982988,0.0,0,-0.69751877,0.61648935,1.4138945,0.6384167,0.3453975,0.61179334,-0.06856925,0.10061679,1.2416109,-0.21319371,-0.002531181,-0.032873824,1.3444774,0.03839782
-0.1,-0.1,1.0999999999999999,0.5235987755982988,0.0,0,-0.6993508,0.61524165,1.4145741,0.640058,0.34123522,0.6116334,-0.06693659,0.098432794,1.2213136,-0.117359936,-0.017245872,-0.10036283,1.1884613,-0.014726756
-0.1,-0.1,1.0999999999999999,0.5235987755982988,0.0,0,-0.6990286,0.6149659,1.4163799,0.64213794,0.35580477,0.61621845,-0.12589794,0.08846842,1.2064021,0.18933472,-0.08445046,-0.06419666,1.0447578,0.62303305
-0.1,-0.1,1.0999999999999999,0.5235987755982988,0.0,0,-0.6990981,0.6121955,1.4161435,0.6406279,0.34965488,0.6165803,-0.067467995,0.08943531,1.216256,0.36020702,-0.06930612,-0.24789426,1.1860186,-0.10952383
-0.1,-0.1,1.0999999999999999,0.5235987755982988,0.0,0,-0.6974899,0.6136455,1.4160517,0.64062315,0.34522966,0.6140835,-0.060371038,0.07496466,1.254385,0.014493521,-0.057809774,-0.008978147,1.231146,0.39042705
-0.1,-0.1,1.0999999999999999,0.5235987755982988,0.0,0,-0.6984095,0.613643,1.417287,0.6417258,0.33596697,0.6131224,-0.07406206,0.082485326,1.2525265,-0.16953678,-0.14019382,-0.25270307,1.4272534,-0.21612163
-0.1,-0.1,1.0999999999999999,0.5235987755982988,0.0,0,-0.69719315,0.61919653,1.4119679,0.6410618,0.35034475,0.6112293,-0.091963135,0.10161385,1.201669,0.12494614,-0.01685651,-0.4234137,1.1966316,-0.05630155
-0.1,-0.1,1.0999999999999999,0.5235987755982988,0.0,0,-0.69812834,0.6159046,1.4160079,0.64088345,0.34044126,0.6126282,-0.077857494,0.093687356,1.2354757,0.3107597,-0.112431124,-0.15975505,1.188615,0.14805576
-0.1,-0.1,1.0999999999999999,0.5235987755982988,0.0,0,-0.6976677,0.61595213,1.4163454,0.63894045,0.3283437,0.61251974,-0.07603689,0.095003344,1.2494131,0.31859446,-0.03859453,-0.109058306,1.2222899,-0.34900254
-0.1,-0.1,1.0999999999999999,0.5235987755982988,0.0,0,-0.6996337,0.614867,1.4153581,0.64029026,0.33962688,0.61409265,-0.100771196,0.08155663,1.2170696,0.17915906,-0.054123256,-0.054915927,1.2623056,-0.80632925
-0.1,-0.1,1.0999999999999999,0.5235987755982988,0.0,0,-0.6973164,0.6146005,1.4160769,0.64003366,0.344006,0.61234564,-0.070828125,0.085443564,1.2101728,0.33089274,-0.09159436,0.29722485,1.3955338,-0.08961957
-0.1,-0.1,1.0999999999999999,0.5235987755982988,0.0,0,-0.6978551,0.6116427,1.414087,0.6396695,0.34568086,0.61152846,-0.048644416,0.10354302,1.2124944,0.31401175,0.012095931,-0.15133913,1.2404697,0.40291065
-0.1,-0.1,1.0999999999999999,0.5235987755982988,0.0,0,-0.69746363,0.6172371,1.4157251,0.6412908,0.33142874,0.6141089,-0.06818969,0.08025456,1.2191937,-0.004769462,-0.09185632,-0.12620224,1.2583922,0.0845321
-0.1,-0.1,1.0999999999999999,0.5235987755982988,0.0,0,-0.69783235,0.6143583,1.4108094,0.6411244,0.33466768,0.6127296,-0.06812525,0.08944286,1.2402306,0.19307974,-0.09287722,-0.01670038,1.3374081,-0.6082681
