sanky1234/BimanualDexCatch/isaacgymenvs/cem_results/football_pose_0.1_0.0_0.7_-0.5235987755982988_-0.5235987755982988_0_2025-05-26.csv
x,y,z,roll,pitch,yaw,robot1/joint1,robot1/joint2,robot1/joint3,robot1/joint4,robot1/joint5,robot1/joint6,robot1/joint7,robot2/joint1,robot2/joint2,robot2/joint3,robot2/joint4,robot2/joint5,robot2/joint6,robot2/joint7
0.1,0.0,0.7,-0.5235987755982988,-0.5235987755982988,0,-1.6800579,1.227939,-0.04025971,-0.14130007,-0.01223125,1.3747,-0.29646412,0.012806789,1.0428559,0.65567476,0.42429647,0.013204031,1.0309135,-0.19611315
0.1,0.0,0.7,-0.5235987755982988,-0.5235987755982988,0,-1.6851499,1.2424939,-0.044816036,-0.15366901,0.009945117,1.3686149,-0.37064046,-0.007599031,1.0392567,0.645273,0.420273,0.0046415934,1.0431532,-0.15153989
0.1,0.0,0.7,-0.5235987755982988,-0.5235987755982988,0,-1.67678,1.2403178,-0.04482791,-0.15287773,0.0091270935,1.3786831,-0.36333504,0.016291693,1.0329474,0.65509087,0.4232651,0.004702543,1.0306649,-0.34774274
0.1,0.0,0.7,-0.5235987755982988,-0.5235987755982988,0,-1.6798792,1.2504286,-0.05432396,-0.15449855,0.022575807,1.3710707,-0.37666097,0.010664759,1.0407199,0.61536735,0.4312109,0.0381926,1.0434386,-0.31590477
0.1,0.0,0.7,-0.5235987755982988,-0.5235987755982988,0,-1.6854814,1.2308537,-0.046080064,-0.14455463,0.016331472,1.3703902,-0.32041052,0.025000827,1.0372708,0.6492961,0.42617568,0.09473051,1.0522147,-0.18316928
0.1,0.0,0.7,-0.5235987755982988,-0.5235987755982988,0,-1.6828171,1.2353286,-0.046013627,-0.13883692,0.004466041,1.3815308,-0.35492593,0.026203,1.0358815,0.6424326,0.42946035,0.060801893,1.0346099,-0.20154105
0.1,0.0,0.7,-0.5235987755982988,-0.5235987755982988,0,-1.6673074,1.2392268,-0.06861328,-0.14772682,0.031296004,1.374114,-0.34003085,0.011920455,1.037258,0.67217964,0.4338893,-0.004347525,1.0548868,-0.22121564
0.1,0.0,0.7,-0.5235987755982988,-0.5235987755982988,0,-1.6675144,1.2365605,-0.043142717,-0.1467367,-0.0016233817,1.3786983,-0.29138735,0.030291595,1.0363352,0.698113,0.42016885,-0.008823795,1.0410795,-0.26305982
0.1,0.0,0.7,-0.5235987755982988,-0.5235987755982988,0,-1.6697636,1.246398,-0.048934627,-0.1479754,0.01867528,1.368165,-0.31688726,0.006899092,1.0242335,0.6940078,0.4359295,0.027598584,1.0477376,-0.19285691
0.1,0.0,0.7,-0.5235987755982988,-0.5235987755982988,0,-1.6730605,1.2450107,-0.05901234,-0.15138905,-0.004863958,1.3724242,-0.37675303,0.013953592,1.0417879,0.68590486,0.4241528,-0.042937335,1.0316556,-0.25262085
0.1,0.0,0.7,-0.5235987755982988,-0.5235987755982988,0,-1.6700734,1.2373399,-0.04650124,-0.15231302,0.006389518,1.3815258,-0.37617648,0.0030027467,1.051483,0.75881076,0.43152866,0.011328823,1.0495528,-0.32889116
0.1,0.0,0.7,-0.5235987755982988,-0.5235987755982988,0,-1.666298,1.2400147,-0.05907449,-0.15443164,0.025387678,1.3800464,-0.38667524,-0.0062458864,1.0388569,0.63800323,0.4306296,0.0072553162,1.046045,-0.20753099
0.1,0.0,0.7,-0.5235987755982988,-0.5235987755982988,0,-1.6806735,1.2445593,-0.04154541,-0.1515755,0.029063968,1.3794547,-0.3978016,0.00558442,1.0321509,0.62649345,0.4372094,0.0007003498,1.0452389,-0.12825485
0.1,0.0,0.7,-0.5235987755982988,-0.5235987755982988,0,-1.674404,1.250165,-0.036633495,-0.16042432,0.012611567,1.3726361,-0.30846676,0.01270835,1.0425202,0.6137817,0.42293894,0.06669767,1.0511842,-0.23413758
0.1,0.0,0.7,-0.5235987755982988,-0.5235987755982988,0,-1.6772262,1.241288,-0.055991556,-0.14976662,0.02604144,1.3721802,-0.4217276,0.016249346,1.043871,0.64870787,0.42558965,0.074944295,1.0444385,-0.2612037
0.1,0.0,0.7,-0.5235987755982988,-0.5235987755982988,0,-1.6720886,1.2342794,-0.06218338,-0.14496267,0.011932843,1.3707614,-0.3795667,0.015276977,1.0380348,0.6874772,0.43338257,-0.037029706,1.0428658,-0.2713623
0.1,0.0,0.7,-0.5235987755982988,-0.5235987755982988,0,-1.6723026,1.2477057,-0.022070028,-0.15496342,0.003911172,1.3765737,-0.3848226,0.012380308,1.0435706,0.6473109,0.43103713,0.08500818,1.0315884,-0.17984104
0.1,0.0,0.7,-0.5235987755982988,-0.5235987755982988,0,-1.6819458,1.2524823,-0.044006962,-0.15930949,0.012748745,1.363776,-0.35550362,0.0154644335,1.0205446,0.60562307,0.4237886,0.030992113,1.0426664,-0.21625741
0.1,0.0,0.7,-0.5235987755982988,-0.5235987755982988,0,-1.6741538,1.2438804,-0.057671662,-0.1504575,0.017645584,1.3699007,-0.31014773,0.004630396,1.0427728,0.63661313,0.42622724,0.04051058,1.0386405,-0.32200772
0.1,0.0,0.7,-0.5235987755982988,-0.5235987755982988,0,-1.6730889,1.2364851,-0.04052227,-0.14612216,0.03413583,1.3762877,-0.3757377,0.019807676,1.0417587,0.6594825,0.43387812,-0.0021660647,1.0430832,-0.21060622
0.1,0.0,0.7,-0.5235987755982988,-0.5235987755982988,0,-1.6660949,1.2336662,-0.06402515,-0.1497625,-0.016109444,1.380314,-0.29164717,0.016752549,1.0508282,0.6500632,0.43159997,0.014376675,1.0421808,-0.122732565
0.1,0.0,0.7,-0.5235987755982988,-0.5235987755982988,0,-1.6631925,1.245733,-0.037602015,-0.15174985,-0.025208699,1.3679508,-0.38769877,0.01042465,1.0298223,0.6736365,0.4194457,-0.004421212,1.05365,-0.21646509
0.1,0.0,0.7,-0.5235987755982988,-0.5235987755982988,0,-1.6818603,1.2404052,-0.047920857,-0.14801884,0.0050516203,1.3758353,-0.32588717,0.027019806,1.0346272,0.65023994,0.41764188,0.005708689,1.0244876,-0.3285007
0.1,0.0,0.7,-0.5235987755982988,-0.5235987755982988,0,-1.6734742,1.2255563,-0.035529386,-0.12905581,0.008829488,1.3663801,-0.2865668,0.02361918,1.0421915,0.66737807,0.42787567,-0.013900429,1.037043,-0.23475824
0.1,0.0,0.7,-0.5235987755982988,-0.5235987755982988,0,-1.6761919,1.2444781,-0.034581795,-0.15248846,0.010391293,1.3758447,-0.2968504,0.027366666,1.0290368,0.64874905,0.4351688,-0.03707001,1.0519736,-0.27670053
0.1,0.0,0.7,-0.5235987755982988,-0.5235987755982988,0,-1.6707615,1.2461718,-0.06891615,-0.14138082,0.007500458,1.36399,-0.3660842,0.019629315,1.0504931,0.66267586,0.42516637,0.005360555,1.036706,-0.25008062
0.1,0.0,0.7,-0.5235987755982988,-0.5235987755982988,0,-1.6838269,1.2486428,-0.0672293,-0.14884758,0.01464498,1.3774307,-0.34366035,0.015688462,1.0330939,0.60179484,0.43123308,0.05327514,1.0349613,-0.36135897
0.1,0.0,0.7,-0.5235987755982988,-0.5235987755982988,0,-1.6720631,1.2354279,-0.06799207,-0.14676405,0.020869652,1.3749478,-0.33132857,0.015008842,1.0551941,0.62754595,0.41828242,0.03560065,1.0397351,-0.3032074
0.1,0.0,0.7,-0.5235987755982988,-0.5235987755982988,0,-1.6709298,1.2408829,-0.038196735,-0.15749316,0.0015354281,1.3800887,-0.40528715,-0.006448715,1.0210695,0.6444935,0.42638007,-0.0043244814,1.055401,-0.23418081
0.1,0.0,0.7,-0.5235987755982988,-0.5235987755982988,0,-1.6839725,1.2444531,-0.07259757,-0.14590883,0.020948745,1.3808235,-0.29649234,0.014494013,1.0326489,0.6774999,0.42614517,0.015759306,1.0286282,-0.28967604
0.1,0.0,0.7,-0.5235987755982988,-0.5235987755982988,0,-1.6733843,1.249442,-0.07330007,-0.14740053,0.015283509,1.3727736,-0.3287332,0.011145477,1.0265186,0.67766565,0.4270823,0.037719093,1.040299,-0.1485093
0.1,0.0,0.7,-0.5235987755982988,-0.5235987755982988,0,-1.6802839,1.2291651,-0.061260637,-0.13568771,0.009140223,1.3808118,-0.3037525,0.0334637,1.0321448,0.6648753,0.43816733,0.022908876,1.0378293,-0.18234767
0.1,0.0,0.7,-0.5235987755982988,-0.5235987755982988,0,-1.6698601,1.2328751,-0.03584302,-0.14296532,0.01581423,1.3741294,-0.3851333,0.03090042,1.0428529,0.65522045,0.43231386,0.012901213,1.029605,-0.34031
0.1,0.0,0.7,-0.5235987755982988,-0.5235987755982988,0,-1.6720145,1.2469516,-0.05520336,-0.14940682,0.017656174,1.3634565,-0.40006718,0.010782706,1.0434246,0.6885765,0.4282716,0.072622225,1.0309656,-0.2500439
0.1,0.0,0.7,-0.5235987755982988,-0.5235987755982988,0,-1.6697428,1.2366802,-0.058548983,-0.14763506,-0.0075321323,1.3760685,-0.33748755,0.0027110053,1.0361183,0.6835138,0.4345858,0.049395427,1.0357697,-0.17225178
0.1,0.0,0.7,-0.5235987755982988,-0.5235987755982988,0,-1.674078,1.2439119,-0.027485188,-0.15012224,0.027468674,1.3675159,-0.331211,0.008407777,1.035782,0.65520436,0.43214282,0.027319029,1.0519255,-0.27075604
0.1,0.0,0.7,-0.5235987755982988,-0.5235987755982988,0,-1.6688077,1.243057,-0.05453268,-0.15204093,0.0035284082,1.3768547,-0.32019448,-0.005649987,1.0345055,0.64502656,0.4297341,0.019884307,1.0225736,-0.29748723
0.1,0.0,0.7,-0.5235987755982988,-0.5235987755982988,0,-1.6796649,1.2479436,-0.060946267,-0.15246253,0.009927381,1.3871655,-0.37810585,0.0178869,1.0398952,0.6334661,0.42375687,0.05667664,1.0454195,-0.28931922
0.1,0.0,0.7,-0.5235987755982988,-0.5235987755982988,0,-1.6590501,1.2432338,-0.039741687,-0.15182096,-0.008529311,1.370652,-0.34502003,0.00362198,1.0335985,0.6901784,0.42727175,-0.0030018932,1.0464734,-0.28916368
0.1,0.0,0.7,-0.5235987755982988,-0.5235987755982988,0,-1.6690948,1.2442393,-0.038059812,-0.13585036,0.01046858,1.3551419,-0.39759463,0.020283185,1.0396562,0.67138404,0.41904068,0.05290157,1.0447855,-0.21142839
0.1,0.0,0.7,-0.5235987755982988,-0.5235987755982988,0,-1.672642,1.2357066,-0.06928258,-0.13850053,0.023538793,1.3757459,-0.32196334,0.007855984,1.0416358,0.64536554,0.43362916,0.0350562,1.0392504,-0.21137078
0.1,0.0,0.7,-0.5235987755982988,-0.5235987755982988,0,-1.675243,1.2335074,-0.0136320805,-0.15292986,-0.023197576,1.3742112,-0.3826357,0.010946948,1.0464801,0.6352935,0.4329206,0.0025188052,1.0371383,-0.22099395
0.1,0.0,0.7,-0.5235987755982988,-0.5235987755982988,0,-1.681157,1.2398784,-0.034304727,-0.15391903,0.007986987,1.3713281,-0.34081325,0.037548795,1.030338,0.6893879,0.42326176,-0.012804497,1.0288951,-0.18740293
0.1,0.0,0.7,-0.5235987755982988,-0.5235987755982988,0,-1.6752405,1.2339325,-0.08323284,-0.14713363,0.0011608123,1.3858042,-0.37990847,0.0063757068,1.0399957,0.69503844,0.42867368,0.0011003381,1.0284139,-0.14345716
0.1,0.0,0.7,-0.5235987755982988,-0.5235987755982988,0,-1.6761379,1.2395188,-0.057377696,-0.13857211,-0.023583917,1.3798615,-0.35010284,0.027035924,1.044007,0.67685616,0.41812605,0.024322748,1.0366586,-0.16691981
0.1,0.0,0.7,-0.5235987755982988,-0.5235987755982988,0,-1.6709218,1.2381194,-0.042792335,-0.14460178,0.0074167904,1.3694382,-0.26330435,-0.004646096,1.0389175,0.6829943,0.4295599,0.009609777,1.038109,-0.279966
0.1,0.0,0.7,-0.5235987755982988,-0.5235987755982988,0,-1.663483,1.2385384,-0.06170444,-0.15266988,0.011808367,1.3763778,-0.4209225,0.00045726658,1.0429707,0.64394814,0.42561734,0.03629218,1.0471402,-0.18743162
0.1,0.0,0.7,-0.5235987755982988,-0.5235987755982988,0,-1.6721373,1.2368112,-0.035131,-0.1435926,0.02290294,1.3630553,-0.27317148,0.021921642,1.0296874,0.64380926,0.42799965,-0.00949306,1.0296452,-0.21714142
0.1,0.0,0.7,-0.5235987755982988,-0.5235987755982988,0,-1.6727678,1.234848,-0.041892767,-0.14128108,0.015516616,1.3679715,-0.3208078,-0.004360989,1.0377753,0.675144,0.43471825,0.085770465,1.0441539,-0.24841008
0.1,0.0,0.7,-0.5235987755982988,-0.5235987755982988,0,-1.6696273,1.244785,-0.07031337,-0.1581751,-0.024592604,1.3751324,-0.37746543,0.027611546,1.0402025,0.64126533,0.4307014,0.03944318,1.0362778,-0.2186098
0.1,0.0,0.7,-0.5235987755982988,-0.5235987755982988,0,-1.6813337,1.2332842,-0.06905857,-0.1501155,0.0010324327,1.3852929,-0.3559485,0.021589419,1.0274125,0.64555484,0.43237892,-0.03445391,1.0495636,-0.24958603
0.1,0.0,0.7,-0.5235987755982988,-0.5235987755982988,0,-1.680931,1.2457138,-0.04440516,-0.15326813,0.0038393897,1.3751931,-0.32978967,0.003748501,1.0455588,0.64162105,0.42385006,0.04517321,1.0411694,-0.2940524
0.1,0.0,0.7,-0.5235987755982988,-0.5235987755982988,0,-1.6868355,1.2482278,-0.06301722,-0.1510713,-0.00077242864,1.374095,-0.36505803,0.018631198,1.0313675,0.6585236,0.4258188,0.0096388245,1.0469917,-0.21819699
0.1,0.0,0.7,-0.5235987755982988,-0.5235987755982988,0,-1.6854862,1.2391235,-0.05172758,-0.15361983,0.033094324,1.3845515,-0.33647466,0.0012974759,1.0427529,0.67926514,0.41716665,0.026130538,1.0475764,-0.20659682
0.1,0.0,0.7,-0.5235987755982988,-0.5235987755982988,0,-1.6618882,1.2400776,-0.04756195,-0.13937342,0.026707295,1.3712021,-0.27489895,0.0051756506,1.0429983,0.66870594,0.4258094,-0.071905926,1.0585939,-0.16577886
0.1,0.0,0.7,-0.5235987755982988,-0.5235987755982988,0,-1.6735615,1.236605,-0.06911953,-0.14572023,-0.001474376,1.3787037,-0.35959563,0.0012414294,1.0546798,0.6454878,0.43213758,-0.029536106,1.0385345,-0.37620118
0.1,0.0,0.7,-0.5235987755982988,-0.5235987755982988,0,-1.6755121,1.2384245,-0.052306227,-0.14065513,0.005887495,1.3776937,-0.28441975,-0.0015626273,1.0311053,0.6502204,0.43593115,0.038298152,1.040999,-0.39435425
0.1,0.0,0.7,-0.5235987755982988,-0.5235987755982988,0,-1.6841873,1.2332634,-0.03778276,-0.14733402,0.018927384,1.3832109,-0.41022578,0.016464654,1.0356379,0.7033692,0.42250684,0.02552559,1.0608163,-0.26136333
0.1,0.0,0.7,-0.5235987755982988,-0.5235987755982988,0,-1.6850694,1.2383091,-0.04710954,-0.14747624,0.023046326,1.3818014,-0.3174702,0.019720351,1.037189,0.65728223,0.43405998,0.020893222,1.0531554,-0.1982232
0.1,0.0,0.7,-0.5235987755982988,-0.5235987755982988,0,-1.6728238,1.2477689,-0.049768955,-0.15451278,-0.020932183,1.3703536,-0.38469315,0.02022469,1.0359497,0.662497,0.42812288,0.03602177,1.03181,-0.2888734
0.1,0.0,0.7,-0.5235987755982988,-0.5235987755982988,0,-1.6685613,1.2434757,-0.043689784,-0.14270963,0.0029602973,1.3707218,-0.2894493,0.014543689,1.0347159,0.6322222,0.43155858,0.028547874,1.0455626,-0.2672009
0.1,0.0,0.7,-0.5235987755982988,-0.5235987755982988,0,-1.6691471,1.2385608,-0.045220993,-0.14504664,0.006562053,1.379639,-0.3584373,0.02036783,1.0496027,0.61452323,0.43207347,0.027943956,1.0394516,-0.3021285
0.1,0.0,0.7,-0.5235987755982988,-0.5235987755982988,0,-1.656392,1.239129,-0.025155727,-0.14691116,0.026069364,1.3828189,-0.41513446,0.013191835,1.0482969,0.70335156,0.42749834,0.061459832,1.0404115,-0.2604085
0.1,0.0,0.7,-0.5235987755982988,-0.5235987755982988,0,-1.6661183,1.2379322,-0.06269783,-0.150538,0.036099315,1.3822414,-0.3409484,0.023212953,1.0340036,0.6532536,0.43338403,-0.0035399247,1.0501829,-0.28391474
0.1,0.0,0.7,-0.5235987755982988,-0.5235987755982988,0,-1.6797755,1.2307973,-0.029472161,-0.13854392,0.015821893,1.3862021,-0.33391327,0.016008439,1.0336866,0.63503104,0.43269166,0.0024823688,1.0196629,-0.31989908
0.1,0.0,0.7,-0.5235987755982988,-0.5235987755982988,0,-1.659938,1.2493427,-0.058360986,-0.14941733,0.005985324,1.3664315,-0.27315402,0.0008661843,1.0338138,0.6104996,0.4338715,0.068130955,1.0751725,-0.27839926
0.1,0.0,0.7,-0.5235987755982988,-0.5235987755982988,0,-1.6807045,1.2395827,-0.04126078,-0.14655139,0.022827886,1.3669009,-0.35098445,0.013449078,1.0401489,0.66423494,0.42131191,0.014565797,1.057932,-0.14460681
0.1,0.0,0.7,-0.5235987755982988,-0.5235987755982988,0,-1.6793389,1.2216042,-0.046657607,-0.14019248,0.013355874,1.3896537,-0.40907374,0.014923695,1.0280961,0.6024205,0.4358662,0.039477464,1.0594379,-0.3155413
0.1,0.0,0.7,-0.5235987755982988,-0.5235987755982988,0,-1.6873428,1.2414111,-0.036244202,-0.14615344,0.009900493,1.3738921,-0.27940935,0.0031356108,1.0309197,0.6199891,0.42671382,0.082752846,1.0455809,-0.26518124
0.1,0.0,0.7,-0.5235987755982988,-0.5235987755982988,0,-1.6641173,1.2418865,-0.055850115,-0.14931272,0.0065714153,1.369249,-0.29669005,0.034586333,1.0316052,0.6954281,0.41698238,0.016888713,1.0453912,-0.24226305
0.1,0.0,0.7,-0.5235987755982988,-0.5235987755982988,0,-1.6737356,1.2381022,-0.05931691,-0.15053643,-0.0043285685,1.3826523,-0.36152706,0.008240109,1.0378152,0.6789031,0.4292723,-0.025101636,1.0285357,-0.27175975
0.1,0.0,0.7,-0.5235987755982988,-0.5235987755982988,0,-1.6708972,1.2389107,-0.04562544,-0.1416332,0.0013654148,1.3714707,-0.30417213,0.005238955,1.0474755,0.6226556,0.4348963,0.044862747,1.0348969,-0.13173974
0.1,0.0,0.7,-0.5235987755982988,-0.5235987755982988,0,-1.6648226,1.2352711,-0.03008637,-0.13728368,-0.006194638,1.3802332,-0.36229178,0.030667467,1.0373869,0.62372625,0.42446512,0.01774222,1.0495747,-0.1830784
0.1,0.0,0.7,-0.5235987755982988,-0.5235987755982988,0,-1.6820056,1.2323155,-0.06703612,-0.14360622,0.002228684,1.377435,-0.36446783,0.018023623,1.0467458,0.68138546,0.43304378,-0.005212755,1.0290864,-0.17862555
0.1,0.0,0.7,-0.5235987755982988,-0.5235987755982988,0,-1.6740172,1.2445707,-0.028846212,-0.15502916,0.00062184746,1.3740425,-0.39787006,0.012725199,1.0423614,0.65021765,0.42450595,0.009556479,1.0380161,-0.25132486
0.1,0.0,0.7,-0.5235987755982988,-0.5235987755982988,0,-1.6705904,1.2375472,-0.054843184,-0.14381388,0.0047630435,1.3774577,-0.30676216,0.0043904586,1.0352701,0.648866,0.427653,-0.0021458103,1.0196462,-0.23934372
0.1,0.0,0.7,-0.5235987755982988,-0.5235987755982988,0,-1.6818882,1.2393049,-0.053615104,-0.14526427,0.031575862,1.369846,-0.31655768,0.020339213,1.0388755,0.69723624,0.43425646,-0.00037330948,1.0443738,-0.20010091
0.1,0.0,0.7,-0.5235987755982988,-0.5235987755982988,0,-1.6636187,1.2470647,-0.027398067,-0.14911066,0.03030884,1.3719119,-0.33360383,0.03156644,1.0343724,0.5821652,0.42637438,0.0061735823,1.0641015,-0.21233176
0.1,0.0,0.7,-0.5235987755982988,-0.5235987755982988,0,-1.672697,1.241952,-0.04595021,-0.15291418,0.012988259,1.3821056,-0.26720738,0.013479381,1.0314056,0.67704225,0.42776072,0.016891476,1.047346,-0.30958733
0.1,0.0,0.7,-0.5235987755982988,-0.5235987755982988,0,-1.6822802,1.2365444,-0.051586565,-0.15025729,0.015531117,1.36882,-0.3567432,0.008326981,1.0309976,0.64923376,0.43208236,0.012286666,1.0478299,-0.21704629
0.1,0.0,0.7,-0.5235987755982988,-0.5235987755982988,0,-1.6644257,1.2437154,-0.05762794,-0.14562447,0.032153364,1.3669282,-0.3804948,0.024710828,1.0439997,0.68492204,0.43285382,0.045143344,1.059538,-0.23632921
0.1,0.0,0.7,-0.5235987755982988,-0.5235987755982988,0,-1.6835898,1.241595,-0.060311988,-0.1428995,0.035542812,1.3831798,-0.29526332,0.03471641,1.0195199,0.64439094,0.42484716,-0.014498509,1.0492203,-0.20249774
0.1,0.0,0.7,-0.5235987755982988,-0.5235987755982988,0,-1.6714253,1.241675,-0.0304636,-0.14797248,-0.021472197,1.3733637,-0.3769226,0.011231042,1.0567452,0.59346646,0.42520317,0.009966581,1.0492524,-0.24364534
0.1,0.0,0.7,-0.5235987755982988,-0.5235987755982988,0,-1.6806916,1.239396,-0.060665634,-0.14402819,-0.005602966,1.3715736,-0.38025978,0.02878297,1.0407593,0.6475251,0.4295958,0.078323334,1.0369586,-0.23358338
0.1,0.0,0.7,-0.5235987755982988,-0.5235987755982988,0,-1.6662525,1.2419351,-0.0453025,-0.14191847,0.008808034,1.3784776,-0.37596947,0.010192375,1.0365353,0.6328714,0.42513812,-0.02205397,1.0439354,-0.223241
0.1,0.0,0.7,-0.5235987755982988,-0.5235987755982988,0,-1.6680233,1.2470766,-0.01962216,-0.15351255,-0.02491984,1.3721815,-0.39089218,0.009220194,1.0379611,0.63078475,0.43286097,0.07324143,1.0448514,-0.2967509
0.1,0.0,0.7,-0.5235987755982988,-0.5235987755982988,0,-1.6736885,1.2376345,-0.061142482,-0.14075778,-0.0075169294,1.3838778,-0.35878566,0.015369463,1.0431956,0.67674077,0.42438298,0.012593308,1.0449057,-0.29071555
0.1,0.0,0.7,-0.5235987755982988,-0.5235987755982988,0,-1.6812726,1.2391583,-0.025617111,-0.14336687,0.008997085,1.3707435,-0.32338554,0.003699633,1.0246509,0.6048222,0.42617399,0.04114962,1.054137,-0.34245646
0.1,0.0,0.7,-0.5235987755982988,-0.5235987755982988,0,-1.6831406,1.2425574,-0.040379625,-0.15629163,0.016756104,1.3765872,-0.3463321,0.019138556,1.0434184,0.65531814,0.4226277,0.02814433,1.0363362,-0.09800593
0.1,0.0,0.7,-0.5235987755982988,-0.5235987755982988,0,-1.6807282,1.2454044,-0.019039715,-0.14001471,-0.01943183,1.3591751,-0.28352305,-0.00038525215,1.038204,0.6338605,0.41803178,0.008036557,1.0507172,-0.25864324
0.1,0.0,0.7,-0.5235987755982988,-0.5235987755982988,0,-1.6719261,1.2413847,-0.07688327,-0.14378697,0.04119461,1.3824288,-0.37966925,0.012850139,1.0356665,0.6337849,0.4292322,-0.03185315,1.0562932,-0.26858005
0.1,0.0,0.7,-0.5235987755982988,-0.5235987755982988,0,-1.6796873,1.2399995,-0.07114159,-0.14782809,0.014216251,1.3821073,-0.37701803,0.034801286,1.0274055,0.65770984,0.42145035,0.016388826,1.0476735,-0.15840308
0.1,0.0,0.7,-0.5235987755982988,-0.5235987755982988,0,-1.675399,1.2482294,-0.052624654,-0.15051107,0.02158982,1.3715544,-0.36301437,0.0033342915,1.0391796,0.6375518,0.43207505,-0.005329237,1.053687,-0.22653836
0.1,0.0,0.7,-0.5235987755982988,-0.5235987755982988,0,-1.6689744,1.2281075,-0.029145434,-0.13741766,0.01178902,1.3804873,-0.2945279,0.017593937,1.0376296,0.68071204,0.43189558,0.05363992,1.0317641,-0.18625072
0.1,0.0,0.7,-0.5235987755982988,-0.5235987755982988,0,-1.6803029,1.2382395,-0.05019638,-0.15199931,0.02169428,1.3737952,-0.35350734,0.007598899,1.0311204,0.6150107,0.42620045,0.027551638,1.0485382,-0.3035236
0.1,0.0,0.7,-0.5235987755982988,-0.5235987755982988,0,-1.6928719,1.2456146,-0.050760243,-0.1462421,-0.010417764,1.3926672,-0.2703528,0.019647008,1.0374621,0.6463801,0.41691026,0.03478956,1.0305239,-0.2424987
0.1,0.0,0.7,-0.5235987755982988,-0.5235987755982988,0,-1.6606026,1.2303996,-0.05274179,-0.13886954,-0.001176035,1.3747278,-0.3796953,0.02262378,1.0422163,0.6861132,0.4262429,0.047557324,1.057214,-0.3797372
0.1,0.0,0.7,-0.5235987755982988,-0.5235987755982988,0,-1.6636497,1.2399536,-0.054686975,-0.14420485,0.0059691817,1.3787022,-0.37815142,0.016346743,1.0268124,0.6057423,0.42353642,-0.0060583293,1.0519537,-0.1352103
0.1,0.0,0.7,-0.5235987755982988,-0.5235987755982988,0,-1.6739486,1.2461063,-0.016502203,-0.13978125,-0.008976654,1.3667657,-0.37138855,0.016675616,1.0236877,0.6588268,0.43674633,0.029941902,1.0473615,-0.25295746
0.1,0.0,0.7,-0.5235987755982988,-0.5235987755982988,0,-1.6749312,1.245537,-0.08545179,-0.15139127,-0.0016069047,1.383455,-0.34297353,0.02422389,1.0538524,0.635729,0.42349327,-0.015406986,1.0353502,-0.27446872
0.1,0.0,0.7,-0.5235987755982988,-0.5235987755982988,0,-1.6586775,1.2415715,-0.046712928,-0.14517477,0.016277187,1.3757765,-0.36573952,0.009418513,1.0509373,0.627455,0.42087045,0.018301044,1.0407737,-0.15324819
0.1,0.0,0.7,-0.5235987755982988,-0.5235987755982988,0,-1.681684,1.23838,-0.06554007,-0.14509593,0.013810879,1.379008,-0.3449288,0.0068177204,1.0552151,0.62205756,0.42786667,0.057147246,1.0381116,-0.20509565
0.1,0.0,0.7,-0.5235987755982988,-0.5235987755982988,0,-1.6664248,1.2364532,-0.03664368,-0.13923302,-0.0029958468,1.3652627,-0.36722577,-0.009815773,1.0324726,0.7007276,0.43176076,0.014217055,1.0666496,-0.19531216
0.1,0.0,0.7,-0.5235987755982988,-0.5235987755982988,0,-1.6646898,1.2421458,-0.06809335,-0.14220646,-0.022605276,1.3792652,-0.3443666,0.016942116,1.0378855,0.67850506,0.4245077,-0.0427256,1.0467678,-0.290006
0.1,0.0,0.7,-0.5235987755982988,-0.5235987755982988,0,-1.6728901,1.2380276,-0.06441571,-0.1420908,0.010667055,1.3744442,-0.31358176,0.008831103,1.0582887,0.72929806,0.43343845,0.009211697,1.0479962,-0.25290412
0.1,0.0,0.7,-0.5235987755982988,-0.5235987755982988,0,-1.6721348,1.2419215,-0.042160243,-0.15362157,0.016797898,1.3749849,-0.41718164,0.006974336,1.0333983,0.65103453,0.4413663,-0.028436733,1.0386132,-0.182359
0.1,0.0,0.7,-0.5235987755982988,-0.5235987755982988,0,-1.6799914,1.2504115,-0.05808729,-0.1427808,0.0045492374,1.3866336,-0.29530993,0.019481074,1.0532132,0.6728774,0.42634583,0.038305875,1.0344075,-0.17050323
0.1,0.0,0.7,-0.5235987755982988,-0.5235987755982988,0,-1.6660907,1.2433497,-0.062894285,-0.14376785,0.008952905,1.3746481,-0.3114709,0.013668958,1.0418341,0.67103314,0.42830515,-0.006746339,1.0527314,-0.22311927
0.1,0.0,0.7,-0.5235987755982988,-0.5235987755982988,0,-1.6763046,1.2415323,-0.045248445,-0.14725488,-0.0033515403,1.378888,-0.32542458,0.0008240845,1.0472283,0.62759024,0.42611262,0.03740259,1.0566897,-0.28314668
0.1,0.0,0.7,-0.5235987755982988,-0.5235987755982988,0,-1.6663897,1.2502081,-0.066361465,-0.14870681,0.0019163279,1.3733118,-0.3879984,0.005285753,1.0311998,0.69964296,0.43237457,0.025671395,1.0521592,-0.21292439
0.1,0.0,0.7,-0.5235987755982988,-0.5235987755982988,0,-1.6684593,1.2387078,-0.06335091,-0.15023968,0.007931445,1.3802152,-0.33611205,0.016460126,1.0251617,0.6199238,0.43641445,0.05815903,1.0529308,-0.28376827
0.1,0.0,0.7,-0.5235987755982988,-0.5235987755982988,0,-1.6683183,1.2468195,-0.060779937,-0.14624481,0.010002919,1.3750632,-0.339691,0.0132891005,1.0434647,0.69170254,0.42378464,0.025088254,1.04151,-0.13473433
0.1,0.0,0.7,-0.5235987755982988,-0.5235987755982988,0,-1.6660836,1.2433958,-0.058399085,-0.13857386,0.010015058,1.3810601,-0.31123468,0.01377492,1.0441242,0.67951375,0.42923388,-0.0021887189,1.042733,-0.21445984
0.1,0.0,0.7,-0.5235987755982988,-0.5235987755982988,0,-1.6726604,1.2381321,-0.04480693,-0.14467537,0.024050197,1.3783293,-0.35353902,0.032616843,1.0532025,0.6112126,0.43461958,-0.044467907,1.0352207,-0.2495334
0.1,0.0,0.7,-0.5235987755982988,-0.5235987755982988,0,-1.6662126,1.2461184,-0.07047939,-0.14608856,-0.019373605,1.3718014,-0.38692224,0.0070908917,1.0554447,0.6637765,0.42197132,0.012247879,1.0492234,-0.1818409
0.1,0.0,0.7,-0.5235987755982988,-0.5235987755982988,0,-1.6740899,1.2402954,-0.02070083,-0.13893898,0.011311236,1.3915458,-0.2970014,0.038167346,1.0467954,0.62612844,0.42747647,0.011732674,1.0400009,-0.20814523
0.1,0.0,0.7,-0.5235987755982988,-0.5235987755982988,0,-1.6791935,1.2424164,-0.04534718,-0.14752488,-0.0029234525,1.3713387,-0.3070565,0.016472017,1.0288643,0.6569638,0.4155781,-0.00847912,1.0410914,-0.26467192
0.1,0.0,0.7,-0.5235987755982988,-0.5235987755982988,0,-1.6716377,1.2510294,-0.023653405,-0.15366344,0.027547784,1.3795311,-0.3641832,0.027952256,1.045485,0.6427554,0.4222327,0.040336296,1.0313439,-0.19364947
0.1,0.0,0.7,-0.5235987755982988,-0.5235987755982988,0,-1.6814014,1.2382932,-0.048629593,-0.15061034,-0.0025838446,1.3735998,-0.33266953,0.010225534,1.0466864,0.6508903,0.42731923,0.056891393,1.0205642,-0.20944273
0.1,0.0,0.7,-0.5235987755982988,-0.5235987755982988,0,-1.6705021,1.2329077,-0.053774625,-0.14260338,0.0064319707,1.3786175,-0.36394626,0.035088915,1.0379808,0.6799832,0.42437673,0.021569166,1.0462537,-0.27027953
0.1,0.0,0.7,-0.5235987755982988,-0.5235987755982988,0,-1.6748717,1.2443776,-0.061400007,-0.14915125,0.028636675,1.3680214,-0.37446412,-0.002621362,1.0357004,0.6240133,0.43715176,-0.007789426,1.0546117,-0.18771665
0.1,0.0,0.7,-0.5235987755982988,-0.5235987755982988,0,-1.6696293,1.2439297,-0.03124091,-0.14082819,0.03794209,1.3752484,-0.32368937,0.014414853,1.0253042,0.675832,0.41528326,0.0076637254,1.0629011,-0.24811608
0.1,0.0,0.7,-0.5235987755982988,-0.5235987755982988,0,-1.6836574,1.2493418,-0.051297918,-0.13538548,0.027051872,1.3749822,-0.3333052,0.0180981,1.0437524,0.68554634,0.4257753,0.04719973,1.0528893,-0.3275776
0.1,0.0,0.7,-0.5235987755982988,-0.5235987755982988,0,-1.6795218,1.2539254,-0.022743551,-0.15575357,0.026264252,1.3832492,-0.34210235,0.016380955,1.0593399,0.67526203,0.41824406,-0.0007801508,1.0501697,-0.32894945
0.1,0.0,0.7,-0.5235987755982988,-0.5235987755982988,0,-1.6789997,1.229986,-0.0443011,-0.1290063,-0.021521663,1.3801799,-0.35201803,0.026949968,1.0588112,0.64370674,0.41802317,0.078862086,1.0596622,-0.24502526
0.1,0.0,0.7,-0.5235987755982988,-0.5235987755982988,0,-1.6652709,1.235959,-0.03827161,-0.14987339,0.011527043,1.3824105,-0.36604014,0.01594446,1.0459205,0.6233601,0.42818806,0.023504648,1.0397002,-0.24914102
0.1,0.0,0.7,-0.5235987755982988,-0.5235987755982988,0,-1.6842324,1.235583,-0.04757682,-0.14651592,0.007476897,1.3858128,-0.33936086,0.014049317,1.0330046,0.6459742,0.4159201,0.072897814,1.0460575,-0.23519515
0.1,0.0,0.7,-0.5235987755982988,-0.5235987755982988,0,-1.6737598,1.2459552,-0.04205595,-0.15908928,0.008369919,1.3686467,-0.37547147,-0.014279179,1.0282872,0.63558656,0.4259067,0.0132194515,1.0607802,-0.21983977
0.1,0.0,0.7,-0.5235987755982988,-0.5235987755982988,0,-1.6813302,1.2491977,-0.0672096,-0.14605491,-0.0078057735,1.3665766,-0.29989645,0.036776565,1.0542005,0.6439508,0.41407046,0.068360135,1.0455172,-0.29681236
0.1,0.0,0.7,-0.5235987755982988,-0.5235987755982988,0,-1.6653256,1.2543269,-0.059105493,-0.14094844,0.013244501,1.361627,-0.29862893,0.014023425,1.0295515,0.68748057,0.4250584,-0.00014253205,1.0441911,-0.3362056
0.1,0.0,0.7,-0.5235987755982988,-0.5235987755982988,0,-1.6734685,1.2455504,-0.041919652,-0.15455936,-0.0061639026,1.3756068,-0.29948843,0.023806622,1.0461171,0.6582585,0.42226833,0.05270751,1.0478123,-0.2270509
0.1,0.0,0.7,-0.5235987755982988,-0.5235987755982988,0,-1.6766607,1.2311391,-0.05583321,-0.14535211,0.018877035,1.3950703,-0.32754523,0.026769202,1.0240151,0.7219312,0.42822298,-0.02346077,1.0563433,-0.2652355
0.1,0.0,0.7,-0.5235987755982988,-0.5235987755982988,0,-1.6812415,1.2458674,-0.07915249,-0.14748465,0.023159184,1.3739586,-0.3962442,-0.0069393353,1.027818,0.64132214,0.4278763,-0.001093461,1.0532411,-0.15826304
0.1,0.0,0.7,-0.5235987755982988,-0.5235987755982988,0,-1.6620741,1.2323941,-0.076360874,-0.14471453,-0.008405536,1.3805962,-0.33991322,0.015499795,1.0533433,0.6436268,0.4378545,-0.0073142755,1.0520523,-0.19102177
0.1,0.0,0.7,-0.5235987755982988,-0.5235987755982988,0,-1.6719979,1.2492788,-0.04638398,-0.13655743,0.013839497,1.3720084,-0.3481468,0.008023653,1.0473038,0.6156643,0.42614663,0.037807144,1.0519135,-0.20285703
0.1,0.0,0.7,-0.5235987755982988,-0.5235987755982988,0,-1.6738033,1.2430308,-0.04694646,-0.15313542,0.017822947,1.3795929,-0.3971371,0.024157273,1.0282536,0.6204658,0.41835412,0.017171668,1.0410061,-0.33643034
0.1,0.0,0.7,-0.5235987755982988,-0.5235987755982988,0,-1.6835985,1.2398851,-0.06850501,-0.15117204,0.01223093,1.3773924,-0.28117833,-0.00026713198,1.0186644,0.67304265,0.4267771,0.043380246,1.0602611,-0.15850236
0.1,0.0,0.7,-0.5235987755982988,-0.5235987755982988,0,-1.676427,1.2415888,-0.056428336,-0.14277196,-0.026850194,1.370017,-0.2963863,0.018302312,1.0334827,0.6486396,0.42655218,0.037330996,1.0447804,-0.18783332
0.1,0.0,0.7,-0.5235987755982988,-0.5235987755982988,0,-1.6750486,1.2386147,-0.05541703,-0.13571559,-0.0154772615,1.3710804,-0.38594162,0.03203972,1.0367247,0.6684355,0.4291813,-0.034185715,1.0391238,-0.1782895
0.1,0.0,0.7,-0.5235987755982988,-0.5235987755982988,0,-1.664169,1.255157,-0.043972965,-0.1459668,-0.00070595165,1.3943613,-0.26339415,0.027990725,1.0185726,0.6353001,0.42497668,0.00673377,1.0211439,-0.28343272
0.1,0.0,0.7,-0.5235987755982988,-0.5235987755982988,0,-1.6827011,1.2431986,-0.031329002,-0.15158953,0.02487585,1.3811101,-0.40982598,0.017038114,1.0401222,0.61777985,0.4324983,0.04521142,1.036026,-0.15014128
0.1,0.0,0.7,-0.5235987755982988,-0.5235987755982988,0,-1.6817658,1.2399797,-0.03588949,-0.14975993,-0.007852363,1.3665161,-0.35144696,0.015472389,1.0370672,0.62951225,0.42371005,0.06600486,1.0445498,-0.16207738
0.1,0.0,0.7,-0.5235987755982988,-0.5235987755982988,0,-1.6729012,1.2495444,-0.057167508,-0.15747118,0.03693777,1.3763367,-0.33404085,0.014588322,1.0432397,0.6341481,0.41982362,0.022996033,1.0595548,-0.24039845
0.1,0.0,0.7,-0.5235987755982988,-0.5235987755982988,0,-1.672747,1.2363294,-0.04379828,-0.13978222,0.02389875,1.3658532,-0.32070026,-0.0071826917,1.040417,0.64766306,0.440538,0.025445893,1.026027,-0.31412813
0.1,0.0,0.7,-0.5235987755982988,-0.5235987755982988,0,-1.6775122,1.2358167,-0.06155034,-0.14708592,0.0091315,1.3926969,-0.3735817,0.003869981,1.0457829,0.64162165,0.41197,0.039127585,1.0533065,-0.24276738
0.1,0.0,0.7,-0.5235987755982988,-0.5235987755982988,0,-1.671717,1.2489262,-0.041186392,-0.1449202,0.0011087193,1.3754021,-0.33063644,0.012106074,1.0485462,0.6284134,0.4188685,0.029619586,1.0647582,-0.33914363
0.1,0.0,0.7,-0.5235987755982988,-0.5235987755982988,0,-1.6764683,1.2472532,-0.06463327,-0.14990054,0.017858231,1.3786743,-0.33642706,0.021947714,1.0388592,0.66577315,0.43610638,-0.008127993,1.028724,-0.27134854
0.1,0.0,0.7,-0.5235987755982988,-0.5235987755982988,0,-1.6774412,1.2338723,-0.044470306,-0.1426292,-0.011047508,1.3747044,-0.41117203,0.020129751,1.0435824,0.7043877,0.4194911,-0.0051364372,1.056376,-0.11011521
0.1,0.0,0.7,-0.5235987755982988,-0.5235987755982988,0,-1.669539,1.2305955,-0.050563358,-0.14174533,0.0069993767,1.3669773,-0.3522641,0.013993821,1.0279946,0.64154375,0.4277857,0.024047302,1.0432181,-0.19417112
0.1,0.0,0.7,-0.5235987755982988,-0.5235987755982988,0,-1.6701435,1.2417824,-0.043993685,-0.149059,0.011434583,1.3762345,-0.3674734,0.006200388,1.0295047,0.63939214,0.42906561,0.0057574324,1.0365179,-0.24021646
0.1,0.0,0.7,-0.5235987755982988,-0.5235987755982988,0,-1.673527,1.2425451,-0.03423012,-0.14583507,0.00042309996,1.3786474,-0.3142527,0.015600617,1.0343648,0.6296227,0.43383726,-0.016991839,1.0315577,-0.18962935
0.1,0.0,0.7,-0.5235987755982988,-0.5235987755982988,0,-1.6777179,1.2392113,-0.06039118,-0.14356448,0.015716253,1.3741144,-0.34447637,0.01483442,1.0431533,0.64480317,0.42852086,0.01632595,1.0464319,-0.26919654
0.1,0.0,0.7,-0.5235987755982988,-0.5235987755982988,0,-1.6818894,1.2337447,-0.048220895,-0.14548846,-0.01997184,1.3732382,-0.36355576,0.026125047,1.0399617,0.65512615,0.43393382,0.03224926,1.0471214,-0.3351188
0.1,0.0,0.7,-0.5235987755982988,-0.5235987755982988,0,-1.6734682,1.2469505,-0.058145728,-0.14564155,-0.02990303,1.381888,-0.35564622,-0.0045906147,1.0468459,0.6789494,0.43054226,0.011614742,1.0374243,-0.25837007
0.1,0.0,0.7,-0.5235987755982988,-0.5235987755982988,0,-1.6769862,1.2397695,-0.04564134,-0.14875433,0.015570999,1.3652555,-0.34522265,0.014398495,1.0381585,0.63277155,0.43181401,0.0444728,1.025489,-0.21706255
0.1,0.0,0.7,-0.5235987755982988,-0.5235987755982988,0,-1.6752449,1.2515843,-0.060143024,-0.14646105,0.006385577,1.3694485,-0.3548083,0.052212503,1.0475532,0.66744256,0.40564835,-0.040787704,1.0454714,-0.24751374
0.1,0.0,0.7,-0.5235987755982988,-0.5235987755982988,0,-1.6818382,1.2444935,-0.06700377,-0.14500225,0.024679152,1.3714746,-0.32641286,0.009560575,1.0459801,0.6820501,0.42031407,0.06861614,1.0518385,-0.22529924
0.1,0.0,0.7,-0.5235987755982988,-0.5235987755982988,0,-1.6720283,1.2446144,-0.08108444,-0.15728296,0.0006035505,1.3689854,-0.41943055,0.01091686,1.0402907,0.6823475,0.42668357,0.050019674,1.0502136,-0.2750887
0.1,0.0,0.7,-0.5235987755982988,-0.5235987755982988,0,-1.6709237,1.2396013,-0.026909782,-0.14404774,0.0029963641,1.3597634,-0.31361362,0.007145478,1.0324281,0.6364216,0.43067953,0.04606802,1.0439122,-0.29848608
0.1,0.0,0.7,-0.5235987755982988,-0.5235987755982988,0,-1.6683809,1.2437114,-0.063854724,-0.14781544,-0.00512344,1.3781931,-0.34948894,0.017111389,1.0536414,0.66743726,0.4241419,0.04628671,1.0161431,-0.26517394
0.1,0.0,0.7,-0.5235987755982988,-0.5235987755982988,0,-1.6878397,1.2331951,-0.06664279,-0.13812579,0.015618215,1.373367,-0.37619922,0.0052774153,1.044999,0.6341679,0.43129972,0.01263938,1.0291098,-0.3112489
0.1,0.0,0.7,-0.5235987755982988,-0.5235987755982988,0,-1.6820222,1.2407986,-0.03327961,-0.14474,0.011377092,1.3678694,-0.35138363,-0.006373047,1.0296438,0.6638413,0.43067995,-0.0031532831,1.0455952,-0.22604083
0.1,0.0,0.7,-0.5235987755982988,-0.5235987755982988,0,-1.684814,1.2412162,-0.06691441,-0.15582801,0.014048309,1.3731519,-0.38097757,0.017099941,1.030274,0.6587759,0.4212891,0.017037718,1.0420212,-0.08543434
0.1,0.0,0.7,-0.5235987755982988,-0.5235987755982988,0,-1.6717935,1.2455015,-0.03759906,-0.14464878,-0.033541277,1.3815603,-0.40186673,0.0302677,1.0241143,0.6372531,0.4233449,-0.008137287,1.0413084,-0.27043104
0.1,0.0,0.7,-0.5235987755982988,-0.5235987755982988,0,-1.6580652,1.2454587,-0.07412939,-0.14741303,0.008625552,1.3684576,-0.33743155,0.01675017,1.0293576,0.6702097,0.42817655,-0.015696602,1.0575947,-0.21867779
0.1,0.0,0.7,-0.5235987755982988,-0.5235987755982988,0,-1.6875129,1.2412469,-0.021506332,-0.13862313,0.023246182,1.3636627,-0.3472681,0.0031131385,1.0334262,0.6822275,0.4280873,0.10106862,1.0522,-0.18507442
0.1,0.0,0.7,-0.5235987755982988,-0.5235987755982988,0,-1.6674503,1.2494044,-0.02790289,-0.14969546,-0.026506927,1.3724983,-0.3358034,-0.013391477,1.0372725,0.6409332,0.425063,0.050026953,1.0427792,-0.22017689
0.1,0.0,0.7,-0.5235987755982988,-0.5235987755982988,0,-1.6943169,1.240478,-0.061657064,-0.1494053,0.010872308,1.3656416,-0.40098822,0.012503585,1.0406365,0.6711133,0.41997105,-0.0030462625,1.0497495,-0.24157172
0.1,0.0,0.7,-0.5235987755982988,-0.5235987755982988,0,-1.6760215,1.243814,-0.06514913,-0.14168744,0.0039502885,1.3767848,-0.41768554,0.024730667,1.0364285,0.6556412,0.4187691,-0.006507127,1.0492092,-0.2817767
0.1,0.0,0.7,-0.5235987755982988,-0.5235987755982988,0,-1.6785637,1.2344313,-0.062002834,-0.14038764,0.0127729,1.3714329,-0.33850828,0.018983126,1.036988,0.64532566,0.4306398,0.031846244,1.0476731,-0.19796114
0.1,0.0,0.7,-0.5235987755982988,-0.5235987755982988,0,-1.6595299,1.2467939,-0.043117937,-0.15117781,-0.030183261,1.3786802,-0.33832017,0.021460285,1.0376042,0.6371171,0.4261442,0.079916365,1.0215639,-0.18556537
0.1,0.0,0.7,-0.5235987755982988,-0.5235987755982988,0,-1.6617637,1.2380853,-0.062257595,-0.14194328,-0.00434668,1.3841,-0.33989647,0.007975967,1.0338908,0.71149576,0.43018702,0.030582333,1.0533873,-0.18719575
0.1,0.0,0.7,-0.5235987755982988,-0.5235987755982988,0,-1.6674434,1.2463714,-0.038686782,-0.14426851,-0.0010333554,1.3732466,-0.31855056,0.015809808,1.0417507,0.64447397,0.4253511,0.010191105,1.0624466,-0.28025746
0.1,0.0,0.7,-0.5235987755982988,-0.5235987755982988,0,-1.6842052,1.2559016,-0.06410666,-0.14477333,-0.029271984,1.3719503,-0.2786007,0.02676179,1.0296997,0.6758437,0.41774917,0.05440134,1.0294119,-0.35682458
0.1,0.0,0.7,-0.5235987755982988,-0.5235987755982988,0,-1.6741744,1.2458806,-0.068145856,-0.14823535,-0.010821193,1.3862954,-0.3433387,0.009245296,1.0314434,0.6613894,0.42467168,0.01978063,1.0457906,-0.24420819
0.1,0.0,0.7,-0.5235987755982988,-0.5235987755982988,0,-1.6874735,1.2468512,-0.031948596,-0.14979228,0.016277134,1.3742398,-0.43544585,0.017334983,1.0331448,0.6330041,0.43614548,0.0054756645,1.0524232,-0.24362913
0.1,0.0,0.7,-0.5235987755982988,-0.5235987755982988,0,-1.6795908,1.2338494,-0.016433062,-0.14447862,-0.025121288,1.3848126,-0.3984681,0.021548195,1.052238,0.6422625,0.42210186,0.0069520287,1.0336204,-0.24911195
0.1,0.0,0.7,-0.5235987755982988,-0.5235987755982988,0,-1.6712233,1.2430843,-0.06466385,-0.13990566,0.0038817113,1.3785994,-0.36237672,0.011208737,1.0365707,0.6495547,0.43530262,0.020828197,1.035376,-0.12980872
0.1,0.0,0.7,-0.5235987755982988,-0.5235987755982988,0,-1.6743687,1.2353287,-0.046086624,-0.13428643,0.02171745,1.3764852,-0.34008744,0.018602042,1.0445783,0.64540946,0.42735463,0.0008918792,1.0533448,-0.22919834
0.1,0.0,0.7,-0.5235987755982988,-0.5235987755982988,0,-1.6894971,1.2477477,-0.040351972,-0.14134887,0.052302286,1.3785905,-0.33374962,0.0046617067,1.0382202,0.67747253,0.41689277,0.011392601,1.0512393,-0.26902345
0.1,0.0,0.7,-0.5235987755982988,-0.5235987755982988,0,-1.6713694,1.2431432,-0.034692965,-0.1381496,0.0031368523,1.3835738,-0.39728144,0.027069766,1.0410393,0.65646535,0.43117172,0.036060587,1.0486884,-0.3059073
0.1,0.0,0.7,-0.5235987755982988,-0.5235987755982988,0,-1.6673257,1.2511193,-0.032696538,-0.14875078,-0.00077304884,1.3728242,-0.34559265,0.021017782,1.0352175,0.5859822,0.42435038,0.035751972,1.0509707,-0.32841957
0.1,0.0,0.7,-0.5235987755982988,-0.5235987755982988,0,-1.6620964,1.2421896,-0.053371668,-0.13891666,0.012821286,1.3789787,-0.34705028,0.004160148,1.0358145,0.6461067,0.42375192,0.011467194,1.0554674,-0.22200455
0.1,0.0,0.7,-0.5235987755982988,-0.5235987755982988,0,-1.677675,1.2447377,-0.07550084,-0.15088677,0.014581436,1.375459,-0.4086471,0.028269483,1.0283363,0.65713656,0.42833537,-0.02322264,1.0418345,-0.12071259
0.1,0.0,0.7,-0.5235987755982988,-0.5235987755982988,0,-1.6778232,1.2434666,-0.061021306,-0.13929673,0.009700598,1.3829023,-0.39673355,-0.017002597,1.0480567,0.6722147,0.43601435,-0.0021815794,1.044445,-0.1525335
0.1,0.0,0.7,-0.5235987755982988,-0.5235987755982988,0,-1.68129,1.2384894,-0.072950445,-0.14265893,-0.02192587,1.3729974,-0.32532445,-0.004397671,1.0449375,0.6318164,0.42089862,0.010641067,1.0403621,-0.2507693
0.1,0.0,0.7,-0.5235987755982988,-0.5235987755982988,0,-1.681192,1.2396523,-0.04251457,-0.13771501,0.0286518,1.3732915,-0.39876705,0.000965812,1.0465921,0.64043677,0.4352701,-0.028228808,1.0280157,-0.16145705
0.1,0.0,0.7,-0.5235987755982988,-0.5235987755982988,0,-1.6730324,1.2373691,-0.07049988,-0.14268798,0.014247566,1.3727256,-0.3435837,0.012074769,1.04282,0.6531359,0.43399882,0.033649962,1.0420583,-0.14508721
0.1,0.0,0.7,-0.5235987755982988,-0.5235987755982988,0,-1.6671478,1.2427955,-0.040622026,-0.14851032,-0.007847256,1.3813255,-0.37349316,0.017390102,1.0528005,0.70810145,0.41961128,0.029917063,1.040119,-0.3934088
0.1,0.0,0.7,-0.5235987755982988,-0.5235987755982988,0,-1.6773022,1.2304384,-0.035114437,-0.12860723,0.009332175,1.3748786,-0.39096352,0.013323168,1.0695438,0.63150674,0.4187663,0.055261903,1.0571325,-0.24526167
0.1,0.0,0.7,-0.5235987755982988,-0.5235987755982988,0,-1.687447,1.2441885,-0.039984744,-0.1569872,0.0056028366,1.3837827,-0.34233302,0.018449565,1.0333958,0.6439765,0.42227384,0.011163225,1.0535265,-0.24088416
0.1,0.0,0.7,-0.5235987755982988,-0.5235987755982988,0,-1.6772308,1.2382832,-0.056305867,-0.14691354,0.020539893,1.3841203,-0.38257256,0.034829963,1.0336027,0.6625795,0.4173862,-0.035713505,1.0397208,-0.2226746
0.1,0.0,0.7,-0.5235987755982988,-0.5235987755982988,0,-1.6725013,1.2364885,-0.051140014,-0.13877517,0.012762691,1.3812516,-0.33637553,0.022746984,1.0349978,0.67568016,0.43015912,0.039179206,1.0238882,-0.3052556
0.1,0.0,0.7,-0.5235987755982988,-0.5235987755982988,0,-1.6664755,1.24198,-0.013146582,-0.13807991,0.04409398,1.3852417,-0.37708172,0.028050436,1.0277197,0.6539087,0.42377687,0.019466236,1.0412565,-0.1595512
0.1,0.0,0.7,-0.5235987755982988,-0.5235987755982988,0,-1.671364,1.2363617,-0.048108425,-0.142318,-0.00044167106,1.3765881,-0.31145784,0.017694559,1.0390095,0.64311224,0.43003806,-0.0009965388,1.0368537,-0.30230412
0.1,0.0,0.7,-0.5235987755982988,-0.5235987755982988,0,-1.671476,1.2519715,-0.03553502,-0.13999742,0.024214355,1.3810632,-0.35359952,-0.005495477,1.03287,0.67159635,0.42629993,0.078269094,1.0634383,-0.21236612
0.1,0.0,0.7,-0.5235987755982988,-0.5235987755982988,0,-1.675254,1.2325242,-0.03652187,-0.14364095,-0.008368273,1.3792862,-0.40171072,0.011987426,1.0457666,0.62693346,0.43431535,0.025818963,1.0412767,-0.18776311
0.1,0.0,0.7,-0.5235987755982988,-0.5235987755982988,0,-1.6717005,1.2481064,-0.036526415,-0.14170751,0.0015952095,1.3710271,-0.39091587,-0.0031870953,1.0326829,0.61525446,0.4336004,0.014521942,1.0488516,-0.19398318
0.1,0.0,0.7,-0.5235987755982988,-0.5235987755982988,0,-1.6839213,1.251297,-0.046438284,-0.14749168,0.01768656,1.3771778,-0.35781768,0.03715438,1.0498207,0.643981,0.4152075,0.034702495,1.0489486,-0.14190423
0.1,0.0,0.7,-0.5235987755982988,-0.5235987755982988,0,-1.6793568,1.2438061,-0.07066375,-0.14443095,0.02981838,1.3741986,-0.3803969,0.014438728,1.0358367,0.6230194,0.42511806,0.016696936,1.0595628,-0.26090217
0.1,0.0,0.7,-0.5235987755982988,-0.5235987755982988,0,-1.6645776,1.2368718,-0.037029732,-0.14075105,-0.009304734,1.3772545,-0.34892282,0.00916577,1.0398654,0.68057686,0.42880237,0.044297792,1.024551,-0.31291872
0.1,0.0,0.7,-0.5235987755982988,-0.5235987755982988,0,-1.6675677,1.2476219,-0.048683543,-0.15137838,0.018546406,1.3734559,-0.39987406,0.0020228762,1.0306557,0.6715813,0.42690587,-0.012145147,1.048254,-0.26399323
0.1,0.0,0.7,-0.5235987755982988,-0.5235987755982988,0,-1.6691574,1.238565,-0.07759315,-0.14893277,-0.022892093,1.3798653,-0.32726803,0.0064009735,1.0374279,0.65970683,0.43308723,0.019872895,1.048657,-0.2442395
0.1,0.0,0.7,-0.5235987755982988,-0.5235987755982988,0,-1.6860484,1.2422786,-0.06454848,-0.1449489,0.0010186012,1.3714623,-0.35811737,0.0006595399,1.0351057,0.6465262,0.42936897,0.013140065,1.0581658,-0.3093108
0.1,0.0,0.7,-0.5235987755982988,-0.5235987755982988,0,-1.6761271,1.239268,-0.05298759,-0.14831269,0.024114963,1.3781182,-0.3970383,0.014415047,1.0381916,0.64834064,0.42535356,-0.019358382,1.0614176,-0.24995145
0.1,0.0,0.7,-0.5235987755982988,-0.5235987755982988,0,-1.6672567,1.2448716,-0.04913974,-0.14691494,0.036965713,1.3707767,-0.30707562,0.035558358,1.0379204,0.6657092,0.42620775,-0.025805509,1.0471996,-0.17359063
0.1,0.0,0.7,-0.5235987755982988,-0.5235987755982988,0,-1.6748124,1.2443563,-0.053674374,-0.14796595,-0.00033636193,1.3781495,-0.3274406,0.029830083,1.042012,0.6488609,0.42060006,-0.015531821,1.0311545,-0.26109013
0.1,0.0,0.7,-0.5235987755982988,-0.5235987755982988,0,-1.6784972,1.2329181,-0.03809785,-0.13860731,0.00026955287,1.3809209,-0.30502737,0.022949863,1.0352776,0.6534876,0.431558,-0.011873726,1.0307249,-0.24854332
0.1,0.0,0.7,-0.5235987755982988,-0.5235987755982988,0,-1.665337,1.229495,-0.052723132,-0.1373023,0.0038420842,1.3820902,-0.3549109,0.0023665118,1.0394758,0.641454,0.43005738,0.032454476,1.0416365,-0.1746122
0.1,0.0,0.7,-0.5235987755982988,-0.5235987755982988,0,-1.672535,1.2411729,-0.03656274,-0.14657804,0.0072729564,1.3798541,-0.37958306,0.004315062,1.021128,0.64307797,0.41977784,0.011291241,1.0569801,-0.26747614
0.1,0.0,0.7,-0.5235987755982988,-0.5235987755982988,0,-1.6787312,1.2398531,-0.04162902,-0.1450828,-0.0039591165,1.3735547,-0.34341782,0.010271629,1.040543,0.67004675,0.4359154,0.07592611,1.0572922,-0.21668388
0.1,0.0,0.7,-0.5235987755982988,-0.5235987755982988,0,-1.6785483,1.2406306,-0.055117685,-0.14024036,0.006986502,1.3820212,-0.35052934,0.020227004,1.0521379,0.6737455,0.41924828,0.013327361,1.0405993,-0.26617506
0.1,0.0,0.7,-0.5235987755982988,-0.5235987755982988,0,-1.6682663,1.234581,-0.015773956,-0.13678558,0.048215926,1.3656436,-0.34044424,0.0098094735,1.0388324,0.67405695,0.420258,-0.00093474676,1.031253,-0.26228455
0.1,0.0,0.7,-0.5235987755982988,-0.5235987755982988,0,-1.6781639,1.2308578,-0.058883928,-0.13632327,0.025428463,1.3633478,-0.34753346,0.01359645,1.0410498,0.6238657,0.42530653,0.06411312,1.0325226,-0.2151242
0.1,0.0,0.7,-0.5235987755982988,-0.5235987755982988,0,-1.6680056,1.228356,-0.033634078,-0.13534008,-0.011907969,1.387738,-0.35930547,-0.0015925892,1.042164,0.66347295,0.43543878,0.050044697,1.0512823,-0.23605497
0.1,0.0,0.7,-0.5235987755982988,-0.5235987755982988,0,-1.6912636,1.2393327,-0.034346856,-0.14635895,-0.010395727,1.3738079,-0.36882213,0.0357111,1.0531771,0.66679376,0.40831536,0.047264993,1.0293552,-0.2773782
0.1,0.0,0.7,-0.5235987755982988,-0.5235987755982988,0,-1.6701456,1.2423583,-0.053557377,-0.14198397,-0.008820931,1.3789225,-0.34685215,0.0031058935,1.0264777,0.63909423,0.42904577,-0.01490288,1.0517726,-0.26338097
0.1,0.0,0.7,-0.5235987755982988,-0.5235987755982988,0,-1.6936569,1.2383126,-0.04950617,-0.14005288,0.019548217,1.3799431,-0.36912814,0.0064390507,1.0361787,0.63866377,0.42988345,0.00030173262,1.0594158,-0.2196873
0.1,0.0,0.7,-0.5235987755982988,-0.5235987755982988,0,-1.6812247,1.2505965,-0.053587835,-0.14415544,0.022937257,1.3803698,-0.34664896,0.007899034,1.0265638,0.6528233,0.438657,-0.0316283,1.0511876,-0.15619491
0.1,0.0,0.7,-0.5235987755982988,-0.5235987755982988,0,-1.6674554,1.2418808,-0.05461709,-0.14614837,0.01605252,1.3835862,-0.35877642,0.02155984,1.0322286,0.6847762,0.42330652,0.041816074,1.0488514,-0.26001984
0.1,0.0,0.7,-0.5235987755982988,-0.5235987755982988,0,-1.6793023,1.2417212,-0.053085882,-0.14789191,-0.020659532,1.3763174,-0.30489615,0.0049227723,1.0431573,0.66414475,0.43073508,0.0030023302,1.063154,-0.30929083
0.1,0.0,0.7,-0.5235987755982988,-0.5235987755982988,0,-1.6784852,1.2528021,-0.045806814,-0.14256135,0.010127431,1.3868268,-0.39162806,0.016051564,1.0474945,0.6543451,0.4240941,0.021022633,1.0383207,-0.13285965
0.1,0.0,0.7,-0.5235987755982988,-0.5235987755982988,0,-1.6829512,1.2453221,-0.06170676,-0.14927043,0.022766093,1.3813125,-0.32811677,0.02995245,1.0357822,0.64050454,0.41676715,0.018537365,1.0670372,-0.29759794
0.1,0.0,0.7,-0.5235987755982988,-0.5235987755982988,0,-1.6847,1.2429986,-0.058805104,-0.1381372,-0.010234716,1.3772275,-0.3618736,0.027054522,1.034895,0.6414498,0.42743167,0.036428288,1.0538822,-0.19959663
0.1,0.0,0.7,-0.5235987755982988,-0.5235987755982988,0,-1.6613829,1.2366737,-0.02192222,-0.13545893,-0.017110985,1.3726861,-0.40293148,0.02568729,1.0448679,0.6292075,0.42695338,-0.0006918602,1.0600525,-0.25352412
0.1,0.0,0.7,-0.5235987755982988,-0.5235987755982988,0,-1.6721659,1.2430022,-0.04933741,-0.14358617,0.007363024,1.3674759,-0.38068578,0.024482071,1.03218,0.6349804,0.42410836,-0.0004235512,1.0490972,-0.31741482
0.1,0.0,0.7,-0.5235987755982988,-0.5235987755982988,0,-1.6516727,1.2428002,-0.027724558,-0.14314234,-0.01003889,1.3728987,-0.36945075,0.024264917,1.0292239,0.6666774,0.43438703,-0.0076864976,1.0632981,-0.1940348
0.1,0.0,0.7,-0.5235987755982988,-0.5235987755982988,0,-1.6719378,1.2418084,-0.040054187,-0.14797942,-0.024667434,1.3818083,-0.36455232,0.019430857,1.0224875,0.6842595,0.428036,0.015101762,1.0252621,-0.25789052
0.1,0.0,0.7,-0.5235987755982988,-0.5235987755982988,0,-1.669551,1.2491539,-0.06822371,-0.14626549,0.01930518,1.3827227,-0.28362796,0.0023110353,1.0338954,0.678184,0.4236933,-0.014608461,1.056986,-0.2468776
0.1,0.0,0.7,-0.5235987755982988,-0.5235987755982988,0,-1.6655872,1.2381713,-0.046621952,-0.14264694,-0.00091508107,1.3896946,-0.328086,0.0084201675,1.060255,0.6618196,0.42367914,0.04079836,1.034745,-0.3631768
0.1,0.0,0.7,-0.5235987755982988,-0.5235987755982988,0,-1.6858182,1.2379162,-0.0469264,-0.1426023,0.011948524,1.3687438,-0.39690366,0.032651555,1.0263786,0.61422485,0.42575338,0.037000854,1.0635563,-0.22925179
0.1,0.0,0.7,-0.5235987755982988,-0.5235987755982988,0,-1.6872581,1.2433232,-0.053101484,-0.14526357,-0.014195837,1.3761197,-0.35381562,0.0255139,1.0185902,0.61228037,0.42771798,-0.025822923,1.0243239,-0.29826263
0.1,0.0,0.7,-0.5235987755982988,-0.5235987755982988,0,-1.6892151,1.2425386,-0.06525112,-0.14368919,-0.009557729,1.380872,-0.34852192,0.009451524,1.0466768,0.64128524,0.4212128,0.047481637,1.0506464,-0.18443322
0.1,0.0,0.7,-0.5235987755982988,-0.5235987755982988,0,-1.6726584,1.241781,-0.04602517,-0.1421375,0.013977179,1.3806934,-0.3789981,-0.0006855847,1.035737,0.6828285,0.43028063,0.034580294,1.0516194,-0.14323859
0.1,0.0,0.7,-0.5235987755982988,-0.5235987755982988,0,-1.6758168,1.2355303,-0.052761678,-0.1339925,-0.020208428,1.3764783,-0.31313255,0.018233933,1.0562838,0.70411307,0.42466745,-0.030489145,1.0549785,-0.15822119
0.1,0.0,0.7,-0.5235987755982988,-0.5235987755982988,0,-1.6792841,1.2401091,-0.05717525,-0.15094316,0.02196077,1.3617784,-0.37065446,0.021748133,1.0434579,0.6572262,0.43136507,-0.0115824435,1.0220215,-0.25841653
0.1,0.0,0.7,-0.5235987755982988,-0.5235987755982988,0,-1.6600903,1.2375048,-0.03975434,-0.16030753,0.021559877,1.389558,-0.28457874,0.01585454,1.0383488,0.6567353,0.4381403,0.015568721,1.0480467,-0.21384278
0.1,0.0,0.7,-0.5235987755982988,-0.5235987755982988,0,-1.661871,1.237662,-0.07095744,-0.15259205,0.03715961,1.3767054,-0.33284667,0.03386842,1.0381885,0.6546549,0.42967874,0.012259052,1.0419427,-0.32988074
0.1,0.0,0.7,-0.5235987755982988,-0.5235987755982988,0,-1.6733147,1.2418237,-0.03919505,-0.16225962,-0.0008496388,1.3826122,-0.3407204,0.010708657,1.0287205,0.60194504,0.43909964,0.0036035788,1.0318878,-0.19013293
0.1,0.0,0.7,-0.5235987755982988,-0.5235987755982988,0,-1.6715224,1.2345033,-0.0767074,-0.15170889,0.0014153983,1.3679627,-0.33985764,0.017136399,1.0387136,0.6481404,0.42607942,0.014399315,1.0333593,-0.30922413
0.1,0.0,0.7,-0.5235987755982988,-0.5235987755982988,0,-1.6615672,1.2305061,-0.056280077,-0.13337164,0.020130951,1.3663456,-0.35026276,0.02436354,1.0455853,0.6831476,0.4308742,0.012192236,1.0376859,-0.2955759
0.1,0.0,0.7,-0.5235987755982988,-0.5235987755982988,0,-1.6831083,1.2387502,-0.035460893,-0.14775535,0.0109921135,1.3707559,-0.3719065,0.014230667,1.0544866,0.6489983,0.42328438,0.021577798,1.0288973,-0.21367918
0.1,0.0,0.7,-0.5235987755982988,-0.5235987755982988,0,-1.6735479,1.2504909,-0.03623987,-0.15659752,0.018027019,1.3782928,-0.303977,0.00090325216,1.0248709,0.63967615,0.42641047,0.03379079,1.056228,-0.2633643
0.1,0.0,0.7,-0.5235987755982988,-0.5235987755982988,0,-1.6654918,1.23866,-0.041449826,-0.13887945,0.0030087347,1.3622366,-0.3005126,0.006350885,1.0569755,0.6261553,0.42438257,0.051073827,1.0565951,-0.2769327
0.1,0.0,0.7,-0.5235987755982988,-0.5235987755982988,0,-1.6646563,1.2350718,-0.06618373,-0.13896728,0.04654438,1.3837589,-0.3643103,0.019171117,1.0488224,0.6636178,0.43257466,0.044747893,1.0533829,-0.1829792
0.1,0.0,0.7,-0.5235987755982988,-0.5235987755982988,0,-1.6763622,1.2456512,-0.05877185,-0.1430288,0.0020801036,1.3788007,-0.31265342,0.034280445,1.0318187,0.6363101,0.42230216,-0.015518124,1.0449135,-0.21856637
0.1,0.0,0.7,-0.5235987755982988,-0.5235987755982988,0,-1.6804419,1.2497407,-0.074322104,-0.14241865,0.012544617,1.3763719,-0.38531324,0.03992631,1.0270092,0.6357898,0.42952862,0.0139693115,1.033368,-0.3139015
0.1,0.0,0.7,-0.5235987755982988,-0.5235987755982988,0,-1.6806928,1.2428548,-0.034653742,-0.14785303,-0.013808539,1.3705107,-0.3653067,0.023770086,1.0465684,0.6796147,0.4190122,0.002205283,1.0497032,-0.21294749
0.1,0.0,0.7,-0.5235987755982988,-0.5235987755982988,0,-1.6794537,1.2389584,-0.040008537,-0.14582507,0.007579424,1.3743361,-0.39269415,0.018728608,1.0308977,0.69067824,0.4290538,-0.009465449,1.0350667,-0.21894796
0.1,0.0,0.7,-0.5235987755982988,-0.5235987755982988,0,-1.6738284,1.2481333,-0.05080797,-0.14481209,0.0063854605,1.3675715,-0.36157164,0.019000964,1.0338715,0.6877348,0.42672879,0.0071392558,1.0402603,-0.08856451
0.1,0.0,0.7,-0.5235987755982988,-0.5235987755982988,0,-1.6672821,1.2387995,-0.055945724,-0.1323752,0.030974127,1.3710817,-0.31677,0.019186635,1.0613163,0.67971206,0.41360754,0.002472781,1.0415332,-0.22612041
0.1,0.0,0.7,-0.5235987755982988,-0.5235987755982988,0,-1.6571727,1.2287078,-0.03786898,-0.13766731,0.005710664,1.3726801,-0.35510346,0.015244304,1.0332555,0.6593935,0.43559587,-0.012628263,1.0344994,-0.19257334
0.1,0.0,0.7,-0.5235987755982988,-0.5235987755982988,0,-1.6606995,1.2441199,-0.04022366,-0.14490622,0.0006001602,1.3853583,-0.32053405,0.026535291,1.0147015,0.69535685,0.43598843,0.0391698,1.0535024,-0.19461972
0.1,0.0,0.7,-0.5235987755982988,-0.5235987755982988,0,-1.6817913,1.245056,-0.08067451,-0.14303248,0.027559333,1.3740752,-0.34315756,0.008090696,1.0570376,0.65353626,0.43022862,-0.009333351,1.0345315,-0.14730829
0.1,0.0,0.7,-0.5235987755982988,-0.5235987755982988,0,-1.6624534,1.2447821,-0.039757736,-0.15053272,0.012677262,1.3798038,-0.36365265,0.017278133,1.0398992,0.6525767,0.42928502,-0.03893641,1.043811,-0.23855488
0.1,0.0,0.7,-0.5235987755982988,-0.5235987755982988,0,-1.6737033,1.2416402,-0.06663201,-0.1332994,-0.0038505625,1.3722507,-0.41153377,0.014372463,1.039999,0.6442851,0.4354686,0.012231348,1.0363407,-0.18482317
