sanky1234/BimanualDexCatch/isaacgymenvs/cem_results/football_pose_0.0_0.1_1.4_0.0_0.0_0_2025-05-26.csv
x,y,z,roll,pitch,yaw,robot1/joint1,robot1/joint2,robot1/joint3,robot1/joint4,robot1/joint5,robot1/joint6,robot1/joint7,robot2/joint1,robot2/joint2,robot2/joint3,robot2/joint4,robot2/joint5,robot2/joint6,robot2/joint7
0.0,0.1,1.4,0.0,0.0,0,0.055147547,-0.42594025,0.009044865,0.24413808,0.10605969,1.3560394,-0.6434741,-0.7470019,-1.583857,0.13591352,-0.12586243,-0.031720597,1.1519375,-0.23830381
0.0,0.1,1.4,0.0,0.0,0,0.053992555,-0.4264114,0.00018364083,0.18399656,0.7022467,1.4010413,-0.48171407,-0.7427896,-1.5829183,-0.032268494,-0.0678635,0.107679926,1.1872917,-0.8541247
0.0,0.1,1.4,0.0,0.0,0,0.053011227,-0.42476943,-0.004211134,0.19892085,0.7412071,1.3635504,-0.801484,-0.7583882,-1.5795845,0.3184052,-0.1123603,0.005611821,1.2514185,-0.45071638
0.0,0.1,1.4,0.0,0.0,0,0.05247931,-0.42598805,0.0012373321,0.17801093,0.25798804,1.4174514,-0.25919852,-0.75192386,-1.5626373,0.64174986,-0.09232719,0.05333469,1.2210792,0.1545822
0.0,0.1,1.4,0.0,0.0,0,0.053390857,-0.4274703,-3.9030245e-05,0.24307078,0.7397465,1.4780613,0.19679384,-0.7415019,-1.5962127,-0.062441792,-0.11423045,0.0553177,1.1917262,1.0874147
0.0,0.1,1.4,0.0,0.0,0,0.053700373,-0.4241905,-0.012982328,0.19610183,0.16900073,1.3254467,-0.40511972,-0.7457036,-1.5835332,0.39806056,-0.09555826,-0.032387733,1.1006373,1.1070726
0.0,0.1,1.4,0.0,0.0,0,0.053122573,-0.42491558,-0.018368939,0.24725446,0.3547845,1.4192013,0.5966206,-0.73806393,-1.584752,0.35899505,-0.028460318,0.0137308985,1.0929556,0.08887778
0.0,0.1,1.4,0.0,0.0,0,0.053843945,-0.42463985,-0.0039298893,0.22801532,0.23023632,1.4240916,0.04200749,-0.7586263,-1.5756626,0.52533513,-0.050738405,0.19166954,1.1350769,-0.2667592
0.0,0.1,1.4,0.0,0.0,0,0.05339113,-0.42470604,0.0020336264,0.27131772,0.1632027,1.4936514,-0.5409863,-0.74790734,-1.5879581,0.9389901,-0.06287008,-0.0041301,1.203052,-2.3150687
0.0,0.1,1.4,0.0,0.0,0,0.052211523,-0.42488676,-0.0012066811,0.17491327,0.29432306,1.3591876,-0.88722545,-0.7394404,-1.5753545,0.025943248,-0.10387133,-0.0023548845,1.1501219,0.4845895
0.0,0.1,1.4,0.0,0.0,0,0.053873356,-0.4250061,-0.0018458964,0.22292817,0.49523237,1.3719481,-0.68546784,-0.7442258,-1.600443,0.32068992,-0.032496713,0.019472608,1.1512005,0.28421226
0.0,0.1,1.4,0.0,0.0,0,0.053120475,-0.42467752,-0.016124342,0.18296137,0.4667952,1.4575626,-0.8842916,-0.72812194,-1.5906894,0.31901166,-0.033298288,0.13573173,1.182219,-0.6881135
0.0,0.1,1.4,0.0,0.0,0,0.05303784,-0.42464203,-0.018376442,0.25499484,0.7864062,1.3182585,-1.501923,-0.74383223,-1.5731025,-0.07462071,-0.037357308,0.06575769,1.1791925,-1.2484156
0.0,0.1,1.4,0.0,0.0,0,0.0523026,-0.42487547,-0.016361125,0.21360812,0.10887237,1.4073328,0.26454386,-0.73256797,-1.5991611,-0.015401742,-0.06846746,0.0051884865,1.1961026,-0.3648798
0.0,0.1,1.4,0.0,0.0,0,0.0535643,-0.42561445,-0.02789751,0.18660663,0.37874666,1.3774421,-0.36649245,-0.7509141,-1.5697944,0.39585164,-0.1008904,-0.0023006434,1.1730759,-0.5869146
0.0,0.1,1.4,0.0,0.0,0,0.052839816,-0.4254366,-0.016460503,0.18927196,0.39647526,1.501573,-0.73969865,-0.7562724,-1.5656426,0.45012456,-0.12297344,-0.013617028,1.1061859,-0.2992267
0.0,0.1,1.4,0.0,0.0,0,0.05338224,-0.4251254,-0.016355682,0.16303213,0.41359165,1.3960557,-0.18662125,-0.726418,-1.5555763,0.17130186,-0.09977784,-0.048921727,1.1408893,1.4707422
0.0,0.1,1.4,0.0,0.0,0,0.05336872,-0.42518082,0.0028858115,0.1984327,0.513502,1.405995,0.23471645,-0.75123703,-1.5646629,0.5470228,-0.13398203,0.096924685,1.1354907,-1.2119715
0.0,0.1,1.4,0.0,0.0,0,0.05322224,-0.42425373,0.0005906981,0.18332304,0.031421162,1.3743747,0.29809928,-0.74727464,-1.5844942,0.4089599,-0.073816426,0.10410847,1.157234,-0.84920704
0.0,0.1,1.4,0.0,0.0,0,0.05363989,-0.42381352,-0.012649039,0.20801038,0.20166354,1.3660811,0.7076187,-0.73336685,-1.555378,0.6360918,-0.07890799,0.08849864,1.143492,-0.10435303
0.0,0.1,1.4,0.0,0.0,0,0.05363648,-0.4259387,-0.011204427,0.23855327,0.20316857,1.3971815,-0.17504326,-0.7455141,-1.5721655,0.21607141,-0.133266,0.07517896,1.1192704,-1.5404761
0.0,0.1,1.4,0.0,0.0,0,0.053152937,-0.4247011,-0.023590736,0.23432975,0.38841367,1.4569386,-0.6616203,-0.7489735,-1.557269,0.4998524,-0.012186959,0.04850741,1.1040199,-0.8927761
0.0,0.1,1.4,0.0,0.0,0,0.054039735,-0.42550606,-0.014924636,0.21020167,0.5618374,1.3861928,0.0076803644,-0.7242928,-1.5828702,0.2894158,-0.15375842,-0.15445597,1.1792827,-0.58819604
0.0,0.1,1.4,0.0,0.0,0,0.052896243,-0.42500502,-0.013379062,0.24042957,0.6972507,1.3286474,-0.018294629,-0.7250664,-1.5720131,0.5511369,-0.057430744,-0.030582806,1.1682101,-1.2021428
0.0,0.1,1.4,0.0,0.0,0,0.0522712,-0.42572513,-0.011055718,0.21401817,0.23089373,1.4131162,0.017062878,-0.74278903,-1.5660002,0.23148672,-0.08638747,0.02742778,1.2046627,-2.6521015
0.0,0.1,1.4,0.0,0.0,0,0.052649118,-0.42482617,-0.018448424,0.19423448,0.569253,1.4723654,-0.25960207,-0.746407,-1.6034368,0.10675184,-0.09663249,0.07611844,1.1664503,0.25594872
0.0,0.1,1.4,0.0,0.0,0,0.05397388,-0.4261127,-0.02207043,0.26913765,0.22632065,1.352934,-0.42266476,-0.7537028,-1.5703796,0.3402411,-0.10418468,0.12920915,1.126623,0.6853374
0.0,0.1,1.4,0.0,0.0,0,0.052130744,-0.42528948,-0.0035461802,0.2466187,0.39640945,1.402118,0.25120798,-0.7259232,-1.5720094,0.88716274,-0.11006531,-0.012129468,1.1514527,0.86035925
0.0,0.1,1.4,0.0,0.0,0,0.05299844,-0.4254593,-0.02076144,0.19484991,0.6241011,1.3989412,-0.06346848,-0.7397931,-1.5898814,0.07962054,-0.11527565,0.015519569,1.1085194,-0.015569236
0.0,0.1,1.4,0.0,0.0,0,0.052707855,-0.42530686,-0.0069093592,0.24907462,-0.13898447,1.404162,-0.18734078,-0.73674524,-1.5791099,0.31122014,-0.056245867,0.18973047,1.1562682,1.0130996
0.0,0.1,1.4,0.0,0.0,0,0.054765567,-0.42497134,-0.009076358,0.17163959,0.40088564,1.4212871,0.69717103,-0.74873424,-1.5965781,0.6123502,-0.08517199,-0.058420386,1.1204318,0.09558405
0.0,0.1,1.4,0.0,0.0,0,0.05219762,-0.42569274,-0.011378321,0.23287061,-0.14434756,1.3677117,-0.58632934,-0.7449263,-1.5835336,0.23818189,-0.042651452,0.08661328,1.126445,-0.20545448
0.0,0.1,1.4,0.0,0.0,0,0.053891145,-0.42535615,-0.0147004025,0.25297216,0.77248245,1.4323792,0.65102696,-0.73954475,-1.5835533,0.19291751,-0.0721064,0.009673325,1.1449566,0.22036412
0.0,0.1,1.4,0.0,0.0,0,0.05332815,-0.42481673,-0.010082247,0.21382657,-0.019670222,1.3341358,0.19043283,-0.7566515,-1.5942577,0.17109904,-0.13149181,0.09911589,1.112411,-1.3806373
0.0,0.1,1.4,0.0,0.0,0,0.052993745,-0.42452222,-0.0037111093,0.18814664,0.25777736,1.4607066,-0.4501171,-0.7593982,-1.5981764,0.44712344,-0.102149874,0.04663731,1.1385542,0.19800466
0.0,0.1,1.4,0.0,0.0,0,0.054359302,-0.4240788,0.0051280907,0.28281397,0.7011086,1.3870248,-0.9360986,-0.74887145,-1.5568248,0.2551799,-0.12163279,0.0143685555,1.1461794,-1.8621848
0.0,0.1,1.4,0.0,0.0,0,0.05291613,-0.42434594,-0.009959856,0.1555294,0.5935382,1.4262,1.278578,-0.74598336,-1.6038591,0.38600892,-0.035358544,0.16208401,1.1536052,-0.07291653
0.0,0.1,1.4,0.0,0.0,0,0.053290974,-0.42565435,-0.015897797,0.17038651,0.52331614,1.3784261,0.39719892,-0.7589293,-1.5745469,0.5127996,-0.08299064,-0.06994027,1.153515,-1.0843531
0.0,0.1,1.4,0.0,0.0,0,0.053925645,-0.42533448,-0.0025900437,0.2190706,0.30143824,1.354631,0.3964487,-0.7349421,-1.5726799,0.3970202,-0.08390918,0.05182088,1.1217194,1.2589053
0.0,0.1,1.4,0.0,0.0,0,0.052429225,-0.425191,-0.004478521,0.21117383,0.34437424,1.4250517,-0.1721281,-0.7408896,-1.5824608,0.57606065,-0.11352228,0.055717938,1.2406709,0.35405624
0.0,0.1,1.4,0.0,0.0,0,0.052717377,-0.42558545,-0.01501671,0.21909927,0.6982053,1.4752473,-0.35468176,-0.7406053,-1.5589267,0.38929823,-0.10502956,0.07578059,1.1111814,-0.23299703
0.0,0.1,1.4,0.0,0.0,0,0.051636603,-0.4253804,-0.0093107745,0.21677831,0.24209319,1.3967648,-1.1921179,-0.7231014,-1.5763392,0.24693502,-0.068483755,0.031240238,1.1963229,-0.92407346
0.0,0.1,1.4,0.0,0.0,0,0.051501073,-0.42487738,-0.0087495595,0.23232949,0.27069846,1.3851126,-0.5888262,-0.7507201,-1.5813669,0.33963677,-0.07961365,-0.010096464,1.1587929,-0.8195004
0.0,0.1,1.4,0.0,0.0,0,0.05252738,-0.42428666,-0.009304301,0.22372614,0.23837882,1.4090562,0.16059427,-0.7275631,-1.5772794,0.6694657,-0.062129054,-0.100593835,1.1708477,-1.7188857
0.0,0.1,1.4,0.0,0.0,0,0.053325552,-0.42606902,-0.027335,0.20879325,0.35131776,1.4254068,-0.48796228,-0.76022977,-1.5933069,0.18172853,-0.10555452,-0.21777791,1.17554,-0.7997755
0.0,0.1,1.4,0.0,0.0,0,0.05319117,-0.4249342,-0.008899856,0.24385901,0.43390176,1.4455705,-0.03912933,-0.7393965,-1.5696079,0.26797274,-0.037945975,0.116422795,1.2005007,0.5323244
0.0,0.1,1.4,0.0,0.0,0,0.052584015,-0.42553046,-0.011433605,0.18205334,0.5674203,1.4321916,-0.8975909,-0.7450931,-1.5738987,0.4245288,-0.05076544,0.11797957,1.1781186,-0.7868468
0.0,0.1,1.4,0.0,0.0,0,0.052896466,-0.42548496,-0.007776847,0.17407964,0.08060046,1.3734887,-0.39056548,-0.75883573,-1.5998394,0.26180443,-0.0990528,-0.097645245,1.2139742,0.0722364
0.0,0.1,1.4,0.0,0.0,0,0.05301463,-0.42577496,0.0066286577,0.17346431,0.11538208,1.3972663,0.16194895,-0.76523584,-1.5749319,0.16667125,-0.07100693,-0.03848217,1.1525844,1.3184738
0.0,0.1,1.4,0.0,0.0,0,0.053637125,-0.42443123,-0.014822672,0.19400989,0.39959335,1.4259593,-0.5148401,-0.7621368,-1.586161,0.5454018,-0.077506274,-0.0036396775,1.1176121,-0.36347157
0.0,0.1,1.4,0.0,0.0,0,0.05404436,-0.4254699,-0.015408982,0.19324636,0.3959046,1.4582825,-0.7896849,-0.74822575,-1.5921043,0.36117676,-0.10554705,-0.01115985,1.1596638,-0.8781192
0.0,0.1,1.4,0.0,0.0,0,0.050285254,-0.42508715,-0.014398836,0.15499504,0.441542,1.4871639,-1.8439099,-0.7446049,-1.5799359,0.15398711,-0.045096565,0.050344232,1.2047029,0.93243164
0.0,0.1,1.4,0.0,0.0,0,0.052461088,-0.42554462,-0.013595533,0.19727696,0.3078525,1.4243644,-0.1985577,-0.7699281,-1.5986236,0.15726839,-0.058437493,-0.024316708,1.1950938,0.2675918
0.0,0.1,1.4,0.0,0.0,0,0.053798612,-0.42498112,-0.017649967,0.2240965,0.18796805,1.4158173,-0.047632977,-0.73948133,-1.5914689,0.3022152,-0.016909137,-0.046809617,1.1551644,-0.3863235
0.0,0.1,1.4,0.0,0.0,0,0.05326656,-0.42554325,-0.017572084,0.20448549,0.22615673,1.3716496,-0.81064236,-0.7603876,-1.5862337,0.077914864,-0.0745356,0.032659512,1.1333687,0.47559103
0.0,0.1,1.4,0.0,0.0,0,0.0515078,-0.4248969,-0.009893453,0.20478648,0.020334007,1.4248581,-0.42600757,-0.7309175,-1.5846378,0.20854253,-0.072645426,-0.030494165,1.2053598,0.20103508
0.0,0.1,1.4,0.0,0.0,0,0.053826563,-0.42439926,-0.022057593,0.20168284,-0.019605158,1.4058654,0.8308503,-0.7359326,-1.6022278,0.3709422,-0.12683621,-0.115371816,1.164097,-0.5566803
0.0,0.1,1.4,0.0,0.0,0,0.053880505,-0.4254429,-0.031341814,0.20065127,0.59860224,1.4257946,0.7138924,-0.7407923,-1.5826672,0.2495255,-0.063436165,-0.09744858,1.1514885,1.0159835
0.0,0.1,1.4,0.0,0.0,0,0.05341311,-0.42519394,0.011042498,0.20578498,-0.1256989,1.3692974,0.40011805,-0.73754823,-1.5686601,0.46568987,-0.04846155,0.014282624,1.2112441,0.11101519
0.0,0.1,1.4,0.0,0.0,0,0.053347155,-0.4257501,0.0002766715,0.24218972,0.3122043,1.3985628,-0.60112375,-0.7387034,-1.5980194,0.12152377,-0.114967056,0.15300664,1.1669142,-0.22594076
0.0,0.1,1.4,0.0,0.0,0,0.054591075,-0.4248647,-0.0027390986,0.17342055,0.71868,1.4126126,1.2474935,-0.7390211,-1.5753003,0.43836913,-0.06583262,-0.015335456,1.1260074,-0.8170515
0.0,0.1,1.4,0.0,0.0,0,0.05430054,-0.42476162,-0.0061373864,0.2559731,-0.040615033,1.376366,0.016426096,-0.74149686,-1.5827221,0.5603052,-0.13581648,-0.12947531,1.1625541,-0.5357287
0.0,0.1,1.4,0.0,0.0,0,0.05411064,-0.42647168,-0.01606171,0.22598621,0.43882996,1.4391005,-0.1952905,-0.7578821,-1.5883462,0.074861854,-0.04990809,0.022539783,1.1566558,-0.6330977
0.0,0.1,1.4,0.0,0.0,0,0.053961784,-0.42467886,-0.012991985,0.17883976,0.7431063,1.4486388,-0.555755,-0.7303999,-1.5937312,0.46498954,-0.05831998,0.005477327,1.2120892,-0.04135616
0.0,0.1,1.4,0.0,0.0,0,0.052755643,-0.42604133,0.0050670765,0.18341619,0.8719923,1.3838612,-0.96156335,-0.72928554,-1.542612,0.2923845,-0.06071708,0.13762745,1.1269842,0.5808317
0.0,0.1,1.4,0.0,0.0,0,0.055061877,-0.42533815,-0.0091852285,0.2585247,-0.22651617,1.390538,-0.42922637,-0.7537458,-1.572278,0.0788393,-0.10658944,-0.09823508,1.1755056,0.7208842
0.0,0.1,1.4,0.0,0.0,0,0.0530512,-0.42551798,0.0043695215,0.22149462,1.173649,1.4379779,-0.36000064,-0.76325303,-1.5563585,-0.1343116,-0.0833788,0.12279992,1.2379489,0.97017044
0.0,0.1,1.4,0.0,0.0,0,0.053946134,-0.42556733,-0.003388161,0.21430461,0.7075285,1.3302735,0.5117251,-0.73077685,-1.5697954,0.023547504,-0.14019513,-0.068978146,1.1835685,0.0437399
0.0,0.1,1.4,0.0,0.0,0,0.053051516,-0.42551395,-0.0072248285,0.18813755,0.3963661,1.3959277,-0.17741624,-0.74470097,-1.5699472,-0.20792378,-0.102654465,0.19156963,1.1844758,-1.2400006
0.0,0.1,1.4,0.0,0.0,0,0.051500104,-0.42636096,0.0121120615,0.120418645,0.80284613,1.5141368,-0.69639254,-0.73067313,-1.5529661,0.22689737,-0.10040565,0.0998745,1.1324794,-0.070818536
0.0,0.1,1.4,0.0,0.0,0,0.054350857,-0.4256314,-0.009101804,0.25809205,0.42738584,1.4546162,0.3193187,-0.7349629,-1.5969259,0.47619382,-0.027371043,-0.05877672,1.2211541,-0.34388214
0.0,0.1,1.4,0.0,0.0,0,0.055365663,-0.42476094,-0.008661479,0.25879234,0.41340312,1.4113921,-0.8127873,-0.7265719,-1.5772176,0.43238094,-0.09450322,0.086938314,1.1663471,-0.63883895
0.0,0.1,1.4,0.0,0.0,0,0.05483504,-0.42482874,-0.0011066957,0.17627445,0.082419254,1.3522856,-0.9867637,-0.7486858,-1.573193,0.55294293,-0.01395883,0.10453955,1.1891412,-1.1267262
0.0,0.1,1.4,0.0,0.0,0,0.05276744,-0.42654884,-0.0073879673,0.23494634,0.85830975,1.3813182,-1.0401105,-0.751497,-1.5759479,-0.0087376945,-0.09561905,-0.11140679,1.192655,-1.2312127
0.0,0.1,1.4,0.0,0.0,0,0.05323278,-0.42545453,-0.0035713052,0.2807701,0.0432685,1.4478174,0.60300225,-0.7251025,-1.5697179,0.5012546,-0.080997184,0.10012024,1.1833814,-0.8997903
0.0,0.1,1.4,0.0,0.0,0,0.053687587,-0.425826,0.005587456,0.21090546,0.29476237,1.3166119,0.36503166,-0.7382792,-1.578888,0.2828446,-0.13831559,-0.028925397,1.1601695,1.7941761
0.0,0.1,1.4,0.0,0.0,0,0.055470157,-0.42559394,-0.024031641,0.2103376,0.017771037,1.3742865,1.7358142,-0.73917925,-1.5666293,0.28723305,-0.0649322,0.039623555,1.1530186,0.96235937
0.0,0.1,1.4,0.0,0.0,0,0.053354703,-0.42577225,-0.004559592,0.18400368,0.9177134,1.4390343,-0.7523487,-0.7523955,-1.5595274,-0.007830218,-0.0994037,-0.014493246,1.1716765,0.46334648
0.0,0.1,1.4,0.0,0.0,0,0.052908365,-0.42530572,0.0014880288,0.20653482,0.71250826,1.4168049,-0.73293656,-0.742794,-1.5671378,0.020152155,-0.051831387,-0.02986215,1.1861349,-1.2249458
0.0,0.1,1.4,0.0,0.0,0,0.0542231,-0.42583463,-0.02001774,0.17794439,0.3218174,1.4345609,0.12056773,-0.74904275,-1.5618658,0.16307329,-0.08716557,-0.021510173,1.1666055,0.3715944
0.0,0.1,1.4,0.0,0.0,0,0.05371028,-0.42551914,-0.0016818043,0.17170227,0.5445095,1.4558921,-0.09849214,-0.72890633,-1.573556,0.21647133,-0.15072514,0.07339763,1.2997097,0.2625676
0.0,0.1,1.4,0.0,0.0,0,0.053269938,-0.42565966,0.010026502,0.25276002,0.32059687,1.4104356,-0.5381469,-0.7298251,-1.5767394,0.3824465,-0.09461828,-0.20652543,1.131492,-0.6255412
0.0,0.1,1.4,0.0,0.0,0,0.053165734,-0.42583779,-0.0038828447,0.19151422,0.4691072,1.3418396,1.2994665,-0.74138176,-1.5949227,0.33397856,-0.018953461,0.011582216,1.194702,1.2719122
0.0,0.1,1.4,0.0,0.0,0,0.05316535,-0.42595896,-0.0001374819,0.2204885,0.20556647,1.454226,0.076912194,-0.7374964,-1.566162,0.32202318,-0.118695386,0.1410783,1.1704257,-1.2252262
0.0,0.1,1.4,0.0,0.0,0,0.05326901,-0.42674977,-0.013242885,0.22268206,1.080863,1.4403263,-0.14860922,-0.75659466,-1.5812262,0.32953453,-0.04966082,0.11195983,1.220472,1.664008
0.0,0.1,1.4,0.0,0.0,0,0.05341145,-0.4253977,-0.0016673491,0.25175792,0.29347193,1.3741068,-0.6048353,-0.7542829,-1.5619664,0.7132557,-0.10234329,-0.0018683167,1.1656755,-0.80670923
0.0,0.1,1.4,0.0,0.0,0,0.05415061,-0.4254228,-0.000598931,0.17598136,0.69970864,1.4273127,-0.61589634,-0.7263741,-1.5733315,0.80336845,-0.04763613,0.0037988503,1.2437896,-1.4982007
0.0,0.1,1.4,0.0,0.0,0,0.054754846,-0.4256894,-0.025825838,0.21219362,0.5767531,1.4694146,-0.11651057,-0.74532604,-1.606219,0.5643566,-0.0692455,0.06626622,1.2132709,0.60330814
0.0,0.1,1.4,0.0,0.0,0,0.054590795,-0.42556417,-0.011184709,0.16084696,0.99901736,1.4196029,0.93958133,-0.7462711,-1.6146791,0.3782454,-0.12324958,0.033909697,1.1986407,0.6087914
0.0,0.1,1.4,0.0,0.0,0,0.053495917,-0.42635924,0.010963307,0.22808923,-0.13392945,1.487736,-1.8864133,-0.7331346,-1.5665628,0.37898657,-0.03327178,-0.03309805,1.0415088,-0.544172
0.0,0.1,1.4,0.0,0.0,0,0.054132033,-0.42598966,-0.004997739,0.14923072,0.48116466,1.4705962,-0.81972647,-0.7369661,-1.5734589,0.30942118,-0.09572409,0.06993416,1.1310923,-0.5093093
0.0,0.1,1.4,0.0,0.0,0,0.053469405,-0.42548168,-0.004406487,0.16911976,0.4806344,1.3532621,0.53259134,-0.7507861,-1.5831242,0.44510177,-0.1095978,-0.0027033568,1.2034645,-1.2900369
0.0,0.1,1.4,0.0,0.0,0,0.05535325,-0.424611,0.007942345,0.15479904,0.11173253,1.3780005,0.023298431,-0.7469834,-1.5877455,-0.4362443,-0.10438383,0.055803854,1.1251141,0.32292095
0.0,0.1,1.4,0.0,0.0,0,0.05398378,-0.4247113,0.0064821467,0.18572597,-0.41493103,1.3988765,-0.3050081,-0.7593991,-1.6089565,0.30133253,-0.096096516,-0.066441625,1.1727618,-0.30572376
0.0,0.1,1.4,0.0,0.0,0,0.054934,-0.42562333,-0.006448919,0.2405899,0.79998547,1.3521434,0.11559867,-0.7538378,-1.5675235,0.09299563,-0.080405444,0.08319344,1.2212346,-1.4845343
0.0,0.1,1.4,0.0,0.0,0,0.054321393,-0.42600483,-0.007834472,0.14896508,-0.094117366,1.4106663,0.052972723,-0.732752,-1.5813154,0.5549323,-0.06473297,-0.020906394,1.1360505,-1.1885344
0.0,0.1,1.4,0.0,0.0,0,0.055397775,-0.4250563,0.0010902776,0.26642716,0.27450153,1.4359133,-0.32540998,-0.7539305,-1.5484504,0.15133272,-0.024534436,-0.0062084766,1.1966645,-0.5128141
0.0,0.1,1.4,0.0,0.0,0,0.05371591,-0.42470714,-0.0024717364,0.17367546,0.78157234,1.445616,0.70488125,-0.7504126,-1.5864259,0.2533575,-0.05685125,-0.10989501,1.1793023,0.2463959
0.0,0.1,1.4,0.0,0.0,0,0.053637262,-0.425902,0.0066771638,0.122404434,0.42207596,1.3413699,-0.3617714,-0.7374252,-1.5992911,0.07640144,-0.09513879,0.041928988,1.1693645,-0.41833913
0.0,0.1,1.4,0.0,0.0,0,0.055324815,-0.42517725,-0.0020786005,0.16060534,0.3588771,1.4111323,0.4474052,-0.74207044,-1.5770562,0.3449763,-0.048592277,-0.114526786,1.1119816,-0.45832503
0.0,0.1,1.4,0.0,0.0,0,0.05295119,-0.42570245,0.0032944812,0.19125326,0.33201286,1.4163386,0.39378744,-0.71206325,-1.5800644,0.4403254,-0.10563774,0.12308555,1.1738127,-0.48564824
0.0,0.1,1.4,0.0,0.0,0,0.053830117,-0.42569047,0.011074153,0.17904083,0.23558214,1.4061714,0.11739708,-0.7348403,-1.5706738,0.4982097,-0.077333726,-0.050849166,1.1203197,-0.4138639
0.0,0.1,1.4,0.0,0.0,0,0.05331328,-0.4252941,0.015327649,0.18738806,0.737003,1.3822503,-1.005737,-0.7286422,-1.5787145,0.2889206,-0.081898406,0.03548972,1.1504794,-0.33954144
0.0,0.1,1.4,0.0,0.0,0,0.05433159,-0.42511252,-0.009560965,0.20798743,0.8761888,1.4602969,-0.1392793,-0.7357538,-1.5704961,0.35437265,-0.10104933,0.02460516,1.1692783,-0.6752542
0.0,0.1,1.4,0.0,0.0,0,0.055652652,-0.4255784,-0.010081499,0.15874483,-0.16076472,1.3707596,-1.2131271,-0.7371772,-1.602763,0.08806102,-0.081086725,-0.13932388,1.2378312,-0.63064796
0.0,0.1,1.4,0.0,0.0,0,0.052805517,-0.42561436,0.014334093,0.17893857,0.13632064,1.3358203,-0.735424,-0.73889005,-1.5797817,0.67416525,-0.034718346,0.1400161,1.2068808,-2.237853
0.0,0.1,1.4,0.0,0.0,0,0.054627568,-0.42551732,-0.0011361772,0.1824867,-0.016898984,1.4298084,-0.921856,-0.75757056,-1.5778985,0.23849362,-0.041895885,0.05187011,1.1618987,-0.98662806
0.0,0.1,1.4,0.0,0.0,0,0.053682894,-0.4255269,0.0029752902,0.1860457,0.3918676,1.4144058,-0.5722016,-0.7470307,-1.5873349,0.24512121,-0.12478655,-0.056707244,1.1693267,0.83604306
0.0,0.1,1.4,0.0,0.0,0,0.054833133,-0.42474014,0.0064052106,0.25511107,0.659166,1.4389453,-0.6718126,-0.7363389,-1.5857327,0.05378072,-0.08729291,-0.060961794,1.1616416,0.6532153
0.0,0.1,1.4,0.0,0.0,0,0.054445334,-0.426453,-0.014326247,0.2808576,0.60297436,1.4313666,-0.6784338,-0.74118096,-1.5862515,0.28494024,-0.04506501,-0.05157986,1.1181512,0.7324489
0.0,0.1,1.4,0.0,0.0,0,0.053077247,-0.42580938,-0.0011716298,0.23419753,0.35807097,1.4239554,-0.04966044,-0.74774706,-1.5839329,0.25714386,-0.05697611,-0.09562008,1.2047371,0.2533335
0.0,0.1,1.4,0.0,0.0,0,0.054521445,-0.42484137,0.005626157,0.24995776,0.13015226,1.3277326,-0.42652982,-0.74292904,-1.6163132,0.020315783,-0.11709565,0.034024507,1.1867009,-0.36308983
0.0,0.1,1.4,0.0,0.0,0,0.052888393,-0.42517382,0.0059988336,0.22505195,0.44322464,1.4139289,0.63462836,-0.76058865,-1.5761653,0.10047601,-0.06895947,0.01493147,1.1619012,1.3301386
0.0,0.1,1.4,0.0,0.0,0,0.055150587,-0.42548832,-0.012110139,0.22996593,0.08384002,1.4477689,-0.63771874,-0.75695664,-1.5904284,0.7879624,-0.069872506,0.07042134,1.1647518,0.27213955
0.0,0.1,1.4,0.0,0.0,0,0.053987183,-0.42504835,-0.0016174422,0.21784675,0.6750049,1.3904371,0.18031868,-0.7515848,-1.5672659,-0.13129978,-0.06820511,0.08654556,1.1476796,1.8174514
0.0,0.1,1.4,0.0,0.0,0,0.056132622,-0.4253253,-0.014623142,0.2516841,0.29201147,1.4037863,-0.61489713,-0.766067,-1.5878932,0.27138656,-0.099120334,0.0024192994,1.1288785,1.0894344
0.0,0.1,1.4,0.0,0.0,0,0.05475431,-0.4247436,-0.0053634006,0.20329553,0.37642553,1.3707067,0.77469337,-0.7345189,-1.5720681,0.5859054,-0.080554694,-0.090944745,1.1912171,-1.1170973
0.0,0.1,1.4,0.0,0.0,0,0.054900724,-0.4253935,-0.0057800664,0.18635583,0.42080134,1.4102002,-0.51836133,-0.74796575,-1.5558894,0.26362237,-0.033008408,0.031226441,1.12513,0.71750915
0.0,0.1,1.4,0.0,0.0,0,0.054076605,-0.4257004,0.0049022827,0.23091277,-0.1490477,1.4150274,0.6372816,-0.7461082,-1.5954485,0.28142774,-0.051252317,0.12284098,1.2362381,0.21281259
0.0,0.1,1.4,0.0,0.0,0,0.054048475,-0.42532074,0.00026015166,0.17302059,0.561805,1.3761518,0.21392117,-0.7314679,-1.583302,0.41396853,-0.09023116,0.017541615,1.1262721,0.30181462
0.0,0.1,1.4,0.0,0.0,0,0.05430255,-0.42639375,-0.011381001,0.1856876,0.70547265,1.4611392,-0.16034774,-0.7370432,-1.5857555,0.29333737,-0.094163775,0.050514944,1.1719149,-2.0305762
0.0,0.1,1.4,0.0,0.0,0,0.054476876,-0.42562583,-0.00050448964,0.25070414,0.42997706,1.4261411,-1.0349689,-0.7410647,-1.5923126,0.49232635,-0.078453004,-0.1711287,1.2039376,-0.020353222
0.0,0.1,1.4,0.0,0.0,0,0.052749343,-0.42618164,-0.00351035,0.23361678,0.8408608,1.4309635,-0.16284399,-0.74166983,-1.5690472,0.24426137,-0.09962597,-0.009098096,1.2271206,1.7749438
0.0,0.1,1.4,0.0,0.0,0,0.053316034,-0.4255205,0.015504555,0.19447029,0.58838004,1.4070184,-0.84610724,-0.75664747,-1.6146233,0.110125415,-0.04270014,0.16129528,1.1803523,0.031122496
0.0,0.1,1.4,0.0,0.0,0,0.055552684,-0.4254867,-0.0040741973,0.1707706,0.089633696,1.3815001,-0.01627069,-0.7781401,-1.5889621,0.22318415,-0.032770585,0.009672265,1.1224471,-0.3008944
0.0,0.1,1.4,0.0,0.0,0,0.05459002,-0.42555603,-0.00860366,0.1650281,0.6619175,1.428359,-0.3065854,-0.7534148,-1.6100327,-0.036783338,-0.091994025,0.0043872097,1.1829451,1.1597545
0.0,0.1,1.4,0.0,0.0,0,0.054435205,-0.42565456,0.0016813546,0.17645514,0.9523062,1.4572158,1.2047149,-0.7601858,-1.5980823,0.20094304,-0.036362227,-0.0698558,1.0873467,0.39227197
0.0,0.1,1.4,0.0,0.0,0,0.055576768,-0.42527154,-0.00262981,0.23050398,0.2686604,1.380269,0.8076842,-0.7438183,-1.5879707,0.17238833,-0.084314264,-0.13438857,1.1889788,0.24988507
0.0,0.1,1.4,0.0,0.0,0,0.05687133,-0.4252592,-0.008049368,0.2146968,0.5127336,1.3813142,0.33772457,-0.7677306,-1.555831,-0.022424161,-0.048369765,-0.1973796,1.160984,0.044450153
0.0,0.1,1.4,0.0,0.0,0,0.05369576,-0.42529303,0.003560184,0.23477967,0.27903235,1.430164,-1.4135565,-0.74883324,-1.5727113,0.18868111,-0.11787294,-0.05334387,1.1805902,-0.52250546
0.0,0.1,1.4,0.0,0.0,0,0.053395584,-0.42551866,-0.00027222923,0.22127381,-0.27135995,1.4683075,-0.8160299,-0.72079134,-1.5921926,0.3606651,-0.078334175,0.037345365,1.1243137,0.52929497
0.0,0.1,1.4,0.0,0.0,0,0.055510025,-0.42518717,0.0050265146,0.19046402,0.42182103,1.3642871,-1.2383509,-0.7451841,-1.5696222,0.31290272,-0.061994985,-0.10593826,1.1230654,-0.20831347
0.0,0.1,1.4,0.0,0.0,0,0.055011887,-0.42568177,-0.0047675124,0.22286059,0.14442788,1.3214025,-0.13550141,-0.74923855,-1.5770327,-0.0036678074,-0.14028473,-0.09270929,1.2173795,-0.2752165
0.0,0.1,1.4,0.0,0.0,0,0.054548014,-0.42634052,-0.011615021,0.20309636,0.6350632,1.4533732,0.9619933,-0.72932076,-1.6040704,0.3013049,-0.053895675,-0.04942331,1.1055497,-0.18994734
0.0,0.1,1.4,0.0,0.0,0,0.056045894,-0.42475247,0.0023886932,0.21336652,0.51599586,1.3454038,-0.30762875,-0.7547356,-1.5866923,0.083822936,-0.10505318,0.1324966,1.2248435,-0.26392534
0.0,0.1,1.4,0.0,0.0,0,0.05373238,-0.4258047,-0.0054282905,0.23286064,0.0707748,1.3859556,0.7421831,-0.73751324,-1.6109854,0.067213796,-0.07907982,0.049203515,1.1436633,1.800281
0.0,0.1,1.4,0.0,0.0,0,0.05468929,-0.4254841,0.012212061,0.1811665,-0.058763046,1.3856139,0.3229422,-0.752177,-1.5735862,0.47542924,-0.08486751,0.104602315,1.1849608,0.7480128
0.0,0.1,1.4,0.0,0.0,0,0.054253053,-0.42525208,-0.0037939122,0.28520286,0.20531046,1.3446212,-0.90758836,-0.7412997,-1.6028019,0.0897052,-0.094872184,0.07035158,1.1884083,-0.036942936
0.0,0.1,1.4,0.0,0.0,0,0.053225104,-0.42543158,0.00080592535,0.2094975,0.39280078,1.4989065,-0.28203812,-0.74954534,-1.5935829,0.2860204,-0.03207612,0.057317544,1.1790226,-1.2799097
0.0,0.1,1.4,0.0,0.0,0,0.05513664,-0.42542356,-0.003285536,0.23547688,0.12639195,1.4276897,-0.1918332,-0.7490294,-1.6060576,0.6984378,-0.059520252,-0.10675182,1.2064261,-0.8975307
0.0,0.1,1.4,0.0,0.0,0,0.05478979,-0.4246072,0.0006771868,0.20590314,0.74426955,1.4164863,-0.01514889,-0.7522037,-1.5690756,0.12237834,-0.026771266,0.04041261,1.2075374,-1.3042233
0.0,0.1,1.4,0.0,0.0,0,0.05446233,-0.42618975,0.0019636122,0.21081054,0.17251651,1.4722435,1.167831,-0.7626924,-1.5853457,-0.12497592,-0.072012454,-0.14755733,1.1512095,0.62825143
0.0,0.1,1.4,0.0,0.0,0,0.05601337,-0.42559242,-0.0063614864,0.24041253,0.5045623,1.3611581,-0.28757447,-0.74084836,-1.5716087,0.05820241,-0.09771515,-0.0680767,1.185645,0.2176013
0.0,0.1,1.4,0.0,0.0,0,0.054725602,-0.42542085,-0.01140844,0.18607469,0.39513555,1.3794366,-0.41643074,-0.7618195,-1.5788605,0.47531354,-0.11106997,0.00623368,1.1693506,-0.19329962
0.0,0.1,1.4,0.0,0.0,0,0.055489507,-0.4257315,-0.0072062844,0.21759734,-0.1326967,1.4106647,-0.8801288,-0.75648916,-1.5759999,0.2511995,-0.11069441,-0.1926518,1.1165868,0.35475436
0.0,0.1,1.4,0.0,0.0,0,0.05582521,-0.42535874,-0.008357404,0.20777804,-0.093985915,1.3937011,0.11772326,-0.76454693,-1.5763743,0.4033171,-0.12390436,0.03174699,1.1451935,-0.14898139
0.0,0.1,1.4,0.0,0.0,0,0.053371724,-0.4257855,-0.0028915876,0.21999006,0.08243377,1.400298,0.14956781,-0.7495936,-1.6026472,0.23785973,-0.073300324,-0.0019292842,1.1453178,-0.13480186
0.0,0.1,1.4,0.0,0.0,0,0.056784563,-0.42549524,-0.014102916,0.20581405,0.06692141,1.4583143,0.6861745,-0.741376,-1.577856,-0.05486715,-0.078559674,0.19634491,1.1361122,-0.66954386
0.0,0.1,1.4,0.0,0.0,0,0.055160977,-0.42570403,-0.0035900422,0.2185633,0.3156966,1.3767736,-0.7478842,-0.7514307,-1.5817475,0.2860986,-0.031560875,-0.009574007,1.1338408,-1.0942085
0.0,0.1,1.4,0.0,0.0,0,0.056616038,-0.42579773,-0.0064155655,0.2068716,0.19319072,1.3591164,0.5582871,-0.75307304,-1.5685332,0.26080903,-0.10542714,0.1289762,1.1658896,-0.6942853
0.0,0.1,1.4,0.0,0.0,0,0.055412494,-0.4251003,-0.00087915774,0.15258653,0.54324514,1.4354558,-0.53611875,-0.7382485,-1.5867786,0.19857201,-0.03775088,0.11447574,1.1608436,-1.2913936
0.0,0.1,1.4,0.0,0.0,0,0.057020716,-0.4255191,-0.00969993,0.23036182,0.16901632,1.4221545,0.07663926,-0.75009507,-1.6033113,0.36466277,-0.07822179,0.14730814,1.2658097,-0.96946037
0.0,0.1,1.4,0.0,0.0,0,0.056757394,-0.42517745,0.0015052761,0.21404192,0.47633994,1.3747702,0.67531776,-0.73650694,-1.5984108,0.5740746,-0.106863104,0.1004369,1.1759583,0.051256888
0.0,0.1,1.4,0.0,0.0,0,0.055797614,-0.4251616,-0.010326934,0.20643574,0.3871396,1.4224201,-1.9198476,-0.7498249,-1.6108133,0.02943926,-0.08659806,0.027647585,1.1948894,0.40542412
0.0,0.1,1.4,0.0,0.0,0,0.056191344,-0.42583653,-0.007490226,0.19740422,0.26257783,1.3774295,-0.5021398,-0.7477008,-1.5765469,0.1964124,-0.092597306,0.007931768,1.2182927,-0.3796605
0.0,0.1,1.4,0.0,0.0,0,0.052971274,-0.42623457,-0.0035095853,0.23029038,0.44501907,1.3609529,-0.58640987,-0.74338824,-1.5847486,-0.14534958,-0.1310137,0.02760991,1.1229805,0.1892975
0.0,0.1,1.4,0.0,0.0,0,0.053474583,-0.42495373,0.009606732,0.19764847,0.56035036,1.4501863,-0.33096844,-0.7489351,-1.5632274,0.009591244,-0.085723616,-0.034997456,1.1666849,-0.29787308
0.0,0.1,1.4,0.0,0.0,0,0.052874193,-0.4254378,-0.005258996,0.16548505,0.5324796,1.3904262,-0.5108221,-0.74675864,-1.5841513,0.13583387,-0.053223286,-0.06704968,1.2648365,-1.529997
0.0,0.1,1.4,0.0,0.0,0,0.052773636,-0.4248031,0.00077163073,0.23096278,-0.12066791,1.475488,-1.243562,-0.75367635,-1.5825462,0.1441855,-0.020452488,-0.10457332,1.1860621,-0.82211584
0.0,0.1,1.4,0.0,0.0,0,0.05107234,-0.42533496,-0.009209175,0.2083417,0.44923246,1.3865961,-1.0366708,-0.7271557,-1.5564258,0.13597725,-0.07959187,-0.016150802,1.1896644,-0.5377858
0.0,0.1,1.4,0.0,0.0,0,0.05637469,-0.42508462,0.010598285,0.20939545,0.034590244,1.3585918,0.13352397,-0.74868256,-1.5770193,0.63319355,-0.08394523,-0.030368742,1.1661811,-0.31391522
0.0,0.1,1.4,0.0,0.0,0,0.0531956,-0.42587987,-0.010041983,0.20432217,0.9765566,1.3626844,0.106652215,-0.739051,-1.5537387,0.07231073,-0.10234015,0.007039061,1.1624076,-0.6469176
0.0,0.1,1.4,0.0,0.0,0,0.054473415,-0.4246375,-0.010131706,0.22305924,0.32973325,1.4664978,0.8744918,-0.757159,-1.5732412,0.11648319,-0.07948018,0.08741477,1.1929411,-0.72599113
0.0,0.1,1.4,0.0,0.0,0,0.05484431,-0.42540842,0.017898427,0.27326393,0.63648283,1.382353,-0.056520734,-0.72514826,-1.5720236,0.46796697,-0.097567126,0.0405739,1.1268381,-1.1299986
0.0,0.1,1.4,0.0,0.0,0,0.054631505,-0.42577875,0.009915812,0.18334079,0.49647027,1.4395518,-0.6486021,-0.74236953,-1.5796928,0.040789537,-0.030989487,0.02350091,1.1541903,0.7282096
0.0,0.1,1.4,0.0,0.0,0,0.05393433,-0.42510173,0.0032706736,0.17257358,0.6951031,1.3662671,0.39082098,-0.72855735,-1.5790296,0.24579681,-0.10420903,-0.004231455,1.1278048,-0.1059213
0.0,0.1,1.4,0.0,0.0,0,0.053796,-0.4257371,-0.0036340544,0.29333067,0.3837448,1.3747209,0.082099296,-0.7435648,-1.5625509,0.67636794,-0.10121442,0.009679788,1.2269138,-0.7285887
0.0,0.1,1.4,0.0,0.0,0,0.055555463,-0.42583245,-0.0044999435,0.26801288,0.8003899,1.3955128,-0.34843314,-0.7649808,-1.5726013,0.38003707,-0.073858455,-0.0776632,1.2214009,0.9705207
0.0,0.1,1.4,0.0,0.0,0,0.053070158,-0.42546618,0.011359086,0.19113965,0.14904055,1.4022788,-1.4516773,-0.7361181,-1.5563679,0.17711766,-0.08002402,-0.11606684,1.1640275,-0.98887324
0.0,0.1,1.4,0.0,0.0,0,0.053696606,-0.42544502,-0.002421916,0.19162537,0.14008509,1.3888533,0.9500833,-0.74396765,-1.5965682,-0.090341836,-0.07830988,-0.059263315,1.1393408,-1.033803
0.0,0.1,1.4,0.0,0.0,0,0.05390287,-0.42522043,-0.00036652997,0.20387375,0.27956122,1.4652772,-0.4746183,-0.7493494,-1.604601,0.08555688,-0.062426355,-0.015848001,1.1257845,1.0306966
0.0,0.1,1.4,0.0,0.0,0,0.054233402,-0.42611983,-0.009440794,0.21862715,0.59181637,1.4236937,1.0867566,-0.7334022,-1.5867846,0.20684312,-0.112113416,0.04879581,1.1607915,0.1446603
0.0,0.1,1.4,0.0,0.0,0,0.054525167,-0.425752,-0.01783957,0.16028354,0.27706942,1.3887874,-0.5848838,-0.74892074,-1.5905114,0.41070357,-0.08526792,-0.054306075,1.1256415,-0.7836635
0.0,0.1,1.4,0.0,0.0,0,0.055243883,-0.4260177,-0.015671197,0.20565236,0.23423882,1.3910757,-0.5173178,-0.7357787,-1.5950743,0.21869558,-0.09311583,-0.089398235,1.1946981,1.2479689
0.0,0.1,1.4,0.0,0.0,0,0.05315404,-0.42486355,-0.0029860453,0.16822642,0.41732427,1.3855969,-0.030244218,-0.73838216,-1.626267,0.49647704,-0.039726105,0.017199954,1.1981113,-0.16051728
0.0,0.1,1.4,0.0,0.0,0,0.052944966,-0.4253231,-0.026460867,0.20723239,0.4613566,1.3823873,-0.2908268,-0.7374839,-1.5853862,0.14659569,-0.11375177,0.10713352,1.1735792,-0.57305753
0.0,0.1,1.4,0.0,0.0,0,0.05630711,-0.42601246,0.009415245,0.23756386,0.39496958,1.4627609,0.9447485,-0.7432031,-1.575583,0.33133465,-0.105231725,0.18997681,1.1940078,-0.3690442
0.0,0.1,1.4,0.0,0.0,0,0.056417085,-0.42604858,0.0014302498,0.2533964,-0.14714202,1.4075091,0.48768467,-0.7436709,-1.5945175,0.44149312,-0.03789902,0.07424743,1.1517694,-0.7669102
0.0,0.1,1.4,0.0,0.0,0,0.051785927,-0.42430404,-0.007377178,0.2586725,0.33768034,1.4505895,0.021667557,-0.73725814,-1.5750707,0.4120432,-0.1031291,0.10319352,1.0990856,-0.26927298
0.0,0.1,1.4,0.0,0.0,0,0.05274406,-0.4260182,0.003187269,0.1453572,0.4035987,1.3127735,-0.04458154,-0.7415064,-1.5871028,0.17366886,-0.051211882,-0.058216155,1.1165742,-0.70238096
0.0,0.1,1.4,0.0,0.0,0,0.052440062,-0.42508915,0.0012453805,0.2605752,0.6696195,1.4202603,0.4589399,-0.7507855,-1.5703341,-0.088828504,-0.10157332,-0.07829028,1.1438909,-0.31507626
0.0,0.1,1.4,0.0,0.0,0,0.053476125,-0.42676795,0.008117215,0.22944053,0.38187182,1.4134195,0.07817229,-0.7453852,-1.5640024,-0.037845075,-0.10430941,0.035674997,1.2373006,-2.0144048
0.0,0.1,1.4,0.0,0.0,0,0.05347876,-0.42495865,-0.00016965103,0.23412058,0.5289483,1.4672049,-0.1660793,-0.71980065,-1.5823766,0.37488133,-0.057675514,-0.017777605,1.1237806,1.6422389
0.0,0.1,1.4,0.0,0.0,0,0.052247044,-0.42487693,-0.00016837213,0.1610543,0.4441614,1.3887056,-0.01559805,-0.74515665,-1.5789146,0.28219324,-0.06337133,0.018460795,1.1780549,-0.7297095
0.0,0.1,1.4,0.0,0.0,0,0.054005086,-0.4244796,-0.011034266,0.1892343,0.88356936,1.3549608,-0.0635066,-0.7361933,-1.5939848,0.20693187,-0.09247666,-0.052431386,1.1749991,0.19192044
0.0,0.1,1.4,0.0,0.0,0,0.052929718,-0.42530504,0.003443494,0.18000133,0.19913194,1.4211226,-0.7865591,-0.73149383,-1.5831621,0.25598657,-0.057037733,-0.014322719,1.1230787,1.0234464
0.0,0.1,1.4,0.0,0.0,0,0.053398218,-0.4256418,-0.009692035,0.22000995,0.58917165,1.4090482,0.30212533,-0.7618664,-1.5961822,0.48194364,-0.061041534,0.09693688,1.1627676,-0.51723087
0.0,0.1,1.4,0.0,0.0,0,0.053314645,-0.4242419,-0.0012775948,0.27330962,0.24620272,1.4698973,-0.12970649,-0.7480676,-1.5760891,0.28504807,-0.11455707,-0.030704958,1.2043456,1.3583308
0.0,0.1,1.4,0.0,0.0,0,0.053878136,-0.42532665,-0.014477923,0.15317646,0.37429282,1.4028842,-0.27212742,-0.7567007,-1.5647218,0.49242866,-0.056498434,-0.047580905,1.0906552,-1.5583837
0.0,0.1,1.4,0.0,0.0,0,0.052520245,-0.42545572,-0.015364625,0.23938829,0.5135202,1.3523339,0.028545376,-0.7567906,-1.5696592,0.5096704,-0.06783568,-0.1553976,1.2158346,-0.16933647
0.0,0.1,1.4,0.0,0.0,0,0.052771155,-0.425551,-0.0077084573,0.24981749,0.14976582,1.3742167,0.9199964,-0.7373398,-1.573321,0.09800965,-0.07597015,0.02197925,1.1913564,-1.444051
0.0,0.1,1.4,0.0,0.0,0,0.052777495,-0.42558813,-0.010255748,0.1875243,0.38251084,1.3773226,-0.09815352,-0.7516562,-1.5753579,0.019317508,-0.105278455,-0.10153378,1.2081459,-0.9952495
0.0,0.1,1.4,0.0,0.0,0,0.05200847,-0.4251185,0.0023639693,0.2235319,0.20221598,1.4280438,-0.74861294,-0.7347077,-1.5862902,0.37973753,-0.07292537,0.011862319,1.1737163,-0.13886414
0.0,0.1,1.4,0.0,0.0,0,0.052445356,-0.42561266,-0.008956378,0.19506064,0.21698593,1.3721712,0.013366261,-0.7407672,-1.5739789,0.3029221,-0.09145038,-0.03366706,1.2133807,-2.5406566
0.0,0.1,1.4,0.0,0.0,0,0.052513022,-0.42454425,-0.008340679,0.20656528,0.6468452,1.3678253,-0.1814946,-0.73183364,-1.5901879,-0.17827861,-0.061368443,0.048513025,1.1263906,-0.026007565
0.0,0.1,1.4,0.0,0.0,0,0.05414778,-0.42377052,0.0080459975,0.20949894,0.8093488,1.417637,0.27215898,-0.7390214,-1.5752913,0.86107814,-0.043342818,0.036386468,1.1723943,-0.79467773
0.0,0.1,1.4,0.0,0.0,0,0.05353476,-0.4252815,-0.008178223,0.19321494,0.5621976,1.4069339,-0.15270911,-0.7532321,-1.6024842,-0.12967956,-0.057604115,0.021803057,1.2277974,-0.6299185
0.0,0.1,1.4,0.0,0.0,0,0.05304202,-0.42485,-0.0064245723,0.21661621,0.3590592,1.3868233,-0.9294603,-0.7425334,-1.5995399,0.11932633,-0.08741121,0.050594226,1.1412998,-0.8260419
0.0,0.1,1.4,0.0,0.0,0,0.05264993,-0.42559254,-0.01414831,0.180091,0.55635583,1.3991646,-0.1982728,-0.7433676,-1.5839062,0.3911893,-0.108203374,0.030227695,1.1467843,-0.42420357
0.0,0.1,1.4,0.0,0.0,0,0.05421986,-0.4251476,-0.0111760115,0.19864964,-0.3590943,1.4324293,0.13693817,-0.74002236,-1.5883353,0.1263489,-0.10698357,-0.07059055,1.1653066,-1.1625367
0.0,0.1,1.4,0.0,0.0,0,0.05311863,-0.42549932,0.0042946604,0.26331562,0.034336224,1.4709879,-0.96506816,-0.7430222,-1.5878145,0.34264234,-0.07982632,0.034183383,1.1560261,0.18721373
0.0,0.1,1.4,0.0,0.0,0,0.054064255,-0.42569834,-0.0078047905,0.22137302,0.22009446,1.3778456,-0.3336824,-0.7370392,-1.5983853,0.5466983,-0.075399585,-0.024752328,1.1481925,-1.9296684
0.0,0.1,1.4,0.0,0.0,0,0.054244056,-0.4255666,-0.0058086864,0.21405214,0.2901149,1.4117036,-0.39113778,-0.7539251,-1.5794393,0.51887006,-0.1408889,-0.06468277,1.101927,-0.25280207
0.0,0.1,1.4,0.0,0.0,0,0.054049574,-0.42432657,-0.01145567,0.189668,0.8709755,1.4563744,-0.36571473,-0.74231017,-1.5761037,0.20934735,-0.060431685,-0.13421108,1.1116498,-1.3453224
0.0,0.1,1.4,0.0,0.0,0,0.054243956,-0.42582667,-0.012668855,0.2172584,0.9725089,1.3650268,0.00582967,-0.7559396,-1.5725799,0.5850848,-0.011002976,0.017186683,1.1728419,0.6280873
0.0,0.1,1.4,0.0,0.0,0,0.05314695,-0.42600554,-0.026228359,0.21782938,0.67560136,1.4386518,0.0789936,-0.750658,-1.5946456,0.109259315,-0.07406961,-0.10090154,1.1910201,-1.1619424
0.0,0.1,1.4,0.0,0.0,0,0.054328993,-0.42662856,-0.015051902,0.21720433,-0.054103922,1.4606576,0.075153716,-0.74222064,-1.5965576,0.3296967,0.015679376,0.057580847,1.176377,-1.5696566
0.0,0.1,1.4,0.0,0.0,0,0.052460186,-0.4256452,0.0011043822,0.22892484,0.07245122,1.434135,-0.74559265,-0.7477852,-1.5760428,0.4965088,-0.076658905,-0.0031124672,1.143395,-0.49620432
0.0,0.1,1.4,0.0,0.0,0,0.053360168,-0.42607036,-0.0017493967,0.24022473,0.35864815,1.4067347,0.21493211,-0.739962,-1.5810575,0.26604906,-0.05308703,0.03803513,1.2160323,-0.23320541
0.0,0.1,1.4,0.0,0.0,0,0.0536276,-0.4256446,0.0049013942,0.21584998,0.6007361,1.3587129,-0.04729762,-0.7439622,-1.5694809,0.64800406,-0.05597758,0.045200843,1.1009386,-0.3435295
0.0,0.1,1.4,0.0,0.0,0,0.051934063,-0.42604837,0.0014293311,0.23957324,-0.0981936,1.4591857,-0.25697866,-0.75127715,-1.6074438,0.6548405,-0.11521724,0.14235467,1.1939338,-0.35531038
0.0,0.1,1.4,0.0,0.0,0,0.055214867,-0.42502442,-0.0011863052,0.20208402,0.7747282,1.2806268,0.0775937,-0.74049264,-1.5977926,0.3368733,-0.06945659,-0.058004044,1.1546062,0.10988359
0.0,0.1,1.4,0.0,0.0,0,0.054181796,-0.42459837,0.0089123035,0.20087814,0.37356254,1.3949412,0.4899941,-0.7304619,-1.59394,0.095898114,-0.10571612,0.085976206,1.2057829,-1.3256501
0.0,0.1,1.4,0.0,0.0,0,0.052987814,-0.42457643,0.011507354,0.26697293,0.038321476,1.4821008,-0.6120777,-0.74461496,-1.5905381,0.52275944,-0.104397066,-0.009423697,1.1683581,-0.29396954
0.0,0.1,1.4,0.0,0.0,0,0.053561125,-0.42604187,0.0019366168,0.2333199,0.01098673,1.4792857,-0.30962336,-0.74796295,-1.56826,0.08531508,-0.09618313,-0.121082485,1.2235948,0.7260077
0.0,0.1,1.4,0.0,0.0,0,0.054282684,-0.4244132,0.0031465702,0.27786157,0.4749513,1.453754,0.19638643,-0.76496845,-1.6023022,0.45385295,-0.05796796,-0.06504739,1.1399001,-0.15241465
0.0,0.1,1.4,0.0,0.0,0,0.05471341,-0.42512167,-0.0019977873,0.19583154,0.38633218,1.3940535,0.5854343,-0.7576605,-1.569745,0.48881072,-0.09587426,0.010047054,1.1479335,-0.23421595
0.0,0.1,1.4,0.0,0.0,0,0.05256858,-0.4261505,-0.0021736675,0.17722219,0.5557706,1.3912259,-0.83734137,-0.74675494,-1.569153,0.4087938,-0.12882836,0.05390301,1.1600816,-0.8451768
0.0,0.1,1.4,0.0,0.0,0,0.052829467,-0.4257137,-0.0033047262,0.21140645,0.5615203,1.424086,1.2607034,-0.74513763,-1.5554338,0.38010827,-0.13119958,0.016536772,1.2211733,-0.44402757
0.0,0.1,1.4,0.0,0.0,0,0.05494567,-0.42515075,-0.022022657,0.20764215,0.9336642,1.4532304,-1.1225158,-0.7630936,-1.5954063,0.18749158,-0.041893784,0.11133721,1.1972336,-0.9980587
0.0,0.1,1.4,0.0,0.0,0,0.05482243,-0.4254682,-0.010868987,0.2244274,0.572364,1.3561715,0.7380532,-0.74157083,-1.6000614,0.31923112,-0.06439902,0.14864862,1.2159543,0.26182213
0.0,0.1,1.4,0.0,0.0,0,0.05550017,-0.42595407,-0.012230689,0.1792771,0.6621149,1.4685727,-1.8730915,-0.75865227,-1.5513214,0.21843106,-0.12068435,-0.12558842,1.1469058,-0.11708199
0.0,0.1,1.4,0.0,0.0,0,0.05547446,-0.42519844,-0.003171943,0.123756096,0.15996042,1.3755672,-0.26686814,-0.744378,-1.6144673,0.14360367,-0.098835796,0.053453367,1.0807918,-1.9231906
0.0,0.1,1.4,0.0,0.0,0,0.05332955,-0.42538774,0.004058491,0.18115471,0.06394821,1.4150383,-0.07694665,-0.7419035,-1.5728055,0.2523415,-0.050962236,-0.073640734,1.1484817,-1.2279352
0.0,0.1,1.4,0.0,0.0,0,0.054136083,-0.42475575,0.0036416154,0.24016155,0.693778,1.3433045,-0.74275994,-0.7623623,-1.5663778,0.3217579,-0.07204272,-0.0891811,1.1383564,0.104199566
0.0,0.1,1.4,0.0,0.0,0,0.05490609,-0.42466724,-0.004440705,0.23434313,-0.24231131,1.4312682,2.2896638,-0.7479623,-1.5979891,-0.22687584,-0.12874542,-0.088069074,1.1599455,-0.77075803
0.0,0.1,1.4,0.0,0.0,0,0.05496093,-0.42631403,-0.008830691,0.13593881,0.48502716,1.4268992,-0.79323846,-0.75172955,-1.5625501,0.020882683,-0.11322603,0.0786915,1.1212422,-0.7183815
0.0,0.1,1.4,0.0,0.0,0,0.05422994,-0.42456242,0.013404302,0.19991347,0.28874642,1.4614663,0.023938863,-0.7573275,-1.606585,0.23661631,-0.07197278,-0.0360531,1.1620574,0.16509815
0.0,0.1,1.4,0.0,0.0,0,0.0549553,-0.42616165,-0.015327268,0.23410659,0.33626327,1.4118695,-0.6083957,-0.74478686,-1.5838298,0.289037,-0.079076655,0.07147478,1.1617632,-0.8248376
0.0,0.1,1.4,0.0,0.0,0,0.05673673,-0.42445824,-0.0030767927,0.21741782,0.14769241,1.3835582,-0.0035606981,-0.74521565,-1.566144,0.292698,-0.09401425,0.056526802,1.1413428,1.7150689
0.0,0.1,1.4,0.0,0.0,0,0.054934945,-0.4259633,0.00010729474,0.21026956,0.2206742,1.4347576,-0.43567726,-0.7416094,-1.5671027,0.33907574,-0.058538746,0.12647927,1.1796678,-0.5684547
0.0,0.1,1.4,0.0,0.0,0,0.055396505,-0.42552784,-0.0058767484,0.19942193,0.080163404,1.3946364,-0.2708024,-0.76802176,-1.5928384,0.39356896,-0.074501805,0.0285957,1.2051535,0.1396027
0.0,0.1,1.4,0.0,0.0,0,0.05451597,-0.42453083,0.015986908,0.25834468,0.17757286,1.4475744,-0.28620583,-0.75616914,-1.5813777,0.3736581,-0.099680975,-0.0060149855,1.1434531,-1.1138529
0.0,0.1,1.4,0.0,0.0,0,0.05492548,-0.42531118,0.009566794,0.23094308,0.20058945,1.4586259,0.6723887,-0.7462039,-1.5908183,0.3065577,-0.06889527,-0.06051422,1.168801,0.00600763
0.0,0.1,1.4,0.0,0.0,0,0.055558883,-0.4257907,-0.003939069,0.2036523,0.8129843,1.4269946,0.19805928,-0.746937,-1.5875931,0.08731376,-0.05463359,-0.043944255,1.1890264,-0.26460695
0.0,0.1,1.4,0.0,0.0,0,0.053938944,-0.4267458,-0.0112849,0.24866855,0.43162632,1.4071562,-0.8112132,-0.7520897,-1.5835608,0.11972638,-0.069480464,-0.05149408,1.2292486,1.4133364
0.0,0.1,1.4,0.0,0.0,0,0.052414753,-0.42453575,-0.013816557,0.17293124,0.36148867,1.3970606,0.36378,-0.75439435,-1.5792925,0.55090946,-0.082140006,0.061888408,1.136246,-1.1340314
0.0,0.1,1.4,0.0,0.0,0,0.052024268,-0.42538336,-0.0054348903,0.1489561,0.74921733,1.3745023,-0.5788081,-0.7591538,-1.5854831,-0.0061362484,-0.008294481,0.14270937,1.198352,-0.28700662
0.0,0.1,1.4,0.0,0.0,0,0.055321567,-0.42663816,-0.011523601,0.2417126,-0.030255139,1.4454454,-0.366431,-0.7537126,-1.5721198,0.4276939,-0.05829664,0.09853181,1.1475865,0.2905981
0.0,0.1,1.4,0.0,0.0,0,0.053648584,-0.42424124,-0.0032258278,0.2913474,0.4219264,1.3955086,-0.2119464,-0.7331989,-1.6003698,0.241476,-0.049583346,0.046471294,1.1181374,-0.7426549
0.0,0.1,1.4,0.0,0.0,0,0.05449835,-0.4253289,-0.008318297,0.17127621,0.093739435,1.3913286,-0.40356973,-0.7493727,-1.5738254,0.25224143,-0.031246424,-0.08258465,1.0949247,0.4813895
0.0,0.1,1.4,0.0,0.0,0,0.053078387,-0.42536566,-0.026021823,0.2077005,0.6270777,1.422865,-0.45266366,-0.7374132,-1.5935799,0.030269291,-0.07300633,0.0901107,1.1715978,0.2616212
0.0,0.1,1.4,0.0,0.0,0,0.05383641,-0.42562154,-0.010950169,0.22933681,1.0170509,1.4210798,0.5278726,-0.75025064,-1.5987612,0.4309614,-0.10726022,-0.067816176,1.1901873,1.4458511
0.0,0.1,1.4,0.0,0.0,0,0.054439478,-0.42484498,0.00046647346,0.18162894,0.20444983,1.3661691,-0.773369,-0.7340911,-1.5654193,0.22019295,-0.05576905,-0.08448174,1.1374587,-0.3348425
0.0,0.1,1.4,0.0,0.0,0,0.05409913,-0.42566139,-0.008444269,0.24036603,0.33414346,1.4179194,-1.2650391,-0.7383308,-1.5820985,0.5130902,-0.114513464,-0.06926911,1.167747,-0.84200174
0.0,0.1,1.4,0.0,0.0,0,0.054524176,-0.42626706,-0.01807658,0.16396101,0.6442237,1.4254122,0.56412524,-0.7578992,-1.570911,0.7976121,-0.11820266,-0.14550453,1.1902035,0.6668749
0.0,0.1,1.4,0.0,0.0,0,0.053758483,-0.4263683,-0.012970508,0.1640292,0.8999639,1.4437742,-1.6609659,-0.7522152,-1.5963095,0.23968183,-0.09498131,0.013775406,1.1716121,0.41664216
0.0,0.1,1.4,0.0,0.0,0,0.05258219,-0.42517522,0.013664337,0.21264413,0.79753524,1.4072315,0.703877,-0.7448289,-1.5730498,0.41099676,-0.07147903,0.10225635,1.2121735,0.014845091
0.0,0.1,1.4,0.0,0.0,0,0.0547178,-0.42587593,-0.00956184,0.16797404,0.25407803,1.3929884,0.2468292,-0.7576776,-1.5680006,0.5597526,-0.07983558,-0.027279252,1.1632168,-1.1281317
0.0,0.1,1.4,0.0,0.0,0,0.054959416,-0.42554745,-0.024281945,0.15773092,0.49941817,1.4300203,-0.19727255,-0.73464864,-1.5879244,0.015855698,-0.055194806,0.0879827,1.1943959,-0.48488972
0.0,0.1,1.4,0.0,0.0,0,0.05360637,-0.42526358,0.002367177,0.24894877,0.82126766,1.4344958,-0.3966547,-0.7515017,-1.5828782,0.46514452,-0.15617232,-0.054377094,1.13275,0.8454017
0.0,0.1,1.4,0.0,0.0,0,0.053915918,-0.42507473,0.00821748,0.20475493,0.74842066,1.4368427,-0.6043689,-0.75483495,-1.5759104,0.31841266,-0.04242887,-0.013124473,1.1567167,-0.6978706
0.0,0.1,1.4,0.0,0.0,0,0.054640662,-0.42609558,-0.0046942704,0.18847582,0.44252357,1.4111896,-0.34948522,-0.76090604,-1.5653323,0.33658007,-0.08234897,-0.09359663,1.2009434,0.33096182
0.0,0.1,1.4,0.0,0.0,0,0.05466484,-0.425902,-0.0041609323,0.22594838,-0.023469875,1.3528084,0.5390949,-0.7538171,-1.5883616,0.017767208,-0.056224555,0.032308817,1.2032405,-1.6964939
0.0,0.1,1.4,0.0,0.0,0,0.054393478,-0.4253061,0.0104669025,0.22375481,0.47365057,1.3797679,0.77709925,-0.75159097,-1.5962298,0.43813607,-0.08475468,-0.042244174,1.1494501,-0.84983057
0.0,0.1,1.4,0.0,0.0,0,0.05342242,-0.424151,0.009028953,0.21622667,0.29668865,1.4088782,-0.32170936,-0.7337389,-1.5755985,0.3954788,-0.07840681,0.049452115,1.1447783,0.021387529
