sanky1234/BimanualDexCatch/isaacgymenvs/cem_results/football_pose_-0.2_0.0_0.6_0.0_0.0_0_2025-05-24.csv
x,y,z,roll,pitch,yaw,robot1/joint1,robot1/joint2,robot1/joint3,robot1/joint4,robot1/joint5,robot1/joint6,robot1/joint7,robot2/joint1,robot2/joint2,robot2/joint3,robot2/joint4,robot2/joint5,robot2/joint6,robot2/joint7
-0.2,0.0,0.6,0.0,0.0,0,0.09106694,1.9683683,-0.15366302,-0.25165963,0.77498764,1.5173129,-2.1384923,-0.6516103,1.4741598,-0.15081616,-0.8048129,-0.25098586,1.5467892,-1.6688775
-0.2,0.0,0.6,0.0,0.0,0,0.11458359,1.9617655,-0.15407568,-0.26355463,0.7827905,1.4952931,-2.2446215,-0.665291,1.4535561,-0.14381072,-0.77646387,-0.22108689,1.5467262,-1.7047709
-0.2,0.0,0.6,0.0,0.0,0,0.17237595,1.9603163,-0.14292046,-0.26239288,0.7982952,1.4723638,-2.0839865,-0.6613501,1.4539323,-0.15472202,-0.7893552,-0.23761038,1.539423,-1.7072296
-0.2,0.0,0.6,0.0,0.0,0,0.15321031,1.9691197,-0.13549073,-0.25844035,0.7680799,1.496864,-2.0060518,-0.65398985,1.4472524,-0.14994416,-0.79462874,-0.23929137,1.5371248,-1.670832
-0.2,0.0,0.6,0.0,0.0,0,0.17669079,1.9620063,-0.13614492,-0.2634869,0.7891805,1.4943452,-2.167898,-0.6413607,1.4583045,-0.13492942,-0.78958553,-0.23513703,1.5341294,-1.6475981
-0.2,0.0,0.6,0.0,0.0,0,0.120357014,1.976575,-0.16497055,-0.26026064,0.769159,1.4848921,-2.1008134,-0.64361566,1.4611436,-0.14859246,-0.79627895,-0.2839951,1.5544572,-1.6593242
-0.2,0.0,0.6,0.0,0.0,0,0.12347575,1.9699452,-0.13908035,-0.2439262,0.7392099,1.4669343,-2.284849,-0.64398694,1.4660587,-0.1626783,-0.7757401,-0.26928717,1.5419486,-1.6917459
-0.2,0.0,0.6,0.0,0.0,0,0.16175313,1.9675934,-0.1360362,-0.25743723,0.7869082,1.4946424,-2.3710365,-0.6197486,1.4557643,-0.14238903,-0.79194736,-0.25142828,1.5538362,-1.6634735
-0.2,0.0,0.6,0.0,0.0,0,0.1370422,1.9709386,-0.13775814,-0.257746,0.7892549,1.5074443,-2.134704,-0.6548991,1.4476659,-0.148542,-0.7806345,-0.21992452,1.5334556,-1.7053834
-0.2,0.0,0.6,0.0,0.0,0,0.15684663,1.9622163,-0.13862939,-0.2520256,0.7846733,1.487391,-2.1267042,-0.6580747,1.4411031,-0.13748209,-0.7994102,-0.23010762,1.5483153,-1.6747454
-0.2,0.0,0.6,0.0,0.0,0,0.17481153,1.9747922,-0.1368381,-0.25523844,0.7890291,1.4950315,-2.2080588,-0.65694976,1.4685528,-0.14291646,-0.7876273,-0.24172474,1.5464197,-1.6486855
-0.2,0.0,0.6,0.0,0.0,0,0.14144747,1.9712106,-0.15533693,-0.2645319,0.7552419,1.5040687,-2.0597649,-0.65351444,1.4586978,-0.15917982,-0.7700153,-0.24716216,1.5382026,-1.6668414
-0.2,0.0,0.6,0.0,0.0,0,0.13464795,1.9634619,-0.13460171,-0.24195528,0.78722,1.4972043,-2.0744956,-0.6487299,1.4756935,-0.1424811,-0.7986252,-0.22121887,1.5487868,-1.6906034
-0.2,0.0,0.6,0.0,0.0,0,0.15710844,1.9654009,-0.13936207,-0.26202112,0.7831952,1.5033687,-2.2503338,-0.64181805,1.4523338,-0.14161006,-0.7941628,-0.26573658,1.5474623,-1.6674551
-0.2,0.0,0.6,0.0,0.0,0,0.14083798,1.9630222,-0.14334662,-0.23706108,0.7291812,1.4791118,-2.0705934,-0.65034246,1.4476713,-0.15673971,-0.7840742,-0.2740416,1.5335244,-1.6806856
-0.2,0.0,0.6,0.0,0.0,0,0.14651564,1.9678535,-0.14167309,-0.2576122,0.8192764,1.4852674,-2.094966,-0.6552201,1.4516165,-0.15115139,-0.782585,-0.24915378,1.5241762,-1.6738781
-0.2,0.0,0.6,0.0,0.0,0,0.15440907,1.9648519,-0.15299995,-0.25623992,0.73904246,1.4844109,-2.3594203,-0.65916663,1.4640702,-0.1738984,-0.78832716,-0.25115338,1.5514622,-1.6515536
-0.2,0.0,0.6,0.0,0.0,0,0.18536724,1.979329,-0.15178213,-0.23639019,0.7998718,1.4933826,-2.2427166,-0.6430331,1.4698755,-0.15914644,-0.81859004,-0.2479894,1.5505911,-1.6686618
-0.2,0.0,0.6,0.0,0.0,0,0.14552498,1.9661177,-0.14075638,-0.26810881,0.79838014,1.4979414,-1.9879068,-0.661823,1.4620904,-0.15739249,-0.7869083,-0.25164884,1.5350972,-1.6061512
-0.2,0.0,0.6,0.0,0.0,0,0.09602603,1.9674647,-0.13071992,-0.25191906,0.76749355,1.4978188,-2.2216005,-0.6583574,1.4597594,-0.1520303,-0.77734166,-0.2567818,1.5451083,-1.6044748
-0.2,0.0,0.6,0.0,0.0,0,0.12234655,1.972276,-0.14488542,-0.24606991,0.8046991,1.504924,-2.1518214,-0.636844,1.45278,-0.12646805,-0.77975744,-0.25434297,1.5340365,-1.638041
-0.2,0.0,0.6,0.0,0.0,0,0.15504625,1.977322,-0.15006234,-0.2619266,0.7836756,1.5179075,-2.2619314,-0.6595226,1.4595228,-0.15089214,-0.7776593,-0.2659555,1.5220667,-1.6496783
-0.2,0.0,0.6,0.0,0.0,0,0.1421515,1.9608213,-0.14698,-0.24525969,0.7782145,1.5100493,-2.1709604,-0.66867787,1.4584862,-0.13232854,-0.77584547,-0.26755327,1.5512426,-1.6342024
-0.2,0.0,0.6,0.0,0.0,0,0.21576825,1.9661038,-0.163815,-0.25986096,0.7314516,1.4820685,-2.034845,-0.62511206,1.4466182,-0.14570878,-0.78181034,-0.23946439,1.5426108,-1.7001716
-0.2,0.0,0.6,0.0,0.0,0,0.12517132,1.9736627,-0.1277063,-0.2499497,0.7733882,1.4890591,-2.261997,-0.65059847,1.4552684,-0.14904976,-0.799414,-0.26118824,1.5567836,-1.6946368
-0.2,0.0,0.6,0.0,0.0,0,0.167179,1.9655105,-0.13657293,-0.27977452,0.7421739,1.497705,-2.2043624,-0.65798414,1.4506133,-0.16294104,-0.78169674,-0.26586407,1.531819,-1.6770517
-0.2,0.0,0.6,0.0,0.0,0,0.17324713,1.9723704,-0.14149886,-0.24599022,0.7884897,1.5014168,-2.0892093,-0.6614896,1.4586062,-0.15482639,-0.78902996,-0.2624662,1.553128,-1.655257
-0.2,0.0,0.6,0.0,0.0,0,0.14203928,1.9698106,-0.14283344,-0.26058152,0.7856993,1.4935826,-2.0925117,-0.66228634,1.4795269,-0.15192062,-0.82443273,-0.25388458,1.5519379,-1.64731
-0.2,0.0,0.6,0.0,0.0,0,0.12760055,1.9624863,-0.13123313,-0.2573978,0.7883887,1.5031506,-2.244346,-0.65886253,1.4558959,-0.1443588,-0.7918577,-0.2578455,1.547406,-1.6897677
-0.2,0.0,0.6,0.0,0.0,0,0.14586009,1.9672476,-0.14167856,-0.25177544,0.7560878,1.4826612,-2.1736858,-0.619891,1.4760399,-0.14284922,-0.7906078,-0.24046694,1.5554184,-1.7060536
-0.2,0.0,0.6,0.0,0.0,0,0.12792681,1.980671,-0.1511201,-0.25638074,0.7788218,1.5030284,-2.2134514,-0.644875,1.4630307,-0.14928329,-0.76247907,-0.24554946,1.5270901,-1.6555916
-0.2,0.0,0.6,0.0,0.0,0,0.15472461,1.9733136,-0.14500135,-0.24301605,0.78579783,1.4800668,-2.2371078,-0.6518348,1.4677008,-0.16939342,-0.79272467,-0.2573846,1.534944,-1.6484588
-0.2,0.0,0.6,0.0,0.0,0,0.1462874,1.9669217,-0.13325907,-0.24682339,0.73460823,1.4682596,-1.9767655,-0.6587114,1.4452857,-0.13637105,-0.7769782,-0.2474869,1.5295233,-1.642645
-0.2,0.0,0.6,0.0,0.0,0,0.1505122,1.9670181,-0.14150845,-0.2459725,0.77988505,1.4899,-2.2741954,-0.63371027,1.4680746,-0.1418061,-0.7911326,-0.24804801,1.5471312,-1.7120037
-0.2,0.0,0.6,0.0,0.0,0,0.14417017,1.9644172,-0.13157974,-0.274679,0.78873706,1.4876543,-2.2495074,-0.6552586,1.4664837,-0.16075623,-0.77337974,-0.26525462,1.5307177,-1.6307422
-0.2,0.0,0.6,0.0,0.0,0,0.13150556,1.9721783,-0.124920204,-0.2685221,0.797048,1.5033624,-2.21992,-0.6431095,1.4568791,-0.1520643,-0.79630816,-0.2593603,1.5496184,-1.6933534
-0.2,0.0,0.6,0.0,0.0,0,0.1569059,1.978383,-0.13359724,-0.25199527,0.7593479,1.5089427,-2.3421302,-0.6389018,1.4586347,-0.14382844,-0.8000494,-0.23237684,1.5518504,-1.6747655
-0.2,0.0,0.6,0.0,0.0,0,0.14754656,1.9785489,-0.14892755,-0.26094183,0.76280284,1.4978266,-2.1788535,-0.6625272,1.4700755,-0.15670654,-0.79271245,-0.26111296,1.5573688,-1.6758778
-0.2,0.0,0.6,0.0,0.0,0,0.13294771,1.9646394,-0.1520907,-0.24969734,0.7873182,1.4890757,-2.208906,-0.6462923,1.4732664,-0.15232036,-0.77929914,-0.27942434,1.543558,-1.6310148
-0.2,0.0,0.6,0.0,0.0,0,0.14316618,1.9772891,-0.14992216,-0.24266598,0.75347185,1.5139861,-2.3067377,-0.6560613,1.46179,-0.14698064,-0.8127138,-0.22345696,1.5500668,-1.6816319
-0.2,0.0,0.6,0.0,0.0,0,0.16734384,1.961226,-0.14725867,-0.25322136,0.7584351,1.5062729,-2.1145902,-0.632328,1.4618386,-0.17666236,-0.7725748,-0.23533536,1.5336331,-1.6997793
-0.2,0.0,0.6,0.0,0.0,0,0.1403189,1.9706953,-0.14916794,-0.25689256,0.7720108,1.4938295,-2.398723,-0.64460164,1.4809885,-0.15051647,-0.81720644,-0.2697858,1.5618393,-1.7202082
-0.2,0.0,0.6,0.0,0.0,0,0.12515683,1.969288,-0.13486597,-0.24564004,0.7407879,1.4475315,-2.1710494,-0.6483205,1.4777101,-0.14449702,-0.80364615,-0.23049618,1.5529697,-1.6916519
-0.2,0.0,0.6,0.0,0.0,0,0.17062955,1.9715699,-0.15307564,-0.26074,0.7712736,1.5084498,-2.1778238,-0.63600516,1.4637294,-0.15003628,-0.7940794,-0.27548882,1.5500907,-1.6876376
-0.2,0.0,0.6,0.0,0.0,0,0.14246023,1.965892,-0.14097252,-0.24162458,0.74174976,1.4906127,-2.0754254,-0.6585804,1.4519861,-0.1587718,-0.7915609,-0.22191268,1.5532098,-1.6841503
-0.2,0.0,0.6,0.0,0.0,0,0.1655595,1.9754337,-0.15232937,-0.24257852,0.7559967,1.4911261,-2.3962278,-0.6551911,1.472169,-0.14760476,-0.7888188,-0.27130127,1.5536181,-1.6848323
-0.2,0.0,0.6,0.0,0.0,0,0.13400602,1.9677486,-0.14871392,-0.24279729,0.7658781,1.4927126,-2.403982,-0.64090866,1.4613602,-0.14265057,-0.759676,-0.26737294,1.5439034,-1.6597418
-0.2,0.0,0.6,0.0,0.0,0,0.1439961,1.9671557,-0.14857839,-0.25166696,0.7835132,1.4956888,-2.1613903,-0.66236824,1.4657173,-0.14430225,-0.8210165,-0.2558325,1.5672165,-1.6058438
-0.2,0.0,0.6,0.0,0.0,0,0.15170617,1.9713564,-0.1353563,-0.2575648,0.7610609,1.4872077,-2.216266,-0.65541464,1.4593804,-0.156593,-0.79061574,-0.2547964,1.5359144,-1.6610107
-0.2,0.0,0.6,0.0,0.0,0,0.12100046,1.9679517,-0.13505092,-0.24560356,0.769396,1.5033393,-2.1768942,-0.65367204,1.4682041,-0.15171173,-0.78613234,-0.2758751,1.5506736,-1.6738616
-0.2,0.0,0.6,0.0,0.0,0,0.13093556,1.9685472,-0.14285126,-0.24835439,0.78078896,1.5120281,-2.1372976,-0.6567068,1.4562768,-0.15943527,-0.77405137,-0.24153884,1.5371256,-1.6139618
-0.2,0.0,0.6,0.0,0.0,0,0.15157421,1.9788588,-0.1533004,-0.256213,0.7782746,1.5136138,-2.132657,-0.63457876,1.4658173,-0.15530662,-0.7675131,-0.26929048,1.5471162,-1.6525257
-0.2,0.0,0.6,0.0,0.0,0,0.16956262,1.9641801,-0.11913608,-0.24192616,0.7607228,1.4946086,-2.0881534,-0.6509945,1.4592156,-0.14774148,-0.7684682,-0.2807663,1.5335101,-1.7187233
-0.2,0.0,0.6,0.0,0.0,0,0.17480914,1.9631784,-0.15013804,-0.26867092,0.7876379,1.4935505,-2.0784519,-0.64694154,1.4697753,-0.16304937,-0.7764505,-0.25178757,1.5491569,-1.6892935
-0.2,0.0,0.6,0.0,0.0,0,0.17312667,1.9703734,-0.1613639,-0.25175038,0.80112284,1.4898382,-2.213551,-0.6514804,1.488665,-0.15307671,-0.8057384,-0.23001683,1.5385522,-1.6666726
-0.2,0.0,0.6,0.0,0.0,0,0.13318123,1.973009,-0.13483298,-0.24166115,0.7977385,1.4851372,-2.1682286,-0.65631944,1.4712191,-0.1446684,-0.76639664,-0.24456526,1.5427015,-1.6687655
-0.2,0.0,0.6,0.0,0.0,0,0.12783359,1.96544,-0.1484848,-0.25746647,0.74070984,1.4918935,-2.1312826,-0.64200413,1.4882013,-0.1492907,-0.7660271,-0.2539231,1.5289474,-1.7007583
-0.2,0.0,0.6,0.0,0.0,0,0.13443223,1.9670577,-0.14455448,-0.2652931,0.7757522,1.5059586,-2.2510984,-0.6406055,1.4625885,-0.14647941,-0.78692806,-0.2615486,1.5386473,-1.6906952
-0.2,0.0,0.6,0.0,0.0,0,0.15991679,1.9696897,-0.13150407,-0.25875103,0.7626338,1.497168,-2.3225582,-0.6697186,1.4566518,-0.16895556,-0.80658,-0.20955558,1.5432673,-1.6443272
-0.2,0.0,0.6,0.0,0.0,0,0.15281658,1.9709702,-0.13373558,-0.2671091,0.78769255,1.4825933,-2.1488724,-0.6851204,1.4872133,-0.149738,-0.78068817,-0.27781773,1.5342557,-1.6881001
-0.2,0.0,0.6,0.0,0.0,0,0.14925015,1.9628463,-0.139987,-0.26532927,0.7555721,1.5146074,-2.304296,-0.6420737,1.4720173,-0.14401802,-0.8043482,-0.23066251,1.5597179,-1.6785599
-0.2,0.0,0.6,0.0,0.0,0,0.16747096,1.9629056,-0.1377156,-0.25513095,0.788436,1.4892342,-1.9730064,-0.6669994,1.46179,-0.1383473,-0.79794097,-0.26366875,1.5474778,-1.6664304
-0.2,0.0,0.6,0.0,0.0,0,0.16080172,1.9707663,-0.14259754,-0.26337573,0.80288607,1.4942688,-2.0963142,-0.6584696,1.467527,-0.15337205,-0.800521,-0.25166008,1.5489405,-1.6787273
-0.2,0.0,0.6,0.0,0.0,0,0.18194664,1.9770454,-0.14858474,-0.24981499,0.71843225,1.48931,-2.1226966,-0.6711028,1.4511944,-0.16051473,-0.7918733,-0.24222638,1.552199,-1.6669453
-0.2,0.0,0.6,0.0,0.0,0,0.11711885,1.9707344,-0.14488214,-0.2609979,0.7508911,1.4947224,-2.0769608,-0.64978313,1.4678903,-0.1381177,-0.7938839,-0.26335704,1.5491093,-1.6961315
-0.2,0.0,0.6,0.0,0.0,0,0.17929482,1.9658188,-0.13335016,-0.25782016,0.746319,1.485764,-2.0670605,-0.65273976,1.470013,-0.14378496,-0.79932934,-0.23347698,1.5378733,-1.6794204
-0.2,0.0,0.6,0.0,0.0,0,0.1784369,1.9679912,-0.14121217,-0.26587865,0.74850404,1.5033225,-2.1248283,-0.63996816,1.4665314,-0.14905094,-0.79624337,-0.2497943,1.5340681,-1.6600863
-0.2,0.0,0.6,0.0,0.0,0,0.14550862,1.9630135,-0.13872223,-0.25641757,0.74961287,1.490094,-2.2820988,-0.64743143,1.4646424,-0.15560558,-0.7942052,-0.26471952,1.5454937,-1.684119
-0.2,0.0,0.6,0.0,0.0,0,0.14037499,1.9735702,-0.15347587,-0.25445372,0.74794585,1.4884288,-2.283587,-0.6600759,1.4621223,-0.14288346,-0.7709304,-0.23612286,1.5449392,-1.617907
-0.2,0.0,0.6,0.0,0.0,0,0.15082163,1.9730326,-0.124591246,-0.25064397,0.7694313,1.5061083,-2.0827177,-0.64648783,1.4532615,-0.15146303,-0.7816798,-0.25485763,1.5498545,-1.6627481
-0.2,0.0,0.6,0.0,0.0,0,0.15846848,1.9743732,-0.14285032,-0.26465976,0.7506719,1.4934385,-2.2449937,-0.66169924,1.4616305,-0.14480667,-0.76182157,-0.25723398,1.5479859,-1.6844538
-0.2,0.0,0.6,0.0,0.0,0,0.15176834,1.9755102,-0.120392375,-0.2586934,0.7469489,1.4745313,-2.217583,-0.665791,1.4725262,-0.1755296,-0.7869948,-0.24935523,1.527743,-1.6549999
-0.2,0.0,0.6,0.0,0.0,0,0.104202494,1.9762081,-0.14447136,-0.2626558,0.7624086,1.489047,-2.1851242,-0.65955085,1.4660281,-0.15805031,-0.78630286,-0.2632165,1.5481253,-1.6474692
-0.2,0.0,0.6,0.0,0.0,0,0.105540924,1.9750427,-0.15732656,-0.25124133,0.7684415,1.4956979,-2.168839,-0.6603525,1.4503182,-0.14382,-0.75485194,-0.27375323,1.5352635,-1.7456381
-0.2,0.0,0.6,0.0,0.0,0,0.13702275,1.9767182,-0.14718612,-0.26640838,0.75178677,1.5019842,-2.1347487,-0.68439364,1.4615254,-0.14989008,-0.7745088,-0.23873961,1.536285,-1.6807655
-0.2,0.0,0.6,0.0,0.0,0,0.14803584,1.9732795,-0.14032434,-0.2595265,0.7666188,1.4868029,-2.3106997,-0.6630644,1.443468,-0.15878977,-0.772792,-0.25909677,1.5443413,-1.6236684
-0.2,0.0,0.6,0.0,0.0,0,0.16849615,1.9674214,-0.14090106,-0.25831226,0.750608,1.5036933,-2.197539,-0.65857136,1.4512465,-0.15101913,-0.7878572,-0.24167517,1.5391947,-1.6963222
-0.2,0.0,0.6,0.0,0.0,0,0.1891326,1.9703792,-0.16812275,-0.2625965,0.7552825,1.4618132,-2.3079312,-0.65853673,1.455731,-0.16108315,-0.77087694,-0.2533431,1.5413971,-1.6419184
-0.2,0.0,0.6,0.0,0.0,0,0.157345,1.9643124,-0.13292807,-0.2359731,0.74426794,1.4912214,-2.2619166,-0.64057475,1.4690208,-0.1553405,-0.7974101,-0.23071326,1.535512,-1.6464263
-0.2,0.0,0.6,0.0,0.0,0,0.1426429,1.9681387,-0.16488375,-0.24461956,0.7620205,1.4885656,-2.0620718,-0.6863843,1.4559014,-0.13118641,-0.79033196,-0.23184282,1.5382936,-1.6940129
-0.2,0.0,0.6,0.0,0.0,0,0.13660133,1.9702926,-0.14004245,-0.2699427,0.7871884,1.5123419,-2.2693305,-0.6477136,1.4538858,-0.16183178,-0.76547176,-0.276963,1.5362641,-1.6714164
-0.2,0.0,0.6,0.0,0.0,0,0.14287277,1.9715285,-0.12351909,-0.26154274,0.78078514,1.4845504,-2.2850819,-0.665224,1.4658403,-0.13521738,-0.8084221,-0.24133815,1.541421,-1.6554688
-0.2,0.0,0.6,0.0,0.0,0,0.1461086,1.9618824,-0.13567029,-0.2574585,0.7596172,1.5105487,-2.1434007,-0.6664054,1.4597518,-0.14969945,-0.78260356,-0.23209995,1.533561,-1.6486948
-0.2,0.0,0.6,0.0,0.0,0,0.17796303,1.9691073,-0.14389189,-0.24923456,0.8012453,1.4883959,-2.2951047,-0.6596417,1.4703845,-0.14114328,-0.815172,-0.24707085,1.5436629,-1.6723742
-0.2,0.0,0.6,0.0,0.0,0,0.13672614,1.9643193,-0.13226044,-0.2625694,0.74785787,1.4949998,-2.1111953,-0.641842,1.4556359,-0.14680645,-0.78415835,-0.27246812,1.56319,-1.6688532
-0.2,0.0,0.6,0.0,0.0,0,0.12891263,1.970129,-0.15674175,-0.26001924,0.7369334,1.4849942,-2.2334392,-0.6553088,1.4657371,-0.1462223,-0.7595051,-0.2350843,1.5252001,-1.6542937
-0.2,0.0,0.6,0.0,0.0,0,0.13377343,1.9661856,-0.16225654,-0.2326179,0.75303984,1.485656,-2.216495,-0.666218,1.4655956,-0.14901303,-0.7891123,-0.2535066,1.5522902,-1.6247419
-0.2,0.0,0.6,0.0,0.0,0,0.15071861,1.967017,-0.1396275,-0.2637174,0.7779609,1.4971008,-2.2304204,-0.64971286,1.4695702,-0.16817424,-0.7839443,-0.26882926,1.5472623,-1.6807036
-0.2,0.0,0.6,0.0,0.0,0,0.12202165,1.9825157,-0.14003518,-0.2496894,0.76823324,1.4885157,-2.2522,-0.6525166,1.4765842,-0.14093795,-0.78227735,-0.2741594,1.5462422,-1.6661851
-0.2,0.0,0.6,0.0,0.0,0,0.17119734,1.9754894,-0.14176588,-0.26451683,0.7859058,1.5013956,-2.3305728,-0.6454844,1.4607372,-0.1598667,-0.77943504,-0.26066193,1.5479122,-1.7075726
-0.2,0.0,0.6,0.0,0.0,0,0.13354595,1.9650989,-0.1359875,-0.25136065,0.728854,1.4945699,-2.196776,-0.6497026,1.4570135,-0.1416181,-0.7788533,-0.23674518,1.5472667,-1.671276
-0.2,0.0,0.6,0.0,0.0,0,0.14790814,1.979141,-0.15046138,-0.25703424,0.729499,1.5169634,-2.143181,-0.6351978,1.4465433,-0.15088983,-0.79397917,-0.23613532,1.5579627,-1.6440717
-0.2,0.0,0.6,0.0,0.0,0,0.15843967,1.9696937,-0.1489825,-0.25053674,0.76253486,1.4927021,-2.292144,-0.6541446,1.4495127,-0.13249764,-0.7775047,-0.26580977,1.5373657,-1.668383
-0.2,0.0,0.6,0.0,0.0,0,0.15160671,1.9618835,-0.15379174,-0.23600757,0.78916687,1.4937494,-2.144931,-0.65816545,1.469192,-0.15039676,-0.78113884,-0.24938747,1.5328493,-1.6914551
-0.2,0.0,0.6,0.0,0.0,0,0.12936653,1.9716222,-0.13552518,-0.25587854,0.7787985,1.4531884,-1.9948906,-0.6580838,1.4575994,-0.1404036,-0.7811703,-0.23939866,1.5492557,-1.6844436
-0.2,0.0,0.6,0.0,0.0,0,0.14161709,1.9773467,-0.1263495,-0.2410771,0.7525454,1.4811146,-2.2075267,-0.65581584,1.4617572,-0.13524765,-0.8033793,-0.25964037,1.5458417,-1.6747011
-0.2,0.0,0.6,0.0,0.0,0,0.14341155,1.9611816,-0.15001135,-0.25090235,0.7566663,1.4790299,-2.2739313,-0.6534056,1.4695407,-0.17028138,-0.787058,-0.234126,1.5525975,-1.6061327
-0.2,0.0,0.6,0.0,0.0,0,0.1428812,1.9671324,-0.13472377,-0.2462644,0.77297306,1.5115632,-2.1117055,-0.66666186,1.4583402,-0.15719184,-0.77706945,-0.22686832,1.5443115,-1.6987145
-0.2,0.0,0.6,0.0,0.0,0,0.1565015,1.968743,-0.14115772,-0.2651779,0.78197736,1.4982105,-2.091239,-0.669896,1.4705361,-0.12214092,-0.79494435,-0.26187593,1.551328,-1.703799
-0.2,0.0,0.6,0.0,0.0,0,0.15012452,1.965298,-0.15367576,-0.24824552,0.75458723,1.505207,-2.149446,-0.6566927,1.4618689,-0.16671376,-0.78998476,-0.24329245,1.5465981,-1.6145493
-0.2,0.0,0.6,0.0,0.0,0,0.1497213,1.9733986,-0.13153727,-0.26009327,0.78693074,1.5027188,-2.0890157,-0.6452927,1.4673804,-0.15333837,-0.7787187,-0.2560436,1.5344445,-1.7231237
-0.2,0.0,0.6,0.0,0.0,0,0.1525314,1.9670308,-0.1478442,-0.2725311,0.7949648,1.490205,-2.1170232,-0.66931194,1.4631472,-0.16487926,-0.7763002,-0.23857205,1.5386697,-1.6960523
-0.2,0.0,0.6,0.0,0.0,0,0.12569056,1.975389,-0.16392812,-0.2608411,0.82456565,1.4747797,-2.069756,-0.64520895,1.4701674,-0.15260841,-0.76278484,-0.24461758,1.5389395,-1.6558894
-0.2,0.0,0.6,0.0,0.0,0,0.1410898,1.9740735,-0.13441578,-0.25360492,0.7861886,1.4874563,-2.1253006,-0.6393316,1.4575412,-0.15044165,-0.78511846,-0.24199331,1.5464314,-1.6958477
-0.2,0.0,0.6,0.0,0.0,0,0.13183714,1.977663,-0.13495336,-0.25306767,0.79009354,1.4954581,-2.1556392,-0.64600325,1.4721006,-0.15405707,-0.78987676,-0.23373555,1.5498242,-1.6655822
-0.2,0.0,0.6,0.0,0.0,0,0.14393242,1.9772611,-0.15220091,-0.24804132,0.7639987,1.5061517,-2.085957,-0.6418279,1.4610498,-0.15924346,-0.7579549,-0.25900394,1.5426408,-1.6642913
-0.2,0.0,0.6,0.0,0.0,0,0.13439405,1.9636618,-0.13306567,-0.24821354,0.79910624,1.4800707,-2.064306,-0.67922705,1.4574717,-0.14432624,-0.79719,-0.2629577,1.5504732,-1.6312002
-0.2,0.0,0.6,0.0,0.0,0,0.14809267,1.9658672,-0.12957448,-0.27965215,0.74768525,1.5076948,-2.3573453,-0.64550215,1.4658172,-0.15710238,-0.78702873,-0.25444585,1.5533292,-1.6750404
-0.2,0.0,0.6,0.0,0.0,0,0.12567028,1.9677632,-0.122082256,-0.25134066,0.76537234,1.4889368,-2.0850663,-0.61834615,1.4714483,-0.14658907,-0.777366,-0.2551486,1.5379391,-1.6544052
-0.2,0.0,0.6,0.0,0.0,0,0.15583497,1.9759605,-0.14986473,-0.24019112,0.77861,1.4793702,-2.2408712,-0.6623471,1.4698179,-0.15697324,-0.82219476,-0.23870878,1.5627857,-1.6426969
-0.2,0.0,0.6,0.0,0.0,0,0.14540058,1.9659417,-0.16114502,-0.249411,0.786978,1.4865445,-2.1789992,-0.65094054,1.4553719,-0.13911133,-0.758729,-0.27787954,1.5432893,-1.7091103
-0.2,0.0,0.6,0.0,0.0,0,0.15646498,1.9692239,-0.1452752,-0.22873476,0.7889302,1.4774415,-2.183125,-0.6472754,1.4523988,-0.15722965,-0.78618014,-0.25678062,1.5418445,-1.7084286
-0.2,0.0,0.6,0.0,0.0,0,0.1431522,1.9660188,-0.13606091,-0.2558843,0.7902472,1.4840206,-2.2805178,-0.6665962,1.4651483,-0.14128758,-0.7786587,-0.24890514,1.5462625,-1.644966
-0.2,0.0,0.6,0.0,0.0,0,0.17498043,1.9698477,-0.13840216,-0.27777904,0.80276716,1.485377,-2.2052817,-0.66244024,1.4649097,-0.14640522,-0.7716302,-0.24790338,1.5512087,-1.7078352
-0.2,0.0,0.6,0.0,0.0,0,0.09310951,1.96269,-0.14871033,-0.2555892,0.78552735,1.5044086,-2.446761,-0.6657435,1.4676499,-0.14597826,-0.7681615,-0.23761661,1.543671,-1.6640786
-0.2,0.0,0.6,0.0,0.0,0,0.15304115,1.9621689,-0.13927697,-0.2511375,0.7692167,1.50347,-2.2490945,-0.6530094,1.459907,-0.13596895,-0.7811007,-0.2286862,1.5444611,-1.6945086
-0.2,0.0,0.6,0.0,0.0,0,0.14738387,1.9715911,-0.14340203,-0.25471714,0.80669165,1.4906087,-2.181993,-0.63619107,1.4642234,-0.14602852,-0.78574896,-0.24532641,1.5531895,-1.6578702
-0.2,0.0,0.6,0.0,0.0,0,0.13862662,1.964339,-0.13631505,-0.24553397,0.75800496,1.4835995,-2.3638787,-0.67395693,1.4491109,-0.15609662,-0.7908357,-0.2307014,1.557902,-1.6373011
-0.2,0.0,0.6,0.0,0.0,0,0.14246972,1.9724497,-0.14323962,-0.2582219,0.7658897,1.4943116,-2.0872717,-0.6342438,1.4624813,-0.1383137,-0.80266917,-0.25675324,1.5620978,-1.657526
-0.2,0.0,0.6,0.0,0.0,0,0.13861993,1.9704832,-0.13437098,-0.25275207,0.7508443,1.4888334,-2.2246687,-0.6689214,1.4782449,-0.13728322,-0.77796805,-0.24367383,1.5058386,-1.6444045
-0.2,0.0,0.6,0.0,0.0,0,0.16618785,1.969166,-0.13927354,-0.25342873,0.7887429,1.5175053,-2.3925424,-0.64279675,1.4519938,-0.14140183,-0.8005533,-0.23735216,1.5482953,-1.6735384
-0.2,0.0,0.6,0.0,0.0,0,0.12650865,1.9654773,-0.1393687,-0.24958755,0.75723445,1.4879569,-2.023195,-0.64092124,1.4553229,-0.14326108,-0.7565585,-0.25594696,1.5458653,-1.6135523
-0.2,0.0,0.6,0.0,0.0,0,0.17593789,1.9601715,-0.14909884,-0.25581944,0.75171244,1.4822444,-2.25762,-0.65796405,1.4642726,-0.16128208,-0.7748236,-0.2651725,1.5402547,-1.6432239
-0.2,0.0,0.6,0.0,0.0,0,0.17402759,1.9819312,-0.14981617,-0.2629377,0.7962825,1.5048048,-2.3693502,-0.66866314,1.466528,-0.1618752,-0.8035224,-0.22671823,1.5575514,-1.6788284
-0.2,0.0,0.6,0.0,0.0,0,0.1564756,1.9617244,-0.14558944,-0.24389403,0.7792725,1.5027936,-2.1210837,-0.6398404,1.4761397,-0.14690414,-0.7763019,-0.25865957,1.5364515,-1.6559539
-0.2,0.0,0.6,0.0,0.0,0,0.09916054,1.9692757,-0.12911764,-0.24446765,0.75893587,1.5023444,-2.3229623,-0.6265384,1.4681568,-0.13617498,-0.7459058,-0.26057342,1.5442115,-1.7049729
-0.2,0.0,0.6,0.0,0.0,0,0.15500534,1.9644458,-0.12629403,-0.24734448,0.7538881,1.487145,-2.2604547,-0.63137454,1.4535209,-0.15396403,-0.79782665,-0.24263993,1.5386294,-1.6598401
-0.2,0.0,0.6,0.0,0.0,0,0.13865152,1.9693534,-0.15032716,-0.25619438,0.7644771,1.5009127,-2.1921754,-0.6602814,1.4744362,-0.14884976,-0.7850482,-0.24430282,1.549217,-1.6650809
-0.2,0.0,0.6,0.0,0.0,0,0.1402679,1.9689411,-0.15127209,-0.25442213,0.8057863,1.4956087,-2.289547,-0.63393545,1.4764317,-0.14741367,-0.7842442,-0.24487363,1.5526032,-1.6698345
-0.2,0.0,0.6,0.0,0.0,0,0.17095223,1.9637661,-0.16002937,-0.25213552,0.772322,1.4825066,-2.2568734,-0.63476324,1.465162,-0.16818321,-0.7618785,-0.23075034,1.5455164,-1.6698558
-0.2,0.0,0.6,0.0,0.0,0,0.16457613,1.9640158,-0.15545827,-0.23509505,0.74819547,1.496134,-2.1771896,-0.6670286,1.4595299,-0.15551533,-0.78547406,-0.24831963,1.54114,-1.6938857
-0.2,0.0,0.6,0.0,0.0,0,0.16034085,1.974764,-0.14932588,-0.2528419,0.7977513,1.4608437,-2.3172596,-0.64769095,1.4602454,-0.14234668,-0.78470254,-0.25940934,1.5370135,-1.6809561
-0.2,0.0,0.6,0.0,0.0,0,0.15085848,1.9715317,-0.10627452,-0.24774878,0.7378712,1.474452,-2.3855286,-0.64592695,1.4609704,-0.1376842,-0.7867762,-0.25504428,1.5339236,-1.6844352
-0.2,0.0,0.6,0.0,0.0,0,0.13396984,1.9877825,-0.13810703,-0.27005368,0.7835906,1.4609734,-2.1615963,-0.6243224,1.4630816,-0.14532372,-0.77030575,-0.23723474,1.555801,-1.6859291
-0.2,0.0,0.6,0.0,0.0,0,0.15019533,1.9719921,-0.124305956,-0.2566509,0.7991665,1.4715357,-2.3569667,-0.65200585,1.4573528,-0.15516055,-0.7762729,-0.24034956,1.5592709,-1.7054839
-0.2,0.0,0.6,0.0,0.0,0,0.16023757,1.9730616,-0.14118128,-0.2424138,0.75639564,1.47866,-2.3670743,-0.656865,1.4698379,-0.17186923,-0.8089451,-0.27993384,1.5568817,-1.6812303
-0.2,0.0,0.6,0.0,0.0,0,0.13983399,1.9630107,-0.13956375,-0.25838065,0.7688017,1.4936677,-2.3423162,-0.6608498,1.4650866,-0.15966168,-0.78239554,-0.24659406,1.5678124,-1.7114273
-0.2,0.0,0.6,0.0,0.0,0,0.16912453,1.970224,-0.15928565,-0.24468942,0.748873,1.5036182,-2.268176,-0.64614457,1.4771945,-0.16578948,-0.79338455,-0.2556325,1.5517663,-1.6780094
-0.2,0.0,0.6,0.0,0.0,0,0.16586848,1.956054,-0.14118269,-0.25645185,0.7435433,1.4831315,-2.199448,-0.66803133,1.4646025,-0.14152493,-0.7947785,-0.26418298,1.5494243,-1.657325
-0.2,0.0,0.6,0.0,0.0,0,0.15066613,1.9708453,-0.1362373,-0.25416717,0.75533026,1.4835945,-2.1433284,-0.6475705,1.4575216,-0.1477986,-0.7976609,-0.25247887,1.5458597,-1.6910834
-0.2,0.0,0.6,0.0,0.0,0,0.15568404,1.9783863,-0.13210797,-0.2744424,0.76574224,1.4805268,-2.177403,-0.65936655,1.4641436,-0.15535253,-0.7771649,-0.24952589,1.5383092,-1.6649877
-0.2,0.0,0.6,0.0,0.0,0,0.15826727,1.9632943,-0.12944902,-0.26238075,0.79431856,1.4707962,-2.2122924,-0.6418187,1.4669303,-0.15337451,-0.77429533,-0.2689632,1.547097,-1.6775362
-0.2,0.0,0.6,0.0,0.0,0,0.16281104,1.966338,-0.15986133,-0.25700688,0.73761076,1.5046073,-2.2511444,-0.6697497,1.4529817,-0.14933695,-0.77112687,-0.23548985,1.5379589,-1.6793343
-0.2,0.0,0.6,0.0,0.0,0,0.15108256,1.9771535,-0.133639,-0.25054637,0.73840535,1.4978516,-2.3737903,-0.6635489,1.4593513,-0.1633902,-0.78853285,-0.22588737,1.5532473,-1.6717845
-0.2,0.0,0.6,0.0,0.0,0,0.14939831,1.9599389,-0.13794148,-0.25352144,0.7797275,1.4890382,-2.190623,-0.63753515,1.4601085,-0.16190846,-0.7943561,-0.2670605,1.5503615,-1.6702093
-0.2,0.0,0.6,0.0,0.0,0,0.1522757,1.972548,-0.1450938,-0.2518144,0.7875653,1.4855062,-2.1713166,-0.6406094,1.468167,-0.1713835,-0.7842481,-0.24644633,1.5444167,-1.6369762
-0.2,0.0,0.6,0.0,0.0,0,0.16735558,1.9742101,-0.16504064,-0.2563433,0.78546065,1.4942681,-2.281351,-0.65566325,1.4606419,-0.14999154,-0.7838707,-0.25210157,1.5594447,-1.6390831
-0.2,0.0,0.6,0.0,0.0,0,0.14098981,1.9664263,-0.14326684,-0.2536993,0.79717743,1.4814483,-2.297028,-0.64216465,1.4716064,-0.13933589,-0.7823839,-0.2515447,1.5524235,-1.6950657
-0.2,0.0,0.6,0.0,0.0,0,0.1508237,1.9718463,-0.16862491,-0.24353531,0.7345835,1.5050343,-2.2104409,-0.6595734,1.462167,-0.1423588,-0.77187353,-0.25468382,1.5544367,-1.6697608
-0.2,0.0,0.6,0.0,0.0,0,0.17486444,1.9640135,-0.1598827,-0.24241066,0.77349675,1.5048652,-2.159396,-0.6633681,1.4714735,-0.15691014,-0.77072376,-0.28387606,1.5407534,-1.7043903
-0.2,0.0,0.6,0.0,0.0,0,0.14250186,1.9776978,-0.146271,-0.24743095,0.7549466,1.4917302,-2.0292993,-0.6663817,1.4810985,-0.14770497,-0.809376,-0.26460138,1.5392928,-1.6932781
-0.2,0.0,0.6,0.0,0.0,0,0.12938452,1.9564897,-0.14236262,-0.27595967,0.7500139,1.5135052,-2.0908988,-0.6464776,1.4613055,-0.15412334,-0.76461476,-0.2179648,1.551131,-1.6958905
-0.2,0.0,0.6,0.0,0.0,0,0.13587597,1.9769617,-0.14558895,-0.257232,0.7502313,1.4829959,-2.1429074,-0.6665658,1.4659255,-0.14478627,-0.8018452,-0.23930137,1.5509874,-1.6331937
-0.2,0.0,0.6,0.0,0.0,0,0.15191971,1.9668138,-0.1411799,-0.27301836,0.74687505,1.5037518,-2.1996105,-0.6508166,1.4727074,-0.12914181,-0.78594345,-0.2349901,1.5523483,-1.6810719
-0.2,0.0,0.6,0.0,0.0,0,0.14130563,1.9709815,-0.14831366,-0.2551209,0.797445,1.4803972,-2.3035903,-0.6419584,1.4662689,-0.14702305,-0.7697124,-0.2637758,1.5409614,-1.6871915
-0.2,0.0,0.6,0.0,0.0,0,0.14839724,1.976273,-0.1550181,-0.25711146,0.756826,1.5116887,-2.163992,-0.6493923,1.4667133,-0.15136181,-0.7673778,-0.2715486,1.5432311,-1.7050015
-0.2,0.0,0.6,0.0,0.0,0,0.13804354,1.971916,-0.14865771,-0.26079348,0.7620386,1.4712313,-2.2264836,-0.65254396,1.4728302,-0.14750707,-0.77097344,-0.25428113,1.5602294,-1.6602552
-0.2,0.0,0.6,0.0,0.0,0,0.16240658,1.9756184,-0.14813836,-0.2534958,0.8029169,1.4757977,-2.1718185,-0.65456086,1.4610054,-0.14898357,-0.7820464,-0.22746855,1.5538846,-1.660773
-0.2,0.0,0.6,0.0,0.0,0,0.13503025,1.9715176,-0.16329981,-0.26205525,0.8021202,1.5006783,-2.3286526,-0.64075446,1.4684407,-0.13312615,-0.77753186,-0.22370335,1.5601165,-1.6997766
-0.2,0.0,0.6,0.0,0.0,0,0.14678778,1.9656895,-0.12833926,-0.24857922,0.6949782,1.5150471,-2.2322907,-0.64201206,1.4622848,-0.16614567,-0.7889146,-0.27497098,1.5511009,-1.6952512
-0.2,0.0,0.6,0.0,0.0,0,0.18905523,1.9638969,-0.14908648,-0.2590225,0.77944565,1.500566,-2.1066937,-0.6519087,1.4508293,-0.14866337,-0.76753694,-0.25565583,1.5561144,-1.6386561
-0.2,0.0,0.6,0.0,0.0,0,0.13814849,1.9827374,-0.14256088,-0.24814492,0.76616263,1.4991168,-2.024193,-0.6536955,1.466752,-0.16139859,-0.77390724,-0.25451818,1.5453321,-1.7042211
-0.2,0.0,0.6,0.0,0.0,0,0.12301215,1.9666042,-0.13903424,-0.26182365,0.79197836,1.4658741,-2.4024282,-0.64292294,1.4540162,-0.14623293,-0.7464968,-0.22590756,1.5488976,-1.6600165
-0.2,0.0,0.6,0.0,0.0,0,0.1645624,1.9676114,-0.1298867,-0.26812297,0.7466538,1.4815966,-2.1615248,-0.66335934,1.4479882,-0.1564491,-0.77637094,-0.24909459,1.541385,-1.7056035
-0.2,0.0,0.6,0.0,0.0,0,0.16301548,1.9721707,-0.14827554,-0.24654597,0.76558137,1.4808685,-2.2223928,-0.6444175,1.4563638,-0.16387936,-0.78040344,-0.26711896,1.5500649,-1.6321027
-0.2,0.0,0.6,0.0,0.0,0,0.14994322,1.971384,-0.14617307,-0.24742612,0.78789043,1.4961724,-2.1682684,-0.63401514,1.4679523,-0.14275397,-0.7704762,-0.27253616,1.5467467,-1.6818358
-0.2,0.0,0.6,0.0,0.0,0,0.14288801,1.9787512,-0.13513431,-0.25785306,0.73731863,1.4904594,-2.1097693,-0.67884064,1.4588685,-0.14834023,-0.7738883,-0.24354048,1.5423213,-1.6464801
-0.2,0.0,0.6,0.0,0.0,0,0.13961641,1.9834303,-0.12734678,-0.25326335,0.75800854,1.4788222,-2.1033115,-0.67352486,1.4699751,-0.17650011,-0.770276,-0.2506466,1.5336839,-1.7171462
-0.2,0.0,0.6,0.0,0.0,0,0.11375867,1.9733436,-0.13930617,-0.25103197,0.75343734,1.4721205,-2.0846608,-0.6518163,1.4697429,-0.14452699,-0.7882081,-0.23045689,1.5643966,-1.619457
-0.2,0.0,0.6,0.0,0.0,0,0.14069611,1.9651159,-0.13919526,-0.2595442,0.73329216,1.4491552,-2.2496831,-0.6662169,1.4643952,-0.14254792,-0.76614857,-0.24521896,1.5283152,-1.6453242
-0.2,0.0,0.6,0.0,0.0,0,0.14284448,1.9704474,-0.14442642,-0.25744548,0.71503925,1.5171221,-2.1809855,-0.65889573,1.4617436,-0.14624758,-0.78699046,-0.24328522,1.5443085,-1.6729207
-0.2,0.0,0.6,0.0,0.0,0,0.13029027,1.9685948,-0.1370859,-0.2544694,0.80229604,1.4839134,-2.234409,-0.65653664,1.4550525,-0.1413352,-0.7721695,-0.23538196,1.5609987,-1.6176761
-0.2,0.0,0.6,0.0,0.0,0,0.1371987,1.9767714,-0.13161838,-0.24275304,0.7861962,1.4943101,-2.2247055,-0.6616032,1.4749901,-0.14041379,-0.79524046,-0.22946031,1.5448543,-1.6933898
-0.2,0.0,0.6,0.0,0.0,0,0.17669904,1.9709572,-0.14004573,-0.2510998,0.72485703,1.460264,-2.1174395,-0.6489768,1.4568782,-0.13894865,-0.7820778,-0.25550187,1.5442836,-1.6114316
-0.2,0.0,0.6,0.0,0.0,0,0.13931653,1.9759338,-0.13233216,-0.24383956,0.7307476,1.5002061,-2.0308006,-0.6384931,1.4625401,-0.16061664,-0.78191555,-0.29062545,1.5389137,-1.6840057
-0.2,0.0,0.6,0.0,0.0,0,0.16841036,1.9739119,-0.13894333,-0.2531423,0.79010415,1.4909182,-2.2810886,-0.6625441,1.4635358,-0.1613344,-0.78245586,-0.255487,1.556787,-1.6462761
-0.2,0.0,0.6,0.0,0.0,0,0.14698803,1.976558,-0.13794242,-0.24687676,0.7435059,1.4891396,-2.1465876,-0.6645708,1.4658716,-0.14336024,-0.78501594,-0.2542827,1.5519661,-1.6604396
-0.2,0.0,0.6,0.0,0.0,0,0.19079548,1.9714328,-0.14406347,-0.25472575,0.7512695,1.5003276,-2.291769,-0.65282387,1.4628522,-0.14158797,-0.7794883,-0.2550056,1.5426757,-1.6559645
-0.2,0.0,0.6,0.0,0.0,0,0.16206555,1.9727364,-0.1319888,-0.2588428,0.7832758,1.4891747,-2.4015014,-0.6596268,1.4660987,-0.13324824,-0.7780219,-0.25238335,1.5419805,-1.7242749
-0.2,0.0,0.6,0.0,0.0,0,0.19248419,1.9753505,-0.15593693,-0.25483793,0.74409056,1.5037642,-1.8344203,-0.6607253,1.4604869,-0.1477932,-0.7851047,-0.25727007,1.5483029,-1.7081394
-0.2,0.0,0.6,0.0,0.0,0,0.16746709,1.9682107,-0.13824609,-0.25495848,0.7463989,1.5236815,-2.1357784,-0.64589185,1.451836,-0.14732921,-0.7877544,-0.24857317,1.5508332,-1.6660793
-0.2,0.0,0.6,0.0,0.0,0,0.15845399,1.978479,-0.14481509,-0.25542447,0.7494628,1.5141497,-2.137136,-0.6532887,1.4630553,-0.14950107,-0.7836419,-0.23894492,1.5519191,-1.6308855
-0.2,0.0,0.6,0.0,0.0,0,0.17924789,1.9673826,-0.1519243,-0.27164084,0.7553053,1.4935,-2.2368214,-0.65041643,1.4682074,-0.167238,-0.7920038,-0.2788914,1.5569364,-1.6871417
-0.2,0.0,0.6,0.0,0.0,0,0.12071261,1.9753791,-0.1383193,-0.24499768,0.7818936,1.487446,-2.3724012,-0.63375825,1.4721434,-0.15054223,-0.79165053,-0.24279208,1.5348787,-1.6984111
-0.2,0.0,0.6,0.0,0.0,0,0.15744793,1.9736776,-0.13878047,-0.26252326,0.7680019,1.45206,-2.2416322,-0.6672987,1.4626896,-0.16365258,-0.7925574,-0.23789555,1.5626671,-1.6907839
-0.2,0.0,0.6,0.0,0.0,0,0.17075226,1.9811695,-0.14632154,-0.23573524,0.7459239,1.5211076,-2.1287541,-0.633811,1.4600135,-0.14329489,-0.7796499,-0.26247087,1.5380578,-1.6848371
-0.2,0.0,0.6,0.0,0.0,0,0.17079952,1.9705504,-0.14326175,-0.24802963,0.76981705,1.4756737,-2.1837082,-0.64680296,1.4667261,-0.14390221,-0.7692267,-0.24356031,1.5586302,-1.6872458
-0.2,0.0,0.6,0.0,0.0,0,0.16598082,1.9712108,-0.14146152,-0.25445512,0.741425,1.4872079,-2.148711,-0.6495209,1.462931,-0.14606199,-0.7798892,-0.25999087,1.5474801,-1.6515785
-0.2,0.0,0.6,0.0,0.0,0,0.1798623,1.9679365,-0.13432533,-0.27047092,0.7582702,1.4722146,-2.1179812,-0.64506245,1.4581978,-0.1517176,-0.77523595,-0.2675612,1.5536343,-1.682607
-0.2,0.0,0.6,0.0,0.0,0,0.15954581,1.971445,-0.14911248,-0.24808909,0.78009164,1.4719698,-2.298452,-0.6465452,1.4652003,-0.1484822,-0.77152145,-0.23972686,1.5407479,-1.6972876
-0.2,0.0,0.6,0.0,0.0,0,0.16586718,1.9754473,-0.14964597,-0.24877943,0.8125171,1.494277,-2.280986,-0.6550931,1.4575031,-0.15181212,-0.78164613,-0.25370818,1.545209,-1.6426026
-0.2,0.0,0.6,0.0,0.0,0,0.1490279,1.9676421,-0.13312562,-0.26331213,0.7560455,1.4962882,-2.2992077,-0.65644103,1.479351,-0.14500119,-0.76575446,-0.25273904,1.5384982,-1.6962514
-0.2,0.0,0.6,0.0,0.0,0,0.12960471,1.9728224,-0.13522501,-0.26031283,0.74791867,1.5180773,-2.0647454,-0.6626966,1.4792378,-0.15190433,-0.7883987,-0.22921997,1.5474129,-1.692488
-0.2,0.0,0.6,0.0,0.0,0,0.17795852,1.9662511,-0.1359091,-0.26019874,0.7639628,1.4808633,-2.2543266,-0.65212876,1.4591675,-0.14448942,-0.76351917,-0.23569903,1.5384587,-1.6441747
-0.2,0.0,0.6,0.0,0.0,0,0.15330887,1.9798806,-0.14657415,-0.25423834,0.8007033,1.4773585,-2.1750538,-0.66113037,1.4696484,-0.17613178,-0.78254473,-0.24479635,1.5463006,-1.664042
-0.2,0.0,0.6,0.0,0.0,0,0.15631361,1.967044,-0.13593914,-0.25249797,0.7505976,1.469261,-2.2733548,-0.64347917,1.4615405,-0.14937088,-0.7723273,-0.25648192,1.5442402,-1.6686368
-0.2,0.0,0.6,0.0,0.0,0,0.11843616,1.978683,-0.13604105,-0.24841611,0.76533324,1.5036956,-2.254632,-0.6342627,1.457019,-0.16301732,-0.7853555,-0.23804106,1.541107,-1.6773157
-0.2,0.0,0.6,0.0,0.0,0,0.17137851,1.9711988,-0.13871956,-0.25085095,0.75619805,1.4999206,-2.2338502,-0.62954766,1.4623721,-0.1685584,-0.7743438,-0.27908635,1.5562806,-1.6645895
-0.2,0.0,0.6,0.0,0.0,0,0.11064546,1.9661535,-0.13367902,-0.25831398,0.7314622,1.5015774,-2.2249568,-0.66804826,1.4630731,-0.15508366,-0.7615099,-0.26011717,1.533592,-1.6445557
-0.2,0.0,0.6,0.0,0.0,0,0.16487196,1.97934,-0.14135733,-0.26805145,0.7360434,1.4950532,-2.1787913,-0.6477328,1.4824238,-0.14420937,-0.7681197,-0.2677468,1.536876,-1.6140057
-0.2,0.0,0.6,0.0,0.0,0,0.14606783,1.9733624,-0.12786426,-0.24213436,0.78540516,1.4669623,-2.254061,-0.63788337,1.4623607,-0.15880232,-0.7673078,-0.26413167,1.5550572,-1.6719902
-0.2,0.0,0.6,0.0,0.0,0,0.17372228,1.9730821,-0.15302698,-0.24683033,0.72895926,1.5182959,-2.2698522,-0.6519384,1.4478316,-0.1354014,-0.7682617,-0.26256853,1.5471045,-1.6674678
-0.2,0.0,0.6,0.0,0.0,0,0.14350735,1.9678541,-0.12981275,-0.23908502,0.7116259,1.4787574,-2.16486,-0.657975,1.4731141,-0.1368171,-0.7979203,-0.25425524,1.55057,-1.6593305
-0.2,0.0,0.6,0.0,0.0,0,0.17775413,1.9693753,-0.13313366,-0.2724454,0.7508854,1.4878861,-2.2796893,-0.6561213,1.4545337,-0.15784074,-0.77142566,-0.26382843,1.5455942,-1.6657522
-0.2,0.0,0.6,0.0,0.0,0,0.13069512,1.9760802,-0.13488032,-0.25521165,0.75268495,1.4970543,-2.369673,-0.65046597,1.4680687,-0.15261793,-0.7806638,-0.24759056,1.5417154,-1.690384
-0.2,0.0,0.6,0.0,0.0,0,0.1569053,1.9776632,-0.15450034,-0.26144144,0.7228085,1.502766,-2.3463883,-0.6688427,1.4613628,-0.15271434,-0.77987057,-0.2546576,1.5468802,-1.7096881
-0.2,0.0,0.6,0.0,0.0,0,0.16376261,1.9689515,-0.14040175,-0.23862433,0.7541011,1.4997933,-2.1116052,-0.6652622,1.4550496,-0.14036214,-0.76409966,-0.2563322,1.5508777,-1.7070572
-0.2,0.0,0.6,0.0,0.0,0,0.14166906,1.9802682,-0.15514813,-0.25759345,0.7576296,1.521857,-2.1580713,-0.66327244,1.4737079,-0.1588098,-0.78191143,-0.2580302,1.5383058,-1.6721517
-0.2,0.0,0.6,0.0,0.0,0,0.17545348,1.9651979,-0.13825764,-0.26414546,0.7445133,1.50472,-2.2705665,-0.64257234,1.4513347,-0.16010614,-0.7688492,-0.27275956,1.5384767,-1.6565355
-0.2,0.0,0.6,0.0,0.0,0,0.1680783,1.9668875,-0.1466998,-0.24656448,0.74672705,1.5223607,-2.1717772,-0.6445792,1.4706974,-0.15482809,-0.78208077,-0.2292541,1.5526149,-1.6972073
-0.2,0.0,0.6,0.0,0.0,0,0.12088226,1.9820192,-0.14360605,-0.25150058,0.75776297,1.4868149,-2.0629194,-0.6510321,1.4676827,-0.13961604,-0.7641856,-0.27080467,1.5384456,-1.6497811
-0.2,0.0,0.6,0.0,0.0,0,0.15764754,1.9764607,-0.13616171,-0.25673264,0.7527276,1.4856642,-2.0922816,-0.64448166,1.4516128,-0.13925059,-0.78035194,-0.26838103,1.5527035,-1.6768435
-0.2,0.0,0.6,0.0,0.0,0,0.14282547,1.9634987,-0.1326138,-0.2557959,0.7984934,1.4807731,-2.1240199,-0.6640654,1.4712608,-0.15201278,-0.7921886,-0.27396998,1.5609591,-1.6113278
-0.2,0.0,0.6,0.0,0.0,0,0.13029741,1.9698927,-0.13432267,-0.2416979,0.7892263,1.4766119,-2.1621547,-0.6486529,1.4706967,-0.14141501,-0.76712906,-0.2745236,1.5390443,-1.6385429
-0.2,0.0,0.6,0.0,0.0,0,0.17576909,1.9792693,-0.1490998,-0.24737653,0.756742,1.488407,-2.103884,-0.65058595,1.4784646,-0.14487189,-0.8004148,-0.26634338,1.5671178,-1.6417958
-0.2,0.0,0.6,0.0,0.0,0,0.1664872,1.974503,-0.16222617,-0.24858528,0.7295542,1.4865834,-2.2835884,-0.6438696,1.4686556,-0.1644865,-0.76001954,-0.2733919,1.5458119,-1.6923542
-0.2,0.0,0.6,0.0,0.0,0,0.18650366,1.978496,-0.1248482,-0.25024188,0.73039895,1.5066044,-2.1968076,-0.6434921,1.4516706,-0.15945378,-0.7830729,-0.24418834,1.5383419,-1.6937646
-0.2,0.0,0.6,0.0,0.0,0,0.13193594,1.9795631,-0.1364436,-0.25438178,0.7837994,1.4796581,-2.1120768,-0.65333796,1.4661442,-0.17769428,-0.7728704,-0.24433483,1.543822,-1.6682009
-0.2,0.0,0.6,0.0,0.0,0,0.1264527,1.9802841,-0.12480198,-0.27009755,0.7655273,1.490871,-2.2654307,-0.6313495,1.4432507,-0.14053927,-0.7707115,-0.25902337,1.5463966,-1.6638541
-0.2,0.0,0.6,0.0,0.0,0,0.1467003,1.971972,-0.14691493,-0.25546718,0.81055903,1.507126,-2.2266743,-0.6605003,1.4647223,-0.16148649,-0.77153826,-0.23725346,1.5386683,-1.6575109
-0.2,0.0,0.6,0.0,0.0,0,0.13653377,1.9718274,-0.13309865,-0.2609391,0.76846665,1.4980116,-2.1267908,-0.64540094,1.4732705,-0.15632983,-0.7760475,-0.25084502,1.5538293,-1.6921846
-0.2,0.0,0.6,0.0,0.0,0,0.12511605,1.9758685,-0.14251031,-0.2552084,0.75433105,1.50932,-2.1574247,-0.6680878,1.459485,-0.13379493,-0.7685174,-0.22924404,1.5415388,-1.7305763
-0.2,0.0,0.6,0.0,0.0,0,0.16976303,1.9723217,-0.1415077,-0.24286248,0.77116185,1.475648,-2.2972307,-0.64069915,1.4618212,-0.13168178,-0.772761,-0.25369313,1.5410103,-1.7331173
-0.2,0.0,0.6,0.0,0.0,0,0.15589318,1.9724268,-0.14568377,-0.25638956,0.73812616,1.5203578,-2.2083697,-0.65931875,1.4654561,-0.13848467,-0.7569023,-0.25779155,1.5309733,-1.6465852
-0.2,0.0,0.6,0.0,0.0,0,0.16128436,1.9683015,-0.13944364,-0.2731542,0.7748608,1.4919927,-2.1814973,-0.65984195,1.4727424,-0.15757036,-0.79462796,-0.2633249,1.5595503,-1.6740406
-0.2,0.0,0.6,0.0,0.0,0,0.16568169,1.975205,-0.1599282,-0.2636267,0.7367395,1.5090698,-2.040048,-0.658367,1.4711207,-0.16052537,-0.785432,-0.26595867,1.5486513,-1.6733028
-0.2,0.0,0.6,0.0,0.0,0,0.14281541,1.9680837,-0.15765594,-0.25052926,0.75363195,1.4909607,-2.2562385,-0.66000944,1.4549949,-0.15031405,-0.7734928,-0.23250294,1.5572478,-1.6582295
-0.2,0.0,0.6,0.0,0.0,0,0.1398937,1.9776715,-0.13949227,-0.24510065,0.7651057,1.4897602,-2.1207426,-0.6429779,1.4660995,-0.13238981,-0.765866,-0.24880056,1.5486296,-1.7018753
-0.2,0.0,0.6,0.0,0.0,0,0.17004563,1.9749056,-0.16074546,-0.25397572,0.758502,1.4941411,-2.0187163,-0.64117974,1.4665052,-0.15633094,-0.778985,-0.24044624,1.56019,-1.6554884
-0.2,0.0,0.6,0.0,0.0,0,0.15300539,1.9670867,-0.143566,-0.26501796,0.78884244,1.4712383,-2.1300952,-0.6460897,1.4703041,-0.16543487,-0.78373635,-0.2412714,1.559224,-1.6500499
-0.2,0.0,0.6,0.0,0.0,0,0.193143,1.9602981,-0.15279634,-0.24205804,0.76631004,1.474358,-2.2247896,-0.6402504,1.4638062,-0.16228019,-0.76996833,-0.25875577,1.5458299,-1.6678536
-0.2,0.0,0.6,0.0,0.0,0,0.1472308,1.974602,-0.12810571,-0.2537005,0.76523906,1.4804567,-2.2426763,-0.6444966,1.4646143,-0.13260384,-0.7703889,-0.27914214,1.5481125,-1.6927521
-0.2,0.0,0.6,0.0,0.0,0,0.12827678,1.9664896,-0.13122848,-0.24154016,0.7791793,1.4580214,-2.1951692,-0.6812408,1.4572161,-0.15089588,-0.78062433,-0.23702478,1.5495209,-1.7374971
-0.2,0.0,0.6,0.0,0.0,0,0.12260082,1.974135,-0.12325372,-0.25396088,0.72984874,1.4980136,-2.1336603,-0.64702547,1.4595021,-0.14361209,-0.76271445,-0.25275198,1.5554146,-1.6831126
-0.2,0.0,0.6,0.0,0.0,0,0.1544466,1.961694,-0.14729062,-0.25069812,0.7562558,1.509813,-2.259191,-0.6448265,1.465661,-0.15016854,-0.76692307,-0.25852567,1.5521754,-1.6426862
-0.2,0.0,0.6,0.0,0.0,0,0.13962354,1.9757667,-0.13545473,-0.26258376,0.8021896,1.4939272,-2.4206655,-0.6498236,1.4635838,-0.14907299,-0.76987225,-0.25943518,1.5407169,-1.6997287
-0.2,0.0,0.6,0.0,0.0,0,0.16131453,1.9716947,-0.14896056,-0.24862698,0.76579124,1.4982904,-2.155174,-0.64164656,1.4734827,-0.1273963,-0.775755,-0.27188653,1.5658438,-1.6852425
-0.2,0.0,0.6,0.0,0.0,0,0.13421512,1.9795455,-0.15320423,-0.24228437,0.77084666,1.5006084,-2.2063563,-0.6466462,1.4674636,-0.15120752,-0.77243936,-0.23133284,1.5618858,-1.687702
-0.2,0.0,0.6,0.0,0.0,0,0.14796776,1.9712481,-0.13474709,-0.24938802,0.7477916,1.4853877,-2.1184707,-0.6561404,1.463517,-0.1360197,-0.7828638,-0.27079713,1.5429194,-1.6654679
-0.2,0.0,0.6,0.0,0.0,0,0.121784225,1.9730753,-0.13253377,-0.24511608,0.7987536,1.4946952,-2.2465384,-0.64631385,1.4585512,-0.14094098,-0.7657576,-0.28568998,1.5499978,-1.6662288
-0.2,0.0,0.6,0.0,0.0,0,0.15554485,1.9739523,-0.1313831,-0.2573343,0.77440137,1.4946582,-2.2616498,-0.640583,1.455284,-0.13980289,-0.7702163,-0.26608756,1.5459285,-1.6862109
-0.2,0.0,0.6,0.0,0.0,0,0.16089085,1.9713483,-0.15296073,-0.2589073,0.7859523,1.4953498,-2.1543274,-0.64283377,1.4608986,-0.16771956,-0.75294816,-0.26762122,1.5325164,-1.6977234
-0.2,0.0,0.6,0.0,0.0,0,0.16626836,1.9710375,-0.13543658,-0.26247704,0.79046005,1.4839771,-2.1036363,-0.6459285,1.4714388,-0.14452375,-0.78862935,-0.23694547,1.540787,-1.6653342
-0.2,0.0,0.6,0.0,0.0,0,0.15460546,1.9662018,-0.13215013,-0.25910026,0.7637546,1.4963948,-2.3485417,-0.6591806,1.473205,-0.14836381,-0.77472574,-0.25799617,1.5461987,-1.643714
-0.2,0.0,0.6,0.0,0.0,0,0.17015745,1.9639792,-0.14277346,-0.25234696,0.76750195,1.4939861,-2.17101,-0.6448969,1.4669213,-0.15534052,-0.7891549,-0.28369138,1.5393014,-1.6978135
-0.2,0.0,0.6,0.0,0.0,0,0.14430489,1.9840078,-0.13746677,-0.2452233,0.77516514,1.4808859,-2.2109754,-0.6446968,1.484471,-0.12526494,-0.7840726,-0.27645546,1.5567212,-1.6388451
-0.2,0.0,0.6,0.0,0.0,0,0.12680997,1.9736443,-0.13292089,-0.2411239,0.7622765,1.4895626,-2.1327915,-0.6618414,1.4668198,-0.13423103,-0.7684105,-0.2719939,1.5499327,-1.620237
-0.2,0.0,0.6,0.0,0.0,0,0.15606104,1.9776103,-0.14451113,-0.23491439,0.75598013,1.4919554,-2.2991273,-0.6321352,1.4663078,-0.16069527,-0.7622219,-0.23555633,1.5394101,-1.6800292
-0.2,0.0,0.6,0.0,0.0,0,0.15178397,1.9703856,-0.1321654,-0.2632687,0.8011549,1.4814028,-2.2097692,-0.661999,1.4579777,-0.15083937,-0.7580705,-0.21938252,1.5415887,-1.6494485
-0.2,0.0,0.6,0.0,0.0,0,0.13876775,1.9748403,-0.13691698,-0.25036472,0.7276623,1.488101,-2.0858254,-0.65858835,1.4733549,-0.14493068,-0.7812748,-0.26543233,1.56089,-1.6552975
-0.2,0.0,0.6,0.0,0.0,0,0.15921448,1.9701695,-0.14626575,-0.24749207,0.7529459,1.476943,-2.2653933,-0.66505677,1.4679574,-0.14753142,-0.78145623,-0.24380298,1.548799,-1.6817896
-0.2,0.0,0.6,0.0,0.0,0,0.1527334,1.9718899,-0.120790824,-0.23825265,0.7358435,1.462112,-2.2685175,-0.65325505,1.4748102,-0.16208412,-0.7851955,-0.2642781,1.5481853,-1.6798214
-0.2,0.0,0.6,0.0,0.0,0,0.16764429,1.9786048,-0.1333171,-0.26050898,0.7351098,1.5042689,-2.2173295,-0.6514203,1.4672467,-0.15322058,-0.7767146,-0.25925967,1.5470049,-1.676177
-0.2,0.0,0.6,0.0,0.0,0,0.15262726,1.9761187,-0.14416698,-0.2532461,0.7514279,1.5081098,-2.2700155,-0.6549844,1.4656137,-0.15581185,-0.7752933,-0.2740132,1.5525304,-1.6699958
-0.2,0.0,0.6,0.0,0.0,0,0.1669607,1.9717542,-0.14699636,-0.25815597,0.7229377,1.4782192,-2.1299376,-0.6490364,1.4675009,-0.15878527,-0.77097577,-0.24876048,1.5443499,-1.6776022
-0.2,0.0,0.6,0.0,0.0,0,0.17897694,1.9720377,-0.14076076,-0.25915232,0.7543613,1.4908655,-2.284683,-0.6319016,1.4656116,-0.14300846,-0.78790045,-0.23969345,1.556423,-1.6940045
