sanky1234/BimanualDexCatch/isaacgymenvs/cem_results/football_pose_-0.2_0.10000000000000003_1.0999999999999999_-0.5235987755982988_0.5235987755982988_0_2025-05-25.csv
x,y,z,roll,pitch,yaw,robot1/joint1,robot1/joint2,robot1/joint3,robot1/joint4,robot1/joint5,robot1/joint6,robot1/joint7,robot2/joint1,robot2/joint2,robot2/joint3,robot2/joint4,robot2/joint5,robot2/joint6,robot2/joint7
-0.2,0.10000000000000003,1.0999999999999999,-0.5235987755982988,0.5235987755982988,0,0.8068852,0.37574726,1.2644734,0.48520318,-0.4360064,0.70311743,-0.48418304,0.36263075,-1.5219461,0.22684953,-0.04680995,-0.009810979,1.1327325,-1.4150084
-0.2,0.10000000000000003,1.0999999999999999,-0.5235987755982988,0.5235987755982988,0,0.8032373,0.38194305,1.2640959,0.4845169,-0.44448847,0.6773119,-0.19070958,0.36081043,-1.515833,0.3153601,-0.050845042,0.003199944,1.1425663,-0.35088247
-0.2,0.10000000000000003,1.0999999999999999,-0.5235987755982988,0.5235987755982988,0,0.8089158,0.37877125,1.2655813,0.48346055,-0.43423966,0.6784005,0.06605639,0.32960922,-1.5284454,0.061281696,-0.061685625,-0.1291575,1.0836082,-1.4676747
-0.2,0.10000000000000003,1.0999999999999999,-0.5235987755982988,0.5235987755982988,0,0.8070474,0.38197505,1.2674549,0.4827901,-0.43585432,0.661247,-0.46427584,0.33629107,-1.5270509,0.273039,-0.05572881,-0.1015287,1.1313486,-0.7124092
-0.2,0.10000000000000003,1.0999999999999999,-0.5235987755982988,0.5235987755982988,0,0.8127203,0.38010985,1.262653,0.48409337,-0.42805567,0.73267365,-1.8203584,0.34491995,-1.5136858,0.1286382,-0.0746177,-0.052181996,1.1047834,-0.52530605
-0.2,0.10000000000000003,1.0999999999999999,-0.5235987755982988,0.5235987755982988,0,0.8113319,0.38055375,1.2698754,0.48231536,-0.43012396,0.6879479,-1.0875692,0.35968107,-1.5243969,0.33388406,-0.06695575,-0.08995407,1.157702,-1.1726383
-0.2,0.10000000000000003,1.0999999999999999,-0.5235987755982988,0.5235987755982988,0,0.8079506,0.38268995,1.2631024,0.48256108,-0.42348245,0.6670676,-0.115487814,0.31930676,-1.5228304,0.18067324,-0.051788922,-0.072425224,1.1436312,-0.3342913
-0.2,0.10000000000000003,1.0999999999999999,-0.5235987755982988,0.5235987755982988,0,0.807972,0.37946752,1.2641996,0.48220652,-0.4244474,0.7093737,-0.28269252,0.34183806,-1.5263331,0.2362469,-0.12138659,-0.05301774,1.1141737,0.5724992
-0.2,0.10000000000000003,1.0999999999999999,-0.5235987755982988,0.5235987755982988,0,0.8053999,0.3794242,1.2691251,0.4850286,-0.43105903,0.6449734,0.70963585,0.38195208,-1.5144396,0.22371376,-0.029174801,0.04194959,1.1526531,-0.4376357
-0.2,0.10000000000000003,1.0999999999999999,-0.5235987755982988,0.5235987755982988,0,0.8116923,0.37929976,1.2673919,0.48217013,-0.42912537,0.66785175,-0.29430568,0.34305015,-1.5194412,0.14003319,-0.043868534,0.031213718,1.1156279,-0.2860999
-0.2,0.10000000000000003,1.0999999999999999,-0.5235987755982988,0.5235987755982988,0,0.8081948,0.3771966,1.2635573,0.48507488,-0.41323727,0.6638108,0.91794264,0.31768876,-1.5310255,0.2169625,-0.05819375,0.013631777,1.1119218,-0.0035708644
-0.2,0.10000000000000003,1.0999999999999999,-0.5235987755982988,0.5235987755982988,0,0.81289846,0.37797472,1.2636411,0.48275346,-0.42534813,0.64856243,-1.0871285,0.4091424,-1.5264155,0.122126006,-0.03094629,-0.078236364,1.1279104,-0.9065262
-0.2,0.10000000000000003,1.0999999999999999,-0.5235987755982988,0.5235987755982988,0,0.81304157,0.3795225,1.266233,0.48464108,-0.44755018,0.6920898,-0.38673323,0.30106318,-1.5283462,0.23331471,-0.07728443,0.013415637,1.1830491,-1.0258626
-0.2,0.10000000000000003,1.0999999999999999,-0.5235987755982988,0.5235987755982988,0,0.8049911,0.37955308,1.2642354,0.4830406,-0.43329868,0.684349,0.6365851,0.36440128,-1.5213313,0.22758962,-0.049639907,-0.00839803,1.1076021,0.80548996
-0.2,0.10000000000000003,1.0999999999999999,-0.5235987755982988,0.5235987755982988,0,0.8100573,0.37712672,1.2651799,0.48563722,-0.42766842,0.6586322,0.039015215,0.38695952,-1.5243189,0.21914452,-0.064429544,0.014060021,1.1171534,0.058194295
-0.2,0.10000000000000003,1.0999999999999999,-0.5235987755982988,0.5235987755982988,0,0.81229967,0.38117644,1.2668246,0.48590428,-0.4250952,0.672584,1.0013472,0.36204293,-1.52383,0.24462368,-0.07142941,-0.13659067,1.146932,-0.39618203
-0.2,0.10000000000000003,1.0999999999999999,-0.5235987755982988,0.5235987755982988,0,0.8128218,0.37744394,1.2663958,0.48419133,-0.44255593,0.6649649,-0.8140601,0.30949727,-1.5175645,0.22631408,-0.052144166,-0.051891424,1.1133555,-0.72366244
-0.2,0.10000000000000003,1.0999999999999999,-0.5235987755982988,0.5235987755982988,0,0.8113691,0.379103,1.2695405,0.48232237,-0.4330918,0.65011823,-0.6342376,0.3377889,-1.512903,0.21353278,-0.0882421,-0.13388473,1.1130838,0.11154469
-0.2,0.10000000000000003,1.0999999999999999,-0.5235987755982988,0.5235987755982988,0,0.80273217,0.38284212,1.2616199,0.4840787,-0.43458393,0.6746561,2.295361,0.31333667,-1.5159283,0.15792592,-0.04171256,-0.13078374,1.1296022,-2.107376
-0.2,0.10000000000000003,1.0999999999999999,-0.5235987755982988,0.5235987755982988,0,0.81523407,0.38052413,1.2706228,0.48339757,-0.43732592,0.68355554,0.6945955,0.32345584,-1.5340922,0.17653441,-0.029480616,-0.100105785,1.1639696,0.9181947
-0.2,0.10000000000000003,1.0999999999999999,-0.5235987755982988,0.5235987755982988,0,0.8097112,0.37878823,1.2694343,0.4852409,-0.4384122,0.689022,-0.6090134,0.34640774,-1.5268679,0.20597832,-0.053443093,-0.11392603,1.1178023,-1.4124507
-0.2,0.10000000000000003,1.0999999999999999,-0.5235987755982988,0.5235987755982988,0,0.80577826,0.38216636,1.2617118,0.48420495,-0.43905485,0.6040997,0.46821898,0.34787095,-1.528554,0.19445184,-0.06061103,-0.079976335,1.092118,0.29845256
-0.2,0.10000000000000003,1.0999999999999999,-0.5235987755982988,0.5235987755982988,0,0.80965054,0.38240576,1.2640567,0.48682678,-0.42237824,0.72906697,-1.755742,0.36019403,-1.5243614,0.19233732,-0.056679588,0.009028016,1.1491039,0.2794378
-0.2,0.10000000000000003,1.0999999999999999,-0.5235987755982988,0.5235987755982988,0,0.81062895,0.3817963,1.2651263,0.4845501,-0.43173197,0.6892492,-1.0963278,0.35357416,-1.5239758,0.0885981,-0.015800785,-0.05063321,1.1195053,1.1943763
-0.2,0.10000000000000003,1.0999999999999999,-0.5235987755982988,0.5235987755982988,0,0.80538833,0.38153157,1.2661887,0.48274976,-0.43173823,0.6801311,2.5612102,0.32776576,-1.5316298,0.24816959,-0.08847734,-0.1002928,1.1543889,-0.13978794
-0.2,0.10000000000000003,1.0999999999999999,-0.5235987755982988,0.5235987755982988,0,0.807578,0.37619725,1.264388,0.48374403,-0.4226165,0.63920116,0.89931655,0.33289462,-1.5228724,0.21463102,-0.08167071,-0.05819307,1.0776229,-0.8596839
-0.2,0.10000000000000003,1.0999999999999999,-0.5235987755982988,0.5235987755982988,0,0.8089945,0.37852493,1.2658072,0.48521727,-0.4306587,0.6877133,-0.73049027,0.3474799,-1.5303688,0.2492445,-0.054489013,0.05674131,1.139039,-0.26967615
-0.2,0.10000000000000003,1.0999999999999999,-0.5235987755982988,0.5235987755982988,0,0.81140375,0.38259494,1.2644013,0.48742095,-0.42956665,0.707011,-0.40687335,0.38665542,-1.5210305,0.28661317,-0.05917599,0.04090202,1.1072519,-1.1414471
-0.2,0.10000000000000003,1.0999999999999999,-0.5235987755982988,0.5235987755982988,0,0.8068427,0.38417527,1.2652993,0.4843431,-0.43027863,0.6679077,-1.3601247,0.35898542,-1.5185382,0.23958054,-0.05571379,-0.032943137,1.1101503,0.17501055
-0.2,0.10000000000000003,1.0999999999999999,-0.5235987755982988,0.5235987755982988,0,0.8140399,0.38196686,1.2647085,0.48405525,-0.42782834,0.6297853,0.10445288,0.3611803,-1.5225694,0.23105659,-0.02462527,-0.1257525,1.1527399,-0.13561067
-0.2,0.10000000000000003,1.0999999999999999,-0.5235987755982988,0.5235987755982988,0,0.816416,0.3804741,1.2674692,0.4836568,-0.4378627,0.6939853,-0.15243088,0.3075301,-1.5204424,0.27557647,-0.044491,0.019552989,1.1354414,0.10099636
-0.2,0.10000000000000003,1.0999999999999999,-0.5235987755982988,0.5235987755982988,0,0.81314063,0.3784048,1.2651566,0.483304,-0.44435602,0.6538937,1.0145241,0.3259691,-1.519227,0.11406139,-0.043676674,-0.0018228331,1.1483815,-0.71412826
-0.2,0.10000000000000003,1.0999999999999999,-0.5235987755982988,0.5235987755982988,0,0.81421477,0.37772143,1.2579199,0.48251992,-0.43280232,0.66472626,-0.628331,0.31098017,-1.5261014,0.24770448,-0.09188542,-0.06421316,1.0734054,-0.61392516
-0.2,0.10000000000000003,1.0999999999999999,-0.5235987755982988,0.5235987755982988,0,0.81554425,0.38164866,1.2647694,0.48357102,-0.4449098,0.70530844,0.5139601,0.34574655,-1.5205384,0.2392812,-0.082489856,-0.009223588,1.1571401,-1.2950598
-0.2,0.10000000000000003,1.0999999999999999,-0.5235987755982988,0.5235987755982988,0,0.81253237,0.38107026,1.2614738,0.48499072,-0.4416628,0.6716501,-0.3637446,0.3725307,-1.5245228,0.1542747,-0.05546303,-0.028072622,1.1300428,-0.7939188
-0.2,0.10000000000000003,1.0999999999999999,-0.5235987755982988,0.5235987755982988,0,0.8025743,0.38049388,1.2634795,0.4829092,-0.4172644,0.70398533,0.38080555,0.29436138,-1.529873,0.30571976,-0.048174404,-0.047753613,1.0727901,-0.40701368
-0.2,0.10000000000000003,1.0999999999999999,-0.5235987755982988,0.5235987755982988,0,0.8101825,0.3802322,1.26429,0.48066464,-0.43140662,0.67094743,-0.77000815,0.26884997,-1.5122167,0.2498604,-0.07117627,0.026972625,1.1469718,-0.6752238
-0.2,0.10000000000000003,1.0999999999999999,-0.5235987755982988,0.5235987755982988,0,0.8064164,0.3812767,1.2620677,0.48353514,-0.42701575,0.70108646,-1.8638968,0.32922894,-1.5162832,0.2100724,-0.07154253,-0.024097577,1.1233649,-2.5276759
-0.2,0.10000000000000003,1.0999999999999999,-0.5235987755982988,0.5235987755982988,0,0.81023836,0.3811708,1.2691871,0.4816514,-0.4338053,0.68807214,-0.08793905,0.3238065,-1.5170072,0.29620233,-0.11250968,-0.08628007,1.1315944,0.31256866
-0.2,0.10000000000000003,1.0999999999999999,-0.5235987755982988,0.5235987755982988,0,0.8051512,0.37861577,1.2664603,0.48491895,-0.44325873,0.6663042,0.018551748,0.34569967,-1.5279617,0.25570622,-0.048790347,-0.03412091,1.1358031,-1.1393073
-0.2,0.10000000000000003,1.0999999999999999,-0.5235987755982988,0.5235987755982988,0,0.8096929,0.37804055,1.2608131,0.48522875,-0.43816584,0.6593631,1.946401,0.36287218,-1.5232775,0.2591921,-0.042044908,0.021026751,1.1701059,-2.0945673
-0.2,0.10000000000000003,1.0999999999999999,-0.5235987755982988,0.5235987755982988,0,0.814059,0.38011786,1.2661113,0.4832692,-0.43281424,0.691622,-0.029299546,0.38296464,-1.5288839,0.28684923,-0.062240932,-0.05200321,1.166187,-0.56214625
-0.2,0.10000000000000003,1.0999999999999999,-0.5235987755982988,0.5235987755982988,0,0.810795,0.37807575,1.2654239,0.48480833,-0.4352802,0.7008205,-0.25960502,0.3177323,-1.525274,0.22844926,-0.04114699,-0.0319637,1.1546872,1.0166024
-0.2,0.10000000000000003,1.0999999999999999,-0.5235987755982988,0.5235987755982988,0,0.8115134,0.38094002,1.2658905,0.48676232,-0.4421329,0.7020757,0.31800342,0.35300794,-1.52774,0.2832768,-0.07074136,0.032281242,1.1236084,-0.9108296
-0.2,0.10000000000000003,1.0999999999999999,-0.5235987755982988,0.5235987755982988,0,0.80880225,0.37872157,1.26312,0.48677248,-0.4306546,0.72629106,-0.16833098,0.33228716,-1.5141886,0.3067534,-0.041398216,-0.04530474,1.155993,-0.09217079
-0.2,0.10000000000000003,1.0999999999999999,-0.5235987755982988,0.5235987755982988,0,0.81297094,0.3775929,1.2650375,0.48489374,-0.43440428,0.6911867,-0.30120796,0.34551045,-1.5285178,0.1974552,-0.044209044,0.0056969384,1.131242,-0.22661252
-0.2,0.10000000000000003,1.0999999999999999,-0.5235987755982988,0.5235987755982988,0,0.80975604,0.3784214,1.2612703,0.48482633,-0.43841037,0.667647,0.9253675,0.3616894,-1.5254798,0.29407817,-0.0687982,-0.039422017,1.0699466,0.20770581
-0.2,0.10000000000000003,1.0999999999999999,-0.5235987755982988,0.5235987755982988,0,0.8118763,0.379112,1.2660921,0.48531464,-0.43281844,0.7008115,-0.20021316,0.29866052,-1.5224421,0.26012364,-0.028976126,-0.0453759,1.1133215,2.0693514
-0.2,0.10000000000000003,1.0999999999999999,-0.5235987755982988,0.5235987755982988,0,0.81323147,0.38260487,1.2631032,0.48317182,-0.44265953,0.7295352,0.04562276,0.38505265,-1.5266818,0.29001635,-0.048949264,-0.027439905,1.119083,-0.3140972
-0.2,0.10000000000000003,1.0999999999999999,-0.5235987755982988,0.5235987755982988,0,0.81152505,0.37971735,1.2638717,0.48527566,-0.42449605,0.7190449,-0.16634047,0.38096797,-1.5145112,0.291146,-0.052310318,-0.05929325,1.1340499,-0.12963843
-0.2,0.10000000000000003,1.0999999999999999,-0.5235987755982988,0.5235987755982988,0,0.810756,0.3804064,1.2651088,0.48366264,-0.42770806,0.6668826,-0.28492194,0.37248883,-1.5173397,0.2662875,-0.019292293,-0.14598602,1.1193054,0.04017485
-0.2,0.10000000000000003,1.0999999999999999,-0.5235987755982988,0.5235987755982988,0,0.8076266,0.37848142,1.2610806,0.48347315,-0.4189402,0.7073546,0.16810405,0.3187369,-1.5217817,0.17557922,-0.07502638,0.03081433,1.1295309,0.15426646
-0.2,0.10000000000000003,1.0999999999999999,-0.5235987755982988,0.5235987755982988,0,0.80674225,0.37964818,1.2645184,0.48201916,-0.4119157,0.65646935,-1.0330867,0.31400317,-1.5211557,0.2438057,-0.022955237,0.061080337,1.1150345,0.8678174
-0.2,0.10000000000000003,1.0999999999999999,-0.5235987755982988,0.5235987755982988,0,0.8145196,0.38218552,1.2636558,0.48338175,-0.44538006,0.68605316,-0.3756494,0.3406095,-1.5236862,0.32817298,-0.04556949,-0.05056986,1.204536,0.21586375
-0.2,0.10000000000000003,1.0999999999999999,-0.5235987755982988,0.5235987755982988,0,0.8039399,0.37859762,1.2627919,0.48263317,-0.42196348,0.6817377,0.2011258,0.36646062,-1.5241538,0.2575342,-0.0588405,0.018563278,1.101365,-1.8058697
-0.2,0.10000000000000003,1.0999999999999999,-0.5235987755982988,0.5235987755982988,0,0.80720127,0.3806264,1.2684716,0.48349658,-0.4244785,0.66783303,0.39040586,0.3529544,-1.5148978,0.27744165,-0.047253147,-0.13485707,1.0510392,-0.008327761
-0.2,0.10000000000000003,1.0999999999999999,-0.5235987755982988,0.5235987755982988,0,0.81168586,0.37974912,1.2663666,0.4847548,-0.41865793,0.6965103,-0.07852046,0.36343977,-1.5161339,0.23228262,-0.07972262,0.0069811014,1.1326334,-0.045936532
-0.2,0.10000000000000003,1.0999999999999999,-0.5235987755982988,0.5235987755982988,0,0.8106026,0.38207883,1.264431,0.4859621,-0.44071746,0.6952781,0.4980119,0.33276448,-1.5317994,0.20402579,-0.070320755,-0.06992464,1.151944,0.37854812
-0.2,0.10000000000000003,1.0999999999999999,-0.5235987755982988,0.5235987755982988,0,0.80554765,0.3788268,1.2627914,0.4844233,-0.41055092,0.65677404,-1.6087898,0.3501595,-1.529321,0.24626523,-0.08343249,-0.051515274,1.0870562,-0.38107312
-0.2,0.10000000000000003,1.0999999999999999,-0.5235987755982988,0.5235987755982988,0,0.8133462,0.3803325,1.262918,0.4838102,-0.43062425,0.70141643,0.84128785,0.30533352,-1.513702,0.3003692,-0.08073351,0.017541831,1.112063,0.6427469
-0.2,0.10000000000000003,1.0999999999999999,-0.5235987755982988,0.5235987755982988,0,0.81305104,0.38295946,1.2632003,0.4869418,-0.4163439,0.7081864,0.47015437,0.35093993,-1.5280075,0.32506895,-0.08319893,0.012044199,1.0815165,-0.2148245
-0.2,0.10000000000000003,1.0999999999999999,-0.5235987755982988,0.5235987755982988,0,0.80564564,0.38182896,1.265509,0.4833243,-0.43562743,0.66046673,-0.10688496,0.37924817,-1.5140004,0.18018813,-0.037272193,-0.09378135,1.1396309,0.14664033
-0.2,0.10000000000000003,1.0999999999999999,-0.5235987755982988,0.5235987755982988,0,0.81619346,0.37894505,1.2630528,0.48219666,-0.43926328,0.6670567,-1.4872868,0.3650907,-1.5289688,0.388692,-0.04142753,-0.11493966,1.120779,0.688994
-0.2,0.10000000000000003,1.0999999999999999,-0.5235987755982988,0.5235987755982988,0,0.8120562,0.38233137,1.2668169,0.48423806,-0.42738503,0.65424734,-0.85094315,0.31024283,-1.5175287,0.2177401,-0.028330438,-0.00294201,1.1460844,0.17576778
-0.2,0.10000000000000003,1.0999999999999999,-0.5235987755982988,0.5235987755982988,0,0.8082662,0.37892106,1.2647512,0.48463705,-0.4279171,0.68302065,0.8360917,0.32229298,-1.5190235,0.3530595,-0.040194646,0.03817604,1.0325034,0.3126507
-0.2,0.10000000000000003,1.0999999999999999,-0.5235987755982988,0.5235987755982988,0,0.810771,0.3789498,1.2654442,0.48327097,-0.43219727,0.6585712,-0.7026764,0.34211692,-1.528305,0.17114492,-0.0765662,0.029226368,1.0799744,-0.31476715
-0.2,0.10000000000000003,1.0999999999999999,-0.5235987755982988,0.5235987755982988,0,0.8090073,0.37892938,1.263627,0.48550615,-0.43354994,0.68501484,-0.9971634,0.3742047,-1.5148927,0.24467342,-0.032028805,-0.027287979,1.1668522,-0.4944313
-0.2,0.10000000000000003,1.0999999999999999,-0.5235987755982988,0.5235987755982988,0,0.81774634,0.3773764,1.2610526,0.4851187,-0.4304281,0.68320924,1.205565,0.33567584,-1.5229915,0.32436937,-0.07681358,0.020092651,1.1427652,-1.5971019
-0.2,0.10000000000000003,1.0999999999999999,-0.5235987755982988,0.5235987755982988,0,0.8012733,0.377213,1.2654939,0.48505276,-0.42550054,0.67680055,0.936678,0.3433629,-1.5267743,0.14087199,-0.069955684,-0.11631797,1.1284254,0.29587588
-0.2,0.10000000000000003,1.0999999999999999,-0.5235987755982988,0.5235987755982988,0,0.816575,0.3799391,1.2639842,0.4828634,-0.42846745,0.6709631,-0.4088384,0.272817,-1.5134802,0.28354102,-0.019289233,0.019714199,1.1190566,-0.06563539
-0.2,0.10000000000000003,1.0999999999999999,-0.5235987755982988,0.5235987755982988,0,0.8135467,0.38067976,1.2633818,0.48435098,-0.43777764,0.69434255,1.7479488,0.34671938,-1.5286348,0.19259243,-0.033520076,-0.08003334,1.0970045,-2.0159817
-0.2,0.10000000000000003,1.0999999999999999,-0.5235987755982988,0.5235987755982988,0,0.80742943,0.38251746,1.2653714,0.482848,-0.41547984,0.7149076,-0.08918895,0.32726032,-1.5119464,0.20889959,-0.06278168,0.0005735838,1.1319425,-0.35778168
-0.2,0.10000000000000003,1.0999999999999999,-0.5235987755982988,0.5235987755982988,0,0.81314254,0.37751818,1.2652127,0.48415515,-0.41799203,0.67847407,0.5659178,0.33249056,-1.5152018,0.22054574,-0.042547308,-0.0023695738,1.094956,-0.15440777
-0.2,0.10000000000000003,1.0999999999999999,-0.5235987755982988,0.5235987755982988,0,0.81026787,0.38359275,1.2687271,0.48451424,-0.4262816,0.70581925,-0.92635405,0.31108072,-1.5157359,0.28149208,0.006581881,-0.13503154,1.1241862,-0.97439754
-0.2,0.10000000000000003,1.0999999999999999,-0.5235987755982988,0.5235987755982988,0,0.8098667,0.3814537,1.2644718,0.4843017,-0.41204762,0.7046514,-0.0693585,0.32878488,-1.5302476,0.25194207,-0.069527775,-0.069556914,1.1775594,-0.019474752
-0.2,0.10000000000000003,1.0999999999999999,-0.5235987755982988,0.5235987755982988,0,0.8158295,0.37802127,1.2638876,0.48361525,-0.4190866,0.6943184,0.39390972,0.35817963,-1.5263438,0.2523166,-0.057847302,-0.12009351,1.1571589,-0.2532534
-0.2,0.10000000000000003,1.0999999999999999,-0.5235987755982988,0.5235987755982988,0,0.80789673,0.38088986,1.2663288,0.48448128,-0.43438086,0.66142434,1.0441617,0.33473116,-1.5172517,0.27081805,-0.07065619,0.066793784,1.1309744,-0.45545116
-0.2,0.10000000000000003,1.0999999999999999,-0.5235987755982988,0.5235987755982988,0,0.8082296,0.3814041,1.2694298,0.48257834,-0.41987023,0.6986445,-0.59367657,0.32859793,-1.5222847,0.2828354,-0.09601841,0.05900045,1.0726496,-0.18491824
-0.2,0.10000000000000003,1.0999999999999999,-0.5235987755982988,0.5235987755982988,0,0.8097811,0.37706992,1.2688533,0.48532856,-0.41774768,0.6783795,2.1016424,0.3337641,-1.5250589,0.14937174,-0.07771165,-0.022012403,1.117605,-0.46329555
-0.2,0.10000000000000003,1.0999999999999999,-0.5235987755982988,0.5235987755982988,0,0.8079241,0.37879688,1.2611172,0.48267815,-0.42464152,0.6631511,-0.623382,0.36191255,-1.5188756,0.24065845,-0.08644619,-0.022448147,1.1309642,-0.471543
-0.2,0.10000000000000003,1.0999999999999999,-0.5235987755982988,0.5235987755982988,0,0.8193899,0.380537,1.262641,0.4826849,-0.41742134,0.661734,0.11841595,0.32605833,-1.5330313,0.20047742,-0.06357896,0.048413943,1.1417913,0.12133114
-0.2,0.10000000000000003,1.0999999999999999,-0.5235987755982988,0.5235987755982988,0,0.80673766,0.37810603,1.2645912,0.48307422,-0.4357377,0.69064146,-0.682803,0.32366902,-1.515715,0.37695977,-0.053024016,-0.070232585,1.0995238,-1.0481532
-0.2,0.10000000000000003,1.0999999999999999,-0.5235987755982988,0.5235987755982988,0,0.8063791,0.37750727,1.2668426,0.48396027,-0.42860764,0.68325645,0.24244629,0.37223658,-1.5362368,0.2750111,-0.044322636,0.039254006,1.1671153,-0.5543381
-0.2,0.10000000000000003,1.0999999999999999,-0.5235987755982988,0.5235987755982988,0,0.80868775,0.3790064,1.2633643,0.4850833,-0.4465383,0.7053743,1.3119388,0.31346464,-1.5210592,0.16552024,-0.08364312,0.041416634,1.124213,0.21711607
-0.2,0.10000000000000003,1.0999999999999999,-0.5235987755982988,0.5235987755982988,0,0.8177629,0.37885803,1.2652445,0.4833615,-0.42189965,0.7008811,-0.6089026,0.3214993,-1.5304568,0.21092151,-0.09509618,-0.08960117,1.1000327,-0.38421822
-0.2,0.10000000000000003,1.0999999999999999,-0.5235987755982988,0.5235987755982988,0,0.80745643,0.38146105,1.2666074,0.48350433,-0.4260976,0.69038975,-0.98406947,0.33607373,-1.5143512,0.27464092,-0.076090336,0.056003496,1.1035676,0.12770036
-0.2,0.10000000000000003,1.0999999999999999,-0.5235987755982988,0.5235987755982988,0,0.81068736,0.3807444,1.2638438,0.4845324,-0.43758217,0.6804968,-0.22482176,0.26226738,-1.5304915,0.18156679,-0.052891854,-0.08371822,1.15909,-0.6667001
-0.2,0.10000000000000003,1.0999999999999999,-0.5235987755982988,0.5235987755982988,0,0.8137628,0.3817068,1.2634208,0.48261127,-0.4325929,0.67394,-1.1253545,0.32297575,-1.5158728,0.20685832,-0.012356691,0.042765014,1.1412693,-1.6466997
-0.2,0.10000000000000003,1.0999999999999999,-0.5235987755982988,0.5235987755982988,0,0.80843633,0.37934995,1.2650595,0.48653027,-0.42147258,0.6748683,-0.5758005,0.34714293,-1.5100179,0.2706754,-0.07088958,-0.24845032,1.1400948,-1.7207637
-0.2,0.10000000000000003,1.0999999999999999,-0.5235987755982988,0.5235987755982988,0,0.8126479,0.37973538,1.2620983,0.482802,-0.42311013,0.6560987,0.35716748,0.35618368,-1.5147022,0.18243758,-0.05071383,0.026761359,1.095703,-0.53410465
-0.2,0.10000000000000003,1.0999999999999999,-0.5235987755982988,0.5235987755982988,0,0.8122562,0.3797731,1.2630746,0.4849246,-0.4316594,0.69631165,-0.9567707,0.35917893,-1.5182176,0.24370418,-0.023972364,0.022380117,1.113609,-0.84196085
-0.2,0.10000000000000003,1.0999999999999999,-0.5235987755982988,0.5235987755982988,0,0.8089257,0.38381007,1.2646378,0.48342896,-0.41722408,0.65519893,-2.0103774,0.36447868,-1.5206051,0.29783604,-0.061708786,-0.09380223,1.1408111,-1.0004258
-0.2,0.10000000000000003,1.0999999999999999,-0.5235987755982988,0.5235987755982988,0,0.8061524,0.37864283,1.2665642,0.48469818,-0.41751575,0.6840659,0.92297035,0.38003305,-1.5273888,0.22189075,-0.06510349,-0.039627574,1.1123856,0.5319635
-0.2,0.10000000000000003,1.0999999999999999,-0.5235987755982988,0.5235987755982988,0,0.8097089,0.3798659,1.2663866,0.48368952,-0.4394832,0.71335787,0.2818206,0.3478967,-1.5154395,0.067433566,-0.062332004,-0.0787838,1.1649555,-0.62938803
-0.2,0.10000000000000003,1.0999999999999999,-0.5235987755982988,0.5235987755982988,0,0.8082147,0.38038844,1.2648928,0.48665372,-0.4209693,0.6740165,-2.0974658,0.34287864,-1.5272042,0.25108033,-0.049616836,-0.14008234,1.0868081,-0.6297958
-0.2,0.10000000000000003,1.0999999999999999,-0.5235987755982988,0.5235987755982988,0,0.8123122,0.3789909,1.2627023,0.48379862,-0.42884526,0.6676497,-0.12280824,0.332252,-1.5282842,0.26613286,-0.12750532,-0.09349205,1.1103812,-0.7369001
-0.2,0.10000000000000003,1.0999999999999999,-0.5235987755982988,0.5235987755982988,0,0.8097165,0.3806622,1.2620436,0.4813275,-0.42417818,0.66812646,-0.46911827,0.36242068,-1.5206513,0.103891745,-0.079690844,-0.0940128,1.1174773,-0.047263727
-0.2,0.10000000000000003,1.0999999999999999,-0.5235987755982988,0.5235987755982988,0,0.80966055,0.38238594,1.2624469,0.48580638,-0.43435535,0.7068256,-1.0395349,0.32771295,-1.5254645,0.2351847,-0.05500162,-0.08514243,1.0933678,-1.6916778
-0.2,0.10000000000000003,1.0999999999999999,-0.5235987755982988,0.5235987755982988,0,0.8114175,0.3782124,1.2660973,0.4838883,-0.42241466,0.67513627,1.0101231,0.323443,-1.5152861,0.36457124,-0.046779398,0.017598186,1.1848263,0.58700514
-0.2,0.10000000000000003,1.0999999999999999,-0.5235987755982988,0.5235987755982988,0,0.8082726,0.3765449,1.264113,0.4839196,-0.42755413,0.6952971,-0.5127862,0.38107702,-1.5123985,0.29967076,-0.07953159,-0.095236614,1.1752815,-1.8276665
-0.2,0.10000000000000003,1.0999999999999999,-0.5235987755982988,0.5235987755982988,0,0.8098158,0.37662083,1.268535,0.48472685,-0.4362437,0.6573596,-0.15462922,0.32995752,-1.5279574,0.29279685,-0.057098236,0.0010309871,1.1466802,-0.45544237
-0.2,0.10000000000000003,1.0999999999999999,-0.5235987755982988,0.5235987755982988,0,0.8092002,0.38161862,1.2676153,0.48354924,-0.43056053,0.6728564,-0.39852762,0.31340754,-1.5250555,0.20026316,-0.08596314,-0.050773434,1.1060324,-0.010720542
-0.2,0.10000000000000003,1.0999999999999999,-0.5235987755982988,0.5235987755982988,0,0.8054009,0.38022065,1.2688318,0.48617062,-0.4313073,0.6735337,-0.6274651,0.36841077,-1.5172311,0.30231148,-0.08329926,-0.04132491,1.1075368,-0.15923211
-0.2,0.10000000000000003,1.0999999999999999,-0.5235987755982988,0.5235987755982988,0,0.81055284,0.37638268,1.2700979,0.483459,-0.42445707,0.68780136,0.81703675,0.32532597,-1.518399,0.22669914,-0.05909045,0.026335333,1.1456195,-1.0302093
-0.2,0.10000000000000003,1.0999999999999999,-0.5235987755982988,0.5235987755982988,0,0.8123411,0.3827172,1.2635407,0.48459178,-0.42558303,0.6725146,-0.4892729,0.34911558,-1.5115443,0.24138711,-0.08265592,-0.07241031,1.1297697,0.64659977
-0.2,0.10000000000000003,1.0999999999999999,-0.5235987755982988,0.5235987755982988,0,0.80891436,0.38018447,1.2663922,0.48319122,-0.4081467,0.67673236,-0.43562895,0.33012533,-1.5233048,0.18702362,-0.052059736,-0.02208507,1.1019831,-0.69934785
-0.2,0.10000000000000003,1.0999999999999999,-0.5235987755982988,0.5235987755982988,0,0.8061816,0.3782229,1.2688006,0.48446128,-0.42669335,0.67793936,0.27557927,0.37160465,-1.532192,0.21485904,-0.052463576,0.035040714,1.1278749,-0.8084246
-0.2,0.10000000000000003,1.0999999999999999,-0.5235987755982988,0.5235987755982988,0,0.8140455,0.382326,1.2600778,0.4841127,-0.4311725,0.68817395,-0.98700887,0.35552394,-1.5290467,0.23978633,-0.024887856,-0.059615165,1.1099029,-0.95260483
-0.2,0.10000000000000003,1.0999999999999999,-0.5235987755982988,0.5235987755982988,0,0.8087007,0.37862292,1.266311,0.4829172,-0.42026094,0.6881414,0.7551199,0.40483367,-1.5230796,0.2786549,-0.04372066,-0.086675085,1.1316037,0.2871307
-0.2,0.10000000000000003,1.0999999999999999,-0.5235987755982988,0.5235987755982988,0,0.8133182,0.38151342,1.2683592,0.4834659,-0.44037086,0.64911574,-0.27794036,0.37071434,-1.5323422,0.20710754,-0.07459542,-0.20711306,1.1723013,0.8167479
-0.2,0.10000000000000003,1.0999999999999999,-0.5235987755982988,0.5235987755982988,0,0.8128152,0.3803085,1.2643335,0.4849648,-0.4339023,0.6474157,0.54804105,0.3274426,-1.5111203,0.3061487,-0.08033334,-0.031126471,1.0938596,0.20992367
-0.2,0.10000000000000003,1.0999999999999999,-0.5235987755982988,0.5235987755982988,0,0.8085654,0.37775397,1.2649596,0.48524335,-0.42200047,0.67178077,-1.3008033,0.31340325,-1.5225849,0.16475074,-0.05814736,0.022183053,1.0758241,-0.68262786
-0.2,0.10000000000000003,1.0999999999999999,-0.5235987755982988,0.5235987755982988,0,0.809175,0.37890464,1.262908,0.48339173,-0.4390286,0.65050215,-0.47369987,0.35249352,-1.533171,0.37573862,-0.03294073,-0.013879759,1.1516173,-1.0598854
-0.2,0.10000000000000003,1.0999999999999999,-0.5235987755982988,0.5235987755982988,0,0.81147105,0.3816318,1.2630104,0.48305985,-0.4231918,0.6718138,-1.9674472,0.32962832,-1.5253288,0.27838638,-0.12070559,-0.0051928684,1.1576285,-0.38182032
-0.2,0.10000000000000003,1.0999999999999999,-0.5235987755982988,0.5235987755982988,0,0.8075642,0.37943718,1.2630024,0.48568642,-0.417949,0.7073315,0.78658825,0.3672117,-1.5202256,0.18146354,-0.02045536,-0.010708856,1.1395603,-0.055829044
-0.2,0.10000000000000003,1.0999999999999999,-0.5235987755982988,0.5235987755982988,0,0.80945915,0.37716344,1.2669413,0.48120803,-0.43391198,0.67699724,-0.12694049,0.35809508,-1.5294715,0.14116378,-0.09103498,0.019070866,1.1528555,-0.024614386
-0.2,0.10000000000000003,1.0999999999999999,-0.5235987755982988,0.5235987755982988,0,0.80480915,0.38320616,1.263993,0.48354572,-0.40860128,0.7044938,0.62865263,0.34613055,-1.5335548,0.14736177,-0.013869577,-0.032301642,1.1062838,-0.0917657
-0.2,0.10000000000000003,1.0999999999999999,-0.5235987755982988,0.5235987755982988,0,0.813177,0.38085043,1.2628412,0.48406872,-0.42471656,0.68447423,-1.3709663,0.30801946,-1.5195053,0.17233972,-0.07165529,-0.07985698,1.1490935,-0.5576838
-0.2,0.10000000000000003,1.0999999999999999,-0.5235987755982988,0.5235987755982988,0,0.8163737,0.3803648,1.262953,0.4834976,-0.4267893,0.6914186,-1.4457327,0.30976263,-1.5327237,0.23881856,-0.108609684,-0.008017638,1.1017009,0.54954666
-0.2,0.10000000000000003,1.0999999999999999,-0.5235987755982988,0.5235987755982988,0,0.806367,0.37850237,1.2649853,0.48368052,-0.42442134,0.7152266,1.548509,0.29760197,-1.5265074,0.2512798,-0.08181649,-0.025304275,1.1122111,-0.12669408
-0.2,0.10000000000000003,1.0999999999999999,-0.5235987755982988,0.5235987755982988,0,0.8097966,0.3798214,1.26397,0.4854764,-0.41855133,0.7041009,1.5463461,0.3408172,-1.5115854,0.16449109,-0.08875689,-0.011687914,1.1842829,-1.0720288
-0.2,0.10000000000000003,1.0999999999999999,-0.5235987755982988,0.5235987755982988,0,0.8146362,0.37944928,1.2623006,0.48231256,-0.41830826,0.6781036,0.72069615,0.38268426,-1.5381416,0.32087192,-0.057482105,-0.016880881,1.0170805,0.4883202
-0.2,0.10000000000000003,1.0999999999999999,-0.5235987755982988,0.5235987755982988,0,0.80919176,0.3770959,1.2668624,0.48465922,-0.41689137,0.7139571,0.9469937,0.3054,-1.5248544,0.33378738,-0.048719164,-0.08322537,1.1027274,-0.89448327
-0.2,0.10000000000000003,1.0999999999999999,-0.5235987755982988,0.5235987755982988,0,0.8127187,0.38459432,1.2645528,0.4830452,-0.43593273,0.66456425,0.6033898,0.35264048,-1.5209713,0.20772958,-0.065802395,0.04034679,1.1163061,-1.1318195
-0.2,0.10000000000000003,1.0999999999999999,-0.5235987755982988,0.5235987755982988,0,0.80912507,0.37961563,1.2625163,0.48371375,-0.42803267,0.6722754,-0.67514837,0.35792157,-1.5152701,0.14198807,-0.06255333,0.039961185,1.1706556,-1.3940488
-0.2,0.10000000000000003,1.0999999999999999,-0.5235987755982988,0.5235987755982988,0,0.8143533,0.3799642,1.2644744,0.48653093,-0.44437373,0.7034924,1.5192367,0.33062926,-1.5206668,0.2082174,-0.036623545,0.029153159,1.1033261,-0.9831108
-0.2,0.10000000000000003,1.0999999999999999,-0.5235987755982988,0.5235987755982988,0,0.81159353,0.381231,1.2692256,0.48429012,-0.423307,0.6478114,0.5939174,0.32308942,-1.5117981,0.17934911,-0.062538035,0.033293225,1.1217297,-2.1900032
-0.2,0.10000000000000003,1.0999999999999999,-0.5235987755982988,0.5235987755982988,0,0.80896246,0.3796575,1.2664508,0.48156607,-0.4155467,0.7075303,1.5686132,0.32320064,-1.523916,0.31334272,-0.10047532,-0.048489213,1.1460881,-0.9780082
-0.2,0.10000000000000003,1.0999999999999999,-0.5235987755982988,0.5235987755982988,0,0.81017685,0.3802943,1.2620546,0.4823792,-0.43396217,0.6986338,-0.042485487,0.31684437,-1.523776,0.27050784,-0.09576725,-0.024367837,1.117424,-0.16931915
-0.2,0.10000000000000003,1.0999999999999999,-0.5235987755982988,0.5235987755982988,0,0.8086018,0.37786087,1.2698116,0.48252153,-0.4437833,0.6580178,-0.2649151,0.32835168,-1.5274107,0.23179479,-0.06736959,-0.032781202,1.065278,-0.55039626
-0.2,0.10000000000000003,1.0999999999999999,-0.5235987755982988,0.5235987755982988,0,0.8121797,0.38135517,1.2656155,0.48349974,-0.42943236,0.6652187,-0.12561975,0.3568365,-1.521678,0.122486904,-0.07429737,-0.03684474,1.1456382,0.21629584
-0.2,0.10000000000000003,1.0999999999999999,-0.5235987755982988,0.5235987755982988,0,0.8082811,0.3794103,1.2649553,0.48241562,-0.43252236,0.6933467,1.5180115,0.36391118,-1.5139946,0.12831083,-0.04914078,-0.1173082,1.1297913,-1.1096883
-0.2,0.10000000000000003,1.0999999999999999,-0.5235987755982988,0.5235987755982988,0,0.81158495,0.3781076,1.2681615,0.48169103,-0.42848432,0.65847594,-0.8805996,0.35186088,-1.5158769,0.25797534,-0.045195706,-0.08623979,1.18997,-0.2870137
-0.2,0.10000000000000003,1.0999999999999999,-0.5235987755982988,0.5235987755982988,0,0.81134504,0.3782343,1.2685285,0.4814927,-0.42542878,0.6798178,0.13343732,0.3347895,-1.5175875,0.30855423,-0.036578644,-0.09542142,1.1185554,-1.4562895
-0.2,0.10000000000000003,1.0999999999999999,-0.5235987755982988,0.5235987755982988,0,0.8115372,0.37694365,1.2699214,0.48146442,-0.41612598,0.6630841,-0.6576794,0.3300005,-1.5277355,0.20008466,-0.05756552,-0.06853704,1.1545699,-0.8016212
-0.2,0.10000000000000003,1.0999999999999999,-0.5235987755982988,0.5235987755982988,0,0.8123662,0.3833102,1.2652144,0.48394105,-0.41574433,0.7186804,-1.0082152,0.38750827,-1.5281168,0.21915051,-0.062345892,-0.1148013,1.1152631,-1.7248739
-0.2,0.10000000000000003,1.0999999999999999,-0.5235987755982988,0.5235987755982988,0,0.81243205,0.38113406,1.2680771,0.48234075,-0.4258044,0.6665466,0.8464791,0.32904294,-1.517384,0.22831944,-0.045623973,-0.090556584,1.0768427,-0.2967714
-0.2,0.10000000000000003,1.0999999999999999,-0.5235987755982988,0.5235987755982988,0,0.8051288,0.37960717,1.271322,0.48356104,-0.42028552,0.70557916,-0.422093,0.33645773,-1.5198387,0.28962508,-0.08635768,0.02497248,1.1436223,-0.8115102
-0.2,0.10000000000000003,1.0999999999999999,-0.5235987755982988,0.5235987755982988,0,0.8091837,0.3796875,1.2634295,0.48343447,-0.43032974,0.67486787,0.8797853,0.2719956,-1.5141115,0.21540236,-0.02306889,-0.059444543,1.1205674,-1.7730348
-0.2,0.10000000000000003,1.0999999999999999,-0.5235987755982988,0.5235987755982988,0,0.8060724,0.38290378,1.2656777,0.48257628,-0.4362241,0.6759494,-0.9358441,0.3136843,-1.5251423,0.25099555,-0.0536048,-0.0069330526,1.1307507,-1.536072
-0.2,0.10000000000000003,1.0999999999999999,-0.5235987755982988,0.5235987755982988,0,0.81079483,0.38025123,1.2631779,0.4818369,-0.4306236,0.6740498,0.32480428,0.3279359,-1.5178064,0.20981109,-0.03382065,-0.040467788,1.1444157,0.048622407
-0.2,0.10000000000000003,1.0999999999999999,-0.5235987755982988,0.5235987755982988,0,0.8047062,0.3821832,1.2631111,0.48471147,-0.4289156,0.67168176,-0.67666334,0.33347622,-1.5276777,0.26346406,-0.054106325,-0.10592937,1.1228582,0.8588183
-0.2,0.10000000000000003,1.0999999999999999,-0.5235987755982988,0.5235987755982988,0,0.81235474,0.37928227,1.2630206,0.48335147,-0.43190405,0.64935666,-0.22386858,0.31376848,-1.5176185,0.238561,-0.058961287,-0.12015697,1.1394174,0.36862594
-0.2,0.10000000000000003,1.0999999999999999,-0.5235987755982988,0.5235987755982988,0,0.8117693,0.38024336,1.2694515,0.4851584,-0.4248001,0.6871889,-1.2678279,0.3258383,-1.5309545,0.33968818,-0.083421506,0.08470323,1.1186055,-1.0137411
-0.2,0.10000000000000003,1.0999999999999999,-0.5235987755982988,0.5235987755982988,0,0.8106397,0.38061613,1.2635657,0.48430368,-0.43121704,0.6584221,-3.09765,0.37468228,-1.5342287,0.28694013,-0.099169105,-0.04377219,1.1693965,0.21506728
-0.2,0.10000000000000003,1.0999999999999999,-0.5235987755982988,0.5235987755982988,0,0.8072503,0.38168207,1.2652159,0.48283735,-0.4236317,0.7041035,-0.6911514,0.35769367,-1.5254673,0.12773696,-0.09298852,-0.0074891713,1.0734476,-0.39901498
-0.2,0.10000000000000003,1.0999999999999999,-0.5235987755982988,0.5235987755982988,0,0.8132704,0.38183856,1.2633456,0.48353982,-0.41387224,0.6792953,-0.50945306,0.27275744,-1.5186142,0.24240789,-0.081911765,-0.008484201,1.1807766,-0.3984761
-0.2,0.10000000000000003,1.0999999999999999,-0.5235987755982988,0.5235987755982988,0,0.8157268,0.37753063,1.2607688,0.4853606,-0.42513207,0.6629942,1.0372458,0.2957413,-1.5242401,0.26720536,-0.10458564,-0.0038077265,1.1456697,-0.8856593
-0.2,0.10000000000000003,1.0999999999999999,-0.5235987755982988,0.5235987755982988,0,0.8119491,0.38293868,1.2659651,0.48269725,-0.4240223,0.70872283,-1.7590095,0.35864285,-1.5263679,0.2548099,-0.06459427,0.07585915,1.0596436,-0.015964253
-0.2,0.10000000000000003,1.0999999999999999,-0.5235987755982988,0.5235987755982988,0,0.80524856,0.38060647,1.263053,0.4828123,-0.42646754,0.6736617,-0.5147925,0.32365468,-1.5315598,0.1604051,-0.066502355,0.019041844,1.1489465,0.40580964
-0.2,0.10000000000000003,1.0999999999999999,-0.5235987755982988,0.5235987755982988,0,0.80392444,0.380759,1.2646422,0.482763,-0.42795944,0.6816719,1.1979498,0.30856863,-1.5310825,0.31833485,-0.06828204,-0.0035379801,1.1265491,0.46643662
-0.2,0.10000000000000003,1.0999999999999999,-0.5235987755982988,0.5235987755982988,0,0.8126563,0.3783142,1.2654138,0.48408008,-0.43120757,0.6768024,1.2017576,0.32500577,-1.5227394,0.25699776,-0.05650929,-0.01405707,1.1464612,-0.36782837
-0.2,0.10000000000000003,1.0999999999999999,-0.5235987755982988,0.5235987755982988,0,0.8119596,0.37675536,1.265227,0.48623568,-0.4149596,0.67337644,0.31138852,0.3279065,-1.5140125,0.15192735,-0.07130025,-0.02548987,1.0787263,-0.21688192
-0.2,0.10000000000000003,1.0999999999999999,-0.5235987755982988,0.5235987755982988,0,0.80145174,0.38258153,1.2641617,0.48256588,-0.43498772,0.6779203,-0.4720098,0.28591415,-1.5336015,0.21405624,-0.076156534,-0.015640574,1.0746001,-0.6421778
-0.2,0.10000000000000003,1.0999999999999999,-0.5235987755982988,0.5235987755982988,0,0.8101074,0.38112345,1.2637473,0.4825036,-0.43155554,0.7018524,0.662552,0.3262149,-1.5193081,0.19654313,-0.08418786,0.011064945,1.11261,-0.4545325
-0.2,0.10000000000000003,1.0999999999999999,-0.5235987755982988,0.5235987755982988,0,0.80651444,0.38199922,1.2691659,0.48465365,-0.42512766,0.6661143,-0.35654545,0.30298957,-1.522442,0.19445752,-0.08470275,0.021806682,1.1284242,-0.6781367
-0.2,0.10000000000000003,1.0999999999999999,-0.5235987755982988,0.5235987755982988,0,0.81205547,0.37901253,1.2669477,0.48357272,-0.41842893,0.66996115,-0.5732096,0.37435848,-1.5227196,0.31536388,-0.056942943,0.013979416,1.1059822,-0.8836859
-0.2,0.10000000000000003,1.0999999999999999,-0.5235987755982988,0.5235987755982988,0,0.8128725,0.381645,1.2656064,0.48630407,-0.42642605,0.6820585,1.1358992,0.37507275,-1.5385945,0.31426555,-0.009620694,-0.10996168,1.0893891,0.029614352
-0.2,0.10000000000000003,1.0999999999999999,-0.5235987755982988,0.5235987755982988,0,0.8105699,0.38146302,1.2629437,0.4833785,-0.42097643,0.71743953,-0.33848804,0.38313904,-1.5334145,0.26178065,-0.02668565,-0.07410647,1.185317,-0.37146223
-0.2,0.10000000000000003,1.0999999999999999,-0.5235987755982988,0.5235987755982988,0,0.8159875,0.3830403,1.2646577,0.4851924,-0.43136957,0.6902066,-0.97949636,0.3668942,-1.5226362,0.28436288,-0.02923321,-0.10177383,1.1025124,1.0611631
-0.2,0.10000000000000003,1.0999999999999999,-0.5235987755982988,0.5235987755982988,0,0.81102985,0.3816312,1.264068,0.4828942,-0.4275464,0.6893538,0.7925928,0.35242873,-1.5183487,0.2907845,-0.06646075,-0.007901379,1.1706179,-0.779364
-0.2,0.10000000000000003,1.0999999999999999,-0.5235987755982988,0.5235987755982988,0,0.81363547,0.37802577,1.2694775,0.48395002,-0.42914495,0.6628002,-1.7715669,0.35605922,-1.5209348,0.17167239,-0.058505703,0.080267556,1.1323606,-0.021645725
-0.2,0.10000000000000003,1.0999999999999999,-0.5235987755982988,0.5235987755982988,0,0.80556566,0.37975228,1.2643305,0.48618713,-0.42474765,0.7015803,-0.24293618,0.32270196,-1.5207841,0.2857402,-0.07019342,0.0001104149,1.0421449,-0.95557606
-0.2,0.10000000000000003,1.0999999999999999,-0.5235987755982988,0.5235987755982988,0,0.8166304,0.37910733,1.2646827,0.48373765,-0.43416828,0.6542822,0.94347626,0.34411687,-1.5438323,0.3762433,-0.05409092,-0.1475827,1.1209998,-1.8356223
-0.2,0.10000000000000003,1.0999999999999999,-0.5235987755982988,0.5235987755982988,0,0.8108624,0.3845221,1.2657491,0.48301926,-0.43706465,0.6881119,-0.3139187,0.3648901,-1.5166752,0.20036449,-0.08135878,-0.016286772,1.1795819,-1.0449984
-0.2,0.10000000000000003,1.0999999999999999,-0.5235987755982988,0.5235987755982988,0,0.806649,0.38241252,1.2639093,0.48548013,-0.43627125,0.6767819,-0.58886063,0.2841634,-1.5235064,0.18455656,-0.05931606,0.086959995,1.0580735,0.3285233
-0.2,0.10000000000000003,1.0999999999999999,-0.5235987755982988,0.5235987755982988,0,0.8104458,0.37918496,1.2643383,0.48226887,-0.43722862,0.678645,-0.6149905,0.32177904,-1.521801,0.19282639,-0.08498907,-0.16275103,1.1365879,0.49144617
-0.2,0.10000000000000003,1.0999999999999999,-0.5235987755982988,0.5235987755982988,0,0.8102951,0.38033828,1.2644147,0.48418346,-0.4262055,0.6875363,-0.6056564,0.3386085,-1.5253758,0.21401456,-0.0174282,-0.12952994,1.0884922,-1.3901315
-0.2,0.10000000000000003,1.0999999999999999,-0.5235987755982988,0.5235987755982988,0,0.8123565,0.37946385,1.2692763,0.4836631,-0.42845213,0.6577955,-1.0844125,0.3315702,-1.5038123,0.20723611,-0.07287161,-0.044001024,1.1685318,-0.13199174
-0.2,0.10000000000000003,1.0999999999999999,-0.5235987755982988,0.5235987755982988,0,0.81081873,0.3805282,1.267537,0.48467082,-0.43265858,0.68207026,-0.9296731,0.35169625,-1.5164142,0.24044812,-0.076193206,-0.07816818,1.1217656,0.3169273
-0.2,0.10000000000000003,1.0999999999999999,-0.5235987755982988,0.5235987755982988,0,0.8165275,0.38065392,1.2622845,0.48286325,-0.42422855,0.6706324,-1.1239015,0.38191947,-1.5278553,0.17811033,-0.09223443,-0.04497731,1.1653016,-0.49230638
-0.2,0.10000000000000003,1.0999999999999999,-0.5235987755982988,0.5235987755982988,0,0.80466586,0.38015342,1.2610552,0.4829599,-0.4376471,0.71884364,-0.61693686,0.4061197,-1.5307025,0.25057745,-0.02382708,-0.017916482,1.1364515,-1.2743721
-0.2,0.10000000000000003,1.0999999999999999,-0.5235987755982988,0.5235987755982988,0,0.81306463,0.379349,1.2609497,0.48372415,-0.4280225,0.7173136,0.23725308,0.3258726,-1.53093,0.20546131,-0.09227152,-0.023146313,1.1185958,-0.18076086
-0.2,0.10000000000000003,1.0999999999999999,-0.5235987755982988,0.5235987755982988,0,0.8111401,0.37865984,1.2654209,0.48328036,-0.42467186,0.6669833,-0.7462518,0.37482476,-1.5167184,0.22823673,-0.055753354,-0.04240664,1.1342359,1.6370469
-0.2,0.10000000000000003,1.0999999999999999,-0.5235987755982988,0.5235987755982988,0,0.8152797,0.38298914,1.2618622,0.48559263,-0.42219523,0.6493649,-0.66006154,0.31761608,-1.5212901,0.2436992,-0.0825816,0.011208121,1.0942427,-1.4607239
-0.2,0.10000000000000003,1.0999999999999999,-0.5235987755982988,0.5235987755982988,0,0.8079753,0.37930474,1.2645798,0.483599,-0.42393166,0.6789977,-0.64108646,0.34769017,-1.5196029,0.45418245,-0.0010870277,0.022446904,1.1260754,-1.9715855
-0.2,0.10000000000000003,1.0999999999999999,-0.5235987755982988,0.5235987755982988,0,0.8113444,0.38171443,1.2694753,0.48541024,-0.4182455,0.71482354,1.1419669,0.32618764,-1.5115519,0.2183129,-0.07817828,-0.10817943,1.0969678,-1.8980634
-0.2,0.10000000000000003,1.0999999999999999,-0.5235987755982988,0.5235987755982988,0,0.81180024,0.37755764,1.2655779,0.484388,-0.41712436,0.69807667,-0.56920373,0.37165642,-1.5110885,0.33841112,-0.051117864,-0.02146753,1.021174,-1.3839486
-0.2,0.10000000000000003,1.0999999999999999,-0.5235987755982988,0.5235987755982988,0,0.80641955,0.37914643,1.2645645,0.48216215,-0.44781643,0.67391753,0.6091991,0.3261016,-1.5131171,0.36308807,-0.06439516,-0.12702848,1.1557525,-0.5496465
-0.2,0.10000000000000003,1.0999999999999999,-0.5235987755982988,0.5235987755982988,0,0.80928355,0.38101643,1.2687062,0.48412362,-0.44470838,0.69034773,0.889998,0.32423022,-1.5211148,0.19351076,-0.059658542,-0.08211194,1.1473962,-2.0834498
-0.2,0.10000000000000003,1.0999999999999999,-0.5235987755982988,0.5235987755982988,0,0.81258386,0.37851346,1.2655948,0.48517096,-0.43844336,0.70805943,-0.1377297,0.31754982,-1.5223353,0.25474766,-0.090609506,-0.060042925,1.1113821,-0.8676426
-0.2,0.10000000000000003,1.0999999999999999,-0.5235987755982988,0.5235987755982988,0,0.81007326,0.38254,1.265104,0.48366496,-0.43476883,0.6908521,-0.34171528,0.34272403,-1.5171229,0.28982303,-0.07238554,-0.017729007,1.1540053,-0.9042832
-0.2,0.10000000000000003,1.0999999999999999,-0.5235987755982988,0.5235987755982988,0,0.8032936,0.37816435,1.2628828,0.48395878,-0.44385824,0.6823473,0.6443608,0.35294673,-1.521454,0.27811795,-0.11930063,-0.046037175,1.0744094,-0.31174487
-0.2,0.10000000000000003,1.0999999999999999,-0.5235987755982988,0.5235987755982988,0,0.8089686,0.3766476,1.2623237,0.48373243,-0.4351859,0.6852077,-1.2778633,0.3581088,-1.52136,0.28005505,-0.052362178,0.019758685,1.1011995,-0.46759167
-0.2,0.10000000000000003,1.0999999999999999,-0.5235987755982988,0.5235987755982988,0,0.80559623,0.38111264,1.2670176,0.48479396,-0.42768154,0.71805614,2.0277455,0.3246458,-1.5232192,0.19059634,-0.11977477,-0.004759204,1.0827552,-1.1086506
-0.2,0.10000000000000003,1.0999999999999999,-0.5235987755982988,0.5235987755982988,0,0.8068189,0.37511063,1.262042,0.4854781,-0.44494826,0.6767698,0.8818174,0.35418752,-1.5208055,0.31259868,-0.06789863,-0.03745366,1.0588462,-1.3234367
-0.2,0.10000000000000003,1.0999999999999999,-0.5235987755982988,0.5235987755982988,0,0.80921865,0.38055366,1.2660165,0.48237008,-0.4268288,0.71378106,-3.0869982,0.34541726,-1.5212475,0.16985123,-0.07709652,0.0019981281,1.1353595,-0.8295056
-0.2,0.10000000000000003,1.0999999999999999,-0.5235987755982988,0.5235987755982988,0,0.81036735,0.38140988,1.2657456,0.48408952,-0.44704127,0.67218703,0.19474493,0.34124613,-1.5250137,0.30204898,-0.10776532,-0.060816795,1.1512572,-1.1380726
-0.2,0.10000000000000003,1.0999999999999999,-0.5235987755982988,0.5235987755982988,0,0.81208247,0.37756923,1.2684976,0.48361692,-0.44699988,0.67729545,-0.6214117,0.36196053,-1.5253675,0.22680786,-0.07692954,-0.113845944,1.1098876,-1.3084099
-0.2,0.10000000000000003,1.0999999999999999,-0.5235987755982988,0.5235987755982988,0,0.8075978,0.37870622,1.2595214,0.48205104,-0.4254971,0.6976845,-0.42047715,0.34159762,-1.5210825,0.20003432,-0.032082334,-0.02106584,1.1205279,-0.7502979
-0.2,0.10000000000000003,1.0999999999999999,-0.5235987755982988,0.5235987755982988,0,0.8113228,0.38071084,1.2653574,0.48512948,-0.43508396,0.6914912,-1.9770489,0.31303325,-1.516795,0.27330026,-0.040676117,-0.022213653,1.150743,0.8446773
-0.2,0.10000000000000003,1.0999999999999999,-0.5235987755982988,0.5235987755982988,0,0.8106349,0.37844494,1.2644224,0.48405555,-0.4529219,0.65975446,0.51187134,0.32660347,-1.5190898,0.202583,-0.034522932,-0.16609994,1.0928408,1.1513213
-0.2,0.10000000000000003,1.0999999999999999,-0.5235987755982988,0.5235987755982988,0,0.8098071,0.38104743,1.2682734,0.48495132,-0.4343614,0.6831219,0.34418765,0.35105088,-1.5216385,0.20027177,-0.07370164,-0.055584643,1.1716843,-1.0278865
-0.2,0.10000000000000003,1.0999999999999999,-0.5235987755982988,0.5235987755982988,0,0.81009316,0.38036144,1.2626003,0.4846951,-0.44363683,0.6631589,1.1611706,0.37105903,-1.5285048,0.24519712,-0.048404608,-0.09380028,1.1326182,0.8005493
-0.2,0.10000000000000003,1.0999999999999999,-0.5235987755982988,0.5235987755982988,0,0.81604743,0.38334966,1.2631035,0.48539537,-0.44549087,0.69778514,-0.8670924,0.34736103,-1.5152768,0.23294844,-0.091273256,-0.015932253,1.0576767,-0.57103485
-0.2,0.10000000000000003,1.0999999999999999,-0.5235987755982988,0.5235987755982988,0,0.8084825,0.3816488,1.2639618,0.48289353,-0.43567592,0.7007157,-0.42938074,0.32153398,-1.5255135,0.2498295,-0.06356503,-0.013621904,1.1089342,-1.5325578
-0.2,0.10000000000000003,1.0999999999999999,-0.5235987755982988,0.5235987755982988,0,0.8114624,0.3804465,1.262454,0.4844129,-0.43478414,0.68136305,-0.5702456,0.285992,-1.5078741,0.1768238,-0.105265126,-0.075022474,1.1247413,-0.7962802
-0.2,0.10000000000000003,1.0999999999999999,-0.5235987755982988,0.5235987755982988,0,0.80610216,0.3795607,1.2677348,0.48496816,-0.42730084,0.71162236,-0.63055694,0.3341123,-1.519409,0.18838613,-0.052560482,-0.11308097,1.1570545,-0.75579625
-0.2,0.10000000000000003,1.0999999999999999,-0.5235987755982988,0.5235987755982988,0,0.8109602,0.38270646,1.2654172,0.48177403,-0.44954425,0.7076465,-1.5367644,0.36043006,-1.5197682,0.3204171,-0.077544875,-0.058198962,1.1060072,1.2326801
-0.2,0.10000000000000003,1.0999999999999999,-0.5235987755982988,0.5235987755982988,0,0.8076872,0.38063067,1.2622403,0.4833681,-0.4355063,0.6677424,-1.2094646,0.32256916,-1.5274756,0.27077365,-0.04476378,-0.0038099925,1.113279,-1.065234
-0.2,0.10000000000000003,1.0999999999999999,-0.5235987755982988,0.5235987755982988,0,0.80684257,0.3793451,1.2653077,0.48401967,-0.4453653,0.68176854,-1.5901374,0.34852675,-1.5219374,0.17016305,-0.085564375,0.022523008,1.1584308,-0.11759785
-0.2,0.10000000000000003,1.0999999999999999,-0.5235987755982988,0.5235987755982988,0,0.8136818,0.37992805,1.2629946,0.4841375,-0.42946228,0.6708369,-0.68064666,0.33330414,-1.5383558,0.3330485,-0.05359813,0.05993466,1.1280317,-0.4863153
-0.2,0.10000000000000003,1.0999999999999999,-0.5235987755982988,0.5235987755982988,0,0.8143408,0.3838783,1.2615838,0.48460147,-0.42803764,0.69253546,1.782879,0.33468494,-1.5308931,0.19239558,-0.04946773,-0.06672665,1.1080966,0.6278666
-0.2,0.10000000000000003,1.0999999999999999,-0.5235987755982988,0.5235987755982988,0,0.81117195,0.37996706,1.2696977,0.48238817,-0.43273404,0.7188189,0.08925854,0.33685398,-1.5236695,0.26736832,-0.023517124,-0.05293167,1.1231214,-1.5037014
-0.2,0.10000000000000003,1.0999999999999999,-0.5235987755982988,0.5235987755982988,0,0.82013845,0.38114476,1.2702519,0.48270857,-0.4277767,0.668081,0.45565292,0.3591447,-1.5315388,0.1728642,-0.036646657,0.004626864,1.1044081,-1.0138739
-0.2,0.10000000000000003,1.0999999999999999,-0.5235987755982988,0.5235987755982988,0,0.81535804,0.37735128,1.2681391,0.48743042,-0.42751196,0.69575435,-0.8888556,0.34581977,-1.5171294,0.15313073,-0.07338794,0.035775937,1.2179798,-0.71489745
-0.2,0.10000000000000003,1.0999999999999999,-0.5235987755982988,0.5235987755982988,0,0.80520314,0.3780583,1.2672173,0.4832628,-0.44139564,0.69882566,0.6489178,0.31079248,-1.5237216,0.2641664,-0.08873063,-0.06566768,1.1028144,-0.3198997
-0.2,0.10000000000000003,1.0999999999999999,-0.5235987755982988,0.5235987755982988,0,0.8089215,0.38434124,1.2609926,0.48437893,-0.4415522,0.70547605,-0.5110447,0.33273372,-1.5256653,0.33492213,-0.011712629,0.039547924,1.1288023,-0.5832359
-0.2,0.10000000000000003,1.0999999999999999,-0.5235987755982988,0.5235987755982988,0,0.81220216,0.3787918,1.2646544,0.4842509,-0.43504336,0.6480436,0.25295764,0.30627552,-1.5309912,0.2511078,-0.03674108,0.08065722,1.152097,-0.11437082
-0.2,0.10000000000000003,1.0999999999999999,-0.5235987755982988,0.5235987755982988,0,0.80470866,0.38104442,1.2629665,0.48321694,-0.41403854,0.6866618,-0.25041476,0.42491293,-1.5209892,0.2656514,-0.098216474,-0.020251859,1.1103762,-1.6014345
-0.2,0.10000000000000003,1.0999999999999999,-0.5235987755982988,0.5235987755982988,0,0.80534637,0.37765247,1.2681777,0.48496768,-0.4431336,0.6887164,0.060672265,0.32416686,-1.5204518,0.2908962,-0.06494747,-0.19810107,1.1311435,-0.7815837
-0.2,0.10000000000000003,1.0999999999999999,-0.5235987755982988,0.5235987755982988,0,0.8161593,0.3781589,1.2685642,0.48311704,-0.44327334,0.709305,0.21586902,0.36392325,-1.5100874,0.16817255,-0.07898957,-0.024523998,1.1688309,-1.4815385
-0.2,0.10000000000000003,1.0999999999999999,-0.5235987755982988,0.5235987755982988,0,0.81664985,0.3744577,1.2635388,0.48556373,-0.42984402,0.70330036,1.0430952,0.33663502,-1.5155354,0.26582336,-0.07988358,-0.19647841,1.188965,0.15726621
-0.2,0.10000000000000003,1.0999999999999999,-0.5235987755982988,0.5235987755982988,0,0.8145693,0.37931645,1.2640033,0.4817033,-0.43236154,0.6672496,0.16716883,0.30851194,-1.5245056,0.24086492,-0.06544488,-0.047742527,1.1464294,0.29322565
-0.2,0.10000000000000003,1.0999999999999999,-0.5235987755982988,0.5235987755982988,0,0.8146165,0.37924665,1.263868,0.4845543,-0.45637724,0.67286104,-0.5147521,0.36610085,-1.512191,0.32700732,-0.10279684,-0.08098776,1.1312228,-0.24250498
-0.2,0.10000000000000003,1.0999999999999999,-0.5235987755982988,0.5235987755982988,0,0.80702794,0.38094294,1.2641087,0.4833367,-0.41387653,0.6766083,0.11430322,0.33111367,-1.5224032,0.31262523,-0.08512727,-0.023940172,1.1703483,-1.3226973
-0.2,0.10000000000000003,1.0999999999999999,-0.5235987755982988,0.5235987755982988,0,0.8090986,0.3799186,1.261225,0.4839165,-0.4446313,0.72319025,-0.73333186,0.34845558,-1.5171996,0.24276076,-0.08194442,-0.023285411,1.0524893,-0.4248274
-0.2,0.10000000000000003,1.0999999999999999,-0.5235987755982988,0.5235987755982988,0,0.8164994,0.3779592,1.2656397,0.4843134,-0.43579328,0.6786685,-1.051933,0.31168047,-1.5099634,0.26492274,-0.076115444,0.06870402,1.191384,-0.5813732
-0.2,0.10000000000000003,1.0999999999999999,-0.5235987755982988,0.5235987755982988,0,0.8016386,0.37922156,1.2641717,0.48549974,-0.4297158,0.69196284,0.7705845,0.34775984,-1.5330589,0.16864221,-0.12576059,-0.09712876,1.173116,-1.463718
-0.2,0.10000000000000003,1.0999999999999999,-0.5235987755982988,0.5235987755982988,0,0.805109,0.38124278,1.2681173,0.4858568,-0.43701854,0.6572904,-0.3872247,0.33544886,-1.5145543,0.22130759,-0.10670694,0.07697347,1.0842887,0.063695155
-0.2,0.10000000000000003,1.0999999999999999,-0.5235987755982988,0.5235987755982988,0,0.8181065,0.3835793,1.2676865,0.48297083,-0.42681503,0.65023446,2.368053,0.34001353,-1.5153549,0.15735203,-0.09764962,-0.04228326,1.1477768,-0.8090486
-0.2,0.10000000000000003,1.0999999999999999,-0.5235987755982988,0.5235987755982988,0,0.8104077,0.3805501,1.2659435,0.48327893,-0.4396066,0.68587655,1.0705444,0.3627955,-1.5262322,0.3525788,-0.086461894,0.024802268,1.1151911,-0.11017134
-0.2,0.10000000000000003,1.0999999999999999,-0.5235987755982988,0.5235987755982988,0,0.8099983,0.37800336,1.2636962,0.48488727,-0.42402524,0.6627868,-0.3821017,0.33373386,-1.520276,0.23960367,-0.08314644,-0.029252918,1.1352327,-0.035398364
-0.2,0.10000000000000003,1.0999999999999999,-0.5235987755982988,0.5235987755982988,0,0.80321574,0.3787946,1.2688134,0.4838797,-0.43718398,0.66900486,0.34746143,0.34483716,-1.5268306,0.23632327,-0.028598199,-0.12924455,1.1133702,-1.4903694
-0.2,0.10000000000000003,1.0999999999999999,-0.5235987755982988,0.5235987755982988,0,0.81348896,0.3778754,1.2681566,0.48212746,-0.4350417,0.67542344,-1.1118301,0.3869186,-1.5141771,0.15668541,-0.071291134,0.091278754,1.1672384,-1.4305731
-0.2,0.10000000000000003,1.0999999999999999,-0.5235987755982988,0.5235987755982988,0,0.807009,0.3788986,1.2604545,0.48455662,-0.43587643,0.7009273,-0.118066154,0.30979818,-1.5209116,0.3547793,-0.07154697,-0.08826449,1.1183044,-0.21103649
-0.2,0.10000000000000003,1.0999999999999999,-0.5235987755982988,0.5235987755982988,0,0.81632096,0.37993455,1.2629535,0.48443478,-0.42711085,0.66700876,-1.1916473,0.3240014,-1.5072249,0.25454944,-0.06710666,-0.052506335,1.1208535,-0.9950548
-0.2,0.10000000000000003,1.0999999999999999,-0.5235987755982988,0.5235987755982988,0,0.8102019,0.3806182,1.2648213,0.48603442,-0.43499675,0.7119507,-0.570326,0.34686318,-1.5264748,0.27760383,-0.044034515,-0.049113497,1.1387829,-0.5977198
-0.2,0.10000000000000003,1.0999999999999999,-0.5235987755982988,0.5235987755982988,0,0.81199783,0.3759551,1.2619536,0.48370394,-0.42164367,0.6848515,-0.31969938,0.3413575,-1.5313913,0.27646884,-0.10669417,0.0533028,1.1514581,-0.5428089
-0.2,0.10000000000000003,1.0999999999999999,-0.5235987755982988,0.5235987755982988,0,0.81247526,0.38097373,1.2626537,0.4828828,-0.43964848,0.637934,0.41226032,0.37692395,-1.5259912,0.22834797,-0.0755624,0.06847593,1.0778695,0.3767893
-0.2,0.10000000000000003,1.0999999999999999,-0.5235987755982988,0.5235987755982988,0,0.81196886,0.38117656,1.2628051,0.48383206,-0.42329302,0.7210977,0.8090654,0.37851954,-1.521722,0.25007015,-0.06782898,-0.016559254,1.1675062,-0.6184056
-0.2,0.10000000000000003,1.0999999999999999,-0.5235987755982988,0.5235987755982988,0,0.8161355,0.37947002,1.262866,0.48288614,-0.44615334,0.6877915,-0.7956747,0.28518555,-1.5274141,0.33621028,-0.06401874,-0.059023418,1.1123104,-1.4919443
-0.2,0.10000000000000003,1.0999999999999999,-0.5235987755982988,0.5235987755982988,0,0.811137,0.37896603,1.2661884,0.48322555,-0.42808202,0.6885246,-0.9358324,0.34899825,-1.535434,0.33017144,-0.08665929,-0.054724928,1.1715311,-0.7064987
-0.2,0.10000000000000003,1.0999999999999999,-0.5235987755982988,0.5235987755982988,0,0.8105079,0.38243547,1.2666391,0.48349667,-0.4373382,0.6823142,1.7945349,0.32250658,-1.5252193,0.2594361,-0.0896273,0.011098785,1.1654483,0.27381703
-0.2,0.10000000000000003,1.0999999999999999,-0.5235987755982988,0.5235987755982988,0,0.8104771,0.37981498,1.2680345,0.4849407,-0.42544553,0.69276077,-1.0010703,0.33518717,-1.5265899,0.24292615,-0.09027541,0.0064516263,1.1039176,-0.08632328
-0.2,0.10000000000000003,1.0999999999999999,-0.5235987755982988,0.5235987755982988,0,0.8114376,0.3809934,1.2654454,0.4841153,-0.42961517,0.70839286,0.1844142,0.31552827,-1.5202955,0.27041176,-0.039712664,-0.013723974,1.15072,-1.5298163
-0.2,0.10000000000000003,1.0999999999999999,-0.5235987755982988,0.5235987755982988,0,0.81404614,0.37924746,1.2714903,0.4831703,-0.422604,0.6650717,-0.15754807,0.34007314,-1.5266908,0.21169953,-0.0136973765,0.006910444,1.1594781,-0.25724885
-0.2,0.10000000000000003,1.0999999999999999,-0.5235987755982988,0.5235987755982988,0,0.81272006,0.37953815,1.2625344,0.4831372,-0.43124402,0.6680877,-0.4962863,0.35284245,-1.5195731,0.24161552,-0.12110647,-0.04492392,1.1365771,-0.40493804
-0.2,0.10000000000000003,1.0999999999999999,-0.5235987755982988,0.5235987755982988,0,0.810187,0.3803377,1.2667818,0.48508012,-0.43943122,0.65273637,-0.5121615,0.35843855,-1.5274316,0.2960828,-0.022892676,-0.13666141,1.1728573,-0.5541119
-0.2,0.10000000000000003,1.0999999999999999,-0.5235987755982988,0.5235987755982988,0,0.81219053,0.3796285,1.2602355,0.48360956,-0.4242001,0.6932127,0.053112417,0.35184464,-1.5128888,0.1795751,-0.07621803,0.05257431,1.0770797,0.018920273
-0.2,0.10000000000000003,1.0999999999999999,-0.5235987755982988,0.5235987755982988,0,0.8083919,0.38210613,1.268495,0.48373488,-0.4157597,0.67916197,0.90014833,0.31422183,-1.51805,0.16970082,-0.10004467,-0.006574879,1.0732139,0.7849546
-0.2,0.10000000000000003,1.0999999999999999,-0.5235987755982988,0.5235987755982988,0,0.817897,0.37992102,1.2611574,0.48561516,-0.4256376,0.6254106,1.0101284,0.34466395,-1.5217377,0.23953517,-0.034265064,0.027857566,1.06071,-1.6457907
-0.2,0.10000000000000003,1.0999999999999999,-0.5235987755982988,0.5235987755982988,0,0.8094116,0.38473216,1.2646445,0.484761,-0.42563948,0.7028671,-0.86883366,0.34029937,-1.5320102,0.2996229,-0.021435006,-0.025741065,1.1564304,0.28102577
-0.2,0.10000000000000003,1.0999999999999999,-0.5235987755982988,0.5235987755982988,0,0.81195,0.38008633,1.2601053,0.48274586,-0.4307048,0.7037314,-0.112862945,0.32534653,-1.5261736,0.19745682,-0.06659386,-0.018124336,1.1107606,-1.1697501
-0.2,0.10000000000000003,1.0999999999999999,-0.5235987755982988,0.5235987755982988,0,0.8131981,0.3799074,1.2667116,0.48416385,-0.434403,0.66720325,-0.62106544,0.33112335,-1.5229585,0.16834673,-0.06462774,0.01720842,1.0771563,-0.35169226
-0.2,0.10000000000000003,1.0999999999999999,-0.5235987755982988,0.5235987755982988,0,0.8101385,0.37820375,1.266583,0.48456243,-0.4276122,0.6686497,0.033764057,0.36515084,-1.5271505,0.29252714,-0.08896768,-0.04070728,1.1671492,-1.1717602
-0.2,0.10000000000000003,1.0999999999999999,-0.5235987755982988,0.5235987755982988,0,0.8148283,0.38242924,1.2638319,0.48513165,-0.42097822,0.68206716,0.89896554,0.39270574,-1.5290307,0.18152319,-0.03280298,-0.07791692,1.0749058,-0.46027404
-0.2,0.10000000000000003,1.0999999999999999,-0.5235987755982988,0.5235987755982988,0,0.80317,0.37657914,1.2637297,0.48509032,-0.43331417,0.6710584,-0.101177916,0.3147985,-1.5157827,0.3148517,-0.07008628,-0.12523416,1.1007311,-1.4090323
-0.2,0.10000000000000003,1.0999999999999999,-0.5235987755982988,0.5235987755982988,0,0.8093969,0.37913913,1.2640127,0.48228475,-0.44872797,0.693202,-0.3692136,0.2912648,-1.5206584,0.16424327,-0.061552446,-0.045943018,1.1821706,-0.67200524
-0.2,0.10000000000000003,1.0999999999999999,-0.5235987755982988,0.5235987755982988,0,0.81192005,0.38223913,1.2688643,0.48265508,-0.4378585,0.65930384,0.44157213,0.3132252,-1.5140709,0.28993934,-0.054233614,-0.0028339655,1.1726512,-0.04799702
-0.2,0.10000000000000003,1.0999999999999999,-0.5235987755982988,0.5235987755982988,0,0.8066627,0.38003612,1.2637781,0.48269022,-0.43151292,0.6831217,-0.39432654,0.38581836,-1.5086868,0.20676982,-0.08942358,-0.058224585,1.0980314,-0.5848176
-0.2,0.10000000000000003,1.0999999999999999,-0.5235987755982988,0.5235987755982988,0,0.8099781,0.37764147,1.2660424,0.4829235,-0.43788517,0.6769682,-0.33364177,0.3447112,-1.5227166,0.40640077,-0.06397823,-0.025722926,1.1335145,0.09112317
-0.2,0.10000000000000003,1.0999999999999999,-0.5235987755982988,0.5235987755982988,0,0.8114323,0.38162726,1.260808,0.48700905,-0.4293601,0.67396355,-2.9443355,0.32655886,-1.5197291,0.27790976,-0.028694559,-0.038383707,1.1609541,0.18384658
-0.2,0.10000000000000003,1.0999999999999999,-0.5235987755982988,0.5235987755982988,0,0.80550355,0.38196436,1.2673801,0.48129153,-0.42817044,0.6837258,0.78507197,0.34220448,-1.520282,0.25363067,-0.08557212,-0.040189594,1.143686,-0.28414938
-0.2,0.10000000000000003,1.0999999999999999,-0.5235987755982988,0.5235987755982988,0,0.80760896,0.3785193,1.263166,0.48498034,-0.43003067,0.6874134,-1.1106364,0.350583,-1.5256315,0.23602939,-0.093403086,-0.02748409,1.1108098,1.0135527
-0.2,0.10000000000000003,1.0999999999999999,-0.5235987755982988,0.5235987755982988,0,0.8101508,0.3792511,1.2664772,0.48296234,-0.4193681,0.6769212,-0.00919287,0.352671,-1.5192518,0.17458996,-0.05911408,0.03867964,1.1064228,0.10949508
