sanky1234/BimanualDexCatch/isaacgymenvs/cem_results/football_pose_-0.2_0.0_1.4999999999999998_-0.5235987755982988_0.5235987755982988_0_2025-05-25.csv
x,y,z,roll,pitch,yaw,robot1/joint1,robot1/joint2,robot1/joint3,robot1/joint4,robot1/joint5,robot1/joint6,robot1/joint7,robot2/joint1,robot2/joint2,robot2/joint3,robot2/joint4,robot2/joint5,robot2/joint6,robot2/joint7
-0.2,0.0,1.4999999999999998,-0.5235987755982988,0.5235987755982988,0,0.32504737,0.7212508,1.1022114,0.4165124,0.23193954,0.22197601,-0.762812,0.060337994,1.357519,0.20487364,-0.11635169,-0.2410811,1.1168673,-0.59945995
-0.2,0.0,1.4999999999999998,-0.5235987755982988,0.5235987755982988,0,0.32438433,0.7151493,1.1030513,0.41704625,0.23199394,0.22078694,-0.028170554,-0.32667598,1.3101995,0.29768026,-0.020891497,-0.4456402,1.111835,0.9600082
-0.2,0.0,1.4999999999999998,-0.5235987755982988,0.5235987755982988,0,0.3262489,0.72015876,1.1019287,0.41644093,0.24306223,0.22244173,-0.17860632,-0.6585872,1.3525153,-0.07420577,0.056981977,-0.2274015,1.1885186,-1.4118849
-0.2,0.0,1.4999999999999998,-0.5235987755982988,0.5235987755982988,0,0.326064,0.7186687,1.1003863,0.4170598,0.23183206,0.2263138,0.40048343,0.8161506,1.3084068,0.17769547,-0.106893584,-0.30010587,1.2061043,0.53711045
-0.2,0.0,1.4999999999999998,-0.5235987755982988,0.5235987755982988,0,0.32518786,0.7214611,1.1026516,0.41729948,0.23667695,0.22805123,0.37334037,0.3623346,1.2467171,0.47974566,-0.17082892,-0.23109864,1.3711097,-0.9739028
-0.2,0.0,1.4999999999999998,-0.5235987755982988,0.5235987755982988,0,0.32526833,0.72763973,1.1023003,0.41644344,0.2305259,0.22796592,0.6350643,0.17168576,1.3756286,0.07480713,0.059656788,-0.40173212,1.0623788,0.04023998
-0.2,0.0,1.4999999999999998,-0.5235987755982988,0.5235987755982988,0,0.32553184,0.72601974,1.1011848,0.41761947,0.23460844,0.22352502,0.16019705,-0.63372856,1.3225294,-0.22212327,-0.030512424,-0.13490364,1.1726477,0.7352839
-0.2,0.0,1.4999999999999998,-0.5235987755982988,0.5235987755982988,0,0.32537508,0.7163352,1.1013632,0.41670823,0.23224631,0.2216267,-0.5450734,0.93384343,1.2917346,-0.10927353,0.030725198,-0.3087615,1.0805387,0.20141292
-0.2,0.0,1.4999999999999998,-0.5235987755982988,0.5235987755982988,0,0.32526076,0.7164556,1.1010264,0.41700622,0.2323621,0.22500895,-0.06572092,-0.024244579,1.373552,0.009582369,-0.032683983,0.011117122,1.2440346,-0.19263236
-0.2,0.0,1.4999999999999998,-0.5235987755982988,0.5235987755982988,0,0.32528222,0.71451426,1.10042,0.41829473,0.23837233,0.2222865,-1.107489,0.5815794,1.1197948,0.25790778,-0.012443238,0.018648574,1.2266623,0.14454915
-0.2,0.0,1.4999999999999998,-0.5235987755982988,0.5235987755982988,0,0.32516435,0.7194844,1.1018317,0.41753453,0.2379538,0.2245028,0.18526548,-0.5521113,1.2477627,-0.28882077,0.009243307,-0.052756123,1.206324,0.13336098
-0.2,0.0,1.4999999999999998,-0.5235987755982988,0.5235987755982988,0,0.3258483,0.71841156,1.1001415,0.41716778,0.23615822,0.22296391,-0.70672375,-0.39070112,1.3591896,0.52571434,-0.14069085,-0.088150084,1.3755882,0.027974715
-0.2,0.0,1.4999999999999998,-0.5235987755982988,0.5235987755982988,0,0.32557815,0.7238694,1.1010329,0.41734934,0.23656204,0.22518082,0.15771115,0.5923319,1.1736177,0.08199263,-0.011139545,-0.23073398,1.2569847,-0.5730526
-0.2,0.0,1.4999999999999998,-0.5235987755982988,0.5235987755982988,0,0.32521263,0.72327155,1.1009984,0.4174799,0.23691405,0.22051208,0.0955169,0.014790562,1.3797015,0.05168513,0.0758118,0.041887928,1.1631655,-0.8913282
-0.2,0.0,1.4999999999999998,-0.5235987755982988,0.5235987755982988,0,0.32476032,0.7181149,1.1012295,0.41736162,0.23544091,0.22677295,-0.9070189,0.73366547,1.3257313,0.95599145,0.0012225586,-0.60392153,1.2830667,-0.08667916
-0.2,0.0,1.4999999999999998,-0.5235987755982988,0.5235987755982988,0,0.3263291,0.7212113,1.1014862,0.41696426,0.23668154,0.22190687,0.21710433,0.76479274,1.3100898,0.1697648,-0.016719269,0.2451147,1.310014,0.9354443
-0.2,0.0,1.4999999999999998,-0.5235987755982988,0.5235987755982988,0,0.32587123,0.72413707,1.1019064,0.41680387,0.23220176,0.21988226,0.8227279,1.037068,1.3037987,-0.12909608,0.058258306,-0.19435321,1.1957492,-0.6051732
-0.2,0.0,1.4999999999999998,-0.5235987755982988,0.5235987755982988,0,0.32712367,0.715065,1.1004744,0.4170222,0.23455352,0.2194168,-0.0758254,-0.10946445,1.3450949,-0.060934257,-0.09982757,0.4061041,1.2916069,0.10002988
-0.2,0.0,1.4999999999999998,-0.5235987755982988,0.5235987755982988,0,0.3243475,0.72057956,1.1025414,0.41680855,0.23608446,0.22478229,0.51604587,1.4639215,1.2268577,0.015594861,-0.058012735,-0.11993464,1.073422,0.86475664
-0.2,0.0,1.4999999999999998,-0.5235987755982988,0.5235987755982988,0,0.3250479,0.7140758,1.1013601,0.4179408,0.2384596,0.22322527,-0.7501814,0.33351284,1.3781381,0.05661571,-0.08316621,0.18970759,1.3168871,-0.33607444
-0.2,0.0,1.4999999999999998,-0.5235987755982988,0.5235987755982988,0,0.32471332,0.72416973,1.1028408,0.41702443,0.22868422,0.21865053,-0.7029709,-0.7672406,1.2958288,-0.36695924,0.050081488,-0.21701883,1.2096114,0.596708
-0.2,0.0,1.4999999999999998,-0.5235987755982988,0.5235987755982988,0,0.3275612,0.7207798,1.1015623,0.4167263,0.24476524,0.21887414,-0.74362665,0.791799,1.5642973,-0.34643766,-0.024610482,0.2766788,1.075233,-0.5759285
-0.2,0.0,1.4999999999999998,-0.5235987755982988,0.5235987755982988,0,0.3254346,0.72024006,1.1015676,0.4158732,0.2269007,0.2243568,-0.02757056,-0.20467386,1.1798598,-0.26963332,-0.026678216,-0.031005504,1.3924359,-1.2138107
-0.2,0.0,1.4999999999999998,-0.5235987755982988,0.5235987755982988,0,0.32509428,0.7202648,1.0986335,0.41768622,0.22152783,0.22507626,-1.3785626,1.0850801,1.4019012,0.24445094,-0.014573099,0.475785,1.2093688,-0.93343973
-0.2,0.0,1.4999999999999998,-0.5235987755982988,0.5235987755982988,0,0.32441378,0.712908,1.1012176,0.41775683,0.24037705,0.2239077,-0.06441799,-0.5860267,1.4057164,-0.0075643277,-0.059648283,0.030203938,1.3025731,0.16411926
-0.2,0.0,1.4999999999999998,-0.5235987755982988,0.5235987755982988,0,0.32634148,0.7231744,1.1012012,0.41651204,0.23395213,0.22405097,0.21935418,0.26162103,1.2972013,-0.12439749,-0.09968682,0.2694756,1.2154335,-1.0383677
-0.2,0.0,1.4999999999999998,-0.5235987755982988,0.5235987755982988,0,0.32504997,0.7227401,1.1020724,0.4182297,0.23797642,0.22214597,-1.9858454,0.64987457,1.2535759,-0.02508403,-0.1085872,0.09542269,1.1531435,-0.467788
-0.2,0.0,1.4999999999999998,-0.5235987755982988,0.5235987755982988,0,0.32510853,0.7213487,1.1020522,0.4167275,0.23452696,0.2248385,1.5186864,1.1032424,1.3379884,0.17422591,-0.22584611,-0.16247593,1.2906175,0.44821206
-0.2,0.0,1.4999999999999998,-0.5235987755982988,0.5235987755982988,0,0.32606086,0.71939033,1.1015927,0.41661307,0.22881909,0.22112863,1.2054554,0.6348281,1.3797302,0.37214962,-0.052746356,0.17640533,1.2226775,0.16286388
-0.2,0.0,1.4999999999999998,-0.5235987755982988,0.5235987755982988,0,0.32551572,0.72375447,1.1004602,0.41749835,0.23608236,0.22061007,-0.8460278,1.7936382,1.3124747,0.058509376,-0.07136006,-0.08945168,1.1059667,-0.18907675
-0.2,0.0,1.4999999999999998,-0.5235987755982988,0.5235987755982988,0,0.32560498,0.7196413,1.1017336,0.41636702,0.23610654,0.22236274,-0.51901394,0.23203076,1.5001563,0.5446662,-0.037255637,0.08540286,1.1200643,-0.048256565
-0.2,0.0,1.4999999999999998,-0.5235987755982988,0.5235987755982988,0,0.32555678,0.715115,1.1014717,0.41695353,0.22879477,0.2282707,0.15713349,0.14889492,1.3878139,-0.48383966,-0.05599751,0.059227016,1.1765357,-1.550868
-0.2,0.0,1.4999999999999998,-0.5235987755982988,0.5235987755982988,0,0.32539147,0.7199868,1.1016576,0.41753963,0.23069403,0.22157675,0.054004967,0.5717527,1.4203881,0.5867731,0.06290649,-0.22207803,1.1966164,0.53354055
-0.2,0.0,1.4999999999999998,-0.5235987755982988,0.5235987755982988,0,0.32508937,0.72532576,1.1030115,0.41793028,0.22999938,0.22336902,-1.5106539,1.0891294,1.3006876,0.2065038,-0.23882954,-0.5268104,1.2109065,-1.1033318
-0.2,0.0,1.4999999999999998,-0.5235987755982988,0.5235987755982988,0,0.3244435,0.7194078,1.1007929,0.4172007,0.23472866,0.22497249,1.6136291,1.0817664,1.5175078,-0.124760866,-0.08428084,-0.09288008,1.2314873,-1.4684774
-0.2,0.0,1.4999999999999998,-0.5235987755982988,0.5235987755982988,0,0.32635567,0.7220306,1.1017119,0.4179703,0.22974297,0.22653012,0.47171167,0.37080547,1.3893524,0.17411956,-0.14974897,0.17047767,1.2112448,-0.5911208
-0.2,0.0,1.4999999999999998,-0.5235987755982988,0.5235987755982988,0,0.3252462,0.71875507,1.1020967,0.4173309,0.23754998,0.22175519,-1.1847001,-0.28676978,1.2212486,-0.27079156,-0.1246974,0.069913186,1.1509769,-0.12994702
-0.2,0.0,1.4999999999999998,-0.5235987755982988,0.5235987755982988,0,0.32551742,0.721998,1.1017612,0.41752747,0.2231552,0.22274679,-0.42187238,0.5714893,1.2331,0.064139135,-0.07233653,-0.12358636,1.193471,0.3062697
-0.2,0.0,1.4999999999999998,-0.5235987755982988,0.5235987755982988,0,0.32635778,0.71993715,1.1009481,0.41698256,0.23282473,0.22395986,-0.67626184,0.78135157,1.2249194,-0.17588931,-0.13229138,-0.26797593,1.1904294,0.49925783
-0.2,0.0,1.4999999999999998,-0.5235987755982988,0.5235987755982988,0,0.32572082,0.7235773,1.1013763,0.41729283,0.2246045,0.22519152,0.21664688,0.13759845,1.3721758,0.2818027,0.03421162,-0.27203137,1.1732713,-0.43896878
-0.2,0.0,1.4999999999999998,-0.5235987755982988,0.5235987755982988,0,0.32487756,0.7173926,1.1010472,0.41818032,0.23482734,0.22420226,1.4554726,0.19887021,1.2205948,0.61055,-0.07272134,-0.24107777,1.0783182,0.7173455
-0.2,0.0,1.4999999999999998,-0.5235987755982988,0.5235987755982988,0,0.32525122,0.72346234,1.1021208,0.41802025,0.23922567,0.22059388,-0.46173894,-0.2836642,1.4184223,0.29776794,-0.029977627,-0.005197294,1.341195,-0.13187467
-0.2,0.0,1.4999999999999998,-0.5235987755982988,0.5235987755982988,0,0.3250412,0.7206698,1.1006564,0.41866016,0.23046407,0.2188057,0.3655856,-0.46123898,1.2251889,0.049479675,-0.027979674,-0.15462239,1.2197801,0.729645
-0.2,0.0,1.4999999999999998,-0.5235987755982988,0.5235987755982988,0,0.32584476,0.7210164,1.1014405,0.41704232,0.23536403,0.2242048,-0.07268622,-0.13793369,1.3479064,0.19862577,-0.08465292,-0.24323286,1.405255,-0.07828103
-0.2,0.0,1.4999999999999998,-0.5235987755982988,0.5235987755982988,0,0.32524255,0.72629565,1.1030462,0.41715455,0.22560099,0.21993078,0.18562731,0.845155,1.340906,0.6244655,-0.11163083,-0.13768253,1.1385409,0.043224156
-0.2,0.0,1.4999999999999998,-0.5235987755982988,0.5235987755982988,0,0.32473946,0.7179291,1.1019996,0.41716495,0.23836856,0.22522263,0.292392,0.26779598,1.1906673,-0.2517686,-0.13141102,0.43894643,1.2520709,-1.6480954
-0.2,0.0,1.4999999999999998,-0.5235987755982988,0.5235987755982988,0,0.32587367,0.7145262,1.1002218,0.41775095,0.22816205,0.22582686,-0.12095997,0.7603379,1.1684916,0.18282491,-0.11029314,-0.24235885,1.0889001,-0.4464919
-0.2,0.0,1.4999999999999998,-0.5235987755982988,0.5235987755982988,0,0.32532996,0.72187436,1.1000602,0.41760498,0.231283,0.22526903,-0.7428969,0.5585732,1.2684343,0.42337003,-0.12271669,-0.53596854,1.2422489,-1.749789
-0.2,0.0,1.4999999999999998,-0.5235987755982988,0.5235987755982988,0,0.3258059,0.72152257,1.1002522,0.41702002,0.23437592,0.22224054,-1.4284804,-0.0953637,1.362571,0.32050937,-0.06363634,0.20775951,1.1784226,-0.4661036
-0.2,0.0,1.4999999999999998,-0.5235987755982988,0.5235987755982988,0,0.32639343,0.71724176,1.1021273,0.41603652,0.23220304,0.22086126,0.26870245,1.5751921,1.3010149,0.17238218,-0.09296365,-0.046851713,1.1589655,0.03099173
-0.2,0.0,1.4999999999999998,-0.5235987755982988,0.5235987755982988,0,0.32483062,0.720123,1.102103,0.41773462,0.22766452,0.21991628,0.041828267,1.0214214,1.2165036,-0.18779482,0.01036282,-0.10540975,1.2958567,0.37385732
-0.2,0.0,1.4999999999999998,-0.5235987755982988,0.5235987755982988,0,0.32558054,0.7208662,1.101428,0.4173973,0.24083401,0.22409911,-0.18702826,0.3539212,1.2475393,-0.3663458,0.0044884975,0.26521936,1.1765511,-0.023539905
-0.2,0.0,1.4999999999999998,-0.5235987755982988,0.5235987755982988,0,0.32568842,0.722188,1.1012301,0.418188,0.2371456,0.22218765,1.109746,-0.08070819,1.3948237,0.2672938,-0.03498193,0.0458604,1.185475,0.023943389
-0.2,0.0,1.4999999999999998,-0.5235987755982988,0.5235987755982988,0,0.32565597,0.7240177,1.1020796,0.41760492,0.23227319,0.21891735,0.743778,0.8199844,1.2740772,0.17703053,-0.05147238,0.24877921,1.1848071,-0.19160789
-0.2,0.0,1.4999999999999998,-0.5235987755982988,0.5235987755982988,0,0.32647908,0.7208934,1.1021243,0.4179812,0.23387888,0.21903239,0.32756722,0.42851397,1.3181825,-0.27050352,-0.10567161,0.18480965,1.236918,-0.31864396
-0.2,0.0,1.4999999999999998,-0.5235987755982988,0.5235987755982988,0,0.32481223,0.7180782,1.101185,0.41691065,0.23445474,0.22591877,0.10699222,-0.17942859,1.3577913,0.047578067,-0.19512628,0.21251924,1.1281941,-0.61323524
-0.2,0.0,1.4999999999999998,-0.5235987755982988,0.5235987755982988,0,0.32553488,0.7192605,1.1026573,0.41746047,0.23564146,0.22363205,0.03332942,0.4460501,1.3152236,0.19617665,-0.017527161,-0.3454547,1.160978,-0.0017433274
-0.2,0.0,1.4999999999999998,-0.5235987755982988,0.5235987755982988,0,0.32561317,0.7151273,1.1007535,0.41672325,0.2367279,0.22052237,-0.5537307,0.47636083,1.1454202,0.115570374,-0.04810068,-0.062064353,1.1507348,0.16135687
-0.2,0.0,1.4999999999999998,-0.5235987755982988,0.5235987755982988,0,0.3248647,0.71981114,1.0999429,0.4167833,0.24409653,0.22610618,-0.19371493,-0.034281194,1.3400712,-0.03881531,-0.03586153,-0.40772352,1.324978,-0.77292264
-0.2,0.0,1.4999999999999998,-0.5235987755982988,0.5235987755982988,0,0.32559964,0.72190493,1.1009547,0.4178945,0.23285843,0.22580586,0.58996236,0.020558463,1.2891039,0.744152,-0.0130207725,-0.05716173,1.1735913,-0.86266494
-0.2,0.0,1.4999999999999998,-0.5235987755982988,0.5235987755982988,0,0.32601655,0.72385275,1.1009244,0.4174718,0.23554148,0.22310866,0.27488852,-0.65085256,1.2649732,0.031852793,-0.10429594,-0.1132713,1.2962569,-0.87715805
-0.2,0.0,1.4999999999999998,-0.5235987755982988,0.5235987755982988,0,0.3258451,0.7167595,1.1010456,0.4174601,0.23500462,0.22479331,-2.224316,0.15987296,1.530057,-0.4734681,-0.0793505,-0.15227291,1.1457886,-1.6803823
-0.2,0.0,1.4999999999999998,-0.5235987755982988,0.5235987755982988,0,0.32612157,0.7146341,1.1012874,0.41690856,0.23451674,0.2182477,0.15878864,0.3452886,1.1804603,0.22552519,0.033726033,0.0315779,1.1837955,-0.34827238
-0.2,0.0,1.4999999999999998,-0.5235987755982988,0.5235987755982988,0,0.32584873,0.7161448,1.1024088,0.41709778,0.2281754,0.22091198,1.111631,0.5273287,1.2665163,0.2754326,-0.16498405,-0.103285015,1.20227,-1.8007094
-0.2,0.0,1.4999999999999998,-0.5235987755982988,0.5235987755982988,0,0.32555583,0.7221625,1.1009487,0.41914746,0.23745903,0.22282529,0.15332133,1.0099916,1.1826162,0.08494123,-0.019556103,-0.17645307,1.1279395,-1.3720076
-0.2,0.0,1.4999999999999998,-0.5235987755982988,0.5235987755982988,0,0.326762,0.7208099,1.1001817,0.41668475,0.24079649,0.22068135,0.35301137,-0.30412623,1.2735294,0.33768827,-0.16334902,-0.05415412,1.1317763,-0.5371182
-0.2,0.0,1.4999999999999998,-0.5235987755982988,0.5235987755982988,0,0.32453254,0.7163168,1.1020795,0.41704515,0.23511839,0.22429894,-1.707736,0.44699252,1.4527657,0.20303735,-0.1287299,-0.26736474,1.1961071,-0.35459125
-0.2,0.0,1.4999999999999998,-0.5235987755982988,0.5235987755982988,0,0.32565853,0.7211837,1.1023756,0.4177751,0.23613352,0.22843868,0.3277843,0.19743477,1.2754103,0.38665146,-0.089212954,-0.25913933,1.1213903,-0.4544147
-0.2,0.0,1.4999999999999998,-0.5235987755982988,0.5235987755982988,0,0.32582274,0.710867,1.101734,0.41819182,0.23586182,0.22195625,0.0020640863,0.571536,1.2032987,0.2686207,-0.037437957,-0.12341118,1.1675674,-0.26606655
-0.2,0.0,1.4999999999999998,-0.5235987755982988,0.5235987755982988,0,0.32500774,0.7201392,1.1020699,0.41772693,0.24456437,0.22222273,0.5174278,-0.8197324,1.2634488,-0.18381764,-0.13216716,0.0027259628,1.2476032,-0.9178697
-0.2,0.0,1.4999999999999998,-0.5235987755982988,0.5235987755982988,0,0.3256387,0.7178806,1.100916,0.4168478,0.23830372,0.22340159,-0.73536974,1.0139788,1.3788059,-0.32413867,-0.14128022,-0.2968974,1.1241281,-0.9135407
-0.2,0.0,1.4999999999999998,-0.5235987755982988,0.5235987755982988,0,0.32624155,0.7227854,1.1022899,0.41575834,0.2285696,0.2257705,0.88368887,-0.2908293,1.395617,0.17794625,-0.061389856,-0.2258208,1.1536398,-0.36307943
-0.2,0.0,1.4999999999999998,-0.5235987755982988,0.5235987755982988,0,0.32578015,0.72041833,1.100949,0.41689584,0.24076472,0.22419883,-1.454763,0.022890037,1.3557175,0.050028127,0.042830627,-0.04163236,1.2374597,0.7840902
-0.2,0.0,1.4999999999999998,-0.5235987755982988,0.5235987755982988,0,0.32568774,0.7209054,1.1007727,0.41785657,0.24037062,0.22546251,0.53046286,0.42998022,1.5395459,-0.08791796,-0.14641297,-0.18025285,1.157718,-1.2726867
-0.2,0.0,1.4999999999999998,-0.5235987755982988,0.5235987755982988,0,0.32493544,0.7198207,1.1023535,0.417765,0.23347561,0.22323501,-0.32143044,0.23611242,1.2054963,-0.03538101,0.014839531,-0.12657812,1.316529,-0.51566046
-0.2,0.0,1.4999999999999998,-0.5235987755982988,0.5235987755982988,0,0.32582432,0.7243979,1.1008576,0.4176402,0.23238482,0.22317904,1.2106589,1.262706,1.4801747,-0.22524534,-0.01958699,-0.024178717,1.2355961,-0.09233173
-0.2,0.0,1.4999999999999998,-0.5235987755982988,0.5235987755982988,0,0.32371366,0.7135279,1.1012628,0.41653064,0.23377837,0.22344197,-0.43826315,-0.20232362,1.4637104,-0.06495932,-0.011967719,-0.20228137,1.0511855,-0.43465853
-0.2,0.0,1.4999999999999998,-0.5235987755982988,0.5235987755982988,0,0.32583293,0.72063553,1.1018372,0.41801664,0.22670592,0.22152679,0.8079515,0.6047018,1.2048624,0.09173828,-0.114746526,0.04969186,1.1193026,-0.8291404
-0.2,0.0,1.4999999999999998,-0.5235987755982988,0.5235987755982988,0,0.32599542,0.7201526,1.1007446,0.41790572,0.2312948,0.22393642,1.3783829,0.5338726,1.3535004,-0.11257832,-0.021250987,0.021245437,1.2282662,-0.68339086
-0.2,0.0,1.4999999999999998,-0.5235987755982988,0.5235987755982988,0,0.32559207,0.72344065,1.1012502,0.41776624,0.22658923,0.22465503,0.55241066,0.7427003,1.3677738,0.15104996,-0.028649261,-0.33127284,1.179842,-0.6753557
-0.2,0.0,1.4999999999999998,-0.5235987755982988,0.5235987755982988,0,0.32545012,0.7202108,1.1019214,0.4166942,0.23345612,0.21925205,0.28565466,-0.18181653,1.2450854,0.08187135,-0.14144592,0.17148636,1.1314032,-0.73369306
-0.2,0.0,1.4999999999999998,-0.5235987755982988,0.5235987755982988,0,0.325487,0.7151474,1.100708,0.4185423,0.23915662,0.22289808,-0.09247059,-0.59256727,1.4619362,0.56559426,-0.034335654,-0.07943097,1.1564666,-0.46564496
-0.2,0.0,1.4999999999999998,-0.5235987755982988,0.5235987755982988,0,0.32445094,0.7146114,1.1017994,0.41665158,0.23373143,0.22408737,-0.7282179,-0.026097788,1.355888,-0.0011755833,-0.068229966,-0.14041598,1.1235712,-0.6504383
-0.2,0.0,1.4999999999999998,-0.5235987755982988,0.5235987755982988,0,0.3254091,0.7187922,1.1009225,0.4180937,0.23564069,0.22195666,-0.40730125,0.42388895,1.3388759,0.5958125,-0.016570034,0.09398763,1.1403884,0.07261737
-0.2,0.0,1.4999999999999998,-0.5235987755982988,0.5235987755982988,0,0.32628375,0.71323615,1.1009176,0.41574222,0.23062254,0.22531334,0.38720202,-0.25834805,1.381652,-0.016580872,-0.083865285,-0.112030074,1.2374957,0.69033307
-0.2,0.0,1.4999999999999998,-0.5235987755982988,0.5235987755982988,0,0.3264884,0.71504337,1.1014687,0.41724843,0.2371498,0.21878117,0.47851077,0.32246906,1.3752646,0.030641837,-0.12744698,0.11200719,1.2938645,-1.5271428
-0.2,0.0,1.4999999999999998,-0.5235987755982988,0.5235987755982988,0,0.32601935,0.71979964,1.1014427,0.41643244,0.23551121,0.22456257,0.04294788,0.31187657,1.3448442,-0.20824334,-0.10165838,-0.09688432,1.0866803,-0.6474872
-0.2,0.0,1.4999999999999998,-0.5235987755982988,0.5235987755982988,0,0.32509592,0.72154987,1.1010581,0.41615787,0.24294974,0.2281223,0.32050002,0.13651086,1.2479278,-0.2868918,-0.08439099,0.27843386,1.2427548,-0.45378876
-0.2,0.0,1.4999999999999998,-0.5235987755982988,0.5235987755982988,0,0.32589784,0.7141065,1.1019082,0.41775268,0.23351662,0.22779492,-0.61076087,0.40522498,1.4071401,-0.2864637,-0.02598143,-0.44872037,1.2125303,-0.9763056
-0.2,0.0,1.4999999999999998,-0.5235987755982988,0.5235987755982988,0,0.32448542,0.71871936,1.102382,0.41734406,0.24274339,0.22509757,1.6062477,0.6683984,1.4343456,0.44651946,-0.00411301,0.12509637,1.1284773,-0.61565626
-0.2,0.0,1.4999999999999998,-0.5235987755982988,0.5235987755982988,0,0.32599208,0.72254884,1.1014898,0.41680232,0.2241545,0.22284202,-1.4466828,-0.61956936,1.3279366,0.1892359,0.05178567,-0.08886985,1.2126954,0.8594127
-0.2,0.0,1.4999999999999998,-0.5235987755982988,0.5235987755982988,0,0.3265518,0.71852815,1.100853,0.41645706,0.2331625,0.22370805,-1.6694798,-1.2726641,1.3419142,0.005707066,0.016264888,0.38908195,1.2565241,0.22743058
-0.2,0.0,1.4999999999999998,-0.5235987755982988,0.5235987755982988,0,0.3261452,0.7168168,1.1011,0.41744617,0.23840891,0.22299008,0.6656477,1.5411962,1.5254978,0.09405075,0.07555386,-0.14269108,1.2543223,-0.6102187
-0.2,0.0,1.4999999999999998,-0.5235987755982988,0.5235987755982988,0,0.32633406,0.72160727,1.1024971,0.41818467,0.23674914,0.2195134,-0.0048838393,0.46148786,1.3448615,0.54610705,-0.040388502,0.14926797,1.1386558,-1.004449
-0.2,0.0,1.4999999999999998,-0.5235987755982988,0.5235987755982988,0,0.32461318,0.7176714,1.1013689,0.4177422,0.22813478,0.22789815,-0.33369341,0.78351015,1.4388688,0.09848384,-0.06962749,-0.013524751,1.3155487,0.5212061
-0.2,0.0,1.4999999999999998,-0.5235987755982988,0.5235987755982988,0,0.32534856,0.71520543,1.1024653,0.41760573,0.23418352,0.22801638,1.2118754,-0.07384718,1.218727,-0.06346415,0.04130964,0.25486097,1.1304102,0.42406374
-0.2,0.0,1.4999999999999998,-0.5235987755982988,0.5235987755982988,0,0.32476813,0.7199611,1.1024545,0.41765982,0.23099327,0.22557509,0.71086276,-0.2209986,1.4496313,0.36620992,-0.048899613,0.0028929065,1.3092854,-0.7537926
-0.2,0.0,1.4999999999999998,-0.5235987755982988,0.5235987755982988,0,0.3261552,0.7146808,1.1010429,0.41602746,0.2412093,0.224977,1.983932,1.0011103,1.3192643,0.057422537,-0.11484961,0.12785646,1.214932,-1.1353352
-0.2,0.0,1.4999999999999998,-0.5235987755982988,0.5235987755982988,0,0.32644928,0.7228,1.1015882,0.41750666,0.2270884,0.22196287,-0.945752,0.31027788,1.3455477,0.59148264,-0.1200875,-0.28487512,1.1496284,-0.110678986
-0.2,0.0,1.4999999999999998,-0.5235987755982988,0.5235987755982988,0,0.32606024,0.71636087,1.1048201,0.4176185,0.23210937,0.22283304,-0.18390651,-0.083488196,1.2587553,0.82396173,-0.059163503,0.38576108,1.3236446,-0.6992993
-0.2,0.0,1.4999999999999998,-0.5235987755982988,0.5235987755982988,0,0.32665282,0.71844137,1.1008667,0.41785198,0.2226193,0.2251228,0.620771,0.44924343,1.4649578,0.0919272,-0.02785365,0.009106614,1.087028,-0.04135133
-0.2,0.0,1.4999999999999998,-0.5235987755982988,0.5235987755982988,0,0.32564422,0.7177069,1.1021378,0.41804126,0.23494567,0.22044325,0.41296116,0.303259,1.329364,-0.27585295,-0.044821348,-0.25983578,1.1415477,0.3467148
-0.2,0.0,1.4999999999999998,-0.5235987755982988,0.5235987755982988,0,0.3260471,0.72113115,1.10251,0.4167112,0.22765549,0.22618394,-0.97289145,0.886761,1.37026,0.14028808,-0.042195894,-0.09567225,1.3316952,-2.063999
-0.2,0.0,1.4999999999999998,-0.5235987755982988,0.5235987755982988,0,0.32659835,0.7186668,1.1010956,0.4173952,0.2274599,0.22370352,-1.3560529,-1.1521369,1.3415363,0.27925697,-0.06350249,0.09210555,1.0980725,-0.31660017
-0.2,0.0,1.4999999999999998,-0.5235987755982988,0.5235987755982988,0,0.3256635,0.7230665,1.102732,0.41679192,0.23369843,0.2279679,-1.1242268,0.88443524,1.3240902,0.0904216,-0.11735837,0.3219415,1.3060209,-0.42369333
-0.2,0.0,1.4999999999999998,-0.5235987755982988,0.5235987755982988,0,0.32588384,0.7158457,1.1015507,0.41705534,0.23153669,0.22274128,-1.080275,1.399101,1.2304689,0.19251202,-0.109928,-0.38595882,1.2404307,-1.0209537
-0.2,0.0,1.4999999999999998,-0.5235987755982988,0.5235987755982988,0,0.3251717,0.72196084,1.1007758,0.41735104,0.24093679,0.22363332,0.39020118,-0.0011146712,1.366315,0.7044048,0.011130954,-0.19105065,1.381918,-0.2142885
-0.2,0.0,1.4999999999999998,-0.5235987755982988,0.5235987755982988,0,0.32647368,0.7165885,1.1023765,0.41870126,0.23757035,0.22462077,1.3018099,0.064075544,1.46206,0.03797024,-0.095746316,-0.04600555,1.1404063,-0.42842233
-0.2,0.0,1.4999999999999998,-0.5235987755982988,0.5235987755982988,0,0.32592553,0.72309995,1.1013227,0.4173867,0.2361233,0.22196786,-0.7971817,0.344614,1.2535464,-0.026649475,-0.09278797,-0.111569546,1.3123114,-1.1375635
-0.2,0.0,1.4999999999999998,-0.5235987755982988,0.5235987755982988,0,0.32563233,0.71704507,1.1030821,0.41812408,0.2359229,0.22057289,0.09873738,0.17921829,1.390121,0.01695595,-0.14681788,-0.0840579,1.070546,1.4195361
-0.2,0.0,1.4999999999999998,-0.5235987755982988,0.5235987755982988,0,0.32503295,0.7158263,1.100225,0.41727856,0.22978222,0.2239144,0.0414733,0.7111891,1.4289472,0.12937592,-0.056093913,0.022103114,1.249607,-0.4467579
-0.2,0.0,1.4999999999999998,-0.5235987755982988,0.5235987755982988,0,0.3254644,0.71091735,1.1020789,0.41746455,0.24245921,0.22047497,0.017217487,0.53786755,1.3409535,-0.13405468,-0.015996864,-0.03267327,1.2117454,-0.34640783
-0.2,0.0,1.4999999999999998,-0.5235987755982988,0.5235987755982988,0,0.3254856,0.71854186,1.1017374,0.41735154,0.2295136,0.22416154,-0.9911337,-0.114398964,1.3025613,0.46288592,0.018908722,-0.3652799,1.376256,-1.8554378
-0.2,0.0,1.4999999999999998,-0.5235987755982988,0.5235987755982988,0,0.3257751,0.71483624,1.102129,0.418807,0.23699477,0.22663149,-1.000248,-0.20599863,1.4034076,-0.5154409,-0.12818013,-0.54630625,1.2425753,0.30093
-0.2,0.0,1.4999999999999998,-0.5235987755982988,0.5235987755982988,0,0.32554027,0.7267315,1.1028179,0.41790822,0.23664974,0.22183935,0.47445714,-0.11914194,1.2604584,-0.14373533,-0.032701306,0.6730105,1.2014706,-1.0030582
-0.2,0.0,1.4999999999999998,-0.5235987755982988,0.5235987755982988,0,0.3253724,0.71220565,1.1017803,0.4174108,0.22470288,0.22002816,0.1348575,0.67720604,1.1861734,-0.13572307,-0.12837507,-0.08974343,1.2458466,-1.923896
-0.2,0.0,1.4999999999999998,-0.5235987755982988,0.5235987755982988,0,0.3257474,0.7212713,1.102999,0.41688743,0.23823532,0.22641137,-0.89303243,0.23310627,1.5751398,-0.1874374,-0.05117986,-0.28147084,1.1049944,-0.054379076
-0.2,0.0,1.4999999999999998,-0.5235987755982988,0.5235987755982988,0,0.32670808,0.71526265,1.1031249,0.41827494,0.24047275,0.2268461,-1.0201955,-0.70180005,1.37418,-0.3362639,-0.13987365,-0.15267605,1.240397,-0.042387012
-0.2,0.0,1.4999999999999998,-0.5235987755982988,0.5235987755982988,0,0.32573172,0.71938324,1.1016197,0.4179417,0.24223931,0.22556795,0.6269987,1.0381845,1.1843215,0.4080368,-0.11518577,-0.14688978,1.2692417,-0.59842664
-0.2,0.0,1.4999999999999998,-0.5235987755982988,0.5235987755982988,0,0.32543206,0.7220492,1.1016759,0.41775024,0.22336939,0.21963532,1.4539508,0.79448354,1.309819,-0.04077718,-0.006819666,0.01144242,1.1803893,-0.014122986
-0.2,0.0,1.4999999999999998,-0.5235987755982988,0.5235987755982988,0,0.32613945,0.71624774,1.1012278,0.41795114,0.2303437,0.2202114,0.45929703,-0.13489985,1.194638,-0.43286836,-0.15394239,0.091670476,1.2361574,-1.291568
-0.2,0.0,1.4999999999999998,-0.5235987755982988,0.5235987755982988,0,0.32616362,0.71659833,1.1030415,0.4180695,0.23847723,0.2262942,0.38886276,1.2585485,1.242685,0.65055835,0.035780504,-0.4741402,1.3410009,-0.630208
-0.2,0.0,1.4999999999999998,-0.5235987755982988,0.5235987755982988,0,0.3262587,0.7206287,1.0994037,0.41880456,0.23744467,0.22454402,0.47756514,0.33284396,1.4073164,0.04918968,-0.11214038,-0.01853433,1.0871971,-0.53280526
-0.2,0.0,1.4999999999999998,-0.5235987755982988,0.5235987755982988,0,0.32574126,0.72090423,1.1029104,0.41929448,0.23718356,0.21954909,-0.058211055,0.5827514,1.2722911,-0.22191814,0.12394797,0.39605853,1.0837117,-0.54387456
-0.2,0.0,1.4999999999999998,-0.5235987755982988,0.5235987755982988,0,0.3249025,0.7135588,1.1012502,0.41853708,0.23452134,0.22935206,0.5138764,0.4395451,1.2418741,0.51894593,-0.1898107,-0.03427233,1.2100114,0.2587107
-0.2,0.0,1.4999999999999998,-0.5235987755982988,0.5235987755982988,0,0.3261332,0.7181434,1.1015564,0.41836497,0.23614271,0.22342232,0.8335467,1.0313592,1.2948145,-0.008767016,0.043741293,-0.099534556,1.0428262,-0.98232913
-0.2,0.0,1.4999999999999998,-0.5235987755982988,0.5235987755982988,0,0.3243518,0.7236929,1.099767,0.41716895,0.230627,0.22175752,-1.5065763,0.30012614,1.220635,-0.22542723,-0.16372144,0.14566946,1.1775689,-0.7859881
-0.2,0.0,1.4999999999999998,-0.5235987755982988,0.5235987755982988,0,0.32641268,0.72519547,1.1020949,0.41754714,0.23101313,0.22901088,0.10260754,0.2378391,1.3288186,0.8097396,-0.05807585,0.17844886,1.2353182,0.6189133
-0.2,0.0,1.4999999999999998,-0.5235987755982988,0.5235987755982988,0,0.32513443,0.71957797,1.1012865,0.417006,0.23154816,0.22119668,-0.6239775,0.9964991,1.4311368,0.16203626,0.055720262,0.07764454,1.2168931,-0.7984109
-0.2,0.0,1.4999999999999998,-0.5235987755982988,0.5235987755982988,0,0.3249504,0.71998256,1.1010274,0.41684473,0.23872435,0.22399606,0.9924686,0.52211607,1.2581216,0.36116758,-0.0965182,-0.23865387,1.1549349,-0.6563933
-0.2,0.0,1.4999999999999998,-0.5235987755982988,0.5235987755982988,0,0.32538745,0.721679,1.1008245,0.4164099,0.2348337,0.2200839,1.0400736,0.052169796,1.2498684,-0.5026847,-0.048147984,0.0081433775,1.2886086,-0.92501456
-0.2,0.0,1.4999999999999998,-0.5235987755982988,0.5235987755982988,0,0.32585457,0.7201667,1.0995523,0.41633323,0.23301649,0.22440183,1.637698,0.85922265,1.3172517,0.2087713,0.099863425,0.16899088,1.2819688,1.0203594
-0.2,0.0,1.4999999999999998,-0.5235987755982988,0.5235987755982988,0,0.32490376,0.72198194,1.1023093,0.41689774,0.23854439,0.22496462,0.31153065,0.33750936,1.3290265,0.3350236,-0.0702002,-0.2949802,1.0864034,-0.32150054
-0.2,0.0,1.4999999999999998,-0.5235987755982988,0.5235987755982988,0,0.32477093,0.7210564,1.1011498,0.41705135,0.23142105,0.21954982,-0.6989865,0.7207447,1.2898486,-0.088957004,-0.032995068,-0.23540577,1.4384849,-1.3332701
-0.2,0.0,1.4999999999999998,-0.5235987755982988,0.5235987755982988,0,0.32570535,0.7205838,1.1018113,0.41666386,0.23882881,0.21842834,1.3436329,0.5734386,1.3213705,0.49522024,-0.06061837,-0.13419533,1.2584611,-1.0080193
-0.2,0.0,1.4999999999999998,-0.5235987755982988,0.5235987755982988,0,0.32501546,0.719254,1.1005529,0.41817254,0.24214666,0.220934,-0.06611107,0.304521,1.3352242,0.11265065,-0.109102935,0.28410706,1.1878425,0.19532599
-0.2,0.0,1.4999999999999998,-0.5235987755982988,0.5235987755982988,0,0.3251565,0.7227588,1.1001366,0.4181014,0.24275649,0.22098914,0.22429588,-0.306721,1.3370341,0.061189786,0.03339189,0.199731,1.1994483,0.48707005
-0.2,0.0,1.4999999999999998,-0.5235987755982988,0.5235987755982988,0,0.3238008,0.71640354,1.1009192,0.4176989,0.23523343,0.22458565,0.74806607,0.067049086,1.2802914,-0.35785496,-0.14232361,-0.23068681,1.0690731,-1.4922943
-0.2,0.0,1.4999999999999998,-0.5235987755982988,0.5235987755982988,0,0.32511625,0.71879584,1.1006063,0.41625053,0.22867641,0.22046195,-0.031742994,1.2441075,1.220472,-0.23193,-0.00390642,0.34398413,1.2568008,-1.8261453
-0.2,0.0,1.4999999999999998,-0.5235987755982988,0.5235987755982988,0,0.32580322,0.71856743,1.1016625,0.4170385,0.23125823,0.22318856,-1.0366639,0.8884276,1.1989505,0.026631594,-0.086641386,0.016538352,0.9750508,-0.6742844
-0.2,0.0,1.4999999999999998,-0.5235987755982988,0.5235987755982988,0,0.3251561,0.7242081,1.1003131,0.41729298,0.24015185,0.22321089,0.6133435,0.03636411,1.2454097,0.24845082,-0.17563958,-0.045722123,1.1106715,-0.23493935
-0.2,0.0,1.4999999999999998,-0.5235987755982988,0.5235987755982988,0,0.32635978,0.72453016,1.1012414,0.41763186,0.23806767,0.225202,-1.3731018,-0.46187702,1.0879282,-0.30320266,-0.10324293,0.042833764,1.1817303,0.2646408
-0.2,0.0,1.4999999999999998,-0.5235987755982988,0.5235987755982988,0,0.32556474,0.72403777,1.1001796,0.4172259,0.24003008,0.220491,0.12651762,-0.95893544,1.3597654,0.20092092,-0.05946893,0.2244055,1.1576419,0.5293933
-0.2,0.0,1.4999999999999998,-0.5235987755982988,0.5235987755982988,0,0.32473096,0.7220818,1.1008116,0.4182669,0.23381956,0.22100462,0.16039775,0.38823023,1.4794173,0.3606829,-0.044866573,-0.26223537,1.1483358,0.043907434
-0.2,0.0,1.4999999999999998,-0.5235987755982988,0.5235987755982988,0,0.32485926,0.72495216,1.1011903,0.41759962,0.23551147,0.2209045,-0.30965284,0.9880554,1.0792222,-0.22303039,-0.08173719,0.04695586,1.1979604,-0.22942592
-0.2,0.0,1.4999999999999998,-0.5235987755982988,0.5235987755982988,0,0.32447782,0.7186664,1.1008652,0.41679463,0.23443173,0.22225606,0.980976,-1.0366263,1.1074148,0.7637805,0.07905888,0.0659569,1.2596397,-0.25883368
-0.2,0.0,1.4999999999999998,-0.5235987755982988,0.5235987755982988,0,0.32667008,0.7209305,1.1008576,0.41717458,0.2374013,0.21972436,-0.9216638,-0.22584306,1.2896321,-0.22850862,-0.118207194,0.037165508,1.2996513,0.4989714
-0.2,0.0,1.4999999999999998,-0.5235987755982988,0.5235987755982988,0,0.3256654,0.7253817,1.0993984,0.41740775,0.23024091,0.22172835,0.80213064,0.18051675,1.3381209,-0.034784783,0.02937937,-0.17887609,1.3176681,0.21347654
-0.2,0.0,1.4999999999999998,-0.5235987755982988,0.5235987755982988,0,0.32507795,0.7233301,1.101541,0.4181667,0.2424604,0.22221798,-0.07048777,0.5743303,1.2295382,-0.23961195,-0.04019184,-0.15942933,1.2075357,-1.2689464
-0.2,0.0,1.4999999999999998,-0.5235987755982988,0.5235987755982988,0,0.32521704,0.72204477,1.1007131,0.41764638,0.23962681,0.22221634,0.47042412,1.2639295,1.2997831,-0.020934282,-0.15247282,0.32086337,1.1943648,-0.024472779
-0.2,0.0,1.4999999999999998,-0.5235987755982988,0.5235987755982988,0,0.32499933,0.7210195,1.1009333,0.41780552,0.2356893,0.22838236,-0.34880298,1.2648253,1.3899244,0.519426,-0.06370933,-0.42424998,1.190446,-0.6164747
-0.2,0.0,1.4999999999999998,-0.5235987755982988,0.5235987755982988,0,0.32551602,0.716992,1.1015946,0.41748995,0.23766358,0.22501385,0.7010457,0.62424845,1.3993758,-0.23548906,-0.070738204,-0.16663307,1.1528145,-0.29646325
-0.2,0.0,1.4999999999999998,-0.5235987755982988,0.5235987755982988,0,0.32421017,0.71989244,1.1029264,0.4179679,0.23607825,0.22227232,1.1659659,-0.14983702,1.2786629,-0.26234934,-0.103375345,-0.21301097,1.1554546,-0.40248725
-0.2,0.0,1.4999999999999998,-0.5235987755982988,0.5235987755982988,0,0.32616886,0.7182426,1.1009396,0.4150122,0.23578987,0.22119677,0.2755119,0.12545545,1.239057,-0.18519999,-0.0232898,0.07839451,1.2291759,-0.74111164
-0.2,0.0,1.4999999999999998,-0.5235987755982988,0.5235987755982988,0,0.32624748,0.7191781,1.101605,0.41647786,0.24154997,0.22114395,0.88527185,-0.40323722,1.1893901,0.5833585,-0.019441541,-0.041061077,1.222366,-0.80686027
-0.2,0.0,1.4999999999999998,-0.5235987755982988,0.5235987755982988,0,0.32563144,0.71620077,1.1001389,0.41817755,0.23090006,0.22141841,-1.3893914,0.47680417,1.4559765,-0.13798733,-0.06665031,0.15530734,1.2955868,0.17823097
-0.2,0.0,1.4999999999999998,-0.5235987755982988,0.5235987755982988,0,0.3256668,0.7225423,1.09953,0.41681993,0.2315164,0.22755402,0.88618696,1.5828848,1.3121371,-0.10099709,-0.103773125,-0.24367139,1.2052714,-0.71822584
-0.2,0.0,1.4999999999999998,-0.5235987755982988,0.5235987755982988,0,0.3249058,0.71829945,1.1029644,0.41735432,0.23295261,0.22096747,-0.113393925,0.36225668,1.2340493,0.19007081,-0.006689389,-0.22729969,1.2758644,0.56734014
-0.2,0.0,1.4999999999999998,-0.5235987755982988,0.5235987755982988,0,0.3255728,0.72223294,1.1002711,0.41792,0.2324709,0.21718302,0.86078227,0.18121637,1.2550524,-0.037687037,-0.10746172,-0.0116405105,1.1664125,0.71484786
-0.2,0.0,1.4999999999999998,-0.5235987755982988,0.5235987755982988,0,0.32482547,0.7192398,1.1015763,0.41631326,0.24447985,0.22482237,-0.2782178,0.45472208,1.3455329,0.07113595,-0.06176243,0.24813503,1.262507,-0.32711932
-0.2,0.0,1.4999999999999998,-0.5235987755982988,0.5235987755982988,0,0.3247965,0.7235817,1.1021556,0.41636762,0.2347203,0.2238049,0.20536202,0.77612036,1.1811885,-0.07449823,-0.0024586201,-0.09218673,1.0726283,0.6146037
-0.2,0.0,1.4999999999999998,-0.5235987755982988,0.5235987755982988,0,0.3257639,0.7232313,1.1002133,0.41796336,0.23558497,0.22311535,-0.73355585,0.20072807,1.242035,0.41552368,-0.014718159,-0.0148516195,1.109572,0.0027388362
-0.2,0.0,1.4999999999999998,-0.5235987755982988,0.5235987755982988,0,0.32562014,0.71511894,1.101705,0.41689703,0.23299365,0.22048648,0.5278192,0.8604996,1.354418,-0.02205867,-0.037642278,0.13436109,1.2286711,-0.20375235
-0.2,0.0,1.4999999999999998,-0.5235987755982988,0.5235987755982988,0,0.32635382,0.71767104,1.1011906,0.41664752,0.23776498,0.22081989,0.34896314,-0.049426828,1.2696348,0.15581864,-0.0071235173,-0.027088143,1.2910889,-0.7705057
-0.2,0.0,1.4999999999999998,-0.5235987755982988,0.5235987755982988,0,0.32477364,0.71447587,1.1011546,0.418421,0.23288833,0.22076672,1.534306,-0.7283884,1.3529724,-0.070635974,-0.06094013,-0.25466347,1.1963501,-0.18970698
-0.2,0.0,1.4999999999999998,-0.5235987755982988,0.5235987755982988,0,0.3250475,0.7204487,1.1024339,0.41688654,0.2338093,0.22553219,-0.19296333,0.25242814,1.2508775,-0.2223421,0.010453748,0.19615845,1.1561605,-0.5762229
-0.2,0.0,1.4999999999999998,-0.5235987755982988,0.5235987755982988,0,0.32482162,0.72127473,1.1016122,0.4163031,0.23402442,0.22596073,-0.34604555,0.3509292,1.1784902,0.30469146,0.00856158,-0.099224605,1.117836,-1.0982717
-0.2,0.0,1.4999999999999998,-0.5235987755982988,0.5235987755982988,0,0.3252659,0.7144816,1.1013665,0.41751763,0.2314108,0.21964948,1.5911165,-0.6746342,1.2448806,-0.33376756,-0.15450276,-0.21456349,1.2056038,-1.468981
-0.2,0.0,1.4999999999999998,-0.5235987755982988,0.5235987755982988,0,0.32546377,0.7263041,1.1001426,0.41726187,0.23756853,0.22756688,-0.56018263,-0.14857042,1.4046266,0.12106117,-0.0048489557,0.12939122,1.3050264,0.014546832
-0.2,0.0,1.4999999999999998,-0.5235987755982988,0.5235987755982988,0,0.3259562,0.7224025,1.1013788,0.41683817,0.235501,0.22605161,0.14480764,0.99900615,1.303226,-0.44381565,0.09540992,0.17148082,1.2799765,-1.7927346
-0.2,0.0,1.4999999999999998,-0.5235987755982988,0.5235987755982988,0,0.32471493,0.71561265,1.0997185,0.41719916,0.23012605,0.22351639,-0.31550243,0.237192,1.1817498,0.44189978,-0.14181583,0.27453056,1.1957486,0.43872863
-0.2,0.0,1.4999999999999998,-0.5235987755982988,0.5235987755982988,0,0.32546192,0.71561325,1.1011145,0.41853225,0.24065675,0.22464569,-0.9200182,0.15246092,1.3225118,-0.31880435,-0.07032536,-0.36177692,1.2690403,-1.1983279
-0.2,0.0,1.4999999999999998,-0.5235987755982988,0.5235987755982988,0,0.32641736,0.7159328,1.101781,0.41764376,0.23740764,0.22658227,-0.21669781,0.8573409,1.379447,0.43490872,-0.015484836,-0.27922177,1.0590322,-0.11940693
-0.2,0.0,1.4999999999999998,-0.5235987755982988,0.5235987755982988,0,0.32468072,0.72166973,1.1012001,0.41788703,0.23911266,0.22196007,-0.19004816,-0.16622548,1.2209476,-0.52572954,-0.10001836,0.25062206,1.2427856,-0.16519226
-0.2,0.0,1.4999999999999998,-0.5235987755982988,0.5235987755982988,0,0.32618907,0.715789,1.1006222,0.41707468,0.23981474,0.22307381,-0.21107934,-0.2717277,1.247784,-0.46661797,0.008691748,-0.25716794,1.4376881,-0.57817626
-0.2,0.0,1.4999999999999998,-0.5235987755982988,0.5235987755982988,0,0.32510197,0.72181326,1.100518,0.41803518,0.23537122,0.22183385,-0.021279775,1.502796,1.2343631,0.045448378,0.0068947054,-0.13607462,1.1195533,-0.2492703
-0.2,0.0,1.4999999999999998,-0.5235987755982988,0.5235987755982988,0,0.3248857,0.72134346,1.1017557,0.4175246,0.2353635,0.2205713,0.0006581027,-0.08971649,1.2863193,0.07423107,-0.048461203,-0.3078364,1.2228003,-1.7130178
-0.2,0.0,1.4999999999999998,-0.5235987755982988,0.5235987755982988,0,0.32565337,0.71921813,1.1016889,0.4156451,0.23405464,0.22118844,1.0104539,-0.64163846,1.1820453,-0.3794887,-0.04644532,-0.46164834,1.112547,0.22655116
-0.2,0.0,1.4999999999999998,-0.5235987755982988,0.5235987755982988,0,0.32464224,0.71482164,1.1017457,0.41727468,0.2360236,0.22307338,1.3297427,0.054263055,1.3166571,0.019388359,-0.08071771,-0.16502742,1.2253915,-0.72877306
-0.2,0.0,1.4999999999999998,-0.5235987755982988,0.5235987755982988,0,0.3251433,0.72054356,1.101701,0.416494,0.23487124,0.22330457,-0.78738344,1.4333223,1.4354106,-0.26633292,-0.045678027,-0.22412431,1.148578,-0.32983497
-0.2,0.0,1.4999999999999998,-0.5235987755982988,0.5235987755982988,0,0.32559404,0.7172447,1.1022719,0.41581783,0.23509705,0.22423288,1.0018867,0.30475846,1.3600017,-0.08096831,-0.026770474,0.37331775,1.1375431,-0.081503935
-0.2,0.0,1.4999999999999998,-0.5235987755982988,0.5235987755982988,0,0.3248801,0.7225917,1.1010985,0.4178923,0.22558272,0.22164333,-0.526375,0.509166,1.3273222,-0.40949792,0.011131813,-0.21738791,1.2033027,-0.16462192
-0.2,0.0,1.4999999999999998,-0.5235987755982988,0.5235987755982988,0,0.32438102,0.71860665,1.101556,0.41721773,0.22945528,0.2213192,-0.4821429,0.4330155,1.3161312,0.023939546,-0.0023649684,-0.015751204,1.3288207,0.018253354
-0.2,0.0,1.4999999999999998,-0.5235987755982988,0.5235987755982988,0,0.3248654,0.7185631,1.1014011,0.4161428,0.23098528,0.22484836,0.28785107,0.2800489,1.4126397,0.19143917,-0.059487037,-0.033211645,1.313142,-1.0774461
-0.2,0.0,1.4999999999999998,-0.5235987755982988,0.5235987755982988,0,0.32469493,0.7191479,1.1031096,0.41739288,0.22747475,0.21997783,0.1180035,-0.48902804,1.1990155,0.20984195,-0.10951773,0.20676449,1.2828887,-0.36691362
-0.2,0.0,1.4999999999999998,-0.5235987755982988,0.5235987755982988,0,0.3246476,0.71755326,1.1008526,0.41739008,0.2364773,0.22608006,0.38869426,-0.271126,1.3640682,0.059765477,-0.06374984,0.24659486,1.1943237,-1.7714093
-0.2,0.0,1.4999999999999998,-0.5235987755982988,0.5235987755982988,0,0.32583803,0.71680903,1.101717,0.41627446,0.23513529,0.22525023,-0.59435,1.245604,1.2752099,-0.5464102,0.058050066,-0.28685832,1.1577942,-0.61867535
-0.2,0.0,1.4999999999999998,-0.5235987755982988,0.5235987755982988,0,0.32500863,0.71896315,1.101054,0.4189322,0.23214732,0.22299679,1.8577063,0.86272806,1.2983929,-0.53829217,-0.099076435,-0.26331225,1.1600021,-1.3571512
-0.2,0.0,1.4999999999999998,-0.5235987755982988,0.5235987755982988,0,0.32546875,0.7216952,1.1013768,0.41675764,0.2387682,0.22222322,1.2920758,0.030235147,1.2855943,0.5064166,-0.0012613727,-0.2639044,1.0954275,-0.5496461
-0.2,0.0,1.4999999999999998,-0.5235987755982988,0.5235987755982988,0,0.32602447,0.7193168,1.1019522,0.41587162,0.23680972,0.22325085,0.60173786,-0.44494167,1.1720012,-0.027039535,-0.08957458,0.36906162,1.2184956,-0.4117644
-0.2,0.0,1.4999999999999998,-0.5235987755982988,0.5235987755982988,0,0.3249663,0.72338474,1.1014004,0.41777667,0.23461673,0.22388636,-0.33452997,0.20674427,1.2802191,0.36864045,0.011672842,0.0017307124,1.2578778,-0.05907441
-0.2,0.0,1.4999999999999998,-0.5235987755982988,0.5235987755982988,0,0.32589105,0.71748066,1.1004726,0.41718566,0.22941615,0.22422928,-0.7026668,0.14309415,1.2351935,0.29169363,-0.005887526,0.25391734,1.1422671,0.5156756
-0.2,0.0,1.4999999999999998,-0.5235987755982988,0.5235987755982988,0,0.32568344,0.7171112,1.102815,0.41654006,0.23013763,0.22145857,-0.118093766,0.9923443,1.4785333,0.44548446,-0.08357283,-0.11243117,1.2497369,0.12792654
-0.2,0.0,1.4999999999999998,-0.5235987755982988,0.5235987755982988,0,0.32525966,0.72380745,1.1026344,0.41722146,0.23903017,0.22444396,-0.023616455,0.4576697,1.3087215,0.22210681,0.0049543264,0.34930053,1.1416054,-0.96860766
-0.2,0.0,1.4999999999999998,-0.5235987755982988,0.5235987755982988,0,0.3253959,0.7190618,1.1007559,0.41623875,0.22792128,0.22138993,0.14335972,-0.30130762,1.147781,-0.13613084,0.013769639,-0.09255395,1.2678019,0.30112222
-0.2,0.0,1.4999999999999998,-0.5235987755982988,0.5235987755982988,0,0.3254898,0.71588767,1.100162,0.41826534,0.24136458,0.2257307,1.1129116,1.4994093,1.3972782,-0.18844041,0.039264828,0.027380278,1.2945035,-0.15761602
-0.2,0.0,1.4999999999999998,-0.5235987755982988,0.5235987755982988,0,0.32629877,0.7174248,1.1009933,0.41838616,0.23541094,0.2184507,-0.26503843,0.41083437,1.3852952,-0.15640622,-0.029283043,0.049462236,1.3033,0.07100142
-0.2,0.0,1.4999999999999998,-0.5235987755982988,0.5235987755982988,0,0.3254762,0.7263806,1.1019781,0.41801596,0.23052603,0.22848058,0.23077282,0.8889184,1.3805192,0.014000085,-0.15071763,-0.3495643,1.0921687,-0.24385838
-0.2,0.0,1.4999999999999998,-0.5235987755982988,0.5235987755982988,0,0.32630545,0.7146641,1.1012341,0.41809836,0.23042718,0.21937452,-0.87357575,0.101592734,1.6291486,0.3294348,-0.11341498,-0.30166978,1.2880665,-0.7699764
-0.2,0.0,1.4999999999999998,-0.5235987755982988,0.5235987755982988,0,0.32508138,0.7170231,1.1017504,0.41664606,0.23621991,0.22531791,-0.17963378,-0.13148187,1.3543986,-0.31055823,-0.03799713,-0.018710773,1.2934854,-1.4018064
-0.2,0.0,1.4999999999999998,-0.5235987755982988,0.5235987755982988,0,0.32600665,0.72151923,1.1013718,0.41771668,0.23507781,0.21877292,-0.30464953,0.7214615,1.3246031,0.049933147,-0.05187073,0.25202248,1.3639442,-0.10575714
-0.2,0.0,1.4999999999999998,-0.5235987755982988,0.5235987755982988,0,0.32554492,0.715676,1.1014172,0.41717005,0.23160511,0.21998322,1.036363,0.25407284,1.3949833,0.07010922,0.006690472,-0.019814445,1.1993897,0.82025546
-0.2,0.0,1.4999999999999998,-0.5235987755982988,0.5235987755982988,0,0.32589167,0.72036606,1.1010597,0.4171335,0.2270817,0.22521167,0.20421337,0.6082612,1.2864169,0.25191966,-0.04368002,-0.39474234,1.4463738,-0.43201047
-0.2,0.0,1.4999999999999998,-0.5235987755982988,0.5235987755982988,0,0.32555047,0.72100717,1.1015052,0.41779226,0.23579395,0.22216342,-0.4743793,0.10055695,1.3961701,-0.14424147,-0.102307,-0.15305176,1.2192,0.22095765
-0.2,0.0,1.4999999999999998,-0.5235987755982988,0.5235987755982988,0,0.32550886,0.7177674,1.1030027,0.41781542,0.23847456,0.22263633,0.03202096,0.73513097,1.3627028,0.13299273,-0.024665058,-0.08488818,1.2721426,0.26778084
-0.2,0.0,1.4999999999999998,-0.5235987755982988,0.5235987755982988,0,0.32608253,0.7214033,1.1020331,0.41771916,0.23213887,0.21753311,-1.3560221,-0.5123543,1.3073548,0.20198427,0.032268427,0.09241173,1.2797955,-0.5238191
-0.2,0.0,1.4999999999999998,-0.5235987755982988,0.5235987755982988,0,0.32508132,0.7252459,1.1009843,0.4174245,0.22942577,0.22603278,0.7272595,0.6160665,1.3696784,-0.3510376,-0.14180441,0.085377775,1.2681135,-0.00813753
-0.2,0.0,1.4999999999999998,-0.5235987755982988,0.5235987755982988,0,0.3255516,0.7224057,1.1022602,0.41730785,0.23208463,0.22127596,0.15774085,-0.14793862,1.2035041,0.16866031,0.011326485,-0.27154553,1.2979189,-0.2958841
-0.2,0.0,1.4999999999999998,-0.5235987755982988,0.5235987755982988,0,0.3272897,0.71622676,1.1023458,0.41733724,0.2371718,0.22172827,-1.5912508,0.27825165,1.2985597,0.48730037,-0.07228873,0.3308677,1.1370583,0.8521893
-0.2,0.0,1.4999999999999998,-0.5235987755982988,0.5235987755982988,0,0.32515216,0.72155935,1.1012237,0.41734105,0.23684897,0.22781624,-0.01275351,0.8459126,1.0613397,-0.38401672,-0.050429262,-0.12091147,1.2494086,0.04387136
-0.2,0.0,1.4999999999999998,-0.5235987755982988,0.5235987755982988,0,0.3251945,0.7179806,1.1018403,0.4171234,0.24022289,0.22183613,-0.0035975322,0.64770895,1.1819761,-0.24170774,0.039365627,-0.1355084,1.201828,-0.29935285
-0.2,0.0,1.4999999999999998,-0.5235987755982988,0.5235987755982988,0,0.3263124,0.7193919,1.102469,0.4174458,0.23212422,0.22342776,-0.1161651,-0.19705166,1.3219982,0.13474575,-0.092388265,-0.120453835,1.3833284,-0.2250426
-0.2,0.0,1.4999999999999998,-0.5235987755982988,0.5235987755982988,0,0.3260013,0.718929,1.1008022,0.41677657,0.2308607,0.22499897,-0.85012263,0.14477055,1.4754434,0.19395073,-0.022364717,-0.01212422,1.3016692,-0.4267892
-0.2,0.0,1.4999999999999998,-0.5235987755982988,0.5235987755982988,0,0.3258622,0.72221833,1.1007069,0.41784567,0.2420721,0.22559947,0.0103574535,0.45532212,1.3341036,0.057289176,-0.096300706,0.2158337,1.3499713,-0.4157379
-0.2,0.0,1.4999999999999998,-0.5235987755982988,0.5235987755982988,0,0.32651967,0.7202024,1.102026,0.4179982,0.24035114,0.22567871,0.47886914,-0.09525905,1.2932593,0.059841145,-0.025740424,-0.12497532,1.1125827,0.13615464
-0.2,0.0,1.4999999999999998,-0.5235987755982988,0.5235987755982988,0,0.324561,0.7163169,1.1027658,0.41788873,0.23485471,0.22242247,-1.3222315,0.96027344,1.3273516,0.26675633,-0.05563835,-0.0105777895,1.2116351,1.2296138
-0.2,0.0,1.4999999999999998,-0.5235987755982988,0.5235987755982988,0,0.32672298,0.71869373,1.1011714,0.41708246,0.22792304,0.22550946,-0.1370354,0.82465684,1.2320796,-0.03315876,-0.09758026,-0.07635618,1.2102697,-0.84206164
-0.2,0.0,1.4999999999999998,-0.5235987755982988,0.5235987755982988,0,0.3254501,0.72065073,1.1025848,0.4167946,0.22809722,0.22508237,0.24330488,0.93151736,1.4587506,-0.12744913,-0.05253126,-0.09996497,1.2309132,0.34477422
-0.2,0.0,1.4999999999999998,-0.5235987755982988,0.5235987755982988,0,0.32608417,0.7191058,1.1013364,0.41820452,0.227883,0.22298333,1.3605978,1.4830348,1.236944,-0.115207836,-0.101694435,-0.04269656,1.3196281,-0.16882083
-0.2,0.0,1.4999999999999998,-0.5235987755982988,0.5235987755982988,0,0.3259533,0.7151627,1.1029257,0.41820097,0.23609439,0.2211839,-0.043630566,0.8231919,1.3824178,0.11091513,-0.04051652,0.13552456,1.2897856,0.31705153
-0.2,0.0,1.4999999999999998,-0.5235987755982988,0.5235987755982988,0,0.3261619,0.71810335,1.1039243,0.41745868,0.23588094,0.22499251,-1.1725188,0.8113688,1.2659523,-0.33463812,-0.1132443,0.0012513378,1.2017782,-0.8072104
-0.2,0.0,1.4999999999999998,-0.5235987755982988,0.5235987755982988,0,0.32554278,0.72111887,1.1022863,0.4176415,0.2329736,0.22349392,-0.19103572,-0.22782639,1.3752612,0.38882488,-0.01599241,-0.15644597,1.1680477,0.123478316
-0.2,0.0,1.4999999999999998,-0.5235987755982988,0.5235987755982988,0,0.32548678,0.7207118,1.1022567,0.4162592,0.22936854,0.22782303,-0.19143504,0.7611819,1.2828954,0.3087389,-0.026013378,-0.017647801,1.1822954,-0.037532195
-0.2,0.0,1.4999999999999998,-0.5235987755982988,0.5235987755982988,0,0.32628125,0.7223496,1.1009986,0.41740015,0.23565668,0.2271964,0.8148302,0.050299037,1.3526776,0.17771134,-0.12781225,0.07364256,1.2932875,-0.43534064
-0.2,0.0,1.4999999999999998,-0.5235987755982988,0.5235987755982988,0,0.32646284,0.7146185,1.0999433,0.41747907,0.22988194,0.22894362,0.39418548,-0.045001008,1.3643523,-0.06374684,-0.07103186,-0.22568524,1.1711245,-0.70309526
-0.2,0.0,1.4999999999999998,-0.5235987755982988,0.5235987755982988,0,0.32590643,0.71842885,1.100847,0.4180855,0.22829153,0.2236036,0.88295996,0.37621033,1.3560295,0.43266758,-0.0651891,-0.051254943,1.1363696,-0.2604596
-0.2,0.0,1.4999999999999998,-0.5235987755982988,0.5235987755982988,0,0.32693127,0.7167816,1.1018144,0.41856167,0.23496318,0.22664909,-1.0328394,-0.28562695,1.2357382,0.32194364,-0.08313716,-0.036056146,1.1009705,-0.32072064
-0.2,0.0,1.4999999999999998,-0.5235987755982988,0.5235987755982988,0,0.3262118,0.7198238,1.1012244,0.41693497,0.22960527,0.22964492,0.6753985,0.5517615,1.3364997,0.3311356,-0.06758073,-0.21343313,1.2335538,-1.7242023
-0.2,0.0,1.4999999999999998,-0.5235987755982988,0.5235987755982988,0,0.32560855,0.72166353,1.1010426,0.41719562,0.22683555,0.2260805,-0.6777103,-0.18525527,1.3274684,-0.10598207,-0.12275419,-0.36222905,1.2124738,0.20117076
-0.2,0.0,1.4999999999999998,-0.5235987755982988,0.5235987755982988,0,0.32489926,0.7226578,1.1017411,0.41693765,0.23981525,0.22148405,1.8534347,0.57595867,1.476908,0.47497815,-0.1450686,-0.21202415,1.2057873,-0.5757421
-0.2,0.0,1.4999999999999998,-0.5235987755982988,0.5235987755982988,0,0.32500517,0.7191184,1.0992491,0.41779903,0.23853475,0.22262146,0.6750894,-0.3815114,1.4858648,0.11793416,-0.07553591,0.09017524,1.229379,0.439862
-0.2,0.0,1.4999999999999998,-0.5235987755982988,0.5235987755982988,0,0.32391447,0.7174111,1.1019408,0.41635862,0.2365453,0.22306478,-0.24537916,1.5386086,1.2977735,-0.3247524,-0.051880736,0.13860148,1.0284151,-0.28312963
-0.2,0.0,1.4999999999999998,-0.5235987755982988,0.5235987755982988,0,0.32615528,0.72171265,1.1009864,0.41732594,0.23154145,0.22312497,-0.17187847,0.25008088,1.3064184,0.2721084,0.041438423,-0.4066376,1.1251713,0.44282547
-0.2,0.0,1.4999999999999998,-0.5235987755982988,0.5235987755982988,0,0.32636717,0.71620446,1.1003015,0.41646433,0.23130201,0.22035046,0.44439703,-0.19659142,1.3291322,0.12461723,-0.09793244,0.06919663,1.2053982,-1.2219644
-0.2,0.0,1.4999999999999998,-0.5235987755982988,0.5235987755982988,0,0.32450613,0.72309786,1.1012865,0.41666776,0.2286928,0.22205351,-1.0571116,0.7421131,1.205053,0.048295215,-0.060311384,-0.34439296,1.1972631,-0.79457855
-0.2,0.0,1.4999999999999998,-0.5235987755982988,0.5235987755982988,0,0.3256897,0.7220005,1.1000502,0.41700432,0.22698958,0.22128235,-0.11035775,0.8100212,1.5040065,-0.51301074,-0.12333952,-0.10506598,1.2817765,-1.0548648
-0.2,0.0,1.4999999999999998,-0.5235987755982988,0.5235987755982988,0,0.32426572,0.72025025,1.101073,0.41774255,0.23023765,0.2192853,1.2107943,-0.05318365,1.382164,0.7150876,-0.09484198,-0.0009230884,1.2707345,0.22000842
-0.2,0.0,1.4999999999999998,-0.5235987755982988,0.5235987755982988,0,0.3254833,0.725168,1.101915,0.4161545,0.23797931,0.220614,1.1319975,0.82365257,1.2973886,0.32115003,-0.046079703,-0.017631853,1.2304293,-0.62441444
-0.2,0.0,1.4999999999999998,-0.5235987755982988,0.5235987755982988,0,0.32388312,0.72100157,1.1007872,0.41721502,0.23863176,0.22345431,0.80999714,0.54951787,1.360634,0.21473522,-0.04923427,0.025331859,1.2616143,-1.2285432
-0.2,0.0,1.4999999999999998,-0.5235987755982988,0.5235987755982988,0,0.3251782,0.7180848,1.102278,0.41650167,0.23580506,0.22481366,0.08968539,0.69127154,1.0926925,0.12855342,0.04125145,-0.04378806,1.0487909,0.22030392
-0.2,0.0,1.4999999999999998,-0.5235987755982988,0.5235987755982988,0,0.32598823,0.71960455,1.1014545,0.41646495,0.2396156,0.22188967,0.35839683,0.41723412,1.2687951,0.037342187,-0.013997899,0.09444812,1.0201663,1.3363384
-0.2,0.0,1.4999999999999998,-0.5235987755982988,0.5235987755982988,0,0.32511988,0.72042364,1.1005995,0.41710007,0.23706669,0.22273116,-0.21164954,1.0067024,1.2135031,0.2014749,-0.066004984,-0.094307296,1.3553491,-0.9656414
-0.2,0.0,1.4999999999999998,-0.5235987755982988,0.5235987755982988,0,0.3249509,0.7170992,1.1022495,0.41673127,0.23427318,0.22261848,-0.1370828,-0.101929605,1.2651409,-0.013781415,-0.0717087,-0.27218583,1.1640627,-1.3104689
-0.2,0.0,1.4999999999999998,-0.5235987755982988,0.5235987755982988,0,0.324671,0.72120416,1.1019483,0.41803932,0.23462953,0.22791322,0.5087,0.13104668,1.4504782,-0.3021931,-0.06944477,-0.093566574,1.2419786,-0.14262936
-0.2,0.0,1.4999999999999998,-0.5235987755982988,0.5235987755982988,0,0.32574725,0.7162341,1.1008137,0.41767722,0.22787723,0.2214271,-0.38563293,0.5978655,1.2170811,0.3501454,0.04225049,0.13855977,1.1906148,0.6704127
-0.2,0.0,1.4999999999999998,-0.5235987755982988,0.5235987755982988,0,0.32434452,0.7195652,1.1022253,0.4172488,0.23071338,0.22622372,1.6660664,0.0667668,1.3719156,0.591753,-0.17789313,-0.07131204,1.1453896,0.5128183
-0.2,0.0,1.4999999999999998,-0.5235987755982988,0.5235987755982988,0,0.32519364,0.72030044,1.102495,0.41586223,0.2297768,0.22704914,0.6813516,0.50482297,1.4161496,0.23094003,-0.110168345,-0.08798735,1.2455633,-0.06776512
-0.2,0.0,1.4999999999999998,-0.5235987755982988,0.5235987755982988,0,0.32505932,0.7213571,1.1014122,0.41726586,0.24193083,0.2266029,1.0874733,0.90584415,1.2781549,-0.55646074,-0.13698842,-0.28206524,1.2345206,-0.3348311
-0.2,0.0,1.4999999999999998,-0.5235987755982988,0.5235987755982988,0,0.32639873,0.7220645,1.1009412,0.41680214,0.2344085,0.22550686,0.87729424,0.42919296,1.2588236,0.3846439,-0.08943081,-0.1441293,1.1722711,-0.5076199
-0.2,0.0,1.4999999999999998,-0.5235987755982988,0.5235987755982988,0,0.3252526,0.72456306,1.1024834,0.41685456,0.23407787,0.22572955,0.6390126,-0.031562977,1.398479,-0.020364545,-0.03612043,-0.07112598,1.2680639,-0.4840813
-0.2,0.0,1.4999999999999998,-0.5235987755982988,0.5235987755982988,0,0.32528743,0.72101384,1.1037266,0.41811132,0.24061641,0.22648676,0.7925183,-0.36146617,1.260461,-0.009228926,-0.00074731844,-0.06629169,1.1899029,-0.011978072
-0.2,0.0,1.4999999999999998,-0.5235987755982988,0.5235987755982988,0,0.3245615,0.7183226,1.1001741,0.41747838,0.23936503,0.22240289,0.09323945,0.2465492,1.2336892,0.28994814,-0.076385655,-0.17399918,1.2024451,-0.08364786
-0.2,0.0,1.4999999999999998,-0.5235987755982988,0.5235987755982988,0,0.32524532,0.7206237,1.10318,0.4169743,0.23678082,0.21929108,-1.2741665,-0.06179768,1.2997555,0.2903153,-0.0065243375,-0.2792361,1.1363132,0.68885887
-0.2,0.0,1.4999999999999998,-0.5235987755982988,0.5235987755982988,0,0.32543328,0.7159632,1.1009703,0.4180772,0.2273366,0.22278395,-0.015734224,0.370629,1.3235252,0.34667328,-0.016356912,-0.33691338,1.0205889,-0.826073
-0.2,0.0,1.4999999999999998,-0.5235987755982988,0.5235987755982988,0,0.3256627,0.7182574,1.102513,0.41711056,0.234609,0.22021002,0.89217395,-0.3432975,1.4039263,0.12195302,-0.06281486,-0.053031128,1.1029487,-0.75220996
-0.2,0.0,1.4999999999999998,-0.5235987755982988,0.5235987755982988,0,0.3259959,0.7196428,1.1008639,0.41788703,0.23579492,0.22481589,-0.588547,1.1394145,1.4136732,0.06353921,-0.02082869,0.09969249,1.1379519,0.4799022
