sanky1234/BimanualDexCatch/isaacgymenvs/cem_results/football_pose_-0.1_-0.1_1.1999999999999997_0.5235987755982988_0.5235987755982988_0_2025-05-25.csv
x,y,z,roll,pitch,yaw,robot1/joint1,robot1/joint2,robot1/joint3,robot1/joint4,robot1/joint5,robot1/joint6,robot1/joint7,robot2/joint1,robot2/joint2,robot2/joint3,robot2/joint4,robot2/joint5,robot2/joint6,robot2/joint7
-0.1,-0.1,1.1999999999999997,0.5235987755982988,0.5235987755982988,0,-0.52495044,0.23324148,1.1188673,0.6344956,0.4987999,0.67061335,0.021761455,-1.1674173,0.07112791,0.5402385,0.2896376,-0.76543355,0.74881595,-1.1953807
-0.1,-0.1,1.1999999999999997,0.5235987755982988,0.5235987755982988,0,-0.52813524,0.21761666,1.1232537,0.6333922,0.50571704,0.67055076,-0.015102541,-1.166092,0.09387071,0.4267494,0.12215446,-0.5131894,0.8359279,-1.457939
-0.1,-0.1,1.1999999999999997,0.5235987755982988,0.5235987755982988,0,-0.525129,0.21625182,1.1219444,0.6321792,0.50440156,0.66950184,0.06846274,-1.1746279,0.07876675,0.49678457,0.35735154,-0.7129887,0.93691206,-0.8490577
-0.1,-0.1,1.1999999999999997,0.5235987755982988,0.5235987755982988,0,-0.52329844,0.2251016,1.1180898,0.6325038,0.4862156,0.66598576,0.03175776,-1.1750095,0.085363634,0.709356,0.3507693,-0.29542187,0.7796981,-0.8354555
-0.1,-0.1,1.1999999999999997,0.5235987755982988,0.5235987755982988,0,-0.5263063,0.22420193,1.1183902,0.631138,0.47918817,0.6686806,0.12703499,-1.1811442,0.076420344,0.28966102,0.1504121,-0.7710802,0.9851365,-1.6252935
-0.1,-0.1,1.1999999999999997,0.5235987755982988,0.5235987755982988,0,-0.5288221,0.2076082,1.1186439,0.6348884,0.49921274,0.67718726,0.112466425,-1.1696033,0.08972878,0.5322034,0.51302683,-0.7125116,0.8252345,0.27573857
-0.1,-0.1,1.1999999999999997,0.5235987755982988,0.5235987755982988,0,-0.5265598,0.22394097,1.11904,0.63307655,0.503357,0.66612136,0.0028710482,-1.167593,0.07260286,0.3901803,0.22239709,-0.14409639,0.92742723,-0.9083555
-0.1,-0.1,1.1999999999999997,0.5235987755982988,0.5235987755982988,0,-0.52942026,0.23697226,1.1191709,0.6334722,0.47825834,0.67347467,0.13127387,-1.154239,0.074011065,0.15320008,0.34401172,-0.7740992,0.67072207,1.2863413
-0.1,-0.1,1.1999999999999997,0.5235987755982988,0.5235987755982988,0,-0.52924067,0.2188708,1.1214895,0.63336295,0.51169306,0.6693361,0.015423948,-1.173996,0.064063564,0.7827058,0.3654309,-0.7969432,0.86901563,-0.04424317
-0.1,-0.1,1.1999999999999997,0.5235987755982988,0.5235987755982988,0,-0.5255551,0.20737506,1.1227268,0.63593006,0.5153282,0.6674267,0.13951711,-1.1691943,0.088867284,0.73827994,0.24409555,-0.32283303,0.9807869,-1.2171794
-0.1,-0.1,1.1999999999999997,0.5235987755982988,0.5235987755982988,0,-0.524271,0.20498092,1.1263843,0.63594073,0.49615198,0.66955745,-0.008822564,-1.1724157,0.100074895,0.34557548,0.32463193,-0.39850023,1.0275552,-1.9623147
-0.1,-0.1,1.1999999999999997,0.5235987755982988,0.5235987755982988,0,-0.5239098,0.2190554,1.1244055,0.6327498,0.50045,0.667524,0.053343177,-1.1657808,0.089988105,0.92037565,0.35782635,-1.0802195,0.87336427,-0.038132384
-0.1,-0.1,1.1999999999999997,0.5235987755982988,0.5235987755982988,0,-0.526746,0.21665487,1.1183348,0.63279504,0.5099385,0.6667443,0.028452106,-1.173061,0.09363138,0.11763276,0.13194032,-0.34729353,0.9376645,0.14484392
-0.1,-0.1,1.1999999999999997,0.5235987755982988,0.5235987755982988,0,-0.5246823,0.21347947,1.1187749,0.6311282,0.51132816,0.6711496,0.08583922,-1.1658744,0.084263116,0.35675016,0.24245024,-0.99993,1.022508,-1.510522
-0.1,-0.1,1.1999999999999997,0.5235987755982988,0.5235987755982988,0,-0.52753216,0.23057207,1.1225213,0.6328529,0.5126038,0.67289263,0.06730345,-1.1732166,0.083616756,0.554047,0.24684316,-0.7562803,0.8759343,-1.1660428
-0.1,-0.1,1.1999999999999997,0.5235987755982988,0.5235987755982988,0,-0.52476096,0.22909781,1.1231116,0.6317534,0.5283588,0.67010176,0.08711947,-1.1711273,0.08560111,0.4393744,0.25532115,-1.2980866,0.5800346,-0.79504305
-0.1,-0.1,1.1999999999999997,0.5235987755982988,0.5235987755982988,0,-0.5241261,0.22293238,1.1231976,0.6306241,0.4878635,0.66865087,0.08875734,-1.1723173,0.09789058,0.5142956,0.37954554,-0.9774235,0.9311149,-0.5458439
-0.1,-0.1,1.1999999999999997,0.5235987755982988,0.5235987755982988,0,-0.52762777,0.2070552,1.1193844,0.63332117,0.4992706,0.6666893,-0.0358772,-1.1696178,0.09877702,0.31645796,0.35355046,-0.86577946,0.7248698,-0.5774846
-0.1,-0.1,1.1999999999999997,0.5235987755982988,0.5235987755982988,0,-0.5244632,0.2178146,1.1196389,0.63215655,0.49457893,0.671378,0.043175053,-1.1686347,0.08236273,0.5781715,0.42225015,-0.6561431,1.1408467,-0.52537525
-0.1,-0.1,1.1999999999999997,0.5235987755982988,0.5235987755982988,0,-0.5265275,0.20868872,1.1185048,0.63276094,0.474913,0.67038673,0.0582662,-1.1791812,0.09251476,0.60084426,0.37517855,-0.320168,0.7679874,-0.46805272
-0.1,-0.1,1.1999999999999997,0.5235987755982988,0.5235987755982988,0,-0.529486,0.21428059,1.1214681,0.63075924,0.5011466,0.6632954,0.021842571,-1.1661334,0.09288882,0.40881547,0.10402582,-1.0715759,0.7238994,-0.6483458
-0.1,-0.1,1.1999999999999997,0.5235987755982988,0.5235987755982988,0,-0.52605665,0.20625746,1.118233,0.6350737,0.5012424,0.6668802,0.08651559,-1.169665,0.1010506,0.12436188,0.32656908,-0.91651684,0.8819571,-0.3539429
-0.1,-0.1,1.1999999999999997,0.5235987755982988,0.5235987755982988,0,-0.5280488,0.21753375,1.119,0.6298823,0.48792946,0.66663396,0.08011251,-1.1729544,0.08667855,0.40225554,0.20991214,-0.5709555,0.87740225,-1.7858304
-0.1,-0.1,1.1999999999999997,0.5235987755982988,0.5235987755982988,0,-0.52490336,0.21099074,1.1210974,0.6301949,0.5279038,0.6684886,0.044012904,-1.1772501,0.08903728,0.6399284,0.21509083,-0.937542,0.7679037,-0.8053443
-0.1,-0.1,1.1999999999999997,0.5235987755982988,0.5235987755982988,0,-0.520468,0.21130529,1.1183962,0.6332219,0.49011242,0.66843677,0.059845503,-1.1699655,0.09151549,0.4072302,0.45274192,-0.20457457,0.92692125,-0.5614103
-0.1,-0.1,1.1999999999999997,0.5235987755982988,0.5235987755982988,0,-0.5254804,0.22101337,1.1216903,0.63186634,0.5044552,0.6720661,0.113819495,-1.1725118,0.08775111,0.5220162,0.11261147,-0.44622356,0.77389973,-1.4891012
-0.1,-0.1,1.1999999999999997,0.5235987755982988,0.5235987755982988,0,-0.5262394,0.21302323,1.119079,0.6339074,0.5028386,0.67332286,0.07082531,-1.1674774,0.08219025,0.1773239,0.1627379,-0.6633616,0.9261051,0.07390154
-0.1,-0.1,1.1999999999999997,0.5235987755982988,0.5235987755982988,0,-0.52611226,0.21813811,1.1233013,0.63181925,0.49897704,0.66558456,0.029375287,-1.1729919,0.093489036,0.29467234,0.27229938,-0.8525493,0.81849605,-0.3482402
-0.1,-0.1,1.1999999999999997,0.5235987755982988,0.5235987755982988,0,-0.5254596,0.22534882,1.1155944,0.6324764,0.508349,0.6710594,-0.033036657,-1.1739833,0.078191824,0.64624006,0.25485647,0.38406017,0.94689244,-0.75293154
-0.1,-0.1,1.1999999999999997,0.5235987755982988,0.5235987755982988,0,-0.5257234,0.2307379,1.1202208,0.6326704,0.47786835,0.6676941,0.083742835,-1.1628274,0.078697324,0.70385337,0.085928544,-1.0875142,0.961823,-0.4543211
-0.1,-0.1,1.1999999999999997,0.5235987755982988,0.5235987755982988,0,-0.5292018,0.2271337,1.1243839,0.63243806,0.50616205,0.6703283,0.118727416,-1.1684623,0.08027392,0.19928175,-0.008541678,-0.54218113,1.0648974,-0.949321
-0.1,-0.1,1.1999999999999997,0.5235987755982988,0.5235987755982988,0,-0.52255213,0.22953853,1.1156512,0.6324098,0.5073627,0.66979027,0.05769312,-1.1712005,0.08754463,1.0080233,0.36632207,-1.0393918,0.7621527,-0.8586485
-0.1,-0.1,1.1999999999999997,0.5235987755982988,0.5235987755982988,0,-0.5249979,0.22669567,1.1232271,0.63322634,0.48349363,0.66629153,0.1264365,-1.1657546,0.07394153,0.6254413,0.22491926,-0.9982324,0.8965705,-0.15823099
-0.1,-0.1,1.1999999999999997,0.5235987755982988,0.5235987755982988,0,-0.52961963,0.22215821,1.1176003,0.6356109,0.49403366,0.6632361,0.14002597,-1.1668911,0.09176082,0.41873276,0.2413894,-1.1975625,0.9721464,-1.2757399
-0.1,-0.1,1.1999999999999997,0.5235987755982988,0.5235987755982988,0,-0.52558523,0.21741581,1.1230482,0.630011,0.48509616,0.671693,0.0849209,-1.1633632,0.07845463,0.39272296,-0.15420884,-0.7395572,1.1280199,-0.6649939
-0.1,-0.1,1.1999999999999997,0.5235987755982988,0.5235987755982988,0,-0.525158,0.22610979,1.1218177,0.63244694,0.51694167,0.66574645,0.05623065,-1.1763303,0.08445837,0.29122078,0.43586683,-0.74527127,0.70535433,-2.622144
-0.1,-0.1,1.1999999999999997,0.5235987755982988,0.5235987755982988,0,-0.52405876,0.2164455,1.1202534,0.632665,0.5128547,0.6657879,0.049228627,-1.1739427,0.07817701,0.37815678,0.10463244,0.39747992,0.7396013,0.21787375
-0.1,-0.1,1.1999999999999997,0.5235987755982988,0.5235987755982988,0,-0.5271047,0.2199519,1.1196343,0.6344112,0.49923038,0.6677802,0.10330907,-1.1722021,0.09097729,0.3555784,0.28705898,-0.96329457,0.86880535,-0.81452525
-0.1,-0.1,1.1999999999999997,0.5235987755982988,0.5235987755982988,0,-0.5262052,0.22663091,1.123311,0.6329012,0.49556786,0.6702212,0.07659787,-1.1610136,0.08489082,0.41366687,0.21307263,-0.314085,0.8841289,-1.2141201
-0.1,-0.1,1.1999999999999997,0.5235987755982988,0.5235987755982988,0,-0.5294154,0.22527352,1.1207179,0.6297351,0.48326272,0.67362475,0.06654561,-1.166904,0.098628566,0.87511724,0.10883908,-1.4585067,1.0481644,-0.177278
-0.1,-0.1,1.1999999999999997,0.5235987755982988,0.5235987755982988,0,-0.52363354,0.22582561,1.1185462,0.6346211,0.4970338,0.6689116,0.10322329,-1.1594046,0.07972594,0.9456784,0.24473594,-1.3014725,1.0468028,-0.2488294
-0.1,-0.1,1.1999999999999997,0.5235987755982988,0.5235987755982988,0,-0.5245066,0.23588327,1.1202772,0.63173056,0.50222594,0.66476476,0.07631906,-1.1780756,0.09301983,0.78207797,0.19644396,-1.1699718,1.0600228,-0.72671235
-0.1,-0.1,1.1999999999999997,0.5235987755982988,0.5235987755982988,0,-0.524697,0.20557502,1.1196969,0.6355256,0.50898963,0.669012,0.029594654,-1.1748238,0.0763047,0.36495224,0.29035887,-0.5935351,1.0271128,-0.810993
-0.1,-0.1,1.1999999999999997,0.5235987755982988,0.5235987755982988,0,-0.5298936,0.21718778,1.124194,0.6348041,0.50875485,0.6686835,0.049034312,-1.1684631,0.08170435,0.46692747,0.2551723,-0.9840224,0.9242766,0.1641888
-0.1,-0.1,1.1999999999999997,0.5235987755982988,0.5235987755982988,0,-0.52446467,0.21574467,1.1224221,0.6357002,0.52068937,0.670006,0.05655781,-1.1733581,0.08612546,0.26967183,0.17016874,-0.9197911,0.75313365,-0.44519758
-0.1,-0.1,1.1999999999999997,0.5235987755982988,0.5235987755982988,0,-0.52390593,0.23292924,1.1188049,0.63558066,0.52061903,0.67507756,0.06909072,-1.1767286,0.0851296,0.9895863,0.38534564,-0.19014393,0.72482467,-0.58874464
-0.1,-0.1,1.1999999999999997,0.5235987755982988,0.5235987755982988,0,-0.5262821,0.20763989,1.1192989,0.63033223,0.48075202,0.66740406,0.06145435,-1.167255,0.0872884,0.553631,0.22399928,-0.571133,0.8778731,-1.3352029
-0.1,-0.1,1.1999999999999997,0.5235987755982988,0.5235987755982988,0,-0.522603,0.21857211,1.1186646,0.633521,0.49166209,0.6678598,0.024434594,-1.1732155,0.091947004,0.48987493,0.24963988,-0.6896885,0.8595409,0.15551321
-0.1,-0.1,1.1999999999999997,0.5235987755982988,0.5235987755982988,0,-0.5249153,0.21246758,1.1229616,0.6320923,0.4952207,0.6690346,0.104861245,-1.1631889,0.089279056,0.70826465,0.3854729,-0.43122557,1.0363253,-0.03656802
-0.1,-0.1,1.1999999999999997,0.5235987755982988,0.5235987755982988,0,-0.5226899,0.21071686,1.119114,0.6359783,0.49631783,0.6735111,0.11371657,-1.1717048,0.0840454,0.08618434,0.16151045,-0.69554394,0.81989926,-0.34924448
-0.1,-0.1,1.1999999999999997,0.5235987755982988,0.5235987755982988,0,-0.52693284,0.21699211,1.129135,0.6334048,0.51073354,0.6659637,0.010822084,-1.1599962,0.09116526,0.5459433,0.34771934,-0.74587023,0.7906419,-0.6166938
-0.1,-0.1,1.1999999999999997,0.5235987755982988,0.5235987755982988,0,-0.5241955,0.20573376,1.1210635,0.6348477,0.4991803,0.6711923,-0.022780444,-1.1689502,0.097603604,0.30220178,0.31195486,-0.4994714,0.9954525,-0.6839495
-0.1,-0.1,1.1999999999999997,0.5235987755982988,0.5235987755982988,0,-0.5294422,0.22297598,1.1224753,0.63336974,0.4716449,0.66708654,0.08214766,-1.1604154,0.08465058,0.5372473,0.48041666,-0.1983687,0.79407364,-2.194273
-0.1,-0.1,1.1999999999999997,0.5235987755982988,0.5235987755982988,0,-0.52987176,0.21278407,1.1131312,0.6350756,0.49234796,0.6643755,0.075388625,-1.1672504,0.100743756,0.3445013,0.29396018,-0.23059197,0.8586482,-0.8773327
-0.1,-0.1,1.1999999999999997,0.5235987755982988,0.5235987755982988,0,-0.5202501,0.23174353,1.1168777,0.6343733,0.4925813,0.66897553,0.13626012,-1.1718482,0.09487214,0.48057973,0.25760096,-0.6832942,0.91160846,-0.87067944
-0.1,-0.1,1.1999999999999997,0.5235987755982988,0.5235987755982988,0,-0.5286411,0.22193858,1.1218971,0.63392746,0.52487934,0.6700194,0.083795175,-1.1629149,0.076146975,0.4893487,0.4104465,-0.59516084,0.8169704,-1.2180233
-0.1,-0.1,1.1999999999999997,0.5235987755982988,0.5235987755982988,0,-0.5220994,0.22445177,1.1221542,0.6297349,0.5034961,0.66676897,0.022076393,-1.1694727,0.09023401,0.27877885,0.10364962,-1.0497928,0.7932537,-0.24559665
-0.1,-0.1,1.1999999999999997,0.5235987755982988,0.5235987755982988,0,-0.5258117,0.21634105,1.1192675,0.6343955,0.47472456,0.6716235,0.090616934,-1.1627585,0.08464127,0.7579572,0.31434324,-1.3854806,1.0355586,0.25770107
-0.1,-0.1,1.1999999999999997,0.5235987755982988,0.5235987755982988,0,-0.5250062,0.21999104,1.1190485,0.6353821,0.51108223,0.6662714,0.029839411,-1.1743531,0.08501716,0.38220948,0.24517854,-0.81289154,0.9297395,-0.19609773
-0.1,-0.1,1.1999999999999997,0.5235987755982988,0.5235987755982988,0,-0.5267774,0.20720427,1.1234018,0.6321941,0.49337563,0.6670933,0.120343715,-1.1653675,0.086897284,0.5228501,0.22717164,-1.2470354,1.0175426,0.83635587
-0.1,-0.1,1.1999999999999997,0.5235987755982988,0.5235987755982988,0,-0.52450264,0.19937815,1.11953,0.6342562,0.49948198,0.67396575,0.028439587,-1.1753529,0.08848412,0.2950429,0.22942413,-0.80035317,0.88263965,-1.1394699
-0.1,-0.1,1.1999999999999997,0.5235987755982988,0.5235987755982988,0,-0.5269501,0.20875427,1.1188103,0.635221,0.50601524,0.66971725,0.018047424,-1.1765649,0.080522306,0.2964981,0.109764725,-0.67141515,0.7209342,0.16381131
-0.1,-0.1,1.1999999999999997,0.5235987755982988,0.5235987755982988,0,-0.52346593,0.20704357,1.1212486,0.6329948,0.4976336,0.66607004,0.10349757,-1.1691201,0.09032758,0.19779542,0.37591305,-0.41761762,0.84954095,-0.1383144
-0.1,-0.1,1.1999999999999997,0.5235987755982988,0.5235987755982988,0,-0.5283996,0.21258906,1.1237173,0.6311298,0.4733702,0.67706275,0.057647906,-1.1615905,0.09266144,0.37519753,0.33899438,0.26931626,0.8034371,-0.9649156
-0.1,-0.1,1.1999999999999997,0.5235987755982988,0.5235987755982988,0,-0.5302167,0.19980574,1.1251513,0.63650733,0.5012507,0.66422373,0.033614147,-1.161537,0.071317695,0.30338955,0.3029936,-0.46081206,0.9815392,-0.37359098
-0.1,-0.1,1.1999999999999997,0.5235987755982988,0.5235987755982988,0,-0.5276354,0.22205913,1.1224672,0.63313603,0.51383966,0.6735105,0.06392096,-1.1663336,0.074598595,0.26962197,0.14437823,-0.8973509,0.8710292,-1.2795918
-0.1,-0.1,1.1999999999999997,0.5235987755982988,0.5235987755982988,0,-0.52764076,0.21048668,1.1213679,0.6348949,0.48537064,0.6761151,0.016856765,-1.1753223,0.08131428,0.5765103,0.252868,-0.28281084,0.8769574,-1.6943393
-0.1,-0.1,1.1999999999999997,0.5235987755982988,0.5235987755982988,0,-0.52515876,0.21940522,1.1180927,0.6347017,0.5131232,0.6702608,-0.010793172,-1.1714255,0.07548286,0.7231051,0.19130564,-0.93185425,0.7458766,0.49131945
-0.1,-0.1,1.1999999999999997,0.5235987755982988,0.5235987755982988,0,-0.529118,0.2262194,1.125148,0.632621,0.50776076,0.66919446,0.083438545,-1.1597353,0.07099528,0.70709133,0.3511499,-1.1853613,0.95674294,-0.67491144
-0.1,-0.1,1.1999999999999997,0.5235987755982988,0.5235987755982988,0,-0.5299546,0.22278601,1.1172646,0.6338659,0.5015058,0.6681288,0.07939371,-1.1644281,0.10163856,0.40689623,0.13026333,-0.92926764,0.77308714,-0.36393517
-0.1,-0.1,1.1999999999999997,0.5235987755982988,0.5235987755982988,0,-0.52541155,0.22181043,1.1211808,0.6337652,0.4938555,0.6696068,0.06625413,-1.1618152,0.100884706,0.325714,0.037192624,-1.6456335,0.85493815,-1.170418
-0.1,-0.1,1.1999999999999997,0.5235987755982988,0.5235987755982988,0,-0.52858216,0.21726127,1.1199776,0.6354939,0.5090819,0.66804045,0.0103849955,-1.1696475,0.075801045,0.61164176,0.3241432,-0.3891163,0.7136103,-0.14066249
-0.1,-0.1,1.1999999999999997,0.5235987755982988,0.5235987755982988,0,-0.52652824,0.22152556,1.1221781,0.6309046,0.4802567,0.67017144,-0.009785403,-1.17721,0.08815647,0.9176247,0.29119587,-1.3623408,0.744191,-1.6540205
-0.1,-0.1,1.1999999999999997,0.5235987755982988,0.5235987755982988,0,-0.52679765,0.2214977,1.1219182,0.6339056,0.47200868,0.66728324,0.055827696,-1.166977,0.08234301,0.6930263,0.3217705,-1.151196,0.8952863,-2.0984752
-0.1,-0.1,1.1999999999999997,0.5235987755982988,0.5235987755982988,0,-0.526804,0.22766525,1.1204182,0.6321403,0.4880409,0.6665217,0.025944764,-1.1644701,0.091173016,-0.08848436,0.23174527,-0.3069168,0.6229133,-0.7753238
-0.1,-0.1,1.1999999999999997,0.5235987755982988,0.5235987755982988,0,-0.52599645,0.22783267,1.1188887,0.6341292,0.51056355,0.66724205,0.04713481,-1.1665446,0.08087311,0.23896888,0.16797376,-0.6838315,0.96418506,-0.45336515
-0.1,-0.1,1.1999999999999997,0.5235987755982988,0.5235987755982988,0,-0.5249976,0.22471319,1.1198975,0.63213843,0.50432116,0.6745765,0.095937595,-1.1732891,0.0977574,0.39478078,0.3841573,-0.96435064,0.7935834,-1.0559915
-0.1,-0.1,1.1999999999999997,0.5235987755982988,0.5235987755982988,0,-0.5227367,0.20822103,1.1185173,0.6319405,0.5017327,0.6717113,0.08742607,-1.1642053,0.089101404,0.2932995,0.06721373,-0.48937777,0.8442458,-0.74002177
-0.1,-0.1,1.1999999999999997,0.5235987755982988,0.5235987755982988,0,-0.52670354,0.2149448,1.1214229,0.63353366,0.51886725,0.6662182,0.026892338,-1.1733662,0.085367836,0.22620243,0.042744905,-0.19932285,0.9864098,-0.81020105
-0.1,-0.1,1.1999999999999997,0.5235987755982988,0.5235987755982988,0,-0.5270392,0.219844,1.1222246,0.63523793,0.47868454,0.6703465,0.07311695,-1.1663762,0.097841926,0.8187144,0.30985427,-0.31427798,0.9889811,-1.0355898
-0.1,-0.1,1.1999999999999997,0.5235987755982988,0.5235987755982988,0,-0.5275565,0.21531387,1.1227727,0.63227683,0.50357336,0.66792417,0.038587403,-1.1665204,0.07831814,0.60337126,0.2335861,-0.42722303,0.78226334,-0.9418423
-0.1,-0.1,1.1999999999999997,0.5235987755982988,0.5235987755982988,0,-0.5256647,0.23970866,1.1195102,0.63256806,0.48535702,0.67357236,0.032239594,-1.1676471,0.091311365,0.4611434,0.26066127,-0.056937244,0.8853502,0.57464194
-0.1,-0.1,1.1999999999999997,0.5235987755982988,0.5235987755982988,0,-0.5267806,0.22533442,1.1169863,0.6343228,0.49950427,0.66815716,-0.014926782,-1.171418,0.081390545,0.6169898,0.07106362,-0.7851391,0.85497534,-0.18076476
-0.1,-0.1,1.1999999999999997,0.5235987755982988,0.5235987755982988,0,-0.5286756,0.21406238,1.1245065,0.6320527,0.5069694,0.67640364,0.022567589,-1.1772919,0.08327391,0.6417835,0.08806695,-0.8233592,0.7143908,-1.6951818
-0.1,-0.1,1.1999999999999997,0.5235987755982988,0.5235987755982988,0,-0.5217739,0.21636985,1.1206172,0.6375617,0.48007557,0.66894364,0.091534115,-1.1725128,0.069927104,0.09302279,0.21581727,-0.27403212,0.9759413,-2.5843072
-0.1,-0.1,1.1999999999999997,0.5235987755982988,0.5235987755982988,0,-0.52883583,0.20619158,1.1226367,0.63244075,0.49688897,0.6702327,-0.01213944,-1.1639204,0.078904375,0.15452163,0.1924701,-0.5067356,0.9679979,-0.1519617
-0.1,-0.1,1.1999999999999997,0.5235987755982988,0.5235987755982988,0,-0.5249477,0.22128703,1.1179053,0.6317553,0.49497557,0.66217184,0.02947554,-1.17092,0.10105832,0.4362971,0.29046243,-0.53393054,0.53886884,-1.0154237
-0.1,-0.1,1.1999999999999997,0.5235987755982988,0.5235987755982988,0,-0.5237068,0.21558,1.1218885,0.63405865,0.4905955,0.66894805,-0.011569715,-1.1757646,0.08952747,0.6503438,0.32327652,-0.9742605,0.9079294,-0.14872551
-0.1,-0.1,1.1999999999999997,0.5235987755982988,0.5235987755982988,0,-0.5290975,0.20360975,1.1240759,0.63245827,0.4841867,0.6695267,0.017060451,-1.1675727,0.08245348,0.5614617,0.11249092,-0.45123437,0.98089415,-1.5490732
-0.1,-0.1,1.1999999999999997,0.5235987755982988,0.5235987755982988,0,-0.527894,0.2120432,1.1214918,0.630623,0.5095582,0.6681653,0.10958566,-1.1787531,0.09404296,0.0021195726,0.23341085,-0.4222638,0.8931436,-0.15865955
-0.1,-0.1,1.1999999999999997,0.5235987755982988,0.5235987755982988,0,-0.52492696,0.22466576,1.1197696,0.63328105,0.49571046,0.6677683,0.07181234,-1.1651573,0.08008866,0.62210536,0.08888103,-1.2969058,0.7792509,-2.1457882
-0.1,-0.1,1.1999999999999997,0.5235987755982988,0.5235987755982988,0,-0.52679706,0.22603473,1.1223655,0.6345146,0.4934431,0.6659712,0.030763602,-1.1664374,0.0948177,0.52292633,0.2497971,-0.9016377,0.7344288,-2.0685487
-0.1,-0.1,1.1999999999999997,0.5235987755982988,0.5235987755982988,0,-0.5239158,0.231976,1.1206605,0.6303526,0.484044,0.6750943,0.08353887,-1.1769809,0.08782813,0.4048043,0.035319384,0.16219583,0.91988826,-1.1572267
-0.1,-0.1,1.1999999999999997,0.5235987755982988,0.5235987755982988,0,-0.526599,0.22069752,1.1215527,0.63256323,0.49928722,0.6661418,0.11731534,-1.1627225,0.087580904,0.5453087,0.23694445,0.13920638,0.74358636,-0.191672
-0.1,-0.1,1.1999999999999997,0.5235987755982988,0.5235987755982988,0,-0.5231419,0.21496947,1.1199636,0.6305133,0.46465144,0.6699514,0.07878675,-1.1770254,0.08892842,0.147216,0.42026508,-0.09623675,0.82224315,-0.40096936
-0.1,-0.1,1.1999999999999997,0.5235987755982988,0.5235987755982988,0,-0.52390575,0.2207673,1.1211933,0.635475,0.48392,0.6655504,0.10376867,-1.1740671,0.095639214,0.62283987,0.025361193,-0.52803946,0.9307823,-1.1095426
-0.1,-0.1,1.1999999999999997,0.5235987755982988,0.5235987755982988,0,-0.5215224,0.20624818,1.1198071,0.6324082,0.49077603,0.673871,0.03254448,-1.1764246,0.08428258,0.49680153,0.16560587,-1.2002985,0.47797891,0.11369109
-0.1,-0.1,1.1999999999999997,0.5235987755982988,0.5235987755982988,0,-0.5216686,0.22725432,1.1229281,0.6325988,0.49725002,0.6685937,0.07957428,-1.1729659,0.08778752,0.47592825,0.22259817,-0.4719574,0.87194276,-0.30723387
-0.1,-0.1,1.1999999999999997,0.5235987755982988,0.5235987755982988,0,-0.5302574,0.21794611,1.1210339,0.6334945,0.4875116,0.67319274,0.042720586,-1.1631768,0.07255973,0.40771583,0.24067211,-1.0603533,1.00968,-0.04200226
-0.1,-0.1,1.1999999999999997,0.5235987755982988,0.5235987755982988,0,-0.5223484,0.21567397,1.1207148,0.63337237,0.50745904,0.6653076,0.044585858,-1.162056,0.08715269,0.25247428,0.13736078,-0.05177074,0.68169874,0.7442733
-0.1,-0.1,1.1999999999999997,0.5235987755982988,0.5235987755982988,0,-0.52811825,0.23380528,1.1268038,0.6302357,0.50629103,0.6639625,0.019436195,-1.1768163,0.082687736,0.48752305,0.33800036,-0.075358436,0.78905946,-0.55609477
-0.1,-0.1,1.1999999999999997,0.5235987755982988,0.5235987755982988,0,-0.52513415,0.23550306,1.1212466,0.63345855,0.4988331,0.6678772,0.02827951,-1.1677521,0.07687897,0.37364537,-0.015627878,-0.8038152,0.99982494,-1.1775721
-0.1,-0.1,1.1999999999999997,0.5235987755982988,0.5235987755982988,0,-0.5279213,0.2217922,1.1175954,0.63275605,0.4786111,0.6680635,0.066077515,-1.1644126,0.08557678,0.3767364,0.23449278,0.21877192,0.90625805,0.22095247
-0.1,-0.1,1.1999999999999997,0.5235987755982988,0.5235987755982988,0,-0.5228406,0.22435577,1.1224655,0.6338255,0.5186798,0.6675706,0.030284133,-1.1652219,0.097544745,0.50091606,0.25356197,-0.66133994,0.95668685,-0.33628035
-0.1,-0.1,1.1999999999999997,0.5235987755982988,0.5235987755982988,0,-0.5232969,0.21962175,1.1187191,0.63484484,0.48739803,0.67057097,0.0648898,-1.1646187,0.08177478,0.53300256,0.21032138,-0.7303312,0.89694923,-0.3805772
-0.1,-0.1,1.1999999999999997,0.5235987755982988,0.5235987755982988,0,-0.52578855,0.22529966,1.1208181,0.63439095,0.50637466,0.6671087,0.019768894,-1.1629578,0.075767934,0.31708378,0.3760762,-0.7925809,0.9405053,-0.5769347
-0.1,-0.1,1.1999999999999997,0.5235987755982988,0.5235987755982988,0,-0.52509993,0.21815906,1.1185468,0.63374346,0.51015633,0.67248446,0.012068746,-1.1784126,0.10381791,0.45963648,0.34562966,-0.64244276,0.96494293,0.3745457
-0.1,-0.1,1.1999999999999997,0.5235987755982988,0.5235987755982988,0,-0.5278793,0.23579144,1.1219789,0.6336147,0.51808983,0.66589385,0.069140255,-1.1670971,0.08735356,0.19727159,0.2898581,-1.0690213,0.89524096,0.01418805
-0.1,-0.1,1.1999999999999997,0.5235987755982988,0.5235987755982988,0,-0.5284357,0.21169247,1.1177572,0.6341482,0.5030895,0.67160064,0.095133565,-1.182462,0.08672816,1.0636959,0.36625463,-1.0046972,0.8602136,-0.19429012
-0.1,-0.1,1.1999999999999997,0.5235987755982988,0.5235987755982988,0,-0.5252056,0.21302857,1.1219492,0.63162214,0.48275095,0.6715323,0.030832294,-1.16585,0.085766405,0.5080829,0.0573747,-0.1389229,1.0130963,0.0037848984
-0.1,-0.1,1.1999999999999997,0.5235987755982988,0.5235987755982988,0,-0.52764046,0.22732742,1.1207803,0.63198143,0.52744895,0.6716392,0.00034724557,-1.1681871,0.09201642,0.4969955,0.36721516,-0.6111584,1.0754855,-1.0175683
-0.1,-0.1,1.1999999999999997,0.5235987755982988,0.5235987755982988,0,-0.52448916,0.22289291,1.11899,0.6312452,0.52093387,0.6709529,0.025030034,-1.181618,0.08136294,0.39217943,0.17733799,-0.5979404,0.8828607,-0.6915365
-0.1,-0.1,1.1999999999999997,0.5235987755982988,0.5235987755982988,0,-0.5260038,0.20976809,1.1227708,0.63179904,0.50627965,0.67099804,-0.0046512242,-1.1716526,0.08715952,0.4641935,-0.006205715,-0.070484005,0.9996922,-0.7075658
-0.1,-0.1,1.1999999999999997,0.5235987755982988,0.5235987755982988,0,-0.52416766,0.2161926,1.1214086,0.6325378,0.4914326,0.6719787,0.073313855,-1.1804184,0.084068574,0.4711224,0.13921054,-1.2647296,0.6878386,-1.371868
-0.1,-0.1,1.1999999999999997,0.5235987755982988,0.5235987755982988,0,-0.5238445,0.24953605,1.1202685,0.63438684,0.4894716,0.6747953,0.07486273,-1.1755357,0.10033124,0.7323518,0.20878251,0.17846964,0.92022955,-0.47970253
-0.1,-0.1,1.1999999999999997,0.5235987755982988,0.5235987755982988,0,-0.52590287,0.21138048,1.1194353,0.63414514,0.49006465,0.6735326,0.04282349,-1.1762478,0.08292808,0.28249928,0.31280637,-0.06932531,0.79563886,-0.24260086
-0.1,-0.1,1.1999999999999997,0.5235987755982988,0.5235987755982988,0,-0.52456844,0.21571958,1.1167111,0.6351537,0.48743996,0.66833377,0.082486466,-1.1652055,0.08385218,0.10912853,0.17582242,-1.6469588,0.9295399,-1.5480565
-0.1,-0.1,1.1999999999999997,0.5235987755982988,0.5235987755982988,0,-0.52896875,0.19942483,1.1197141,0.6344028,0.4929589,0.67023027,0.091006875,-1.168764,0.0792324,0.7930209,0.39360437,-0.6429393,1.016776,-1.1105019
-0.1,-0.1,1.1999999999999997,0.5235987755982988,0.5235987755982988,0,-0.5243519,0.22622657,1.1181427,0.63217866,0.5174866,0.67323905,0.05271515,-1.1607802,0.08960878,0.5039512,0.12627691,-0.16823043,0.7563106,-0.6202626
-0.1,-0.1,1.1999999999999997,0.5235987755982988,0.5235987755982988,0,-0.52375144,0.2278927,1.1185998,0.6333922,0.49449188,0.6716421,0.038593553,-1.1633734,0.082191564,0.41153994,0.33068758,-0.5650135,0.80656916,1.4628819
-0.1,-0.1,1.1999999999999997,0.5235987755982988,0.5235987755982988,0,-0.52368134,0.21631043,1.118983,0.633237,0.4855197,0.6669507,0.02969661,-1.1781218,0.0939687,0.54701984,0.20978731,-0.37820578,0.7312448,-0.5250896
-0.1,-0.1,1.1999999999999997,0.5235987755982988,0.5235987755982988,0,-0.52423704,0.2291633,1.1208817,0.6365207,0.53792244,0.66249025,-0.05300162,-1.1641271,0.07379171,0.6708977,0.1498138,-0.92099655,0.8269429,0.21115221
-0.1,-0.1,1.1999999999999997,0.5235987755982988,0.5235987755982988,0,-0.5251888,0.21815795,1.120226,0.63383853,0.47598216,0.6711994,0.0394068,-1.1667567,0.080217294,0.104965255,0.17642444,-0.12544031,1.2416353,-2.0344489
-0.1,-0.1,1.1999999999999997,0.5235987755982988,0.5235987755982988,0,-0.52938735,0.23241316,1.1237909,0.63405126,0.4730353,0.6738857,0.0366982,-1.1704819,0.0846745,0.5854258,0.18849935,-0.32096884,0.8297555,0.087347105
-0.1,-0.1,1.1999999999999997,0.5235987755982988,0.5235987755982988,0,-0.52653867,0.21557912,1.1225011,0.63614494,0.5022244,0.6698751,0.029317573,-1.1654568,0.089829184,0.19290559,0.14195997,-0.29983637,0.7272359,-2.5388675
-0.1,-0.1,1.1999999999999997,0.5235987755982988,0.5235987755982988,0,-0.5263899,0.22053373,1.1195973,0.63314843,0.51200455,0.6663961,0.046256408,-1.1608478,0.08869639,0.61268795,0.29264632,-1.3341714,1.1626455,-0.8094245
-0.1,-0.1,1.1999999999999997,0.5235987755982988,0.5235987755982988,0,-0.5271925,0.21005449,1.1245055,0.6347669,0.49464864,0.6714286,0.09921086,-1.1672585,0.08887819,0.45823035,0.12598535,-0.8317871,0.99737436,-2.7834113
-0.1,-0.1,1.1999999999999997,0.5235987755982988,0.5235987755982988,0,-0.52366686,0.22023825,1.117576,0.63611585,0.4896085,0.6701763,0.021515727,-1.1705848,0.086761735,0.36253938,0.3666053,-0.34942994,0.9348658,-1.4120357
-0.1,-0.1,1.1999999999999997,0.5235987755982988,0.5235987755982988,0,-0.52457464,0.2170459,1.1205227,0.6342254,0.48802397,0.6658429,0.039406385,-1.1696615,0.0890894,0.21011595,0.19710581,-0.5410452,0.8745193,-1.387029
-0.1,-0.1,1.1999999999999997,0.5235987755982988,0.5235987755982988,0,-0.5269681,0.22511722,1.120024,0.63028175,0.50448847,0.671993,0.14979632,-1.1581725,0.08423854,0.29439986,0.3007773,-0.43444312,1.031754,-0.21824712
-0.1,-0.1,1.1999999999999997,0.5235987755982988,0.5235987755982988,0,-0.5248183,0.19490479,1.1239536,0.6337755,0.5110733,0.6693208,0.100917414,-1.1785488,0.08834451,0.37469324,0.15088017,-0.30006325,0.8951919,-1.0529459
-0.1,-0.1,1.1999999999999997,0.5235987755982988,0.5235987755982988,0,-0.5246457,0.22967842,1.1184103,0.6315251,0.49188638,0.6722679,0.09020796,-1.1752791,0.09767983,0.51041114,0.2813821,-0.92768925,1.0677819,-0.86344415
-0.1,-0.1,1.1999999999999997,0.5235987755982988,0.5235987755982988,0,-0.5268965,0.21927707,1.1218933,0.6323707,0.46634737,0.66795015,0.044350624,-1.1788776,0.09583573,0.5532371,0.22304004,-0.85902786,0.7819638,-2.691763
-0.1,-0.1,1.1999999999999997,0.5235987755982988,0.5235987755982988,0,-0.5227445,0.22519852,1.1213915,0.6339883,0.49975538,0.6642482,0.081305176,-1.1622219,0.0572672,0.39711013,0.5428123,-0.71617985,0.84150237,0.475758
-0.1,-0.1,1.1999999999999997,0.5235987755982988,0.5235987755982988,0,-0.52431184,0.2102955,1.1167163,0.6322618,0.47780368,0.6709265,0.09415473,-1.1736944,0.08657471,0.43199214,0.04466666,-0.55382985,0.83302706,0.6146531
-0.1,-0.1,1.1999999999999997,0.5235987755982988,0.5235987755982988,0,-0.5249514,0.2449833,1.1200962,0.6327868,0.49772248,0.6690074,-0.0146907605,-1.1674999,0.08888857,0.68039286,0.16946523,-0.38827956,0.9046982,-1.0478601
-0.1,-0.1,1.1999999999999997,0.5235987755982988,0.5235987755982988,0,-0.5254511,0.20884977,1.1235746,0.6333222,0.48236877,0.6707876,0.04182783,-1.1710876,0.0846808,0.7427483,0.16490215,-0.9322065,0.9498832,-0.82041526
-0.1,-0.1,1.1999999999999997,0.5235987755982988,0.5235987755982988,0,-0.52419263,0.21791367,1.1194185,0.6308909,0.5071391,0.6709482,0.079179086,-1.1621637,0.08602438,0.44475722,0.34739512,-1.5111907,0.7965353,-0.9336776
-0.1,-0.1,1.1999999999999997,0.5235987755982988,0.5235987755982988,0,-0.5264129,0.2433035,1.1202242,0.63085157,0.51378936,0.6705256,0.0014276056,-1.1595516,0.07121801,0.0152955735,0.13788812,-1.3382566,0.7360283,0.22095433
-0.1,-0.1,1.1999999999999997,0.5235987755982988,0.5235987755982988,0,-0.5231598,0.2129363,1.1195402,0.634233,0.5246091,0.66714287,0.047168124,-1.1780413,0.08737923,0.61119163,0.5061506,-0.9257527,1.088318,-0.69693786
-0.1,-0.1,1.1999999999999997,0.5235987755982988,0.5235987755982988,0,-0.52085197,0.21688928,1.1186507,0.63065964,0.50080645,0.669808,0.05400965,-1.1674037,0.08815636,0.20394146,0.25078222,-1.0838193,1.0019113,-0.6234672
-0.1,-0.1,1.1999999999999997,0.5235987755982988,0.5235987755982988,0,-0.5252239,0.23283222,1.1242088,0.6352939,0.4866711,0.6750975,0.08630241,-1.164235,0.072664015,0.4229342,0.33020967,-1.1618102,0.9276872,0.7375431
-0.1,-0.1,1.1999999999999997,0.5235987755982988,0.5235987755982988,0,-0.52251685,0.22632693,1.1228479,0.63228893,0.47977844,0.6674013,0.050775617,-1.1749271,0.093469694,0.5815926,0.18105088,-0.6839158,0.8216835,-0.8737917
-0.1,-0.1,1.1999999999999997,0.5235987755982988,0.5235987755982988,0,-0.5278219,0.21494806,1.1227136,0.6344741,0.5082298,0.6687594,0.028099772,-1.1644397,0.08983802,0.3630924,-0.0049762484,-0.44461456,0.8069786,-1.2019962
-0.1,-0.1,1.1999999999999997,0.5235987755982988,0.5235987755982988,0,-0.5282242,0.22979264,1.1271749,0.6317256,0.48574203,0.6666401,0.027705299,-1.1729417,0.10343087,0.41990292,0.31383902,-1.7556165,0.5648889,-1.3289126
-0.1,-0.1,1.1999999999999997,0.5235987755982988,0.5235987755982988,0,-0.5244567,0.2050936,1.1262226,0.6321765,0.5061664,0.6665973,0.0558823,-1.165948,0.085460514,0.3677741,0.008100328,-1.6901747,0.9808426,-1.3069105
-0.1,-0.1,1.1999999999999997,0.5235987755982988,0.5235987755982988,0,-0.52672875,0.22009376,1.1216922,0.63304275,0.48914132,0.66955024,0.038748793,-1.1605645,0.08235113,0.6421686,0.29530284,-0.6983813,0.77739185,-0.73970246
-0.1,-0.1,1.1999999999999997,0.5235987755982988,0.5235987755982988,0,-0.5262753,0.23062935,1.1212108,0.6300956,0.49059004,0.67177594,0.0006434517,-1.1562797,0.079711646,0.49839327,0.07070836,-0.4889137,0.75040346,-0.32095715
-0.1,-0.1,1.1999999999999997,0.5235987755982988,0.5235987755982988,0,-0.52578974,0.21968298,1.1166859,0.6338578,0.50643355,0.6723275,0.09164624,-1.1638895,0.09574834,0.76223946,-0.04788943,-0.46189088,0.75021696,-2.042268
-0.1,-0.1,1.1999999999999997,0.5235987755982988,0.5235987755982988,0,-0.52472043,0.22621526,1.1229825,0.63266426,0.48653722,0.6745734,-0.03804175,-1.1554346,0.08393058,0.6426976,0.2958053,-0.52972543,0.8139798,-1.2783109
-0.1,-0.1,1.1999999999999997,0.5235987755982988,0.5235987755982988,0,-0.5259375,0.23139156,1.1219275,0.63444936,0.50349385,0.67343694,0.15608816,-1.172276,0.09205813,0.41874865,0.2749746,-0.67659295,0.8399245,-2.8565798
-0.1,-0.1,1.1999999999999997,0.5235987755982988,0.5235987755982988,0,-0.5288604,0.2134965,1.1235565,0.6339498,0.48339418,0.66727895,0.101806395,-1.1626744,0.08354437,0.095426835,0.26698485,0.026352296,0.9665447,-1.1585313
-0.1,-0.1,1.1999999999999997,0.5235987755982988,0.5235987755982988,0,-0.5280045,0.22273584,1.1226418,0.6325082,0.50737613,0.67388165,0.02641444,-1.167807,0.07465896,0.44395685,0.2469967,-0.98488015,0.8772616,0.260831
-0.1,-0.1,1.1999999999999997,0.5235987755982988,0.5235987755982988,0,-0.5217882,0.23064737,1.1241709,0.6339555,0.5220043,0.6742718,0.077760644,-1.1629077,0.07395778,0.6460118,0.08109295,-0.93567854,1.0333451,-1.0848818
-0.1,-0.1,1.1999999999999997,0.5235987755982988,0.5235987755982988,0,-0.5270193,0.2089208,1.1178024,0.63389033,0.48684388,0.67070377,0.025257703,-1.1677526,0.095302105,-0.06665556,0.29095462,-0.5793248,1.0073545,-0.012880927
-0.1,-0.1,1.1999999999999997,0.5235987755982988,0.5235987755982988,0,-0.5291924,0.20095864,1.122401,0.6332611,0.49102226,0.6724507,0.021960516,-1.1716913,0.089524314,-0.115490854,0.22758302,-0.51420873,0.9182427,-0.9200124
-0.1,-0.1,1.1999999999999997,0.5235987755982988,0.5235987755982988,0,-0.5281485,0.2133337,1.1194133,0.6354959,0.49919206,0.6740006,0.031287927,-1.1645228,0.06110584,0.38111213,0.39088055,-0.5510132,0.9563233,-0.52154624
-0.1,-0.1,1.1999999999999997,0.5235987755982988,0.5235987755982988,0,-0.5267912,0.21570976,1.1218966,0.6325678,0.4807712,0.67015666,0.040352758,-1.1629093,0.07599719,0.35069555,0.33261225,0.10278272,0.8641288,-0.7258741
-0.1,-0.1,1.1999999999999997,0.5235987755982988,0.5235987755982988,0,-0.525962,0.22091208,1.1241629,0.6322683,0.5163586,0.668993,0.015455703,-1.1771549,0.08710482,0.7570573,0.05367704,-0.7728137,0.97158676,-0.93175346
-0.1,-0.1,1.1999999999999997,0.5235987755982988,0.5235987755982988,0,-0.52563375,0.21621369,1.1213901,0.6328213,0.5053163,0.671338,0.035844915,-1.1686269,0.105697975,0.56104815,0.0014809949,-0.63223606,0.93557465,-0.86431485
-0.1,-0.1,1.1999999999999997,0.5235987755982988,0.5235987755982988,0,-0.52441263,0.21647121,1.1186539,0.6340204,0.5075962,0.6690049,0.0781444,-1.1654282,0.08527663,0.031090828,0.3385199,-0.62485284,0.96165484,0.772149
-0.1,-0.1,1.1999999999999997,0.5235987755982988,0.5235987755982988,0,-0.5247815,0.23505682,1.118095,0.6325226,0.5097772,0.6663987,0.05604446,-1.1662583,0.09207888,0.09816433,0.03948147,-0.65399295,0.8105874,-1.0677876
-0.1,-0.1,1.1999999999999997,0.5235987755982988,0.5235987755982988,0,-0.5253223,0.22477955,1.1245059,0.6325451,0.50112766,0.6701195,0.032395877,-1.1715151,0.067082524,0.2591757,0.15828665,-0.38002726,0.6861465,-1.0683662
-0.1,-0.1,1.1999999999999997,0.5235987755982988,0.5235987755982988,0,-0.5290354,0.22006501,1.1211112,0.6333732,0.4976201,0.6722923,0.05156644,-1.1677963,0.07910133,0.5499339,0.3949356,-0.43455094,0.9334654,-0.91030383
-0.1,-0.1,1.1999999999999997,0.5235987755982988,0.5235987755982988,0,-0.52703017,0.21465921,1.1218683,0.6348605,0.46206436,0.67006886,0.008008505,-1.1617066,0.09378669,0.18365833,0.11378056,-0.29676154,0.74820733,-1.1519094
-0.1,-0.1,1.1999999999999997,0.5235987755982988,0.5235987755982988,0,-0.5265846,0.2296731,1.1190711,0.6347036,0.49541706,0.6690199,0.060817238,-1.1646135,0.0851949,0.36791575,-0.018817976,-0.68298346,0.9074257,-0.26353678
-0.1,-0.1,1.1999999999999997,0.5235987755982988,0.5235987755982988,0,-0.52308756,0.20926693,1.1173744,0.6335982,0.50493985,0.6746471,-0.024727048,-1.1744939,0.08031766,0.53265584,0.33419532,-0.16581814,0.9788773,-0.8303756
-0.1,-0.1,1.1999999999999997,0.5235987755982988,0.5235987755982988,0,-0.52568877,0.21390386,1.1177891,0.6319025,0.5109845,0.6717411,0.020643674,-1.1644329,0.08861727,0.12642099,0.07658016,0.5309902,1.0759343,-1.3829526
-0.1,-0.1,1.1999999999999997,0.5235987755982988,0.5235987755982988,0,-0.5269855,0.21611384,1.1270342,0.6318654,0.49032745,0.6712382,0.032978095,-1.1700869,0.08722689,0.30956343,0.20183535,-1.2328551,1.0753875,-1.5992014
-0.1,-0.1,1.1999999999999997,0.5235987755982988,0.5235987755982988,0,-0.5234789,0.2047583,1.1246833,0.63228184,0.4808379,0.6725794,0.08314002,-1.178492,0.08222206,0.45304346,0.1961158,-0.5793966,0.9165578,-1.4270723
-0.1,-0.1,1.1999999999999997,0.5235987755982988,0.5235987755982988,0,-0.5267315,0.2218021,1.1230487,0.63366914,0.48519552,0.6728039,0.0007781608,-1.1741127,0.07763113,0.70749754,0.10096492,-0.41250625,0.80643696,-0.7218851
-0.1,-0.1,1.1999999999999997,0.5235987755982988,0.5235987755982988,0,-0.5258488,0.21851386,1.120975,0.6344353,0.4704392,0.6684603,-0.007288524,-1.1666337,0.08158975,0.19706832,0.13778974,-0.5390712,0.95408183,-0.37223247
-0.1,-0.1,1.1999999999999997,0.5235987755982988,0.5235987755982988,0,-0.5308771,0.22457081,1.121019,0.63258237,0.50589216,0.67210174,0.08370158,-1.1762006,0.10182892,-0.10987482,0.3135488,-0.49993852,1.0011691,-0.27261823
-0.1,-0.1,1.1999999999999997,0.5235987755982988,0.5235987755982988,0,-0.52496606,0.22100137,1.1226101,0.6335803,0.5180671,0.6684842,0.07151492,-1.1612417,0.097953185,0.74802715,0.11561542,-1.0662075,0.76289856,-0.72211784
-0.1,-0.1,1.1999999999999997,0.5235987755982988,0.5235987755982988,0,-0.52428037,0.21460511,1.1195896,0.6312457,0.52019715,0.6714659,0.054793358,-1.1716199,0.06829463,0.68314207,0.2449951,-0.90548617,0.90250653,-0.26968732
-0.1,-0.1,1.1999999999999997,0.5235987755982988,0.5235987755982988,0,-0.52499,0.22218272,1.1236216,0.63497144,0.5052179,0.666558,0.10568119,-1.1701928,0.09834562,0.48614416,0.16809073,-0.89062965,0.93505305,-0.42919028
-0.1,-0.1,1.1999999999999997,0.5235987755982988,0.5235987755982988,0,-0.52233076,0.23309171,1.1212597,0.6335495,0.48904514,0.67131597,0.13521801,-1.1644768,0.0818549,-0.0450821,0.10422713,-0.04274496,0.98784983,-0.30849552
-0.1,-0.1,1.1999999999999997,0.5235987755982988,0.5235987755982988,0,-0.52559346,0.2347526,1.1212682,0.6320166,0.5187935,0.66682935,0.057843704,-1.15615,0.09696756,0.30045605,0.06982678,-1.4800117,1.0029114,-1.0503126
-0.1,-0.1,1.1999999999999997,0.5235987755982988,0.5235987755982988,0,-0.5271479,0.23486747,1.1244538,0.6321385,0.5249868,0.6675719,0.030748911,-1.1621825,0.08681617,-0.0449269,0.2506926,-0.003529302,1.0218818,-1.4922608
-0.1,-0.1,1.1999999999999997,0.5235987755982988,0.5235987755982988,0,-0.527885,0.22045802,1.1222237,0.63208133,0.47915137,0.6777053,0.015749965,-1.1628829,0.0785547,0.7093604,0.2903584,-0.6781527,1.0958089,0.12754533
-0.1,-0.1,1.1999999999999997,0.5235987755982988,0.5235987755982988,0,-0.5275419,0.21715984,1.1166226,0.63230634,0.50868386,0.6709181,0.11653698,-1.1783444,0.10075583,0.35300478,0.041475113,-0.79633033,0.9317632,-1.6975535
-0.1,-0.1,1.1999999999999997,0.5235987755982988,0.5235987755982988,0,-0.52610934,0.21579614,1.1204411,0.63416314,0.516732,0.6691071,0.0020041522,-1.1667978,0.08939957,0.36956373,0.12784006,-0.27091014,0.80238515,-0.30939907
-0.1,-0.1,1.1999999999999997,0.5235987755982988,0.5235987755982988,0,-0.52574927,0.22423808,1.1181611,0.63511115,0.48678207,0.67498106,0.0113607105,-1.1681314,0.072787985,0.33672675,0.23472649,-0.890987,1.0818553,-0.5681591
-0.1,-0.1,1.1999999999999997,0.5235987755982988,0.5235987755982988,0,-0.5240289,0.23213468,1.121638,0.63355696,0.49078742,0.67184603,0.016322725,-1.1728004,0.09078835,0.56799227,0.46838018,-0.8977385,0.97111475,-2.0244682
-0.1,-0.1,1.1999999999999997,0.5235987755982988,0.5235987755982988,0,-0.52476376,0.22378834,1.1234006,0.63047564,0.48920193,0.6671397,0.036722142,-1.167815,0.091411665,0.45455903,0.18283305,0.04762785,0.94477403,-1.6504741
-0.1,-0.1,1.1999999999999997,0.5235987755982988,0.5235987755982988,0,-0.5233252,0.22734545,1.1218616,0.63252676,0.48559985,0.67283654,0.081245854,-1.1726974,0.1001592,0.35484383,0.2955821,-0.80001163,0.9346846,-0.47266984
-0.1,-0.1,1.1999999999999997,0.5235987755982988,0.5235987755982988,0,-0.524014,0.22119366,1.1191059,0.6331493,0.48605314,0.6699143,0.060465142,-1.1691409,0.083900504,-0.03976272,0.3899612,-0.85321724,0.8786658,0.5806168
-0.1,-0.1,1.1999999999999997,0.5235987755982988,0.5235987755982988,0,-0.5280527,0.21405955,1.1232474,0.6337093,0.5001457,0.6702464,-0.003973491,-1.1728091,0.09949923,0.70696914,0.24629003,-1.2928869,0.9167243,0.059488256
-0.1,-0.1,1.1999999999999997,0.5235987755982988,0.5235987755982988,0,-0.52421856,0.22846575,1.1229728,0.6347165,0.48672265,0.6684261,0.033698447,-1.1734756,0.09389972,0.75419796,0.036799353,-0.93321717,1.0389444,-0.4011762
-0.1,-0.1,1.1999999999999997,0.5235987755982988,0.5235987755982988,0,-0.52593094,0.22179219,1.1211158,0.6307837,0.5093885,0.67277193,0.0625962,-1.1703036,0.093474925,0.46479076,0.16232844,-1.2756938,0.92232937,-1.2540016
-0.1,-0.1,1.1999999999999997,0.5235987755982988,0.5235987755982988,0,-0.52616507,0.23654298,1.1253669,0.633266,0.5292044,0.66638047,0.020930907,-1.1635698,0.09037635,0.3899509,0.31239355,-0.6024654,0.8455288,-0.55654
-0.1,-0.1,1.1999999999999997,0.5235987755982988,0.5235987755982988,0,-0.52682304,0.22732152,1.120584,0.63585347,0.50839686,0.6633841,0.08796827,-1.1665996,0.09400509,0.39548928,0.18787853,-1.2092866,1.0324469,-0.0446876
-0.1,-0.1,1.1999999999999997,0.5235987755982988,0.5235987755982988,0,-0.52625984,0.234457,1.1202666,0.63358825,0.51755,0.66653365,0.002904826,-1.1652321,0.09396786,0.6402072,0.29395312,-0.8377585,0.89554465,-1.3656942
-0.1,-0.1,1.1999999999999997,0.5235987755982988,0.5235987755982988,0,-0.5263255,0.2242392,1.1173286,0.63087845,0.50746757,0.66858953,0.07465804,-1.1664987,0.08366102,0.3032999,0.25206375,-1.0526844,0.93974197,-0.7097951
-0.1,-0.1,1.1999999999999997,0.5235987755982988,0.5235987755982988,0,-0.52694446,0.21027473,1.1246657,0.6365646,0.5193486,0.6702807,0.042659406,-1.1507279,0.0709389,0.35793564,0.5163781,-1.1224529,0.926603,-1.4958657
-0.1,-0.1,1.1999999999999997,0.5235987755982988,0.5235987755982988,0,-0.5246291,0.23055941,1.1220614,0.6323968,0.47624087,0.6683311,0.106694065,-1.1815368,0.08307587,-0.053025156,0.3589467,-0.7897371,1.1135453,-0.68377197
-0.1,-0.1,1.1999999999999997,0.5235987755982988,0.5235987755982988,0,-0.52382123,0.20947248,1.1228844,0.6327968,0.5074663,0.67532,0.034675326,-1.1678717,0.09424888,0.6124814,0.25490427,-0.80464375,0.7001975,-0.17652063
-0.1,-0.1,1.1999999999999997,0.5235987755982988,0.5235987755982988,0,-0.52644247,0.2140813,1.1222534,0.6349282,0.5065202,0.6592574,0.06837228,-1.1607412,0.09137724,0.092953235,0.18694758,0.08863868,1.1865185,-2.157139
-0.1,-0.1,1.1999999999999997,0.5235987755982988,0.5235987755982988,0,-0.5239479,0.1989228,1.1214788,0.632933,0.50174814,0.66978455,-0.019197213,-1.1735468,0.098882236,0.33551502,0.09013406,-1.0290042,0.72792584,-0.6559892
-0.1,-0.1,1.1999999999999997,0.5235987755982988,0.5235987755982988,0,-0.5261099,0.21366711,1.122153,0.6367586,0.5153276,0.6698562,0.08569665,-1.161856,0.09473283,0.23658353,0.14625283,-0.49664727,1.0620577,-1.3719782
-0.1,-0.1,1.1999999999999997,0.5235987755982988,0.5235987755982988,0,-0.52800184,0.22981626,1.1183033,0.63295096,0.49826664,0.67473084,0.021585822,-1.16336,0.08826159,0.48935592,0.19410194,-0.72044367,0.91484654,-0.52654266
-0.1,-0.1,1.1999999999999997,0.5235987755982988,0.5235987755982988,0,-0.5246369,0.21657583,1.125618,0.6331033,0.5274592,0.67031354,0.05245541,-1.1662518,0.084120855,0.3123015,0.3490366,-0.39715406,1.0217495,-2.48172
-0.1,-0.1,1.1999999999999997,0.5235987755982988,0.5235987755982988,0,-0.5256764,0.23110387,1.1243298,0.63300574,0.499361,0.6626885,0.04026702,-1.1766913,0.097289875,0.34490624,0.23615459,-0.47126666,0.97227305,-1.0004537
-0.1,-0.1,1.1999999999999997,0.5235987755982988,0.5235987755982988,0,-0.5257195,0.21202394,1.1203749,0.6321382,0.5359018,0.6735056,0.06580038,-1.1688228,0.09931264,0.19194107,0.2955435,0.2005891,0.908219,-1.9958693
-0.1,-0.1,1.1999999999999997,0.5235987755982988,0.5235987755982988,0,-0.5253266,0.20613068,1.1230772,0.6351587,0.4872118,0.67480385,0.01948628,-1.1737685,0.08193552,0.8309367,0.44562784,-0.56615865,1.0615163,-0.43736595
-0.1,-0.1,1.1999999999999997,0.5235987755982988,0.5235987755982988,0,-0.5222907,0.21960738,1.1221095,0.6318557,0.52128375,0.6627252,0.13462053,-1.1782945,0.09801792,0.5098373,0.16609673,-0.4683531,1.0107435,-0.16658263
-0.1,-0.1,1.1999999999999997,0.5235987755982988,0.5235987755982988,0,-0.5226628,0.23947674,1.1195762,0.63557094,0.5029464,0.6674186,0.02473344,-1.174018,0.08498127,0.42102328,0.16446027,0.094843954,1.0582052,0.7570071
-0.1,-0.1,1.1999999999999997,0.5235987755982988,0.5235987755982988,0,-0.5266776,0.21224664,1.1224152,0.6354798,0.5049718,0.6721372,0.013843498,-1.1758064,0.09431475,0.37604278,0.32056758,-0.89966273,0.79603904,0.37687448
-0.1,-0.1,1.1999999999999997,0.5235987755982988,0.5235987755982988,0,-0.52746636,0.2023004,1.1189125,0.63376236,0.4942868,0.671495,0.03456856,-1.174449,0.09437891,0.4461716,0.43656862,-0.7389629,1.0336827,-1.178733
-0.1,-0.1,1.1999999999999997,0.5235987755982988,0.5235987755982988,0,-0.53075176,0.21901779,1.1218237,0.6360158,0.48740968,0.67210364,0.1657783,-1.1633143,0.08742747,0.32335758,0.34320262,-1.1841859,0.97518575,-0.69433737
-0.1,-0.1,1.1999999999999997,0.5235987755982988,0.5235987755982988,0,-0.5270248,0.23878281,1.1250116,0.6318628,0.52810585,0.6717925,0.09194176,-1.1734097,0.09458871,0.6029058,0.26129684,-0.6303758,0.7873934,-1.1729684
-0.1,-0.1,1.1999999999999997,0.5235987755982988,0.5235987755982988,0,-0.5252329,0.2170456,1.1171722,0.6353548,0.5263615,0.66800386,0.10460184,-1.1643561,0.06646138,0.7166464,0.29346642,-0.6381168,1.1531242,-0.9236331
-0.1,-0.1,1.1999999999999997,0.5235987755982988,0.5235987755982988,0,-0.52355,0.213467,1.1218847,0.6329009,0.47317517,0.66443324,0.07381729,-1.1596195,0.08005166,0.09531376,0.2986609,-0.14210322,0.79559034,-0.6461369
-0.1,-0.1,1.1999999999999997,0.5235987755982988,0.5235987755982988,0,-0.52872604,0.21687195,1.1193197,0.63305396,0.5102424,0.66517764,0.12952238,-1.1690814,0.096039,0.009860954,0.22208288,-0.5347137,0.9243462,-1.123713
-0.1,-0.1,1.1999999999999997,0.5235987755982988,0.5235987755982988,0,-0.5224529,0.2369805,1.117644,0.6337583,0.4710776,0.6650044,0.0399042,-1.1648675,0.089758866,0.18798974,0.37992305,-1.0176371,1.0856895,-0.22547224
-0.1,-0.1,1.1999999999999997,0.5235987755982988,0.5235987755982988,0,-0.52363634,0.22795554,1.1202685,0.6351289,0.51135695,0.67028135,0.043526497,-1.1688199,0.09119197,0.27358016,0.26013055,-0.95982915,0.9885801,-1.7174913
-0.1,-0.1,1.1999999999999997,0.5235987755982988,0.5235987755982988,0,-0.52448595,0.21422952,1.1231593,0.6322038,0.49811476,0.6761614,0.03769252,-1.175198,0.091775894,0.54317653,0.29697955,-0.7332487,0.88808864,-1.74541
-0.1,-0.1,1.1999999999999997,0.5235987755982988,0.5235987755982988,0,-0.525419,0.19672503,1.1202701,0.63212174,0.48518997,0.66786355,-0.0066129896,-1.1745988,0.081312574,0.6945992,0.063347034,-1.1066203,1.0942919,-1.4180627
-0.1,-0.1,1.1999999999999997,0.5235987755982988,0.5235987755982988,0,-0.5235078,0.22953758,1.1209995,0.6332558,0.4955043,0.6719508,0.14827795,-1.1712797,0.08303335,0.310173,0.22701034,-0.9928683,0.7995517,-0.3941305
-0.1,-0.1,1.1999999999999997,0.5235987755982988,0.5235987755982988,0,-0.52278125,0.22227234,1.119607,0.63188946,0.50308913,0.6750461,0.05859505,-1.1809124,0.07561525,0.30885607,0.15497324,-0.7502145,1.0489875,-1.1351073
-0.1,-0.1,1.1999999999999997,0.5235987755982988,0.5235987755982988,0,-0.5255732,0.23497516,1.1248059,0.6346874,0.51149064,0.6671423,0.051952608,-1.1677705,0.09426293,0.55650276,0.44522968,-1.0386236,0.8762446,0.053323206
-0.1,-0.1,1.1999999999999997,0.5235987755982988,0.5235987755982988,0,-0.5275667,0.2264475,1.1239208,0.63472086,0.5187076,0.67471826,-0.015505366,-1.1673409,0.0712344,0.6922498,0.35879982,-0.69922197,0.9335991,-0.7336798
-0.1,-0.1,1.1999999999999997,0.5235987755982988,0.5235987755982988,0,-0.522243,0.20704009,1.12052,0.6340155,0.49301136,0.6720658,0.020078573,-1.1667076,0.090411335,0.5581993,0.27555126,-0.63306236,0.9257814,-0.33978257
-0.1,-0.1,1.1999999999999997,0.5235987755982988,0.5235987755982988,0,-0.52605563,0.22234839,1.1192604,0.63477695,0.47539452,0.67164284,0.076234184,-1.1629863,0.067140214,0.16111378,0.2649045,-1.0407922,0.76686144,-0.03937449
-0.1,-0.1,1.1999999999999997,0.5235987755982988,0.5235987755982988,0,-0.52530634,0.22798915,1.11921,0.63227916,0.48542538,0.6699565,0.11531537,-1.15675,0.09905447,0.3452149,0.21040285,-1.1173148,1.0373199,0.3498771
-0.1,-0.1,1.1999999999999997,0.5235987755982988,0.5235987755982988,0,-0.52489114,0.22156656,1.1253296,0.63315004,0.4907342,0.66699505,0.038203176,-1.1782012,0.08700785,0.50960356,0.21525025,-0.50429434,0.695834,-0.40967348
-0.1,-0.1,1.1999999999999997,0.5235987755982988,0.5235987755982988,0,-0.52044153,0.20163998,1.1223022,0.63257533,0.5137115,0.674577,0.11966205,-1.1726421,0.10217944,0.4837749,0.27678728,-0.490899,1.0645994,-1.0899639
-0.1,-0.1,1.1999999999999997,0.5235987755982988,0.5235987755982988,0,-0.5264642,0.22137697,1.1238346,0.6331074,0.50347483,0.6658875,0.1099794,-1.1708094,0.10451719,0.8790002,0.2675939,-0.3202785,1.1439842,-2.1320193
-0.1,-0.1,1.1999999999999997,0.5235987755982988,0.5235987755982988,0,-0.52376425,0.2291552,1.1243457,0.6335989,0.4946634,0.6660435,0.03155572,-1.1766733,0.0938023,0.26365998,0.26958215,-0.71506536,1.0918845,-0.178505
-0.1,-0.1,1.1999999999999997,0.5235987755982988,0.5235987755982988,0,-0.5235589,0.22525583,1.117824,0.63193107,0.50328696,0.67066747,0.07498269,-1.1689833,0.09600894,0.1964294,0.096846625,-0.3204663,0.75250554,-0.39223495
-0.1,-0.1,1.1999999999999997,0.5235987755982988,0.5235987755982988,0,-0.5241815,0.23351562,1.118561,0.6320176,0.4743143,0.67435014,-0.011908396,-1.1707711,0.09385787,-0.050816152,0.3589327,-0.31135973,0.789962,-0.9364524
-0.1,-0.1,1.1999999999999997,0.5235987755982988,0.5235987755982988,0,-0.5263279,0.23493528,1.1210129,0.63474214,0.5268173,0.66531235,0.0044715195,-1.1658603,0.09648433,0.34728405,0.15362637,-1.0819265,1.201212,-0.63296765
-0.1,-0.1,1.1999999999999997,0.5235987755982988,0.5235987755982988,0,-0.5270638,0.21727923,1.1210399,0.6349269,0.49866232,0.6767434,0.067925565,-1.1635451,0.09225006,-0.09385586,0.28613257,-0.77501357,0.8421294,0.043243844
-0.1,-0.1,1.1999999999999997,0.5235987755982988,0.5235987755982988,0,-0.52694464,0.21950106,1.1237088,0.6337917,0.4773417,0.67109877,0.06285343,-1.1617589,0.09000834,0.37408447,0.27838054,-0.51886636,0.6587725,-1.1895844
-0.1,-0.1,1.1999999999999997,0.5235987755982988,0.5235987755982988,0,-0.5267708,0.21893801,1.11944,0.63318497,0.50611436,0.66772616,0.08068826,-1.1704628,0.08067295,0.3322029,0.11204973,-0.042927373,1.1131009,0.5911332
-0.1,-0.1,1.1999999999999997,0.5235987755982988,0.5235987755982988,0,-0.5249849,0.2112552,1.1232395,0.6328796,0.506262,0.672496,0.04405498,-1.1609392,0.08686139,0.8178263,0.13997312,-0.93908,1.1399969,-1.7967921
-0.1,-0.1,1.1999999999999997,0.5235987755982988,0.5235987755982988,0,-0.52506477,0.22483343,1.1197927,0.63268596,0.4765567,0.6719097,0.039376713,-1.1742296,0.09975237,0.45096555,0.24074101,-0.102481954,0.9460007,-1.3584692
-0.1,-0.1,1.1999999999999997,0.5235987755982988,0.5235987755982988,0,-0.5252795,0.22174919,1.1194075,0.6342712,0.4948148,0.67588013,0.073497675,-1.1655698,0.08779939,0.28586614,0.13092123,-0.18744911,0.85161275,-0.82205766
-0.1,-0.1,1.1999999999999997,0.5235987755982988,0.5235987755982988,0,-0.5254591,0.22238182,1.1234455,0.6336469,0.5269101,0.67111284,0.0023396553,-1.1540828,0.07693442,0.5179111,0.20673776,-0.9892156,0.60236734,-0.15683192
-0.1,-0.1,1.1999999999999997,0.5235987755982988,0.5235987755982988,0,-0.52860624,0.22118962,1.1212581,0.63651687,0.49358764,0.67259884,0.054254796,-1.164845,0.0714047,0.55696183,0.17178254,-0.26172936,0.97425085,-0.81980324
-0.1,-0.1,1.1999999999999997,0.5235987755982988,0.5235987755982988,0,-0.52670705,0.20006482,1.1214583,0.6302964,0.49752465,0.66940236,0.113750696,-1.1614493,0.087905005,0.14271004,0.257932,0.23261909,0.9791691,-0.23361243
-0.1,-0.1,1.1999999999999997,0.5235987755982988,0.5235987755982988,0,-0.5281615,0.23244934,1.122488,0.6351701,0.5188377,0.67123246,0.09241229,-1.182739,0.09097549,0.47630852,0.29287347,-1.195672,1.2287793,-1.1369498
-0.1,-0.1,1.1999999999999997,0.5235987755982988,0.5235987755982988,0,-0.5237736,0.21127503,1.1232948,0.6342035,0.50470674,0.66990477,-0.031431057,-1.16939,0.07495984,0.37266478,0.2982686,-0.4992432,0.8671885,-0.5641589
-0.1,-0.1,1.1999999999999997,0.5235987755982988,0.5235987755982988,0,-0.52481425,0.21845986,1.1255685,0.6332128,0.47118318,0.6704173,0.0404823,-1.1621057,0.07227942,0.2449272,0.2651523,0.16105498,0.8338954,-1.2657937
-0.1,-0.1,1.1999999999999997,0.5235987755982988,0.5235987755982988,0,-0.52708024,0.22996128,1.1217208,0.6321776,0.471465,0.6727541,0.008357567,-1.1819158,0.08235878,0.56046146,0.27778676,-1.0212084,0.914779,-0.7686666
-0.1,-0.1,1.1999999999999997,0.5235987755982988,0.5235987755982988,0,-0.52587897,0.22088136,1.1221082,0.63319266,0.50971985,0.66397434,0.07244246,-1.1533488,0.09146991,0.003511642,0.25280872,-0.55711156,0.8303056,0.25299025
-0.1,-0.1,1.1999999999999997,0.5235987755982988,0.5235987755982988,0,-0.5295896,0.2339211,1.1220708,0.63547456,0.49290422,0.66828555,0.0025624437,-1.1640136,0.09246151,0.36459076,0.3617909,-1.0134639,0.8521549,-0.01820815
-0.1,-0.1,1.1999999999999997,0.5235987755982988,0.5235987755982988,0,-0.5243051,0.23340306,1.1213006,0.63276505,0.47747526,0.67329,0.06274007,-1.1609043,0.079530284,0.08193421,0.047156148,-0.8911134,0.9133356,-0.29090375
-0.1,-0.1,1.1999999999999997,0.5235987755982988,0.5235987755982988,0,-0.527324,0.21536165,1.122985,0.6329819,0.5118066,0.6717801,-0.0493699,-1.1610686,0.07582595,0.36986753,0.078232594,-0.55879414,0.8412685,-0.59885114
-0.1,-0.1,1.1999999999999997,0.5235987755982988,0.5235987755982988,0,-0.52660394,0.22305512,1.1235374,0.6331129,0.488954,0.67537546,0.06443579,-1.1703395,0.08423105,0.3208296,0.33479822,-1.2039927,0.9388701,-1.8905913
-0.1,-0.1,1.1999999999999997,0.5235987755982988,0.5235987755982988,0,-0.52127624,0.23247519,1.1209738,0.63306683,0.486023,0.67877203,0.06583059,-1.1756212,0.074020594,0.63716257,0.2739254,-0.3347457,0.92131996,-0.7355411
-0.1,-0.1,1.1999999999999997,0.5235987755982988,0.5235987755982988,0,-0.52376926,0.21797448,1.1233125,0.63026357,0.4998075,0.66940016,0.066020824,-1.169943,0.09697111,0.027616138,0.3369557,-0.7334059,0.8298447,0.2599146
-0.1,-0.1,1.1999999999999997,0.5235987755982988,0.5235987755982988,0,-0.5220067,0.2170155,1.1230586,0.63331306,0.4970214,0.6770529,0.03300214,-1.1772801,0.08858024,0.5987042,0.011916999,-0.68267083,0.92887414,0.53115076
-0.1,-0.1,1.1999999999999997,0.5235987755982988,0.5235987755982988,0,-0.5183766,0.22263426,1.1196779,0.6323188,0.5148084,0.67230237,0.04536596,-1.151297,0.09101961,-0.00022701573,0.35500658,-1.0260872,0.93357927,-0.5264445
-0.1,-0.1,1.1999999999999997,0.5235987755982988,0.5235987755982988,0,-0.5236312,0.2260262,1.1205368,0.6357041,0.48288485,0.67457014,-0.006326429,-1.172749,0.091689736,0.52850777,0.19672875,-1.0237392,1.0135205,0.7766452
-0.1,-0.1,1.1999999999999997,0.5235987755982988,0.5235987755982988,0,-0.5257812,0.22667812,1.1255134,0.6350376,0.50259966,0.6752371,0.029440032,-1.1696545,0.102251425,0.24776872,0.25087208,0.07615158,0.69331974,-0.76083344
