sanky1234/BimanualDexCatch/isaacgymenvs/cem_results/football_pose_0.1_0.0_1.1999999999999997_0.5235987755982988_-0.5235987755982988_0_2025-05-26.csv
x,y,z,roll,pitch,yaw,robot1/joint1,robot1/joint2,robot1/joint3,robot1/joint4,robot1/joint5,robot1/joint6,robot1/joint7,robot2/joint1,robot2/joint2,robot2/joint3,robot2/joint4,robot2/joint5,robot2/joint6,robot2/joint7
0.1,0.0,1.1999999999999997,0.5235987755982988,-0.5235987755982988,0,-0.05223305,0.2260265,-0.9688138,0.63651705,-0.7377912,0.7771355,-0.22656347,-0.11865132,1.4390802,-0.24770682,-0.02094057,-0.11705863,1.2067841,0.14043018
0.1,0.0,1.1999999999999997,0.5235987755982988,-0.5235987755982988,0,-0.054141413,0.22460535,-0.9668077,0.63574517,-0.73944,0.7777951,-0.21464987,-0.41232744,1.2644923,-0.1963374,-0.12162275,0.16021217,1.2258717,-1.0346713
0.1,0.0,1.1999999999999997,0.5235987755982988,-0.5235987755982988,0,-0.052734587,0.2255944,-0.96816266,0.63511735,-0.73800373,0.77905774,-0.21838689,-0.3339092,1.2436668,-0.019226091,-0.07308729,-0.121357545,1.2735976,-0.02649645
0.1,0.0,1.1999999999999997,0.5235987755982988,-0.5235987755982988,0,-0.053280745,0.22731845,-0.9677863,0.6357343,-0.73906106,0.7785179,-0.2088995,-0.3347395,1.320749,-0.21047522,-0.06718678,0.03300689,1.1994357,-0.23437096
0.1,0.0,1.1999999999999997,0.5235987755982988,-0.5235987755982988,0,-0.052369826,0.22478355,-0.9690893,0.6352134,-0.737034,0.7780909,-0.21869498,-0.14384703,1.3111256,0.11267705,-0.05607873,-0.05388116,1.3212461,-0.72961295
0.1,0.0,1.1999999999999997,0.5235987755982988,-0.5235987755982988,0,-0.05342429,0.22475466,-0.9678389,0.6352993,-0.73428357,0.7794122,-0.21480073,-0.7954398,1.3043013,-0.15129396,-0.048478823,0.25801244,1.2231203,-0.7010674
0.1,0.0,1.1999999999999997,0.5235987755982988,-0.5235987755982988,0,-0.053553946,0.22958252,-0.9673178,0.63544804,-0.7382055,0.77853096,-0.2267719,-0.89695996,1.2413259,-0.15980488,-0.13529663,0.060298305,1.2641642,-0.7285065
0.1,0.0,1.1999999999999997,0.5235987755982988,-0.5235987755982988,0,-0.05231622,0.22681165,-0.9697931,0.6360282,-0.73615015,0.7781159,-0.207498,0.34424192,1.1986403,-0.4356538,-0.12710845,0.19390312,1.1985127,-0.6199649
0.1,0.0,1.1999999999999997,0.5235987755982988,-0.5235987755982988,0,-0.0537973,0.22866848,-0.96974444,0.6360405,-0.73509336,0.7776935,-0.21570404,-0.65890855,1.2835144,-0.18953286,-0.050393928,0.32626757,1.2362858,-0.71156156
0.1,0.0,1.1999999999999997,0.5235987755982988,-0.5235987755982988,0,-0.053197987,0.2286574,-0.9681143,0.63574314,-0.7389479,0.77856016,-0.21356077,-0.37556523,1.3050982,-0.09868322,-0.09129206,0.09610461,1.1316242,-1.0780246
0.1,0.0,1.1999999999999997,0.5235987755982988,-0.5235987755982988,0,-0.053046126,0.22373697,-0.9670958,0.63558143,-0.7390924,0.777627,-0.21979068,-0.027473561,1.1809297,-0.066723146,-0.061760675,0.13894819,1.1580869,-0.7668068
0.1,0.0,1.1999999999999997,0.5235987755982988,-0.5235987755982988,0,-0.054169938,0.22358336,-0.96854335,0.6350314,-0.7358137,0.77968067,-0.20357163,-0.74258083,1.2491741,-0.17562754,-0.15487777,0.053298846,1.1667929,-0.39655483
0.1,0.0,1.1999999999999997,0.5235987755982988,-0.5235987755982988,0,-0.05358569,0.22224331,-0.9684285,0.6359897,-0.7369445,0.7761343,-0.21761708,0.35582545,1.3136106,0.02453745,-0.066389926,0.024544962,1.2184563,-1.2393999
0.1,0.0,1.1999999999999997,0.5235987755982988,-0.5235987755982988,0,-0.053543597,0.2256677,-0.9689175,0.63561827,-0.7371171,0.77625746,-0.22415651,-0.36780712,1.2783085,-0.09281101,-0.11168789,0.07988206,1.3492228,0.12895624
0.1,0.0,1.1999999999999997,0.5235987755982988,-0.5235987755982988,0,-0.052695572,0.22353455,-0.9694742,0.6358279,-0.7352824,0.7778168,-0.21886231,-0.4489773,1.3382809,0.14719698,-0.09801528,-0.080305204,1.2017194,-0.4164561
0.1,0.0,1.1999999999999997,0.5235987755982988,-0.5235987755982988,0,-0.05362142,0.22744472,-0.9691344,0.6364587,-0.7361379,0.77749276,-0.23080687,-0.08272334,1.2913176,-0.0574962,0.0018925708,-0.0559017,1.2693574,-0.90940416
0.1,0.0,1.1999999999999997,0.5235987755982988,-0.5235987755982988,0,-0.052694365,0.22895159,-0.9690819,0.63447684,-0.73957366,0.7779325,-0.21596837,-0.35952568,1.3106767,-0.23409879,-0.11568424,0.10246347,1.1992701,-0.79405236
0.1,0.0,1.1999999999999997,0.5235987755982988,-0.5235987755982988,0,-0.05402759,0.22371665,-0.9681531,0.6351416,-0.73631257,0.77724147,-0.22085129,-0.6553138,1.296954,0.23405434,-0.003792445,0.060032878,1.2579921,-0.7680796
0.1,0.0,1.1999999999999997,0.5235987755982988,-0.5235987755982988,0,-0.053170007,0.22565271,-0.96891475,0.6351069,-0.7401084,0.7768129,-0.2076623,-0.34028116,1.3519375,-0.15837854,-0.10227981,0.1453968,1.315707,-0.7920353
0.1,0.0,1.1999999999999997,0.5235987755982988,-0.5235987755982988,0,-0.053881988,0.22744095,-0.9706789,0.6361381,-0.7362194,0.7795302,-0.21240668,-0.013842669,1.358665,-0.096550204,-0.0628591,0.010239113,1.2372161,-0.5869865
0.1,0.0,1.1999999999999997,0.5235987755982988,-0.5235987755982988,0,-0.053818397,0.22861037,-0.9691907,0.6358751,-0.73724395,0.7757731,-0.22416796,-0.23166575,1.3857149,-0.22569026,0.0021292462,-0.010066403,1.2930472,-0.39875203
0.1,0.0,1.1999999999999997,0.5235987755982988,-0.5235987755982988,0,-0.053469423,0.22674586,-0.9684441,0.6341499,-0.7380321,0.7790339,-0.2086786,-0.8217675,1.3107458,-0.120172985,-0.10399117,-0.025848057,1.2088488,-0.87429845
0.1,0.0,1.1999999999999997,0.5235987755982988,-0.5235987755982988,0,-0.052586496,0.23263909,-0.9682962,0.6354435,-0.73795056,0.77857333,-0.22548404,-0.9671772,1.2922472,-0.017683743,-0.055814855,-0.0716831,1.2475164,-0.45036438
0.1,0.0,1.1999999999999997,0.5235987755982988,-0.5235987755982988,0,-0.05321972,0.22855419,-0.96878135,0.63658774,-0.73552704,0.7762528,-0.2183942,-0.56831086,1.1919314,-0.15615857,-0.04694404,0.051382072,1.233142,-0.14396408
0.1,0.0,1.1999999999999997,0.5235987755982988,-0.5235987755982988,0,-0.053740926,0.22267053,-0.968848,0.63536704,-0.7420492,0.7804656,-0.22287983,0.15520912,1.3225168,-0.07764324,-0.09447186,0.15786652,1.111933,-0.571206
0.1,0.0,1.1999999999999997,0.5235987755982988,-0.5235987755982988,0,-0.05305547,0.22978969,-0.9694374,0.6353464,-0.7378515,0.7776703,-0.20667857,-0.5009723,1.3167291,-0.03746123,0.004372698,-0.14973296,1.2406241,-0.41544586
0.1,0.0,1.1999999999999997,0.5235987755982988,-0.5235987755982988,0,-0.05346526,0.22860415,-0.96747535,0.63558716,-0.73723257,0.77873844,-0.22633609,0.20058748,1.2389641,-0.1403065,-0.078370824,0.11777453,1.1753451,-0.16417672
0.1,0.0,1.1999999999999997,0.5235987755982988,-0.5235987755982988,0,-0.052250717,0.23132648,-0.96929175,0.635808,-0.7407004,0.7757886,-0.22934812,0.07186585,1.1540287,-0.08313621,-0.02217223,-0.23717137,1.2689246,-0.1808319
0.1,0.0,1.1999999999999997,0.5235987755982988,-0.5235987755982988,0,-0.05299517,0.22282134,-0.9697166,0.6353315,-0.7348322,0.7787603,-0.21408376,-0.28275082,1.2527889,-0.13801199,-0.10646128,0.22612219,1.0836813,-0.28035453
0.1,0.0,1.1999999999999997,0.5235987755982988,-0.5235987755982988,0,-0.054280426,0.22649285,-0.96832305,0.63506496,-0.73597145,0.7778283,-0.22388141,-0.7415565,1.2758946,0.1057487,-0.051634315,0.32869387,1.3286258,-0.6874635
0.1,0.0,1.1999999999999997,0.5235987755982988,-0.5235987755982988,0,-0.05292069,0.22937892,-0.96954453,0.6357488,-0.7363862,0.7794027,-0.2151426,-0.29613787,1.3702394,-0.1936903,-0.05938039,0.047180787,1.254812,-0.87398124
0.1,0.0,1.1999999999999997,0.5235987755982988,-0.5235987755982988,0,-0.053042967,0.22855829,-0.9677471,0.63542306,-0.73656654,0.7793468,-0.21697526,0.38211575,1.4297895,-0.044494092,-0.10127937,-0.030837959,1.3791586,-0.44883215
0.1,0.0,1.1999999999999997,0.5235987755982988,-0.5235987755982988,0,-0.053963173,0.2265843,-0.9690535,0.6348011,-0.73745036,0.7777874,-0.21806353,-0.54218644,1.3125335,-0.041435942,-0.08652918,-0.08277985,1.250148,-0.5161336
0.1,0.0,1.1999999999999997,0.5235987755982988,-0.5235987755982988,0,-0.053326223,0.22710422,-0.9691054,0.63572556,-0.73945665,0.7779756,-0.21171863,-0.17275026,1.3119972,0.074366234,0.019300302,-0.009515755,1.232634,-1.2372764
0.1,0.0,1.1999999999999997,0.5235987755982988,-0.5235987755982988,0,-0.053106617,0.23241428,-0.9691027,0.6364428,-0.73507357,0.7790319,-0.22026266,-0.012077282,1.2512578,-0.18963383,-0.053205624,-0.11534543,1.1675245,-0.45315912
0.1,0.0,1.1999999999999997,0.5235987755982988,-0.5235987755982988,0,-0.05345253,0.22677958,-0.9681092,0.63621926,-0.7369863,0.77848625,-0.2165878,-0.6155489,1.2388732,-0.22381012,-0.08863564,0.08431456,1.1790359,-0.3097762
0.1,0.0,1.1999999999999997,0.5235987755982988,-0.5235987755982988,0,-0.053685803,0.22468942,-0.96773523,0.63460183,-0.7380247,0.7788572,-0.21900709,0.03990865,1.1785171,-0.093236536,-0.034569845,0.24139279,1.3721241,-0.5946159
0.1,0.0,1.1999999999999997,0.5235987755982988,-0.5235987755982988,0,-0.052953336,0.22613007,-0.96690357,0.6355394,-0.73874915,0.779415,-0.20895736,-0.412039,1.2389666,-0.087383814,-0.020699913,-0.07666523,1.2891585,-0.13620362
0.1,0.0,1.1999999999999997,0.5235987755982988,-0.5235987755982988,0,-0.054032702,0.22445302,-0.96788305,0.6356642,-0.73772377,0.7785924,-0.2182248,-0.50970334,1.2708727,-0.2163356,-0.04033666,-0.030440718,1.1933043,-0.76172274
0.1,0.0,1.1999999999999997,0.5235987755982988,-0.5235987755982988,0,-0.053150047,0.22673719,-0.96761996,0.6351149,-0.7409278,0.7783545,-0.21396507,0.35102183,1.2609679,-0.10158628,-0.062027883,0.023655253,1.2135965,-0.33777553
0.1,0.0,1.1999999999999997,0.5235987755982988,-0.5235987755982988,0,-0.053717867,0.22812107,-0.9685091,0.63592404,-0.7395828,0.7781596,-0.21261178,-1.1649996,1.3347642,-0.108617365,-0.13209762,-0.097515166,1.1775835,-0.6446211
0.1,0.0,1.1999999999999997,0.5235987755982988,-0.5235987755982988,0,-0.05369343,0.22388686,-0.96687216,0.63558877,-0.7371285,0.7789305,-0.22510466,-0.563583,1.2982033,-0.030049728,-0.124481566,0.17808829,1.1851399,-1.2499734
0.1,0.0,1.1999999999999997,0.5235987755982988,-0.5235987755982988,0,-0.05395567,0.22284962,-0.96737516,0.6355934,-0.7396503,0.7757977,-0.22852035,-0.27785993,1.284827,-0.2727664,-0.083331116,0.013190571,1.1439074,-0.17851251
0.1,0.0,1.1999999999999997,0.5235987755982988,-0.5235987755982988,0,-0.053058922,0.22885993,-0.9692797,0.6346147,-0.73714805,0.77852875,-0.22219294,-0.62141216,1.3140062,-0.20435031,0.029596826,-0.062990084,1.1775439,-0.70378965
0.1,0.0,1.1999999999999997,0.5235987755982988,-0.5235987755982988,0,-0.05459928,0.22534491,-0.9674307,0.6368105,-0.73813653,0.7774756,-0.22608238,-0.33620217,1.1944914,-0.17860001,-0.026243199,0.14386407,1.1040173,-1.2690258
0.1,0.0,1.1999999999999997,0.5235987755982988,-0.5235987755982988,0,-0.052996248,0.2245726,-0.96736485,0.6364148,-0.7384834,0.77827007,-0.22231084,-0.29481003,1.2334346,-0.051154427,-0.030390516,0.096355416,1.1970183,-1.1081066
0.1,0.0,1.1999999999999997,0.5235987755982988,-0.5235987755982988,0,-0.054486703,0.2239364,-0.96982807,0.63442653,-0.73634577,0.77573204,-0.21537746,0.5626662,1.2314365,-0.13814409,-0.0017591917,0.18429014,1.2824357,-0.038629457
0.1,0.0,1.1999999999999997,0.5235987755982988,-0.5235987755982988,0,-0.054282118,0.22558607,-0.9685054,0.63600355,-0.73497254,0.77723455,-0.21830954,-0.29343042,1.2539829,0.11152217,-0.06496172,-0.25593916,1.2991532,-0.40736017
0.1,0.0,1.1999999999999997,0.5235987755982988,-0.5235987755982988,0,-0.053910904,0.22809324,-0.9666249,0.6351432,-0.7374106,0.77656484,-0.21533783,-0.5328148,1.2951716,-0.10148591,-0.11736662,-0.019083254,1.2599064,0.061409436
0.1,0.0,1.1999999999999997,0.5235987755982988,-0.5235987755982988,0,-0.053423647,0.22511797,-0.9687899,0.63553137,-0.73577166,0.7788394,-0.21706887,-0.051009275,1.2704668,-0.35313627,-0.0040575876,-0.049252175,1.2029152,-1.5063668
0.1,0.0,1.1999999999999997,0.5235987755982988,-0.5235987755982988,0,-0.052985802,0.22156651,-0.9685212,0.6353341,-0.73865384,0.7784562,-0.22797246,-0.53139275,1.3570734,-0.1768796,-0.044103585,0.14463906,1.2822843,-0.35827458
0.1,0.0,1.1999999999999997,0.5235987755982988,-0.5235987755982988,0,-0.052748922,0.22878805,-0.9674643,0.635362,-0.73498046,0.77484363,-0.2201787,-0.36046794,1.3033801,-0.05946749,-0.13572875,-0.099697165,1.2604401,-0.6300294
0.1,0.0,1.1999999999999997,0.5235987755982988,-0.5235987755982988,0,-0.054227386,0.22333966,-0.9683252,0.6353935,-0.7384037,0.77678126,-0.21614929,-0.42876405,1.3291403,-0.069760606,-0.010132754,-0.14972964,1.112662,-0.21901245
0.1,0.0,1.1999999999999997,0.5235987755982988,-0.5235987755982988,0,-0.053892903,0.22659151,-0.9684245,0.636241,-0.7379546,0.77778304,-0.21140942,-0.5282599,1.3106552,-0.12165631,-0.0421501,0.087585896,1.3468195,-0.84280473
0.1,0.0,1.1999999999999997,0.5235987755982988,-0.5235987755982988,0,-0.05313339,0.22210987,-0.96897507,0.6355088,-0.7372728,0.7772389,-0.22105122,-0.71466357,1.1859583,-0.040890235,-0.067864865,-0.20020959,1.2976099,0.04194761
0.1,0.0,1.1999999999999997,0.5235987755982988,-0.5235987755982988,0,-0.054156218,0.22620349,-0.96929127,0.6355079,-0.7402739,0.77721906,-0.21811971,-0.27125654,1.3075236,0.066696525,-0.016275333,0.22308667,1.2639354,-0.5277638
0.1,0.0,1.1999999999999997,0.5235987755982988,-0.5235987755982988,0,-0.05455593,0.22636111,-0.96874046,0.6352567,-0.7398433,0.77814305,-0.2067644,-0.6259536,1.3464148,0.022794362,-0.080250666,0.1225019,1.2297542,-0.402145
0.1,0.0,1.1999999999999997,0.5235987755982988,-0.5235987755982988,0,-0.05245897,0.22977382,-0.9686565,0.63578063,-0.73733896,0.7795139,-0.22217336,-1.1060528,1.2780458,-0.15454008,-0.11404813,-0.15060836,1.3349855,-0.25385234
0.1,0.0,1.1999999999999997,0.5235987755982988,-0.5235987755982988,0,-0.053775866,0.22832346,-0.9693635,0.6363112,-0.74019986,0.7778085,-0.22296277,0.048874807,1.3473234,-0.29769126,-0.020269385,-0.024923207,1.2080501,-1.321736
0.1,0.0,1.1999999999999997,0.5235987755982988,-0.5235987755982988,0,-0.05300577,0.22469378,-0.9694513,0.6353839,-0.7367429,0.77863365,-0.21075034,-0.46530747,1.2996925,-0.23639958,-0.079828165,0.09205938,1.2126787,-0.48156115
0.1,0.0,1.1999999999999997,0.5235987755982988,-0.5235987755982988,0,-0.053928684,0.22921258,-0.97092247,0.6358268,-0.73236257,0.7781551,-0.21704039,-0.7342688,1.3263747,-0.0505454,-0.08319158,0.19528429,1.1856767,-0.19995195
0.1,0.0,1.1999999999999997,0.5235987755982988,-0.5235987755982988,0,-0.05379997,0.22479153,-0.9677129,0.63576096,-0.7361201,0.78036857,-0.2203161,-0.020217858,1.3607296,-0.07060304,-0.07597861,-0.011002394,1.2423245,-0.6905862
0.1,0.0,1.1999999999999997,0.5235987755982988,-0.5235987755982988,0,-0.05374014,0.22907452,-0.96885616,0.6349933,-0.7370446,0.7784655,-0.2185127,-0.02412981,1.2959064,-0.037892867,-0.08371853,0.035319883,1.096451,-0.28961727
0.1,0.0,1.1999999999999997,0.5235987755982988,-0.5235987755982988,0,-0.053387556,0.22797246,-0.97034216,0.63573074,-0.73599315,0.7794424,-0.2191213,0.03207367,1.1732697,0.052436356,-0.07910366,0.14961426,1.2643435,-0.5640544
0.1,0.0,1.1999999999999997,0.5235987755982988,-0.5235987755982988,0,-0.05384821,0.22907268,-0.968166,0.6359704,-0.7367248,0.77907515,-0.2175105,-0.17793043,1.223536,-0.063679904,-0.08644428,-0.16617881,1.1653067,-0.48155367
0.1,0.0,1.1999999999999997,0.5235987755982988,-0.5235987755982988,0,-0.053095676,0.22510402,-0.9695883,0.635169,-0.73813915,0.77770025,-0.22012736,0.087021664,1.3344312,-0.12413379,-0.037587266,0.0045540724,1.1882583,-0.6974318
0.1,0.0,1.1999999999999997,0.5235987755982988,-0.5235987755982988,0,-0.053019755,0.2288901,-0.97067326,0.63512236,-0.7393989,0.77828777,-0.21186729,0.53386277,1.2702708,-0.1498153,-0.07377483,-0.05972051,1.16097,0.66894436
0.1,0.0,1.1999999999999997,0.5235987755982988,-0.5235987755982988,0,-0.052874185,0.22902529,-0.9686028,0.6357306,-0.7425216,0.77822524,-0.21421883,-0.8288924,1.3013582,-0.18310899,-0.04071118,-0.03239143,1.1729857,-0.42538202
0.1,0.0,1.1999999999999997,0.5235987755982988,-0.5235987755982988,0,-0.05390515,0.2247257,-0.96951205,0.63560647,-0.73479784,0.77920145,-0.21703742,-0.49842128,1.2578467,-0.16883141,-0.083955996,0.14313976,1.2384726,-1.019988
0.1,0.0,1.1999999999999997,0.5235987755982988,-0.5235987755982988,0,-0.05351409,0.22374262,-0.9685049,0.63573456,-0.73996675,0.77773035,-0.21236534,-0.650854,1.3228834,0.116170235,-0.07812493,-0.09699113,1.2853059,-0.5407813
0.1,0.0,1.1999999999999997,0.5235987755982988,-0.5235987755982988,0,-0.05423247,0.22319627,-0.96945214,0.63528186,-0.7381131,0.7769714,-0.21644615,-0.74062544,1.2992439,-0.06626333,-0.020074902,-0.16853611,1.262586,-0.76230234
0.1,0.0,1.1999999999999997,0.5235987755982988,-0.5235987755982988,0,-0.05338393,0.22425471,-0.9686232,0.63495487,-0.73725927,0.77811563,-0.21947804,-0.13868594,1.1950375,0.04120799,-0.06948751,0.038864423,1.269474,-1.1104507
0.1,0.0,1.1999999999999997,0.5235987755982988,-0.5235987755982988,0,-0.052893143,0.22662027,-0.96953845,0.6350335,-0.7384849,0.7786177,-0.228423,-0.41025075,1.268532,-0.26840347,-0.040299818,-0.015573529,1.2389147,0.080703616
0.1,0.0,1.1999999999999997,0.5235987755982988,-0.5235987755982988,0,-0.053859632,0.22275384,-0.9687254,0.6350136,-0.7352444,0.7779621,-0.22122444,-1.2477176,1.2198131,-0.1247281,-0.12395198,0.21555935,1.1215662,-0.08318957
0.1,0.0,1.1999999999999997,0.5235987755982988,-0.5235987755982988,0,-0.05457173,0.21624382,-0.96872145,0.6354493,-0.73281616,0.7795842,-0.22641213,0.23516852,1.2478613,-0.22924718,-0.061905667,-0.23868795,1.2127156,-0.7480665
0.1,0.0,1.1999999999999997,0.5235987755982988,-0.5235987755982988,0,-0.053780332,0.22405691,-0.9698028,0.6363824,-0.7389489,0.7792621,-0.22611779,-0.1906897,1.2896609,-0.05648477,-0.038385462,0.08560354,1.1993822,-0.46757436
0.1,0.0,1.1999999999999997,0.5235987755982988,-0.5235987755982988,0,-0.054052133,0.225768,-0.9697072,0.63430345,-0.7381982,0.7789915,-0.22833087,-0.70518875,1.3333901,0.021853175,-0.061840978,0.07310463,1.1873003,-0.6635039
0.1,0.0,1.1999999999999997,0.5235987755982988,-0.5235987755982988,0,-0.05346422,0.22574228,-0.96790946,0.63506496,-0.7341436,0.7766944,-0.22597519,-0.77772653,1.3295559,-0.08890011,-0.03735226,-0.17113589,1.2253013,-0.7097822
0.1,0.0,1.1999999999999997,0.5235987755982988,-0.5235987755982988,0,-0.053415146,0.23131207,-0.9656227,0.63665986,-0.73522455,0.77441883,-0.2226005,-0.60061646,1.3952754,-0.28687105,-0.039841413,0.21594228,1.2556959,-0.47716206
0.1,0.0,1.1999999999999997,0.5235987755982988,-0.5235987755982988,0,-0.05312861,0.23117582,-0.96575624,0.6350391,-0.7380666,0.7754719,-0.20970377,-0.6984559,1.1172203,0.14051765,-0.14031953,0.09636864,1.2147775,-0.93252987
0.1,0.0,1.1999999999999997,0.5235987755982988,-0.5235987755982988,0,-0.053748384,0.22749095,-0.9659306,0.63586056,-0.7360634,0.77471656,-0.21847849,-0.4560886,1.2502792,-0.31537664,-0.051993072,0.17922775,1.189815,-0.2890427
0.1,0.0,1.1999999999999997,0.5235987755982988,-0.5235987755982988,0,-0.05263548,0.22855994,-0.9659129,0.635586,-0.7367154,0.77587813,-0.20654458,-0.693997,1.2904252,-0.33987108,-0.077176526,0.066766344,1.2122673,-1.0003445
0.1,0.0,1.1999999999999997,0.5235987755982988,-0.5235987755982988,0,-0.05346322,0.23535898,-0.967057,0.63556,-0.7330182,0.7784729,-0.22277401,-0.5624688,1.2857082,-0.35013688,-0.07632091,-0.017728217,1.1621721,-0.54692215
0.1,0.0,1.1999999999999997,0.5235987755982988,-0.5235987755982988,0,-0.051972657,0.22829986,-0.96832407,0.6359153,-0.7360877,0.7752788,-0.2097549,-0.18654156,1.3442184,-0.30997834,-0.07903464,-0.19904245,1.2415915,-0.20476177
0.1,0.0,1.1999999999999997,0.5235987755982988,-0.5235987755982988,0,-0.05382509,0.22762755,-0.9676417,0.6352175,-0.7340789,0.775302,-0.21660772,-0.2620589,1.2678031,0.35777748,-0.08752657,0.28927705,1.1554929,-0.12812762
0.1,0.0,1.1999999999999997,0.5235987755982988,-0.5235987755982988,0,-0.052113853,0.22790037,-0.9670441,0.6362563,-0.7361527,0.7741937,-0.211624,-0.62575686,1.1773885,-0.3199276,-0.10621435,-0.015099025,1.2096398,-0.4596249
0.1,0.0,1.1999999999999997,0.5235987755982988,-0.5235987755982988,0,-0.053720117,0.22983718,-0.96622354,0.63533646,-0.74050105,0.7758693,-0.20769128,0.16169891,1.3468004,-0.16446215,-0.12102785,0.20078014,1.3179549,-0.1651735
0.1,0.0,1.1999999999999997,0.5235987755982988,-0.5235987755982988,0,-0.053817935,0.23055327,-0.96694726,0.63508564,-0.7370269,0.77493984,-0.21423544,0.08112184,1.1990812,-0.08342129,-0.11581554,-0.13734354,1.0812038,-0.67456317
0.1,0.0,1.1999999999999997,0.5235987755982988,-0.5235987755982988,0,-0.053170506,0.22670208,-0.96740407,0.634774,-0.73262066,0.77883327,-0.21681333,-0.05416496,1.2919526,-0.1332754,-0.078454636,0.04581629,1.1623203,-0.85496455
0.1,0.0,1.1999999999999997,0.5235987755982988,-0.5235987755982988,0,-0.052464135,0.230832,-0.96830046,0.6352471,-0.7356753,0.77477336,-0.21273585,-0.21947981,1.2659043,0.063746884,-0.100899264,-0.010088416,1.2391828,-0.28049782
0.1,0.0,1.1999999999999997,0.5235987755982988,-0.5235987755982988,0,-0.052974503,0.22943644,-0.96519184,0.6354626,-0.73815995,0.7783756,-0.22275484,-0.57297695,1.2476187,-0.06544515,-0.036445796,-0.12067544,1.287972,-0.11688049
0.1,0.0,1.1999999999999997,0.5235987755982988,-0.5235987755982988,0,-0.053038828,0.22740014,-0.9659785,0.63610226,-0.73635703,0.7772582,-0.21421908,-0.56977755,1.2640548,-0.08158942,-0.046732876,-0.14760067,1.2938972,-0.80379915
0.1,0.0,1.1999999999999997,0.5235987755982988,-0.5235987755982988,0,-0.05250772,0.22667441,-0.9676232,0.6352336,-0.7359308,0.7755312,-0.22038038,-0.020334981,1.3265969,-0.104943365,-0.15228404,0.1488611,1.1541847,-0.9344182
0.1,0.0,1.1999999999999997,0.5235987755982988,-0.5235987755982988,0,-0.053132076,0.2281823,-0.96643585,0.63572305,-0.73688275,0.77641374,-0.2247471,-0.13961282,1.3028889,-0.09116864,0.012659948,-0.0038638567,1.2309339,-0.01664805
0.1,0.0,1.1999999999999997,0.5235987755982988,-0.5235987755982988,0,-0.05273495,0.2300266,-0.9685978,0.63530314,-0.7366873,0.7748184,-0.22721441,0.07423399,1.3248123,-0.08165847,-0.015460993,0.20040569,1.2354934,-0.56083703
0.1,0.0,1.1999999999999997,0.5235987755982988,-0.5235987755982988,0,-0.05245463,0.22933061,-0.9657707,0.6359923,-0.73847914,0.7773958,-0.21445726,-0.45212412,1.4014188,-0.4310947,-0.08093709,-0.054457746,1.293197,-0.38316628
0.1,0.0,1.1999999999999997,0.5235987755982988,-0.5235987755982988,0,-0.053811837,0.2331837,-0.966963,0.63496023,-0.73907423,0.77793074,-0.21812221,-0.8572321,1.2252457,-0.013017143,-0.14155512,-0.14287783,1.2276214,-0.49542195
0.1,0.0,1.1999999999999997,0.5235987755982988,-0.5235987755982988,0,-0.05286973,0.22902901,-0.9680899,0.6353894,-0.73795676,0.7763254,-0.20301837,-0.18045688,1.3883498,-0.23084468,-0.030970369,0.03336191,1.1718764,-0.009427981
0.1,0.0,1.1999999999999997,0.5235987755982988,-0.5235987755982988,0,-0.05216583,0.2301686,-0.9683934,0.6350656,-0.73568314,0.7764483,-0.22040632,-0.8430265,1.3565694,-0.0059802714,-0.0962652,0.05624505,1.2803342,-0.20481479
0.1,0.0,1.1999999999999997,0.5235987755982988,-0.5235987755982988,0,-0.05349316,0.22399414,-0.96630824,0.63575715,-0.73527837,0.7769938,-0.22992797,-0.6196336,1.3582721,-0.13768214,-0.07144886,0.26445344,1.2860681,-0.33389384
0.1,0.0,1.1999999999999997,0.5235987755982988,-0.5235987755982988,0,-0.0533443,0.22957331,-0.96690005,0.6348913,-0.73663133,0.7767684,-0.20715308,-0.306883,1.409718,-0.17632622,-0.108080104,0.20781036,1.2338082,-0.24499775
0.1,0.0,1.1999999999999997,0.5235987755982988,-0.5235987755982988,0,-0.052736845,0.22344589,-0.9673945,0.63596654,-0.73682696,0.7748861,-0.21558727,-0.07778207,1.3678625,-0.085477024,-0.047027897,0.024159005,1.1982406,-0.464807
0.1,0.0,1.1999999999999997,0.5235987755982988,-0.5235987755982988,0,-0.052990124,0.22966446,-0.9680874,0.6348484,-0.7361018,0.77690655,-0.22388153,0.031798366,1.2206508,-0.2616648,-0.030140605,0.12359912,1.0506142,-0.32411033
0.1,0.0,1.1999999999999997,0.5235987755982988,-0.5235987755982988,0,-0.053308163,0.21820298,-0.96724415,0.635542,-0.73467857,0.77863854,-0.21778414,-0.034031693,1.3487571,-0.29816458,-0.02015493,-0.0963217,1.2275074,-1.0161428
0.1,0.0,1.1999999999999997,0.5235987755982988,-0.5235987755982988,0,-0.053710718,0.22924204,-0.9671442,0.63543373,-0.73726726,0.7767353,-0.23045425,-0.12966615,1.3332977,-0.30575767,-0.07221792,-0.033316866,1.1687014,-0.6835366
0.1,0.0,1.1999999999999997,0.5235987755982988,-0.5235987755982988,0,-0.052090198,0.23383541,-0.9682122,0.63512,-0.7369326,0.77728975,-0.22846594,-0.1748414,1.1870692,0.04854437,-0.1377215,0.1619522,1.137602,-0.4113894
0.1,0.0,1.1999999999999997,0.5235987755982988,-0.5235987755982988,0,-0.054631628,0.22630805,-0.96660686,0.6358496,-0.7326089,0.7759629,-0.21976405,-0.7019464,1.3230895,-0.14652023,-0.093922466,-0.07903426,1.2793527,-0.079288
0.1,0.0,1.1999999999999997,0.5235987755982988,-0.5235987755982988,0,-0.052441157,0.22814727,-0.96661055,0.63488334,-0.73585546,0.77800214,-0.21837038,-0.87259144,1.3734021,-0.15478311,-0.028274016,0.019963717,1.3776747,-0.60730225
0.1,0.0,1.1999999999999997,0.5235987755982988,-0.5235987755982988,0,-0.05305604,0.2273858,-0.9672296,0.6353464,-0.734506,0.7771541,-0.21820731,-0.26156637,1.3865253,-0.14654143,-0.10246563,0.21162869,1.231434,-0.46169254
0.1,0.0,1.1999999999999997,0.5235987755982988,-0.5235987755982988,0,-0.051912874,0.23280776,-0.96855336,0.6363978,-0.73673713,0.7773428,-0.2260568,-0.2851857,1.2508067,-0.0785168,-0.045605887,0.18798585,1.2062532,-0.30902538
0.1,0.0,1.1999999999999997,0.5235987755982988,-0.5235987755982988,0,-0.053751215,0.23309883,-0.9665619,0.6360847,-0.736968,0.7770791,-0.21841426,0.07010263,1.3907026,0.045076277,-0.105775684,0.07402987,1.2548953,-0.55705374
0.1,0.0,1.1999999999999997,0.5235987755982988,-0.5235987755982988,0,-0.052657418,0.22065772,-0.96956944,0.6350228,-0.73956716,0.77494335,-0.21120833,-0.70510226,1.4483874,-0.14646804,-0.072705045,-0.15392198,1.2461572,-0.39362475
0.1,0.0,1.1999999999999997,0.5235987755982988,-0.5235987755982988,0,-0.05298822,0.2298212,-0.9686323,0.63575464,-0.7383777,0.7748119,-0.21459772,-0.77203494,1.2131103,-0.08149179,-0.17946357,0.1330583,1.1676466,-0.4781765
0.1,0.0,1.1999999999999997,0.5235987755982988,-0.5235987755982988,0,-0.05381559,0.22623318,-0.967869,0.6354453,-0.7354581,0.7763433,-0.2235059,0.04772657,1.3192705,-0.17010657,-0.09054476,0.18673722,1.2340102,-0.6843929
0.1,0.0,1.1999999999999997,0.5235987755982988,-0.5235987755982988,0,-0.054536782,0.2263033,-0.9665342,0.63489866,-0.73839176,0.7783982,-0.21981496,-0.42257038,1.276071,0.08527782,-0.032138452,-0.036479764,1.2786648,-0.6649402
0.1,0.0,1.1999999999999997,0.5235987755982988,-0.5235987755982988,0,-0.053183503,0.22467466,-0.9679597,0.63606787,-0.7360566,0.7755573,-0.22230962,-0.06501848,1.3202922,-0.18781324,-0.058317922,0.18728715,1.2077461,-0.8954277
0.1,0.0,1.1999999999999997,0.5235987755982988,-0.5235987755982988,0,-0.05367989,0.22629644,-0.9684129,0.63536483,-0.7357966,0.7764695,-0.20828357,-0.49808833,1.3395797,-0.11330861,0.017862378,0.2802335,1.2454039,-0.7512283
0.1,0.0,1.1999999999999997,0.5235987755982988,-0.5235987755982988,0,-0.052543286,0.22864,-0.96535826,0.6355131,-0.7368192,0.7798807,-0.21330069,-0.42568913,1.240144,-0.12113259,-0.16029823,-0.08655571,1.2069312,-0.66139287
0.1,0.0,1.1999999999999997,0.5235987755982988,-0.5235987755982988,0,-0.0537117,0.22998458,-0.96790814,0.6359515,-0.73403406,0.7767319,-0.22330084,-0.50602543,1.1960946,0.10497735,-0.0092290435,0.0974584,1.1295625,-0.7615112
0.1,0.0,1.1999999999999997,0.5235987755982988,-0.5235987755982988,0,-0.053596385,0.22466052,-0.96806,0.6357903,-0.7349361,0.7776243,-0.22906168,-0.29121834,1.2630935,0.36176565,-0.003060635,0.04558177,1.1670837,-1.0501648
0.1,0.0,1.1999999999999997,0.5235987755982988,-0.5235987755982988,0,-0.05340734,0.2282957,-0.96751165,0.6354727,-0.7374536,0.7772001,-0.22259961,-0.3563604,1.3678702,-0.2880136,-0.12562169,0.30423105,1.3041933,0.065960154
0.1,0.0,1.1999999999999997,0.5235987755982988,-0.5235987755982988,0,-0.053520076,0.22384728,-0.96889496,0.6357833,-0.73627096,0.7744276,-0.22316389,0.014568315,1.2190673,-0.1593348,-0.06423718,0.17177531,1.2605838,-0.22697349
0.1,0.0,1.1999999999999997,0.5235987755982988,-0.5235987755982988,0,-0.052420516,0.23050627,-0.9683203,0.6356069,-0.73285776,0.7778068,-0.21117483,-0.73574156,1.3926706,-0.024810692,-0.09345244,0.19082123,1.1985768,-0.25133565
0.1,0.0,1.1999999999999997,0.5235987755982988,-0.5235987755982988,0,-0.05350752,0.23050228,-0.9685147,0.6352006,-0.7354442,0.77571523,-0.21363631,0.032938115,1.2720083,0.030675225,-0.14502776,0.3049279,1.3407786,-0.21120067
0.1,0.0,1.1999999999999997,0.5235987755982988,-0.5235987755982988,0,-0.052880414,0.22851165,-0.9688291,0.6350087,-0.7362338,0.7756004,-0.23204069,-0.22019632,1.3353461,0.02554465,-0.13853005,-0.09073743,1.245524,-0.9876762
0.1,0.0,1.1999999999999997,0.5235987755982988,-0.5235987755982988,0,-0.05284803,0.22358729,-0.9674323,0.6358099,-0.73509413,0.7768019,-0.22113682,-0.6343932,1.2905706,-0.08903471,-0.07268419,0.17467296,1.3704747,-1.085108
0.1,0.0,1.1999999999999997,0.5235987755982988,-0.5235987755982988,0,-0.053306855,0.22599463,-0.9675031,0.63606036,-0.7361034,0.777513,-0.2136505,-0.5946261,1.1612189,-0.21464768,-0.06802895,0.10894931,1.1530213,-0.9119039
0.1,0.0,1.1999999999999997,0.5235987755982988,-0.5235987755982988,0,-0.053552624,0.23568848,-0.9689369,0.635031,-0.7381925,0.7785512,-0.22226815,-0.1277433,1.2308891,-0.33841604,-0.16985825,-0.013459894,1.0700754,-1.1797777
0.1,0.0,1.1999999999999997,0.5235987755982988,-0.5235987755982988,0,-0.053086016,0.22893268,-0.9671367,0.63581127,-0.7402123,0.77676445,-0.21183527,-0.8328012,1.351871,-0.058381557,-0.12831812,-0.2811471,1.328866,-0.96170086
0.1,0.0,1.1999999999999997,0.5235987755982988,-0.5235987755982988,0,-0.053278223,0.23075579,-0.96867895,0.6345893,-0.733687,0.77812594,-0.21158664,-0.0113759255,1.3986558,-0.034877554,0.017157748,-0.08151572,1.2682661,-0.30929697
0.1,0.0,1.1999999999999997,0.5235987755982988,-0.5235987755982988,0,-0.053855322,0.22917129,-0.96871436,0.6365023,-0.735971,0.7759967,-0.20746496,-0.19688188,1.3960596,0.03161831,-0.10407176,0.21659526,1.0683373,-0.8277625
0.1,0.0,1.1999999999999997,0.5235987755982988,-0.5235987755982988,0,-0.05220174,0.2285616,-0.97045386,0.6346542,-0.7352473,0.7757481,-0.22352646,0.20707741,1.2529662,-0.26433864,-0.14669359,-0.018080924,1.3680359,-0.55504966
0.1,0.0,1.1999999999999997,0.5235987755982988,-0.5235987755982988,0,-0.053750888,0.22963612,-0.96903616,0.63563204,-0.7342414,0.7771908,-0.23384555,0.067296594,1.3098878,-0.35078567,-0.090076014,0.07880582,1.2765647,-0.5513152
0.1,0.0,1.1999999999999997,0.5235987755982988,-0.5235987755982988,0,-0.05269977,0.22849645,-0.9675922,0.6365621,-0.7395384,0.77620506,-0.21098123,-0.2064696,1.2727462,-0.29381907,-0.030192303,0.14325169,1.1996083,-0.49519235
0.1,0.0,1.1999999999999997,0.5235987755982988,-0.5235987755982988,0,-0.052628078,0.23174468,-0.96841955,0.6358078,-0.7373149,0.77659625,-0.21603373,-0.1432675,1.2703923,0.030790823,-0.10846299,-0.29105377,1.2152388,-0.97486746
0.1,0.0,1.1999999999999997,0.5235987755982988,-0.5235987755982988,0,-0.05335378,0.22964504,-0.9676247,0.63664824,-0.7349308,0.77675587,-0.21953408,-0.032847673,1.2614274,-0.07315201,-0.11555674,-0.06803295,1.1104441,-0.5641098
0.1,0.0,1.1999999999999997,0.5235987755982988,-0.5235987755982988,0,-0.052921165,0.22708601,-0.9691183,0.63492143,-0.7379899,0.77472717,-0.2158263,-0.1940682,1.2644845,-0.23663199,-0.055965573,0.43493143,1.2848824,-0.098052874
0.1,0.0,1.1999999999999997,0.5235987755982988,-0.5235987755982988,0,-0.05330609,0.22811188,-0.9666638,0.6360843,-0.739143,0.7766211,-0.22454433,0.166491,1.1900553,-0.23660444,-0.14847508,0.0073642666,1.2774414,-0.43656924
0.1,0.0,1.1999999999999997,0.5235987755982988,-0.5235987755982988,0,-0.053727414,0.22632483,-0.9683145,0.6353586,-0.7373176,0.776478,-0.21377166,-0.6013405,1.1736523,-0.340906,-0.029820587,0.07385482,1.1658854,-0.03667127
0.1,0.0,1.1999999999999997,0.5235987755982988,-0.5235987755982988,0,-0.052144572,0.22660676,-0.9682791,0.63510865,-0.73633903,0.77805275,-0.22650817,-0.36616293,1.3771366,-0.2556451,-0.067925245,-0.11121778,1.3350081,-0.07447322
0.1,0.0,1.1999999999999997,0.5235987755982988,-0.5235987755982988,0,-0.052344237,0.22863592,-0.96929324,0.63499284,-0.7352388,0.77713,-0.23280811,-0.5724967,1.227867,-0.0045942697,-0.05037015,0.23046729,1.1772715,-0.4089623
0.1,0.0,1.1999999999999997,0.5235987755982988,-0.5235987755982988,0,-0.053792097,0.23183256,-0.96819156,0.63545763,-0.73465085,0.7782479,-0.2079896,-0.6074724,1.2148055,-0.08027944,-0.12280053,-0.019244965,1.1738836,-0.85386795
0.1,0.0,1.1999999999999997,0.5235987755982988,-0.5235987755982988,0,-0.054461583,0.22880794,-0.9686817,0.6355469,-0.73532784,0.7766077,-0.22691466,-1.0233318,1.2634846,-0.17275469,0.026508832,-0.07862033,1.3280114,-0.68950593
0.1,0.0,1.1999999999999997,0.5235987755982988,-0.5235987755982988,0,-0.053336,0.22628644,-0.9685698,0.63592196,-0.73894936,0.7756055,-0.2129949,-0.80767494,1.2362624,-0.20202272,-0.07798719,0.07648105,1.3531417,-0.48883834
0.1,0.0,1.1999999999999997,0.5235987755982988,-0.5235987755982988,0,-0.05403713,0.2251804,-0.96700233,0.6365456,-0.735498,0.77584404,-0.21070974,-0.023855632,1.2759358,0.09800217,-0.11949146,-0.016692188,1.3577745,-0.3286903
0.1,0.0,1.1999999999999997,0.5235987755982988,-0.5235987755982988,0,-0.052489553,0.2337759,-0.969882,0.63519555,-0.7333027,0.777377,-0.21463446,-0.20452446,1.286353,0.092290744,-0.056214623,-0.06881162,1.2165486,-0.39533603
0.1,0.0,1.1999999999999997,0.5235987755982988,-0.5235987755982988,0,-0.053732097,0.22805214,-0.96860474,0.63517445,-0.73433226,0.77652144,-0.21628027,-0.71917284,1.2454681,0.16575892,-0.0012858838,-0.031876225,1.1940358,-0.8024855
0.1,0.0,1.1999999999999997,0.5235987755982988,-0.5235987755982988,0,-0.053269796,0.23169777,-0.9669273,0.6360497,-0.7368978,0.77882886,-0.22426075,0.22903623,1.250377,-0.12825114,-0.048823014,0.22620961,1.3300618,-0.3873655
0.1,0.0,1.1999999999999997,0.5235987755982988,-0.5235987755982988,0,-0.054590974,0.2239114,-0.96798027,0.6358022,-0.73682356,0.7765543,-0.2201841,-0.8653624,1.3432211,-0.3008642,-0.04253501,0.0715711,1.2768521,-0.94720256
0.1,0.0,1.1999999999999997,0.5235987755982988,-0.5235987755982988,0,-0.052905224,0.22576204,-0.96832466,0.63480616,-0.73689795,0.7773174,-0.20479244,0.14116348,1.3203688,-0.1793154,-0.054186244,-0.042973053,1.2355373,-0.80714667
0.1,0.0,1.1999999999999997,0.5235987755982988,-0.5235987755982988,0,-0.05350813,0.22864783,-0.9687519,0.6359153,-0.73171765,0.77721214,-0.21600446,-1.157829,1.2900878,0.17700589,-0.0645077,0.15579638,1.0900699,0.36951345
0.1,0.0,1.1999999999999997,0.5235987755982988,-0.5235987755982988,0,-0.053042024,0.22601075,-0.9685463,0.6351028,-0.7379745,0.7745625,-0.2313614,-0.7257923,1.4062957,-0.047234226,-0.08840753,-0.2259302,1.2288191,-0.7553159
0.1,0.0,1.1999999999999997,0.5235987755982988,-0.5235987755982988,0,-0.052837674,0.22941287,-0.9689322,0.63550025,-0.734547,0.777193,-0.2365881,-0.27143565,1.2421024,-0.34319454,0.006492533,0.09837791,1.3045318,-0.43142822
0.1,0.0,1.1999999999999997,0.5235987755982988,-0.5235987755982988,0,-0.052376185,0.22432692,-0.96941614,0.63584656,-0.73792726,0.777639,-0.21738268,-0.3337502,1.1794529,-0.06067673,-0.13044557,-0.0496758,1.1506653,-0.313623
0.1,0.0,1.1999999999999997,0.5235987755982988,-0.5235987755982988,0,-0.053715896,0.22065572,-0.96757764,0.63573956,-0.7346247,0.7761921,-0.21611184,-0.6226089,1.2831526,-0.119085625,-0.07026144,0.020838752,1.2482389,-0.4450319
0.1,0.0,1.1999999999999997,0.5235987755982988,-0.5235987755982988,0,-0.053786293,0.22438343,-0.9689643,0.63603705,-0.7324235,0.77648497,-0.20392233,-0.10403705,1.2519729,-0.0683302,-0.0713012,0.23389938,1.2961255,-0.7626932
0.1,0.0,1.1999999999999997,0.5235987755982988,-0.5235987755982988,0,-0.053261902,0.22567715,-0.9674458,0.63476306,-0.73802716,0.777749,-0.22051878,-0.623932,1.2559737,-0.20906347,-0.110031426,-0.013337075,1.3511195,0.12036149
0.1,0.0,1.1999999999999997,0.5235987755982988,-0.5235987755982988,0,-0.05302493,0.22761211,-0.968218,0.63500124,-0.73804575,0.7768963,-0.21866775,-0.6598557,1.3917867,0.060453847,-0.072734915,0.010470707,1.3278998,-0.3161198
0.1,0.0,1.1999999999999997,0.5235987755982988,-0.5235987755982988,0,-0.053881083,0.22929324,-0.96780103,0.63604677,-0.7389383,0.7760107,-0.22807334,0.06222934,1.3771801,-0.23551568,-0.1388265,0.09428005,1.3835034,-1.3858372
0.1,0.0,1.1999999999999997,0.5235987755982988,-0.5235987755982988,0,-0.0524474,0.2219221,-0.9678599,0.63604003,-0.7355702,0.77757996,-0.22221541,-0.1823228,1.2683171,-0.012724551,-0.14614505,-0.1765999,1.2722048,-0.5121568
0.1,0.0,1.1999999999999997,0.5235987755982988,-0.5235987755982988,0,-0.052983936,0.22776127,-0.968714,0.6346922,-0.73632187,0.77821815,-0.21728458,-1.3092924,1.2639803,-0.23487622,-0.024944445,-0.24480875,1.1483319,-0.5994539
0.1,0.0,1.1999999999999997,0.5235987755982988,-0.5235987755982988,0,-0.052916232,0.22667283,-0.97033733,0.635762,-0.73257947,0.7775885,-0.22558278,-0.71239567,1.3082483,-0.21309155,-0.0958073,0.111836985,1.1169549,-0.23198526
0.1,0.0,1.1999999999999997,0.5235987755982988,-0.5235987755982988,0,-0.05313572,0.23143154,-0.96825147,0.635647,-0.7377068,0.777392,-0.22073278,-0.8005111,1.274152,-0.04673667,-0.08426281,-0.052946083,1.086722,-0.50764614
0.1,0.0,1.1999999999999997,0.5235987755982988,-0.5235987755982988,0,-0.05203861,0.22649953,-0.96819526,0.63502914,-0.7383915,0.7790409,-0.22434644,0.3166575,1.267889,0.09470776,-0.16004816,-0.18028471,1.1655703,-0.925124
0.1,0.0,1.1999999999999997,0.5235987755982988,-0.5235987755982988,0,-0.053373255,0.22534053,-0.96867025,0.6351299,-0.7367488,0.77744365,-0.22013421,-0.9006595,1.3267103,-0.37485474,-0.017001752,0.017130405,1.1301295,-0.5131965
0.1,0.0,1.1999999999999997,0.5235987755982988,-0.5235987755982988,0,-0.05357293,0.22507259,-0.9676368,0.63519835,-0.7387257,0.7763202,-0.22647107,-0.83454984,1.1791176,-0.11078992,-0.06618019,0.2655333,1.1776853,-0.38261452
0.1,0.0,1.1999999999999997,0.5235987755982988,-0.5235987755982988,0,-0.05302596,0.23372643,-0.96963793,0.63487786,-0.73710704,0.7767159,-0.21910432,-0.7081998,1.277085,-0.088484965,0.02581361,0.030068787,1.2116792,-0.007884791
0.1,0.0,1.1999999999999997,0.5235987755982988,-0.5235987755982988,0,-0.052667685,0.22882739,-0.96974593,0.6353895,-0.7355739,0.7765941,-0.20958932,-0.7597492,1.3698539,0.1247122,-0.026072096,0.11421972,1.2937121,-1.2190989
0.1,0.0,1.1999999999999997,0.5235987755982988,-0.5235987755982988,0,-0.054571327,0.2306547,-0.96953475,0.6366309,-0.7361813,0.775848,-0.21473864,-0.8478899,1.3052588,0.019387828,-0.082663335,0.0924812,1.1778697,-0.7537635
0.1,0.0,1.1999999999999997,0.5235987755982988,-0.5235987755982988,0,-0.05351538,0.22922109,-0.96837384,0.6355643,-0.7377164,0.7777028,-0.21290296,-0.4302122,1.4218444,-0.1966609,0.02045648,0.026079942,1.1235988,-0.67243844
0.1,0.0,1.1999999999999997,0.5235987755982988,-0.5235987755982988,0,-0.05361161,0.23024073,-0.9686478,0.6362527,-0.73885244,0.7766611,-0.21548943,0.045511078,1.3545845,-0.233338,-0.07268611,-0.0459995,1.2572908,0.3467642
0.1,0.0,1.1999999999999997,0.5235987755982988,-0.5235987755982988,0,-0.053148158,0.22921295,-0.96884835,0.6354622,-0.7367947,0.7784014,-0.21178007,-0.37813908,1.3177191,-0.032593902,-0.016320411,0.028242052,1.1120766,-0.73599
0.1,0.0,1.1999999999999997,0.5235987755982988,-0.5235987755982988,0,-0.05342005,0.22877672,-0.9692677,0.6362493,-0.735425,0.7786096,-0.22403012,-0.7552239,1.45694,-0.18080577,-0.094774276,-0.02945256,1.2671708,0.10624515
0.1,0.0,1.1999999999999997,0.5235987755982988,-0.5235987755982988,0,-0.053147156,0.22478192,-0.9690276,0.6349668,-0.7368217,0.77815175,-0.20698367,-0.32661122,1.2892473,-0.44779128,-0.1238591,-0.09599192,1.1466126,-0.35649624
0.1,0.0,1.1999999999999997,0.5235987755982988,-0.5235987755982988,0,-0.05359524,0.22566034,-0.9678411,0.63475424,-0.73596466,0.77816397,-0.2170472,-0.93467283,1.2183869,0.018162088,-0.14632088,-0.21858034,1.1857758,-0.3445657
0.1,0.0,1.1999999999999997,0.5235987755982988,-0.5235987755982988,0,-0.054366674,0.22454242,-0.96839505,0.6354548,-0.7370319,0.77667314,-0.2192399,0.5956153,1.2515411,0.014170656,-0.029391699,0.07159189,1.2210313,-0.35411823
0.1,0.0,1.1999999999999997,0.5235987755982988,-0.5235987755982988,0,-0.052977744,0.22188674,-0.96878785,0.63585806,-0.73844534,0.77578866,-0.21586418,-0.7150776,1.2760824,-0.27585992,-0.0950738,0.10156769,1.3084226,-0.53634614
0.1,0.0,1.1999999999999997,0.5235987755982988,-0.5235987755982988,0,-0.05417222,0.22896898,-0.96809596,0.6361754,-0.7359241,0.7781952,-0.2106719,0.105831586,1.2416435,0.023456011,-0.020492071,-0.2349399,1.2557569,-0.37062776
0.1,0.0,1.1999999999999997,0.5235987755982988,-0.5235987755982988,0,-0.053573053,0.22571066,-0.9693515,0.6345383,-0.7399035,0.7768417,-0.22740175,-0.060394228,1.2648219,-0.2402743,-0.054279458,0.2304702,1.1361684,-0.7761307
0.1,0.0,1.1999999999999997,0.5235987755982988,-0.5235987755982988,0,-0.052860953,0.2303505,-0.9687262,0.63538903,-0.73506874,0.7787327,-0.22061291,0.044430304,1.2662897,-0.054378405,-0.09089102,0.10737127,1.2264326,-0.36122614
0.1,0.0,1.1999999999999997,0.5235987755982988,-0.5235987755982988,0,-0.053766955,0.2278417,-0.9693891,0.6361353,-0.7370158,0.7756879,-0.21245743,-0.6610479,1.2617393,-0.15875085,-0.006182915,0.10616052,1.2958411,-1.5046644
0.1,0.0,1.1999999999999997,0.5235987755982988,-0.5235987755982988,0,-0.051874183,0.22877303,-0.96867025,0.6364786,-0.7366146,0.77790093,-0.21809833,-0.6562516,1.2852185,-0.29716507,-0.05883665,-0.11651358,1.248839,-0.68448186
0.1,0.0,1.1999999999999997,0.5235987755982988,-0.5235987755982988,0,-0.052765723,0.22746597,-0.96813464,0.63582146,-0.7363258,0.7785844,-0.22711466,-0.50710577,1.4080231,-0.06972629,-0.0045021297,0.03124555,1.1641774,-0.5131886
0.1,0.0,1.1999999999999997,0.5235987755982988,-0.5235987755982988,0,-0.052978802,0.22924101,-0.96831805,0.6357039,-0.73879766,0.7796183,-0.20795101,-0.6223799,1.2573644,0.17497806,-0.011808111,-0.10844922,1.2138777,-0.44030076
0.1,0.0,1.1999999999999997,0.5235987755982988,-0.5235987755982988,0,-0.05364742,0.22819583,-0.96871585,0.63570637,-0.7400275,0.7769414,-0.21958847,-0.54598683,1.3128891,-0.023909034,-0.13663127,-0.00075646624,1.1982054,-0.5070468
0.1,0.0,1.1999999999999997,0.5235987755982988,-0.5235987755982988,0,-0.053407643,0.23177466,-0.96826106,0.6357973,-0.73842067,0.77803445,-0.2159811,-0.88011795,1.3062637,-0.082991906,-0.06813023,-0.041302606,1.167739,-0.7654997
0.1,0.0,1.1999999999999997,0.5235987755982988,-0.5235987755982988,0,-0.05316341,0.22293238,-0.96852314,0.6352572,-0.733876,0.7789968,-0.2282858,-0.32174084,1.3737127,-0.35793075,-0.02107169,0.009643753,1.2346665,-0.6557569
0.1,0.0,1.1999999999999997,0.5235987755982988,-0.5235987755982988,0,-0.05284105,0.22528203,-0.96959656,0.636006,-0.73825616,0.7775381,-0.20706123,-0.215102,1.2594452,-0.030516623,-0.023698889,-0.17848197,1.3018659,-0.20751294
0.1,0.0,1.1999999999999997,0.5235987755982988,-0.5235987755982988,0,-0.053171754,0.23109722,-0.97041166,0.6352667,-0.73541147,0.7782142,-0.209878,-0.45231545,1.2750679,-0.050342247,-0.12682019,0.30741993,1.230276,-0.74806124
0.1,0.0,1.1999999999999997,0.5235987755982988,-0.5235987755982988,0,-0.053840753,0.22440301,-0.96796864,0.635259,-0.7395872,0.7763261,-0.22125277,-0.051413145,1.3755383,-0.05933926,-0.08570815,-0.062323656,1.104417,-0.7009184
0.1,0.0,1.1999999999999997,0.5235987755982988,-0.5235987755982988,0,-0.054153927,0.22836347,-0.9673037,0.63610244,-0.7352741,0.7793099,-0.21720497,-0.65577096,1.2448226,-0.018076658,-0.0819861,0.04687073,1.2893679,-0.90096843
0.1,0.0,1.1999999999999997,0.5235987755982988,-0.5235987755982988,0,-0.052701045,0.23116277,-0.967262,0.6361959,-0.7429127,0.7777689,-0.22539932,-1.0582087,1.2290992,-0.22190958,-0.09590928,0.2079748,1.2190961,-0.34712282
0.1,0.0,1.1999999999999997,0.5235987755982988,-0.5235987755982988,0,-0.053234737,0.22960423,-0.9691341,0.63546103,-0.7365096,0.7772176,-0.22341791,0.21390985,1.2899483,0.029607516,-0.050203223,0.045661613,1.2400386,-0.9137184
0.1,0.0,1.1999999999999997,0.5235987755982988,-0.5235987755982988,0,-0.053039443,0.22893313,-0.9689144,0.6354681,-0.74042714,0.7765076,-0.22575381,-0.8685521,1.2217181,-0.074001476,-0.0777325,-0.121958986,1.0393933,-0.21164389
0.1,0.0,1.1999999999999997,0.5235987755982988,-0.5235987755982988,0,-0.053528808,0.22454067,-0.9679031,0.6363304,-0.74022555,0.77722275,-0.216496,0.27393612,1.3143405,-0.33666843,-0.13416496,0.12397657,1.2052757,-0.95130336
0.1,0.0,1.1999999999999997,0.5235987755982988,-0.5235987755982988,0,-0.053243887,0.23090099,-0.9699932,0.63543206,-0.73731685,0.77641433,-0.21995857,-0.93697923,1.3368015,-0.055434957,-0.0328914,-0.011597119,1.2877302,-0.7450514
0.1,0.0,1.1999999999999997,0.5235987755982988,-0.5235987755982988,0,-0.05420523,0.21945329,-0.9668434,0.63475823,-0.73959696,0.7795934,-0.2115422,-1.2438079,1.1912922,-0.036156364,-0.028937027,-0.11231001,1.2445256,-0.67624897
0.1,0.0,1.1999999999999997,0.5235987755982988,-0.5235987755982988,0,-0.05363077,0.22798349,-0.968464,0.6363995,-0.7382275,0.7781194,-0.21906964,0.28596842,1.3973484,-0.34531334,-0.010369173,-0.12720214,1.1491922,-0.8580453
0.1,0.0,1.1999999999999997,0.5235987755982988,-0.5235987755982988,0,-0.053338975,0.22117485,-0.9677055,0.63549,-0.7365842,0.7800929,-0.22366016,-0.03498952,1.232784,-0.17816,-0.08810123,-0.28702405,1.3161627,-0.32718346
0.1,0.0,1.1999999999999997,0.5235987755982988,-0.5235987755982988,0,-0.05318639,0.22541672,-0.9699801,0.6354296,-0.73706806,0.7782512,-0.21352793,-1.4678282,1.3820587,-0.15149653,-0.079780936,0.18821305,1.168719,-0.44935015
0.1,0.0,1.1999999999999997,0.5235987755982988,-0.5235987755982988,0,-0.053585023,0.22621268,-0.97044396,0.63459295,-0.735847,0.777789,-0.22478901,-0.5131978,1.3451207,-0.05544755,-0.021148069,0.027632393,1.2297361,-0.58049023
0.1,0.0,1.1999999999999997,0.5235987755982988,-0.5235987755982988,0,-0.05319359,0.23033814,-0.9704219,0.6354252,-0.73930544,0.77741486,-0.21240371,-0.58663195,1.2536048,-0.17195803,0.083863474,0.13369298,1.2262734,-1.1546583
0.1,0.0,1.1999999999999997,0.5235987755982988,-0.5235987755982988,0,-0.053550202,0.22957624,-0.9665729,0.63507855,-0.73461527,0.7768593,-0.2195647,0.1799535,1.2267411,-0.014506127,0.009021172,-0.05897423,1.2455083,-0.3249362
0.1,0.0,1.1999999999999997,0.5235987755982988,-0.5235987755982988,0,-0.05330694,0.22766727,-0.96652144,0.6355042,-0.7380051,0.7755016,-0.1996565,-0.6559851,1.3805269,-0.28075093,0.07046364,0.078863785,1.2332197,-0.86092037
0.1,0.0,1.1999999999999997,0.5235987755982988,-0.5235987755982988,0,-0.052417517,0.22328137,-0.96776587,0.6360674,-0.7341262,0.77670133,-0.22330277,-0.6656346,1.36444,-0.04460769,-0.09386245,-0.21960373,0.9796499,-0.643623
0.1,0.0,1.1999999999999997,0.5235987755982988,-0.5235987755982988,0,-0.05407389,0.22398277,-0.9662327,0.6356692,-0.7345009,0.7785352,-0.2289222,-1.1996161,1.2396677,-0.22628458,-0.030182434,0.20845836,1.1544659,-0.1752151
0.1,0.0,1.1999999999999997,0.5235987755982988,-0.5235987755982988,0,-0.053397067,0.22424114,-0.96603286,0.6354987,-0.7365691,0.77749604,-0.20710117,-0.16289783,1.4161417,0.020336378,0.010794238,-0.25454906,1.1768513,-0.9798615
0.1,0.0,1.1999999999999997,0.5235987755982988,-0.5235987755982988,0,-0.052995145,0.22866395,-0.9660583,0.63587207,-0.7368276,0.7776902,-0.22578909,0.4544927,1.3286159,-0.27955228,-0.084341295,-0.040228844,1.2363008,-0.45190427
0.1,0.0,1.1999999999999997,0.5235987755982988,-0.5235987755982988,0,-0.053850487,0.2257798,-0.9663435,0.6350542,-0.73583394,0.7772581,-0.2093179,-0.7902219,1.2516234,-0.12012439,-0.015525273,0.18170635,1.3131112,-1.0739206
0.1,0.0,1.1999999999999997,0.5235987755982988,-0.5235987755982988,0,-0.05409177,0.22612843,-0.9684286,0.63662237,-0.73674834,0.77435577,-0.21293133,-0.111707084,1.3691812,-0.19112286,-0.09353884,-0.057494387,1.2294672,-0.93772477
0.1,0.0,1.1999999999999997,0.5235987755982988,-0.5235987755982988,0,-0.053360958,0.2324185,-0.9660092,0.6358505,-0.73754036,0.77884126,-0.2169801,-0.74682814,1.3567741,-0.013113314,-0.043243617,0.22266331,1.2435669,-0.018676491
0.1,0.0,1.1999999999999997,0.5235987755982988,-0.5235987755982988,0,-0.052697282,0.22439997,-0.9689692,0.63457,-0.7349135,0.7756829,-0.21453968,-1.1154581,1.2858396,0.019121941,0.0023060273,0.19766727,1.2505579,-0.5318605
0.1,0.0,1.1999999999999997,0.5235987755982988,-0.5235987755982988,0,-0.053136088,0.2297812,-0.9690327,0.6348292,-0.73733026,0.77586836,-0.21862912,-0.85462564,1.2162782,-0.21150544,-0.12415731,-0.083445266,1.1409048,0.12040523
0.1,0.0,1.1999999999999997,0.5235987755982988,-0.5235987755982988,0,-0.05343307,0.23006915,-0.9680536,0.6355174,-0.7371826,0.77664274,-0.2171224,-0.084781006,1.4013609,-0.28617382,-0.0143684875,0.121208206,1.1822668,-0.7050024
0.1,0.0,1.1999999999999997,0.5235987755982988,-0.5235987755982988,0,-0.05422271,0.22371438,-0.96737796,0.6361266,-0.737921,0.77522105,-0.20650943,-0.18685648,1.3459947,-0.35938898,-0.068105966,-0.08335724,1.2670425,-0.040559944
0.1,0.0,1.1999999999999997,0.5235987755982988,-0.5235987755982988,0,-0.05303216,0.22952437,-0.9680946,0.63518023,-0.7351043,0.7775087,-0.22126746,-1.0313677,1.1701169,-0.23284143,-0.047018405,-0.06221435,1.2898532,-0.004319621
0.1,0.0,1.1999999999999997,0.5235987755982988,-0.5235987755982988,0,-0.053361215,0.2256441,-0.966669,0.63499,-0.73787636,0.7785533,-0.19922322,-0.43744782,1.4093401,-0.35845876,-0.029115949,-0.076161705,1.283296,-0.33788744
0.1,0.0,1.1999999999999997,0.5235987755982988,-0.5235987755982988,0,-0.05298136,0.22342941,-0.96760356,0.63538545,-0.7344765,0.7758594,-0.22306468,0.030699627,1.2693701,-0.010686201,-0.093859784,0.14881288,1.2690173,-0.8726715
0.1,0.0,1.1999999999999997,0.5235987755982988,-0.5235987755982988,0,-0.053741537,0.23039524,-0.96774155,0.636238,-0.73782593,0.7763353,-0.21131852,-0.00751402,1.314956,-0.016187346,-0.09899889,-0.14204153,1.2708834,-0.11831979
0.1,0.0,1.1999999999999997,0.5235987755982988,-0.5235987755982988,0,-0.053179655,0.2305876,-0.9694456,0.63620013,-0.7352278,0.7753814,-0.22063018,-0.50046515,1.3770497,-0.02441214,-0.06841084,0.14135538,1.2424257,-0.86626244
0.1,0.0,1.1999999999999997,0.5235987755982988,-0.5235987755982988,0,-0.05341724,0.22475268,-0.9686727,0.6352718,-0.73572236,0.7755179,-0.2119333,-0.1327088,1.2994456,-0.017620975,-0.046479724,-0.056243777,1.3621258,0.05162801
0.1,0.0,1.1999999999999997,0.5235987755982988,-0.5235987755982988,0,-0.053541094,0.22710577,-0.9659474,0.6358016,-0.73876154,0.7775941,-0.22575425,-0.5872204,1.205468,0.15075244,-0.08704655,0.005540911,1.2159028,-0.5452926
0.1,0.0,1.1999999999999997,0.5235987755982988,-0.5235987755982988,0,-0.05358323,0.2254007,-0.96812767,0.6356175,-0.7373786,0.7764253,-0.21994366,0.20617998,1.3425361,-0.2066842,-0.11071193,-0.3439314,1.3032385,-0.46194512
0.1,0.0,1.1999999999999997,0.5235987755982988,-0.5235987755982988,0,-0.053505406,0.22535431,-0.9679154,0.63511413,-0.73696476,0.77727586,-0.21812634,-0.0487158,1.3861877,-0.050282653,0.044484343,-0.18813974,1.2281876,-0.5473857
0.1,0.0,1.1999999999999997,0.5235987755982988,-0.5235987755982988,0,-0.05407781,0.22395541,-0.9674243,0.63531995,-0.73582166,0.7764018,-0.21751878,0.5216707,1.2445498,-0.294451,-0.04539403,0.03415867,1.2064631,-0.6893316
0.1,0.0,1.1999999999999997,0.5235987755982988,-0.5235987755982988,0,-0.05309079,0.22910617,-0.96829045,0.6352893,-0.73446035,0.7772593,-0.20971464,0.013289085,1.2355226,-0.2365141,0.0018424923,0.13922566,1.2306911,-0.4719158
0.1,0.0,1.1999999999999997,0.5235987755982988,-0.5235987755982988,0,-0.053785965,0.2262446,-0.9674978,0.63512754,-0.7375572,0.77647793,-0.22529726,0.024204606,1.3411586,-0.12966746,-0.11181874,0.10908707,1.1238799,-0.68079203
0.1,0.0,1.1999999999999997,0.5235987755982988,-0.5235987755982988,0,-0.052925393,0.22750896,-0.9686823,0.6351902,-0.738859,0.77666986,-0.21540503,-0.19738747,1.2624176,-0.09336737,-0.044281647,-0.056819044,1.0532577,-0.9415325
0.1,0.0,1.1999999999999997,0.5235987755982988,-0.5235987755982988,0,-0.053373482,0.23115928,-0.9678514,0.63576895,-0.73395866,0.77764416,-0.22099878,0.21345286,1.1548262,-0.010813181,-0.09845874,-0.12771365,1.3173594,-1.0566049
0.1,0.0,1.1999999999999997,0.5235987755982988,-0.5235987755982988,0,-0.052413717,0.22790138,-0.9675637,0.6361708,-0.73728615,0.7774338,-0.22313887,-0.45111072,1.230101,0.11298053,-0.13024653,0.12857328,1.1664653,-0.2959141
0.1,0.0,1.1999999999999997,0.5235987755982988,-0.5235987755982988,0,-0.053063806,0.23042732,-0.96896404,0.63622606,-0.7385341,0.7757288,-0.21181071,-0.13224477,1.3064861,-0.15987478,0.0010783478,0.00647253,1.1250719,-0.3822888
0.1,0.0,1.1999999999999997,0.5235987755982988,-0.5235987755982988,0,-0.052755505,0.22395656,-0.96885026,0.63523334,-0.73613995,0.7752594,-0.22307512,0.1612826,1.3281587,-0.19298072,-0.0943631,0.10274044,1.2514757,-0.5353772
0.1,0.0,1.1999999999999997,0.5235987755982988,-0.5235987755982988,0,-0.05212214,0.22613685,-0.9681547,0.6346241,-0.73796237,0.78091943,-0.20941608,-0.3080634,1.2504699,-0.23202163,-0.04178031,0.22396733,1.2634687,-1.0489529
0.1,0.0,1.1999999999999997,0.5235987755982988,-0.5235987755982988,0,-0.053106215,0.22860189,-0.96864283,0.6354996,-0.73930126,0.77778673,-0.2177826,-0.37364107,1.3156775,-0.08028002,0.066961385,0.03131116,1.2123345,-0.37619945
0.1,0.0,1.1999999999999997,0.5235987755982988,-0.5235987755982988,0,-0.052494183,0.22299731,-0.96821773,0.6354869,-0.7373658,0.7767806,-0.22362511,-0.26653188,1.2038493,0.04996253,0.009574521,0.13241519,1.2160494,-1.2216314
0.1,0.0,1.1999999999999997,0.5235987755982988,-0.5235987755982988,0,-0.053693935,0.23185214,-0.9679552,0.63570523,-0.740511,0.77609,-0.2245831,-0.8002409,1.2425798,-0.15352193,-0.120255634,0.15902509,1.1670222,-0.8630596
0.1,0.0,1.1999999999999997,0.5235987755982988,-0.5235987755982988,0,-0.053076558,0.22488184,-0.9686915,0.6349808,-0.73897475,0.7785228,-0.22354166,-0.34746733,1.3062903,-0.37803945,-0.15989678,0.41233167,1.1845926,-0.013763745
0.1,0.0,1.1999999999999997,0.5235987755982988,-0.5235987755982988,0,-0.05392042,0.22719988,-0.9688646,0.63557816,-0.73482823,0.77750546,-0.21392095,-0.49879098,1.2655752,-0.19371167,-0.048616167,-0.09663687,1.2174561,-0.6910248
0.1,0.0,1.1999999999999997,0.5235987755982988,-0.5235987755982988,0,-0.0528978,0.22163665,-0.9689545,0.63510615,-0.73687226,0.7781143,-0.22016305,-0.6593416,1.4159383,-0.0416884,-0.06983986,-0.09000057,1.2525308,-1.1977856
0.1,0.0,1.1999999999999997,0.5235987755982988,-0.5235987755982988,0,-0.052641675,0.22506678,-0.9679001,0.6358852,-0.73914987,0.77753955,-0.21745023,-0.3293739,1.3066453,-0.11425413,-0.030143503,0.0516974,1.2989374,-0.8667839
0.1,0.0,1.1999999999999997,0.5235987755982988,-0.5235987755982988,0,-0.053917896,0.23019543,-0.9684425,0.63438,-0.7402811,0.7767113,-0.21974744,-0.3065712,1.339843,-0.15889513,0.019030333,-0.21853302,1.3518013,-0.32269165
0.1,0.0,1.1999999999999997,0.5235987755982988,-0.5235987755982988,0,-0.053408224,0.2271491,-0.9691566,0.6348636,-0.74110496,0.77620846,-0.21284692,-0.74875265,1.3245618,0.02215198,-0.10003093,0.017817618,1.1210152,0.21808176
0.1,0.0,1.1999999999999997,0.5235987755982988,-0.5235987755982988,0,-0.052686397,0.23144871,-0.9681208,0.6356829,-0.73863053,0.77973527,-0.22777888,-0.29247367,1.2308879,-0.27742055,-0.0946718,-0.09922925,1.127916,-0.80469334
0.1,0.0,1.1999999999999997,0.5235987755982988,-0.5235987755982988,0,-0.053550314,0.22547361,-0.9682,0.635963,-0.738251,0.7780788,-0.21957153,-0.71448857,1.2559837,-0.13079067,-0.16490519,-0.049864955,1.2246095,-0.69941854
0.1,0.0,1.1999999999999997,0.5235987755982988,-0.5235987755982988,0,-0.05302793,0.23026897,-0.969178,0.6362524,-0.74181265,0.777732,-0.22455049,-0.5687921,1.1175591,-0.12685078,-0.069167756,-0.18017699,1.2605821,-0.19254401
0.1,0.0,1.1999999999999997,0.5235987755982988,-0.5235987755982988,0,-0.053712662,0.2289922,-0.97005045,0.6351591,-0.73691684,0.77887374,-0.2150079,-0.5557438,1.3506728,-0.033368256,-0.11363809,-0.06297385,1.2316098,-0.98553544
0.1,0.0,1.1999999999999997,0.5235987755982988,-0.5235987755982988,0,-0.054224905,0.22560635,-0.9705242,0.6362193,-0.7339744,0.7771382,-0.21743786,-0.20029238,1.3023113,-0.16011675,-0.04578731,0.18700422,1.2011955,-0.57016295
0.1,0.0,1.1999999999999997,0.5235987755982988,-0.5235987755982988,0,-0.05273784,0.23032956,-0.9688919,0.63569087,-0.73545855,0.77710205,-0.22088426,-0.41575918,1.3999693,0.027217465,-0.0913998,-0.21902423,1.0731091,-0.71120256
0.1,0.0,1.1999999999999997,0.5235987755982988,-0.5235987755982988,0,-0.05339136,0.22184525,-0.9685781,0.6354814,-0.73498464,0.7741401,-0.21664304,0.2783103,1.3579733,-0.06336605,-0.05040071,0.12208777,1.3038255,-0.07929423
0.1,0.0,1.1999999999999997,0.5235987755982988,-0.5235987755982988,0,-0.05302616,0.23007183,-0.9667226,0.6362454,-0.73932475,0.7771633,-0.2187652,0.3030425,1.2288108,-0.02156179,0.017921291,-0.30927774,1.3561635,-0.34436363
0.1,0.0,1.1999999999999997,0.5235987755982988,-0.5235987755982988,0,-0.05308836,0.2313351,-0.9684173,0.6357351,-0.7370943,0.7762852,-0.20878996,-0.18190388,1.4028391,-0.1114789,-0.08035555,-0.15298294,1.3367307,-0.37634984
0.1,0.0,1.1999999999999997,0.5235987755982988,-0.5235987755982988,0,-0.05364146,0.22773498,-0.9674464,0.6355781,-0.7358712,0.77777934,-0.22346294,-0.94008255,1.4084013,-0.13113666,-0.019802121,-0.18165043,1.2513422,-1.0240898
0.1,0.0,1.1999999999999997,0.5235987755982988,-0.5235987755982988,0,-0.054333843,0.22682992,-0.9682465,0.6353444,-0.7394609,0.77685684,-0.21428177,-0.19228134,1.4205949,-0.046034,-0.083515435,0.15334201,1.1568059,-0.843008
0.1,0.0,1.1999999999999997,0.5235987755982988,-0.5235987755982988,0,-0.05337322,0.23010772,-0.9685346,0.63543266,-0.7372424,0.77827215,-0.21464764,0.119976126,1.3744496,0.048625514,-0.025521304,0.23832282,1.2274501,-0.96109194
0.1,0.0,1.1999999999999997,0.5235987755982988,-0.5235987755982988,0,-0.052378364,0.22903305,-0.9673811,0.63521767,-0.73674446,0.7777319,-0.2265815,-0.91655225,1.4197437,-0.21032298,-0.13757096,0.17939332,1.3869087,-0.7496298
0.1,0.0,1.1999999999999997,0.5235987755982988,-0.5235987755982988,0,-0.053370364,0.22388922,-0.96949226,0.6346825,-0.7363424,0.77741015,-0.22047126,-0.5107717,1.2372595,-0.026327532,-0.06340115,0.06721986,1.3392243,-0.32742792
