sanky1234/BimanualDexCatch/isaacgymenvs/cem_results/football_pose_-0.2_0.10000000000000003_0.9999999999999999_-0.5235987755982988_0.0_0_2025-05-25.csv
x,y,z,roll,pitch,yaw,robot1/joint1,robot1/joint2,robot1/joint3,robot1/joint4,robot1/joint5,robot1/joint6,robot1/joint7,robot2/joint1,robot2/joint2,robot2/joint3,robot2/joint4,robot2/joint5,robot2/joint6,robot2/joint7
-0.2,0.10000000000000003,0.9999999999999999,-0.5235987755982988,0.0,0,1.573031,0.75514424,0.5217832,-0.12173079,0.14626245,1.2999358,2.0950892,0.6071165,-1.5508538,-0.36144945,-7.21186e-06,-0.011407838,0.9922222,-0.35864496
-0.2,0.10000000000000003,0.9999999999999999,-0.5235987755982988,0.0,0,1.5732708,0.7556308,0.5261199,-0.12862876,0.14080395,1.3070089,2.0660217,0.6097809,-1.5858469,-0.28366423,-0.0043444675,-0.3221635,0.81869566,0.66933674
-0.2,0.10000000000000003,0.9999999999999999,-0.5235987755982988,0.0,0,1.5743427,0.7510019,0.5267218,-0.12216862,0.14935105,1.3074824,2.0617907,0.6185132,-1.5651891,-0.28737262,-0.12902968,-0.03422802,1.2890362,-0.07849363
-0.2,0.10000000000000003,0.9999999999999999,-0.5235987755982988,0.0,0,1.5715613,0.7541744,0.52868056,-0.11801221,0.12195367,1.3037288,2.0838397,0.6280149,-1.5758629,-0.28235656,0.024197508,-0.31114817,0.8909179,-0.161221
-0.2,0.10000000000000003,0.9999999999999999,-0.5235987755982988,0.0,0,1.5775803,0.7539195,0.52177536,-0.1282982,0.1257107,1.3068542,2.0532455,0.58659893,-1.5547966,-0.3380752,-0.01238401,-0.081460394,0.87546295,0.24133706
-0.2,0.10000000000000003,0.9999999999999999,-0.5235987755982988,0.0,0,1.5768132,0.7537106,0.523364,-0.12673463,0.14420731,1.3041397,2.0842266,0.6112075,-1.5653095,-0.27023846,-0.0019545183,-0.13871306,1.037435,-0.026784288
-0.2,0.10000000000000003,0.9999999999999999,-0.5235987755982988,0.0,0,1.5725414,0.7566129,0.5237293,-0.12683742,0.1267617,1.3111079,2.088405,0.6236017,-1.5796578,-0.31975648,0.06245963,-0.08357586,1.2140046,-0.18151963
-0.2,0.10000000000000003,0.9999999999999999,-0.5235987755982988,0.0,0,1.5743262,0.7523494,0.53069097,-0.13082823,0.13665643,1.299879,2.065967,0.582139,-1.5548579,-0.38317403,0.035321843,0.07879998,0.8164711,-0.052078944
-0.2,0.10000000000000003,0.9999999999999999,-0.5235987755982988,0.0,0,1.5731114,0.7566234,0.52686083,-0.12928267,0.15101053,1.3057929,2.074059,0.64458334,-1.5706272,-0.30493003,0.05211574,-0.028023727,0.930566,0.22300068
-0.2,0.10000000000000003,0.9999999999999999,-0.5235987755982988,0.0,0,1.573705,0.7550101,0.52794474,-0.13101031,0.14279945,1.3088983,2.0929923,0.6130671,-1.5719148,-0.44160694,-0.025490737,-0.20566386,0.9855554,-0.3168413
-0.2,0.10000000000000003,0.9999999999999999,-0.5235987755982988,0.0,0,1.5760309,0.7547736,0.5287993,-0.117187984,0.12820429,1.3094288,2.071123,0.59425426,-1.5543325,-0.3833324,-0.04769207,0.08452449,1.1525265,0.09494129
-0.2,0.10000000000000003,0.9999999999999999,-0.5235987755982988,0.0,0,1.5766674,0.7558575,0.52450657,-0.12094548,0.12685382,1.3068846,2.0575323,0.61244476,-1.568719,-0.41718027,0.11570056,-0.1389239,0.8885863,-0.62603563
-0.2,0.10000000000000003,0.9999999999999999,-0.5235987755982988,0.0,0,1.5722953,0.75651085,0.5257121,-0.122491874,0.13808596,1.3060269,2.0918584,0.61653125,-1.55196,-0.25418258,-0.115391575,0.016201457,1.090546,-0.32338056
-0.2,0.10000000000000003,0.9999999999999999,-0.5235987755982988,0.0,0,1.5776919,0.75836146,0.5238395,-0.124220654,0.12697919,1.310687,2.0948746,0.6244408,-1.5782192,-0.3901449,-0.09078456,0.12935925,1.1939495,0.15526235
-0.2,0.10000000000000003,0.9999999999999999,-0.5235987755982988,0.0,0,1.5741453,0.7542261,0.5293374,-0.13031586,0.14357424,1.3112527,2.0618708,0.56816447,-1.5677252,-0.27055827,0.05276977,-0.10332165,1.10271,-0.13456915
-0.2,0.10000000000000003,0.9999999999999999,-0.5235987755982988,0.0,0,1.5767179,0.75455225,0.5257863,-0.121433295,0.14331746,1.3044109,2.059454,0.61238164,-1.5630583,-0.40947735,0.060834598,-0.23720914,0.7439354,-0.14935221
-0.2,0.10000000000000003,0.9999999999999999,-0.5235987755982988,0.0,0,1.5728159,0.7526159,0.52218866,-0.12848766,0.13394412,1.306792,2.0548234,0.6203052,-1.5614082,-0.4959645,0.025806408,0.27900445,0.8718745,-0.49842817
-0.2,0.10000000000000003,0.9999999999999999,-0.5235987755982988,0.0,0,1.5782309,0.75648195,0.5265711,-0.12355292,0.14916958,1.3096728,2.093426,0.6206657,-1.5744646,-0.19947368,-0.16435336,0.2045739,1.0229373,-0.33430588
-0.2,0.10000000000000003,0.9999999999999999,-0.5235987755982988,0.0,0,1.5768462,0.7560156,0.53076196,-0.12274052,0.14337477,1.3042967,2.0720198,0.613047,-1.5461671,-0.4787123,0.09011485,0.13022634,1.1442474,-0.43809524
-0.2,0.10000000000000003,0.9999999999999999,-0.5235987755982988,0.0,0,1.5791861,0.75363237,0.5257272,-0.12450339,0.14765026,1.3055668,2.0734305,0.63335896,-1.5763353,-0.3385239,0.04196622,-0.2836671,1.1591573,-0.046814557
-0.2,0.10000000000000003,0.9999999999999999,-0.5235987755982988,0.0,0,1.572562,0.75555676,0.529934,-0.11712453,0.14681432,1.3036617,2.083656,0.63387513,-1.5652769,-0.32428294,0.01913091,-0.375964,1.1389722,-0.77727526
-0.2,0.10000000000000003,0.9999999999999999,-0.5235987755982988,0.0,0,1.5757235,0.7605729,0.52685976,-0.120873675,0.15669109,1.2948309,2.05265,0.6633436,-1.5631133,-0.3170236,0.04960058,-0.27497017,1.229325,-0.12971036
-0.2,0.10000000000000003,0.9999999999999999,-0.5235987755982988,0.0,0,1.5716316,0.7563217,0.53093773,-0.1319623,0.14281027,1.3150935,2.0895658,0.5941659,-1.5630388,-0.40137327,-0.026457116,-0.20565343,0.84286255,-0.010175136
-0.2,0.10000000000000003,0.9999999999999999,-0.5235987755982988,0.0,0,1.5721467,0.75589454,0.52560335,-0.12789908,0.13509315,1.307975,2.089144,0.5970415,-1.5924262,-0.30297628,0.09821198,-0.26717594,1.1170384,-0.44361126
-0.2,0.10000000000000003,0.9999999999999999,-0.5235987755982988,0.0,0,1.575414,0.7577307,0.52758884,-0.12954117,0.12525912,1.302687,2.0803757,0.63767815,-1.579664,-0.30023423,0.008897932,0.15212041,1.0317388,-0.46057642
-0.2,0.10000000000000003,0.9999999999999999,-0.5235987755982988,0.0,0,1.5747818,0.7543735,0.5283116,-0.12883438,0.13579153,1.303674,2.0825381,0.62291217,-1.5585467,-0.51203686,-0.1515985,-0.044619188,1.0453848,-0.32007974
-0.2,0.10000000000000003,0.9999999999999999,-0.5235987755982988,0.0,0,1.5727628,0.7537228,0.5266876,-0.12315234,0.1373232,1.2967516,2.065558,0.63128525,-1.5854254,-0.2871385,0.07098128,0.13792369,1.0872691,-0.5989594
-0.2,0.10000000000000003,0.9999999999999999,-0.5235987755982988,0.0,0,1.5713929,0.7542458,0.5271484,-0.12938423,0.14916007,1.3084614,2.0651698,0.59591305,-1.5573769,-0.43752027,0.026306786,0.250486,1.1628331,-0.36123842
-0.2,0.10000000000000003,0.9999999999999999,-0.5235987755982988,0.0,0,1.5777166,0.7534185,0.5280001,-0.12476932,0.13505456,1.30592,2.0909762,0.62286705,-1.5786011,-0.41691256,-0.039456576,-0.12494891,1.0026497,-0.6322503
-0.2,0.10000000000000003,0.9999999999999999,-0.5235987755982988,0.0,0,1.5814353,0.7548882,0.52498806,-0.12523438,0.12915319,1.3027561,2.0427818,0.623664,-1.5803205,-0.261713,0.025146157,-0.19903214,0.82942307,-0.111343876
-0.2,0.10000000000000003,0.9999999999999999,-0.5235987755982988,0.0,0,1.5769426,0.7546823,0.5261504,-0.12349662,0.14222945,1.3021365,2.0565617,0.5630515,-1.5738617,-0.24268304,0.07342683,0.05026118,0.90884155,-0.35470316
-0.2,0.10000000000000003,0.9999999999999999,-0.5235987755982988,0.0,0,1.5737752,0.7536121,0.51710176,-0.11378848,0.1328402,1.3030404,2.080543,0.5945609,-1.5541995,-0.3987661,-0.122636735,0.15100442,1.175152,-0.075163715
-0.2,0.10000000000000003,0.9999999999999999,-0.5235987755982988,0.0,0,1.5771109,0.75678957,0.5233887,-0.12803619,0.13576594,1.3081069,2.0647008,0.61756706,-1.5693358,-0.37795967,0.15235834,-0.23883879,0.7478938,-0.09977292
-0.2,0.10000000000000003,0.9999999999999999,-0.5235987755982988,0.0,0,1.5760647,0.75247914,0.52797407,-0.12903625,0.13679206,1.3059251,2.0943804,0.65232545,-1.5755975,-0.4285692,-0.092630535,-0.3408633,1.2005981,-0.39755213
-0.2,0.10000000000000003,0.9999999999999999,-0.5235987755982988,0.0,0,1.5721008,0.7562893,0.5301986,-0.12452018,0.13877529,1.3028871,2.0730462,0.62748635,-1.570359,-0.30761778,0.03152858,-0.035149075,1.0433465,-0.36563718
-0.2,0.10000000000000003,0.9999999999999999,-0.5235987755982988,0.0,0,1.5740718,0.75412357,0.5246102,-0.11809291,0.1285511,1.3051248,2.0876698,0.6194569,-1.5535811,-0.42257795,0.03278074,-0.49705595,1.1830127,0.09998223
-0.2,0.10000000000000003,0.9999999999999999,-0.5235987755982988,0.0,0,1.5785407,0.7573477,0.5224233,-0.12458187,0.13988677,1.3085581,2.070192,0.62307745,-1.5577707,-0.34062847,-0.1137817,-0.2478566,0.9639422,-0.55300593
-0.2,0.10000000000000003,0.9999999999999999,-0.5235987755982988,0.0,0,1.5734226,0.7537386,0.526558,-0.12195313,0.13339508,1.3042657,2.0846767,0.5737628,-1.5748526,-0.2621967,0.028098453,-0.39743122,0.90937835,-0.26585042
-0.2,0.10000000000000003,0.9999999999999999,-0.5235987755982988,0.0,0,1.5723628,0.75730795,0.53107095,-0.121495076,0.14006686,1.3044381,2.0837402,0.61405665,-1.5664473,-0.29449883,-0.04668071,-0.40350938,0.9692917,-0.25855997
-0.2,0.10000000000000003,0.9999999999999999,-0.5235987755982988,0.0,0,1.5768195,0.75591415,0.5282242,-0.13204531,0.12941924,1.3078108,2.0699484,0.648269,-1.5681281,-0.25670606,-0.062215343,-0.04799897,0.99425924,-0.8701589
-0.2,0.10000000000000003,0.9999999999999999,-0.5235987755982988,0.0,0,1.5716771,0.75003934,0.5257272,-0.12145575,0.1345238,1.3037698,2.1024094,0.6154393,-1.5693909,-0.2226295,-0.08134635,-0.013478896,1.0085272,-0.1966954
-0.2,0.10000000000000003,0.9999999999999999,-0.5235987755982988,0.0,0,1.5736793,0.7550382,0.52727854,-0.12827419,0.12788028,1.3022242,2.0517006,0.58453876,-1.565998,-0.41288596,-0.04267445,0.00389586,1.1292521,-0.4546898
-0.2,0.10000000000000003,0.9999999999999999,-0.5235987755982988,0.0,0,1.5696096,0.75420856,0.52838653,-0.11954079,0.12852407,1.3051493,2.0735753,0.5797668,-1.573117,-0.38383627,-0.23608352,-0.12170865,0.8139739,-0.082676634
-0.2,0.10000000000000003,0.9999999999999999,-0.5235987755982988,0.0,0,1.5797864,0.755343,0.52926296,-0.12397184,0.11881359,1.305094,2.071874,0.62084365,-1.5648689,-0.23345736,-0.08867215,-0.123172365,1.127102,-0.11064406
-0.2,0.10000000000000003,0.9999999999999999,-0.5235987755982988,0.0,0,1.5739821,0.7535924,0.5211844,-0.12878446,0.14094843,1.3078007,2.090629,0.58964485,-1.5709966,-0.35936126,0.09327908,0.018877525,1.0297319,-0.3036074
-0.2,0.10000000000000003,0.9999999999999999,-0.5235987755982988,0.0,0,1.5724546,0.75473887,0.51879317,-0.12277729,0.12991479,1.303918,2.075307,0.624637,-1.5675721,-0.36089602,-0.04981645,-0.07411907,0.9929467,-0.63468474
-0.2,0.10000000000000003,0.9999999999999999,-0.5235987755982988,0.0,0,1.574787,0.7583349,0.525706,-0.12902936,0.12906633,1.2986616,2.0765653,0.58614546,-1.5679238,-0.39140895,-0.018699601,-0.036576346,1.108048,0.4533372
-0.2,0.10000000000000003,0.9999999999999999,-0.5235987755982988,0.0,0,1.570985,0.74991786,0.52529925,-0.123842634,0.13817878,1.3078339,2.0614629,0.6065623,-1.5658002,-0.47036687,-0.07395902,0.20275488,1.0774889,-0.042367827
-0.2,0.10000000000000003,0.9999999999999999,-0.5235987755982988,0.0,0,1.5743092,0.75342596,0.526099,-0.124933824,0.12122551,1.2979504,2.0827084,0.652821,-1.5439075,-0.34242302,-0.13417406,-0.044359937,1.1272035,0.37639326
-0.2,0.10000000000000003,0.9999999999999999,-0.5235987755982988,0.0,0,1.5723946,0.7550428,0.521767,-0.12826914,0.13142331,1.3096318,2.0484211,0.64469147,-1.5709703,-0.3531032,-0.061417267,0.095401615,0.9888899,0.30727607
-0.2,0.10000000000000003,0.9999999999999999,-0.5235987755982988,0.0,0,1.5731497,0.7558184,0.5221867,-0.13044128,0.14977442,1.3096578,2.0706456,0.62198716,-1.5674912,-0.286788,0.039358802,-0.43619108,1.0554868,-0.12272756
-0.2,0.10000000000000003,0.9999999999999999,-0.5235987755982988,0.0,0,1.572229,0.75229603,0.5238385,-0.12533015,0.13881075,1.3029604,2.0756621,0.6229529,-1.5570966,-0.25382668,0.032680817,0.25242507,1.1358649,0.49644923
-0.2,0.10000000000000003,0.9999999999999999,-0.5235987755982988,0.0,0,1.5731004,0.7538814,0.5251289,-0.12541565,0.12960216,1.3073874,2.0816808,0.58689594,-1.5702122,-0.22468951,-0.0017157854,0.013451739,1.2284143,-0.40324757
-0.2,0.10000000000000003,0.9999999999999999,-0.5235987755982988,0.0,0,1.5759331,0.75446266,0.5255358,-0.12218461,0.13124743,1.3095609,2.092012,0.5970092,-1.5459847,-0.40098226,-0.05969286,0.16523403,0.8805636,-0.32622567
-0.2,0.10000000000000003,0.9999999999999999,-0.5235987755982988,0.0,0,1.5728987,0.7549226,0.5320439,-0.12269541,0.12679666,1.3063903,2.0805905,0.6177688,-1.5655792,-0.43569583,0.13822335,-0.11734601,0.85463923,0.1651712
-0.2,0.10000000000000003,0.9999999999999999,-0.5235987755982988,0.0,0,1.5740261,0.7548532,0.52370405,-0.1259399,0.15551674,1.3055176,2.0825326,0.5786299,-1.572693,-0.30556166,-0.09353487,-0.07510772,1.207559,-0.16924842
-0.2,0.10000000000000003,0.9999999999999999,-0.5235987755982988,0.0,0,1.5772378,0.7544125,0.52477735,-0.13104092,0.13615887,1.3125198,2.0896194,0.5709167,-1.5675007,-0.44168007,0.033804156,-0.12378612,0.83881146,-0.2816165
-0.2,0.10000000000000003,0.9999999999999999,-0.5235987755982988,0.0,0,1.5744445,0.7554432,0.5311786,-0.1232121,0.1412377,1.300877,2.0447068,0.6184873,-1.5689976,-0.2792028,0.14331885,-0.09550482,1.1230798,0.5326469
-0.2,0.10000000000000003,0.9999999999999999,-0.5235987755982988,0.0,0,1.5729296,0.756792,0.5219488,-0.13312377,0.1267471,1.3026922,2.073155,0.60218596,-1.5697612,-0.33329815,0.01236385,0.027087325,1.2298036,-0.15087318
-0.2,0.10000000000000003,0.9999999999999999,-0.5235987755982988,0.0,0,1.573664,0.75555855,0.5253172,-0.120434776,0.1446773,1.3075471,2.0800517,0.63840854,-1.5530242,-0.25067496,-0.12098781,0.021285728,0.96628773,0.13117975
-0.2,0.10000000000000003,0.9999999999999999,-0.5235987755982988,0.0,0,1.5743886,0.7497059,0.523184,-0.12803213,0.14361702,1.3029283,2.0575585,0.63735855,-1.5680258,-0.47031346,-0.115386166,0.07917633,0.903414,-0.4879733
-0.2,0.10000000000000003,0.9999999999999999,-0.5235987755982988,0.0,0,1.5756023,0.7562479,0.53029764,-0.12661366,0.122441605,1.3059932,2.0720115,0.6151252,-1.5581716,-0.33360112,-0.023985052,0.06603771,0.91497016,-0.12291928
-0.2,0.10000000000000003,0.9999999999999999,-0.5235987755982988,0.0,0,1.5764029,0.7532345,0.52886564,-0.13362864,0.12788837,1.3120413,2.0540886,0.6001264,-1.5699618,-0.19837698,-0.009228861,0.085978046,1.1827747,-0.24266763
-0.2,0.10000000000000003,0.9999999999999999,-0.5235987755982988,0.0,0,1.5731422,0.75822145,0.5301179,-0.12082955,0.15159445,1.3061218,2.0752432,0.59614074,-1.5863874,-0.26928842,-0.13909385,0.0017551593,1.073266,-0.5073907
-0.2,0.10000000000000003,0.9999999999999999,-0.5235987755982988,0.0,0,1.5751629,0.75739634,0.53114504,-0.12463422,0.13689987,1.3049827,2.0733376,0.62283874,-1.5764112,-0.37490046,0.09343094,0.011946613,1.095406,-0.025866156
-0.2,0.10000000000000003,0.9999999999999999,-0.5235987755982988,0.0,0,1.5782793,0.75495523,0.52801836,-0.12665342,0.13420428,1.3046236,2.070402,0.6193656,-1.5653845,-0.3640715,-0.05459906,-0.22496317,1.1150907,-0.19604988
-0.2,0.10000000000000003,0.9999999999999999,-0.5235987755982988,0.0,0,1.5729148,0.7553066,0.52573836,-0.12333862,0.13502519,1.3060315,2.0801938,0.6033926,-1.5765897,-0.49540362,-0.21460347,0.225978,1.0441351,-0.15055634
-0.2,0.10000000000000003,0.9999999999999999,-0.5235987755982988,0.0,0,1.574948,0.75478,0.52486414,-0.118865795,0.13164663,1.3040475,2.0653503,0.63352495,-1.5482334,-0.1298744,-0.04073103,-0.107605904,1.0236932,-0.075145856
-0.2,0.10000000000000003,0.9999999999999999,-0.5235987755982988,0.0,0,1.5728725,0.75581515,0.5287331,-0.1307625,0.12772495,1.3083391,2.0886843,0.58323216,-1.5805613,-0.27581617,0.05697659,-0.09329453,1.0512456,-0.8711094
-0.2,0.10000000000000003,0.9999999999999999,-0.5235987755982988,0.0,0,1.5729924,0.75487375,0.5287208,-0.12049506,0.13231051,1.3072436,2.059961,0.6029719,-1.5808656,-0.1854619,0.14392433,0.11386983,0.8321001,-0.281953
-0.2,0.10000000000000003,0.9999999999999999,-0.5235987755982988,0.0,0,1.5708011,0.75549275,0.5287916,-0.13254248,0.13965969,1.2979523,2.109067,0.6338829,-1.5621569,-0.36771968,0.0044442876,-0.11095978,0.87562996,-0.033073623
-0.2,0.10000000000000003,0.9999999999999999,-0.5235987755982988,0.0,0,1.5763118,0.75646067,0.51972175,-0.11971961,0.14543448,1.3037299,2.045817,0.5806806,-1.5767231,-0.30183414,-0.0057497774,-0.17304388,1.1190777,-0.30953506
-0.2,0.10000000000000003,0.9999999999999999,-0.5235987755982988,0.0,0,1.5737224,0.7549738,0.51868135,-0.131701,0.14781633,1.3048049,2.0906153,0.62412286,-1.5509547,-0.35496107,-0.021068173,-0.21237493,1.0615411,0.052822214
-0.2,0.10000000000000003,0.9999999999999999,-0.5235987755982988,0.0,0,1.5770222,0.75151986,0.5213502,-0.12281702,0.14218722,1.3038352,2.047975,0.64728385,-1.5620404,-0.40523648,-0.15889534,-0.051334735,0.76603824,-0.31415743
-0.2,0.10000000000000003,0.9999999999999999,-0.5235987755982988,0.0,0,1.574988,0.7509978,0.52652323,-0.12737276,0.13084875,1.3017063,2.068253,0.5983441,-1.5650644,-0.29228854,-0.11867863,0.067202404,1.2032652,0.40262887
-0.2,0.10000000000000003,0.9999999999999999,-0.5235987755982988,0.0,0,1.5755535,0.7553073,0.52689767,-0.12170792,0.14364266,1.3064474,2.0734048,0.64448935,-1.5699992,-0.3026657,-0.02687306,-0.09365781,0.97411495,-0.6359125
-0.2,0.10000000000000003,0.9999999999999999,-0.5235987755982988,0.0,0,1.5757638,0.7555915,0.5296924,-0.12856922,0.14084128,1.3032368,2.0626678,0.59869975,-1.5796646,-0.3015976,-0.07567748,0.18524367,1.0252593,-0.4717071
-0.2,0.10000000000000003,0.9999999999999999,-0.5235987755982988,0.0,0,1.5775853,0.7561321,0.51914364,-0.12277221,0.13530238,1.3142487,2.0966034,0.6007918,-1.5560364,-0.34928507,-0.004487707,0.00014358341,1.0480573,-0.3072153
-0.2,0.10000000000000003,0.9999999999999999,-0.5235987755982988,0.0,0,1.5714922,0.7549625,0.5248436,-0.13058344,0.13749988,1.3080264,2.0652666,0.60610664,-1.5567869,-0.3943126,-0.19562246,-0.11362485,1.0058318,-0.10135402
-0.2,0.10000000000000003,0.9999999999999999,-0.5235987755982988,0.0,0,1.5765353,0.75792605,0.52191263,-0.1202284,0.1295839,1.3094594,2.0630608,0.5942919,-1.5573614,-0.26375028,-0.10250482,-0.071605764,1.1983641,-0.0039813714
-0.2,0.10000000000000003,0.9999999999999999,-0.5235987755982988,0.0,0,1.5731684,0.7555213,0.5217676,-0.1295374,0.13332395,1.307246,2.0650685,0.6595651,-1.5767394,-0.2979985,0.010005365,0.17517114,1.2226456,0.5000298
-0.2,0.10000000000000003,0.9999999999999999,-0.5235987755982988,0.0,0,1.573717,0.75691473,0.5289696,-0.122078985,0.14073709,1.3058454,2.0604136,0.6075078,-1.5639658,-0.3730007,-0.010861829,-0.084546305,0.8737703,-0.13572688
-0.2,0.10000000000000003,0.9999999999999999,-0.5235987755982988,0.0,0,1.5692465,0.758894,0.52783287,-0.13018577,0.12610872,1.3089983,2.0790179,0.628143,-1.5520592,-0.28679416,-0.051548425,-0.22427827,1.1172014,0.27121046
-0.2,0.10000000000000003,0.9999999999999999,-0.5235987755982988,0.0,0,1.5734748,0.7537489,0.52895254,-0.12330665,0.14527373,1.3004707,2.0595078,0.63801634,-1.5802081,-0.25526348,-0.18008602,-0.19061752,0.8399816,0.035192724
-0.2,0.10000000000000003,0.9999999999999999,-0.5235987755982988,0.0,0,1.5743232,0.7558262,0.52821547,-0.11820396,0.12980227,1.3007265,2.0440385,0.6145997,-1.5644213,-0.48819694,-0.08592983,0.04396628,1.028624,-0.30542806
-0.2,0.10000000000000003,0.9999999999999999,-0.5235987755982988,0.0,0,1.573922,0.7533917,0.5242848,-0.120560765,0.13816902,1.301385,2.0718842,0.59940964,-1.5844758,-0.3121954,-0.024630515,0.098261595,1.1344373,-0.58379674
-0.2,0.10000000000000003,0.9999999999999999,-0.5235987755982988,0.0,0,1.570684,0.75448227,0.5261652,-0.12029816,0.13853921,1.3034768,2.0775821,0.59450305,-1.5692952,-0.4365788,-0.20392188,0.021140242,0.85240865,-0.4054399
-0.2,0.10000000000000003,0.9999999999999999,-0.5235987755982988,0.0,0,1.5773984,0.7537418,0.52266055,-0.122671016,0.14339094,1.3062514,2.0772705,0.5966077,-1.5784816,-0.2311026,-0.0119380765,-0.0015343379,0.9358002,0.39401788
-0.2,0.10000000000000003,0.9999999999999999,-0.5235987755982988,0.0,0,1.5719744,0.75804895,0.52664065,-0.13084032,0.13165812,1.2998271,2.079611,0.6447936,-1.5545192,-0.36457446,0.002528642,-0.120361224,1.0263366,0.12167437
-0.2,0.10000000000000003,0.9999999999999999,-0.5235987755982988,0.0,0,1.5775243,0.75210166,0.53124,-0.119791076,0.1507899,1.2992632,2.0592372,0.62852615,-1.5633038,-0.3956952,-0.038678303,-0.051791616,1.1108922,-0.21593355
-0.2,0.10000000000000003,0.9999999999999999,-0.5235987755982988,0.0,0,1.5752964,0.7552655,0.52114993,-0.12006868,0.14565593,1.3041596,2.0657394,0.58945733,-1.5690677,-0.42092806,-0.07511203,0.11533383,1.1353198,-0.6975119
-0.2,0.10000000000000003,0.9999999999999999,-0.5235987755982988,0.0,0,1.5759883,0.7531804,0.52555215,-0.12791587,0.1341207,1.3088969,2.085464,0.629772,-1.5825639,-0.50055534,0.06621775,-0.108310305,0.8553877,-0.15374653
-0.2,0.10000000000000003,0.9999999999999999,-0.5235987755982988,0.0,0,1.574321,0.7553383,0.5285772,-0.123554245,0.13798295,1.3096194,2.0766304,0.56722546,-1.5799943,-0.21406858,-0.015175668,-0.07227135,0.80676115,-0.08736319
-0.2,0.10000000000000003,0.9999999999999999,-0.5235987755982988,0.0,0,1.5811125,0.7568776,0.5233598,-0.12702064,0.1406718,1.3111682,2.0577955,0.5876304,-1.5473616,-0.19814713,-0.109576255,0.07039428,1.414447,-0.055303283
-0.2,0.10000000000000003,0.9999999999999999,-0.5235987755982988,0.0,0,1.5682786,0.7520239,0.5241941,-0.1255472,0.13725613,1.3029495,2.1050916,0.6013482,-1.571085,-0.3060456,0.057516035,0.09357082,0.8984592,0.3477999
-0.2,0.10000000000000003,0.9999999999999999,-0.5235987755982988,0.0,0,1.5755588,0.7533346,0.52758294,-0.13678837,0.14341791,1.3019553,2.0555723,0.5961099,-1.5600991,-0.31977355,0.048339274,-0.031387616,1.0002922,-0.034246653
-0.2,0.10000000000000003,0.9999999999999999,-0.5235987755982988,0.0,0,1.573562,0.7537714,0.5195267,-0.12851688,0.14242962,1.3072006,2.0665598,0.62031025,-1.5538453,-0.24982785,-0.07166514,-0.25324953,1.0328639,-0.30398664
-0.2,0.10000000000000003,0.9999999999999999,-0.5235987755982988,0.0,0,1.5794238,0.7535708,0.5262412,-0.12702996,0.12976943,1.3075378,2.0728493,0.61907136,-1.5714853,-0.36513266,0.023095055,0.06648949,0.91235965,-0.57902473
-0.2,0.10000000000000003,0.9999999999999999,-0.5235987755982988,0.0,0,1.5780605,0.75427055,0.52875423,-0.12613824,0.14081296,1.3054897,2.060878,0.6338763,-1.5539715,-0.3258344,-0.046421528,-0.086188346,0.9975277,0.19884357
-0.2,0.10000000000000003,0.9999999999999999,-0.5235987755982988,0.0,0,1.5715115,0.75378597,0.53032017,-0.13193543,0.124726065,1.3019887,2.0959752,0.6369489,-1.5898645,-0.35162082,-0.024624465,-0.15276363,1.020149,-0.0037847576
-0.2,0.10000000000000003,0.9999999999999999,-0.5235987755982988,0.0,0,1.574305,0.75730526,0.5343628,-0.12565161,0.13302842,1.3087791,2.0614161,0.61798507,-1.5638064,-0.3459742,-0.13350885,-0.12660432,1.0278019,-0.11422422
-0.2,0.10000000000000003,0.9999999999999999,-0.5235987755982988,0.0,0,1.5742,0.754058,0.527271,-0.1169125,0.14169693,1.3034258,2.069306,0.63459563,-1.560982,-0.30235153,-0.0062294034,-0.053512387,1.0731504,-0.49164072
-0.2,0.10000000000000003,0.9999999999999999,-0.5235987755982988,0.0,0,1.5742718,0.7519815,0.53002167,-0.12138957,0.1501268,1.3033953,2.0616295,0.63700217,-1.5711443,-0.37126058,-0.01630009,0.15635318,0.79709804,0.7993094
-0.2,0.10000000000000003,0.9999999999999999,-0.5235987755982988,0.0,0,1.5793086,0.7531437,0.5251823,-0.119260915,0.14557967,1.3053935,2.0554087,0.63922006,-1.5609984,-0.51277363,0.028628508,-0.06550855,1.0346984,-0.721166
-0.2,0.10000000000000003,0.9999999999999999,-0.5235987755982988,0.0,0,1.5744064,0.75768054,0.53018564,-0.12455194,0.13943394,1.3090283,2.0703218,0.62123156,-1.5523347,-0.30654404,-0.058772285,-0.27247497,1.0110881,0.27368605
-0.2,0.10000000000000003,0.9999999999999999,-0.5235987755982988,0.0,0,1.5730989,0.75284433,0.5312607,-0.11932482,0.1375284,1.3065549,2.0833342,0.6274462,-1.5666127,-0.35302654,0.004118982,-0.12757833,0.9987008,0.20493565
-0.2,0.10000000000000003,0.9999999999999999,-0.5235987755982988,0.0,0,1.5715011,0.75591016,0.5271481,-0.12190633,0.15469508,1.3044057,2.065349,0.5784631,-1.5598553,-0.3557473,0.038488336,0.06514488,1.1858032,-0.29291564
-0.2,0.10000000000000003,0.9999999999999999,-0.5235987755982988,0.0,0,1.5798737,0.7541713,0.5218299,-0.122829825,0.1408128,1.3086833,2.0575995,0.61455506,-1.5730522,-0.36718982,-0.1051684,0.06578181,0.8792097,-0.19041125
-0.2,0.10000000000000003,0.9999999999999999,-0.5235987755982988,0.0,0,1.574136,0.7549751,0.52570266,-0.12163555,0.11350285,1.3110712,2.0934906,0.6150087,-1.5525774,-0.38247287,0.03844035,-0.11068712,0.9997758,-0.29123336
-0.2,0.10000000000000003,0.9999999999999999,-0.5235987755982988,0.0,0,1.5774146,0.7529764,0.52708375,-0.12583561,0.14588688,1.3032163,2.068553,0.5918098,-1.5755295,-0.44220358,0.08095226,-0.0028948775,0.9400369,-0.33901435
-0.2,0.10000000000000003,0.9999999999999999,-0.5235987755982988,0.0,0,1.5749316,0.7537699,0.5252234,-0.123732656,0.13556568,1.3051707,2.0669074,0.5845857,-1.5732967,-0.2416509,-0.09785381,-0.2293609,1.0436187,0.19070414
-0.2,0.10000000000000003,0.9999999999999999,-0.5235987755982988,0.0,0,1.5741402,0.7565749,0.52213895,-0.12042948,0.1309311,1.3090951,2.0753882,0.63602483,-1.556831,-0.36561355,-0.03859266,-0.044083383,0.9600273,-0.7683425
-0.2,0.10000000000000003,0.9999999999999999,-0.5235987755982988,0.0,0,1.5783343,0.7556377,0.5247891,-0.12533855,0.13744403,1.3122736,2.0705743,0.59858,-1.5850832,-0.26605403,-0.13091506,0.13572928,0.9515214,-0.87031215
-0.2,0.10000000000000003,0.9999999999999999,-0.5235987755982988,0.0,0,1.5743667,0.7538724,0.52130216,-0.12170719,0.13794665,1.306756,2.067123,0.6013633,-1.5809507,-0.35974607,0.024675455,-0.17948602,0.97999495,-0.582718
-0.2,0.10000000000000003,0.9999999999999999,-0.5235987755982988,0.0,0,1.5742755,0.75656384,0.53166246,-0.123783514,0.13211222,1.3110716,2.0800118,0.59710574,-1.5842692,-0.19219744,-0.018559095,-0.08925293,0.9464101,0.17205946
-0.2,0.10000000000000003,0.9999999999999999,-0.5235987755982988,0.0,0,1.5754266,0.7566862,0.52460337,-0.12664661,0.13048968,1.3083826,2.0590007,0.6044365,-1.575317,-0.28319386,0.09414974,-0.019171914,1.0968949,0.1249001
-0.2,0.10000000000000003,0.9999999999999999,-0.5235987755982988,0.0,0,1.5706457,0.755531,0.5225074,-0.12574129,0.13280001,1.3040417,2.0787678,0.580644,-1.575109,-0.4582067,0.032346435,0.14096354,0.8944716,-0.39414257
-0.2,0.10000000000000003,0.9999999999999999,-0.5235987755982988,0.0,0,1.5746645,0.75189286,0.52734786,-0.12477274,0.12844053,1.3071637,2.0894825,0.61125016,-1.5815266,-0.3906156,-0.123601705,0.044139735,1.1256853,0.06190912
-0.2,0.10000000000000003,0.9999999999999999,-0.5235987755982988,0.0,0,1.5763956,0.75655913,0.5254697,-0.12701,0.13405862,1.3050728,2.0543518,0.66095424,-1.5559804,-0.41655824,-0.119407654,-0.049830966,1.2959296,0.28912026
-0.2,0.10000000000000003,0.9999999999999999,-0.5235987755982988,0.0,0,1.5727814,0.7556611,0.5260617,-0.13498579,0.13028651,1.3053083,2.0437684,0.62921476,-1.5699868,-0.49507698,0.044594083,-0.1057161,0.8940053,0.010583813
-0.2,0.10000000000000003,0.9999999999999999,-0.5235987755982988,0.0,0,1.5739944,0.75443894,0.52794,-0.12365461,0.13671832,1.3031859,2.0691125,0.6170556,-1.5525213,-0.314591,-0.000916949,0.19921808,1.0635644,0.0048534987
-0.2,0.10000000000000003,0.9999999999999999,-0.5235987755982988,0.0,0,1.5712482,0.75541604,0.52275294,-0.121360175,0.14182733,1.3084645,2.0685074,0.6421689,-1.5677079,-0.30790925,0.10548955,-0.078802265,1.0059134,0.3880186
-0.2,0.10000000000000003,0.9999999999999999,-0.5235987755982988,0.0,0,1.5714003,0.7561318,0.527163,-0.12317178,0.14468382,1.3102021,2.0851433,0.6096348,-1.5757909,-0.45149532,0.02758205,-0.032214355,1.1089686,-0.45342472
-0.2,0.10000000000000003,0.9999999999999999,-0.5235987755982988,0.0,0,1.568902,0.75416636,0.5237229,-0.12901434,0.122133225,1.3056164,2.0529492,0.6224773,-1.5770327,-0.3587607,-0.023596112,0.35230312,1.1293081,-0.34382662
-0.2,0.10000000000000003,0.9999999999999999,-0.5235987755982988,0.0,0,1.5761575,0.7552885,0.5275791,-0.12383109,0.14349835,1.3103559,2.0674343,0.6170563,-1.564151,-0.29610723,0.032205407,0.19329304,1.1710821,-0.075858444
-0.2,0.10000000000000003,0.9999999999999999,-0.5235987755982988,0.0,0,1.5740374,0.75315326,0.5256714,-0.12401909,0.14658369,1.3072888,2.0609326,0.61947614,-1.5790658,-0.33345556,0.15361744,-0.061230347,1.2032329,-0.07708446
-0.2,0.10000000000000003,0.9999999999999999,-0.5235987755982988,0.0,0,1.5730059,0.75481004,0.5265509,-0.1187778,0.13789022,1.3069873,2.0650575,0.6172992,-1.5764451,-0.35310134,0.01590093,-0.20240052,1.1003755,-0.711498
-0.2,0.10000000000000003,0.9999999999999999,-0.5235987755982988,0.0,0,1.5785515,0.7523805,0.52893394,-0.1288268,0.13771972,1.3045789,2.0764542,0.60169667,-1.5774974,-0.4452833,0.005238941,0.025766488,1.1267564,-0.47236165
-0.2,0.10000000000000003,0.9999999999999999,-0.5235987755982988,0.0,0,1.5799338,0.75288326,0.5302735,-0.12829134,0.13826917,1.3086481,2.0560484,0.5927608,-1.5606726,-0.37252408,0.07131345,-0.14327945,1.1693617,-0.5400739
-0.2,0.10000000000000003,0.9999999999999999,-0.5235987755982988,0.0,0,1.571288,0.7563643,0.52700675,-0.12638985,0.13504489,1.3051066,2.0558064,0.6151341,-1.5692092,-0.30128747,-0.19863555,-0.16645353,0.98410743,0.033921294
-0.2,0.10000000000000003,0.9999999999999999,-0.5235987755982988,0.0,0,1.5782945,0.75199395,0.5307449,-0.12584531,0.12510537,1.3088742,2.067916,0.62675285,-1.5785791,-0.20887727,-0.03292439,-0.20074998,1.1362458,-0.1053231
-0.2,0.10000000000000003,0.9999999999999999,-0.5235987755982988,0.0,0,1.5752622,0.75211906,0.5232516,-0.12203655,0.1304506,1.3052143,2.082777,0.6235508,-1.5721253,-0.39968923,-0.049080595,-0.08339365,1.2045887,-0.228674
-0.2,0.10000000000000003,0.9999999999999999,-0.5235987755982988,0.0,0,1.5714113,0.7558355,0.52945244,-0.123454176,0.13784577,1.303653,2.064497,0.6258449,-1.570984,-0.4231733,-0.12825343,-0.004918035,1.2508384,-0.10760668
-0.2,0.10000000000000003,0.9999999999999999,-0.5235987755982988,0.0,0,1.5748314,0.75681293,0.5235509,-0.124660306,0.1431937,1.3145816,2.0575452,0.6115068,-1.5678636,-0.37530378,0.05315234,-0.085296325,0.83423746,-0.8084011
-0.2,0.10000000000000003,0.9999999999999999,-0.5235987755982988,0.0,0,1.5733718,0.7574191,0.52888644,-0.12889323,0.14194793,1.3075235,2.0557687,0.62300384,-1.5640883,-0.3838977,-0.064516135,-0.1157446,1.117187,-0.3621534
-0.2,0.10000000000000003,0.9999999999999999,-0.5235987755982988,0.0,0,1.5736173,0.7528291,0.5246689,-0.12477022,0.12703152,1.305126,2.064843,0.61570364,-1.5747418,-0.4076039,-0.14711194,-0.28620473,1.057599,-0.070012316
-0.2,0.10000000000000003,0.9999999999999999,-0.5235987755982988,0.0,0,1.5757554,0.7548708,0.5257713,-0.13034728,0.12231212,1.3139559,2.0627794,0.57106966,-1.5542723,-0.32693738,-0.014422597,0.06549537,1.2572242,-0.08565626
-0.2,0.10000000000000003,0.9999999999999999,-0.5235987755982988,0.0,0,1.5766054,0.75357527,0.5310409,-0.12933682,0.13347039,1.3040314,2.053339,0.6148611,-1.5796479,-0.37476695,-0.08564536,-0.112456955,1.2389091,-0.44831684
-0.2,0.10000000000000003,0.9999999999999999,-0.5235987755982988,0.0,0,1.5714318,0.75518537,0.5332667,-0.124136165,0.12679818,1.3062707,2.0474126,0.5879776,-1.5770854,-0.35861376,0.012120243,-0.118096374,0.9372591,-0.85092294
-0.2,0.10000000000000003,0.9999999999999999,-0.5235987755982988,0.0,0,1.5733577,0.75574553,0.52309775,-0.12603463,0.13563892,1.3128381,2.0667758,0.5931884,-1.5711918,-0.37263325,0.0010793487,0.2160149,1.1140901,-0.59953403
-0.2,0.10000000000000003,0.9999999999999999,-0.5235987755982988,0.0,0,1.5708053,0.75342995,0.5224701,-0.117952816,0.14521697,1.3078884,2.0636318,0.61992884,-1.5668812,-0.36637202,-0.1067041,-0.16858746,1.1806855,-0.18071885
-0.2,0.10000000000000003,0.9999999999999999,-0.5235987755982988,0.0,0,1.5755,0.7524362,0.53266186,-0.12984538,0.13639934,1.3042206,2.0562766,0.61960113,-1.5756854,-0.42416587,-0.08034423,0.02517273,1.0440102,-0.41455573
-0.2,0.10000000000000003,0.9999999999999999,-0.5235987755982988,0.0,0,1.5728153,0.75433415,0.528154,-0.1337494,0.14163698,1.3086503,2.0545843,0.63108224,-1.595173,-0.28626353,-0.09596647,0.0034035668,1.1027511,-0.71325797
-0.2,0.10000000000000003,0.9999999999999999,-0.5235987755982988,0.0,0,1.5754957,0.75673896,0.5350527,-0.12914185,0.15881371,1.3033696,2.0497088,0.6043762,-1.5627152,-0.19780956,-0.07131438,0.19112346,1.1181602,0.036234446
-0.2,0.10000000000000003,0.9999999999999999,-0.5235987755982988,0.0,0,1.5754043,0.7543201,0.5233947,-0.11580217,0.13059345,1.3035847,2.0743923,0.6181604,-1.5441972,-0.4747455,0.06030011,0.013607351,0.79130566,-0.157075
-0.2,0.10000000000000003,0.9999999999999999,-0.5235987755982988,0.0,0,1.5749787,0.7549568,0.5205379,-0.13089375,0.13467143,1.3039957,2.110703,0.6448148,-1.5852313,-0.26379794,0.18469125,-0.17440693,0.99833643,0.13731565
-0.2,0.10000000000000003,0.9999999999999999,-0.5235987755982988,0.0,0,1.5724788,0.75783306,0.5207381,-0.12209333,0.14262427,1.3062855,2.067568,0.618787,-1.5684431,-0.4166142,-0.1606354,-0.105629094,1.2187535,-0.48266062
-0.2,0.10000000000000003,0.9999999999999999,-0.5235987755982988,0.0,0,1.5724734,0.754661,0.52620625,-0.121472105,0.1412198,1.30732,2.068078,0.6455972,-1.5724856,-0.35618073,-0.0014926315,-0.115116805,1.0003957,-0.07232883
-0.2,0.10000000000000003,0.9999999999999999,-0.5235987755982988,0.0,0,1.569771,0.7547649,0.5300568,-0.11789455,0.13043568,1.2983011,2.054178,0.66664207,-1.5726734,-0.24991935,0.064958185,-0.118062176,0.59761757,-0.0987052
-0.2,0.10000000000000003,0.9999999999999999,-0.5235987755982988,0.0,0,1.5779773,0.75407237,0.5263334,-0.124442615,0.15158863,1.2982678,2.0843217,0.58840066,-1.561382,-0.52743024,-0.06318559,-0.16910072,0.9629675,-0.7232696
-0.2,0.10000000000000003,0.9999999999999999,-0.5235987755982988,0.0,0,1.5755396,0.75679106,0.5316917,-0.124288894,0.13992816,1.3048531,2.0856023,0.64220595,-1.5731915,-0.25994998,0.1459255,0.12265177,0.95794195,0.11036313
-0.2,0.10000000000000003,0.9999999999999999,-0.5235987755982988,0.0,0,1.5768762,0.7561935,0.5270536,-0.12213903,0.13503523,1.3107694,2.0785115,0.62362486,-1.5807283,-0.5099154,-0.05282795,-0.4430056,1.1749953,-0.17745763
-0.2,0.10000000000000003,0.9999999999999999,-0.5235987755982988,0.0,0,1.5725179,0.7531125,0.52706224,-0.11911488,0.14751822,1.3142371,2.0710108,0.58378965,-1.5586514,-0.31514764,0.06173532,0.0003493834,0.831544,-0.033777542
-0.2,0.10000000000000003,0.9999999999999999,-0.5235987755982988,0.0,0,1.5707492,0.75780934,0.52732694,-0.11974275,0.14236104,1.3063879,2.0681114,0.60911727,-1.5599,-0.29851723,-0.013126785,-0.13614634,0.86196905,-0.16617139
-0.2,0.10000000000000003,0.9999999999999999,-0.5235987755982988,0.0,0,1.5762172,0.75659704,0.52766263,-0.11947733,0.13893564,1.3047765,2.0599723,0.62359613,-1.5633614,-0.52243954,0.16986318,-0.1716963,0.9138894,-0.3534759
-0.2,0.10000000000000003,0.9999999999999999,-0.5235987755982988,0.0,0,1.5783122,0.756749,0.5289862,-0.117356375,0.1250029,1.3096372,2.1004941,0.61469537,-1.5823555,-0.24683912,-0.084534794,0.24200046,1.0115072,0.21423604
-0.2,0.10000000000000003,0.9999999999999999,-0.5235987755982988,0.0,0,1.5756364,0.75672966,0.52498776,-0.124199785,0.12709622,1.2990321,2.1115887,0.607372,-1.5572219,-0.36581603,0.12297398,-0.0104003,0.81470144,-0.9755055
-0.2,0.10000000000000003,0.9999999999999999,-0.5235987755982988,0.0,0,1.5748059,0.7550263,0.5196871,-0.12444907,0.14275523,1.3111857,2.085832,0.6398462,-1.5639924,-0.35463342,0.16179368,-0.1768824,1.0207546,-0.215992
-0.2,0.10000000000000003,0.9999999999999999,-0.5235987755982988,0.0,0,1.5828698,0.7594285,0.5254889,-0.12253861,0.13432042,1.3005177,2.082165,0.6314062,-1.5675492,-0.2750733,0.065877914,-0.2164637,0.9651027,-0.21302772
-0.2,0.10000000000000003,0.9999999999999999,-0.5235987755982988,0.0,0,1.5771672,0.7582302,0.5314467,-0.11218961,0.14978445,1.3013175,2.0474727,0.6151514,-1.5535922,-0.37601998,0.031572614,-0.10401697,0.9114126,-0.19813614
-0.2,0.10000000000000003,0.9999999999999999,-0.5235987755982988,0.0,0,1.5730579,0.7593877,0.5325466,-0.11622792,0.14314264,1.3058864,2.0720708,0.6331591,-1.5529711,-0.2880001,0.15038423,-0.28171703,0.9565866,-0.08476368
-0.2,0.10000000000000003,0.9999999999999999,-0.5235987755982988,0.0,0,1.5805562,0.7536372,0.527082,-0.13073274,0.11024719,1.306855,2.070262,0.602185,-1.5704498,-0.3316906,0.12543546,-0.016052788,0.97955525,-0.3576041
-0.2,0.10000000000000003,0.9999999999999999,-0.5235987755982988,0.0,0,1.5773422,0.75784683,0.5265265,-0.12611571,0.13830653,1.3040358,2.0381439,0.5966938,-1.584963,-0.35781276,0.073089235,-0.10340933,1.1977963,-0.077536866
-0.2,0.10000000000000003,0.9999999999999999,-0.5235987755982988,0.0,0,1.5758902,0.7521003,0.5222259,-0.11965443,0.12826367,1.3086907,2.055512,0.61865425,-1.56636,-0.37447202,0.072559714,-0.14197257,1.1003759,-0.3420645
-0.2,0.10000000000000003,0.9999999999999999,-0.5235987755982988,0.0,0,1.568879,0.75557363,0.51983905,-0.12209669,0.14674164,1.3080556,2.064243,0.6153209,-1.5643054,-0.37856245,0.10499754,-0.0033494304,0.92900753,0.082192466
-0.2,0.10000000000000003,0.9999999999999999,-0.5235987755982988,0.0,0,1.575365,0.7543757,0.52113116,-0.13072231,0.13344753,1.3026901,2.0712688,0.60571015,-1.5572017,-0.40498137,0.031854488,-0.24785903,1.1442204,-0.6744351
-0.2,0.10000000000000003,0.9999999999999999,-0.5235987755982988,0.0,0,1.5732973,0.7525784,0.5298328,-0.13329156,0.14518467,1.3057365,2.065766,0.5874082,-1.5814434,-0.17396948,0.041823383,-0.0784164,1.0282025,-0.20590651
-0.2,0.10000000000000003,0.9999999999999999,-0.5235987755982988,0.0,0,1.578971,0.7534473,0.53027457,-0.12125273,0.1279781,1.3067809,2.0825946,0.57323205,-1.5546643,-0.3486455,-0.12796059,-0.17348818,0.9413916,-0.41638944
-0.2,0.10000000000000003,0.9999999999999999,-0.5235987755982988,0.0,0,1.576786,0.7553905,0.5280099,-0.122431554,0.15124516,1.307871,2.0873055,0.6175992,-1.5722368,-0.31631002,-0.021428186,0.057603784,1.0579666,-0.31010124
-0.2,0.10000000000000003,0.9999999999999999,-0.5235987755982988,0.0,0,1.5778848,0.7565223,0.52981895,-0.12851419,0.14176868,1.3057148,2.0624473,0.58871776,-1.5490289,-0.41255647,0.011752466,-0.28073606,1.0659677,-0.18127155
-0.2,0.10000000000000003,0.9999999999999999,-0.5235987755982988,0.0,0,1.5763913,0.7515649,0.5258112,-0.12543999,0.14962918,1.3124245,2.10043,0.61560446,-1.5763257,-0.44458595,0.060499854,-0.0263359,0.7293596,-0.73757184
-0.2,0.10000000000000003,0.9999999999999999,-0.5235987755982988,0.0,0,1.582244,0.75230134,0.52564716,-0.11497078,0.12045932,1.3043754,2.0815506,0.575761,-1.5521771,-0.31672952,0.09243443,-0.041670457,1.1291218,0.020048417
-0.2,0.10000000000000003,0.9999999999999999,-0.5235987755982988,0.0,0,1.5762439,0.7586721,0.52891237,-0.12241729,0.1388834,1.3039448,2.076537,0.59903306,-1.5658045,-0.33772546,0.036442623,0.14862245,0.8253366,0.16416353
-0.2,0.10000000000000003,0.9999999999999999,-0.5235987755982988,0.0,0,1.5745511,0.7558455,0.53066117,-0.118829384,0.13080394,1.3035327,2.0852635,0.6362733,-1.5614984,-0.2830156,-7.379667e-05,0.20944507,0.9830075,-0.048564263
-0.2,0.10000000000000003,0.9999999999999999,-0.5235987755982988,0.0,0,1.5760103,0.75521183,0.53167206,-0.120485015,0.14679283,1.3023168,2.0618224,0.6138343,-1.5453578,-0.55643696,-0.08230353,-0.3294821,1.2230513,-0.00553053
-0.2,0.10000000000000003,0.9999999999999999,-0.5235987755982988,0.0,0,1.5770537,0.7562318,0.5271492,-0.12162755,0.14526121,1.3016133,2.0686035,0.6210702,-1.5661739,-0.15729363,0.02581043,-0.12979984,1.1269432,0.29837203
-0.2,0.10000000000000003,0.9999999999999999,-0.5235987755982988,0.0,0,1.5742497,0.75806504,0.5215425,-0.11977039,0.14410283,1.3083707,2.0768309,0.61335975,-1.5759186,-0.09189248,0.06836354,0.10789472,1.0022595,-0.062095013
-0.2,0.10000000000000003,0.9999999999999999,-0.5235987755982988,0.0,0,1.5764947,0.75623643,0.52860796,-0.11691048,0.14046848,1.3026657,2.0631192,0.6024645,-1.5624578,-0.40772617,-0.114870116,0.29902193,1.1166016,-0.1390152
-0.2,0.10000000000000003,0.9999999999999999,-0.5235987755982988,0.0,0,1.5759151,0.75764847,0.5278638,-0.12012504,0.12969716,1.3127584,2.091513,0.5928749,-1.5716072,-0.20603205,-0.017164364,-0.04681014,1.1475224,-0.2650673
-0.2,0.10000000000000003,0.9999999999999999,-0.5235987755982988,0.0,0,1.5755892,0.7546297,0.52739376,-0.120538495,0.1375239,1.3017246,2.0811944,0.6233656,-1.5730406,-0.3085296,-0.08254684,-0.150577,0.97974,-0.0009620474
-0.2,0.10000000000000003,0.9999999999999999,-0.5235987755982988,0.0,0,1.5721323,0.7537703,0.53125936,-0.116528444,0.15737486,1.2946721,2.0454853,0.6079102,-1.5666226,-0.28374407,0.013034638,-0.20407844,1.1765603,-0.048627056
-0.2,0.10000000000000003,0.9999999999999999,-0.5235987755982988,0.0,0,1.5787867,0.75710684,0.51847506,-0.12598771,0.14055558,1.3046676,2.081331,0.6034063,-1.5757422,-0.37579197,0.023948636,-0.31996825,0.91257447,0.0007757684
-0.2,0.10000000000000003,0.9999999999999999,-0.5235987755982988,0.0,0,1.5780079,0.75726295,0.5202923,-0.12397387,0.14626887,1.3044341,2.0779543,0.5994312,-1.564336,-0.40883368,0.010626137,-0.029141033,0.98726,-0.24885109
-0.2,0.10000000000000003,0.9999999999999999,-0.5235987755982988,0.0,0,1.5818858,0.75149554,0.52782,-0.12398227,0.14814703,1.3023791,2.0826328,0.62495255,-1.5675555,-0.2882551,-0.103580505,0.070363574,1.0158151,0.49186823
-0.2,0.10000000000000003,0.9999999999999999,-0.5235987755982988,0.0,0,1.5732901,0.75938463,0.52577233,-0.12583767,0.14252858,1.3141642,2.0798388,0.6846971,-1.5573775,-0.26109928,0.05462345,0.03261629,1.2987977,0.51206124
-0.2,0.10000000000000003,0.9999999999999999,-0.5235987755982988,0.0,0,1.5715824,0.75527984,0.5290981,-0.122922264,0.12689449,1.3067714,2.079323,0.5893327,-1.5703322,-0.28141305,-0.01147583,-0.2763473,1.1092867,0.13567543
-0.2,0.10000000000000003,0.9999999999999999,-0.5235987755982988,0.0,0,1.5759292,0.7558326,0.526071,-0.12666616,0.13230248,1.3097044,2.06799,0.60144687,-1.5534198,-0.3939736,0.08586629,-0.13645916,1.0573875,0.10030242
-0.2,0.10000000000000003,0.9999999999999999,-0.5235987755982988,0.0,0,1.5749645,0.7545327,0.5220056,-0.12395725,0.13155082,1.3117696,2.078846,0.6041169,-1.5572832,-0.19857869,0.020490702,-0.19288327,0.91530263,-0.03567862
-0.2,0.10000000000000003,0.9999999999999999,-0.5235987755982988,0.0,0,1.5732194,0.7552187,0.52847135,-0.1227968,0.1426848,1.3055634,2.0540316,0.61325884,-1.5598,-0.42130142,0.018316284,-0.054842476,0.86848,-0.6849842
-0.2,0.10000000000000003,0.9999999999999999,-0.5235987755982988,0.0,0,1.5791267,0.75432146,0.5318178,-0.12577589,0.12286047,1.2977935,2.0867085,0.5872487,-1.5660267,-0.3228704,0.120537914,0.03151811,1.0748624,-0.19422248
-0.2,0.10000000000000003,0.9999999999999999,-0.5235987755982988,0.0,0,1.5695522,0.75531954,0.5342234,-0.12353649,0.13255231,1.3066554,2.0714417,0.6493035,-1.550327,-0.3108799,0.05541811,0.18974566,1.192228,-0.52743757
-0.2,0.10000000000000003,0.9999999999999999,-0.5235987755982988,0.0,0,1.5774877,0.7556304,0.5197951,-0.12620738,0.1287605,1.3053167,2.0564032,0.6555532,-1.5752349,-0.31693715,-0.127204,0.026762411,1.0544311,-0.13305224
-0.2,0.10000000000000003,0.9999999999999999,-0.5235987755982988,0.0,0,1.5716999,0.75517845,0.531335,-0.12740262,0.13702513,1.3062632,2.049235,0.61483634,-1.5821747,-0.2646081,0.16060513,0.09273991,0.98714274,-0.3306107
-0.2,0.10000000000000003,0.9999999999999999,-0.5235987755982988,0.0,0,1.5692067,0.7556916,0.5296543,-0.12163796,0.12683843,1.3085086,2.070627,0.6333847,-1.5622531,-0.3628859,0.009293819,-0.0765857,1.0389344,-0.3474993
-0.2,0.10000000000000003,0.9999999999999999,-0.5235987755982988,0.0,0,1.571277,0.7542818,0.52851695,-0.12215808,0.1271854,1.3070747,2.0843642,0.5796046,-1.5495237,-0.2879308,-0.027682833,0.07882457,0.93163633,0.16523595
-0.2,0.10000000000000003,0.9999999999999999,-0.5235987755982988,0.0,0,1.573099,0.7528164,0.5270887,-0.12725481,0.15428357,1.3071439,2.109502,0.6055403,-1.5939226,-0.3446382,0.014542335,0.019733874,0.9512058,0.5170217
-0.2,0.10000000000000003,0.9999999999999999,-0.5235987755982988,0.0,0,1.5783987,0.754261,0.52425414,-0.120434076,0.14295425,1.3009953,2.0718277,0.6537357,-1.5669221,-0.3761439,-0.102913395,-0.00016085949,0.82360923,-0.6384447
-0.2,0.10000000000000003,0.9999999999999999,-0.5235987755982988,0.0,0,1.5742776,0.75766516,0.52679133,-0.121292844,0.15023947,1.2975368,2.0534308,0.6166518,-1.5833987,-0.33195305,0.052298352,-0.21181624,0.95707506,-0.08445291
-0.2,0.10000000000000003,0.9999999999999999,-0.5235987755982988,0.0,0,1.5740278,0.754061,0.5288795,-0.12479756,0.14247906,1.3144809,2.081516,0.620275,-1.5747436,-0.30451447,-0.101846606,0.029843168,1.0983295,-0.314492
-0.2,0.10000000000000003,0.9999999999999999,-0.5235987755982988,0.0,0,1.5728259,0.7546859,0.523535,-0.12248249,0.14397883,1.2953084,2.07656,0.61406434,-1.5726459,-0.3750951,-0.15209693,0.0546395,0.96642286,-0.5062573
-0.2,0.10000000000000003,0.9999999999999999,-0.5235987755982988,0.0,0,1.571705,0.756525,0.52602786,-0.114134066,0.13367037,1.3005078,2.0680275,0.5996795,-1.577364,-0.3908682,0.059512313,0.08022419,1.0566217,0.41976628
-0.2,0.10000000000000003,0.9999999999999999,-0.5235987755982988,0.0,0,1.5758352,0.753798,0.52420324,-0.11906753,0.13884673,1.3004581,2.0780463,0.6343815,-1.5559428,-0.3474436,0.14397524,-0.07764516,1.0231736,-0.101639844
-0.2,0.10000000000000003,0.9999999999999999,-0.5235987755982988,0.0,0,1.5738637,0.75655335,0.51805687,-0.12733324,0.13174736,1.3117162,2.0971024,0.60787934,-1.5754168,-0.41241372,-0.00069933606,0.109141886,1.3702627,0.2808504
-0.2,0.10000000000000003,0.9999999999999999,-0.5235987755982988,0.0,0,1.5700548,0.755546,0.5290365,-0.12612997,0.13364226,1.3074265,2.0829666,0.6451623,-1.553983,-0.27749157,-0.12449205,0.072806925,0.90864176,0.31023332
-0.2,0.10000000000000003,0.9999999999999999,-0.5235987755982988,0.0,0,1.5760021,0.7542931,0.52456194,-0.12898125,0.12967221,1.3063811,2.0771837,0.6021306,-1.5781133,-0.26868746,0.044627085,-0.020235829,0.97384894,-0.2198984
-0.2,0.10000000000000003,0.9999999999999999,-0.5235987755982988,0.0,0,1.5754354,0.7550693,0.530734,-0.12583198,0.14278318,1.3026459,2.0631912,0.6183321,-1.5831914,-0.37933412,-0.029052854,-0.21333157,1.0139965,-0.47007695
-0.2,0.10000000000000003,0.9999999999999999,-0.5235987755982988,0.0,0,1.5744703,0.75452,0.5262293,-0.121979065,0.1468565,1.3062493,2.0816035,0.58961993,-1.5563555,-0.29805446,0.16084118,-0.29108745,1.0207034,0.005317107
-0.2,0.10000000000000003,0.9999999999999999,-0.5235987755982988,0.0,0,1.5681697,0.7508008,0.5193244,-0.12829421,0.13848314,1.3149314,2.0632956,0.6102019,-1.5665038,-0.29927683,-0.041113477,0.033281393,0.92548996,-0.28502387
-0.2,0.10000000000000003,0.9999999999999999,-0.5235987755982988,0.0,0,1.5749763,0.7550526,0.5291637,-0.12233282,0.13684827,1.3050793,2.0805938,0.6202351,-1.5857937,-0.30784547,-0.024718016,-0.11260486,1.109574,-0.20842049
-0.2,0.10000000000000003,0.9999999999999999,-0.5235987755982988,0.0,0,1.5726581,0.7540374,0.5287633,-0.13143478,0.15312958,1.3075761,2.0753198,0.6276485,-1.5732561,-0.3373254,-0.118851945,-0.045544874,1.0575129,-0.7517772
-0.2,0.10000000000000003,0.9999999999999999,-0.5235987755982988,0.0,0,1.5734183,0.752053,0.5324033,-0.1339955,0.12548704,1.3027877,2.0804331,0.6200337,-1.5596119,-0.25956482,0.08319641,-0.0126926815,1.0131116,-0.49193686
-0.2,0.10000000000000003,0.9999999999999999,-0.5235987755982988,0.0,0,1.5806109,0.7532044,0.52891046,-0.12774903,0.14659514,1.3042749,2.049789,0.62833315,-1.5700903,-0.4784859,-0.15037997,0.027429081,1.0695959,-0.28835025
-0.2,0.10000000000000003,0.9999999999999999,-0.5235987755982988,0.0,0,1.5667534,0.755618,0.52825826,-0.12789667,0.13888708,1.3042729,2.0628736,0.5962778,-1.570553,-0.29182214,-0.12077629,0.08549677,1.1637319,-0.15966016
-0.2,0.10000000000000003,0.9999999999999999,-0.5235987755982988,0.0,0,1.5783763,0.75380063,0.5255089,-0.13705784,0.13310918,1.3138475,2.0666857,0.6261928,-1.5755377,-0.1925495,-0.08875255,0.0073818234,1.1263878,0.16321531
-0.2,0.10000000000000003,0.9999999999999999,-0.5235987755982988,0.0,0,1.578917,0.75039804,0.52372324,-0.13234547,0.12222291,1.306908,2.0448446,0.6096084,-1.5666021,-0.2537353,0.0068959887,-0.18049866,1.1170018,0.308455
-0.2,0.10000000000000003,0.9999999999999999,-0.5235987755982988,0.0,0,1.5793164,0.7542834,0.5282186,-0.1197365,0.1459026,1.3073593,2.0870178,0.60533553,-1.5614817,-0.43501166,0.019886522,-0.19927691,0.8349143,-0.5142752
-0.2,0.10000000000000003,0.9999999999999999,-0.5235987755982988,0.0,0,1.5741519,0.7552372,0.5338299,-0.13801631,0.11876945,1.3048733,2.0399783,0.6565881,-1.5636517,-0.27802727,0.18162015,-0.2403664,0.95829034,-0.35208565
-0.2,0.10000000000000003,0.9999999999999999,-0.5235987755982988,0.0,0,1.5662066,0.7526265,0.52130216,-0.12829484,0.13553257,1.3026407,2.0647922,0.6263525,-1.5778518,-0.3496115,-0.06297457,-0.0053657508,1.0392917,0.04616047
-0.2,0.10000000000000003,0.9999999999999999,-0.5235987755982988,0.0,0,1.5767728,0.753853,0.5302715,-0.13310865,0.12934251,1.3095267,2.0997024,0.5867478,-1.5796344,-0.28354815,0.10017979,-0.09150278,1.1536644,0.625781
-0.2,0.10000000000000003,0.9999999999999999,-0.5235987755982988,0.0,0,1.5700665,0.7554572,0.5312202,-0.12990418,0.14295802,1.3001854,2.0789928,0.6467954,-1.575706,-0.21980467,0.14667755,0.07055118,1.0266584,-0.45928726
-0.2,0.10000000000000003,0.9999999999999999,-0.5235987755982988,0.0,0,1.5738516,0.7525452,0.5296777,-0.12837662,0.13529412,1.3068869,2.1033933,0.6357544,-1.5597917,-0.4175803,-0.11108083,-0.20530345,0.837564,-0.25023046
-0.2,0.10000000000000003,0.9999999999999999,-0.5235987755982988,0.0,0,1.5683361,0.75676996,0.5245981,-0.12172707,0.13628788,1.2989477,2.064666,0.5894952,-1.5492717,-0.29376593,0.010828043,0.08781666,1.08468,-0.318119
-0.2,0.10000000000000003,0.9999999999999999,-0.5235987755982988,0.0,0,1.5748099,0.7598874,0.5301669,-0.1260649,0.1343877,1.3083738,2.0977037,0.59380865,-1.5749266,-0.40289256,-0.02457915,-0.004255691,1.1616528,-0.23034999
-0.2,0.10000000000000003,0.9999999999999999,-0.5235987755982988,0.0,0,1.5769837,0.7551205,0.5187076,-0.117464334,0.1361974,1.3055835,2.0758388,0.65830064,-1.5641398,-0.40217546,0.059668183,-0.20213412,1.0672529,0.06657551
-0.2,0.10000000000000003,0.9999999999999999,-0.5235987755982988,0.0,0,1.5692042,0.7553726,0.5188839,-0.122312784,0.14854766,1.3062212,2.0801609,0.615352,-1.5653716,-0.3822841,0.14955048,0.022187436,1.1449399,0.16170952
-0.2,0.10000000000000003,0.9999999999999999,-0.5235987755982988,0.0,0,1.5725676,0.75168663,0.52432436,-0.12951054,0.13222735,1.302663,2.061135,0.6283908,-1.5657277,-0.27385116,0.070713796,-0.28411314,1.0572608,-0.02583328
-0.2,0.10000000000000003,0.9999999999999999,-0.5235987755982988,0.0,0,1.5722166,0.756138,0.520671,-0.124589816,0.13499159,1.3068694,2.080797,0.6090312,-1.5610505,-0.32489392,-0.077684924,0.06082146,1.1103112,-0.37445974
-0.2,0.10000000000000003,0.9999999999999999,-0.5235987755982988,0.0,0,1.5755793,0.75630975,0.5315073,-0.124937646,0.1372162,1.3112059,2.0829246,0.6220254,-1.5693635,-0.29473847,0.02190783,-0.06940172,1.051939,-0.09230538
-0.2,0.10000000000000003,0.9999999999999999,-0.5235987755982988,0.0,0,1.5755881,0.7529168,0.5280972,-0.12117425,0.14279456,1.3053447,2.0540586,0.6368032,-1.5703858,-0.28681004,0.009223578,-0.14482902,1.0391281,0.2148461
-0.2,0.10000000000000003,0.9999999999999999,-0.5235987755982988,0.0,0,1.5739158,0.7595051,0.53129774,-0.12157533,0.13596465,1.3086723,2.0632071,0.60767466,-1.5695399,-0.32430986,-0.047855265,0.06541485,1.0712179,-0.65948004
-0.2,0.10000000000000003,0.9999999999999999,-0.5235987755982988,0.0,0,1.5749207,0.75734663,0.52562684,-0.117217146,0.12752849,1.2986871,2.0818694,0.60587233,-1.5590117,-0.33345255,-0.090208046,0.61454195,1.1178027,0.114884645
-0.2,0.10000000000000003,0.9999999999999999,-0.5235987755982988,0.0,0,1.5762787,0.75232667,0.5262938,-0.12121646,0.126071,1.3059031,2.0687885,0.56016386,-1.5509882,-0.41741514,-0.04228434,-0.21332201,0.9061459,-0.7687862
-0.2,0.10000000000000003,0.9999999999999999,-0.5235987755982988,0.0,0,1.5765231,0.7574657,0.52190506,-0.12359153,0.12714799,1.301838,2.0808172,0.65104395,-1.5710254,-0.3687228,0.001723815,-0.030606786,1.0337663,0.04462486
-0.2,0.10000000000000003,0.9999999999999999,-0.5235987755982988,0.0,0,1.576253,0.7561332,0.520204,-0.1261204,0.13889955,1.2998463,2.0912917,0.5877909,-1.5551163,-0.27288845,-0.06432267,-0.10101594,0.97602165,-0.5590957
-0.2,0.10000000000000003,0.9999999999999999,-0.5235987755982988,0.0,0,1.5709906,0.7558609,0.5330439,-0.12658578,0.14603618,1.3016021,2.0689948,0.62842107,-1.562563,-0.32198063,0.11353782,-0.0105399,1.0681797,0.34235528
-0.2,0.10000000000000003,0.9999999999999999,-0.5235987755982988,0.0,0,1.5712851,0.75957763,0.5247176,-0.12161357,0.1289302,1.3089838,2.0969744,0.61937124,-1.5583682,-0.30117846,-0.037518177,-0.3064022,1.0604379,-0.12186522
-0.2,0.10000000000000003,0.9999999999999999,-0.5235987755982988,0.0,0,1.5739795,0.7573695,0.52753323,-0.11587446,0.13852397,1.296253,2.0678425,0.6143264,-1.5720172,-0.30357262,-0.084314354,-0.058863387,1.0570766,-0.231681
-0.2,0.10000000000000003,0.9999999999999999,-0.5235987755982988,0.0,0,1.579888,0.7554221,0.5251388,-0.119238354,0.1388245,1.2954639,2.0647967,0.5763739,-1.5610144,-0.23890151,0.13862346,0.15890032,1.1597481,0.085705474
-0.2,0.10000000000000003,0.9999999999999999,-0.5235987755982988,0.0,0,1.580336,0.7559672,0.52093595,-0.12480578,0.14068519,1.3066576,2.0868175,0.6244248,-1.5554771,-0.43398494,-0.09690439,-0.11289755,1.1737791,0.2212947
-0.2,0.10000000000000003,0.9999999999999999,-0.5235987755982988,0.0,0,1.5761611,0.7546078,0.52628744,-0.1268411,0.14140521,1.3025942,2.0890412,0.60780525,-1.5464269,-0.36468413,-0.11562757,0.14908367,1.3261813,0.01642239
-0.2,0.10000000000000003,0.9999999999999999,-0.5235987755982988,0.0,0,1.5713886,0.7553296,0.52823883,-0.1282252,0.13705425,1.309045,2.0577524,0.6218692,-1.5561508,-0.32715616,0.005029044,0.056435507,1.0389371,-0.18550143
-0.2,0.10000000000000003,0.9999999999999999,-0.5235987755982988,0.0,0,1.5775933,0.75753665,0.52419835,-0.12491642,0.14704263,1.3124996,2.0753472,0.6425945,-1.5917448,-0.23906007,-0.23642837,0.074809,1.2137527,-0.63309664
-0.2,0.10000000000000003,0.9999999999999999,-0.5235987755982988,0.0,0,1.5688356,0.75399566,0.5257067,-0.12769882,0.14445698,1.3059785,2.0438483,0.6404186,-1.5731311,-0.19660173,-0.031129912,0.18126036,0.9006956,0.048847362
-0.2,0.10000000000000003,0.9999999999999999,-0.5235987755982988,0.0,0,1.5720396,0.75510466,0.5227682,-0.11834291,0.13723442,1.3150136,2.0994203,0.5914938,-1.5745544,-0.32028246,0.04811777,-0.12625253,1.1243206,-0.67580783
-0.2,0.10000000000000003,0.9999999999999999,-0.5235987755982988,0.0,0,1.5708634,0.752809,0.5291476,-0.12319366,0.14226887,1.3112103,2.0801144,0.6159226,-1.567472,-0.524705,-0.067231216,-0.32382265,1.1546017,-0.53305805
-0.2,0.10000000000000003,0.9999999999999999,-0.5235987755982988,0.0,0,1.5756679,0.7555244,0.5333791,-0.12384424,0.1327608,1.3077958,2.069941,0.6739001,-1.5628926,-0.38657406,-0.084506206,-0.06035413,0.70840585,0.18332332
-0.2,0.10000000000000003,0.9999999999999999,-0.5235987755982988,0.0,0,1.5753156,0.7539053,0.5277843,-0.122522354,0.13937826,1.3052192,2.0693839,0.6070873,-1.5609361,-0.29969767,0.034719314,-0.03420484,0.93617845,-0.9108549
-0.2,0.10000000000000003,0.9999999999999999,-0.5235987755982988,0.0,0,1.5713372,0.751431,0.52797085,-0.13109165,0.13495629,1.3091836,2.0818717,0.657029,-1.5716541,-0.31816918,-0.0788225,-0.12544122,0.869014,-0.27885044
-0.2,0.10000000000000003,0.9999999999999999,-0.5235987755982988,0.0,0,1.5746052,0.7566942,0.5280659,-0.12038395,0.15859033,1.3019567,2.0623946,0.6603247,-1.5592185,-0.49082193,-0.12228514,0.14771749,1.2722603,-0.37546867
-0.2,0.10000000000000003,0.9999999999999999,-0.5235987755982988,0.0,0,1.5722427,0.75019246,0.5249967,-0.113446124,0.13499269,1.3064398,2.0693002,0.612862,-1.5716764,-0.24002536,0.07173611,0.08698378,0.6927769,-0.3925081
-0.2,0.10000000000000003,0.9999999999999999,-0.5235987755982988,0.0,0,1.5777636,0.7527188,0.5250744,-0.13646153,0.14017074,1.3051589,2.0343456,0.5775644,-1.5679303,-0.534705,-0.015759155,-0.02246546,0.86056453,0.45583564
-0.2,0.10000000000000003,0.9999999999999999,-0.5235987755982988,0.0,0,1.5708572,0.7531029,0.5286015,-0.12771472,0.14313541,1.3131022,2.0908208,0.61628544,-1.5620911,-0.35950282,-0.059883464,-0.09118222,1.1242628,0.033619784
-0.2,0.10000000000000003,0.9999999999999999,-0.5235987755982988,0.0,0,1.5712851,0.75552505,0.52747804,-0.12085712,0.15435147,1.3011107,2.0419004,0.5973517,-1.5758584,-0.36837977,-0.010668155,-0.030346017,0.92407,0.03231252
-0.2,0.10000000000000003,0.9999999999999999,-0.5235987755982988,0.0,0,1.5762173,0.7569319,0.5273432,-0.121788666,0.12008559,1.3082114,2.0782459,0.61736965,-1.5666219,-0.26847735,-0.08543563,-0.30731937,1.011396,0.063874945
-0.2,0.10000000000000003,0.9999999999999999,-0.5235987755982988,0.0,0,1.575248,0.75501287,0.52520394,-0.12840822,0.14237833,1.3036238,2.0924554,0.6200471,-1.563256,-0.41482762,0.021332787,-0.02366195,0.83785176,-0.59762144
-0.2,0.10000000000000003,0.9999999999999999,-0.5235987755982988,0.0,0,1.571154,0.75670725,0.5264309,-0.13687415,0.13624018,1.3066268,2.057912,0.6235322,-1.5605478,-0.33765367,0.0009130562,-0.004634894,1.2448618,-0.06903468
