sanky1234/BimanualDexCatch/isaacgymenvs/cem_results/football_pose_-0.2_0.0_1.4999999999999998_0.5235987755982988_-0.5235987755982988_0_2025-05-25.csv
x,y,z,roll,pitch,yaw,robot1/joint1,robot1/joint2,robot1/joint3,robot1/joint4,robot1/joint5,robot1/joint6,robot1/joint7,robot2/joint1,robot2/joint2,robot2/joint3,robot2/joint4,robot2/joint5,robot2/joint6,robot2/joint7
-0.2,0.0,1.4999999999999998,0.5235987755982988,-0.5235987755982988,0,1.2068486,0.32001746,0.79985577,0.5787583,0.04933174,0.09727479,2.640457,-0.75346345,-1.5760909,0.13190612,-0.10729175,-0.08263815,1.2301152,1.199305
-0.2,0.0,1.4999999999999998,0.5235987755982988,-0.5235987755982988,0,1.2072879,0.31527984,0.7973782,0.57535297,0.05774011,0.096466325,2.650481,-0.951624,-1.5875444,-0.21911363,-0.07976454,0.11232688,1.1320292,1.0858718
-0.2,0.0,1.4999999999999998,0.5235987755982988,-0.5235987755982988,0,1.2089081,0.31676802,0.7997991,0.5770874,0.052735627,0.098090656,2.6443326,-0.75025785,-1.5548009,0.1211975,-0.11082879,-0.09218185,1.1625327,0.5543425
-0.2,0.0,1.4999999999999998,0.5235987755982988,-0.5235987755982988,0,1.2077508,0.31667888,0.7944912,0.5783581,0.046812613,0.097022064,2.6412067,-1.1777847,-1.5694749,-0.3589831,-0.10126534,-0.28515813,1.1576141,0.48723882
-0.2,0.0,1.4999999999999998,0.5235987755982988,-0.5235987755982988,0,1.2075206,0.3187621,0.80056804,0.57693934,0.054648224,0.09663802,2.6394887,-0.9427152,-1.5673571,0.08804014,-0.05515164,0.05759582,1.2144532,-0.05387109
-0.2,0.0,1.4999999999999998,0.5235987755982988,-0.5235987755982988,0,1.207616,0.3194276,0.799697,0.57726,0.056403223,0.0997784,2.6395557,-0.8458258,-1.5789483,0.4078369,-0.078297876,0.020381922,1.1883608,1.1417402
-0.2,0.0,1.4999999999999998,0.5235987755982988,-0.5235987755982988,0,1.2083937,0.31613326,0.7985668,0.57754064,0.05694207,0.09976529,2.6420696,-1.1635356,-1.5846263,0.14951396,-0.07397193,-0.013296767,1.1742896,-1.1136551
-0.2,0.0,1.4999999999999998,0.5235987755982988,-0.5235987755982988,0,1.2080115,0.3170839,0.8015591,0.57514375,0.052894607,0.096438356,2.646509,-1.0373117,-1.6092212,0.018791065,-0.07655853,-0.11533818,1.1529144,0.3429215
-0.2,0.0,1.4999999999999998,0.5235987755982988,-0.5235987755982988,0,1.2081151,0.3169291,0.7967476,0.57596624,0.054355785,0.10063469,2.6434076,-0.6246908,-1.5294299,0.076804124,-0.12251326,-0.146993,1.1917645,0.00013432748
-0.2,0.0,1.4999999999999998,0.5235987755982988,-0.5235987755982988,0,1.2080449,0.31679937,0.799733,0.57701087,0.052227855,0.097423024,2.6407678,-0.7083877,-1.5891534,-0.1453471,-0.07371793,0.027254572,1.1311253,-0.8465863
-0.2,0.0,1.4999999999999998,0.5235987755982988,-0.5235987755982988,0,1.209444,0.3182558,0.7978602,0.5772314,0.053535014,0.098627225,2.6391654,-1.0298035,-1.5309725,0.41441187,-0.043239195,-0.052043594,1.215844,0.07020666
-0.2,0.0,1.4999999999999998,0.5235987755982988,-0.5235987755982988,0,1.2078946,0.31859434,0.79705936,0.5767636,0.04968311,0.098466076,2.639952,-0.99340373,-1.625307,0.23419285,-0.08311637,0.0708243,1.2087924,0.79484534
-0.2,0.0,1.4999999999999998,0.5235987755982988,-0.5235987755982988,0,1.2071162,0.31863308,0.79783493,0.576713,0.05186899,0.09954643,2.6389716,-1.3924342,-1.5527271,0.17961623,-0.13321553,-0.031438928,1.2215612,0.5804108
-0.2,0.0,1.4999999999999998,0.5235987755982988,-0.5235987755982988,0,1.2093315,0.31735095,0.79729205,0.5770175,0.054714918,0.10210886,2.6427596,-0.9426695,-1.5914899,0.59315133,-0.051520236,0.00384319,1.2080579,0.5657047
-0.2,0.0,1.4999999999999998,0.5235987755982988,-0.5235987755982988,0,1.2077212,0.31655726,0.80047065,0.57678217,0.05137889,0.09982223,2.6442103,-1.1634731,-1.5442728,-0.035933238,-0.035901647,0.19585015,1.224689,1.2352643
-0.2,0.0,1.4999999999999998,0.5235987755982988,-0.5235987755982988,0,1.2071828,0.31989518,0.79936594,0.5783741,0.0554638,0.096510455,2.6434798,-1.1066252,-1.5855448,-0.14405514,-0.05592194,0.029056039,1.2723413,1.4216887
-0.2,0.0,1.4999999999999998,0.5235987755982988,-0.5235987755982988,0,1.2078633,0.31585866,0.800508,0.5766849,0.05274896,0.09987276,2.644137,-1.0033771,-1.5613176,0.35972774,-0.09674006,-0.010362443,1.1106342,0.5471275
-0.2,0.0,1.4999999999999998,0.5235987755982988,-0.5235987755982988,0,1.2081442,0.31640738,0.799314,0.5779377,0.050085604,0.0966391,2.645934,-0.8354805,-1.5527301,0.13824005,-0.15396148,-0.03470187,1.2382178,0.78712463
-0.2,0.0,1.4999999999999998,0.5235987755982988,-0.5235987755982988,0,1.2080275,0.317116,0.79945874,0.5773935,0.052289188,0.09746921,2.6349895,-0.3908696,-1.59121,-0.54946595,-0.11195605,0.0673317,1.1652027,-0.49911714
-0.2,0.0,1.4999999999999998,0.5235987755982988,-0.5235987755982988,0,1.2074592,0.31922805,0.799926,0.5784557,0.06235704,0.100979075,2.6397138,-0.5061453,-1.581955,0.22792922,-0.10481004,0.061040346,1.1313231,-1.0510247
-0.2,0.0,1.4999999999999998,0.5235987755982988,-0.5235987755982988,0,1.2076417,0.3149038,0.80064756,0.5774915,0.058822874,0.09785569,2.640944,-1.0903194,-1.5295031,-0.19041884,-0.07895768,-0.12714452,1.2126352,-0.31703433
-0.2,0.0,1.4999999999999998,0.5235987755982988,-0.5235987755982988,0,1.2087696,0.31755418,0.79675126,0.5769293,0.052717954,0.09816158,2.6375303,-0.7502825,-1.56272,0.5249009,-0.117104344,0.060447358,1.1966718,0.53382796
-0.2,0.0,1.4999999999999998,0.5235987755982988,-0.5235987755982988,0,1.2085109,0.31966442,0.7979863,0.57729626,0.051286004,0.09809163,2.6340015,-0.76462793,-1.6728176,-0.037076313,-0.0926235,0.023866221,1.208172,0.14639015
-0.2,0.0,1.4999999999999998,0.5235987755982988,-0.5235987755982988,0,1.2075287,0.31964585,0.79728353,0.5789157,0.051291496,0.09830592,2.6385493,-0.6434978,-1.6090858,0.49418563,-0.039061155,-0.077662736,1.2059695,0.7245596
-0.2,0.0,1.4999999999999998,0.5235987755982988,-0.5235987755982988,0,1.2083683,0.31798443,0.7949494,0.5777147,0.058606908,0.098961525,2.6392758,-0.97435665,-1.6296796,-0.06390743,-0.083020605,0.09295865,1.1630082,-0.5269667
-0.2,0.0,1.4999999999999998,0.5235987755982988,-0.5235987755982988,0,1.2091358,0.31987295,0.79976666,0.5775137,0.0543572,0.09836608,2.6417897,-1.0876743,-1.5470436,0.067819856,-0.054766145,0.10923706,1.143717,1.0795169
-0.2,0.0,1.4999999999999998,0.5235987755982988,-0.5235987755982988,0,1.2084209,0.31615537,0.7981509,0.57669586,0.054097712,0.09661397,2.6418028,-0.9724851,-1.5739,-0.23494847,-0.04471599,-0.06071119,1.2332168,-0.6542532
-0.2,0.0,1.4999999999999998,0.5235987755982988,-0.5235987755982988,0,1.2089227,0.31878677,0.798574,0.57760835,0.043694396,0.098517634,2.6401126,-0.77619,-1.5366126,0.09624661,-0.09870432,-0.11680245,1.2184296,0.43254262
-0.2,0.0,1.4999999999999998,0.5235987755982988,-0.5235987755982988,0,1.2085627,0.31820264,0.79840845,0.5775964,0.047761936,0.09978853,2.6447997,-0.5797872,-1.5715108,-0.02253166,-0.09663902,0.060691956,1.1705021,0.76048285
-0.2,0.0,1.4999999999999998,0.5235987755982988,-0.5235987755982988,0,1.2069484,0.31806156,0.7969625,0.576929,0.05643934,0.09790075,2.634521,-1.1129531,-1.5627562,0.23249765,-0.11344268,0.12479458,1.1646959,0.2286874
-0.2,0.0,1.4999999999999998,0.5235987755982988,-0.5235987755982988,0,1.2082,0.31899533,0.79708105,0.57826424,0.055538982,0.10090438,2.6448646,-0.6557774,-1.5682089,-0.046527922,-0.12458786,0.10290924,1.1320348,0.75849766
-0.2,0.0,1.4999999999999998,0.5235987755982988,-0.5235987755982988,0,1.20892,0.31821865,0.79837024,0.57736665,0.055701178,0.09955348,2.6392615,-1.0151905,-1.5888556,0.5065088,-0.10864365,0.20388417,1.1202706,0.3374741
-0.2,0.0,1.4999999999999998,0.5235987755982988,-0.5235987755982988,0,1.2078164,0.3169423,0.7991425,0.5779879,0.050408572,0.09764162,2.6393702,-0.6040462,-1.6198822,-0.2339723,-0.061493408,-0.058844216,1.2133679,0.35146293
-0.2,0.0,1.4999999999999998,0.5235987755982988,-0.5235987755982988,0,1.2075166,0.3207949,0.79859525,0.57444775,0.05245931,0.09562155,2.6412055,-0.8345331,-1.5666244,0.5800949,-0.08550409,0.10431906,1.1856407,1.2216865
-0.2,0.0,1.4999999999999998,0.5235987755982988,-0.5235987755982988,0,1.2072078,0.31779778,0.7979587,0.57618976,0.05553023,0.096728824,2.63852,-1.3647804,-1.5832584,-0.09064988,-0.07633793,-0.062142506,1.1292984,0.43028453
-0.2,0.0,1.4999999999999998,0.5235987755982988,-0.5235987755982988,0,1.2075696,0.3153637,0.79770494,0.5763389,0.058693286,0.09655674,2.637573,-1.2965283,-1.5831358,-0.1711524,-0.04944179,-0.08394729,1.1433086,-0.3008032
-0.2,0.0,1.4999999999999998,0.5235987755982988,-0.5235987755982988,0,1.2086695,0.3175552,0.79692405,0.57818633,0.05454341,0.09758715,2.6338813,-0.83530587,-1.6204798,-0.33619305,-0.052672755,0.14235222,1.13238,-0.13274847
-0.2,0.0,1.4999999999999998,0.5235987755982988,-0.5235987755982988,0,1.2079861,0.31566104,0.7966432,0.57831246,0.055607114,0.099156015,2.6432142,-1.4888718,-1.5663648,0.19168451,-0.05978851,0.05751244,1.2905109,-0.42760208
-0.2,0.0,1.4999999999999998,0.5235987755982988,-0.5235987755982988,0,1.2080059,0.31936225,0.79771894,0.5781547,0.05355996,0.096418045,2.6445103,-0.96172696,-1.5579252,0.18958995,-0.059456795,-0.11408425,1.1919887,0.20570725
-0.2,0.0,1.4999999999999998,0.5235987755982988,-0.5235987755982988,0,1.207981,0.31698325,0.7973427,0.57693696,0.050449178,0.09799811,2.6358879,-0.9771317,-1.5293181,0.24868657,-0.058633916,0.07103514,1.2048177,0.10243872
-0.2,0.0,1.4999999999999998,0.5235987755982988,-0.5235987755982988,0,1.2096257,0.31603932,0.79688454,0.57717556,0.056749713,0.09668006,2.6427436,-1.1626987,-1.624841,0.27451932,-0.05178734,0.063590705,1.1956581,-0.551014
-0.2,0.0,1.4999999999999998,0.5235987755982988,-0.5235987755982988,0,1.2080306,0.31794038,0.79772645,0.57712007,0.04659722,0.097689286,2.6398208,-1.4982023,-1.623669,-0.15656796,-0.04804276,0.12972617,1.2539392,0.025707796
-0.2,0.0,1.4999999999999998,0.5235987755982988,-0.5235987755982988,0,1.2092258,0.31701794,0.79761434,0.5786985,0.053787544,0.09591527,2.6399012,-0.683907,-1.550444,-0.15721005,-0.0560587,0.16972758,1.2515745,0.934966
-0.2,0.0,1.4999999999999998,0.5235987755982988,-0.5235987755982988,0,1.2074326,0.31705275,0.80003554,0.57716745,0.053551473,0.09736581,2.6331394,-1.0949919,-1.5178188,0.11275022,-0.14207193,-0.07862687,1.1671163,-0.9568846
-0.2,0.0,1.4999999999999998,0.5235987755982988,-0.5235987755982988,0,1.2080384,0.31468502,0.79730994,0.57630426,0.058603488,0.10068928,2.634591,-1.08206,-1.5730096,-0.19313332,-0.083851054,0.047574405,1.2239934,-0.40141904
-0.2,0.0,1.4999999999999998,0.5235987755982988,-0.5235987755982988,0,1.2076255,0.31684354,0.7968869,0.57739925,0.04914109,0.09755932,2.6428785,-1.0985945,-1.5721416,0.16171022,-0.13136145,0.19867773,1.1054833,0.881433
-0.2,0.0,1.4999999999999998,0.5235987755982988,-0.5235987755982988,0,1.2076659,0.31643775,0.798114,0.5767859,0.05295408,0.09952338,2.639015,-0.8709666,-1.6167108,-0.041865025,-0.082562745,-0.21610355,1.2307858,0.8920253
-0.2,0.0,1.4999999999999998,0.5235987755982988,-0.5235987755982988,0,1.2069999,0.31708774,0.80177414,0.57647365,0.05526536,0.10048451,2.6388416,-0.753746,-1.5421417,0.27375236,-0.1520942,0.0132137565,1.1529243,-0.2891619
-0.2,0.0,1.4999999999999998,0.5235987755982988,-0.5235987755982988,0,1.2078397,0.3181328,0.7989932,0.5763873,0.046969667,0.0990063,2.6415005,-0.6743373,-1.6420537,0.088149115,-0.07634908,0.06399358,1.2133496,-0.05385183
-0.2,0.0,1.4999999999999998,0.5235987755982988,-0.5235987755982988,0,1.208587,0.31580326,0.79999816,0.57665306,0.04998856,0.096229486,2.6401746,-0.9106764,-1.5458062,0.1582698,-0.0624006,0.14775716,1.2024482,-0.24865805
-0.2,0.0,1.4999999999999998,0.5235987755982988,-0.5235987755982988,0,1.2083372,0.31548506,0.7986431,0.57680845,0.060890816,0.0969174,2.6382465,-0.9791522,-1.5894835,0.3316998,-0.07435631,-0.040126808,1.1033142,0.6718015
-0.2,0.0,1.4999999999999998,0.5235987755982988,-0.5235987755982988,0,1.2083831,0.31835768,0.7962368,0.57760787,0.06168575,0.094382845,2.6449869,-0.6323314,-1.5553722,0.4642899,-0.05482121,-0.054351393,1.2206135,0.41475475
-0.2,0.0,1.4999999999999998,0.5235987755982988,-0.5235987755982988,0,1.2092932,0.31663725,0.80002624,0.5770785,0.05404376,0.09700561,2.645021,-0.8391141,-1.6598134,0.1942857,-0.1005095,-0.03917669,1.1102526,-0.871013
-0.2,0.0,1.4999999999999998,0.5235987755982988,-0.5235987755982988,0,1.2095186,0.31599072,0.797461,0.5766156,0.048471916,0.097460285,2.6359785,-1.0361052,-1.6864381,-0.07606867,-0.16583878,-0.005252,1.2266016,0.20927528
-0.2,0.0,1.4999999999999998,0.5235987755982988,-0.5235987755982988,0,1.2074142,0.3175865,0.7953097,0.57660073,0.059881315,0.09552224,2.6422071,-0.7742046,-1.532307,0.1269328,-0.06287339,-0.10968466,1.1328534,-0.23269846
-0.2,0.0,1.4999999999999998,0.5235987755982988,-0.5235987755982988,0,1.208093,0.3173232,0.79868466,0.57699126,0.05769431,0.097528085,2.639299,-1.0548097,-1.5958233,0.2896782,-0.07840875,-0.2372021,1.1600057,-1.1330119
-0.2,0.0,1.4999999999999998,0.5235987755982988,-0.5235987755982988,0,1.2098163,0.32029104,0.7975611,0.5757033,0.05716493,0.09997747,2.6476202,-0.98445445,-1.5975932,0.0481966,-0.14791669,-0.05814136,1.2265791,-0.63420755
-0.2,0.0,1.4999999999999998,0.5235987755982988,-0.5235987755982988,0,1.2074748,0.315004,0.7977164,0.5766052,0.05144397,0.099913314,2.6338327,-0.8957258,-1.4973257,0.46081612,-0.028943421,0.024801679,1.2239625,0.7638091
-0.2,0.0,1.4999999999999998,0.5235987755982988,-0.5235987755982988,0,1.2079533,0.31717595,0.79890615,0.5776812,0.058171596,0.09712859,2.6445842,-0.644888,-1.5375915,-0.11085419,-0.070859626,0.05186253,1.2134215,0.09845549
-0.2,0.0,1.4999999999999998,0.5235987755982988,-0.5235987755982988,0,1.2085072,0.31769925,0.8004445,0.57731956,0.052185282,0.09476837,2.6453662,-0.522103,-1.5807887,0.16471553,-0.07503363,0.22880322,1.2726,-0.69528127
-0.2,0.0,1.4999999999999998,0.5235987755982988,-0.5235987755982988,0,1.2085905,0.31570423,0.7981155,0.576781,0.054497004,0.09878721,2.636216,-0.9441292,-1.6217265,0.30477625,-0.08507496,0.12963021,1.1721259,0.57373893
-0.2,0.0,1.4999999999999998,0.5235987755982988,-0.5235987755982988,0,1.2084188,0.3173429,0.79768157,0.57777584,0.055148464,0.0954636,2.639538,-1.1412922,-1.5636947,0.07698815,-0.057748552,0.042758543,1.2173815,1.037932
-0.2,0.0,1.4999999999999998,0.5235987755982988,-0.5235987755982988,0,1.2078723,0.317441,0.7990157,0.57742184,0.051816605,0.09876987,2.634671,-0.9750966,-1.5333673,0.13516383,-0.115075365,-0.093594335,1.0953819,0.1357317
-0.2,0.0,1.4999999999999998,0.5235987755982988,-0.5235987755982988,0,1.2093165,0.3165856,0.79826176,0.57598907,0.058606874,0.094865695,2.6354527,-1.1643392,-1.5227181,-0.37910405,-0.070860185,-0.05818042,1.1696744,1.061215
-0.2,0.0,1.4999999999999998,0.5235987755982988,-0.5235987755982988,0,1.207581,0.3162432,0.79930717,0.57640076,0.050455924,0.09838795,2.6392403,-1.332534,-1.5929328,0.11606177,-0.1154561,-0.13330589,1.2178533,0.3137947
-0.2,0.0,1.4999999999999998,0.5235987755982988,-0.5235987755982988,0,1.2075485,0.31780592,0.7959418,0.57654625,0.051695988,0.09718059,2.6363585,-0.79264075,-1.5494351,-0.1619149,-0.08764371,-0.081906475,1.1878582,0.43416405
-0.2,0.0,1.4999999999999998,0.5235987755982988,-0.5235987755982988,0,1.2090071,0.3162056,0.7983895,0.57755065,0.051195398,0.098416075,2.6434371,-1.343601,-1.576475,-0.06622043,-0.11152615,-0.16611263,1.1701093,0.16652457
-0.2,0.0,1.4999999999999998,0.5235987755982988,-0.5235987755982988,0,1.2079382,0.31588936,0.79916483,0.5782673,0.052980147,0.097939424,2.6435704,-0.7335873,-1.5537609,-0.060770374,-0.11946298,0.116622806,1.1888043,-0.21215448
-0.2,0.0,1.4999999999999998,0.5235987755982988,-0.5235987755982988,0,1.2067266,0.3194266,0.796594,0.5764688,0.050544303,0.09958999,2.6377025,-1.0348943,-1.5612751,0.016272418,-0.093856044,-0.1202423,1.1899886,0.7000536
-0.2,0.0,1.4999999999999998,0.5235987755982988,-0.5235987755982988,0,1.2078178,0.3163693,0.7978716,0.57677275,0.05886412,0.09981759,2.6419895,-0.9228046,-1.5695,-0.40510204,-0.06580403,-0.093492135,1.1459881,-0.43165317
-0.2,0.0,1.4999999999999998,0.5235987755982988,-0.5235987755982988,0,1.2074178,0.31700748,0.80308366,0.5769788,0.061420098,0.09988037,2.6388092,-1.0935907,-1.5471051,-0.121299,-0.085927464,-0.04430249,1.0781255,0.27942893
-0.2,0.0,1.4999999999999998,0.5235987755982988,-0.5235987755982988,0,1.2093124,0.31878674,0.79584646,0.57787055,0.057110466,0.09866047,2.64228,-0.9842569,-1.6029586,0.50466025,-0.069733106,0.019319108,1.1946298,0.9973664
-0.2,0.0,1.4999999999999998,0.5235987755982988,-0.5235987755982988,0,1.209889,0.31614888,0.7984556,0.57769245,0.04793339,0.09589948,2.64128,-0.8757286,-1.5801146,0.31329635,-0.049041007,-0.12791277,1.149791,-0.3473641
-0.2,0.0,1.4999999999999998,0.5235987755982988,-0.5235987755982988,0,1.207566,0.31688106,0.7959482,0.5768701,0.053119883,0.10270724,2.6401565,-0.8876995,-1.5501072,-0.06514306,-0.1401832,0.010616594,1.195843,-0.8893002
-0.2,0.0,1.4999999999999998,0.5235987755982988,-0.5235987755982988,0,1.2078887,0.31757885,0.79962426,0.57935303,0.055712923,0.099493615,2.6430695,-1.0688685,-1.6307166,0.082570255,-0.1268884,0.11019417,1.1974962,-0.75395215
-0.2,0.0,1.4999999999999998,0.5235987755982988,-0.5235987755982988,0,1.2099589,0.31636,0.79821795,0.5752704,0.04813828,0.09629379,2.6402812,-0.5845316,-1.5403129,-0.1380448,-0.12907135,0.03417234,1.1644255,-1.6437087
-0.2,0.0,1.4999999999999998,0.5235987755982988,-0.5235987755982988,0,1.2079186,0.31787422,0.80016744,0.5780236,0.049728848,0.09709442,2.6414592,-0.9635004,-1.5486678,0.38194275,-0.09741088,0.025486957,1.0473893,0.09669398
-0.2,0.0,1.4999999999999998,0.5235987755982988,-0.5235987755982988,0,1.2086428,0.3180267,0.801484,0.57729775,0.049469553,0.09454316,2.6442637,-0.92977256,-1.594344,0.33992407,-0.091322444,0.1722722,1.169473,0.1586282
-0.2,0.0,1.4999999999999998,0.5235987755982988,-0.5235987755982988,0,1.2083354,0.31805557,0.79845154,0.57687676,0.05654551,0.09597756,2.641574,-0.95459336,-1.5186903,0.054841302,-0.056099273,-0.020087885,1.2595073,-0.6377223
-0.2,0.0,1.4999999999999998,0.5235987755982988,-0.5235987755982988,0,1.2075701,0.3189717,0.7972893,0.5769467,0.06082437,0.094493434,2.640008,-0.80268437,-1.6263205,-0.12175612,-0.11712508,0.014713551,1.2160188,-0.37651983
-0.2,0.0,1.4999999999999998,0.5235987755982988,-0.5235987755982988,0,1.2086222,0.3183165,0.7981159,0.57645124,0.048640758,0.0961397,2.6465967,-0.7694892,-1.5835531,-0.13650198,-0.081667975,-0.17065758,1.1063396,-0.11631056
-0.2,0.0,1.4999999999999998,0.5235987755982988,-0.5235987755982988,0,1.208812,0.3157137,0.7999316,0.57563746,0.050510082,0.09941893,2.6432197,-1.175409,-1.5487697,0.2647705,-0.100701876,0.15731502,1.2041534,0.7198096
-0.2,0.0,1.4999999999999998,0.5235987755982988,-0.5235987755982988,0,1.2100898,0.31902027,0.80053705,0.5770498,0.056881234,0.09800594,2.633488,-0.59803045,-1.5386244,0.0838649,-0.073921174,-0.07480108,1.2554481,-0.9207296
-0.2,0.0,1.4999999999999998,0.5235987755982988,-0.5235987755982988,0,1.2092135,0.31470597,0.79683715,0.5767779,0.05923352,0.096375,2.6379082,-1.091438,-1.5117693,-0.30793485,-0.085107416,-0.07199991,1.148147,-0.3437538
-0.2,0.0,1.4999999999999998,0.5235987755982988,-0.5235987755982988,0,1.2080532,0.32001168,0.8001036,0.577412,0.055165958,0.0989028,2.645701,-0.2425457,-1.5447445,0.072003715,-0.06355775,-0.0787553,1.1894958,-0.04276783
-0.2,0.0,1.4999999999999998,0.5235987755982988,-0.5235987755982988,0,1.2091607,0.3182893,0.7981759,0.5762094,0.05884053,0.09523459,2.6393576,-0.96211064,-1.585801,-0.028472846,-0.05497278,-0.010246923,1.178821,-0.44817218
-0.2,0.0,1.4999999999999998,0.5235987755982988,-0.5235987755982988,0,1.2076368,0.31794387,0.7972125,0.57638615,0.054858483,0.09975926,2.6393387,-0.8988333,-1.6148677,0.1621114,-0.10329025,0.08679409,1.1718967,0.054607186
-0.2,0.0,1.4999999999999998,0.5235987755982988,-0.5235987755982988,0,1.2086155,0.31712192,0.79559404,0.5781333,0.050482467,0.099811725,2.6389894,-1.153124,-1.5288738,0.05539596,-0.103480235,-0.24396001,1.2069263,-0.1491807
-0.2,0.0,1.4999999999999998,0.5235987755982988,-0.5235987755982988,0,1.2087586,0.31864288,0.7967995,0.57663584,0.058481,0.09839378,2.6373096,-0.55699176,-1.6041763,0.19572823,-0.094723776,0.14612225,1.149769,0.020035876
-0.2,0.0,1.4999999999999998,0.5235987755982988,-0.5235987755982988,0,1.2062385,0.3176081,0.79850376,0.5777721,0.059009824,0.097518995,2.63562,-1.1363864,-1.6176416,0.5386232,-0.05985469,-0.17433877,1.1592121,0.69858855
-0.2,0.0,1.4999999999999998,0.5235987755982988,-0.5235987755982988,0,1.2085577,0.3173067,0.79892415,0.5769617,0.05093248,0.101078615,2.641833,-1.0835283,-1.5576061,-0.40301895,-0.07382417,0.28391543,1.1634889,-0.3549548
-0.2,0.0,1.4999999999999998,0.5235987755982988,-0.5235987755982988,0,1.2075537,0.3157899,0.79915386,0.57620966,0.051226366,0.09779264,2.6371565,-0.77222425,-1.5972885,0.09029488,-0.10099817,-0.013991544,1.1906443,0.00651907
-0.2,0.0,1.4999999999999998,0.5235987755982988,-0.5235987755982988,0,1.2088917,0.31475505,0.799013,0.5775285,0.053231634,0.09494319,2.6367383,-0.9047143,-1.6052456,0.32376063,-0.08334865,-0.19695148,1.1035714,0.22982045
-0.2,0.0,1.4999999999999998,0.5235987755982988,-0.5235987755982988,0,1.2085598,0.31567493,0.79736716,0.5769963,0.046634212,0.09714669,2.6314564,-1.1512746,-1.6462698,0.68756354,-0.13217919,0.029752167,1.1890621,1.1818639
-0.2,0.0,1.4999999999999998,0.5235987755982988,-0.5235987755982988,0,1.2085783,0.31559032,0.80155194,0.57956785,0.058142196,0.09400161,2.6405041,-0.66524005,-1.6075578,-0.58322865,-0.11992487,0.11111457,1.1779667,-0.14522365
-0.2,0.0,1.4999999999999998,0.5235987755982988,-0.5235987755982988,0,1.2081628,0.31576416,0.7984257,0.57719785,0.053643115,0.10386559,2.6510055,-0.94718176,-1.571412,0.32233432,-0.082913734,-0.0011755195,1.2393944,1.0363169
-0.2,0.0,1.4999999999999998,0.5235987755982988,-0.5235987755982988,0,1.2078696,0.31575167,0.79972804,0.57842976,0.056811742,0.09702116,2.6395435,-1.0730591,-1.5791811,-0.18682025,-0.13063858,-0.15384309,1.1794397,-1.0421561
-0.2,0.0,1.4999999999999998,0.5235987755982988,-0.5235987755982988,0,1.2093643,0.32169634,0.798535,0.57632613,0.05326226,0.097600155,2.6371078,-0.343179,-1.5850652,0.65720373,-0.07633129,0.05329165,1.1098306,0.7854185
-0.2,0.0,1.4999999999999998,0.5235987755982988,-0.5235987755982988,0,1.2079037,0.31865984,0.79838437,0.57771784,0.06333173,0.096877605,2.6367562,-0.7939885,-1.5824157,-0.1993019,-0.0929986,-0.02715375,1.1322523,-0.46512127
-0.2,0.0,1.4999999999999998,0.5235987755982988,-0.5235987755982988,0,1.2077035,0.31749275,0.8009553,0.578004,0.056712877,0.100937665,2.6444595,-1.2490646,-1.539149,0.38833538,-0.097753905,0.107649855,1.2135754,0.36026537
-0.2,0.0,1.4999999999999998,0.5235987755982988,-0.5235987755982988,0,1.2081724,0.31620798,0.80323184,0.57665426,0.05661577,0.095298566,2.644339,-0.66293347,-1.6313263,0.25365263,-0.11091527,-0.21239509,1.2026234,-1.5577147
-0.2,0.0,1.4999999999999998,0.5235987755982988,-0.5235987755982988,0,1.2067133,0.31724405,0.7982169,0.5765076,0.049825106,0.09992336,2.6411555,-1.2317202,-1.5394403,-0.084427185,-0.0943349,-0.3637435,1.2845739,0.37537512
-0.2,0.0,1.4999999999999998,0.5235987755982988,-0.5235987755982988,0,1.2094276,0.31681427,0.7976866,0.57769966,0.060697883,0.097428285,2.6455903,-0.81054664,-1.5757298,0.23153993,-0.060614973,-0.024421452,1.2467332,-0.06687226
-0.2,0.0,1.4999999999999998,0.5235987755982988,-0.5235987755982988,0,1.2073237,0.31701612,0.79968685,0.5764701,0.05025198,0.09716611,2.6441162,-0.5222236,-1.6034874,0.099325664,-0.090603605,0.13526207,1.2238742,1.0181911
-0.2,0.0,1.4999999999999998,0.5235987755982988,-0.5235987755982988,0,1.2086856,0.31771627,0.79823494,0.57614887,0.05126724,0.098719075,2.6437185,-0.345366,-1.5257828,0.10908907,-0.090122856,-0.06004142,1.206939,-0.075745076
-0.2,0.0,1.4999999999999998,0.5235987755982988,-0.5235987755982988,0,1.208137,0.31401235,0.8003113,0.57830745,0.06347049,0.09819875,2.6447449,-0.90917563,-1.6103593,0.15361425,-0.06831156,0.1054689,1.1618952,0.10885288
-0.2,0.0,1.4999999999999998,0.5235987755982988,-0.5235987755982988,0,1.2084961,0.31714398,0.79749286,0.57824993,0.05862492,0.0959365,2.6421285,-0.49780798,-1.5801845,0.29294267,-0.12502563,-0.09019922,1.1284902,0.09531414
-0.2,0.0,1.4999999999999998,0.5235987755982988,-0.5235987755982988,0,1.2089385,0.3171009,0.7976466,0.5770686,0.05601406,0.09858995,2.643145,-0.8777141,-1.4634409,0.0383625,-0.07981816,0.16676469,1.1782885,0.1555095
-0.2,0.0,1.4999999999999998,0.5235987755982988,-0.5235987755982988,0,1.2070568,0.31786656,0.7976383,0.57648474,0.052030563,0.096893586,2.6464126,-1.2130433,-1.5908434,-0.25729075,-0.107002154,-0.07887514,1.1905751,-0.791386
-0.2,0.0,1.4999999999999998,0.5235987755982988,-0.5235987755982988,0,1.2078657,0.3188555,0.7999976,0.5758517,0.060765814,0.09964685,2.6418667,-0.61163646,-1.5814446,0.4633965,-0.08842618,-0.13509132,1.2343012,1.383811
-0.2,0.0,1.4999999999999998,0.5235987755982988,-0.5235987755982988,0,1.2074957,0.31788284,0.79868346,0.5761946,0.05715767,0.10059028,2.6464329,-1.0795703,-1.5380256,0.19073962,-0.0823315,-0.16083205,1.2515647,1.3613636
-0.2,0.0,1.4999999999999998,0.5235987755982988,-0.5235987755982988,0,1.2093604,0.31445348,0.79796714,0.57710075,0.048129983,0.09693746,2.6372313,-0.98697543,-1.5708143,0.09704689,-0.08538157,-0.107805125,1.1528012,1.2945244
-0.2,0.0,1.4999999999999998,0.5235987755982988,-0.5235987755982988,0,1.2071948,0.3171265,0.7991827,0.5770373,0.0553565,0.10067856,2.6429522,-0.44650266,-1.6470808,-0.012242416,-0.07236525,0.095235445,1.2274752,0.13635921
-0.2,0.0,1.4999999999999998,0.5235987755982988,-0.5235987755982988,0,1.206994,0.31699058,0.799333,0.5779628,0.052759618,0.09584052,2.6366534,-0.69372815,-1.5608432,-0.14462426,-0.072790526,-0.04438687,1.261225,0.69224155
-0.2,0.0,1.4999999999999998,0.5235987755982988,-0.5235987755982988,0,1.2097393,0.3176575,0.79868263,0.5770842,0.05326188,0.09754595,2.644746,-0.81165,-1.5774193,0.25176126,-0.0877747,-0.10375937,1.2162614,-0.102948725
-0.2,0.0,1.4999999999999998,0.5235987755982988,-0.5235987755982988,0,1.2084248,0.31545123,0.79872286,0.57792217,0.055220872,0.09754399,2.6459937,-0.91566545,-1.618198,0.042597383,-0.023860166,0.017725836,1.1448504,-0.0718848
-0.2,0.0,1.4999999999999998,0.5235987755982988,-0.5235987755982988,0,1.2091109,0.31772196,0.7989208,0.5764919,0.056517392,0.097152896,2.6381733,-0.83790505,-1.5355225,-0.028849736,-0.07139708,0.025383336,1.1717365,-0.6310433
-0.2,0.0,1.4999999999999998,0.5235987755982988,-0.5235987755982988,0,1.2078221,0.3157453,0.7993859,0.57783765,0.055860057,0.09848193,2.6364815,-0.65900546,-1.5517868,0.1791405,-0.09231424,-0.07859843,1.1892072,0.3074968
-0.2,0.0,1.4999999999999998,0.5235987755982988,-0.5235987755982988,0,1.2065827,0.31790718,0.7982377,0.57713616,0.054356016,0.10010006,2.6401947,-0.8964247,-1.6226987,0.2348703,-0.07911716,-0.114847824,1.1858209,0.09597456
-0.2,0.0,1.4999999999999998,0.5235987755982988,-0.5235987755982988,0,1.2090777,0.3157004,0.7988337,0.5756161,0.0577689,0.096231945,2.6384609,-1.0441965,-1.5464511,-0.19612116,-0.10870338,-0.052981924,1.1775923,0.9792501
-0.2,0.0,1.4999999999999998,0.5235987755982988,-0.5235987755982988,0,1.2093136,0.3156491,0.79860723,0.57625324,0.055978335,0.09556369,2.642167,-1.1841849,-1.5267028,0.019581,-0.08697874,-0.0883393,1.1856328,-1.0451219
-0.2,0.0,1.4999999999999998,0.5235987755982988,-0.5235987755982988,0,1.2087073,0.31616879,0.7986028,0.5777887,0.054839283,0.097561784,2.6414661,-0.8916436,-1.6029838,0.35110798,-0.0882276,0.14551027,1.1827586,-0.93599904
-0.2,0.0,1.4999999999999998,0.5235987755982988,-0.5235987755982988,0,1.208521,0.31492865,0.7966182,0.57849133,0.056009717,0.09803406,2.633789,-0.88768846,-1.5922749,0.39670837,-0.0774518,0.19432166,1.1974165,0.92674094
-0.2,0.0,1.4999999999999998,0.5235987755982988,-0.5235987755982988,0,1.2072828,0.31826872,0.7971484,0.57645094,0.04968579,0.100868374,2.6402912,-1.0470762,-1.6128156,-0.13136335,-0.085621625,-0.14527458,1.2041411,0.6360267
-0.2,0.0,1.4999999999999998,0.5235987755982988,-0.5235987755982988,0,1.209053,0.31759828,0.7974083,0.5758348,0.05324265,0.09840512,2.6379235,-1.0330163,-1.5984005,-0.1347574,-0.07301758,-0.023607071,1.2683364,0.40346345
-0.2,0.0,1.4999999999999998,0.5235987755982988,-0.5235987755982988,0,1.2081456,0.3158021,0.80047464,0.57712436,0.053804044,0.10052276,2.6416075,-0.6775655,-1.5446174,0.04409095,-0.05372164,-0.08884869,1.1253495,0.36740372
-0.2,0.0,1.4999999999999998,0.5235987755982988,-0.5235987755982988,0,1.2084339,0.31948522,0.7997334,0.5779445,0.05538038,0.094827294,2.6414442,-0.870735,-1.6173743,0.10976235,-0.08887928,0.12333388,1.2459724,1.0709403
-0.2,0.0,1.4999999999999998,0.5235987755982988,-0.5235987755982988,0,1.2078544,0.31564736,0.7980472,0.57606876,0.053852823,0.09856156,2.6345234,-0.95267814,-1.5836976,0.0482807,-0.056048594,0.08201036,1.1602675,0.9821803
-0.2,0.0,1.4999999999999998,0.5235987755982988,-0.5235987755982988,0,1.2086169,0.31927466,0.7980904,0.57788455,0.053282443,0.096470475,2.6388783,-0.86390907,-1.5317675,0.025565414,-0.089782156,0.07812957,1.1657988,-0.014860848
-0.2,0.0,1.4999999999999998,0.5235987755982988,-0.5235987755982988,0,1.2087113,0.31719345,0.7981853,0.5766789,0.058584437,0.09729979,2.6469033,-1.2464678,-1.6023623,0.12770724,-0.09300661,-0.10418299,1.2166547,0.29546708
-0.2,0.0,1.4999999999999998,0.5235987755982988,-0.5235987755982988,0,1.2088194,0.31464407,0.79768807,0.5779987,0.058341738,0.099210374,2.638831,-0.735532,-1.6004231,0.26805338,-0.072193876,-0.15874879,1.147711,-0.32494673
-0.2,0.0,1.4999999999999998,0.5235987755982988,-0.5235987755982988,0,1.2080972,0.31572303,0.79861754,0.57760036,0.04921362,0.09948297,2.6428041,-0.8762325,-1.5406643,-0.080134645,-0.13102531,-0.10180911,1.1344539,0.6238027
-0.2,0.0,1.4999999999999998,0.5235987755982988,-0.5235987755982988,0,1.2084321,0.31677783,0.80104405,0.57807064,0.04909518,0.095699176,2.645591,-1.269955,-1.5516521,-0.16068509,-0.05500674,-0.06233402,1.195836,-0.39550167
-0.2,0.0,1.4999999999999998,0.5235987755982988,-0.5235987755982988,0,1.2065101,0.31839785,0.7979852,0.5780282,0.049042396,0.10057005,2.6452806,-0.83116716,-1.5483263,0.1899821,-0.064056195,0.034697853,1.2004724,0.84414315
-0.2,0.0,1.4999999999999998,0.5235987755982988,-0.5235987755982988,0,1.2084513,0.31445837,0.7951389,0.5766099,0.055873163,0.097778894,2.644777,-0.6046649,-1.5865809,0.00839252,-0.07844591,0.09636462,1.160084,0.75953823
-0.2,0.0,1.4999999999999998,0.5235987755982988,-0.5235987755982988,0,1.2086182,0.31544498,0.7988421,0.57674295,0.057343442,0.09780792,2.6369874,-0.8115719,-1.5893438,0.8082216,-0.10797398,0.10662326,1.2024844,-0.05256841
-0.2,0.0,1.4999999999999998,0.5235987755982988,-0.5235987755982988,0,1.2079515,0.3166705,0.7963759,0.5786685,0.055633843,0.09939334,2.6463642,-1.2137847,-1.5430549,0.27071115,-0.10915524,0.080164865,1.0367234,0.248771
-0.2,0.0,1.4999999999999998,0.5235987755982988,-0.5235987755982988,0,1.2086245,0.31973806,0.7966932,0.5771676,0.048123974,0.097447366,2.6426036,-0.7443635,-1.5766404,-0.28499356,-0.066716105,-0.02196063,1.260279,-0.1433142
-0.2,0.0,1.4999999999999998,0.5235987755982988,-0.5235987755982988,0,1.2072175,0.31798828,0.79682463,0.57791394,0.057501044,0.097511634,2.633714,-1.0114733,-1.5961325,-0.26218557,-0.10318091,0.19054024,1.1838852,0.7452159
-0.2,0.0,1.4999999999999998,0.5235987755982988,-0.5235987755982988,0,1.2083101,0.31512108,0.795859,0.5778012,0.054105412,0.099240564,2.6442947,-0.78024405,-1.6415062,0.26954943,-0.09067341,0.060757697,1.1947944,-0.13395195
-0.2,0.0,1.4999999999999998,0.5235987755982988,-0.5235987755982988,0,1.2065799,0.31733072,0.8011313,0.57622826,0.047748167,0.09597661,2.641669,-0.9280723,-1.5563875,0.6707477,-0.06712821,-0.252268,1.2094525,-0.7758971
-0.2,0.0,1.4999999999999998,0.5235987755982988,-0.5235987755982988,0,1.206944,0.3186706,0.7973966,0.5774238,0.051861465,0.09753779,2.6368892,-0.97557604,-1.5809606,0.28830433,-0.08367028,0.18618415,1.2437313,0.27131402
-0.2,0.0,1.4999999999999998,0.5235987755982988,-0.5235987755982988,0,1.2079943,0.31960592,0.7984646,0.57655287,0.055745766,0.099368654,2.6384573,-0.6842168,-1.6568894,0.14834978,-0.06910491,-0.037277497,1.1676235,0.04429142
-0.2,0.0,1.4999999999999998,0.5235987755982988,-0.5235987755982988,0,1.2085328,0.3143544,0.79593766,0.5756546,0.049943708,0.09927019,2.6392562,-1.0585607,-1.5723463,0.2398782,-0.1544155,-0.032726426,1.2197628,-0.7966078
-0.2,0.0,1.4999999999999998,0.5235987755982988,-0.5235987755982988,0,1.2062987,0.3195537,0.7986537,0.576328,0.060981862,0.0967621,2.6421275,-0.931618,-1.5724885,0.15706515,-0.15022796,-0.17736273,1.1115729,0.1502545
-0.2,0.0,1.4999999999999998,0.5235987755982988,-0.5235987755982988,0,1.2076758,0.3159254,0.79857326,0.57677,0.052994642,0.09940917,2.6393995,-0.47671643,-1.6356382,0.7169937,-0.08740624,-0.1588736,1.2461919,1.4243598
-0.2,0.0,1.4999999999999998,0.5235987755982988,-0.5235987755982988,0,1.2073753,0.31638423,0.7963759,0.5774926,0.05161424,0.09626229,2.641351,-1.0094872,-1.5746102,0.014745271,-0.050120875,0.04624917,1.1376759,0.084280886
-0.2,0.0,1.4999999999999998,0.5235987755982988,-0.5235987755982988,0,1.2062873,0.3163521,0.7968208,0.5774306,0.05095042,0.09592164,2.6369467,-0.62386745,-1.632695,0.019246353,-0.040077608,-0.16262524,1.1026295,-0.11019776
-0.2,0.0,1.4999999999999998,0.5235987755982988,-0.5235987755982988,0,1.2078341,0.31626707,0.7958571,0.5772589,0.051730726,0.09675246,2.6390688,-0.86661994,-1.6124195,-0.13625553,-0.11343222,0.24882449,1.1236968,0.3264945
-0.2,0.0,1.4999999999999998,0.5235987755982988,-0.5235987755982988,0,1.2083791,0.3168372,0.79746604,0.5759278,0.056475732,0.09806958,2.6369956,-0.6123632,-1.5834001,-0.1384655,-0.039182287,0.10456076,1.2323056,1.275133
-0.2,0.0,1.4999999999999998,0.5235987755982988,-0.5235987755982988,0,1.2074139,0.31517598,0.7981577,0.5772305,0.05411005,0.09738018,2.6348803,-1.0332367,-1.5606545,-0.13884269,-0.087940246,-0.027325377,1.1367108,1.4465086
-0.2,0.0,1.4999999999999998,0.5235987755982988,-0.5235987755982988,0,1.2082938,0.3167303,0.7982087,0.5774553,0.060630944,0.09663549,2.6445875,-1.5103526,-1.5791782,0.13174596,-0.15887281,0.13763525,1.0900968,0.9359087
-0.2,0.0,1.4999999999999998,0.5235987755982988,-0.5235987755982988,0,1.2083404,0.31893352,0.7964684,0.57815945,0.049824294,0.098608136,2.6417863,-0.9738028,-1.5635772,-0.24209195,-0.032181982,0.0553974,1.1958448,0.36652216
-0.2,0.0,1.4999999999999998,0.5235987755982988,-0.5235987755982988,0,1.2068057,0.31827134,0.7983493,0.5779165,0.06218359,0.09752259,2.642301,-0.91909975,-1.6678232,0.053693056,-0.09243748,-0.03157493,1.1839284,0.27557027
-0.2,0.0,1.4999999999999998,0.5235987755982988,-0.5235987755982988,0,1.2084727,0.31588364,0.8000888,0.57626605,0.047859248,0.098571524,2.6424584,-0.98488116,-1.5903873,0.3035877,-0.111224,0.05180833,1.1905373,0.7129411
-0.2,0.0,1.4999999999999998,0.5235987755982988,-0.5235987755982988,0,1.2092155,0.31444713,0.7983696,0.5774561,0.05347703,0.09691513,2.646477,-0.560753,-1.5401064,0.3766654,-0.04955702,-0.03541496,1.2321123,0.6224609
-0.2,0.0,1.4999999999999998,0.5235987755982988,-0.5235987755982988,0,1.2095448,0.31546056,0.7980839,0.5773496,0.060760472,0.09784106,2.6458046,-0.8483119,-1.561083,-0.36941504,-0.078875,-0.08163098,1.224442,0.28913695
-0.2,0.0,1.4999999999999998,0.5235987755982988,-0.5235987755982988,0,1.2081885,0.31868714,0.79817766,0.57762325,0.04782069,0.09866724,2.6428766,-0.91964555,-1.5721471,-0.27842984,-0.0541557,-0.08602092,1.1446073,0.69013005
-0.2,0.0,1.4999999999999998,0.5235987755982988,-0.5235987755982988,0,1.206329,0.31811547,0.7980529,0.5771428,0.05264607,0.10009376,2.6378887,-1.3806078,-1.5423388,-0.12068372,-0.1369762,0.07781878,1.1204703,-0.39275587
-0.2,0.0,1.4999999999999998,0.5235987755982988,-0.5235987755982988,0,1.2074126,0.31727234,0.79865223,0.5779921,0.050899662,0.09887399,2.6396282,-0.8300902,-1.5825279,0.18761587,-0.034619905,-0.040858325,1.1671406,-0.18688014
-0.2,0.0,1.4999999999999998,0.5235987755982988,-0.5235987755982988,0,1.2074517,0.31811547,0.7983809,0.5761996,0.0622172,0.09691579,2.6403198,-0.6271378,-1.6617866,0.20361297,-0.08649355,-0.099959314,1.208111,0.72054136
-0.2,0.0,1.4999999999999998,0.5235987755982988,-0.5235987755982988,0,1.2085625,0.31858712,0.7978172,0.5770858,0.05160478,0.09791707,2.6415274,-0.8921517,-1.5088968,0.067451596,-0.049365524,-0.19126995,1.0943958,-0.17040549
-0.2,0.0,1.4999999999999998,0.5235987755982988,-0.5235987755982988,0,1.2080153,0.31438315,0.79716724,0.5764556,0.051161923,0.09804071,2.6395447,-0.77234644,-1.532748,0.20421511,-0.063358754,-0.11631113,1.1333082,-0.035661872
-0.2,0.0,1.4999999999999998,0.5235987755982988,-0.5235987755982988,0,1.2079132,0.31518003,0.79734284,0.5771904,0.053989332,0.09903583,2.641308,-0.9239534,-1.5746588,0.03983375,-0.1003362,0.07634283,1.1230655,0.63428503
-0.2,0.0,1.4999999999999998,0.5235987755982988,-0.5235987755982988,0,1.2070972,0.31681925,0.79746705,0.5776825,0.05314443,0.09985871,2.6410086,-1.066289,-1.5575185,0.4839831,-0.17414694,-0.0155547755,1.2017555,0.20425609
-0.2,0.0,1.4999999999999998,0.5235987755982988,-0.5235987755982988,0,1.2085483,0.3151541,0.7967048,0.5766199,0.049293444,0.09729342,2.638254,-1.0379926,-1.5731934,-0.076521344,-0.14345002,-0.021982178,1.2214335,0.41369808
-0.2,0.0,1.4999999999999998,0.5235987755982988,-0.5235987755982988,0,1.207828,0.31770977,0.79664505,0.5786931,0.06302462,0.0993895,2.6508265,-0.951238,-1.5283937,0.030040266,-0.09973003,-0.1926709,1.2103469,-0.29420558
-0.2,0.0,1.4999999999999998,0.5235987755982988,-0.5235987755982988,0,1.20749,0.31711954,0.79645914,0.5773685,0.047371194,0.10095563,2.6410098,-0.7484142,-1.5583321,0.37773806,-0.12994762,0.036377627,1.1833926,0.76422757
-0.2,0.0,1.4999999999999998,0.5235987755982988,-0.5235987755982988,0,1.2085214,0.31499335,0.7973607,0.5781202,0.053630065,0.09781849,2.635661,-0.8636787,-1.571962,0.046529133,-0.11036207,0.074869365,1.0836236,-1.1851221
-0.2,0.0,1.4999999999999998,0.5235987755982988,-0.5235987755982988,0,1.2063895,0.31836542,0.7965373,0.57741076,0.049935356,0.100007825,2.6372423,-0.9292582,-1.5536215,-0.23511083,-0.09689288,0.038176436,1.1493721,0.6932409
-0.2,0.0,1.4999999999999998,0.5235987755982988,-0.5235987755982988,0,1.207374,0.31870008,0.79618514,0.57682,0.047001652,0.09807378,2.6374214,-0.39533296,-1.5690107,0.035376057,-0.05853676,-0.010829517,1.2268021,0.65555495
-0.2,0.0,1.4999999999999998,0.5235987755982988,-0.5235987755982988,0,1.2076039,0.31906402,0.7957266,0.57619876,0.057120033,0.09156925,2.638414,-0.92354983,-1.5858777,-0.0879267,-0.073077284,-0.059585832,1.2009182,0.3732589
-0.2,0.0,1.4999999999999998,0.5235987755982988,-0.5235987755982988,0,1.2074893,0.31500438,0.79938465,0.57573503,0.048519146,0.09842219,2.6394002,-0.83234733,-1.6026542,0.45106268,-0.061643794,-0.13585998,1.1722666,0.10116126
-0.2,0.0,1.4999999999999998,0.5235987755982988,-0.5235987755982988,0,1.2080492,0.31650224,0.7974651,0.577881,0.06156642,0.0957511,2.6366024,-0.77345216,-1.5574555,-0.14993767,-0.058759145,-0.11373305,1.1108599,-0.23232067
-0.2,0.0,1.4999999999999998,0.5235987755982988,-0.5235987755982988,0,1.2072241,0.31690493,0.79772055,0.57777554,0.050891504,0.09641482,2.6377542,-0.9261551,-1.5701119,0.20137759,-0.08529029,-0.070762806,1.2290998,0.5081647
-0.2,0.0,1.4999999999999998,0.5235987755982988,-0.5235987755982988,0,1.2073551,0.31891826,0.7964965,0.5776258,0.049266115,0.09830451,2.6336281,-1.345958,-1.6326722,-0.35537335,-0.03303686,0.051129166,1.2105204,0.03339193
-0.2,0.0,1.4999999999999998,0.5235987755982988,-0.5235987755982988,0,1.206391,0.3178111,0.798388,0.5773085,0.04653615,0.09542689,2.6393795,-0.6911371,-1.5886835,-0.35393414,-0.15082696,-0.018756768,1.1546484,-0.2452636
-0.2,0.0,1.4999999999999998,0.5235987755982988,-0.5235987755982988,0,1.2077695,0.31575665,0.7999766,0.57797307,0.055033587,0.09757044,2.6400325,-0.9006264,-1.5990316,0.216722,-0.09302301,0.09147317,1.1419468,1.0490599
-0.2,0.0,1.4999999999999998,0.5235987755982988,-0.5235987755982988,0,1.2062095,0.3221661,0.7973259,0.5763313,0.052563027,0.0974504,2.644772,-0.87540126,-1.5593951,-0.041357916,-0.099518664,-0.034385476,1.182032,1.3793818
-0.2,0.0,1.4999999999999998,0.5235987755982988,-0.5235987755982988,0,1.2076585,0.31655514,0.7963207,0.57825756,0.058022715,0.09934867,2.640376,-0.7225066,-1.5511243,0.114149205,-0.08129178,-0.2586544,1.1661532,0.2543387
-0.2,0.0,1.4999999999999998,0.5235987755982988,-0.5235987755982988,0,1.2091616,0.31358266,0.7975153,0.5782084,0.053199098,0.09539707,2.6350572,-1.1265626,-1.555273,-0.16780096,-0.040157598,-0.20219526,1.215015,0.18052647
-0.2,0.0,1.4999999999999998,0.5235987755982988,-0.5235987755982988,0,1.2082278,0.31851482,0.79637086,0.57671136,0.049816627,0.099345595,2.641207,-1.0243336,-1.6293176,0.39306533,-0.027637538,0.01445267,1.184033,0.06266553
-0.2,0.0,1.4999999999999998,0.5235987755982988,-0.5235987755982988,0,1.2093977,0.31988278,0.7972893,0.57577467,0.04516966,0.09789404,2.6404343,-1.0801264,-1.5538543,-0.12623638,-0.09525863,-0.012479264,1.1915643,0.008863297
-0.2,0.0,1.4999999999999998,0.5235987755982988,-0.5235987755982988,0,1.206963,0.3161518,0.7958898,0.5776145,0.053132284,0.09907521,2.6405168,-0.7369787,-1.5894102,0.034972556,-0.09486354,-0.12455402,1.2134008,-0.62817794
-0.2,0.0,1.4999999999999998,0.5235987755982988,-0.5235987755982988,0,1.2099338,0.31666288,0.79844856,0.57749295,0.045259424,0.09457905,2.6397126,-0.72176003,-1.6241137,0.16144435,-0.066118136,-0.045771264,1.2122424,0.31733552
-0.2,0.0,1.4999999999999998,0.5235987755982988,-0.5235987755982988,0,1.207705,0.31640655,0.7996064,0.57784635,0.052329246,0.09658164,2.6398385,-0.8419433,-1.5865161,-0.25575396,-0.046271335,0.032658704,1.0649719,-0.59425867
-0.2,0.0,1.4999999999999998,0.5235987755982988,-0.5235987755982988,0,1.2087146,0.3158421,0.7978494,0.57911754,0.05572092,0.10050191,2.6459415,-0.70323956,-1.6129864,0.16531357,-0.059094645,-0.070457175,1.1833656,0.5014587
-0.2,0.0,1.4999999999999998,0.5235987755982988,-0.5235987755982988,0,1.207531,0.3156159,0.7966282,0.5767992,0.05251897,0.09898578,2.6413112,-1.0321866,-1.6543223,0.06594966,-0.07618401,-0.07648323,1.1293974,0.17636567
-0.2,0.0,1.4999999999999998,0.5235987755982988,-0.5235987755982988,0,1.2091508,0.3187815,0.79980755,0.57660496,0.046311893,0.10055396,2.6422293,-0.98482466,-1.5816562,0.122831754,-0.1234255,0.05537552,1.127081,-0.17496526
-0.2,0.0,1.4999999999999998,0.5235987755982988,-0.5235987755982988,0,1.2071532,0.31824675,0.7983603,0.5768982,0.06023293,0.09942767,2.641697,-0.69736433,-1.5479478,0.035966214,-0.08988392,-0.028060976,1.1885952,-0.49396703
-0.2,0.0,1.4999999999999998,0.5235987755982988,-0.5235987755982988,0,1.207949,0.3153751,0.79639417,0.57528013,0.05365957,0.094686314,2.6366065,-0.74783015,-1.5523156,0.2688327,-0.05945146,-0.16827622,1.0106193,0.8409167
-0.2,0.0,1.4999999999999998,0.5235987755982988,-0.5235987755982988,0,1.2070254,0.3179831,0.7990976,0.57672805,0.06102092,0.10068386,2.6412804,-1.163605,-1.5847334,0.44193372,-0.08323682,0.04760164,1.224269,-0.14492601
-0.2,0.0,1.4999999999999998,0.5235987755982988,-0.5235987755982988,0,1.2081951,0.31651697,0.7971844,0.57632023,0.059187915,0.097528115,2.6419556,-1.1378725,-1.5046095,0.5871471,-0.121155545,-0.053973984,1.2110687,0.03458694
-0.2,0.0,1.4999999999999998,0.5235987755982988,-0.5235987755982988,0,1.2078415,0.31903514,0.7967328,0.5774459,0.05015055,0.094880156,2.6454456,-0.79035574,-1.5212831,0.031236747,-0.05911871,-0.09202068,1.1960814,-0.9152692
-0.2,0.0,1.4999999999999998,0.5235987755982988,-0.5235987755982988,0,1.2075576,0.31707487,0.7970145,0.57732636,0.049679264,0.098516114,2.640983,-0.745742,-1.6343677,0.25287735,-0.03311594,-0.18075255,1.1424414,0.10235202
-0.2,0.0,1.4999999999999998,0.5235987755982988,-0.5235987755982988,0,1.2083303,0.31679824,0.79991716,0.5759802,0.05802981,0.097452104,2.6376374,-0.8461026,-1.5247953,-0.10088789,-0.07159627,0.09496582,1.233142,0.6664956
-0.2,0.0,1.4999999999999998,0.5235987755982988,-0.5235987755982988,0,1.2091243,0.31852126,0.796662,0.57665944,0.057302944,0.10006452,2.6372664,-1.0393928,-1.648093,0.45731917,-0.056730956,-0.11752077,1.1468273,0.014767833
-0.2,0.0,1.4999999999999998,0.5235987755982988,-0.5235987755982988,0,1.2076496,0.3163059,0.796653,0.57705194,0.051306516,0.09965246,2.6431913,-0.9769736,-1.5493212,-0.21472378,-0.09395192,-0.039735936,1.186458,1.1144547
-0.2,0.0,1.4999999999999998,0.5235987755982988,-0.5235987755982988,0,1.2067592,0.31430322,0.7990086,0.5773114,0.051747993,0.097629994,2.6403923,-0.73496795,-1.5770307,0.25556433,-0.11184466,-0.19114642,1.1638595,0.41668573
-0.2,0.0,1.4999999999999998,0.5235987755982988,-0.5235987755982988,0,1.2073501,0.31564584,0.7972085,0.5768302,0.049346443,0.10064965,2.6395426,-1.1430856,-1.5816648,-0.18161012,-0.104514726,0.06302454,1.1838975,0.22669056
-0.2,0.0,1.4999999999999998,0.5235987755982988,-0.5235987755982988,0,1.2063584,0.31846952,0.7990411,0.57816696,0.05782299,0.09585108,2.645892,-0.55058265,-1.5317855,-0.18678188,-0.10799845,0.061617747,1.0877908,0.51747006
-0.2,0.0,1.4999999999999998,0.5235987755982988,-0.5235987755982988,0,1.2082169,0.31803805,0.79654586,0.5774657,0.06091106,0.09856143,2.643979,-0.86251736,-1.56064,-0.07496482,-0.11298572,0.01523955,1.159842,0.7278027
-0.2,0.0,1.4999999999999998,0.5235987755982988,-0.5235987755982988,0,1.2075182,0.31507814,0.7955649,0.5783305,0.053176645,0.09606513,2.64147,-0.76138735,-1.6161621,-0.008890937,-0.09928647,-0.047496755,1.1479151,1.4252033
-0.2,0.0,1.4999999999999998,0.5235987755982988,-0.5235987755982988,0,1.2059747,0.31526354,0.80023515,0.5764894,0.05511151,0.09890244,2.6387827,-0.8642066,-1.5407604,0.01504097,-0.05850408,-0.057145227,1.1144938,-0.7519209
-0.2,0.0,1.4999999999999998,0.5235987755982988,-0.5235987755982988,0,1.2067939,0.31641874,0.7977477,0.5754583,0.05943497,0.09817078,2.6384623,-1.0761073,-1.5881454,0.2779351,-0.112365134,-0.16286092,1.1879141,0.29717928
-0.2,0.0,1.4999999999999998,0.5235987755982988,-0.5235987755982988,0,1.2086209,0.3162945,0.80021876,0.5752949,0.05200025,0.100716725,2.6356227,-0.75520605,-1.6522846,0.13477191,-0.09603016,0.16857417,1.1590843,-0.637663
-0.2,0.0,1.4999999999999998,0.5235987755982988,-0.5235987755982988,0,1.2091224,0.31671956,0.7947342,0.5786871,0.05954041,0.09798943,2.6369765,-0.5649601,-1.545069,0.19505642,-0.12156831,-0.09224113,1.1377897,0.3505441
-0.2,0.0,1.4999999999999998,0.5235987755982988,-0.5235987755982988,0,1.2080395,0.3145313,0.7973102,0.57459235,0.053812236,0.0964338,2.6425714,-1.166185,-1.6477139,-0.5019932,-0.059558738,0.04153319,1.1796907,-0.9377328
-0.2,0.0,1.4999999999999998,0.5235987755982988,-0.5235987755982988,0,1.2079493,0.31692213,0.79975444,0.5766915,0.0532244,0.10084088,2.6423213,-1.1167003,-1.5112096,0.06738668,-0.06811199,-0.01601675,1.1522554,0.4802476
-0.2,0.0,1.4999999999999998,0.5235987755982988,-0.5235987755982988,0,1.2073152,0.31516126,0.79795104,0.5780106,0.054388627,0.095481485,2.634607,-0.7254964,-1.5968719,0.054410603,-0.069148816,0.069094956,1.2503746,0.2330787
-0.2,0.0,1.4999999999999998,0.5235987755982988,-0.5235987755982988,0,1.2088518,0.31743807,0.7978367,0.5764452,0.05231235,0.09630511,2.6448042,-0.82330686,-1.5728415,0.3449007,-0.12200399,-0.1810296,1.2269818,-0.27781603
-0.2,0.0,1.4999999999999998,0.5235987755982988,-0.5235987755982988,0,1.2066141,0.32022947,0.79598296,0.576924,0.056515772,0.09478289,2.6416557,-1.0174751,-1.6266993,0.49758998,-0.1853936,-0.095784016,1.1772497,-0.44447464
-0.2,0.0,1.4999999999999998,0.5235987755982988,-0.5235987755982988,0,1.2081163,0.3171165,0.80015486,0.57701296,0.052970868,0.09855365,2.6441042,-0.5317782,-1.5708625,0.10893819,-0.0356591,-0.09755435,1.1989394,-0.6798245
-0.2,0.0,1.4999999999999998,0.5235987755982988,-0.5235987755982988,0,1.2085701,0.31674612,0.79859394,0.57589173,0.05683713,0.095529266,2.637323,-0.7087584,-1.562991,-0.3505355,-0.05191571,0.052376065,1.2218019,-1.7022175
-0.2,0.0,1.4999999999999998,0.5235987755982988,-0.5235987755982988,0,1.2086117,0.31857312,0.7957615,0.5777001,0.048714705,0.098462366,2.6417994,-0.86788595,-1.6083723,0.50218284,-0.051719353,-0.09015684,1.1910067,0.68455195
-0.2,0.0,1.4999999999999998,0.5235987755982988,-0.5235987755982988,0,1.2082387,0.3171382,0.7956698,0.5768602,0.05199573,0.09781879,2.6340482,-1.0203747,-1.6879394,0.22542645,-0.11320097,0.028479828,1.2140789,0.27100438
-0.2,0.0,1.4999999999999998,0.5235987755982988,-0.5235987755982988,0,1.2078216,0.3181312,0.79567635,0.576358,0.04641315,0.097613536,2.635825,-0.882514,-1.6134876,0.43253607,-0.11414661,7.042948e-05,1.2250068,0.26809067
-0.2,0.0,1.4999999999999998,0.5235987755982988,-0.5235987755982988,0,1.2100128,0.3172094,0.7997526,0.577799,0.056986474,0.09885313,2.6415186,-0.54711616,-1.5745517,-0.014562168,-0.04241654,0.037268683,1.1089505,1.0529366
-0.2,0.0,1.4999999999999998,0.5235987755982988,-0.5235987755982988,0,1.2076174,0.31421584,0.7979816,0.57824653,0.053418823,0.0975779,2.6412575,-0.9495178,-1.6081443,-0.053035192,-0.0771289,0.06423058,1.0868658,0.82398
-0.2,0.0,1.4999999999999998,0.5235987755982988,-0.5235987755982988,0,1.2082939,0.31854406,0.79710305,0.57624847,0.057055734,0.098008834,2.6441357,-1.0294814,-1.5735888,0.6357333,-0.042572454,-0.008951922,1.1370221,-0.8750373
-0.2,0.0,1.4999999999999998,0.5235987755982988,-0.5235987755982988,0,1.2093829,0.3162966,0.796117,0.57614774,0.050741002,0.09342139,2.640718,-0.82942307,-1.5903803,0.121807285,-0.06750239,-0.00072245556,1.214848,0.009257139
-0.2,0.0,1.4999999999999998,0.5235987755982988,-0.5235987755982988,0,1.208175,0.31875402,0.79908043,0.5769423,0.059678417,0.099470094,2.639151,-0.7560234,-1.587838,0.3327061,-0.08146561,-0.05052793,1.2229103,0.24011262
-0.2,0.0,1.4999999999999998,0.5235987755982988,-0.5235987755982988,0,1.2087058,0.31332466,0.79824144,0.5770813,0.05060009,0.097556785,2.6323128,-0.97174215,-1.5674793,0.2617443,-0.08513605,-0.03294842,1.2126175,-0.16075738
-0.2,0.0,1.4999999999999998,0.5235987755982988,-0.5235987755982988,0,1.2079446,0.31771922,0.798549,0.57626915,0.062066425,0.097878225,2.6382785,-1.1478025,-1.5708547,-0.2542171,-0.042321205,0.005688221,1.2182564,-0.50640845
-0.2,0.0,1.4999999999999998,0.5235987755982988,-0.5235987755982988,0,1.2083741,0.31848615,0.798281,0.5770735,0.055466417,0.097417004,2.6369164,-1.2262313,-1.5868893,0.065394804,-0.074617274,0.028847083,1.1254029,0.37856275
-0.2,0.0,1.4999999999999998,0.5235987755982988,-0.5235987755982988,0,1.2093215,0.3174557,0.79835445,0.5761215,0.05166029,0.099683814,2.6414812,-0.71936595,-1.6050345,-0.029106278,-0.116666324,0.13591227,1.1336229,0.11828193
-0.2,0.0,1.4999999999999998,0.5235987755982988,-0.5235987755982988,0,1.2092401,0.31594086,0.797248,0.5763837,0.049379896,0.09709018,2.6406868,-1.0232681,-1.6134081,0.49761078,-0.14712043,-0.11992244,1.1490445,0.93919355
-0.2,0.0,1.4999999999999998,0.5235987755982988,-0.5235987755982988,0,1.2084055,0.31503144,0.7970865,0.57614285,0.05454788,0.09620557,2.6402824,-0.7917333,-1.6527911,-0.12943758,-0.09374749,-0.08171725,1.110263,0.41658923
-0.2,0.0,1.4999999999999998,0.5235987755982988,-0.5235987755982988,0,1.2083038,0.31535769,0.7967319,0.57774794,0.05358853,0.095897034,2.6508138,-0.84278023,-1.5729032,-0.1347278,-0.02154199,0.11160563,1.1540756,-0.53402305
-0.2,0.0,1.4999999999999998,0.5235987755982988,-0.5235987755982988,0,1.2078876,0.31849188,0.79695916,0.5767245,0.0511976,0.099931814,2.6470335,-1.2333906,-1.5856947,0.25392428,-0.08149107,0.009763564,1.1248114,-0.20590234
-0.2,0.0,1.4999999999999998,0.5235987755982988,-0.5235987755982988,0,1.2079567,0.31736767,0.7961815,0.5755481,0.05553992,0.09456407,2.6444576,-1.1782006,-1.5673634,0.12813999,-0.13126965,-0.08530829,1.229705,-0.46349153
-0.2,0.0,1.4999999999999998,0.5235987755982988,-0.5235987755982988,0,1.20829,0.31809905,0.7961708,0.5779589,0.053731523,0.095470116,2.64229,-0.37917048,-1.5991721,-0.030922623,-0.082414724,-0.15572873,1.124323,0.49188417
-0.2,0.0,1.4999999999999998,0.5235987755982988,-0.5235987755982988,0,1.2075317,0.31994307,0.7970269,0.5760566,0.05592764,0.09946345,2.6469045,-0.859957,-1.597501,0.11708392,-0.07948921,0.08961869,1.1979891,0.09450769
-0.2,0.0,1.4999999999999998,0.5235987755982988,-0.5235987755982988,0,1.2081707,0.3172243,0.8007896,0.5766223,0.048249092,0.0969975,2.6373203,-0.9631088,-1.652397,0.118122466,-0.071890965,-0.096164495,1.1538438,0.97230285
-0.2,0.0,1.4999999999999998,0.5235987755982988,-0.5235987755982988,0,1.2086294,0.314913,0.80027926,0.57823884,0.054733537,0.10036041,2.6404583,-1.2216624,-1.6066247,0.014473105,-0.078506425,-0.06098873,1.1677803,0.6632706
-0.2,0.0,1.4999999999999998,0.5235987755982988,-0.5235987755982988,0,1.2079625,0.31818107,0.7994094,0.57783365,0.056541726,0.09603341,2.6371267,-0.8258214,-1.6163888,0.41957855,-0.069896325,0.09433266,1.1526428,-0.5085014
-0.2,0.0,1.4999999999999998,0.5235987755982988,-0.5235987755982988,0,1.208278,0.31789693,0.79751873,0.5769665,0.049868196,0.09750296,2.6415837,-1.1620237,-1.6098466,0.007864996,-0.07400541,0.07484278,1.1327513,0.81888044
-0.2,0.0,1.4999999999999998,0.5235987755982988,-0.5235987755982988,0,1.2080193,0.31568745,0.8002239,0.57749695,0.05555243,0.09831709,2.6362662,-0.6714573,-1.5619407,0.4729047,-0.095828906,-0.038084768,1.152204,-0.6093114
-0.2,0.0,1.4999999999999998,0.5235987755982988,-0.5235987755982988,0,1.2085403,0.31543532,0.79884464,0.5784454,0.05669485,0.10005371,2.627732,-0.6244926,-1.5613363,0.075298294,-0.060095355,-0.017131682,1.2347975,1.2643164
-0.2,0.0,1.4999999999999998,0.5235987755982988,-0.5235987755982988,0,1.20661,0.31507516,0.8022693,0.5762713,0.053719085,0.09605117,2.6381629,-1.1121868,-1.6266767,0.6156201,-0.032977775,0.07503803,1.183234,0.20358561
-0.2,0.0,1.4999999999999998,0.5235987755982988,-0.5235987755982988,0,1.2073851,0.3187237,0.7990827,0.57646984,0.047397207,0.09452928,2.6463184,-0.8261447,-1.6473693,-0.06170857,-0.06868288,-0.14131838,1.2137655,-0.41069514
-0.2,0.0,1.4999999999999998,0.5235987755982988,-0.5235987755982988,0,1.2099203,0.31680113,0.79831785,0.57557887,0.06006552,0.09901394,2.6418347,-0.46941045,-1.5614271,0.15045786,-0.078508794,0.066165976,1.1868773,0.7484032
-0.2,0.0,1.4999999999999998,0.5235987755982988,-0.5235987755982988,0,1.2077122,0.31751868,0.79880756,0.5764866,0.04744891,0.093026765,2.6378732,-0.857681,-1.5338607,0.6508956,-0.012938094,-0.042766888,1.1547943,-0.42860577
-0.2,0.0,1.4999999999999998,0.5235987755982988,-0.5235987755982988,0,1.2093204,0.31655964,0.7946415,0.5779746,0.052413512,0.09806528,2.641879,-0.6152002,-1.5024178,0.09971885,-0.118819036,0.019943882,1.1654131,-0.36576137
-0.2,0.0,1.4999999999999998,0.5235987755982988,-0.5235987755982988,0,1.2077526,0.31903532,0.79734904,0.578679,0.05867601,0.10036513,2.6443172,-1.3160502,-1.570026,0.28984943,-0.09823983,-0.10285859,1.1763167,0.48923686
-0.2,0.0,1.4999999999999998,0.5235987755982988,-0.5235987755982988,0,1.2090254,0.31814617,0.7959131,0.5770259,0.05223505,0.09624228,2.6380072,-0.75420344,-1.5102574,0.095808625,-0.030242123,0.15041108,1.1967491,0.6159114
-0.2,0.0,1.4999999999999998,0.5235987755982988,-0.5235987755982988,0,1.2084051,0.31685737,0.79871356,0.5772593,0.05624681,0.09680765,2.6457002,-1.1210582,-1.5580264,-0.02238871,-0.07418889,0.17586541,1.2578495,-0.25783682
-0.2,0.0,1.4999999999999998,0.5235987755982988,-0.5235987755982988,0,1.2073923,0.31707183,0.79908144,0.5785882,0.055919558,0.09689103,2.642528,-0.5776393,-1.5558561,0.20968105,-0.062746935,-0.17542034,1.2523235,-1.1238766
-0.2,0.0,1.4999999999999998,0.5235987755982988,-0.5235987755982988,0,1.2087414,0.31592545,0.80216265,0.57755107,0.050939474,0.09478276,2.6422582,-0.70765644,-1.5786653,0.1867678,-0.113773346,-0.09453986,1.1533933,-0.07259967
-0.2,0.0,1.4999999999999998,0.5235987755982988,-0.5235987755982988,0,1.2062734,0.31673008,0.8012117,0.5783899,0.051897608,0.09646504,2.6426082,-0.76395214,-1.551831,-0.08077009,-0.042766113,-0.14631888,1.1809288,-0.14343458
-0.2,0.0,1.4999999999999998,0.5235987755982988,-0.5235987755982988,0,1.2086537,0.31847218,0.7982473,0.5777935,0.05076838,0.10073102,2.642138,-0.81669766,-1.5985422,0.5697749,-0.055940125,0.07526265,1.1662033,-0.50149614
-0.2,0.0,1.4999999999999998,0.5235987755982988,-0.5235987755982988,0,1.2069137,0.31768572,0.79795593,0.57677543,0.052886166,0.09545221,2.6298723,-0.76171875,-1.5409878,0.1436855,-0.111569464,0.10865071,1.1020844,0.63884395
-0.2,0.0,1.4999999999999998,0.5235987755982988,-0.5235987755982988,0,1.2083057,0.3187547,0.7994191,0.5767613,0.054336738,0.09912185,2.6385477,-0.68331724,-1.6379102,-0.12888496,-0.06849826,0.091380835,1.2150126,-0.31711096
-0.2,0.0,1.4999999999999998,0.5235987755982988,-0.5235987755982988,0,1.2082719,0.31558782,0.79789984,0.57778275,0.052552756,0.097818464,2.6425183,-0.57934433,-1.6452914,0.54907495,-0.10955934,-0.18022954,1.0942534,0.42845842
-0.2,0.0,1.4999999999999998,0.5235987755982988,-0.5235987755982988,0,1.2096723,0.31493783,0.7999389,0.5770387,0.050563622,0.09734805,2.6403112,-0.7470177,-1.5883714,-0.29289567,-0.12303876,-0.00087857223,1.2025048,0.54395396
-0.2,0.0,1.4999999999999998,0.5235987755982988,-0.5235987755982988,0,1.2074099,0.31567505,0.7970228,0.5751918,0.049751602,0.10028937,2.6391237,-1.1540992,-1.659184,-0.1609404,-0.07958614,-0.0066468352,1.1554637,0.03328132
