sanky1234/BimanualDexCatch/isaacgymenvs/cem_results/football_pose_0.1_0.1_0.7999999999999999_-0.5235987755982988_0.0_0_2025-05-27.csv
x,y,z,roll,pitch,yaw,robot1/joint1,robot1/joint2,robot1/joint3,robot1/joint4,robot1/joint5,robot1/joint6,robot1/joint7,robot2/joint1,robot2/joint2,robot2/joint3,robot2/joint4,robot2/joint5,robot2/joint6,robot2/joint7
0.1,0.1,0.7999999999999999,-0.5235987755982988,0.0,0,-1.044256,1.4097477,0.048934847,-0.2565869,-0.06299466,1.489412,1.6072587,-0.34447744,-0.95328826,-0.27948657,0.14527869,-0.10556217,0.48147616,0.82009625
0.1,0.1,0.7999999999999999,-0.5235987755982988,0.0,0,-1.077273,1.4503821,0.022332089,-0.3194944,-0.12504713,1.5017306,1.5301902,-0.43948182,-1.4255022,-0.268049,-0.43399045,-0.32415783,-0.41860116,-0.44554803
0.1,0.1,0.7999999999999999,-0.5235987755982988,0.0,0,-1.0154896,1.4125918,0.0543331,-0.28183874,-0.087804355,1.4735426,1.7745886,0.120333,-1.1854672,1.3459156,0.2026212,0.06807499,0.5769452,-0.7149002
0.1,0.1,0.7999999999999999,-0.5235987755982988,0.0,0,-1.014693,1.5078223,0.070615835,-0.2933307,-0.083189294,1.5200988,1.6782559,0.4977701,-1.0023364,-0.14192228,-0.80936295,-0.4555878,0.6633152,-0.6274717
0.1,0.1,0.7999999999999999,-0.5235987755982988,0.0,0,-0.99506485,1.4932897,0.05433016,-0.32625577,-0.07628217,1.4508264,1.7646718,0.37437898,-1.1772828,-0.55804497,-0.05107185,0.07468576,0.28275913,0.032463353
0.1,0.1,0.7999999999999999,-0.5235987755982988,0.0,0,-1.0688834,1.4783686,0.08009492,-0.3124182,-0.08642021,1.5027587,1.4794106,0.35441577,-0.22292832,-0.25735915,-0.49694106,0.07647808,-0.065576,0.63610137
0.1,0.1,0.7999999999999999,-0.5235987755982988,0.0,0,-0.9795999,1.4965973,0.048925746,-0.30786508,-0.07116938,1.5461112,1.5992146,-0.42714846,-0.8794322,0.87638444,-0.28127623,-0.22576597,-0.46664068,0.24276742
0.1,0.1,0.7999999999999999,-0.5235987755982988,0.0,0,-0.96854013,1.4411175,0.062165234,-0.29587185,-0.08629119,1.5169535,1.7272373,1.3175665,-1.0219789,0.85116214,0.079321556,0.2626893,0.4991543,-0.7038601
0.1,0.1,0.7999999999999999,-0.5235987755982988,0.0,0,-1.0363674,1.418594,0.02108193,-0.33641297,-0.07959948,1.5172958,1.6081634,0.68057436,-0.35441393,0.40400422,-0.697396,0.3017913,0.34216335,-0.3594733
0.1,0.1,0.7999999999999999,-0.5235987755982988,0.0,0,-1.0690928,1.428521,-0.026639905,-0.353098,-0.092859514,1.5017918,1.4516997,-0.043716617,-1.0063866,0.56550395,-0.71603775,0.023427207,0.16066329,0.051799398
0.1,0.1,0.7999999999999999,-0.5235987755982988,0.0,0,-1.038066,1.4440558,0.054830488,-0.34979326,-0.008788964,1.4762303,1.4054078,0.09812677,-0.84182674,-0.09921185,-0.28727245,-0.2837233,0.35122117,0.6625291
0.1,0.1,0.7999999999999999,-0.5235987755982988,0.0,0,-1.0274004,1.4634228,0.040818833,-0.33736667,-0.15602471,1.4988122,1.6074122,-0.7235101,-1.1072612,1.4868355,-0.7911417,-0.038858023,0.60845125,0.87871104
0.1,0.1,0.7999999999999999,-0.5235987755982988,0.0,0,-1.0685672,1.4982167,0.093034424,-0.30707353,-0.14312664,1.4965401,1.660345,0.42618576,-0.029023428,-0.33185905,-0.7577314,0.22731404,0.10153693,-0.87719446
0.1,0.1,0.7999999999999999,-0.5235987755982988,0.0,0,-1.0224187,1.4548943,0.056413203,-0.2948581,-0.04049432,1.5082053,1.5398779,0.40424487,-0.73795074,1.4656152,-0.34878886,0.42541257,0.45310402,-0.072913565
0.1,0.1,0.7999999999999999,-0.5235987755982988,0.0,0,-1.0016961,1.4793775,0.04318478,-0.29880247,-0.07148941,1.5106599,1.5856816,-0.1567871,-0.77624,-0.8576719,-0.10948498,-0.57490766,0.1381951,-0.0101201255
0.1,0.1,0.7999999999999999,-0.5235987755982988,0.0,0,-0.9911163,1.4931537,0.10338777,-0.30175447,-0.07791985,1.5221683,1.3884759,0.03816071,-0.90925705,-0.25375494,-0.052523825,0.25491315,0.28257185,0.24511902
0.1,0.1,0.7999999999999999,-0.5235987755982988,0.0,0,-1.0213617,1.4764764,0.03772625,-0.37043464,-0.09629168,1.5152103,1.4740773,1.1968397,-0.82751817,-0.32017103,-0.8412124,0.5337743,0.72133267,1.3728651
0.1,0.1,0.7999999999999999,-0.5235987755982988,0.0,0,-1.0511239,1.4945947,0.032465357,-0.27699155,-0.14808184,1.4944066,1.629158,0.51489085,-1.2840562,0.09685555,-0.113116674,-0.18277547,0.040616103,-0.45182183
0.1,0.1,0.7999999999999999,-0.5235987755982988,0.0,0,-1.0097572,1.4695158,0.035263315,-0.39794165,-0.06425063,1.4868194,1.5417932,0.88169914,-0.97878647,-0.26921067,-0.22535406,-0.269434,0.19739413,0.20172265
0.1,0.1,0.7999999999999999,-0.5235987755982988,0.0,0,-1.0166584,1.386022,0.0972608,-0.40295014,-0.004654085,1.5545654,1.6611383,-0.50824153,-0.8031773,0.9303568,-0.40005893,-0.08924893,-0.039046675,-0.50053424
0.1,0.1,0.7999999999999999,-0.5235987755982988,0.0,0,-1.0334157,1.4512494,0.06290498,-0.32623276,-0.116040125,1.5064267,1.5718312,0.3949726,-0.7693193,-0.030279856,-0.60725516,0.163288,0.95004064,-2.2299523
0.1,0.1,0.7999999999999999,-0.5235987755982988,0.0,0,-1.0385294,1.4678923,0.048521187,-0.3150053,-0.07202834,1.4906968,1.6431173,0.47502914,-1.1264689,-1.3205473,-0.24241549,-0.47742927,0.19178556,0.20762374
0.1,0.1,0.7999999999999999,-0.5235987755982988,0.0,0,-1.0385207,1.4112624,0.001896819,-0.23533984,-0.12948866,1.4484072,1.6409311,0.018579625,-1.0286674,0.50094736,0.09745299,0.021869622,0.28010124,0.4399738
0.1,0.1,0.7999999999999999,-0.5235987755982988,0.0,0,-1.0200028,1.4468064,0.07478737,-0.30827034,-0.1351738,1.4946266,1.4712075,0.4469354,-0.45258406,0.7338766,0.0047584386,0.47116625,-0.38800663,-1.4673789
0.1,0.1,0.7999999999999999,-0.5235987755982988,0.0,0,-1.0166702,1.4814869,0.07336668,-0.2925018,-0.12684117,1.5385436,1.7569817,0.5984382,-1.0449257,0.10991621,-0.077369586,0.34242302,0.60414237,-0.51874024
0.1,0.1,0.7999999999999999,-0.5235987755982988,0.0,0,-1.0599833,1.4358066,0.024105463,-0.30657446,-0.10140618,1.475733,1.751023,-0.20410922,-0.52364796,1.4851704,-0.24514723,0.29055282,-0.16356,-0.85307944
0.1,0.1,0.7999999999999999,-0.5235987755982988,0.0,0,-1.0377132,1.4511782,0.09334881,-0.31638992,-0.09576431,1.4952166,1.6709496,-0.20833364,-0.9963528,0.32272035,-0.72004324,-0.18067732,1.1915944,-0.18356517
0.1,0.1,0.7999999999999999,-0.5235987755982988,0.0,0,-1.0070293,1.4614462,0.05342641,-0.3386787,-0.027912255,1.4773593,1.8947283,0.21556717,-0.5729263,0.54113555,-0.5310891,0.9417425,0.47481704,-0.8999884
0.1,0.1,0.7999999999999999,-0.5235987755982988,0.0,0,-1.0269965,1.4455162,-0.014967426,-0.32999045,-0.10902472,1.4966313,1.6785434,0.69564176,-1.160608,0.60193235,-0.3394937,0.18154813,0.90784574,-0.74549407
0.1,0.1,0.7999999999999999,-0.5235987755982988,0.0,0,-1.0631477,1.4993621,0.060494654,-0.28404552,-0.05968734,1.4648393,1.564328,1.1277696,-0.84060425,-0.5535104,-0.5913114,-0.07126076,0.119760595,-0.105560236
0.1,0.1,0.7999999999999999,-0.5235987755982988,0.0,0,-1.0576782,1.4198172,0.052554335,-0.41194,-0.07313824,1.4566787,1.608923,-0.52669084,-0.88344455,-0.7966662,-0.15030685,-0.13612626,0.60030437,0.47994947
0.1,0.1,0.7999999999999999,-0.5235987755982988,0.0,0,-1.0310041,1.4714872,0.059779122,-0.3392518,-0.10079384,1.4721342,1.7904714,0.49107262,-0.4348024,-0.5016399,-0.4222316,0.09152194,-0.19987133,1.0091748
0.1,0.1,0.7999999999999999,-0.5235987755982988,0.0,0,-0.9807367,1.4258661,0.019276682,-0.33343434,-0.0330557,1.4924583,1.5854715,0.88355786,-0.7578752,-0.19047561,-0.10989375,-0.110192515,0.8183996,-0.8251047
0.1,0.1,0.7999999999999999,-0.5235987755982988,0.0,0,-1.0110348,1.4827598,0.024833465,-0.31511167,-0.038082317,1.5017842,1.563837,-0.5136657,-0.5104588,0.88856506,-0.6648972,0.17448108,0.56667084,0.6081077
0.1,0.1,0.7999999999999999,-0.5235987755982988,0.0,0,-1.0943688,1.4326508,0.005842054,-0.33781102,-0.093815416,1.5408977,1.5121447,0.34617335,-0.7427942,1.6609946,-0.16391908,-0.021914328,0.041825388,-0.17856482
0.1,0.1,0.7999999999999999,-0.5235987755982988,0.0,0,-0.99176586,1.4284184,0.0375932,-0.3478732,-0.10009755,1.5233661,1.519112,-0.06755047,0.09511691,0.17531736,-0.42315418,0.7988081,0.26430544,-0.044898342
0.1,0.1,0.7999999999999999,-0.5235987755982988,0.0,0,-1.0586714,1.4809414,0.014074483,-0.27089882,-0.09167373,1.5049663,1.7620165,-0.19268806,-1.1395637,-0.14401795,-0.07403562,-0.35645136,-0.22689825,-0.16897137
0.1,0.1,0.7999999999999999,-0.5235987755982988,0.0,0,-1.0546544,1.4801893,0.060746595,-0.32136512,-0.17711332,1.4867734,1.7062193,0.01931332,-0.6701371,1.0691751,-0.21414024,0.49180886,0.23035882,0.45198104
0.1,0.1,0.7999999999999999,-0.5235987755982988,0.0,0,-0.9951305,1.4736891,0.060017243,-0.32128754,-0.08782429,1.4917631,1.6387962,0.40328628,-0.45251015,0.74529445,-0.5501819,0.047282003,0.026896125,-1.3677207
0.1,0.1,0.7999999999999999,-0.5235987755982988,0.0,0,-1.021263,1.4480115,0.04459303,-0.31095952,-0.05348507,1.5451177,1.4748819,-1.0489695,-0.59299976,0.9470032,-0.08136721,-0.07627708,-0.24104795,0.30799702
0.1,0.1,0.7999999999999999,-0.5235987755982988,0.0,0,-1.0056226,1.4826558,0.047207348,-0.30432454,-0.089047626,1.4666573,1.5674677,0.48951596,-0.9065821,-0.83360696,0.016678229,-0.46162763,0.701579,0.48209968
0.1,0.1,0.7999999999999999,-0.5235987755982988,0.0,0,-1.0044004,1.4298346,0.05720326,-0.28373137,-0.0831885,1.480972,1.4602926,0.20529418,-0.8999768,0.63342327,0.41946417,0.60624117,0.45645723,0.36858514
0.1,0.1,0.7999999999999999,-0.5235987755982988,0.0,0,-1.0096521,1.4286811,0.01365636,-0.32098854,-0.08124945,1.5339794,1.6255325,0.67929363,-0.53717,-1.0255052,-0.20514886,0.06833456,0.76895046,-0.91398853
0.1,0.1,0.7999999999999999,-0.5235987755982988,0.0,0,-1.021126,1.4985925,0.01510606,-0.29702878,-0.029980183,1.4635993,1.4064581,-0.17604357,-0.7545033,-0.052511137,-0.63981944,0.10282923,-0.21217392,1.2952285
0.1,0.1,0.7999999999999999,-0.5235987755982988,0.0,0,-1.0248064,1.4377756,0.08257848,-0.3059394,-0.068260424,1.5361718,1.4567429,-0.4514495,-0.8301615,1.0242313,-0.6353648,0.65852374,0.855729,-1.47788
0.1,0.1,0.7999999999999999,-0.5235987755982988,0.0,0,-1.0354167,1.4662837,0.08846574,-0.34223354,-0.13006397,1.5076094,1.506446,0.3298862,-0.91233057,0.7500571,-0.00087369763,0.32075554,-0.12142022,-0.35861054
0.1,0.1,0.7999999999999999,-0.5235987755982988,0.0,0,-1.0452074,1.4709955,0.08717715,-0.27343047,-0.12033627,1.5059286,1.6945785,-0.7278831,-0.650163,-0.82372665,-0.44616446,-0.009823664,-0.27566764,0.40848505
0.1,0.1,0.7999999999999999,-0.5235987755982988,0.0,0,-1.0435659,1.4406275,0.041489515,-0.2643059,0.0019807767,1.5050118,1.518286,-0.5234788,-1.1169863,-1.1872274,-0.40605983,0.60209876,0.4180347,1.3300436
0.1,0.1,0.7999999999999999,-0.5235987755982988,0.0,0,-1.0361995,1.4136721,0.057808917,-0.3414172,-0.11668729,1.5383487,1.2677293,-0.07379028,-0.7348648,-0.23503962,-0.57964635,-0.11137816,0.16452122,0.33708242
0.1,0.1,0.7999999999999999,-0.5235987755982988,0.0,0,-1.088737,1.49909,0.018420199,-0.31955352,-0.12407388,1.4924428,1.7801989,0.66707695,-0.5535564,-0.84307224,-1.09135,1.06239,0.470287,0.6842409
0.1,0.1,0.7999999999999999,-0.5235987755982988,0.0,0,-1.0129173,1.4755771,0.036851205,-0.23622783,-0.06793295,1.4345177,1.5529283,-0.42078376,-0.69268537,1.4639416,-0.5607051,-0.009706423,0.42398927,-0.5954242
0.1,0.1,0.7999999999999999,-0.5235987755982988,0.0,0,-1.0340662,1.4702985,0.035561252,-0.30990514,-0.087572396,1.481681,1.5293964,0.1556627,-1.225461,-1.1629899,-0.41062996,-0.7367634,0.20840023,0.66931665
0.1,0.1,0.7999999999999999,-0.5235987755982988,0.0,0,-1.0262514,1.4364735,0.031599503,-0.28584868,-0.11599612,1.4681072,1.4201467,-0.9140111,-0.34747878,0.25822154,-0.49160942,0.08387453,0.20772001,0.011172661
0.1,0.1,0.7999999999999999,-0.5235987755982988,0.0,0,-1.0333611,1.4349978,0.028003868,-0.3282212,-0.12862365,1.4959639,1.5815532,-0.14609146,-1.0849438,-0.21695796,0.28411004,-0.41543928,0.10750012,1.0171382
0.1,0.1,0.7999999999999999,-0.5235987755982988,0.0,0,-1.0435195,1.4879342,0.01129605,-0.3134568,-0.09880574,1.4808921,1.5621685,-0.012402913,-0.75378925,-0.21828315,-0.08009893,0.04371837,0.5181256,0.47500286
0.1,0.1,0.7999999999999999,-0.5235987755982988,0.0,0,-1.0208477,1.4646369,0.110448584,-0.31505737,-0.1363624,1.5447298,1.6013314,0.820385,-1.089693,-0.8835836,-0.44774407,0.08400007,0.45761466,0.5927953
0.1,0.1,0.7999999999999999,-0.5235987755982988,0.0,0,-1.0302944,1.4872167,0.05189056,-0.28353128,-0.13844696,1.4674911,1.4548204,-0.38852105,-0.8171371,0.01169048,-0.4802519,0.30197093,0.0086196065,-0.06244777
0.1,0.1,0.7999999999999999,-0.5235987755982988,0.0,0,-1.0306321,1.5012742,0.04219556,-0.27579856,-0.048714913,1.4956303,1.5475382,0.5987648,-1.0489712,0.3758788,-1.3326297,0.66969985,0.33745623,-0.2741642
0.1,0.1,0.7999999999999999,-0.5235987755982988,0.0,0,-1.038157,1.4705601,0.06827715,-0.33428523,-0.09314819,1.5131251,1.538232,-0.7374824,-1.4782553,0.12991814,-0.26786548,1.0685796,0.5354694,-0.29235208
0.1,0.1,0.7999999999999999,-0.5235987755982988,0.0,0,-1.0165619,1.4673125,0.040578328,-0.25166824,-0.049491357,1.4579813,1.4413449,-0.4401356,-1.2530563,0.057611812,-0.76537704,0.8994054,0.47247863,0.15740377
0.1,0.1,0.7999999999999999,-0.5235987755982988,0.0,0,-1.0282481,1.4750189,0.045442373,-0.2798303,-0.02271825,1.4982028,1.4468253,-0.73660797,-0.64503753,0.8285626,-0.3701234,0.3230998,0.5353356,1.3608501
0.1,0.1,0.7999999999999999,-0.5235987755982988,0.0,0,-1.028849,1.4567647,0.029523024,-0.3083112,-0.077791624,1.5156434,1.5098423,0.23938878,-0.899114,0.3215899,0.40953627,0.31539953,0.57276815,-1.3918463
0.1,0.1,0.7999999999999999,-0.5235987755982988,0.0,0,-1.0499198,1.5000476,0.039150536,-0.31172127,-0.1091958,1.5312616,1.7198298,0.0477412,-0.63209057,-0.3439438,-0.12013722,-0.0136838965,0.13616468,-0.12525362
0.1,0.1,0.7999999999999999,-0.5235987755982988,0.0,0,-1.0606661,1.4603385,0.04441043,-0.26285154,-0.04269823,1.4900966,1.6218044,0.9061867,-0.81712383,0.8182315,-0.2469727,0.655749,0.64914525,-0.58622104
0.1,0.1,0.7999999999999999,-0.5235987755982988,0.0,0,-1.0702302,1.4994549,0.059618413,-0.3145309,-0.080381766,1.5275165,1.6147317,0.6860809,-1.2407334,1.1823891,-0.2932107,0.3069146,0.17469381,-0.9833306
0.1,0.1,0.7999999999999999,-0.5235987755982988,0.0,0,-1.060366,1.4196023,0.06513171,-0.2840212,-0.1647886,1.5238804,1.5719439,-0.5346486,-0.5637183,0.040885225,-0.5581102,0.30791155,0.045058418,1.3378878
0.1,0.1,0.7999999999999999,-0.5235987755982988,0.0,0,-1.0613613,1.4375349,0.060152486,-0.2721958,-0.11788288,1.5324606,1.6781672,0.18332121,-0.816919,-1.1103369,-0.30523404,-0.08089709,0.20411912,-1.6506083
0.1,0.1,0.7999999999999999,-0.5235987755982988,0.0,0,-1.0294613,1.433914,0.031156437,-0.32265958,-0.086701475,1.4913605,1.321608,0.19946326,-0.61593485,-0.113330394,-0.6336613,0.31571567,0.076089956,1.0554051
0.1,0.1,0.7999999999999999,-0.5235987755982988,0.0,0,-1.0173565,1.4625479,-0.009017827,-0.26774824,-0.094765134,1.5049994,1.6489484,0.68400764,-0.9269837,1.3193878,0.027033059,-0.05689394,0.24672568,0.6518538
0.1,0.1,0.7999999999999999,-0.5235987755982988,0.0,0,-1.0221534,1.4297196,0.05195108,-0.3155027,-0.11138928,1.4875703,1.5155473,-0.19732137,-0.58281106,-1.3127737,-0.30600291,1.0336528,-0.008718245,0.042257775
0.1,0.1,0.7999999999999999,-0.5235987755982988,0.0,0,-1.0239359,1.4884689,0.024187246,-0.32863665,-0.072547175,1.5220733,1.6524755,0.22237849,-0.5999273,-0.009519027,-0.080370404,-0.3292607,-0.22220379,-0.18284646
0.1,0.1,0.7999999999999999,-0.5235987755982988,0.0,0,-1.0315071,1.4108814,0.054733038,-0.29836106,-0.04818484,1.4782567,1.4930989,-0.4020117,-0.9775891,-0.48420006,-0.56547487,0.4883995,0.26379383,1.52272
0.1,0.1,0.7999999999999999,-0.5235987755982988,0.0,0,-0.98885936,1.4578209,0.040674105,-0.2833864,-0.11403656,1.4996591,1.7530224,0.034624513,-0.98091924,0.43657663,-0.5020703,0.044616047,-0.34944475,0.33043623
0.1,0.1,0.7999999999999999,-0.5235987755982988,0.0,0,-1.0646079,1.4533408,0.035854243,-0.2968058,-0.10096267,1.4680659,1.6021621,0.9466351,-0.8805344,-0.17458725,-0.51023847,-0.52702457,0.073797576,0.039999418
0.1,0.1,0.7999999999999999,-0.5235987755982988,0.0,0,-1.063207,1.383167,0.060951523,-0.29236242,-0.014985208,1.4980316,1.6110308,0.3945627,-0.34539565,0.3986504,-0.11611123,-0.22696838,0.027002899,-0.5691772
0.1,0.1,0.7999999999999999,-0.5235987755982988,0.0,0,-1.0222497,1.5333568,0.05620386,-0.32227725,-0.13875201,1.4831228,1.4324777,-0.25477365,-0.3755847,-0.34286952,-0.7655032,0.21940051,0.30950847,-0.3574323
0.1,0.1,0.7999999999999999,-0.5235987755982988,0.0,0,-1.0553405,1.4471649,0.026455527,-0.3045761,-0.051622674,1.4917746,1.7743549,0.32693508,-0.98529345,-0.5483875,-0.14296956,0.23899369,-0.27534702,0.5781725
0.1,0.1,0.7999999999999999,-0.5235987755982988,0.0,0,-1.0033406,1.4699951,0.05644704,-0.33882675,-0.056123365,1.4715209,1.654011,0.22010525,-0.50216544,-0.5747408,-0.6155459,-0.09364143,0.12214168,0.45455843
0.1,0.1,0.7999999999999999,-0.5235987755982988,0.0,0,-1.0736023,1.4122959,0.028284498,-0.31469476,-0.08458551,1.508581,1.4769526,-0.49096307,-1.3542966,1.5363374,-0.19899362,0.23530893,0.7992285,0.6255837
0.1,0.1,0.7999999999999999,-0.5235987755982988,0.0,0,-1.0103812,1.4571891,0.061416768,-0.30062097,-0.09831457,1.5162184,1.5700332,0.4028645,-0.48955798,0.7596141,-0.69469047,0.09712593,0.47314844,0.3886405
0.1,0.1,0.7999999999999999,-0.5235987755982988,0.0,0,-1.0852723,1.4568485,0.039109845,-0.27085507,-0.08981398,1.5133935,1.792034,0.6644463,-0.8767188,-1.5764613,-0.033963196,-0.46390465,0.27336213,-0.16505632
0.1,0.1,0.7999999999999999,-0.5235987755982988,0.0,0,-1.0322524,1.4877678,0.06733699,-0.31407008,-0.13890268,1.5309997,1.4869169,0.7425174,-0.6724126,-1.039285,-0.0005887858,0.034060545,-0.13308981,0.87597287
0.1,0.1,0.7999999999999999,-0.5235987755982988,0.0,0,-1.006733,1.451502,0.060458254,-0.3213156,-0.1774581,1.4754039,1.6024072,-0.8413477,-0.30499387,0.04603801,-0.09046602,0.9038492,0.031700805,-0.5728689
0.1,0.1,0.7999999999999999,-0.5235987755982988,0.0,0,-1.0374104,1.4453135,0.033969533,-0.30549407,-0.12968956,1.4873232,1.4303763,1.0542586,-0.65441227,0.94357187,-0.31535777,0.36963814,0.02598565,-2.631705
0.1,0.1,0.7999999999999999,-0.5235987755982988,0.0,0,-1.004616,1.4539045,0.057988398,-0.27078497,-0.09738121,1.4362378,1.4365078,1.2600356,-0.989283,-0.7437313,-0.30362388,-0.15263599,0.29360482,1.039506
0.1,0.1,0.7999999999999999,-0.5235987755982988,0.0,0,-1.0325325,1.471098,0.05978924,-0.30293933,-0.11663565,1.4819866,1.7108163,0.30798423,-1.0059767,0.9177755,-0.2944574,0.6067171,0.03790266,0.10549391
0.1,0.1,0.7999999999999999,-0.5235987755982988,0.0,0,-1.0530807,1.525025,0.019355986,-0.29071984,-0.13761482,1.4869437,1.6732405,0.19562887,-0.13378294,0.87727505,-0.6494832,0.7928006,0.42560342,-0.5825979
0.1,0.1,0.7999999999999999,-0.5235987755982988,0.0,0,-1.0103091,1.4594613,0.053651955,-0.25069135,-0.109375566,1.4338378,1.4087692,-0.1202678,-1.0750593,0.0905703,-0.18521236,0.26346847,0.06887096,0.1076438
0.1,0.1,0.7999999999999999,-0.5235987755982988,0.0,0,-1.0027006,1.465337,0.057773672,-0.3022478,-0.10450905,1.4697479,1.6363444,0.3415854,-0.85040176,0.73394966,-0.12675227,-0.410317,0.15663694,-0.27340826
0.1,0.1,0.7999999999999999,-0.5235987755982988,0.0,0,-1.0365456,1.4559393,0.08850129,-0.31325608,-0.03487229,1.4755315,1.5845485,0.92847705,-0.355387,0.390313,-0.73952526,-0.4930126,0.34589615,-0.035618346
0.1,0.1,0.7999999999999999,-0.5235987755982988,0.0,0,-1.0524936,1.4270568,0.05688887,-0.29658094,-0.088667415,1.5027565,1.4695504,0.9443556,-0.7988898,0.030265048,-0.43461406,-0.1287517,-0.115580216,0.9300623
0.1,0.1,0.7999999999999999,-0.5235987755982988,0.0,0,-1.0184397,1.4819673,0.034027502,-0.27771512,-0.11966554,1.4526896,1.6004566,0.6895808,-0.64389133,-0.763923,-0.2955208,0.21187684,0.7021496,0.2988366
0.1,0.1,0.7999999999999999,-0.5235987755982988,0.0,0,-1.0276967,1.4596788,0.088322334,-0.28188205,-0.05646786,1.4853606,1.5387359,-0.40060568,-0.80670047,-0.65784574,-0.33612812,-0.044781107,0.19434358,0.14995305
0.1,0.1,0.7999999999999999,-0.5235987755982988,0.0,0,-1.0182894,1.4804271,0.016526507,-0.3016056,-0.1474788,1.4615343,1.6088367,-0.5715165,-0.81606025,-0.6941222,-0.19672589,0.12274134,-0.045885827,-0.9238136
0.1,0.1,0.7999999999999999,-0.5235987755982988,0.0,0,-1.0363806,1.4568822,0.07421843,-0.29103884,-0.09091971,1.4679633,1.615316,-0.65477675,-0.7511356,-0.6756757,-0.6615865,0.19127584,-0.083661824,0.9216777
0.1,0.1,0.7999999999999999,-0.5235987755982988,0.0,0,-1.0408671,1.4442176,0.06395939,-0.30269316,-0.055390533,1.4903139,1.6402664,-0.5172063,-0.64997584,-0.006923973,-0.36327356,0.114788406,0.5369292,0.22712342
0.1,0.1,0.7999999999999999,-0.5235987755982988,0.0,0,-1.0457879,1.4480445,0.034797885,-0.29554343,-0.10542362,1.4772786,1.6888552,-0.028652478,-0.8084999,1.09771,-0.19129398,0.26465294,0.6103317,1.056902
0.1,0.1,0.7999999999999999,-0.5235987755982988,0.0,0,-1.0424038,1.4433062,0.056612782,-0.35956603,-0.08607181,1.5065968,1.534962,0.71496284,-0.8773364,-0.1688327,-1.0230094,0.4661726,0.4869078,1.1145929
0.1,0.1,0.7999999999999999,-0.5235987755982988,0.0,0,-1.0085368,1.5103846,0.045495506,-0.24787046,-0.028644886,1.5100355,1.6677668,0.8720552,-0.71591216,1.0513647,-0.17564946,0.28908047,-0.67200214,-0.68687475
0.1,0.1,0.7999999999999999,-0.5235987755982988,0.0,0,-1.0001575,1.4709927,0.0050205234,-0.30033323,-0.14718506,1.4921663,1.4957784,0.9493851,-0.70770454,0.350971,-0.46308243,-0.6730493,-0.26741585,1.0416682
0.1,0.1,0.7999999999999999,-0.5235987755982988,0.0,0,-1.0140082,1.4619011,0.032164298,-0.29803726,-0.08129565,1.4626629,1.5670668,-0.37770155,-0.40009934,1.0616814,-0.42958853,-0.06703919,0.31165716,-0.81034374
0.1,0.1,0.7999999999999999,-0.5235987755982988,0.0,0,-1.0248708,1.4530455,0.029342253,-0.29607326,-0.04367047,1.468055,1.5136676,0.9994601,-0.856605,1.1458279,-0.24040383,0.83075875,0.08661853,0.10922597
0.1,0.1,0.7999999999999999,-0.5235987755982988,0.0,0,-1.006751,1.4866832,0.036152914,-0.3199518,-0.08388865,1.4874924,1.5142211,0.56749576,-0.9132497,-1.0914693,-0.42380902,0.27262214,0.39862168,-0.55000675
0.1,0.1,0.7999999999999999,-0.5235987755982988,0.0,0,-1.0221952,1.4716204,0.0142032085,-0.3031083,-0.073121734,1.5164859,1.6201271,-0.30016112,-0.3681656,-0.9425224,-0.7634456,0.03140712,-0.00220816,1.0962864
0.1,0.1,0.7999999999999999,-0.5235987755982988,0.0,0,-1.0026274,1.4508946,0.05242174,-0.28273273,-0.11506942,1.4870831,1.567589,0.05962502,-0.50927055,-0.05275507,0.079104014,0.1440054,0.22776788,0.8903499
0.1,0.1,0.7999999999999999,-0.5235987755982988,0.0,0,-1.0481749,1.4595361,0.038596276,-0.29765874,-0.04410956,1.469231,1.6963543,-0.16214336,-1.2045397,-0.5451995,-0.36088908,-0.49864075,-0.20021462,-1.8828743
0.1,0.1,0.7999999999999999,-0.5235987755982988,0.0,0,-1.0357697,1.4754783,0.054222573,-0.3460974,-0.04983889,1.492325,1.4058013,-1.0313852,-0.09677425,-0.26385695,-0.6436594,0.2393834,0.88324124,0.6981013
0.1,0.1,0.7999999999999999,-0.5235987755982988,0.0,0,-1.0021504,1.4568853,0.03540405,-0.2659115,-0.13857621,1.5246387,1.8324147,-0.30716586,-0.20796965,0.08399848,0.23977406,0.7677448,0.13130149,-1.1141366
0.1,0.1,0.7999999999999999,-0.5235987755982988,0.0,0,-1.0185162,1.4678559,0.05259383,-0.33966258,-0.09377807,1.517728,1.5379032,-0.7382642,-0.7724371,0.15650673,-0.42954618,0.48882762,0.17540494,-0.54400635
0.1,0.1,0.7999999999999999,-0.5235987755982988,0.0,0,-1.0012574,1.5037124,0.061708797,-0.31398028,-0.07244159,1.5213137,1.594304,-0.23706338,-1.0757704,-0.63263154,-0.38529503,0.734483,0.24963266,-0.06477896
0.1,0.1,0.7999999999999999,-0.5235987755982988,0.0,0,-1.031309,1.4905676,0.025985293,-0.2942205,-0.055207208,1.5200527,1.5635233,0.870832,-0.1756083,0.5078552,-0.24831538,0.38755107,0.76152563,-1.5162565
0.1,0.1,0.7999999999999999,-0.5235987755982988,0.0,0,-1.0184672,1.4701256,0.024312802,-0.33282283,-0.1580938,1.4988384,1.5536809,-0.3815785,-0.7433713,-0.85282236,-0.6682848,0.2613147,0.107196674,1.3537897
0.1,0.1,0.7999999999999999,-0.5235987755982988,0.0,0,-1.0461679,1.4264387,0.01948044,-0.27959862,-0.06599814,1.4629412,1.608958,-0.27448627,-0.6466244,-1.488636,-0.1483697,0.25130928,-0.23185433,1.8813607
0.1,0.1,0.7999999999999999,-0.5235987755982988,0.0,0,-1.0545582,1.4844896,0.066718586,-0.3474926,-0.119745046,1.5201656,1.5041604,0.8812154,-0.34099868,0.25977236,-0.81322575,-0.48227793,-0.010298894,0.31498775
0.1,0.1,0.7999999999999999,-0.5235987755982988,0.0,0,-1.0048863,1.4852818,0.028218696,-0.30206308,-0.053115364,1.4721256,1.4192891,0.58573306,-0.702895,1.2363104,-0.21719086,0.4661065,0.24095625,0.4070355
0.1,0.1,0.7999999999999999,-0.5235987755982988,0.0,0,-1.0562348,1.4714069,0.06759698,-0.319989,-0.0885918,1.5093845,1.5810937,-0.3335327,-1.0173365,0.3373602,-0.19327508,-0.24670058,-0.09666291,0.4288259
0.1,0.1,0.7999999999999999,-0.5235987755982988,0.0,0,-1.0050439,1.4387949,0.024623591,-0.28019804,-0.0021497484,1.501749,1.6297292,0.3755796,-1.2339543,-0.15406239,-0.5574409,0.4580915,0.24475232,-0.50150466
0.1,0.1,0.7999999999999999,-0.5235987755982988,0.0,0,-1.0425471,1.434535,0.064485,-0.31446308,-0.08303744,1.4822079,1.4967355,0.055413954,-1.005479,-0.87264377,-0.71782535,0.43964136,-0.5292587,1.6358547
0.1,0.1,0.7999999999999999,-0.5235987755982988,0.0,0,-1.035144,1.4467114,0.051637035,-0.30350265,-0.117401496,1.4607978,1.6739112,0.298625,-0.5897386,-0.19755526,-0.1374372,0.67877895,0.44204277,0.51064444
0.1,0.1,0.7999999999999999,-0.5235987755982988,0.0,0,-1.0416684,1.4642621,0.049518917,-0.34450796,-0.15419051,1.503453,1.5502344,0.072892435,-0.4042104,-0.32396504,-0.33561182,0.6121055,0.087149404,-0.17979579
0.1,0.1,0.7999999999999999,-0.5235987755982988,0.0,0,-1.0156647,1.4804652,-0.009421738,-0.3079516,-0.117369644,1.4723698,1.5692345,0.7498038,-0.69287854,0.64714885,-0.09786852,-0.17444131,0.61258626,0.29227418
0.1,0.1,0.7999999999999999,-0.5235987755982988,0.0,0,-1.0416154,1.4471692,0.012593367,-0.2965628,-0.13369004,1.480925,1.4994731,0.25490227,-0.4210693,-0.97362167,-0.4190802,0.4602568,0.47928283,0.8611106
0.1,0.1,0.7999999999999999,-0.5235987755982988,0.0,0,-1.0431657,1.4564064,0.065173514,-0.2674083,-0.088737,1.4986427,1.6485225,-0.02590907,-0.7082597,-0.060625296,-0.5619472,0.03723027,0.7686996,-1.3344736
0.1,0.1,0.7999999999999999,-0.5235987755982988,0.0,0,-1.0540866,1.4277443,0.059960295,-0.30891508,-0.06939999,1.4894189,1.5112777,1.1031779,-1.0311584,-0.4022044,-0.7505983,0.25299335,0.26678097,0.072486825
0.1,0.1,0.7999999999999999,-0.5235987755982988,0.0,0,-1.0220155,1.4750266,0.048997786,-0.30949718,-0.109561875,1.4733716,1.4704562,0.6527797,-0.7985423,1.1612684,0.07509625,0.3286327,0.7966109,0.63931715
0.1,0.1,0.7999999999999999,-0.5235987755982988,0.0,0,-1.0304664,1.4395505,0.026333798,-0.27715144,-0.10151484,1.5263451,1.5413384,-0.24096788,-0.8589315,-1.2551218,-0.4336912,0.02484504,0.42280254,0.75394636
0.1,0.1,0.7999999999999999,-0.5235987755982988,0.0,0,-1.0575985,1.4239789,0.011489819,-0.28016415,-0.11700433,1.4941111,1.84024,0.7268209,-1.4971079,0.16100661,0.48917,-0.55176204,-0.013585045,-0.92972124
0.1,0.1,0.7999999999999999,-0.5235987755982988,0.0,0,-1.0158448,1.5067285,0.015166175,-0.30805728,-0.10297696,1.5114468,1.480592,0.25957504,-0.83116907,-0.8290828,-0.5574752,-0.2532633,0.48837313,-0.5030869
0.1,0.1,0.7999999999999999,-0.5235987755982988,0.0,0,-1.0311847,1.4776891,0.019641045,-0.30034977,-0.045853626,1.4768554,1.4824473,0.70421475,-1.2979887,1.7662047,-0.39700097,0.61935073,0.054007135,0.45328707
0.1,0.1,0.7999999999999999,-0.5235987755982988,0.0,0,-1.0301479,1.484637,0.020019364,-0.32062766,-0.04881979,1.4918813,1.4679002,-0.24637239,-0.50183296,-0.7215379,-0.44782296,0.06102491,0.12402063,-0.2583297
0.1,0.1,0.7999999999999999,-0.5235987755982988,0.0,0,-1.0192876,1.4966654,0.0559294,-0.31078207,-0.087082215,1.505512,1.4632224,0.080777355,-0.43114588,0.16713554,-0.6458334,0.5030193,-0.18149725,1.0339142
0.1,0.1,0.7999999999999999,-0.5235987755982988,0.0,0,-1.0582627,1.4707482,0.045699324,-0.296693,-0.123998,1.4784681,1.7351958,-0.364831,-0.67501163,-0.18958673,-0.63934517,-0.010717717,0.73092943,0.2515759
0.1,0.1,0.7999999999999999,-0.5235987755982988,0.0,0,-1.0382984,1.4517909,0.055887297,-0.24572423,-0.08410714,1.504981,1.6149172,0.26123485,-0.5212076,-0.06814863,-0.9029901,0.09366047,0.18300013,0.90340066
0.1,0.1,0.7999999999999999,-0.5235987755982988,0.0,0,-1.0658414,1.4752412,0.09375991,-0.31400925,-0.066801265,1.5121832,1.5451156,0.39115983,-0.88361055,0.9104944,-0.28027883,-0.11127426,0.050476797,-0.12567067
0.1,0.1,0.7999999999999999,-0.5235987755982988,0.0,0,-1.0353733,1.4785568,0.059706815,-0.338941,-0.10778919,1.5166476,1.4528978,0.16535471,-1.0283831,0.242352,-0.14939483,-0.31443554,0.058465473,1.278012
0.1,0.1,0.7999999999999999,-0.5235987755982988,0.0,0,-1.0469571,1.5035346,0.02603926,-0.3232968,-0.06363544,1.557837,1.704857,0.71355367,-0.85672206,-0.50932264,-0.47650862,0.3514331,0.4547449,-1.2286932
0.1,0.1,0.7999999999999999,-0.5235987755982988,0.0,0,-0.9933743,1.4898052,0.07669834,-0.27554274,-0.10385324,1.5065401,1.5931226,-0.0019384325,-0.46152025,0.55271864,-0.5688269,-0.24194591,0.56230676,-0.028612787
0.1,0.1,0.7999999999999999,-0.5235987755982988,0.0,0,-1.0745827,1.4665986,0.035931915,-0.30492446,-0.079112224,1.5159321,1.6614356,-0.1817786,-0.58981484,1.0225112,-0.30676806,0.3698446,0.08754613,1.165371
0.1,0.1,0.7999999999999999,-0.5235987755982988,0.0,0,-1.042466,1.4697767,0.026259791,-0.3251731,-0.088932104,1.4991888,1.5882019,0.38021117,-0.8346159,0.1608296,-0.4419227,-0.18661961,0.90283877,0.761381
0.1,0.1,0.7999999999999999,-0.5235987755982988,0.0,0,-0.99499476,1.4872006,0.07920169,-0.3269215,-0.06328435,1.5481331,1.3638802,0.11271073,-1.189957,0.36483392,-0.8404144,0.50863785,0.45568615,-1.1595045
0.1,0.1,0.7999999999999999,-0.5235987755982988,0.0,0,-1.0329776,1.4667234,0.035289012,-0.28006747,-0.048644703,1.5165317,1.6309942,0.48924056,-0.7974507,-0.38104716,0.085554205,-0.29595774,-0.0045994776,-0.22024418
0.1,0.1,0.7999999999999999,-0.5235987755982988,0.0,0,-1.0320406,1.4715972,0.004465363,-0.3112554,-0.14223498,1.5234393,1.5860599,-0.24869809,-1.0485973,0.092408724,-0.21630329,0.10406016,0.33632463,0.3448033
0.1,0.1,0.7999999999999999,-0.5235987755982988,0.0,0,-1.0220007,1.4851342,0.075582296,-0.30643994,-0.07482083,1.550249,1.5893652,-0.09070897,-0.5864725,0.8851051,-0.36093017,0.8812593,-0.062403545,1.2983706
0.1,0.1,0.7999999999999999,-0.5235987755982988,0.0,0,-1.043209,1.4533215,0.034801938,-0.24976464,-0.12379725,1.4838859,1.526214,0.578406,-0.97482824,-1.2471505,-0.057193495,0.37524197,0.83238286,-0.6771886
0.1,0.1,0.7999999999999999,-0.5235987755982988,0.0,0,-1.0383781,1.4696716,0.08520037,-0.3195501,-0.13610752,1.5016327,1.5065218,-0.2390732,-0.86181253,-0.4775992,-0.08568511,0.14807107,-0.21466823,-0.18877266
0.1,0.1,0.7999999999999999,-0.5235987755982988,0.0,0,-1.0354397,1.4889976,0.029747175,-0.29180875,-0.1219697,1.52527,1.652439,-0.10265331,-1.1115763,0.39554998,-0.107120976,0.38631162,0.22853257,0.18580826
0.1,0.1,0.7999999999999999,-0.5235987755982988,0.0,0,-1.0219662,1.4575464,0.025205072,-0.24154933,-0.0747779,1.446268,1.46546,-0.9641339,-0.8605406,1.1363469,-0.09946877,0.17495465,0.058294408,-0.24008673
0.1,0.1,0.7999999999999999,-0.5235987755982988,0.0,0,-0.9640099,1.4854459,-0.041471243,-0.26196668,-0.06593079,1.4798903,1.5422369,0.3082134,-0.49323744,-0.39841208,-0.53974736,-0.8191964,0.378048,-0.393124
0.1,0.1,0.7999999999999999,-0.5235987755982988,0.0,0,-1.0389198,1.4782498,-0.009782295,-0.27280423,-0.06835528,1.4917779,1.6907243,0.057693705,-1.0513294,1.3916528,-0.40026623,-0.20413984,0.046421416,-0.29041308
0.1,0.1,0.7999999999999999,-0.5235987755982988,0.0,0,-0.9963473,1.4296018,0.019235522,-0.3373981,-0.109602205,1.5382524,1.365712,0.22435972,-1.0768554,0.88272095,-0.7196806,0.32681987,0.23909017,0.85861313
0.1,0.1,0.7999999999999999,-0.5235987755982988,0.0,0,-1.02632,1.4608891,0.009064861,-0.2924692,-0.09927212,1.497313,1.4446824,0.21042049,-0.3165481,0.038135774,-0.5064593,0.4995639,0.22245197,1.4243795
0.1,0.1,0.7999999999999999,-0.5235987755982988,0.0,0,-1.0488447,1.4719805,0.058000267,-0.30410698,-0.13008028,1.54091,1.6197988,-0.03292282,-0.61287624,0.916556,-0.076853365,0.6092516,0.20819736,0.6316101
0.1,0.1,0.7999999999999999,-0.5235987755982988,0.0,0,-1.0649592,1.5005468,0.055262744,-0.31019613,-0.12334127,1.5619097,1.4268816,-0.5128184,-0.8331729,0.17486353,-0.57024604,0.023995323,0.7330844,0.19479108
0.1,0.1,0.7999999999999999,-0.5235987755982988,0.0,0,-0.9864874,1.4239267,0.019328995,-0.31333598,-0.06453851,1.4821228,1.511063,0.008262932,-0.9538934,0.0074606575,-0.56174284,0.14063893,-0.030387253,-0.25892806
0.1,0.1,0.7999999999999999,-0.5235987755982988,0.0,0,-1.0291752,1.4835682,0.012645182,-0.3964491,-0.037323583,1.4824482,1.7329471,0.51280034,-0.252092,-0.5337968,0.035480727,-0.16439766,0.088620655,-0.072879754
0.1,0.1,0.7999999999999999,-0.5235987755982988,0.0,0,-1.0762467,1.4573585,0.06259305,-0.28125048,-0.07696352,1.4606509,1.538211,-0.62129074,-0.3621044,-0.5311923,-0.542416,0.09366633,-0.44550183,0.6677329
0.1,0.1,0.7999999999999999,-0.5235987755982988,0.0,0,-1.0306871,1.4869677,0.06524037,-0.29989246,-0.09476131,1.4653822,1.6882026,0.5449654,-0.8174979,1.1020373,-0.72698694,0.033032782,-0.09693075,0.46386302
0.1,0.1,0.7999999999999999,-0.5235987755982988,0.0,0,-1.0370244,1.4731876,0.09044128,-0.33396682,-0.072940156,1.5083238,1.5555223,0.76549906,-0.83976305,-0.50011075,-0.49545583,0.25089324,0.024348745,-0.012685095
0.1,0.1,0.7999999999999999,-0.5235987755982988,0.0,0,-1.0233202,1.4433539,0.024834765,-0.33545956,-0.14467204,1.5147392,1.6300454,1.0516756,-0.48356146,-0.86705804,-0.14157599,0.4554834,0.06399763,0.1289763
0.1,0.1,0.7999999999999999,-0.5235987755982988,0.0,0,-1.0114548,1.4699833,0.08244777,-0.34817103,-0.09450198,1.4554946,1.6555002,0.041196205,-0.9623262,0.38500676,-0.18846628,0.22712538,0.10140401,-0.5021519
0.1,0.1,0.7999999999999999,-0.5235987755982988,0.0,0,-1.0372455,1.4697499,0.08844568,-0.3325999,-0.05442364,1.5279613,1.6226403,-0.24707252,-1.1184565,-1.0173842,-0.06189243,0.9701037,0.79369897,-0.8686113
0.1,0.1,0.7999999999999999,-0.5235987755982988,0.0,0,-1.0509608,1.4225804,0.00399027,-0.28383252,-0.106531546,1.4815997,1.3146697,0.22098637,-0.039112203,0.97114,-0.8243657,-0.030170918,0.55818146,1.4956701
0.1,0.1,0.7999999999999999,-0.5235987755982988,0.0,0,-1.0732394,1.4387685,0.09905463,-0.3696011,-0.09212446,1.5342859,1.7215401,0.82390213,-0.5601481,-1.0130844,-0.5342019,0.98073924,0.4394806,-0.46164045
0.1,0.1,0.7999999999999999,-0.5235987755982988,0.0,0,-1.0067176,1.5077406,0.05582855,-0.41444302,-0.09811691,1.5503789,1.655672,0.5069504,-0.41808033,0.78307,-0.36687726,-0.4020595,0.14964324,-0.8731943
0.1,0.1,0.7999999999999999,-0.5235987755982988,0.0,0,-1.0350026,1.4624977,0.008858934,-0.2954975,-0.051113516,1.4795823,1.6445814,-0.372421,-0.6794362,0.63515854,-0.69284993,0.17117985,0.70531315,-0.9575959
0.1,0.1,0.7999999999999999,-0.5235987755982988,0.0,0,-1.02397,1.4539233,0.01551164,-0.2993898,-0.079892084,1.5036992,1.7551945,0.480432,-0.7966603,-0.39506355,-0.3575151,0.20341496,0.16529469,1.1130611
0.1,0.1,0.7999999999999999,-0.5235987755982988,0.0,0,-0.99474716,1.4556782,0.073728725,-0.26609582,-0.05786627,1.488407,1.758848,-0.60033023,-0.7734585,-0.5204703,-0.44632617,-0.04217435,0.035502613,-0.3239553
0.1,0.1,0.7999999999999999,-0.5235987755982988,0.0,0,-1.0008821,1.440686,0.022351617,-0.33922866,-0.12319771,1.5139049,1.277332,0.15707542,-1.0658873,0.034419335,-0.5698586,-0.52463657,0.30980077,0.25641486
0.1,0.1,0.7999999999999999,-0.5235987755982988,0.0,0,-1.0325598,1.4755584,0.039950512,-0.2906233,-0.037348606,1.4972254,1.613018,0.6099687,-1.1097672,1.2890201,-0.2035255,0.6570251,0.2628173,-0.018549984
0.1,0.1,0.7999999999999999,-0.5235987755982988,0.0,0,-1.0253123,1.4753088,0.045473684,-0.32849616,-0.12045159,1.4990721,1.7346382,0.6481792,-0.6697253,0.7148113,-0.16414003,0.12902665,-0.08906019,0.0694037
0.1,0.1,0.7999999999999999,-0.5235987755982988,0.0,0,-1.0097934,1.4263959,0.0010486543,-0.3168074,-0.11222578,1.5237603,1.6131753,0.86379963,-0.5661291,0.5111966,-0.29089066,0.30447692,0.001830667,0.8752554
0.1,0.1,0.7999999999999999,-0.5235987755982988,0.0,0,-1.03056,1.4712679,0.04685956,-0.2890701,-0.049234968,1.4976171,1.7101784,0.11651291,-0.87674147,-0.58020353,-0.3054537,0.045321625,-0.25992453,0.15326686
0.1,0.1,0.7999999999999999,-0.5235987755982988,0.0,0,-1.0435331,1.4184884,0.05429914,-0.27932036,-0.09575477,1.5212873,1.6529922,0.5032041,-0.5112127,-0.13836758,-0.3936783,0.412826,0.11047603,-0.17132345
0.1,0.1,0.7999999999999999,-0.5235987755982988,0.0,0,-1.0437163,1.4407766,0.07907034,-0.33045214,-0.084168695,1.5064098,1.7381485,-0.21508545,-0.9885685,0.635315,-0.732799,0.11870167,0.8134425,-0.43734884
0.1,0.1,0.7999999999999999,-0.5235987755982988,0.0,0,-1.0121127,1.4566317,0.06549956,-0.34430528,-0.16212647,1.4791903,1.6552482,-0.35482764,-1.1772854,0.90344685,-0.8466294,-0.02925996,0.52018255,-0.8287365
0.1,0.1,0.7999999999999999,-0.5235987755982988,0.0,0,-1.0314224,1.4350888,0.039480846,-0.2761281,-0.08775083,1.4814984,1.5288838,-0.6456845,-0.80822235,0.079882935,-0.34011406,-0.08174994,0.30301425,-0.20633915
0.1,0.1,0.7999999999999999,-0.5235987755982988,0.0,0,-1.054186,1.4572023,0.08490852,-0.28056484,-0.14350021,1.4665526,1.6611001,-0.47169352,-0.31531292,-0.65110296,-0.26087442,0.342708,0.77566606,1.9498748
0.1,0.1,0.7999999999999999,-0.5235987755982988,0.0,0,-1.0117337,1.4487959,0.08198288,-0.37981918,-0.04135273,1.5084255,1.4647005,0.06224366,0.010764618,-0.19005753,-0.5635767,-0.39266992,0.18832812,0.968022
0.1,0.1,0.7999999999999999,-0.5235987755982988,0.0,0,-1.0329958,1.5150573,0.0038390032,-0.31906354,-0.076924,1.5180748,1.5508113,0.19651872,-0.3215185,0.4384295,0.3415675,-0.3865017,0.08014836,-0.5991534
0.1,0.1,0.7999999999999999,-0.5235987755982988,0.0,0,-1.0238674,1.4464717,0.021817014,-0.3342798,-0.08638148,1.4828036,1.3361487,0.5836289,-0.9478989,0.5306575,-0.29629838,-0.24666436,0.44138741,0.10298506
0.1,0.1,0.7999999999999999,-0.5235987755982988,0.0,0,-0.9758236,1.4442987,0.04352977,-0.32880342,-0.067736186,1.5088812,1.5896703,0.15713216,-0.7962619,0.12716076,-0.13804619,-0.7013053,0.21757796,-0.38050342
0.1,0.1,0.7999999999999999,-0.5235987755982988,0.0,0,-1.0251534,1.4676305,0.03388699,-0.24288832,-0.11106464,1.4586524,1.6085408,0.2385541,-1.0046427,-0.8641625,-0.24391808,-0.07433524,0.80650383,0.14545493
0.1,0.1,0.7999999999999999,-0.5235987755982988,0.0,0,-1.02819,1.4715027,0.026898934,-0.3087182,-0.12710091,1.491169,1.5868393,0.23895162,-0.57483697,-0.82597417,-0.08958797,0.23743278,0.22585675,-1.6820284
0.1,0.1,0.7999999999999999,-0.5235987755982988,0.0,0,-1.0120282,1.451729,0.055947497,-0.31807506,-0.15863198,1.4868882,1.3887073,0.09632302,-0.51201254,-0.48694843,-0.1952465,0.17191944,-0.15585715,0.42454925
0.1,0.1,0.7999999999999999,-0.5235987755982988,0.0,0,-1.0555979,1.4448352,0.0129506355,-0.28394976,-0.123124875,1.4863002,1.5242553,0.38713723,-0.80343664,-0.37166315,-0.00014307076,-0.28086504,0.14530243,0.6321376
0.1,0.1,0.7999999999999999,-0.5235987755982988,0.0,0,-1.0281731,1.4594178,0.033258077,-0.30509388,-0.028554259,1.482731,1.7117509,-0.011966989,-1.3928344,0.30530536,0.055922795,-0.090972416,0.0243275,0.10518746
0.1,0.1,0.7999999999999999,-0.5235987755982988,0.0,0,-0.9972987,1.4400383,0.059504107,-0.34070158,-0.10960528,1.5047809,1.5949242,-0.1033992,-1.0517837,-0.07166854,-0.4364631,0.73297346,0.21433976,-0.90623033
0.1,0.1,0.7999999999999999,-0.5235987755982988,0.0,0,-1.0098125,1.4607407,0.035180822,-0.31589806,-0.089691386,1.5225335,1.529387,0.28618824,-0.38030916,-0.46958545,-0.19743228,0.30508113,0.15235333,-0.68643147
0.1,0.1,0.7999999999999999,-0.5235987755982988,0.0,0,-1.0619732,1.5008134,0.039278068,-0.26744333,-0.075624816,1.4988302,1.6345161,1.347258,-1.1377195,0.9524093,-0.3237976,-0.45197317,-0.13757196,0.031351313
0.1,0.1,0.7999999999999999,-0.5235987755982988,0.0,0,-0.9761723,1.4670235,0.033337716,-0.29952258,-0.086914755,1.4918804,1.394253,0.45674604,-0.7100043,1.290869,0.18283719,0.041200705,0.27042446,0.11676613
0.1,0.1,0.7999999999999999,-0.5235987755982988,0.0,0,-1.0449555,1.4721091,0.033667404,-0.2842286,-0.10853414,1.5050956,1.6997557,0.48422635,-0.9413937,1.2316422,-0.5836139,0.31011495,0.14186545,0.039606016
0.1,0.1,0.7999999999999999,-0.5235987755982988,0.0,0,-1.0265511,1.4595331,0.01350134,-0.31796783,-0.13939078,1.5048885,1.3795962,0.23059802,-0.8259054,1.2195588,-0.25439662,0.35810298,0.010936301,0.6378993
0.1,0.1,0.7999999999999999,-0.5235987755982988,0.0,0,-1.033372,1.4446696,0.06909393,-0.2790802,-0.06859667,1.4876854,1.6806464,-0.38285536,-1.0240749,-0.44571513,0.023215441,-0.062062707,-0.2449457,0.7158433
0.1,0.1,0.7999999999999999,-0.5235987755982988,0.0,0,-1.0271298,1.4525332,0.05903722,-0.338614,-0.13970892,1.5184029,1.5926607,0.89298075,-0.8291237,-0.7565424,-0.8955268,0.3944218,0.46670967,0.7280155
0.1,0.1,0.7999999999999999,-0.5235987755982988,0.0,0,-1.0184177,1.4334493,0.05326446,-0.2551195,-0.10445462,1.4667383,1.52782,-0.7567746,-1.0337703,-0.39384255,-0.75770605,0.1563798,0.7041496,0.08015507
0.1,0.1,0.7999999999999999,-0.5235987755982988,0.0,0,-1.0184503,1.4643362,0.03474981,-0.3221973,-0.091625236,1.508984,1.5923704,-0.19652365,-0.5448072,0.09869256,-0.46787316,-0.7422815,0.14610814,-0.64943504
0.1,0.1,0.7999999999999999,-0.5235987755982988,0.0,0,-1.0257347,1.4586898,-0.014300841,-0.31847236,-0.04219149,1.5051296,1.6198484,0.5300554,-0.8022557,1.1968061,-0.6643126,-0.36881554,0.69479686,1.4126353
0.1,0.1,0.7999999999999999,-0.5235987755982988,0.0,0,-1.036291,1.4606394,0.019492984,-0.34299198,-0.080950536,1.5117648,1.5747625,0.6872303,-0.68685037,-0.4483615,-0.6409619,0.88875675,0.10004858,-0.34642348
0.1,0.1,0.7999999999999999,-0.5235987755982988,0.0,0,-1.0226048,1.4822582,0.054426294,-0.34442702,-0.118722685,1.5272167,1.5126011,0.2882335,-0.4015569,0.48665738,-0.3043062,-0.02580474,-0.11221235,-0.019398373
0.1,0.1,0.7999999999999999,-0.5235987755982988,0.0,0,-1.0358828,1.4529918,-0.0007589882,-0.29621026,-0.09993147,1.4912527,1.6262153,-0.8613629,-0.35319293,0.16665417,-0.41486323,-0.5077587,0.064712174,-0.2530603
0.1,0.1,0.7999999999999999,-0.5235987755982988,0.0,0,-0.99846375,1.4263905,0.07330506,-0.2802627,-0.06392943,1.4692858,1.5119561,0.45366657,-0.58188015,-0.12929511,-0.0014305183,0.30202454,-0.35188365,-0.17432791
0.1,0.1,0.7999999999999999,-0.5235987755982988,0.0,0,-1.0083262,1.4623837,0.05512441,-0.30074704,-0.07959872,1.5436162,1.6085343,-0.092420995,-0.7256133,-1.0749578,-0.2551752,0.59622157,0.6197265,0.48146272
0.1,0.1,0.7999999999999999,-0.5235987755982988,0.0,0,-1.020481,1.4515976,0.064348966,-0.2679446,-0.06314186,1.4925351,1.5370243,0.64012873,-0.8613942,0.8014647,-0.10525669,0.13070692,-0.40487093,-0.38990107
0.1,0.1,0.7999999999999999,-0.5235987755982988,0.0,0,-1.1024021,1.4719766,0.046808187,-0.3118213,-0.029421201,1.5441439,1.6395139,0.025976028,-0.7490425,0.528366,-0.39033103,-0.122056276,-0.57978565,-0.21331626
0.1,0.1,0.7999999999999999,-0.5235987755982988,0.0,0,-1.0270205,1.4432929,0.060957145,-0.2868617,-0.08094966,1.5272318,1.3944048,-0.07708617,-0.9787682,0.74892044,-0.36058527,0.25165626,-0.016569769,-0.7641219
0.1,0.1,0.7999999999999999,-0.5235987755982988,0.0,0,-1.0319438,1.4590253,0.019248933,-0.3179181,-0.1362029,1.4982334,1.4782135,-0.044165038,-0.8040754,1.151409,-0.6446664,-0.5750909,0.107626304,0.07359263
0.1,0.1,0.7999999999999999,-0.5235987755982988,0.0,0,-1.0766706,1.4913025,0.027379477,-0.27947593,-0.15793024,1.5132046,1.5987633,-0.08064192,-0.79949164,-0.3200178,-0.3817266,-0.29891193,0.34790707,0.80275023
0.1,0.1,0.7999999999999999,-0.5235987755982988,0.0,0,-1.044325,1.4423767,0.06391993,-0.28665763,-0.074948005,1.5152056,1.6044499,0.10285474,-0.72036797,0.05558285,-0.5971905,0.73890954,-0.08470935,-0.0028987238
0.1,0.1,0.7999999999999999,-0.5235987755982988,0.0,0,-1.022633,1.4749523,-0.031283617,-0.27648112,-0.057139643,1.4913145,1.6019231,0.45286503,-0.8602753,-0.54646194,-0.28622732,0.4019221,0.541125,0.042699713
0.1,0.1,0.7999999999999999,-0.5235987755982988,0.0,0,-1.0695889,1.4351053,0.05947136,-0.296224,-0.088953026,1.5230446,1.7092283,0.15734176,-1.3393728,0.8239613,0.6593729,-0.73967934,0.25417668,0.8506361
0.1,0.1,0.7999999999999999,-0.5235987755982988,0.0,0,-1.023633,1.4914755,-0.015578807,-0.3138301,-0.13217203,1.5275791,1.555299,0.16223077,-0.6428207,0.11906897,-0.21882546,0.23954986,0.34718642,-0.18438545
0.1,0.1,0.7999999999999999,-0.5235987755982988,0.0,0,-1.0639366,1.4287493,0.046181787,-0.2770894,-0.13175508,1.4887073,1.7069019,0.38082996,-0.99985635,-1.0620733,-0.15193896,0.14317858,0.8469766,0.12059407
0.1,0.1,0.7999999999999999,-0.5235987755982988,0.0,0,-1.0724561,1.4326078,0.05724106,-0.31318125,-0.08772715,1.5189846,1.5689298,-0.6809155,-0.8591806,0.58426404,-0.57295525,-0.31432223,0.071428746,0.18652062
0.1,0.1,0.7999999999999999,-0.5235987755982988,0.0,0,-1.0257454,1.5044761,0.08715544,-0.27544183,-0.07167134,1.4958063,1.6212912,-0.30158696,-0.7208931,0.37353942,0.292363,-0.6316001,0.48409995,-0.2770685
0.1,0.1,0.7999999999999999,-0.5235987755982988,0.0,0,-1.041275,1.4964731,0.025405588,-0.25483835,-0.12824906,1.4805063,1.692223,0.7404934,-0.934986,0.118370004,-0.5576144,0.7440066,-0.32192042,-0.5303014
0.1,0.1,0.7999999999999999,-0.5235987755982988,0.0,0,-1.0270122,1.4670489,0.024998074,-0.31724468,-0.09520311,1.4733677,1.5088321,-0.8109281,-1.1226617,-1.2748454,-0.87638146,-0.207956,0.5846036,-2.2386022
0.1,0.1,0.7999999999999999,-0.5235987755982988,0.0,0,-1.0162244,1.4688889,0.069646,-0.34311876,-0.036479004,1.4934605,1.6271974,0.069256745,-0.24167646,-0.37753108,-0.7024621,0.08938466,-0.008964694,0.3455277
0.1,0.1,0.7999999999999999,-0.5235987755982988,0.0,0,-1.0091959,1.4318782,0.06790152,-0.3545502,-0.13176195,1.5054505,1.6197076,-0.65725046,-0.09029397,-0.38220555,-0.61510813,0.11870048,0.48974708,1.0740781
0.1,0.1,0.7999999999999999,-0.5235987755982988,0.0,0,-1.0211726,1.4758666,0.029599328,-0.34808284,-0.03769615,1.5127017,1.641193,-1.0223185,-0.51930106,-0.7153844,-0.008823896,0.074254386,0.14472371,1.0355412
0.1,0.1,0.7999999999999999,-0.5235987755982988,0.0,0,-1.0567049,1.4440345,0.02417818,-0.36761528,-0.06373523,1.4946914,1.5640719,0.27602717,-0.37545228,0.21099065,-0.7611102,-0.35228708,-0.13943693,0.91978997
0.1,0.1,0.7999999999999999,-0.5235987755982988,0.0,0,-1.0226183,1.4256356,0.0015992183,-0.33399957,-0.08123641,1.4415878,1.6068542,0.55521363,-0.7583145,-0.43103606,-0.30486327,-0.15365945,0.9091202,1.290091
0.1,0.1,0.7999999999999999,-0.5235987755982988,0.0,0,-1.006164,1.4525201,0.027913963,-0.3249776,-0.06291585,1.5039732,1.7752452,-0.23743618,-0.5097858,1.2093083,-0.076944016,0.1420081,0.7363367,-0.83683693
0.1,0.1,0.7999999999999999,-0.5235987755982988,0.0,0,-1.0037429,1.4283005,0.016348004,-0.2695746,-0.095618814,1.4665792,1.5236694,0.58809215,-0.8193029,-0.26959106,-0.30983853,0.5156371,0.6552685,0.6268574
0.1,0.1,0.7999999999999999,-0.5235987755982988,0.0,0,-1.0422523,1.4780216,0.038204886,-0.32767984,-0.11902434,1.5208734,1.5224178,-0.5514933,-1.4591117,0.4397282,-0.39732334,0.55212986,0.078935415,0.9393656
0.1,0.1,0.7999999999999999,-0.5235987755982988,0.0,0,-1.019544,1.4497873,-0.008778031,-0.32682988,-0.08923941,1.4549257,1.2996293,-0.38373962,-0.62004924,-0.27116454,-0.5100829,-0.11243974,0.15466595,0.5600131
0.1,0.1,0.7999999999999999,-0.5235987755982988,0.0,0,-0.99460244,1.4841301,0.047982395,-0.2809856,-0.13768029,1.5437591,1.7967228,-0.0003012103,-1.1271616,0.6152531,-0.19143721,-0.4560857,0.46557993,0.5641729
0.1,0.1,0.7999999999999999,-0.5235987755982988,0.0,0,-1.0268581,1.4358801,0.06948272,-0.26935968,-0.11209738,1.4806296,1.4447792,0.9984481,-0.41441122,0.07713487,-0.17224245,0.22373036,0.057590373,-0.8484315
0.1,0.1,0.7999999999999999,-0.5235987755982988,0.0,0,-1.0321292,1.3836166,0.06658901,-0.35083568,-0.10738028,1.4941863,1.6514007,0.36733535,-1.3161042,0.9336995,-0.55011445,-0.14651518,0.3268988,0.29210576
0.1,0.1,0.7999999999999999,-0.5235987755982988,0.0,0,-1.0053173,1.4584675,0.05790002,-0.3464238,-0.15560879,1.5265024,1.4046565,0.37459847,-0.64947134,-0.62830055,0.12926862,0.6973403,-0.0789576,-0.9490956
0.1,0.1,0.7999999999999999,-0.5235987755982988,0.0,0,-0.9980994,1.4399312,0.06891625,-0.27732322,-0.05734556,1.4958766,1.4810936,0.297103,-0.86348665,-0.8011441,-0.29318765,-0.20562701,0.20427102,-0.2700422
0.1,0.1,0.7999999999999999,-0.5235987755982988,0.0,0,-1.0171258,1.4248964,0.01073226,-0.30693325,-0.1600503,1.5411203,1.5813911,-0.0935929,-0.6178774,0.8707871,-0.4757591,0.20350875,0.2806621,0.1734203
0.1,0.1,0.7999999999999999,-0.5235987755982988,0.0,0,-1.0010669,1.4606403,0.043331303,-0.37940344,-0.06442428,1.50996,1.4619143,-0.22615144,-0.93254614,-0.52725405,-0.0035866846,0.49965748,0.7043114,-0.7833011
0.1,0.1,0.7999999999999999,-0.5235987755982988,0.0,0,-1.0147879,1.4385704,0.03525718,-0.2951563,-0.09669206,1.5333034,1.3181151,-0.34809998,-0.6391451,-0.26900205,-0.049020257,0.06234575,-0.08345414,-0.56045055
0.1,0.1,0.7999999999999999,-0.5235987755982988,0.0,0,-1.0333787,1.4364794,0.035969067,-0.2698081,-0.08197916,1.4678214,1.4674917,0.7885116,-1.2667384,0.71364236,-0.282257,0.102332346,-0.27496818,0.90289587
0.1,0.1,0.7999999999999999,-0.5235987755982988,0.0,0,-1.0731187,1.5122366,0.06690026,-0.25136527,-0.14340843,1.5069748,1.7906519,-0.59097856,-0.7297769,-0.6317873,0.17585701,0.49916512,0.49963534,-1.0476141
0.1,0.1,0.7999999999999999,-0.5235987755982988,0.0,0,-0.99581057,1.4427727,0.05894428,-0.2824942,-0.058959607,1.483879,1.5201607,0.28620133,-1.4544871,0.31392005,-0.30190217,-0.11475496,-0.20443794,0.9279832
0.1,0.1,0.7999999999999999,-0.5235987755982988,0.0,0,-1.0077509,1.4677223,0.068639845,-0.30694425,-0.025058854,1.5124949,1.3932236,0.60729384,-0.75234634,-0.10886688,-0.037366435,0.22059377,0.3345908,-0.16415474
0.1,0.1,0.7999999999999999,-0.5235987755982988,0.0,0,-1.0460585,1.4642658,0.06842333,-0.29752326,-0.04173551,1.4942065,1.5340608,0.08956082,-0.46630007,0.23692851,-0.4134178,0.74177533,-0.24300417,0.6365803
0.1,0.1,0.7999999999999999,-0.5235987755982988,0.0,0,-0.98175323,1.4722171,0.03660373,-0.3053881,-0.06907746,1.4914662,1.3893762,-0.12141204,-0.79781264,-0.734254,-0.020775652,0.25331497,0.03469954,-0.335726
0.1,0.1,0.7999999999999999,-0.5235987755982988,0.0,0,-1.0022825,1.4589589,-0.008331045,-0.28172806,-0.04770038,1.4877172,1.4921013,0.5531157,-1.0223528,-0.33309817,-0.04976497,-0.21350934,0.33309555,-0.39323336
0.1,0.1,0.7999999999999999,-0.5235987755982988,0.0,0,-1.0564345,1.452675,0.051455438,-0.3220235,-0.038378756,1.5438554,1.5797044,0.8580933,-1.0910103,1.4146583,-0.09759745,-0.14144318,0.3267655,0.41902795
0.1,0.1,0.7999999999999999,-0.5235987755982988,0.0,0,-1.0457816,1.4693952,0.030576857,-0.24803293,-0.10485153,1.492599,1.624072,0.71099466,-1.1312996,1.1828696,-0.6128199,-0.078786,0.60646623,0.11420209
0.1,0.1,0.7999999999999999,-0.5235987755982988,0.0,0,-1.0105695,1.4577042,0.047682244,-0.27663904,-0.07932638,1.4726663,1.4655566,-0.008104726,-0.8420832,0.32045093,-0.48746902,0.10282793,0.3214086,0.6945408
0.1,0.1,0.7999999999999999,-0.5235987755982988,0.0,0,-1.0544599,1.4790355,0.0090223,-0.28502747,-0.054668076,1.515373,1.5121745,-0.6290948,-0.46594942,0.5064382,-0.6829288,0.42891753,0.32261598,0.13328108
0.1,0.1,0.7999999999999999,-0.5235987755982988,0.0,0,-1.0025101,1.4490641,0.05740472,-0.34682435,-0.07154673,1.5215162,1.3404132,0.18659389,-1.5274776,-0.6739239,-0.10038053,-0.34487456,0.7047308,-0.0643109
0.1,0.1,0.7999999999999999,-0.5235987755982988,0.0,0,-0.98741865,1.4781224,0.04125939,-0.28902408,-0.07513501,1.5279046,1.4960345,0.4960044,-0.9564164,0.018870592,-0.60172564,0.5965757,0.42470464,2.4883971
0.1,0.1,0.7999999999999999,-0.5235987755982988,0.0,0,-1.0042317,1.4536527,0.02860631,-0.27043796,-0.10142712,1.4953858,1.3300692,0.4267478,-1.1765304,0.3378733,-0.09110922,0.5778347,0.56250054,0.1673398
0.1,0.1,0.7999999999999999,-0.5235987755982988,0.0,0,-1.0695817,1.4573303,0.0542713,-0.24078842,-0.115182474,1.5118039,1.6323034,0.4196301,-0.8071173,0.38778278,-0.3157203,-0.42163312,-0.058395084,1.9397722
0.1,0.1,0.7999999999999999,-0.5235987755982988,0.0,0,-1.0251426,1.466234,0.026518052,-0.3237441,-0.04939132,1.514505,1.3358651,-0.6049794,-0.30544385,0.21319982,-0.5425084,-0.19994253,-0.042818516,-0.074864805
0.1,0.1,0.7999999999999999,-0.5235987755982988,0.0,0,-1.0522342,1.4699103,0.024427256,-0.28743583,-0.082452886,1.5157642,1.5830914,0.26884788,-0.7942485,-0.68404615,0.040065285,0.09556508,0.4967527,-0.6341845
0.1,0.1,0.7999999999999999,-0.5235987755982988,0.0,0,-1.0351088,1.4719374,0.07408023,-0.27229384,-0.10467216,1.5163572,1.660955,0.3688113,-1.1941901,-0.7832445,-0.6964431,-0.96029156,0.3042129,1.1938274
0.1,0.1,0.7999999999999999,-0.5235987755982988,0.0,0,-1.0643582,1.4293374,0.054659005,-0.31684068,-0.049038116,1.5416454,1.4676716,-0.29561704,-0.96078825,0.53485006,-0.11597224,0.19509073,-0.038602702,-0.8475364
0.1,0.1,0.7999999999999999,-0.5235987755982988,0.0,0,-1.0410255,1.4385523,0.018825522,-0.28483284,-0.12646517,1.503017,1.4411489,-0.34338328,-1.1323305,0.7371044,-0.3125161,0.30674338,0.4371622,-0.067996785
0.1,0.1,0.7999999999999999,-0.5235987755982988,0.0,0,-1.0570729,1.4500196,0.020323165,-0.26099733,-0.09531423,1.4910126,1.5036551,0.34923345,-1.2419987,-0.16123776,-0.15966336,-0.43820912,-0.01223352,0.62544173
0.1,0.1,0.7999999999999999,-0.5235987755982988,0.0,0,-1.0692854,1.4520736,0.06211652,-0.26022536,-0.08576587,1.5425427,1.5708435,1.2033453,-1.4983149,1.2153298,-0.6991852,-0.16344392,0.2782093,1.357288
0.1,0.1,0.7999999999999999,-0.5235987755982988,0.0,0,-1.0149362,1.4697564,0.05737256,-0.19365557,-0.11861827,1.5346059,1.3913164,0.25289014,-0.5230799,-0.49698374,-0.3672057,0.86948127,0.23038356,0.82350105
