sanky1234/BimanualDexCatch/isaacgymenvs/cem_results/football_pose_-0.1_0.1_0.7_0.5235987755982988_0.5235987755982988_0_2025-05-26.csv
x,y,z,roll,pitch,yaw,robot1/joint1,robot1/joint2,robot1/joint3,robot1/joint4,robot1/joint5,robot1/joint6,robot1/joint7,robot2/joint1,robot2/joint2,robot2/joint3,robot2/joint4,robot2/joint5,robot2/joint6,robot2/joint7
-0.1,0.1,0.7,0.5235987755982988,0.5235987755982988,0,0.37384677,0.9992978,0.062496275,-0.054936145,0.02086507,1.5051533,0.30372083,-0.62436056,1.5990883,-0.11985913,0.10766058,-0.070824705,1.1470675,0.6706922
-0.1,0.1,0.7,0.5235987755982988,0.5235987755982988,0,0.39679566,1.0036765,0.074058175,-0.10377557,0.04554184,1.5048472,0.30213624,-0.5504006,1.5808903,-0.15644963,0.1270614,-0.06607919,1.1144811,0.62704647
-0.1,0.1,0.7,0.5235987755982988,0.5235987755982988,0,0.36254787,1.0919861,0.057604775,0.02831323,0.08511159,1.4883027,0.32719147,-0.46212587,1.5658886,-0.1509174,0.11347213,-0.19161475,1.1130643,0.57212955
-0.1,0.1,0.7,0.5235987755982988,0.5235987755982988,0,0.39322606,0.9775792,0.085407756,0.010144486,0.094491675,1.4929253,0.3155996,-0.60539615,1.584975,-0.1436057,0.10559495,-0.015286235,1.0957597,0.7899264
-0.1,0.1,0.7,0.5235987755982988,0.5235987755982988,0,0.337166,1.0715759,0.08728252,-0.0054313787,0.08431278,1.4913993,0.33914873,-0.42839974,1.5665033,-0.14990295,0.09074892,0.01052969,1.1223363,0.6638062
-0.1,0.1,0.7,0.5235987755982988,0.5235987755982988,0,0.37461582,1.1095581,0.07327633,-0.07469933,0.09009688,1.5080559,0.3045878,-0.3665885,1.579802,-0.1411195,0.11141852,-0.15933263,1.1322389,0.53647184
-0.1,0.1,0.7,0.5235987755982988,0.5235987755982988,0,0.3971818,1.0426491,0.061475027,-0.06666938,0.03210116,1.5058163,0.2893718,-0.5382129,1.5824656,-0.15258966,0.07390351,-0.04281228,1.1300913,0.94137347
-0.1,0.1,0.7,0.5235987755982988,0.5235987755982988,0,0.3551852,1.1097864,0.073543906,-0.037243146,0.065236054,1.5105146,0.3261147,-0.45431432,1.5739305,-0.15028088,0.10578579,-0.12467509,1.1321541,0.620277
-0.1,0.1,0.7,0.5235987755982988,0.5235987755982988,0,0.37336355,1.0800492,0.081112325,-0.13706106,0.08846398,1.5070386,0.34060645,-0.5453315,1.5812976,-0.12511405,0.12266038,-0.014398682,1.1478256,0.8264559
-0.1,0.1,0.7,0.5235987755982988,0.5235987755982988,0,0.35290608,1.1220491,0.038633585,-0.02446072,0.10586815,1.5079182,0.3135311,-0.48942816,1.5687084,-0.09578735,0.0794964,-0.0543977,1.1328598,0.59792143
-0.1,0.1,0.7,0.5235987755982988,0.5235987755982988,0,0.37781367,1.1799176,0.09465097,-0.11773945,0.00968067,1.4995905,0.296892,-0.5656537,1.5632087,-0.09004076,0.08897784,-0.03401304,1.1583525,0.6167656
-0.1,0.1,0.7,0.5235987755982988,0.5235987755982988,0,0.37284493,1.101926,0.06447482,0.014648646,0.10791135,1.5109076,0.32202274,-0.44113362,1.560224,-0.122144796,0.099037915,-0.07459046,1.1000896,0.7790492
-0.1,0.1,0.7,0.5235987755982988,0.5235987755982988,0,0.3606025,1.1052476,0.07038313,-0.021456456,0.071097024,1.5099694,0.3361427,-0.5260021,1.5890741,-0.111311756,0.07640558,-0.105597034,1.1702702,0.70010114
-0.1,0.1,0.7,0.5235987755982988,0.5235987755982988,0,0.38919976,1.156784,0.07137075,-0.027740614,0.09593366,1.49809,0.31102812,-0.58703214,1.5605412,-0.109350584,0.10653907,-0.07957112,1.1498942,0.6845003
-0.1,0.1,0.7,0.5235987755982988,0.5235987755982988,0,0.34432805,1.1274282,0.049318094,-0.09920011,0.05570977,1.5056249,0.34735742,-0.51592386,1.5591723,-0.111247934,0.10167015,-0.09750474,1.1401037,0.6161435
-0.1,0.1,0.7,0.5235987755982988,0.5235987755982988,0,0.3692252,1.1104236,0.096427925,-0.10691902,0.14139143,1.5094947,0.3223086,-0.49107623,1.5847975,-0.13331912,0.1538555,-0.06073776,1.1502368,0.78886884
-0.1,0.1,0.7,0.5235987755982988,0.5235987755982988,0,0.34542343,1.0705161,0.09096473,0.02135019,0.10329922,1.5017921,0.2950245,-0.5284941,1.5656023,-0.0729163,0.05917355,-0.11775269,1.1574311,0.5580214
-0.1,0.1,0.7,0.5235987755982988,0.5235987755982988,0,0.363757,1.1920377,0.075925194,-0.18632485,0.13582706,1.5123526,0.30911827,-0.52937573,1.5442148,-0.10923838,0.12965003,-0.09283317,1.172339,0.7096152
-0.1,0.1,0.7,0.5235987755982988,0.5235987755982988,0,0.37533826,1.1201577,0.06074241,0.029278632,0.12347254,1.4937701,0.3235799,-0.5354365,1.575921,-0.07684304,0.08408404,-0.0932831,1.1392653,0.7155573
-0.1,0.1,0.7,0.5235987755982988,0.5235987755982988,0,0.38460803,1.1063349,0.08216568,-0.12398283,0.057661,1.5077119,0.28648472,-0.5461234,1.5582701,-0.1352198,0.122108854,-0.1037982,1.1707379,0.79504925
-0.1,0.1,0.7,0.5235987755982988,0.5235987755982988,0,0.39283693,1.1458569,0.07673832,-0.025000818,0.05882231,1.4860029,0.3488463,-0.533398,1.5733925,-0.12046474,0.13555776,-0.036060516,1.1117129,0.6562411
-0.1,0.1,0.7,0.5235987755982988,0.5235987755982988,0,0.35326198,1.1101099,0.058143053,-0.09454321,0.029221049,1.5004019,0.3038547,-0.54034114,1.5666431,-0.09035554,0.061091825,-0.032270417,1.1596599,0.75490665
-0.1,0.1,0.7,0.5235987755982988,0.5235987755982988,0,0.33552545,1.2043905,0.067758314,-0.08642073,0.075296246,1.5166217,0.31474414,-0.50011194,1.5769246,-0.11151638,0.10164574,-0.10033704,1.1383873,0.6692753
-0.1,0.1,0.7,0.5235987755982988,0.5235987755982988,0,0.35115153,1.1462029,0.07793424,-0.043083563,0.056932904,1.5188257,0.3152042,-0.45899597,1.562704,-0.09500103,0.070037484,-0.1409776,1.1286227,0.7085425
-0.1,0.1,0.7,0.5235987755982988,0.5235987755982988,0,0.38043082,1.1434395,0.087283924,-0.089376874,0.05593194,1.5193732,0.34188032,-0.4941651,1.5847375,-0.11215244,0.115110084,-0.08179007,1.1714102,0.7657631
-0.1,0.1,0.7,0.5235987755982988,0.5235987755982988,0,0.3639123,1.1733121,0.08854182,-0.13902462,0.08235465,1.50323,0.32246125,-0.42439768,1.5749602,-0.124735564,0.10272364,-0.011836725,1.1018757,0.7139546
-0.1,0.1,0.7,0.5235987755982988,0.5235987755982988,0,0.3438845,1.174107,0.06660533,-0.0377749,0.09620675,1.5072646,0.33095095,-0.53248143,1.5473826,-0.16169548,0.14627501,-0.051175136,1.1465408,0.740537
-0.1,0.1,0.7,0.5235987755982988,0.5235987755982988,0,0.36858764,1.1890576,0.08585452,-0.15678255,0.07756982,1.5057029,0.32758582,-0.3800822,1.5789936,-0.092722364,0.1084075,-0.06563222,1.1447264,0.6440123
-0.1,0.1,0.7,0.5235987755982988,0.5235987755982988,0,0.37680605,1.1646494,0.0766889,-0.06787197,0.045983087,1.4822305,0.33408302,-0.5153207,1.5816895,-0.08676636,0.1593484,-0.09795469,1.1599754,0.7002825
-0.1,0.1,0.7,0.5235987755982988,0.5235987755982988,0,0.3406964,1.0902412,0.066354536,0.010705668,0.09320628,1.4882512,0.32441336,-0.42714018,1.5771463,-0.11090821,0.19017999,-0.046791885,1.0476093,0.6743102
-0.1,0.1,0.7,0.5235987755982988,0.5235987755982988,0,0.36205378,1.1424253,0.097237974,-0.016437678,0.045011617,1.510332,0.3275997,-0.44279653,1.5697833,-0.09041891,0.09704044,-0.08536986,1.1458744,0.77374905
-0.1,0.1,0.7,0.5235987755982988,0.5235987755982988,0,0.381549,1.153591,0.08519987,-0.03577556,0.10720314,1.4845153,0.31553978,-0.58323807,1.5757265,-0.14603244,0.1294085,-0.022764066,1.1771314,0.6382509
-0.1,0.1,0.7,0.5235987755982988,0.5235987755982988,0,0.36787075,1.1991528,0.06866698,-0.055814147,0.057600874,1.4959252,0.32503495,-0.44436383,1.5838985,-0.112044685,0.13550656,-0.08969433,1.1142106,0.6320122
-0.1,0.1,0.7,0.5235987755982988,0.5235987755982988,0,0.43739757,1.1605966,0.09189095,-0.03885945,0.05027421,1.4841722,0.34562394,-0.3798321,1.5643172,-0.10255981,0.11150925,-0.060899053,1.1807698,0.65904737
-0.1,0.1,0.7,0.5235987755982988,0.5235987755982988,0,0.3514226,1.1539258,0.08971663,-0.004524939,0.057702616,1.4958278,0.338189,-0.37005356,1.5768709,-0.1027618,0.08479017,-0.1448176,1.1235884,0.76386786
-0.1,0.1,0.7,0.5235987755982988,0.5235987755982988,0,0.36162555,1.1616622,0.09257483,0.009196568,0.06764794,1.5034876,0.315193,-0.5276036,1.5637896,-0.1179495,0.062071484,-0.06947559,1.1912432,0.5229883
-0.1,0.1,0.7,0.5235987755982988,0.5235987755982988,0,0.37361878,1.1371732,0.108172275,-0.0066616344,0.093787976,1.5127445,0.3157357,-0.41858327,1.5689088,-0.07110271,0.094556294,-0.12245196,1.1660206,0.63750154
-0.1,0.1,0.7,0.5235987755982988,0.5235987755982988,0,0.39033622,1.1323385,0.05812216,-0.041348834,0.06279842,1.5026807,0.337087,-0.3966772,1.5631512,-0.04259878,0.08940142,-0.11076337,1.1361321,0.7285771
-0.1,0.1,0.7,0.5235987755982988,0.5235987755982988,0,0.39895415,1.2350594,0.060202498,-0.06511844,0.07123262,1.5173835,0.33855745,-0.5026402,1.57112,-0.16335487,0.10244295,-0.047872134,1.1491901,0.66380095
-0.1,0.1,0.7,0.5235987755982988,0.5235987755982988,0,0.34449428,1.1695758,0.08737248,-0.02423328,0.07826387,1.504381,0.333423,-0.4585281,1.5651746,-0.07772655,0.07375126,-0.037946686,1.1527779,0.54273635
-0.1,0.1,0.7,0.5235987755982988,0.5235987755982988,0,0.32592416,1.1983947,0.07194499,-0.07811216,0.09274501,1.507111,0.31291592,-0.45124674,1.5659947,-0.07295206,0.14006546,-0.11226646,1.1196254,0.5385988
-0.1,0.1,0.7,0.5235987755982988,0.5235987755982988,0,0.36691603,1.1361206,0.055800796,-0.02257298,0.09426172,1.5111023,0.3456123,-0.53937227,1.5869949,-0.10693956,0.07755955,-0.093257934,1.166656,0.6349914
-0.1,0.1,0.7,0.5235987755982988,0.5235987755982988,0,0.39286464,1.1517863,0.08314269,0.006964448,0.08150066,1.5153929,0.33093795,-0.44030878,1.5835474,-0.09909971,0.0680465,-0.07555826,1.1044651,0.8318253
-0.1,0.1,0.7,0.5235987755982988,0.5235987755982988,0,0.36905795,1.1904167,0.07207779,-0.032671846,0.05636722,1.4959277,0.3358975,-0.49711567,1.574524,-0.15449448,0.068890505,-0.16102265,1.1274868,0.56768256
-0.1,0.1,0.7,0.5235987755982988,0.5235987755982988,0,0.38924262,1.1840426,0.06224311,-0.027968865,0.037789196,1.5083914,0.3090664,-0.54216576,1.5763491,-0.07097054,0.08450812,-0.07995281,1.1283445,0.59992856
-0.1,0.1,0.7,0.5235987755982988,0.5235987755982988,0,0.37769523,1.1858373,0.06307621,-0.059292775,0.030143572,1.5065879,0.33275378,-0.4907243,1.5650173,-0.119477116,0.13962847,-0.034400743,1.1313744,0.5776512
-0.1,0.1,0.7,0.5235987755982988,0.5235987755982988,0,0.3750261,1.160818,0.07890202,-0.03741256,0.06956788,1.4994698,0.3458435,-0.50662625,1.5645144,-0.1091576,0.061440267,-0.14334458,1.1409231,0.60022974
-0.1,0.1,0.7,0.5235987755982988,0.5235987755982988,0,0.37536833,1.1816185,0.051999234,-0.091190934,0.02726847,1.506117,0.33664182,-0.39877978,1.5816886,-0.039118804,0.08299259,-0.141116,1.157489,0.5944696
-0.1,0.1,0.7,0.5235987755982988,0.5235987755982988,0,0.36473402,1.1848266,0.08526074,-0.056690082,0.09097846,1.4994589,0.33145687,-0.5202133,1.5921001,-0.12650219,0.08071944,-0.059707876,1.1354734,0.46950632
-0.1,0.1,0.7,0.5235987755982988,0.5235987755982988,0,0.3367037,1.1843973,0.07266484,-0.0011722868,0.099247664,1.4996091,0.3321876,-0.4512641,1.5770984,-0.05146842,0.114248306,-0.08565553,1.185245,0.60459936
-0.1,0.1,0.7,0.5235987755982988,0.5235987755982988,0,0.38306797,1.1668472,0.07878643,-0.06537893,0.021946948,1.4938577,0.3368438,-0.49589106,1.5609118,-0.13982782,0.118554644,-0.06682936,1.0845059,0.7071918
-0.1,0.1,0.7,0.5235987755982988,0.5235987755982988,0,0.36492598,1.2016598,0.071963795,-0.023515195,0.08288856,1.4870675,0.3357588,-0.51949555,1.5720721,-0.0707501,0.07041315,-0.10406598,1.1583371,0.7271762
-0.1,0.1,0.7,0.5235987755982988,0.5235987755982988,0,0.41780388,1.1599629,0.06465773,-0.023685047,0.1395566,1.4844583,0.32302317,-0.4768379,1.5529063,-0.03660869,0.10117423,-0.11784231,1.1083397,0.53182274
-0.1,0.1,0.7,0.5235987755982988,0.5235987755982988,0,0.3847553,1.1724635,0.09444238,0.020889545,0.097523175,1.484573,0.34650302,-0.40345344,1.5659463,-0.082189165,0.07265298,-0.08742484,1.1252335,0.65571344
-0.1,0.1,0.7,0.5235987755982988,0.5235987755982988,0,0.35867867,1.1854854,0.089537494,-0.029120475,0.1384396,1.5097325,0.34680697,-0.5830667,1.5900561,-0.10532658,0.16730982,-0.07285213,1.1315466,0.70002484
-0.1,0.1,0.7,0.5235987755982988,0.5235987755982988,0,0.37978265,1.2125641,0.08457907,-0.027370518,0.11460436,1.5017577,0.32898384,-0.44368163,1.567413,-0.1814963,0.1203037,-0.15742941,1.1077149,0.61358684
-0.1,0.1,0.7,0.5235987755982988,0.5235987755982988,0,0.35311335,1.2318743,0.08503029,-0.10250742,0.073513724,1.5040852,0.34407625,-0.4063221,1.5803331,-0.08738848,0.08460019,-0.040013604,1.1215699,0.7302411
-0.1,0.1,0.7,0.5235987755982988,0.5235987755982988,0,0.3693407,1.1845397,0.09650669,-0.045473296,0.091985755,1.4830576,0.31996566,-0.4279427,1.5683647,-0.15107742,0.105233185,-0.14748703,1.1448799,0.64095664
-0.1,0.1,0.7,0.5235987755982988,0.5235987755982988,0,0.4285366,1.1842117,0.09539146,-0.03531926,0.03684814,1.5079467,0.35352227,-0.46794894,1.5789875,-0.1045566,0.09655241,0.014344687,1.1427218,0.7392557
-0.1,0.1,0.7,0.5235987755982988,0.5235987755982988,0,0.37253353,1.2164534,0.09687683,-0.037472423,0.08853764,1.5039045,0.31881005,-0.6307779,1.5837561,-0.008277611,0.1441761,-0.067257516,1.1238339,0.56071424
-0.1,0.1,0.7,0.5235987755982988,0.5235987755982988,0,0.3681762,1.2795185,0.076053776,-0.086264074,0.09158576,1.4915646,0.3473232,-0.35156462,1.5748885,-0.12668775,0.068247385,-0.029090077,1.0562861,0.44049555
-0.1,0.1,0.7,0.5235987755982988,0.5235987755982988,0,0.36238313,1.0996743,0.07257175,0.0060540778,0.07422894,1.5060465,0.34274095,-0.56457424,1.5643216,-0.112862766,0.05107071,-0.022411276,1.1286279,0.81429386
-0.1,0.1,0.7,0.5235987755982988,0.5235987755982988,0,0.37045652,1.1578362,0.10126029,-0.03656826,0.081071906,1.5161927,0.37202385,-0.38512093,1.5822625,-0.088408045,0.10440919,-0.0072364374,1.1939899,0.6769977
-0.1,0.1,0.7,0.5235987755982988,0.5235987755982988,0,0.38327911,1.1621584,0.09947588,-0.009762044,0.08147849,1.502122,0.33518797,-0.42346463,1.5705385,-0.021472875,0.10512869,-0.10770797,1.1515553,0.5465475
-0.1,0.1,0.7,0.5235987755982988,0.5235987755982988,0,0.35305408,1.1969898,0.09807625,-0.027559634,0.053672787,1.5049403,0.29530105,-0.45033875,1.5725572,-0.07975997,0.11204326,-0.10171725,1.1301167,0.7305045
-0.1,0.1,0.7,0.5235987755982988,0.5235987755982988,0,0.36109826,1.1686803,0.10083404,0.02117693,0.07682836,1.4835496,0.31382763,-0.5126859,1.5680504,-0.09425947,0.11875162,-0.05761792,1.0802635,0.6075117
-0.1,0.1,0.7,0.5235987755982988,0.5235987755982988,0,0.41626787,1.1933473,0.06623273,-0.047046766,0.085908465,1.5031877,0.3362267,-0.4876315,1.5741582,-0.058414403,0.085994676,-0.09168123,1.1027777,0.70009977
-0.1,0.1,0.7,0.5235987755982988,0.5235987755982988,0,0.3766737,1.20348,0.070171796,-0.054799415,0.09433915,1.4972515,0.33950365,-0.52349913,1.5705144,-0.12640928,0.079605296,-0.084640995,1.170619,0.6251451
-0.1,0.1,0.7,0.5235987755982988,0.5235987755982988,0,0.36031988,1.025762,0.07440932,0.0018184573,0.08447251,1.5133934,0.32024455,-0.5557481,1.5714681,-0.1386957,0.068113714,-0.05468883,1.1390786,0.6000483
-0.1,0.1,0.7,0.5235987755982988,0.5235987755982988,0,0.38786784,1.0091258,0.095328085,-0.080346145,-0.03297757,1.4951324,0.3589456,-0.4540099,1.5756708,-0.21689728,0.116995014,0.049169973,1.0957891,0.6582834
-0.1,0.1,0.7,0.5235987755982988,0.5235987755982988,0,0.36806858,1.0740621,0.09284963,0.0024450931,0.090023324,1.4972965,0.36020795,-0.5063885,1.5772344,-0.10369105,0.1332106,-0.017763311,1.1437569,0.60878825
-0.1,0.1,0.7,0.5235987755982988,0.5235987755982988,0,0.37718984,1.056105,0.09409801,0.061957285,0.07095796,1.5074064,0.32236427,-0.5168174,1.5777991,-0.13775277,0.09884368,-0.053257287,1.1308932,0.6915005
-0.1,0.1,0.7,0.5235987755982988,0.5235987755982988,0,0.33418489,1.0554605,0.070535675,0.0031153776,0.058101326,1.499465,0.34172812,-0.5602427,1.5553217,-0.16455619,0.056424256,-0.07299576,1.1141641,0.5427578
-0.1,0.1,0.7,0.5235987755982988,0.5235987755982988,0,0.3919123,1.1138607,0.09352491,-0.07383034,0.12174522,1.4982394,0.36067224,-0.39760262,1.5743525,-0.15527481,0.1088416,-0.072145075,1.1788065,0.7206855
-0.1,0.1,0.7,0.5235987755982988,0.5235987755982988,0,0.37540728,1.0946754,0.068121985,-0.15356427,0.07971186,1.5023664,0.33330885,-0.4787461,1.5677623,-0.092233896,0.1006654,-0.09771402,1.1576225,0.78609765
-0.1,0.1,0.7,0.5235987755982988,0.5235987755982988,0,0.35499603,1.1012913,0.063569345,-0.014130978,0.07257472,1.515272,0.31897658,-0.37309152,1.5766735,-0.17019539,0.12611134,-0.034744795,1.1104434,0.5949134
-0.1,0.1,0.7,0.5235987755982988,0.5235987755982988,0,0.3733327,1.1137087,0.05758815,0.04067177,0.09848171,1.5105693,0.33969158,-0.5597445,1.5896515,-0.109243944,0.084404096,-0.11296503,1.1551069,0.6573894
-0.1,0.1,0.7,0.5235987755982988,0.5235987755982988,0,0.34087533,1.16757,0.08224453,-0.053409904,0.074515246,1.5004952,0.35419235,-0.55835706,1.5713927,-0.09339113,0.100726984,-0.04284782,1.1108242,0.6448532
-0.1,0.1,0.7,0.5235987755982988,0.5235987755982988,0,0.35065532,1.1910783,0.09407196,-0.06898685,0.07720346,1.5031692,0.35555032,-0.5534644,1.5646843,-0.13502425,0.15265113,-0.12367004,1.1885297,0.68121266
-0.1,0.1,0.7,0.5235987755982988,0.5235987755982988,0,0.37523994,1.1265835,0.046588052,0.029247751,0.054520782,1.5085117,0.31387538,-0.49289247,1.5846705,-0.09190239,0.08597234,-0.06938739,1.1310171,0.5907165
-0.1,0.1,0.7,0.5235987755982988,0.5235987755982988,0,0.37756112,1.1090841,0.0743028,0.01621181,0.0999137,1.5082606,0.33954155,-0.670545,1.5615629,-0.10082629,0.10570321,-0.11555914,1.1605462,0.7164666
-0.1,0.1,0.7,0.5235987755982988,0.5235987755982988,0,0.37311617,1.1546268,0.081538364,-0.020470658,0.095511094,1.5122824,0.29413578,-0.5071965,1.5796616,-0.10352266,0.11658781,-0.06857806,1.1390996,0.73296404
-0.1,0.1,0.7,0.5235987755982988,0.5235987755982988,0,0.34620863,1.1514508,0.051792014,0.0012637668,0.12186262,1.5059968,0.33605206,-0.6313131,1.5739056,-0.12711705,0.06835419,-0.05451103,1.1168168,0.7024913
-0.1,0.1,0.7,0.5235987755982988,0.5235987755982988,0,0.3838191,1.109948,0.083884396,0.019537358,0.03241211,1.5114272,0.35078302,-0.54377186,1.5797961,-0.14197263,0.09385056,-0.049818076,1.151201,0.59079015
-0.1,0.1,0.7,0.5235987755982988,0.5235987755982988,0,0.37728503,1.122153,0.09281792,0.0058906665,0.06910644,1.5062813,0.30790445,-0.51119053,1.5658656,-0.11363625,0.117123954,-0.057435554,1.1358198,0.6814262
-0.1,0.1,0.7,0.5235987755982988,0.5235987755982988,0,0.37693247,1.164085,0.045829564,-0.0074843126,0.064000264,1.5046649,0.31500855,-0.51350224,1.5530901,-0.15453629,0.10702521,-0.055294387,1.1369292,0.74818593
-0.1,0.1,0.7,0.5235987755982988,0.5235987755982988,0,0.3596522,1.1403321,0.09585169,-0.0035377033,0.12576166,1.5067438,0.3291013,-0.4851505,1.5540099,-0.11026257,0.10461209,-0.065703556,1.1226116,0.5456813
-0.1,0.1,0.7,0.5235987755982988,0.5235987755982988,0,0.3552442,1.1484882,0.06908169,-0.0121554965,0.105073944,1.5079108,0.3415709,-0.58186334,1.5704405,-0.11431392,0.09218305,-0.018844664,1.1166677,0.6755094
-0.1,0.1,0.7,0.5235987755982988,0.5235987755982988,0,0.3878626,1.114783,0.093249984,-0.019336548,0.06707861,1.5083584,0.3376711,-0.47880495,1.5538977,-0.123789355,0.14221506,-0.052920956,1.1352957,0.5930498
-0.1,0.1,0.7,0.5235987755982988,0.5235987755982988,0,0.36084867,1.0801852,0.061216548,0.06055392,0.078235134,1.4830408,0.31792513,-0.48585805,1.5840001,-0.11226758,0.11558488,-0.019301772,1.1652179,0.61463475
-0.1,0.1,0.7,0.5235987755982988,0.5235987755982988,0,0.37715337,1.1681917,0.06782657,-0.043781783,0.04663584,1.5122736,0.32741994,-0.4856413,1.5814412,-0.10559811,0.09318177,-0.042402674,1.1343781,0.7260978
-0.1,0.1,0.7,0.5235987755982988,0.5235987755982988,0,0.39388588,1.1604233,0.07316499,-0.046323348,0.031022655,1.5070467,0.2923399,-0.52028584,1.5706496,-0.11936949,0.109317906,-0.09589988,1.1384326,0.7257042
-0.1,0.1,0.7,0.5235987755982988,0.5235987755982988,0,0.3974186,1.14813,0.09574085,-0.001159241,0.09564096,1.5127149,0.3428057,-0.4603254,1.5854725,-0.13247612,0.08469128,-0.052787244,1.1499742,0.6605202
-0.1,0.1,0.7,0.5235987755982988,0.5235987755982988,0,0.40023157,1.1434793,0.07473623,-0.0784827,0.07754386,1.4853433,0.33054996,-0.4982598,1.576862,-0.13530473,0.07948467,-0.056523368,1.1569673,0.60826236
-0.1,0.1,0.7,0.5235987755982988,0.5235987755982988,0,0.39346817,1.1187491,0.094187364,-0.015618897,0.07001786,1.5095071,0.2988444,-0.4534154,1.5835291,-0.10903919,0.06631399,-0.04927858,1.1269015,0.723873
-0.1,0.1,0.7,0.5235987755982988,0.5235987755982988,0,0.3688513,1.1406267,0.076456785,-0.022986738,0.0856786,1.5039009,0.33688083,-0.39332485,1.5646343,-0.104479395,0.094802566,-0.0072444933,1.1633813,0.72961354
-0.1,0.1,0.7,0.5235987755982988,0.5235987755982988,0,0.34137064,1.1446172,0.0738443,-0.00802816,0.07852711,1.5036365,0.32422805,-0.39640903,1.5826911,-0.1511312,0.09516179,-0.06398596,1.1349553,0.66603804
-0.1,0.1,0.7,0.5235987755982988,0.5235987755982988,0,0.38452017,1.1107401,0.07571471,-0.030503904,0.056773704,1.5030354,0.34019503,-0.41412622,1.5892398,-0.093252115,0.08988842,-0.07643934,1.149197,0.707076
-0.1,0.1,0.7,0.5235987755982988,0.5235987755982988,0,0.35698503,1.1621926,0.077839404,0.004578346,0.04640293,1.5100958,0.34578288,-0.51536685,1.5624111,-0.13875957,0.097034544,-0.056896318,1.0963438,0.5503076
-0.1,0.1,0.7,0.5235987755982988,0.5235987755982988,0,0.40548038,1.1493224,0.07134336,-0.011494943,0.052718654,1.4932226,0.32521427,-0.4608834,1.5686343,-0.06987468,0.12974179,-0.06337539,1.154062,0.57574254
-0.1,0.1,0.7,0.5235987755982988,0.5235987755982988,0,0.35903165,1.1585714,0.09032164,-0.026266836,0.046045378,1.5209373,0.3544643,-0.5272772,1.5720606,-0.12038636,0.10916568,-0.038199544,1.1195818,0.61463565
-0.1,0.1,0.7,0.5235987755982988,0.5235987755982988,0,0.40067142,1.1836532,0.054917965,-0.032984603,0.09406346,1.5070314,0.34225693,-0.5587406,1.5501071,-0.13688879,0.06258167,-0.094677314,1.1814178,0.7150608
-0.1,0.1,0.7,0.5235987755982988,0.5235987755982988,0,0.36046183,1.1734945,0.08681767,-0.04260043,0.08803987,1.4939337,0.31955305,-0.5072066,1.5685391,-0.1277017,0.10769665,-0.05996053,1.1874663,0.64214784
-0.1,0.1,0.7,0.5235987755982988,0.5235987755982988,0,0.3668406,1.1493587,0.09171249,-0.005834223,0.08014534,1.4939831,0.3154859,-0.52502733,1.5634514,-0.115291774,0.067387246,-0.09303595,1.1586046,0.7129893
-0.1,0.1,0.7,0.5235987755982988,0.5235987755982988,0,0.38711417,1.1770834,0.044277284,-0.036038417,0.08298546,1.5038443,0.34067577,-0.57189524,1.5771625,-0.09340916,0.1083982,-0.034570914,1.1600461,0.7083041
-0.1,0.1,0.7,0.5235987755982988,0.5235987755982988,0,0.3822088,1.1264817,0.08883449,0.013006124,0.07614021,1.506589,0.35133755,-0.54667026,1.580248,-0.100052215,0.07058416,-0.12901407,1.1353806,0.6761168
-0.1,0.1,0.7,0.5235987755982988,0.5235987755982988,0,0.35427484,1.146206,0.038933426,-0.004491424,0.095024094,1.5059185,0.3350487,-0.59611154,1.5732617,-0.09309732,0.063133754,-0.08288776,1.1528959,0.5267154
-0.1,0.1,0.7,0.5235987755982988,0.5235987755982988,0,0.36439568,1.1081282,0.08364279,-0.025294706,0.043991026,1.5054204,0.3125173,-0.4867981,1.5502297,-0.13847284,0.0786901,-0.02436395,1.1122445,0.8234293
-0.1,0.1,0.7,0.5235987755982988,0.5235987755982988,0,0.3525753,1.1451907,0.094069995,0.020899208,0.07520958,1.5197074,0.32081038,-0.5859988,1.5813524,-0.1028295,0.09215484,-0.047788538,1.1427,0.5281328
-0.1,0.1,0.7,0.5235987755982988,0.5235987755982988,0,0.39057449,1.1393381,0.09978499,-0.094266415,0.052976307,1.4908992,0.3085652,-0.4669812,1.5726433,-0.14319506,0.078224435,-0.06930604,1.1099588,0.8066504
-0.1,0.1,0.7,0.5235987755982988,0.5235987755982988,0,0.35949412,1.1989725,0.09307628,0.003737118,0.044340122,1.5002046,0.30315772,-0.5377158,1.5606651,-0.16051944,0.094456,-0.07236612,1.1407992,0.6186324
-0.1,0.1,0.7,0.5235987755982988,0.5235987755982988,0,0.34227005,1.1534934,0.07477356,-0.033499792,0.09106307,1.5081875,0.31769344,-0.48311403,1.5736678,-0.12297207,0.09219031,0.036489718,1.1441048,0.7220527
-0.1,0.1,0.7,0.5235987755982988,0.5235987755982988,0,0.39053965,1.1387879,0.0625039,0.027219165,0.043857757,1.4862367,0.3372386,-0.49537998,1.569644,-0.08009859,0.06530821,-0.15302351,1.1294792,0.7954452
-0.1,0.1,0.7,0.5235987755982988,0.5235987755982988,0,0.39470565,1.1109762,0.06690115,-0.03305871,0.016573407,1.4861003,0.3739715,-0.5402493,1.584537,-0.07834543,0.14078762,-0.07626554,1.1184278,0.773204
-0.1,0.1,0.7,0.5235987755982988,0.5235987755982988,0,0.36552766,1.1580349,0.048609953,-0.00072267884,0.08831234,1.5188231,0.33661833,-0.5400516,1.5534052,-0.12472009,0.10314021,-0.09073774,1.1478677,0.52340996
-0.1,0.1,0.7,0.5235987755982988,0.5235987755982988,0,0.36284193,1.14927,0.080998115,-0.025986223,0.049511448,1.4997197,0.33212674,-0.53337365,1.5841701,-0.054590862,0.11781998,-0.03911062,1.1371975,0.7465782
-0.1,0.1,0.7,0.5235987755982988,0.5235987755982988,0,0.36553577,1.1585007,0.07170153,-0.012731029,0.09184327,1.5070575,0.3190176,-0.4813082,1.5776134,-0.109271035,0.113952704,-0.05484544,1.1370509,0.6186106
-0.1,0.1,0.7,0.5235987755982988,0.5235987755982988,0,0.35551396,1.1798851,0.07879422,0.0070009828,0.09140521,1.5031276,0.32574576,-0.524335,1.5970842,-0.17851736,0.09720955,-0.027563443,1.139021,0.7325644
-0.1,0.1,0.7,0.5235987755982988,0.5235987755982988,0,0.37504178,1.1489817,0.062843144,-0.017927315,0.12723954,1.497824,0.29616478,-0.52142584,1.5715885,-0.11462761,0.10381215,-0.077149786,1.0920236,0.7122675
-0.1,0.1,0.7,0.5235987755982988,0.5235987755982988,0,0.39221853,1.1656358,0.077068724,-0.035604242,0.1314694,1.5036865,0.32142785,-0.50110847,1.5612255,-0.10740054,0.10752039,-0.11042607,1.1341882,0.668788
-0.1,0.1,0.7,0.5235987755982988,0.5235987755982988,0,0.36023384,1.1484946,0.09659957,-0.005891391,0.0637894,1.5007452,0.33570063,-0.51009756,1.5670978,-0.1567402,0.1292011,-0.046751894,1.1490415,0.70371455
-0.1,0.1,0.7,0.5235987755982988,0.5235987755982988,0,0.38222095,1.177715,0.08873178,-0.008433502,0.08568115,1.501207,0.31577522,-0.5288787,1.5687054,-0.087114796,0.091443725,-0.022199223,1.1246003,0.69149965
-0.1,0.1,0.7,0.5235987755982988,0.5235987755982988,0,0.38010937,1.1663266,0.08893997,-0.04905013,0.09665115,1.5159792,0.32237744,-0.45606592,1.5959004,-0.073442295,0.099190995,-0.07261954,1.1673021,0.6100638
-0.1,0.1,0.7,0.5235987755982988,0.5235987755982988,0,0.39501977,1.1532705,0.060864575,-0.01706811,0.055718184,1.4890777,0.32623485,-0.4515637,1.5791999,-0.15343909,0.09729651,-0.049048614,1.0719767,0.7566155
-0.1,0.1,0.7,0.5235987755982988,0.5235987755982988,0,0.36324322,1.1321443,0.07420678,-0.01044613,0.09508223,1.4942777,0.33289504,-0.52079225,1.5817198,-0.095131,0.11480555,-0.11281934,1.1742284,0.6180628
-0.1,0.1,0.7,0.5235987755982988,0.5235987755982988,0,0.3679711,1.1752001,0.06835674,-0.05764841,0.09443093,1.5128586,0.32095924,-0.58291066,1.5740474,-0.13859378,0.14083204,-0.03220385,1.1724269,0.52253544
-0.1,0.1,0.7,0.5235987755982988,0.5235987755982988,0,0.35085598,1.2031862,0.08186179,-0.07371196,0.05857553,1.4976115,0.30668655,-0.49888074,1.5745357,-0.10955763,0.09068133,-0.09184655,1.1268996,0.645419
-0.1,0.1,0.7,0.5235987755982988,0.5235987755982988,0,0.40705866,1.1383654,0.055616643,0.01553848,0.059615463,1.5090041,0.30460858,-0.49323556,1.5524518,-0.16010942,0.115664996,-0.07720382,1.1618748,0.73889214
-0.1,0.1,0.7,0.5235987755982988,0.5235987755982988,0,0.35086364,1.1490527,0.082602315,0.0016218696,0.094291486,1.4983428,0.32533434,-0.3962347,1.5813237,-0.08483373,0.09848761,-0.066298015,1.1764365,0.73581904
-0.1,0.1,0.7,0.5235987755982988,0.5235987755982988,0,0.34148914,1.187569,0.08087337,-0.034017056,0.08931607,1.5066671,0.3348821,-0.45129463,1.5821807,-0.11900959,0.15231526,-0.0847966,1.1473033,0.6440064
-0.1,0.1,0.7,0.5235987755982988,0.5235987755982988,0,0.3618224,1.1763462,0.047194228,-0.05295416,0.072532706,1.5040988,0.34157088,-0.55150664,1.5737221,-0.15579452,0.11572304,-0.014413264,1.1627634,0.59598064
-0.1,0.1,0.7,0.5235987755982988,0.5235987755982988,0,0.38950515,1.1082492,0.081389844,0.05705533,0.061907053,1.471374,0.31659678,-0.5512495,1.5772809,-0.07390337,0.082501575,-0.11325124,1.1752151,0.6056012
-0.1,0.1,0.7,0.5235987755982988,0.5235987755982988,0,0.35787776,1.216317,0.077961855,-0.024392428,0.08158621,1.5115929,0.34468603,-0.4654639,1.5738813,-0.07412248,0.084736474,-0.18600637,1.1372555,0.735137
-0.1,0.1,0.7,0.5235987755982988,0.5235987755982988,0,0.3564282,1.1751922,0.07696715,-0.0023330187,0.070045896,1.4999704,0.3349134,-0.4734099,1.5692911,-0.16519037,0.09933386,-0.043112297,1.1161076,0.5740617
-0.1,0.1,0.7,0.5235987755982988,0.5235987755982988,0,0.35743284,1.1455079,0.090102196,-0.0056024557,0.033531245,1.4845225,0.2968709,-0.45653978,1.5694383,-0.059394713,0.067793995,-0.058304794,1.1382452,0.62199396
-0.1,0.1,0.7,0.5235987755982988,0.5235987755982988,0,0.3760037,1.1618617,0.06216247,-0.068361364,0.08381066,1.5013542,0.30353317,-0.55650085,1.5789392,-0.12619676,0.090258956,-0.101797104,1.1540151,0.6983676
-0.1,0.1,0.7,0.5235987755982988,0.5235987755982988,0,0.38040486,1.2270968,0.07955649,-0.066112794,0.088380925,1.5059806,0.33315855,-0.5119481,1.5967543,-0.13040777,0.092339896,-0.06912374,1.1746343,0.52239645
-0.1,0.1,0.7,0.5235987755982988,0.5235987755982988,0,0.37059277,1.2023948,0.10811503,-0.07075549,0.074734114,1.5002463,0.30319396,-0.44342768,1.5588166,-0.086369276,0.117575936,-0.08392561,1.0784193,0.76816094
-0.1,0.1,0.7,0.5235987755982988,0.5235987755982988,0,0.34563205,1.1827976,0.08023944,-0.08916123,0.056402806,1.5099947,0.321763,-0.4649958,1.5653404,-0.14505586,0.033116683,-0.11464136,1.1220678,0.7513592
-0.1,0.1,0.7,0.5235987755982988,0.5235987755982988,0,0.34467426,1.1922271,0.07877718,-0.02962811,0.025839018,1.51528,0.3311763,-0.51552737,1.5690514,-0.09074084,0.104684934,-0.047929708,1.1011564,0.56648505
-0.1,0.1,0.7,0.5235987755982988,0.5235987755982988,0,0.38600448,1.1661865,0.06252692,-0.09847236,0.11659939,1.5036913,0.3478268,-0.44470382,1.5579727,-0.08983887,0.14545569,-0.014306696,1.1205825,0.54052943
-0.1,0.1,0.7,0.5235987755982988,0.5235987755982988,0,0.38703933,1.1705476,0.066274,0.000994092,0.08353944,1.5131866,0.298942,-0.51927423,1.5466087,-0.17138454,0.0926487,-0.086075805,1.0960442,0.720446
-0.1,0.1,0.7,0.5235987755982988,0.5235987755982988,0,0.36563858,1.1927673,0.09894757,-0.06289012,0.081403635,1.4983238,0.31683436,-0.5341633,1.5731924,-0.10389542,0.1171047,-0.06720631,1.1302077,0.5566781
-0.1,0.1,0.7,0.5235987755982988,0.5235987755982988,0,0.40690464,1.1504027,0.07311054,-0.043975227,0.1190832,1.4996233,0.29088548,-0.4537226,1.5800792,-0.11612148,0.09151573,-0.04402346,1.1529821,0.6148266
-0.1,0.1,0.7,0.5235987755982988,0.5235987755982988,0,0.36973768,1.1815083,0.05264946,-0.013093592,0.09579371,1.49864,0.3438804,-0.49118438,1.6000917,-0.09041656,0.090788126,-0.18255273,1.1909431,0.74439293
-0.1,0.1,0.7,0.5235987755982988,0.5235987755982988,0,0.3751437,1.195839,0.06499453,-0.023842925,0.051577546,1.5004961,0.31562376,-0.3722143,1.554922,-0.07167918,0.10120529,-0.14677219,1.1579818,0.61342365
-0.1,0.1,0.7,0.5235987755982988,0.5235987755982988,0,0.33743525,1.1734607,0.10263556,-0.006525019,0.112799965,1.5037923,0.3283156,-0.5174371,1.5871806,-0.070337884,0.14623988,-0.03539647,1.1038046,0.5712333
-0.1,0.1,0.7,0.5235987755982988,0.5235987755982988,0,0.3624694,1.1812365,0.065196656,-0.065583505,0.03760727,1.5111449,0.33540517,-0.5527725,1.5701425,-0.12977678,0.032456193,-0.06641542,1.1552763,0.62563086
-0.1,0.1,0.7,0.5235987755982988,0.5235987755982988,0,0.36105546,1.1558316,0.077593036,0.073148474,0.087531924,1.5078604,0.31319505,-0.46919796,1.5675595,-0.11122387,0.09170745,-0.116100535,1.0918648,0.51425064
-0.1,0.1,0.7,0.5235987755982988,0.5235987755982988,0,0.36735615,1.1958559,0.056649238,-0.054433092,0.11173674,1.5021046,0.35266876,-0.485972,1.5685354,-0.07692361,0.099189736,-0.01074056,1.1644568,0.5135173
-0.1,0.1,0.7,0.5235987755982988,0.5235987755982988,0,0.35689,1.1905696,0.06426178,-0.034307417,0.059905242,1.4993318,0.33392096,-0.54571223,1.567222,-0.13470869,0.13086939,-0.07716158,1.1254791,0.60069734
-0.1,0.1,0.7,0.5235987755982988,0.5235987755982988,0,0.36377564,1.1520679,0.06704268,0.0030314077,0.078733556,1.5079834,0.33839864,-0.5856617,1.5416635,-0.1392475,0.13194022,-0.041237764,1.1837163,0.5301735
-0.1,0.1,0.7,0.5235987755982988,0.5235987755982988,0,0.3427735,1.1731334,0.08257389,-0.012320532,0.08071054,1.5060331,0.3116969,-0.4661311,1.5843111,-0.16904652,0.082929194,-0.09737016,1.1259782,0.6027597
-0.1,0.1,0.7,0.5235987755982988,0.5235987755982988,0,0.37006855,1.1970731,0.097492665,-0.035143096,0.1143124,1.4951043,0.2945095,-0.49523333,1.576876,-0.07716997,0.07122823,-0.060880776,1.1327091,0.5522552
-0.1,0.1,0.7,0.5235987755982988,0.5235987755982988,0,0.36686972,1.164706,0.08697085,-0.027919915,0.1239887,1.499472,0.29964656,-0.4839519,1.5665336,-0.0867773,0.115111135,-0.05031301,1.1400006,0.49548504
-0.1,0.1,0.7,0.5235987755982988,0.5235987755982988,0,0.4077727,1.1390768,0.08467644,0.022383058,0.08409435,1.4944643,0.32465407,-0.50152785,1.5638192,-0.07796425,0.12478497,-0.11198035,1.1200379,0.731479
-0.1,0.1,0.7,0.5235987755982988,0.5235987755982988,0,0.3825235,1.1651275,0.08761583,0.014625345,0.06612091,1.486351,0.30794403,-0.55231977,1.5652374,-0.10473093,0.079784065,-0.07279365,1.1094419,0.5559909
-0.1,0.1,0.7,0.5235987755982988,0.5235987755982988,0,0.40556404,1.1899096,0.103270374,-0.119085595,0.07073716,1.5034472,0.31902897,-0.41186228,1.5788872,-0.11290406,0.10953694,-0.056563053,1.0937318,0.6442572
-0.1,0.1,0.7,0.5235987755982988,0.5235987755982988,0,0.3779694,1.1893455,0.043270227,-0.06093146,0.119647615,1.4999264,0.32589433,-0.43811724,1.5668849,-0.13331118,0.052385624,-0.00074592483,1.1345615,0.7614362
-0.1,0.1,0.7,0.5235987755982988,0.5235987755982988,0,0.35697904,1.180508,0.08493834,0.0022753228,0.08019815,1.5082593,0.3259685,-0.5086458,1.5687999,-0.08328941,0.0952223,-0.1540433,1.201795,0.61265665
-0.1,0.1,0.7,0.5235987755982988,0.5235987755982988,0,0.36280605,1.1788032,0.07837425,0.010471188,0.077231154,1.5093524,0.3289673,-0.5686027,1.5716128,-0.10457594,0.11141783,-0.020378763,1.0881056,0.73045367
-0.1,0.1,0.7,0.5235987755982988,0.5235987755982988,0,0.35540006,1.1850011,0.07605181,-0.06275743,0.041439135,1.504538,0.3254112,-0.46832374,1.5752851,-0.11431396,0.08508695,-0.10493228,1.1212705,0.71720827
-0.1,0.1,0.7,0.5235987755982988,0.5235987755982988,0,0.36585367,1.1429939,0.07308121,0.005487978,0.043660197,1.496501,0.32483375,-0.4893854,1.5673648,-0.06880028,0.0977684,-0.07248851,1.1379945,0.57367253
-0.1,0.1,0.7,0.5235987755982988,0.5235987755982988,0,0.36189568,1.1853917,0.0892442,-0.07586048,0.05458614,1.509331,0.3286772,-0.5050886,1.5757955,-0.07811559,0.06372346,-0.10714375,1.1296678,0.55914766
-0.1,0.1,0.7,0.5235987755982988,0.5235987755982988,0,0.3528763,1.1901053,0.08339182,-0.052940905,0.059911937,1.483473,0.31584013,-0.4797703,1.5625095,-0.13563918,0.06070746,-0.077271156,1.147661,0.5623929
-0.1,0.1,0.7,0.5235987755982988,0.5235987755982988,0,0.38779518,1.1958071,0.095124565,-0.029209515,0.037705246,1.4914176,0.3170043,-0.4565684,1.5495139,-0.08749189,0.098526135,-0.092926085,1.1499674,0.39224383
-0.1,0.1,0.7,0.5235987755982988,0.5235987755982988,0,0.36359814,1.213587,0.094535984,-0.057663783,0.10659223,1.5053223,0.3377286,-0.46553424,1.5659137,-0.13183011,0.11789462,-0.047054246,1.181367,0.578792
-0.1,0.1,0.7,0.5235987755982988,0.5235987755982988,0,0.37758246,1.1986791,0.07031499,-0.053240538,0.06326584,1.504073,0.33971283,-0.5153903,1.559744,-0.091280095,0.05226453,-0.010522434,1.1803883,0.60592407
-0.1,0.1,0.7,0.5235987755982988,0.5235987755982988,0,0.37995458,1.2060606,0.07546394,-0.07098243,0.07870713,1.5093924,0.3210163,-0.5554561,1.5755144,-0.11016527,0.07058379,-0.14175598,1.1508389,0.5796909
-0.1,0.1,0.7,0.5235987755982988,0.5235987755982988,0,0.39461353,1.1995511,0.10028095,-0.10829063,0.06104344,1.5043372,0.3290454,-0.48664346,1.580251,-0.07466821,0.063585296,-0.13242479,1.0989561,0.6579506
-0.1,0.1,0.7,0.5235987755982988,0.5235987755982988,0,0.3618343,1.1909024,0.0674427,-0.005953902,0.08556401,1.5271559,0.3259664,-0.5890201,1.5838403,-0.108322084,0.11108022,-0.06995158,1.1945144,0.60798204
-0.1,0.1,0.7,0.5235987755982988,0.5235987755982988,0,0.38289177,1.1941326,0.02897629,-0.018508412,0.088057734,1.5299897,0.30733728,-0.39204362,1.5767074,-0.11326366,0.10764431,-0.056388073,1.1029104,0.58152467
-0.1,0.1,0.7,0.5235987755982988,0.5235987755982988,0,0.39333716,1.1562662,0.050653197,0.013764907,0.103659965,1.4972714,0.31690192,-0.4594915,1.5638711,-0.17802793,0.09485982,-0.0701101,1.1204581,0.72364813
-0.1,0.1,0.7,0.5235987755982988,0.5235987755982988,0,0.40287083,1.2049164,0.060265724,-0.09631138,0.100407615,1.506927,0.34787866,-0.48801553,1.5667994,-0.13344724,0.098003425,-0.028326195,1.1181035,0.5705431
-0.1,0.1,0.7,0.5235987755982988,0.5235987755982988,0,0.35177764,1.1817747,0.059463706,0.004589551,0.08101091,1.4846326,0.34161252,-0.4615348,1.5654236,-0.07320569,0.1104918,-0.14950578,1.1152054,0.5953595
-0.1,0.1,0.7,0.5235987755982988,0.5235987755982988,0,0.34885022,1.2258477,0.049299467,-0.08249117,0.060659695,1.5102404,0.33117384,-0.5051221,1.5536321,-0.116141394,0.08946355,-0.06668868,1.1094068,0.35760126
-0.1,0.1,0.7,0.5235987755982988,0.5235987755982988,0,0.40324378,1.1856036,0.07952599,-0.09631758,0.100380294,1.501774,0.3709594,-0.4155916,1.5836463,-0.08931763,0.08248394,-0.036556646,1.1632093,0.59033567
-0.1,0.1,0.7,0.5235987755982988,0.5235987755982988,0,0.40250963,1.171322,0.08878788,-0.0071026734,0.0776873,1.4848293,0.2964289,-0.42420763,1.578158,-0.10167107,0.03859605,-0.13148296,1.1328369,0.57337546
-0.1,0.1,0.7,0.5235987755982988,0.5235987755982988,0,0.38803145,1.1733468,0.065712415,-0.07449812,0.08389981,1.5048287,0.33580863,-0.55600274,1.5619086,-0.030161813,0.10382136,-0.052713197,1.1524389,0.76535475
-0.1,0.1,0.7,0.5235987755982988,0.5235987755982988,0,0.38941517,1.2216023,0.062413655,-0.10263876,0.10839795,1.5163724,0.32439977,-0.61603594,1.5746005,-0.08084554,0.10119977,0.00068798417,1.1563512,0.8127115
-0.1,0.1,0.7,0.5235987755982988,0.5235987755982988,0,0.3707624,1.2284597,0.07693983,-0.039818354,0.07447178,1.5040427,0.3382664,-0.6223053,1.586982,-0.14120515,0.09115681,-0.0918975,1.0667073,0.62525606
-0.1,0.1,0.7,0.5235987755982988,0.5235987755982988,0,0.37722299,1.1993864,0.07362202,-0.033167627,0.09603777,1.490029,0.33549428,-0.4953196,1.5708169,-0.12308195,0.05106521,-0.068855524,1.1459225,0.596973
-0.1,0.1,0.7,0.5235987755982988,0.5235987755982988,0,0.403395,1.1858188,0.063801356,-0.020713478,0.0635118,1.4809657,0.28358874,-0.46815503,1.59302,-0.08643985,0.086769156,-0.13449107,1.1373043,0.6964594
-0.1,0.1,0.7,0.5235987755982988,0.5235987755982988,0,0.42304444,1.1690308,0.091161765,0.0023378888,0.10668508,1.4959916,0.35472533,-0.51496494,1.5650176,-0.12974668,0.083152294,-0.010044469,1.177612,0.65073466
-0.1,0.1,0.7,0.5235987755982988,0.5235987755982988,0,0.37274063,1.1978419,0.07860496,-0.07525619,0.05942364,1.4741781,0.3454318,-0.47099555,1.5794244,-0.09540188,0.105555706,-0.128378,1.1123544,0.6342273
-0.1,0.1,0.7,0.5235987755982988,0.5235987755982988,0,0.3703769,1.1892312,0.10616855,0.010026447,0.10802437,1.4897205,0.30864307,-0.4485107,1.5682459,-0.1185532,0.122422345,-0.10751783,1.1572632,0.66212845
-0.1,0.1,0.7,0.5235987755982988,0.5235987755982988,0,0.38178146,1.2184665,0.0651251,-0.035562944,0.08034624,1.4901707,0.33528525,-0.48406833,1.571155,-0.11606302,0.105163336,-0.035906292,1.1658258,0.64473796
-0.1,0.1,0.7,0.5235987755982988,0.5235987755982988,0,0.3870814,1.1919816,0.08810805,-0.023134608,0.110641636,1.5081362,0.33385167,-0.49212435,1.578867,-0.13421363,0.082560055,-0.08089891,1.1613132,0.6047451
-0.1,0.1,0.7,0.5235987755982988,0.5235987755982988,0,0.37392452,1.1870171,0.08888771,-0.04306168,0.100667894,1.4840634,0.2743864,-0.50241154,1.5628244,-0.1487325,0.113230065,0.015875487,1.1865253,0.68154836
-0.1,0.1,0.7,0.5235987755982988,0.5235987755982988,0,0.3607716,1.1679054,0.10642587,-0.068709955,0.100395404,1.4881012,0.2939703,-0.5535995,1.5771747,-0.13048804,0.117717944,-0.07160267,1.1840304,0.5744415
-0.1,0.1,0.7,0.5235987755982988,0.5235987755982988,0,0.39252093,1.20007,0.095855966,-0.016627299,0.08053535,1.5175782,0.30341604,-0.45200396,1.580758,-0.10522257,0.08877678,-0.1146943,1.1516981,0.6143208
-0.1,0.1,0.7,0.5235987755982988,0.5235987755982988,0,0.38132152,1.2197865,0.08978546,-0.036384653,0.13642235,1.504195,0.3228531,-0.5190408,1.5848608,-0.12266098,0.13193463,-0.03597624,1.0977669,0.6110663
-0.1,0.1,0.7,0.5235987755982988,0.5235987755982988,0,0.3969169,1.182941,0.07202901,-0.0014866015,0.07869853,1.5104429,0.32871628,-0.40946564,1.5588236,-0.10869057,0.1667928,-0.05188815,1.1185954,0.65812594
-0.1,0.1,0.7,0.5235987755982988,0.5235987755982988,0,0.37040764,1.1903342,0.0768692,0.049760144,0.096249,1.5111192,0.29522067,-0.51326483,1.5625365,-0.07701854,0.10371125,-0.024822406,1.1394697,0.55259836
-0.1,0.1,0.7,0.5235987755982988,0.5235987755982988,0,0.37138197,1.1950233,0.09053641,-0.025474243,0.1001395,1.4999818,0.308492,-0.5155673,1.5967162,-0.111045815,0.118815236,-0.12081372,1.115376,0.5715127
-0.1,0.1,0.7,0.5235987755982988,0.5235987755982988,0,0.39519766,1.1728139,0.08494424,-0.03402126,0.1260215,1.4923532,0.27612054,-0.5032426,1.5760009,-0.13773455,0.0956861,6.368905e-05,1.1081611,0.73167443
-0.1,0.1,0.7,0.5235987755982988,0.5235987755982988,0,0.35206366,1.1425939,0.06602673,0.013129136,0.028710607,1.4914753,0.32772005,-0.4235033,1.5694379,-0.16620198,0.032685403,-0.05978043,1.1365323,0.56746435
-0.1,0.1,0.7,0.5235987755982988,0.5235987755982988,0,0.4103269,1.1886562,0.07230588,0.008342028,0.031948127,1.5015296,0.3324794,-0.5123875,1.5578191,-0.041942805,0.119066626,-0.103518456,1.172184,0.61068153
-0.1,0.1,0.7,0.5235987755982988,0.5235987755982988,0,0.39297378,1.2336142,0.10085981,-0.076710075,0.025243858,1.5011045,0.28942707,-0.46588776,1.598379,-0.10188036,0.09855148,-0.11781395,1.16832,0.78754956
-0.1,0.1,0.7,0.5235987755982988,0.5235987755982988,0,0.38097394,1.2527137,0.07831591,-0.07271283,0.1062344,1.5069987,0.35421914,-0.4466539,1.583191,-0.11775913,0.09681845,-0.07133456,1.1429455,0.6683862
-0.1,0.1,0.7,0.5235987755982988,0.5235987755982988,0,0.37501174,1.2163095,0.078693494,-0.011940146,0.091647476,1.5184796,0.34115922,-0.50038034,1.5789069,-0.08665264,0.12731807,-0.12113708,1.1449605,0.49245554
-0.1,0.1,0.7,0.5235987755982988,0.5235987755982988,0,0.37893778,1.1922076,0.060255907,-0.01713999,0.10743952,1.5039605,0.33060184,-0.5731868,1.5652359,-0.0925646,0.06417781,-0.013528597,1.1599927,0.63466
-0.1,0.1,0.7,0.5235987755982988,0.5235987755982988,0,0.36320037,1.2325724,0.07041603,-0.03054211,0.04325696,1.5003011,0.2949646,-0.46240616,1.5699716,-0.12311812,0.10630071,-0.08349779,1.1289496,0.45634583
-0.1,0.1,0.7,0.5235987755982988,0.5235987755982988,0,0.34518412,1.2170695,0.08555856,0.033929955,0.06364612,1.5024699,0.36362556,-0.47300377,1.5774132,-0.15697883,0.093503594,-0.10933862,1.119526,0.55521923
-0.1,0.1,0.7,0.5235987755982988,0.5235987755982988,0,0.4013469,1.2075077,0.07018137,-0.03100791,0.09120969,1.4725648,0.33329064,-0.45096132,1.5527446,-0.119466215,0.12491551,-0.12004268,1.1448014,0.5852622
-0.1,0.1,0.7,0.5235987755982988,0.5235987755982988,0,0.3327248,1.2283835,0.053017862,-0.06546544,0.09195229,1.5053343,0.3364145,-0.4114962,1.5839826,-0.10166807,0.06082393,-0.07760185,1.127247,0.45354104
-0.1,0.1,0.7,0.5235987755982988,0.5235987755982988,0,0.35095865,1.2032113,0.0763229,0.048394863,0.06594177,1.4938127,0.31833163,-0.47021908,1.5772188,-0.1520431,0.13148645,-0.08675298,1.1833801,0.5854313
-0.1,0.1,0.7,0.5235987755982988,0.5235987755982988,0,0.39856339,1.238141,0.07444195,-0.07229633,0.14409758,1.4973944,0.3277234,-0.46992847,1.584014,-0.112869315,0.13541509,-0.025178898,1.1571618,0.5870407
-0.1,0.1,0.7,0.5235987755982988,0.5235987755982988,0,0.38432065,1.2161611,0.10096016,0.0140568465,0.070319995,1.5128318,0.30543205,-0.5578809,1.5623343,-0.1533627,0.07231533,-0.12872174,1.1362786,0.5072479
-0.1,0.1,0.7,0.5235987755982988,0.5235987755982988,0,0.39661378,1.1706538,0.085334174,0.019954957,0.059164103,1.4962298,0.31366813,-0.42273143,1.5709809,-0.12554795,0.06377037,-0.14467287,1.1638969,0.6145695
-0.1,0.1,0.7,0.5235987755982988,0.5235987755982988,0,0.37485135,1.2078618,0.08883709,0.008602285,0.024965419,1.5041866,0.31572002,-0.53347427,1.5790864,-0.1144041,0.05460527,-0.11528367,1.1421553,0.6622568
-0.1,0.1,0.7,0.5235987755982988,0.5235987755982988,0,0.35030785,1.2273694,0.087723106,-0.07558688,0.10064666,1.5172127,0.31577307,-0.53240407,1.6054914,-0.051994625,0.06532636,-0.06888459,1.135943,0.691828
-0.1,0.1,0.7,0.5235987755982988,0.5235987755982988,0,0.39361006,1.2213887,0.08885864,-0.0051543145,0.06609869,1.493442,0.33081108,-0.520191,1.5689821,-0.09260384,0.091801345,-0.17985852,1.1129459,0.56466377
-0.1,0.1,0.7,0.5235987755982988,0.5235987755982988,0,0.3756483,1.2420512,0.066020854,-0.09925764,0.09954264,1.5100873,0.32324636,-0.44097066,1.5982442,-0.10907118,0.09410586,-0.11481717,1.1157935,0.53772455
-0.1,0.1,0.7,0.5235987755982988,0.5235987755982988,0,0.36463568,1.196786,0.09709719,-0.05546512,0.089933515,1.4901825,0.29361576,-0.41581768,1.5935917,-0.18696098,0.10637975,-0.06388121,1.1207938,0.5817915
-0.1,0.1,0.7,0.5235987755982988,0.5235987755982988,0,0.39919698,1.2042433,0.06651039,-0.0034142556,0.0690316,1.5095757,0.29532686,-0.47627196,1.5827014,-0.15801837,0.09247711,-0.10637889,1.1253821,0.56153154
-0.1,0.1,0.7,0.5235987755982988,0.5235987755982988,0,0.3838951,1.2634132,0.086507484,-0.052504033,0.051005963,1.4971411,0.3135882,-0.423851,1.5863242,-0.14323214,0.07522984,-0.13717405,1.1490908,0.46087867
-0.1,0.1,0.7,0.5235987755982988,0.5235987755982988,0,0.371744,1.2284907,0.066340886,-0.019398523,0.072858036,1.5014331,0.35576963,-0.4966137,1.6172311,-0.12784906,0.07855802,-0.09434638,1.1356411,0.38490584
-0.1,0.1,0.7,0.5235987755982988,0.5235987755982988,0,0.40945646,1.2257328,0.11044314,-0.10554836,0.05083675,1.4983958,0.33730665,-0.4818858,1.5788646,-0.14608845,0.11001624,-0.070189565,1.1217846,0.61366576
-0.1,0.1,0.7,0.5235987755982988,0.5235987755982988,0,0.38318616,1.2008643,0.10540887,-0.09265581,0.054892056,1.4993193,0.34870404,-0.48731703,1.5920187,-0.12374954,0.09813376,-0.04857935,1.2126001,0.5173268
-0.1,0.1,0.7,0.5235987755982988,0.5235987755982988,0,0.38006163,1.2260036,0.07215165,-0.019338116,0.06678928,1.5196217,0.33106735,-0.43594763,1.5609754,-0.082349405,0.11561592,-0.09710086,1.094707,0.5726818
-0.1,0.1,0.7,0.5235987755982988,0.5235987755982988,0,0.38345683,1.2304447,0.081197456,-0.06975707,0.060834665,1.5185966,0.31410575,-0.46620917,1.5817132,-0.055140376,0.08090481,-0.09514888,1.1300416,0.5854935
-0.1,0.1,0.7,0.5235987755982988,0.5235987755982988,0,0.36846507,1.2269614,0.068300985,-0.016674114,0.06023322,1.5009617,0.3334766,-0.46524265,1.5739775,-0.11366419,0.13564877,-0.14479016,1.1252367,0.4483984
-0.1,0.1,0.7,0.5235987755982988,0.5235987755982988,0,0.35180607,1.2093565,0.047562044,-0.0060198596,0.0821574,1.515728,0.33454022,-0.53467834,1.5683582,-0.12346339,0.07003991,-0.09466502,1.1147391,0.66714233
-0.1,0.1,0.7,0.5235987755982988,0.5235987755982988,0,0.3682682,1.2482342,0.088494815,-0.030500494,0.07125732,1.506861,0.34603292,-0.57100976,1.5793523,-0.07459239,0.08755795,-0.012026059,1.0703193,0.57611495
-0.1,0.1,0.7,0.5235987755982988,0.5235987755982988,0,0.4023776,1.2070309,0.08884778,-0.025485799,0.060619384,1.5035328,0.32174137,-0.4618676,1.5697719,-0.13778585,0.11926283,-0.06854362,1.1300465,0.59780484
-0.1,0.1,0.7,0.5235987755982988,0.5235987755982988,0,0.3440707,1.1904335,0.07455156,0.02421845,0.07697944,1.4906138,0.34030634,-0.4815906,1.5758284,-0.14956445,0.087869726,-0.11683379,1.0854607,0.71711683
-0.1,0.1,0.7,0.5235987755982988,0.5235987755982988,0,0.3911665,1.2050046,0.08237106,0.016088063,0.089231916,1.5034469,0.32169008,-0.51639295,1.5874286,-0.11786507,0.14202341,-0.07013963,1.08664,0.5272247
-0.1,0.1,0.7,0.5235987755982988,0.5235987755982988,0,0.39385617,1.2629948,0.08088172,-0.09786766,0.08526951,1.5084419,0.3561282,-0.47122943,1.5804182,-0.113229275,0.08903406,-0.13986303,1.1074743,0.51522225
-0.1,0.1,0.7,0.5235987755982988,0.5235987755982988,0,0.35786015,1.2583807,0.11209625,-0.1085021,0.05966452,1.5006179,0.32769018,-0.5817452,1.5793083,-0.13520429,0.10209729,-0.0046941615,1.108475,0.4369888
-0.1,0.1,0.7,0.5235987755982988,0.5235987755982988,0,0.36855546,1.2296754,0.091735534,0.00060369057,0.050826956,1.4893991,0.31292957,-0.5523914,1.5809885,-0.07255739,0.1359181,-0.040782407,1.1579012,0.56117564
-0.1,0.1,0.7,0.5235987755982988,0.5235987755982988,0,0.40636337,1.1963556,0.10672506,-0.016269514,0.0819705,1.487369,0.31702566,-0.52284837,1.5558987,-0.10510553,0.06532236,-0.06287033,1.1636474,0.718607
-0.1,0.1,0.7,0.5235987755982988,0.5235987755982988,0,0.37048772,1.215716,0.086741224,-0.16215964,0.021481639,1.508399,0.35752615,-0.5035308,1.5729614,-0.1253617,0.12549435,-0.011617053,1.1133236,0.87071013
-0.1,0.1,0.7,0.5235987755982988,0.5235987755982988,0,0.37484887,1.1970658,0.08014741,0.0053730193,0.05476379,1.493966,0.34602773,-0.4532715,1.576309,-0.17041144,0.13292634,-0.17399547,1.0811224,0.6633258
-0.1,0.1,0.7,0.5235987755982988,0.5235987755982988,0,0.44454098,1.1979612,0.077071756,-0.04033852,0.069570124,1.5011432,0.343937,-0.47685534,1.5728059,-0.16177478,0.08514119,-0.058612507,1.1250662,0.5885474
-0.1,0.1,0.7,0.5235987755982988,0.5235987755982988,0,0.35416135,1.2241888,0.075292535,-0.052594483,0.105668776,1.5090331,0.33948973,-0.60821307,1.5624988,-0.104045615,0.15542756,-0.111769564,1.1077373,0.48179483
-0.1,0.1,0.7,0.5235987755982988,0.5235987755982988,0,0.3926395,1.1816281,0.0635504,-0.07003752,0.062983684,1.484388,0.32346785,-0.3870664,1.5838428,-0.117529385,0.07242243,-0.1130996,1.1593571,0.7259915
-0.1,0.1,0.7,0.5235987755982988,0.5235987755982988,0,0.37344205,1.2009172,0.066725425,-0.021969968,0.08393832,1.512527,0.3088512,-0.3653679,1.57118,-0.123652846,0.1311655,-0.13475133,1.0957702,0.58026093
-0.1,0.1,0.7,0.5235987755982988,0.5235987755982988,0,0.37536487,1.2183489,0.087406255,-0.005707864,0.07793648,1.5005176,0.33522525,-0.43583322,1.5727692,-0.10692792,0.13369836,-0.10103377,1.0805446,0.60469186
-0.1,0.1,0.7,0.5235987755982988,0.5235987755982988,0,0.39437795,1.2573041,0.07901927,-0.04855614,0.06888688,1.4932115,0.31464252,-0.441793,1.6001992,-0.11121852,0.09808333,-0.109379366,1.1611453,0.5171589
-0.1,0.1,0.7,0.5235987755982988,0.5235987755982988,0,0.401786,1.1890793,0.08313362,0.009728312,0.06485992,1.5046709,0.35102513,-0.50340116,1.583326,-0.10045,0.10814096,-0.08190682,1.1258287,0.5223009
-0.1,0.1,0.7,0.5235987755982988,0.5235987755982988,0,0.3897385,1.1888671,0.08535883,0.07679049,0.049973376,1.5029792,0.311554,-0.4532105,1.5459849,-0.12481102,0.09585202,-0.00018820632,1.1275749,0.49828696
-0.1,0.1,0.7,0.5235987755982988,0.5235987755982988,0,0.35070756,1.2367071,0.061147984,0.031866137,0.06776911,1.5223227,0.36509287,-0.44236583,1.5531561,-0.16133083,0.09090051,-0.05659246,1.1295923,0.6137286
-0.1,0.1,0.7,0.5235987755982988,0.5235987755982988,0,0.3882388,1.1795396,0.07694264,0.0067708865,0.05084076,1.4986665,0.3377638,-0.53762954,1.5862422,-0.17795666,0.14081809,-0.09816857,1.1412618,0.8002747
-0.1,0.1,0.7,0.5235987755982988,0.5235987755982988,0,0.35989562,1.1884898,0.06856213,-0.14204817,0.05132877,1.4867071,0.3472627,-0.5655064,1.6106294,-0.12717772,0.1064255,-0.051095895,1.0997151,0.46584558
-0.1,0.1,0.7,0.5235987755982988,0.5235987755982988,0,0.36096013,1.1719013,0.07844077,-0.043487098,0.090471074,1.4990891,0.31056595,-0.5932399,1.5644556,-0.10326676,0.14792068,-0.06897695,1.1672803,0.5217817
-0.1,0.1,0.7,0.5235987755982988,0.5235987755982988,0,0.3755492,1.1676446,0.08297669,0.051103845,0.074856065,1.5124875,0.3234869,-0.553595,1.5613562,-0.19436479,0.121747024,-0.17613782,1.1219767,0.56895006
-0.1,0.1,0.7,0.5235987755982988,0.5235987755982988,0,0.40137133,1.1488483,0.07809045,-0.040741216,0.064677544,1.5032098,0.30686498,-0.5326107,1.5609788,-0.14666826,0.101745464,-0.1265778,1.1507242,0.48361588
-0.1,0.1,0.7,0.5235987755982988,0.5235987755982988,0,0.38419524,1.2256197,0.07152442,-0.047246225,0.05129469,1.4785821,0.32158825,-0.5765826,1.5706004,-0.1399278,0.06704298,-0.1011991,1.1255221,0.5830877
-0.1,0.1,0.7,0.5235987755982988,0.5235987755982988,0,0.37060618,1.2147222,0.06623916,-0.023375425,0.0647339,1.4843894,0.29980803,-0.5126117,1.5777376,-0.12019367,0.11816444,-0.11164277,1.1399975,0.5207484
-0.1,0.1,0.7,0.5235987755982988,0.5235987755982988,0,0.35709584,1.2278024,0.06340478,0.014437275,0.081444316,1.4884471,0.32673022,-0.55465287,1.5799867,-0.16985334,0.13237205,-0.071539536,1.1116755,0.72513306
-0.1,0.1,0.7,0.5235987755982988,0.5235987755982988,0,0.38211828,1.1553185,0.08084852,-0.027708186,0.07412667,1.5091424,0.30408648,-0.6318086,1.5906512,-0.11908022,0.07652173,-0.14248489,1.1484805,0.6732979
-0.1,0.1,0.7,0.5235987755982988,0.5235987755982988,0,0.38755506,1.1998174,0.064925276,-0.03279014,0.015951168,1.487846,0.3057057,-0.4035488,1.5944433,-0.1643268,0.09817516,-0.15681137,1.1323651,0.53651655
-0.1,0.1,0.7,0.5235987755982988,0.5235987755982988,0,0.39181036,1.3070694,0.06931024,0.0075422376,0.102613986,1.4968451,0.33467603,-0.54649884,1.5916263,-0.10201688,0.084741674,-0.057005487,1.1458738,0.52506375
-0.1,0.1,0.7,0.5235987755982988,0.5235987755982988,0,0.37218285,1.2913659,0.086717516,-0.037089013,0.10003407,1.5105361,0.32906592,-0.525707,1.5598596,-0.12616622,0.14154123,-0.13302246,1.1287535,0.5098226
-0.1,0.1,0.7,0.5235987755982988,0.5235987755982988,0,0.38538036,1.2254212,0.104207,-0.06961337,0.044378556,1.4931685,0.31931368,-0.61590874,1.5892057,-0.16346906,0.14646594,-0.031072633,1.1019657,0.70453906
