sanky1234/BimanualDexCatch/isaacgymenvs/cem_results/football_pose_-0.2_0.10000000000000003_0.8999999999999999_0.0_-0.5235987755982988_0_2025-05-25.csv
x,y,z,roll,pitch,yaw,robot1/joint1,robot1/joint2,robot1/joint3,robot1/joint4,robot1/joint5,robot1/joint6,robot1/joint7,robot2/joint1,robot2/joint2,robot2/joint3,robot2/joint4,robot2/joint5,robot2/joint6,robot2/joint7
-0.2,0.10000000000000003,0.8999999999999999,0.0,-0.5235987755982988,0,1.7088691,0.6900541,0.35484833,0.054353327,-0.03359413,1.5029067,-0.31387186,-0.98785335,0.5054043,-0.6345792,0.7824453,-0.62607,0.5215426,-0.96659225
-0.2,0.10000000000000003,0.8999999999999999,0.0,-0.5235987755982988,0,1.6947422,0.66953427,0.34707874,0.04593103,0.015009822,1.4920942,-0.2935379,-0.97098505,0.51967174,-0.6117891,0.8277082,-0.6031976,0.54824525,-0.8768845
-0.2,0.10000000000000003,0.8999999999999999,0.0,-0.5235987755982988,0,1.7003945,0.681262,0.3177471,0.055049837,-0.019821668,1.4964215,-0.18487854,-0.9718929,0.51558715,-0.6459736,0.80612993,-0.6155579,0.54292357,-1.0444641
-0.2,0.10000000000000003,0.8999999999999999,0.0,-0.5235987755982988,0,1.6766691,0.6892266,0.3267927,0.03918815,0.008556618,1.4821988,-0.32196233,-0.99738353,0.5225355,-0.605145,0.80501723,-0.6077011,0.5182266,-0.77936876
-0.2,0.10000000000000003,0.8999999999999999,0.0,-0.5235987755982988,0,1.696497,0.6937518,0.3342429,0.03647684,-0.017415648,1.4972695,-0.25162655,-0.96727115,0.5190004,-0.6298356,0.8085421,-0.6165289,0.53410494,-1.0884894
-0.2,0.10000000000000003,0.8999999999999999,0.0,-0.5235987755982988,0,1.6966826,0.6773245,0.30174297,0.046410613,0.04487845,1.4998732,-0.20046183,-0.9942352,0.5139326,-0.62428075,0.8179216,-0.5721209,0.51699436,-1.1318041
-0.2,0.10000000000000003,0.8999999999999999,0.0,-0.5235987755982988,0,1.6983209,0.6725362,0.3371421,0.05738655,0.0052782963,1.4907442,-0.30126902,-0.9846765,0.5267713,-0.6144481,0.8051244,-0.6147269,0.5218646,-1.035418
-0.2,0.10000000000000003,0.8999999999999999,0.0,-0.5235987755982988,0,1.7124488,0.68298125,0.33267424,0.04667107,-0.008280235,1.4940484,-0.2783798,-0.9711762,0.52175885,-0.6099067,0.79868114,-0.6402362,0.54548484,-1.1704153
-0.2,0.10000000000000003,0.8999999999999999,0.0,-0.5235987755982988,0,1.7085253,0.69480354,0.3730817,0.049577337,-0.037593693,1.5001479,-0.272059,-0.9913517,0.5234365,-0.6119105,0.8214097,-0.6257076,0.5165893,-1.095642
-0.2,0.10000000000000003,0.8999999999999999,0.0,-0.5235987755982988,0,1.6970518,0.6904605,0.34513712,0.045382906,-0.013035143,1.4793469,-0.16794106,-0.973679,0.5294644,-0.6253859,0.8143093,-0.6033649,0.5351304,-1.0073233
-0.2,0.10000000000000003,0.8999999999999999,0.0,-0.5235987755982988,0,1.7021993,0.6865075,0.34232613,0.039662678,-0.024070974,1.5097373,-0.3106186,-0.9913566,0.51984745,-0.6303855,0.78985715,-0.63928777,0.526622,-0.9187612
-0.2,0.10000000000000003,0.8999999999999999,0.0,-0.5235987755982988,0,1.6889567,0.6782128,0.35540453,0.020821916,-0.059508566,1.4815125,-0.3088121,-0.9897605,0.52037627,-0.6134397,0.8059361,-0.6040256,0.54048014,-1.1248554
-0.2,0.10000000000000003,0.8999999999999999,0.0,-0.5235987755982988,0,1.6957735,0.6883015,0.34924725,0.028840046,-0.029268391,1.5118836,-0.27048543,-0.98451805,0.507135,-0.6118839,0.7921506,-0.63853633,0.5254477,-0.97577745
-0.2,0.10000000000000003,0.8999999999999999,0.0,-0.5235987755982988,0,1.702332,0.64826864,0.35103253,0.04179445,0.020142868,1.500793,-0.17953847,-1.0048597,0.50113463,-0.62146926,0.79730445,-0.63204366,0.53430736,-0.6265087
-0.2,0.10000000000000003,0.8999999999999999,0.0,-0.5235987755982988,0,1.6943483,0.6898987,0.3381639,0.03198803,-0.0025110533,1.5046476,-0.24161206,-0.9571137,0.52083284,-0.6204651,0.8176602,-0.6637456,0.5363355,-0.891714
-0.2,0.10000000000000003,0.8999999999999999,0.0,-0.5235987755982988,0,1.7147928,0.68456787,0.33921862,0.049146693,-0.013508152,1.5007029,-0.32689548,-0.9725949,0.52840585,-0.63941723,0.79698336,-0.5933568,0.5151415,-0.68234646
-0.2,0.10000000000000003,0.8999999999999999,0.0,-0.5235987755982988,0,1.7038058,0.68645775,0.34003365,0.05680312,-0.0054156985,1.5074733,-0.21122932,-0.9825491,0.5196358,-0.62275076,0.81101674,-0.62628585,0.5281393,-1.0695021
-0.2,0.10000000000000003,0.8999999999999999,0.0,-0.5235987755982988,0,1.7096671,0.6843527,0.32297572,0.0358858,-0.007401943,1.4989237,-0.2511578,-0.9699274,0.52630436,-0.60827625,0.8089864,-0.65961784,0.52634555,-0.9089684
-0.2,0.10000000000000003,0.8999999999999999,0.0,-0.5235987755982988,0,1.6981059,0.6875201,0.336335,0.04958221,-0.023864236,1.5101157,-0.24016681,-0.97716665,0.5220199,-0.64232486,0.80797327,-0.5506214,0.5431941,-0.99866813
-0.2,0.10000000000000003,0.8999999999999999,0.0,-0.5235987755982988,0,1.7044462,0.6878274,0.3591647,0.031156737,-0.012452237,1.5300093,-0.26882225,-0.9872982,0.50951564,-0.6173327,0.7985313,-0.5998526,0.51553494,-1.0922414
-0.2,0.10000000000000003,0.8999999999999999,0.0,-0.5235987755982988,0,1.701558,0.6836863,0.3414955,0.054712497,-0.045594886,1.510867,-0.22011298,-0.9742457,0.52447015,-0.6236336,0.80412984,-0.6252822,0.53398925,-0.88665617
-0.2,0.10000000000000003,0.8999999999999999,0.0,-0.5235987755982988,0,1.6998146,0.695242,0.31893277,0.03732909,0.012456735,1.5066235,-0.250368,-0.9878297,0.514542,-0.6092631,0.81776434,-0.6372435,0.54284865,-1.0970846
-0.2,0.10000000000000003,0.8999999999999999,0.0,-0.5235987755982988,0,1.6892871,0.6878883,0.32412925,0.022823855,0.010283319,1.4792757,-0.23064195,-0.9827136,0.5327619,-0.61670846,0.80626243,-0.64822525,0.5094524,-0.91362816
-0.2,0.10000000000000003,0.8999999999999999,0.0,-0.5235987755982988,0,1.6904961,0.69117737,0.33712223,0.04843822,0.01852434,1.4945122,-0.29018542,-0.983178,0.51972306,-0.60544825,0.815173,-0.55796474,0.54792,-0.70527536
-0.2,0.10000000000000003,0.8999999999999999,0.0,-0.5235987755982988,0,1.7157644,0.67943877,0.31957912,0.044975575,-0.045376427,1.4828241,-0.27385774,-0.9947726,0.52451056,-0.6146845,0.80903745,-0.6207984,0.52119625,-0.9774505
-0.2,0.10000000000000003,0.8999999999999999,0.0,-0.5235987755982988,0,1.6910486,0.69282675,0.31859747,0.04139161,-0.048148297,1.4740459,-0.28589898,-0.97025764,0.5133334,-0.6351192,0.797501,-0.5955553,0.5297984,-1.202557
-0.2,0.10000000000000003,0.8999999999999999,0.0,-0.5235987755982988,0,1.6919757,0.68289477,0.31847426,0.045912795,0.008652697,1.4847804,-0.26145357,-1.0016412,0.52679014,-0.63117665,0.8087059,-0.57930875,0.49300978,-1.1458805
-0.2,0.10000000000000003,0.8999999999999999,0.0,-0.5235987755982988,0,1.6993699,0.69787264,0.32596323,0.047417402,0.005328128,1.4785957,-0.28901565,-0.9618196,0.5273445,-0.63790566,0.8094442,-0.60865766,0.53125685,-1.0297595
-0.2,0.10000000000000003,0.8999999999999999,0.0,-0.5235987755982988,0,1.7026058,0.68836457,0.349889,0.05626775,0.007647767,1.4981891,-0.321866,-0.9822635,0.52018166,-0.6010998,0.808603,-0.5994213,0.5179274,-0.99302703
-0.2,0.10000000000000003,0.8999999999999999,0.0,-0.5235987755982988,0,1.6891164,0.68365216,0.31900072,0.04614669,-0.024028974,1.5037183,-0.26446995,-0.9854993,0.512944,-0.6245534,0.80867654,-0.59386677,0.5200117,-0.73497844
-0.2,0.10000000000000003,0.8999999999999999,0.0,-0.5235987755982988,0,1.710437,0.70634127,0.34146893,0.05061538,-0.019589948,1.5114827,-0.2838427,-0.9735295,0.5290941,-0.6190414,0.79880893,-0.6147817,0.53694785,-0.96399415
-0.2,0.10000000000000003,0.8999999999999999,0.0,-0.5235987755982988,0,1.7121738,0.68949556,0.3379025,0.027274579,0.019767983,1.491868,-0.21602978,-0.99500394,0.51681364,-0.6149627,0.7950355,-0.60608274,0.52355367,-1.0266318
-0.2,0.10000000000000003,0.8999999999999999,0.0,-0.5235987755982988,0,1.7069079,0.68234116,0.3317027,0.03876135,0.023388874,1.4878664,-0.28454977,-0.98488325,0.5151027,-0.6325712,0.80195296,-0.61706364,0.51230097,-0.9765205
-0.2,0.10000000000000003,0.8999999999999999,0.0,-0.5235987755982988,0,1.6908172,0.67851585,0.34401163,0.037250213,-0.039173216,1.4886234,-0.18935972,-0.96552944,0.5151868,-0.62000424,0.79965043,-0.63201714,0.5343503,-0.99685895
-0.2,0.10000000000000003,0.8999999999999999,0.0,-0.5235987755982988,0,1.7146502,0.7014336,0.33139616,0.03221304,0.008831728,1.4903578,-0.259564,-0.9622634,0.512351,-0.61237603,0.82305104,-0.6451459,0.54930323,-0.8959101
-0.2,0.10000000000000003,0.8999999999999999,0.0,-0.5235987755982988,0,1.6891522,0.69178087,0.3459575,0.0622592,-0.003987724,1.4931899,-0.2571676,-0.9753735,0.5381866,-0.5996709,0.8100186,-0.6091233,0.54693985,-0.77532184
-0.2,0.10000000000000003,0.8999999999999999,0.0,-0.5235987755982988,0,1.7041388,0.693083,0.34789938,0.042176187,0.010126789,1.5133572,-0.25642657,-0.97620267,0.5248461,-0.62783265,0.80745775,-0.5598286,0.53545874,-0.95450795
-0.2,0.10000000000000003,0.8999999999999999,0.0,-0.5235987755982988,0,1.6994311,0.68763584,0.33227476,0.031728126,-0.03881462,1.487314,-0.2341909,-0.9376555,0.5248271,-0.66499263,0.8083645,-0.61447024,0.5168771,-0.8159905
-0.2,0.10000000000000003,0.8999999999999999,0.0,-0.5235987755982988,0,1.7119004,0.6879155,0.32848942,0.053680435,-0.008847246,1.48629,-0.31956023,-0.9926296,0.5055404,-0.6126357,0.78486043,-0.5899253,0.5255894,-0.92038983
-0.2,0.10000000000000003,0.8999999999999999,0.0,-0.5235987755982988,0,1.7041922,0.69087636,0.33383715,0.05667387,-0.029196987,1.5036985,-0.17551592,-0.96391153,0.5230887,-0.62694323,0.7802486,-0.6128397,0.51390547,-0.9972845
-0.2,0.10000000000000003,0.8999999999999999,0.0,-0.5235987755982988,0,1.7176036,0.68091327,0.32665437,0.041524787,-0.027625546,1.5048562,-0.32751492,-0.9811409,0.5163548,-0.62475806,0.80621535,-0.67222166,0.49492508,-0.9969647
-0.2,0.10000000000000003,0.8999999999999999,0.0,-0.5235987755982988,0,1.7156404,0.6900015,0.36286178,0.041244946,-0.0049164924,1.4901885,-0.24163625,-0.9818844,0.5264803,-0.6207765,0.8162406,-0.6170137,0.53969914,-1.0893437
-0.2,0.10000000000000003,0.8999999999999999,0.0,-0.5235987755982988,0,1.7140216,0.6819388,0.32381612,0.056725923,-0.035052624,1.4929924,-0.24368261,-0.97932464,0.52696526,-0.62611824,0.7997344,-0.5972706,0.50866777,-0.7875938
-0.2,0.10000000000000003,0.8999999999999999,0.0,-0.5235987755982988,0,1.6793789,0.6830769,0.32640913,0.030392183,-0.008270953,1.5120343,-0.23599944,-0.9731805,0.53994364,-0.6086006,0.82655823,-0.619221,0.50705045,-0.6213892
-0.2,0.10000000000000003,0.8999999999999999,0.0,-0.5235987755982988,0,1.7125229,0.68629843,0.37467518,0.046840396,0.014880517,1.4931406,-0.19379832,-0.9670145,0.50856674,-0.6502111,0.7937074,-0.57645583,0.5224986,-0.6766649
-0.2,0.10000000000000003,0.8999999999999999,0.0,-0.5235987755982988,0,1.7083982,0.6769568,0.3290346,0.04084479,0.008636063,1.4831661,-0.31320763,-0.98554164,0.5186367,-0.6165887,0.81453437,-0.6074889,0.53982633,-1.1322196
-0.2,0.10000000000000003,0.8999999999999999,0.0,-0.5235987755982988,0,1.6995552,0.68586975,0.3278395,0.029960867,0.0087916395,1.5255814,-0.31042486,-0.9776516,0.50851065,-0.62436575,0.80541486,-0.6251418,0.50912106,-0.6577892
-0.2,0.10000000000000003,0.8999999999999999,0.0,-0.5235987755982988,0,1.7018287,0.6823362,0.3547217,0.038192563,-0.01700783,1.4921519,-0.26676795,-0.97996163,0.5110859,-0.6118942,0.79028267,-0.6432206,0.5606677,-0.89150536
-0.2,0.10000000000000003,0.8999999999999999,0.0,-0.5235987755982988,0,1.7104286,0.68924963,0.32518622,0.013035547,-0.027683452,1.4868892,-0.19571179,-0.9763037,0.5294838,-0.60674787,0.821815,-0.6359201,0.52662593,-0.8546014
-0.2,0.10000000000000003,0.8999999999999999,0.0,-0.5235987755982988,0,1.7034619,0.69105244,0.32607818,0.03485472,-0.003872269,1.5225943,-0.29658544,-0.98122907,0.52736515,-0.62353665,0.81879306,-0.5618594,0.49229732,-0.7957696
-0.2,0.10000000000000003,0.8999999999999999,0.0,-0.5235987755982988,0,1.7092223,0.67951,0.3423156,0.044264574,0.006497748,1.5041385,-0.21574333,-0.9976126,0.5356299,-0.6150824,0.82480377,-0.6425873,0.5057309,-1.0015355
-0.2,0.10000000000000003,0.8999999999999999,0.0,-0.5235987755982988,0,1.6925812,0.6672864,0.35285044,0.051489633,0.01853697,1.4937806,-0.30900145,-0.9598862,0.5119768,-0.6057586,0.7918668,-0.59042263,0.5309598,-0.6991433
-0.2,0.10000000000000003,0.8999999999999999,0.0,-0.5235987755982988,0,1.6957946,0.6816474,0.33282915,0.041764136,0.016661538,1.5060757,-0.25372416,-0.9787108,0.5272672,-0.6171152,0.8177952,-0.60925746,0.52918494,-1.0100198
-0.2,0.10000000000000003,0.8999999999999999,0.0,-0.5235987755982988,0,1.6947325,0.6895046,0.33974212,0.051526863,-0.03149809,1.503967,-0.32923228,-1.0044351,0.5131684,-0.6010822,0.8071951,-0.6277708,0.5128745,-1.0682051
-0.2,0.10000000000000003,0.8999999999999999,0.0,-0.5235987755982988,0,1.7069485,0.6815613,0.35316736,0.043379873,-0.006943879,1.5024822,-0.34316182,-0.9591084,0.52385074,-0.60833776,0.8138288,-0.60536927,0.5433347,-0.96133024
-0.2,0.10000000000000003,0.8999999999999999,0.0,-0.5235987755982988,0,1.7048057,0.6913255,0.34924456,0.034089167,-0.026505725,1.5013865,-0.2621911,-0.9887834,0.51696056,-0.6303793,0.79792964,-0.65754855,0.50088745,-0.833185
-0.2,0.10000000000000003,0.8999999999999999,0.0,-0.5235987755982988,0,1.7022091,0.6833172,0.30985647,0.023110107,0.033174824,1.4963566,-0.29785576,-0.9698024,0.52500695,-0.6268885,0.79732585,-0.6294114,0.5065206,-0.9736656
-0.2,0.10000000000000003,0.8999999999999999,0.0,-0.5235987755982988,0,1.7217076,0.66756135,0.31135464,0.056958437,-0.0041188635,1.5064994,-0.14541698,-0.99944377,0.52229935,-0.613076,0.7962996,-0.6206551,0.5383965,-0.77025867
-0.2,0.10000000000000003,0.8999999999999999,0.0,-0.5235987755982988,0,1.7037405,0.6854733,0.36266297,0.035831187,-0.006227399,1.5130479,-0.3006368,-0.9996715,0.5098002,-0.59661436,0.78996694,-0.66034395,0.5164048,-0.90781534
-0.2,0.10000000000000003,0.8999999999999999,0.0,-0.5235987755982988,0,1.6847447,0.6835448,0.34294033,0.03227901,0.04257811,1.4978263,-0.25147995,-0.99279237,0.51556635,-0.62786436,0.8035133,-0.61259514,0.51313084,-0.87676483
-0.2,0.10000000000000003,0.8999999999999999,0.0,-0.5235987755982988,0,1.7277011,0.6780612,0.35024372,0.05956644,0.0024174452,1.49694,-0.40308443,-0.99012953,0.5272511,-0.61363375,0.8139336,-0.63109887,0.5178205,-0.90711546
-0.2,0.10000000000000003,0.8999999999999999,0.0,-0.5235987755982988,0,1.6848788,0.68800455,0.34316745,0.044779766,0.0030177236,1.5121329,-0.23686987,-0.97416633,0.5179681,-0.6141337,0.8098759,-0.6032735,0.53997964,-0.87349373
-0.2,0.10000000000000003,0.8999999999999999,0.0,-0.5235987755982988,0,1.7015624,0.6969128,0.3295529,0.052791853,-0.004107277,1.487032,-0.25590867,-0.96217084,0.53415674,-0.6156347,0.8199258,-0.6122363,0.5349016,-1.2654487
-0.2,0.10000000000000003,0.8999999999999999,0.0,-0.5235987755982988,0,1.7083604,0.67613566,0.35614458,0.039409164,0.011837552,1.4936731,-0.17730023,-1.0084088,0.5187768,-0.6128164,0.8051257,-0.60332316,0.53258806,-0.83208
-0.2,0.10000000000000003,0.8999999999999999,0.0,-0.5235987755982988,0,1.7090064,0.6810863,0.32512772,0.049894355,-0.024913447,1.5158851,-0.355527,-0.9807598,0.5098748,-0.630306,0.8067512,-0.6277058,0.51347107,-0.6443638
-0.2,0.10000000000000003,0.8999999999999999,0.0,-0.5235987755982988,0,1.6912199,0.6878088,0.32676515,0.04283768,-0.011630406,1.4987104,-0.31346855,-0.96857834,0.51580286,-0.6264225,0.79169494,-0.5897936,0.5225118,-0.9703679
-0.2,0.10000000000000003,0.8999999999999999,0.0,-0.5235987755982988,0,1.7150937,0.6824866,0.32707548,0.033552673,0.018036837,1.4885756,-0.24725614,-0.9856306,0.5269933,-0.5991361,0.81274545,-0.5958551,0.5174808,-0.67624456
-0.2,0.10000000000000003,0.8999999999999999,0.0,-0.5235987755982988,0,1.7030656,0.6748573,0.33716017,0.027349597,0.029373458,1.5022811,-0.2971722,-0.9981203,0.523386,-0.6102373,0.82300425,-0.605773,0.5173293,-0.66838276
-0.2,0.10000000000000003,0.8999999999999999,0.0,-0.5235987755982988,0,1.7008511,0.6807384,0.34719658,0.04715908,0.0038136463,1.505736,-0.31525084,-0.9621792,0.52069265,-0.63828343,0.81681883,-0.6616661,0.53771544,-0.7581263
-0.2,0.10000000000000003,0.8999999999999999,0.0,-0.5235987755982988,0,1.7040497,0.6749832,0.3366517,0.059408676,-0.011067988,1.4978942,-0.2398619,-0.96096593,0.5163116,-0.6473434,0.7983252,-0.59016204,0.5516868,-1.0610791
-0.2,0.10000000000000003,0.8999999999999999,0.0,-0.5235987755982988,0,1.7154505,0.6864901,0.35306856,0.062002864,-0.008221596,1.5208164,-0.2312651,-0.98727983,0.5306247,-0.6116536,0.81165373,-0.62536186,0.53680724,-1.1962823
-0.2,0.10000000000000003,0.8999999999999999,0.0,-0.5235987755982988,0,1.7134405,0.6844226,0.32567987,0.025801824,-0.005313533,1.476265,-0.3116086,-0.997207,0.5227763,-0.61674565,0.8099961,-0.5773212,0.5191051,-0.9562802
-0.2,0.10000000000000003,0.8999999999999999,0.0,-0.5235987755982988,0,1.6966219,0.69361025,0.3352972,0.045079853,-0.00434169,1.4764724,-0.33004522,-0.97056746,0.50974506,-0.64611685,0.8218567,-0.6008428,0.5151197,-0.73526573
-0.2,0.10000000000000003,0.8999999999999999,0.0,-0.5235987755982988,0,1.698643,0.6831343,0.35316294,0.06981432,-0.016603494,1.460783,-0.32476047,-0.97458637,0.51063514,-0.62178344,0.7890664,-0.6620372,0.53590983,-0.8536284
-0.2,0.10000000000000003,0.8999999999999999,0.0,-0.5235987755982988,0,1.6885347,0.6700271,0.3007165,0.06480928,-0.048391875,1.4977316,-0.25446954,-0.96398926,0.5242199,-0.63378817,0.80772305,-0.6104517,0.5437672,-0.90580857
-0.2,0.10000000000000003,0.8999999999999999,0.0,-0.5235987755982988,0,1.7005188,0.6957294,0.31641087,0.023978919,0.029018406,1.5001575,-0.23808947,-0.97604966,0.51485676,-0.62764037,0.8146244,-0.5438052,0.50553113,-1.0723438
-0.2,0.10000000000000003,0.8999999999999999,0.0,-0.5235987755982988,0,1.7132107,0.6795914,0.33061847,0.03210134,0.013325294,1.4958214,-0.22801013,-0.977435,0.52485496,-0.6149748,0.8069632,-0.6242207,0.5123228,-1.1152705
-0.2,0.10000000000000003,0.8999999999999999,0.0,-0.5235987755982988,0,1.6989424,0.6921779,0.32802883,0.03267315,0.025496675,1.5116282,-0.19272658,-0.97614884,0.5120359,-0.62674946,0.7979321,-0.6033249,0.5128887,-0.64776915
-0.2,0.10000000000000003,0.8999999999999999,0.0,-0.5235987755982988,0,1.7135755,0.6912454,0.31938857,0.054321565,0.004101147,1.4978787,-0.26611605,-1.0045851,0.5129799,-0.5982171,0.78919744,-0.6147111,0.5114721,-1.1329643
-0.2,0.10000000000000003,0.8999999999999999,0.0,-0.5235987755982988,0,1.7061903,0.68207306,0.32362515,0.033988945,-0.03663522,1.4983388,-0.24608324,-0.9874484,0.5276912,-0.6103098,0.8169914,-0.6624337,0.51543564,-0.8246856
-0.2,0.10000000000000003,0.8999999999999999,0.0,-0.5235987755982988,0,1.7051733,0.6774045,0.32075724,0.044820055,0.008147881,1.478013,-0.32635692,-0.95441526,0.514692,-0.6302631,0.810155,-0.6678996,0.5422861,-0.80583245
-0.2,0.10000000000000003,0.8999999999999999,0.0,-0.5235987755982988,0,1.707817,0.67380655,0.32706013,0.041902676,-0.029871054,1.4904076,-0.26559108,-0.9764107,0.51003814,-0.63344604,0.81020474,-0.59457177,0.5129769,-0.84436893
-0.2,0.10000000000000003,0.8999999999999999,0.0,-0.5235987755982988,0,1.6824378,0.67698604,0.32454014,0.04764616,0.0072136363,1.4822383,-0.22337618,-1.0009512,0.5197227,-0.60319257,0.81533885,-0.5971571,0.5248954,-0.97435766
-0.2,0.10000000000000003,0.8999999999999999,0.0,-0.5235987755982988,0,1.7064565,0.6783653,0.3393836,0.023304755,-0.031187262,1.4946264,-0.114968345,-0.98047715,0.52749074,-0.6226136,0.81160116,-0.5861408,0.51396537,-1.2601722
-0.2,0.10000000000000003,0.8999999999999999,0.0,-0.5235987755982988,0,1.7229025,0.6846248,0.31274354,0.058332473,0.01122257,1.4794644,-0.24947356,-0.9743962,0.52326596,-0.6175674,0.81650233,-0.5784646,0.50574833,-1.1103259
-0.2,0.10000000000000003,0.8999999999999999,0.0,-0.5235987755982988,0,1.7097421,0.6878811,0.34114963,0.04441217,0.015513322,1.5073304,-0.40541497,-0.98832095,0.5311961,-0.6134236,0.809157,-0.58396924,0.5376,-1.1632748
-0.2,0.10000000000000003,0.8999999999999999,0.0,-0.5235987755982988,0,1.7096376,0.68630433,0.34152612,0.038293555,-0.020441305,1.5288146,-0.30504394,-0.9634183,0.5130402,-0.6215878,0.8044691,-0.64242816,0.5478102,-0.8140488
-0.2,0.10000000000000003,0.8999999999999999,0.0,-0.5235987755982988,0,1.7087611,0.68888754,0.34486538,0.038117476,0.01130616,1.506354,-0.15279868,-0.96482444,0.52398384,-0.6201014,0.8159893,-0.57359254,0.5807355,-0.5613514
-0.2,0.10000000000000003,0.8999999999999999,0.0,-0.5235987755982988,0,1.6970524,0.67276925,0.34546408,0.041730423,-0.005897816,1.489887,-0.2817372,-0.9824266,0.5403614,-0.60316825,0.78802466,-0.62849504,0.523112,-0.8997791
-0.2,0.10000000000000003,0.8999999999999999,0.0,-0.5235987755982988,0,1.7179285,0.67939395,0.3359748,0.062010687,0.0039037238,1.4937099,-0.18422766,-0.99613386,0.5265715,-0.6044234,0.8205582,-0.58497256,0.54108554,-0.73876745
-0.2,0.10000000000000003,0.8999999999999999,0.0,-0.5235987755982988,0,1.6973126,0.6764555,0.35453182,0.030820828,0.0008007588,1.487623,-0.30723652,-0.9870407,0.5264378,-0.5986375,0.8156761,-0.6534109,0.50830185,-1.012684
-0.2,0.10000000000000003,0.8999999999999999,0.0,-0.5235987755982988,0,1.6819849,0.6853429,0.34553227,0.04673483,-0.02242198,1.4929588,-0.28487605,-0.96046615,0.5205695,-0.62483835,0.8033273,-0.61064786,0.5356239,-0.79148406
-0.2,0.10000000000000003,0.8999999999999999,0.0,-0.5235987755982988,0,1.702778,0.7047909,0.3411031,0.051709197,0.02364349,1.5061399,-0.24539399,-0.9924664,0.52155906,-0.62572813,0.7820993,-0.5935381,0.50662786,-0.9817348
-0.2,0.10000000000000003,0.8999999999999999,0.0,-0.5235987755982988,0,1.6851519,0.6998416,0.35073963,0.042549584,-0.00013246034,1.4966577,-0.27173898,-0.9756041,0.5303483,-0.62752104,0.8014569,-0.59401375,0.5265814,-0.7253551
-0.2,0.10000000000000003,0.8999999999999999,0.0,-0.5235987755982988,0,1.7078271,0.6817301,0.3344092,0.04019635,0.013729148,1.5295538,-0.33044216,-0.9576134,0.5198716,-0.6214712,0.8177095,-0.6490664,0.5213435,-1.1605929
-0.2,0.10000000000000003,0.8999999999999999,0.0,-0.5235987755982988,0,1.6976095,0.6904742,0.3254567,0.04152161,0.018794421,1.4977735,-0.2575616,-0.9899504,0.5253823,-0.6251652,0.81195265,-0.59182006,0.51155055,-1.0554174
-0.2,0.10000000000000003,0.8999999999999999,0.0,-0.5235987755982988,0,1.6973379,0.68503696,0.32251772,0.049290746,-0.015569083,1.5083789,-0.21109769,-0.9842553,0.5219704,-0.6179188,0.8013415,-0.6591181,0.52661836,-1.0006025
-0.2,0.10000000000000003,0.8999999999999999,0.0,-0.5235987755982988,0,1.7031956,0.6881776,0.33596012,0.060055878,0.016597237,1.4900159,-0.37690756,-0.97841114,0.52710396,-0.61058646,0.80034965,-0.59374464,0.53762066,-0.96758616
-0.2,0.10000000000000003,0.8999999999999999,0.0,-0.5235987755982988,0,1.688432,0.6702736,0.31909367,0.050261933,0.0013821985,1.4945999,-0.21152179,-0.98922527,0.52327555,-0.6132722,0.8166519,-0.5755161,0.54262966,-0.7999209
-0.2,0.10000000000000003,0.8999999999999999,0.0,-0.5235987755982988,0,1.6966612,0.6971009,0.31767592,0.033090517,-0.027480552,1.5035948,-0.2976887,-0.9961462,0.5177101,-0.6091699,0.80342466,-0.62164706,0.5147075,-0.93030155
-0.2,0.10000000000000003,0.8999999999999999,0.0,-0.5235987755982988,0,1.7068146,0.68537605,0.32206237,0.041663256,-0.0077314726,1.5016024,-0.27632713,-0.9944764,0.5185047,-0.61853516,0.78608376,-0.5897952,0.5330939,-0.8734675
-0.2,0.10000000000000003,0.8999999999999999,0.0,-0.5235987755982988,0,1.6860365,0.68539155,0.34441397,0.04744227,-0.005939779,1.5091984,-0.19066165,-0.992669,0.5278287,-0.62352115,0.81505173,-0.6293374,0.51426935,-1.0068116
-0.2,0.10000000000000003,0.8999999999999999,0.0,-0.5235987755982988,0,1.7105163,0.6742158,0.338664,0.049256396,0.012481897,1.4930071,-0.19339466,-0.98789704,0.5147565,-0.62018716,0.8100873,-0.57751805,0.52214175,-1.0151796
-0.2,0.10000000000000003,0.8999999999999999,0.0,-0.5235987755982988,0,1.7079538,0.6735094,0.30974808,0.042090803,-0.020070193,1.5092162,-0.25985286,-0.9876435,0.52451414,-0.61482275,0.8160086,-0.65952635,0.4839302,-0.7748008
-0.2,0.10000000000000003,0.8999999999999999,0.0,-0.5235987755982988,0,1.7019993,0.69012046,0.32089853,0.028885908,-0.03078262,1.4926581,-0.26939335,-0.9816353,0.5248875,-0.6062982,0.8229954,-0.6495067,0.5496237,-0.85883224
-0.2,0.10000000000000003,0.8999999999999999,0.0,-0.5235987755982988,0,1.690214,0.7011525,0.33632097,0.04138093,-0.04847234,1.5003482,-0.31374946,-1.0008708,0.5205821,-0.5993511,0.78369147,-0.6499595,0.53577936,-0.8734627
-0.2,0.10000000000000003,0.8999999999999999,0.0,-0.5235987755982988,0,1.7039574,0.7053069,0.33653763,0.051935364,-0.008180497,1.4971524,-0.21669519,-0.98239654,0.5277534,-0.61619854,0.8039261,-0.6400963,0.5283187,-0.7212235
-0.2,0.10000000000000003,0.8999999999999999,0.0,-0.5235987755982988,0,1.7074969,0.68262744,0.33357024,0.0516857,0.016462054,1.4949418,-0.2801246,-0.97182804,0.52369815,-0.613999,0.7922036,-0.6192136,0.5249229,-1.1962053
-0.2,0.10000000000000003,0.8999999999999999,0.0,-0.5235987755982988,0,1.7095548,0.6800437,0.33285958,0.045960516,-0.012446148,1.5196469,-0.29580975,-0.9632686,0.51082546,-0.64218724,0.80196583,-0.621926,0.51371384,-1.0328562
-0.2,0.10000000000000003,0.8999999999999999,0.0,-0.5235987755982988,0,1.7017113,0.67194694,0.3666769,0.034871895,-0.03814709,1.4968338,-0.31023023,-0.9651206,0.5186829,-0.6234043,0.8137276,-0.6086235,0.5169389,-0.88135093
-0.2,0.10000000000000003,0.8999999999999999,0.0,-0.5235987755982988,0,1.6962034,0.6775741,0.32143876,0.04504047,0.037686035,1.5017349,-0.27247748,-0.9744038,0.5352729,-0.62670594,0.81969976,-0.6249242,0.51614386,-1.0071447
-0.2,0.10000000000000003,0.8999999999999999,0.0,-0.5235987755982988,0,1.6987091,0.6809837,0.3237273,0.03798859,0.0014562864,1.5058672,-0.2688174,-0.9779607,0.5054848,-0.64419425,0.80384135,-0.61238223,0.4887956,-0.69875276
-0.2,0.10000000000000003,0.8999999999999999,0.0,-0.5235987755982988,0,1.7033359,0.68818027,0.34345242,0.02694155,-0.03489231,1.4927022,-0.2719135,-1.0091846,0.5266086,-0.5857425,0.81091183,-0.5992092,0.5177463,-0.7914948
-0.2,0.10000000000000003,0.8999999999999999,0.0,-0.5235987755982988,0,1.7084217,0.6805521,0.3477032,0.03619279,-0.040714595,1.5072336,-0.19498488,-0.95202637,0.5204957,-0.6394663,0.8211281,-0.59217215,0.5256834,-0.50749016
-0.2,0.10000000000000003,0.8999999999999999,0.0,-0.5235987755982988,0,1.6909134,0.6905615,0.3409345,0.03651522,-0.032753054,1.5028633,-0.30813488,-0.9618983,0.51903224,-0.63012874,0.78931165,-0.63741577,0.5307619,-1.0165564
-0.2,0.10000000000000003,0.8999999999999999,0.0,-0.5235987755982988,0,1.6820987,0.6864939,0.31639087,0.037676696,-0.022186415,1.5081904,-0.3269072,-0.97947854,0.51649153,-0.6276207,0.79443085,-0.63244414,0.5325184,-0.8251049
-0.2,0.10000000000000003,0.8999999999999999,0.0,-0.5235987755982988,0,1.7143015,0.6899039,0.34803474,0.04406596,0.0014609245,1.5126728,-0.27316913,-1.0089928,0.5234015,-0.5844552,0.7931356,-0.68287814,0.55619806,-0.7990827
-0.2,0.10000000000000003,0.8999999999999999,0.0,-0.5235987755982988,0,1.6843979,0.6907772,0.32803297,0.05066603,-0.033309843,1.5109127,-0.2813462,-0.98682374,0.527701,-0.619739,0.805919,-0.61868757,0.5314463,-0.90145147
-0.2,0.10000000000000003,0.8999999999999999,0.0,-0.5235987755982988,0,1.6914734,0.6883445,0.32992896,0.052053124,-0.017427875,1.5195925,-0.23340282,-0.9809833,0.53330636,-0.62149173,0.8132412,-0.5565268,0.5191134,-0.9910456
-0.2,0.10000000000000003,0.8999999999999999,0.0,-0.5235987755982988,0,1.7028275,0.68967474,0.3640346,0.044396732,0.023245666,1.4942355,-0.23851599,-0.9722863,0.5250144,-0.6140531,0.8163055,-0.5641598,0.5350939,-0.8290771
-0.2,0.10000000000000003,0.8999999999999999,0.0,-0.5235987755982988,0,1.6910628,0.69809246,0.35450122,0.03360495,-0.017414223,1.4976593,-0.30596903,-0.96339816,0.52071375,-0.61722577,0.796285,-0.62847763,0.5405498,-0.6051087
-0.2,0.10000000000000003,0.8999999999999999,0.0,-0.5235987755982988,0,1.7114313,0.68387836,0.33823025,0.027748886,-0.007104927,1.4835614,-0.30828735,-0.98247147,0.53612286,-0.63184035,0.79516757,-0.5411271,0.51240957,-0.97656614
-0.2,0.10000000000000003,0.8999999999999999,0.0,-0.5235987755982988,0,1.6857457,0.665406,0.3596108,0.057038043,0.0023838906,1.5017174,-0.33756417,-0.9873835,0.51087266,-0.61441237,0.8006976,-0.62763786,0.5128413,-1.1634423
-0.2,0.10000000000000003,0.8999999999999999,0.0,-0.5235987755982988,0,1.7049419,0.6830707,0.35122508,0.050171904,-0.0021205852,1.5271086,-0.22246961,-0.97154003,0.51191217,-0.6422696,0.8215688,-0.5886994,0.52955604,-1.0220587
-0.2,0.10000000000000003,0.8999999999999999,0.0,-0.5235987755982988,0,1.6940362,0.69080114,0.3470633,0.052199803,-0.0018884864,1.4964215,-0.18424274,-0.98459244,0.51521146,-0.61026824,0.82507783,-0.6312388,0.5358436,-1.0018493
-0.2,0.10000000000000003,0.8999999999999999,0.0,-0.5235987755982988,0,1.7054058,0.6797766,0.32400504,0.034646876,-0.04376281,1.4838635,-0.30257267,-0.9749847,0.5265228,-0.6152594,0.79915106,-0.620231,0.5501261,-1.123072
-0.2,0.10000000000000003,0.8999999999999999,0.0,-0.5235987755982988,0,1.6811311,0.67573225,0.33517936,0.04016018,0.03725085,1.5072731,-0.27385676,-0.96886325,0.5280315,-0.63841075,0.816304,-0.5828985,0.5317897,-0.8784429
-0.2,0.10000000000000003,0.8999999999999999,0.0,-0.5235987755982988,0,1.7112657,0.68274254,0.3364108,0.05275086,-0.067073904,1.4844446,-0.24028987,-1.0016153,0.52242404,-0.5899636,0.814124,-0.6152489,0.54638743,-0.9376166
-0.2,0.10000000000000003,0.8999999999999999,0.0,-0.5235987755982988,0,1.7110076,0.6797694,0.34950855,0.045369625,-0.040714145,1.5106928,-0.27512717,-0.9895796,0.5265726,-0.59575087,0.79634804,-0.6146782,0.52892405,-1.0697562
-0.2,0.10000000000000003,0.8999999999999999,0.0,-0.5235987755982988,0,1.6931552,0.6856955,0.34130228,0.047586147,-0.017028663,1.5028281,-0.2658242,-0.96329117,0.53063375,-0.6054297,0.81584024,-0.6355483,0.55092055,-0.95623773
-0.2,0.10000000000000003,0.8999999999999999,0.0,-0.5235987755982988,0,1.6888144,0.68141943,0.3595894,0.055761535,-0.025942983,1.5018126,-0.34295917,-0.9798402,0.5114958,-0.62825733,0.8003256,-0.6436931,0.5275415,-0.967272
-0.2,0.10000000000000003,0.8999999999999999,0.0,-0.5235987755982988,0,1.6898772,0.6875266,0.34166962,0.029876217,0.012242426,1.497675,-0.26895252,-0.9714079,0.5307779,-0.62652415,0.80010283,-0.6130534,0.53691524,-0.9089489
-0.2,0.10000000000000003,0.8999999999999999,0.0,-0.5235987755982988,0,1.6870923,0.6673179,0.32555118,0.08173577,0.022578234,1.5042309,-0.2776124,-0.9944123,0.5222252,-0.6042195,0.79747134,-0.640253,0.54471797,-1.015926
-0.2,0.10000000000000003,0.8999999999999999,0.0,-0.5235987755982988,0,1.7135347,0.68426895,0.34533086,0.044456366,-0.013091514,1.5016009,-0.16336347,-0.97891474,0.5296151,-0.62305117,0.8074275,-0.5698477,0.5364689,-0.999428
-0.2,0.10000000000000003,0.8999999999999999,0.0,-0.5235987755982988,0,1.7083855,0.68069726,0.34744465,0.04412273,-0.030542396,1.4781846,-0.27891922,-0.98632663,0.5101962,-0.5984671,0.79451084,-0.6526066,0.52279276,-0.8456695
-0.2,0.10000000000000003,0.8999999999999999,0.0,-0.5235987755982988,0,1.6993414,0.6867697,0.28940243,0.04889382,-0.024857894,1.4959852,-0.22183631,-1.0019016,0.5086951,-0.61228025,0.81469953,-0.63549453,0.517378,-0.9712461
-0.2,0.10000000000000003,0.8999999999999999,0.0,-0.5235987755982988,0,1.6966105,0.6831822,0.33809727,0.04485084,-0.0057792645,1.5035676,-0.31833315,-0.97723573,0.49925587,-0.6402789,0.8171018,-0.61477786,0.506293,-0.9320008
-0.2,0.10000000000000003,0.8999999999999999,0.0,-0.5235987755982988,0,1.6917853,0.68920416,0.34041372,0.030203128,-0.039922804,1.4863706,-0.30585426,-0.9914042,0.5253199,-0.61174077,0.81787133,-0.5805551,0.5479137,-0.9026115
-0.2,0.10000000000000003,0.8999999999999999,0.0,-0.5235987755982988,0,1.6992446,0.6857868,0.36407378,0.055225726,-0.007558715,1.4973252,-0.27284774,-0.9659234,0.5347736,-0.61496615,0.80568194,-0.6497176,0.5195218,-0.85971576
-0.2,0.10000000000000003,0.8999999999999999,0.0,-0.5235987755982988,0,1.7115273,0.6979636,0.34326148,0.041104376,-0.012111105,1.4945359,-0.21140683,-1.01157,0.50820565,-0.59600186,0.8268728,-0.6013932,0.5096912,-0.8556462
-0.2,0.10000000000000003,0.8999999999999999,0.0,-0.5235987755982988,0,1.7294155,0.6827746,0.35490748,0.06274259,-0.024706244,1.484683,-0.30511963,-0.98790795,0.51566285,-0.6200708,0.80207133,-0.62085974,0.5279101,-0.9901553
-0.2,0.10000000000000003,0.8999999999999999,0.0,-0.5235987755982988,0,1.7115765,0.6998736,0.3469121,0.03645394,0.023452792,1.5003233,-0.21893199,-1.0005515,0.5151169,-0.5970038,0.8126313,-0.6543419,0.5266455,-0.956873
-0.2,0.10000000000000003,0.8999999999999999,0.0,-0.5235987755982988,0,1.6979086,0.69366527,0.35540143,0.039545372,-0.014865571,1.5139446,-0.21360442,-0.98456544,0.5367998,-0.62047607,0.8187524,-0.57189924,0.52138036,-0.7870303
-0.2,0.10000000000000003,0.8999999999999999,0.0,-0.5235987755982988,0,1.6948228,0.68879116,0.33717757,0.04508487,0.014736452,1.5090035,-0.2564603,-0.9773112,0.541567,-0.62556726,0.8107371,-0.60893536,0.5110755,-0.9645183
-0.2,0.10000000000000003,0.8999999999999999,0.0,-0.5235987755982988,0,1.7172816,0.68461525,0.32757205,0.031685628,0.007609628,1.5017179,-0.28841034,-0.9642422,0.54053104,-0.6082315,0.7984634,-0.554901,0.57468367,-0.7305037
-0.2,0.10000000000000003,0.8999999999999999,0.0,-0.5235987755982988,0,1.6922792,0.68445224,0.32861277,0.042588044,-0.036883257,1.5168383,-0.29777554,-0.97882557,0.53311133,-0.61225563,0.8155069,-0.6273597,0.5090689,-0.9841207
-0.2,0.10000000000000003,0.8999999999999999,0.0,-0.5235987755982988,0,1.6896031,0.67628926,0.36690325,0.06663154,-0.015054426,1.484305,-0.25154445,-0.9886512,0.5193149,-0.6193421,0.82209414,-0.58159727,0.528376,-1.0886936
-0.2,0.10000000000000003,0.8999999999999999,0.0,-0.5235987755982988,0,1.7091491,0.68486273,0.38083062,0.042507827,-0.03396439,1.4900025,-0.24235111,-0.9567293,0.5245204,-0.63693225,0.8042794,-0.6028698,0.5458748,-1.0559894
-0.2,0.10000000000000003,0.8999999999999999,0.0,-0.5235987755982988,0,1.7042253,0.68672603,0.32434818,0.042183895,0.0020348716,1.5190046,-0.27597514,-0.9886223,0.51138866,-0.6028289,0.82009214,-0.6333981,0.5238654,-0.9013355
-0.2,0.10000000000000003,0.8999999999999999,0.0,-0.5235987755982988,0,1.7114488,0.684787,0.32566294,0.03545189,0.008766594,1.518124,-0.23201753,-0.99796015,0.50927615,-0.61498934,0.7966358,-0.62000126,0.5282043,-0.6638343
-0.2,0.10000000000000003,0.8999999999999999,0.0,-0.5235987755982988,0,1.696047,0.6964245,0.338158,0.029673133,-0.0016208284,1.5032588,-0.26089892,-0.980192,0.5153738,-0.6251455,0.7935248,-0.6352804,0.5074345,-0.86864585
-0.2,0.10000000000000003,0.8999999999999999,0.0,-0.5235987755982988,0,1.700231,0.6811658,0.3459485,0.05942002,-0.0021204315,1.4821986,-0.1935465,-0.9457232,0.52417344,-0.6414049,0.80914164,-0.6913894,0.51001024,-0.9979115
-0.2,0.10000000000000003,0.8999999999999999,0.0,-0.5235987755982988,0,1.6965673,0.67018145,0.3502626,0.032685682,0.03819106,1.5075535,-0.2848115,-0.9874217,0.52202713,-0.62188447,0.80603427,-0.6331626,0.5224614,-0.8421162
-0.2,0.10000000000000003,0.8999999999999999,0.0,-0.5235987755982988,0,1.7144172,0.6828601,0.34180978,0.05269635,-0.04507426,1.4845155,-0.36720333,-0.968988,0.5205395,-0.61569977,0.82160157,-0.6365625,0.5192061,-1.1678839
-0.2,0.10000000000000003,0.8999999999999999,0.0,-0.5235987755982988,0,1.688586,0.6901611,0.35627633,0.044375893,-0.038209572,1.5023992,-0.22531737,-0.9792101,0.51796776,-0.62860453,0.8030029,-0.57428294,0.52428216,-0.6649791
-0.2,0.10000000000000003,0.8999999999999999,0.0,-0.5235987755982988,0,1.7109503,0.68939286,0.33234307,0.042143814,-0.011265345,1.4929428,-0.22875373,-0.978383,0.5190596,-0.59348863,0.8092491,-0.60404044,0.49364296,-1.101857
-0.2,0.10000000000000003,0.8999999999999999,0.0,-0.5235987755982988,0,1.6886731,0.6848621,0.32999197,0.039546054,-0.007184694,1.489827,-0.24668469,-0.9686294,0.50568074,-0.62251234,0.8047565,-0.6250612,0.53279614,-0.7317556
-0.2,0.10000000000000003,0.8999999999999999,0.0,-0.5235987755982988,0,1.6861987,0.6924313,0.33563608,0.042890597,0.010023007,1.511432,-0.3266902,-0.96686137,0.53394115,-0.6244638,0.796192,-0.63319427,0.5302896,-1.0692683
-0.2,0.10000000000000003,0.8999999999999999,0.0,-0.5235987755982988,0,1.6875799,0.6821659,0.33845028,0.04377922,-0.012123525,1.5073086,-0.29979658,-0.97469264,0.5431161,-0.5936463,0.807714,-0.64809453,0.5361248,-1.0847937
-0.2,0.10000000000000003,0.8999999999999999,0.0,-0.5235987755982988,0,1.6987785,0.70273274,0.32033646,0.028311651,-0.018996453,1.4875828,-0.22797355,-0.98632383,0.5112749,-0.6212922,0.79777753,-0.5675278,0.5249056,-1.0262961
-0.2,0.10000000000000003,0.8999999999999999,0.0,-0.5235987755982988,0,1.7011471,0.67808485,0.35145408,0.051797908,-0.001681942,1.49309,-0.28071076,-0.96868795,0.5267195,-0.6071687,0.8012462,-0.6386952,0.55184263,-1.1445934
-0.2,0.10000000000000003,0.8999999999999999,0.0,-0.5235987755982988,0,1.7226216,0.67252016,0.35054988,0.040800173,-0.010769918,1.4853874,-0.31230623,-0.97442,0.5145122,-0.61221486,0.8258916,-0.63429606,0.5274584,-0.75325215
-0.2,0.10000000000000003,0.8999999999999999,0.0,-0.5235987755982988,0,1.687954,0.687568,0.33254287,0.050492533,0.0026626638,1.4973282,-0.2342378,-0.97987115,0.5217095,-0.6238209,0.8115444,-0.6580783,0.530093,-0.97251785
-0.2,0.10000000000000003,0.8999999999999999,0.0,-0.5235987755982988,0,1.7041742,0.68092597,0.31104392,0.03783164,0.0009924535,1.5177795,-0.2235493,-0.97864735,0.526981,-0.61314374,0.8106378,-0.617902,0.5353163,-0.866784
-0.2,0.10000000000000003,0.8999999999999999,0.0,-0.5235987755982988,0,1.6976851,0.69233066,0.32275665,0.033559766,0.0014527735,1.4885632,-0.2361137,-0.958202,0.5051567,-0.6277872,0.80804056,-0.6533279,0.5537039,-0.80013305
-0.2,0.10000000000000003,0.8999999999999999,0.0,-0.5235987755982988,0,1.6949228,0.68013465,0.3473902,0.049149875,-0.015338495,1.4947767,-0.19693296,-0.98824114,0.5270015,-0.63363546,0.80720747,-0.5715355,0.5266489,-0.9240468
-0.2,0.10000000000000003,0.8999999999999999,0.0,-0.5235987755982988,0,1.7098321,0.6867579,0.35804397,0.040739276,-0.024018966,1.5260324,-0.35430962,-0.9816429,0.5137533,-0.63727623,0.80909985,-0.5812209,0.5039283,-0.9604969
-0.2,0.10000000000000003,0.8999999999999999,0.0,-0.5235987755982988,0,1.7021234,0.68446684,0.34454295,0.054170497,0.046477485,1.4890666,-0.25558335,-0.9927077,0.53272814,-0.6050444,0.8138605,-0.67796856,0.49941474,-1.0211617
-0.2,0.10000000000000003,0.8999999999999999,0.0,-0.5235987755982988,0,1.6969646,0.6786911,0.33202705,0.059808794,-0.02908516,1.4806218,-0.33625427,-0.975216,0.5362266,-0.62471646,0.805513,-0.6149109,0.5220621,-0.771643
-0.2,0.10000000000000003,0.8999999999999999,0.0,-0.5235987755982988,0,1.7073511,0.6885843,0.34916922,0.033802442,0.0002580111,1.5108553,-0.26544577,-0.9882113,0.53681743,-0.6069857,0.7921904,-0.599925,0.53935087,-0.8835935
-0.2,0.10000000000000003,0.8999999999999999,0.0,-0.5235987755982988,0,1.7070651,0.6907267,0.32465103,0.023745524,-0.06556911,1.491699,-0.3510231,-0.9633372,0.5292992,-0.6116987,0.8042731,-0.62312776,0.5288336,-0.7501893
-0.2,0.10000000000000003,0.8999999999999999,0.0,-0.5235987755982988,0,1.7092654,0.68170995,0.35972688,0.037920654,-0.008997564,1.4902617,-0.22101861,-0.9762831,0.5388264,-0.62254566,0.80665904,-0.60429364,0.52900124,-0.915879
-0.2,0.10000000000000003,0.8999999999999999,0.0,-0.5235987755982988,0,1.6919022,0.6721897,0.32809457,0.056340136,0.027213924,1.500822,-0.25559896,-0.97426116,0.51526684,-0.6128078,0.8214606,-0.59872204,0.5313576,-0.5450526
-0.2,0.10000000000000003,0.8999999999999999,0.0,-0.5235987755982988,0,1.711838,0.6892499,0.34612873,0.047775522,-0.02668227,1.5060753,-0.21834435,-0.96776104,0.5227615,-0.6228119,0.8083444,-0.6414067,0.5113826,-1.1809351
-0.2,0.10000000000000003,0.8999999999999999,0.0,-0.5235987755982988,0,1.7033516,0.67628735,0.32980746,0.06378972,-0.028310176,1.5065235,-0.2276044,-1.0043538,0.52880925,-0.61289275,0.80819756,-0.5703994,0.5285882,-1.0869522
-0.2,0.10000000000000003,0.8999999999999999,0.0,-0.5235987755982988,0,1.7036746,0.68433666,0.327705,0.049715064,0.007213977,1.486104,-0.3278293,-0.9793815,0.52438927,-0.61509806,0.8211716,-0.5720977,0.5075266,-1.0102704
-0.2,0.10000000000000003,0.8999999999999999,0.0,-0.5235987755982988,0,1.7029495,0.68510056,0.3260556,0.032093234,0.021582544,1.5015899,-0.30854827,-0.9835261,0.5219901,-0.60939074,0.82146543,-0.5908361,0.50457054,-0.8412445
-0.2,0.10000000000000003,0.8999999999999999,0.0,-0.5235987755982988,0,1.7051995,0.6853773,0.3044478,0.04466813,0.011293092,1.514736,-0.19809313,-0.96711475,0.5092681,-0.6043476,0.8299765,-0.614703,0.52405536,-1.0015849
-0.2,0.10000000000000003,0.8999999999999999,0.0,-0.5235987755982988,0,1.7070538,0.6783282,0.34724128,0.06145262,-0.0446791,1.5066955,-0.29280233,-0.95959336,0.5360778,-0.6210872,0.81301713,-0.57324797,0.5288317,-0.91283137
-0.2,0.10000000000000003,0.8999999999999999,0.0,-0.5235987755982988,0,1.7017362,0.6777373,0.34540123,0.06051047,-0.034301966,1.503128,-0.22353123,-0.9651459,0.5492366,-0.6055162,0.8016929,-0.63947994,0.5491582,-1.0663381
-0.2,0.10000000000000003,0.8999999999999999,0.0,-0.5235987755982988,0,1.7122502,0.69085234,0.34150666,0.048586752,0.00082066085,1.4894937,-0.29666415,-0.97688323,0.53190345,-0.59818155,0.7977669,-0.63293856,0.555053,-0.9481756
-0.2,0.10000000000000003,0.8999999999999999,0.0,-0.5235987755982988,0,1.7176944,0.6700471,0.3623273,0.05987486,-0.038979158,1.4980888,-0.3034394,-0.96600103,0.5082133,-0.62234443,0.8193881,-0.5901512,0.51416165,-0.8944033
-0.2,0.10000000000000003,0.8999999999999999,0.0,-0.5235987755982988,0,1.7004064,0.68016565,0.3576222,0.05144505,0.020699194,1.487804,-0.27351797,-0.97477615,0.520982,-0.6175572,0.8074458,-0.5708862,0.5198885,-0.92625064
-0.2,0.10000000000000003,0.8999999999999999,0.0,-0.5235987755982988,0,1.723968,0.6783217,0.3366911,0.057836186,0.010128506,1.4938917,-0.25592056,-0.98604685,0.5167574,-0.5999452,0.80565816,-0.6171863,0.5066687,-1.0102617
-0.2,0.10000000000000003,0.8999999999999999,0.0,-0.5235987755982988,0,1.7158009,0.68397444,0.33633953,0.048967812,-0.04417157,1.4939246,-0.30310577,-0.9763067,0.5200357,-0.6042661,0.8287699,-0.6185138,0.5255907,-1.1796304
-0.2,0.10000000000000003,0.8999999999999999,0.0,-0.5235987755982988,0,1.6892318,0.67632306,0.35119233,0.05922785,0.014556883,1.4914327,-0.28500292,-0.9889247,0.5238716,-0.61192656,0.8316243,-0.6110403,0.49783328,-0.8710695
-0.2,0.10000000000000003,0.8999999999999999,0.0,-0.5235987755982988,0,1.7013178,0.6887382,0.34256825,0.05488541,-0.026911242,1.494496,-0.23592591,-0.9749129,0.52340543,-0.6231221,0.8061943,-0.5984214,0.52892625,-0.80479753
-0.2,0.10000000000000003,0.8999999999999999,0.0,-0.5235987755982988,0,1.7199115,0.6952598,0.32955554,0.04984942,-0.02724365,1.512911,-0.26510033,-0.98097813,0.5194992,-0.62698364,0.8204063,-0.64164674,0.5118774,-0.97229975
-0.2,0.10000000000000003,0.8999999999999999,0.0,-0.5235987755982988,0,1.6960406,0.6758862,0.32200095,0.05511277,0.027707927,1.4834226,-0.23885451,-0.9617232,0.5254583,-0.6336352,0.8145871,-0.5873493,0.5223616,-0.7213173
-0.2,0.10000000000000003,0.8999999999999999,0.0,-0.5235987755982988,0,1.7049953,0.69397074,0.32707,0.033626217,-0.011311796,1.5120214,-0.31451783,-0.95006293,0.5293639,-0.6211052,0.8219989,-0.6172114,0.5697359,-0.81901133
-0.2,0.10000000000000003,0.8999999999999999,0.0,-0.5235987755982988,0,1.6806428,0.6759934,0.36425865,0.0235045,0.048055053,1.506764,-0.2860625,-0.9489939,0.5284435,-0.64162356,0.8088961,-0.6237325,0.5326453,-0.98620564
-0.2,0.10000000000000003,0.8999999999999999,0.0,-0.5235987755982988,0,1.7016172,0.6812375,0.32290086,0.041260287,0.0011899341,1.4752072,-0.32722148,-0.9662284,0.534343,-0.6139579,0.8028196,-0.64392823,0.49460196,-0.72355026
-0.2,0.10000000000000003,0.8999999999999999,0.0,-0.5235987755982988,0,1.6917232,0.68262327,0.317969,0.05872391,-0.008592761,1.4961498,-0.29594922,-0.9705401,0.5373211,-0.61663896,0.7923267,-0.5653989,0.5491642,-1.046559
-0.2,0.10000000000000003,0.8999999999999999,0.0,-0.5235987755982988,0,1.7050812,0.6836373,0.3472797,0.052082844,0.06238491,1.5175422,-0.25459152,-0.96084446,0.51788837,-0.60082525,0.81353974,-0.6563206,0.5599975,-0.9327982
-0.2,0.10000000000000003,0.8999999999999999,0.0,-0.5235987755982988,0,1.7011586,0.6885712,0.34848443,0.05100017,-0.021735586,1.5123832,-0.2720587,-0.97190815,0.5305514,-0.61201745,0.802583,-0.6833974,0.5113529,-0.9043501
-0.2,0.10000000000000003,0.8999999999999999,0.0,-0.5235987755982988,0,1.698449,0.68563956,0.3266784,0.036723644,0.046554793,1.4857434,-0.1474518,-0.98505837,0.51609176,-0.62863684,0.8173147,-0.61730945,0.496625,-0.8998075
-0.2,0.10000000000000003,0.8999999999999999,0.0,-0.5235987755982988,0,1.7091715,0.6793198,0.3351908,0.05827058,-0.009078181,1.5103626,-0.20587993,-0.96058756,0.5326921,-0.6158556,0.8126274,-0.6082159,0.54406923,-0.87002933
-0.2,0.10000000000000003,0.8999999999999999,0.0,-0.5235987755982988,0,1.7170182,0.6794637,0.31823853,0.03751538,-0.031555463,1.5028658,-0.28738657,-0.98133904,0.5216006,-0.6058053,0.80734277,-0.5916467,0.5322618,-0.81682634
-0.2,0.10000000000000003,0.8999999999999999,0.0,-0.5235987755982988,0,1.7159591,0.68253726,0.3299076,0.05553772,-0.008872774,1.4909855,-0.18215336,-0.95960385,0.5179245,-0.6129945,0.81575495,-0.61154866,0.51410764,-1.0857452
-0.2,0.10000000000000003,0.8999999999999999,0.0,-0.5235987755982988,0,1.7179447,0.6794058,0.32021144,0.048250765,0.012465966,1.4812645,-0.26301947,-0.9566831,0.5196948,-0.62280375,0.80627126,-0.6118839,0.5281248,-1.1390097
-0.2,0.10000000000000003,0.8999999999999999,0.0,-0.5235987755982988,0,1.7016954,0.69179225,0.32621744,0.050543863,0.019239454,1.5067005,-0.25085902,-0.9655641,0.5239668,-0.61641634,0.8066844,-0.6196608,0.5379135,-0.79626393
-0.2,0.10000000000000003,0.8999999999999999,0.0,-0.5235987755982988,0,1.6975741,0.6924548,0.33209428,0.051873356,0.02850554,1.471008,-0.2450733,-0.9696603,0.52000785,-0.61187434,0.8008665,-0.60739887,0.51762086,-1.3852067
-0.2,0.10000000000000003,0.8999999999999999,0.0,-0.5235987755982988,0,1.7105786,0.6767606,0.3492101,0.043347113,0.0007598699,1.5045164,-0.25251883,-0.97668064,0.5216274,-0.62420523,0.817947,-0.61801565,0.51657003,-1.0420268
-0.2,0.10000000000000003,0.8999999999999999,0.0,-0.5235987755982988,0,1.6990188,0.6794254,0.31000948,0.03815493,0.007844508,1.4868097,-0.23811062,-0.94449335,0.5193525,-0.64393765,0.79066086,-0.6274249,0.5513092,-0.9448169
-0.2,0.10000000000000003,0.8999999999999999,0.0,-0.5235987755982988,0,1.7155366,0.6842466,0.32963797,0.037916735,-0.0074794698,1.4765218,-0.25681528,-0.9817519,0.5185641,-0.61681974,0.7788144,-0.6050488,0.53078246,-0.7591569
-0.2,0.10000000000000003,0.8999999999999999,0.0,-0.5235987755982988,0,1.7108378,0.6887629,0.33758217,0.048426997,0.035919633,1.5053244,-0.33107468,-0.9748546,0.5220828,-0.6274292,0.820306,-0.6578406,0.52027726,-0.785848
-0.2,0.10000000000000003,0.8999999999999999,0.0,-0.5235987755982988,0,1.6925634,0.68169904,0.33149,0.049517084,-0.04038979,1.5052049,-0.29644695,-0.9985224,0.5289104,-0.605305,0.8007256,-0.6295872,0.5126512,-0.98440814
-0.2,0.10000000000000003,0.8999999999999999,0.0,-0.5235987755982988,0,1.6906463,0.6997035,0.35242695,0.026767993,-0.0071296864,1.4976205,-0.3282776,-0.98693585,0.512809,-0.62472737,0.80898976,-0.6158342,0.49968868,-0.817032
-0.2,0.10000000000000003,0.8999999999999999,0.0,-0.5235987755982988,0,1.6996694,0.69390535,0.31987315,0.050121307,0.037667736,1.496572,-0.31447005,-0.96629953,0.5090232,-0.6268337,0.8002059,-0.6008861,0.56868696,-1.0431774
-0.2,0.10000000000000003,0.8999999999999999,0.0,-0.5235987755982988,0,1.6991384,0.6914572,0.34046987,0.04103702,0.01304333,1.4740655,-0.250156,-0.9684782,0.5306316,-0.6157733,0.8024624,-0.6415628,0.5284397,-0.9249838
-0.2,0.10000000000000003,0.8999999999999999,0.0,-0.5235987755982988,0,1.7041123,0.6913718,0.33463877,0.040026158,-0.066455476,1.5032251,-0.2822752,-0.98084766,0.51788116,-0.60511625,0.8063551,-0.6448428,0.5092701,-1.200453
-0.2,0.10000000000000003,0.8999999999999999,0.0,-0.5235987755982988,0,1.6814979,0.67770666,0.3279323,0.053689588,0.004115769,1.5065167,-0.22711113,-0.9607454,0.5276049,-0.6290855,0.79292285,-0.6269323,0.5363906,-1.1174252
-0.2,0.10000000000000003,0.8999999999999999,0.0,-0.5235987755982988,0,1.7056522,0.69585806,0.34001017,0.05505918,-0.01017397,1.5090879,-0.26902086,-0.9575543,0.5108547,-0.6131875,0.80385315,-0.63417864,0.5393187,-0.7457908
-0.2,0.10000000000000003,0.8999999999999999,0.0,-0.5235987755982988,0,1.7064115,0.6880843,0.32701907,0.037836835,-0.019701174,1.497905,-0.2172122,-0.998629,0.51406026,-0.6095357,0.8141135,-0.6227685,0.5398517,-1.4326501
-0.2,0.10000000000000003,0.8999999999999999,0.0,-0.5235987755982988,0,1.6856637,0.6932679,0.34955367,0.035325523,-0.01264299,1.5063953,-0.29027313,-0.9911626,0.5299214,-0.5905447,0.8070327,-0.60237604,0.5569308,-0.86846703
-0.2,0.10000000000000003,0.8999999999999999,0.0,-0.5235987755982988,0,1.7037702,0.6765178,0.3135867,0.060890395,0.0030577553,1.487911,-0.30248582,-0.9802196,0.5278939,-0.6258956,0.8014768,-0.5748786,0.5136385,-0.9302364
-0.2,0.10000000000000003,0.8999999999999999,0.0,-0.5235987755982988,0,1.6954317,0.6897636,0.3351258,0.0453365,-0.012407464,1.4962431,-0.25189027,-0.9757012,0.53314775,-0.6233898,0.79142696,-0.59426165,0.5226448,-0.8723668
-0.2,0.10000000000000003,0.8999999999999999,0.0,-0.5235987755982988,0,1.7204702,0.6932997,0.33607137,0.038612317,-0.036489066,1.5064571,-0.24741982,-0.9822064,0.5141932,-0.6130759,0.789879,-0.5883205,0.5121132,-0.91622627
-0.2,0.10000000000000003,0.8999999999999999,0.0,-0.5235987755982988,0,1.7200915,0.6862708,0.36303905,0.055107344,-0.01030094,1.487717,-0.25489026,-0.96540487,0.5343647,-0.62080014,0.7897741,-0.6595384,0.53380203,-0.9974798
-0.2,0.10000000000000003,0.8999999999999999,0.0,-0.5235987755982988,0,1.7061348,0.6752745,0.3389535,0.067512125,0.024720978,1.5191501,-0.26697063,-0.9742736,0.51446396,-0.61377525,0.81144947,-0.64812523,0.51653844,-0.9624055
-0.2,0.10000000000000003,0.8999999999999999,0.0,-0.5235987755982988,0,1.7064834,0.6879166,0.3447409,0.043327056,-0.03072423,1.5011047,-0.23370458,-0.9740648,0.5147646,-0.61791146,0.79535925,-0.5624805,0.5373163,-0.9267875
-0.2,0.10000000000000003,0.8999999999999999,0.0,-0.5235987755982988,0,1.7147832,0.69431126,0.33797476,0.035729066,0.02240013,1.5016141,-0.25160357,-0.99485195,0.5283391,-0.59232527,0.81332374,-0.5571047,0.5387305,-0.9722155
-0.2,0.10000000000000003,0.8999999999999999,0.0,-0.5235987755982988,0,1.7033489,0.68943495,0.34731343,0.048672184,0.032850128,1.501956,-0.3355024,-0.96883154,0.5255932,-0.6003848,0.80855906,-0.5666822,0.5369995,-0.657534
-0.2,0.10000000000000003,0.8999999999999999,0.0,-0.5235987755982988,0,1.702444,0.686439,0.33223665,0.04092888,-0.025980283,1.5199662,-0.29204446,-0.9639805,0.5101153,-0.62414956,0.82621306,-0.5889502,0.5281154,-0.92534137
-0.2,0.10000000000000003,0.8999999999999999,0.0,-0.5235987755982988,0,1.7134126,0.70040816,0.32478395,0.036488324,0.017024752,1.4994762,-0.18097888,-0.97411364,0.53309524,-0.6122042,0.82514554,-0.60331446,0.5357017,-0.82063216
-0.2,0.10000000000000003,0.8999999999999999,0.0,-0.5235987755982988,0,1.7102175,0.67216134,0.34170967,0.045456216,-0.015155236,1.5015653,-0.29330644,-0.9799839,0.518861,-0.61613816,0.8152704,-0.5320981,0.55081385,-0.9010769
-0.2,0.10000000000000003,0.8999999999999999,0.0,-0.5235987755982988,0,1.7102537,0.694994,0.34487173,0.03764268,-0.006323307,1.4999884,-0.3084584,-0.97518796,0.5172688,-0.6264147,0.81064284,-0.57161003,0.51367694,-1.1411608
-0.2,0.10000000000000003,0.8999999999999999,0.0,-0.5235987755982988,0,1.7019596,0.68371683,0.3505647,0.012236038,0.009215845,1.4938506,-0.3296342,-0.9740409,0.52003515,-0.6054074,0.80966914,-0.5959963,0.5020944,-0.97421163
-0.2,0.10000000000000003,0.8999999999999999,0.0,-0.5235987755982988,0,1.7009846,0.69846916,0.3374657,0.038836155,0.03593113,1.4861686,-0.1836967,-0.95919824,0.53161716,-0.59488404,0.80540633,-0.63183933,0.5634013,-0.8928275
-0.2,0.10000000000000003,0.8999999999999999,0.0,-0.5235987755982988,0,1.7093393,0.6883365,0.3402887,0.05685155,0.023262711,1.4930196,-0.2880399,-0.97186995,0.5222799,-0.61356854,0.7979213,-0.6009112,0.53581905,-0.9881655
-0.2,0.10000000000000003,0.8999999999999999,0.0,-0.5235987755982988,0,1.6800175,0.68819934,0.35344657,0.043523826,-0.026819268,1.513968,-0.3313173,-0.98679906,0.5269429,-0.6123321,0.79481447,-0.64853054,0.516558,-1.0266576
-0.2,0.10000000000000003,0.8999999999999999,0.0,-0.5235987755982988,0,1.7027991,0.6816566,0.3274256,0.03550143,-0.014909552,1.4923972,-0.26890087,-0.9865942,0.50489026,-0.6120096,0.8121809,-0.6636803,0.51642007,-0.88943255
-0.2,0.10000000000000003,0.8999999999999999,0.0,-0.5235987755982988,0,1.7163482,0.6961414,0.31785586,0.044562522,-0.009130982,1.4829752,-0.32701913,-0.99459165,0.52000105,-0.60954183,0.80869704,-0.6124283,0.54710966,-0.848894
-0.2,0.10000000000000003,0.8999999999999999,0.0,-0.5235987755982988,0,1.7238027,0.69744086,0.3395766,0.049482346,-0.0390937,1.4915504,-0.27496958,-0.97255343,0.5228756,-0.6219977,0.81039554,-0.61822504,0.53877896,-1.0489537
-0.2,0.10000000000000003,0.8999999999999999,0.0,-0.5235987755982988,0,1.712782,0.6820493,0.34562096,0.03976724,0.00046041186,1.4980544,-0.2866095,-0.9791243,0.5335547,-0.62709063,0.80052227,-0.5813048,0.52340734,-1.142894
-0.2,0.10000000000000003,0.8999999999999999,0.0,-0.5235987755982988,0,1.700687,0.6839696,0.30990908,0.06875047,-0.029321147,1.4817575,-0.17687601,-0.944478,0.5288685,-0.6373156,0.7998785,-0.6272125,0.51793265,-0.9755056
-0.2,0.10000000000000003,0.8999999999999999,0.0,-0.5235987755982988,0,1.6908559,0.68561786,0.334771,0.068283215,-0.006576661,1.5036247,-0.1502502,-0.97100884,0.53468645,-0.6264426,0.8043872,-0.5608628,0.54800886,-0.9085356
-0.2,0.10000000000000003,0.8999999999999999,0.0,-0.5235987755982988,0,1.7169791,0.67685515,0.32079527,0.0703284,0.031184783,1.4743645,-0.24172357,-0.9693432,0.51176614,-0.62996954,0.8021602,-0.5636678,0.54166186,-0.79055285
-0.2,0.10000000000000003,0.8999999999999999,0.0,-0.5235987755982988,0,1.7084413,0.68917584,0.31568182,0.06290841,-0.0042116144,1.499504,-0.22325839,-0.97455317,0.5294325,-0.60404927,0.806849,-0.6098519,0.54673743,-0.7967527
-0.2,0.10000000000000003,0.8999999999999999,0.0,-0.5235987755982988,0,1.6879493,0.6728406,0.32644984,0.05860366,-0.003882044,1.5009546,-0.30988392,-0.9659849,0.5244948,-0.6140181,0.8148884,-0.6207383,0.53438526,-1.1691985
-0.2,0.10000000000000003,0.8999999999999999,0.0,-0.5235987755982988,0,1.7167833,0.68893605,0.31643665,0.03625317,0.01117609,1.4873024,-0.28810793,-0.9694673,0.5322507,-0.59821475,0.8033634,-0.59495884,0.56553304,-0.9607851
-0.2,0.10000000000000003,0.8999999999999999,0.0,-0.5235987755982988,0,1.7119181,0.66940445,0.32906383,0.063617766,-0.027934564,1.5157915,-0.23188405,-0.94955796,0.5322262,-0.624906,0.8256686,-0.624157,0.55283505,-0.9908436
-0.2,0.10000000000000003,0.8999999999999999,0.0,-0.5235987755982988,0,1.6974788,0.69246936,0.31098577,0.051629383,-0.04213565,1.4911401,-0.17663974,-0.97027,0.5378032,-0.6137164,0.7909327,-0.6431969,0.50915617,-0.6564872
-0.2,0.10000000000000003,0.8999999999999999,0.0,-0.5235987755982988,0,1.7031529,0.6929771,0.3161273,0.03410427,-0.0061813775,1.5145429,-0.21782096,-0.9881987,0.5252454,-0.6330571,0.81260985,-0.6063143,0.5259091,-0.9618281
-0.2,0.10000000000000003,0.8999999999999999,0.0,-0.5235987755982988,0,1.7047853,0.6863691,0.32249066,0.06515762,0.018107379,1.5030525,-0.3488461,-0.9649271,0.5389409,-0.6256176,0.8062105,-0.5976147,0.5374927,-1.0277514
-0.2,0.10000000000000003,0.8999999999999999,0.0,-0.5235987755982988,0,1.7028991,0.6889714,0.30764145,0.043349374,-0.020810025,1.5049456,-0.34420562,-0.9834347,0.5190274,-0.6265361,0.79825693,-0.6112617,0.52918684,-0.7921264
-0.2,0.10000000000000003,0.8999999999999999,0.0,-0.5235987755982988,0,1.6957291,0.6953695,0.33525673,0.059609175,-0.042778645,1.5016924,-0.19681604,-0.9777029,0.5266056,-0.6268723,0.8116443,-0.64650357,0.49854282,-1.1667688
-0.2,0.10000000000000003,0.8999999999999999,0.0,-0.5235987755982988,0,1.7011677,0.6749515,0.339145,0.05022445,0.034468967,1.5110369,-0.3031845,-1.0177813,0.53734493,-0.6025043,0.81631297,-0.61816597,0.5270704,-1.0066586
-0.2,0.10000000000000003,0.8999999999999999,0.0,-0.5235987755982988,0,1.6978725,0.6661481,0.32436636,0.06277219,0.01993926,1.4997275,-0.2715083,-0.9803119,0.5283701,-0.6392998,0.80079895,-0.55536205,0.55311215,-1.0845555
-0.2,0.10000000000000003,0.8999999999999999,0.0,-0.5235987755982988,0,1.7099198,0.67160034,0.32169756,0.041142665,0.034831595,1.5114965,-0.28787237,-0.97161317,0.5224313,-0.611271,0.8058226,-0.5849573,0.52827084,-0.93387336
-0.2,0.10000000000000003,0.8999999999999999,0.0,-0.5235987755982988,0,1.7021636,0.6901477,0.34426615,0.04776673,0.0029564023,1.4824704,-0.29325634,-0.98863655,0.5138149,-0.61500025,0.79822314,-0.5841438,0.52260876,-0.9125479
-0.2,0.10000000000000003,0.8999999999999999,0.0,-0.5235987755982988,0,1.7047895,0.6802957,0.33008924,0.044162,-0.024356006,1.4906551,-0.2665075,-0.96984076,0.52370954,-0.60724217,0.80697525,-0.6022896,0.5153762,-1.0099214
-0.2,0.10000000000000003,0.8999999999999999,0.0,-0.5235987755982988,0,1.718378,0.6844005,0.35385412,0.06608872,-0.03872505,1.4990388,-0.29361314,-0.94807816,0.5224838,-0.6260891,0.82103616,-0.64791733,0.54503256,-1.034927
-0.2,0.10000000000000003,0.8999999999999999,0.0,-0.5235987755982988,0,1.6943376,0.68125004,0.3513562,0.066011384,-0.06946922,1.5136201,-0.15567853,-0.9673814,0.5238956,-0.63743305,0.82015824,-0.5795482,0.5205529,-0.8671798
-0.2,0.10000000000000003,0.8999999999999999,0.0,-0.5235987755982988,0,1.710409,0.67837465,0.32877496,0.031442832,-0.020464221,1.5116284,-0.27191922,-0.9832001,0.5271398,-0.6146145,0.80120885,-0.59866416,0.5335972,-1.1344314
-0.2,0.10000000000000003,0.8999999999999999,0.0,-0.5235987755982988,0,1.7092085,0.68522024,0.32804546,0.05052031,0.02204406,1.4853743,-0.24841101,-0.98255706,0.52780515,-0.6197559,0.80942726,-0.6459039,0.5287746,-1.1045568
