sanky1234/BimanualDexCatch/isaacgymenvs/cem_results/football_pose_-0.1_0.0_1.2999999999999998_-0.5235987755982988_0.0_0_2025-05-25.csv
x,y,z,roll,pitch,yaw,robot1/joint1,robot1/joint2,robot1/joint3,robot1/joint4,robot1/joint5,robot1/joint6,robot1/joint7,robot2/joint1,robot2/joint2,robot2/joint3,robot2/joint4,robot2/joint5,robot2/joint6,robot2/joint7
-0.1,0.0,1.2999999999999998,-0.5235987755982988,0.0,0,-0.6892276,-1.3388526,1.1929523,-0.1434313,0.11656065,1.0162045,-0.058490664,0.9049621,-0.84065884,1.063171,0.07299093,0.1255617,1.1071285,-0.26903072
-0.1,0.0,1.2999999999999998,-0.5235987755982988,0.0,0,-0.6889971,-1.3390853,1.1946371,-0.14430021,0.102054015,1.0377604,0.3723174,0.90479594,-0.8396723,1.0997598,0.05333996,-0.095559075,1.1622818,-0.20486824
-0.1,0.0,1.2999999999999998,-0.5235987755982988,0.0,0,-0.6893873,-1.338875,1.1928155,-0.15182373,0.109133154,1.1030283,0.586542,0.90558136,-0.84089315,1.0616531,0.07995295,-0.130164,1.0994822,0.13433444
-0.1,0.0,1.2999999999999998,-0.5235987755982988,0.0,0,-0.68928176,-1.3390836,1.1925266,-0.13457331,0.06562649,1.0867078,0.8382208,0.9045352,-0.84090734,1.0597904,0.114390135,-0.16622253,1.10394,-0.091955
-0.1,0.0,1.2999999999999998,-0.5235987755982988,0.0,0,-0.6889019,-1.3390822,1.1937362,-0.083515294,0.15228863,1.0545716,0.49779877,0.90724,-0.83994836,1.1186109,0.119147904,-0.09157273,1.1183102,-0.19192651
-0.1,0.0,1.2999999999999998,-0.5235987755982988,0.0,0,-0.6889667,-1.3388485,1.1932765,-0.12622221,0.23193766,1.0900632,-0.38501292,0.9047006,-0.8405695,1.0543035,0.07474394,0.19331668,1.1559796,-0.40654954
-0.1,0.0,1.2999999999999998,-0.5235987755982988,0.0,0,-0.6892591,-1.3389325,1.1958851,-0.14669478,0.23524,1.0350126,0.76014435,0.903456,-0.8402299,1.0740143,0.14245215,-0.060231008,1.1842482,0.7698283
-0.1,0.0,1.2999999999999998,-0.5235987755982988,0.0,0,-0.6890824,-1.3391865,1.1955992,-0.12974021,0.17928714,1.0663599,0.24355562,0.9050025,-0.8402022,1.0989757,0.10052502,0.053703047,1.2463526,-0.19341952
-0.1,0.0,1.2999999999999998,-0.5235987755982988,0.0,0,-0.6890576,-1.3389246,1.1955127,-0.16733563,0.21544571,0.9792484,0.037057403,0.9057738,-0.8404536,1.1097324,0.03900931,0.2413873,1.2253602,0.7662292
-0.1,0.0,1.2999999999999998,-0.5235987755982988,0.0,0,-0.6890632,-1.3389236,1.1947218,-0.1875589,0.08613659,0.9885553,-0.04553629,0.90346247,-0.83979267,1.1186763,0.0735758,-0.017039832,1.05954,0.22216308
-0.1,0.0,1.2999999999999998,-0.5235987755982988,0.0,0,-0.6892852,-1.3391141,1.1954052,-0.15299639,0.019325975,1.0778538,0.6323928,0.90455925,-0.8406252,1.092175,0.085273676,0.030790268,1.097019,0.20417683
-0.1,0.0,1.2999999999999998,-0.5235987755982988,0.0,0,-0.6889244,-1.3389176,1.194727,-0.13261855,0.17277338,1.0438794,0.8764344,0.905896,-0.84010977,1.0869231,0.088248245,0.10210979,1.1325666,-0.8837074
-0.1,0.0,1.2999999999999998,-0.5235987755982988,0.0,0,-0.68943727,-1.3390516,1.1934378,-0.118527174,0.27954334,1.0663189,-0.057234112,0.9039582,-0.8400049,1.0895834,0.114633925,-0.053284984,1.0605682,0.37089306
-0.1,0.0,1.2999999999999998,-0.5235987755982988,0.0,0,-0.68937314,-1.3389881,1.1947443,-0.121265106,0.0036609774,1.0188694,-0.18305014,0.9036888,-0.8402674,1.085012,0.057997614,0.056685843,1.0489691,0.42790523
-0.1,0.0,1.2999999999999998,-0.5235987755982988,0.0,0,-0.6890627,-1.3393497,1.1927905,-0.15080394,0.217455,1.0333226,-0.17750138,0.9038586,-0.8404616,1.1374278,0.12196129,-0.2920463,1.0687165,0.005853305
-0.1,0.0,1.2999999999999998,-0.5235987755982988,0.0,0,-0.6891167,-1.3388609,1.192748,-0.15106924,0.29575357,1.0851867,-0.40680704,0.9042674,-0.8403229,1.1029419,0.058296125,0.102531,1.0436208,-0.65658945
-0.1,0.0,1.2999999999999998,-0.5235987755982988,0.0,0,-0.68914807,-1.3390019,1.1941061,-0.17415483,0.26684594,1.0622818,-0.3115352,0.9051161,-0.8408467,1.1549834,0.07917861,0.21551447,1.2886016,-0.60693413
-0.1,0.0,1.2999999999999998,-0.5235987755982988,0.0,0,-0.6888819,-1.3390733,1.1912,-0.14365318,0.13553847,1.0679027,0.43249917,0.903664,-0.83996385,1.0905719,0.15353286,0.28557146,1.07879,-0.7275331
-0.1,0.0,1.2999999999999998,-0.5235987755982988,0.0,0,-0.6891757,-1.3388726,1.1932389,-0.11603162,0.053296153,1.1003948,0.24057625,0.9035846,-0.8399431,1.0980828,0.096621834,-0.0112008285,1.0179632,-0.53096646
-0.1,0.0,1.2999999999999998,-0.5235987755982988,0.0,0,-0.68879133,-1.3389672,1.195612,-0.1540669,0.1625602,1.0395298,0.10747056,0.9049576,-0.84015805,1.1216464,0.13219985,0.14238477,1.156495,0.3507495
-0.1,0.0,1.2999999999999998,-0.5235987755982988,0.0,0,-0.6893183,-1.3390673,1.1943785,-0.13115372,0.1524904,1.0389392,0.04218174,0.90389436,-0.83963776,1.1314514,0.06277736,0.12619497,0.97386056,0.4925572
-0.1,0.0,1.2999999999999998,-0.5235987755982988,0.0,0,-0.68917215,-1.3392534,1.1936227,-0.14844394,0.14030057,1.0986907,-0.641854,0.9048939,-0.8408848,1.0855509,0.12760758,0.048255444,1.1250501,-0.31737587
-0.1,0.0,1.2999999999999998,-0.5235987755982988,0.0,0,-0.68924224,-1.3389245,1.1927359,-0.114394404,0.2445052,1.0637851,0.2648655,0.9050243,-0.84112865,1.078058,0.047698494,-0.13090864,1.2057083,-0.03959733
-0.1,0.0,1.2999999999999998,-0.5235987755982988,0.0,0,-0.6886088,-1.3387108,1.1929643,-0.13730629,0.14286268,1.0146722,0.16319148,0.9034776,-0.8399075,1.0572277,0.13297065,0.09316558,1.0394233,-0.4433761
-0.1,0.0,1.2999999999999998,-0.5235987755982988,0.0,0,-0.68904203,-1.339006,1.1942635,-0.17143059,0.23954964,1.0514479,1.0357575,0.9057001,-0.8402424,1.0789521,0.10558041,-0.09631847,1.2024937,-0.6945792
-0.1,0.0,1.2999999999999998,-0.5235987755982988,0.0,0,-0.6891321,-1.3390999,1.1912873,-0.16952457,0.18634775,1.0074725,-0.07236842,0.90278643,-0.8405831,1.1187581,0.0713642,-0.24183182,1.1387621,0.38959685
-0.1,0.0,1.2999999999999998,-0.5235987755982988,0.0,0,-0.6889782,-1.3391403,1.1932375,-0.13711777,0.15675014,0.9838385,1.7911034,0.90384436,-0.84025013,1.0751138,0.12716772,-0.069165364,1.0158492,-0.5119075
-0.1,0.0,1.2999999999999998,-0.5235987755982988,0.0,0,-0.6888162,-1.3390892,1.1933647,-0.14514308,0.20200078,1.0410001,0.16119318,0.90415484,-0.8397327,1.0938822,0.111154854,-0.056684215,1.1968405,-0.8066884
-0.1,0.0,1.2999999999999998,-0.5235987755982988,0.0,0,-0.6891547,-1.3389604,1.1930993,-0.13238952,0.23607363,1.0564393,0.8404744,0.90244675,-0.840299,1.0620838,0.077997304,-0.19086105,1.0795897,-0.3254767
-0.1,0.0,1.2999999999999998,-0.5235987755982988,0.0,0,-0.6891436,-1.3390399,1.1964953,-0.14685917,0.35703614,1.0923209,0.37601498,0.9036758,-0.8407039,1.0456485,0.086814195,-0.0047082915,1.1500862,0.21056311
-0.1,0.0,1.2999999999999998,-0.5235987755982988,0.0,0,-0.6887468,-1.3391149,1.1921719,-0.16961513,0.08702975,1.0927525,1.1130918,0.9045854,-0.839829,1.0924431,0.076715186,0.02126634,1.0768871,-0.6537619
-0.1,0.0,1.2999999999999998,-0.5235987755982988,0.0,0,-0.6890215,-1.3390644,1.1957732,-0.166557,-0.09284704,1.0620266,0.03933807,0.9028296,-0.84093606,1.0748801,0.1366403,-0.08630982,1.146281,0.44498828
-0.1,0.0,1.2999999999999998,-0.5235987755982988,0.0,0,-0.68877745,-1.3390279,1.1933953,-0.107183926,0.07830064,1.0705549,-0.47908044,0.9052816,-0.840587,1.124684,0.0510046,-0.096505724,1.1567992,-0.33582398
-0.1,0.0,1.2999999999999998,-0.5235987755982988,0.0,0,-0.68926185,-1.3389753,1.1946393,-0.1613246,0.29006487,1.0614687,0.62696385,0.9032377,-0.8415438,1.1004755,0.1167563,-0.0060737273,1.0831225,0.19587214
-0.1,0.0,1.2999999999999998,-0.5235987755982988,0.0,0,-0.6890601,-1.338994,1.1946013,-0.17227545,0.17078896,1.123852,0.21351936,0.90336597,-0.8400685,1.1063501,0.08611391,-0.03327157,1.1782799,-1.2953324
-0.1,0.0,1.2999999999999998,-0.5235987755982988,0.0,0,-0.68933535,-1.339207,1.194164,-0.16359575,0.21485443,1.0375978,0.892913,0.9029134,-0.8408367,1.0885136,0.09799254,0.049442433,1.1217667,-0.14923911
-0.1,0.0,1.2999999999999998,-0.5235987755982988,0.0,0,-0.6893361,-1.3389369,1.1923702,-0.18286021,0.20726807,1.0339093,-0.22375737,0.9045816,-0.84120667,1.0890371,0.0677877,0.1082908,1.0751668,0.74826384
-0.1,0.0,1.2999999999999998,-0.5235987755982988,0.0,0,-0.68902344,-1.3393079,1.1952943,-0.15847516,0.2425433,1.0616719,-0.09162033,0.90356153,-0.84074163,1.135713,0.073439814,-0.05163381,1.2470937,0.5467311
-0.1,0.0,1.2999999999999998,-0.5235987755982988,0.0,0,-0.689375,-1.3389397,1.195862,-0.15478477,0.1791766,1.069498,0.28161418,0.9023214,-0.8407734,1.1303929,0.1074134,0.105043806,1.1410109,0.6179807
-0.1,0.0,1.2999999999999998,-0.5235987755982988,0.0,0,-0.6893868,-1.3387785,1.1950265,-0.12859607,0.18986498,1.0512923,-0.060984805,0.90427774,-0.8411284,1.065018,0.16280478,0.0024333834,0.99477196,0.46184486
-0.1,0.0,1.2999999999999998,-0.5235987755982988,0.0,0,-0.6887856,-1.3389891,1.1943117,-0.14361656,0.23859294,1.0323944,0.34368593,0.90210015,-0.8404534,1.1017405,0.11909684,0.0310172,1.0997982,0.65524757
-0.1,0.0,1.2999999999999998,-0.5235987755982988,0.0,0,-0.6886105,-1.3387916,1.1928923,-0.17017241,0.25745875,1.043877,1.2148465,0.9038938,-0.84051913,1.1353208,0.10538047,0.08673057,1.1204368,-0.25785273
-0.1,0.0,1.2999999999999998,-0.5235987755982988,0.0,0,-0.6891371,-1.3390714,1.1937405,-0.13302769,0.18153639,1.1337888,-0.059900813,0.9024842,-0.8397454,1.086208,0.11228445,-0.07154115,1.0813463,-0.20495932
-0.1,0.0,1.2999999999999998,-0.5235987755982988,0.0,0,-0.688599,-1.3389335,1.1948521,-0.18065006,0.21202222,1.0877583,0.8488444,0.9030624,-0.8404981,1.0927557,0.064576,0.14795187,1.079418,-0.5923931
-0.1,0.0,1.2999999999999998,-0.5235987755982988,0.0,0,-0.6885991,-1.3389062,1.1926632,-0.15757546,0.16841958,1.0055759,0.71554685,0.9030469,-0.8405206,1.1274203,0.11127043,-0.16388752,1.1421499,0.49083364
-0.1,0.0,1.2999999999999998,-0.5235987755982988,0.0,0,-0.6892622,-1.3388207,1.1937073,-0.16769658,0.15444152,1.0711292,0.24180444,0.90389115,-0.84063953,1.1207166,0.027621314,-0.045408048,1.1656865,0.43911907
-0.1,0.0,1.2999999999999998,-0.5235987755982988,0.0,0,-0.6889911,-1.3388784,1.1929739,-0.15422152,0.12430544,1.0607855,0.3610872,0.90422183,-0.8403942,1.0821792,0.079393364,0.19320577,1.2450953,-0.097139426
-0.1,0.0,1.2999999999999998,-0.5235987755982988,0.0,0,-0.68891084,-1.3390771,1.1925722,-0.15324917,0.1881265,1.0491014,0.7055085,0.9038917,-0.83998585,1.0884548,0.04972165,-0.060007732,1.127072,-0.45206696
-0.1,0.0,1.2999999999999998,-0.5235987755982988,0.0,0,-0.6889708,-1.3387173,1.19363,-0.13587591,0.19517355,1.0378817,-0.71235037,0.9043702,-0.840735,1.1463374,0.07957927,-0.18559527,1.1012092,0.5999736
-0.1,0.0,1.2999999999999998,-0.5235987755982988,0.0,0,-0.68899435,-1.3390211,1.1949804,-0.15248743,0.18614246,1.0398154,1.027041,0.9045777,-0.84122604,1.1070825,0.095309354,0.08035732,1.2187222,0.5992916
-0.1,0.0,1.2999999999999998,-0.5235987755982988,0.0,0,-0.68863124,-1.3390777,1.1920261,-0.12547314,0.20838831,1.0855907,0.48038337,0.9046375,-0.83991736,1.0577863,0.11108533,-0.12141791,1.2369868,0.4363002
-0.1,0.0,1.2999999999999998,-0.5235987755982988,0.0,0,-0.68900204,-1.3389008,1.1948804,-0.104943916,0.25130278,1.0787741,-0.037016988,0.90401417,-0.8406677,1.1210876,0.14581294,0.023143547,1.1421039,-0.088117786
-0.1,0.0,1.2999999999999998,-0.5235987755982988,0.0,0,-0.6887623,-1.3388338,1.1954976,-0.15411884,0.20289953,1.1244375,0.24110492,0.90449125,-0.8405958,1.1055148,0.08511389,0.09357574,1.1249228,0.41997194
-0.1,0.0,1.2999999999999998,-0.5235987755982988,0.0,0,-0.68899304,-1.339114,1.1935182,-0.15319611,0.17975518,1.0396935,0.39845833,0.9047944,-0.8402301,1.0646688,0.05826698,-0.020363515,1.0075157,0.5704443
-0.1,0.0,1.2999999999999998,-0.5235987755982988,0.0,0,-0.6888223,-1.3392966,1.1921902,-0.12762327,0.13366848,1.070755,0.3295366,0.9054316,-0.83999443,1.1274631,0.003871685,0.10412422,1.0642717,0.033973366
-0.1,0.0,1.2999999999999998,-0.5235987755982988,0.0,0,-0.68926245,-1.3392152,1.1948355,-0.14459763,0.28583497,1.0759505,-0.56691027,0.90364623,-0.8414215,1.0730677,0.14937499,-0.091879204,1.1506318,-0.7188393
-0.1,0.0,1.2999999999999998,-0.5235987755982988,0.0,0,-0.68923557,-1.3390527,1.1935604,-0.0701219,-0.0008357418,0.99451137,-0.007388901,0.9047925,-0.841009,1.0757712,0.05722268,-0.12391851,1.1402378,-0.14545575
-0.1,0.0,1.2999999999999998,-0.5235987755982988,0.0,0,-0.6891961,-1.3391632,1.1946208,-0.1780508,0.20061645,1.008975,1.085784,0.90458274,-0.8411058,1.1314167,0.0373295,0.043703772,1.0486982,1.2925221
-0.1,0.0,1.2999999999999998,-0.5235987755982988,0.0,0,-0.6887528,-1.3392408,1.1914129,-0.108646445,0.20359065,1.0711983,0.82012695,0.9037442,-0.84015626,1.1112839,0.108032085,0.032709222,1.140247,-0.39568886
-0.1,0.0,1.2999999999999998,-0.5235987755982988,0.0,0,-0.6889933,-1.3390448,1.1947407,-0.13086809,0.26622602,1.0608815,0.7026385,0.9047746,-0.84109944,1.0633817,0.1441751,0.08709716,1.052697,0.03401756
-0.1,0.0,1.2999999999999998,-0.5235987755982988,0.0,0,-0.6890715,-1.3389336,1.1930751,-0.1609366,0.17505494,1.0409691,-0.21223703,0.9036892,-0.8410553,1.1420976,0.024532026,0.15082079,1.0941947,0.8968947
-0.1,0.0,1.2999999999999998,-0.5235987755982988,0.0,0,-0.6886909,-1.3388131,1.194745,-0.15950368,0.28510702,1.0235242,1.1873841,0.9044171,-0.8409948,1.0538471,0.058534093,-0.13676918,1.1588376,0.8852837
-0.1,0.0,1.2999999999999998,-0.5235987755982988,0.0,0,-0.68896985,-1.3390843,1.1960182,-0.12463721,-0.023051549,1.0129551,-0.20557752,0.90461034,-0.8409313,1.0886765,0.07557807,-0.08214772,1.0456827,-0.065398805
-0.1,0.0,1.2999999999999998,-0.5235987755982988,0.0,0,-0.6884762,-1.3392712,1.1947231,-0.14025596,0.21537909,0.9812323,0.729694,0.90425104,-0.8404757,1.0913695,0.09588896,-0.005395804,1.1757064,0.0747997
-0.1,0.0,1.2999999999999998,-0.5235987755982988,0.0,0,-0.688675,-1.338793,1.1926479,-0.14274132,0.13702776,1.1036085,0.76878715,0.9025173,-0.84104013,1.1168214,0.16420037,-0.062937856,0.9302568,0.118652835
-0.1,0.0,1.2999999999999998,-0.5235987755982988,0.0,0,-0.6893419,-1.339453,1.1954126,-0.1453317,0.3424041,1.0616494,-0.68264794,0.90479,-0.8401761,1.0939386,0.08976666,0.07135903,1.1860048,-0.52644646
-0.1,0.0,1.2999999999999998,-0.5235987755982988,0.0,0,-0.68919533,-1.3390478,1.1944402,-0.12314904,0.20662256,1.07029,-0.63470554,0.9039203,-0.8411973,1.1066067,0.10416602,0.0692183,1.0927153,0.4054005
-0.1,0.0,1.2999999999999998,-0.5235987755982988,0.0,0,-0.68846905,-1.3391035,1.1924781,-0.1693823,0.15333726,1.0243279,1.3909779,0.902516,-0.840686,1.0922961,0.08123928,0.021305427,1.2059761,0.46609294
-0.1,0.0,1.2999999999999998,-0.5235987755982988,0.0,0,-0.68906987,-1.338956,1.1957766,-0.15669033,0.09497831,1.0110754,0.74705344,0.9047604,-0.8414394,1.0543715,0.031981334,0.05118926,1.0969343,0.06401672
-0.1,0.0,1.2999999999999998,-0.5235987755982988,0.0,0,-0.68888956,-1.3388662,1.1928563,-0.15066424,0.19398169,1.0789437,0.092470996,0.9039281,-0.8409251,1.1182832,0.08733286,-0.14082195,1.1964276,1.1613944
-0.1,0.0,1.2999999999999998,-0.5235987755982988,0.0,0,-0.6889155,-1.338954,1.1948606,-0.14722493,0.15737645,1.0382676,0.8678028,0.90448594,-0.8410905,1.0699629,0.108298324,-0.02939136,1.0818454,-0.6030488
-0.1,0.0,1.2999999999999998,-0.5235987755982988,0.0,0,-0.6889082,-1.339031,1.1938764,-0.133515,0.2388658,1.0974351,-0.43989617,0.9048282,-0.8410915,1.1375043,0.16015448,-0.07352794,1.1751794,-0.37984762
-0.1,0.0,1.2999999999999998,-0.5235987755982988,0.0,0,-0.6891728,-1.3393425,1.1937089,-0.13577175,0.080149256,0.9908102,1.0079259,0.90223336,-0.840924,1.0825131,0.09440062,-0.058759507,1.0427555,0.016170368
-0.1,0.0,1.2999999999999998,-0.5235987755982988,0.0,0,-0.68876475,-1.3393065,1.1934233,-0.11646438,0.3223381,1.0890628,0.9012333,0.90457445,-0.8403246,1.1288234,0.092991374,-0.07543976,1.1854689,1.2263422
-0.1,0.0,1.2999999999999998,-0.5235987755982988,0.0,0,-0.6886277,-1.3391529,1.1958137,-0.1258878,0.20272866,1.0526069,0.42654884,0.9017904,-0.8403382,1.1135942,0.108450614,-0.14710754,1.1184884,-0.103716776
-0.1,0.0,1.2999999999999998,-0.5235987755982988,0.0,0,-0.68871176,-1.3388715,1.193619,-0.14815967,0.19109687,1.0987778,0.12018859,0.9028233,-0.8404277,1.0866636,0.09887235,-0.092635036,1.0912457,-0.74717534
-0.1,0.0,1.2999999999999998,-0.5235987755982988,0.0,0,-0.68872255,-1.3393742,1.1945239,-0.1417728,0.17994902,1.116423,0.9392562,0.90301603,-0.84010786,1.0689127,0.079092495,0.16969498,1.2085034,0.26430082
-0.1,0.0,1.2999999999999998,-0.5235987755982988,0.0,0,-0.68902403,-1.3392004,1.1944927,-0.13752058,0.22063154,1.0538703,0.5030018,0.9044463,-0.8404847,1.0968738,0.087546974,-0.031755924,1.2171847,-0.16305785
-0.1,0.0,1.2999999999999998,-0.5235987755982988,0.0,0,-0.68913126,-1.3390316,1.1926825,-0.1231399,0.28575304,1.0332036,0.42029506,0.90489054,-0.8414353,1.1229573,0.07523072,0.27990717,1.2091392,0.05029613
-0.1,0.0,1.2999999999999998,-0.5235987755982988,0.0,0,-0.6890143,-1.3391664,1.1937345,-0.15831633,0.2827592,1.0816909,0.1800293,0.9013543,-0.8411546,1.1119642,0.069764934,0.03874433,1.0292279,0.9232276
-0.1,0.0,1.2999999999999998,-0.5235987755982988,0.0,0,-0.6885837,-1.3388247,1.1919264,-0.1694935,0.021678207,1.0254991,0.9473404,0.9043622,-0.84090316,1.1310813,0.124354675,-0.056583054,1.1722002,-0.22852847
-0.1,0.0,1.2999999999999998,-0.5235987755982988,0.0,0,-0.6887506,-1.3393955,1.1939808,-0.16263907,0.24801631,1.0660183,-0.78542876,0.9061547,-0.84061456,1.1106831,0.08737192,-0.008457816,1.1403561,-1.0487536
-0.1,0.0,1.2999999999999998,-0.5235987755982988,0.0,0,-0.68892246,-1.3389102,1.1924928,-0.12544546,0.121122435,1.0482663,-0.22348602,0.903911,-0.8404723,1.1038387,0.09257841,-0.06161319,1.1269896,0.4236004
-0.1,0.0,1.2999999999999998,-0.5235987755982988,0.0,0,-0.6888702,-1.3390434,1.1960297,-0.12652376,0.1343818,1.0701711,-0.48595464,0.90376586,-0.8398348,1.1010343,0.093455,0.13640192,1.1441487,0.4343492
-0.1,0.0,1.2999999999999998,-0.5235987755982988,0.0,0,-0.68897766,-1.3389482,1.1933992,-0.13204819,0.16295326,1.0478911,-0.5175815,0.9043379,-0.84050566,1.0818741,0.065922685,0.11980144,1.1171466,0.6480143
-0.1,0.0,1.2999999999999998,-0.5235987755982988,0.0,0,-0.688601,-1.3390859,1.1923482,-0.1701518,0.2115514,1.0846947,0.5540034,0.90475875,-0.84039634,1.1082289,0.11444534,0.110386886,1.0386918,0.7137902
-0.1,0.0,1.2999999999999998,-0.5235987755982988,0.0,0,-0.6890144,-1.3389257,1.1945702,-0.15055047,0.049793165,1.0218749,0.7110504,0.9052203,-0.8411721,1.076183,0.11123648,-0.08986057,1.2081019,0.3810295
-0.1,0.0,1.2999999999999998,-0.5235987755982988,0.0,0,-0.6889266,-1.3389233,1.1923453,-0.16244546,0.07306462,1.0480052,0.39383435,0.90254015,-0.8411531,1.1177547,0.08320075,0.18848452,1.2360033,-0.50280917
-0.1,0.0,1.2999999999999998,-0.5235987755982988,0.0,0,-0.6889557,-1.3389599,1.1923785,-0.12181668,0.25175032,1.0337095,0.92090446,0.90301895,-0.8409573,1.047506,0.07140228,-0.02076837,1.1555252,-0.7938533
-0.1,0.0,1.2999999999999998,-0.5235987755982988,0.0,0,-0.68933237,-1.3392057,1.1960951,-0.16757172,0.28056687,1.1072052,-0.108032264,0.9044863,-0.8414357,1.1115018,0.120470725,0.031609457,1.1626787,-0.14347106
-0.1,0.0,1.2999999999999998,-0.5235987755982988,0.0,0,-0.68918306,-1.3392634,1.1957148,-0.1550035,0.1758218,1.0686667,0.45441678,0.9037594,-0.8418887,1.0571705,0.0959035,0.012169396,1.0946985,0.13498907
-0.1,0.0,1.2999999999999998,-0.5235987755982988,0.0,0,-0.6891919,-1.3390169,1.1962135,-0.12175143,0.094238125,1.0964432,0.3706028,0.9050064,-0.8412304,1.12376,0.039313916,0.14161411,1.1035768,-0.8062147
-0.1,0.0,1.2999999999999998,-0.5235987755982988,0.0,0,-0.68868905,-1.3394628,1.1925645,-0.1653702,0.2196678,1.0648577,-0.19297239,0.90133756,-0.8413224,1.0674951,0.09567302,0.030289313,1.1159549,0.69164985
-0.1,0.0,1.2999999999999998,-0.5235987755982988,0.0,0,-0.68885535,-1.3388565,1.1951368,-0.13756403,0.14278369,1.132207,-0.06141025,0.90210664,-0.8401391,1.0726812,0.118640974,0.049590576,1.1458718,-0.1886586
-0.1,0.0,1.2999999999999998,-0.5235987755982988,0.0,0,-0.688612,-1.3389695,1.1938523,-0.13145885,0.16592436,1.0129997,0.37498727,0.9032151,-0.84058106,1.0727764,0.076836325,0.042671327,1.1440022,-1.0068045
-0.1,0.0,1.2999999999999998,-0.5235987755982988,0.0,0,-0.6890298,-1.3390592,1.1946329,-0.14009611,0.19951704,1.0561848,0.97790277,0.9054775,-0.84117043,1.0988913,0.036043055,0.024562601,1.2505724,0.683568
-0.1,0.0,1.2999999999999998,-0.5235987755982988,0.0,0,-0.6888637,-1.339209,1.1926455,-0.14700063,0.06578704,1.0396235,0.02837104,0.9022122,-0.84065425,1.1011902,0.080719344,0.11390646,1.1320006,-0.5056957
-0.1,0.0,1.2999999999999998,-0.5235987755982988,0.0,0,-0.6888729,-1.3390813,1.1960735,-0.1553078,0.086392336,1.0841007,0.43068218,0.90435535,-0.8408913,1.10357,0.05195532,0.094800994,1.0830861,0.5581223
-0.1,0.0,1.2999999999999998,-0.5235987755982988,0.0,0,-0.6884191,-1.3390337,1.194195,-0.15523231,0.10846336,0.9906531,0.14552914,0.9036972,-0.84032726,1.1000917,0.060452323,0.10051944,1.212197,-0.99426
-0.1,0.0,1.2999999999999998,-0.5235987755982988,0.0,0,-0.6889512,-1.3390611,1.1949594,-0.15782778,0.15805055,1.0838225,0.64391047,0.90435797,-0.8408919,1.091001,-0.0067614424,-0.12963313,1.0837729,-0.67537266
-0.1,0.0,1.2999999999999998,-0.5235987755982988,0.0,0,-0.6886497,-1.3390788,1.1919795,-0.15776972,0.09994302,1.0634725,1.2224792,0.9039605,-0.8403664,1.1030129,0.031497717,-0.21227567,1.1500323,0.65947574
-0.1,0.0,1.2999999999999998,-0.5235987755982988,0.0,0,-0.68834805,-1.3392283,1.1924351,-0.14107718,0.22824469,1.0811833,0.1499492,0.9030747,-0.8406409,1.0548831,0.05375418,-0.00792501,1.1695344,-0.5525057
-0.1,0.0,1.2999999999999998,-0.5235987755982988,0.0,0,-0.6890271,-1.3393683,1.1940135,-0.0905324,0.053723328,1.0703242,-0.39887327,0.9041528,-0.8406256,1.1009299,0.07218909,-0.035897333,1.1791503,0.33680284
-0.1,0.0,1.2999999999999998,-0.5235987755982988,0.0,0,-0.68908846,-1.3392415,1.1911576,-0.136669,0.13119727,1.0713093,-0.34938404,0.90212727,-0.84127676,1.125117,0.019848485,-0.006714342,1.1725616,0.047674797
-0.1,0.0,1.2999999999999998,-0.5235987755982988,0.0,0,-0.68871105,-1.3390133,1.1931347,-0.14452343,0.09214069,1.0356368,0.13740695,0.90526086,-0.8404324,1.0786176,0.03511885,-0.039685264,1.0361524,-0.15810764
-0.1,0.0,1.2999999999999998,-0.5235987755982988,0.0,0,-0.6890927,-1.3390819,1.192962,-0.15335037,0.23621328,1.0986109,0.17203341,0.90560734,-0.8415119,1.1082113,0.11599645,0.06524221,1.1861848,0.3975745
-0.1,0.0,1.2999999999999998,-0.5235987755982988,0.0,0,-0.68892646,-1.3389686,1.1961731,-0.14016506,0.24581754,1.1077371,0.8876433,0.90477026,-0.84074706,1.096115,0.078467496,-0.008980171,1.1928651,1.0843574
-0.1,0.0,1.2999999999999998,-0.5235987755982988,0.0,0,-0.68876624,-1.3390071,1.1939256,-0.12321218,0.21604323,1.0771409,1.1679782,0.9018982,-0.8409672,1.0868971,0.08805357,0.019441055,1.1684796,-0.037790935
-0.1,0.0,1.2999999999999998,-0.5235987755982988,0.0,0,-0.6885309,-1.3389745,1.1945348,-0.14205807,0.17228583,1.0371461,0.68762887,0.90241265,-0.84074044,1.0631398,0.058061145,-0.029519329,1.0958787,0.11578351
-0.1,0.0,1.2999999999999998,-0.5235987755982988,0.0,0,-0.6892896,-1.3392076,1.1937174,-0.11352825,0.22315659,1.0837831,-0.1851148,0.9038818,-0.8413135,1.0560256,0.07150835,0.051719703,1.0840205,-0.64360535
-0.1,0.0,1.2999999999999998,-0.5235987755982988,0.0,0,-0.68880445,-1.3389925,1.1938505,-0.12038468,0.1150619,1.0131998,-0.104717106,0.90420985,-0.84138155,1.0569609,0.11885176,0.077850245,1.1968054,0.40648943
-0.1,0.0,1.2999999999999998,-0.5235987755982988,0.0,0,-0.6887559,-1.338996,1.1956033,-0.11921864,0.22594713,1.056364,0.8860279,0.90425104,-0.84063846,1.1157475,0.013447922,-0.17497897,0.9833786,0.18532845
-0.1,0.0,1.2999999999999998,-0.5235987755982988,0.0,0,-0.68883514,-1.3389574,1.1927314,-0.15107381,0.20736778,0.96128494,1.3545505,0.90656006,-0.84136385,1.0876632,0.07161755,0.19207835,1.215564,-0.11199514
-0.1,0.0,1.2999999999999998,-0.5235987755982988,0.0,0,-0.68874407,-1.3391157,1.1946499,-0.14177227,0.15533552,1.0443467,0.7714106,0.9051999,-0.8412255,1.0812944,0.11150426,-0.07473273,1.2294018,-0.16857363
-0.1,0.0,1.2999999999999998,-0.5235987755982988,0.0,0,-0.6889533,-1.3391008,1.1943498,-0.13403043,0.09037133,1.0696073,0.4865866,0.90315294,-0.8409391,1.154165,0.060564727,0.14394198,1.242499,0.09130892
-0.1,0.0,1.2999999999999998,-0.5235987755982988,0.0,0,-0.6887342,-1.3386427,1.1940435,-0.14483823,0.22490916,1.0844452,0.005710808,0.9050545,-0.84163076,1.078832,0.09928169,0.003011419,1.2244768,1.0873799
-0.1,0.0,1.2999999999999998,-0.5235987755982988,0.0,0,-0.68919647,-1.338846,1.1938953,-0.12905666,0.12843996,1.0893433,-0.15578207,0.90160763,-0.8407663,1.1128981,0.03539877,0.11452043,1.1683314,-0.7664167
-0.1,0.0,1.2999999999999998,-0.5235987755982988,0.0,0,-0.68903077,-1.339328,1.1966746,-0.13941099,0.16643105,1.1173872,0.31975013,0.904478,-0.8404252,1.0595719,0.0966877,-0.08250848,1.1776748,0.9397795
-0.1,0.0,1.2999999999999998,-0.5235987755982988,0.0,0,-0.6887244,-1.3389854,1.1950177,-0.15506491,0.23083748,1.1053259,0.4364727,0.9046045,-0.8413133,1.1024225,0.10811476,-0.12814954,1.1880926,-0.18578225
-0.1,0.0,1.2999999999999998,-0.5235987755982988,0.0,0,-0.6892384,-1.3389435,1.1947597,-0.12039003,0.0403463,1.0856405,0.5957411,0.90349776,-0.8404548,1.0557109,0.06852804,0.024139656,1.0679833,0.7454376
-0.1,0.0,1.2999999999999998,-0.5235987755982988,0.0,0,-0.6887187,-1.3392926,1.1932636,-0.11411187,0.22983193,1.0050527,-0.826897,0.90339833,-0.84141606,1.1289862,0.11906021,0.025864474,1.1665344,-0.539869
-0.1,0.0,1.2999999999999998,-0.5235987755982988,0.0,0,-0.68885875,-1.3391552,1.1943406,-0.1363712,0.17402591,1.0542462,0.072825775,0.905123,-0.8404434,1.0908558,0.052055303,0.10080443,1.0880872,0.37296024
-0.1,0.0,1.2999999999999998,-0.5235987755982988,0.0,0,-0.68901944,-1.3392981,1.1952611,-0.1154396,0.14432421,1.1297854,-0.4139277,0.90233153,-0.84010756,1.105258,0.082417965,0.07568934,1.2092322,-1.2090251
-0.1,0.0,1.2999999999999998,-0.5235987755982988,0.0,0,-0.6884571,-1.3390979,1.193686,-0.15149203,0.043400284,1.0401793,-0.78013563,0.90271485,-0.84110683,1.1309371,0.12019682,-0.09804972,1.1696188,-0.09012347
-0.1,0.0,1.2999999999999998,-0.5235987755982988,0.0,0,-0.6885312,-1.3389455,1.1917162,-0.16180685,0.11168127,1.0261205,0.7012053,0.9035976,-0.8409601,1.0631485,0.090716064,0.057042424,1.0954969,1.4010419
-0.1,0.0,1.2999999999999998,-0.5235987755982988,0.0,0,-0.68912566,-1.3390977,1.1941361,-0.13860293,0.30961472,1.1320697,1.3256847,0.90312773,-0.84109867,1.1092675,0.040420864,0.14638951,1.1636034,-0.08712459
-0.1,0.0,1.2999999999999998,-0.5235987755982988,0.0,0,-0.68909943,-1.3394018,1.1940604,-0.12105433,0.26094297,1.0584574,-0.35378677,0.9048147,-0.8411441,1.1200634,0.06730741,0.07271616,1.0162171,1.0908068
-0.1,0.0,1.2999999999999998,-0.5235987755982988,0.0,0,-0.6890056,-1.339266,1.1921422,-0.13635151,0.14615722,1.0983171,0.6449397,0.90279603,-0.8410913,1.0950872,0.04185496,-0.08742628,1.1652806,-0.33015528
-0.1,0.0,1.2999999999999998,-0.5235987755982988,0.0,0,-0.6884721,-1.3390843,1.1949888,-0.097659595,0.2919243,1.0582865,-0.14939472,0.903145,-0.84126896,1.0964137,0.092825375,-0.16517718,1.046666,0.10621825
-0.1,0.0,1.2999999999999998,-0.5235987755982988,0.0,0,-0.688687,-1.3391976,1.1954032,-0.16427894,0.16557269,1.0404664,0.2692097,0.9036691,-0.8414232,1.148623,0.0609255,0.033736292,0.9872391,0.2928464
-0.1,0.0,1.2999999999999998,-0.5235987755982988,0.0,0,-0.68893296,-1.339184,1.1917409,-0.10192427,0.09370043,1.1108885,-0.613291,0.9034817,-0.8408984,1.0685979,0.066956714,0.2502009,1.1778235,-0.47900006
-0.1,0.0,1.2999999999999998,-0.5235987755982988,0.0,0,-0.6886468,-1.3393838,1.195976,-0.11824695,0.21389781,1.110349,0.018731287,0.90368956,-0.8409743,1.1188428,0.11015294,-0.30962932,1.1719301,-0.8048614
-0.1,0.0,1.2999999999999998,-0.5235987755982988,0.0,0,-0.688917,-1.3394895,1.1932248,-0.14359972,0.115039,1.1089826,0.35064578,0.90627867,-0.8409071,1.0967829,0.10683393,-0.18319106,1.1366004,1.0545155
-0.1,0.0,1.2999999999999998,-0.5235987755982988,0.0,0,-0.6885738,-1.3393166,1.1942359,-0.13641933,0.16289687,1.0730681,-0.8684565,0.90262145,-0.84078825,1.06713,0.039478745,0.02247838,1.1983421,-0.9281734
-0.1,0.0,1.2999999999999998,-0.5235987755982988,0.0,0,-0.68870413,-1.3394378,1.1952852,-0.082439534,0.115254946,1.0707743,1.2286745,0.90403396,-0.8406442,1.0862023,0.044170707,-0.053032715,1.16325,-0.3740925
-0.1,0.0,1.2999999999999998,-0.5235987755982988,0.0,0,-0.6890647,-1.3388841,1.1944607,-0.12223226,0.13438326,1.0719529,0.83376265,0.90367645,-0.84078985,1.0885462,0.060556915,-0.10783398,1.1164197,-0.6081295
-0.1,0.0,1.2999999999999998,-0.5235987755982988,0.0,0,-0.6889678,-1.3391917,1.1953918,-0.13019204,0.14193603,1.0408139,-0.42760363,0.9024582,-0.8413749,1.0669239,0.05139355,-0.050238986,1.1030962,1.094869
-0.1,0.0,1.2999999999999998,-0.5235987755982988,0.0,0,-0.6890622,-1.3388435,1.1925665,-0.13011603,0.25523087,1.0612547,1.1212047,0.9025565,-0.8409059,1.0334306,0.08413013,0.0992995,1.08525,-0.90495664
-0.1,0.0,1.2999999999999998,-0.5235987755982988,0.0,0,-0.6890597,-1.3389876,1.1934117,-0.14986873,0.19092202,1.0484514,-0.25057566,0.9055944,-0.8411581,1.0819685,0.07523291,0.012657962,1.1496106,-0.59774286
-0.1,0.0,1.2999999999999998,-0.5235987755982988,0.0,0,-0.68883556,-1.339061,1.1941156,-0.16278851,0.15097357,1.1031094,1.0185769,0.9031745,-0.84161407,1.1577659,0.05591673,0.017441459,1.1765764,0.48804852
-0.1,0.0,1.2999999999999998,-0.5235987755982988,0.0,0,-0.6893693,-1.3391418,1.189368,-0.15275614,0.04083916,1.0786711,-0.0032140017,0.9039203,-0.8414818,1.1123259,0.046957094,0.0402277,1.0864451,-0.3342052
-0.1,0.0,1.2999999999999998,-0.5235987755982988,0.0,0,-0.6889669,-1.3388399,1.1944675,-0.09469178,0.017806947,1.138244,0.56380403,0.9052927,-0.8411074,1.1464373,0.032676708,0.15023395,1.1583678,0.2634535
-0.1,0.0,1.2999999999999998,-0.5235987755982988,0.0,0,-0.6887119,-1.3391252,1.1951121,-0.13942671,0.034256745,1.0768131,-0.20640342,0.9042211,-0.84044945,1.1130313,0.1308849,-0.039649464,1.2469108,1.3793987
-0.1,0.0,1.2999999999999998,-0.5235987755982988,0.0,0,-0.68851763,-1.3392295,1.1948584,-0.14374645,0.20431177,1.0819126,0.9133986,0.903695,-0.8410874,1.1111705,0.10557449,-0.13287674,1.0996139,0.5051436
-0.1,0.0,1.2999999999999998,-0.5235987755982988,0.0,0,-0.68865085,-1.3391993,1.1935928,-0.11892232,0.10768069,1.075247,0.56732416,0.902143,-0.8417104,1.0793103,0.14629771,0.12441504,1.1125115,0.37793204
-0.1,0.0,1.2999999999999998,-0.5235987755982988,0.0,0,-0.68837637,-1.3391547,1.1945968,-0.15719481,0.22047369,1.0735852,0.25955015,0.90535825,-0.84125143,1.1295627,0.10414127,0.18093461,1.0999638,0.98374724
-0.1,0.0,1.2999999999999998,-0.5235987755982988,0.0,0,-0.68932265,-1.339361,1.1942765,-0.1470876,0.27453685,1.0482683,0.9255573,0.90296876,-0.8427203,1.1446191,0.07333912,0.1613568,1.1433046,0.55439925
-0.1,0.0,1.2999999999999998,-0.5235987755982988,0.0,0,-0.68837726,-1.3393439,1.1944195,-0.14615035,0.2537666,1.0602577,0.45469832,0.9050469,-0.8407199,1.1282442,0.085696235,0.12448163,1.1494416,0.11864648
-0.1,0.0,1.2999999999999998,-0.5235987755982988,0.0,0,-0.68930227,-1.3388023,1.1969315,-0.13964088,0.2122336,1.0542288,0.20169717,0.9040073,-0.84036005,1.0230126,0.055225406,0.023569863,1.12082,1.0565975
-0.1,0.0,1.2999999999999998,-0.5235987755982988,0.0,0,-0.68891156,-1.33917,1.194957,-0.1167342,-0.054432448,1.0492136,0.58933395,0.90408015,-0.84108585,1.1270534,0.06530379,0.061803926,1.1353374,0.39217928
-0.1,0.0,1.2999999999999998,-0.5235987755982988,0.0,0,-0.68899995,-1.33929,1.1936349,-0.14178997,0.18153502,1.0363594,0.78842837,0.902755,-0.84182334,1.0980268,0.036817312,0.043321513,1.1614257,0.6637296
-0.1,0.0,1.2999999999999998,-0.5235987755982988,0.0,0,-0.68865657,-1.3392237,1.1929362,-0.123632856,0.18055625,1.046981,0.6553878,0.9037011,-0.8411523,1.1036123,0.030557424,0.06349542,1.1822723,0.0002915872
-0.1,0.0,1.2999999999999998,-0.5235987755982988,0.0,0,-0.6891867,-1.3388672,1.1966435,-0.13375768,0.157467,1.0346295,-0.29836574,0.9043231,-0.84072006,1.1543576,0.09965646,0.12678254,1.0584886,-0.045272738
-0.1,0.0,1.2999999999999998,-0.5235987755982988,0.0,0,-0.68885916,-1.3391116,1.1914299,-0.15312657,0.27773464,1.0943537,-0.51576865,0.90401834,-0.8416991,1.107286,0.04734056,0.02033067,1.0768036,-0.7968515
-0.1,0.0,1.2999999999999998,-0.5235987755982988,0.0,0,-0.68814826,-1.3387712,1.1924772,-0.13236195,0.10692932,1.0438513,0.9284598,0.9041458,-0.8422879,1.0584328,0.086820945,0.03358518,1.2031689,-0.19419864
-0.1,0.0,1.2999999999999998,-0.5235987755982988,0.0,0,-0.6887137,-1.3391874,1.1922649,-0.15123081,0.18532841,1.2010837,1.1270661,0.9030275,-0.8415747,1.0755613,-0.0029075595,0.093337394,1.1393296,0.0033314715
-0.1,0.0,1.2999999999999998,-0.5235987755982988,0.0,0,-0.68909323,-1.3388592,1.1961671,-0.14775673,0.10253388,1.0682296,-0.42918262,0.90553665,-0.8404105,1.0833168,0.09338017,0.17922355,1.1547493,0.26484314
-0.1,0.0,1.2999999999999998,-0.5235987755982988,0.0,0,-0.6888056,-1.3387102,1.1953709,-0.12733667,0.22195165,1.045002,1.2778876,0.90279216,-0.8404889,1.0901543,0.09096858,0.09668243,1.0290995,-0.06527192
-0.1,0.0,1.2999999999999998,-0.5235987755982988,0.0,0,-0.6891182,-1.3386098,1.1949168,-0.12563461,0.16588981,1.0549827,0.044162918,0.9042081,-0.8397924,1.1187522,0.048201114,0.021899791,1.183984,0.06274332
-0.1,0.0,1.2999999999999998,-0.5235987755982988,0.0,0,-0.688988,-1.3390957,1.1947755,-0.14681779,0.16700847,1.0751954,0.8363912,0.90547454,-0.8402763,1.0590246,0.07278668,-0.010814958,1.1118227,-0.49943364
-0.1,0.0,1.2999999999999998,-0.5235987755982988,0.0,0,-0.6886076,-1.3387566,1.1952966,-0.15414625,0.24828266,1.0277377,0.1215111,0.90512383,-0.8410638,1.0450579,0.091052465,0.14353734,1.1638548,0.8216066
-0.1,0.0,1.2999999999999998,-0.5235987755982988,0.0,0,-0.68928623,-1.3389453,1.1959673,-0.14477627,0.08977984,1.0441264,0.3790963,0.9049419,-0.8411856,1.07868,0.08992201,-0.08627024,1.1739588,-0.053444408
-0.1,0.0,1.2999999999999998,-0.5235987755982988,0.0,0,-0.6890319,-1.3387166,1.1934525,-0.14336121,0.14616062,1.0143205,0.61768913,0.90562725,-0.8400002,1.1181891,0.032030165,0.20163529,1.1263112,-0.4971289
-0.1,0.0,1.2999999999999998,-0.5235987755982988,0.0,0,-0.68900317,-1.3390615,1.192631,-0.13985018,0.21605334,1.1190838,-0.18357855,0.90710396,-0.8405843,1.0810162,0.09273321,-0.028447941,1.1994158,1.2202971
-0.1,0.0,1.2999999999999998,-0.5235987755982988,0.0,0,-0.6887686,-1.3386768,1.1950266,-0.13099766,0.21786898,1.0522252,0.009319019,0.9052443,-0.84028524,1.0930638,0.039992206,0.039850578,1.1970394,0.7118657
-0.1,0.0,1.2999999999999998,-0.5235987755982988,0.0,0,-0.6893571,-1.33913,1.1923356,-0.16624448,0.20204827,1.1038921,0.5397607,0.9049921,-0.8408992,1.1075935,0.11577734,0.014535987,0.98551375,-1.0638427
-0.1,0.0,1.2999999999999998,-0.5235987755982988,0.0,0,-0.6888874,-1.3392622,1.1935177,-0.14322418,0.19625518,1.0963649,0.53338546,0.90492916,-0.8404562,1.1272504,0.107479535,-0.07541681,1.1762568,0.01045786
-0.1,0.0,1.2999999999999998,-0.5235987755982988,0.0,0,-0.689205,-1.3389238,1.1960305,-0.17763186,0.11653613,1.0170608,0.26970103,0.90217704,-0.84086627,1.0928216,0.06486057,-0.007481423,1.2053298,-0.63364106
-0.1,0.0,1.2999999999999998,-0.5235987755982988,0.0,0,-0.68923444,-1.3388138,1.1958914,-0.11401795,0.06571246,1.0679277,0.38966024,0.90507174,-0.84076715,1.0408963,0.056365494,-0.07375913,1.0830135,0.06801242
-0.1,0.0,1.2999999999999998,-0.5235987755982988,0.0,0,-0.68914723,-1.3391544,1.1934706,-0.11224926,0.066062815,1.0140469,0.48645627,0.9049845,-0.8400583,1.0587691,0.09118319,0.15316065,1.2634937,-0.0092933355
-0.1,0.0,1.2999999999999998,-0.5235987755982988,0.0,0,-0.688726,-1.339019,1.1937532,-0.14134152,0.20683666,1.0623456,0.53656965,0.9067019,-0.84043115,1.1055211,0.054378,-0.15405764,1.24748,0.40300086
-0.1,0.0,1.2999999999999998,-0.5235987755982988,0.0,0,-0.6889533,-1.3391753,1.19729,-0.090245605,0.031120548,1.0977279,-0.07554007,0.9049996,-0.84103924,1.089379,0.101382874,0.019684387,1.0427803,0.662327
-0.1,0.0,1.2999999999999998,-0.5235987755982988,0.0,0,-0.6888576,-1.338936,1.1928651,-0.119682774,0.024388796,0.9985874,0.29585016,0.9035494,-0.840401,1.0814625,0.12161839,0.032163806,1.2097764,-0.42149797
-0.1,0.0,1.2999999999999998,-0.5235987755982988,0.0,0,-0.6888726,-1.3390306,1.1972232,-0.12095499,0.19487321,1.083857,0.82615525,0.9037741,-0.8408053,1.0896844,0.058846008,-0.11872864,1.1946913,-0.28612408
-0.1,0.0,1.2999999999999998,-0.5235987755982988,0.0,0,-0.68849397,-1.3389165,1.1954026,-0.11703658,0.075829856,1.0543191,0.41481707,0.9039249,-0.8404111,1.1277326,0.056217626,-0.001257267,1.1020609,-0.21766873
-0.1,0.0,1.2999999999999998,-0.5235987755982988,0.0,0,-0.6889821,-1.3391478,1.1960783,-0.10410551,0.19615416,1.0456176,0.62278694,0.9061476,-0.8404336,1.1382543,0.12857981,0.0105782375,1.0944691,-0.842106
-0.1,0.0,1.2999999999999998,-0.5235987755982988,0.0,0,-0.6888682,-1.3392406,1.1939689,-0.1168253,0.21880619,1.0549569,0.3739979,0.9051959,-0.8399683,1.106572,0.095818564,0.09753441,1.1821852,-0.009773723
-0.1,0.0,1.2999999999999998,-0.5235987755982988,0.0,0,-0.6888431,-1.339007,1.1957322,-0.13769646,0.15612306,1.0595024,0.79584444,0.9070097,-0.84071434,1.1270888,0.12957689,0.11716363,1.1239208,-0.6603797
-0.1,0.0,1.2999999999999998,-0.5235987755982988,0.0,0,-0.6889314,-1.3388301,1.196024,-0.14760235,0.17900312,1.124297,0.007970974,0.9049823,-0.84066206,1.0835314,0.055997156,0.006663446,1.0517467,-0.6826899
-0.1,0.0,1.2999999999999998,-0.5235987755982988,0.0,0,-0.68892074,-1.3389637,1.1972301,-0.16147603,-0.0022386007,1.0695496,-0.08464201,0.9044737,-0.8418111,1.1362389,0.033587486,0.072759785,1.0775495,-1.2186279
-0.1,0.0,1.2999999999999998,-0.5235987755982988,0.0,0,-0.6889613,-1.338997,1.1937498,-0.113094255,0.26975095,1.0656816,0.28591812,0.905426,-0.84099734,1.1125917,0.05596916,0.054583848,1.141176,0.28542733
-0.1,0.0,1.2999999999999998,-0.5235987755982988,0.0,0,-0.6891771,-1.339105,1.1942577,-0.107517205,0.069852605,1.0662756,0.6066457,0.90425754,-0.8405635,1.1307093,0.057201274,0.060671322,1.1776819,-0.7952117
-0.1,0.0,1.2999999999999998,-0.5235987755982988,0.0,0,-0.68878436,-1.3391453,1.1938546,-0.07919253,0.19040464,1.0500212,0.9252936,0.90456855,-0.8405216,1.046226,0.050760377,-0.14235163,1.165697,0.9588354
-0.1,0.0,1.2999999999999998,-0.5235987755982988,0.0,0,-0.6890712,-1.33896,1.195058,-0.15398142,0.07873936,1.0799057,0.7979043,0.9032765,-0.84054977,1.0839521,0.09556137,0.05481184,1.1534524,0.82856
-0.1,0.0,1.2999999999999998,-0.5235987755982988,0.0,0,-0.6889806,-1.3388809,1.192619,-0.15777202,0.0879629,1.0450152,-0.04703311,0.90389264,-0.8400953,1.1174532,0.16578652,0.02979605,0.9926534,0.39730147
-0.1,0.0,1.2999999999999998,-0.5235987755982988,0.0,0,-0.68893224,-1.3390131,1.1940807,-0.10407709,0.14184265,1.0854682,-0.84747154,0.9040884,-0.8401201,1.0976577,0.2170266,-0.06796602,1.095924,0.593908
-0.1,0.0,1.2999999999999998,-0.5235987755982988,0.0,0,-0.688807,-1.3389097,1.1912045,-0.14548346,0.21551847,1.1254562,0.250254,0.90370333,-0.840821,1.1051512,0.027552627,-0.115994096,1.3042372,0.22702189
-0.1,0.0,1.2999999999999998,-0.5235987755982988,0.0,0,-0.68899256,-1.3391575,1.1938843,-0.12859088,0.2572059,1.0523206,2.22812,0.9028834,-0.84069735,1.084359,0.10566839,-0.15906736,1.0722167,-0.3032989
-0.1,0.0,1.2999999999999998,-0.5235987755982988,0.0,0,-0.688602,-1.339219,1.1936427,-0.12878363,-0.036274385,1.052943,0.12583232,0.90324116,-0.8402257,1.1065766,0.1409702,-0.20488344,1.0302001,-0.78308374
-0.1,0.0,1.2999999999999998,-0.5235987755982988,0.0,0,-0.68910885,-1.3392737,1.1914719,-0.1286019,0.0589165,1.1011741,2.2613077,0.9036589,-0.8406772,1.1178629,0.05720896,0.012950286,1.1193134,0.30624068
-0.1,0.0,1.2999999999999998,-0.5235987755982988,0.0,0,-0.68916214,-1.3391254,1.1953624,-0.14027016,0.28145328,1.1141658,0.23209618,0.90439755,-0.8408429,1.0988314,0.061815128,-0.010060828,1.2739028,0.062277533
-0.1,0.0,1.2999999999999998,-0.5235987755982988,0.0,0,-0.689218,-1.3391849,1.1946182,-0.123978585,0.121070795,1.055362,0.27321577,0.90341604,-0.8405159,1.0444535,0.075333446,-0.02305375,1.1622975,-0.2734537
-0.1,0.0,1.2999999999999998,-0.5235987755982988,0.0,0,-0.68899465,-1.3390944,1.1947162,-0.1339166,0.21568528,1.1061654,0.32811975,0.9023495,-0.84072155,1.0899001,0.0968141,0.18399459,1.2898598,0.04905973
-0.1,0.0,1.2999999999999998,-0.5235987755982988,0.0,0,-0.6888091,-1.3391126,1.1944889,-0.13155663,-0.087058276,1.0273082,-0.66024715,0.90216684,-0.8404266,1.0777521,0.1063396,-0.056592137,1.0737271,-0.031705692
-0.1,0.0,1.2999999999999998,-0.5235987755982988,0.0,0,-0.6888038,-1.3387476,1.1945814,-0.14252391,0.014561841,1.0526954,1.8246083,0.904043,-0.8406492,1.1229525,0.044211738,0.12733795,1.1120907,-0.08173852
-0.1,0.0,1.2999999999999998,-0.5235987755982988,0.0,0,-0.6892815,-1.3393191,1.1955935,-0.12487607,0.15755074,1.1036325,0.22612746,0.9044927,-0.84035295,1.0781198,0.06626366,0.15039738,1.1765866,-1.5722343
-0.1,0.0,1.2999999999999998,-0.5235987755982988,0.0,0,-0.68883795,-1.3389685,1.1932272,-0.10905787,0.08471784,1.0482061,-0.07986173,0.90480626,-0.8413354,1.0913191,0.0958442,0.065239064,1.0800138,-0.9888159
-0.1,0.0,1.2999999999999998,-0.5235987755982988,0.0,0,-0.6887744,-1.3390888,1.1940712,-0.108382955,0.050352693,1.1031443,0.5608191,0.90303636,-0.8412901,1.1089133,0.02630113,-0.14709847,1.3285149,-1.4805031
-0.1,0.0,1.2999999999999998,-0.5235987755982988,0.0,0,-0.6887448,-1.3393508,1.194099,-0.14378318,0.15059973,1.0727917,0.108506456,0.9020156,-0.8415912,1.1468679,0.06968488,0.17540601,1.1302139,0.6940998
-0.1,0.0,1.2999999999999998,-0.5235987755982988,0.0,0,-0.6888127,-1.3391416,1.196555,-0.13351093,0.07781734,1.1002783,-0.7244906,0.9055596,-0.839899,1.0819813,0.15527956,-0.14694655,1.2583221,0.018359944
-0.1,0.0,1.2999999999999998,-0.5235987755982988,0.0,0,-0.6891554,-1.338964,1.1924818,-0.13881545,0.29128608,1.0113897,0.299409,0.90383166,-0.8402758,1.0910541,0.1380419,-0.078612335,1.1016215,0.14278163
-0.1,0.0,1.2999999999999998,-0.5235987755982988,0.0,0,-0.68901676,-1.338844,1.1936306,-0.10772618,0.15396501,1.0656523,-0.87775964,0.9053136,-0.8410536,1.0975969,0.047841884,0.048291482,1.0849837,-0.54714996
-0.1,0.0,1.2999999999999998,-0.5235987755982988,0.0,0,-0.6890259,-1.3391681,1.1934925,-0.13735317,0.3255371,1.067972,0.5174244,0.90338415,-0.8397288,1.049644,0.09353162,-0.020631777,1.135411,-0.100485556
-0.1,0.0,1.2999999999999998,-0.5235987755982988,0.0,0,-0.6888517,-1.3390882,1.1939013,-0.11541584,0.14721575,1.092088,0.33946714,0.90514135,-0.84030265,1.1562432,0.11158401,0.045588642,1.1599374,-0.23023428
-0.1,0.0,1.2999999999999998,-0.5235987755982988,0.0,0,-0.68915063,-1.3391829,1.1949173,-0.1502527,0.29473475,1.0521879,-0.95940894,0.90415734,-0.8401175,1.0557759,0.078912824,0.03229742,1.1018285,-0.17617062
-0.1,0.0,1.2999999999999998,-0.5235987755982988,0.0,0,-0.68910635,-1.3387914,1.1935484,-0.18532065,0.086595275,1.0826169,0.7649304,0.9041275,-0.84030616,1.0879216,0.09430518,-0.21044311,1.2400634,0.24724646
-0.1,0.0,1.2999999999999998,-0.5235987755982988,0.0,0,-0.6890934,-1.3392849,1.1952945,-0.13768512,0.2282851,1.0191574,0.50899756,0.9044319,-0.84040844,1.0718151,0.11863652,0.2024153,1.1153252,-0.818979
-0.1,0.0,1.2999999999999998,-0.5235987755982988,0.0,0,-0.68862396,-1.3391489,1.1938981,-0.14673139,0.19949012,0.9744394,-0.99582285,0.9027181,-0.83962065,1.1190764,0.06301593,0.00469607,1.1491627,0.71276987
-0.1,0.0,1.2999999999999998,-0.5235987755982988,0.0,0,-0.68911153,-1.3392503,1.196175,-0.1589025,0.2770756,1.0882374,1.436579,0.9048492,-0.839993,1.0625706,0.089411646,0.007963375,0.9715468,-0.96755856
-0.1,0.0,1.2999999999999998,-0.5235987755982988,0.0,0,-0.68917114,-1.3392506,1.1942722,-0.11615448,0.13440472,1.1284667,0.19131094,0.9033123,-0.83950984,1.1151183,0.117976226,0.1758928,1.1870002,-0.33182362
-0.1,0.0,1.2999999999999998,-0.5235987755982988,0.0,0,-0.68923056,-1.3392816,1.1936554,-0.1472863,0.20650367,1.0334196,0.9599544,0.9021831,-0.8410835,1.1026077,0.1331406,-0.12324573,1.0470853,0.96087
-0.1,0.0,1.2999999999999998,-0.5235987755982988,0.0,0,-0.68874615,-1.3391684,1.1965408,-0.17064196,-0.029732445,1.056943,-0.2533161,0.90448767,-0.84013444,1.1049253,0.13429852,0.02106024,1.2617782,0.75797576
-0.1,0.0,1.2999999999999998,-0.5235987755982988,0.0,0,-0.6892383,-1.3388468,1.1923511,-0.1536942,0.1320547,0.9882878,0.66848755,0.9036336,-0.8413908,1.0563859,0.10466962,-0.031372402,1.0214113,-0.019838916
-0.1,0.0,1.2999999999999998,-0.5235987755982988,0.0,0,-0.68914515,-1.3389565,1.1932361,-0.13510536,0.22231334,1.1113687,1.1545525,0.9036316,-0.84004813,1.1214228,0.076512314,0.1242514,1.1856896,-0.32148144
-0.1,0.0,1.2999999999999998,-0.5235987755982988,0.0,0,-0.68887484,-1.339082,1.194458,-0.15045935,0.1725567,1.088305,0.16376036,0.9030146,-0.84009117,1.1096824,0.06270742,0.16773075,1.051127,-0.5738289
-0.1,0.0,1.2999999999999998,-0.5235987755982988,0.0,0,-0.68931955,-1.3390894,1.1936884,-0.18204573,-0.069723494,1.0788738,0.277367,0.9024857,-0.840511,1.1250806,0.066951066,-0.0046384316,1.1421127,-0.02678643
-0.1,0.0,1.2999999999999998,-0.5235987755982988,0.0,0,-0.6888429,-1.3389155,1.1949319,-0.13983305,0.2232318,1.06323,0.5493885,0.90463376,-0.84132826,1.1339955,0.11169167,0.018505327,1.3307642,-0.46989805
-0.1,0.0,1.2999999999999998,-0.5235987755982988,0.0,0,-0.6889381,-1.3391213,1.194458,-0.09812576,0.07508578,1.0952058,1.3602303,0.9043244,-0.8402142,1.1454561,0.060069636,-0.061328616,1.2180613,-0.3487705
-0.1,0.0,1.2999999999999998,-0.5235987755982988,0.0,0,-0.6891403,-1.3391691,1.1954426,-0.14796428,0.19904043,1.0508081,0.4637402,0.9028074,-0.84045845,1.083365,0.073666275,0.04308724,1.127415,-0.21946698
-0.1,0.0,1.2999999999999998,-0.5235987755982988,0.0,0,-0.6891666,-1.3391758,1.1943573,-0.15982114,0.25137073,1.0938722,-0.9251751,0.90340054,-0.84118617,1.0392842,0.09334183,0.10278659,1.0977848,-0.5122782
-0.1,0.0,1.2999999999999998,-0.5235987755982988,0.0,0,-0.6890164,-1.3391911,1.1962793,-0.1449704,0.189082,1.0186807,-0.18891796,0.9036942,-0.8408644,1.1108775,0.11908688,0.0744409,1.1420406,0.22548303
-0.1,0.0,1.2999999999999998,-0.5235987755982988,0.0,0,-0.6890012,-1.3390071,1.1921734,-0.11102953,0.012324948,1.0811734,-0.28417975,0.9042108,-0.84147733,1.0730219,0.10105777,-0.008328239,1.1348965,0.8774702
-0.1,0.0,1.2999999999999998,-0.5235987755982988,0.0,0,-0.6887395,-1.3389912,1.1942676,-0.15618876,0.06702876,1.0606927,0.3445286,0.9018488,-0.84073675,1.1139932,0.089507654,0.044441696,1.1973324,-0.037867
-0.1,0.0,1.2999999999999998,-0.5235987755982988,0.0,0,-0.6885616,-1.339172,1.192684,-0.15546675,0.15515453,1.0569307,0.2550503,0.904897,-0.8406661,1.1156973,0.11522939,0.03123522,1.0993701,1.1950055
-0.1,0.0,1.2999999999999998,-0.5235987755982988,0.0,0,-0.6887491,-1.3391172,1.1967936,-0.16417699,0.08996581,1.0948684,0.82503647,0.904021,-0.84033734,1.0972064,0.071938716,0.09219452,1.1706423,0.09962411
-0.1,0.0,1.2999999999999998,-0.5235987755982988,0.0,0,-0.68906415,-1.3389105,1.1939414,-0.13804092,0.17738035,1.0700766,0.09183884,0.9047732,-0.84062725,1.0757211,0.095100045,-0.044917908,1.1234188,0.7644732
-0.1,0.0,1.2999999999999998,-0.5235987755982988,0.0,0,-0.68881917,-1.3390164,1.1953583,-0.088489145,0.23445882,0.98798496,0.39325792,0.90371996,-0.84077364,1.0972625,0.068313695,0.1312862,1.1952946,0.6283368
-0.1,0.0,1.2999999999999998,-0.5235987755982988,0.0,0,-0.6890828,-1.339181,1.193313,-0.122247465,0.23261811,1.114508,0.0009666748,0.903639,-0.84051156,1.1291189,0.06483595,-0.16873184,1.2232747,-0.35700542
-0.1,0.0,1.2999999999999998,-0.5235987755982988,0.0,0,-0.6891472,-1.3392415,1.1954318,-0.1314862,0.09406324,1.0229721,0.81591016,0.90499413,-0.84085834,1.083068,0.089607544,0.09638041,1.1758803,-0.5151151
-0.1,0.0,1.2999999999999998,-0.5235987755982988,0.0,0,-0.688891,-1.3387803,1.1927621,-0.13949107,0.11531585,1.0593668,-0.5327525,0.9037072,-0.84072804,1.0717413,0.053144716,-0.078330256,1.2197899,0.8048035
-0.1,0.0,1.2999999999999998,-0.5235987755982988,0.0,0,-0.689112,-1.3390964,1.1941937,-0.15672024,0.11966175,1.0530107,0.30008778,0.9050464,-0.8411677,1.0864583,0.07083785,-0.0101395575,1.1756313,0.50627273
-0.1,0.0,1.2999999999999998,-0.5235987755982988,0.0,0,-0.6890662,-1.3391066,1.1933781,-0.12834284,0.22952428,1.0223409,0.25679857,0.9047084,-0.84140277,1.1032479,0.067086615,-0.00061905687,1.2161307,-0.3987462
-0.1,0.0,1.2999999999999998,-0.5235987755982988,0.0,0,-0.6888348,-1.339144,1.1926984,-0.123232946,0.20793971,1.0985914,0.18791786,0.90373504,-0.84021854,1.0792112,0.05830796,-0.081137784,1.099813,0.7128172
-0.1,0.0,1.2999999999999998,-0.5235987755982988,0.0,0,-0.68884546,-1.3390222,1.1943266,-0.15189138,0.1994692,1.0617898,0.20627734,0.9052811,-0.8414466,1.0799614,0.0943148,0.034034025,1.2188741,0.4375299
-0.1,0.0,1.2999999999999998,-0.5235987755982988,0.0,0,-0.6886456,-1.3392073,1.1951898,-0.14360571,0.08771952,1.1471019,0.4956914,0.90430534,-0.8402973,1.0688893,0.069792315,0.045789853,1.2353611,-0.9583002
-0.1,0.0,1.2999999999999998,-0.5235987755982988,0.0,0,-0.6886938,-1.3390257,1.1951596,-0.122342795,0.29348782,1.0872934,0.78213936,0.90459514,-0.8410616,1.1145977,0.066745676,0.14235152,1.1113297,0.98616207
-0.1,0.0,1.2999999999999998,-0.5235987755982988,0.0,0,-0.688893,-1.3390007,1.1947142,-0.16576183,0.017462283,1.1038296,1.1595759,0.9035406,-0.84095216,1.059061,0.04645932,0.019224035,1.1400307,0.19390838
-0.1,0.0,1.2999999999999998,-0.5235987755982988,0.0,0,-0.68881905,-1.3389394,1.1952995,-0.130834,0.09328925,1.0526837,0.364212,0.9042106,-0.84112924,1.0897964,0.062277082,0.07322865,1.1909828,-0.11873308
-0.1,0.0,1.2999999999999998,-0.5235987755982988,0.0,0,-0.68824613,-1.3390757,1.1938252,-0.13153285,0.13616909,1.0602052,-0.43753502,0.9051892,-0.8404639,1.065637,0.080321535,0.08881238,1.0179079,-0.6474712
-0.1,0.0,1.2999999999999998,-0.5235987755982988,0.0,0,-0.6890827,-1.3389535,1.1945496,-0.12935905,0.16555735,1.0496792,0.3213877,0.90479755,-0.84145653,1.0785121,0.046186805,-0.005185885,1.1393266,-1.0848179
-0.1,0.0,1.2999999999999998,-0.5235987755982988,0.0,0,-0.6888589,-1.3388374,1.1954029,-0.13365607,0.070847705,1.126854,0.063921176,0.9028879,-0.8404684,1.0713941,0.03145808,-0.06311856,1.0712428,0.20532961
-0.1,0.0,1.2999999999999998,-0.5235987755982988,0.0,0,-0.6891764,-1.3389502,1.196149,-0.14250778,0.10778977,1.1093314,1.1742029,0.905827,-0.84210086,1.1064816,0.07543782,0.0050421883,1.0718614,-0.16247548
-0.1,0.0,1.2999999999999998,-0.5235987755982988,0.0,0,-0.6887572,-1.33932,1.1938257,-0.13229221,0.17341883,1.0761774,0.9234054,0.90396374,-0.8411553,1.1079949,0.014906564,0.025970858,1.0472511,-0.17799468
-0.1,0.0,1.2999999999999998,-0.5235987755982988,0.0,0,-0.68877655,-1.3389637,1.1937939,-0.12499524,0.06333017,1.0139664,0.8176508,0.90541273,-0.8403565,1.0352203,0.1831315,0.1993495,1.1535573,-0.67814
-0.1,0.0,1.2999999999999998,-0.5235987755982988,0.0,0,-0.68867195,-1.3388797,1.1942123,-0.122998655,0.15235116,1.1001256,-0.07453925,0.9046561,-0.84008086,1.1025155,0.059790827,0.002661241,1.1884071,-0.023756998
-0.1,0.0,1.2999999999999998,-0.5235987755982988,0.0,0,-0.6889245,-1.3392088,1.1936113,-0.12923215,0.08942618,1.0538163,0.5173655,0.9033929,-0.8404778,1.0862359,0.11591652,-0.22072835,1.1635822,-0.6517421
-0.1,0.0,1.2999999999999998,-0.5235987755982988,0.0,0,-0.6889597,-1.339004,1.1938372,-0.09424208,0.08523624,0.980602,-0.025648829,0.9045631,-0.8405158,1.0529789,0.0877935,0.020186132,1.0850537,-0.6347163
-0.1,0.0,1.2999999999999998,-0.5235987755982988,0.0,0,-0.6889121,-1.338889,1.1936554,-0.1289408,0.16247308,1.0081046,0.6121412,0.90511566,-0.8403947,1.0635113,0.11844827,-0.07381899,1.3063009,1.3674402
-0.1,0.0,1.2999999999999998,-0.5235987755982988,0.0,0,-0.6887437,-1.3389957,1.1916566,-0.15130225,0.12643936,1.0538595,1.0134904,0.9034147,-0.84078056,1.0964277,0.1335802,-0.09743756,1.225229,-0.6051624
-0.1,0.0,1.2999999999999998,-0.5235987755982988,0.0,0,-0.6890626,-1.3393633,1.192355,-0.15347801,0.19994996,1.066785,-0.72117746,0.9054133,-0.840485,1.1362897,0.08622741,0.035191946,1.2217555,-1.0354801
-0.1,0.0,1.2999999999999998,-0.5235987755982988,0.0,0,-0.6890202,-1.3391483,1.1918257,-0.12874639,0.10925069,1.151392,0.07292542,0.9025582,-0.8400765,1.0816289,0.083102465,0.18292569,1.0171924,0.47124738
-0.1,0.0,1.2999999999999998,-0.5235987755982988,0.0,0,-0.68936896,-1.3390627,1.1934655,-0.119456336,0.25797972,1.0701448,-0.42413527,0.902764,-0.8409937,1.0458084,0.10638409,-0.030253658,1.1329942,-1.049191
-0.1,0.0,1.2999999999999998,-0.5235987755982988,0.0,0,-0.68880945,-1.3389306,1.1954591,-0.14674608,0.0629969,1.074103,0.43202448,0.90257657,-0.8404927,1.084578,0.11710157,0.039603416,1.1785052,-0.5699824
-0.1,0.0,1.2999999999999998,-0.5235987755982988,0.0,0,-0.68929887,-1.3391432,1.1912917,-0.1194171,0.12610793,1.0610406,-0.050524052,0.90184724,-0.8411026,1.073872,0.05098909,-0.10411778,1.0539422,0.29797363
-0.1,0.0,1.2999999999999998,-0.5235987755982988,0.0,0,-0.6889912,-1.3387839,1.1927228,-0.10717809,0.11707428,1.0387546,-0.14849205,0.90408045,-0.84096384,1.1141047,0.0790012,-0.17544664,1.1092372,0.07764584
-0.1,0.0,1.2999999999999998,-0.5235987755982988,0.0,0,-0.6888829,-1.3392665,1.1931313,-0.16517869,0.16266067,1.1719803,-0.17333296,0.9037367,-0.8399746,1.1031471,0.047075983,-0.12721011,1.0670129,-0.6240901
