sanky1234/BimanualDexCatch/isaacgymenvs/cem_results/football_pose_-0.2_0.0_0.9999999999999999_0.5235987755982988_-0.5235987755982988_0_2025-05-24.csv
x,y,z,roll,pitch,yaw,robot1/joint1,robot1/joint2,robot1/joint3,robot1/joint4,robot1/joint5,robot1/joint6,robot1/joint7,robot2/joint1,robot2/joint2,robot2/joint3,robot2/joint4,robot2/joint5,robot2/joint6,robot2/joint7
-0.2,0.0,0.9999999999999999,0.5235987755982988,-0.5235987755982988,0,1.6239884,1.2148616,1.8595798,0.5090591,-0.35087657,0.60842943,0.1952822,1.4203706,-1.6568451,-2.9608545,0.19124742,0.09086896,1.0173584,1.2518883
-0.2,0.0,0.9999999999999999,0.5235987755982988,-0.5235987755982988,0,1.6038879,1.2155808,1.8692362,0.4797698,-0.14236903,1.0419772,-0.32949594,1.4181376,-1.656421,-2.9791973,0.18323365,0.07795815,0.9486787,0.6719734
-0.2,0.0,0.9999999999999999,0.5235987755982988,-0.5235987755982988,0,1.6140405,1.2099278,1.8628743,0.49893674,-0.09736808,0.60784125,0.017515846,1.421245,-1.6581844,-2.9529076,0.19239858,0.13065198,0.94450885,-0.6428567
-0.2,0.0,0.9999999999999999,0.5235987755982988,-0.5235987755982988,0,1.6301684,1.2113785,1.8659172,0.49921677,0.028053567,0.49709073,0.06858015,1.4206023,-1.6575307,-2.9506288,0.22255418,-0.023581738,1.0481904,0.39481157
-0.2,0.0,0.9999999999999999,0.5235987755982988,-0.5235987755982988,0,1.6169666,1.2146386,1.8631316,0.48493925,0.017924601,0.7007765,-0.3129081,1.4206225,-1.6550084,-2.9494393,0.15916362,-0.014987975,1.0352901,-1.161442
-0.2,0.0,0.9999999999999999,0.5235987755982988,-0.5235987755982988,0,1.605861,1.2100147,1.8611324,0.49828717,-0.123042434,0.58262867,0.167493,1.4211673,-1.6549646,-2.9919455,0.21831322,0.04740504,0.9777733,-0.22754773
-0.2,0.0,0.9999999999999999,0.5235987755982988,-0.5235987755982988,0,1.6132449,1.2086934,1.8602406,0.5122262,-0.16439494,0.5981182,0.111295626,1.4210442,-1.6548059,-2.9699411,0.23224361,0.012117681,1.0865561,-1.1379066
-0.2,0.0,0.9999999999999999,0.5235987755982988,-0.5235987755982988,0,1.6029061,1.2160089,1.8555998,0.5179349,0.05758929,0.9120983,0.7020028,1.425371,-1.6575186,-2.9746401,0.17290695,0.21826853,0.82998836,0.3082435
-0.2,0.0,0.9999999999999999,0.5235987755982988,-0.5235987755982988,0,1.6298668,1.2103189,1.8659425,0.49177396,-0.04295084,0.8566636,0.548261,1.4178596,-1.6542432,-2.948671,0.20700978,-0.0032692999,0.8869384,-0.5975672
-0.2,0.0,0.9999999999999999,0.5235987755982988,-0.5235987755982988,0,1.6145563,1.2092454,1.8619025,0.4980223,-0.12765262,0.52871704,-0.081645675,1.4237344,-1.6545064,-2.9656901,0.18171147,-0.0022812658,0.86326444,-0.87182003
-0.2,0.0,0.9999999999999999,0.5235987755982988,-0.5235987755982988,0,1.6135039,1.2107308,1.8647088,0.4902285,-0.15881744,0.3228812,0.9036816,1.4198369,-1.6548519,-2.9654262,0.23135333,0.015648924,1.0121462,-0.7747745
-0.2,0.0,0.9999999999999999,0.5235987755982988,-0.5235987755982988,0,1.6054171,1.2137542,1.8605417,0.5291836,-0.1760308,0.42262578,0.904576,1.4214588,-1.6527746,-2.9629405,0.19879615,-0.09435853,1.009002,-0.6945384
-0.2,0.0,0.9999999999999999,0.5235987755982988,-0.5235987755982988,0,1.6400855,1.2107068,1.8632771,0.4975784,0.18902642,0.5587291,0.59089416,1.4264349,-1.6529197,-2.97108,0.15999801,0.12940066,0.7083604,0.13120969
-0.2,0.0,0.9999999999999999,0.5235987755982988,-0.5235987755982988,0,1.6292236,1.2115679,1.8584694,0.48899165,-0.20787571,0.59490424,0.63913757,1.4237802,-1.6567839,-2.9683194,0.16735207,-0.21308774,0.86861306,-0.058554452
-0.2,0.0,0.9999999999999999,0.5235987755982988,-0.5235987755982988,0,1.6126398,1.21171,1.86554,0.52570146,-0.031602003,0.6926791,-0.76561445,1.4213486,-1.65449,-2.962321,0.20736277,0.039952207,0.8099468,0.84538007
-0.2,0.0,0.9999999999999999,0.5235987755982988,-0.5235987755982988,0,1.628941,1.2118483,1.8632827,0.50195944,0.17167814,0.27632955,0.17875944,1.4247113,-1.6579003,-2.9841588,0.2091202,0.16194707,1.0186597,-1.1780554
-0.2,0.0,0.9999999999999999,0.5235987755982988,-0.5235987755982988,0,1.61597,1.2174945,1.8648093,0.5142765,-0.011656052,0.7095732,-0.21805654,1.4225563,-1.654084,-2.9520788,0.20195438,0.15136415,0.9545202,-0.053471066
-0.2,0.0,0.9999999999999999,0.5235987755982988,-0.5235987755982988,0,1.6335065,1.2148312,1.8612734,0.5161647,0.03390363,0.84786636,0.23108797,1.4271028,-1.6551738,-2.9662728,0.14625895,0.1764964,0.85103756,-0.4473265
-0.2,0.0,0.9999999999999999,0.5235987755982988,-0.5235987755982988,0,1.619693,1.2087351,1.8617568,0.49822846,-0.27679747,0.34127325,0.04253021,1.4211979,-1.655802,-2.9662871,0.16182508,0.15768869,0.9011521,0.48129115
-0.2,0.0,0.9999999999999999,0.5235987755982988,-0.5235987755982988,0,1.6227148,1.2122638,1.8621322,0.4884067,0.04691009,0.7624555,0.06972798,1.4225655,-1.6575396,-2.983322,0.20986943,-0.08886076,0.8716047,-0.7077751
-0.2,0.0,0.9999999999999999,0.5235987755982988,-0.5235987755982988,0,1.6247771,1.214177,1.8633446,0.50134414,0.14434575,0.6219867,-0.92567897,1.4254581,-1.6500996,-2.9569101,0.2073063,0.018783653,1.1957017,-1.2738664
-0.2,0.0,0.9999999999999999,0.5235987755982988,-0.5235987755982988,0,1.6110257,1.2127842,1.8634325,0.4866098,-0.3125924,0.44760907,1.0068929,1.4232329,-1.6541102,-2.9656103,0.1945336,0.11898424,0.92685354,-0.038317863
-0.2,0.0,0.9999999999999999,0.5235987755982988,-0.5235987755982988,0,1.6133887,1.2150705,1.8662069,0.49240103,-0.24951504,0.74529177,-0.09217048,1.418843,-1.6540878,-2.965664,0.22028758,0.16636421,0.7439227,0.54456955
-0.2,0.0,0.9999999999999999,0.5235987755982988,-0.5235987755982988,0,1.6166584,1.2111847,1.8625683,0.48282567,-0.03722288,0.55263126,0.06616955,1.4225774,-1.6555479,-2.961144,0.17054275,0.026840976,1.0408835,0.08161548
-0.2,0.0,0.9999999999999999,0.5235987755982988,-0.5235987755982988,0,1.6319475,1.215512,1.8636206,0.49980333,0.0062366193,0.4738435,-0.08148166,1.4215398,-1.654805,-2.9538515,0.19499536,0.30987942,0.8341515,2.7232525
-0.2,0.0,0.9999999999999999,0.5235987755982988,-0.5235987755982988,0,1.620242,1.2083735,1.8603098,0.51013345,-0.060984097,0.8669844,1.0712665,1.41682,-1.6564603,-2.9757376,0.17172556,0.12797259,0.8408068,-0.04061877
-0.2,0.0,0.9999999999999999,0.5235987755982988,-0.5235987755982988,0,1.6181012,1.2104315,1.8637621,0.50712025,-0.048711844,0.7177191,0.28030813,1.4252623,-1.6550161,-2.9779422,0.23600636,0.08282538,0.89266765,0.14814213
-0.2,0.0,0.9999999999999999,0.5235987755982988,-0.5235987755982988,0,1.5973793,1.2111778,1.8607082,0.48966777,-0.08720591,0.5671163,0.17745313,1.4156972,-1.6572394,-2.9776554,0.14750718,0.08469368,0.7271826,2.1631021
-0.2,0.0,0.9999999999999999,0.5235987755982988,-0.5235987755982988,0,1.609301,1.213362,1.8610048,0.5134316,-0.063420765,0.3935949,-0.095040366,1.4217427,-1.6563587,-2.9643517,0.17481835,0.0446121,0.9503294,-0.17386651
-0.2,0.0,0.9999999999999999,0.5235987755982988,-0.5235987755982988,0,1.5954818,1.2168463,1.8681544,0.51270694,0.029944357,0.6480031,-0.11137103,1.422199,-1.6573763,-2.9779525,0.21942729,-0.06434044,0.8459139,0.67251754
-0.2,0.0,0.9999999999999999,0.5235987755982988,-0.5235987755982988,0,1.6153035,1.2099764,1.8619626,0.52202946,-0.3325358,0.30374813,-0.00013019227,1.4225664,-1.6578692,-2.9784968,0.20892006,0.10913983,0.8364126,-1.3069534
-0.2,0.0,0.9999999999999999,0.5235987755982988,-0.5235987755982988,0,1.6253624,1.2082932,1.8611312,0.47442877,0.07160476,0.77961576,-0.1937165,1.4193823,-1.6561007,-2.970505,0.21003999,0.2864995,0.9126639,-0.045054257
-0.2,0.0,0.9999999999999999,0.5235987755982988,-0.5235987755982988,0,1.6251602,1.2127253,1.8648605,0.48887143,-0.22725296,0.622335,1.1445026,1.4216092,-1.6612264,-2.9691255,0.19720867,0.17788213,0.89813614,0.26603732
-0.2,0.0,0.9999999999999999,0.5235987755982988,-0.5235987755982988,0,1.6099075,1.2094563,1.8652309,0.5139902,-0.07097523,0.4222383,0.42420015,1.4165324,-1.656286,-2.9825592,0.18796888,0.000388536,0.85370064,-0.58324075
-0.2,0.0,0.9999999999999999,0.5235987755982988,-0.5235987755982988,0,1.6070108,1.2106963,1.8629705,0.50754803,-0.17294821,0.36571398,1.1470361,1.4214491,-1.6552765,-2.9690876,0.19936074,0.014950971,1.0263541,0.44980687
-0.2,0.0,0.9999999999999999,0.5235987755982988,-0.5235987755982988,0,1.6156096,1.2094591,1.8664116,0.48042655,0.14114457,0.68494207,0.13445987,1.4194478,-1.6558832,-2.9819283,0.20827785,0.14117081,0.84838605,0.23191926
-0.2,0.0,0.9999999999999999,0.5235987755982988,-0.5235987755982988,0,1.6048536,1.2103409,1.8580271,0.50195956,0.00884011,0.5825125,-0.14302008,1.420392,-1.6594596,-2.9604068,0.19334523,0.21897021,0.7648001,-1.1676449
-0.2,0.0,0.9999999999999999,0.5235987755982988,-0.5235987755982988,0,1.619438,1.2083031,1.866193,0.49040407,-0.081424884,0.67663914,0.315146,1.4197979,-1.6560385,-2.9661646,0.17364383,-0.13464557,0.77055234,0.06760116
-0.2,0.0,0.9999999999999999,0.5235987755982988,-0.5235987755982988,0,1.6108171,1.2109373,1.8609622,0.51390094,-0.13509907,0.8005198,-0.049571197,1.4199431,-1.6580267,-2.9816282,0.25178522,0.15408757,1.0502442,0.553964
-0.2,0.0,0.9999999999999999,0.5235987755982988,-0.5235987755982988,0,1.6302698,1.2129987,1.8586028,0.48075926,0.004265332,0.45279074,0.5744007,1.4216094,-1.6585342,-2.9768388,0.16176632,-0.01602299,0.8515918,-1.2859054
-0.2,0.0,0.9999999999999999,0.5235987755982988,-0.5235987755982988,0,1.6061847,1.2104403,1.8613697,0.51764107,-0.018773299,0.47921014,0.15786481,1.415396,-1.6524794,-2.968195,0.1788585,0.009487774,0.8908264,1.3110347
-0.2,0.0,0.9999999999999999,0.5235987755982988,-0.5235987755982988,0,1.6047162,1.2096357,1.8606392,0.49644002,-0.122623995,0.6978411,0.15978546,1.4215783,-1.6529269,-2.9694724,0.18094008,0.038683448,1.0050036,-1.3564066
-0.2,0.0,0.9999999999999999,0.5235987755982988,-0.5235987755982988,0,1.5853704,1.2149888,1.8645974,0.4987554,-0.15978707,1.1390975,-0.38248196,1.4194902,-1.6570284,-2.9731917,0.17093287,0.0040115644,0.9567827,-1.1292276
-0.2,0.0,0.9999999999999999,0.5235987755982988,-0.5235987755982988,0,1.6185011,1.211815,1.8617705,0.5214828,-0.039395425,0.6956857,0.08201085,1.4252104,-1.6523521,-2.9713974,0.18779215,0.014815463,0.8522697,0.5293006
-0.2,0.0,0.9999999999999999,0.5235987755982988,-0.5235987755982988,0,1.6161236,1.2150781,1.8623947,0.49843723,0.15243606,0.81202424,-0.0718736,1.4185667,-1.6545213,-2.9647639,0.1891382,0.18760867,0.7885903,0.5392901
-0.2,0.0,0.9999999999999999,0.5235987755982988,-0.5235987755982988,0,1.61229,1.2165701,1.864416,0.5225379,0.097013064,0.50036144,0.9950752,1.4238814,-1.6578343,-2.9950674,0.22518063,-0.0028801514,0.98474133,0.7770035
-0.2,0.0,0.9999999999999999,0.5235987755982988,-0.5235987755982988,0,1.6317956,1.2135524,1.8609895,0.50821066,-0.023327377,1.253147,0.9044513,1.4245447,-1.6528311,-2.9736168,0.18200792,0.17768879,0.8618598,0.392941
-0.2,0.0,0.9999999999999999,0.5235987755982988,-0.5235987755982988,0,1.6423348,1.2115068,1.8616512,0.49255946,0.0674862,0.9811011,1.0764709,1.4155227,-1.6575499,-2.9674594,0.20798355,0.0352332,0.83760095,-0.7806005
-0.2,0.0,0.9999999999999999,0.5235987755982988,-0.5235987755982988,0,1.6187619,1.2087601,1.8645995,0.49808782,-0.24138369,1.1511801,0.075633086,1.4220746,-1.6570996,-2.9685318,0.18492363,0.13063197,0.7729023,0.9980955
-0.2,0.0,0.9999999999999999,0.5235987755982988,-0.5235987755982988,0,1.6376765,1.206841,1.8535022,0.48524493,0.006668743,0.7628117,0.82631636,1.4283754,-1.6544303,-2.9825118,0.20287634,0.18265209,0.9542061,0.57015336
-0.2,0.0,0.9999999999999999,0.5235987755982988,-0.5235987755982988,0,1.6234131,1.2082274,1.8605202,0.5005916,-0.1283836,0.311788,0.400289,1.4236394,-1.6570241,-2.9848094,0.19331346,-0.039233662,0.9104357,0.81556356
-0.2,0.0,0.9999999999999999,0.5235987755982988,-0.5235987755982988,0,1.6234726,1.215846,1.863583,0.48438066,0.31333405,0.1268265,1.4681715,1.4235154,-1.6547265,-2.9837897,0.14722042,0.04864575,1.0954473,-1.7508454
-0.2,0.0,0.9999999999999999,0.5235987755982988,-0.5235987755982988,0,1.6142725,1.2150878,1.8630588,0.53962404,-0.24778932,0.75199443,0.49578324,1.421296,-1.6552346,-2.9682648,0.22652079,0.0790287,0.9410131,-0.38054162
-0.2,0.0,0.9999999999999999,0.5235987755982988,-0.5235987755982988,0,1.6248296,1.2135682,1.8637751,0.49789396,0.060993623,1.0250466,0.7154298,1.4193782,-1.6561818,-2.9446547,0.17819232,0.23970778,1.000206,0.76399195
-0.2,0.0,0.9999999999999999,0.5235987755982988,-0.5235987755982988,0,1.6176317,1.2175453,1.8594733,0.4677195,-0.11655628,0.61952657,0.9727546,1.419764,-1.6572704,-2.970468,0.18485372,0.081258826,1.2783741,1.2315075
-0.2,0.0,0.9999999999999999,0.5235987755982988,-0.5235987755982988,0,1.6120907,1.216516,1.865613,0.49915326,-0.112707496,0.92506987,0.7345909,1.4229172,-1.658419,-2.9710307,0.18486159,0.056553137,0.8199436,0.7932266
-0.2,0.0,0.9999999999999999,0.5235987755982988,-0.5235987755982988,0,1.63264,1.2161734,1.8626165,0.50212866,-0.147211,0.81081426,0.8860304,1.4238434,-1.6490048,-2.9695802,0.20526773,0.042016458,1.0154451,1.0738568
-0.2,0.0,0.9999999999999999,0.5235987755982988,-0.5235987755982988,0,1.6150054,1.2127656,1.8636948,0.5081676,-0.3165825,0.5778321,0.022110583,1.4184998,-1.6580393,-2.9723346,0.14133002,0.0714643,0.7533802,-1.4636344
-0.2,0.0,0.9999999999999999,0.5235987755982988,-0.5235987755982988,0,1.6117351,1.2127613,1.8572071,0.52396584,0.04043475,0.819043,0.9782723,1.4215963,-1.6578995,-2.9736009,0.15829149,0.04555351,0.8557448,1.5705066
-0.2,0.0,0.9999999999999999,0.5235987755982988,-0.5235987755982988,0,1.6170877,1.21585,1.8642852,0.47741038,-0.302047,0.5600743,0.96402705,1.4208131,-1.6566011,-2.9695547,0.18216334,0.021222977,0.7661021,0.677993
-0.2,0.0,0.9999999999999999,0.5235987755982988,-0.5235987755982988,0,1.6226879,1.2101756,1.8665617,0.506747,0.12450667,0.61804664,0.32145637,1.4205008,-1.6578643,-2.9897845,0.22761658,0.021174224,0.73470926,-1.191299
-0.2,0.0,0.9999999999999999,0.5235987755982988,-0.5235987755982988,0,1.6053097,1.2141314,1.8645364,0.50792676,-0.26899332,0.56612456,-1.0147723,1.4224352,-1.657795,-2.987873,0.21132869,0.26388773,0.93945307,-0.5893349
-0.2,0.0,0.9999999999999999,0.5235987755982988,-0.5235987755982988,0,1.6221948,1.2139463,1.8619932,0.49767834,-0.10795826,0.63784397,0.10157954,1.4205368,-1.6587703,-2.9662976,0.15841535,0.23360068,0.7865925,0.516664
-0.2,0.0,0.9999999999999999,0.5235987755982988,-0.5235987755982988,0,1.6172421,1.208964,1.8610944,0.50994515,0.017836297,0.7444501,-0.00048805313,1.4182805,-1.6538242,-2.9885707,0.14667301,0.14449784,0.8602479,0.18255435
-0.2,0.0,0.9999999999999999,0.5235987755982988,-0.5235987755982988,0,1.6157162,1.2134585,1.864907,0.48357445,-0.13884392,0.8677625,0.3285851,1.4206389,-1.6558179,-2.9673822,0.20965476,0.04974036,0.6864753,0.64652365
-0.2,0.0,0.9999999999999999,0.5235987755982988,-0.5235987755982988,0,1.6082058,1.2125846,1.8584923,0.50882787,-0.017198918,0.6962553,0.92730445,1.4181494,-1.6564778,-2.9710917,0.21524853,0.17015576,0.857617,0.26119745
-0.2,0.0,0.9999999999999999,0.5235987755982988,-0.5235987755982988,0,1.6098152,1.2119647,1.8628871,0.48171115,-0.16897748,0.79837906,0.19012408,1.4239675,-1.6514249,-2.9762084,0.19070835,0.24903616,1.1402353,-1.1575731
-0.2,0.0,0.9999999999999999,0.5235987755982988,-0.5235987755982988,0,1.6357546,1.2099178,1.86165,0.4957427,0.08223965,0.8863015,0.107253194,1.4213902,-1.6591674,-2.9749336,0.22464627,0.17265354,0.81711704,1.429707
-0.2,0.0,0.9999999999999999,0.5235987755982988,-0.5235987755982988,0,1.6221446,1.2097086,1.8592244,0.48575556,-0.2262854,0.807479,0.94095623,1.424595,-1.6556282,-2.9820771,0.20696397,-0.12410293,0.8449693,-0.47975257
-0.2,0.0,0.9999999999999999,0.5235987755982988,-0.5235987755982988,0,1.6274751,1.2106019,1.8601867,0.50008017,0.06431673,0.7037105,0.8550022,1.4190757,-1.6546834,-2.9658804,0.22171244,0.17976949,0.9005278,0.87718165
-0.2,0.0,0.9999999999999999,0.5235987755982988,-0.5235987755982988,0,1.6053185,1.2102265,1.8645648,0.50922835,-0.10915012,0.55970275,-0.622955,1.41671,-1.6546154,-2.973589,0.21227516,0.014267283,1.0162516,0.21296774
-0.2,0.0,0.9999999999999999,0.5235987755982988,-0.5235987755982988,0,1.613743,1.2094657,1.8602812,0.5011856,0.0645643,0.40737593,1.0566198,1.416634,-1.6550766,-2.96642,0.18831013,0.14569966,0.8995026,0.5533248
-0.2,0.0,0.9999999999999999,0.5235987755982988,-0.5235987755982988,0,1.608267,1.2120931,1.8626677,0.49351168,-0.1428946,0.8426979,0.13983767,1.4162756,-1.6539509,-2.9706247,0.21435276,0.010775153,1.0249968,0.85953486
-0.2,0.0,0.9999999999999999,0.5235987755982988,-0.5235987755982988,0,1.6219866,1.215707,1.8592218,0.5245982,-0.19280759,0.7959456,0.41369137,1.4158415,-1.6566703,-2.949712,0.1787027,0.07185631,0.97460234,-1.1776111
-0.2,0.0,0.9999999999999999,0.5235987755982988,-0.5235987755982988,0,1.6121671,1.2150663,1.8649838,0.47002816,-0.23493928,0.79433966,-0.16666311,1.4151173,-1.6546769,-2.954563,0.19137846,-0.13525328,0.7052747,0.17147905
-0.2,0.0,0.9999999999999999,0.5235987755982988,-0.5235987755982988,0,1.6156512,1.2113962,1.8614061,0.49844238,-0.18821293,0.7807754,0.19297086,1.4222698,-1.6574472,-2.987039,0.2163066,0.07459551,1.0681537,0.1579124
-0.2,0.0,0.9999999999999999,0.5235987755982988,-0.5235987755982988,0,1.6289952,1.2072047,1.8656293,0.48715547,0.025988193,0.94774,0.36062458,1.4183127,-1.6536984,-2.9847918,0.22308226,0.15426077,0.9501896,0.42495516
-0.2,0.0,0.9999999999999999,0.5235987755982988,-0.5235987755982988,0,1.6238778,1.2100924,1.8547735,0.52184,-0.022973172,0.7557749,-0.14205559,1.4188544,-1.6522777,-2.9640553,0.20053418,0.36338374,1.0977336,0.2792316
-0.2,0.0,0.9999999999999999,0.5235987755982988,-0.5235987755982988,0,1.6153812,1.216974,1.8562496,0.48329777,-0.05034906,0.46027613,0.65540844,1.434,-1.6566026,-2.9686153,0.21436076,0.027454652,0.79476994,-0.062039502
-0.2,0.0,0.9999999999999999,0.5235987755982988,-0.5235987755982988,0,1.6151091,1.218193,1.8687588,0.50827813,-0.4067513,0.435889,0.03642142,1.4260522,-1.6568933,-2.9633253,0.17831635,0.35233736,0.85706955,-0.7635208
-0.2,0.0,0.9999999999999999,0.5235987755982988,-0.5235987755982988,0,1.61206,1.2139695,1.8608963,0.500901,-0.12261599,0.5597619,0.08129511,1.4373956,-1.6532843,-3.0008688,0.19840725,0.17569432,0.82782114,0.5441158
-0.2,0.0,0.9999999999999999,0.5235987755982988,-0.5235987755982988,0,1.6267444,1.2144638,1.8601979,0.4861789,-0.15592991,0.33449575,0.26625845,1.4275696,-1.6557423,-2.9453156,0.17609861,0.19969307,0.856276,1.0481948
-0.2,0.0,0.9999999999999999,0.5235987755982988,-0.5235987755982988,0,1.6216221,1.2089945,1.8599671,0.50094175,0.1769435,0.92025024,-0.040255997,1.4361001,-1.6563493,-2.991175,0.2194678,-0.055788927,0.96006423,0.7674411
-0.2,0.0,0.9999999999999999,0.5235987755982988,-0.5235987755982988,0,1.6268684,1.2141929,1.8620849,0.4819425,-0.032971777,0.7422751,0.34720537,1.4318736,-1.655014,-2.9607816,0.15120974,-0.004608298,0.9498826,2.0400758
-0.2,0.0,0.9999999999999999,0.5235987755982988,-0.5235987755982988,0,1.6062039,1.2118516,1.8625501,0.5031824,0.01411506,0.31920245,0.052674506,1.4255848,-1.6584698,-2.9744992,0.18680884,-0.0011401329,0.9491693,0.41371292
-0.2,0.0,0.9999999999999999,0.5235987755982988,-0.5235987755982988,0,1.6065582,1.2035367,1.8603104,0.5015561,-0.418581,0.5812905,-0.035757504,1.4247262,-1.6531585,-2.9711375,0.15949322,0.23606694,0.9089629,0.9815609
-0.2,0.0,0.9999999999999999,0.5235987755982988,-0.5235987755982988,0,1.6227379,1.2127112,1.8646227,0.5126589,-0.18018503,0.962057,-0.06692179,1.4345914,-1.6579252,-2.9633071,0.22183725,-0.01772711,0.69849926,-0.97122854
-0.2,0.0,0.9999999999999999,0.5235987755982988,-0.5235987755982988,0,1.6026679,1.2092521,1.8585685,0.47583187,0.16995564,0.259365,0.36602458,1.430465,-1.6561384,-2.958364,0.16808304,0.27939004,0.81476825,-1.1877975
-0.2,0.0,0.9999999999999999,0.5235987755982988,-0.5235987755982988,0,1.5946854,1.2043935,1.856565,0.50322855,-0.2904348,0.43782765,-0.14681345,1.4292873,-1.65738,-2.9925587,0.16581807,0.07561149,0.8206811,1.3002452
-0.2,0.0,0.9999999999999999,0.5235987755982988,-0.5235987755982988,0,1.6241373,1.216391,1.8629985,0.50518095,0.013648813,0.40491685,-0.1102613,1.4225272,-1.658605,-2.9709854,0.22027789,0.15807717,0.5014123,0.18417779
-0.2,0.0,0.9999999999999999,0.5235987755982988,-0.5235987755982988,0,1.6205142,1.2130647,1.862538,0.4898579,-0.025405059,0.3685666,0.6555086,1.4291139,-1.6586512,-2.9651213,0.2025689,0.1674246,0.9325357,1.4169781
-0.2,0.0,0.9999999999999999,0.5235987755982988,-0.5235987755982988,0,1.6346428,1.2098051,1.8601898,0.5027628,0.16764787,0.55970347,0.4332727,1.4210438,-1.6551068,-2.9666872,0.22043803,0.1868224,0.76395077,-0.17688048
-0.2,0.0,0.9999999999999999,0.5235987755982988,-0.5235987755982988,0,1.6182938,1.2110552,1.8618938,0.507306,-0.26156515,0.5014478,0.6762125,1.428578,-1.658129,-2.9525232,0.19264077,-0.24473388,0.71773565,1.0022244
-0.2,0.0,0.9999999999999999,0.5235987755982988,-0.5235987755982988,0,1.6044812,1.2133008,1.8650181,0.49422294,-0.013914127,0.4066598,0.034937985,1.428342,-1.65444,-2.976305,0.21547502,0.197654,0.6993909,-0.2879545
-0.2,0.0,0.9999999999999999,0.5235987755982988,-0.5235987755982988,0,1.6010476,1.2139745,1.8624257,0.49724725,-0.039458886,0.5965753,1.0952448,1.4279035,-1.6603131,-2.9603922,0.2334667,0.22538444,0.79337096,0.6138318
-0.2,0.0,0.9999999999999999,0.5235987755982988,-0.5235987755982988,0,1.6132915,1.2087,1.8623784,0.49466074,-0.084905766,0.44547606,0.7346356,1.4271758,-1.6550242,-2.9671977,0.21047091,0.13517182,0.9213168,1.0985669
-0.2,0.0,0.9999999999999999,0.5235987755982988,-0.5235987755982988,0,1.606612,1.2147219,1.8636057,0.502271,-0.066537745,0.6111,0.7299403,1.4300416,-1.6542678,-2.9714355,0.23034109,0.17279744,0.8638184,-0.54412013
-0.2,0.0,0.9999999999999999,0.5235987755982988,-0.5235987755982988,0,1.6041293,1.2172323,1.8633124,0.5182125,-0.13157317,0.45661393,0.89494485,1.4292209,-1.6589488,-2.9594495,0.20548649,0.21916613,1.035328,-1.2237738
-0.2,0.0,0.9999999999999999,0.5235987755982988,-0.5235987755982988,0,1.6025412,1.2083269,1.8627493,0.51715046,-0.47938716,0.3905328,-0.725764,1.4264963,-1.6553452,-2.9626677,0.17404266,0.0039644204,0.7913679,0.046836197
-0.2,0.0,0.9999999999999999,0.5235987755982988,-0.5235987755982988,0,1.6128168,1.211008,1.8605239,0.53852105,-0.08239472,0.6639209,-0.01143467,1.4272959,-1.6560763,-2.9660878,0.21442962,0.14566676,0.8460786,1.2409912
-0.2,0.0,0.9999999999999999,0.5235987755982988,-0.5235987755982988,0,1.6222881,1.2131778,1.8573501,0.5212942,-0.17575411,0.93744504,-0.55919504,1.431849,-1.6557221,-2.97186,0.22766593,0.17425129,0.86568624,-0.7296425
-0.2,0.0,0.9999999999999999,0.5235987755982988,-0.5235987755982988,0,1.616978,1.2131186,1.8601516,0.48681882,-0.17910843,0.7360287,0.25031605,1.4281082,-1.6545817,-2.9827871,0.16281542,-0.11990676,0.93044156,-0.34443456
-0.2,0.0,0.9999999999999999,0.5235987755982988,-0.5235987755982988,0,1.6142828,1.2138628,1.8656865,0.46600837,-0.09091136,0.4161483,0.375505,1.418129,-1.6544396,-2.966246,0.20186105,0.0771128,0.8191171,-0.9789877
-0.2,0.0,0.9999999999999999,0.5235987755982988,-0.5235987755982988,0,1.6122204,1.2122036,1.8643627,0.51733625,-0.36503813,0.44867784,0.20660862,1.4261968,-1.6565647,-2.968696,0.2008955,0.113181,0.94063264,1.2321969
-0.2,0.0,0.9999999999999999,0.5235987755982988,-0.5235987755982988,0,1.6081308,1.2120183,1.8646914,0.5033,0.024458315,0.56522536,0.6841169,1.4266685,-1.6555066,-2.9764948,0.19340861,0.069053315,0.7795259,-0.74037206
-0.2,0.0,0.9999999999999999,0.5235987755982988,-0.5235987755982988,0,1.626128,1.2074744,1.8575562,0.5031075,0.2804565,0.52530116,-0.27764666,1.4223866,-1.658338,-2.9648433,0.19412197,-0.114012495,0.8365428,1.0448624
-0.2,0.0,0.9999999999999999,0.5235987755982988,-0.5235987755982988,0,1.6148083,1.2131829,1.8676481,0.5197368,0.18710594,0.62761945,0.17569089,1.4257898,-1.6586173,-2.9627883,0.16888697,0.19537604,0.8236274,0.6040283
-0.2,0.0,0.9999999999999999,0.5235987755982988,-0.5235987755982988,0,1.6006008,1.2053257,1.85844,0.4897093,-0.2914225,0.45159572,-0.2514675,1.427417,-1.6577914,-2.9722452,0.1938019,0.17073399,0.8329971,0.1747596
-0.2,0.0,0.9999999999999999,0.5235987755982988,-0.5235987755982988,0,1.6140513,1.2082806,1.8651145,0.47781292,-0.14798158,0.48473907,-0.20528816,1.4245594,-1.6576439,-2.9682646,0.16670544,0.344123,0.96232986,-0.8653988
-0.2,0.0,0.9999999999999999,0.5235987755982988,-0.5235987755982988,0,1.601807,1.2098386,1.866047,0.50982815,0.14373372,0.8959049,0.15994604,1.4219276,-1.6565007,-2.9798043,0.21748035,-0.07037166,0.86448926,0.27770805
-0.2,0.0,0.9999999999999999,0.5235987755982988,-0.5235987755982988,0,1.6134906,1.2125099,1.8661605,0.47539893,0.2729138,0.95229673,0.4786855,1.4325871,-1.6576799,-2.979172,0.21722202,0.010697836,0.9925842,0.2824834
-0.2,0.0,0.9999999999999999,0.5235987755982988,-0.5235987755982988,0,1.6120679,1.2121065,1.8652043,0.50360924,-0.10662829,0.51384467,0.10730935,1.4292302,-1.6571026,-2.9758158,0.20111983,0.24238223,0.6353122,1.5158349
-0.2,0.0,0.9999999999999999,0.5235987755982988,-0.5235987755982988,0,1.6157455,1.2087464,1.8621715,0.4662703,-0.07584569,0.65774137,-0.15201375,1.42457,-1.6577342,-2.9637709,0.2018007,0.12624544,1.1958362,-0.19937833
-0.2,0.0,0.9999999999999999,0.5235987755982988,-0.5235987755982988,0,1.6190145,1.2106315,1.8645866,0.5024483,-0.22405955,0.7367525,-0.09545611,1.4220207,-1.6553707,-2.9848206,0.20614307,0.005721978,0.5562444,-0.06153141
-0.2,0.0,0.9999999999999999,0.5235987755982988,-0.5235987755982988,0,1.6172444,1.2097214,1.8628159,0.5213076,-0.45784444,0.68591803,0.941218,1.4187216,-1.65424,-2.9651217,0.21675304,0.13789299,1.0973959,-0.77339613
-0.2,0.0,0.9999999999999999,0.5235987755982988,-0.5235987755982988,0,1.6163514,1.2123502,1.8659922,0.46192658,0.11786228,0.7294868,-0.18651846,1.4137647,-1.6555753,-2.9879954,0.19506405,0.1484302,1.0151395,-0.006676302
-0.2,0.0,0.9999999999999999,0.5235987755982988,-0.5235987755982988,0,1.6180135,1.2087779,1.8600605,0.50009376,0.0034325975,0.73843336,-0.05772938,1.4288319,-1.653453,-2.9720278,0.15648586,0.0174089,1.129022,0.13944663
-0.2,0.0,0.9999999999999999,0.5235987755982988,-0.5235987755982988,0,1.6155282,1.2163997,1.8599564,0.5056782,0.09577637,0.5358733,0.3203343,1.4276283,-1.6586647,-2.9609973,0.22446515,-0.07778269,0.67383814,0.13486397
-0.2,0.0,0.9999999999999999,0.5235987755982988,-0.5235987755982988,0,1.6140614,1.2131336,1.8635688,0.47210267,-0.30113497,0.7015529,-0.0019091914,1.4277986,-1.6563824,-2.9619565,0.17369494,-0.034232102,0.8867821,-0.9701345
-0.2,0.0,0.9999999999999999,0.5235987755982988,-0.5235987755982988,0,1.616234,1.2157911,1.8619325,0.50676256,-0.015328472,0.738305,-0.17995448,1.4279346,-1.6576546,-2.954097,0.19931816,0.03794241,1.1626892,0.7539635
-0.2,0.0,0.9999999999999999,0.5235987755982988,-0.5235987755982988,0,1.6401726,1.2088864,1.8629466,0.53390884,-0.0041978667,0.94075125,0.73274237,1.4276373,-1.6536069,-2.9788451,0.17766206,-0.0075195106,0.9537911,0.07375508
-0.2,0.0,0.9999999999999999,0.5235987755982988,-0.5235987755982988,0,1.6236492,1.2102875,1.8638566,0.4560073,-0.37264645,0.54292583,0.16650511,1.4254277,-1.6579207,-2.971768,0.18950114,0.02396448,0.71173614,-1.436499
-0.2,0.0,0.9999999999999999,0.5235987755982988,-0.5235987755982988,0,1.6131705,1.2151542,1.8609352,0.49351153,-0.017649636,0.3048783,0.2826623,1.4226177,-1.653683,-2.9665694,0.2096047,-0.034247726,0.93054485,-0.04371652
-0.2,0.0,0.9999999999999999,0.5235987755982988,-0.5235987755982988,0,1.6107442,1.2095981,1.8588638,0.5189866,-0.25710338,0.15742548,1.0535408,1.4223714,-1.6556376,-2.9435573,0.22532001,0.3067068,1.0934286,0.7749206
-0.2,0.0,0.9999999999999999,0.5235987755982988,-0.5235987755982988,0,1.6028425,1.2112919,1.8603219,0.50085497,-0.39456564,0.57223564,-0.014332631,1.426063,-1.6577375,-2.9910316,0.22064283,0.16433433,0.9346815,-0.57953906
-0.2,0.0,0.9999999999999999,0.5235987755982988,-0.5235987755982988,0,1.608919,1.210753,1.8614274,0.48618054,-0.2490183,0.35376477,0.12346577,1.4216708,-1.654853,-2.9645798,0.16741046,0.36424974,0.7057962,-0.45818135
-0.2,0.0,0.9999999999999999,0.5235987755982988,-0.5235987755982988,0,1.6105037,1.2085022,1.8585402,0.5152451,-0.34476635,0.43598056,-0.31747708,1.4251143,-1.6532228,-2.9491212,0.17366423,0.17464769,0.73538643,-0.36296603
-0.2,0.0,0.9999999999999999,0.5235987755982988,-0.5235987755982988,0,1.6236262,1.2073289,1.861702,0.48867577,0.045768768,0.8463518,0.24109867,1.4249403,-1.6541636,-2.9797778,0.22642645,0.240244,0.93497765,-0.6083424
-0.2,0.0,0.9999999999999999,0.5235987755982988,-0.5235987755982988,0,1.6104734,1.2102395,1.8652096,0.504063,-0.017965022,0.6156533,0.62634414,1.4279649,-1.6556752,-2.9713693,0.21055968,0.0014394264,0.96403843,0.36099604
-0.2,0.0,0.9999999999999999,0.5235987755982988,-0.5235987755982988,0,1.6180167,1.2091151,1.862814,0.52543944,0.06925454,0.58288336,1.0157632,1.4235854,-1.6534913,-2.9593601,0.17520499,0.020664843,0.9429029,-1.0172939
-0.2,0.0,0.9999999999999999,0.5235987755982988,-0.5235987755982988,0,1.6258074,1.2149355,1.8674566,0.49580398,-0.10145233,0.5159612,0.00083311636,1.425347,-1.6555717,-2.9591122,0.22760622,0.099181324,1.2097379,0.7996768
-0.2,0.0,0.9999999999999999,0.5235987755982988,-0.5235987755982988,0,1.606645,1.2125455,1.8622305,0.49275017,0.10889715,0.8471412,-0.06658837,1.4142276,-1.6511511,-2.964269,0.19522351,0.052195117,0.7702317,1.0412056
-0.2,0.0,0.9999999999999999,0.5235987755982988,-0.5235987755982988,0,1.613647,1.2098006,1.8619753,0.4845597,-0.1179308,0.2573141,0.65328133,1.4216923,-1.6558594,-2.9643965,0.17349918,0.12750234,0.8018224,-0.12851813
-0.2,0.0,0.9999999999999999,0.5235987755982988,-0.5235987755982988,0,1.6174499,1.2101514,1.8659995,0.48938757,-0.14299357,0.5681208,0.22382337,1.4236516,-1.6568428,-2.9872348,0.169137,0.041676495,0.83431196,-2.7713253
-0.2,0.0,0.9999999999999999,0.5235987755982988,-0.5235987755982988,0,1.6361341,1.2130251,1.858375,0.49486864,0.014579244,0.5470378,0.07283027,1.4273095,-1.6574924,-2.9747047,0.21566908,0.11302028,0.8471479,0.40240225
-0.2,0.0,0.9999999999999999,0.5235987755982988,-0.5235987755982988,0,1.6106148,1.2133489,1.8573172,0.50152016,-0.14800197,0.8807231,0.17915812,1.4255528,-1.6568354,-2.969781,0.21784826,-0.027085524,0.8345815,0.416176
-0.2,0.0,0.9999999999999999,0.5235987755982988,-0.5235987755982988,0,1.622837,1.2106291,1.8629012,0.48205504,-0.1032119,0.3105225,-0.084649965,1.4286083,-1.6581109,-2.9728975,0.18949264,-0.01013866,0.940627,1.8565273
-0.2,0.0,0.9999999999999999,0.5235987755982988,-0.5235987755982988,0,1.6114131,1.2079622,1.8663322,0.5036987,-0.3943346,0.5049823,-0.2692953,1.4200302,-1.6561999,-2.9746935,0.19431674,0.002842197,0.87734586,0.5850854
-0.2,0.0,0.9999999999999999,0.5235987755982988,-0.5235987755982988,0,1.6171734,1.2079802,1.8616316,0.50319827,-0.12583521,0.5504518,0.067949474,1.4245797,-1.6550992,-2.9756575,0.2220706,0.10334499,1.0518389,0.83217233
-0.2,0.0,0.9999999999999999,0.5235987755982988,-0.5235987755982988,0,1.6274478,1.2147626,1.864538,0.5087565,-0.11134262,0.30321774,0.30509454,1.4231155,-1.6574495,-2.9682348,0.19630526,0.066631295,0.8520721,-0.39143604
-0.2,0.0,0.9999999999999999,0.5235987755982988,-0.5235987755982988,0,1.6180685,1.2030795,1.8625512,0.5059526,0.070530094,0.77405274,1.2996104,1.4239738,-1.660005,-2.9793005,0.17490192,0.10068471,1.0616138,1.2995995
-0.2,0.0,0.9999999999999999,0.5235987755982988,-0.5235987755982988,0,1.60864,1.2083602,1.8566762,0.49899197,0.06506028,0.46977592,-0.045415543,1.4296035,-1.6541153,-2.981823,0.22011602,-0.12788452,1.0970225,0.44046992
-0.2,0.0,0.9999999999999999,0.5235987755982988,-0.5235987755982988,0,1.6109371,1.2140075,1.8632485,0.49583927,0.07287337,0.715485,1.0850149,1.426092,-1.65758,-3.0002286,0.21660261,0.090569876,0.70865977,0.45484313
-0.2,0.0,0.9999999999999999,0.5235987755982988,-0.5235987755982988,0,1.6080257,1.2116811,1.8612738,0.52459055,-0.046595667,0.30328357,1.1647584,1.4268758,-1.65201,-2.9656663,0.18999892,-0.13633862,1.0103449,2.1042054
-0.2,0.0,0.9999999999999999,0.5235987755982988,-0.5235987755982988,0,1.6193726,1.2113192,1.8603843,0.49030623,-0.0693818,0.5172848,0.30405745,1.4290625,-1.6558515,-2.984557,0.22558092,0.10354743,0.72339433,-1.0249826
-0.2,0.0,0.9999999999999999,0.5235987755982988,-0.5235987755982988,0,1.6074276,1.20928,1.8590286,0.5044227,-0.22970301,0.62955964,0.703074,1.418091,-1.6568044,-2.9641373,0.196213,0.08767472,1.0069828,-1.5920851
-0.2,0.0,0.9999999999999999,0.5235987755982988,-0.5235987755982988,0,1.6253685,1.2098092,1.861638,0.50452465,0.009777129,0.51082045,-0.39838952,1.4272153,-1.6584319,-2.9703796,0.19999914,0.056566104,0.7954595,1.0279235
-0.2,0.0,0.9999999999999999,0.5235987755982988,-0.5235987755982988,0,1.6156785,1.2092397,1.8637747,0.49257478,-0.17082107,0.4566024,0.12170367,1.4216267,-1.6596512,-2.9562004,0.22385338,0.0057258345,1.0563045,1.6161423
-0.2,0.0,0.9999999999999999,0.5235987755982988,-0.5235987755982988,0,1.6277088,1.2095038,1.8625451,0.49435332,-0.049529374,0.41918293,0.29177096,1.4250282,-1.6575559,-2.9665146,0.17774634,0.17672339,0.78817505,0.84934485
-0.2,0.0,0.9999999999999999,0.5235987755982988,-0.5235987755982988,0,1.6074187,1.2151921,1.8626795,0.47076726,-0.050365906,0.4791149,0.4712909,1.4234143,-1.654143,-2.966951,0.19395909,0.13527489,0.95861804,0.16286208
-0.2,0.0,0.9999999999999999,0.5235987755982988,-0.5235987755982988,0,1.6145691,1.2097017,1.864579,0.49342492,0.09392067,0.53948665,1.0141232,1.419935,-1.6604569,-2.973179,0.20207518,-0.13149168,0.8332681,-0.24625416
-0.2,0.0,0.9999999999999999,0.5235987755982988,-0.5235987755982988,0,1.6121849,1.2055869,1.8635836,0.49361694,0.25221905,0.6143258,0.3496275,1.4209776,-1.6595883,-2.9797165,0.17726167,0.08382536,1.0510805,0.97084963
-0.2,0.0,0.9999999999999999,0.5235987755982988,-0.5235987755982988,0,1.6360047,1.2142345,1.8660498,0.4953929,-0.16442412,0.3076671,1.0383583,1.4113648,-1.6568242,-2.965845,0.19929074,0.09341209,0.9985358,2.1394992
-0.2,0.0,0.9999999999999999,0.5235987755982988,-0.5235987755982988,0,1.608479,1.2133708,1.8608041,0.52643293,-0.1699881,0.674406,1.0939234,1.4255,-1.6534324,-2.9545822,0.22572191,0.014896284,0.9644916,0.4251922
-0.2,0.0,0.9999999999999999,0.5235987755982988,-0.5235987755982988,0,1.6015553,1.2088774,1.8607256,0.486615,0.05559114,0.4278319,-0.044609457,1.4242467,-1.657648,-2.9749036,0.2096884,0.12633598,0.9825745,-1.4778346
-0.2,0.0,0.9999999999999999,0.5235987755982988,-0.5235987755982988,0,1.6060778,1.2105119,1.8624194,0.5157591,0.22207123,0.7450517,-0.15363947,1.4216034,-1.656113,-2.960096,0.19142997,0.12138946,0.953286,0.93658274
-0.2,0.0,0.9999999999999999,0.5235987755982988,-0.5235987755982988,0,1.6205746,1.2089292,1.8652742,0.5169728,-0.40265763,0.75700074,-0.90407443,1.4220939,-1.6531004,-2.9619117,0.12697066,0.13579363,0.92133313,2.0645614
-0.2,0.0,0.9999999999999999,0.5235987755982988,-0.5235987755982988,0,1.6184052,1.2127411,1.8618139,0.52824134,0.07069229,0.7186785,0.4148028,1.4227837,-1.6591853,-2.96582,0.21406695,-0.10716431,1.0232263,0.075943515
-0.2,0.0,0.9999999999999999,0.5235987755982988,-0.5235987755982988,0,1.629737,1.2151275,1.8606796,0.49010134,0.17004086,0.9481063,1.0051503,1.4225475,-1.6562389,-2.9515376,0.2087864,0.10943806,0.92460376,-0.16791786
-0.2,0.0,0.9999999999999999,0.5235987755982988,-0.5235987755982988,0,1.6141437,1.2159479,1.8585817,0.48037633,-0.10078106,0.64961785,0.84387684,1.4225012,-1.6557755,-2.989287,0.21886401,0.049179617,0.9280443,-0.016117984
-0.2,0.0,0.9999999999999999,0.5235987755982988,-0.5235987755982988,0,1.6265128,1.2110308,1.8621006,0.50711405,0.02596727,0.74567336,0.61692077,1.4252447,-1.6530447,-2.9541376,0.18160582,0.218436,0.7371026,-0.115471296
-0.2,0.0,0.9999999999999999,0.5235987755982988,-0.5235987755982988,0,1.6221362,1.2125938,1.8651209,0.5071199,0.06738391,0.73908615,-0.07497108,1.4229376,-1.6571134,-2.969628,0.15703642,0.1675527,0.9385405,1.371907
-0.2,0.0,0.9999999999999999,0.5235987755982988,-0.5235987755982988,0,1.6140366,1.2097926,1.8586498,0.51707846,-0.5544941,0.5139399,0.94337827,1.4242347,-1.6563538,-2.9624476,0.18173453,-0.092117116,1.0596067,0.5044295
-0.2,0.0,0.9999999999999999,0.5235987755982988,-0.5235987755982988,0,1.6169707,1.2076741,1.8638142,0.48555827,-0.18976529,0.5054878,-0.2915956,1.4081454,-1.6554748,-2.9833438,0.214673,-0.01215852,0.7578351,-0.26461986
-0.2,0.0,0.9999999999999999,0.5235987755982988,-0.5235987755982988,0,1.6004937,1.2117474,1.8617271,0.5272534,-0.16097322,0.76861984,1.3751756,1.4243895,-1.652955,-2.9613671,0.19929901,0.15198633,0.97324777,0.47475028
-0.2,0.0,0.9999999999999999,0.5235987755982988,-0.5235987755982988,0,1.6152395,1.2082071,1.861155,0.5017908,-0.18006252,0.6470901,0.40669698,1.4195966,-1.6554868,-2.9563725,0.19329403,0.19657968,0.6483229,-0.18744816
-0.2,0.0,0.9999999999999999,0.5235987755982988,-0.5235987755982988,0,1.6154466,1.2175148,1.8631486,0.49570626,-0.19582336,0.7108234,0.28898713,1.4288535,-1.6557903,-2.969421,0.18511708,-0.07234508,1.08243,-1.2991291
-0.2,0.0,0.9999999999999999,0.5235987755982988,-0.5235987755982988,0,1.6068219,1.2108854,1.8607726,0.4933629,0.010617158,0.6322425,0.55484086,1.4206465,-1.658482,-2.9656699,0.2185071,-0.10138594,0.7581036,-0.2870595
-0.2,0.0,0.9999999999999999,0.5235987755982988,-0.5235987755982988,0,1.6029584,1.2171148,1.8618113,0.5131977,-0.2253454,0.9156904,0.29295588,1.4214004,-1.6544763,-2.9638927,0.22821006,0.1448453,0.9841779,-0.22246858
-0.2,0.0,0.9999999999999999,0.5235987755982988,-0.5235987755982988,0,1.6379557,1.2087082,1.8601867,0.49404514,-0.017851954,0.43705204,0.57532376,1.423017,-1.6558057,-2.9853005,0.16942838,0.12217861,0.81796026,0.31261873
-0.2,0.0,0.9999999999999999,0.5235987755982988,-0.5235987755982988,0,1.6264154,1.215023,1.8629392,0.48931065,-0.04116257,0.71617,0.50322664,1.4234095,-1.6581099,-2.9478498,0.18633543,0.09897779,0.82232213,1.1482862
-0.2,0.0,0.9999999999999999,0.5235987755982988,-0.5235987755982988,0,1.6144989,1.2123574,1.8612418,0.5125066,-0.15859173,0.510291,-1.2945559,1.4219621,-1.6593949,-2.9743953,0.16821012,-0.051409397,0.96622485,-1.4283764
-0.2,0.0,0.9999999999999999,0.5235987755982988,-0.5235987755982988,0,1.6156846,1.2143158,1.8588121,0.4963045,-0.22347608,0.5061634,0.34098288,1.4281003,-1.6569605,-2.982598,0.23895167,0.118413955,0.9385232,0.34668332
-0.2,0.0,0.9999999999999999,0.5235987755982988,-0.5235987755982988,0,1.61256,1.2135004,1.8600893,0.5113768,-0.121960476,0.7968014,-0.5178662,1.4212968,-1.6558899,-2.9736345,0.21825571,0.26800826,1.0388478,-1.5711743
-0.2,0.0,0.9999999999999999,0.5235987755982988,-0.5235987755982988,0,1.6093023,1.2089025,1.8620713,0.4939476,-0.010106921,0.86739826,0.8009292,1.4211574,-1.6578083,-2.969611,0.16368856,-0.0076707914,0.9271692,-1.181834
-0.2,0.0,0.9999999999999999,0.5235987755982988,-0.5235987755982988,0,1.589071,1.2097992,1.8619055,0.5030602,-0.078384995,0.6458439,0.53091884,1.4220364,-1.6544482,-2.9650185,0.17670757,0.028732613,1.0935698,-0.64114606
-0.2,0.0,0.9999999999999999,0.5235987755982988,-0.5235987755982988,0,1.6300517,1.2126318,1.8572311,0.4939042,-0.035454616,0.5646519,0.76482135,1.4231702,-1.6576018,-2.9676058,0.20964035,0.22572471,0.9355534,0.11414825
-0.2,0.0,0.9999999999999999,0.5235987755982988,-0.5235987755982988,0,1.5970249,1.2077076,1.8604965,0.48766068,0.1520591,0.82899183,0.9476638,1.4226882,-1.6539421,-2.9719274,0.16674331,0.0782016,0.9893408,0.49793777
-0.2,0.0,0.9999999999999999,0.5235987755982988,-0.5235987755982988,0,1.6045141,1.2095124,1.8567058,0.4940021,-0.23049152,0.9895288,0.6746459,1.4213719,-1.6599278,-2.963546,0.21928382,0.093086414,0.90682715,-0.13503534
-0.2,0.0,0.9999999999999999,0.5235987755982988,-0.5235987755982988,0,1.6341295,1.2132642,1.8622797,0.47057658,-0.3550937,0.36207435,-0.43976066,1.4201695,-1.6528327,-2.9522276,0.19782037,-0.0077244374,0.9547477,-0.7328153
-0.2,0.0,0.9999999999999999,0.5235987755982988,-0.5235987755982988,0,1.6256534,1.2110854,1.8642309,0.46755803,0.091245666,0.48161432,0.8318407,1.423511,-1.6580123,-2.972759,0.20818304,-0.08096305,0.9432632,0.8436562
-0.2,0.0,0.9999999999999999,0.5235987755982988,-0.5235987755982988,0,1.6161004,1.2170161,1.8647659,0.49825335,0.055748615,0.75653034,0.06606867,1.4248427,-1.6561546,-2.9770374,0.23893961,-0.002924137,0.92790914,0.005903914
-0.2,0.0,0.9999999999999999,0.5235987755982988,-0.5235987755982988,0,1.6349423,1.2121271,1.8620288,0.49443257,-0.035143435,0.8855847,-0.13890488,1.4153155,-1.6546139,-2.9752963,0.19155118,0.30997795,0.9064299,-0.65578717
-0.2,0.0,0.9999999999999999,0.5235987755982988,-0.5235987755982988,0,1.6332351,1.2136229,1.8628091,0.5109268,0.10654514,0.87457424,0.49568307,1.4235934,-1.6570895,-2.963439,0.20519513,0.1126266,1.0052671,2.373307
-0.2,0.0,0.9999999999999999,0.5235987755982988,-0.5235987755982988,0,1.6087085,1.2135174,1.8586347,0.4924429,-0.074903,0.7236398,0.17496374,1.4231913,-1.6571256,-2.9845603,0.1775729,-0.08900024,0.95160556,0.9152295
-0.2,0.0,0.9999999999999999,0.5235987755982988,-0.5235987755982988,0,1.6294287,1.2144707,1.8607674,0.48716068,0.01572935,0.60597867,0.14124572,1.421378,-1.6563717,-2.9533768,0.19934666,0.12589958,0.96663415,-0.3099453
-0.2,0.0,0.9999999999999999,0.5235987755982988,-0.5235987755982988,0,1.6078854,1.2121377,1.8609003,0.5063951,-0.016282625,0.4526411,1.0175191,1.4220695,-1.6534487,-2.971803,0.18567938,0.08729473,0.75086415,-0.7931501
-0.2,0.0,0.9999999999999999,0.5235987755982988,-0.5235987755982988,0,1.6133976,1.2097213,1.8597784,0.5130014,-0.017498251,0.94922775,0.3913523,1.4207582,-1.6549373,-2.9564066,0.19279721,0.0026919108,0.6302962,-1.5373875
-0.2,0.0,0.9999999999999999,0.5235987755982988,-0.5235987755982988,0,1.6199721,1.2176639,1.863595,0.47945368,0.13510048,0.47097126,-0.04382411,1.4224151,-1.6559558,-2.9671197,0.20445672,-0.014116587,0.8801996,0.89568037
-0.2,0.0,0.9999999999999999,0.5235987755982988,-0.5235987755982988,0,1.6024942,1.2134938,1.8621868,0.5012634,-0.0050278655,0.20993418,0.5883741,1.4223901,-1.65675,-2.9886997,0.20218024,-0.087634385,0.761876,-0.77546257
-0.2,0.0,0.9999999999999999,0.5235987755982988,-0.5235987755982988,0,1.6116861,1.2133449,1.8637675,0.48800147,0.015164979,0.59892845,-0.61922866,1.4202782,-1.6562014,-2.9793828,0.23457348,0.010209134,1.1601962,-0.24371624
-0.2,0.0,0.9999999999999999,0.5235987755982988,-0.5235987755982988,0,1.6165017,1.2144461,1.8615104,0.47906205,-0.10334018,0.4635795,0.9410873,1.4208705,-1.6523811,-2.994998,0.22076677,0.05580049,0.84920007,-0.1099373
-0.2,0.0,0.9999999999999999,0.5235987755982988,-0.5235987755982988,0,1.6179785,1.2105166,1.8579347,0.5331259,-0.11694498,1.0027397,0.24309316,1.4256345,-1.6556795,-2.9802835,0.16169684,0.10329684,0.8860206,-0.50741494
-0.2,0.0,0.9999999999999999,0.5235987755982988,-0.5235987755982988,0,1.6145694,1.2109814,1.8562443,0.4722245,-0.22119503,0.6750016,-0.030313248,1.4167273,-1.6570358,-2.9570735,0.20312801,0.005225791,0.9383958,-1.969744
-0.2,0.0,0.9999999999999999,0.5235987755982988,-0.5235987755982988,0,1.6100457,1.2117856,1.8622807,0.46502644,0.13635905,0.715921,-0.04435231,1.4161375,-1.6543927,-2.9401152,0.18997052,0.15621258,0.7967444,-0.66217554
-0.2,0.0,0.9999999999999999,0.5235987755982988,-0.5235987755982988,0,1.6262534,1.2101043,1.8632524,0.4869067,-0.17111063,0.16250205,0.99383116,1.4203591,-1.6567472,-2.9720142,0.18012999,-0.13011755,1.0663035,0.21714264
-0.2,0.0,0.9999999999999999,0.5235987755982988,-0.5235987755982988,0,1.6096691,1.2111256,1.8665962,0.45850778,0.042347774,0.5559131,-0.08077925,1.4164298,-1.6590543,-2.9828045,0.220045,-0.008207574,0.8322082,-1.1089385
-0.2,0.0,0.9999999999999999,0.5235987755982988,-0.5235987755982988,0,1.6314117,1.2129334,1.864165,0.48131076,0.04365413,0.44198757,-0.31184697,1.4201351,-1.6548495,-2.9602895,0.1874157,0.109180115,0.97572964,-0.37310582
-0.2,0.0,0.9999999999999999,0.5235987755982988,-0.5235987755982988,0,1.6261331,1.2139953,1.866621,0.48263317,0.07488555,0.8594333,-0.31464,1.4190793,-1.6566036,-2.9700227,0.22370006,0.11264317,1.0315149,0.65031517
-0.2,0.0,0.9999999999999999,0.5235987755982988,-0.5235987755982988,0,1.6368798,1.2083473,1.8622035,0.48583356,-0.062279336,0.9156357,-0.046238415,1.4265956,-1.6581298,-2.998128,0.16090396,0.047327135,1.0302063,-0.05674333
-0.2,0.0,0.9999999999999999,0.5235987755982988,-0.5235987755982988,0,1.620385,1.2138408,1.8627017,0.49138048,0.035312723,0.76569074,-0.39590028,1.4174076,-1.6537666,-2.9485955,0.17592457,0.08266028,0.93126684,0.14583847
-0.2,0.0,0.9999999999999999,0.5235987755982988,-0.5235987755982988,0,1.618313,1.2089818,1.8629689,0.5183649,0.062345058,0.6822396,0.16024452,1.4240681,-1.6535867,-2.9929104,0.16645902,0.14332578,0.7675548,1.7956097
-0.2,0.0,0.9999999999999999,0.5235987755982988,-0.5235987755982988,0,1.628364,1.2124368,1.8656942,0.49793115,-0.21364075,0.4239241,0.033943214,1.4186466,-1.6559325,-2.9838362,0.18813002,0.031184556,1.0261647,0.16359411
-0.2,0.0,0.9999999999999999,0.5235987755982988,-0.5235987755982988,0,1.627975,1.2079762,1.8627349,0.4964262,-0.13236752,0.6807118,0.59594667,1.4213283,-1.6524032,-2.9849987,0.23023653,0.09307984,0.78814757,0.20409186
-0.2,0.0,0.9999999999999999,0.5235987755982988,-0.5235987755982988,0,1.6240833,1.2093992,1.8609796,0.5199052,-0.074733436,0.9743937,0.013987476,1.41935,-1.6554141,-2.9763908,0.20746973,0.021791158,0.82703096,-1.3117657
-0.2,0.0,0.9999999999999999,0.5235987755982988,-0.5235987755982988,0,1.6237186,1.2120818,1.8613129,0.49659687,-0.0075450796,0.8417013,-0.13268209,1.4189893,-1.6543152,-2.972262,0.18351677,0.061298173,0.83108634,0.39141575
-0.2,0.0,0.9999999999999999,0.5235987755982988,-0.5235987755982988,0,1.6235484,1.2091622,1.864325,0.5000352,0.024735574,0.2037925,0.8378575,1.422558,-1.6567416,-2.9676542,0.16292791,-0.13476804,0.8780709,0.233438
-0.2,0.0,0.9999999999999999,0.5235987755982988,-0.5235987755982988,0,1.6214777,1.2114397,1.8591436,0.50020283,-0.14550275,0.9276188,0.3351138,1.4214185,-1.6571156,-2.972749,0.16315481,0.37106562,0.6661694,-0.27730387
-0.2,0.0,0.9999999999999999,0.5235987755982988,-0.5235987755982988,0,1.6258688,1.2106713,1.8625786,0.47828972,0.018746758,0.5107454,1.2464067,1.4288446,-1.6570598,-2.9720016,0.22602287,0.21192154,0.8703758,-0.5438328
-0.2,0.0,0.9999999999999999,0.5235987755982988,-0.5235987755982988,0,1.5997887,1.21212,1.8627447,0.51163834,-0.08432781,0.7312215,0.6057632,1.428268,-1.6552833,-2.9850245,0.2080763,0.076563664,0.834054,0.09774116
-0.2,0.0,0.9999999999999999,0.5235987755982988,-0.5235987755982988,0,1.6246594,1.2181176,1.8663169,0.51677793,0.11757718,0.8201356,0.08840928,1.4284589,-1.6574261,-2.9660501,0.22610803,0.2709911,0.844795,-0.27597198
-0.2,0.0,0.9999999999999999,0.5235987755982988,-0.5235987755982988,0,1.6096649,1.2113953,1.8594275,0.5176282,-0.034290124,0.41510576,0.27394128,1.4261751,-1.6552296,-2.980773,0.25627977,0.10789225,0.9101806,-0.6343929
-0.2,0.0,0.9999999999999999,0.5235987755982988,-0.5235987755982988,0,1.6138986,1.2079833,1.8566015,0.50249064,0.09623787,0.09849651,0.69808507,1.4266591,-1.6562562,-2.9870338,0.18536216,0.13967177,1.0583725,-0.71044964
-0.2,0.0,0.9999999999999999,0.5235987755982988,-0.5235987755982988,0,1.6081636,1.2141019,1.8637048,0.48822272,0.102113865,0.49188477,0.9243524,1.4256774,-1.6560789,-2.9862366,0.19457486,0.120200336,0.86815023,-0.22394319
-0.2,0.0,0.9999999999999999,0.5235987755982988,-0.5235987755982988,0,1.6212969,1.2125565,1.8644162,0.510559,-0.18177593,0.6766364,0.09136027,1.4264531,-1.6567725,-2.985581,0.14476292,0.08513692,0.89676803,0.7104674
-0.2,0.0,0.9999999999999999,0.5235987755982988,-0.5235987755982988,0,1.6307719,1.2062565,1.8622369,0.4775442,-0.11561148,0.47882038,0.3543381,1.4221085,-1.6549466,-2.966517,0.18989845,0.13333596,0.8163272,0.7753929
-0.2,0.0,0.9999999999999999,0.5235987755982988,-0.5235987755982988,0,1.6142768,1.2126637,1.8637651,0.4743866,-0.11101513,0.73902136,0.8929493,1.4204822,-1.6566777,-2.9654443,0.21933015,0.06558301,0.9408867,-1.3313993
-0.2,0.0,0.9999999999999999,0.5235987755982988,-0.5235987755982988,0,1.624816,1.2097908,1.8639426,0.49996254,0.0944489,0.6148067,-0.5326722,1.427319,-1.6556683,-2.959995,0.15893807,0.043425623,0.8159776,0.22352758
-0.2,0.0,0.9999999999999999,0.5235987755982988,-0.5235987755982988,0,1.6204168,1.2069937,1.8633673,0.48618403,0.057180136,0.66557837,0.81794745,1.4207532,-1.6542315,-2.959875,0.18200217,-0.06813658,0.7802695,-0.93549216
-0.2,0.0,0.9999999999999999,0.5235987755982988,-0.5235987755982988,0,1.6226922,1.212269,1.8614068,0.46799788,-0.3605508,0.60612744,-0.24210157,1.4285203,-1.6577972,-2.9740129,0.19784579,0.21113417,0.79919946,-1.5913365
-0.2,0.0,0.9999999999999999,0.5235987755982988,-0.5235987755982988,0,1.6167394,1.214551,1.8600336,0.5201508,-0.3840585,0.6653025,0.65632135,1.4248302,-1.6544834,-2.9807599,0.19722034,-0.19245805,0.9062302,0.45261484
-0.2,0.0,0.9999999999999999,0.5235987755982988,-0.5235987755982988,0,1.6134377,1.2060077,1.8631816,0.4771581,-0.09496745,0.8176827,-0.1951286,1.4189717,-1.6567094,-2.9430285,0.1846777,0.2055853,0.9811047,0.1282634
-0.2,0.0,0.9999999999999999,0.5235987755982988,-0.5235987755982988,0,1.6298414,1.2118446,1.8614169,0.48485258,0.13845384,0.6570037,0.8082953,1.4255276,-1.6585138,-2.957779,0.18884778,0.26535088,0.9510201,-0.25235924
-0.2,0.0,0.9999999999999999,0.5235987755982988,-0.5235987755982988,0,1.6172547,1.2072841,1.863288,0.52243584,-0.12773213,0.5797598,0.16574708,1.4224398,-1.6577753,-2.9931667,0.18140891,-0.014160148,0.65973186,0.63959795
-0.2,0.0,0.9999999999999999,0.5235987755982988,-0.5235987755982988,0,1.6112176,1.211132,1.8608,0.5133469,-0.00016039892,0.720899,-0.45807016,1.4227413,-1.6586121,-2.968665,0.1951869,0.08140821,0.7792435,0.3217113
-0.2,0.0,0.9999999999999999,0.5235987755982988,-0.5235987755982988,0,1.6001201,1.2154052,1.864142,0.4771442,-0.27269503,0.8849157,0.68309516,1.4203422,-1.6529483,-2.9550004,0.16297437,0.2335513,0.8546063,-1.3556683
-0.2,0.0,0.9999999999999999,0.5235987755982988,-0.5235987755982988,0,1.6172972,1.210128,1.8599641,0.4769229,-0.05558504,0.63859963,-0.4451677,1.4246505,-1.6579369,-2.9924438,0.18581362,-0.0041289264,1.1476018,0.5708288
-0.2,0.0,0.9999999999999999,0.5235987755982988,-0.5235987755982988,0,1.6192231,1.212865,1.863169,0.49190432,-0.06612147,0.49733883,0.5925556,1.4198446,-1.6553228,-2.9690425,0.19908035,0.09281834,0.9385945,-1.7170519
-0.2,0.0,0.9999999999999999,0.5235987755982988,-0.5235987755982988,0,1.6143789,1.2122008,1.8620389,0.5150126,-0.489453,0.7252782,1.1461323,1.4171065,-1.6578087,-2.9637427,0.23843299,0.12212172,0.8088243,-0.6876707
-0.2,0.0,0.9999999999999999,0.5235987755982988,-0.5235987755982988,0,1.6239878,1.2133335,1.86069,0.50476694,-0.24996977,0.5263259,-0.46832544,1.4212557,-1.6535221,-2.9675682,0.2064004,0.21055321,1.0891618,-0.54872763
-0.2,0.0,0.9999999999999999,0.5235987755982988,-0.5235987755982988,0,1.619218,1.2076839,1.8561337,0.48075044,-0.16215895,0.49821448,0.29405367,1.4209311,-1.6583319,-2.9696429,0.22108074,0.09827857,1.0128015,0.6267133
-0.2,0.0,0.9999999999999999,0.5235987755982988,-0.5235987755982988,0,1.6209809,1.2096018,1.8614014,0.5136783,-0.043127343,0.6397506,0.12589332,1.4239361,-1.6559565,-2.9671257,0.17989261,-0.16085266,0.79928535,-0.2649937
-0.2,0.0,0.9999999999999999,0.5235987755982988,-0.5235987755982988,0,1.6192325,1.2151018,1.8636948,0.4726993,-0.08774697,0.661099,0.587083,1.4228694,-1.6569273,-2.95408,0.20392746,0.19879805,0.84917796,-1.4526194
-0.2,0.0,0.9999999999999999,0.5235987755982988,-0.5235987755982988,0,1.6134384,1.2104574,1.8608093,0.51171935,-0.3435118,0.56545514,0.45008904,1.4260777,-1.6556911,-2.990873,0.2029016,-0.09466888,0.67107,-0.6254734
-0.2,0.0,0.9999999999999999,0.5235987755982988,-0.5235987755982988,0,1.6096041,1.2132967,1.8636433,0.50931865,-0.23453385,0.810343,1.1655467,1.4194816,-1.6547092,-2.9682744,0.22615677,0.12092921,0.89913213,-1.0250834
-0.2,0.0,0.9999999999999999,0.5235987755982988,-0.5235987755982988,0,1.5978725,1.2124474,1.860953,0.49766526,-0.12265892,0.8567624,0.2493279,1.425263,-1.6513464,-2.9607747,0.20853359,-0.01287273,0.9090634,0.45566756
-0.2,0.0,0.9999999999999999,0.5235987755982988,-0.5235987755982988,0,1.6014776,1.2123095,1.8601972,0.49811482,-0.00058699946,0.46841764,-0.25464106,1.4216642,-1.6566517,-2.963528,0.19639586,0.11076488,0.96191996,-0.21700695
-0.2,0.0,0.9999999999999999,0.5235987755982988,-0.5235987755982988,0,1.6161314,1.2143384,1.8594251,0.48371834,-0.16294451,0.6257312,0.76847845,1.4216162,-1.652947,-2.9787405,0.20747173,0.037202846,1.0343231,-0.7617555
-0.2,0.0,0.9999999999999999,0.5235987755982988,-0.5235987755982988,0,1.6230445,1.2085224,1.8629423,0.5108402,-0.09742149,0.59175456,0.2541668,1.4238819,-1.6522992,-2.960648,0.18144023,-0.047775906,1.1355473,0.29890415
-0.2,0.0,0.9999999999999999,0.5235987755982988,-0.5235987755982988,0,1.6046776,1.2108165,1.8620435,0.47892272,-0.35743922,0.6755097,0.49192184,1.4158814,-1.6527487,-2.9842675,0.21812555,0.05186702,0.7463379,0.7878832
-0.2,0.0,0.9999999999999999,0.5235987755982988,-0.5235987755982988,0,1.6164827,1.2158895,1.8613799,0.52576417,0.08648029,0.6997722,0.041790955,1.4233655,-1.6520526,-2.9973018,0.23921068,0.21102902,1.1134201,1.2407527
-0.2,0.0,0.9999999999999999,0.5235987755982988,-0.5235987755982988,0,1.6267267,1.2124928,1.8650109,0.48039693,-0.32823324,0.8188841,-0.034503978,1.4198173,-1.6551062,-2.9719133,0.19543311,0.056198917,0.82286674,0.06276296
-0.2,0.0,0.9999999999999999,0.5235987755982988,-0.5235987755982988,0,1.6213921,1.2148983,1.8613365,0.48898897,-0.2505852,0.48390493,0.7205315,1.4200873,-1.6552404,-2.9769063,0.21343932,0.02268716,1.0870669,-0.04611936
-0.2,0.0,0.9999999999999999,0.5235987755982988,-0.5235987755982988,0,1.6112095,1.2126808,1.8643935,0.4997153,-0.020301556,0.73456216,0.93080974,1.4238794,-1.65443,-2.986199,0.20577945,0.0069853086,0.81211406,-0.47487
-0.2,0.0,0.9999999999999999,0.5235987755982988,-0.5235987755982988,0,1.6202124,1.2170107,1.8688546,0.4780659,-0.10235322,0.30353168,0.87760866,1.4157066,-1.6566248,-2.9558613,0.2097755,-0.042938974,0.9891536,-1.6319238
-0.2,0.0,0.9999999999999999,0.5235987755982988,-0.5235987755982988,0,1.6114911,1.2116379,1.8586011,0.47417665,0.16633561,0.5202838,0.6927277,1.4249746,-1.6555272,-2.9985976,0.12649451,0.17156424,0.8595016,-0.04259429
-0.2,0.0,0.9999999999999999,0.5235987755982988,-0.5235987755982988,0,1.6188849,1.2091635,1.8637251,0.50422823,0.002793723,0.6882179,0.46634498,1.4166952,-1.6538621,-2.9756773,0.19219728,0.14224167,0.9019419,0.23490895
-0.2,0.0,0.9999999999999999,0.5235987755982988,-0.5235987755982988,0,1.603875,1.2084347,1.8596575,0.5036508,-0.22446667,0.5980142,0.18790248,1.4271405,-1.6563442,-2.9732494,0.20855972,-0.07316109,1.002818,0.5095874
-0.2,0.0,0.9999999999999999,0.5235987755982988,-0.5235987755982988,0,1.6281929,1.2080437,1.8641155,0.5016858,0.11017049,0.96777916,-0.23904307,1.426491,-1.6539721,-2.9688113,0.17980665,0.00968996,0.7886011,1.8029928
-0.2,0.0,0.9999999999999999,0.5235987755982988,-0.5235987755982988,0,1.612801,1.2084163,1.8632199,0.4892103,-0.06793282,0.7217321,0.5220514,1.432233,-1.6569071,-2.9843202,0.22090134,0.027943645,0.94949293,1.346075
-0.2,0.0,0.9999999999999999,0.5235987755982988,-0.5235987755982988,0,1.6289418,1.2163649,1.8595595,0.5298712,0.3375264,0.5730513,0.39555162,1.4267311,-1.6554679,-2.9435418,0.20660272,0.0855321,1.1539594,-0.034380406
-0.2,0.0,0.9999999999999999,0.5235987755982988,-0.5235987755982988,0,1.6169065,1.21337,1.8599006,0.5120486,0.051126465,0.3628376,-0.043112863,1.4254588,-1.6569265,-2.9962678,0.21289666,0.15039968,1.2361346,1.636301
-0.2,0.0,0.9999999999999999,0.5235987755982988,-0.5235987755982988,0,1.6247776,1.2132472,1.8597881,0.5021924,-0.25679645,0.7499874,-0.55090994,1.4255859,-1.6563903,-3.001067,0.20765023,-0.088412106,0.7716862,-0.27494684
-0.2,0.0,0.9999999999999999,0.5235987755982988,-0.5235987755982988,0,1.6320825,1.2090898,1.8609843,0.50055194,-0.34005967,0.616886,0.9257739,1.4209367,-1.6571773,-2.971865,0.1732857,0.22439018,0.9273557,1.2623339
-0.2,0.0,0.9999999999999999,0.5235987755982988,-0.5235987755982988,0,1.6280575,1.2121716,1.8630886,0.48504528,-0.0009735595,1.0914619,0.4234133,1.4205248,-1.6569545,-2.9472086,0.19110261,-0.06795452,0.8571332,0.18899901
-0.2,0.0,0.9999999999999999,0.5235987755982988,-0.5235987755982988,0,1.6014901,1.2137725,1.8597137,0.5328979,-0.34473503,0.8466473,-0.026659241,1.4316467,-1.6528429,-2.9438138,0.20411476,0.20304002,1.3757308,0.65082747
