sanky1234/BimanualDexCatch/isaacgymenvs/cem_results/football_pose_0.0_0.1_1.2999999999999998_-0.5235987755982988_0.0_0_2025-05-26.csv
x,y,z,roll,pitch,yaw,robot1/joint1,robot1/joint2,robot1/joint3,robot1/joint4,robot1/joint5,robot1/joint6,robot1/joint7,robot2/joint1,robot2/joint2,robot2/joint3,robot2/joint4,robot2/joint5,robot2/joint6,robot2/joint7
0.0,0.1,1.2999999999999998,-0.5235987755982988,0.0,0,-0.12315511,-0.5714349,-0.43659896,0.121343404,-0.12988834,1.205333,0.13186923,-0.9137629,-1.7330892,-0.29973835,-0.010534043,-0.16714735,1.1486661,0.960634
0.0,0.1,1.2999999999999998,-0.5235987755982988,0.0,0,-0.12320454,-0.5715837,-0.43723464,0.1289328,-0.18161492,1.2485826,-0.04310871,-0.9043039,-1.7438574,-0.21619079,-0.028637277,-0.0859651,1.1858864,0.29052532
0.0,0.1,1.2999999999999998,-0.5235987755982988,0.0,0,-0.12314873,-0.571614,-0.43746156,0.12420158,-0.15197523,1.2663697,-0.03342957,-0.9064907,-1.7260791,-0.21296531,-0.061005037,-0.042578727,1.1573296,0.82144517
0.0,0.1,1.2999999999999998,-0.5235987755982988,0.0,0,-0.12280473,-0.57139516,-0.4369676,0.13014609,-0.15902324,1.1745224,-0.3456561,-0.90342486,-1.7353927,-0.21146664,-0.04123709,-0.067034274,1.1973219,1.7753516
0.0,0.1,1.2999999999999998,-0.5235987755982988,0.0,0,-0.12277293,-0.5716489,-0.43680915,0.117955014,-0.15619679,1.240776,-0.40891105,-0.90573174,-1.7695229,-0.21064804,-0.07733098,-0.026618134,1.1537617,0.62487406
0.0,0.1,1.2999999999999998,-0.5235987755982988,0.0,0,-0.12334806,-0.57139885,-0.43686113,0.12302525,-0.13164474,1.2151903,-0.023293002,-0.9049674,-1.782037,-0.15285377,-0.06962849,-0.088193424,1.1928643,-1.2384332
0.0,0.1,1.2999999999999998,-0.5235987755982988,0.0,0,-0.122635104,-0.57143724,-0.43658412,0.13193919,-0.17417298,1.2612307,0.75783575,-0.90224624,-1.7372354,-0.23982842,-0.03813958,0.09524384,1.1951877,1.1496338
0.0,0.1,1.2999999999999998,-0.5235987755982988,0.0,0,-0.12321336,-0.5714925,-0.4361045,0.11621199,-0.09379561,1.2678201,0.29915625,-0.90510386,-1.7717355,-0.1976274,-0.072616234,-0.06796761,1.1648253,-0.29494432
0.0,0.1,1.2999999999999998,-0.5235987755982988,0.0,0,-0.12336126,-0.5714734,-0.4374831,0.1266088,-0.1997457,1.2550124,-0.021185448,-0.91098803,-1.7040097,-0.28380913,-0.06934144,-0.17275743,1.170469,-0.8802235
0.0,0.1,1.2999999999999998,-0.5235987755982988,0.0,0,-0.12285578,-0.5715816,-0.43746963,0.112874314,-0.121768,1.2741241,0.020181669,-0.90512055,-1.7570622,-0.20626003,-0.031544153,0.03335377,1.1666535,-0.038806293
0.0,0.1,1.2999999999999998,-0.5235987755982988,0.0,0,-0.122579806,-0.5716536,-0.4367089,0.12847763,-0.1611142,1.19572,-0.0061038597,-0.9139798,-1.7604376,-0.22097011,-0.073432304,-0.06225104,1.1988385,0.68317026
0.0,0.1,1.2999999999999998,-0.5235987755982988,0.0,0,-0.12357334,-0.5713728,-0.4374841,0.12652196,-0.11594225,1.2274246,0.3102364,-0.90541846,-1.7648815,-0.24776964,-0.046964813,-0.01664179,1.1969243,0.3027487
0.0,0.1,1.2999999999999998,-0.5235987755982988,0.0,0,-0.12310875,-0.5717496,-0.43788195,0.113627374,-0.12504809,1.1931446,0.02523785,-0.9030569,-1.7539165,-0.15273882,-0.061502643,0.041181438,1.1683642,0.45988545
0.0,0.1,1.2999999999999998,-0.5235987755982988,0.0,0,-0.12328126,-0.5714852,-0.43732032,0.13389707,-0.14342389,1.1860738,0.13114697,-0.9068548,-1.7300282,-0.25023454,-0.0474529,-0.049960304,1.2148783,-0.9334019
0.0,0.1,1.2999999999999998,-0.5235987755982988,0.0,0,-0.12286004,-0.5715647,-0.4373729,0.118607976,-0.21598114,1.2140754,-0.65197974,-0.8991393,-1.7620828,-0.17341253,-0.058962263,-0.1018207,1.162868,-0.65820587
0.0,0.1,1.2999999999999998,-0.5235987755982988,0.0,0,-0.12320622,-0.57128376,-0.4377638,0.1290911,-0.17454311,1.222066,0.24845627,-0.91061485,-1.7742996,-0.2458908,-0.06278383,-0.07017669,1.1373423,0.3053356
0.0,0.1,1.2999999999999998,-0.5235987755982988,0.0,0,-0.12296495,-0.57173866,-0.43716338,0.10759819,-0.13391505,1.1836005,-0.5862945,-0.904888,-1.8078846,-0.20078583,-0.01965681,-0.07631103,1.1605556,0.81174487
0.0,0.1,1.2999999999999998,-0.5235987755982988,0.0,0,-0.12351796,-0.57159513,-0.43733573,0.13031435,-0.107994944,1.1905028,0.2026317,-0.89803845,-1.7909089,-0.17551987,-0.09617542,-0.013239094,1.1956927,0.5491737
0.0,0.1,1.2999999999999998,-0.5235987755982988,0.0,0,-0.123205334,-0.57156324,-0.43760675,0.10932101,-0.13541807,1.2143738,0.1422701,-0.90693676,-1.7135878,-0.31290165,-0.060423322,0.0319806,1.1703689,-0.13182198
0.0,0.1,1.2999999999999998,-0.5235987755982988,0.0,0,-0.12357477,-0.5715756,-0.43609822,0.10769637,-0.16339165,1.1941549,-0.51572984,-0.9094902,-1.7418842,-0.2858538,-0.026416307,-0.27595118,1.1476659,-0.52738094
0.0,0.1,1.2999999999999998,-0.5235987755982988,0.0,0,-0.12281797,-0.57158893,-0.43740043,0.12202654,-0.16071221,1.2100136,-0.7047602,-0.9028766,-1.796692,-0.21285188,-0.021039726,-0.10590507,1.1443316,-0.19898243
0.0,0.1,1.2999999999999998,-0.5235987755982988,0.0,0,-0.1231765,-0.5717159,-0.43817586,0.13002223,-0.15986727,1.2292713,0.49356824,-0.89406276,-1.747464,-0.13970967,-0.07846721,-0.0057443944,1.1713675,0.39592636
0.0,0.1,1.2999999999999998,-0.5235987755982988,0.0,0,-0.12288618,-0.5715316,-0.43693355,0.12880306,-0.18172646,1.2292236,-0.49085417,-0.9046676,-1.7050623,-0.27661338,-0.06302685,-0.07029657,1.1722175,1.4519925
0.0,0.1,1.2999999999999998,-0.5235987755982988,0.0,0,-0.12342731,-0.57146734,-0.43769503,0.12452155,-0.15633342,1.2616271,0.15619463,-0.90355754,-1.7218255,-0.25099182,-0.06137375,-0.17839114,1.1409081,0.21066022
0.0,0.1,1.2999999999999998,-0.5235987755982988,0.0,0,-0.12328764,-0.5715818,-0.43559492,0.13247031,-0.17164426,1.305993,0.15086411,-0.9096638,-1.7665621,-0.27331996,-0.06363591,-0.122226626,1.172979,0.39736277
0.0,0.1,1.2999999999999998,-0.5235987755982988,0.0,0,-0.123329446,-0.5713501,-0.43700403,0.13656332,-0.12929934,1.2294818,0.22375967,-0.8952429,-1.7736216,-0.18015544,-0.069190904,-0.017434344,1.2141204,0.7032741
0.0,0.1,1.2999999999999998,-0.5235987755982988,0.0,0,-0.1231126,-0.57123256,-0.4354526,0.12577279,-0.1310035,1.2414287,0.069392316,-0.8997295,-1.747132,-0.12681602,-0.04834236,0.030021442,1.1798687,0.17385685
0.0,0.1,1.2999999999999998,-0.5235987755982988,0.0,0,-0.12272383,-0.57155263,-0.43704903,0.12717663,-0.17194006,1.2718269,0.17639758,-0.89941096,-1.728562,-0.18286105,-0.0676587,-0.116855,1.1496487,1.1489533
0.0,0.1,1.2999999999999998,-0.5235987755982988,0.0,0,-0.12351471,-0.5712758,-0.4369981,0.124046765,-0.16566867,1.249449,0.31303218,-0.9021383,-1.7549928,-0.18843374,-0.062113155,-0.213848,1.1860282,0.53368163
0.0,0.1,1.2999999999999998,-0.5235987755982988,0.0,0,-0.12326409,-0.5714232,-0.4365373,0.13342753,-0.15665567,1.224829,-0.2537342,-0.90113807,-1.781671,-0.2111125,-0.049315464,-0.15262036,1.1641601,-0.39737827
0.0,0.1,1.2999999999999998,-0.5235987755982988,0.0,0,-0.12324493,-0.571443,-0.4358637,0.13507415,-0.14775944,1.3198482,0.41222253,-0.90367293,-1.7267667,-0.20293382,-0.06596606,0.056200985,1.1582208,0.2519772
0.0,0.1,1.2999999999999998,-0.5235987755982988,0.0,0,-0.12333579,-0.57152873,-0.4369182,0.12253412,-0.12390058,1.2079035,0.22129221,-0.912273,-1.8148668,-0.20875527,-0.06469486,-0.038342535,1.1834044,0.8141227
0.0,0.1,1.2999999999999998,-0.5235987755982988,0.0,0,-0.122875735,-0.57165647,-0.43751395,0.118696496,-0.12606697,1.2345617,0.56210345,-0.9041093,-1.7421212,-0.19298236,-0.035539694,-0.05498262,1.1575688,0.6736229
0.0,0.1,1.2999999999999998,-0.5235987755982988,0.0,0,-0.12333806,-0.5715913,-0.43696854,0.13184898,-0.13408916,1.2440083,0.33309802,-0.8962868,-1.728913,-0.22879446,-0.047923055,-0.15612705,1.1669759,0.39159375
0.0,0.1,1.2999999999999998,-0.5235987755982988,0.0,0,-0.12318867,-0.5715179,-0.43653703,0.11243183,-0.17568344,1.1856593,0.33022636,-0.89361167,-1.7495141,-0.14107266,-0.086781956,-0.24132925,1.2119669,0.51646775
0.0,0.1,1.2999999999999998,-0.5235987755982988,0.0,0,-0.12319813,-0.57139,-0.43743512,0.12023245,-0.18549144,1.2466804,-0.4366636,-0.90252167,-1.7753017,-0.24131624,-0.042676948,0.06924195,1.2129647,0.82622814
0.0,0.1,1.2999999999999998,-0.5235987755982988,0.0,0,-0.12309739,-0.5715444,-0.43678057,0.11812872,-0.15784611,1.227692,-0.12897173,-0.8992381,-1.7729793,-0.16691029,-0.09495527,-0.03431926,1.1465025,0.6351723
0.0,0.1,1.2999999999999998,-0.5235987755982988,0.0,0,-0.12343525,-0.57145154,-0.43738842,0.13398136,-0.11968988,1.2922739,0.59670824,-0.9092264,-1.7698803,-0.24758515,-0.061003618,-0.05825272,1.1802214,-0.20359145
0.0,0.1,1.2999999999999998,-0.5235987755982988,0.0,0,-0.12305979,-0.5714744,-0.43778712,0.12055865,-0.15064277,1.2499919,0.10403083,-0.89190614,-1.7391791,-0.101428725,-0.046089992,-0.20951112,1.1966479,-0.31438398
0.0,0.1,1.2999999999999998,-0.5235987755982988,0.0,0,-0.12295708,-0.57159364,-0.43688634,0.12104186,-0.121157706,1.1679423,0.4594398,-0.89764994,-1.7617762,-0.2006163,-0.060277224,-0.19927122,1.1662397,-0.2734478
0.0,0.1,1.2999999999999998,-0.5235987755982988,0.0,0,-0.122907735,-0.5715032,-0.4376539,0.11776724,-0.1386379,1.2425885,-0.44353303,-0.9033372,-1.7228034,-0.2791999,-0.105762854,-0.014116788,1.1809956,0.2947922
0.0,0.1,1.2999999999999998,-0.5235987755982988,0.0,0,-0.12305345,-0.5713312,-0.4375975,0.11666884,-0.12610404,1.2304527,0.16220996,-0.8988733,-1.7794505,-0.20411256,-0.07056757,-0.060811274,1.1715571,-0.3194762
0.0,0.1,1.2999999999999998,-0.5235987755982988,0.0,0,-0.12313521,-0.57155675,-0.43685135,0.11940711,-0.18153538,1.2016242,-0.018712893,-0.90261084,-1.7407609,-0.22120467,-0.059436332,0.061713256,1.2176073,0.5840468
0.0,0.1,1.2999999999999998,-0.5235987755982988,0.0,0,-0.122905314,-0.57122153,-0.4372565,0.1308795,-0.16644068,1.2288254,-0.19641107,-0.90933746,-1.8011588,-0.22800861,-0.040361412,0.02645188,1.1594284,0.39542824
0.0,0.1,1.2999999999999998,-0.5235987755982988,0.0,0,-0.1232492,-0.5715034,-0.43671414,0.11545083,-0.16657262,1.1936316,-0.58434594,-0.90058756,-1.7193091,-0.22219603,-0.08758981,0.0015106209,1.1559036,0.304199
0.0,0.1,1.2999999999999998,-0.5235987755982988,0.0,0,-0.12347387,-0.57152987,-0.43721887,0.12701921,-0.12462871,1.2342261,-0.4760312,-0.9088459,-1.82398,-0.25606757,-0.057782754,-0.30789578,1.1545107,1.3138245
0.0,0.1,1.2999999999999998,-0.5235987755982988,0.0,0,-0.123220704,-0.57146066,-0.43709952,0.12944087,-0.1722224,1.1982875,-0.21145475,-0.893448,-1.7368422,-0.14576344,-0.06686072,0.14608338,1.1735141,0.36332357
0.0,0.1,1.2999999999999998,-0.5235987755982988,0.0,0,-0.123222604,-0.571357,-0.43686423,0.12468911,-0.11774334,1.2158372,0.8047814,-0.8954775,-1.7904352,-0.13377033,-0.04200195,-0.17708977,1.1639549,-0.4425638
0.0,0.1,1.2999999999999998,-0.5235987755982988,0.0,0,-0.12290031,-0.5716451,-0.43826908,0.12131755,-0.16543145,1.1852756,0.20654723,-0.89533865,-1.7856513,-0.1676708,-0.030455464,0.07402048,1.206768,0.4225712
0.0,0.1,1.2999999999999998,-0.5235987755982988,0.0,0,-0.12313961,-0.5714104,-0.43744838,0.105600074,-0.1573415,1.1962473,0.21943398,-0.89880216,-1.7684757,-0.20964621,-0.07170604,-0.24625865,1.1678735,0.5047125
0.0,0.1,1.2999999999999998,-0.5235987755982988,0.0,0,-0.12295659,-0.57147896,-0.43735653,0.12670727,-0.18933819,1.237312,-0.15070695,-0.9034137,-1.7603006,-0.24629685,-0.06213729,-0.037026282,1.224573,0.0039214618
0.0,0.1,1.2999999999999998,-0.5235987755982988,0.0,0,-0.123101234,-0.57149225,-0.4376287,0.124426775,-0.1550074,1.2863338,-0.1572031,-0.89944255,-1.7870488,-0.18898861,-0.055921074,-0.08948408,1.155896,-0.6600076
0.0,0.1,1.2999999999999998,-0.5235987755982988,0.0,0,-0.1234892,-0.571436,-0.4370664,0.1340301,-0.17905726,1.1553441,-0.13625681,-0.90166956,-1.7298933,-0.23002706,-0.07237502,-0.25332037,1.1922796,0.66253895
0.0,0.1,1.2999999999999998,-0.5235987755982988,0.0,0,-0.12304044,-0.571591,-0.43779716,0.12370501,-0.15616249,1.2431715,0.1189771,-0.8943344,-1.7369752,-0.1909206,-0.10562594,0.05004976,1.1619706,1.0368301
0.0,0.1,1.2999999999999998,-0.5235987755982988,0.0,0,-0.12308698,-0.57153124,-0.43642697,0.10699639,-0.16826032,1.2192878,0.3474757,-0.90609473,-1.7657373,-0.254673,-0.06557019,-0.0008908222,1.2089208,1.2668893
0.0,0.1,1.2999999999999998,-0.5235987755982988,0.0,0,-0.12292044,-0.5714462,-0.43782625,0.1101984,-0.15649371,1.2254795,0.6769864,-0.9106169,-1.7739321,-0.29247916,-0.058909927,0.013053948,1.1073722,0.25149167
0.0,0.1,1.2999999999999998,-0.5235987755982988,0.0,0,-0.12291419,-0.5716912,-0.43747568,0.11984363,-0.14170769,1.2069542,-0.15379918,-0.89419216,-1.7534087,-0.18264885,-0.09107005,0.11660528,1.1777109,0.6890591
0.0,0.1,1.2999999999999998,-0.5235987755982988,0.0,0,-0.1231758,-0.57179713,-0.4364783,0.13175379,-0.1660756,1.2350706,-0.8499821,-0.8914007,-1.7580864,-0.1863898,-0.04913756,-0.04548265,1.1440483,0.67874503
0.0,0.1,1.2999999999999998,-0.5235987755982988,0.0,0,-0.12294702,-0.5716373,-0.4373321,0.13098694,-0.16732283,1.2339119,-0.026716717,-0.9020222,-1.7864383,-0.22016595,-0.08677621,0.07898782,1.216514,1.0140218
0.0,0.1,1.2999999999999998,-0.5235987755982988,0.0,0,-0.123128,-0.57176745,-0.4368505,0.1260343,-0.20321858,1.242128,-0.16010985,-0.90462154,-1.7962664,-0.22871697,-0.07235266,0.04428653,1.1922027,0.059113346
0.0,0.1,1.2999999999999998,-0.5235987755982988,0.0,0,-0.123180665,-0.5715414,-0.43734428,0.11638515,-0.17372355,1.1866529,0.533176,-0.9042081,-1.7289989,-0.3159575,-0.04629307,-0.23854735,1.181516,0.3587399
0.0,0.1,1.2999999999999998,-0.5235987755982988,0.0,0,-0.1230415,-0.5716036,-0.4373587,0.11455434,-0.18447292,1.1985819,0.026487723,-0.91276187,-1.7381262,-0.35731885,-0.055669803,-0.13553946,1.203405,0.36196774
0.0,0.1,1.2999999999999998,-0.5235987755982988,0.0,0,-0.12336214,-0.57138354,-0.4375111,0.12754774,-0.11302403,1.2722927,0.07995651,-0.9095042,-1.7996653,-0.28389427,-0.061444014,-0.05830482,1.199641,-0.14301269
0.0,0.1,1.2999999999999998,-0.5235987755982988,0.0,0,-0.12297086,-0.5714153,-0.43674728,0.12600735,-0.20750155,1.2233053,0.09176571,-0.91755474,-1.7579474,-0.3385391,-0.04917705,0.04782226,1.1784505,-0.36971202
0.0,0.1,1.2999999999999998,-0.5235987755982988,0.0,0,-0.123066604,-0.57149065,-0.4370361,0.11071039,-0.15752672,1.2396076,0.3253481,-0.9001699,-1.8090243,-0.18706678,-0.05000902,-0.24799451,1.1769595,0.4152576
0.0,0.1,1.2999999999999998,-0.5235987755982988,0.0,0,-0.12310421,-0.571533,-0.43756378,0.12521432,-0.14771532,1.2476636,0.06753223,-0.89461714,-1.7835767,-0.14779553,-0.048889585,0.14945312,1.1596308,-0.37305048
0.0,0.1,1.2999999999999998,-0.5235987755982988,0.0,0,-0.122808345,-0.57167435,-0.437111,0.10708161,-0.16576694,1.2119302,0.58771664,-0.9032612,-1.7581992,-0.26768702,-0.056550853,0.031080207,1.1959372,0.60569555
0.0,0.1,1.2999999999999998,-0.5235987755982988,0.0,0,-0.122928806,-0.5715046,-0.43689862,0.116270855,-0.14616537,1.2243197,0.030659474,-0.90646696,-1.7424308,-0.30626586,-0.10104639,-0.05685508,1.1569669,0.40330535
0.0,0.1,1.2999999999999998,-0.5235987755982988,0.0,0,-0.12316842,-0.5717071,-0.43831497,0.1278432,-0.15680042,1.2406101,-0.30261874,-0.91482943,-1.7795954,-0.36095497,-0.0894069,-0.25756887,1.1796691,0.044226713
0.0,0.1,1.2999999999999998,-0.5235987755982988,0.0,0,-0.12289527,-0.5717985,-0.43750268,0.11636806,-0.12953782,1.2408565,-0.4673168,-0.8982716,-1.757304,-0.2564381,-0.0590502,-0.2150084,1.1944414,0.13237956
0.0,0.1,1.2999999999999998,-0.5235987755982988,0.0,0,-0.12351646,-0.5714822,-0.43737477,0.12626496,-0.15986763,1.1941756,-0.030442547,-0.90455645,-1.787711,-0.23470546,-0.04594105,-0.09785443,1.1827706,0.9291066
0.0,0.1,1.2999999999999998,-0.5235987755982988,0.0,0,-0.12353949,-0.5715534,-0.43731758,0.13378221,-0.103295006,1.2025481,0.29187638,-0.9068127,-1.8025088,-0.27873734,-0.064958796,-0.18070139,1.1867231,-0.5956269
0.0,0.1,1.2999999999999998,-0.5235987755982988,0.0,0,-0.122902215,-0.5715049,-0.43786246,0.10187301,-0.15011187,1.1923631,-0.32727283,-0.8955037,-1.825699,-0.17660795,-0.09739001,-0.138583,1.186922,-0.39996102
0.0,0.1,1.2999999999999998,-0.5235987755982988,0.0,0,-0.123174354,-0.5715552,-0.43623385,0.11024536,-0.13604607,1.2325982,0.37781277,-0.8907533,-1.7579195,-0.17195721,-0.08263948,-0.12586309,1.1417568,0.03869365
0.0,0.1,1.2999999999999998,-0.5235987755982988,0.0,0,-0.12341869,-0.57120305,-0.43733126,0.13308577,-0.1438986,1.1327986,-0.41997424,-0.90954274,-1.8280196,-0.20231138,-0.09877161,-0.015294627,1.1424391,0.99399275
0.0,0.1,1.2999999999999998,-0.5235987755982988,0.0,0,-0.12287194,-0.5714381,-0.43790406,0.1140301,-0.109910384,1.2206278,-0.046188436,-0.88784665,-1.7378368,-0.17550762,-0.051125854,-0.03838532,1.1725214,0.209411
0.0,0.1,1.2999999999999998,-0.5235987755982988,0.0,0,-0.12354151,-0.5711929,-0.43686154,0.1376978,-0.094526865,1.2129956,-0.47461858,-0.89285845,-1.776091,-0.22270885,-0.031350665,-0.066854045,1.2161008,-0.026466122
0.0,0.1,1.2999999999999998,-0.5235987755982988,0.0,0,-0.12283996,-0.57153946,-0.4365066,0.11945159,-0.13065371,1.2999531,-0.076547295,-0.91505456,-1.7153987,-0.41968757,-0.065263465,-0.11498196,1.1741674,1.6697227
0.0,0.1,1.2999999999999998,-0.5235987755982988,0.0,0,-0.1228625,-0.57148,-0.43717596,0.11581861,-0.1358917,1.2527758,-0.1763733,-0.8986589,-1.7620016,-0.21145894,-0.015875518,0.06840947,1.1743081,0.69096637
0.0,0.1,1.2999999999999998,-0.5235987755982988,0.0,0,-0.12321766,-0.57163346,-0.43638644,0.119940236,-0.16861922,1.213441,0.41365632,-0.8897338,-1.7964731,-0.20259318,-0.07622568,0.028369572,1.1874756,0.98375565
0.0,0.1,1.2999999999999998,-0.5235987755982988,0.0,0,-0.123000726,-0.5715926,-0.43678382,0.13447797,-0.13943595,1.1572732,-0.21091494,-0.89867675,-1.7504239,-0.24957484,-0.055676144,-0.087465696,1.1397535,-0.4275231
0.0,0.1,1.2999999999999998,-0.5235987755982988,0.0,0,-0.1238482,-0.5714375,-0.43737987,0.13930677,-0.1761527,1.1990392,-0.4401663,-0.89670306,-1.7639813,-0.22665673,-0.035065535,0.16796899,1.1587268,-0.025355963
0.0,0.1,1.2999999999999998,-0.5235987755982988,0.0,0,-0.12334147,-0.5715224,-0.437525,0.12315697,-0.17465587,1.2252779,0.021244774,-0.8933007,-1.7492962,-0.23314917,-0.0775347,0.1032575,1.1782079,1.5700788
0.0,0.1,1.2999999999999998,-0.5235987755982988,0.0,0,-0.12293612,-0.5714354,-0.43808904,0.11709682,-0.16297126,1.258141,0.42503524,-0.89744467,-1.7509162,-0.25619084,-0.04098283,-0.20383376,1.1521696,0.030295499
0.0,0.1,1.2999999999999998,-0.5235987755982988,0.0,0,-0.123283595,-0.57140416,-0.43695608,0.12681372,-0.12251015,1.2252947,-0.64874893,-0.9084282,-1.7559872,-0.32711726,-0.053024814,-0.044491496,1.1619396,1.0662887
0.0,0.1,1.2999999999999998,-0.5235987755982988,0.0,0,-0.12300685,-0.57136464,-0.4379104,0.11773331,-0.14878196,1.2400409,0.4677413,-0.89471656,-1.7580621,-0.21917039,-0.047411244,-0.019191401,1.1974064,0.93028575
0.0,0.1,1.2999999999999998,-0.5235987755982988,0.0,0,-0.12291617,-0.5716041,-0.43686733,0.12808941,-0.15249154,1.2233369,-0.092038296,-0.9001318,-1.8338456,-0.23994894,-0.05344317,-0.17513637,1.2045614,0.83732015
0.0,0.1,1.2999999999999998,-0.5235987755982988,0.0,0,-0.12308901,-0.5714572,-0.43744478,0.11194292,-0.16633694,1.2291559,0.4573121,-0.898483,-1.7560565,-0.19695726,-0.028502913,-0.11591827,1.1528571,0.7130554
0.0,0.1,1.2999999999999998,-0.5235987755982988,0.0,0,-0.12258175,-0.5715094,-0.43810478,0.118422516,-0.13515314,1.2357723,-0.07288467,-0.90309227,-1.8143046,-0.278062,-0.045579005,-0.21633549,1.135193,-0.5299046
0.0,0.1,1.2999999999999998,-0.5235987755982988,0.0,0,-0.12275965,-0.5716694,-0.43788877,0.13039345,-0.1273928,1.1997448,-0.25266612,-0.8902807,-1.763702,-0.22681604,-0.077914216,0.070936,1.1681706,-0.794929
0.0,0.1,1.2999999999999998,-0.5235987755982988,0.0,0,-0.12289213,-0.5716138,-0.43668,0.12065979,-0.19416438,1.2543554,-0.28994432,-0.89778954,-1.7511328,-0.24381255,-0.07464315,0.04512578,1.1771532,0.7992888
0.0,0.1,1.2999999999999998,-0.5235987755982988,0.0,0,-0.1236101,-0.57151157,-0.43641973,0.12597188,-0.12466545,1.2724116,0.11443027,-0.8895655,-1.7828934,-0.21660148,-0.0192101,0.033770032,1.1927078,0.12849377
0.0,0.1,1.2999999999999998,-0.5235987755982988,0.0,0,-0.12300325,-0.5713151,-0.43665162,0.13627559,-0.17501016,1.2032487,-0.35409474,-0.90897095,-1.7593961,-0.28452328,-0.07204342,0.092736155,1.177544,0.23729065
0.0,0.1,1.2999999999999998,-0.5235987755982988,0.0,0,-0.122995034,-0.5715912,-0.4367502,0.13451469,-0.12703413,1.2560531,0.46851975,-0.8885131,-1.8065672,-0.20880923,-0.024976104,-0.0005143603,1.1890674,-0.96970946
0.0,0.1,1.2999999999999998,-0.5235987755982988,0.0,0,-0.12310457,-0.5714783,-0.43769053,0.11843678,-0.158903,1.2184796,-0.035180226,-0.8916905,-1.8000032,-0.23692535,-0.011878555,-0.05186483,1.1549389,1.0835819
0.0,0.1,1.2999999999999998,-0.5235987755982988,0.0,0,-0.12328165,-0.57168627,-0.43713173,0.12387726,-0.14577956,1.250873,-0.3325968,-0.91126573,-1.7565541,-0.2970796,-0.0623414,-0.051226817,1.1740527,0.40265164
0.0,0.1,1.2999999999999998,-0.5235987755982988,0.0,0,-0.12327606,-0.5713888,-0.43705672,0.12512003,-0.15806995,1.24551,-0.4675021,-0.8839388,-1.7789357,-0.10329325,-0.040340234,-0.10201247,1.1841453,-0.9337132
0.0,0.1,1.2999999999999998,-0.5235987755982988,0.0,0,-0.1228369,-0.57145447,-0.437527,0.13170592,-0.16629244,1.2392076,0.19181392,-0.8955239,-1.7173854,-0.21404406,-0.072082706,-0.12793308,1.185633,0.77482224
0.0,0.1,1.2999999999999998,-0.5235987755982988,0.0,0,-0.12308972,-0.5715672,-0.43753693,0.121298134,-0.15984517,1.2355562,-0.091826506,-0.891081,-1.756802,-0.2549717,-0.095385015,-0.010149061,1.188704,-0.08897174
0.0,0.1,1.2999999999999998,-0.5235987755982988,0.0,0,-0.12293043,-0.57158744,-0.4372495,0.12775254,-0.12745643,1.1935997,-0.18808535,-0.8861973,-1.7505096,-0.23175392,-0.080583155,-0.023797795,1.1455458,0.58073694
0.0,0.1,1.2999999999999998,-0.5235987755982988,0.0,0,-0.12337131,-0.57121074,-0.43682754,0.13262415,-0.19728324,1.2000339,-0.06273668,-0.9141696,-1.7718165,-0.3599784,-0.07983598,0.014930349,1.1756022,1.0038764
0.0,0.1,1.2999999999999998,-0.5235987755982988,0.0,0,-0.12313005,-0.5714154,-0.43749216,0.13552909,-0.13047637,1.2616057,0.55004996,-0.8947731,-1.7832466,-0.20474905,-0.056242995,-0.06261594,1.1763781,0.7529709
0.0,0.1,1.2999999999999998,-0.5235987755982988,0.0,0,-0.12333477,-0.57161635,-0.43732235,0.12646496,-0.13625488,1.2907357,-0.017662924,-0.90531945,-1.783688,-0.31634262,-0.05261539,-0.00803628,1.192858,-0.52905524
0.0,0.1,1.2999999999999998,-0.5235987755982988,0.0,0,-0.12336717,-0.5715878,-0.43695995,0.12387924,-0.17691045,1.2342906,-0.44744268,-0.8911213,-1.7392548,-0.22724766,-0.042776532,-0.05919611,1.149065,0.004105652
0.0,0.1,1.2999999999999998,-0.5235987755982988,0.0,0,-0.12337292,-0.57159823,-0.43732774,0.1407498,-0.18008077,1.2155166,0.26677248,-0.8892107,-1.7550547,-0.23997529,-0.046566516,-0.18628772,1.199132,-0.18497063
0.0,0.1,1.2999999999999998,-0.5235987755982988,0.0,0,-0.1235055,-0.57149315,-0.4371228,0.119376995,-0.15929987,1.2130264,-0.19541495,-0.90209615,-1.8115557,-0.24723956,-0.036425658,0.16666158,1.2048992,0.7197338
0.0,0.1,1.2999999999999998,-0.5235987755982988,0.0,0,-0.1234653,-0.57154053,-0.43646106,0.11292834,-0.11937044,1.2412989,0.42060465,-0.88936436,-1.7282126,-0.1783479,-0.0672433,-0.008790881,1.2014145,0.33918127
0.0,0.1,1.2999999999999998,-0.5235987755982988,0.0,0,-0.123267345,-0.57141083,-0.43703464,0.120945975,-0.13420904,1.2271699,-0.119457416,-0.8861336,-1.7320747,-0.2688912,-0.109601445,-0.3160358,1.1647538,-1.4189923
0.0,0.1,1.2999999999999998,-0.5235987755982988,0.0,0,-0.12317761,-0.57143545,-0.43720528,0.11252073,-0.13225155,1.2170877,-0.24932167,-0.9023297,-1.7974752,-0.31648833,-0.015106759,0.02274082,1.1992962,1.3670647
0.0,0.1,1.2999999999999998,-0.5235987755982988,0.0,0,-0.1234365,-0.5714508,-0.43768877,0.12622905,-0.14131804,1.2472757,0.34938794,-0.8967915,-1.713879,-0.33971092,-0.048277933,-0.004464103,1.1690468,-0.34762642
0.0,0.1,1.2999999999999998,-0.5235987755982988,0.0,0,-0.123248614,-0.57128775,-0.4384334,0.13718121,-0.09457734,1.2334893,0.25297028,-0.90211326,-1.7721692,-0.30915898,-0.08084625,-0.07373685,1.1952735,0.92002267
0.0,0.1,1.2999999999999998,-0.5235987755982988,0.0,0,-0.12300538,-0.5714693,-0.4372893,0.109421134,-0.1419197,1.1932184,-0.08116633,-0.90386117,-1.7480719,-0.3532409,-0.045432568,-0.006948286,1.138843,-0.55856794
0.0,0.1,1.2999999999999998,-0.5235987755982988,0.0,0,-0.12268902,-0.57150346,-0.4376308,0.12259477,-0.12293495,1.1776069,-0.6984181,-0.88678175,-1.7713943,-0.12304079,-0.0397289,-0.044809636,1.1648285,0.69419533
0.0,0.1,1.2999999999999998,-0.5235987755982988,0.0,0,-0.1225737,-0.5716629,-0.436423,0.11886622,-0.13784204,1.2655782,0.4074506,-0.8896766,-1.7536727,-0.21396302,-0.043405354,-0.12489137,1.1932083,0.41679025
0.0,0.1,1.2999999999999998,-0.5235987755982988,0.0,0,-0.12250879,-0.57153034,-0.4377636,0.12577035,-0.14019483,1.2222791,0.08205769,-0.90802205,-1.7819573,-0.3898629,-0.11406543,0.20333548,1.1587102,1.2695988
0.0,0.1,1.2999999999999998,-0.5235987755982988,0.0,0,-0.12296127,-0.5716406,-0.43720448,0.12276482,-0.1872863,1.2330054,-0.6404997,-0.8951287,-1.7870076,-0.2538765,-0.04494621,-0.22657289,1.1662056,0.92506313
0.0,0.1,1.2999999999999998,-0.5235987755982988,0.0,0,-0.123338826,-0.57156587,-0.43684518,0.105342485,-0.11239529,1.1921598,-0.18155456,-0.9067738,-1.7274168,-0.3926508,-0.07945696,-0.076335005,1.1850755,-0.18863103
0.0,0.1,1.2999999999999998,-0.5235987755982988,0.0,0,-0.123209946,-0.57166994,-0.43717593,0.121214725,-0.1224688,1.2627498,0.38316956,-0.88258576,-1.7717456,-0.22132762,-0.04793669,-0.17240754,1.2035607,1.8435646
0.0,0.1,1.2999999999999998,-0.5235987755982988,0.0,0,-0.12319051,-0.5715576,-0.4379223,0.13271566,-0.20765342,1.2092386,-0.31435782,-0.89330685,-1.7288615,-0.31829342,-0.08029045,0.09091076,1.158725,1.4647794
0.0,0.1,1.2999999999999998,-0.5235987755982988,0.0,0,-0.12320724,-0.5714388,-0.43711847,0.105559304,-0.14489287,1.2127877,-0.24699195,-0.8950235,-1.7947503,-0.3207642,-0.065923765,-0.16538484,1.2072433,0.49766693
0.0,0.1,1.2999999999999998,-0.5235987755982988,0.0,0,-0.12276224,-0.57142276,-0.43855646,0.14241509,-0.14981005,1.2012973,-0.24384964,-0.88769716,-1.7812129,-0.30536175,-0.07677947,0.09902595,1.16902,1.1619754
0.0,0.1,1.2999999999999998,-0.5235987755982988,0.0,0,-0.12292224,-0.5715218,-0.43804944,0.12439777,-0.12227146,1.2603186,-0.53530777,-0.87576777,-1.7423072,-0.22381268,-0.082250774,-0.29278958,1.1894337,-0.49886867
0.0,0.1,1.2999999999999998,-0.5235987755982988,0.0,0,-0.12338074,-0.5716925,-0.4382205,0.1110333,-0.1481776,1.2564996,0.2857949,-0.89268637,-1.7309504,-0.29118198,-0.048644204,0.05500172,1.1626738,0.44406423
0.0,0.1,1.2999999999999998,-0.5235987755982988,0.0,0,-0.122959584,-0.57161826,-0.43665433,0.118381165,-0.14330103,1.2419357,0.10558632,-0.9068177,-1.7656331,-0.38221332,-0.041008074,0.037487417,1.1701427,0.89634126
0.0,0.1,1.2999999999999998,-0.5235987755982988,0.0,0,-0.12333072,-0.5714,-0.43798733,0.11689323,-0.17347355,1.2245101,0.15748571,-0.8967094,-1.8149713,-0.2879686,-0.07124711,-0.06736693,1.1793363,0.085251585
0.0,0.1,1.2999999999999998,-0.5235987755982988,0.0,0,-0.12318752,-0.57143193,-0.43676266,0.11081737,-0.17346032,1.2600553,-0.5226295,-0.9005865,-1.796876,-0.30485395,-0.05988066,-0.14038733,1.2046859,0.7972776
0.0,0.1,1.2999999999999998,-0.5235987755982988,0.0,0,-0.122758195,-0.57145447,-0.43706325,0.13493884,-0.12371063,1.2798456,-0.13460074,-0.88832086,-1.7448431,-0.29125506,-0.08622588,-0.18353729,1.1515853,1.1225467
0.0,0.1,1.2999999999999998,-0.5235987755982988,0.0,0,-0.123104826,-0.57142746,-0.4359713,0.1333313,-0.16539228,1.2549771,0.13315745,-0.8876331,-1.7688205,-0.27984422,-0.04097194,-0.14158212,1.1611817,0.8488294
0.0,0.1,1.2999999999999998,-0.5235987755982988,0.0,0,-0.12325609,-0.57162106,-0.4367537,0.12637833,-0.13810486,1.2546184,0.3344229,-0.8919205,-1.760688,-0.32767177,-0.07670798,-0.11514652,1.1414021,1.002744
0.0,0.1,1.2999999999999998,-0.5235987755982988,0.0,0,-0.12285717,-0.5714366,-0.43737146,0.12641807,-0.13400537,1.2288481,-0.15215524,-0.89082706,-1.8006996,-0.2688578,-0.06365202,-0.09046686,1.1730915,0.17329463
0.0,0.1,1.2999999999999998,-0.5235987755982988,0.0,0,-0.123387724,-0.57167476,-0.43783355,0.11831434,-0.13814577,1.190594,-0.54856247,-0.8886958,-1.7980324,-0.26344606,-0.07364971,-0.22809336,1.1607826,-0.112006254
0.0,0.1,1.2999999999999998,-0.5235987755982988,0.0,0,-0.122810245,-0.5714242,-0.43754202,0.13388504,-0.17250974,1.242394,-0.20855232,-0.90053827,-1.821797,-0.33539644,-0.062733,-0.1133644,1.224912,1.3309178
0.0,0.1,1.2999999999999998,-0.5235987755982988,0.0,0,-0.123148255,-0.5717703,-0.43776476,0.119424105,-0.19253676,1.2482108,-0.115554444,-0.898324,-1.8280537,-0.3261241,-0.07032361,-0.16369267,1.1954237,0.22391553
0.0,0.1,1.2999999999999998,-0.5235987755982988,0.0,0,-0.12325214,-0.5715865,-0.43876553,0.09370723,-0.13993613,1.1967018,-0.08710394,-0.8961364,-1.8053273,-0.2965338,-0.0748195,5.2827672e-05,1.1880741,0.43394482
0.0,0.1,1.2999999999999998,-0.5235987755982988,0.0,0,-0.12361355,-0.5714365,-0.43713605,0.104061395,-0.11004171,1.170729,0.4623536,-0.8997592,-1.7964566,-0.28513908,-0.07064379,-0.20350944,1.180913,0.44586834
0.0,0.1,1.2999999999999998,-0.5235987755982988,0.0,0,-0.12284295,-0.5716267,-0.43718278,0.12223174,-0.11320679,1.2126764,-0.28941134,-0.8913395,-1.7599767,-0.28746215,-0.033896696,0.15252152,1.1672133,2.0214472
0.0,0.1,1.2999999999999998,-0.5235987755982988,0.0,0,-0.12277548,-0.57153857,-0.43703714,0.1375045,-0.12594658,1.2244905,-0.5524556,-0.8791225,-1.7960892,-0.20422105,-0.07163525,0.062771566,1.2050605,1.153768
0.0,0.1,1.2999999999999998,-0.5235987755982988,0.0,0,-0.12299803,-0.5714196,-0.43756217,0.12101628,-0.20225063,1.2396665,-0.30079907,-0.8960729,-1.7732815,-0.29222625,-0.048209604,-0.11083409,1.1369041,0.15404801
0.0,0.1,1.2999999999999998,-0.5235987755982988,0.0,0,-0.12299371,-0.5715921,-0.43667677,0.12598369,-0.15013139,1.1966176,0.09774721,-0.8970043,-1.8224256,-0.2885029,-0.0294075,-0.05044796,1.190733,0.6458799
0.0,0.1,1.2999999999999998,-0.5235987755982988,0.0,0,-0.12299709,-0.57153875,-0.4363508,0.11880698,-0.15448932,1.2315999,-0.3085652,-0.8854121,-1.8110583,-0.21519172,-0.06302325,-0.00425532,1.1671371,0.16763051
0.0,0.1,1.2999999999999998,-0.5235987755982988,0.0,0,-0.12337108,-0.5712933,-0.43683067,0.116709866,-0.112781055,1.2225899,-0.19524364,-0.89428705,-1.7254033,-0.29679775,-0.055404294,-0.095803455,1.1790223,-0.93684953
0.0,0.1,1.2999999999999998,-0.5235987755982988,0.0,0,-0.12301273,-0.57139707,-0.4365957,0.124507725,-0.1407236,1.2367895,0.25966078,-0.8885224,-1.8059102,-0.3320364,-0.08688129,0.013380574,1.1567578,-0.71768224
0.0,0.1,1.2999999999999998,-0.5235987755982988,0.0,0,-0.123610824,-0.5714714,-0.43757614,0.10856953,-0.10357525,1.231575,0.3441403,-0.9172215,-1.7694626,-0.26575533,-0.044805974,-0.16796148,1.2018815,0.38800707
0.0,0.1,1.2999999999999998,-0.5235987755982988,0.0,0,-0.12259302,-0.5713036,-0.4362124,0.11599502,-0.16960488,1.1912607,0.28635556,-0.90199524,-1.688245,-0.121691994,-0.06680277,0.097007595,1.1794447,1.3407807
0.0,0.1,1.2999999999999998,-0.5235987755982988,0.0,0,-0.123020716,-0.571311,-0.43642342,0.13886441,-0.1452462,1.2282746,0.16314334,-0.90534246,-1.7010425,-0.19164519,-0.09220848,-0.014292211,1.1640528,-1.2331586
0.0,0.1,1.2999999999999998,-0.5235987755982988,0.0,0,-0.12289242,-0.57141393,-0.43655378,0.12610725,-0.14825927,1.2159774,-0.39257872,-0.91111594,-1.7154393,-0.13483834,-0.098815106,-0.10832228,1.1882553,0.47408944
0.0,0.1,1.2999999999999998,-0.5235987755982988,0.0,0,-0.12296581,-0.5716175,-0.4379625,0.108016565,-0.16563748,1.2538929,0.3680207,-0.8927041,-1.6590352,-0.1293138,-0.0453511,-0.044449415,1.1837219,0.6936505
0.0,0.1,1.2999999999999998,-0.5235987755982988,0.0,0,-0.1226714,-0.57147336,-0.43625295,0.12735175,-0.1088192,1.2475827,0.07201414,-0.8984027,-1.6657706,-0.22357967,-0.06291576,-0.0051609455,1.161649,0.74697065
0.0,0.1,1.2999999999999998,-0.5235987755982988,0.0,0,-0.12299338,-0.5713951,-0.4376178,0.12909392,-0.19509323,1.2046893,0.2976882,-0.8876029,-1.6457952,-0.13191347,-0.042525087,0.09317114,1.1579939,0.12077064
0.0,0.1,1.2999999999999998,-0.5235987755982988,0.0,0,-0.12309,-0.5714496,-0.4371401,0.13834883,-0.16298765,1.1978264,0.11376152,-0.9063049,-1.7076287,-0.118471384,-0.06459518,-0.18145598,1.1814249,0.38312757
0.0,0.1,1.2999999999999998,-0.5235987755982988,0.0,0,-0.12316439,-0.57144046,-0.43626437,0.11146191,-0.052248985,1.2133322,-0.18081638,-0.9047064,-1.6970612,-0.19455728,-0.057417896,0.039250262,1.2037336,2.0961514
0.0,0.1,1.2999999999999998,-0.5235987755982988,0.0,0,-0.12296566,-0.57137454,-0.43771604,0.115526594,-0.124036096,1.2600023,-0.26589572,-0.91011244,-1.7436073,-0.10966083,-0.02360414,-0.06733956,1.1536245,0.26876438
0.0,0.1,1.2999999999999998,-0.5235987755982988,0.0,0,-0.12320053,-0.5714297,-0.43771958,0.12500371,-0.10779736,1.2296523,-0.8845575,-0.91267264,-1.7470603,-0.11673663,-0.024352545,0.011288279,1.1926436,0.30819634
0.0,0.1,1.2999999999999998,-0.5235987755982988,0.0,0,-0.123276085,-0.57126766,-0.43690494,0.124744505,-0.15755032,1.2422949,0.011279267,-0.89657474,-1.6762921,-0.24391882,-0.045547124,0.124642655,1.1401949,0.37299132
0.0,0.1,1.2999999999999998,-0.5235987755982988,0.0,0,-0.123326726,-0.5715308,-0.4370789,0.13651143,-0.16610089,1.2502991,-0.47717687,-0.9030781,-1.7232965,-0.13200626,-0.050826173,-0.11339233,1.1332749,-0.2295872
0.0,0.1,1.2999999999999998,-0.5235987755982988,0.0,0,-0.12290829,-0.57140017,-0.43704855,0.114359215,-0.14700992,1.2323989,0.11109542,-0.9007976,-1.701999,-0.20538116,-0.059503578,-0.11128722,1.1669745,-0.7772022
0.0,0.1,1.2999999999999998,-0.5235987755982988,0.0,0,-0.12311527,-0.57152796,-0.43651095,0.13573651,-0.15211187,1.236169,0.09089073,-0.8976429,-1.6868551,-0.23870845,-0.057170052,0.08093013,1.2113742,-0.50916
0.0,0.1,1.2999999999999998,-0.5235987755982988,0.0,0,-0.12301826,-0.5714706,-0.43642813,0.11126625,-0.09849227,1.2635326,-0.21893136,-0.9251615,-1.746572,-0.19745113,-0.05643133,-0.044355925,1.1880699,0.55268455
0.0,0.1,1.2999999999999998,-0.5235987755982988,0.0,0,-0.12289668,-0.5714664,-0.4367123,0.1277789,-0.07956185,1.2169466,0.38459426,-0.91253024,-1.7765012,-0.16853996,-0.08863132,-0.09786062,1.2062137,0.20849803
0.0,0.1,1.2999999999999998,-0.5235987755982988,0.0,0,-0.12299743,-0.5716481,-0.4374179,0.11580098,-0.11203915,1.2150288,-0.6587229,-0.90912354,-1.761795,-0.16357371,-0.08200439,0.08567129,1.1993054,1.9509051
0.0,0.1,1.2999999999999998,-0.5235987755982988,0.0,0,-0.12304904,-0.5713488,-0.43645513,0.11681296,-0.102023825,1.1940638,0.18060516,-0.91489005,-1.7497588,-0.19397445,-0.06419903,-0.16500439,1.1698393,1.2391576
0.0,0.1,1.2999999999999998,-0.5235987755982988,0.0,0,-0.12295596,-0.57149065,-0.43840227,0.12664133,-0.17847511,1.2896417,-0.69095045,-0.89475685,-1.728655,-0.10860591,-0.057418454,-0.22664239,1.1995773,0.09056108
0.0,0.1,1.2999999999999998,-0.5235987755982988,0.0,0,-0.12345529,-0.5714983,-0.4373446,0.12996121,-0.04014557,1.2774692,-0.42690146,-0.9167956,-1.7348921,-0.23011124,-0.08301561,0.022387493,1.1860509,-0.25608233
0.0,0.1,1.2999999999999998,-0.5235987755982988,0.0,0,-0.122958384,-0.571342,-0.43761164,0.13845451,-0.10354198,1.2130052,-0.38506794,-0.9011021,-1.7513638,-0.08702371,-0.05497881,0.19691607,1.1520566,0.20414323
0.0,0.1,1.2999999999999998,-0.5235987755982988,0.0,0,-0.1227068,-0.57167244,-0.4369946,0.116331324,-0.16578358,1.2331716,0.47566488,-0.90935636,-1.7601999,-0.15433787,-0.07845993,-0.08945715,1.1548393,1.472384
0.0,0.1,1.2999999999999998,-0.5235987755982988,0.0,0,-0.122991376,-0.5715056,-0.43755352,0.12607118,-0.18012701,1.2208625,0.37682253,-0.9022773,-1.798398,-0.09668834,-0.07062679,-0.08669614,1.1663944,0.9194651
0.0,0.1,1.2999999999999998,-0.5235987755982988,0.0,0,-0.12299819,-0.5715125,-0.43714592,0.12183436,-0.14245825,1.1950959,0.05881144,-0.91058594,-1.7913225,-0.15658966,-0.0867058,-0.05501083,1.1624819,1.2415068
0.0,0.1,1.2999999999999998,-0.5235987755982988,0.0,0,-0.12308325,-0.57139754,-0.43708223,0.13600199,-0.15704738,1.2254303,-0.5782419,-0.91265965,-1.680449,-0.36870906,-0.07081541,0.06534247,1.1970043,1.0256664
0.0,0.1,1.2999999999999998,-0.5235987755982988,0.0,0,-0.12316166,-0.57130724,-0.4365766,0.11707311,-0.13639264,1.2209307,0.2094018,-0.9093681,-1.7482579,-0.17257911,-0.071919166,0.041116174,1.160046,0.83249176
0.0,0.1,1.2999999999999998,-0.5235987755982988,0.0,0,-0.12328519,-0.57140785,-0.436548,0.104890436,-0.15790613,1.2223318,0.009926476,-0.90418917,-1.7395492,-0.14928304,-0.043917302,-0.20717932,1.1718059,0.37334287
0.0,0.1,1.2999999999999998,-0.5235987755982988,0.0,0,-0.12300462,-0.5716861,-0.43762594,0.12962201,-0.17042279,1.2368973,0.13924111,-0.9076297,-1.800778,-0.15163222,-0.07798819,-0.096730985,1.154092,-1.1714737
0.0,0.1,1.2999999999999998,-0.5235987755982988,0.0,0,-0.12341046,-0.5717024,-0.43843538,0.117543355,-0.14067331,1.21695,-0.23704289,-0.9140334,-1.7484169,-0.247523,-0.052271765,0.023699732,1.1683908,-0.26212636
0.0,0.1,1.2999999999999998,-0.5235987755982988,0.0,0,-0.12299662,-0.5714075,-0.43825066,0.12511852,-0.13531713,1.1845311,0.33700636,-0.9044083,-1.7707524,-0.16004142,-0.068419166,-0.16271374,1.1292493,-0.34817567
0.0,0.1,1.2999999999999998,-0.5235987755982988,0.0,0,-0.12288182,-0.5713997,-0.43801403,0.11764311,-0.16886675,1.2402222,0.57243997,-0.91119015,-1.7713256,-0.14168437,-0.09850284,0.029939905,1.1940632,0.7086096
0.0,0.1,1.2999999999999998,-0.5235987755982988,0.0,0,-0.1233184,-0.57187337,-0.4371444,0.13958739,-0.098366454,1.2011555,0.15421027,-0.9080316,-1.7293937,-0.21886982,-0.062162276,0.05513712,1.2020037,0.41729158
0.0,0.1,1.2999999999999998,-0.5235987755982988,0.0,0,-0.123586796,-0.57141125,-0.4368432,0.123222396,-0.08159509,1.261791,-0.041761298,-0.9078313,-1.8035014,-0.16389589,-0.062128246,0.18260352,1.2116119,-0.21204025
0.0,0.1,1.2999999999999998,-0.5235987755982988,0.0,0,-0.12337813,-0.57152665,-0.4366782,0.11596682,-0.16458312,1.2187288,-0.94000095,-0.9163314,-1.7097995,-0.3386495,-0.071936406,0.097350344,1.1608756,0.1773192
0.0,0.1,1.2999999999999998,-0.5235987755982988,0.0,0,-0.12322381,-0.5717406,-0.43793076,0.11542734,-0.10783878,1.2209463,0.46602926,-0.9085035,-1.8152362,-0.21483973,-0.08519324,-0.023184916,1.1673689,-0.41682392
0.0,0.1,1.2999999999999998,-0.5235987755982988,0.0,0,-0.123649396,-0.57148314,-0.43724668,0.12455007,-0.16892622,1.1898618,-0.34038842,-0.8991999,-1.7490941,-0.13468288,-0.0551725,-0.08983828,1.1961946,1.744396
0.0,0.1,1.2999999999999998,-0.5235987755982988,0.0,0,-0.123081036,-0.57137054,-0.4380399,0.116308235,-0.15856425,1.2449964,-1.0462085,-0.9030123,-1.7395378,-0.18773533,-0.081639096,-0.19928825,1.1773366,0.77435476
0.0,0.1,1.2999999999999998,-0.5235987755982988,0.0,0,-0.123186775,-0.5713925,-0.43711513,0.11844489,-0.12315195,1.2085842,-0.6810759,-0.9067167,-1.8181145,-0.15849604,-0.05123316,-0.24835932,1.1920625,-0.18358238
0.0,0.1,1.2999999999999998,-0.5235987755982988,0.0,0,-0.122967385,-0.5716587,-0.43718135,0.13897021,-0.1426045,1.20498,-0.04861261,-0.9053892,-1.7664701,-0.18875107,-0.10258277,0.0055959206,1.1836325,1.4366729
0.0,0.1,1.2999999999999998,-0.5235987755982988,0.0,0,-0.12295815,-0.5714629,-0.43674815,0.13096158,-0.108264476,1.217276,-0.32833344,-0.90626186,-1.8196201,-0.18162514,-0.09072092,-0.08528997,1.1968937,-0.2677703
0.0,0.1,1.2999999999999998,-0.5235987755982988,0.0,0,-0.12305202,-0.5716185,-0.43736887,0.10626784,-0.0643165,1.207098,0.37269858,-0.90297306,-1.7533776,-0.20615502,-0.039858066,-0.08452943,1.1467608,0.67857146
0.0,0.1,1.2999999999999998,-0.5235987755982988,0.0,0,-0.12280456,-0.57153344,-0.43856558,0.12289161,-0.1685236,1.2343018,0.28304264,-0.90684146,-1.7723086,-0.24341391,-0.04053945,-0.1858351,1.1490005,0.58997315
0.0,0.1,1.2999999999999998,-0.5235987755982988,0.0,0,-0.122987814,-0.5716444,-0.43784457,0.11482803,-0.14685653,1.1951772,0.3894222,-0.90262145,-1.7528093,-0.21834517,-0.072907425,0.009100063,1.1773291,0.26721957
0.0,0.1,1.2999999999999998,-0.5235987755982988,0.0,0,-0.123198524,-0.5713627,-0.43730167,0.11778365,-0.13962935,1.1849309,-0.09230556,-0.9062169,-1.8161229,-0.20788842,-0.051427945,-0.092871726,1.1613562,-0.1616496
0.0,0.1,1.2999999999999998,-0.5235987755982988,0.0,0,-0.12342688,-0.5716219,-0.43680283,0.11827767,-0.16455947,1.1831328,-0.44475535,-0.9052815,-1.7562051,-0.23649706,-0.04027225,-0.09174281,1.1564356,-0.37884635
0.0,0.1,1.2999999999999998,-0.5235987755982988,0.0,0,-0.12267976,-0.5713669,-0.43778688,0.11529397,-0.16256048,1.2463083,-0.07087244,-0.9002994,-1.7215452,-0.13262445,-0.05372044,0.030867536,1.1360507,-0.49829364
0.0,0.1,1.2999999999999998,-0.5235987755982988,0.0,0,-0.12312322,-0.5717264,-0.43740654,0.12263944,-0.10558082,1.2369823,-0.12091842,-0.90145767,-1.7313524,-0.23190433,-0.06789822,0.048649106,1.1844548,-0.06543322
0.0,0.1,1.2999999999999998,-0.5235987755982988,0.0,0,-0.123481065,-0.5714531,-0.43736747,0.12154124,-0.16516522,1.2383538,-0.00783111,-0.8958861,-1.8119235,-0.18389452,-0.036612175,-0.031683054,1.1595608,1.7535056
0.0,0.1,1.2999999999999998,-0.5235987755982988,0.0,0,-0.12353736,-0.5715865,-0.43745092,0.104322076,-0.12950803,1.2310579,-0.24682753,-0.91044635,-1.754045,-0.29367578,-0.047900897,-0.1061703,1.2120546,-0.10524653
0.0,0.1,1.2999999999999998,-0.5235987755982988,0.0,0,-0.12311657,-0.5715246,-0.43790928,0.12174862,-0.13561021,1.2418208,0.017162839,-0.9011105,-1.7645677,-0.2144131,-0.0039395113,-0.017637514,1.1997294,-0.048959374
0.0,0.1,1.2999999999999998,-0.5235987755982988,0.0,0,-0.12280285,-0.57166886,-0.4374998,0.12348234,-0.12728332,1.2452363,0.24714568,-0.90549934,-1.7772243,-0.26530147,-0.06199896,0.1539116,1.1622992,-0.10264978
0.0,0.1,1.2999999999999998,-0.5235987755982988,0.0,0,-0.12331533,-0.5715769,-0.43709895,0.10776899,-0.18390848,1.2052981,0.052177344,-0.90296835,-1.7640492,-0.2597316,-0.10433644,0.028908662,1.1562427,0.6822276
0.0,0.1,1.2999999999999998,-0.5235987755982988,0.0,0,-0.12298581,-0.57160765,-0.43745372,0.12356005,-0.14446664,1.2120636,0.7328194,-0.90597326,-1.8141401,-0.24668968,-0.08904011,-0.11288446,1.1631311,0.58239293
0.0,0.1,1.2999999999999998,-0.5235987755982988,0.0,0,-0.1229351,-0.57135403,-0.43766108,0.11760939,-0.14026327,1.2424952,-0.3582196,-0.90669334,-1.7306616,-0.31640944,-0.041235134,0.03886594,1.1911762,1.9998964
0.0,0.1,1.2999999999999998,-0.5235987755982988,0.0,0,-0.123086676,-0.5715314,-0.43665195,0.12224213,-0.16695496,1.2278333,-0.061588548,-0.89073676,-1.7981889,-0.15920492,-0.05344724,-0.21365163,1.1551234,0.33674574
0.0,0.1,1.2999999999999998,-0.5235987755982988,0.0,0,-0.12324,-0.5714652,-0.43654266,0.11216568,-0.18038192,1.2005224,-0.2650165,-0.89271647,-1.756943,-0.18618317,-0.07251318,0.068577,1.1736518,1.0024811
0.0,0.1,1.2999999999999998,-0.5235987755982988,0.0,0,-0.12303078,-0.57157063,-0.43733743,0.113037616,-0.19181138,1.2351571,0.3502427,-0.8988129,-1.75801,-0.22453961,-0.050735887,-0.18001351,1.1960241,-0.95980483
0.0,0.1,1.2999999999999998,-0.5235987755982988,0.0,0,-0.123421095,-0.57152677,-0.4372462,0.11903507,-0.13803379,1.2021239,-0.072477214,-0.8927586,-1.7212566,-0.22763641,-0.056922358,0.2238944,1.1787999,1.0200267
0.0,0.1,1.2999999999999998,-0.5235987755982988,0.0,0,-0.123009436,-0.57182896,-0.4368466,0.109983146,-0.14577699,1.284205,-0.024521818,-0.90078396,-1.7377411,-0.24611829,-0.029430352,-0.10397871,1.1757246,0.45024395
0.0,0.1,1.2999999999999998,-0.5235987755982988,0.0,0,-0.12342609,-0.5713012,-0.43740958,0.13596703,-0.123281315,1.2780268,-0.16986097,-0.8940239,-1.7884709,-0.22639705,-0.039393164,-0.23608601,1.1513978,0.3344629
0.0,0.1,1.2999999999999998,-0.5235987755982988,0.0,0,-0.12316754,-0.5715719,-0.4370371,0.123849005,-0.13681974,1.2216159,0.2226845,-0.9002952,-1.747709,-0.27653578,-0.06985129,-0.08431106,1.1695248,0.7980977
0.0,0.1,1.2999999999999998,-0.5235987755982988,0.0,0,-0.12318885,-0.5713183,-0.4370823,0.11481973,-0.21168476,1.2603219,-0.9133181,-0.8956201,-1.8024607,-0.19442606,-0.060090862,0.05597166,1.164317,0.8109273
0.0,0.1,1.2999999999999998,-0.5235987755982988,0.0,0,-0.1230801,-0.5714831,-0.4367959,0.12072043,-0.14675006,1.2065182,0.1321796,-0.89332694,-1.7989434,-0.18829565,-0.035955213,-0.057363756,1.1777683,1.0527445
0.0,0.1,1.2999999999999998,-0.5235987755982988,0.0,0,-0.12294068,-0.5715293,-0.43646505,0.123360865,-0.11879855,1.2353691,0.08976243,-0.89028883,-1.7559156,-0.21780431,-0.09621683,-0.04302145,1.1562779,0.3365269
0.0,0.1,1.2999999999999998,-0.5235987755982988,0.0,0,-0.12311774,-0.5715617,-0.4374333,0.124798484,-0.19294678,1.2754444,0.28949627,-0.904842,-1.7975653,-0.2959437,-0.07281196,0.10550258,1.149583,0.043777898
0.0,0.1,1.2999999999999998,-0.5235987755982988,0.0,0,-0.12291641,-0.57143277,-0.43796083,0.11577958,-0.14968689,1.2288969,-0.7716093,-0.904965,-1.7411984,-0.32116568,-0.03959541,-0.10213303,1.184304,0.6395624
0.0,0.1,1.2999999999999998,-0.5235987755982988,0.0,0,-0.12310294,-0.5714534,-0.43706733,0.12191764,-0.14555156,1.180696,0.010937565,-0.900504,-1.7837641,-0.20557441,-0.053327244,-0.016426602,1.1545768,-1.4068967
0.0,0.1,1.2999999999999998,-0.5235987755982988,0.0,0,-0.12347091,-0.5715129,-0.43662596,0.12754351,-0.09486318,1.2326359,0.38209552,-0.88805,-1.7855293,-0.1867247,-0.054180123,-0.12406444,1.1629578,0.6579473
0.0,0.1,1.2999999999999998,-0.5235987755982988,0.0,0,-0.12303468,-0.5718627,-0.43788695,0.12067549,-0.15971887,1.276526,0.33200485,-0.8851465,-1.7385803,-0.14933841,-0.029701652,-0.062021576,1.1946208,1.1188018
0.0,0.1,1.2999999999999998,-0.5235987755982988,0.0,0,-0.12282663,-0.57161784,-0.4371469,0.11529382,-0.15923744,1.2436786,0.35719913,-0.89631546,-1.746317,-0.28784037,-0.054827295,-0.0071487217,1.1893705,1.119188
0.0,0.1,1.2999999999999998,-0.5235987755982988,0.0,0,-0.122950956,-0.57154226,-0.43762875,0.12157596,-0.16149977,1.1770921,0.2787961,-0.9096917,-1.7655731,-0.3383253,-0.06544975,0.011876994,1.1954767,-0.0029931513
0.0,0.1,1.2999999999999998,-0.5235987755982988,0.0,0,-0.12285069,-0.57178575,-0.43779096,0.13195251,-0.13089798,1.1927681,0.1706647,-0.9039187,-1.739028,-0.2690859,-0.025110558,0.0075503862,1.1707729,-0.099679776
0.0,0.1,1.2999999999999998,-0.5235987755982988,0.0,0,-0.1231688,-0.57145435,-0.4372581,0.12286299,-0.13350178,1.1509107,0.66870856,-0.9025693,-1.751386,-0.28355095,-0.060750287,0.09556326,1.1524656,-0.13851139
0.0,0.1,1.2999999999999998,-0.5235987755982988,0.0,0,-0.122819595,-0.57141256,-0.4369022,0.11421741,-0.14858106,1.2247112,0.34839553,-0.8946628,-1.7655483,-0.24286523,-0.04599406,-0.094681785,1.186373,0.25593638
0.0,0.1,1.2999999999999998,-0.5235987755982988,0.0,0,-0.12298269,-0.57151055,-0.43752915,0.1340973,-0.14195034,1.2022378,-0.21346068,-0.89520454,-1.7973759,-0.25781614,-0.055370633,-0.102661304,1.1729895,-1.6587973
0.0,0.1,1.2999999999999998,-0.5235987755982988,0.0,0,-0.12318496,-0.57152694,-0.43740544,0.13064273,-0.20680049,1.2160853,0.097218566,-0.89134556,-1.7867862,-0.23397465,-0.04911781,-0.0396948,1.182298,0.53689545
0.0,0.1,1.2999999999999998,-0.5235987755982988,0.0,0,-0.12339173,-0.5716527,-0.43690574,0.10348016,-0.09229869,1.2257458,0.27389666,-0.9019117,-1.76636,-0.2502031,-0.058754,-0.14542642,1.1792614,0.14091356
0.0,0.1,1.2999999999999998,-0.5235987755982988,0.0,0,-0.12317784,-0.57138664,-0.4376364,0.12483619,-0.19097686,1.2024567,0.5442971,-0.8848406,-1.7364199,-0.26405415,-0.07220317,0.08968405,1.1629963,2.7362473
0.0,0.1,1.2999999999999998,-0.5235987755982988,0.0,0,-0.12312563,-0.57138795,-0.4369975,0.12313193,-0.13364492,1.2302665,0.124772266,-0.8818431,-1.7460821,-0.23854376,-0.04684596,-0.16616452,1.1624823,0.70136416
0.0,0.1,1.2999999999999998,-0.5235987755982988,0.0,0,-0.122730814,-0.5716117,-0.43686625,0.14032032,-0.12429878,1.2026173,-0.30090666,-0.8963139,-1.7552878,-0.28507012,-0.07856706,-0.07273652,1.1669228,0.29875344
0.0,0.1,1.2999999999999998,-0.5235987755982988,0.0,0,-0.123031154,-0.57152414,-0.43687558,0.12634774,-0.1603062,1.2351445,-0.45267466,-0.89141303,-1.7725765,-0.2466174,-0.062006727,-0.364002,1.1760169,-0.050053846
0.0,0.1,1.2999999999999998,-0.5235987755982988,0.0,0,-0.123149544,-0.5715988,-0.43655434,0.14390998,-0.1385862,1.1857852,-0.20722142,-0.8908354,-1.7739841,-0.25233397,-0.044453725,-0.018741114,1.1938666,-0.3455783
0.0,0.1,1.2999999999999998,-0.5235987755982988,0.0,0,-0.12299498,-0.5715982,-0.4366202,0.13331106,-0.14864969,1.2718208,0.05277995,-0.88431007,-1.7994989,-0.2045986,-0.059449024,0.024097605,1.199676,0.11308553
0.0,0.1,1.2999999999999998,-0.5235987755982988,0.0,0,-0.12279175,-0.57135195,-0.43784264,0.12054334,-0.16743676,1.2238051,0.46468538,-0.8893396,-1.7808594,-0.24829996,-0.058832735,-0.02762563,1.1402164,1.7142185
0.0,0.1,1.2999999999999998,-0.5235987755982988,0.0,0,-0.122695394,-0.57149786,-0.43689346,0.1295394,-0.15522772,1.2258468,0.122651175,-0.896515,-1.7760448,-0.3286488,-0.042404458,-0.06203667,1.1817708,1.993807
0.0,0.1,1.2999999999999998,-0.5235987755982988,0.0,0,-0.12284636,-0.5714114,-0.43672404,0.14005119,-0.15445282,1.1709021,-0.12072744,-0.90098673,-1.7905302,-0.2302027,-0.07743612,0.20667708,1.1917732,1.1198958
0.0,0.1,1.2999999999999998,-0.5235987755982988,0.0,0,-0.12332324,-0.571627,-0.43715885,0.12717828,-0.13524549,1.1808418,-0.079616755,-0.91692674,-1.6953517,-0.25028837,-0.035721373,-0.06858174,1.138774,0.31821194
0.0,0.1,1.2999999999999998,-0.5235987755982988,0.0,0,-0.123047434,-0.5716107,-0.43687513,0.13153633,-0.15056513,1.1795117,0.040528044,-0.9044798,-1.7005612,-0.10504912,-0.015689118,-0.234122,1.179553,-0.09877356
0.0,0.1,1.2999999999999998,-0.5235987755982988,0.0,0,-0.12305162,-0.571642,-0.43695933,0.12586685,-0.13790023,1.2528228,0.09215143,-0.9079689,-1.738465,-0.115135476,-0.06785915,-0.08517499,1.1576833,0.19210516
0.0,0.1,1.2999999999999998,-0.5235987755982988,0.0,0,-0.12291115,-0.5715292,-0.43808478,0.119755775,-0.1250126,1.2397728,0.40216047,-0.90291876,-1.6982465,-0.20688052,-0.029162262,-0.09317492,1.18758,-0.92607766
0.0,0.1,1.2999999999999998,-0.5235987755982988,0.0,0,-0.12284944,-0.57137233,-0.43725428,0.11158479,-0.13312992,1.2612127,0.16670439,-0.9045751,-1.7579238,-0.07056,-0.035698757,0.061688572,1.1862359,1.3125442
0.0,0.1,1.2999999999999998,-0.5235987755982988,0.0,0,-0.12296768,-0.5713355,-0.43718135,0.10552012,-0.09100424,1.2263608,0.15597928,-0.9104993,-1.7432851,-0.1826002,-0.10176722,-0.0018458412,1.2066509,1.0420402
0.0,0.1,1.2999999999999998,-0.5235987755982988,0.0,0,-0.123226576,-0.57149905,-0.4371326,0.12000347,-0.16800302,1.2382728,-0.43725443,-0.90828794,-1.7598647,-0.1584657,-0.07456328,0.07367558,1.1942688,0.3657464
0.0,0.1,1.2999999999999998,-0.5235987755982988,0.0,0,-0.12266867,-0.57151717,-0.43559012,0.12361575,-0.07888139,1.2301277,0.37980536,-0.9033535,-1.7587305,-0.101285934,-0.033716206,-0.070171826,1.184383,-0.15872754
0.0,0.1,1.2999999999999998,-0.5235987755982988,0.0,0,-0.12343225,-0.57135606,-0.4382121,0.1343527,-0.15449853,1.2211317,0.004871889,-0.9054344,-1.7749966,-0.16756885,-0.037496295,-0.095175944,1.1893795,0.59052634
0.0,0.1,1.2999999999999998,-0.5235987755982988,0.0,0,-0.123013996,-0.57139665,-0.43833065,0.10969576,-0.13496123,1.215036,-0.08958996,-0.9047659,-1.7759327,-0.16011512,-0.022256255,0.117188595,1.1449058,0.30554357
0.0,0.1,1.2999999999999998,-0.5235987755982988,0.0,0,-0.122805834,-0.5713168,-0.43817437,0.0970807,-0.11378825,1.2018393,-0.382667,-0.9082323,-1.7508985,-0.18859911,-0.08136295,-0.027760403,1.1730874,0.9238168
0.0,0.1,1.2999999999999998,-0.5235987755982988,0.0,0,-0.12340815,-0.5715397,-0.4369294,0.12340598,-0.16951644,1.2624921,0.40465948,-0.899682,-1.7905957,-0.127905,-0.0844542,0.02740139,1.1518763,-0.052199427
0.0,0.1,1.2999999999999998,-0.5235987755982988,0.0,0,-0.12335879,-0.5715203,-0.43653908,0.1261585,-0.15397836,1.2071773,0.31247005,-0.90404254,-1.7818321,-0.1438824,-0.019430695,-0.05792078,1.1510721,1.1416751
0.0,0.1,1.2999999999999998,-0.5235987755982988,0.0,0,-0.122996695,-0.5716148,-0.43799752,0.12505794,-0.12658156,1.292495,0.4700834,-0.90897423,-1.7939086,-0.20192327,-0.05647924,-0.14646873,1.1785796,-0.22808488
0.0,0.1,1.2999999999999998,-0.5235987755982988,0.0,0,-0.12320296,-0.57149655,-0.43779373,0.11566173,-0.10137561,1.2117532,-0.22568086,-0.90355945,-1.7589248,-0.2455621,-0.07351253,-0.02406635,1.1607555,0.42961326
0.0,0.1,1.2999999999999998,-0.5235987755982988,0.0,0,-0.123328395,-0.5716597,-0.4371632,0.12423724,-0.08136309,1.2470574,0.20430501,-0.9071432,-1.7452886,-0.265561,-0.07248847,-0.23152617,1.1851543,1.3320571
0.0,0.1,1.2999999999999998,-0.5235987755982988,0.0,0,-0.1233549,-0.5713443,-0.43707743,0.115512475,-0.1615241,1.2465965,0.00029169163,-0.89968836,-1.780083,-0.20113899,-0.07016025,-0.1563312,1.2477748,-0.6741107
0.0,0.1,1.2999999999999998,-0.5235987755982988,0.0,0,-0.12343079,-0.57155246,-0.43703446,0.11989452,-0.11906581,1.1662782,0.019359967,-0.8861674,-1.7199948,-0.14238334,-0.043459166,-0.046453685,1.1661947,-0.37490663
0.0,0.1,1.2999999999999998,-0.5235987755982988,0.0,0,-0.12334446,-0.5715936,-0.43712267,0.10685393,-0.17385612,1.2194786,-0.6595589,-0.8998079,-1.775991,-0.2310038,-0.029433202,-0.004377509,1.1991094,-0.030620586
0.0,0.1,1.2999999999999998,-0.5235987755982988,0.0,0,-0.123662904,-0.5717086,-0.4363629,0.12057305,-0.13772383,1.1966344,0.24098633,-0.8991117,-1.7759577,-0.18145615,-0.060921002,-0.18448123,1.175592,0.5445279
0.0,0.1,1.2999999999999998,-0.5235987755982988,0.0,0,-0.12259514,-0.5715342,-0.4375939,0.104839884,-0.1590291,1.1759903,0.26351723,-0.8984113,-1.7109407,-0.24043292,-0.09274503,-0.13958202,1.1993191,1.2849789
0.0,0.1,1.2999999999999998,-0.5235987755982988,0.0,0,-0.12333238,-0.5714503,-0.43757683,0.12175471,-0.13103683,1.2157879,0.095468074,-0.89738053,-1.7220724,-0.19334154,-0.0960229,-0.057984833,1.1880795,-0.14198574
0.0,0.1,1.2999999999999998,-0.5235987755982988,0.0,0,-0.12319693,-0.57151705,-0.43650436,0.12605964,-0.15190798,1.2645986,-0.24876082,-0.90094405,-1.7542849,-0.2175747,-0.07402109,-0.095569804,1.154958,0.7020318
0.0,0.1,1.2999999999999998,-0.5235987755982988,0.0,0,-0.12320621,-0.57175046,-0.43732473,0.13403393,-0.15192597,1.2248816,-0.6090935,-0.8940087,-1.782884,-0.1731329,-0.04620567,-0.13201639,1.2080448,0.12175489
0.0,0.1,1.2999999999999998,-0.5235987755982988,0.0,0,-0.123207785,-0.5714088,-0.4389247,0.13324055,-0.14860807,1.2640556,0.20546706,-0.8871956,-1.8044089,-0.21144283,-0.0824587,-0.13770829,1.1760727,0.73825866
0.0,0.1,1.2999999999999998,-0.5235987755982988,0.0,0,-0.12358211,-0.5714949,-0.4368874,0.11147668,-0.11329322,1.2347249,-0.17727788,-0.8959887,-1.7390459,-0.321558,-0.038287565,0.08023807,1.1700631,0.9958587
0.0,0.1,1.2999999999999998,-0.5235987755982988,0.0,0,-0.12295334,-0.5715168,-0.43713242,0.11399671,-0.16063665,1.2581457,-0.26624563,-0.89277685,-1.7776725,-0.28643125,-0.06009964,0.14015897,1.1540389,1.7262655
