sanky1234/BimanualDexCatch/isaacgymenvs/cem_results/football_pose_-0.2_-0.2_0.6_-0.5235987755982988_-0.17453292519943286_-0.34906585039886584.csv
x,y,z,roll,pitch,yaw,robot1/joint1,robot1/joint2,robot1/joint3,robot1/joint4,robot1/joint5,robot1/joint6,robot1/joint7,robot2/joint1,robot2/joint2,robot2/joint3,robot2/joint4,robot2/joint5,robot2/joint6,robot2/joint7
-0.2,-0.2,0.6,-0.5235987755982988,-0.17453292519943286,-0.34906585039886584,1.7336239,1.4754349,0.15410508,0.06045506,0.080690846,1.0203564,0.5817941,-0.53098994,1.6149526,-0.083055265,-0.9180317,-0.049719468,1.5130537,1.5148242
-0.2,-0.2,0.6,-0.5235987755982988,-0.17453292519943286,-0.34906585039886584,1.7331133,1.4892949,0.16092971,0.047048703,0.0923985,1.0307928,0.5850717,-0.53275985,1.6101781,-0.08551829,-0.9351139,-0.030806204,1.506812,1.3300767
-0.2,-0.2,0.6,-0.5235987755982988,-0.17453292519943286,-0.34906585039886584,1.7553064,1.4718304,0.16720767,0.0495622,0.08295024,1.0269772,0.5578756,-0.5445832,1.6101505,-0.0865308,-0.93699604,-0.006106367,1.510658,1.2790973
-0.2,-0.2,0.6,-0.5235987755982988,-0.17453292519943286,-0.34906585039886584,1.7554096,1.4827069,0.16944425,0.036368005,0.08415933,1.0267167,0.56395954,-0.53347206,1.6106224,-0.09225183,-0.92051727,0.023619782,1.5209987,1.5589479
-0.2,-0.2,0.6,-0.5235987755982988,-0.17453292519943286,-0.34906585039886584,1.7516689,1.4757912,0.16422313,0.050993368,0.07731027,1.0296255,0.566615,-0.53500766,1.6189892,-0.094726615,-0.91510713,-0.04153742,1.5110718,1.3971728
-0.2,-0.2,0.6,-0.5235987755982988,-0.17453292519943286,-0.34906585039886584,1.7477407,1.4826676,0.16212732,0.050977748,0.093112424,1.0205534,0.55067706,-0.53793836,1.6127952,-0.08205064,-0.93497574,-0.032491818,1.5158439,1.4580989
-0.2,-0.2,0.6,-0.5235987755982988,-0.17453292519943286,-0.34906585039886584,1.767072,1.4763424,0.1565703,0.04094095,0.10291781,1.0450946,0.5494091,-0.53302014,1.6165591,-0.08324539,-0.9274836,-0.025307668,1.5288894,1.3730856
-0.2,-0.2,0.6,-0.5235987755982988,-0.17453292519943286,-0.34906585039886584,1.7735007,1.4759564,0.16245873,0.04487644,0.08263557,1.027907,0.55645025,-0.5327775,1.612518,-0.09831908,-0.9161655,-0.0066149146,1.5099676,1.414878
-0.2,-0.2,0.6,-0.5235987755982988,-0.17453292519943286,-0.34906585039886584,1.7446928,1.4871347,0.16194217,0.041479934,0.10223469,1.0303856,0.5622687,-0.5366341,1.6087482,-0.08176824,-0.9342854,-0.033296827,1.5122379,1.3899239
-0.2,-0.2,0.6,-0.5235987755982988,-0.17453292519943286,-0.34906585039886584,1.7436751,1.462445,0.15564987,0.038328413,0.100530565,1.036086,0.5565559,-0.5494586,1.6188297,-0.08958105,-0.93353105,-0.005382313,1.5279242,1.4450915
-0.2,-0.2,0.6,-0.5235987755982988,-0.17453292519943286,-0.34906585039886584,1.724043,1.4924155,0.166337,0.05561849,0.087205976,1.0322514,0.58490777,-0.53222716,1.6143641,-0.09677124,-0.92308223,-0.013133046,1.5008553,1.3074396
-0.2,-0.2,0.6,-0.5235987755982988,-0.17453292519943286,-0.34906585039886584,1.7388661,1.4643338,0.16721824,0.05050713,0.08733306,1.0287162,0.5510892,-0.5389049,1.6175984,-0.095753506,-0.9191871,-0.049806032,1.5057902,1.4119307
-0.2,-0.2,0.6,-0.5235987755982988,-0.17453292519943286,-0.34906585039886584,1.7409917,1.4792625,0.16462122,0.041043147,0.07215775,1.0431263,0.5529313,-0.53624815,1.6135938,-0.08327688,-0.9112926,-0.036493115,1.5271045,1.5000952
-0.2,-0.2,0.6,-0.5235987755982988,-0.17453292519943286,-0.34906585039886584,1.7297584,1.4830592,0.16477484,0.050154895,0.088387676,1.0316538,0.5468107,-0.5441066,1.61928,-0.076891854,-0.9117833,-0.029854173,1.5008851,1.571229
-0.2,-0.2,0.6,-0.5235987755982988,-0.17453292519943286,-0.34906585039886584,1.7238562,1.4728749,0.15674858,0.051497795,0.09103036,1.0347536,0.5516086,-0.5300575,1.6084315,-0.0809981,-0.92555606,-0.007919538,1.524068,1.3960282
-0.2,-0.2,0.6,-0.5235987755982988,-0.17453292519943286,-0.34906585039886584,1.7383909,1.4652468,0.16811255,0.046177953,0.09926579,1.0324777,0.5443963,-0.5327827,1.6097515,-0.07832561,-0.9266148,-0.002270697,1.525627,1.2719485
-0.2,-0.2,0.6,-0.5235987755982988,-0.17453292519943286,-0.34906585039886584,1.7415597,1.479239,0.16507015,0.042361174,0.09028423,1.0390216,0.56950915,-0.52804285,1.6112058,-0.080633394,-0.92207646,-0.041033644,1.5100907,1.3266035
-0.2,-0.2,0.6,-0.5235987755982988,-0.17453292519943286,-0.34906585039886584,1.7403101,1.4802649,0.16180299,0.044169106,0.08564829,1.0283183,0.55160934,-0.52695686,1.6069442,-0.07553947,-0.931112,-0.023213305,1.509659,1.3190546
-0.2,-0.2,0.6,-0.5235987755982988,-0.17453292519943286,-0.34906585039886584,1.7360654,1.4694335,0.17172636,0.048903156,0.07472928,1.0378191,0.5483555,-0.5384472,1.6119246,-0.06434526,-0.93326527,-0.036538698,1.5160209,1.2766979
-0.2,-0.2,0.6,-0.5235987755982988,-0.17453292519943286,-0.34906585039886584,1.7396309,1.4799694,0.15218371,0.039422818,0.08519331,1.0318607,0.57156855,-0.5375148,1.6188501,-0.08330573,-0.9391202,-0.026159717,1.5130967,1.5185937
-0.2,-0.2,0.6,-0.5235987755982988,-0.17453292519943286,-0.34906585039886584,1.7141747,1.4845936,0.17010203,0.04313868,0.10129226,1.0246227,0.54135823,-0.5306681,1.6201853,-0.0636304,-0.9286319,-0.026028352,1.5181935,1.3884324
-0.2,-0.2,0.6,-0.5235987755982988,-0.17453292519943286,-0.34906585039886584,1.7536417,1.4712782,0.15075211,0.054191545,0.094002195,1.0304242,0.53750676,-0.53452593,1.6157925,-0.07482123,-0.91555613,0.006569551,1.5162051,1.2919617
-0.2,-0.2,0.6,-0.5235987755982988,-0.17453292519943286,-0.34906585039886584,1.7499999,1.4716092,0.15616477,0.05287293,0.09448519,1.039214,0.55265594,-0.5278682,1.6130251,-0.09923978,-0.9179417,-0.010738202,1.5154709,1.3402902
-0.2,-0.2,0.6,-0.5235987755982988,-0.17453292519943286,-0.34906585039886584,1.737663,1.4867506,0.14959791,0.058960404,0.09262312,1.0415162,0.5580296,-0.53931385,1.6184158,-0.115549706,-0.93244696,-0.0006172108,1.5185958,1.3771576
-0.2,-0.2,0.6,-0.5235987755982988,-0.17453292519943286,-0.34906585039886584,1.7289263,1.484175,0.16753058,0.04734288,0.0832438,1.038545,0.5542742,-0.5391017,1.6098603,-0.081906304,-0.9314537,-0.026428636,1.5248374,1.4262594
-0.2,-0.2,0.6,-0.5235987755982988,-0.17453292519943286,-0.34906585039886584,1.7240987,1.4864725,0.16090702,0.040252056,0.087671794,1.0294782,0.557073,-0.5232718,1.6031367,-0.08591825,-0.9273548,-0.037646215,1.5029434,1.4428242
-0.2,-0.2,0.6,-0.5235987755982988,-0.17453292519943286,-0.34906585039886584,1.7347285,1.4753273,0.15287262,0.054192245,0.10826827,1.0269897,0.55731285,-0.53901476,1.6070931,-0.08174819,-0.9301713,-0.03791086,1.516842,1.3971057
-0.2,-0.2,0.6,-0.5235987755982988,-0.17453292519943286,-0.34906585039886584,1.7501106,1.4800419,0.15311332,0.056189116,0.09598241,1.0367595,0.56285286,-0.52649015,1.6129631,-0.09029359,-0.9314161,-0.033425286,1.5386032,1.4230124
-0.2,-0.2,0.6,-0.5235987755982988,-0.17453292519943286,-0.34906585039886584,1.7407242,1.4815798,0.16910489,0.046311997,0.09339869,1.0327309,0.56335247,-0.5444946,1.6143275,-0.07758761,-0.92164606,-0.045818195,1.5090375,1.4516884
-0.2,-0.2,0.6,-0.5235987755982988,-0.17453292519943286,-0.34906585039886584,1.7222811,1.469365,0.16266331,0.042826656,0.09966945,1.0319296,0.571638,-0.53964347,1.6114637,-0.10036462,-0.9238076,-0.028321488,1.5112876,1.5750964
-0.2,-0.2,0.6,-0.5235987755982988,-0.17453292519943286,-0.34906585039886584,1.7508714,1.4858031,0.16739956,0.050505184,0.083058864,1.0295783,0.54799396,-0.54316145,1.6157687,-0.094314,-0.9219623,0.0051334924,1.5254681,1.3891236
-0.2,-0.2,0.6,-0.5235987755982988,-0.17453292519943286,-0.34906585039886584,1.74731,1.4681278,0.16398583,0.050333064,0.07411537,1.0272722,0.5866832,-0.5253929,1.6176348,-0.086389,-0.916416,-0.021532072,1.5124938,1.2982228
-0.2,-0.2,0.6,-0.5235987755982988,-0.17453292519943286,-0.34906585039886584,1.7410756,1.4818258,0.16178246,0.053256836,0.080188654,1.0307704,0.56248045,-0.52596045,1.6108364,-0.09277432,-0.9188097,-0.051322382,1.5112858,1.4489766
-0.2,-0.2,0.6,-0.5235987755982988,-0.17453292519943286,-0.34906585039886584,1.7180622,1.4624168,0.17607066,0.038959082,0.10774133,1.0291278,0.53638184,-0.537386,1.6154927,-0.078986235,-0.9268391,-0.033217974,1.5086223,1.3725692
-0.2,-0.2,0.6,-0.5235987755982988,-0.17453292519943286,-0.34906585039886584,1.7350429,1.476231,0.16576329,0.048898414,0.0722323,1.0206096,0.5799892,-0.5344983,1.6157612,-0.079244755,-0.924225,-0.052501675,1.505247,1.4542661
-0.2,-0.2,0.6,-0.5235987755982988,-0.17453292519943286,-0.34906585039886584,1.746394,1.4630058,0.16584663,0.04218952,0.082643256,1.0288788,0.562013,-0.5249079,1.6133337,-0.08985858,-0.9245537,-0.027530503,1.5160677,1.4013902
-0.2,-0.2,0.6,-0.5235987755982988,-0.17453292519943286,-0.34906585039886584,1.7428138,1.4731367,0.1597449,0.049339063,0.08430549,1.0301491,0.5637064,-0.5252575,1.6178415,-0.08816788,-0.91526574,-0.019178135,1.5125657,1.381662
-0.2,-0.2,0.6,-0.5235987755982988,-0.17453292519943286,-0.34906585039886584,1.7360362,1.4736114,0.16748905,0.05421752,0.065913066,1.0230324,0.58266944,-0.5427255,1.6184438,-0.09319844,-0.926418,-0.029921807,1.4999464,1.3887616
-0.2,-0.2,0.6,-0.5235987755982988,-0.17453292519943286,-0.34906585039886584,1.7138394,1.4706168,0.16020665,0.056445044,0.10098869,1.0260019,0.5314858,-0.5222982,1.6137978,-0.082537375,-0.93074477,-0.0099268565,1.5208474,1.3159204
-0.2,-0.2,0.6,-0.5235987755982988,-0.17453292519943286,-0.34906585039886584,1.7254118,1.4776028,0.15511951,0.052476544,0.08401356,1.0338967,0.5784232,-0.5321337,1.6227171,-0.0868046,-0.92155206,-0.016068675,1.5162657,1.3831451
-0.2,-0.2,0.6,-0.5235987755982988,-0.17453292519943286,-0.34906585039886584,1.7282145,1.4810007,0.16580154,0.05440844,0.09297576,1.0309899,0.53750473,-0.53859043,1.613267,-0.08716828,-0.9160169,-0.012669864,1.5166726,1.4141331
-0.2,-0.2,0.6,-0.5235987755982988,-0.17453292519943286,-0.34906585039886584,1.7423295,1.4723568,0.16279382,0.04076516,0.10372072,1.0402385,0.534152,-0.52987367,1.6129165,-0.08436998,-0.91784054,-0.014515218,1.5254376,1.4829711
-0.2,-0.2,0.6,-0.5235987755982988,-0.17453292519943286,-0.34906585039886584,1.7330118,1.4707164,0.15668218,0.049852405,0.08790411,1.0377886,0.541779,-0.5335248,1.6224297,-0.0819915,-0.92416036,0.0060665095,1.5237566,1.365717
-0.2,-0.2,0.6,-0.5235987755982988,-0.17453292519943286,-0.34906585039886584,1.7346311,1.4825826,0.16003641,0.056359958,0.09726324,1.0268205,0.5798234,-0.5275506,1.618512,-0.0844826,-0.9154379,-0.03303932,1.5030737,1.2129507
-0.2,-0.2,0.6,-0.5235987755982988,-0.17453292519943286,-0.34906585039886584,1.7441547,1.4769803,0.15252684,0.056584544,0.09108892,1.0357273,0.5669761,-0.54421085,1.6106101,-0.09714104,-0.92203593,-0.0014707723,1.5073323,1.3273164
-0.2,-0.2,0.6,-0.5235987755982988,-0.17453292519943286,-0.34906585039886584,1.7309995,1.4822046,0.16428803,0.045607064,0.07602608,1.0337989,0.56577957,-0.5298574,1.6028798,-0.08499115,-0.9219927,-0.015709842,1.518667,1.49375
-0.2,-0.2,0.6,-0.5235987755982988,-0.17453292519943286,-0.34906585039886584,1.7034687,1.4785197,0.1611329,0.05589104,0.08947598,1.0303398,0.5884547,-0.52721584,1.6230795,-0.09080024,-0.9235338,-0.05202281,1.5149769,1.41345
-0.2,-0.2,0.6,-0.5235987755982988,-0.17453292519943286,-0.34906585039886584,1.7225026,1.4682059,0.16133066,0.046472806,0.08744614,1.0431519,0.560888,-0.530991,1.6102767,-0.07681626,-0.92000824,-0.040016465,1.5143329,1.3696901
-0.2,-0.2,0.6,-0.5235987755982988,-0.17453292519943286,-0.34906585039886584,1.7149142,1.4803187,0.16999382,0.05948423,0.0731503,1.0340635,0.5761967,-0.52714694,1.6076167,-0.08712795,-0.93413144,-0.012241179,1.5228335,1.2663004
-0.2,-0.2,0.6,-0.5235987755982988,-0.17453292519943286,-0.34906585039886584,1.723072,1.4835371,0.15253241,0.05250388,0.08206692,1.0341768,0.5944466,-0.53705406,1.615388,-0.08126726,-0.92160654,-0.018430568,1.5126314,1.4236375
-0.2,-0.2,0.6,-0.5235987755982988,-0.17453292519943286,-0.34906585039886584,1.7333782,1.4794086,0.16179438,0.05906881,0.09182241,1.0187094,0.56101155,-0.53361726,1.61765,-0.08475061,-0.93430674,-0.04442212,1.5203731,1.415449
-0.2,-0.2,0.6,-0.5235987755982988,-0.17453292519943286,-0.34906585039886584,1.7391348,1.4697305,0.15721674,0.03916534,0.08490355,1.0315983,0.5678154,-0.5302419,1.6127471,-0.071129486,-0.93151647,-0.022909444,1.5117006,1.2795966
-0.2,-0.2,0.6,-0.5235987755982988,-0.17453292519943286,-0.34906585039886584,1.7356536,1.4681716,0.16840759,0.04806115,0.07238052,1.0295646,0.58915585,-0.53024286,1.6172695,-0.092764474,-0.9194859,-0.017286578,1.5142133,1.3809454
-0.2,-0.2,0.6,-0.5235987755982988,-0.17453292519943286,-0.34906585039886584,1.7237037,1.4809464,0.16217172,0.0492599,0.089628845,1.0310307,0.57261634,-0.5382896,1.6144977,-0.08625994,-0.9161053,-0.049584433,1.5083697,1.5450954
-0.2,-0.2,0.6,-0.5235987755982988,-0.17453292519943286,-0.34906585039886584,1.7138231,1.4848837,0.16258177,0.053986877,0.086522944,1.0306232,0.52231616,-0.53211874,1.6144593,-0.09739059,-0.9249853,-0.012293148,1.4961636,1.4294181
-0.2,-0.2,0.6,-0.5235987755982988,-0.17453292519943286,-0.34906585039886584,1.7405329,1.4851335,0.16287266,0.04153821,0.10355987,1.0343633,0.5424367,-0.5387003,1.6175619,-0.0951137,-0.92730623,-0.017919825,1.5223567,1.4243568
-0.2,-0.2,0.6,-0.5235987755982988,-0.17453292519943286,-0.34906585039886584,1.7353882,1.4779079,0.16817191,0.054744657,0.078949176,1.0381625,0.56504,-0.5361172,1.6184307,-0.08220944,-0.92431235,-0.027564991,1.5111401,1.2810231
-0.2,-0.2,0.6,-0.5235987755982988,-0.17453292519943286,-0.34906585039886584,1.7270025,1.475625,0.15769206,0.041828204,0.09172372,1.0367266,0.5465464,-0.52575374,1.6072258,-0.07877031,-0.9334289,-0.018540781,1.5136055,1.342337
-0.2,-0.2,0.6,-0.5235987755982988,-0.17453292519943286,-0.34906585039886584,1.7287403,1.470442,0.1683665,0.04284915,0.08490794,1.0277717,0.5693051,-0.53398585,1.6139059,-0.08571977,-0.93653923,-0.037797183,1.5171881,1.4183381
-0.2,-0.2,0.6,-0.5235987755982988,-0.17453292519943286,-0.34906585039886584,1.7606727,1.4877853,0.15891719,0.052381743,0.0938031,1.0329664,0.54193604,-0.5269251,1.6127183,-0.09417701,-0.9240518,-0.013054713,1.5254823,1.411896
-0.2,-0.2,0.6,-0.5235987755982988,-0.17453292519943286,-0.34906585039886584,1.7259395,1.4776365,0.15776362,0.060382333,0.08754403,1.025272,0.5832287,-0.51924866,1.6135474,-0.09622007,-0.91884893,-0.03821908,1.512924,1.3877429
-0.2,-0.2,0.6,-0.5235987755982988,-0.17453292519943286,-0.34906585039886584,1.7230242,1.4705883,0.17229429,0.05379396,0.089090765,1.0160463,0.5314805,-0.53491414,1.6168184,-0.086361036,-0.9228242,-0.040591978,1.5247562,1.4245324
-0.2,-0.2,0.6,-0.5235987755982988,-0.17453292519943286,-0.34906585039886584,1.7221556,1.4825782,0.16686264,0.05589894,0.111278795,1.0274985,0.5515916,-0.5374445,1.6088322,-0.08772866,-0.9340324,-0.00426388,1.5193915,1.2242526
-0.2,-0.2,0.6,-0.5235987755982988,-0.17453292519943286,-0.34906585039886584,1.7398919,1.4681709,0.15063402,0.053324345,0.072613746,1.0342867,0.5712404,-0.5355989,1.6148654,-0.08604723,-0.9160766,-0.025961041,1.5095567,1.5107087
-0.2,-0.2,0.6,-0.5235987755982988,-0.17453292519943286,-0.34906585039886584,1.7591071,1.4811372,0.15906353,0.04654262,0.09503794,1.0291263,0.53548473,-0.5285645,1.616429,-0.09636131,-0.9369883,0.02121546,1.5219244,1.2266631
-0.2,-0.2,0.6,-0.5235987755982988,-0.17453292519943286,-0.34906585039886584,1.7213808,1.4784405,0.16869488,0.039057128,0.09311695,1.0260094,0.5810325,-0.5319555,1.611913,-0.07618779,-0.9229797,-0.042071246,1.5160109,1.4560828
-0.2,-0.2,0.6,-0.5235987755982988,-0.17453292519943286,-0.34906585039886584,1.7474093,1.4809849,0.16477238,0.05284406,0.08686235,1.0267107,0.5845288,-0.5231424,1.6153291,-0.097912446,-0.92404413,-0.010887814,1.5138861,1.2053465
-0.2,-0.2,0.6,-0.5235987755982988,-0.17453292519943286,-0.34906585039886584,1.7447793,1.477208,0.16838312,0.051242743,0.083434686,1.029837,0.5280144,-0.5292611,1.6096085,-0.08201167,-0.93207717,-0.023939049,1.5109572,1.3191706
-0.2,-0.2,0.6,-0.5235987755982988,-0.17453292519943286,-0.34906585039886584,1.740568,1.4676934,0.16902119,0.05577667,0.09874857,1.027568,0.54271543,-0.54700875,1.6061764,-0.092647515,-0.92930466,0.00047730838,1.5085638,1.1767201
-0.2,-0.2,0.6,-0.5235987755982988,-0.17453292519943286,-0.34906585039886584,1.740949,1.4681239,0.15791163,0.05810697,0.09892247,1.0350888,0.5498813,-0.5352596,1.6125257,-0.09920594,-0.91045594,-0.02764371,1.5043496,1.3129591
-0.2,-0.2,0.6,-0.5235987755982988,-0.17453292519943286,-0.34906585039886584,1.7495635,1.4752972,0.1721266,0.0560285,0.09252247,1.031734,0.5358052,-0.54081935,1.6094815,-0.07119112,-0.92131746,-0.046531875,1.5173417,1.3599812
-0.2,-0.2,0.6,-0.5235987755982988,-0.17453292519943286,-0.34906585039886584,1.7412182,1.4887584,0.16373652,0.04886608,0.08698872,1.0392356,0.5377278,-0.5295993,1.6218224,-0.086410075,-0.92914534,-0.04202719,1.51767,1.4127285
-0.2,-0.2,0.6,-0.5235987755982988,-0.17453292519943286,-0.34906585039886584,1.7348301,1.478444,0.16205312,0.044185754,0.092193514,1.0343926,0.5564889,-0.5267124,1.6041138,-0.0836108,-0.9136532,-0.020651096,1.5140865,1.416086
-0.2,-0.2,0.6,-0.5235987755982988,-0.17453292519943286,-0.34906585039886584,1.7340909,1.4799011,0.16711971,0.043593626,0.07377916,1.03836,0.5537222,-0.53093064,1.6069673,-0.08530688,-0.93024737,-0.017883923,1.5045501,1.3660651
-0.2,-0.2,0.6,-0.5235987755982988,-0.17453292519943286,-0.34906585039886584,1.7398891,1.466258,0.16899964,0.043772593,0.09322849,1.0312861,0.54655725,-0.5291251,1.6173859,-0.095532596,-0.9181248,-0.010871397,1.524073,1.5251697
-0.2,-0.2,0.6,-0.5235987755982988,-0.17453292519943286,-0.34906585039886584,1.7368015,1.4753605,0.1737241,0.04535823,0.08093063,1.0311013,0.58058065,-0.53621095,1.6298352,-0.093513966,-0.92151916,-0.0047098557,1.5210133,1.372061
-0.2,-0.2,0.6,-0.5235987755982988,-0.17453292519943286,-0.34906585039886584,1.7359775,1.4755219,0.15481028,0.053589433,0.08956114,1.0270318,0.56488806,-0.5407005,1.6143454,-0.07879714,-0.91549057,-0.017163781,1.5097014,1.4567678
-0.2,-0.2,0.6,-0.5235987755982988,-0.17453292519943286,-0.34906585039886584,1.7387524,1.4959427,0.16810323,0.040758412,0.09922446,1.0317409,0.5882257,-0.5314405,1.6126561,-0.084138215,-0.9254901,-0.028854037,1.5038401,1.1371801
-0.2,-0.2,0.6,-0.5235987755982988,-0.17453292519943286,-0.34906585039886584,1.7352296,1.4736903,0.16905893,0.04971178,0.07652656,1.0366793,0.5694633,-0.5269745,1.613799,-0.09021631,-0.9403589,-0.02780106,1.5197643,1.1970942
-0.2,-0.2,0.6,-0.5235987755982988,-0.17453292519943286,-0.34906585039886584,1.747695,1.479206,0.15747587,0.060713362,0.080835454,1.0270338,0.5590981,-0.5352523,1.6149851,-0.068333894,-0.92014134,-0.051397014,1.4971341,1.1899036
-0.2,-0.2,0.6,-0.5235987755982988,-0.17453292519943286,-0.34906585039886584,1.7285802,1.4725884,0.16696781,0.05071195,0.09917498,1.0413289,0.5254628,-0.5448439,1.6150813,-0.08810189,-0.9294123,-0.0067011863,1.5126246,1.3249016
-0.2,-0.2,0.6,-0.5235987755982988,-0.17453292519943286,-0.34906585039886584,1.7424794,1.4772601,0.17273849,0.05453557,0.08696545,1.0295715,0.5513019,-0.52702135,1.6195304,-0.10159718,-0.9204339,-0.011365227,1.5264877,1.3801615
-0.2,-0.2,0.6,-0.5235987755982988,-0.17453292519943286,-0.34906585039886584,1.7344087,1.4805547,0.16634774,0.053688347,0.091172524,1.0320386,0.5575195,-0.5365291,1.6171165,-0.0783866,-0.9235974,-0.012824289,1.5237268,1.2898667
-0.2,-0.2,0.6,-0.5235987755982988,-0.17453292519943286,-0.34906585039886584,1.7140206,1.4746652,0.15798457,0.05078474,0.07704581,1.0337691,0.5470052,-0.5338328,1.6068479,-0.07821204,-0.9361717,-0.016173301,1.502762,1.29837
-0.2,-0.2,0.6,-0.5235987755982988,-0.17453292519943286,-0.34906585039886584,1.733,1.5006913,0.16225985,0.04317608,0.08847581,1.0376633,0.5417552,-0.5343709,1.6132903,-0.07080077,-0.92803824,-0.035571996,1.5211674,1.458386
-0.2,-0.2,0.6,-0.5235987755982988,-0.17453292519943286,-0.34906585039886584,1.7568517,1.4697788,0.16098727,0.049554016,0.105090424,1.0339795,0.5309667,-0.5383619,1.6129066,-0.07169452,-0.9153423,-0.06443359,1.5070823,1.3316358
-0.2,-0.2,0.6,-0.5235987755982988,-0.17453292519943286,-0.34906585039886584,1.7372328,1.4670384,0.15889895,0.052977778,0.094387576,1.0311015,0.56351423,-0.5322988,1.6065536,-0.09880006,-0.9158827,-0.012580981,1.5138011,1.3970729
-0.2,-0.2,0.6,-0.5235987755982988,-0.17453292519943286,-0.34906585039886584,1.7201589,1.4790308,0.16268446,0.04958801,0.09566881,1.0310823,0.57070255,-0.53279257,1.6102263,-0.09220614,-0.93197405,-0.014769535,1.5232444,1.4059736
-0.2,-0.2,0.6,-0.5235987755982988,-0.17453292519943286,-0.34906585039886584,1.7374012,1.4832445,0.16061485,0.04693586,0.086022556,1.0283597,0.5445737,-0.51824784,1.6075996,-0.08109044,-0.9242548,-0.04690681,1.5065855,1.4435166
-0.2,-0.2,0.6,-0.5235987755982988,-0.17453292519943286,-0.34906585039886584,1.731143,1.4766552,0.15695776,0.046867404,0.107578754,1.0265472,0.54531795,-0.5363906,1.6140817,-0.07569223,-0.91792494,-0.02662829,1.5003061,1.3603753
-0.2,-0.2,0.6,-0.5235987755982988,-0.17453292519943286,-0.34906585039886584,1.7629589,1.4821824,0.15862976,0.044227254,0.07012862,1.0247238,0.56579703,-0.5337817,1.6150279,-0.10321492,-0.9378595,-0.0070907697,1.5054959,1.3658916
-0.2,-0.2,0.6,-0.5235987755982988,-0.17453292519943286,-0.34906585039886584,1.7329581,1.4771594,0.16677074,0.05216294,0.09955727,1.0319152,0.5594614,-0.5329894,1.611115,-0.09460337,-0.9268701,-0.038678993,1.5109506,1.2895769
-0.2,-0.2,0.6,-0.5235987755982988,-0.17453292519943286,-0.34906585039886584,1.7492625,1.4929407,0.16009788,0.044868164,0.08128168,1.0255458,0.5645904,-0.52615416,1.6079199,-0.0733749,-0.9267322,-0.059379827,1.5037313,1.4004319
-0.2,-0.2,0.6,-0.5235987755982988,-0.17453292519943286,-0.34906585039886584,1.7390147,1.4680725,0.16760789,0.03703931,0.08864878,1.0244248,0.53789264,-0.5404322,1.6173483,-0.08597549,-0.9348083,-0.028953312,1.5092677,1.5229031
-0.2,-0.2,0.6,-0.5235987755982988,-0.17453292519943286,-0.34906585039886584,1.7344759,1.4716258,0.16269378,0.049668748,0.07861406,1.0381312,0.58029056,-0.5315896,1.608969,-0.07957685,-0.91920954,-0.0046783052,1.5180203,1.2393782
-0.2,-0.2,0.6,-0.5235987755982988,-0.17453292519943286,-0.34906585039886584,1.7684302,1.4876287,0.1616604,0.0485479,0.08191356,1.0336337,0.57157665,-0.53295124,1.6128334,-0.08935093,-0.91938394,-0.032285538,1.5036569,1.3144779
-0.2,-0.2,0.6,-0.5235987755982988,-0.17453292519943286,-0.34906585039886584,1.7218758,1.4739426,0.1629773,0.03963467,0.09699917,1.0269291,0.54485595,-0.53047866,1.620382,-0.07029216,-0.9330111,-0.042562384,1.5132115,1.4302665
-0.2,-0.2,0.6,-0.5235987755982988,-0.17453292519943286,-0.34906585039886584,1.7467486,1.4550205,0.15931451,0.03237164,0.08248024,1.0299474,0.55238146,-0.5221193,1.6160809,-0.08709389,-0.92713207,-0.031182904,1.5016207,1.3827027
-0.2,-0.2,0.6,-0.5235987755982988,-0.17453292519943286,-0.34906585039886584,1.752334,1.477253,0.15661727,0.05187919,0.086887695,1.0260814,0.56566775,-0.53343517,1.6132607,-0.09016629,-0.91711676,-0.005551685,1.5130302,1.3845286
-0.2,-0.2,0.6,-0.5235987755982988,-0.17453292519943286,-0.34906585039886584,1.7239739,1.4684255,0.16363719,0.043855365,0.095901735,1.0224429,0.5651214,-0.5350264,1.607582,-0.09287506,-0.9378068,-0.024238791,1.5124549,1.3896043
-0.2,-0.2,0.6,-0.5235987755982988,-0.17453292519943286,-0.34906585039886584,1.7365593,1.4752439,0.1566793,0.035076022,0.0797485,1.0336869,0.56141084,-0.51760304,1.620647,-0.08385928,-0.9319459,-0.015149871,1.5147096,1.3098955
-0.2,-0.2,0.6,-0.5235987755982988,-0.17453292519943286,-0.34906585039886584,1.7272915,1.4801493,0.16165037,0.0351787,0.1017177,1.0311594,0.5691767,-0.53330314,1.6241797,-0.09442131,-0.9252685,-0.015247469,1.487517,1.2707027
-0.2,-0.2,0.6,-0.5235987755982988,-0.17453292519943286,-0.34906585039886584,1.7272056,1.4605914,0.15302923,0.045204572,0.07295057,1.0345904,0.5509531,-0.5371099,1.6096237,-0.09189418,-0.9327866,-0.042691328,1.5044081,1.4720345
-0.2,-0.2,0.6,-0.5235987755982988,-0.17453292519943286,-0.34906585039886584,1.7203411,1.4831473,0.16199313,0.054565802,0.087946214,1.0237796,0.56213564,-0.5338809,1.6053579,-0.0804154,-0.9222694,-0.019273045,1.4962049,1.3091296
-0.2,-0.2,0.6,-0.5235987755982988,-0.17453292519943286,-0.34906585039886584,1.7507756,1.4675082,0.16194463,0.039247926,0.091211624,1.0257705,0.55523986,-0.5313915,1.6123744,-0.080627926,-0.92626506,-0.035354458,1.4969307,1.2959856
-0.2,-0.2,0.6,-0.5235987755982988,-0.17453292519943286,-0.34906585039886584,1.7358907,1.4673092,0.1560128,0.047588725,0.083961524,1.0239878,0.58255374,-0.5291295,1.6107398,-0.080140464,-0.92363995,-0.028916609,1.5153924,1.3976206
-0.2,-0.2,0.6,-0.5235987755982988,-0.17453292519943286,-0.34906585039886584,1.7544427,1.4824824,0.15567534,0.05141368,0.08265724,1.021627,0.5501626,-0.53008926,1.6156733,-0.07214634,-0.93495715,-0.033008374,1.5165162,1.3825545
-0.2,-0.2,0.6,-0.5235987755982988,-0.17453292519943286,-0.34906585039886584,1.7516956,1.480006,0.16801454,0.04847176,0.08605456,1.030728,0.54416555,-0.5404493,1.6102664,-0.08634493,-0.9214844,-0.013632888,1.5069697,1.3474976
-0.2,-0.2,0.6,-0.5235987755982988,-0.17453292519943286,-0.34906585039886584,1.7741969,1.4853833,0.15785727,0.04660941,0.09636253,1.0362649,0.5268743,-0.53061426,1.6163293,-0.080689475,-0.91931397,-0.019751722,1.5123705,1.2748928
-0.2,-0.2,0.6,-0.5235987755982988,-0.17453292519943286,-0.34906585039886584,1.7594748,1.471411,0.16913167,0.037403997,0.10116992,1.0267668,0.5679973,-0.5344778,1.6115538,-0.087866716,-0.9263001,-0.031235063,1.510381,1.3245342
-0.2,-0.2,0.6,-0.5235987755982988,-0.17453292519943286,-0.34906585039886584,1.73212,1.4719185,0.16302608,0.057242136,0.08060953,1.0331377,0.5575963,-0.5447658,1.6225365,-0.08634407,-0.9287918,-0.03426299,1.5197915,1.3604084
-0.2,-0.2,0.6,-0.5235987755982988,-0.17453292519943286,-0.34906585039886584,1.7288775,1.4830642,0.16255772,0.048634466,0.0906677,1.0292883,0.54751736,-0.5263175,1.6153377,-0.082358554,-0.9280798,-0.054428842,1.5113728,1.4256077
-0.2,-0.2,0.6,-0.5235987755982988,-0.17453292519943286,-0.34906585039886584,1.7276726,1.4797604,0.15155631,0.052812662,0.07123861,1.0264692,0.547588,-0.5304322,1.6039973,-0.081696354,-0.91967815,-0.03443494,1.4943407,1.4824818
-0.2,-0.2,0.6,-0.5235987755982988,-0.17453292519943286,-0.34906585039886584,1.7440767,1.4727958,0.1614329,0.048823915,0.09620358,1.0246922,0.56779265,-0.5269385,1.6116588,-0.07910451,-0.9264628,-0.019163553,1.511124,1.1774418
-0.2,-0.2,0.6,-0.5235987755982988,-0.17453292519943286,-0.34906585039886584,1.7307192,1.4742168,0.15975967,0.041592564,0.08931391,1.041857,0.573585,-0.53339887,1.6112534,-0.079748236,-0.9252712,-0.035615467,1.5048316,1.2611008
-0.2,-0.2,0.6,-0.5235987755982988,-0.17453292519943286,-0.34906585039886584,1.7224593,1.4757103,0.16407049,0.050101615,0.074833356,1.0335828,0.5751852,-0.52337694,1.6095673,-0.076129414,-0.9268471,-0.019334415,1.521066,1.2871902
-0.2,-0.2,0.6,-0.5235987755982988,-0.17453292519943286,-0.34906585039886584,1.7273929,1.4715071,0.15827413,0.03607052,0.08778385,1.0353411,0.56177086,-0.5293806,1.6123619,-0.0841514,-0.91897535,0.0042286487,1.5070289,1.3501402
-0.2,-0.2,0.6,-0.5235987755982988,-0.17453292519943286,-0.34906585039886584,1.7252381,1.4783057,0.1692656,0.04760304,0.100365,1.0449767,0.562327,-0.53740084,1.6213707,-0.08208216,-0.9225003,-0.054199435,1.5252911,1.3991207
-0.2,-0.2,0.6,-0.5235987755982988,-0.17453292519943286,-0.34906585039886584,1.7202128,1.4626775,0.15967655,0.049255922,0.11039247,1.0243387,0.56259996,-0.5459822,1.6126086,-0.09579002,-0.9413864,-0.031499736,1.5183592,1.3800321
-0.2,-0.2,0.6,-0.5235987755982988,-0.17453292519943286,-0.34906585039886584,1.705492,1.4783756,0.15808813,0.052656945,0.07309849,1.0407752,0.5555945,-0.53665286,1.6100799,-0.076020405,-0.9250423,0.0026037528,1.5067692,1.2850562
-0.2,-0.2,0.6,-0.5235987755982988,-0.17453292519943286,-0.34906585039886584,1.7259594,1.4818996,0.16129299,0.04540686,0.09352205,1.0347944,0.5417624,-0.5340169,1.6115708,-0.093748786,-0.936988,-0.019038163,1.5215985,1.5638684
-0.2,-0.2,0.6,-0.5235987755982988,-0.17453292519943286,-0.34906585039886584,1.7323354,1.4828563,0.16269454,0.052881755,0.09213843,1.0338396,0.55288595,-0.53741246,1.6081398,-0.076561764,-0.92518365,-0.0526584,1.5122463,1.3969477
-0.2,-0.2,0.6,-0.5235987755982988,-0.17453292519943286,-0.34906585039886584,1.7060095,1.4798433,0.16334593,0.04298279,0.087759264,1.0244361,0.5656172,-0.5268891,1.6139975,-0.085392065,-0.92788064,0.020079138,1.5216142,1.389567
-0.2,-0.2,0.6,-0.5235987755982988,-0.17453292519943286,-0.34906585039886584,1.7485628,1.4745666,0.1604561,0.048209783,0.09952219,1.0262213,0.5568597,-0.5303944,1.6220644,-0.08241824,-0.92792755,-0.028593395,1.5245332,1.3713278
-0.2,-0.2,0.6,-0.5235987755982988,-0.17453292519943286,-0.34906585039886584,1.7655125,1.479768,0.16365045,0.041713297,0.08136027,1.031653,0.54999346,-0.5314499,1.614803,-0.10772247,-0.9343002,-0.0039142463,1.5320911,1.4559165
-0.2,-0.2,0.6,-0.5235987755982988,-0.17453292519943286,-0.34906585039886584,1.7309613,1.4681262,0.15586616,0.061571803,0.08629419,1.0281723,0.5393523,-0.53922695,1.6135451,-0.08697956,-0.9244889,-0.03440819,1.5130243,1.3955507
-0.2,-0.2,0.6,-0.5235987755982988,-0.17453292519943286,-0.34906585039886584,1.7299262,1.4657806,0.17284007,0.04081126,0.074782096,1.0261494,0.58149576,-0.53621036,1.6169803,-0.08618225,-0.93888366,-0.0077744466,1.5264385,1.418423
-0.2,-0.2,0.6,-0.5235987755982988,-0.17453292519943286,-0.34906585039886584,1.7042354,1.483782,0.16078791,0.049454134,0.082745515,1.020334,0.5760724,-0.53301984,1.6097026,-0.08447441,-0.9213167,0.0032018842,1.5036066,1.4827391
-0.2,-0.2,0.6,-0.5235987755982988,-0.17453292519943286,-0.34906585039886584,1.7359072,1.4843944,0.15998128,0.047967788,0.082654186,1.0320842,0.565324,-0.5343292,1.6146029,-0.09984516,-0.91979986,0.008937832,1.5264806,1.5109282
-0.2,-0.2,0.6,-0.5235987755982988,-0.17453292519943286,-0.34906585039886584,1.7647548,1.472873,0.16140108,0.053717494,0.09136155,1.029832,0.53588647,-0.5316769,1.6104845,-0.082428284,-0.92487353,-0.016386556,1.5169915,1.2751136
-0.2,-0.2,0.6,-0.5235987755982988,-0.17453292519943286,-0.34906585039886584,1.7188431,1.4842259,0.16191278,0.04500056,0.083485246,1.031658,0.57223433,-0.5290332,1.6129551,-0.08763808,-0.9176302,-0.0284693,1.5114212,1.465396
-0.2,-0.2,0.6,-0.5235987755982988,-0.17453292519943286,-0.34906585039886584,1.7422599,1.4780484,0.15799755,0.04548786,0.10525042,1.0328711,0.54388916,-0.53207844,1.6123682,-0.0851055,-0.9309512,-0.03788752,1.5255992,1.4281948
-0.2,-0.2,0.6,-0.5235987755982988,-0.17453292519943286,-0.34906585039886584,1.7330549,1.4725106,0.1701134,0.04441845,0.08128468,1.0393504,0.52547526,-0.5359622,1.6105295,-0.08866934,-0.9204068,-0.044528984,1.4951601,1.4108107
-0.2,-0.2,0.6,-0.5235987755982988,-0.17453292519943286,-0.34906585039886584,1.739186,1.4740615,0.16000685,0.034088116,0.092787094,1.0257442,0.56283283,-0.5344885,1.6015131,-0.094783224,-0.92964727,-0.016865239,1.5120034,1.5651506
-0.2,-0.2,0.6,-0.5235987755982988,-0.17453292519943286,-0.34906585039886584,1.7556431,1.4777341,0.15766324,0.044713672,0.09767406,1.0273405,0.5521363,-0.53461295,1.6133192,-0.08156762,-0.9331725,-0.016972587,1.5059015,1.2384292
-0.2,-0.2,0.6,-0.5235987755982988,-0.17453292519943286,-0.34906585039886584,1.7129682,1.4866252,0.15950121,0.052906852,0.08846443,1.0297065,0.57233936,-0.5319782,1.6140914,-0.08610912,-0.9324706,0.0006826001,1.5085034,1.2610244
-0.2,-0.2,0.6,-0.5235987755982988,-0.17453292519943286,-0.34906585039886584,1.7428745,1.4807657,0.1649633,0.04714716,0.083115965,1.0255115,0.5525154,-0.5254155,1.6178814,-0.10136451,-0.923268,0.0045399526,1.5211092,1.4633462
-0.2,-0.2,0.6,-0.5235987755982988,-0.17453292519943286,-0.34906585039886584,1.7362045,1.4765724,0.16758217,0.048744377,0.08394642,1.0284538,0.54004383,-0.5291851,1.6106627,-0.082915574,-0.9170239,0.010765149,1.5159768,1.3819801
-0.2,-0.2,0.6,-0.5235987755982988,-0.17453292519943286,-0.34906585039886584,1.7320676,1.467564,0.15188764,0.047704324,0.09870115,1.0246063,0.5513307,-0.5295776,1.6152261,-0.084283724,-0.92461944,-0.055853646,1.5085562,1.459655
-0.2,-0.2,0.6,-0.5235987755982988,-0.17453292519943286,-0.34906585039886584,1.7444645,1.4864753,0.16044728,0.049440656,0.10417211,1.0309789,0.56228083,-0.537951,1.6146442,-0.087624304,-0.9174309,-0.0052990536,1.5088822,1.2345031
-0.2,-0.2,0.6,-0.5235987755982988,-0.17453292519943286,-0.34906585039886584,1.738907,1.4656699,0.15771273,0.05326348,0.08052632,1.0321091,0.5804929,-0.5383267,1.6094588,-0.08521006,-0.9253398,-0.013688133,1.5246652,1.4013655
-0.2,-0.2,0.6,-0.5235987755982988,-0.17453292519943286,-0.34906585039886584,1.74041,1.4866003,0.1578644,0.04212915,0.10360582,1.0324457,0.56425697,-0.54022306,1.6138304,-0.08541857,-0.9274405,-0.0130248,1.5127462,1.3953795
-0.2,-0.2,0.6,-0.5235987755982988,-0.17453292519943286,-0.34906585039886584,1.7300415,1.4649243,0.15894054,0.05081676,0.093836956,1.0207481,0.5525532,-0.53426015,1.617629,-0.073631346,-0.9251553,-0.04501966,1.5176102,1.5542552
-0.2,-0.2,0.6,-0.5235987755982988,-0.17453292519943286,-0.34906585039886584,1.7309527,1.4695209,0.16228323,0.0400576,0.090251915,1.0306368,0.56326485,-0.53644,1.6090647,-0.07667684,-0.9288736,-0.042240545,1.5117208,1.4218123
-0.2,-0.2,0.6,-0.5235987755982988,-0.17453292519943286,-0.34906585039886584,1.7260704,1.485214,0.16270286,0.051282436,0.095033,1.0255767,0.5866091,-0.5270475,1.61389,-0.08261257,-0.91435784,-0.034016475,1.5056902,1.3160328
-0.2,-0.2,0.6,-0.5235987755982988,-0.17453292519943286,-0.34906585039886584,1.7204893,1.4722853,0.15621264,0.05227035,0.092911124,1.0240207,0.570695,-0.53547883,1.611192,-0.087135375,-0.92598283,-0.018779567,1.5078102,1.4581366
-0.2,-0.2,0.6,-0.5235987755982988,-0.17453292519943286,-0.34906585039886584,1.7382581,1.4693406,0.16178383,0.048661977,0.09081004,1.0245001,0.55175453,-0.5243318,1.6145955,-0.082122676,-0.9197637,-0.031612355,1.501162,1.2887876
-0.2,-0.2,0.6,-0.5235987755982988,-0.17453292519943286,-0.34906585039886584,1.7441858,1.4713606,0.17030948,0.036584545,0.09053687,1.0218303,0.5766975,-0.53153044,1.6129446,-0.09132319,-0.9351552,-0.005960946,1.5147333,1.2806921
-0.2,-0.2,0.6,-0.5235987755982988,-0.17453292519943286,-0.34906585039886584,1.7265774,1.4698181,0.1549743,0.03772556,0.09194048,1.0353578,0.55485076,-0.5259781,1.6086457,-0.07400303,-0.9352418,-0.016965644,1.5084279,1.2049209
-0.2,-0.2,0.6,-0.5235987755982988,-0.17453292519943286,-0.34906585039886584,1.7467229,1.4711654,0.16162774,0.043292556,0.100325555,1.0316882,0.5380216,-0.5382122,1.6102009,-0.08273665,-0.9234452,-0.016831484,1.5055276,1.3201965
-0.2,-0.2,0.6,-0.5235987755982988,-0.17453292519943286,-0.34906585039886584,1.7186137,1.4767236,0.15790641,0.041403696,0.09620923,1.0333555,0.5554287,-0.53291297,1.6164246,-0.07784103,-0.931796,-0.024194332,1.5238562,1.5260043
-0.2,-0.2,0.6,-0.5235987755982988,-0.17453292519943286,-0.34906585039886584,1.7294271,1.4698734,0.16518214,0.045625024,0.07719407,1.0297846,0.54562324,-0.5298044,1.6091795,-0.0936683,-0.92407084,-0.023268225,1.5047954,1.5265337
-0.2,-0.2,0.6,-0.5235987755982988,-0.17453292519943286,-0.34906585039886584,1.7321615,1.4814389,0.16472736,0.047519326,0.11276274,1.0309677,0.53735876,-0.53973407,1.6065001,-0.0849833,-0.91545576,0.012391332,1.5075123,1.2681047
-0.2,-0.2,0.6,-0.5235987755982988,-0.17453292519943286,-0.34906585039886584,1.7452787,1.4808898,0.16383946,0.049271755,0.08852034,1.0319549,0.5542741,-0.53475493,1.6088078,-0.08643862,-0.92299336,-0.017820975,1.519722,1.3960422
-0.2,-0.2,0.6,-0.5235987755982988,-0.17453292519943286,-0.34906585039886584,1.7505897,1.4870578,0.16341135,0.04295027,0.09136627,1.0271268,0.57105905,-0.52990913,1.6175925,-0.06987133,-0.92617625,-0.051995553,1.5112154,1.3727083
-0.2,-0.2,0.6,-0.5235987755982988,-0.17453292519943286,-0.34906585039886584,1.7369744,1.4656961,0.1612255,0.045213286,0.08130601,1.0271486,0.57283175,-0.5334134,1.6211284,-0.10111074,-0.9328161,-0.015346373,1.5090535,1.3484236
-0.2,-0.2,0.6,-0.5235987755982988,-0.17453292519943286,-0.34906585039886584,1.7249111,1.4874532,0.15932038,0.044796877,0.086688854,1.0301305,0.5629931,-0.5345797,1.6158502,-0.07249879,-0.9204864,-0.047492985,1.5067085,1.4415096
-0.2,-0.2,0.6,-0.5235987755982988,-0.17453292519943286,-0.34906585039886584,1.7387449,1.4633254,0.16810326,0.04730806,0.08371443,1.0363274,0.56043726,-0.5290736,1.6056167,-0.09204845,-0.91607565,-0.015934851,1.517242,1.3502728
-0.2,-0.2,0.6,-0.5235987755982988,-0.17453292519943286,-0.34906585039886584,1.7461518,1.4670573,0.16000535,0.044853203,0.09243115,1.0320868,0.54423594,-0.53543454,1.6124384,-0.08224635,-0.9248027,-0.026618892,1.5102031,1.3388819
-0.2,-0.2,0.6,-0.5235987755982988,-0.17453292519943286,-0.34906585039886584,1.7570162,1.4687002,0.16883622,0.05026965,0.083216116,1.0221044,0.54564595,-0.52756435,1.6142825,-0.07936085,-0.9153207,-0.041846804,1.5105399,1.3825217
-0.2,-0.2,0.6,-0.5235987755982988,-0.17453292519943286,-0.34906585039886584,1.7446741,1.4794608,0.16039962,0.059313376,0.07761365,1.0323403,0.5642519,-0.5334116,1.6080686,-0.08041788,-0.92246485,-0.022585815,1.5025686,1.1989594
-0.2,-0.2,0.6,-0.5235987755982988,-0.17453292519943286,-0.34906585039886584,1.7559732,1.4756042,0.15401484,0.048155665,0.10303618,1.0396402,0.53518635,-0.5282392,1.6169248,-0.095664755,-0.92551297,-0.008256206,1.5274205,1.4006852
-0.2,-0.2,0.6,-0.5235987755982988,-0.17453292519943286,-0.34906585039886584,1.7245334,1.4779637,0.15365487,0.051755816,0.09378981,1.0291471,0.54797596,-0.53483444,1.6086509,-0.07068157,-0.9229292,-0.0011647029,1.5141345,1.3376228
-0.2,-0.2,0.6,-0.5235987755982988,-0.17453292519943286,-0.34906585039886584,1.7563485,1.4903314,0.16745156,0.043623265,0.07957326,1.0305871,0.5991985,-0.53129065,1.6045134,-0.09008778,-0.9372187,-0.024556119,1.5262538,1.3764971
-0.2,-0.2,0.6,-0.5235987755982988,-0.17453292519943286,-0.34906585039886584,1.7272371,1.467035,0.1634962,0.05340949,0.0818223,1.0243266,0.54533327,-0.54647255,1.6157193,-0.07971651,-0.9101139,-0.04630897,1.5068032,1.3932841
-0.2,-0.2,0.6,-0.5235987755982988,-0.17453292519943286,-0.34906585039886584,1.7344822,1.4876034,0.15894471,0.05148794,0.09815158,1.0332655,0.5592875,-0.54509795,1.6121657,-0.085973054,-0.91317594,-0.022015382,1.5065827,1.3701242
-0.2,-0.2,0.6,-0.5235987755982988,-0.17453292519943286,-0.34906585039886584,1.7364897,1.4763762,0.16665682,0.05712817,0.09974698,1.0308583,0.55507016,-0.533334,1.6108537,-0.08118233,-0.9211223,-0.03394546,1.5148845,1.2458302
-0.2,-0.2,0.6,-0.5235987755982988,-0.17453292519943286,-0.34906585039886584,1.7558533,1.4831886,0.16095114,0.054929964,0.08079256,1.0356417,0.5473427,-0.54079753,1.6075464,-0.08597839,-0.9131112,-0.018576121,1.5159163,1.341337
-0.2,-0.2,0.6,-0.5235987755982988,-0.17453292519943286,-0.34906585039886584,1.7173994,1.4669198,0.1639729,0.048878383,0.10085924,1.0358999,0.55513316,-0.53130585,1.6098808,-0.07382574,-0.92017865,-0.051368464,1.5089018,1.3153588
-0.2,-0.2,0.6,-0.5235987755982988,-0.17453292519943286,-0.34906585039886584,1.7439181,1.4760565,0.1614521,0.034677148,0.079365656,1.0297488,0.5946021,-0.54015034,1.6145397,-0.07200653,-0.9237065,-0.03299135,1.5141414,1.4375036
-0.2,-0.2,0.6,-0.5235987755982988,-0.17453292519943286,-0.34906585039886584,1.7545472,1.4756844,0.17239982,0.043436408,0.085340865,1.0181421,0.5275252,-0.53576875,1.6090845,-0.102393284,-0.93455774,-0.013258441,1.5274849,1.554291
-0.2,-0.2,0.6,-0.5235987755982988,-0.17453292519943286,-0.34906585039886584,1.7121171,1.4704518,0.15999886,0.042489946,0.08352614,1.0234238,0.5509874,-0.52722067,1.6166419,-0.08312526,-0.92046523,0.020159317,1.5182678,1.5758584
-0.2,-0.2,0.6,-0.5235987755982988,-0.17453292519943286,-0.34906585039886584,1.7298372,1.4814928,0.16311343,0.04736696,0.099050224,1.0228543,0.5589589,-0.5239578,1.613866,-0.09343424,-0.9277008,-0.045373634,1.5039928,1.3672227
-0.2,-0.2,0.6,-0.5235987755982988,-0.17453292519943286,-0.34906585039886584,1.741334,1.4756826,0.16088104,0.05293077,0.083695166,1.0397748,0.5676843,-0.5470055,1.6091778,-0.077022746,-0.92130846,-0.02964895,1.5096405,1.2663703
-0.2,-0.2,0.6,-0.5235987755982988,-0.17453292519943286,-0.34906585039886584,1.726284,1.4777174,0.16534889,0.057523843,0.08799538,1.027058,0.55649513,-0.5233173,1.6140124,-0.08562226,-0.9198872,-0.01567142,1.5122367,1.2585196
-0.2,-0.2,0.6,-0.5235987755982988,-0.17453292519943286,-0.34906585039886584,1.7173339,1.4729407,0.16240673,0.047591988,0.09928924,1.0290774,0.5613864,-0.5314189,1.6205451,-0.09191212,-0.921115,0.023886042,1.5282748,1.3218079
-0.2,-0.2,0.6,-0.5235987755982988,-0.17453292519943286,-0.34906585039886584,1.730152,1.4819757,0.16025135,0.04909992,0.0943376,1.0342338,0.55743635,-0.52638537,1.6145536,-0.08310124,-0.9365554,-0.035776164,1.5229652,1.3453593
-0.2,-0.2,0.6,-0.5235987755982988,-0.17453292519943286,-0.34906585039886584,1.7455028,1.4813284,0.15302579,0.032073826,0.10680917,1.0336422,0.5524939,-0.52604294,1.6187873,-0.07949932,-0.91839767,-0.028085094,1.5005165,1.3035352
-0.2,-0.2,0.6,-0.5235987755982988,-0.17453292519943286,-0.34906585039886584,1.7330028,1.4835848,0.16451214,0.0445203,0.08740135,1.0376275,0.56408566,-0.5277632,1.622281,-0.105473824,-0.92743516,-0.022440165,1.5161563,1.376827
-0.2,-0.2,0.6,-0.5235987755982988,-0.17453292519943286,-0.34906585039886584,1.7336885,1.4671044,0.1480237,0.047517125,0.09413454,1.0250591,0.5532649,-0.5327041,1.6085098,-0.09051521,-0.9211174,-0.005867338,1.5026572,1.4010324
-0.2,-0.2,0.6,-0.5235987755982988,-0.17453292519943286,-0.34906585039886584,1.7023203,1.4509748,0.16434848,0.045749128,0.08250068,1.0341852,0.5479398,-0.5265768,1.6139437,-0.089250706,-0.93453395,-0.010477994,1.5112981,1.3274848
-0.2,-0.2,0.6,-0.5235987755982988,-0.17453292519943286,-0.34906585039886584,1.7295525,1.4637424,0.16507493,0.05431115,0.08035599,1.0360893,0.5459203,-0.5384528,1.6196729,-0.09387238,-0.9219875,-0.022485904,1.5011923,1.2970735
-0.2,-0.2,0.6,-0.5235987755982988,-0.17453292519943286,-0.34906585039886584,1.7491546,1.4839354,0.15925531,0.055617526,0.10097067,1.023977,0.54887086,-0.5281474,1.6085991,-0.08301331,-0.91725975,-0.004999394,1.5154357,1.2757308
-0.2,-0.2,0.6,-0.5235987755982988,-0.17453292519943286,-0.34906585039886584,1.7428371,1.4739394,0.15460014,0.03984003,0.09623067,1.0326287,0.5564047,-0.52471006,1.6090204,-0.08043941,-0.9158747,-0.019099116,1.5099856,1.3456397
-0.2,-0.2,0.6,-0.5235987755982988,-0.17453292519943286,-0.34906585039886584,1.7419525,1.487198,0.16140239,0.055784676,0.09905977,1.0198969,0.5389716,-0.5375725,1.6183035,-0.082946286,-0.9374934,-0.036270924,1.5242025,1.5085621
-0.2,-0.2,0.6,-0.5235987755982988,-0.17453292519943286,-0.34906585039886584,1.7033634,1.4829198,0.17187558,0.05628342,0.082917206,1.0312248,0.5742317,-0.51623255,1.618613,-0.092128284,-0.9194515,-0.017086491,1.5238509,1.3319057
-0.2,-0.2,0.6,-0.5235987755982988,-0.17453292519943286,-0.34906585039886584,1.7403336,1.4704907,0.16588652,0.047790933,0.0910977,1.0302087,0.5458462,-0.53409576,1.6123796,-0.07291698,-0.9250571,-0.03066522,1.5222479,1.3257786
-0.2,-0.2,0.6,-0.5235987755982988,-0.17453292519943286,-0.34906585039886584,1.746439,1.472952,0.16749643,0.040803332,0.08516292,1.0327379,0.5605039,-0.5328104,1.6151094,-0.083203405,-0.9169938,-0.05444962,1.5145751,1.4511904
-0.2,-0.2,0.6,-0.5235987755982988,-0.17453292519943286,-0.34906585039886584,1.7436856,1.4951695,0.16075642,0.037644554,0.09334227,1.0314124,0.5493011,-0.52250457,1.6147778,-0.07501039,-0.9178657,-0.008598325,1.5161529,1.3584245
-0.2,-0.2,0.6,-0.5235987755982988,-0.17453292519943286,-0.34906585039886584,1.7278236,1.4938352,0.16143438,0.04620134,0.09906254,1.0225512,0.5377956,-0.5345669,1.6108831,-0.08692261,-0.9249342,-0.019737136,1.5016489,1.4756417
-0.2,-0.2,0.6,-0.5235987755982988,-0.17453292519943286,-0.34906585039886584,1.7116762,1.4675711,0.1599439,0.06118628,0.08681971,1.0349934,0.569135,-0.5356048,1.6119322,-0.08988747,-0.92469585,-0.030502925,1.5025287,1.2124102
-0.2,-0.2,0.6,-0.5235987755982988,-0.17453292519943286,-0.34906585039886584,1.7491875,1.4681137,0.15357979,0.046204224,0.1044674,1.0431167,0.58083576,-0.5276267,1.6108657,-0.08920427,-0.908049,-0.007625499,1.5146867,1.2319107
-0.2,-0.2,0.6,-0.5235987755982988,-0.17453292519943286,-0.34906585039886584,1.735678,1.4791398,0.16775587,0.038905293,0.079836905,1.0298308,0.5744063,-0.5367294,1.610692,-0.081486866,-0.91767293,-0.03235799,1.5055412,1.4354343
-0.2,-0.2,0.6,-0.5235987755982988,-0.17453292519943286,-0.34906585039886584,1.7360274,1.4639562,0.16102807,0.04769558,0.09781335,1.0256983,0.5518678,-0.5279982,1.6052154,-0.08512072,-0.920411,-0.017467853,1.5233599,1.4152583
-0.2,-0.2,0.6,-0.5235987755982988,-0.17453292519943286,-0.34906585039886584,1.7478743,1.471079,0.155114,0.04320084,0.09542941,1.0309713,0.54503083,-0.5417844,1.6115224,-0.07053763,-0.92580235,-0.04798784,1.5145212,1.4347942
-0.2,-0.2,0.6,-0.5235987755982988,-0.17453292519943286,-0.34906585039886584,1.7267518,1.4740216,0.16998528,0.040511873,0.099902004,1.0345681,0.5679784,-0.5368363,1.6087939,-0.081713594,-0.9195717,-0.019964699,1.509995,1.0832244
-0.2,-0.2,0.6,-0.5235987755982988,-0.17453292519943286,-0.34906585039886584,1.7297771,1.4693521,0.1651343,0.049306884,0.09521378,1.030088,0.5978672,-0.5342328,1.6166171,-0.08810984,-0.91666514,-0.01744151,1.5218472,1.2644076
-0.2,-0.2,0.6,-0.5235987755982988,-0.17453292519943286,-0.34906585039886584,1.7305377,1.4675645,0.16702856,0.04362218,0.085567385,1.0359776,0.54171985,-0.53107375,1.6066725,-0.0864628,-0.9308746,-0.032050554,1.5203958,1.4471419
-0.2,-0.2,0.6,-0.5235987755982988,-0.17453292519943286,-0.34906585039886584,1.7415175,1.468883,0.1620743,0.04688808,0.08196864,1.0299382,0.5563604,-0.5375103,1.6134366,-0.08025721,-0.9174172,-0.056466535,1.5176105,1.417052
-0.2,-0.2,0.6,-0.5235987755982988,-0.17453292519943286,-0.34906585039886584,1.7544138,1.4856606,0.15681897,0.035775516,0.08428751,1.0309026,0.591088,-0.53344244,1.6064763,-0.09621853,-0.92667764,-0.04475873,1.5101776,1.6150823
-0.2,-0.2,0.6,-0.5235987755982988,-0.17453292519943286,-0.34906585039886584,1.7459021,1.4813261,0.16955791,0.042171787,0.073197104,1.032647,0.54558414,-0.53673184,1.606943,-0.092923984,-0.9262916,0.011858787,1.5079488,1.3467298
-0.2,-0.2,0.6,-0.5235987755982988,-0.17453292519943286,-0.34906585039886584,1.7311977,1.4859437,0.15814196,0.03789743,0.11216145,1.0297076,0.5458372,-0.54054946,1.6127056,-0.09047008,-0.9250418,-0.0041736346,1.5090495,1.4307439
-0.2,-0.2,0.6,-0.5235987755982988,-0.17453292519943286,-0.34906585039886584,1.7500079,1.4666657,0.1616515,0.044615526,0.09117997,1.0243275,0.5371462,-0.5410957,1.6135415,-0.09315156,-0.9335475,-0.017240137,1.5154487,1.44759
-0.2,-0.2,0.6,-0.5235987755982988,-0.17453292519943286,-0.34906585039886584,1.7306296,1.478777,0.16824284,0.049684834,0.05828383,1.0319995,0.56971794,-0.5366897,1.6072631,-0.0764821,-0.9455608,-0.044500086,1.5103062,1.332965
-0.2,-0.2,0.6,-0.5235987755982988,-0.17453292519943286,-0.34906585039886584,1.7347968,1.475257,0.16179144,0.05290856,0.08047101,1.0364078,0.56409,-0.54248405,1.6201373,-0.09553007,-0.922339,-0.018122718,1.5184225,1.2580435
-0.2,-0.2,0.6,-0.5235987755982988,-0.17453292519943286,-0.34906585039886584,1.7314166,1.4747633,0.16364884,0.045219902,0.10555608,1.0357656,0.5346566,-0.5405126,1.6117541,-0.093698874,-0.9141954,-0.03042309,1.5187666,1.4242089
-0.2,-0.2,0.6,-0.5235987755982988,-0.17453292519943286,-0.34906585039886584,1.7384688,1.4833275,0.15279485,0.048594676,0.09758967,1.0299042,0.5764324,-0.53056216,1.6094677,-0.0871163,-0.91854185,-0.03343921,1.5107995,1.3912446
-0.2,-0.2,0.6,-0.5235987755982988,-0.17453292519943286,-0.34906585039886584,1.7313957,1.4629114,0.16213092,0.048419617,0.098729536,1.0283638,0.54643965,-0.53311574,1.6257684,-0.09860463,-0.91925645,-0.017690616,1.5068649,1.3449373
-0.2,-0.2,0.6,-0.5235987755982988,-0.17453292519943286,-0.34906585039886584,1.7388668,1.4769316,0.17391838,0.04162554,0.08416295,1.0180093,0.5526722,-0.5312161,1.6195099,-0.07653071,-0.94168526,-0.022507599,1.5151628,1.2667862
-0.2,-0.2,0.6,-0.5235987755982988,-0.17453292519943286,-0.34906585039886584,1.7338789,1.4743984,0.15420628,0.048525788,0.09067927,1.0340314,0.5733581,-0.52124244,1.6157811,-0.08289507,-0.9120395,-0.03011546,1.504511,1.2776058
-0.2,-0.2,0.6,-0.5235987755982988,-0.17453292519943286,-0.34906585039886584,1.7192013,1.4745271,0.16083555,0.04125231,0.09649272,1.0305555,0.5523985,-0.5317272,1.6186907,-0.08862665,-0.9183767,-0.0100323735,1.5098349,1.4308298
-0.2,-0.2,0.6,-0.5235987755982988,-0.17453292519943286,-0.34906585039886584,1.7289972,1.4763368,0.16726299,0.05030374,0.10286537,1.0289035,0.53086895,-0.53605855,1.6128885,-0.08299357,-0.9179627,-0.0013454814,1.513041,1.368839
-0.2,-0.2,0.6,-0.5235987755982988,-0.17453292519943286,-0.34906585039886584,1.721,1.4851682,0.16885313,0.05459657,0.09319186,1.0395223,0.5486817,-0.53834075,1.6097537,-0.07842525,-0.9207257,0.0021651092,1.5241363,1.2796053
-0.2,-0.2,0.6,-0.5235987755982988,-0.17453292519943286,-0.34906585039886584,1.7173076,1.4777569,0.15788537,0.045082923,0.09858495,1.0289397,0.56795913,-0.5355544,1.6148646,-0.07864133,-0.9354376,-0.03473963,1.5086073,1.3374776
-0.2,-0.2,0.6,-0.5235987755982988,-0.17453292519943286,-0.34906585039886584,1.7594831,1.4635681,0.16465415,0.047957134,0.094617985,1.02341,0.5504801,-0.529166,1.6123344,-0.076223,-0.9260902,-0.0087746205,1.5274374,1.2114928
-0.2,-0.2,0.6,-0.5235987755982988,-0.17453292519943286,-0.34906585039886584,1.7327061,1.4698769,0.16587506,0.043932516,0.09715379,1.0236185,0.5554652,-0.51946974,1.6125143,-0.08667766,-0.91706944,-0.034223776,1.5182819,1.4230324
-0.2,-0.2,0.6,-0.5235987755982988,-0.17453292519943286,-0.34906585039886584,1.7377442,1.4821439,0.16118802,0.049561035,0.08381837,1.0267293,0.55180514,-0.53247344,1.6146084,-0.09301936,-0.9166784,-0.023635117,1.5016744,1.3892404
-0.2,-0.2,0.6,-0.5235987755982988,-0.17453292519943286,-0.34906585039886584,1.744407,1.4923592,0.15785326,0.05063429,0.10501668,1.0272315,0.5508548,-0.5369307,1.6072507,-0.08774109,-0.930355,-0.028904675,1.520832,1.3991803
-0.2,-0.2,0.6,-0.5235987755982988,-0.17453292519943286,-0.34906585039886584,1.7160585,1.4818206,0.16828494,0.055837452,0.07410804,1.0210407,0.5755422,-0.53319645,1.6196424,-0.08176919,-0.9145694,-0.009415706,1.507314,1.360694
-0.2,-0.2,0.6,-0.5235987755982988,-0.17453292519943286,-0.34906585039886584,1.7343283,1.4882181,0.16135114,0.04775856,0.09714463,1.0308384,0.5730836,-0.5397815,1.6170896,-0.07435964,-0.92558664,-0.01270779,1.5252882,1.3517756
-0.2,-0.2,0.6,-0.5235987755982988,-0.17453292519943286,-0.34906585039886584,1.7024745,1.4770164,0.16209209,0.04702412,0.09607841,1.0294327,0.5519174,-0.52634895,1.6113122,-0.087905675,-0.9197245,-0.021955313,1.5100359,1.4136217
-0.2,-0.2,0.6,-0.5235987755982988,-0.17453292519943286,-0.34906585039886584,1.7168014,1.4849722,0.16494174,0.053551286,0.10363884,1.0213867,0.5632206,-0.53787035,1.6131393,-0.08102514,-0.9151296,-0.042150956,1.5028666,1.4307349
-0.2,-0.2,0.6,-0.5235987755982988,-0.17453292519943286,-0.34906585039886584,1.7437146,1.4813254,0.15451206,0.043977764,0.0845329,1.0333451,0.5471193,-0.53956664,1.6092331,-0.08709762,-0.93270135,-0.061822414,1.503143,1.4357861
-0.2,-0.2,0.6,-0.5235987755982988,-0.17453292519943286,-0.34906585039886584,1.7223212,1.4675387,0.17502321,0.04613698,0.10202039,1.0311993,0.5299015,-0.5381373,1.6099033,-0.09276777,-0.9140153,-0.041120876,1.5058594,1.3513016
-0.2,-0.2,0.6,-0.5235987755982988,-0.17453292519943286,-0.34906585039886584,1.7517463,1.4885474,0.16052464,0.053937353,0.06437054,1.027972,0.5315678,-0.53744185,1.606012,-0.08595352,-0.937891,0.0020121736,1.5013027,1.259468
-0.2,-0.2,0.6,-0.5235987755982988,-0.17453292519943286,-0.34906585039886584,1.7255505,1.481602,0.15558565,0.056676194,0.080831185,1.0342097,0.55207163,-0.5342914,1.6149927,-0.08905398,-0.93855894,-0.004678285,1.5132005,1.2274113
-0.2,-0.2,0.6,-0.5235987755982988,-0.17453292519943286,-0.34906585039886584,1.7458419,1.4753715,0.14843802,0.04957689,0.07272329,1.0372945,0.59232795,-0.5322425,1.606396,-0.093732506,-0.9352986,-0.0048278277,1.5098524,1.3099887
-0.2,-0.2,0.6,-0.5235987755982988,-0.17453292519943286,-0.34906585039886584,1.7246852,1.4961109,0.16885974,0.03854647,0.09070722,1.0331175,0.5567178,-0.53337365,1.604987,-0.08016316,-0.90690106,0.007713534,1.5071348,1.3991181
-0.2,-0.2,0.6,-0.5235987755982988,-0.17453292519943286,-0.34906585039886584,1.7208222,1.4834807,0.16097282,0.044424623,0.0872315,1.0346541,0.581551,-0.53592974,1.6089941,-0.09013733,-0.9182828,-0.024324529,1.5192846,1.4597628
-0.2,-0.2,0.6,-0.5235987755982988,-0.17453292519943286,-0.34906585039886584,1.7088597,1.4645108,0.15667817,0.051550575,0.07708409,1.0354376,0.57353157,-0.5355528,1.6079535,-0.10004123,-0.93132573,0.0041365423,1.519331,1.3815001
-0.2,-0.2,0.6,-0.5235987755982988,-0.17453292519943286,-0.34906585039886584,1.7522814,1.4769114,0.16858876,0.04459173,0.09170236,1.0267484,0.53336436,-0.533713,1.6181751,-0.07450944,-0.9265689,-0.01812851,1.5278244,1.3345714
-0.2,-0.2,0.6,-0.5235987755982988,-0.17453292519943286,-0.34906585039886584,1.7258028,1.4616126,0.15864597,0.04624814,0.096946694,1.0394778,0.5471018,-0.535266,1.607861,-0.0870855,-0.9144176,-0.0060092886,1.5163379,1.3712995
-0.2,-0.2,0.6,-0.5235987755982988,-0.17453292519943286,-0.34906585039886584,1.7289175,1.4745173,0.15989879,0.05486601,0.075382754,1.0436325,0.5469996,-0.53347045,1.6233726,-0.08366471,-0.91584945,0.011037468,1.5231285,1.3270184
-0.2,-0.2,0.6,-0.5235987755982988,-0.17453292519943286,-0.34906585039886584,1.7485027,1.4899374,0.16179726,0.039156534,0.08547166,1.0384841,0.5514275,-0.52351743,1.6177548,-0.0831714,-0.9273569,-0.049985852,1.4987421,1.2768551
-0.2,-0.2,0.6,-0.5235987755982988,-0.17453292519943286,-0.34906585039886584,1.7314662,1.4927464,0.16012312,0.050500203,0.08690305,1.0373456,0.566892,-0.54104334,1.6165255,-0.08166137,-0.92528975,-0.05386647,1.5128433,1.4048138
-0.2,-0.2,0.6,-0.5235987755982988,-0.17453292519943286,-0.34906585039886584,1.7258424,1.475858,0.15533416,0.0589026,0.09888265,1.0303208,0.54809624,-0.536832,1.6088729,-0.07709092,-0.9300699,-0.0111927455,1.5179485,1.2550591
-0.2,-0.2,0.6,-0.5235987755982988,-0.17453292519943286,-0.34906585039886584,1.7535275,1.4815056,0.15543617,0.047296803,0.08221893,1.0247141,0.5404264,-0.53091353,1.6163621,-0.090806276,-0.9240269,0.009878659,1.5077823,1.3270005
-0.2,-0.2,0.6,-0.5235987755982988,-0.17453292519943286,-0.34906585039886584,1.7322804,1.471284,0.15234157,0.052786823,0.083685465,1.0390147,0.53485245,-0.52575004,1.6121545,-0.07917002,-0.92613906,-0.03347027,1.5209099,1.4033388
-0.2,-0.2,0.6,-0.5235987755982988,-0.17453292519943286,-0.34906585039886584,1.7322388,1.4990155,0.15599447,0.04484136,0.09924,1.0241475,0.5665548,-0.5229864,1.6077473,-0.075529724,-0.9154011,-0.016997593,1.5178252,1.4697547
-0.2,-0.2,0.6,-0.5235987755982988,-0.17453292519943286,-0.34906585039886584,1.7537316,1.4809277,0.16355485,0.050172344,0.08019967,1.0334673,0.55806845,-0.5260596,1.610302,-0.06497431,-0.91772217,-0.030141897,1.5200647,1.2247529
-0.2,-0.2,0.6,-0.5235987755982988,-0.17453292519943286,-0.34906585039886584,1.7331048,1.4839889,0.1739228,0.040160026,0.08881221,1.0358318,0.5924464,-0.5244877,1.6161582,-0.09910075,-0.92935437,-0.021965666,1.5213273,1.2403146
-0.2,-0.2,0.6,-0.5235987755982988,-0.17453292519943286,-0.34906585039886584,1.7386546,1.4813333,0.16672556,0.043328717,0.086287946,1.0325857,0.5623781,-0.5363211,1.6141787,-0.08166576,-0.9125499,0.0183146,1.5186226,1.3296474
-0.2,-0.2,0.6,-0.5235987755982988,-0.17453292519943286,-0.34906585039886584,1.7429086,1.475906,0.1591576,0.053126298,0.092367314,1.0281402,0.56891125,-0.5305947,1.6130815,-0.08371873,-0.92473555,-0.034489132,1.5144633,1.2976116
-0.2,-0.2,0.6,-0.5235987755982988,-0.17453292519943286,-0.34906585039886584,1.7339026,1.4829758,0.15828547,0.043558884,0.075411476,1.0353421,0.5733828,-0.5315236,1.6052998,-0.086471245,-0.93640363,-0.01449624,1.5204301,1.397959
-0.2,-0.2,0.6,-0.5235987755982988,-0.17453292519943286,-0.34906585039886584,1.7061745,1.4870427,0.16271897,0.049684588,0.09286587,1.0417786,0.54343444,-0.5361725,1.6079036,-0.08372275,-0.9284905,-0.05669588,1.5167413,1.4491224
-0.2,-0.2,0.6,-0.5235987755982988,-0.17453292519943286,-0.34906585039886584,1.721229,1.4775392,0.1614909,0.037437335,0.09052575,1.0317806,0.54541445,-0.53891915,1.6155943,-0.072323054,-0.94048315,-0.021230223,1.510784,1.3478373
-0.2,-0.2,0.6,-0.5235987755982988,-0.17453292519943286,-0.34906585039886584,1.7236271,1.4707174,0.15910338,0.053169146,0.08653914,1.0272006,0.56231534,-0.5299041,1.6121235,-0.084325954,-0.9400003,-0.03115505,1.5136753,1.2641217
-0.2,-0.2,0.6,-0.5235987755982988,-0.17453292519943286,-0.34906585039886584,1.7297047,1.4903681,0.16572899,0.04706067,0.08736838,1.0327038,0.57392883,-0.5339077,1.610068,-0.09007728,-0.91307896,-0.03661877,1.5038124,1.402487
-0.2,-0.2,0.6,-0.5235987755982988,-0.17453292519943286,-0.34906585039886584,1.7280964,1.4665815,0.15592097,0.044588994,0.08158385,1.0372789,0.5275657,-0.53461045,1.6106418,-0.07690573,-0.9254104,-0.0060370164,1.5079759,1.350442
-0.2,-0.2,0.6,-0.5235987755982988,-0.17453292519943286,-0.34906585039886584,1.7298307,1.4756602,0.16052322,0.04753723,0.08383637,1.0365303,0.55882365,-0.5342518,1.6061953,-0.08463628,-0.92303026,-0.008670468,1.5150899,1.354949
-0.2,-0.2,0.6,-0.5235987755982988,-0.17453292519943286,-0.34906585039886584,1.7256683,1.4719576,0.17333739,0.04446403,0.0980849,1.0394331,0.54997885,-0.5303092,1.6111965,-0.07899356,-0.91840655,-0.019314786,1.5341835,1.3611763
-0.2,-0.2,0.6,-0.5235987755982988,-0.17453292519943286,-0.34906585039886584,1.7280399,1.4645907,0.15151212,0.051809687,0.09881249,1.0222021,0.5333092,-0.5332431,1.6170846,-0.08930491,-0.925913,-0.0551657,1.5168684,1.3995739
-0.2,-0.2,0.6,-0.5235987755982988,-0.17453292519943286,-0.34906585039886584,1.7271938,1.4694834,0.15477113,0.06461459,0.09109548,1.0308956,0.5569671,-0.5319744,1.6163538,-0.08254782,-0.9281688,-0.026960235,1.520815,1.318607
-0.2,-0.2,0.6,-0.5235987755982988,-0.17453292519943286,-0.34906585039886584,1.7619134,1.4818577,0.16921467,0.05053243,0.0942714,1.0226293,0.5421937,-0.5320443,1.6184797,-0.08657673,-0.9335654,-0.015516942,1.5250586,1.2192773
-0.2,-0.2,0.6,-0.5235987755982988,-0.17453292519943286,-0.34906585039886584,1.7428553,1.4832332,0.16747269,0.049835753,0.10293251,1.0353057,0.54010123,-0.5253083,1.6126115,-0.0874724,-0.92292726,-0.0203652,1.5182242,1.2278697
-0.2,-0.2,0.6,-0.5235987755982988,-0.17453292519943286,-0.34906585039886584,1.7288945,1.4711815,0.15414326,0.054853838,0.087381475,1.0295349,0.5632873,-0.5270828,1.6186281,-0.09981429,-0.91331494,-0.044851504,1.5281725,1.3850027
-0.2,-0.2,0.6,-0.5235987755982988,-0.17453292519943286,-0.34906585039886584,1.7441506,1.4716345,0.15689693,0.040569007,0.09499827,1.0289905,0.5919147,-0.530768,1.6115023,-0.08269493,-0.91153085,-0.021870028,1.5064981,1.2912723
-0.2,-0.2,0.6,-0.5235987755982988,-0.17453292519943286,-0.34906585039886584,1.7328455,1.4801064,0.16579925,0.045934226,0.08752192,1.0187078,0.5456529,-0.5422779,1.6146083,-0.093863554,-0.93087053,-0.038499083,1.5143317,1.4056283
-0.2,-0.2,0.6,-0.5235987755982988,-0.17453292519943286,-0.34906585039886584,1.7167794,1.4815443,0.15481432,0.051220585,0.077627175,1.0292308,0.5902775,-0.5280997,1.6048537,-0.09308404,-0.9253364,0.0028896844,1.5292753,1.5896853
-0.2,-0.2,0.6,-0.5235987755982988,-0.17453292519943286,-0.34906585039886584,1.7552572,1.4669552,0.17577858,0.035959136,0.075748675,1.030077,0.54409444,-0.5311238,1.6132311,-0.082605354,-0.92229533,-0.016134726,1.510041,1.2709275
-0.2,-0.2,0.6,-0.5235987755982988,-0.17453292519943286,-0.34906585039886584,1.7457192,1.4724144,0.16081311,0.041045744,0.07919572,1.0215595,0.57782966,-0.528997,1.6167008,-0.089831136,-0.93497854,-0.013982741,1.5156097,1.3257984
-0.2,-0.2,0.6,-0.5235987755982988,-0.17453292519943286,-0.34906585039886584,1.7343376,1.4652903,0.16682126,0.04864394,0.08826654,1.0319607,0.5653668,-0.5317315,1.6247363,-0.08796069,-0.91523206,-0.043223202,1.4987377,1.2218816
-0.2,-0.2,0.6,-0.5235987755982988,-0.17453292519943286,-0.34906585039886584,1.7052861,1.4738041,0.15601037,0.049422275,0.08407624,1.0439414,0.567403,-0.53060657,1.6110383,-0.088380344,-0.9358807,-0.033975713,1.5136646,1.3238214
-0.2,-0.2,0.6,-0.5235987755982988,-0.17453292519943286,-0.34906585039886584,1.744121,1.4664909,0.1700724,0.038415365,0.102883205,1.0302513,0.5350656,-0.5335938,1.604526,-0.08472439,-0.9356332,-0.0023540684,1.535933,1.4811896
-0.2,-0.2,0.6,-0.5235987755982988,-0.17453292519943286,-0.34906585039886584,1.7461573,1.4735746,0.16018692,0.046514757,0.09716254,1.0293634,0.5812793,-0.5314849,1.614231,-0.092365004,-0.91533154,-0.013336056,1.5076208,1.2648542
-0.2,-0.2,0.6,-0.5235987755982988,-0.17453292519943286,-0.34906585039886584,1.7350572,1.4746239,0.1669464,0.05047486,0.080282606,1.0289073,0.5429743,-0.5307316,1.6107683,-0.06895269,-0.9175429,-0.025957918,1.5212975,1.5418849
-0.2,-0.2,0.6,-0.5235987755982988,-0.17453292519943286,-0.34906585039886584,1.7246512,1.4711254,0.15762721,0.05118379,0.08742038,1.0212026,0.55687934,-0.52700454,1.6160935,-0.08601737,-0.9282465,-0.024494741,1.5139707,1.398748
-0.2,-0.2,0.6,-0.5235987755982988,-0.17453292519943286,-0.34906585039886584,1.7390321,1.4867901,0.16629331,0.046648204,0.086245954,1.0371963,0.5836769,-0.53233767,1.6067626,-0.08654718,-0.9267708,-0.02718136,1.5111806,1.230744
-0.2,-0.2,0.6,-0.5235987755982988,-0.17453292519943286,-0.34906585039886584,1.7369963,1.4744399,0.16223043,0.04574247,0.09196105,1.039179,0.548579,-0.5260519,1.6135509,-0.08717684,-0.9250641,-0.009354884,1.5184573,1.2378081
-0.2,-0.2,0.6,-0.5235987755982988,-0.17453292519943286,-0.34906585039886584,1.7429322,1.4833429,0.16139214,0.045600895,0.09996344,1.0291646,0.53222615,-0.5407747,1.6136044,-0.08970512,-0.9274344,-0.01849023,1.5156412,1.5547163
-0.2,-0.2,0.6,-0.5235987755982988,-0.17453292519943286,-0.34906585039886584,1.735406,1.4776989,0.159083,0.057171807,0.102045916,1.0313394,0.5564927,-0.5310154,1.6119987,-0.08950098,-0.92171204,-0.046011247,1.5122373,1.26283
-0.2,-0.2,0.6,-0.5235987755982988,-0.17453292519943286,-0.34906585039886584,1.734789,1.47013,0.15501109,0.04079031,0.0919098,1.0333344,0.5757319,-0.5449661,1.6179636,-0.08432624,-0.9221636,-0.02120236,1.5158383,1.3970544
-0.2,-0.2,0.6,-0.5235987755982988,-0.17453292519943286,-0.34906585039886584,1.7331904,1.4800051,0.15768312,0.049440917,0.08669802,1.0311514,0.5479256,-0.5392194,1.6125845,-0.1034396,-0.92370105,-0.022145608,1.5073168,1.4140003
-0.2,-0.2,0.6,-0.5235987755982988,-0.17453292519943286,-0.34906585039886584,1.7356592,1.4777488,0.16085757,0.04087774,0.084385626,1.0218259,0.57522506,-0.5268697,1.6233695,-0.086749986,-0.9138054,-0.00561764,1.4995432,1.3327526
-0.2,-0.2,0.6,-0.5235987755982988,-0.17453292519943286,-0.34906585039886584,1.7367741,1.4846641,0.15795036,0.043619234,0.08782672,1.0343143,0.5931442,-0.5355013,1.6168545,-0.07137297,-0.91235167,-0.011067211,1.5225136,1.3382249
-0.2,-0.2,0.6,-0.5235987755982988,-0.17453292519943286,-0.34906585039886584,1.7599566,1.4967303,0.16175516,0.049496178,0.07837563,1.0297043,0.54007095,-0.52290004,1.616495,-0.08814803,-0.9367612,-0.040064704,1.5204877,1.3956714
-0.2,-0.2,0.6,-0.5235987755982988,-0.17453292519943286,-0.34906585039886584,1.7739174,1.4782522,0.15841743,0.053897146,0.08951634,1.0309161,0.5254063,-0.533335,1.612803,-0.08238618,-0.92778015,-0.023783669,1.5054568,1.2212665
-0.2,-0.2,0.6,-0.5235987755982988,-0.17453292519943286,-0.34906585039886584,1.7447486,1.4809293,0.16284408,0.043888498,0.07968665,1.027474,0.57136524,-0.5283964,1.6107397,-0.08630346,-0.9330676,-0.0061358716,1.5127499,1.2182349
-0.2,-0.2,0.6,-0.5235987755982988,-0.17453292519943286,-0.34906585039886584,1.7355552,1.4836537,0.17110626,0.05777562,0.096095055,1.0252832,0.5605543,-0.53616303,1.6094445,-0.09642237,-0.91604257,-0.014733256,1.5175788,1.3604925
-0.2,-0.2,0.6,-0.5235987755982988,-0.17453292519943286,-0.34906585039886584,1.7208004,1.4910042,0.17083073,0.053684577,0.10149863,1.0319275,0.58575773,-0.535281,1.6135175,-0.082574405,-0.9002284,-0.036039367,1.5157729,1.3609209
-0.2,-0.2,0.6,-0.5235987755982988,-0.17453292519943286,-0.34906585039886584,1.712296,1.4625585,0.15694673,0.04683534,0.0954054,1.040415,0.5960714,-0.52422893,1.604718,-0.104103304,-0.911946,-0.021750791,1.5139498,1.3415046
-0.2,-0.2,0.6,-0.5235987755982988,-0.17453292519943286,-0.34906585039886584,1.7325209,1.4736171,0.1675718,0.05002674,0.07404304,1.03638,0.5598425,-0.53125674,1.6098001,-0.093990766,-0.9244981,-0.041326344,1.5108603,1.3835771
-0.2,-0.2,0.6,-0.5235987755982988,-0.17453292519943286,-0.34906585039886584,1.7523445,1.4798341,0.16679807,0.040544614,0.087379895,1.02679,0.55545974,-0.52379376,1.6150075,-0.07261564,-0.9230094,-0.03699494,1.5183672,1.2929187
-0.2,-0.2,0.6,-0.5235987755982988,-0.17453292519943286,-0.34906585039886584,1.742415,1.474125,0.16129574,0.04407031,0.0854489,1.0231146,0.58995247,-0.53558093,1.6042138,-0.08763141,-0.92070174,-0.007948956,1.5128922,1.3429393
-0.2,-0.2,0.6,-0.5235987755982988,-0.17453292519943286,-0.34906585039886584,1.7371916,1.4757856,0.15920901,0.043618362,0.08864492,1.0282369,0.6000746,-0.5339676,1.607045,-0.08993744,-0.92761487,-0.0028497095,1.5283004,1.3751651
-0.2,-0.2,0.6,-0.5235987755982988,-0.17453292519943286,-0.34906585039886584,1.7541646,1.4801239,0.15745462,0.055132724,0.10501142,1.0322887,0.55929464,-0.530058,1.6098888,-0.09206186,-0.9248187,-0.038656026,1.5195233,1.2808304
-0.2,-0.2,0.6,-0.5235987755982988,-0.17453292519943286,-0.34906585039886584,1.722015,1.4685302,0.16141987,0.048047353,0.09107033,1.0266168,0.56160647,-0.5323066,1.6147836,-0.07454125,-0.9094412,-0.017124599,1.50205,1.2972568
-0.2,-0.2,0.6,-0.5235987755982988,-0.17453292519943286,-0.34906585039886584,1.7251772,1.485154,0.16158554,0.042174265,0.07433474,1.0397062,0.54272324,-0.5356209,1.6055555,-0.074360356,-0.93034023,0.01870898,1.530266,1.4948044
-0.2,-0.2,0.6,-0.5235987755982988,-0.17453292519943286,-0.34906585039886584,1.7385471,1.4740459,0.16640784,0.053225856,0.09452962,1.028909,0.55430657,-0.54002345,1.6116033,-0.09038059,-0.9114941,-0.0395854,1.5129815,1.3507816
-0.2,-0.2,0.6,-0.5235987755982988,-0.17453292519943286,-0.34906585039886584,1.729765,1.4743007,0.16696629,0.040723998,0.092401564,1.0307133,0.54400563,-0.5260551,1.612955,-0.08147586,-0.9255722,-0.0492049,1.4996485,1.3234911
-0.2,-0.2,0.6,-0.5235987755982988,-0.17453292519943286,-0.34906585039886584,1.7585301,1.4648945,0.16580786,0.046869196,0.08754562,1.0332817,0.5328731,-0.53102833,1.6207331,-0.09545046,-0.93294835,-0.022903726,1.5156199,1.2332256
-0.2,-0.2,0.6,-0.5235987755982988,-0.17453292519943286,-0.34906585039886584,1.7340553,1.477946,0.15919219,0.047940817,0.08524093,1.0352281,0.5648091,-0.5266546,1.6151024,-0.08176671,-0.93154883,-0.010179889,1.5193077,1.2760426
-0.2,-0.2,0.6,-0.5235987755982988,-0.17453292519943286,-0.34906585039886584,1.7261097,1.4626365,0.16614422,0.050573863,0.09545704,1.0344254,0.5375551,-0.5292121,1.6110173,-0.09050941,-0.92062503,-0.04934914,1.5118805,1.395149
-0.2,-0.2,0.6,-0.5235987755982988,-0.17453292519943286,-0.34906585039886584,1.7189869,1.4773194,0.16363929,0.046633437,0.08337902,1.0336936,0.5761358,-0.53381616,1.6107625,-0.09153913,-0.92420363,-0.04553481,1.5166318,1.3998532
-0.2,-0.2,0.6,-0.5235987755982988,-0.17453292519943286,-0.34906585039886584,1.7248445,1.4778938,0.16544068,0.0425676,0.08613121,1.0370522,0.5577673,-0.5364264,1.6176941,-0.07697368,-0.93170774,-0.038715474,1.520223,1.3976195
-0.2,-0.2,0.6,-0.5235987755982988,-0.17453292519943286,-0.34906585039886584,1.7139715,1.4583064,0.15768017,0.047946382,0.07866797,1.030597,0.54879767,-0.539873,1.6117994,-0.07183823,-0.9338179,-0.02309907,1.515155,1.4003459
-0.2,-0.2,0.6,-0.5235987755982988,-0.17453292519943286,-0.34906585039886584,1.7138546,1.4850069,0.16614504,0.051622305,0.085192494,1.0395774,0.51767236,-0.53473526,1.6126894,-0.086871475,-0.9267157,-0.03406754,1.5092757,1.4779952
-0.2,-0.2,0.6,-0.5235987755982988,-0.17453292519943286,-0.34906585039886584,1.7342442,1.4795424,0.16892986,0.04700907,0.10245548,1.02898,0.5286615,-0.5276353,1.6224587,-0.077525035,-0.91559976,0.0022465123,1.5194188,1.2055768
-0.2,-0.2,0.6,-0.5235987755982988,-0.17453292519943286,-0.34906585039886584,1.7302133,1.4760858,0.1674128,0.05484129,0.08504911,1.0313325,0.5399713,-0.5300124,1.615506,-0.07888727,-0.90768605,-0.046459116,1.5065004,1.38193
-0.2,-0.2,0.6,-0.5235987755982988,-0.17453292519943286,-0.34906585039886584,1.7537999,1.4747238,0.16839911,0.04769937,0.08648985,1.0070794,0.5602017,-0.52626705,1.6197435,-0.08891697,-0.9220793,-0.045991767,1.4991825,1.3543957
-0.2,-0.2,0.6,-0.5235987755982988,-0.17453292519943286,-0.34906585039886584,1.7286706,1.4698255,0.15845582,0.033736028,0.1043797,1.0366743,0.5370234,-0.5331621,1.6179885,-0.08618446,-0.9087295,-0.0020157883,1.4940861,1.3326552
-0.2,-0.2,0.6,-0.5235987755982988,-0.17453292519943286,-0.34906585039886584,1.7349771,1.4635705,0.16881213,0.04567567,0.09857599,1.0333887,0.56372094,-0.5266772,1.6070926,-0.07949178,-0.9142405,-0.014450459,1.5314991,1.249899
-0.2,-0.2,0.6,-0.5235987755982988,-0.17453292519943286,-0.34906585039886584,1.7331501,1.488714,0.16516618,0.045394972,0.09579191,1.0346239,0.5585694,-0.5326519,1.6198109,-0.081120744,-0.93205714,-0.02006527,1.5147542,1.2078049
-0.2,-0.2,0.6,-0.5235987755982988,-0.17453292519943286,-0.34906585039886584,1.7413791,1.4820977,0.16570666,0.040501837,0.08378492,1.0300006,0.55630547,-0.52648354,1.6172402,-0.07544247,-0.9239087,-0.028261272,1.5053014,1.2892141
-0.2,-0.2,0.6,-0.5235987755982988,-0.17453292519943286,-0.34906585039886584,1.7367858,1.4674594,0.15377207,0.058772653,0.09448441,1.0272151,0.5209836,-0.5357475,1.6108024,-0.0748119,-0.9288205,-0.041321617,1.5123565,1.3790339
-0.2,-0.2,0.6,-0.5235987755982988,-0.17453292519943286,-0.34906585039886584,1.7401192,1.4737587,0.16573094,0.05895583,0.094384275,1.0260006,0.5492671,-0.53342116,1.6032323,-0.0952598,-0.9215666,-0.016473588,1.5136161,1.2980514
-0.2,-0.2,0.6,-0.5235987755982988,-0.17453292519943286,-0.34906585039886584,1.7250234,1.4664413,0.16302013,0.04882148,0.097397715,1.0337206,0.54326093,-0.53124255,1.6167784,-0.08194456,-0.91487646,-0.03250993,1.5108052,1.3586107
-0.2,-0.2,0.6,-0.5235987755982988,-0.17453292519943286,-0.34906585039886584,1.7236493,1.4828134,0.15908173,0.053785887,0.100503206,1.0397848,0.5393132,-0.5197183,1.6061887,-0.0710644,-0.926969,-0.06555162,1.5160285,1.2849561
-0.2,-0.2,0.6,-0.5235987755982988,-0.17453292519943286,-0.34906585039886584,1.720895,1.4985853,0.16037671,0.051797714,0.08019381,1.0295576,0.53185034,-0.52553916,1.6078544,-0.07271519,-0.93374425,-0.042545684,1.5023658,1.3558487
-0.2,-0.2,0.6,-0.5235987755982988,-0.17453292519943286,-0.34906585039886584,1.736564,1.4817225,0.16340023,0.049513392,0.08023672,1.0330732,0.5701228,-0.52476436,1.6130197,-0.07104271,-0.92072266,-0.049263194,1.5140398,1.2779744
-0.2,-0.2,0.6,-0.5235987755982988,-0.17453292519943286,-0.34906585039886584,1.7272053,1.4772594,0.15862532,0.049664404,0.094056584,1.0288595,0.58929384,-0.53173774,1.6119533,-0.08160903,-0.9236886,-0.06919018,1.5147837,1.3808326
-0.2,-0.2,0.6,-0.5235987755982988,-0.17453292519943286,-0.34906585039886584,1.745431,1.4787285,0.169362,0.049152512,0.07990699,1.0341398,0.53010917,-0.53481245,1.6093959,-0.08673706,-0.9222558,-0.017646914,1.5141709,1.3731334
-0.2,-0.2,0.6,-0.5235987755982988,-0.17453292519943286,-0.34906585039886584,1.716779,1.4932373,0.1722671,0.046380047,0.09247788,1.0256791,0.53760874,-0.5316307,1.610722,-0.07778894,-0.9186948,-0.0075253416,1.4997796,1.2768198
-0.2,-0.2,0.6,-0.5235987755982988,-0.17453292519943286,-0.34906585039886584,1.7110234,1.4699327,0.15838256,0.048449486,0.09360111,1.0336215,0.56131256,-0.5360804,1.6151809,-0.083255194,-0.9342799,-0.017988022,1.5248408,1.3984147
-0.2,-0.2,0.6,-0.5235987755982988,-0.17453292519943286,-0.34906585039886584,1.7581483,1.4755191,0.17215794,0.04009382,0.09520797,1.029529,0.5209667,-0.5233351,1.6076863,-0.08898789,-0.92207474,-0.026844664,1.5161074,1.3377279
-0.2,-0.2,0.6,-0.5235987755982988,-0.17453292519943286,-0.34906585039886584,1.707928,1.4746487,0.16860244,0.03955104,0.084733956,1.0240617,0.56418234,-0.53546846,1.6060749,-0.08387807,-0.9336766,-0.0021110354,1.5158112,1.4956235
-0.2,-0.2,0.6,-0.5235987755982988,-0.17453292519943286,-0.34906585039886584,1.7234342,1.4796939,0.16247325,0.042209107,0.092714,1.0301542,0.5605738,-0.53951174,1.6146257,-0.077829845,-0.9276021,-0.050829213,1.5104548,1.302464
-0.2,-0.2,0.6,-0.5235987755982988,-0.17453292519943286,-0.34906585039886584,1.7476577,1.4723619,0.16171136,0.049872153,0.09182587,1.0285652,0.58315325,-0.52686924,1.622345,-0.092835344,-0.9274883,-0.04408953,1.5179164,1.2482632
-0.2,-0.2,0.6,-0.5235987755982988,-0.17453292519943286,-0.34906585039886584,1.7231668,1.4773456,0.1566673,0.04877445,0.09617091,1.0196093,0.5659245,-0.5331052,1.6061679,-0.083094634,-0.92141896,-0.020197889,1.5127428,1.4617877
-0.2,-0.2,0.6,-0.5235987755982988,-0.17453292519943286,-0.34906585039886584,1.7546134,1.4685632,0.16400594,0.04634362,0.08786866,1.0309407,0.53159696,-0.5386191,1.6142392,-0.0792293,-0.9161164,-0.036744174,1.505317,1.4062432
-0.2,-0.2,0.6,-0.5235987755982988,-0.17453292519943286,-0.34906585039886584,1.715384,1.4744828,0.16707334,0.046716057,0.07805797,1.0327698,0.53537816,-0.5288236,1.6114914,-0.074886255,-0.942199,-0.014084848,1.5123001,1.19745
-0.2,-0.2,0.6,-0.5235987755982988,-0.17453292519943286,-0.34906585039886584,1.7385068,1.4603046,0.15274855,0.046538588,0.08565303,1.0293362,0.58187425,-0.53337985,1.6160029,-0.09124609,-0.91366076,-0.006849521,1.5115795,1.3263583
-0.2,-0.2,0.6,-0.5235987755982988,-0.17453292519943286,-0.34906585039886584,1.7470292,1.4645329,0.1645911,0.0462748,0.08708435,1.0369158,0.5395775,-0.52705824,1.6204622,-0.08014658,-0.917453,-0.015920796,1.5309215,1.3189684
-0.2,-0.2,0.6,-0.5235987755982988,-0.17453292519943286,-0.34906585039886584,1.7221452,1.4721674,0.16316149,0.057088945,0.087390356,1.0242596,0.5759691,-0.5366188,1.616403,-0.084315106,-0.9299968,-0.02632657,1.5173842,1.303928
-0.2,-0.2,0.6,-0.5235987755982988,-0.17453292519943286,-0.34906585039886584,1.7368405,1.47961,0.174519,0.041445512,0.094062835,1.0248556,0.54857093,-0.532618,1.6098318,-0.08667652,-0.9281509,-0.053453192,1.5077963,1.3905779
-0.2,-0.2,0.6,-0.5235987755982988,-0.17453292519943286,-0.34906585039886584,1.7312266,1.470606,0.15746966,0.042447098,0.08590433,1.0298499,0.5563533,-0.5375915,1.615878,-0.08126095,-0.9285703,-0.034414213,1.5075058,1.4836121
-0.2,-0.2,0.6,-0.5235987755982988,-0.17453292519943286,-0.34906585039886584,1.7071179,1.4787881,0.16635971,0.060125783,0.09109087,1.0205623,0.51457477,-0.53691804,1.6100063,-0.0769781,-0.9143965,0.0098137045,1.5098209,1.3850671
-0.2,-0.2,0.6,-0.5235987755982988,-0.17453292519943286,-0.34906585039886584,1.7207708,1.4741625,0.16965355,0.05197672,0.08965801,1.0277754,0.5765072,-0.5307747,1.6131237,-0.08415872,-0.91842395,-0.08121238,1.5093838,1.3662196
-0.2,-0.2,0.6,-0.5235987755982988,-0.17453292519943286,-0.34906585039886584,1.7452263,1.496198,0.16659053,0.04848709,0.08049303,1.0355979,0.5642312,-0.5248786,1.6196994,-0.08028618,-0.9213483,-0.024566876,1.5162961,1.2662594
-0.2,-0.2,0.6,-0.5235987755982988,-0.17453292519943286,-0.34906585039886584,1.7108388,1.4768715,0.1661516,0.060655568,0.08237912,1.0311865,0.5664251,-0.5315169,1.616984,-0.097392015,-0.91415995,-0.040970244,1.5190985,1.2795987
-0.2,-0.2,0.6,-0.5235987755982988,-0.17453292519943286,-0.34906585039886584,1.7440602,1.4727993,0.17213264,0.04466352,0.09153466,1.0309325,0.53016126,-0.532502,1.616155,-0.08889408,-0.93072945,-0.035272133,1.5017732,1.2111002
-0.2,-0.2,0.6,-0.5235987755982988,-0.17453292519943286,-0.34906585039886584,1.7613013,1.4761686,0.16974097,0.04242467,0.08161201,1.0313101,0.55929834,-0.5349031,1.6175182,-0.086701006,-0.9223036,-0.039643064,1.5253774,1.3786027
-0.2,-0.2,0.6,-0.5235987755982988,-0.17453292519943286,-0.34906585039886584,1.7286735,1.4746981,0.16266066,0.04766108,0.08476754,1.0377927,0.5316411,-0.53591216,1.6143562,-0.08333967,-0.92568016,-0.035323713,1.5073516,1.3835468
-0.2,-0.2,0.6,-0.5235987755982988,-0.17453292519943286,-0.34906585039886584,1.7053046,1.4855006,0.16304512,0.047485318,0.08907917,1.036229,0.5925982,-0.5300389,1.617697,-0.087232165,-0.9257542,-0.025846135,1.5113074,1.3148417
-0.2,-0.2,0.6,-0.5235987755982988,-0.17453292519943286,-0.34906585039886584,1.7542326,1.4743453,0.1735879,0.0398418,0.07394797,1.019353,0.56394356,-0.5235725,1.6146773,-0.0794136,-0.92930794,-0.025339924,1.5094849,1.1689444
-0.2,-0.2,0.6,-0.5235987755982988,-0.17453292519943286,-0.34906585039886584,1.739876,1.4728907,0.16011566,0.041198775,0.109231204,1.0249302,0.56851876,-0.5340842,1.6102101,-0.101936474,-0.9222492,-0.011234612,1.5088928,1.299065
-0.2,-0.2,0.6,-0.5235987755982988,-0.17453292519943286,-0.34906585039886584,1.7526138,1.4793161,0.16135265,0.045746803,0.09357225,1.0339707,0.5655237,-0.5376511,1.6135494,-0.08803658,-0.9292396,-0.00013554363,1.5162238,1.2159766
-0.2,-0.2,0.6,-0.5235987755982988,-0.17453292519943286,-0.34906585039886584,1.7450645,1.4743633,0.1622702,0.04438018,0.097056404,1.0329103,0.56328785,-0.53398263,1.6188574,-0.09016607,-0.9136494,-0.017859787,1.5152713,1.3488051
-0.2,-0.2,0.6,-0.5235987755982988,-0.17453292519943286,-0.34906585039886584,1.7808311,1.4871285,0.15722747,0.047259387,0.08708323,1.0425512,0.56020486,-0.5248068,1.6075988,-0.09193456,-0.9211838,-0.051485382,1.5232414,1.3559806
-0.2,-0.2,0.6,-0.5235987755982988,-0.17453292519943286,-0.34906585039886584,1.7441691,1.4801887,0.16578022,0.044655528,0.08963026,1.0306926,0.5518683,-0.53269184,1.6174694,-0.09437929,-0.9235646,-0.03187651,1.5153996,1.2890718
-0.2,-0.2,0.6,-0.5235987755982988,-0.17453292519943286,-0.34906585039886584,1.7592927,1.480292,0.16000898,0.04581585,0.09324328,1.0209937,0.6008383,-0.52924204,1.6133356,-0.09123312,-0.9077462,-0.019455183,1.5166991,1.3381864
-0.2,-0.2,0.6,-0.5235987755982988,-0.17453292519943286,-0.34906585039886584,1.7642406,1.4728382,0.14719114,0.046919946,0.0914335,1.0267936,0.5603894,-0.52713436,1.6205045,-0.08277766,-0.9296855,-0.03581994,1.5105176,1.2961223
-0.2,-0.2,0.6,-0.5235987755982988,-0.17453292519943286,-0.34906585039886584,1.7099785,1.4976655,0.16307376,0.04709678,0.09292124,1.0320672,0.56776816,-0.5298554,1.6125251,-0.07836167,-0.9241106,-0.021242408,1.5209049,1.3872923
-0.2,-0.2,0.6,-0.5235987755982988,-0.17453292519943286,-0.34906585039886584,1.7317771,1.4733114,0.16236112,0.04856379,0.0847449,1.0305603,0.5611664,-0.5231115,1.6176093,-0.088994935,-0.9359767,-0.05429518,1.512563,1.2837069
-0.2,-0.2,0.6,-0.5235987755982988,-0.17453292519943286,-0.34906585039886584,1.7593591,1.4836608,0.1557706,0.053431366,0.0959384,1.0248636,0.5459729,-0.536279,1.6080945,-0.09115783,-0.92959,-0.018712431,1.530522,1.3193893
-0.2,-0.2,0.6,-0.5235987755982988,-0.17453292519943286,-0.34906585039886584,1.7284086,1.4817427,0.1677068,0.0478507,0.084627345,1.0311193,0.5419497,-0.53520256,1.6127136,-0.076050036,-0.9162502,-0.03763787,1.50648,1.4237202
-0.2,-0.2,0.6,-0.5235987755982988,-0.17453292519943286,-0.34906585039886584,1.7159958,1.4755989,0.15497881,0.055063177,0.10464891,1.0321757,0.53628755,-0.533903,1.6116616,-0.0961253,-0.90246034,-0.018109702,1.5269375,1.421669
-0.2,-0.2,0.6,-0.5235987755982988,-0.17453292519943286,-0.34906585039886584,1.7361586,1.4877325,0.17138611,0.05136451,0.083502084,1.035212,0.55292636,-0.53889084,1.6105574,-0.10225579,-0.91254884,-0.036409866,1.5270023,1.4003618
-0.2,-0.2,0.6,-0.5235987755982988,-0.17453292519943286,-0.34906585039886584,1.7125112,1.4903033,0.16865903,0.0441217,0.07483908,1.0287501,0.59251136,-0.52375674,1.6104219,-0.08077766,-0.92380697,-0.031551205,1.5180736,1.3770168
-0.2,-0.2,0.6,-0.5235987755982988,-0.17453292519943286,-0.34906585039886584,1.7279236,1.4734246,0.16090755,0.048964225,0.09666908,1.0370281,0.5453725,-0.53437966,1.6127036,-0.08258832,-0.9223732,-0.022821294,1.5146534,1.3144135
-0.2,-0.2,0.6,-0.5235987755982988,-0.17453292519943286,-0.34906585039886584,1.7363045,1.4764607,0.17112188,0.048573256,0.089400135,1.0217416,0.55738497,-0.5384453,1.6142219,-0.09468507,-0.9236364,0.0026959493,1.5185403,1.3729484
-0.2,-0.2,0.6,-0.5235987755982988,-0.17453292519943286,-0.34906585039886584,1.7382618,1.4799037,0.1559148,0.052401323,0.06623036,1.0399752,0.55411637,-0.5268142,1.6017342,-0.10450033,-0.9328742,-0.04358049,1.5088965,1.3978766
-0.2,-0.2,0.6,-0.5235987755982988,-0.17453292519943286,-0.34906585039886584,1.7164305,1.4787761,0.16285585,0.05790179,0.097522445,1.0255164,0.5549863,-0.53567237,1.6139086,-0.08963531,-0.92156,-0.04785685,1.5088573,1.3891327
-0.2,-0.2,0.6,-0.5235987755982988,-0.17453292519943286,-0.34906585039886584,1.7274287,1.4641337,0.16111138,0.048417356,0.08242412,1.0274069,0.55654067,-0.52829564,1.605169,-0.07453842,-0.92898697,-0.032662753,1.5052775,1.2133851
-0.2,-0.2,0.6,-0.5235987755982988,-0.17453292519943286,-0.34906585039886584,1.7362297,1.4724566,0.16863592,0.048287578,0.09269759,1.0335706,0.54620373,-0.51532817,1.6113108,-0.09807214,-0.9246102,-0.026331233,1.5158955,1.2199019
-0.2,-0.2,0.6,-0.5235987755982988,-0.17453292519943286,-0.34906585039886584,1.7393776,1.4734792,0.1657725,0.045825277,0.08817532,1.0337833,0.5643773,-0.53092754,1.6159703,-0.10245617,-0.9096993,-0.016755778,1.514426,1.4001788
-0.2,-0.2,0.6,-0.5235987755982988,-0.17453292519943286,-0.34906585039886584,1.747885,1.4792451,0.16745661,0.053704657,0.08048525,1.03372,0.5669211,-0.51867163,1.6095936,-0.087048255,-0.9183741,-0.034906454,1.5178323,1.1983459
-0.2,-0.2,0.6,-0.5235987755982988,-0.17453292519943286,-0.34906585039886584,1.7339965,1.4848844,0.1600272,0.059968475,0.091559775,1.0287776,0.5825052,-0.528382,1.6073653,-0.094573066,-0.9168001,-0.030619074,1.5171849,1.326768
-0.2,-0.2,0.6,-0.5235987755982988,-0.17453292519943286,-0.34906585039886584,1.7186779,1.4674083,0.1582217,0.05303421,0.08487468,1.0372494,0.5603315,-0.5296321,1.6057563,-0.07802602,-0.924042,-0.022773465,1.5185168,1.2787218
-0.2,-0.2,0.6,-0.5235987755982988,-0.17453292519943286,-0.34906585039886584,1.7061937,1.4794788,0.16674726,0.049776454,0.091753095,1.0164537,0.57330245,-0.53988886,1.6153017,-0.09729149,-0.93333113,-0.0449802,1.5074985,1.4774047
-0.2,-0.2,0.6,-0.5235987755982988,-0.17453292519943286,-0.34906585039886584,1.7251081,1.4747608,0.16311978,0.056746572,0.075435154,1.0201294,0.53838044,-0.5242938,1.6136137,-0.07334648,-0.9315355,-0.049254782,1.5035341,1.3133945
-0.2,-0.2,0.6,-0.5235987755982988,-0.17453292519943286,-0.34906585039886584,1.7057047,1.4813174,0.16733049,0.05485983,0.085541785,1.0345014,0.56447774,-0.5364767,1.6183326,-0.07505641,-0.92597014,-0.0269944,1.5154145,1.290392
-0.2,-0.2,0.6,-0.5235987755982988,-0.17453292519943286,-0.34906585039886584,1.732117,1.4769982,0.15923904,0.059844643,0.10537869,1.0229295,0.5243531,-0.53074014,1.6129317,-0.09258838,-0.93828815,-0.027785525,1.5126703,1.2995963
-0.2,-0.2,0.6,-0.5235987755982988,-0.17453292519943286,-0.34906585039886584,1.7193335,1.4750017,0.15408492,0.059337452,0.086136214,1.0271432,0.5602528,-0.5370844,1.6058282,-0.089441754,-0.92642504,-0.007931608,1.520214,1.3841578
-0.2,-0.2,0.6,-0.5235987755982988,-0.17453292519943286,-0.34906585039886584,1.7171161,1.4699819,0.16486219,0.06023001,0.08912692,1.0275381,0.5627814,-0.53144836,1.6048341,-0.08107733,-0.9170174,-0.03319205,1.5102477,1.2364495
-0.2,-0.2,0.6,-0.5235987755982988,-0.17453292519943286,-0.34906585039886584,1.7505232,1.4825361,0.15632564,0.04537671,0.08512317,1.041639,0.5800137,-0.5309285,1.6195157,-0.091482624,-0.91177595,-0.011760675,1.5106518,1.2681892
-0.2,-0.2,0.6,-0.5235987755982988,-0.17453292519943286,-0.34906585039886584,1.7507352,1.4790416,0.15712257,0.045399133,0.10997501,1.0393392,0.5356375,-0.5245126,1.6175188,-0.08013605,-0.92602396,-0.04238075,1.5190815,1.2330772
-0.2,-0.2,0.6,-0.5235987755982988,-0.17453292519943286,-0.34906585039886584,1.7297945,1.4694642,0.16390227,0.04373996,0.10303925,1.0226064,0.565082,-0.54436594,1.6077217,-0.07278959,-0.9239563,-0.010325326,1.5125749,1.2725394
-0.2,-0.2,0.6,-0.5235987755982988,-0.17453292519943286,-0.34906585039886584,1.746022,1.4751916,0.16408096,0.043983918,0.097298704,1.0267646,0.5524317,-0.5376232,1.6091107,-0.0812629,-0.914706,-0.04620207,1.5156647,1.3808417
-0.2,-0.2,0.6,-0.5235987755982988,-0.17453292519943286,-0.34906585039886584,1.749128,1.4625909,0.16146037,0.043593407,0.0734324,1.0313007,0.5575849,-0.52588636,1.6071079,-0.09077531,-0.9328483,-0.011049362,1.5238717,1.3725387
-0.2,-0.2,0.6,-0.5235987755982988,-0.17453292519943286,-0.34906585039886584,1.753088,1.4690174,0.16132472,0.039401405,0.090238355,1.0291336,0.5828346,-0.5296508,1.6138922,-0.09270198,-0.92601377,-0.020564424,1.534292,1.4088618
-0.2,-0.2,0.6,-0.5235987755982988,-0.17453292519943286,-0.34906585039886584,1.7334398,1.480321,0.16320017,0.045914676,0.06114449,1.032155,0.5683134,-0.5345555,1.6107446,-0.08042139,-0.91710377,-0.028634384,1.4942003,1.3364326
-0.2,-0.2,0.6,-0.5235987755982988,-0.17453292519943286,-0.34906585039886584,1.7085272,1.4646742,0.16732904,0.041773535,0.09305153,1.0314788,0.5639318,-0.53079164,1.6221489,-0.08358556,-0.9264676,-0.01635001,1.511878,1.2627188
-0.2,-0.2,0.6,-0.5235987755982988,-0.17453292519943286,-0.34906585039886584,1.74231,1.4680628,0.16172497,0.033772703,0.10126121,1.0242397,0.55853355,-0.5250723,1.6140769,-0.087297805,-0.92718667,-0.02281859,1.5195999,1.3706206
-0.2,-0.2,0.6,-0.5235987755982988,-0.17453292519943286,-0.34906585039886584,1.7307266,1.4951894,0.16054718,0.047662098,0.07758295,1.0351789,0.5710652,-0.5306369,1.6137285,-0.0809397,-0.9329386,-0.036884524,1.5086747,1.3444843
-0.2,-0.2,0.6,-0.5235987755982988,-0.17453292519943286,-0.34906585039886584,1.7436497,1.4821973,0.16131015,0.046058174,0.06945381,1.043588,0.5723581,-0.52857405,1.6199918,-0.096124336,-0.90924954,0.018520098,1.5071359,1.2033992
-0.2,-0.2,0.6,-0.5235987755982988,-0.17453292519943286,-0.34906585039886584,1.7366854,1.4875102,0.16480944,0.04651073,0.096706666,1.0272498,0.56010246,-0.5313131,1.615007,-0.08621102,-0.9145445,-0.056268338,1.5084839,1.4163222
-0.2,-0.2,0.6,-0.5235987755982988,-0.17453292519943286,-0.34906585039886584,1.7358134,1.479504,0.16403666,0.049495555,0.06934557,1.031369,0.56530523,-0.52898574,1.6044936,-0.07954739,-0.925954,-0.00258344,1.5161477,1.233576
-0.2,-0.2,0.6,-0.5235987755982988,-0.17453292519943286,-0.34906585039886584,1.744772,1.4884498,0.15703894,0.047813777,0.068009384,1.0303721,0.5529373,-0.5223747,1.6079518,-0.07475613,-0.9313354,-0.027354093,1.5159234,1.3292795
-0.2,-0.2,0.6,-0.5235987755982988,-0.17453292519943286,-0.34906585039886584,1.7328913,1.4615134,0.1614336,0.039883226,0.09770657,1.0342326,0.54870856,-0.52996814,1.6188248,-0.110738285,-0.9263491,-0.038297717,1.5169383,1.3551202
-0.2,-0.2,0.6,-0.5235987755982988,-0.17453292519943286,-0.34906585039886584,1.7363887,1.4729893,0.16638012,0.051648516,0.09381063,1.0299743,0.5083184,-0.5292072,1.6044168,-0.08865097,-0.9265759,-0.018146534,1.5147526,1.3573252
-0.2,-0.2,0.6,-0.5235987755982988,-0.17453292519943286,-0.34906585039886584,1.7260902,1.4824119,0.16082262,0.04892158,0.09637647,1.0319607,0.53670156,-0.52760327,1.6075435,-0.08568206,-0.92898685,-0.04498252,1.5229423,1.4252862
-0.2,-0.2,0.6,-0.5235987755982988,-0.17453292519943286,-0.34906585039886584,1.7177322,1.4868,0.15581778,0.04584656,0.092348434,1.0385305,0.5966852,-0.53082055,1.6104567,-0.08456961,-0.9307143,-0.01303245,1.5261017,1.2900523
-0.2,-0.2,0.6,-0.5235987755982988,-0.17453292519943286,-0.34906585039886584,1.717656,1.4839746,0.17229296,0.05057121,0.09167929,1.0215467,0.55756825,-0.5380435,1.6154689,-0.07845314,-0.91941804,-0.013292827,1.5209936,1.5220848
-0.2,-0.2,0.6,-0.5235987755982988,-0.17453292519943286,-0.34906585039886584,1.714458,1.4798706,0.15738548,0.04641718,0.08876014,1.024548,0.5835414,-0.52737844,1.6123532,-0.09620015,-0.9312371,-0.028011145,1.5117902,1.3765965
-0.2,-0.2,0.6,-0.5235987755982988,-0.17453292519943286,-0.34906585039886584,1.7262264,1.4758332,0.16138546,0.049818505,0.090605706,1.0359274,0.5522884,-0.52791744,1.6076127,-0.10015287,-0.90855515,-0.02238319,1.5201863,1.3711276
-0.2,-0.2,0.6,-0.5235987755982988,-0.17453292519943286,-0.34906585039886584,1.7420468,1.4709988,0.15834332,0.03697617,0.09559538,1.0357035,0.5784611,-0.5328548,1.6091402,-0.083767936,-0.93276,-0.044476416,1.5130389,1.3333211
-0.2,-0.2,0.6,-0.5235987755982988,-0.17453292519943286,-0.34906585039886584,1.7317241,1.4799687,0.16907884,0.043687973,0.0913849,1.024806,0.558254,-0.5250975,1.6129853,-0.09253461,-0.92107344,-0.04600236,1.5052303,1.3723849
-0.2,-0.2,0.6,-0.5235987755982988,-0.17453292519943286,-0.34906585039886584,1.7482188,1.4899912,0.16294709,0.055334184,0.068292476,1.0264064,0.56420386,-0.5349602,1.6181663,-0.07070355,-0.90851897,-0.008264707,1.5053672,1.2513647
-0.2,-0.2,0.6,-0.5235987755982988,-0.17453292519943286,-0.34906585039886584,1.7384778,1.4764987,0.162871,0.042391714,0.10041973,1.0214821,0.56825155,-0.5371354,1.6105442,-0.08482377,-0.93186617,-0.045428474,1.5142628,1.3901241
-0.2,-0.2,0.6,-0.5235987755982988,-0.17453292519943286,-0.34906585039886584,1.7431458,1.4677281,0.16253571,0.043157842,0.08541632,1.0349927,0.559631,-0.53531224,1.6092188,-0.08734624,-0.9089186,-0.006934057,1.5181088,1.546265
-0.2,-0.2,0.6,-0.5235987755982988,-0.17453292519943286,-0.34906585039886584,1.7646898,1.4634128,0.15771702,0.04082506,0.082002796,1.0394001,0.5592383,-0.535748,1.6182635,-0.07094887,-0.93450975,-0.03778715,1.5212883,1.2084157
-0.2,-0.2,0.6,-0.5235987755982988,-0.17453292519943286,-0.34906585039886584,1.7255836,1.4871545,0.16252483,0.048849154,0.098174706,1.0283701,0.54421365,-0.53057534,1.6029136,-0.09451847,-0.91438377,0.002859905,1.5179136,1.5286038
-0.2,-0.2,0.6,-0.5235987755982988,-0.17453292519943286,-0.34906585039886584,1.7186317,1.4699054,0.15622514,0.05651057,0.09221299,1.0312006,0.54104,-0.53595465,1.6120045,-0.09682833,-0.91336006,-0.040056836,1.5146917,1.3911355
-0.2,-0.2,0.6,-0.5235987755982988,-0.17453292519943286,-0.34906585039886584,1.7410892,1.4790033,0.1681863,0.048875023,0.096818134,1.0248305,0.55689,-0.52844197,1.6138772,-0.07944646,-0.91996837,-0.035058018,1.5193723,1.3231989
-0.2,-0.2,0.6,-0.5235987755982988,-0.17453292519943286,-0.34906585039886584,1.7126544,1.4837053,0.16134036,0.05752294,0.09207875,1.0352602,0.5611628,-0.5305245,1.6078362,-0.086193725,-0.9206631,-0.0146634625,1.5041983,1.1348501
-0.2,-0.2,0.6,-0.5235987755982988,-0.17453292519943286,-0.34906585039886584,1.746495,1.4888667,0.15974076,0.042919144,0.09092461,1.0322706,0.55869824,-0.5355699,1.608618,-0.07514112,-0.9200379,-0.037856013,1.5088391,1.370757
-0.2,-0.2,0.6,-0.5235987755982988,-0.17453292519943286,-0.34906585039886584,1.7409178,1.4762307,0.16942273,0.04645312,0.08972001,1.0242589,0.5497931,-0.52942616,1.6132187,-0.10408845,-0.9195067,-0.020602873,1.5104027,1.3998076
-0.2,-0.2,0.6,-0.5235987755982988,-0.17453292519943286,-0.34906585039886584,1.750215,1.478721,0.1659705,0.04988708,0.091513276,1.0214114,0.57205284,-0.53880256,1.6169889,-0.08652937,-0.9150653,-0.017869603,1.5097342,1.3484526
-0.2,-0.2,0.6,-0.5235987755982988,-0.17453292519943286,-0.34906585039886584,1.7447753,1.4731883,0.15788212,0.045563947,0.090580285,1.0340238,0.5561134,-0.53122365,1.6143458,-0.08350584,-0.92805314,-0.04148498,1.5115151,1.2947813
-0.2,-0.2,0.6,-0.5235987755982988,-0.17453292519943286,-0.34906585039886584,1.7377598,1.469502,0.16054417,0.03849801,0.0889554,1.0299693,0.546298,-0.53618306,1.6142781,-0.09387387,-0.9347662,0.011328615,1.5283312,1.4044428
-0.2,-0.2,0.6,-0.5235987755982988,-0.17453292519943286,-0.34906585039886584,1.7148999,1.4822886,0.16169448,0.04859901,0.086991906,1.0354066,0.5614546,-0.53020394,1.6079719,-0.09581722,-0.9333767,-0.052573446,1.5160735,1.4323018
-0.2,-0.2,0.6,-0.5235987755982988,-0.17453292519943286,-0.34906585039886584,1.7403791,1.4937875,0.16302785,0.048100546,0.0989138,1.0294971,0.55374753,-0.53109366,1.6082193,-0.08640073,-0.91947967,-0.034599252,1.5038669,1.3066449
-0.2,-0.2,0.6,-0.5235987755982988,-0.17453292519943286,-0.34906585039886584,1.7038071,1.4713302,0.16478033,0.04861253,0.075779915,1.0404532,0.5668716,-0.5377247,1.612916,-0.08885055,-0.9230275,-0.038798466,1.5070146,1.3386432
-0.2,-0.2,0.6,-0.5235987755982988,-0.17453292519943286,-0.34906585039886584,1.7420536,1.4735632,0.16510265,0.037838515,0.08221178,1.0234456,0.57530516,-0.52576065,1.6080992,-0.08319423,-0.92174697,0.00051551964,1.5234513,1.3277744
-0.2,-0.2,0.6,-0.5235987755982988,-0.17453292519943286,-0.34906585039886584,1.732285,1.4793189,0.16455348,0.043261852,0.09375139,1.034532,0.55460113,-0.5256292,1.6179545,-0.09118133,-0.925097,-0.01501129,1.5274132,1.3956832
-0.2,-0.2,0.6,-0.5235987755982988,-0.17453292519943286,-0.34906585039886584,1.7374464,1.4904811,0.1668585,0.053707015,0.09585991,1.0247604,0.55318123,-0.53384835,1.6096102,-0.09959842,-0.91831714,-0.022735605,1.5056086,1.2878337
-0.2,-0.2,0.6,-0.5235987755982988,-0.17453292519943286,-0.34906585039886584,1.6973733,1.482459,0.16114956,0.041848626,0.09020875,1.0364991,0.5632965,-0.53096277,1.6090578,-0.090770535,-0.9310047,-0.01243422,1.5188963,1.408524
-0.2,-0.2,0.6,-0.5235987755982988,-0.17453292519943286,-0.34906585039886584,1.7103502,1.4831618,0.15985456,0.048893962,0.094022065,1.0275681,0.5583332,-0.5277051,1.6122879,-0.084182344,-0.93881625,-0.0313619,1.5109863,1.294908
-0.2,-0.2,0.6,-0.5235987755982988,-0.17453292519943286,-0.34906585039886584,1.7192262,1.4547645,0.16641599,0.041686643,0.09564173,1.0377358,0.5534989,-0.53171045,1.6109792,-0.090375215,-0.92579615,-0.04888893,1.5036149,1.2783438
-0.2,-0.2,0.6,-0.5235987755982988,-0.17453292519943286,-0.34906585039886584,1.709657,1.4752345,0.17607696,0.057076655,0.07022418,1.0311971,0.5438131,-0.53352153,1.6051897,-0.08535011,-0.9256965,-0.01176468,1.5133388,1.2971163
-0.2,-0.2,0.6,-0.5235987755982988,-0.17453292519943286,-0.34906585039886584,1.7278879,1.4805083,0.16703008,0.04555834,0.07180495,1.0248251,0.5745813,-0.5320164,1.6152292,-0.09035283,-0.9328578,-0.06583374,1.5140431,1.3566766
-0.2,-0.2,0.6,-0.5235987755982988,-0.17453292519943286,-0.34906585039886584,1.7316322,1.4729592,0.1657803,0.050078347,0.083500996,1.0376431,0.5281937,-0.5264933,1.6159303,-0.08741064,-0.91692615,-0.0058025275,1.5224296,1.3664236
-0.2,-0.2,0.6,-0.5235987755982988,-0.17453292519943286,-0.34906585039886584,1.74098,1.4742515,0.15618473,0.055054132,0.077723056,1.0355295,0.5873952,-0.52892214,1.6013064,-0.08704723,-0.9275079,-0.025840133,1.5144112,1.1897041
-0.2,-0.2,0.6,-0.5235987755982988,-0.17453292519943286,-0.34906585039886584,1.7350974,1.4833164,0.16307856,0.050110567,0.08086255,1.0288959,0.5333428,-0.53445697,1.607086,-0.09269041,-0.92770875,-0.009286033,1.5137491,1.4163316
-0.2,-0.2,0.6,-0.5235987755982988,-0.17453292519943286,-0.34906585039886584,1.7260801,1.4649576,0.16130005,0.054078143,0.10106568,1.0286019,0.5577982,-0.5290687,1.6102867,-0.08766077,-0.93292665,-0.05021753,1.523966,1.282975
-0.2,-0.2,0.6,-0.5235987755982988,-0.17453292519943286,-0.34906585039886584,1.7441945,1.4881381,0.16608784,0.044099674,0.09416247,1.0306581,0.54370177,-0.5278018,1.6105356,-0.08429248,-0.92418826,-0.041174125,1.5084084,1.316485
-0.2,-0.2,0.6,-0.5235987755982988,-0.17453292519943286,-0.34906585039886584,1.7350968,1.481781,0.15752229,0.060725234,0.09286318,1.0240772,0.58780056,-0.5324299,1.6202013,-0.0943804,-0.91630685,-0.029493542,1.5142145,1.3305446
-0.2,-0.2,0.6,-0.5235987755982988,-0.17453292519943286,-0.34906585039886584,1.7461567,1.4692539,0.15879057,0.05045806,0.08691656,1.0244609,0.56139004,-0.53451586,1.6109443,-0.06975882,-0.9106839,-0.0336559,1.5067563,1.3170328
-0.2,-0.2,0.6,-0.5235987755982988,-0.17453292519943286,-0.34906585039886584,1.7421812,1.4797084,0.17233986,0.049009554,0.08566086,1.0267136,0.5257543,-0.53368527,1.6160191,-0.08584917,-0.9412932,-0.012272563,1.5250946,1.2391514
-0.2,-0.2,0.6,-0.5235987755982988,-0.17453292519943286,-0.34906585039886584,1.7412568,1.4736745,0.1637929,0.04511677,0.09561911,1.0319464,0.5931434,-0.5346427,1.6073861,-0.093817025,-0.90661466,-0.016969193,1.5241845,1.3338759
-0.2,-0.2,0.6,-0.5235987755982988,-0.17453292519943286,-0.34906585039886584,1.7329488,1.4633926,0.15852088,0.052462135,0.089522816,1.0347099,0.58818954,-0.52569246,1.6036023,-0.08728967,-0.9171646,-0.052755028,1.5207891,1.3600321
-0.2,-0.2,0.6,-0.5235987755982988,-0.17453292519943286,-0.34906585039886584,1.7458917,1.4830498,0.16032588,0.037242528,0.090018176,1.0417191,0.56517345,-0.5292221,1.6112847,-0.1005342,-0.930414,-0.018891972,1.5260751,1.3963276
-0.2,-0.2,0.6,-0.5235987755982988,-0.17453292519943286,-0.34906585039886584,1.720838,1.4621352,0.15853615,0.042188,0.094402134,1.0376221,0.5448622,-0.5267546,1.6191162,-0.06842741,-0.9197431,-0.045880813,1.5153819,1.335938
-0.2,-0.2,0.6,-0.5235987755982988,-0.17453292519943286,-0.34906585039886584,1.746822,1.471313,0.16930029,0.05499691,0.08628813,1.0183568,0.5468901,-0.5298118,1.6166666,-0.08959352,-0.9283117,-0.042938836,1.5316732,1.5341655
-0.2,-0.2,0.6,-0.5235987755982988,-0.17453292519943286,-0.34906585039886584,1.7212523,1.4747329,0.16091552,0.047639906,0.09699183,1.0313569,0.56656116,-0.52789664,1.6153636,-0.09463999,-0.9344432,-0.054303493,1.5251014,1.3909423
-0.2,-0.2,0.6,-0.5235987755982988,-0.17453292519943286,-0.34906585039886584,1.7443376,1.4760935,0.16714758,0.043712977,0.0797749,1.0316777,0.55176735,-0.5251442,1.6183437,-0.090436205,-0.93937916,-0.018581804,1.5250413,1.2714081
-0.2,-0.2,0.6,-0.5235987755982988,-0.17453292519943286,-0.34906585039886584,1.7515156,1.4831401,0.16770475,0.040761873,0.0848404,1.0231305,0.554208,-0.5388939,1.6115731,-0.08929743,-0.9214611,-0.022936616,1.5138258,1.3153902
-0.2,-0.2,0.6,-0.5235987755982988,-0.17453292519943286,-0.34906585039886584,1.7230611,1.4736542,0.16631866,0.040884253,0.09631432,1.0275015,0.53784215,-0.5383342,1.616297,-0.08892274,-0.92785347,0.003446318,1.5096303,1.3257589
-0.2,-0.2,0.6,-0.5235987755982988,-0.17453292519943286,-0.34906585039886584,1.7180547,1.484291,0.15813255,0.047158897,0.098679505,1.0359595,0.55011255,-0.53324723,1.6069051,-0.10118436,-0.92768455,-0.0018944158,1.5104825,1.2831167
-0.2,-0.2,0.6,-0.5235987755982988,-0.17453292519943286,-0.34906585039886584,1.7265599,1.4874672,0.159613,0.051882718,0.094773486,1.028183,0.56095725,-0.53209823,1.6084921,-0.06803445,-0.924116,-0.041234456,1.5077442,1.2113643
-0.2,-0.2,0.6,-0.5235987755982988,-0.17453292519943286,-0.34906585039886584,1.725297,1.4753567,0.16189894,0.045590017,0.08837736,1.033125,0.5334254,-0.5199335,1.6034799,-0.08691738,-0.92704344,-0.0008302788,1.5288492,1.3135272
-0.2,-0.2,0.6,-0.5235987755982988,-0.17453292519943286,-0.34906585039886584,1.7460834,1.4687349,0.16099752,0.047269925,0.10192759,1.0266573,0.54061717,-0.5284422,1.6103635,-0.09454427,-0.9179793,-0.022682225,1.5190536,1.3823017
-0.2,-0.2,0.6,-0.5235987755982988,-0.17453292519943286,-0.34906585039886584,1.7501494,1.4946995,0.15988606,0.050702203,0.08740523,1.0247804,0.57921636,-0.53359795,1.6062937,-0.07924581,-0.9307174,-0.0596073,1.5034784,1.2820922
-0.2,-0.2,0.6,-0.5235987755982988,-0.17453292519943286,-0.34906585039886584,1.7442111,1.4806883,0.16852893,0.04322098,0.08027102,1.0319228,0.56121635,-0.5314828,1.6132807,-0.08430178,-0.92193294,-0.025767751,1.520491,1.3516215
-0.2,-0.2,0.6,-0.5235987755982988,-0.17453292519943286,-0.34906585039886584,1.7286265,1.4588246,0.15879136,0.042860415,0.086711496,1.0321548,0.5497108,-0.5335976,1.6152042,-0.08918059,-0.9354217,-0.031813987,1.527427,1.4264696
-0.2,-0.2,0.6,-0.5235987755982988,-0.17453292519943286,-0.34906585039886584,1.7281237,1.4809898,0.16694887,0.047740124,0.10133133,1.0419239,0.5782696,-0.5371169,1.6167862,-0.08961136,-0.9136643,-0.02372983,1.5241969,1.2663887
-0.2,-0.2,0.6,-0.5235987755982988,-0.17453292519943286,-0.34906585039886584,1.6962838,1.4755468,0.1591752,0.043934274,0.097579464,1.0414152,0.5643151,-0.53935015,1.6074728,-0.08743843,-0.90657777,-0.017074669,1.50812,1.422507
-0.2,-0.2,0.6,-0.5235987755982988,-0.17453292519943286,-0.34906585039886584,1.718305,1.472895,0.16715421,0.050814882,0.08646971,1.0231171,0.58261186,-0.52822816,1.6122526,-0.09014708,-0.9187229,-0.021980863,1.5146191,1.3261238
