sanky1234/BimanualDexCatch/isaacgymenvs/cem_results/football_pose_-0.2_-0.2_0.6_-0.34906585039886584_-0.34906585039886584_0.34906585039886606.csv
x,y,z,roll,pitch,yaw,robot1/joint1,robot1/joint2,robot1/joint3,robot1/joint4,robot1/joint5,robot1/joint6,robot1/joint7,robot2/joint1,robot2/joint2,robot2/joint3,robot2/joint4,robot2/joint5,robot2/joint6,robot2/joint7
-0.2,-0.2,0.6,-0.34906585039886584,-0.34906585039886584,0.34906585039886606,1.636103,1.5233295,0.1118017,0.21411179,0.2126172,0.75922525,0.37171504,-0.36838278,1.5599049,-0.3361147,-0.75585103,0.07865374,1.3367902,-0.85914534
-0.2,-0.2,0.6,-0.34906585039886584,-0.34906585039886584,0.34906585039886606,1.601399,1.5459507,0.10204642,0.2049938,0.2389982,0.7658972,0.37712303,-0.3751335,1.5538871,-0.3426835,-0.78529286,0.052364986,1.333533,-1.0404984
-0.2,-0.2,0.6,-0.34906585039886584,-0.34906585039886584,0.34906585039886606,1.6118773,1.5357624,0.10342299,0.20716372,0.24895796,0.743295,0.430996,-0.39069593,1.5493618,-0.3430705,-0.7637365,0.009288646,1.3178763,-0.46481556
-0.2,-0.2,0.6,-0.34906585039886584,-0.34906585039886584,0.34906585039886606,1.6055537,1.5242283,0.10633388,0.18714593,0.25164422,0.7512011,0.40581825,-0.37309277,1.5456064,-0.35342655,-0.7617304,0.105432995,1.3184371,-0.7413034
-0.2,-0.2,0.6,-0.34906585039886584,-0.34906585039886584,0.34906585039886606,1.5971142,1.511696,0.11881237,0.20754665,0.23920147,0.7333327,0.35597467,-0.37383988,1.5661641,-0.3287929,-0.77409136,0.051481377,1.3262672,-0.8329451
-0.2,-0.2,0.6,-0.34906585039886584,-0.34906585039886584,0.34906585039886606,1.5948293,1.5434177,0.09393827,0.20406914,0.27073988,0.74002475,0.43578488,-0.38616207,1.5497137,-0.33336043,-0.7405642,0.06751583,1.3222364,-0.67002517
-0.2,-0.2,0.6,-0.34906585039886584,-0.34906585039886584,0.34906585039886606,1.5944233,1.5198252,0.08892246,0.18081443,0.24811615,0.75710446,0.40369093,-0.37939477,1.5673431,-0.32371175,-0.7727301,0.08283726,1.3242168,-0.7067232
-0.2,-0.2,0.6,-0.34906585039886584,-0.34906585039886584,0.34906585039886606,1.6002002,1.5386878,0.117465794,0.20070809,0.2383667,0.7649209,0.4021514,-0.3851472,1.5551345,-0.33937782,-0.77638465,0.049627576,1.3294133,-0.7859123
-0.2,-0.2,0.6,-0.34906585039886584,-0.34906585039886584,0.34906585039886606,1.6087204,1.5272224,0.099875405,0.23926838,0.22489443,0.77590984,0.36398965,-0.3842333,1.5582377,-0.34032142,-0.7578032,0.0023660827,1.3422362,-0.66822994
-0.2,-0.2,0.6,-0.34906585039886584,-0.34906585039886584,0.34906585039886606,1.5965805,1.5134683,0.09487536,0.20620725,0.2700934,0.76912373,0.47380936,-0.38502884,1.5595926,-0.34436962,-0.73848784,0.12728767,1.3216482,-0.68844604
-0.2,-0.2,0.6,-0.34906585039886584,-0.34906585039886584,0.34906585039886606,1.6198449,1.5189997,0.09615435,0.20299335,0.23825467,0.7746368,0.38237834,-0.37092248,1.5790505,-0.34992957,-0.7587453,0.026760612,1.3207421,-0.8422569
-0.2,-0.2,0.6,-0.34906585039886584,-0.34906585039886584,0.34906585039886606,1.5665033,1.5437905,0.10781348,0.2080327,0.23825212,0.74052095,0.41995633,-0.38549012,1.5388218,-0.3393817,-0.7759388,0.09090519,1.3458228,-0.52321357
-0.2,-0.2,0.6,-0.34906585039886584,-0.34906585039886584,0.34906585039886606,1.6216073,1.5244145,0.093709946,0.19835606,0.2295334,0.7682649,0.46010736,-0.38342005,1.556674,-0.32062536,-0.7428661,0.044404678,1.3128768,-0.68695134
-0.2,-0.2,0.6,-0.34906585039886584,-0.34906585039886584,0.34906585039886606,1.5999973,1.5297147,0.10246358,0.2078214,0.27903625,0.7671128,0.40718675,-0.384641,1.5488223,-0.3462337,-0.77149767,0.09341237,1.3284671,-0.84496677
-0.2,-0.2,0.6,-0.34906585039886584,-0.34906585039886584,0.34906585039886606,1.6113008,1.5392368,0.0914734,0.21167617,0.28103727,0.7451664,0.42467117,-0.37737072,1.5521809,-0.33701423,-0.7981365,0.005830913,1.3243277,-0.7102423
-0.2,-0.2,0.6,-0.34906585039886584,-0.34906585039886584,0.34906585039886606,1.5988061,1.5305369,0.10328339,0.20257851,0.25775066,0.74639344,0.4373302,-0.38203156,1.558302,-0.33586448,-0.74020517,0.046413887,1.3107104,-0.771846
-0.2,-0.2,0.6,-0.34906585039886584,-0.34906585039886584,0.34906585039886606,1.5747715,1.5348585,0.09550416,0.2009168,0.24763891,0.7616436,0.3660879,-0.3653065,1.5573449,-0.32631728,-0.7394363,0.10918597,1.3184426,-0.7365607
-0.2,-0.2,0.6,-0.34906585039886584,-0.34906585039886584,0.34906585039886606,1.5780566,1.5319828,0.101790436,0.2081348,0.25825387,0.7468667,0.4366123,-0.3856816,1.5597157,-0.3444505,-0.76675224,0.07660896,1.3282628,-0.62475187
-0.2,-0.2,0.6,-0.34906585039886584,-0.34906585039886584,0.34906585039886606,1.6271791,1.5249671,0.09503882,0.19137776,0.22699946,0.77445525,0.3822262,-0.38129398,1.5706413,-0.3310683,-0.771617,0.08372987,1.3322381,-0.8168855
-0.2,-0.2,0.6,-0.34906585039886584,-0.34906585039886584,0.34906585039886606,1.5844177,1.5272139,0.101910025,0.1684306,0.2258508,0.77135706,0.42396325,-0.38879797,1.5484006,-0.3252716,-0.7798246,0.043512024,1.3335556,-0.60024965
-0.2,-0.2,0.6,-0.34906585039886584,-0.34906585039886584,0.34906585039886606,1.6244165,1.5312792,0.10351449,0.22120224,0.24431026,0.74069065,0.3786426,-0.37818208,1.5643693,-0.34635213,-0.73482114,0.020786986,1.3178599,-0.77204984
-0.2,-0.2,0.6,-0.34906585039886584,-0.34906585039886584,0.34906585039886606,1.6140188,1.5183109,0.08602667,0.22410583,0.23514253,0.7462871,0.44704658,-0.38056156,1.5696013,-0.32582575,-0.7093119,0.08789618,1.3288218,-0.55558354
-0.2,-0.2,0.6,-0.34906585039886584,-0.34906585039886584,0.34906585039886606,1.598183,1.5287054,0.091624156,0.23183103,0.24459055,0.77257967,0.38037464,-0.38661823,1.5537169,-0.32338303,-0.77909535,0.09304545,1.3393704,-0.7597673
-0.2,-0.2,0.6,-0.34906585039886584,-0.34906585039886584,0.34906585039886606,1.62945,1.5170189,0.09476984,0.17939715,0.2703563,0.77273506,0.39353758,-0.38362563,1.55896,-0.33299425,-0.7505449,0.06920087,1.3089973,-0.6742832
-0.2,-0.2,0.6,-0.34906585039886584,-0.34906585039886584,0.34906585039886606,1.6208594,1.5367638,0.09434475,0.22764382,0.22541733,0.7576308,0.39487186,-0.38315874,1.54107,-0.32960436,-0.7733803,0.0037515834,1.319419,-0.7163805
-0.2,-0.2,0.6,-0.34906585039886584,-0.34906585039886584,0.34906585039886606,1.609796,1.5351135,0.091426186,0.18502772,0.24614693,0.7638955,0.4104522,-0.39079446,1.5396827,-0.3449861,-0.8409484,0.066692114,1.3408839,-0.911053
-0.2,-0.2,0.6,-0.34906585039886584,-0.34906585039886584,0.34906585039886606,1.6045538,1.5335793,0.11059897,0.18801148,0.22382905,0.7650197,0.40316853,-0.377369,1.5643015,-0.32892552,-0.76796514,0.08571441,1.3223957,-0.711521
-0.2,-0.2,0.6,-0.34906585039886584,-0.34906585039886584,0.34906585039886606,1.6040162,1.5155815,0.10939185,0.19951972,0.25751492,0.77384627,0.3950081,-0.37485644,1.5565349,-0.33092302,-0.744033,0.055410977,1.3169845,-0.60376483
-0.2,-0.2,0.6,-0.34906585039886584,-0.34906585039886584,0.34906585039886606,1.5896177,1.5304123,0.09521404,0.18651196,0.2422114,0.7764156,0.38502097,-0.3752323,1.5730891,-0.33307254,-0.73921067,0.07190818,1.336259,-0.6461901
-0.2,-0.2,0.6,-0.34906585039886584,-0.34906585039886584,0.34906585039886606,1.5812697,1.5281624,0.102014154,0.18785392,0.2864703,0.7524771,0.37478343,-0.3827972,1.5631472,-0.332334,-0.7801569,0.024025906,1.330941,-0.66762227
-0.2,-0.2,0.6,-0.34906585039886584,-0.34906585039886584,0.34906585039886606,1.6102507,1.5247192,0.090357766,0.2223019,0.22514641,0.7584837,0.39220232,-0.37845072,1.568151,-0.32318887,-0.74644256,0.043041255,1.3181719,-0.7931675
-0.2,-0.2,0.6,-0.34906585039886584,-0.34906585039886584,0.34906585039886606,1.5796561,1.5356005,0.10517923,0.2357768,0.2609725,0.7592312,0.4104004,-0.37115213,1.5555617,-0.345474,-0.7729712,0.045549456,1.3266042,-0.8374681
-0.2,-0.2,0.6,-0.34906585039886584,-0.34906585039886584,0.34906585039886606,1.6025593,1.5232043,0.09843634,0.17686304,0.244044,0.76146823,0.39086473,-0.38332808,1.5539254,-0.33466583,-0.7692523,0.05301172,1.3385606,-0.6411423
-0.2,-0.2,0.6,-0.34906585039886584,-0.34906585039886584,0.34906585039886606,1.5882088,1.5325652,0.11016178,0.2359235,0.24471833,0.74630004,0.34181607,-0.38551244,1.5767075,-0.34426466,-0.76744634,0.09401817,1.3117627,-0.6733956
-0.2,-0.2,0.6,-0.34906585039886584,-0.34906585039886584,0.34906585039886606,1.6084454,1.5236226,0.09776887,0.20301986,0.217719,0.7500548,0.35903552,-0.38300455,1.5544194,-0.33429405,-0.77060926,0.062554985,1.3362037,-0.640167
-0.2,-0.2,0.6,-0.34906585039886584,-0.34906585039886584,0.34906585039886606,1.6271869,1.5238217,0.103056565,0.18142474,0.23740381,0.78010017,0.36920643,-0.37602112,1.5606997,-0.31271076,-0.7558156,0.036898892,1.3350309,-0.83028674
-0.2,-0.2,0.6,-0.34906585039886584,-0.34906585039886584,0.34906585039886606,1.6156569,1.5269972,0.08082061,0.18911932,0.298618,0.7866156,0.40006867,-0.38046202,1.543514,-0.3345419,-0.7709705,0.07163708,1.3368622,-0.685488
-0.2,-0.2,0.6,-0.34906585039886584,-0.34906585039886584,0.34906585039886606,1.592858,1.5403217,0.086204566,0.1931253,0.21601956,0.7586293,0.40228808,-0.38004324,1.5603658,-0.33244672,-0.76448935,0.020566292,1.3042476,-0.9011649
-0.2,-0.2,0.6,-0.34906585039886584,-0.34906585039886584,0.34906585039886606,1.6024677,1.5550697,0.09231837,0.19780448,0.26915595,0.7689274,0.37538806,-0.3781736,1.5471734,-0.32804698,-0.7807309,0.058107875,1.3285316,-0.7570289
-0.2,-0.2,0.6,-0.34906585039886584,-0.34906585039886584,0.34906585039886606,1.6073455,1.5175595,0.09432596,0.21609655,0.26384094,0.74229234,0.41627866,-0.37492317,1.580184,-0.34143284,-0.7336669,0.07674917,1.3172767,-0.57261443
-0.2,-0.2,0.6,-0.34906585039886584,-0.34906585039886584,0.34906585039886606,1.5790768,1.5180782,0.09041175,0.23159179,0.23689778,0.78223157,0.366384,-0.38501805,1.559867,-0.32598838,-0.76820874,0.02129491,1.3131111,-0.7721135
-0.2,-0.2,0.6,-0.34906585039886584,-0.34906585039886584,0.34906585039886606,1.6110027,1.5213424,0.10736277,0.1974526,0.24950983,0.75992703,0.3984565,-0.37967935,1.5670521,-0.31873554,-0.77328634,0.01426266,1.3223015,-0.9082739
-0.2,-0.2,0.6,-0.34906585039886584,-0.34906585039886584,0.34906585039886606,1.613345,1.5297099,0.10220917,0.22407967,0.22430654,0.75663465,0.37819812,-0.38189495,1.5767993,-0.35445812,-0.7708108,0.023064122,1.33199,-0.6729157
-0.2,-0.2,0.6,-0.34906585039886584,-0.34906585039886584,0.34906585039886606,1.6028097,1.5359329,0.08293823,0.18824022,0.23075765,0.7554719,0.40059984,-0.3789274,1.5723584,-0.32407174,-0.74718356,0.06723831,1.324618,-0.7239625
-0.2,-0.2,0.6,-0.34906585039886584,-0.34906585039886584,0.34906585039886606,1.6342267,1.5314918,0.11578562,0.21324348,0.23241112,0.790538,0.3864764,-0.37615925,1.5658453,-0.3375895,-0.7834548,0.086848505,1.3476462,-0.8336579
-0.2,-0.2,0.6,-0.34906585039886584,-0.34906585039886584,0.34906585039886606,1.5713212,1.5216291,0.10516041,0.22046794,0.25138718,0.76427126,0.3958228,-0.37114146,1.5584786,-0.3315549,-0.7197537,-0.014605918,1.319757,-0.74682087
-0.2,-0.2,0.6,-0.34906585039886584,-0.34906585039886584,0.34906585039886606,1.5964842,1.5328878,0.077868745,0.21440126,0.25392175,0.7587568,0.37571034,-0.37951544,1.5616119,-0.32796866,-0.7710634,0.049787942,1.324437,-0.6582302
-0.2,-0.2,0.6,-0.34906585039886584,-0.34906585039886584,0.34906585039886606,1.5912038,1.5248352,0.084833466,0.18978375,0.22510073,0.77033395,0.40573555,-0.38024372,1.5574702,-0.33242255,-0.758593,0.022727504,1.307683,-0.7409691
-0.2,-0.2,0.6,-0.34906585039886584,-0.34906585039886584,0.34906585039886606,1.5884415,1.5277692,0.08838717,0.2298266,0.22096296,0.7467292,0.43347365,-0.38287848,1.5568448,-0.32142195,-0.75998014,0.08037206,1.3398633,-0.8447548
-0.2,-0.2,0.6,-0.34906585039886584,-0.34906585039886584,0.34906585039886606,1.5735943,1.5216479,0.09744101,0.17951976,0.21570309,0.77369696,0.447587,-0.3851391,1.5789621,-0.32913655,-0.7927054,-0.004034475,1.3354813,-0.5978521
-0.2,-0.2,0.6,-0.34906585039886584,-0.34906585039886584,0.34906585039886606,1.6259751,1.5484512,0.10109695,0.2111005,0.2538793,0.762107,0.37479228,-0.38789323,1.5522939,-0.333057,-0.7549772,0.039232656,1.3223094,-0.6401312
-0.2,-0.2,0.6,-0.34906585039886584,-0.34906585039886584,0.34906585039886606,1.6032295,1.5104386,0.100164056,0.20240644,0.2472234,0.7566081,0.34818703,-0.38276306,1.5512025,-0.35632747,-0.7748045,0.11767721,1.3206381,-0.93105954
-0.2,-0.2,0.6,-0.34906585039886584,-0.34906585039886584,0.34906585039886606,1.6271195,1.5322068,0.10599279,0.19133563,0.24372679,0.76287466,0.4228678,-0.38071433,1.5636373,-0.33158052,-0.7656975,0.04639545,1.3094435,-0.7222356
-0.2,-0.2,0.6,-0.34906585039886584,-0.34906585039886584,0.34906585039886606,1.5957283,1.5393227,0.08888376,0.22281651,0.25428095,0.7443347,0.3809149,-0.3792819,1.5670499,-0.33539572,-0.7719269,0.048308913,1.3333527,-0.77711725
-0.2,-0.2,0.6,-0.34906585039886584,-0.34906585039886584,0.34906585039886606,1.5709054,1.5189229,0.08559401,0.20845711,0.23740225,0.75420046,0.4129746,-0.38132277,1.5763285,-0.33126467,-0.7769921,0.084404275,1.32555,-0.7423004
-0.2,-0.2,0.6,-0.34906585039886584,-0.34906585039886584,0.34906585039886606,1.5715358,1.5255641,0.09240851,0.17518793,0.27805954,0.74653065,0.40801662,-0.38351354,1.5508327,-0.34054473,-0.81042355,0.062426306,1.326741,-0.6876162
-0.2,-0.2,0.6,-0.34906585039886584,-0.34906585039886584,0.34906585039886606,1.5931584,1.523927,0.109093934,0.22314827,0.23234954,0.75493044,0.37410012,-0.38475248,1.5557138,-0.33826593,-0.7250061,0.08236399,1.3172343,-0.8666688
-0.2,-0.2,0.6,-0.34906585039886584,-0.34906585039886584,0.34906585039886606,1.6171886,1.5282464,0.097538665,0.22162738,0.25526235,0.7446844,0.3908394,-0.379253,1.5693536,-0.34509978,-0.7424388,0.060539853,1.3309213,-1.0601335
-0.2,-0.2,0.6,-0.34906585039886584,-0.34906585039886584,0.34906585039886606,1.6126151,1.5273768,0.088280514,0.22257124,0.25548217,0.74208975,0.36914128,-0.37593037,1.5490061,-0.32813534,-0.7404395,0.059729137,1.3405704,-0.6014145
-0.2,-0.2,0.6,-0.34906585039886584,-0.34906585039886584,0.34906585039886606,1.629504,1.529403,0.09085075,0.20721003,0.24574137,0.7551386,0.40654507,-0.38846773,1.5436276,-0.33564547,-0.7529536,0.0815857,1.332629,-0.63104355
-0.2,-0.2,0.6,-0.34906585039886584,-0.34906585039886584,0.34906585039886606,1.6136236,1.5335691,0.0974025,0.22903398,0.2482446,0.76775676,0.335285,-0.37887707,1.5667255,-0.3156539,-0.734764,0.055854183,1.312283,-0.82606566
-0.2,-0.2,0.6,-0.34906585039886584,-0.34906585039886584,0.34906585039886606,1.5986198,1.517198,0.078998245,0.19970879,0.24662387,0.7776913,0.42228,-0.37611336,1.5559461,-0.32759774,-0.7452585,0.06567014,1.3260148,-0.6615978
-0.2,-0.2,0.6,-0.34906585039886584,-0.34906585039886584,0.34906585039886606,1.5999595,1.535619,0.09990012,0.21848193,0.24284846,0.75687987,0.42331558,-0.3790819,1.5315363,-0.3385908,-0.7608608,0.10514799,1.3343732,-0.80467916
-0.2,-0.2,0.6,-0.34906585039886584,-0.34906585039886584,0.34906585039886606,1.5891747,1.5273257,0.08921791,0.18128125,0.25483522,0.7420068,0.4365515,-0.377927,1.5335184,-0.33852747,-0.8014254,0.10374915,1.3264121,-0.8088947
-0.2,-0.2,0.6,-0.34906585039886584,-0.34906585039886584,0.34906585039886606,1.5925845,1.5488609,0.094617195,0.19368127,0.23229063,0.78008825,0.41134953,-0.37663624,1.5530816,-0.35550955,-0.78007776,0.1179185,1.336012,-0.87198925
-0.2,-0.2,0.6,-0.34906585039886584,-0.34906585039886584,0.34906585039886606,1.5960993,1.5271702,0.090330146,0.18599318,0.24806835,0.7497098,0.37683612,-0.37137455,1.5650767,-0.33889854,-0.75562686,0.08270057,1.3354547,-0.76286125
-0.2,-0.2,0.6,-0.34906585039886584,-0.34906585039886584,0.34906585039886606,1.587417,1.5259091,0.081204794,0.21901505,0.23903218,0.75227475,0.3962,-0.37295553,1.5608126,-0.33734012,-0.7619489,0.04447399,1.3071631,-0.8272985
-0.2,-0.2,0.6,-0.34906585039886584,-0.34906585039886584,0.34906585039886606,1.6112474,1.5253402,0.09715791,0.22440788,0.24403389,0.7609152,0.41641092,-0.3871273,1.5542164,-0.32547805,-0.7505206,0.072027564,1.32887,-0.7464529
-0.2,-0.2,0.6,-0.34906585039886584,-0.34906585039886584,0.34906585039886606,1.6029824,1.538777,0.08313369,0.17750926,0.2593254,0.7576747,0.40052724,-0.37009847,1.5659451,-0.35300034,-0.74859715,0.06276689,1.3116237,-0.6393203
-0.2,-0.2,0.6,-0.34906585039886584,-0.34906585039886584,0.34906585039886606,1.5971395,1.511234,0.091006204,0.2210723,0.27536035,0.7761876,0.45769796,-0.38274938,1.5434053,-0.32937714,-0.7390546,0.06615009,1.3387448,-0.8954782
-0.2,-0.2,0.6,-0.34906585039886584,-0.34906585039886584,0.34906585039886606,1.6154753,1.5421705,0.09541724,0.23467293,0.26931903,0.75841373,0.35308564,-0.38739908,1.5501295,-0.32937115,-0.7308319,0.020825304,1.3260716,-0.7550577
-0.2,-0.2,0.6,-0.34906585039886584,-0.34906585039886584,0.34906585039886606,1.6013649,1.5330718,0.098950446,0.20180543,0.27884415,0.7462999,0.3853124,-0.3844203,1.5509907,-0.3424568,-0.7223033,0.056027662,1.3083988,-0.73609746
-0.2,-0.2,0.6,-0.34906585039886584,-0.34906585039886584,0.34906585039886606,1.6167054,1.5312256,0.10342804,0.22750586,0.25999972,0.7655197,0.3892696,-0.37433118,1.5824667,-0.32639843,-0.73014575,0.03187357,1.3302457,-0.716271
-0.2,-0.2,0.6,-0.34906585039886584,-0.34906585039886584,0.34906585039886606,1.6005051,1.5251299,0.10807963,0.22626875,0.24771422,0.7560687,0.4338869,-0.37032238,1.5657343,-0.3300672,-0.7471901,0.05701944,1.3370327,-0.6509798
-0.2,-0.2,0.6,-0.34906585039886584,-0.34906585039886584,0.34906585039886606,1.6157855,1.5257146,0.11002565,0.18763475,0.26672125,0.77943116,0.38794282,-0.38352388,1.561908,-0.34029242,-0.7292097,0.09048811,1.3234425,-0.78887475
-0.2,-0.2,0.6,-0.34906585039886584,-0.34906585039886584,0.34906585039886606,1.605391,1.5257297,0.080898784,0.22076118,0.2544933,0.7715338,0.37645462,-0.38539568,1.551248,-0.33165383,-0.74163234,0.040397417,1.3381673,-0.6877556
-0.2,-0.2,0.6,-0.34906585039886584,-0.34906585039886584,0.34906585039886606,1.6176904,1.5276259,0.10383773,0.23526417,0.22297207,0.7608881,0.37696922,-0.38519228,1.5663676,-0.34805226,-0.7426347,0.031600576,1.3068689,-0.7614452
-0.2,-0.2,0.6,-0.34906585039886584,-0.34906585039886584,0.34906585039886606,1.6050019,1.5268606,0.117502294,0.19782393,0.27901798,0.7658655,0.42575088,-0.39479813,1.5454392,-0.3234071,-0.7286237,0.026533466,1.3203773,-0.7839002
-0.2,-0.2,0.6,-0.34906585039886584,-0.34906585039886584,0.34906585039886606,1.5495398,1.531219,0.099478856,0.23377445,0.24371204,0.75625414,0.3667333,-0.38254678,1.5649558,-0.32562327,-0.74785584,0.07386173,1.3358865,-0.8437818
-0.2,-0.2,0.6,-0.34906585039886584,-0.34906585039886584,0.34906585039886606,1.5796783,1.5373337,0.099318884,0.238825,0.23887788,0.7720566,0.3869125,-0.381419,1.5454919,-0.3391914,-0.72820926,0.051027745,1.3239304,-0.82504284
-0.2,-0.2,0.6,-0.34906585039886584,-0.34906585039886584,0.34906585039886606,1.6304691,1.5360724,0.11624196,0.17896429,0.24841166,0.7745209,0.3677598,-0.38364097,1.5768082,-0.35355482,-0.7653785,0.038858276,1.3242012,-0.71605057
-0.2,-0.2,0.6,-0.34906585039886584,-0.34906585039886584,0.34906585039886606,1.5982708,1.5239067,0.09824871,0.16927037,0.23358841,0.7629157,0.41927457,-0.36844605,1.5573146,-0.33598644,-0.75762177,0.044890594,1.2963716,-0.8943674
-0.2,-0.2,0.6,-0.34906585039886584,-0.34906585039886584,0.34906585039886606,1.5774342,1.5394481,0.11410236,0.20632118,0.2534503,0.7662245,0.36463484,-0.3783068,1.5681292,-0.33535966,-0.7521727,0.055017233,1.3276342,-0.91369313
-0.2,-0.2,0.6,-0.34906585039886584,-0.34906585039886584,0.34906585039886606,1.604956,1.5326715,0.097759515,0.20406947,0.23264726,0.7798408,0.37704942,-0.37681383,1.5655341,-0.33198777,-0.7593102,0.016831184,1.3301791,-0.8399814
-0.2,-0.2,0.6,-0.34906585039886584,-0.34906585039886584,0.34906585039886606,1.6238956,1.5285962,0.10408002,0.20077157,0.2507597,0.74252415,0.40352756,-0.3834218,1.561422,-0.3406584,-0.7846674,0.03877038,1.3236622,-0.77937764
-0.2,-0.2,0.6,-0.34906585039886584,-0.34906585039886584,0.34906585039886606,1.6025071,1.5231688,0.10196199,0.18214703,0.22060004,0.789991,0.3925796,-0.39360076,1.5455223,-0.32257113,-0.7546955,0.08035742,1.3246199,-0.9495183
-0.2,-0.2,0.6,-0.34906585039886584,-0.34906585039886584,0.34906585039886606,1.5890536,1.5406802,0.10043878,0.18012156,0.2816315,0.7766859,0.4048234,-0.39152676,1.5695561,-0.3230174,-0.78403175,0.027853781,1.3117796,-0.7436883
-0.2,-0.2,0.6,-0.34906585039886584,-0.34906585039886584,0.34906585039886606,1.5855888,1.528304,0.11542831,0.19574188,0.20362128,0.76418346,0.36455905,-0.37869072,1.5778857,-0.34550732,-0.78309065,0.07263862,1.3248385,-0.93571556
-0.2,-0.2,0.6,-0.34906585039886584,-0.34906585039886584,0.34906585039886606,1.564636,1.5315061,0.10444356,0.15094413,0.26872206,0.7518404,0.36384204,-0.38350722,1.5527854,-0.35655585,-0.89584744,0.07815838,1.3235654,-0.8836383
-0.2,-0.2,0.6,-0.34906585039886584,-0.34906585039886584,0.34906585039886606,1.585477,1.5384221,0.1219484,0.21766534,0.24497856,0.7551985,0.36744282,-0.37613636,1.572209,-0.3329538,-0.722412,0.046048697,1.3428903,-0.6969457
-0.2,-0.2,0.6,-0.34906585039886584,-0.34906585039886584,0.34906585039886606,1.5854206,1.5110862,0.09671261,0.22148824,0.25146106,0.7613212,0.38244593,-0.37749383,1.5769794,-0.34069815,-0.7712154,0.042474013,1.3337235,-0.8019349
-0.2,-0.2,0.6,-0.34906585039886584,-0.34906585039886584,0.34906585039886606,1.5969816,1.5229157,0.09781181,0.19607691,0.2810439,0.76072425,0.3942299,-0.37787434,1.5516354,-0.32430544,-0.7257229,0.076819934,1.3263526,-0.7781744
-0.2,-0.2,0.6,-0.34906585039886584,-0.34906585039886584,0.34906585039886606,1.6171191,1.5319417,0.10550337,0.2204501,0.22702983,0.7538493,0.4001981,-0.38171107,1.5616678,-0.34524682,-0.74685425,0.036503356,1.3262788,-0.89536506
-0.2,-0.2,0.6,-0.34906585039886584,-0.34906585039886584,0.34906585039886606,1.5987532,1.5282422,0.08935603,0.24225855,0.2500627,0.7593105,0.42099947,-0.37901363,1.5684102,-0.32643592,-0.7473606,0.03614813,1.321257,-0.84118456
-0.2,-0.2,0.6,-0.34906585039886584,-0.34906585039886584,0.34906585039886606,1.5936592,1.5311778,0.09939648,0.21137515,0.22284527,0.75117254,0.3920985,-0.38311702,1.5646695,-0.3403251,-0.75700444,0.022751039,1.3290547,-0.8805479
-0.2,-0.2,0.6,-0.34906585039886584,-0.34906585039886584,0.34906585039886606,1.6275283,1.5319918,0.0917201,0.21507344,0.25428042,0.77520156,0.37781322,-0.3783675,1.5638243,-0.3231533,-0.7217048,0.034019284,1.34457,-0.7881402
-0.2,-0.2,0.6,-0.34906585039886584,-0.34906585039886584,0.34906585039886606,1.6151313,1.5197425,0.08456337,0.19433907,0.24500476,0.76624143,0.39066154,-0.3811843,1.5681984,-0.3359363,-0.7812147,0.08920084,1.3327652,-0.7163609
-0.2,-0.2,0.6,-0.34906585039886584,-0.34906585039886584,0.34906585039886606,1.6016833,1.5216341,0.10124431,0.19314745,0.26502243,0.74891293,0.34847826,-0.37570015,1.5678265,-0.33083588,-0.7888181,0.0029139922,1.32273,-0.79261655
-0.2,-0.2,0.6,-0.34906585039886584,-0.34906585039886584,0.34906585039886606,1.5979507,1.5401385,0.103490025,0.2048224,0.24463046,0.76227546,0.40611294,-0.39011872,1.5629625,-0.33461064,-0.7572805,0.0443503,1.32193,-0.9205468
-0.2,-0.2,0.6,-0.34906585039886584,-0.34906585039886584,0.34906585039886606,1.6240755,1.5246776,0.11608614,0.2112595,0.2433532,0.75412256,0.36741203,-0.38280386,1.5597185,-0.33182216,-0.76000583,0.07860679,1.3300785,-0.82426846
-0.2,-0.2,0.6,-0.34906585039886584,-0.34906585039886584,0.34906585039886606,1.6226325,1.5302804,0.10567507,0.18312559,0.27215263,0.74650663,0.4287406,-0.38229552,1.5535588,-0.34286925,-0.75029147,0.0799079,1.3369572,-0.8571331
-0.2,-0.2,0.6,-0.34906585039886584,-0.34906585039886584,0.34906585039886606,1.610006,1.537938,0.10215135,0.19149795,0.24423173,0.7705185,0.45695078,-0.38455838,1.5647776,-0.33096662,-0.7631843,0.042161908,1.3274263,-0.64956975
-0.2,-0.2,0.6,-0.34906585039886584,-0.34906585039886584,0.34906585039886606,1.6160296,1.5280987,0.10857406,0.18950084,0.23992021,0.7586741,0.3903981,-0.38758683,1.5414834,-0.32664874,-0.7510084,0.06937808,1.333016,-0.95732254
-0.2,-0.2,0.6,-0.34906585039886584,-0.34906585039886584,0.34906585039886606,1.6082052,1.5445652,0.087071516,0.20799428,0.22838189,0.7492351,0.36867604,-0.37804288,1.5646108,-0.34212777,-0.7558414,0.044005547,1.325255,-0.7936112
-0.2,-0.2,0.6,-0.34906585039886584,-0.34906585039886584,0.34906585039886606,1.5734339,1.5375965,0.09663172,0.24011832,0.22873293,0.7279865,0.36376148,-0.3764061,1.5697241,-0.33697692,-0.8215528,0.03594001,1.3189865,-0.7781818
-0.2,-0.2,0.6,-0.34906585039886584,-0.34906585039886584,0.34906585039886606,1.5803785,1.5298946,0.088405095,0.23185402,0.24687847,0.7413523,0.42019802,-0.38363516,1.5607834,-0.34262404,-0.7501512,0.10451415,1.3300543,-0.8417854
-0.2,-0.2,0.6,-0.34906585039886584,-0.34906585039886584,0.34906585039886606,1.5808209,1.5385556,0.09279152,0.23287071,0.24742754,0.7587391,0.41000506,-0.3829479,1.570554,-0.33525977,-0.7246605,0.07581169,1.3124155,-0.7567924
-0.2,-0.2,0.6,-0.34906585039886584,-0.34906585039886584,0.34906585039886606,1.5740918,1.5213101,0.10453429,0.16846375,0.21100245,0.7741187,0.36782488,-0.38440153,1.5564926,-0.3337592,-0.75205666,0.06945283,1.3149931,-0.7327997
-0.2,-0.2,0.6,-0.34906585039886584,-0.34906585039886584,0.34906585039886606,1.608013,1.5307808,0.09793477,0.1883582,0.26592222,0.78026766,0.38261354,-0.3670829,1.5525975,-0.33334786,-0.7640884,0.012546503,1.3241601,-0.5907866
-0.2,-0.2,0.6,-0.34906585039886584,-0.34906585039886584,0.34906585039886606,1.6240841,1.5309014,0.11037032,0.23313543,0.26447418,0.76677704,0.42554384,-0.387103,1.5573368,-0.3383147,-0.7359763,0.026385942,1.3273233,-0.78197646
-0.2,-0.2,0.6,-0.34906585039886584,-0.34906585039886584,0.34906585039886606,1.6194103,1.5346359,0.107187144,0.18437232,0.24267831,0.76877356,0.41236627,-0.37948784,1.5706327,-0.3195483,-0.7500248,0.09083301,1.3210549,-0.99674577
-0.2,-0.2,0.6,-0.34906585039886584,-0.34906585039886584,0.34906585039886606,1.6057367,1.519359,0.097646676,0.19708501,0.23483382,0.76427907,0.37688026,-0.3764252,1.5661447,-0.32783753,-0.7806424,0.060114305,1.3231658,-0.6523489
-0.2,-0.2,0.6,-0.34906585039886584,-0.34906585039886584,0.34906585039886606,1.6076499,1.5387667,0.101053044,0.20672855,0.24009062,0.7736741,0.39615396,-0.3823136,1.5655528,-0.3355772,-0.78648925,0.095031396,1.3053447,-0.7158207
-0.2,-0.2,0.6,-0.34906585039886584,-0.34906585039886584,0.34906585039886606,1.6163886,1.5355387,0.097652465,0.21331437,0.26968303,0.7447942,0.43077463,-0.37998655,1.5568837,-0.32114795,-0.7654509,0.09188502,1.3184732,-0.77798873
-0.2,-0.2,0.6,-0.34906585039886584,-0.34906585039886584,0.34906585039886606,1.6141621,1.5263058,0.08198175,0.23512216,0.2587898,0.7559538,0.40168467,-0.39000827,1.5665741,-0.3194242,-0.7110887,0.034289807,1.3242924,-0.8390908
-0.2,-0.2,0.6,-0.34906585039886584,-0.34906585039886584,0.34906585039886606,1.5877029,1.527657,0.09399141,0.17554703,0.23013887,0.7927893,0.35808823,-0.37821388,1.549637,-0.3456945,-0.7250237,0.10928346,1.319875,-0.67051685
-0.2,-0.2,0.6,-0.34906585039886584,-0.34906585039886584,0.34906585039886606,1.6098075,1.5195796,0.10014597,0.26584125,0.25076357,0.7637548,0.38513526,-0.37686276,1.5514374,-0.34785977,-0.78038585,0.07674045,1.3304846,-0.71708995
-0.2,-0.2,0.6,-0.34906585039886584,-0.34906585039886584,0.34906585039886606,1.6039921,1.5323607,0.10857523,0.24819751,0.25498277,0.77793264,0.378059,-0.37856662,1.580877,-0.33696613,-0.7661754,0.058024414,1.3187261,-0.6955242
-0.2,-0.2,0.6,-0.34906585039886584,-0.34906585039886584,0.34906585039886606,1.6122055,1.526622,0.09649437,0.23429544,0.27135202,0.7332832,0.39043152,-0.3726601,1.5649952,-0.32434052,-0.7568097,0.084462054,1.3063633,-0.83865684
-0.2,-0.2,0.6,-0.34906585039886584,-0.34906585039886584,0.34906585039886606,1.5762395,1.5186955,0.113781065,0.21413893,0.22444469,0.7502673,0.4001213,-0.3796171,1.549141,-0.33798084,-0.77897877,0.09579464,1.3123289,-0.61285657
-0.2,-0.2,0.6,-0.34906585039886584,-0.34906585039886584,0.34906585039886606,1.5755236,1.5266037,0.11528836,0.2499418,0.25118938,0.7728118,0.3910894,-0.38217887,1.5578434,-0.33260277,-0.7806125,0.11444301,1.3363622,-0.7414729
-0.2,-0.2,0.6,-0.34906585039886584,-0.34906585039886584,0.34906585039886606,1.6259949,1.5325924,0.093155816,0.19823985,0.24446657,0.74260604,0.38566384,-0.38415927,1.5623913,-0.3324662,-0.75345135,0.058435466,1.3338794,-0.50233334
-0.2,-0.2,0.6,-0.34906585039886584,-0.34906585039886584,0.34906585039886606,1.6187468,1.5152124,0.103667915,0.2461802,0.26077417,0.77045476,0.40101334,-0.37959507,1.5426629,-0.343397,-0.7707398,0.048839085,1.3196284,-0.7758147
-0.2,-0.2,0.6,-0.34906585039886584,-0.34906585039886584,0.34906585039886606,1.5891805,1.5505955,0.10468201,0.23183785,0.24541397,0.7686232,0.42787904,-0.38484207,1.5659807,-0.33595815,-0.740863,0.06997887,1.3348851,-0.7456117
-0.2,-0.2,0.6,-0.34906585039886584,-0.34906585039886584,0.34906585039886606,1.597866,1.5271144,0.10552977,0.24356292,0.27386332,0.77159226,0.40345404,-0.37167844,1.5466233,-0.3502944,-0.7910772,0.049618386,1.334873,-0.7770071
-0.2,-0.2,0.6,-0.34906585039886584,-0.34906585039886584,0.34906585039886606,1.6045935,1.5286078,0.10915392,0.23635423,0.25942317,0.7500353,0.35414195,-0.36905256,1.5528486,-0.33482975,-0.74406946,0.04197203,1.319316,-0.62241346
-0.2,-0.2,0.6,-0.34906585039886584,-0.34906585039886584,0.34906585039886606,1.6042234,1.5113304,0.09909504,0.24315763,0.25003666,0.7794599,0.4344453,-0.38407138,1.5643768,-0.34218723,-0.78391606,0.082901396,1.3309993,-0.768644
-0.2,-0.2,0.6,-0.34906585039886584,-0.34906585039886584,0.34906585039886606,1.6092267,1.5276986,0.10458673,0.21629655,0.23071097,0.7408909,0.40625656,-0.38286632,1.5881649,-0.32847965,-0.78639746,0.06305547,1.3348367,-0.5627746
-0.2,-0.2,0.6,-0.34906585039886584,-0.34906585039886584,0.34906585039886606,1.6030127,1.5328149,0.09446169,0.23460262,0.2556654,0.73770976,0.38918573,-0.38301006,1.5640222,-0.34252056,-0.7730046,0.0744799,1.3122381,-0.7797044
-0.2,-0.2,0.6,-0.34906585039886584,-0.34906585039886584,0.34906585039886606,1.6014044,1.5249747,0.0960895,0.23475647,0.28328764,0.7543054,0.40707096,-0.3777667,1.5592722,-0.3549847,-0.78959197,0.036366887,1.3094677,-0.77339303
-0.2,-0.2,0.6,-0.34906585039886584,-0.34906585039886584,0.34906585039886606,1.6039665,1.5324986,0.10443613,0.23312894,0.2599191,0.7590359,0.35898235,-0.38689032,1.5668107,-0.34688547,-0.7507282,0.03795083,1.3278153,-0.780058
-0.2,-0.2,0.6,-0.34906585039886584,-0.34906585039886584,0.34906585039886606,1.5956258,1.5173532,0.10374578,0.23456526,0.27077678,0.76247835,0.40736422,-0.38183498,1.5628394,-0.33851898,-0.7991674,0.08173083,1.3162827,-0.86566436
-0.2,-0.2,0.6,-0.34906585039886584,-0.34906585039886584,0.34906585039886606,1.6001192,1.5253155,0.101902485,0.22348657,0.21532197,0.770733,0.4030112,-0.3857471,1.5491956,-0.32348844,-0.75243235,0.10855873,1.3293067,-0.8050209
-0.2,-0.2,0.6,-0.34906585039886584,-0.34906585039886584,0.34906585039886606,1.5945957,1.5300862,0.08747168,0.19635908,0.23386377,0.76433164,0.37610704,-0.38456255,1.5561646,-0.3337793,-0.77400255,0.0400526,1.3251705,-0.6887121
-0.2,-0.2,0.6,-0.34906585039886584,-0.34906585039886584,0.34906585039886606,1.5872552,1.5232474,0.09144543,0.24522299,0.2621954,0.7717768,0.37023273,-0.38348168,1.5472527,-0.32593742,-0.74920243,0.0734081,1.315302,-0.65234864
-0.2,-0.2,0.6,-0.34906585039886584,-0.34906585039886584,0.34906585039886606,1.6209354,1.5352048,0.10483825,0.23408306,0.23260072,0.75963455,0.39840165,-0.3859581,1.5783035,-0.33457926,-0.7922075,0.07114312,1.3208197,-0.7709776
-0.2,-0.2,0.6,-0.34906585039886584,-0.34906585039886584,0.34906585039886606,1.5730186,1.5281681,0.087206185,0.25009927,0.22028793,0.7713612,0.38228014,-0.39523366,1.5670184,-0.34833208,-0.72646916,0.07345439,1.316116,-0.55652905
-0.2,-0.2,0.6,-0.34906585039886584,-0.34906585039886584,0.34906585039886606,1.5632321,1.5340085,0.10714902,0.21920022,0.25642046,0.76953804,0.40049085,-0.3795326,1.5729396,-0.3375923,-0.7554456,0.07007446,1.324253,-0.7996236
-0.2,-0.2,0.6,-0.34906585039886584,-0.34906585039886584,0.34906585039886606,1.6043911,1.5372505,0.09298813,0.22799067,0.25409985,0.76797646,0.41615564,-0.37868178,1.5578042,-0.344008,-0.7522778,0.14556524,1.3173769,-0.7523628
-0.2,-0.2,0.6,-0.34906585039886584,-0.34906585039886584,0.34906585039886606,1.5997926,1.534633,0.09290568,0.2058592,0.28149772,0.7608648,0.43983924,-0.38592097,1.5633644,-0.3280721,-0.79453135,0.074049346,1.3139347,-0.6998871
-0.2,-0.2,0.6,-0.34906585039886584,-0.34906585039886584,0.34906585039886606,1.582015,1.5111066,0.11502547,0.22419278,0.2376409,0.75398296,0.40137398,-0.38354546,1.5610143,-0.31490755,-0.7939432,0.06490556,1.3249626,-0.751549
-0.2,-0.2,0.6,-0.34906585039886584,-0.34906585039886584,0.34906585039886606,1.6321326,1.5219853,0.10219027,0.22215393,0.25292447,0.7599167,0.40135297,-0.37695405,1.5651039,-0.3352018,-0.75240135,0.11200477,1.32758,-0.7684635
-0.2,-0.2,0.6,-0.34906585039886584,-0.34906585039886584,0.34906585039886606,1.5839545,1.5350205,0.08609202,0.2340932,0.22240074,0.74790555,0.35297778,-0.37862322,1.5503541,-0.33238572,-0.7372935,0.06904445,1.3147534,-0.7991025
-0.2,-0.2,0.6,-0.34906585039886584,-0.34906585039886584,0.34906585039886606,1.6030462,1.5384849,0.08787477,0.23274173,0.26059407,0.75965786,0.3742359,-0.3752867,1.577026,-0.33594728,-0.7402285,0.112349994,1.3340904,-0.7575264
-0.2,-0.2,0.6,-0.34906585039886584,-0.34906585039886584,0.34906585039886606,1.5767308,1.5231858,0.09173892,0.2400709,0.23119232,0.7570423,0.39578956,-0.38811728,1.5689297,-0.3367605,-0.7421838,0.046620272,1.3428234,-0.6980826
-0.2,-0.2,0.6,-0.34906585039886584,-0.34906585039886584,0.34906585039886606,1.5870231,1.535216,0.12284888,0.22242595,0.26122433,0.76510936,0.39201796,-0.38031384,1.5828471,-0.33565372,-0.7275066,0.029607246,1.3296745,-0.82737106
-0.2,-0.2,0.6,-0.34906585039886584,-0.34906585039886584,0.34906585039886606,1.5971968,1.5443205,0.097053304,0.21665128,0.27612823,0.7686426,0.4219605,-0.38293707,1.558437,-0.32342556,-0.7606659,0.03271355,1.3192521,-0.77184135
-0.2,-0.2,0.6,-0.34906585039886584,-0.34906585039886584,0.34906585039886606,1.6234256,1.525469,0.105231956,0.20017813,0.292128,0.76077455,0.42099768,-0.3828231,1.5738775,-0.3423492,-0.7417502,0.1020632,1.3109183,-0.70089024
-0.2,-0.2,0.6,-0.34906585039886584,-0.34906585039886584,0.34906585039886606,1.5897537,1.5259422,0.10889658,0.25011435,0.2380518,0.7466213,0.40582454,-0.37296072,1.5733501,-0.34408796,-0.7808869,0.03390732,1.3204515,-0.8473096
-0.2,-0.2,0.6,-0.34906585039886584,-0.34906585039886584,0.34906585039886606,1.5979438,1.522786,0.11530539,0.22321188,0.23763302,0.7540081,0.42849457,-0.38308746,1.5446576,-0.33332825,-0.7893806,0.064591855,1.3456389,-0.7353847
-0.2,-0.2,0.6,-0.34906585039886584,-0.34906585039886584,0.34906585039886606,1.588448,1.527302,0.092112325,0.25387117,0.2906905,0.756131,0.40061247,-0.38604477,1.5646173,-0.3481822,-0.7641973,0.06295088,1.3184747,-0.75993407
-0.2,-0.2,0.6,-0.34906585039886584,-0.34906585039886584,0.34906585039886606,1.6337422,1.5242182,0.09467972,0.1740039,0.28851733,0.7724094,0.3357299,-0.3812415,1.5547342,-0.34028172,-0.7960263,0.059598066,1.3419259,-0.7441854
-0.2,-0.2,0.6,-0.34906585039886584,-0.34906585039886584,0.34906585039886606,1.6186576,1.5264145,0.09391175,0.22681277,0.25626168,0.74704915,0.40829906,-0.38289908,1.5604254,-0.3384827,-0.72709465,0.07452716,1.3222322,-0.7072716
-0.2,-0.2,0.6,-0.34906585039886584,-0.34906585039886584,0.34906585039886606,1.605178,1.5329369,0.098259926,0.1620853,0.24464738,0.7740595,0.34470612,-0.39239803,1.5522985,-0.3174586,-0.7790184,0.09453181,1.291418,-0.69131553
-0.2,-0.2,0.6,-0.34906585039886584,-0.34906585039886584,0.34906585039886606,1.6133946,1.5169045,0.10527092,0.21424292,0.28037295,0.7432628,0.4323121,-0.38139838,1.5725642,-0.34991387,-0.78585047,0.07831936,1.3286787,-0.7320017
-0.2,-0.2,0.6,-0.34906585039886584,-0.34906585039886584,0.34906585039886606,1.6121893,1.5345435,0.09448932,0.21399271,0.23498178,0.7723143,0.398336,-0.37424883,1.5656633,-0.33010504,-0.7512133,0.063683055,1.3173503,-0.7289438
-0.2,-0.2,0.6,-0.34906585039886584,-0.34906585039886584,0.34906585039886606,1.5806602,1.5153193,0.117996566,0.21101625,0.22716156,0.7712619,0.35051706,-0.37915826,1.5544084,-0.33786476,-0.73545164,0.049635105,1.3367591,-0.7169128
-0.2,-0.2,0.6,-0.34906585039886584,-0.34906585039886584,0.34906585039886606,1.6087329,1.5286026,0.08591786,0.21094978,0.2585316,0.7772597,0.42021576,-0.38022313,1.5706053,-0.31615344,-0.78749114,0.01232849,1.3296257,-0.7637545
-0.2,-0.2,0.6,-0.34906585039886584,-0.34906585039886584,0.34906585039886606,1.6195602,1.5146573,0.100359365,0.1787134,0.2495586,0.7675892,0.38493735,-0.37926906,1.5529968,-0.35482842,-0.7554359,0.041831195,1.3223889,-0.8881083
-0.2,-0.2,0.6,-0.34906585039886584,-0.34906585039886584,0.34906585039886606,1.5901076,1.5277169,0.104305826,0.19981132,0.279415,0.7672792,0.40766606,-0.3823406,1.560299,-0.3479796,-0.78703123,0.043199345,1.3050658,-0.7849488
-0.2,-0.2,0.6,-0.34906585039886584,-0.34906585039886584,0.34906585039886606,1.6225047,1.5476396,0.10979866,0.22293782,0.24691167,0.74462587,0.4381137,-0.38376558,1.5692438,-0.3168523,-0.7407729,0.061424118,1.3255854,-0.5630743
-0.2,-0.2,0.6,-0.34906585039886584,-0.34906585039886584,0.34906585039886606,1.602734,1.5283624,0.102715254,0.24863742,0.24721643,0.7751428,0.40933335,-0.38797233,1.5552815,-0.34753177,-0.7276942,0.062043753,1.329099,-0.6381959
-0.2,-0.2,0.6,-0.34906585039886584,-0.34906585039886584,0.34906585039886606,1.603088,1.5358576,0.08656628,0.23732336,0.24096437,0.7781626,0.42849478,-0.38116577,1.5771811,-0.33469546,-0.740355,0.08804334,1.3402954,-0.5610156
-0.2,-0.2,0.6,-0.34906585039886584,-0.34906585039886584,0.34906585039886606,1.5821978,1.5231802,0.10787431,0.23732808,0.27479407,0.7380223,0.3974835,-0.39266974,1.5712315,-0.33335525,-0.7558072,0.10019026,1.319146,-0.8036143
-0.2,-0.2,0.6,-0.34906585039886584,-0.34906585039886584,0.34906585039886606,1.6291664,1.5276779,0.11160194,0.21273448,0.23594376,0.744334,0.43478075,-0.37963605,1.565189,-0.3399883,-0.7593513,0.08878103,1.3276772,-0.690182
-0.2,-0.2,0.6,-0.34906585039886584,-0.34906585039886584,0.34906585039886606,1.583607,1.5298555,0.109664,0.19718598,0.24801047,0.78868675,0.39232406,-0.38801682,1.5606567,-0.32568994,-0.74765795,0.105554245,1.3138824,-0.62627274
-0.2,-0.2,0.6,-0.34906585039886584,-0.34906585039886584,0.34906585039886606,1.5918374,1.5396881,0.093023084,0.23869729,0.24363098,0.75844365,0.37162894,-0.38060358,1.5614419,-0.3463754,-0.71872544,0.075508505,1.3216572,-0.7647424
-0.2,-0.2,0.6,-0.34906585039886584,-0.34906585039886584,0.34906585039886606,1.5641456,1.5434976,0.113334775,0.24038337,0.25907704,0.7512967,0.40143526,-0.3831707,1.5805072,-0.3272143,-0.7531819,0.05361935,1.3069956,-0.67773074
-0.2,-0.2,0.6,-0.34906585039886584,-0.34906585039886584,0.34906585039886606,1.6142926,1.5380977,0.083180904,0.18860617,0.19975615,0.74448675,0.40255913,-0.3737277,1.5707786,-0.32566568,-0.7550529,0.10478032,1.3138162,-0.7574043
-0.2,-0.2,0.6,-0.34906585039886584,-0.34906585039886584,0.34906585039886606,1.6259347,1.5184945,0.08395278,0.22621463,0.21243793,0.7593448,0.39561024,-0.37347972,1.5815393,-0.3276317,-0.7759581,0.105368696,1.3178937,-0.81509584
-0.2,-0.2,0.6,-0.34906585039886584,-0.34906585039886584,0.34906585039886606,1.5997994,1.5088348,0.1157084,0.19404553,0.2828746,0.78018385,0.37814385,-0.38437894,1.5688074,-0.32983965,-0.7680692,0.09255587,1.3203039,-0.82692957
-0.2,-0.2,0.6,-0.34906585039886584,-0.34906585039886584,0.34906585039886606,1.6622146,1.5263568,0.09839042,0.20710191,0.22335678,0.7684135,0.45146862,-0.3798625,1.5685891,-0.33051068,-0.7592374,0.047693796,1.3229334,-0.5592835
-0.2,-0.2,0.6,-0.34906585039886584,-0.34906585039886584,0.34906585039886606,1.5927101,1.5234588,0.0897705,0.23409444,0.24566965,0.7599078,0.39477202,-0.37276554,1.5684819,-0.34238654,-0.75505596,0.04654375,1.3182716,-0.8010789
-0.2,-0.2,0.6,-0.34906585039886584,-0.34906585039886584,0.34906585039886606,1.5941912,1.517866,0.12026502,0.19359143,0.2552543,0.7714767,0.39481366,-0.37432078,1.5643255,-0.3391305,-0.7813098,0.07911556,1.3200349,-0.75812465
-0.2,-0.2,0.6,-0.34906585039886584,-0.34906585039886584,0.34906585039886606,1.5806162,1.531251,0.10457683,0.24047394,0.2331097,0.768949,0.38976875,-0.38628292,1.5504957,-0.32566553,-0.72764117,0.078472406,1.3180319,-0.64108175
-0.2,-0.2,0.6,-0.34906585039886584,-0.34906585039886584,0.34906585039886606,1.64002,1.5300748,0.11948472,0.16646549,0.2516185,0.77740175,0.42702886,-0.38367447,1.5743091,-0.32531294,-0.7398894,0.09002008,1.3063085,-0.88091916
-0.2,-0.2,0.6,-0.34906585039886584,-0.34906585039886584,0.34906585039886606,1.6074836,1.5252862,0.10391782,0.21316865,0.29543874,0.77106017,0.4092912,-0.3707832,1.5525757,-0.3276826,-0.75314385,0.053244278,1.3025812,-0.846457
-0.2,-0.2,0.6,-0.34906585039886584,-0.34906585039886584,0.34906585039886606,1.6059138,1.5236672,0.10482732,0.22256902,0.24932757,0.7476555,0.38906646,-0.3820487,1.5752702,-0.33417276,-0.7296796,0.042717792,1.3071831,-0.6226068
-0.2,-0.2,0.6,-0.34906585039886584,-0.34906585039886584,0.34906585039886606,1.6106545,1.5204768,0.088614345,0.26791474,0.21264523,0.75085163,0.37815154,-0.38269717,1.5588887,-0.34518874,-0.72548664,0.070598684,1.3225318,-0.780145
-0.2,-0.2,0.6,-0.34906585039886584,-0.34906585039886584,0.34906585039886606,1.6002522,1.5288726,0.09527843,0.26384038,0.23997082,0.7774064,0.36434484,-0.38529703,1.5613711,-0.3357213,-0.7426313,0.09543908,1.3245374,-0.5135209
-0.2,-0.2,0.6,-0.34906585039886584,-0.34906585039886584,0.34906585039886606,1.5849581,1.5251908,0.09938442,0.21119644,0.20240812,0.789863,0.3367637,-0.38725126,1.5683652,-0.33369294,-0.74879247,0.048285145,1.333399,-0.6050213
-0.2,-0.2,0.6,-0.34906585039886584,-0.34906585039886584,0.34906585039886606,1.6192412,1.5221937,0.09983136,0.20100959,0.23048285,0.776089,0.38953683,-0.3706851,1.5548826,-0.3288171,-0.7757075,0.03117169,1.3297572,-0.6924667
-0.2,-0.2,0.6,-0.34906585039886584,-0.34906585039886584,0.34906585039886606,1.6221024,1.5287153,0.0885751,0.20640627,0.24055962,0.75988203,0.4053288,-0.3702606,1.5740869,-0.3457696,-0.75964594,0.094514966,1.326535,-0.6830584
-0.2,-0.2,0.6,-0.34906585039886584,-0.34906585039886584,0.34906585039886606,1.6104269,1.542679,0.10610408,0.22696112,0.2967234,0.7789569,0.37692565,-0.3787659,1.543136,-0.33470517,-0.7273827,0.05468121,1.3419476,-0.542974
-0.2,-0.2,0.6,-0.34906585039886584,-0.34906585039886584,0.34906585039886606,1.5823046,1.5232545,0.097138986,0.22082104,0.257689,0.7722357,0.38052174,-0.38518494,1.5598351,-0.32503638,-0.77181923,0.030357085,1.3445747,-0.69795716
-0.2,-0.2,0.6,-0.34906585039886584,-0.34906585039886584,0.34906585039886606,1.5969266,1.5070411,0.093416974,0.21708854,0.24404983,0.7565844,0.42098173,-0.38458025,1.5746771,-0.32777688,-0.76274484,0.0074781766,1.3214895,-0.6963702
-0.2,-0.2,0.6,-0.34906585039886584,-0.34906585039886584,0.34906585039886606,1.602509,1.5224279,0.0887734,0.22438657,0.25507283,0.7375011,0.3725538,-0.38397408,1.562916,-0.32210806,-0.7614092,0.11615868,1.319469,-0.7086482
-0.2,-0.2,0.6,-0.34906585039886584,-0.34906585039886584,0.34906585039886606,1.6130936,1.5307003,0.105777,0.19135052,0.25417322,0.78714776,0.4164522,-0.3820396,1.5657613,-0.3395971,-0.7721221,0.051275324,1.3134958,-0.9122554
-0.2,-0.2,0.6,-0.34906585039886584,-0.34906585039886584,0.34906585039886606,1.6069664,1.5199186,0.09614946,0.19722739,0.23409335,0.73003,0.40263146,-0.37800175,1.5622685,-0.3407614,-0.76873434,0.08248812,1.3177315,-0.44805512
-0.2,-0.2,0.6,-0.34906585039886584,-0.34906585039886584,0.34906585039886606,1.5971928,1.5282223,0.105016164,0.18830194,0.24371237,0.79435796,0.41061613,-0.3840804,1.5603594,-0.32676062,-0.7280071,0.08830733,1.3018808,-0.7548955
-0.2,-0.2,0.6,-0.34906585039886584,-0.34906585039886584,0.34906585039886606,1.59411,1.5351977,0.11779105,0.2090639,0.24272092,0.76544505,0.3409934,-0.384548,1.5725071,-0.33503833,-0.738404,0.07179458,1.3307669,-0.62939554
-0.2,-0.2,0.6,-0.34906585039886584,-0.34906585039886584,0.34906585039886606,1.5887566,1.5361701,0.10630382,0.20370322,0.24116842,0.7798694,0.41037443,-0.37731755,1.5637733,-0.33081397,-0.77482283,0.07131615,1.3139814,-0.6979959
-0.2,-0.2,0.6,-0.34906585039886584,-0.34906585039886584,0.34906585039886606,1.6071702,1.5456827,0.10631093,0.21657285,0.25596312,0.784045,0.39102623,-0.3853346,1.5514497,-0.31015435,-0.74539894,0.11969266,1.3161459,-0.732615
-0.2,-0.2,0.6,-0.34906585039886584,-0.34906585039886584,0.34906585039886606,1.5984327,1.5249386,0.10631496,0.22173111,0.23965172,0.75736916,0.44528008,-0.37279072,1.5597187,-0.32381335,-0.75793034,0.034207102,1.3181808,-0.7242994
-0.2,-0.2,0.6,-0.34906585039886584,-0.34906585039886584,0.34906585039886606,1.6292515,1.541785,0.11465259,0.2173545,0.26476055,0.7639012,0.3923353,-0.38612863,1.5663792,-0.34715542,-0.76111984,0.06617804,1.3154429,-0.6490127
-0.2,-0.2,0.6,-0.34906585039886584,-0.34906585039886584,0.34906585039886606,1.6116397,1.5409814,0.11520808,0.20587435,0.24595246,0.75556105,0.3650338,-0.38152644,1.5648421,-0.3401488,-0.76064396,0.014775206,1.3241754,-0.4660224
-0.2,-0.2,0.6,-0.34906585039886584,-0.34906585039886584,0.34906585039886606,1.5779098,1.5291581,0.0812986,0.23022267,0.2388961,0.7511973,0.40011704,-0.37967616,1.5442413,-0.35028547,-0.74029076,0.10456322,1.2999175,-0.76804316
-0.2,-0.2,0.6,-0.34906585039886584,-0.34906585039886584,0.34906585039886606,1.6252856,1.5228249,0.11431978,0.21780474,0.2362589,0.7569074,0.38311273,-0.38235518,1.5588819,-0.31436425,-0.7472785,0.08424817,1.3264683,-0.68202055
-0.2,-0.2,0.6,-0.34906585039886584,-0.34906585039886584,0.34906585039886606,1.615271,1.5437187,0.098831676,0.20835705,0.21893483,0.7737316,0.39961785,-0.38236612,1.5666738,-0.32998693,-0.7342231,0.05675123,1.3126353,-0.79109275
-0.2,-0.2,0.6,-0.34906585039886584,-0.34906585039886584,0.34906585039886606,1.5910373,1.5437677,0.09351842,0.2503887,0.22817458,0.765963,0.36352983,-0.37771162,1.5608989,-0.34255442,-0.7548916,0.06922311,1.324123,-0.7571869
-0.2,-0.2,0.6,-0.34906585039886584,-0.34906585039886584,0.34906585039886606,1.579247,1.5371547,0.08888941,0.22058292,0.24151954,0.7503242,0.3977287,-0.37631726,1.5563297,-0.34144154,-0.7650598,0.075621404,1.3504386,-0.6310348
-0.2,-0.2,0.6,-0.34906585039886584,-0.34906585039886584,0.34906585039886606,1.6040953,1.5285913,0.08640818,0.24651162,0.24033336,0.76304567,0.35803136,-0.37870768,1.5596098,-0.35337198,-0.708771,0.08031096,1.3214564,-0.732967
-0.2,-0.2,0.6,-0.34906585039886584,-0.34906585039886584,0.34906585039886606,1.6013919,1.5449531,0.10577548,0.20134544,0.20437813,0.7476769,0.3961844,-0.38763398,1.5576384,-0.33496138,-0.7752129,0.06761755,1.3198715,-0.54399914
-0.2,-0.2,0.6,-0.34906585039886584,-0.34906585039886584,0.34906585039886606,1.5972046,1.5340557,0.093798816,0.17690915,0.26543987,0.7781411,0.40761393,-0.38711223,1.5719423,-0.3344582,-0.7543296,0.10439876,1.3176726,-0.96287173
-0.2,-0.2,0.6,-0.34906585039886584,-0.34906585039886584,0.34906585039886606,1.622951,1.5279303,0.08537685,0.21974574,0.22787854,0.7794484,0.42283472,-0.37847576,1.5506493,-0.33841896,-0.75494766,0.048473295,1.3101904,-0.7122002
-0.2,-0.2,0.6,-0.34906585039886584,-0.34906585039886584,0.34906585039886606,1.5711013,1.5237387,0.08291026,0.23918648,0.23113321,0.7727445,0.40564314,-0.3733837,1.5587301,-0.3293758,-0.73985165,0.08542344,1.3082489,-0.7379628
-0.2,-0.2,0.6,-0.34906585039886584,-0.34906585039886584,0.34906585039886606,1.6468489,1.520412,0.090113275,0.23117794,0.22805247,0.7529303,0.4229377,-0.375414,1.5511174,-0.345158,-0.76721376,0.029869277,1.3453752,-0.83636814
-0.2,-0.2,0.6,-0.34906585039886584,-0.34906585039886584,0.34906585039886606,1.5879476,1.5201193,0.086174354,0.24651049,0.19894104,0.7626184,0.38452518,-0.37793913,1.5688882,-0.3533583,-0.76158196,0.047867224,1.3210642,-0.7728368
-0.2,-0.2,0.6,-0.34906585039886584,-0.34906585039886584,0.34906585039886606,1.596222,1.54629,0.09422353,0.20022556,0.25306767,0.7684513,0.41446272,-0.38065398,1.5747811,-0.33606052,-0.80080223,0.023687214,1.3254002,-0.7315454
-0.2,-0.2,0.6,-0.34906585039886584,-0.34906585039886584,0.34906585039886606,1.6100339,1.5344776,0.09690505,0.190977,0.24829888,0.7538785,0.39376825,-0.38311225,1.5743833,-0.34801155,-0.7757272,0.108012006,1.3434995,-0.7515774
-0.2,-0.2,0.6,-0.34906585039886584,-0.34906585039886584,0.34906585039886606,1.6356459,1.5182393,0.117747195,0.2278197,0.21781223,0.7689456,0.3817233,-0.36621815,1.5579332,-0.33525005,-0.7172506,0.10922952,1.3163544,-0.5798238
-0.2,-0.2,0.6,-0.34906585039886584,-0.34906585039886584,0.34906585039886606,1.5942067,1.5321549,0.10628686,0.23269333,0.22770064,0.7553692,0.42348233,-0.37730035,1.5577433,-0.33903268,-0.7462963,0.038165223,1.3179071,-0.7075189
-0.2,-0.2,0.6,-0.34906585039886584,-0.34906585039886584,0.34906585039886606,1.623955,1.5321503,0.0925662,0.18655716,0.2495816,0.7707574,0.36067796,-0.38316274,1.5745425,-0.3331663,-0.7824344,0.13856216,1.3379356,-0.86056083
-0.2,-0.2,0.6,-0.34906585039886584,-0.34906585039886584,0.34906585039886606,1.5911318,1.5255278,0.0889683,0.22581753,0.23021922,0.75774306,0.43794158,-0.38410196,1.5769253,-0.33821836,-0.75658154,0.11756235,1.3256685,-0.7455294
-0.2,-0.2,0.6,-0.34906585039886584,-0.34906585039886584,0.34906585039886606,1.5975038,1.533666,0.08242796,0.25483838,0.24701068,0.7589339,0.352753,-0.3751663,1.5556214,-0.32435304,-0.7140642,0.045604106,1.3339396,-0.79443926
-0.2,-0.2,0.6,-0.34906585039886584,-0.34906585039886584,0.34906585039886606,1.5755879,1.5316304,0.07880232,0.22923549,0.26257282,0.7412352,0.43544638,-0.38819444,1.5954291,-0.32450792,-0.80647564,0.07477864,1.3201343,-0.60912603
-0.2,-0.2,0.6,-0.34906585039886584,-0.34906585039886584,0.34906585039886606,1.6070215,1.5301737,0.10304454,0.21803865,0.22236854,0.74405247,0.39756042,-0.39088345,1.5534239,-0.33552206,-0.76240706,0.06204106,1.3160648,-0.72950655
-0.2,-0.2,0.6,-0.34906585039886584,-0.34906585039886584,0.34906585039886606,1.5989889,1.5507689,0.10690307,0.21918991,0.22680818,0.77489066,0.4286183,-0.37883008,1.5607471,-0.3264734,-0.76091003,0.04511133,1.3072251,-0.74225974
-0.2,-0.2,0.6,-0.34906585039886584,-0.34906585039886584,0.34906585039886606,1.6322001,1.52475,0.105288625,0.19804658,0.27214414,0.73685426,0.38771823,-0.3814434,1.5637677,-0.32259628,-0.7512888,0.121673055,1.3183308,-0.7660573
-0.2,-0.2,0.6,-0.34906585039886584,-0.34906585039886584,0.34906585039886606,1.5954239,1.5362478,0.105065934,0.21587321,0.25210074,0.75908315,0.43746692,-0.37343997,1.561773,-0.327819,-0.7340137,0.048714478,1.3225574,-0.64326566
-0.2,-0.2,0.6,-0.34906585039886584,-0.34906585039886584,0.34906585039886606,1.5938407,1.5344385,0.10071833,0.20797354,0.28794983,0.76373374,0.43350893,-0.37853962,1.5522605,-0.3288602,-0.7563054,0.0801337,1.3232154,-0.6244894
-0.2,-0.2,0.6,-0.34906585039886584,-0.34906585039886584,0.34906585039886606,1.6208076,1.5335991,0.09377713,0.20130739,0.22545275,0.7381214,0.341789,-0.38076824,1.5598739,-0.34674975,-0.7978428,0.13821007,1.3205277,-0.6372657
-0.2,-0.2,0.6,-0.34906585039886584,-0.34906585039886584,0.34906585039886606,1.5818042,1.5342308,0.100142576,0.24509531,0.23316734,0.7496097,0.39454627,-0.37877616,1.55641,-0.32820457,-0.7608852,-0.0025415542,1.3168983,-0.8627868
-0.2,-0.2,0.6,-0.34906585039886584,-0.34906585039886584,0.34906585039886606,1.629408,1.5302448,0.09625581,0.1998585,0.2842671,0.77120125,0.3619546,-0.37800843,1.5677723,-0.34048975,-0.7688466,0.07395347,1.333419,-0.75867176
-0.2,-0.2,0.6,-0.34906585039886584,-0.34906585039886584,0.34906585039886606,1.5964819,1.5360178,0.102849774,0.2515023,0.24654894,0.7719451,0.42313427,-0.3861401,1.5612446,-0.3209417,-0.7284973,0.07375404,1.3217733,-0.72152555
-0.2,-0.2,0.6,-0.34906585039886584,-0.34906585039886584,0.34906585039886606,1.6048299,1.5346907,0.08921813,0.2237778,0.24969342,0.7479035,0.3957101,-0.3739442,1.5549568,-0.33345243,-0.73195124,0.102764875,1.3187529,-0.62325513
-0.2,-0.2,0.6,-0.34906585039886584,-0.34906585039886584,0.34906585039886606,1.5923034,1.5381875,0.0968274,0.22473781,0.241571,0.75331783,0.41078603,-0.3816534,1.5634274,-0.33455104,-0.759066,0.10066505,1.3332131,-0.6322539
-0.2,-0.2,0.6,-0.34906585039886584,-0.34906585039886584,0.34906585039886606,1.5847116,1.5330522,0.10258442,0.21989183,0.22364461,0.761904,0.38993636,-0.3801731,1.556411,-0.32465312,-0.7615012,0.057252288,1.3138874,-0.71431136
-0.2,-0.2,0.6,-0.34906585039886584,-0.34906585039886584,0.34906585039886606,1.6097606,1.523311,0.104709156,0.2051404,0.22434726,0.7788197,0.4004198,-0.37666744,1.5715107,-0.31668785,-0.7418323,0.07059229,1.3225728,-0.8080738
-0.2,-0.2,0.6,-0.34906585039886584,-0.34906585039886584,0.34906585039886606,1.6014028,1.5440806,0.10019959,0.20145525,0.22170034,0.7677302,0.3893798,-0.38258007,1.5680242,-0.32520014,-0.7690781,0.069445044,1.3234302,-0.70715445
-0.2,-0.2,0.6,-0.34906585039886584,-0.34906585039886584,0.34906585039886606,1.6021755,1.5108205,0.08013082,0.22113413,0.25373423,0.78479326,0.44362864,-0.3795248,1.5561079,-0.32406598,-0.73357636,0.0828991,1.3173625,-0.68065435
-0.2,-0.2,0.6,-0.34906585039886584,-0.34906585039886584,0.34906585039886606,1.5784552,1.5417937,0.10259185,0.20144804,0.30849868,0.73872787,0.4038998,-0.37863424,1.573398,-0.3280054,-0.7485925,0.04736527,1.3103572,-0.5239338
-0.2,-0.2,0.6,-0.34906585039886584,-0.34906585039886584,0.34906585039886606,1.6166936,1.5117527,0.103533365,0.23861486,0.24724129,0.76071477,0.4028488,-0.3772249,1.575215,-0.34238738,-0.7566631,0.044846285,1.3220402,-0.9677723
-0.2,-0.2,0.6,-0.34906585039886584,-0.34906585039886584,0.34906585039886606,1.5925275,1.5247647,0.09364088,0.22965746,0.23761572,0.74778885,0.36042053,-0.38247222,1.5650597,-0.33571103,-0.766631,0.11085028,1.3096441,-0.9352357
-0.2,-0.2,0.6,-0.34906585039886584,-0.34906585039886584,0.34906585039886606,1.6029637,1.5256383,0.08828807,0.2134025,0.26980174,0.74677396,0.38803124,-0.38925236,1.5707957,-0.34510544,-0.7671937,0.06066481,1.3176382,-0.6329532
-0.2,-0.2,0.6,-0.34906585039886584,-0.34906585039886584,0.34906585039886606,1.6018748,1.5049742,0.10888265,0.25291216,0.24880688,0.77257204,0.38275477,-0.3784324,1.5505897,-0.33319345,-0.7352907,0.027760223,1.3305078,-0.73111814
-0.2,-0.2,0.6,-0.34906585039886584,-0.34906585039886584,0.34906585039886606,1.5990747,1.5363507,0.102145605,0.19118851,0.23716173,0.746948,0.39350924,-0.38376918,1.5529445,-0.34210804,-0.7723893,0.090095714,1.3177577,-0.66140187
-0.2,-0.2,0.6,-0.34906585039886584,-0.34906585039886584,0.34906585039886606,1.6155657,1.5337129,0.09058489,0.22588407,0.22982061,0.74773616,0.35452935,-0.37730685,1.5692687,-0.34516475,-0.7571246,0.04618692,1.3123488,-0.6884422
-0.2,-0.2,0.6,-0.34906585039886584,-0.34906585039886584,0.34906585039886606,1.6265147,1.5158474,0.08710727,0.21450235,0.25221944,0.75026,0.44119623,-0.38898468,1.5621126,-0.34917834,-0.76507664,0.076982185,1.3318242,-0.5292641
-0.2,-0.2,0.6,-0.34906585039886584,-0.34906585039886584,0.34906585039886606,1.6096938,1.5290619,0.08436385,0.17916621,0.2835313,0.7920646,0.4040553,-0.37839916,1.5717674,-0.3324434,-0.7595283,0.052370284,1.3285165,-0.87226254
-0.2,-0.2,0.6,-0.34906585039886584,-0.34906585039886584,0.34906585039886606,1.6093054,1.5255703,0.09454182,0.17619787,0.2382776,0.7514833,0.39054656,-0.37716657,1.5600537,-0.32000425,-0.79679096,0.07272521,1.3207937,-0.6102239
-0.2,-0.2,0.6,-0.34906585039886584,-0.34906585039886584,0.34906585039886606,1.628052,1.5244828,0.09733914,0.18473092,0.23195519,0.7621487,0.45437363,-0.3809336,1.5573505,-0.35542837,-0.7732501,0.06279656,1.3173022,-0.83117974
-0.2,-0.2,0.6,-0.34906585039886584,-0.34906585039886584,0.34906585039886606,1.6096005,1.5319669,0.098967545,0.20262189,0.26982433,0.767715,0.37771183,-0.3794378,1.5771505,-0.3255403,-0.7784049,0.07004973,1.3084785,-0.68320733
-0.2,-0.2,0.6,-0.34906585039886584,-0.34906585039886584,0.34906585039886606,1.6359345,1.5203165,0.09389861,0.1675847,0.23795924,0.76462233,0.4377498,-0.37432936,1.5733008,-0.33245838,-0.78537786,0.05770857,1.3149967,-0.8679432
-0.2,-0.2,0.6,-0.34906585039886584,-0.34906585039886584,0.34906585039886606,1.6180495,1.5401584,0.10813869,0.1982933,0.2069644,0.753086,0.38414437,-0.37944028,1.5431371,-0.34102616,-0.73746026,0.083022356,1.3019674,-0.56653506
-0.2,-0.2,0.6,-0.34906585039886584,-0.34906585039886584,0.34906585039886606,1.5994936,1.5370531,0.08276504,0.2229684,0.24962926,0.7734165,0.38363594,-0.3794152,1.561717,-0.32956195,-0.77310205,0.056704473,1.3191171,-0.82284516
-0.2,-0.2,0.6,-0.34906585039886584,-0.34906585039886584,0.34906585039886606,1.6092728,1.5161343,0.11477899,0.23144317,0.22402582,0.768897,0.36530912,-0.386398,1.5536894,-0.3342402,-0.74039525,0.056558225,1.3165743,-0.70113415
-0.2,-0.2,0.6,-0.34906585039886584,-0.34906585039886584,0.34906585039886606,1.5965166,1.5446837,0.11030833,0.23061769,0.28678513,0.7464361,0.40923133,-0.366032,1.5620248,-0.35476053,-0.7591002,0.056311656,1.3372623,-0.65904254
-0.2,-0.2,0.6,-0.34906585039886584,-0.34906585039886584,0.34906585039886606,1.6244224,1.5399874,0.104076885,0.18586637,0.25012228,0.74942017,0.4091165,-0.37935388,1.5629411,-0.3272043,-0.778615,0.048238363,1.3217862,-0.7825769
-0.2,-0.2,0.6,-0.34906585039886584,-0.34906585039886584,0.34906585039886606,1.6005719,1.5215214,0.10466979,0.24175386,0.2413386,0.7751662,0.35760072,-0.37616175,1.5545173,-0.3339602,-0.75418264,0.07017551,1.3207343,-0.89140916
-0.2,-0.2,0.6,-0.34906585039886584,-0.34906585039886584,0.34906585039886606,1.6319821,1.5353172,0.10583409,0.21316765,0.25316557,0.7565018,0.37020025,-0.3784131,1.5659988,-0.32274833,-0.7702902,0.049091984,1.3181746,-0.7610865
-0.2,-0.2,0.6,-0.34906585039886584,-0.34906585039886584,0.34906585039886606,1.5781084,1.530809,0.094075255,0.24032724,0.24729593,0.75000596,0.3993672,-0.37833926,1.5511571,-0.34349287,-0.74089706,0.068524785,1.3141521,-0.56142896
-0.2,-0.2,0.6,-0.34906585039886584,-0.34906585039886584,0.34906585039886606,1.6103275,1.5264156,0.0981752,0.20624347,0.254432,0.7744618,0.389415,-0.3828792,1.5554858,-0.3286572,-0.7561818,0.06915225,1.3142068,-0.8511701
-0.2,-0.2,0.6,-0.34906585039886584,-0.34906585039886584,0.34906585039886606,1.5998447,1.5150949,0.093888424,0.20625111,0.24612792,0.7701558,0.44178495,-0.392953,1.5657399,-0.33442396,-0.7517915,0.07200259,1.3373231,-0.5870046
-0.2,-0.2,0.6,-0.34906585039886584,-0.34906585039886584,0.34906585039886606,1.5925237,1.5310452,0.10294398,0.19346216,0.2419711,0.75403845,0.4262664,-0.3798946,1.5688126,-0.32505688,-0.75793207,0.070906125,1.3182981,-0.74351543
-0.2,-0.2,0.6,-0.34906585039886584,-0.34906585039886584,0.34906585039886606,1.5674611,1.530854,0.11192006,0.22149156,0.24931654,0.786397,0.40877825,-0.38142577,1.5565678,-0.33785406,-0.7624341,0.08097775,1.3272574,-0.8937944
-0.2,-0.2,0.6,-0.34906585039886584,-0.34906585039886584,0.34906585039886606,1.6124264,1.5223372,0.10289153,0.18680808,0.20108305,0.77030146,0.40114424,-0.3781599,1.5938224,-0.32635087,-0.78721577,0.09314694,1.3214942,-0.9268219
-0.2,-0.2,0.6,-0.34906585039886584,-0.34906585039886584,0.34906585039886606,1.5850258,1.5281408,0.13539928,0.16406332,0.25547734,0.76198685,0.41957408,-0.384995,1.5598742,-0.3308553,-0.751219,0.049542945,1.3034086,-0.68094504
-0.2,-0.2,0.6,-0.34906585039886584,-0.34906585039886584,0.34906585039886606,1.6020002,1.541607,0.11064763,0.22997592,0.2690198,0.7668657,0.4071211,-0.3819588,1.5643735,-0.32802403,-0.7243421,0.087512046,1.2965709,-0.7464459
-0.2,-0.2,0.6,-0.34906585039886584,-0.34906585039886584,0.34906585039886606,1.5814261,1.5343654,0.10560309,0.197699,0.22940023,0.7728173,0.43365175,-0.38558874,1.5540468,-0.3356097,-0.78646946,0.030033521,1.3219317,-0.72419626
-0.2,-0.2,0.6,-0.34906585039886584,-0.34906585039886584,0.34906585039886606,1.5798295,1.5403662,0.11604313,0.21081895,0.2524787,0.76730114,0.38211927,-0.3807309,1.5766132,-0.32690257,-0.7546876,0.01006151,1.3373408,-0.65410495
-0.2,-0.2,0.6,-0.34906585039886584,-0.34906585039886584,0.34906585039886606,1.5975857,1.5239913,0.11355551,0.20197204,0.273492,0.74185586,0.40930623,-0.38087833,1.5576587,-0.33353794,-0.7186608,0.10575792,1.310225,-0.85513157
-0.2,-0.2,0.6,-0.34906585039886584,-0.34906585039886584,0.34906585039886606,1.6335208,1.5415943,0.11359435,0.23048818,0.22637993,0.7291737,0.41724142,-0.38474432,1.549449,-0.33129334,-0.7369615,0.092222266,1.3271358,-0.6592547
-0.2,-0.2,0.6,-0.34906585039886584,-0.34906585039886584,0.34906585039886606,1.591142,1.5044365,0.08971792,0.22553231,0.2342908,0.7696468,0.38908678,-0.3774687,1.5597395,-0.33594415,-0.747222,0.065241575,1.3268478,-0.6500733
-0.2,-0.2,0.6,-0.34906585039886584,-0.34906585039886584,0.34906585039886606,1.608221,1.5327638,0.08567346,0.17843008,0.27462226,0.76116925,0.35976812,-0.3837881,1.5695192,-0.32220137,-0.78053695,0.055998504,1.3267674,-0.667785
-0.2,-0.2,0.6,-0.34906585039886584,-0.34906585039886584,0.34906585039886606,1.6022146,1.5411056,0.105755426,0.21283524,0.2545515,0.77386713,0.40571725,-0.37203163,1.5749899,-0.33311248,-0.73336565,0.010428524,1.3061634,-0.5906621
-0.2,-0.2,0.6,-0.34906585039886584,-0.34906585039886584,0.34906585039886606,1.5769864,1.5462018,0.080525465,0.25343028,0.2455267,0.7383785,0.3772446,-0.38459542,1.5730909,-0.33600688,-0.7697537,0.044167895,1.3137449,-0.74774605
-0.2,-0.2,0.6,-0.34906585039886584,-0.34906585039886584,0.34906585039886606,1.6263213,1.5336776,0.11653645,0.17210352,0.28407544,0.75252336,0.4380001,-0.38598305,1.566327,-0.3167292,-0.76947355,0.032383874,1.3185747,-0.9154945
-0.2,-0.2,0.6,-0.34906585039886584,-0.34906585039886584,0.34906585039886606,1.5958133,1.538313,0.10042177,0.23433495,0.25070927,0.7716693,0.40107992,-0.3842285,1.554586,-0.33246374,-0.7554476,0.058832068,1.3182276,-0.7273918
-0.2,-0.2,0.6,-0.34906585039886584,-0.34906585039886584,0.34906585039886606,1.6084107,1.5320048,0.099679366,0.19034265,0.270461,0.7496106,0.4300629,-0.37713644,1.5609281,-0.33033192,-0.7497632,0.089360796,1.318854,-0.6768465
-0.2,-0.2,0.6,-0.34906585039886584,-0.34906585039886584,0.34906585039886606,1.6253657,1.5342205,0.09980715,0.23248176,0.24390203,0.7596123,0.3911892,-0.37322286,1.551114,-0.3444717,-0.74150515,0.0731699,1.3341641,-0.6956813
-0.2,-0.2,0.6,-0.34906585039886584,-0.34906585039886584,0.34906585039886606,1.6128813,1.5282782,0.07812514,0.23982517,0.28502855,0.7622627,0.40032414,-0.3864863,1.5598924,-0.33962965,-0.754399,0.050019756,1.3298293,-0.61515456
-0.2,-0.2,0.6,-0.34906585039886584,-0.34906585039886584,0.34906585039886606,1.6127603,1.5333948,0.09886834,0.1837361,0.30315968,0.75160855,0.35871214,-0.3749619,1.550805,-0.32423627,-0.73257065,0.082706705,1.3143802,-0.758911
-0.2,-0.2,0.6,-0.34906585039886584,-0.34906585039886584,0.34906585039886606,1.5830232,1.5305028,0.0911232,0.23452096,0.27150235,0.7469585,0.39927655,-0.37372226,1.5872219,-0.34247643,-0.7721409,0.07089678,1.3256793,-0.70877856
-0.2,-0.2,0.6,-0.34906585039886584,-0.34906585039886584,0.34906585039886606,1.6031938,1.536721,0.101410516,0.19790953,0.22540355,0.7701019,0.4066746,-0.38130692,1.5682948,-0.32500002,-0.78609365,0.070449054,1.3404928,-0.73515266
-0.2,-0.2,0.6,-0.34906585039886584,-0.34906585039886584,0.34906585039886606,1.5981652,1.5120978,0.08354885,0.20985799,0.2506291,0.766186,0.39807054,-0.38461775,1.5539602,-0.3265937,-0.7598377,0.056376148,1.3214208,-0.64400494
-0.2,-0.2,0.6,-0.34906585039886584,-0.34906585039886584,0.34906585039886606,1.590718,1.5264179,0.099313654,0.18478277,0.24997647,0.74919695,0.35727042,-0.38726303,1.5589767,-0.33491248,-0.78991956,0.06002506,1.3338107,-0.72702044
-0.2,-0.2,0.6,-0.34906585039886584,-0.34906585039886584,0.34906585039886606,1.5926251,1.5317581,0.10676523,0.17373434,0.22531098,0.7828226,0.40416294,-0.3693951,1.5542307,-0.3255871,-0.73605275,0.09432812,1.3112005,-0.712541
-0.2,-0.2,0.6,-0.34906585039886584,-0.34906585039886584,0.34906585039886606,1.6155167,1.5503672,0.11481333,0.20890981,0.24470776,0.769511,0.40073648,-0.37369657,1.5543036,-0.3413938,-0.74678534,0.044028684,1.33365,-0.7232017
-0.2,-0.2,0.6,-0.34906585039886584,-0.34906585039886584,0.34906585039886606,1.6207687,1.5467807,0.09110248,0.18230824,0.2595303,0.7750801,0.3909003,-0.3835442,1.5577655,-0.3446648,-0.7845024,0.03001104,1.3181466,-0.73470324
-0.2,-0.2,0.6,-0.34906585039886584,-0.34906585039886584,0.34906585039886606,1.615951,1.5254759,0.079939865,0.18166022,0.2523282,0.78626144,0.38212904,-0.38058192,1.5799015,-0.3413964,-0.80547124,0.07906647,1.3269892,-0.7420208
-0.2,-0.2,0.6,-0.34906585039886584,-0.34906585039886584,0.34906585039886606,1.5900649,1.5257118,0.12022426,0.20891422,0.27242535,0.75643843,0.41628966,-0.38314053,1.5691841,-0.32186854,-0.7447697,0.06322752,1.3095756,-0.8170843
-0.2,-0.2,0.6,-0.34906585039886584,-0.34906585039886584,0.34906585039886606,1.6223147,1.5354655,0.08606853,0.24317321,0.21557061,0.76739085,0.39465857,-0.38764668,1.553145,-0.31895787,-0.77112156,0.03495939,1.3492832,-0.6406866
-0.2,-0.2,0.6,-0.34906585039886584,-0.34906585039886584,0.34906585039886606,1.5777149,1.5478605,0.09910365,0.1993325,0.24028759,0.7505187,0.3735612,-0.3732796,1.5663103,-0.31439954,-0.7846315,0.10266452,1.326504,-0.7582151
-0.2,-0.2,0.6,-0.34906585039886584,-0.34906585039886584,0.34906585039886606,1.6028279,1.5432523,0.09495001,0.2248768,0.22423667,0.8008876,0.42507145,-0.38758913,1.5617952,-0.34758696,-0.7630208,0.09027329,1.3262032,-0.6629451
-0.2,-0.2,0.6,-0.34906585039886584,-0.34906585039886584,0.34906585039886606,1.6007696,1.5317527,0.09855327,0.20733161,0.2770101,0.7458155,0.42405272,-0.39245397,1.5581225,-0.3438417,-0.76118165,0.043249108,1.300683,-0.8237262
-0.2,-0.2,0.6,-0.34906585039886584,-0.34906585039886584,0.34906585039886606,1.6076378,1.5276511,0.100806236,0.2030577,0.2411124,0.75598794,0.39993918,-0.3827047,1.5640904,-0.33624247,-0.78114724,0.049832433,1.316336,-0.7936702
-0.2,-0.2,0.6,-0.34906585039886584,-0.34906585039886584,0.34906585039886606,1.6065533,1.5247507,0.1007216,0.17461015,0.2572078,0.7886099,0.4537856,-0.3862407,1.580915,-0.33707267,-0.7442135,0.1174304,1.3104134,-0.7731699
-0.2,-0.2,0.6,-0.34906585039886584,-0.34906585039886584,0.34906585039886606,1.6422045,1.5116575,0.07914028,0.17877835,0.25553325,0.74162525,0.41914696,-0.38154015,1.5621382,-0.33876643,-0.76896447,0.11040699,1.3155218,-0.64211136
-0.2,-0.2,0.6,-0.34906585039886584,-0.34906585039886584,0.34906585039886606,1.5981833,1.5340072,0.09477366,0.18468238,0.25329444,0.75538766,0.3967085,-0.37420788,1.5609494,-0.3308383,-0.77423775,0.091015354,1.328834,-0.63244015
-0.2,-0.2,0.6,-0.34906585039886584,-0.34906585039886584,0.34906585039886606,1.6065837,1.5342239,0.10973061,0.20443189,0.29357153,0.7602612,0.42759064,-0.3740404,1.544387,-0.3424807,-0.75044435,0.049440436,1.317352,-0.79679084
-0.2,-0.2,0.6,-0.34906585039886584,-0.34906585039886584,0.34906585039886606,1.5674087,1.5361798,0.09432349,0.21263322,0.2646091,0.76157594,0.38526747,-0.37475955,1.5507449,-0.3344919,-0.7556427,0.013760567,1.3149657,-0.5959586
-0.2,-0.2,0.6,-0.34906585039886584,-0.34906585039886584,0.34906585039886606,1.6016569,1.5440822,0.10491999,0.22038157,0.2663507,0.76374525,0.37099,-0.3731568,1.5644614,-0.32903048,-0.7616941,0.04931216,1.3215742,-0.6837071
-0.2,-0.2,0.6,-0.34906585039886584,-0.34906585039886584,0.34906585039886606,1.6061488,1.5371233,0.07727253,0.22178063,0.2251651,0.77087086,0.42105332,-0.37465262,1.553039,-0.32559866,-0.78051174,0.059278764,1.320368,-0.65360355
-0.2,-0.2,0.6,-0.34906585039886584,-0.34906585039886584,0.34906585039886606,1.6087314,1.5213213,0.09148882,0.20183006,0.26418,0.77941644,0.38758287,-0.37492964,1.5689448,-0.32776132,-0.7595955,0.0665116,1.3149261,-0.85996455
-0.2,-0.2,0.6,-0.34906585039886584,-0.34906585039886584,0.34906585039886606,1.6250981,1.5306938,0.11105371,0.21117434,0.22289217,0.75111717,0.369649,-0.38740078,1.5767032,-0.31164378,-0.75340354,0.092549965,1.3070751,-0.7909932
-0.2,-0.2,0.6,-0.34906585039886584,-0.34906585039886584,0.34906585039886606,1.5999706,1.5216225,0.08224058,0.22157627,0.242006,0.7700176,0.4058197,-0.3886833,1.5551676,-0.32791525,-0.7589416,0.094663836,1.3202646,-0.7679916
-0.2,-0.2,0.6,-0.34906585039886584,-0.34906585039886584,0.34906585039886606,1.6091613,1.5278833,0.09035835,0.21168742,0.2314319,0.7672025,0.33526087,-0.3776734,1.5739406,-0.33854,-0.75562406,0.044716462,1.3199936,-0.68483776
-0.2,-0.2,0.6,-0.34906585039886584,-0.34906585039886584,0.34906585039886606,1.5926424,1.5282335,0.116157554,0.19792712,0.25724837,0.7923696,0.4153372,-0.3905562,1.5734482,-0.3357855,-0.7561328,0.0970619,1.3363241,-0.7094712
-0.2,-0.2,0.6,-0.34906585039886584,-0.34906585039886584,0.34906585039886606,1.587353,1.5332406,0.093219504,0.23005909,0.23603559,0.7471061,0.39086172,-0.37800214,1.5641061,-0.33428845,-0.7749543,0.07386424,1.3326564,-0.778903
-0.2,-0.2,0.6,-0.34906585039886584,-0.34906585039886584,0.34906585039886606,1.5804185,1.5259528,0.11677778,0.19299085,0.23085104,0.765703,0.42080146,-0.3822175,1.5531205,-0.33698532,-0.77057856,0.041444015,1.3418792,-0.63909936
-0.2,-0.2,0.6,-0.34906585039886584,-0.34906585039886584,0.34906585039886606,1.5937662,1.5284507,0.104243256,0.20558184,0.25023526,0.748828,0.38453373,-0.38201472,1.5622334,-0.33291793,-0.7857451,0.08275027,1.3249583,-0.7919931
-0.2,-0.2,0.6,-0.34906585039886584,-0.34906585039886584,0.34906585039886606,1.5930824,1.5397031,0.10820681,0.19380963,0.23838803,0.75866395,0.3697044,-0.37776825,1.5603101,-0.34160239,-0.7932907,0.07051106,1.3271587,-0.7123393
-0.2,-0.2,0.6,-0.34906585039886584,-0.34906585039886584,0.34906585039886606,1.5963746,1.5336831,0.092758395,0.2292113,0.23045531,0.7854999,0.41029078,-0.38338166,1.5392672,-0.33337334,-0.7608055,0.03751077,1.3326334,-0.7568315
-0.2,-0.2,0.6,-0.34906585039886584,-0.34906585039886584,0.34906585039886606,1.6166638,1.5364566,0.10285204,0.18523023,0.25254652,0.73677975,0.3967948,-0.37099558,1.5699934,-0.3418008,-0.7721678,0.09598915,1.322237,-0.7200596
-0.2,-0.2,0.6,-0.34906585039886584,-0.34906585039886584,0.34906585039886606,1.6123999,1.5323744,0.090649106,0.20248903,0.26475734,0.756824,0.3943147,-0.38256368,1.5611851,-0.32522088,-0.73900914,0.060351223,1.3149098,-0.5928356
-0.2,-0.2,0.6,-0.34906585039886584,-0.34906585039886584,0.34906585039886606,1.5996665,1.5322963,0.08269376,0.20561285,0.24721876,0.7540291,0.38767016,-0.38025594,1.5367719,-0.33667728,-0.78153145,0.09816812,1.3213563,-0.8107681
-0.2,-0.2,0.6,-0.34906585039886584,-0.34906585039886584,0.34906585039886606,1.6183407,1.5268831,0.10347336,0.23448986,0.27050343,0.7496751,0.40159371,-0.38557383,1.5512203,-0.34306395,-0.72900975,0.059071787,1.3295231,-0.7935129
-0.2,-0.2,0.6,-0.34906585039886584,-0.34906585039886584,0.34906585039886606,1.5867394,1.5171746,0.09920545,0.23007128,0.22814861,0.75487816,0.3933571,-0.37490278,1.5429829,-0.36657274,-0.76474553,0.104498096,1.3309313,-0.8350801
-0.2,-0.2,0.6,-0.34906585039886584,-0.34906585039886584,0.34906585039886606,1.6045364,1.5328528,0.09822308,0.20812175,0.23098712,0.73176366,0.37857637,-0.3781176,1.573048,-0.33064115,-0.8023824,0.096283846,1.3357073,-0.71364015
-0.2,-0.2,0.6,-0.34906585039886584,-0.34906585039886584,0.34906585039886606,1.5807511,1.5246542,0.10759088,0.19813347,0.27202612,0.7640733,0.4211762,-0.3778368,1.5637083,-0.32712692,-0.7328472,0.0894775,1.3225895,-0.6354236
-0.2,-0.2,0.6,-0.34906585039886584,-0.34906585039886584,0.34906585039886606,1.5890384,1.5261931,0.09055487,0.1983924,0.25325963,0.7738147,0.3917672,-0.37448984,1.5558794,-0.3264151,-0.7662319,0.09380909,1.3119419,-0.71733284
-0.2,-0.2,0.6,-0.34906585039886584,-0.34906585039886584,0.34906585039886606,1.6178095,1.521076,0.08970309,0.20765333,0.24714865,0.7510935,0.4271988,-0.37917432,1.5571747,-0.32615578,-0.74136347,0.093840174,1.3188647,-0.6297902
-0.2,-0.2,0.6,-0.34906585039886584,-0.34906585039886584,0.34906585039886606,1.6137273,1.53961,0.10384395,0.19193748,0.23325634,0.7864216,0.40532342,-0.38097224,1.5624137,-0.33526203,-0.75614035,0.049718454,1.327076,-0.66098017
-0.2,-0.2,0.6,-0.34906585039886584,-0.34906585039886584,0.34906585039886606,1.6069678,1.5445795,0.08858718,0.20773928,0.23812284,0.73278594,0.33782634,-0.3738239,1.55968,-0.33626372,-0.7748215,0.05626947,1.3223106,-0.7251435
-0.2,-0.2,0.6,-0.34906585039886584,-0.34906585039886584,0.34906585039886606,1.5823349,1.5362922,0.1052791,0.19119692,0.26150456,0.7611538,0.45525074,-0.37561795,1.5748525,-0.3198124,-0.72928053,0.09780675,1.3306152,-0.7860686
-0.2,-0.2,0.6,-0.34906585039886584,-0.34906585039886584,0.34906585039886606,1.6073261,1.5141877,0.086988546,0.21265912,0.2511727,0.76660407,0.39402875,-0.37758777,1.5540594,-0.32770434,-0.7257108,0.043881945,1.3021629,-0.8419775
-0.2,-0.2,0.6,-0.34906585039886584,-0.34906585039886584,0.34906585039886606,1.6179181,1.5321007,0.09943573,0.21238604,0.24179596,0.7690916,0.4132806,-0.3779019,1.5516437,-0.32269627,-0.7383309,0.030989822,1.3216654,-0.6662631
-0.2,-0.2,0.6,-0.34906585039886584,-0.34906585039886584,0.34906585039886606,1.5775399,1.522955,0.08549616,0.23007055,0.27559996,0.7628002,0.38977057,-0.37927106,1.5426813,-0.33105242,-0.76717895,0.075836174,1.332793,-0.6923229
-0.2,-0.2,0.6,-0.34906585039886584,-0.34906585039886584,0.34906585039886606,1.5900764,1.5275384,0.09084545,0.19193569,0.2461799,0.7906354,0.4043338,-0.38283026,1.5620642,-0.3508032,-0.77513576,0.11780138,1.3177694,-0.6756442
-0.2,-0.2,0.6,-0.34906585039886584,-0.34906585039886584,0.34906585039886606,1.608442,1.5405018,0.09631027,0.1555627,0.22744375,0.7723292,0.39820004,-0.38007933,1.5654327,-0.33362862,-0.8355336,0.053380717,1.3319404,-0.7789916
-0.2,-0.2,0.6,-0.34906585039886584,-0.34906585039886584,0.34906585039886606,1.5995804,1.54407,0.10797804,0.21162097,0.26520202,0.77053875,0.42836824,-0.38286996,1.5698066,-0.3374716,-0.7571273,0.054617524,1.3004822,-0.81826425
-0.2,-0.2,0.6,-0.34906585039886584,-0.34906585039886584,0.34906585039886606,1.6150823,1.530608,0.09068414,0.23692088,0.2347671,0.7342238,0.38358292,-0.38932618,1.546895,-0.3355896,-0.74595934,0.06637733,1.3275625,-0.62436277
-0.2,-0.2,0.6,-0.34906585039886584,-0.34906585039886584,0.34906585039886606,1.5774646,1.5263901,0.09579868,0.23717985,0.27065945,0.7399557,0.35083687,-0.3861402,1.5528686,-0.3396741,-0.771168,0.08234425,1.3104767,-0.8762922
-0.2,-0.2,0.6,-0.34906585039886584,-0.34906585039886584,0.34906585039886606,1.558413,1.5206938,0.097785376,0.21632694,0.23142794,0.76120824,0.38616312,-0.38118666,1.5674528,-0.322619,-0.78325915,0.08663944,1.3269815,-0.7016338
-0.2,-0.2,0.6,-0.34906585039886584,-0.34906585039886584,0.34906585039886606,1.600027,1.5433992,0.09485045,0.20483771,0.23913154,0.7449349,0.40410274,-0.38495824,1.5509832,-0.32841748,-0.7751912,0.06066988,1.3176984,-0.75677556
-0.2,-0.2,0.6,-0.34906585039886584,-0.34906585039886584,0.34906585039886606,1.5907222,1.5391448,0.12622224,0.18649156,0.2547498,0.7627053,0.39664322,-0.37680116,1.5636566,-0.31378064,-0.75593776,0.016540647,1.3281494,-0.63019866
-0.2,-0.2,0.6,-0.34906585039886584,-0.34906585039886584,0.34906585039886606,1.5793959,1.5345128,0.13501662,0.2163871,0.21951558,0.77046937,0.43830025,-0.3745445,1.5549759,-0.33385488,-0.7215586,0.06245831,1.3250983,-0.60496426
-0.2,-0.2,0.6,-0.34906585039886584,-0.34906585039886584,0.34906585039886606,1.6094173,1.5207238,0.098553,0.21502535,0.23455131,0.7641546,0.39139822,-0.37607875,1.5686089,-0.33245057,-0.7521339,0.09542043,1.3485157,-0.7954714
-0.2,-0.2,0.6,-0.34906585039886584,-0.34906585039886584,0.34906585039886606,1.5949163,1.5371585,0.102000706,0.2180087,0.25885743,0.7620248,0.3610602,-0.38753098,1.574949,-0.34420508,-0.78387284,0.029910931,1.326681,-0.86322224
-0.2,-0.2,0.6,-0.34906585039886584,-0.34906585039886584,0.34906585039886606,1.6157689,1.5378907,0.11096758,0.21539374,0.25840285,0.75527114,0.39125255,-0.3825378,1.5831063,-0.3369405,-0.7812561,0.045814723,1.3492819,-0.74288636
-0.2,-0.2,0.6,-0.34906585039886584,-0.34906585039886584,0.34906585039886606,1.5977539,1.5145525,0.11024144,0.22978684,0.22260869,0.7835665,0.41087294,-0.38111594,1.5586516,-0.33508375,-0.7518525,0.06842182,1.3305614,-0.83607566
-0.2,-0.2,0.6,-0.34906585039886584,-0.34906585039886584,0.34906585039886606,1.6261624,1.5247818,0.10432346,0.19346507,0.25829294,0.7761424,0.42005038,-0.37328574,1.5556854,-0.33714956,-0.7738088,0.057036355,1.3243532,-0.94026923
-0.2,-0.2,0.6,-0.34906585039886584,-0.34906585039886584,0.34906585039886606,1.6019424,1.520332,0.10193295,0.17880374,0.22282062,0.7809394,0.4095562,-0.37753883,1.558315,-0.33843377,-0.76960176,0.050179042,1.3255353,-0.68018395
-0.2,-0.2,0.6,-0.34906585039886584,-0.34906585039886584,0.34906585039886606,1.586881,1.5339217,0.1055538,0.18527646,0.24808551,0.7707739,0.39603767,-0.39177972,1.5613861,-0.32048616,-0.76656455,0.107356995,1.3259175,-0.87429804
-0.2,-0.2,0.6,-0.34906585039886584,-0.34906585039886584,0.34906585039886606,1.5745476,1.533076,0.11131423,0.18149166,0.27919227,0.7738317,0.46565214,-0.36572304,1.5559113,-0.33021864,-0.79727006,0.06654321,1.344162,-0.7878557
-0.2,-0.2,0.6,-0.34906585039886584,-0.34906585039886584,0.34906585039886606,1.6195954,1.5250694,0.07560038,0.21834986,0.21685405,0.78065,0.3887746,-0.383338,1.5662727,-0.34332633,-0.7687806,0.03791644,1.3245382,-0.63776976
-0.2,-0.2,0.6,-0.34906585039886584,-0.34906585039886584,0.34906585039886606,1.585341,1.5168103,0.10701175,0.22624068,0.2512691,0.748874,0.38249382,-0.37849125,1.55906,-0.35394502,-0.7759082,0.060234904,1.3251218,-0.80108565
-0.2,-0.2,0.6,-0.34906585039886584,-0.34906585039886584,0.34906585039886606,1.5869386,1.5312594,0.0892334,0.21848631,0.24473684,0.7638173,0.40892264,-0.37677553,1.5605845,-0.33930868,-0.76126856,0.025356436,1.3246909,-0.69003564
-0.2,-0.2,0.6,-0.34906585039886584,-0.34906585039886584,0.34906585039886606,1.5836177,1.514748,0.10106839,0.23356293,0.26718304,0.77015316,0.3770744,-0.38006333,1.5608145,-0.3485954,-0.7596766,0.052295797,1.3341802,-0.76282555
-0.2,-0.2,0.6,-0.34906585039886584,-0.34906585039886584,0.34906585039886606,1.5929375,1.5296918,0.09462268,0.20035131,0.22647676,0.7583262,0.35600278,-0.36858192,1.5656732,-0.33265615,-0.7678508,0.06158707,1.3307177,-0.678702
-0.2,-0.2,0.6,-0.34906585039886584,-0.34906585039886584,0.34906585039886606,1.6327089,1.5377152,0.08780499,0.19095097,0.23192596,0.7625222,0.39687935,-0.385549,1.5646398,-0.31559876,-0.7826441,0.07148885,1.3418471,-0.78714234
-0.2,-0.2,0.6,-0.34906585039886584,-0.34906585039886584,0.34906585039886606,1.6010063,1.5379643,0.10371455,0.21306923,0.2421457,0.76187897,0.39971867,-0.3861153,1.5552236,-0.33033934,-0.7831907,0.054212917,1.3424442,-0.9432245
-0.2,-0.2,0.6,-0.34906585039886584,-0.34906585039886584,0.34906585039886606,1.5990424,1.5239147,0.092722476,0.19340242,0.21400377,0.76632875,0.38447043,-0.38039106,1.5688986,-0.32387093,-0.7860102,0.06817557,1.3169923,-0.87478876
-0.2,-0.2,0.6,-0.34906585039886584,-0.34906585039886584,0.34906585039886606,1.6049639,1.54673,0.08705399,0.26526535,0.23213242,0.7514559,0.4013016,-0.3770103,1.5632669,-0.3388709,-0.72721374,0.086341575,1.3182673,-1.025193
-0.2,-0.2,0.6,-0.34906585039886584,-0.34906585039886584,0.34906585039886606,1.5876172,1.5324379,0.10166445,0.21999043,0.21442255,0.7553231,0.36429265,-0.38839844,1.5589583,-0.3389005,-0.76589316,0.12952794,1.3401631,-0.71641237
-0.2,-0.2,0.6,-0.34906585039886584,-0.34906585039886584,0.34906585039886606,1.6233717,1.5239968,0.10324556,0.23784795,0.2524576,0.77231085,0.41125387,-0.38135812,1.5685489,-0.34124425,-0.73645383,0.06918544,1.3204126,-0.87533915
-0.2,-0.2,0.6,-0.34906585039886584,-0.34906585039886584,0.34906585039886606,1.5927967,1.5345638,0.09267083,0.2274258,0.2623767,0.7451922,0.36349067,-0.37593582,1.5574595,-0.3200895,-0.72950524,0.116634846,1.3318887,-0.74903774
-0.2,-0.2,0.6,-0.34906585039886584,-0.34906585039886584,0.34906585039886606,1.5752472,1.5272648,0.09423313,0.21449256,0.2707575,0.7755814,0.3345532,-0.37890592,1.5844241,-0.33457264,-0.7541326,0.0598179,1.3250968,-0.94644475
-0.2,-0.2,0.6,-0.34906585039886584,-0.34906585039886584,0.34906585039886606,1.5977744,1.5396785,0.09579538,0.19386667,0.24476495,0.7485004,0.38171428,-0.3756233,1.5555123,-0.31322402,-0.76743734,0.07991045,1.3082722,-0.7960175
-0.2,-0.2,0.6,-0.34906585039886584,-0.34906585039886584,0.34906585039886606,1.6059734,1.5394222,0.10200215,0.2181664,0.24427888,0.7471689,0.42642012,-0.37796727,1.5722603,-0.34332108,-0.73568314,0.028133549,1.3146689,-0.75489867
-0.2,-0.2,0.6,-0.34906585039886584,-0.34906585039886584,0.34906585039886606,1.5842564,1.5360343,0.09377506,0.22608095,0.21290639,0.7630978,0.39552528,-0.38919008,1.5574834,-0.34894565,-0.7767569,0.06381848,1.3073138,-0.7286073
-0.2,-0.2,0.6,-0.34906585039886584,-0.34906585039886584,0.34906585039886606,1.5913491,1.5296001,0.11505933,0.20007333,0.2619358,0.7520867,0.3943477,-0.39603305,1.5669793,-0.32834584,-0.7481892,0.04368416,1.3224093,-0.63312835
-0.2,-0.2,0.6,-0.34906585039886584,-0.34906585039886584,0.34906585039886606,1.6242595,1.5248386,0.10280378,0.22305131,0.27054805,0.7787687,0.38022193,-0.37639257,1.5585353,-0.32608646,-0.76019216,-0.01581257,1.3281,-0.7347422
-0.2,-0.2,0.6,-0.34906585039886584,-0.34906585039886584,0.34906585039886606,1.6200796,1.5429845,0.107222885,0.28548527,0.24885505,0.7704165,0.35816124,-0.3799995,1.55769,-0.33864123,-0.71704865,0.06125224,1.3178163,-0.8596599
-0.2,-0.2,0.6,-0.34906585039886584,-0.34906585039886584,0.34906585039886606,1.6098603,1.5272751,0.09548624,0.24897334,0.25003532,0.7671499,0.39199248,-0.3735276,1.5748216,-0.33150864,-0.7301963,0.06326109,1.3217795,-0.83840644
-0.2,-0.2,0.6,-0.34906585039886584,-0.34906585039886584,0.34906585039886606,1.5861142,1.5244935,0.11242527,0.22541721,0.21987969,0.75501984,0.40118918,-0.3724906,1.5684391,-0.357295,-0.7638239,0.023208292,1.3301606,-0.78839344
-0.2,-0.2,0.6,-0.34906585039886584,-0.34906585039886584,0.34906585039886606,1.5945481,1.5385543,0.10536508,0.18805256,0.24201457,0.78427154,0.38984042,-0.38058564,1.5664266,-0.3463524,-0.79480004,0.0732884,1.3330668,-0.84186596
-0.2,-0.2,0.6,-0.34906585039886584,-0.34906585039886584,0.34906585039886606,1.5764747,1.5406066,0.09321587,0.2484094,0.22683258,0.7658864,0.41611212,-0.3813844,1.5736233,-0.33977145,-0.74335915,0.09808053,1.3302292,-0.7139815
-0.2,-0.2,0.6,-0.34906585039886584,-0.34906585039886584,0.34906585039886606,1.589755,1.5221488,0.107046194,0.18419525,0.21946032,0.7443609,0.35301736,-0.38944575,1.5438167,-0.33785304,-0.7627685,0.09869603,1.3119243,-0.61465675
-0.2,-0.2,0.6,-0.34906585039886584,-0.34906585039886584,0.34906585039886606,1.5905651,1.5404267,0.10058148,0.18338853,0.23621823,0.74996096,0.34301627,-0.37720084,1.5694519,-0.33866212,-0.74551797,0.06446303,1.2147639,-0.7485529
-0.2,-0.2,0.6,-0.34906585039886584,-0.34906585039886584,0.34906585039886606,1.6166569,1.5364742,0.09264096,0.22975898,0.23829697,0.7663575,0.4373427,-0.3757105,1.5423623,-0.33916032,-0.7352392,0.06217355,1.3166239,-0.9221496
-0.2,-0.2,0.6,-0.34906585039886584,-0.34906585039886584,0.34906585039886606,1.6023341,1.519879,0.09361325,0.24008322,0.2790127,0.772939,0.40412062,-0.3873094,1.549299,-0.3580923,-0.7218648,0.08675745,1.321291,-0.69384676
-0.2,-0.2,0.6,-0.34906585039886584,-0.34906585039886584,0.34906585039886606,1.5841584,1.5365431,0.10958292,0.23213865,0.23240337,0.77548116,0.38934898,-0.3831862,1.5616922,-0.3388334,-0.7550077,0.09244033,1.3371944,-0.902574
-0.2,-0.2,0.6,-0.34906585039886584,-0.34906585039886584,0.34906585039886606,1.6065733,1.5231013,0.10335933,0.20179144,0.263539,0.73268366,0.3863576,-0.38328326,1.5488541,-0.32956392,-0.72895736,0.13196634,1.3155082,-0.9383815
-0.2,-0.2,0.6,-0.34906585039886584,-0.34906585039886584,0.34906585039886606,1.6131085,1.5358678,0.077885576,0.22661982,0.22499086,0.75254965,0.34425113,-0.3709205,1.5704131,-0.33371088,-0.76646113,0.06318582,1.3460243,-0.6735424
-0.2,-0.2,0.6,-0.34906585039886584,-0.34906585039886584,0.34906585039886606,1.6127423,1.512614,0.08256063,0.21848056,0.27462807,0.7519948,0.3921259,-0.38148725,1.5680609,-0.3511041,-0.75260687,0.07401309,1.3157575,-0.64820826
-0.2,-0.2,0.6,-0.34906585039886584,-0.34906585039886584,0.34906585039886606,1.6095643,1.5392498,0.08750185,0.19608307,0.24149914,0.77853626,0.37797987,-0.3795099,1.5748599,-0.34602123,-0.7730158,0.029929664,1.3355721,-0.55610895
-0.2,-0.2,0.6,-0.34906585039886584,-0.34906585039886584,0.34906585039886606,1.6128985,1.5363636,0.12880807,0.25240552,0.23353587,0.7473836,0.4086366,-0.38001424,1.5628082,-0.32974592,-0.7330087,0.056289908,1.3420732,-0.83928335
-0.2,-0.2,0.6,-0.34906585039886584,-0.34906585039886584,0.34906585039886606,1.6053224,1.5222412,0.10255467,0.20591037,0.25216758,0.760312,0.39559484,-0.37821928,1.5739386,-0.3443733,-0.7583118,0.03688652,1.3524177,-0.6442221
-0.2,-0.2,0.6,-0.34906585039886584,-0.34906585039886584,0.34906585039886606,1.6025745,1.5333102,0.08667599,0.19477923,0.24488969,0.7714896,0.39208952,-0.37559748,1.5630447,-0.32609707,-0.7671017,0.045072027,1.3193921,-0.7715552
-0.2,-0.2,0.6,-0.34906585039886584,-0.34906585039886584,0.34906585039886606,1.6130894,1.5162377,0.088715956,0.19856918,0.23972274,0.76411605,0.37652475,-0.372458,1.5598087,-0.32768002,-0.7653528,0.07845072,1.3342994,-0.75063986
-0.2,-0.2,0.6,-0.34906585039886584,-0.34906585039886584,0.34906585039886606,1.6015292,1.5326854,0.095891625,0.21089327,0.264425,0.7691803,0.34163672,-0.38748968,1.5561004,-0.33616415,-0.74366933,0.049732916,1.3013368,-0.73128587
-0.2,-0.2,0.6,-0.34906585039886584,-0.34906585039886584,0.34906585039886606,1.5876249,1.5273495,0.10092285,0.22012167,0.23305637,0.75570214,0.44348368,-0.3876868,1.5549775,-0.33653826,-0.7830129,0.093070745,1.3328581,-0.73208374
-0.2,-0.2,0.6,-0.34906585039886584,-0.34906585039886584,0.34906585039886606,1.5915312,1.5291438,0.09063384,0.17787737,0.2746516,0.752772,0.3782593,-0.38093776,1.5596372,-0.3246178,-0.77212167,0.07153027,1.31925,-0.8766738
-0.2,-0.2,0.6,-0.34906585039886584,-0.34906585039886584,0.34906585039886606,1.6033554,1.5343132,0.096365504,0.2111646,0.2718378,0.76938456,0.42775455,-0.3791778,1.5642807,-0.33905837,-0.7662942,0.06906961,1.3264496,-0.73672765
-0.2,-0.2,0.6,-0.34906585039886584,-0.34906585039886584,0.34906585039886606,1.6115619,1.5219814,0.097757764,0.21968232,0.24330154,0.760894,0.41689715,-0.3848717,1.5620285,-0.34291068,-0.761324,0.047369592,1.3166821,-0.53999716
-0.2,-0.2,0.6,-0.34906585039886584,-0.34906585039886584,0.34906585039886606,1.5814078,1.5280074,0.10457726,0.20981719,0.2759253,0.7508294,0.3846391,-0.38115537,1.5671816,-0.33508533,-0.75577813,0.02172787,1.3144724,-0.64818805
-0.2,-0.2,0.6,-0.34906585039886584,-0.34906585039886584,0.34906585039886606,1.6157646,1.536176,0.11417807,0.20262559,0.24510206,0.7569545,0.43714353,-0.37387446,1.5769882,-0.35626537,-0.76417214,0.037207067,1.3153319,-0.86542815
-0.2,-0.2,0.6,-0.34906585039886584,-0.34906585039886584,0.34906585039886606,1.59842,1.531859,0.1066506,0.18223006,0.2419488,0.7508789,0.44529706,-0.3771351,1.582348,-0.31183705,-0.75946814,0.095512815,1.3403323,-0.74029785
-0.2,-0.2,0.6,-0.34906585039886584,-0.34906585039886584,0.34906585039886606,1.6295997,1.539597,0.1145433,0.21055947,0.27188545,0.74551797,0.41055757,-0.37964633,1.5492061,-0.35024047,-0.77482647,0.08286285,1.3473296,-0.89108104
-0.2,-0.2,0.6,-0.34906585039886584,-0.34906585039886584,0.34906585039886606,1.6052158,1.5376997,0.1065164,0.26246262,0.19604513,0.7529723,0.38711956,-0.37677267,1.5566448,-0.3217568,-0.77303123,0.09528786,1.3348609,-0.8164203
-0.2,-0.2,0.6,-0.34906585039886584,-0.34906585039886584,0.34906585039886606,1.6039127,1.5273393,0.08715829,0.2113761,0.23172887,0.7411998,0.39074752,-0.38313523,1.5672596,-0.31109133,-0.7660277,0.07323641,1.3196952,-0.6990097
-0.2,-0.2,0.6,-0.34906585039886584,-0.34906585039886584,0.34906585039886606,1.58086,1.5230076,0.1152182,0.21341531,0.24029207,0.75577754,0.4254346,-0.370466,1.5681173,-0.33468324,-0.772283,0.053753182,1.3192102,-0.8340729
-0.2,-0.2,0.6,-0.34906585039886584,-0.34906585039886584,0.34906585039886606,1.5868729,1.5327489,0.0934616,0.22080386,0.24146274,0.73622036,0.35680205,-0.37245247,1.5551337,-0.33353215,-0.7515239,0.09488763,1.331715,-0.6645714
-0.2,-0.2,0.6,-0.34906585039886584,-0.34906585039886584,0.34906585039886606,1.6009145,1.5339777,0.10254617,0.22926058,0.23337398,0.7491436,0.3982522,-0.37921628,1.572992,-0.3315648,-0.759438,0.09510014,1.3264667,-0.7568085
-0.2,-0.2,0.6,-0.34906585039886584,-0.34906585039886584,0.34906585039886606,1.5657465,1.5262121,0.1063515,0.2293898,0.23463492,0.7755142,0.4186643,-0.38615167,1.5583787,-0.33502695,-0.7437553,0.051233124,1.3281124,-0.5624628
-0.2,-0.2,0.6,-0.34906585039886584,-0.34906585039886584,0.34906585039886606,1.5922512,1.550111,0.100288674,0.21568054,0.2212467,0.7476059,0.37973237,-0.38130963,1.5662754,-0.33684587,-0.79850245,0.03514445,1.3349698,-0.8575572
-0.2,-0.2,0.6,-0.34906585039886584,-0.34906585039886584,0.34906585039886606,1.5670472,1.5370494,0.09883305,0.21801904,0.24481481,0.7507527,0.42322612,-0.3747653,1.5581982,-0.32993388,-0.7692612,0.055461638,1.3085955,-0.77843374
-0.2,-0.2,0.6,-0.34906585039886584,-0.34906585039886584,0.34906585039886606,1.6196407,1.5461967,0.10645269,0.2020928,0.25969854,0.7540672,0.34101912,-0.37341046,1.5586247,-0.33167073,-0.76445216,0.06674759,1.321075,-0.6664276
-0.2,-0.2,0.6,-0.34906585039886584,-0.34906585039886584,0.34906585039886606,1.611864,1.5123477,0.10724707,0.2144696,0.26804706,0.75787354,0.37328207,-0.38200927,1.5582763,-0.3515672,-0.7184681,0.08995072,1.3235303,-0.7581719
-0.2,-0.2,0.6,-0.34906585039886584,-0.34906585039886584,0.34906585039886606,1.5936561,1.530399,0.11207271,0.21007486,0.22105902,0.76599085,0.38265696,-0.38236526,1.5461671,-0.33228317,-0.76168966,0.07854652,1.3128403,-0.8687749
-0.2,-0.2,0.6,-0.34906585039886584,-0.34906585039886584,0.34906585039886606,1.5855417,1.5327647,0.09188712,0.18559091,0.2737672,0.7666087,0.37964308,-0.3770621,1.5562955,-0.33865255,-0.8134349,0.082751505,1.3377932,-0.84067994
-0.2,-0.2,0.6,-0.34906585039886584,-0.34906585039886584,0.34906585039886606,1.5823631,1.5383663,0.09559176,0.20780526,0.23275568,0.7544662,0.39691186,-0.38491505,1.5687146,-0.32758382,-0.777982,0.030602291,1.3299836,-0.6754075
-0.2,-0.2,0.6,-0.34906585039886584,-0.34906585039886584,0.34906585039886606,1.6033697,1.5380799,0.08887354,0.20809624,0.2669463,0.7694738,0.36351278,-0.38549438,1.5652167,-0.34564283,-0.7646466,0.08041108,1.2967292,-0.88173556
-0.2,-0.2,0.6,-0.34906585039886584,-0.34906585039886584,0.34906585039886606,1.611136,1.5337231,0.09488897,0.2087683,0.20851259,0.759357,0.4166175,-0.38115856,1.5498376,-0.33579463,-0.7930351,0.038624853,1.3241844,-0.7558424
-0.2,-0.2,0.6,-0.34906585039886584,-0.34906585039886584,0.34906585039886606,1.5893097,1.5148448,0.09169617,0.20324011,0.24610831,0.76962066,0.4184754,-0.37608507,1.5492581,-0.34020963,-0.75522697,0.03179893,1.3357803,-0.662965
-0.2,-0.2,0.6,-0.34906585039886584,-0.34906585039886584,0.34906585039886606,1.5657718,1.5424172,0.104159914,0.18541862,0.27696252,0.7678312,0.3821803,-0.37846026,1.56543,-0.3149852,-0.77509904,0.052333724,1.3198649,-0.9174317
-0.2,-0.2,0.6,-0.34906585039886584,-0.34906585039886584,0.34906585039886606,1.5769521,1.5418067,0.101964146,0.22625202,0.23984091,0.73527086,0.3566319,-0.37737438,1.5581049,-0.3405159,-0.77931064,0.07869645,1.334577,-0.8661372
-0.2,-0.2,0.6,-0.34906585039886584,-0.34906585039886584,0.34906585039886606,1.5816226,1.5100464,0.12424178,0.21154456,0.26602224,0.77601516,0.3919584,-0.37172866,1.5731633,-0.33365357,-0.7105212,0.061451662,1.321659,-0.8025485
-0.2,-0.2,0.6,-0.34906585039886584,-0.34906585039886584,0.34906585039886606,1.6092051,1.5123823,0.10452316,0.20443411,0.2587935,0.76993006,0.3778458,-0.3830149,1.577625,-0.32660073,-0.7400259,0.030137388,1.3294786,-0.8197266
-0.2,-0.2,0.6,-0.34906585039886584,-0.34906585039886584,0.34906585039886606,1.6075075,1.5286032,0.09500016,0.20775203,0.224373,0.7600559,0.37795997,-0.38968807,1.5618588,-0.33690923,-0.75581133,0.12654127,1.3342953,-0.6332038
-0.2,-0.2,0.6,-0.34906585039886584,-0.34906585039886584,0.34906585039886606,1.5916916,1.5348337,0.09260466,0.223484,0.2568282,0.7496618,0.43161705,-0.37213862,1.565403,-0.33094904,-0.7635833,0.030223874,1.3207434,-0.7675962
-0.2,-0.2,0.6,-0.34906585039886584,-0.34906585039886584,0.34906585039886606,1.6038536,1.5402654,0.11035033,0.19860597,0.23710975,0.74129176,0.43892363,-0.37977287,1.570515,-0.32266298,-0.75270176,0.07197874,1.3368152,-0.8079953
-0.2,-0.2,0.6,-0.34906585039886584,-0.34906585039886584,0.34906585039886606,1.6191597,1.5319237,0.10174082,0.18712533,0.27824238,0.72539365,0.38088617,-0.38175115,1.5515745,-0.32881704,-0.7514642,0.083011314,1.2985127,-0.87248135
-0.2,-0.2,0.6,-0.34906585039886584,-0.34906585039886584,0.34906585039886606,1.6073282,1.5285859,0.09345481,0.21801732,0.23396713,0.7655439,0.36365443,-0.3757907,1.5546964,-0.33269137,-0.76950085,0.047803037,1.3431342,-0.87900704
-0.2,-0.2,0.6,-0.34906585039886584,-0.34906585039886584,0.34906585039886606,1.6183623,1.5268548,0.096088976,0.17269525,0.24604954,0.7518202,0.38292173,-0.38164213,1.5675746,-0.33810675,-0.7656079,0.037179273,1.3169111,-0.745734
-0.2,-0.2,0.6,-0.34906585039886584,-0.34906585039886584,0.34906585039886606,1.6304601,1.5238694,0.09925552,0.22245224,0.2409945,0.76750296,0.40301538,-0.38075185,1.580218,-0.34532067,-0.7407781,0.043494366,1.3218627,-0.6390409
-0.2,-0.2,0.6,-0.34906585039886584,-0.34906585039886584,0.34906585039886606,1.5982803,1.5273671,0.080704816,0.2077138,0.27164814,0.7643758,0.39168972,-0.38050386,1.5407944,-0.3255899,-0.77906954,0.069393754,1.3262924,-0.74435323
-0.2,-0.2,0.6,-0.34906585039886584,-0.34906585039886584,0.34906585039886606,1.6098826,1.5351901,0.09642275,0.19157389,0.24689959,0.7536622,0.41732168,-0.37755865,1.5627373,-0.33942878,-0.7756881,0.030218903,1.3330665,-0.65461314
-0.2,-0.2,0.6,-0.34906585039886584,-0.34906585039886584,0.34906585039886606,1.5786866,1.5272999,0.100142986,0.23638047,0.25089142,0.76393527,0.37366408,-0.37380382,1.550922,-0.3361534,-0.7428862,0.070794106,1.3343306,-0.79170907
-0.2,-0.2,0.6,-0.34906585039886584,-0.34906585039886584,0.34906585039886606,1.6246269,1.5247573,0.0854766,0.2361002,0.1920411,0.74836886,0.40246376,-0.37613043,1.5596946,-0.3419225,-0.7644581,0.056438956,1.351945,-0.874381
-0.2,-0.2,0.6,-0.34906585039886584,-0.34906585039886584,0.34906585039886606,1.5862919,1.5331463,0.08487297,0.23956348,0.27738842,0.75379694,0.4174451,-0.38220754,1.5529082,-0.33209956,-0.7590161,0.069039285,1.3346825,-0.7027442
-0.2,-0.2,0.6,-0.34906585039886584,-0.34906585039886584,0.34906585039886606,1.6038867,1.5508854,0.10107127,0.1845456,0.26049528,0.766419,0.42116383,-0.38938716,1.552424,-0.33894658,-0.77186334,0.080065906,1.3378484,-0.7252784
-0.2,-0.2,0.6,-0.34906585039886584,-0.34906585039886584,0.34906585039886606,1.5792289,1.5292573,0.104070365,0.20881113,0.23889028,0.7571248,0.41198662,-0.37924072,1.5564601,-0.34352368,-0.75877374,0.12584566,1.3109161,-0.8421813
-0.2,-0.2,0.6,-0.34906585039886584,-0.34906585039886584,0.34906585039886606,1.5606555,1.5396433,0.103378944,0.20448057,0.25115603,0.7510613,0.42823714,-0.38218233,1.5618322,-0.33067298,-0.80075336,0.06756142,1.3259628,-0.6434131
-0.2,-0.2,0.6,-0.34906585039886584,-0.34906585039886584,0.34906585039886606,1.6061482,1.5298076,0.110106535,0.20085737,0.27609572,0.7666825,0.43279043,-0.38813186,1.5511369,-0.32535,-0.72332627,0.07665458,1.3199613,-0.81872696
-0.2,-0.2,0.6,-0.34906585039886584,-0.34906585039886584,0.34906585039886606,1.616272,1.5131929,0.095638596,0.19276136,0.23822549,0.74009126,0.34561282,-0.38632786,1.5435212,-0.33354837,-0.77829224,0.057903327,1.3190111,-0.57161677
-0.2,-0.2,0.6,-0.34906585039886584,-0.34906585039886584,0.34906585039886606,1.6029181,1.5369579,0.10177795,0.20674883,0.23966002,0.78273404,0.44485784,-0.37839478,1.5670995,-0.33984706,-0.7712864,0.08849913,1.346919,-0.750715
-0.2,-0.2,0.6,-0.34906585039886584,-0.34906585039886584,0.34906585039886606,1.6296753,1.5292543,0.10442443,0.19701442,0.25711903,0.7637229,0.3805428,-0.3907371,1.5622729,-0.33922043,-0.7590751,0.07818217,1.3257809,-0.8693548
-0.2,-0.2,0.6,-0.34906585039886584,-0.34906585039886584,0.34906585039886606,1.5775449,1.5264754,0.10519354,0.18343447,0.23572527,0.7750844,0.37568152,-0.3718292,1.5652897,-0.32259908,-0.7464199,0.030505039,1.301458,-0.68269724
-0.2,-0.2,0.6,-0.34906585039886584,-0.34906585039886584,0.34906585039886606,1.5652916,1.5360997,0.111114934,0.19166508,0.2352714,0.7425462,0.40428284,-0.37924355,1.5661039,-0.32997546,-0.76944065,0.09674962,1.3352778,-0.5253399
-0.2,-0.2,0.6,-0.34906585039886584,-0.34906585039886584,0.34906585039886606,1.6144171,1.5247674,0.10035092,0.20479316,0.2180183,0.77292883,0.38326657,-0.37254936,1.5606904,-0.32476798,-0.75089365,0.038595714,1.3226092,-0.9073037
-0.2,-0.2,0.6,-0.34906585039886584,-0.34906585039886584,0.34906585039886606,1.5907,1.5399619,0.09993294,0.19392274,0.28915817,0.75241655,0.36799663,-0.3896943,1.56155,-0.3326276,-0.7436714,0.11895078,1.3227873,-0.50118244
-0.2,-0.2,0.6,-0.34906585039886584,-0.34906585039886584,0.34906585039886606,1.5945069,1.5211277,0.10240694,0.24762669,0.2498436,0.7701079,0.3866799,-0.3900212,1.5754031,-0.33120504,-0.76677334,0.048239376,1.3408995,-0.9025547
-0.2,-0.2,0.6,-0.34906585039886584,-0.34906585039886584,0.34906585039886606,1.6302155,1.5144166,0.081556275,0.18407945,0.28649342,0.7577234,0.4011644,-0.38541356,1.5643783,-0.33345672,-0.7793339,0.0035322015,1.3280673,-0.7497356
-0.2,-0.2,0.6,-0.34906585039886584,-0.34906585039886584,0.34906585039886606,1.605836,1.5413976,0.08562226,0.1977918,0.25783655,0.7588317,0.3660415,-0.37176773,1.5634468,-0.33394888,-0.74289906,0.04924813,1.3117881,-0.6864505
-0.2,-0.2,0.6,-0.34906585039886584,-0.34906585039886584,0.34906585039886606,1.620896,1.5388733,0.091683835,0.20722152,0.22023919,0.7870899,0.35235596,-0.3797521,1.5556258,-0.3496271,-0.7707788,0.011374309,1.3433874,-0.6068888
-0.2,-0.2,0.6,-0.34906585039886584,-0.34906585039886584,0.34906585039886606,1.6183769,1.5558938,0.07789507,0.22437897,0.25471702,0.7602563,0.42029205,-0.38122225,1.5586169,-0.33400652,-0.777793,0.03405211,1.3091091,-0.87115526
-0.2,-0.2,0.6,-0.34906585039886584,-0.34906585039886584,0.34906585039886606,1.6044254,1.5406964,0.102788314,0.17539284,0.25392368,0.77408224,0.39585444,-0.38289043,1.5485954,-0.34875342,-0.75226384,0.052409284,1.325488,-0.8530018
-0.2,-0.2,0.6,-0.34906585039886584,-0.34906585039886584,0.34906585039886606,1.6189964,1.5447927,0.09010149,0.20676559,0.25759694,0.769362,0.40632728,-0.3789243,1.5494212,-0.332424,-0.75879914,0.050896004,1.3221371,-0.8555651
-0.2,-0.2,0.6,-0.34906585039886584,-0.34906585039886584,0.34906585039886606,1.5846454,1.5280626,0.101523824,0.16367695,0.2860491,0.7527136,0.39899474,-0.37636325,1.5737867,-0.33807403,-0.81547976,0.07203945,1.330785,-0.6856035
-0.2,-0.2,0.6,-0.34906585039886584,-0.34906585039886584,0.34906585039886606,1.5905886,1.5307992,0.085865445,0.2295929,0.24943018,0.76346564,0.42415473,-0.37592435,1.559363,-0.32471487,-0.7725537,0.037002694,1.3182523,-0.91662323
-0.2,-0.2,0.6,-0.34906585039886584,-0.34906585039886584,0.34906585039886606,1.6055002,1.5439181,0.095094346,0.20533755,0.23362242,0.7557424,0.3838585,-0.3748718,1.5619439,-0.32976726,-0.76236993,0.045629617,1.3296447,-0.74936146
-0.2,-0.2,0.6,-0.34906585039886584,-0.34906585039886584,0.34906585039886606,1.6216514,1.5403816,0.09574637,0.21464245,0.22028306,0.7665067,0.38796693,-0.37591344,1.5699308,-0.33358467,-0.7349453,0.057818074,1.329581,-0.83867747
-0.2,-0.2,0.6,-0.34906585039886584,-0.34906585039886584,0.34906585039886606,1.6070061,1.5340352,0.087788545,0.21351147,0.2507306,0.7522778,0.43781048,-0.3758206,1.5401759,-0.3104151,-0.75556,0.09893294,1.3154786,-0.8188879
-0.2,-0.2,0.6,-0.34906585039886584,-0.34906585039886584,0.34906585039886606,1.5897563,1.5440587,0.09371046,0.18275146,0.24575074,0.75472045,0.40442204,-0.3692438,1.5699095,-0.3324151,-0.754726,0.08013223,1.3050632,-0.79827017
-0.2,-0.2,0.6,-0.34906585039886584,-0.34906585039886584,0.34906585039886606,1.6029041,1.5195901,0.09114217,0.19694827,0.23608597,0.7457044,0.3937825,-0.3828053,1.5631663,-0.34682256,-0.77719533,0.050577477,1.3160357,-0.7489552
-0.2,-0.2,0.6,-0.34906585039886584,-0.34906585039886584,0.34906585039886606,1.586109,1.5341058,0.087447226,0.22371703,0.21465811,0.7634352,0.3978297,-0.37885386,1.5637661,-0.33681542,-0.7812164,0.103277266,1.3350328,-0.81824666
-0.2,-0.2,0.6,-0.34906585039886584,-0.34906585039886584,0.34906585039886606,1.6290386,1.5351167,0.097860254,0.20863214,0.225319,0.7412376,0.4175401,-0.39024648,1.5940638,-0.34337112,-0.8019513,0.030906508,1.3246063,-0.70703137
