sanky1234/BimanualDexCatch/isaacgymenvs/cem_results/football_pose_0.1_0.0_1.4_-0.5235987755982988_0.0_0_2025-05-26.csv
x,y,z,roll,pitch,yaw,robot1/joint1,robot1/joint2,robot1/joint3,robot1/joint4,robot1/joint5,robot1/joint6,robot1/joint7,robot2/joint1,robot2/joint2,robot2/joint3,robot2/joint4,robot2/joint5,robot2/joint6,robot2/joint7
0.1,0.0,1.4,-0.5235987755982988,0.0,0,-1.4228162,0.9160266,-0.59582615,0.68886703,-0.42505935,1.0749999,-0.29164925,0.10972345,-1.2244877,1.1794459,-0.10465424,0.06394057,1.1551535,-0.15760978
0.1,0.0,1.4,-0.5235987755982988,0.0,0,-1.4219314,0.9138964,-0.6016141,0.6892793,-0.41906556,1.0712742,-0.34889424,0.11697272,-1.2217325,1.1541396,-0.10055086,0.10071346,1.0676212,0.07415582
0.1,0.0,1.4,-0.5235987755982988,0.0,0,-1.4243499,0.9160085,-0.5993686,0.6913327,-0.40841842,1.0766357,-0.3324099,0.1087333,-1.2223601,1.1694553,-0.09950422,-0.054156583,1.187712,1.1314505
0.1,0.0,1.4,-0.5235987755982988,0.0,0,-1.4231375,0.9191983,-0.59926796,0.6884839,-0.41677445,1.0744616,-0.30475038,0.107503094,-1.2193462,1.1394085,-0.10688749,-0.25792718,1.081808,-0.47203436
0.1,0.0,1.4,-0.5235987755982988,0.0,0,-1.4207822,0.91428,-0.59827554,0.69108427,-0.42089194,1.0739487,-0.34834924,0.109232344,-1.2210298,1.1608701,-0.10353082,0.1521664,0.9747026,-0.86512023
0.1,0.0,1.4,-0.5235987755982988,0.0,0,-1.4208978,0.9217021,-0.5991726,0.6880192,-0.42591205,1.0768552,-0.30266964,0.112070456,-1.2218963,1.1687034,-0.10446677,0.33709314,1.2904558,0.1470827
0.1,0.0,1.4,-0.5235987755982988,0.0,0,-1.421654,0.9178983,-0.59862554,0.69084626,-0.4110767,1.0765201,-0.3484892,0.11255132,-1.2162561,1.1651789,-0.10265892,-0.04592937,1.0208157,0.41718826
0.1,0.0,1.4,-0.5235987755982988,0.0,0,-1.4218752,0.90883607,-0.59857637,0.68869257,-0.4085413,1.0750377,-0.31802636,0.11592256,-1.2190942,1.1799557,-0.10480877,-0.16701408,1.1507572,0.120562546
0.1,0.0,1.4,-0.5235987755982988,0.0,0,-1.418818,0.9209146,-0.5999046,0.68924224,-0.4245977,1.0778478,-0.26556823,0.106091015,-1.2178558,1.1612424,-0.1017807,0.15749618,1.3021342,0.07007906
0.1,0.0,1.4,-0.5235987755982988,0.0,0,-1.4230878,0.91312104,-0.60272914,0.6852325,-0.416504,1.0733492,-0.34814855,0.10919437,-1.2164946,1.1664281,-0.10668789,-0.12825255,1.1509365,-0.69458264
0.1,0.0,1.4,-0.5235987755982988,0.0,0,-1.4203663,0.9151483,-0.6026701,0.6880794,-0.4082076,1.0732623,-0.34683397,0.11594711,-1.2238235,1.161857,-0.10218942,-0.15848148,1.2662047,-0.50059533
0.1,0.0,1.4,-0.5235987755982988,0.0,0,-1.423472,0.9217834,-0.5975279,0.6922615,-0.41742855,1.0718967,-0.31810856,0.109950386,-1.2209239,1.1642871,-0.10321624,-0.10205449,1.1707206,0.015767176
0.1,0.0,1.4,-0.5235987755982988,0.0,0,-1.4207529,0.91552806,-0.6006205,0.68798155,-0.41752058,1.0742767,-0.29286006,0.1057553,-1.2231696,1.1562488,-0.10358386,0.10700452,1.1509277,-0.21168813
0.1,0.0,1.4,-0.5235987755982988,0.0,0,-1.4226538,0.9160025,-0.6005707,0.6889407,-0.42092195,1.0727708,-0.32127163,0.10816283,-1.2237438,1.1613135,-0.10208998,0.36523572,1.2345878,-0.23170161
0.1,0.0,1.4,-0.5235987755982988,0.0,0,-1.4248073,0.91030973,-0.5992394,0.68641144,-0.41336405,1.0774989,-0.33469123,0.11171467,-1.2254441,1.1660444,-0.10187779,-0.23201257,0.9961351,0.72055125
0.1,0.0,1.4,-0.5235987755982988,0.0,0,-1.4227738,0.9124281,-0.5964887,0.69047236,-0.42139396,1.0715252,-0.33000916,0.11135229,-1.2188077,1.1812878,-0.09735686,0.2497224,1.1365644,0.051011123
0.1,0.0,1.4,-0.5235987755982988,0.0,0,-1.4224035,0.91751593,-0.59946847,0.6915723,-0.4256976,1.0733559,-0.29080915,0.105788186,-1.2232362,1.1749059,-0.10758121,0.09597971,1.1294855,-0.9386029
0.1,0.0,1.4,-0.5235987755982988,0.0,0,-1.4260904,0.9160645,-0.59884834,0.6900244,-0.41654664,1.077121,-0.34296116,0.10644629,-1.2229027,1.1647725,-0.09985327,0.23523732,1.0070437,-0.8081156
0.1,0.0,1.4,-0.5235987755982988,0.0,0,-1.4224062,0.9196147,-0.59729797,0.688909,-0.41493455,1.0770752,-0.29314107,0.10807456,-1.2195425,1.1556832,-0.10234985,0.0012103212,1.2170391,0.7986795
0.1,0.0,1.4,-0.5235987755982988,0.0,0,-1.422303,0.9171035,-0.60003906,0.6888404,-0.41066346,1.0737308,-0.3146743,0.10847043,-1.2195861,1.171169,-0.093804695,0.14077668,1.1229422,0.69205445
0.1,0.0,1.4,-0.5235987755982988,0.0,0,-1.423336,0.91969293,-0.59783256,0.68906367,-0.40479264,1.0743426,-0.28270745,0.1071381,-1.221248,1.1602386,-0.103608266,0.30597994,0.9951074,-0.7063421
0.1,0.0,1.4,-0.5235987755982988,0.0,0,-1.4239211,0.9115813,-0.5978888,0.6912701,-0.4107112,1.0734149,-0.3253066,0.11344842,-1.218596,1.1749178,-0.09927376,-0.058921408,1.1101995,-0.15736754
0.1,0.0,1.4,-0.5235987755982988,0.0,0,-1.4227277,0.91433436,-0.5989963,0.68978274,-0.41723698,1.0731721,-0.31291473,0.11529025,-1.2226646,1.1646825,-0.10049805,0.12781724,1.0420226,-1.0472649
0.1,0.0,1.4,-0.5235987755982988,0.0,0,-1.4193945,0.91433465,-0.59832126,0.6881426,-0.41050586,1.0724584,-0.2965195,0.11426227,-1.2241218,1.1649022,-0.09602122,0.23551014,1.153209,-0.3812847
0.1,0.0,1.4,-0.5235987755982988,0.0,0,-1.422767,0.91070044,-0.60347,0.6873445,-0.41111034,1.0742042,-0.31762064,0.11478734,-1.2221141,1.1728486,-0.098870076,0.42085424,1.2456664,-0.119933344
0.1,0.0,1.4,-0.5235987755982988,0.0,0,-1.4231005,0.91249233,-0.5987254,0.69047415,-0.40957126,1.0722238,-0.34162712,0.1152656,-1.2210454,1.1493907,-0.10228935,0.14620791,1.076423,0.6553976
0.1,0.0,1.4,-0.5235987755982988,0.0,0,-1.4228433,0.9159578,-0.5962559,0.69054675,-0.40998694,1.068412,-0.27544245,0.10692997,-1.2235787,1.1701356,-0.09933567,0.553818,1.0584124,-0.74099964
0.1,0.0,1.4,-0.5235987755982988,0.0,0,-1.4240438,0.9105641,-0.60021764,0.69152045,-0.4208331,1.0720445,-0.32150093,0.11566947,-1.2260792,1.1726346,-0.10136544,0.29639387,1.1577306,-0.40512857
0.1,0.0,1.4,-0.5235987755982988,0.0,0,-1.4186432,0.91674966,-0.60508907,0.6939281,-0.4069947,1.0729933,-0.37369612,0.112949386,-1.2257051,1.1596289,-0.0987722,0.19258136,1.1267743,0.7855156
0.1,0.0,1.4,-0.5235987755982988,0.0,0,-1.4214292,0.91234744,-0.60115457,0.6884799,-0.4202385,1.0761049,-0.29867002,0.116884805,-1.2217914,1.1622154,-0.1051547,0.202516,0.8689729,0.07137379
0.1,0.0,1.4,-0.5235987755982988,0.0,0,-1.4242603,0.9123081,-0.60059863,0.68915874,-0.41748965,1.0769204,-0.32766432,0.11565726,-1.2210844,1.1742448,-0.098535806,0.32215646,1.104877,0.035473082
0.1,0.0,1.4,-0.5235987755982988,0.0,0,-1.424513,0.91272163,-0.6005343,0.68809843,-0.41969705,1.0739554,-0.32398188,0.11214413,-1.2197317,1.1663617,-0.10287606,-0.010593926,1.2566137,-0.70237255
0.1,0.0,1.4,-0.5235987755982988,0.0,0,-1.420848,0.92148703,-0.60325265,0.6911611,-0.42272556,1.073803,-0.3603892,0.11023891,-1.2250941,1.1565684,-0.10962279,0.29484946,1.1465476,0.21473065
0.1,0.0,1.4,-0.5235987755982988,0.0,0,-1.4215115,0.9094953,-0.5996729,0.69028133,-0.41122973,1.078541,-0.35155645,0.111353606,-1.2247056,1.1732728,-0.10470458,-0.025595581,0.91587937,-0.42509404
0.1,0.0,1.4,-0.5235987755982988,0.0,0,-1.4215935,0.9119568,-0.60214186,0.6885488,-0.41959873,1.0735226,-0.32887134,0.110126756,-1.2197703,1.1642504,-0.10010014,-0.11338806,1.0370804,0.5983171
0.1,0.0,1.4,-0.5235987755982988,0.0,0,-1.4205437,0.9188271,-0.59645337,0.68978757,-0.40395346,1.0739844,-0.3347438,0.11176335,-1.2193484,1.1654646,-0.09736841,0.3583377,1.0753673,0.30928916
0.1,0.0,1.4,-0.5235987755982988,0.0,0,-1.4241796,0.91659683,-0.59677434,0.69342107,-0.41775987,1.0704861,-0.32338336,0.11353174,-1.2235466,1.1742013,-0.1006421,0.056129083,1.0280771,0.3300679
0.1,0.0,1.4,-0.5235987755982988,0.0,0,-1.4229687,0.9100741,-0.59818155,0.6872264,-0.41520828,1.0713742,-0.32316652,0.11314583,-1.2243471,1.162906,-0.099931404,0.28170532,1.0350767,-0.36754262
0.1,0.0,1.4,-0.5235987755982988,0.0,0,-1.4262998,0.91405326,-0.60207397,0.69172966,-0.40592822,1.071054,-0.32824042,0.11119998,-1.2227681,1.1637667,-0.101641245,0.04851358,1.0525322,-0.3678932
0.1,0.0,1.4,-0.5235987755982988,0.0,0,-1.4252067,0.91741973,-0.6004428,0.6929618,-0.4038389,1.0703636,-0.29049647,0.111720994,-1.2259473,1.158724,-0.10687326,0.15029424,1.0603936,0.63526857
0.1,0.0,1.4,-0.5235987755982988,0.0,0,-1.4233991,0.9129137,-0.5986759,0.69017833,-0.4209971,1.0693786,-0.30951875,0.10912831,-1.2267277,1.1649472,-0.10446724,0.034647927,1.0528492,0.08519193
0.1,0.0,1.4,-0.5235987755982988,0.0,0,-1.4231677,0.9153453,-0.59739554,0.6889664,-0.41368017,1.0760531,-0.30929878,0.10586954,-1.220869,1.1710769,-0.09904735,0.25874114,1.0493852,0.24692044
0.1,0.0,1.4,-0.5235987755982988,0.0,0,-1.4221673,0.9153824,-0.5975966,0.69161737,-0.4122628,1.072572,-0.3354993,0.10945125,-1.2238768,1.1662356,-0.09943795,0.08737288,1.233362,-0.3897124
0.1,0.0,1.4,-0.5235987755982988,0.0,0,-1.4199767,0.9216008,-0.6015959,0.69277203,-0.41624644,1.0725458,-0.30422008,0.1117367,-1.2199551,1.1786193,-0.102500044,0.3232611,1.039333,1.1223506
0.1,0.0,1.4,-0.5235987755982988,0.0,0,-1.421071,0.91256166,-0.6024689,0.68822783,-0.41160122,1.0730287,-0.31304,0.111802906,-1.2262057,1.1690613,-0.103874914,0.4593946,1.0959299,-0.12423493
0.1,0.0,1.4,-0.5235987755982988,0.0,0,-1.4233063,0.91567516,-0.59804606,0.6907204,-0.41045514,1.0717809,-0.29365194,0.11569053,-1.2176106,1.1687784,-0.09926469,0.13629508,1.1294831,1.8411468
0.1,0.0,1.4,-0.5235987755982988,0.0,0,-1.4221209,0.91369444,-0.5979831,0.69175696,-0.41722378,1.0732169,-0.33230662,0.1062118,-1.2202286,1.1755472,-0.099411026,0.42953137,1.2168366,0.09997996
0.1,0.0,1.4,-0.5235987755982988,0.0,0,-1.4241704,0.9122755,-0.59761536,0.6899194,-0.42355338,1.077472,-0.33834937,0.11033261,-1.2190013,1.1716286,-0.104110725,0.015359202,1.1362106,-0.007003045
0.1,0.0,1.4,-0.5235987755982988,0.0,0,-1.4234896,0.9176266,-0.59937406,0.68891984,-0.42155826,1.0730615,-0.3019948,0.10763125,-1.2203556,1.1578857,-0.10020844,0.24355976,1.245027,0.30920145
0.1,0.0,1.4,-0.5235987755982988,0.0,0,-1.4218847,0.92245054,-0.5983454,0.6901245,-0.4146032,1.075806,-0.3282643,0.11205772,-1.2252477,1.1557052,-0.096092634,0.3268792,1.2615184,0.18714184
0.1,0.0,1.4,-0.5235987755982988,0.0,0,-1.4216447,0.91094685,-0.60025537,0.69011897,-0.41150686,1.0739361,-0.32612953,0.11226256,-1.2227868,1.1682731,-0.09546807,-0.17096916,1.2126743,0.020710863
0.1,0.0,1.4,-0.5235987755982988,0.0,0,-1.4188952,0.9180635,-0.5983267,0.691366,-0.40951493,1.072751,-0.28799906,0.11086569,-1.2220365,1.1770802,-0.10254592,0.34317943,0.97658867,0.119838394
0.1,0.0,1.4,-0.5235987755982988,0.0,0,-1.4222814,0.91571486,-0.5992101,0.6903664,-0.43517706,1.0725402,-0.27988774,0.112874456,-1.2183197,1.1666377,-0.1000764,-0.15853703,1.0239854,0.38981342
0.1,0.0,1.4,-0.5235987755982988,0.0,0,-1.4253862,0.9118994,-0.5957046,0.6893925,-0.40619153,1.0749086,-0.30290622,0.1101702,-1.2247627,1.1669075,-0.10303872,0.08947902,0.90922827,0.9897668
0.1,0.0,1.4,-0.5235987755982988,0.0,0,-1.4265028,0.9175637,-0.6012821,0.6911141,-0.4072895,1.0701972,-0.28606775,0.112466216,-1.2110604,1.1700146,-0.10450036,0.10208142,1.1245254,0.85077506
0.1,0.0,1.4,-0.5235987755982988,0.0,0,-1.4214506,0.917145,-0.5998095,0.6894891,-0.42365494,1.0756761,-0.29212645,0.113096856,-1.2168522,1.1644559,-0.10327778,-0.006050073,1.1578325,-0.58228284
0.1,0.0,1.4,-0.5235987755982988,0.0,0,-1.4214675,0.91291773,-0.59774673,0.69047445,-0.4210161,1.0725642,-0.28178206,0.10984883,-1.2180772,1.1712286,-0.10417222,0.2276096,1.0548323,0.14281984
0.1,0.0,1.4,-0.5235987755982988,0.0,0,-1.4233854,0.9148978,-0.5988821,0.68911606,-0.421999,1.075998,-0.27328306,0.11493914,-1.2240857,1.1577057,-0.09960736,-0.00056488364,1.1672359,0.72276735
0.1,0.0,1.4,-0.5235987755982988,0.0,0,-1.4203432,0.9156292,-0.59790236,0.69112605,-0.431125,1.0749942,-0.33190832,0.112957425,-1.2229602,1.1614033,-0.11099763,0.42811432,1.171814,0.2665596
0.1,0.0,1.4,-0.5235987755982988,0.0,0,-1.4242464,0.9138628,-0.5945623,0.68774325,-0.42895442,1.0781176,-0.3354019,0.12022011,-1.2168068,1.1756572,-0.098674044,0.115810454,1.0852613,-0.49084565
0.1,0.0,1.4,-0.5235987755982988,0.0,0,-1.4211359,0.9162011,-0.5987303,0.69125855,-0.41838634,1.0739311,-0.30503356,0.11039533,-1.2195169,1.1566904,-0.10286295,-0.102836445,1.2731186,0.6071453
0.1,0.0,1.4,-0.5235987755982988,0.0,0,-1.426217,0.91506875,-0.59562635,0.6904163,-0.4207756,1.077444,-0.25733504,0.11841129,-1.2200878,1.1658064,-0.10835457,0.06163186,1.2189685,1.3853015
0.1,0.0,1.4,-0.5235987755982988,0.0,0,-1.422116,0.9119582,-0.59878427,0.68992853,-0.4128462,1.0809392,-0.30655932,0.11214844,-1.2226367,1.1776575,-0.101529,0.0018987122,1.1343762,-0.589627
0.1,0.0,1.4,-0.5235987755982988,0.0,0,-1.4209927,0.9131781,-0.60353476,0.6862258,-0.41255355,1.0775183,-0.321442,0.11628672,-1.2195184,1.1577083,-0.10060873,0.26295304,1.0844789,0.84996027
0.1,0.0,1.4,-0.5235987755982988,0.0,0,-1.4233629,0.9212641,-0.60198766,0.6903123,-0.4158576,1.0740136,-0.31591058,0.11238748,-1.2212303,1.1767995,-0.10301213,-0.040677432,1.1889203,-0.52861
0.1,0.0,1.4,-0.5235987755982988,0.0,0,-1.4224228,0.91481674,-0.5993507,0.69010496,-0.40824047,1.0777345,-0.33128104,0.11658098,-1.2213672,1.1642547,-0.10456276,0.14426361,1.0114313,-0.11108044
0.1,0.0,1.4,-0.5235987755982988,0.0,0,-1.4230981,0.9234346,-0.5958749,0.69458365,-0.41504002,1.0753425,-0.30756807,0.109167896,-1.2160372,1.16683,-0.10509113,0.0038194887,1.030727,0.22396238
0.1,0.0,1.4,-0.5235987755982988,0.0,0,-1.4224569,0.91188395,-0.5989278,0.6906132,-0.41596022,1.0733244,-0.29445946,0.10863084,-1.2190182,1.1805087,-0.09772191,0.19605783,1.2746893,0.7570879
0.1,0.0,1.4,-0.5235987755982988,0.0,0,-1.425384,0.9147904,-0.6011524,0.6886691,-0.41421294,1.0770155,-0.3336475,0.11037486,-1.223001,1.1811855,-0.10774559,0.18699634,1.0314537,-0.39187184
0.1,0.0,1.4,-0.5235987755982988,0.0,0,-1.4244415,0.91002065,-0.60069364,0.6867875,-0.41607922,1.0748686,-0.3275358,0.11203147,-1.2249987,1.1682531,-0.10166675,-0.13675024,1.2092481,0.07139453
0.1,0.0,1.4,-0.5235987755982988,0.0,0,-1.4228122,0.91233045,-0.5996314,0.69511914,-0.42058358,1.0694014,-0.30853844,0.11612576,-1.2205205,1.1859057,-0.09519533,-0.053699575,1.2028184,-0.79149926
0.1,0.0,1.4,-0.5235987755982988,0.0,0,-1.4217365,0.9172386,-0.5991445,0.6904181,-0.40322036,1.0741116,-0.34331596,0.110900864,-1.2270759,1.167845,-0.10870077,0.45125115,1.2116991,-0.21803871
0.1,0.0,1.4,-0.5235987755982988,0.0,0,-1.4185871,0.9141162,-0.5999593,0.69043076,-0.41881174,1.0740662,-0.31164128,0.11264047,-1.22016,1.1791503,-0.10669698,0.416344,1.0663482,0.4198025
0.1,0.0,1.4,-0.5235987755982988,0.0,0,-1.4224843,0.914305,-0.59999734,0.6921345,-0.41571823,1.0727614,-0.31066826,0.10809931,-1.2240896,1.1639844,-0.100139596,0.3000567,1.0487527,-0.6508035
0.1,0.0,1.4,-0.5235987755982988,0.0,0,-1.4204654,0.9163939,-0.59813696,0.6944481,-0.43213218,1.0748589,-0.32686058,0.11339704,-1.2285142,1.1720016,-0.09729011,0.22805169,1.1154337,-0.6964548
0.1,0.0,1.4,-0.5235987755982988,0.0,0,-1.4226282,0.9140242,-0.6015019,0.68763876,-0.40444112,1.0755041,-0.2634464,0.11097695,-1.226121,1.166158,-0.0956801,0.08640227,1.1717237,0.09197814
0.1,0.0,1.4,-0.5235987755982988,0.0,0,-1.425165,0.91271776,-0.6035838,0.6843495,-0.41660202,1.0734103,-0.34227058,0.10912158,-1.2266191,1.1666125,-0.10678505,-0.09877669,1.2512921,-0.36855716
0.1,0.0,1.4,-0.5235987755982988,0.0,0,-1.424906,0.91338044,-0.5991065,0.69277656,-0.41673577,1.0752145,-0.33273512,0.109973244,-1.2253094,1.1622151,-0.09468777,-0.22216693,1.0796523,0.48598632
0.1,0.0,1.4,-0.5235987755982988,0.0,0,-1.4244674,0.915857,-0.6002568,0.68791926,-0.42473084,1.0764272,-0.28006163,0.11101823,-1.2220594,1.1724812,-0.10069178,-0.16809489,1.042207,0.0009418806
0.1,0.0,1.4,-0.5235987755982988,0.0,0,-1.4229112,0.9145656,-0.5978056,0.6885645,-0.4274988,1.0738549,-0.31317696,0.11678198,-1.2213621,1.1733786,-0.09964393,0.1453968,1.084496,0.5603496
0.1,0.0,1.4,-0.5235987755982988,0.0,0,-1.4231374,0.9197962,-0.6027011,0.6899656,-0.40959555,1.0732633,-0.30162603,0.11097549,-1.2199444,1.1690469,-0.09609342,-0.03305622,1.1677248,0.06327165
0.1,0.0,1.4,-0.5235987755982988,0.0,0,-1.4228427,0.9157819,-0.60085744,0.6904577,-0.4305604,1.0740772,-0.33296272,0.11517024,-1.2227266,1.1711015,-0.09396177,0.14785682,1.0201977,0.06002461
0.1,0.0,1.4,-0.5235987755982988,0.0,0,-1.4215935,0.90601313,-0.600598,0.6904779,-0.41675374,1.0743021,-0.28742212,0.11014023,-1.2246009,1.1674801,-0.099167004,0.27072993,0.99263394,1.4327155
0.1,0.0,1.4,-0.5235987755982988,0.0,0,-1.4214772,0.9107211,-0.60205334,0.68998325,-0.4172899,1.0729309,-0.3073591,0.110215046,-1.217657,1.1757021,-0.10669469,0.08840307,1.0989401,-0.06554975
0.1,0.0,1.4,-0.5235987755982988,0.0,0,-1.4243104,0.918367,-0.60158867,0.68911505,-0.40553117,1.0755292,-0.34935442,0.112975165,-1.2237439,1.165684,-0.09800931,-0.22139886,1.1071241,-0.40739813
0.1,0.0,1.4,-0.5235987755982988,0.0,0,-1.4252859,0.91673195,-0.6003807,0.68776435,-0.42217544,1.0768065,-0.38381156,0.11593798,-1.2227505,1.1675436,-0.09969026,0.25516653,1.1290004,-0.51555634
0.1,0.0,1.4,-0.5235987755982988,0.0,0,-1.4217483,0.91134214,-0.5989703,0.69138503,-0.4189103,1.0744926,-0.35793242,0.11104188,-1.2183115,1.1735468,-0.10592919,0.49689984,1.1575329,0.13266304
0.1,0.0,1.4,-0.5235987755982988,0.0,0,-1.4229132,0.90996486,-0.6007103,0.6902287,-0.40769216,1.0735458,-0.32013065,0.114765406,-1.2252859,1.1624061,-0.09654358,0.2067584,1.06139,0.41784737
0.1,0.0,1.4,-0.5235987755982988,0.0,0,-1.4213101,0.9155379,-0.5997611,0.6905378,-0.42095792,1.0736734,-0.3235531,0.11460895,-1.2239513,1.1795366,-0.10176721,0.52413446,1.1523737,0.60610753
0.1,0.0,1.4,-0.5235987755982988,0.0,0,-1.4214547,0.9157153,-0.59978884,0.6942921,-0.42102823,1.0740087,-0.34743497,0.104372084,-1.2237747,1.1713628,-0.101009,-0.23814973,1.0977244,-0.46065852
0.1,0.0,1.4,-0.5235987755982988,0.0,0,-1.4210334,0.9132021,-0.60170686,0.6918715,-0.42578176,1.0740093,-0.30531755,0.11147356,-1.2213593,1.1750609,-0.09888943,0.076888755,1.1891618,0.06633373
0.1,0.0,1.4,-0.5235987755982988,0.0,0,-1.4240185,0.91363615,-0.59704256,0.6940118,-0.41519532,1.0734818,-0.28410852,0.11074144,-1.2291695,1.1713415,-0.104448654,0.11045987,1.318617,0.4463399
0.1,0.0,1.4,-0.5235987755982988,0.0,0,-1.4241446,0.9194693,-0.60084295,0.6893413,-0.4223774,1.0765597,-0.30319563,0.111070834,-1.2259175,1.1643487,-0.10099053,0.2672061,1.1912901,-0.5422108
0.1,0.0,1.4,-0.5235987755982988,0.0,0,-1.4226393,0.91588306,-0.60117036,0.6926314,-0.41513237,1.0712736,-0.35158208,0.11792258,-1.2119237,1.1703587,-0.09606029,0.24073865,1.2231148,0.8434747
0.1,0.0,1.4,-0.5235987755982988,0.0,0,-1.4203129,0.91691905,-0.60141826,0.6889036,-0.40348342,1.0732298,-0.2678743,0.1109567,-1.2213161,1.1777028,-0.10203157,0.2890824,1.1619074,-0.53044796
0.1,0.0,1.4,-0.5235987755982988,0.0,0,-1.4245918,0.90787077,-0.59912825,0.6894239,-0.42580903,1.0750943,-0.29659986,0.111220144,-1.2208089,1.1664648,-0.10265465,0.41910508,1.1830884,0.65317565
0.1,0.0,1.4,-0.5235987755982988,0.0,0,-1.4181824,0.91122055,-0.5982233,0.69124126,-0.40904287,1.0744575,-0.3216442,0.10760818,-1.2246716,1.1665643,-0.101243176,0.41168287,1.1446763,-0.10970104
0.1,0.0,1.4,-0.5235987755982988,0.0,0,-1.4237125,0.92117894,-0.6043048,0.690921,-0.4055694,1.0729092,-0.3365583,0.11241813,-1.223307,1.1643928,-0.10228467,0.06955479,1.1415501,-0.12939213
0.1,0.0,1.4,-0.5235987755982988,0.0,0,-1.4215721,0.9128246,-0.60113007,0.69160515,-0.42531508,1.0728512,-0.30542147,0.10712521,-1.219142,1.1665757,-0.100720845,0.22271407,1.0420065,-0.09099143
0.1,0.0,1.4,-0.5235987755982988,0.0,0,-1.4213334,0.9107377,-0.602354,0.6902739,-0.41232145,1.0753323,-0.30948955,0.10969716,-1.2266619,1.1598903,-0.093459696,-0.10165034,1.1170256,-0.49422377
0.1,0.0,1.4,-0.5235987755982988,0.0,0,-1.4218214,0.91983825,-0.60084486,0.6907708,-0.41693327,1.0744877,-0.29339048,0.11561684,-1.2195506,1.1906987,-0.09655401,0.11440673,1.1677642,-0.2770254
0.1,0.0,1.4,-0.5235987755982988,0.0,0,-1.4195274,0.91678375,-0.59734327,0.692203,-0.41804865,1.0737371,-0.2993125,0.113574706,-1.2248896,1.1654325,-0.10508207,0.40995994,1.2411906,0.08549939
0.1,0.0,1.4,-0.5235987755982988,0.0,0,-1.4225496,0.92045367,-0.601906,0.69241905,-0.4201487,1.0752841,-0.31715372,0.112860546,-1.2248297,1.1735976,-0.10022132,0.28919923,1.2523507,-0.59492856
0.1,0.0,1.4,-0.5235987755982988,0.0,0,-1.4246975,0.91522074,-0.5995447,0.6924851,-0.4001791,1.0748981,-0.29947573,0.111149095,-1.2265267,1.1623454,-0.098046556,0.14555633,1.0640097,0.21166776
0.1,0.0,1.4,-0.5235987755982988,0.0,0,-1.422689,0.9161326,-0.5999935,0.694208,-0.43293938,1.0727099,-0.34981588,0.1075611,-1.2177517,1.1698476,-0.09876482,0.1458898,1.1106912,0.048782792
0.1,0.0,1.4,-0.5235987755982988,0.0,0,-1.4237709,0.9168288,-0.601189,0.6898541,-0.41585222,1.077068,-0.30050826,0.11197603,-1.2232963,1.1732453,-0.104240865,0.2763479,1.0426219,0.5968456
0.1,0.0,1.4,-0.5235987755982988,0.0,0,-1.4199005,0.91256905,-0.6029255,0.6898803,-0.41271433,1.073481,-0.32772905,0.111851096,-1.2228256,1.1648322,-0.1006098,0.1779169,1.3114504,-0.19566485
0.1,0.0,1.4,-0.5235987755982988,0.0,0,-1.4216632,0.91766393,-0.59756047,0.69142234,-0.4279199,1.0698509,-0.2989437,0.11160681,-1.2173856,1.1680814,-0.10430852,0.19860297,1.0296662,0.89459044
0.1,0.0,1.4,-0.5235987755982988,0.0,0,-1.4250585,0.90904164,-0.6008329,0.69191736,-0.41023085,1.0736126,-0.34390262,0.10741329,-1.2264873,1.1489118,-0.10323997,-0.072236575,1.0323254,0.61172974
0.1,0.0,1.4,-0.5235987755982988,0.0,0,-1.4219917,0.9142352,-0.5981087,0.690265,-0.4325012,1.076664,-0.32783166,0.115291,-1.2175459,1.1777637,-0.09681252,-0.038545858,0.9992347,-0.57171834
0.1,0.0,1.4,-0.5235987755982988,0.0,0,-1.4230428,0.91118354,-0.5990059,0.6919711,-0.4210954,1.075812,-0.34569803,0.10781796,-1.2207447,1.1669115,-0.10470361,0.15056403,1.0082812,0.16386935
0.1,0.0,1.4,-0.5235987755982988,0.0,0,-1.4243207,0.92007357,-0.6013373,0.690437,-0.4192987,1.0733994,-0.29119286,0.111158594,-1.2252989,1.1618916,-0.097923264,0.31770372,1.108584,0.953088
0.1,0.0,1.4,-0.5235987755982988,0.0,0,-1.4214271,0.91469085,-0.6007261,0.6888913,-0.4054293,1.0751169,-0.3169811,0.11001065,-1.2192795,1.1629862,-0.10287507,0.17722683,1.1472914,-0.36621556
0.1,0.0,1.4,-0.5235987755982988,0.0,0,-1.4198097,0.9081512,-0.6015826,0.68971646,-0.42401764,1.073734,-0.29732427,0.10392959,-1.2242239,1.1705348,-0.10193928,0.1912629,1.0493331,-0.0021105756
0.1,0.0,1.4,-0.5235987755982988,0.0,0,-1.423285,0.91344374,-0.6032983,0.6900373,-0.4175475,1.0740589,-0.3198038,0.11380585,-1.2217021,1.1657671,-0.106245734,-0.3588843,1.0210614,0.7544674
0.1,0.0,1.4,-0.5235987755982988,0.0,0,-1.4222914,0.913071,-0.60294837,0.68893427,-0.41833863,1.0745345,-0.32983735,0.10784693,-1.2216531,1.1665252,-0.1014446,-0.060605016,1.0951738,0.11735959
0.1,0.0,1.4,-0.5235987755982988,0.0,0,-1.4211376,0.91185033,-0.6005091,0.69081944,-0.41510177,1.0785855,-0.3274379,0.10769321,-1.2155192,1.1592069,-0.11021974,-0.009874901,1.1324142,-0.14263624
0.1,0.0,1.4,-0.5235987755982988,0.0,0,-1.4212514,0.9100852,-0.60118395,0.68725264,-0.4178234,1.073841,-0.29910964,0.112567544,-1.2255306,1.1567127,-0.09832168,0.16016707,1.1331159,-0.8266144
0.1,0.0,1.4,-0.5235987755982988,0.0,0,-1.421852,0.91568136,-0.603452,0.6928028,-0.4191575,1.0754025,-0.32961926,0.10550585,-1.2212256,1.165602,-0.1044823,0.18959068,1.2251077,-0.23318031
0.1,0.0,1.4,-0.5235987755982988,0.0,0,-1.4241842,0.9142673,-0.60293216,0.6894256,-0.4175673,1.0731717,-0.32609487,0.110679366,-1.2190372,1.1660638,-0.10677516,0.28868717,1.0353801,-0.09595495
0.1,0.0,1.4,-0.5235987755982988,0.0,0,-1.4267695,0.915569,-0.6028655,0.6907167,-0.41982478,1.0747999,-0.3556661,0.11229761,-1.225323,1.1748137,-0.10413021,0.080318384,1.2425678,-1.4010898
0.1,0.0,1.4,-0.5235987755982988,0.0,0,-1.4246838,0.9146216,-0.6000343,0.6887184,-0.4010418,1.0754186,-0.30485523,0.11358914,-1.221375,1.1672397,-0.105624616,0.15484822,0.9772497,0.3614028
0.1,0.0,1.4,-0.5235987755982988,0.0,0,-1.4232268,0.91265225,-0.60005474,0.6897487,-0.41335616,1.0751101,-0.3020155,0.108160645,-1.2203314,1.1549274,-0.10406973,0.08416143,0.97023207,-0.888406
0.1,0.0,1.4,-0.5235987755982988,0.0,0,-1.4215943,0.9113712,-0.5995759,0.69034606,-0.40480718,1.0734757,-0.30353427,0.110301055,-1.2231634,1.1578037,-0.09874136,0.13121246,1.1489239,0.6627173
0.1,0.0,1.4,-0.5235987755982988,0.0,0,-1.4213458,0.9161279,-0.5971048,0.68994075,-0.41704372,1.0742036,-0.36083832,0.10961144,-1.2254279,1.1556327,-0.09756533,0.4787693,0.9314028,0.7652318
0.1,0.0,1.4,-0.5235987755982988,0.0,0,-1.4217532,0.91371685,-0.59913564,0.693889,-0.42368174,1.0751591,-0.27917275,0.1085117,-1.2201111,1.1651847,-0.101460814,0.26400438,1.0985044,0.024124715
0.1,0.0,1.4,-0.5235987755982988,0.0,0,-1.4249034,0.9183075,-0.5995078,0.6907243,-0.42574817,1.0752753,-0.303216,0.11067707,-1.2244538,1.1596966,-0.10113715,0.29229847,1.12887,-0.22526783
0.1,0.0,1.4,-0.5235987755982988,0.0,0,-1.4249727,0.9127692,-0.59653175,0.68967795,-0.41388282,1.0759518,-0.32063377,0.113618426,-1.2301652,1.157992,-0.098280795,0.17202193,1.1745459,-0.12513494
0.1,0.0,1.4,-0.5235987755982988,0.0,0,-1.4247614,0.91743654,-0.6026313,0.68603057,-0.416753,1.0702318,-0.32307774,0.11006512,-1.2205905,1.1660458,-0.10133565,-0.42313096,1.2401217,0.29903826
0.1,0.0,1.4,-0.5235987755982988,0.0,0,-1.4238431,0.9140288,-0.59654737,0.6928857,-0.416246,1.0722659,-0.2852337,0.11342475,-1.2248598,1.1594807,-0.098127216,0.2317477,1.2018182,0.5674699
0.1,0.0,1.4,-0.5235987755982988,0.0,0,-1.4222172,0.90986305,-0.6031612,0.69061285,-0.4138454,1.0769049,-0.31880704,0.111947544,-1.2176715,1.1758466,-0.104094654,0.4854979,1.049118,0.35471183
0.1,0.0,1.4,-0.5235987755982988,0.0,0,-1.4232917,0.91131335,-0.60075295,0.69209266,-0.41538623,1.0745302,-0.35271552,0.10692535,-1.2246985,1.1630425,-0.097757354,0.37904486,1.0047507,0.799737
0.1,0.0,1.4,-0.5235987755982988,0.0,0,-1.4239843,0.9194814,-0.60151076,0.69017935,-0.42825103,1.077433,-0.3708229,0.10596927,-1.2236013,1.1663718,-0.1080889,0.08448055,1.1238062,0.13791844
0.1,0.0,1.4,-0.5235987755982988,0.0,0,-1.4235579,0.9148418,-0.601414,0.6913849,-0.42051184,1.0721284,-0.29834458,0.11185286,-1.2165831,1.157616,-0.10481541,0.041594107,1.0210733,-0.32475492
0.1,0.0,1.4,-0.5235987755982988,0.0,0,-1.4217596,0.9148423,-0.59934384,0.68743414,-0.40698922,1.0761082,-0.27452177,0.112665035,-1.2251476,1.1556219,-0.10057711,0.19602753,0.98721194,-0.15883473
0.1,0.0,1.4,-0.5235987755982988,0.0,0,-1.4199344,0.9158536,-0.6009839,0.68991524,-0.4151841,1.0773529,-0.28678626,0.10832313,-1.2202975,1.1707183,-0.10123057,0.469987,1.0992453,-0.7049281
0.1,0.0,1.4,-0.5235987755982988,0.0,0,-1.4216454,0.9110861,-0.60299116,0.69119835,-0.41084918,1.073291,-0.31416795,0.10918487,-1.2228776,1.1627109,-0.103454776,0.20086043,1.0855689,0.69483614
0.1,0.0,1.4,-0.5235987755982988,0.0,0,-1.4217292,0.9137007,-0.60061747,0.69104975,-0.4058551,1.0777189,-0.30129242,0.11044355,-1.227111,1.1714334,-0.09708683,0.36000144,1.239518,0.12770328
0.1,0.0,1.4,-0.5235987755982988,0.0,0,-1.4259437,0.9188183,-0.602936,0.69114196,-0.41508672,1.0730048,-0.31309906,0.11094073,-1.224574,1.1677897,-0.1048646,0.34879932,1.0950642,0.32217085
0.1,0.0,1.4,-0.5235987755982988,0.0,0,-1.423379,0.91267806,-0.5996209,0.6906317,-0.4137732,1.0738175,-0.2919819,0.10998449,-1.2267243,1.1688926,-0.10688547,0.107651986,1.1566926,-0.11373073
0.1,0.0,1.4,-0.5235987755982988,0.0,0,-1.42294,0.9158545,-0.59832793,0.68858814,-0.43032476,1.0769348,-0.2716259,0.11068679,-1.2229446,1.1528805,-0.09985123,0.11434782,1.2543323,0.065563284
0.1,0.0,1.4,-0.5235987755982988,0.0,0,-1.4226418,0.91649294,-0.5983533,0.69244564,-0.4205639,1.0773457,-0.32011202,0.11153839,-1.2193402,1.1632481,-0.10057018,0.2047152,1.1136043,0.4383199
0.1,0.0,1.4,-0.5235987755982988,0.0,0,-1.4241426,0.91532177,-0.5976363,0.6911138,-0.4248988,1.0715908,-0.26134342,0.11352119,-1.2229146,1.1679659,-0.101189755,0.23404358,1.1158735,-0.22390369
0.1,0.0,1.4,-0.5235987755982988,0.0,0,-1.424177,0.9126108,-0.59788465,0.6898368,-0.4162664,1.0772858,-0.29458845,0.11017524,-1.226582,1.1623639,-0.10056185,0.15198576,1.1359712,0.81662834
0.1,0.0,1.4,-0.5235987755982988,0.0,0,-1.4201546,0.91308427,-0.60531163,0.68647724,-0.4074566,1.0779029,-0.34229663,0.11418695,-1.2206892,1.1658024,-0.10400918,0.23779383,1.0984855,0.78079426
0.1,0.0,1.4,-0.5235987755982988,0.0,0,-1.4239874,0.91575074,-0.59749675,0.69100213,-0.4093369,1.0761378,-0.3162217,0.109168544,-1.2207626,1.1670725,-0.10891684,0.19962439,1.1095276,0.30514905
0.1,0.0,1.4,-0.5235987755982988,0.0,0,-1.4259818,0.91028154,-0.5991182,0.6902908,-0.42124432,1.0723481,-0.29553086,0.10868625,-1.2212796,1.1704226,-0.10101632,0.33961016,1.1595039,-0.5018599
0.1,0.0,1.4,-0.5235987755982988,0.0,0,-1.4231268,0.9148015,-0.60195804,0.6946664,-0.40505582,1.0726461,-0.2854964,0.10871425,-1.2212125,1.161963,-0.10024711,-0.36473534,1.3253797,-0.15124959
0.1,0.0,1.4,-0.5235987755982988,0.0,0,-1.4214305,0.915419,-0.6007815,0.68973756,-0.4153512,1.0769793,-0.3337666,0.11421025,-1.2219025,1.1640787,-0.10591398,-0.03591,1.0078559,0.35172564
0.1,0.0,1.4,-0.5235987755982988,0.0,0,-1.4257648,0.9141341,-0.5975592,0.69175136,-0.40539613,1.0722704,-0.3047439,0.11312005,-1.2201948,1.1528777,-0.10633796,0.030592367,1.0951363,-0.33097205
0.1,0.0,1.4,-0.5235987755982988,0.0,0,-1.4215275,0.9151768,-0.6014905,0.69088495,-0.41042018,1.0750359,-0.33319724,0.11038085,-1.2231988,1.1608615,-0.10594789,0.18110335,1.0427294,-0.42774457
0.1,0.0,1.4,-0.5235987755982988,0.0,0,-1.424191,0.9113672,-0.6003361,0.69072765,-0.4021927,1.0717931,-0.27594858,0.11509139,-1.2232682,1.170063,-0.09618886,0.053452782,1.1140507,0.11816918
0.1,0.0,1.4,-0.5235987755982988,0.0,0,-1.4239718,0.91570413,-0.60024005,0.6942172,-0.4147747,1.0766474,-0.3500903,0.112010986,-1.2174381,1.1589632,-0.103789754,-0.015910365,1.1109785,0.06448174
0.1,0.0,1.4,-0.5235987755982988,0.0,0,-1.4236518,0.91205865,-0.5979451,0.68975145,-0.42784536,1.074391,-0.27492628,0.11251762,-1.2223426,1.1633449,-0.1013396,0.0067168325,1.1671705,-0.6131711
0.1,0.0,1.4,-0.5235987755982988,0.0,0,-1.4227076,0.9146899,-0.6028099,0.69104475,-0.41728005,1.0775028,-0.30572432,0.10957227,-1.2251124,1.1550378,-0.104677565,0.2712313,1.1728823,-0.039503355
0.1,0.0,1.4,-0.5235987755982988,0.0,0,-1.4245079,0.91186035,-0.60149795,0.6911896,-0.40590188,1.076325,-0.28055874,0.11475477,-1.2236971,1.1618707,-0.102577746,0.18467024,1.0897764,0.053192932
0.1,0.0,1.4,-0.5235987755982988,0.0,0,-1.42138,0.9128133,-0.6007964,0.69030845,-0.4219234,1.0721177,-0.29666525,0.11524217,-1.2219027,1.1609244,-0.09963056,0.34193754,1.0694792,0.04744988
0.1,0.0,1.4,-0.5235987755982988,0.0,0,-1.4241077,0.9198325,-0.5996996,0.6918641,-0.4068709,1.0703021,-0.31954917,0.114380695,-1.2330062,1.1611532,-0.101978905,0.67860186,1.103176,-0.10129132
0.1,0.0,1.4,-0.5235987755982988,0.0,0,-1.4241396,0.9109659,-0.59986186,0.69191974,-0.42299297,1.0777261,-0.29418233,0.11261881,-1.2273899,1.1647924,-0.10263614,0.090725444,1.1435502,-0.17724465
0.1,0.0,1.4,-0.5235987755982988,0.0,0,-1.4266059,0.91184705,-0.60120314,0.689315,-0.4086631,1.0742533,-0.26970485,0.11042633,-1.2237157,1.1657242,-0.10635669,0.16697201,1.1482856,0.86513215
0.1,0.0,1.4,-0.5235987755982988,0.0,0,-1.4279773,0.9157743,-0.6041325,0.6910098,-0.41447967,1.0730803,-0.27976906,0.109558165,-1.2208511,1.1706462,-0.10414892,-0.06187858,1.220601,0.45400393
0.1,0.0,1.4,-0.5235987755982988,0.0,0,-1.4208362,0.9141011,-0.6013251,0.6934819,-0.42054734,1.0768864,-0.30675218,0.11161471,-1.2193167,1.1651752,-0.10458109,0.22172835,1.2500975,-0.021666868
0.1,0.0,1.4,-0.5235987755982988,0.0,0,-1.4194638,0.9197311,-0.5971054,0.68825305,-0.3977065,1.0738574,-0.32012972,0.11199761,-1.220692,1.1794512,-0.1047108,-0.3138979,1.1363001,-0.23707506
0.1,0.0,1.4,-0.5235987755982988,0.0,0,-1.4209082,0.9118364,-0.59744036,0.6897413,-0.40873054,1.0754166,-0.31905717,0.11303992,-1.2263178,1.1630893,-0.105835326,-0.021141008,1.0237795,0.94783366
0.1,0.0,1.4,-0.5235987755982988,0.0,0,-1.4235306,0.9216448,-0.6017351,0.68626785,-0.4063029,1.0737083,-0.32060972,0.10832163,-1.2169936,1.1388998,-0.10327701,0.3550636,0.99787956,-0.4399518
0.1,0.0,1.4,-0.5235987755982988,0.0,0,-1.4205474,0.9174246,-0.59532946,0.68869,-0.4211808,1.0701036,-0.2821981,0.105664045,-1.2175553,1.1689833,-0.10392366,-0.18193044,1.1384029,0.5768077
0.1,0.0,1.4,-0.5235987755982988,0.0,0,-1.4223262,0.91636384,-0.5960463,0.68890595,-0.4184945,1.0734924,-0.3083343,0.113889076,-1.2167261,1.186523,-0.10130924,0.23157856,1.1906905,1.3284417
0.1,0.0,1.4,-0.5235987755982988,0.0,0,-1.4183911,0.9181149,-0.6010041,0.68823034,-0.40181476,1.0767828,-0.33868554,0.11027526,-1.222676,1.1725591,-0.10098888,0.13531098,1.0803208,1.1579264
0.1,0.0,1.4,-0.5235987755982988,0.0,0,-1.4210838,0.91791004,-0.59854734,0.6901652,-0.4105017,1.073891,-0.32603,0.11342101,-1.219614,1.1574587,-0.09889148,-0.09928596,1.1061053,0.30723515
0.1,0.0,1.4,-0.5235987755982988,0.0,0,-1.419537,0.9150404,-0.595797,0.68804455,-0.41950914,1.0704151,-0.34245932,0.10822308,-1.2159095,1.1729536,-0.10241561,0.39313325,1.0498266,-0.03363155
0.1,0.0,1.4,-0.5235987755982988,0.0,0,-1.4226971,0.9151976,-0.59679437,0.6902605,-0.40437543,1.069528,-0.32670572,0.111485034,-1.2217761,1.1652247,-0.1089478,0.051761676,1.1421773,-0.21787918
0.1,0.0,1.4,-0.5235987755982988,0.0,0,-1.4218781,0.9156102,-0.59906214,0.6891643,-0.41424152,1.0749892,-0.35149235,0.10768519,-1.2224644,1.1740106,-0.102151446,-0.11104657,0.9891261,-0.010990383
0.1,0.0,1.4,-0.5235987755982988,0.0,0,-1.4210346,0.91572106,-0.60032195,0.68809766,-0.41865915,1.070235,-0.35534093,0.109204315,-1.2179487,1.1587298,-0.10530052,0.027940847,1.0722959,0.25896877
0.1,0.0,1.4,-0.5235987755982988,0.0,0,-1.4182562,0.91454583,-0.5962403,0.68669647,-0.41888207,1.0710659,-0.293551,0.1143146,-1.2251359,1.1590024,-0.096790396,0.15452063,1.1505557,0.5052562
0.1,0.0,1.4,-0.5235987755982988,0.0,0,-1.4233301,0.91772544,-0.60218805,0.6883026,-0.40181404,1.0715188,-0.33009487,0.11346936,-1.2211461,1.164212,-0.10324999,0.18072069,1.0721985,0.49751118
0.1,0.0,1.4,-0.5235987755982988,0.0,0,-1.4237199,0.91446805,-0.5976659,0.6880955,-0.40246472,1.071317,-0.33080986,0.110934936,-1.2191634,1.1685021,-0.100923225,-0.11179192,1.1500105,-0.46977532
0.1,0.0,1.4,-0.5235987755982988,0.0,0,-1.4200741,0.91795796,-0.59897166,0.6896273,-0.3988627,1.0780965,-0.32950312,0.11192733,-1.2231697,1.1740141,-0.101395085,0.22925378,1.2018375,0.36853376
0.1,0.0,1.4,-0.5235987755982988,0.0,0,-1.4188296,0.9173174,-0.5984404,0.6894241,-0.41458136,1.0742539,-0.36822426,0.107380256,-1.227587,1.1684288,-0.10209864,-0.089300066,1.1180226,-0.8195164
0.1,0.0,1.4,-0.5235987755982988,0.0,0,-1.4205705,0.9173361,-0.5983217,0.69060236,-0.41455483,1.0742134,-0.32199895,0.110945426,-1.216767,1.1700102,-0.10460868,0.15407333,1.0432063,-0.2165489
0.1,0.0,1.4,-0.5235987755982988,0.0,0,-1.4234308,0.91211796,-0.5953754,0.6883656,-0.40145907,1.0767785,-0.31798956,0.11075086,-1.2226391,1.1692598,-0.10160636,-0.32228854,1.1249324,0.13902555
0.1,0.0,1.4,-0.5235987755982988,0.0,0,-1.4216062,0.9195203,-0.6026947,0.68462193,-0.42187253,1.0742743,-0.3276579,0.118364714,-1.2251655,1.1636465,-0.10450605,0.20285428,0.7842167,-0.08907962
0.1,0.0,1.4,-0.5235987755982988,0.0,0,-1.4195803,0.9179774,-0.6006392,0.68973345,-0.4194161,1.0735682,-0.36660412,0.114128776,-1.2276164,1.1690285,-0.10937475,0.03129553,1.0865504,-0.59902024
0.1,0.0,1.4,-0.5235987755982988,0.0,0,-1.4229193,0.91552097,-0.6005471,0.6878674,-0.4121279,1.0733073,-0.29092288,0.111462824,-1.2256044,1.1670465,-0.09898923,0.48551008,1.0446016,0.87868154
0.1,0.0,1.4,-0.5235987755982988,0.0,0,-1.4256583,0.9184711,-0.59691066,0.68979853,-0.41440275,1.0722649,-0.32109672,0.11224527,-1.226679,1.1742678,-0.10806072,0.0959044,1.0586711,0.53200215
0.1,0.0,1.4,-0.5235987755982988,0.0,0,-1.4243242,0.9160039,-0.59781015,0.6887845,-0.42230543,1.0687412,-0.31790605,0.108089425,-1.2257254,1.1689353,-0.097378954,-0.23709205,1.2009187,-0.30991367
0.1,0.0,1.4,-0.5235987755982988,0.0,0,-1.4240944,0.9150445,-0.5940052,0.69353926,-0.4058351,1.0763222,-0.3100374,0.11224626,-1.2260969,1.1699309,-0.10179516,0.07310695,1.0633411,-0.32561773
0.1,0.0,1.4,-0.5235987755982988,0.0,0,-1.4221251,0.91919374,-0.59986115,0.6889226,-0.4181167,1.0773252,-0.34528923,0.11196978,-1.2194883,1.1675677,-0.10219477,0.26342836,1.0555133,0.69413817
0.1,0.0,1.4,-0.5235987755982988,0.0,0,-1.4229507,0.9198878,-0.599496,0.69176376,-0.3895615,1.0713768,-0.3209089,0.10651644,-1.222636,1.1619436,-0.102967985,0.4854816,1.1232185,0.20051874
0.1,0.0,1.4,-0.5235987755982988,0.0,0,-1.4231721,0.9185958,-0.6004408,0.69092023,-0.41100493,1.0724059,-0.34095085,0.11078378,-1.2228999,1.1650593,-0.10077204,0.12457571,0.97554064,1.496233
0.1,0.0,1.4,-0.5235987755982988,0.0,0,-1.4238921,0.918135,-0.5984738,0.689815,-0.42304197,1.0732889,-0.37020126,0.10781531,-1.2225909,1.1757207,-0.098508604,0.08321112,1.0642456,0.747284
0.1,0.0,1.4,-0.5235987755982988,0.0,0,-1.4234221,0.91869926,-0.60265166,0.688962,-0.40861225,1.0728254,-0.32181025,0.11305396,-1.2284845,1.1611879,-0.10407022,-0.35127196,1.1208787,0.039402425
0.1,0.0,1.4,-0.5235987755982988,0.0,0,-1.423873,0.9187215,-0.59632766,0.6928059,-0.41304785,1.0704646,-0.32783052,0.1088997,-1.2186537,1.1596171,-0.10396765,0.20098493,1.0545924,0.63770545
0.1,0.0,1.4,-0.5235987755982988,0.0,0,-1.4197996,0.9154659,-0.6018385,0.6905328,-0.40437174,1.0764246,-0.30166546,0.110403955,-1.2194272,1.1686054,-0.10347061,-0.16963315,0.94424856,0.124732405
0.1,0.0,1.4,-0.5235987755982988,0.0,0,-1.4206057,0.9156521,-0.60157335,0.6899597,-0.3883737,1.0727293,-0.32116565,0.11164673,-1.2215041,1.151293,-0.10026613,0.2659908,1.1106396,1.6297213
0.1,0.0,1.4,-0.5235987755982988,0.0,0,-1.4188795,0.91645044,-0.59938693,0.6924883,-0.42304766,1.0775156,-0.3378136,0.10679072,-1.2245605,1.1614847,-0.10484128,0.018677356,1.2109404,-0.3990467
0.1,0.0,1.4,-0.5235987755982988,0.0,0,-1.424142,0.9158643,-0.59819925,0.69092727,-0.41667575,1.075591,-0.30954385,0.11584019,-1.2254995,1.1740719,-0.09742097,0.4590473,1.0680598,0.75582093
0.1,0.0,1.4,-0.5235987755982988,0.0,0,-1.4205415,0.9113277,-0.59821486,0.6879273,-0.4114977,1.0732547,-0.29222468,0.11008914,-1.2223763,1.1708914,-0.10047116,0.05293821,1.1579784,-0.22703135
0.1,0.0,1.4,-0.5235987755982988,0.0,0,-1.4253757,0.9200824,-0.59944826,0.6872127,-0.42162627,1.0742989,-0.28441298,0.11385518,-1.21995,1.1687778,-0.107277595,0.059652336,1.008479,-0.56203526
0.1,0.0,1.4,-0.5235987755982988,0.0,0,-1.4243156,0.9146463,-0.5964913,0.6907504,-0.4072768,1.0696433,-0.30086243,0.1121376,-1.2218943,1.1570823,-0.10042003,0.27292225,1.0809888,-0.29943162
0.1,0.0,1.4,-0.5235987755982988,0.0,0,-1.422353,0.9158773,-0.60222304,0.6891748,-0.40234074,1.0761578,-0.35732386,0.1092698,-1.2304629,1.1692828,-0.10535851,0.09608576,0.9950555,-1.0028797
0.1,0.0,1.4,-0.5235987755982988,0.0,0,-1.4245003,0.91007787,-0.59775394,0.6872637,-0.4173104,1.075263,-0.32050017,0.10498213,-1.226468,1.1651249,-0.10762248,-0.09754315,1.112153,-0.00046448119
0.1,0.0,1.4,-0.5235987755982988,0.0,0,-1.4214835,0.91648614,-0.5993369,0.6921502,-0.40803766,1.0730609,-0.31541547,0.107457526,-1.2206969,1.1733003,-0.10181449,0.3311986,1.234759,0.34648743
0.1,0.0,1.4,-0.5235987755982988,0.0,0,-1.4238911,0.9187026,-0.60037756,0.69307,-0.40380952,1.0730615,-0.29621384,0.10791358,-1.2282821,1.1620908,-0.098338544,-0.21331994,1.2070138,0.08897704
0.1,0.0,1.4,-0.5235987755982988,0.0,0,-1.4229805,0.9170004,-0.5989646,0.69089985,-0.40166906,1.0748932,-0.2841787,0.11370151,-1.2189972,1.1918197,-0.10357194,-0.024324229,0.9987808,0.18533455
0.1,0.0,1.4,-0.5235987755982988,0.0,0,-1.4244697,0.9174227,-0.60091233,0.6882296,-0.4158289,1.0713192,-0.4011519,0.108855814,-1.2225262,1.155615,-0.10786466,-0.07707584,1.0659839,0.41194794
0.1,0.0,1.4,-0.5235987755982988,0.0,0,-1.4238766,0.914185,-0.5998835,0.69109625,-0.40344083,1.0735575,-0.27832893,0.10996989,-1.224138,1.1739389,-0.10427351,-0.043260504,1.2373947,0.1323734
0.1,0.0,1.4,-0.5235987755982988,0.0,0,-1.4265236,0.9168385,-0.6015508,0.6895165,-0.41108996,1.0750902,-0.28247806,0.11469437,-1.2266046,1.1686438,-0.10592428,0.19811341,1.0613232,0.19409966
0.1,0.0,1.4,-0.5235987755982988,0.0,0,-1.4193316,0.9119228,-0.60098505,0.6874072,-0.4197263,1.072598,-0.3209278,0.11512545,-1.224812,1.1577656,-0.10188453,0.3544991,1.198205,-0.0486008
0.1,0.0,1.4,-0.5235987755982988,0.0,0,-1.4220747,0.9092097,-0.59850323,0.6874288,-0.42003682,1.073697,-0.3344221,0.11417406,-1.2243817,1.1703223,-0.09928745,0.14209375,1.1317768,0.11366589
0.1,0.0,1.4,-0.5235987755982988,0.0,0,-1.4242365,0.9145696,-0.60117257,0.68938196,-0.41391483,1.0738623,-0.32738975,0.11288789,-1.226455,1.1711833,-0.095850974,0.61927515,1.0471352,-0.17691721
0.1,0.0,1.4,-0.5235987755982988,0.0,0,-1.4218805,0.91393596,-0.6011411,0.6906382,-0.41316685,1.0719016,-0.36875075,0.1140814,-1.2275487,1.1827353,-0.10290977,0.5236308,1.1335452,-0.041616928
0.1,0.0,1.4,-0.5235987755982988,0.0,0,-1.4225138,0.9177338,-0.6001523,0.6884327,-0.40776953,1.0752953,-0.32856613,0.10750845,-1.224683,1.155434,-0.10450815,0.25197476,0.9775814,-0.094760664
0.1,0.0,1.4,-0.5235987755982988,0.0,0,-1.4267346,0.91385657,-0.5968805,0.6883474,-0.42066634,1.0712389,-0.2660223,0.11346886,-1.2237812,1.1559329,-0.09985697,0.08989954,1.0787199,-0.2621104
0.1,0.0,1.4,-0.5235987755982988,0.0,0,-1.4256495,0.91704124,-0.59863037,0.68750346,-0.41445988,1.0753633,-0.2861793,0.11545968,-1.2270181,1.1500206,-0.10096733,0.3101543,1.0019989,-0.3909198
0.1,0.0,1.4,-0.5235987755982988,0.0,0,-1.4205514,0.91186005,-0.5960588,0.690593,-0.42398188,1.0752044,-0.35439956,0.10828758,-1.2196478,1.1734511,-0.1016058,0.060256798,1.171776,0.74017763
0.1,0.0,1.4,-0.5235987755982988,0.0,0,-1.4244405,0.9157317,-0.59750235,0.6882906,-0.410767,1.0741533,-0.3258371,0.10895977,-1.2282926,1.1648911,-0.10180163,0.22645116,1.1030555,-0.16473469
0.1,0.0,1.4,-0.5235987755982988,0.0,0,-1.4218886,0.9135924,-0.5978572,0.6929521,-0.42757255,1.0711083,-0.32313538,0.1066743,-1.2233682,1.174609,-0.101458624,0.24541685,1.0187609,-0.7064799
0.1,0.0,1.4,-0.5235987755982988,0.0,0,-1.4200174,0.91460145,-0.5986251,0.6910776,-0.40301245,1.0781791,-0.30635756,0.111214705,-1.2235111,1.1656878,-0.10182696,0.26141247,1.146265,0.40556538
0.1,0.0,1.4,-0.5235987755982988,0.0,0,-1.4232662,0.9146867,-0.5998998,0.69215167,-0.3966632,1.074011,-0.3039759,0.108723536,-1.2182556,1.1676056,-0.1065491,-0.7182361,1.2906109,-0.43764505
0.1,0.0,1.4,-0.5235987755982988,0.0,0,-1.4240755,0.9189442,-0.5969484,0.68940276,-0.42234814,1.0716547,-0.25783667,0.11186254,-1.226909,1.1839738,-0.09083472,0.36618257,1.1456742,0.16242346
0.1,0.0,1.4,-0.5235987755982988,0.0,0,-1.4223107,0.9146591,-0.5976694,0.6905671,-0.41231087,1.0731614,-0.32236612,0.11354079,-1.2212675,1.1686523,-0.09976864,0.3544036,1.1810541,0.10725691
0.1,0.0,1.4,-0.5235987755982988,0.0,0,-1.4213711,0.9189859,-0.6042042,0.68978226,-0.4095676,1.0742348,-0.30667517,0.11412496,-1.2224448,1.1647555,-0.10265507,-0.012650732,1.2032797,0.7703027
0.1,0.0,1.4,-0.5235987755982988,0.0,0,-1.4226812,0.91595703,-0.6029033,0.6876108,-0.41958568,1.0770793,-0.3491009,0.11229608,-1.214068,1.1687214,-0.09932323,-0.36988255,1.1095597,-0.96151215
0.1,0.0,1.4,-0.5235987755982988,0.0,0,-1.4238108,0.9097784,-0.5983428,0.68901265,-0.42305204,1.071395,-0.33238032,0.11452759,-1.2225187,1.167409,-0.10623483,0.13148521,1.0447192,0.81619453
0.1,0.0,1.4,-0.5235987755982988,0.0,0,-1.4249594,0.9129757,-0.59987634,0.6890857,-0.40935245,1.0746104,-0.33687088,0.109427035,-1.2221589,1.1613535,-0.105492294,0.0019349996,1.102642,0.23647326
0.1,0.0,1.4,-0.5235987755982988,0.0,0,-1.4222894,0.9140324,-0.602005,0.6887468,-0.42283607,1.0775232,-0.3956143,0.107404605,-1.2295907,1.1560496,-0.1047333,0.289028,1.0851603,0.97919834
0.1,0.0,1.4,-0.5235987755982988,0.0,0,-1.422426,0.91526043,-0.59938335,0.6944444,-0.4163799,1.0739161,-0.35098612,0.11386231,-1.2195323,1.1699845,-0.10228296,0.09519075,1.2190615,0.461318
0.1,0.0,1.4,-0.5235987755982988,0.0,0,-1.4221351,0.91239405,-0.5979861,0.69146764,-0.4276327,1.0731118,-0.3208758,0.10929549,-1.2275172,1.1538926,-0.104298554,-0.051785488,0.98066354,0.2745144
0.1,0.0,1.4,-0.5235987755982988,0.0,0,-1.423092,0.9171424,-0.600325,0.69157505,-0.42408478,1.0788778,-0.31835204,0.11194745,-1.2208585,1.1735183,-0.10222888,-0.13030891,0.99136597,0.06704044
0.1,0.0,1.4,-0.5235987755982988,0.0,0,-1.4211121,0.90889716,-0.6007925,0.69140977,-0.41089275,1.0707545,-0.32955682,0.106808715,-1.2208617,1.1703073,-0.10087769,0.11353119,1.2780417,0.79554117
0.1,0.0,1.4,-0.5235987755982988,0.0,0,-1.4236476,0.9160591,-0.6001602,0.69050217,-0.41624105,1.0724292,-0.30235225,0.10863793,-1.2176896,1.173163,-0.1012216,0.26060665,1.211494,-0.9812889
0.1,0.0,1.4,-0.5235987755982988,0.0,0,-1.4221995,0.9119584,-0.59832263,0.6907808,-0.4181422,1.0748317,-0.30006105,0.10620393,-1.2147294,1.1731615,-0.104290396,0.06890844,1.0370352,0.28499493
0.1,0.0,1.4,-0.5235987755982988,0.0,0,-1.4232006,0.9137163,-0.6003463,0.68834025,-0.40065613,1.0759344,-0.26428846,0.11154377,-1.2213168,1.1782948,-0.09974833,-0.14318424,1.2616813,0.037945364
0.1,0.0,1.4,-0.5235987755982988,0.0,0,-1.4258696,0.9145533,-0.5983141,0.6867128,-0.4226198,1.073735,-0.29751456,0.10983855,-1.2259381,1.1599466,-0.10274757,0.13015723,0.9891765,0.10257272
0.1,0.0,1.4,-0.5235987755982988,0.0,0,-1.423593,0.9136425,-0.60113865,0.69008,-0.42225492,1.0764203,-0.3094393,0.10559532,-1.2209783,1.1728315,-0.102886885,-0.033384975,1.1425979,-0.0060495264
0.1,0.0,1.4,-0.5235987755982988,0.0,0,-1.4222127,0.91233784,-0.5989892,0.6911252,-0.4075835,1.0739632,-0.36452046,0.11371144,-1.2239763,1.1769897,-0.10159891,0.18526481,1.0625204,-0.20907205
0.1,0.0,1.4,-0.5235987755982988,0.0,0,-1.423218,0.9104334,-0.60088533,0.6910404,-0.406555,1.0744046,-0.33607718,0.112060286,-1.222396,1.1672153,-0.10508571,0.0021506073,1.1305333,-0.60598916
0.1,0.0,1.4,-0.5235987755982988,0.0,0,-1.424879,0.9181443,-0.5998527,0.6927896,-0.4223749,1.0716608,-0.3162644,0.11403462,-1.2192985,1.1828686,-0.10233854,0.250634,1.1616377,0.39638764
0.1,0.0,1.4,-0.5235987755982988,0.0,0,-1.4249643,0.9098628,-0.59894496,0.69056255,-0.42172185,1.0708393,-0.28494227,0.11373357,-1.2202188,1.1698537,-0.09978593,-0.014266037,1.0036937,0.19921306
0.1,0.0,1.4,-0.5235987755982988,0.0,0,-1.4223197,0.9127087,-0.5970933,0.694619,-0.4255953,1.074935,-0.31771535,0.107626826,-1.2210665,1.1518072,-0.1040618,-0.014215888,1.1832993,0.1665896
0.1,0.0,1.4,-0.5235987755982988,0.0,0,-1.4202284,0.91336536,-0.6031796,0.6897679,-0.42454365,1.0746886,-0.32575062,0.10677262,-1.2249913,1.1640971,-0.107228756,0.28503585,1.0945303,1.0325257
0.1,0.0,1.4,-0.5235987755982988,0.0,0,-1.4236004,0.91475403,-0.59876925,0.69376767,-0.40914857,1.074327,-0.2584226,0.109844916,-1.2226163,1.1675732,-0.09651948,0.36756092,1.081228,0.53202933
0.1,0.0,1.4,-0.5235987755982988,0.0,0,-1.4227448,0.92056876,-0.60309464,0.6914841,-0.4208233,1.0733514,-0.30828655,0.10889756,-1.2215215,1.1750973,-0.09393141,0.3640987,1.1586046,-0.120710015
0.1,0.0,1.4,-0.5235987755982988,0.0,0,-1.4205201,0.9148444,-0.601433,0.68934214,-0.414989,1.0723228,-0.28856945,0.11319398,-1.2205554,1.1715238,-0.10981263,0.32559228,1.1549578,0.96429515
0.1,0.0,1.4,-0.5235987755982988,0.0,0,-1.4241973,0.91292226,-0.59770715,0.69110554,-0.42126045,1.0760509,-0.28637442,0.109939516,-1.2220488,1.1710669,-0.10335525,0.08620198,1.1105306,0.27442652
0.1,0.0,1.4,-0.5235987755982988,0.0,0,-1.4195766,0.9171324,-0.6052009,0.6898745,-0.41660932,1.0763106,-0.32146806,0.11088218,-1.219834,1.1720754,-0.10412873,0.34284487,1.0708477,-0.3177895
0.1,0.0,1.4,-0.5235987755982988,0.0,0,-1.4232377,0.9184985,-0.6029864,0.6917132,-0.41070744,1.0708275,-0.27360567,0.110437736,-1.2194885,1.1689171,-0.10542778,0.17866533,1.1603293,0.3203427
0.1,0.0,1.4,-0.5235987755982988,0.0,0,-1.4211638,0.91836715,-0.5992375,0.69115555,-0.42052525,1.0716974,-0.3178223,0.11476801,-1.2176225,1.1621869,-0.101211525,0.15020853,1.00329,0.70452017
0.1,0.0,1.4,-0.5235987755982988,0.0,0,-1.4208819,0.9148934,-0.5994402,0.68821913,-0.40855607,1.0748458,-0.3327779,0.11378255,-1.2220141,1.163853,-0.10248036,-0.060538977,1.1203728,0.05633885
0.1,0.0,1.4,-0.5235987755982988,0.0,0,-1.4203409,0.92046785,-0.59904975,0.69217527,-0.40929568,1.0748005,-0.31499735,0.111756936,-1.2213113,1.1581585,-0.11091425,0.061339173,1.0232164,-0.043004986
0.1,0.0,1.4,-0.5235987755982988,0.0,0,-1.4210359,0.91021407,-0.60032946,0.68887717,-0.4166224,1.0710471,-0.28796065,0.103694245,-1.2195634,1.1722379,-0.10400188,0.15079911,0.9557489,-0.3726074
0.1,0.0,1.4,-0.5235987755982988,0.0,0,-1.4231976,0.90851873,-0.59875876,0.6895749,-0.4091636,1.0722057,-0.3554031,0.107358925,-1.2289908,1.181425,-0.09896502,-0.14165066,1.1542966,-5.5997814e-05
0.1,0.0,1.4,-0.5235987755982988,0.0,0,-1.4208616,0.914308,-0.60556316,0.6885337,-0.420974,1.071688,-0.33623442,0.10952712,-1.2278355,1.1796145,-0.10887565,-0.15580012,1.0434363,0.20978549
0.1,0.0,1.4,-0.5235987755982988,0.0,0,-1.4224044,0.9176678,-0.60072064,0.6884359,-0.42879942,1.0743812,-0.3361618,0.113439344,-1.2206076,1.169558,-0.10397784,0.13496026,1.0557281,0.22720627
0.1,0.0,1.4,-0.5235987755982988,0.0,0,-1.4221349,0.91285163,-0.59961283,0.6906543,-0.40938202,1.0749279,-0.26875678,0.11181491,-1.2201438,1.1716638,-0.10204965,0.31265116,1.0360404,-0.203075
0.1,0.0,1.4,-0.5235987755982988,0.0,0,-1.4189914,0.91445166,-0.5998244,0.6894568,-0.4198436,1.0717515,-0.2867361,0.11399805,-1.223927,1.179439,-0.09978027,-0.09266384,1.0227755,-0.1862336
