sanky1234/BimanualDexCatch/isaacgymenvs/cem_results/football_pose_0.1_0.0_0.7_0.5235987755982988_-0.5235987755982988_0_2025-05-26.csv
x,y,z,roll,pitch,yaw,robot1/joint1,robot1/joint2,robot1/joint3,robot1/joint4,robot1/joint5,robot1/joint6,robot1/joint7,robot2/joint1,robot2/joint2,robot2/joint3,robot2/joint4,robot2/joint5,robot2/joint6,robot2/joint7
0.1,0.0,0.7,0.5235987755982988,-0.5235987755982988,0,-1.2279602,1.3346137,-0.3110111,0.10126146,0.32402456,1.2679483,-0.88817686,1.3268635,1.099836,0.119961984,0.19425099,-0.22474729,1.0924882,0.76380444
0.1,0.0,0.7,0.5235987755982988,-0.5235987755982988,0,-1.2223775,1.3313092,-0.30839363,0.101338804,0.3270218,1.268734,-0.8811446,1.3050909,1.0681202,0.12526692,0.19008064,-0.19564189,1.0629402,0.81079614
0.1,0.0,0.7,0.5235987755982988,-0.5235987755982988,0,-1.2188246,1.3304485,-0.30891633,0.10279498,0.32445523,1.2664174,-0.88060236,1.3233929,1.0806977,0.11136742,0.19064856,-0.20384881,1.0671567,0.84758276
0.1,0.0,0.7,0.5235987755982988,-0.5235987755982988,0,-1.2245773,1.3340964,-0.30480075,0.10288006,0.33062303,1.2661932,-0.86412764,1.34608,1.0751891,0.11394063,0.18287285,-0.20878181,1.0537043,0.84257233
0.1,0.0,0.7,0.5235987755982988,-0.5235987755982988,0,-1.2257677,1.3374581,-0.3064538,0.09739091,0.3316557,1.2666619,-0.87047726,1.3396586,1.0856045,0.12473458,0.19265446,-0.2082087,1.0534106,0.8914486
0.1,0.0,0.7,0.5235987755982988,-0.5235987755982988,0,-1.2209984,1.3346537,-0.3045674,0.10239928,0.32345513,1.2631016,-0.87807894,1.3167471,1.0650727,0.12554477,0.18722197,-0.19752856,1.060608,0.9212422
0.1,0.0,0.7,0.5235987755982988,-0.5235987755982988,0,-1.2278059,1.3344454,-0.30793163,0.10078817,0.32900771,1.263594,-0.88793784,1.3228722,1.0685159,0.13503565,0.18468606,-0.20302534,1.052572,0.9343376
0.1,0.0,0.7,0.5235987755982988,-0.5235987755982988,0,-1.2289261,1.3336015,-0.30861926,0.10137591,0.33993757,1.2650775,-0.8890101,1.3211411,1.0725859,0.12560713,0.19734794,-0.19728099,1.0513525,0.77998286
0.1,0.0,0.7,0.5235987755982988,-0.5235987755982988,0,-1.2231363,1.3377577,-0.30963576,0.10088257,0.3312798,1.2621577,-0.8685991,1.3367404,1.070488,0.11737237,0.18642844,-0.19892496,1.0679517,0.79321986
0.1,0.0,0.7,0.5235987755982988,-0.5235987755982988,0,-1.2232271,1.3296632,-0.30735895,0.101558395,0.32718277,1.2660619,-0.8879015,1.3498034,1.0797497,0.12052826,0.19995084,-0.21007527,1.0570434,0.86543155
0.1,0.0,0.7,0.5235987755982988,-0.5235987755982988,0,-1.2209142,1.3370942,-0.30879945,0.101457454,0.32434198,1.2647922,-0.8572791,1.3247455,1.0780144,0.11680717,0.20362581,-0.22970036,1.0704287,0.88657403
0.1,0.0,0.7,0.5235987755982988,-0.5235987755982988,0,-1.218263,1.334713,-0.30835867,0.10112127,0.32875773,1.2641616,-0.87585413,1.3258482,1.0854722,0.11165298,0.20093432,-0.21819386,1.0651288,0.7722455
0.1,0.0,0.7,0.5235987755982988,-0.5235987755982988,0,-1.2257029,1.3438263,-0.30780444,0.10247578,0.3323074,1.2662705,-0.87877643,1.3286644,1.0829912,0.13134609,0.1882347,-0.18347399,1.0717406,0.9618083
0.1,0.0,0.7,0.5235987755982988,-0.5235987755982988,0,-1.2236816,1.338111,-0.3079657,0.10114962,0.32719502,1.2648498,-0.8530221,1.3324159,1.0698247,0.13043027,0.19714023,-0.21396844,1.0576028,0.84809554
0.1,0.0,0.7,0.5235987755982988,-0.5235987755982988,0,-1.2246809,1.3433198,-0.30487323,0.102610655,0.3325739,1.2607276,-0.8879895,1.3426259,1.0941036,0.117918335,0.17972358,-0.19747087,1.0561984,0.79465413
0.1,0.0,0.7,0.5235987755982988,-0.5235987755982988,0,-1.2301302,1.3295425,-0.3085248,0.10095262,0.32906276,1.2682658,-0.9091395,1.3360378,1.0756129,0.119887784,0.20457034,-0.21185644,1.0668056,0.9560613
0.1,0.0,0.7,0.5235987755982988,-0.5235987755982988,0,-1.2159162,1.3353691,-0.31380615,0.10343895,0.32282662,1.2646487,-0.8618018,1.3455871,1.0747089,0.116885826,0.18921687,-0.1946898,1.0439707,0.82482946
0.1,0.0,0.7,0.5235987755982988,-0.5235987755982988,0,-1.222092,1.335631,-0.31078562,0.10002917,0.32254726,1.266624,-0.87176853,1.3537351,1.084167,0.10423451,0.19533177,-0.19128343,1.0639207,0.84411407
0.1,0.0,0.7,0.5235987755982988,-0.5235987755982988,0,-1.2251942,1.3295825,-0.3070337,0.10231767,0.33392417,1.2649032,-0.86695296,1.3257225,1.0671321,0.12718065,0.18833469,-0.2098168,1.0780281,0.63764584
0.1,0.0,0.7,0.5235987755982988,-0.5235987755982988,0,-1.2297214,1.3283676,-0.3079337,0.10066315,0.32403326,1.2667748,-0.8848855,1.344089,1.0908352,0.11079185,0.18969999,-0.19414742,1.06738,0.841061
0.1,0.0,0.7,0.5235987755982988,-0.5235987755982988,0,-1.228442,1.3341087,-0.30383447,0.1014211,0.32868484,1.2673398,-0.868437,1.3109572,1.0763966,0.1297709,0.19237973,-0.21102978,1.0630436,0.89116096
0.1,0.0,0.7,0.5235987755982988,-0.5235987755982988,0,-1.2234894,1.3351365,-0.3084643,0.10253811,0.32427052,1.2665344,-0.86236936,1.3336521,1.07576,0.12073397,0.19358309,-0.2068361,1.0581638,0.8860088
0.1,0.0,0.7,0.5235987755982988,-0.5235987755982988,0,-1.2209209,1.3325675,-0.30648196,0.100718655,0.33083662,1.2682197,-0.888652,1.3280239,1.0898232,0.120157875,0.19573087,-0.21282828,1.042718,0.7228635
0.1,0.0,0.7,0.5235987755982988,-0.5235987755982988,0,-1.223927,1.3370429,-0.30821192,0.10118405,0.33030885,1.2622048,-0.89110583,1.3439716,1.0741645,0.12328405,0.19455604,-0.20191044,1.0692725,0.88557863
0.1,0.0,0.7,0.5235987755982988,-0.5235987755982988,0,-1.238161,1.3375572,-0.30932075,0.099724345,0.32982865,1.2641604,-0.86747885,1.3420395,1.0707544,0.12790376,0.19163083,-0.20892815,1.0630524,0.81473
0.1,0.0,0.7,0.5235987755982988,-0.5235987755982988,0,-1.2150722,1.3422735,-0.3008771,0.10385108,0.32286927,1.26347,-0.8758069,1.3359429,1.0660272,0.10357466,0.1907983,-0.1847195,1.0537889,0.7514383
0.1,0.0,0.7,0.5235987755982988,-0.5235987755982988,0,-1.2256933,1.3353348,-0.30638054,0.102186665,0.3266295,1.2624481,-0.84747213,1.3306001,1.0846639,0.115566865,0.19321506,-0.21377751,1.072405,0.7513355
0.1,0.0,0.7,0.5235987755982988,-0.5235987755982988,0,-1.2213621,1.3333004,-0.307913,0.09993236,0.32765487,1.2639517,-0.88977975,1.3345962,1.068649,0.12804882,0.19844727,-0.21176319,1.0531943,0.9850535
0.1,0.0,0.7,0.5235987755982988,-0.5235987755982988,0,-1.2220846,1.3331174,-0.30732113,0.102717556,0.32677415,1.2636826,-0.88907343,1.312174,1.0660797,0.12563956,0.19306268,-0.22326905,1.0616947,0.9088684
0.1,0.0,0.7,0.5235987755982988,-0.5235987755982988,0,-1.2273959,1.3428682,-0.30436307,0.10111766,0.3310427,1.2652985,-0.85311365,1.3387301,1.0788647,0.13016237,0.19121416,-0.19440068,1.0700184,0.75148726
0.1,0.0,0.7,0.5235987755982988,-0.5235987755982988,0,-1.2319772,1.338163,-0.3093027,0.10275936,0.33335915,1.2641214,-0.91752326,1.3403013,1.0799592,0.12445607,0.19225723,-0.20517887,1.0739055,0.9984573
0.1,0.0,0.7,0.5235987755982988,-0.5235987755982988,0,-1.2197732,1.333738,-0.3047536,0.102984816,0.33025157,1.2636766,-0.8539405,1.3042628,1.0722544,0.12719712,0.1917884,-0.20475756,1.0480951,0.82000184
0.1,0.0,0.7,0.5235987755982988,-0.5235987755982988,0,-1.2281122,1.3353785,-0.30268356,0.10271832,0.33021984,1.2644904,-0.8679362,1.3174089,1.0628698,0.116216525,0.18276508,-0.21872154,1.0515397,0.8619926
0.1,0.0,0.7,0.5235987755982988,-0.5235987755982988,0,-1.2219157,1.3310199,-0.3035254,0.09934882,0.32833606,1.2656342,-0.85291386,1.3278258,1.0868065,0.12535092,0.19063981,-0.21687613,1.075894,0.69161326
0.1,0.0,0.7,0.5235987755982988,-0.5235987755982988,0,-1.2273029,1.3266066,-0.3022029,0.10241605,0.32785767,1.264507,-0.91744906,1.3149874,1.0759131,0.12848052,0.2013944,-0.18170865,1.0634075,0.8072646
0.1,0.0,0.7,0.5235987755982988,-0.5235987755982988,0,-1.2270148,1.338601,-0.30953795,0.10013443,0.3275677,1.2601813,-0.91894746,1.3414714,1.079967,0.11628887,0.18995842,-0.19406334,1.0715343,0.8889213
0.1,0.0,0.7,0.5235987755982988,-0.5235987755982988,0,-1.2332606,1.3390605,-0.30440298,0.10283685,0.3300126,1.2663285,-0.8856628,1.3092773,1.0679038,0.12150929,0.20732184,-0.18908842,1.0661395,0.921135
0.1,0.0,0.7,0.5235987755982988,-0.5235987755982988,0,-1.224951,1.3359983,-0.31412357,0.10185037,0.3271361,1.2673858,-0.8973306,1.3384409,1.0726572,0.116451114,0.19214894,-0.18957238,1.0672451,0.86745334
0.1,0.0,0.7,0.5235987755982988,-0.5235987755982988,0,-1.2183167,1.3385072,-0.31393537,0.10057729,0.33405545,1.2669464,-0.8767542,1.3347442,1.0668886,0.11447138,0.20442411,-0.20957288,1.0649992,0.81019914
0.1,0.0,0.7,0.5235987755982988,-0.5235987755982988,0,-1.2240232,1.3379939,-0.31039444,0.10186455,0.33205146,1.2648188,-0.84273344,1.3312706,1.0753976,0.12517892,0.19549637,-0.21304135,1.0505047,0.8866351
0.1,0.0,0.7,0.5235987755982988,-0.5235987755982988,0,-1.2248365,1.335056,-0.30860263,0.10179708,0.32562357,1.2655673,-0.8662932,1.3295891,1.0905656,0.12126288,0.1934456,-0.21323207,1.0620903,0.84663635
0.1,0.0,0.7,0.5235987755982988,-0.5235987755982988,0,-1.2255526,1.3360629,-0.31067076,0.10226898,0.32641062,1.2634839,-0.89955133,1.3238906,1.071726,0.11069042,0.20067814,-0.21313632,1.0547588,0.80558527
0.1,0.0,0.7,0.5235987755982988,-0.5235987755982988,0,-1.221782,1.3387339,-0.31000265,0.100109406,0.32432842,1.265664,-0.846137,1.329507,1.0590408,0.12476465,0.19768845,-0.19912352,1.0750097,0.87071466
0.1,0.0,0.7,0.5235987755982988,-0.5235987755982988,0,-1.2196654,1.3308787,-0.30508557,0.10196611,0.32669395,1.2686174,-0.87799907,1.3396702,1.0732963,0.11703228,0.19359362,-0.23185298,1.0733459,0.80626667
0.1,0.0,0.7,0.5235987755982988,-0.5235987755982988,0,-1.227254,1.3408254,-0.31524277,0.10109322,0.32343268,1.2653992,-0.85909164,1.31547,1.0753263,0.10585418,0.18448783,-0.20760709,1.0800887,0.77189714
0.1,0.0,0.7,0.5235987755982988,-0.5235987755982988,0,-1.2239673,1.3325876,-0.30852965,0.103352554,0.3375488,1.2642592,-0.8526686,1.3423429,1.0733616,0.117637925,0.1903212,-0.20092893,1.060867,0.8077118
0.1,0.0,0.7,0.5235987755982988,-0.5235987755982988,0,-1.2211218,1.3293586,-0.30277845,0.10127676,0.33122385,1.2670668,-0.85641366,1.3341694,1.0747912,0.118446186,0.19840877,-0.22962704,1.0685047,0.9858178
0.1,0.0,0.7,0.5235987755982988,-0.5235987755982988,0,-1.2261127,1.3320278,-0.30704084,0.10082248,0.3298098,1.2659684,-0.852351,1.3221906,1.0639793,0.12924811,0.21114816,-0.21240649,1.0654649,0.6971483
0.1,0.0,0.7,0.5235987755982988,-0.5235987755982988,0,-1.2216883,1.3356643,-0.31191048,0.10129236,0.33409777,1.2660594,-0.86159414,1.3239151,1.0814763,0.13310286,0.1957223,-0.19157714,1.0672317,0.9452829
0.1,0.0,0.7,0.5235987755982988,-0.5235987755982988,0,-1.2279596,1.3364102,-0.3088344,0.101719365,0.33762807,1.2696784,-0.87451273,1.3112502,1.0573134,0.13477248,0.1820127,-0.20931709,1.0668589,0.8559786
0.1,0.0,0.7,0.5235987755982988,-0.5235987755982988,0,-1.2220767,1.3350166,-0.3112923,0.10164703,0.32654,1.2675859,-0.8743723,1.3464137,1.081231,0.11763645,0.2065613,-0.18547188,1.0637573,0.9532761
0.1,0.0,0.7,0.5235987755982988,-0.5235987755982988,0,-1.2227024,1.3289155,-0.30380362,0.10389898,0.32791916,1.2651534,-0.89066714,1.3273596,1.0607942,0.11990403,0.19533527,-0.23265572,1.0820524,0.8302699
0.1,0.0,0.7,0.5235987755982988,-0.5235987755982988,0,-1.2224194,1.334697,-0.30746198,0.10241312,0.32948375,1.2625829,-0.8936109,1.33759,1.0689046,0.1159706,0.17399473,-0.20189393,1.0500344,0.9740134
0.1,0.0,0.7,0.5235987755982988,-0.5235987755982988,0,-1.2237384,1.3295692,-0.30210927,0.10256827,0.31956464,1.2625903,-0.9159073,1.3146197,1.0766343,0.11557063,0.17442049,-0.21305147,1.0672011,0.79922944
0.1,0.0,0.7,0.5235987755982988,-0.5235987755982988,0,-1.2335632,1.3397099,-0.31168175,0.101407975,0.32685286,1.2644074,-0.9150068,1.3279334,1.0580685,0.11133763,0.1910167,-0.19566478,1.0932183,1.020419
0.1,0.0,0.7,0.5235987755982988,-0.5235987755982988,0,-1.2211801,1.3403001,-0.30979273,0.10083528,0.33276525,1.2663921,-0.87120885,1.3169831,1.0775325,0.1234601,0.19640906,-0.19389215,1.057649,0.95028514
0.1,0.0,0.7,0.5235987755982988,-0.5235987755982988,0,-1.2239507,1.3367474,-0.3075821,0.102511376,0.33824262,1.2633954,-0.8861457,1.3324084,1.0881975,0.11027282,0.20885064,-0.18692043,1.071212,0.8338244
0.1,0.0,0.7,0.5235987755982988,-0.5235987755982988,0,-1.2225153,1.338117,-0.31290898,0.10240129,0.32757723,1.2611171,-0.8792125,1.34079,1.0729561,0.13481016,0.18776692,-0.1985512,1.0648627,0.8887966
0.1,0.0,0.7,0.5235987755982988,-0.5235987755982988,0,-1.2257329,1.3330171,-0.3065875,0.101055644,0.33246455,1.2609394,-0.90449035,1.3202975,1.0716145,0.12191524,0.20377783,-0.20277387,1.0657201,0.61453474
0.1,0.0,0.7,0.5235987755982988,-0.5235987755982988,0,-1.2231818,1.3312413,-0.31358278,0.10162992,0.3304261,1.2635223,-0.8571089,1.3280382,1.0598406,0.1410809,0.18540785,-0.20215361,1.0680134,0.9605258
0.1,0.0,0.7,0.5235987755982988,-0.5235987755982988,0,-1.220589,1.3317642,-0.31202006,0.1012803,0.3290877,1.2633468,-0.87506974,1.3540392,1.0829506,0.13274448,0.19441698,-0.21812949,1.0531521,0.9225325
0.1,0.0,0.7,0.5235987755982988,-0.5235987755982988,0,-1.222098,1.3341707,-0.3094768,0.10193654,0.3264929,1.265428,-0.88202775,1.3329406,1.0692694,0.12710659,0.18599108,-0.21125719,1.0554755,1.0018232
0.1,0.0,0.7,0.5235987755982988,-0.5235987755982988,0,-1.2166785,1.3352953,-0.3101121,0.102803655,0.32970208,1.2637215,-0.8916605,1.3421797,1.0915518,0.122685276,0.19051132,-0.17989926,1.0675447,0.90799177
0.1,0.0,0.7,0.5235987755982988,-0.5235987755982988,0,-1.2253186,1.3322159,-0.30936745,0.104647495,0.33553082,1.2646668,-0.8720789,1.3310568,1.0679634,0.12378882,0.1919589,-0.20256625,1.0545353,0.9444734
0.1,0.0,0.7,0.5235987755982988,-0.5235987755982988,0,-1.2143123,1.3466328,-0.31112024,0.10124707,0.33482042,1.2644802,-0.84388447,1.3378211,1.0680499,0.11592983,0.20955168,-0.21105161,1.0626978,1.0158716
0.1,0.0,0.7,0.5235987755982988,-0.5235987755982988,0,-1.2267225,1.3358247,-0.31087175,0.10198984,0.3320388,1.2648259,-0.9037973,1.3444508,1.0657573,0.10428237,0.18366332,-0.2036009,1.0653521,0.8973887
0.1,0.0,0.7,0.5235987755982988,-0.5235987755982988,0,-1.229466,1.3378104,-0.30632475,0.10102667,0.3230897,1.2637136,-0.87056506,1.3291043,1.0702243,0.13176739,0.19015896,-0.18838806,1.0519918,0.85598093
0.1,0.0,0.7,0.5235987755982988,-0.5235987755982988,0,-1.2232392,1.333083,-0.3138227,0.10260464,0.3296179,1.2658321,-0.86197585,1.3478682,1.078855,0.11086861,0.17983627,-0.19693053,1.0585746,0.74570554
0.1,0.0,0.7,0.5235987755982988,-0.5235987755982988,0,-1.2234788,1.3411409,-0.30881986,0.10092571,0.32997978,1.2632066,-0.85858977,1.3124242,1.0745983,0.11357958,0.20131627,-0.22353712,1.0546329,0.8663736
0.1,0.0,0.7,0.5235987755982988,-0.5235987755982988,0,-1.221309,1.3344598,-0.31393147,0.10156372,0.33000332,1.2634871,-0.91059965,1.3173962,1.0724926,0.13299628,0.18738435,-0.18340066,1.0651817,0.81813395
0.1,0.0,0.7,0.5235987755982988,-0.5235987755982988,0,-1.2206506,1.3388573,-0.30892402,0.10138595,0.33531892,1.2619052,-0.88109696,1.3162383,1.0715922,0.12837075,0.2032488,-0.21787524,1.0581225,0.8790613
0.1,0.0,0.7,0.5235987755982988,-0.5235987755982988,0,-1.2231842,1.338316,-0.31053022,0.10128528,0.32978144,1.2667223,-0.8760967,1.3382593,1.0720186,0.13161708,0.17640717,-0.20472094,1.0809212,0.8758099
0.1,0.0,0.7,0.5235987755982988,-0.5235987755982988,0,-1.2229337,1.3408134,-0.30615819,0.10152802,0.3286475,1.2641697,-0.8227077,1.3441707,1.0729158,0.12653428,0.20443347,-0.20374821,1.0621294,0.94155085
0.1,0.0,0.7,0.5235987755982988,-0.5235987755982988,0,-1.2313591,1.3366481,-0.3083418,0.1030154,0.34182182,1.2634443,-0.8812077,1.3320055,1.0772194,0.11851808,0.18878415,-0.20758909,1.0692315,0.91280454
0.1,0.0,0.7,0.5235987755982988,-0.5235987755982988,0,-1.2259848,1.3325839,-0.3071444,0.10221115,0.33288887,1.2655131,-0.87871313,1.3361462,1.0912583,0.1215528,0.19009377,-0.19847713,1.0692506,0.9867622
0.1,0.0,0.7,0.5235987755982988,-0.5235987755982988,0,-1.2208683,1.332398,-0.3023887,0.10116855,0.328594,1.2640977,-0.88404834,1.3289933,1.0755343,0.12210951,0.19336349,-0.19112138,1.0730639,0.76866364
0.1,0.0,0.7,0.5235987755982988,-0.5235987755982988,0,-1.220895,1.3380611,-0.3026861,0.10444674,0.33235452,1.2632979,-0.871643,1.3201989,1.0899848,0.12148369,0.1806231,-0.20254135,1.0688044,0.83221245
0.1,0.0,0.7,0.5235987755982988,-0.5235987755982988,0,-1.2227968,1.3399203,-0.30513522,0.099903196,0.33090454,1.2653004,-0.87452614,1.3108009,1.0783327,0.12717241,0.19025941,-0.18550247,1.0625827,0.73359096
0.1,0.0,0.7,0.5235987755982988,-0.5235987755982988,0,-1.2224816,1.3321049,-0.30294314,0.1024633,0.3342432,1.266728,-0.88568395,1.3485719,1.0743958,0.117380455,0.18853469,-0.20237328,1.0719175,0.8150319
0.1,0.0,0.7,0.5235987755982988,-0.5235987755982988,0,-1.2282817,1.3313347,-0.30809024,0.103056364,0.32808143,1.262363,-0.86619496,1.3200157,1.068072,0.12148454,0.20124948,-0.18771203,1.0496655,0.8801964
0.1,0.0,0.7,0.5235987755982988,-0.5235987755982988,0,-1.2296287,1.3372566,-0.31193894,0.10091488,0.32391626,1.2645785,-0.88200766,1.3226143,1.0713388,0.121220924,0.19277638,-0.21110249,1.058733,0.94848144
0.1,0.0,0.7,0.5235987755982988,-0.5235987755982988,0,-1.2245296,1.329437,-0.3151239,0.102817126,0.33058134,1.2619557,-0.8689663,1.3506008,1.0748345,0.12789299,0.20579924,-0.22870119,1.0663552,0.8119599
0.1,0.0,0.7,0.5235987755982988,-0.5235987755982988,0,-1.2223784,1.3358889,-0.30918035,0.10201039,0.33548802,1.2636844,-0.8564691,1.3264548,1.0830035,0.12961715,0.20436195,-0.22719096,1.0564576,0.83648306
0.1,0.0,0.7,0.5235987755982988,-0.5235987755982988,0,-1.2252654,1.3346239,-0.30433604,0.10282114,0.32523274,1.2622327,-0.8552215,1.3449453,1.0754713,0.122029975,0.20064597,-0.22746193,1.063162,0.84636605
0.1,0.0,0.7,0.5235987755982988,-0.5235987755982988,0,-1.2297436,1.3383858,-0.31275588,0.1007537,0.32757574,1.2660329,-0.8448958,1.3268213,1.0765237,0.124163516,0.19073457,-0.20077927,1.0741411,1.0531833
0.1,0.0,0.7,0.5235987755982988,-0.5235987755982988,0,-1.2274816,1.3293334,-0.30406916,0.10213104,0.33239844,1.2640159,-0.8872827,1.3352993,1.0781459,0.12494907,0.1912467,-0.18879168,1.0588381,0.9788003
0.1,0.0,0.7,0.5235987755982988,-0.5235987755982988,0,-1.2266966,1.3391443,-0.31126213,0.100478254,0.32919303,1.2612176,-0.8707833,1.3307608,1.0947641,0.12432789,0.19948909,-0.21248415,1.0600868,0.79827416
0.1,0.0,0.7,0.5235987755982988,-0.5235987755982988,0,-1.2282151,1.3344693,-0.30766556,0.10019824,0.329511,1.2666196,-0.9003422,1.3367543,1.081871,0.11977143,0.2001483,-0.20803268,1.053628,1.0790594
0.1,0.0,0.7,0.5235987755982988,-0.5235987755982988,0,-1.2207414,1.335772,-0.30607733,0.103203386,0.32678735,1.2623299,-0.8497957,1.3119755,1.0790213,0.12457125,0.19334099,-0.19919021,1.0618006,0.7491097
0.1,0.0,0.7,0.5235987755982988,-0.5235987755982988,0,-1.2199159,1.3415006,-0.31055802,0.10197504,0.32929805,1.2622267,-0.9200209,1.3558195,1.0825825,0.11656184,0.19427575,-0.2159767,1.0743464,0.82357484
0.1,0.0,0.7,0.5235987755982988,-0.5235987755982988,0,-1.2261755,1.3395306,-0.31070638,0.10193242,0.32339415,1.2621385,-0.87406796,1.3438303,1.0824828,0.1179414,0.1988752,-0.19575119,1.0599499,0.87911797
0.1,0.0,0.7,0.5235987755982988,-0.5235987755982988,0,-1.2219486,1.3346874,-0.3047427,0.10379039,0.33224294,1.2668439,-0.8569824,1.3260527,1.0832198,0.11388482,0.1829019,-0.20707388,1.0701531,0.9812885
0.1,0.0,0.7,0.5235987755982988,-0.5235987755982988,0,-1.2261144,1.3384225,-0.3086645,0.10139395,0.3253874,1.2623314,-0.8817395,1.3210249,1.0881218,0.1095543,0.1909551,-0.19399977,1.0807594,0.7805139
0.1,0.0,0.7,0.5235987755982988,-0.5235987755982988,0,-1.2177896,1.3396436,-0.3026246,0.10333609,0.33663592,1.2664421,-0.9036879,1.3210243,1.09446,0.12503858,0.18779105,-0.20506561,1.0787995,0.8619523
0.1,0.0,0.7,0.5235987755982988,-0.5235987755982988,0,-1.2262512,1.3349822,-0.30719063,0.1031606,0.31786725,1.2637765,-0.8636719,1.3455762,1.0768336,0.120149575,0.18385972,-0.18805547,1.0871332,0.8004011
0.1,0.0,0.7,0.5235987755982988,-0.5235987755982988,0,-1.2222031,1.3334967,-0.31332618,0.10243021,0.3281862,1.2650498,-0.9021878,1.3029686,1.0581523,0.12722418,0.1808176,-0.21613601,1.0602362,0.5962894
0.1,0.0,0.7,0.5235987755982988,-0.5235987755982988,0,-1.2228895,1.3396814,-0.31171188,0.10213444,0.3318549,1.2597779,-0.8726498,1.3324783,1.0599428,0.11002772,0.19093126,-0.20944376,1.0783598,0.8888172
0.1,0.0,0.7,0.5235987755982988,-0.5235987755982988,0,-1.2215512,1.3292123,-0.30301708,0.10270907,0.33199453,1.2678257,-0.8817229,1.3367026,1.0769554,0.10464372,0.19064657,-0.1941044,1.0476567,0.7836994
0.1,0.0,0.7,0.5235987755982988,-0.5235987755982988,0,-1.225251,1.331235,-0.30579188,0.10260239,0.32963178,1.2653728,-0.8850138,1.3403798,1.0697381,0.12075876,0.18165566,-0.18809205,1.0645283,0.6816244
0.1,0.0,0.7,0.5235987755982988,-0.5235987755982988,0,-1.2290419,1.334802,-0.3048894,0.10293082,0.32977405,1.2635806,-0.90507376,1.3433788,1.0797361,0.13557947,0.1836765,-0.21581785,1.0500343,0.82776827
0.1,0.0,0.7,0.5235987755982988,-0.5235987755982988,0,-1.2200496,1.343758,-0.31830254,0.10127644,0.338474,1.2654868,-0.8951322,1.3136438,1.0561701,0.120138995,0.20142716,-0.20679721,1.0734756,0.7651419
0.1,0.0,0.7,0.5235987755982988,-0.5235987755982988,0,-1.2262205,1.3356572,-0.30242002,0.100720495,0.3275855,1.2654555,-0.89079386,1.3438042,1.075,0.12525332,0.18405677,-0.21459864,1.0466267,0.92138493
0.1,0.0,0.7,0.5235987755982988,-0.5235987755982988,0,-1.2260733,1.3325262,-0.30813056,0.102752686,0.33037615,1.2628518,-0.87629735,1.3142998,1.0822223,0.11414364,0.18909295,-0.21531785,1.0730878,0.9572479
0.1,0.0,0.7,0.5235987755982988,-0.5235987755982988,0,-1.2203435,1.3371043,-0.2996442,0.102357075,0.31617954,1.263918,-0.8512625,1.3402243,1.0846963,0.11280431,0.19453423,-0.18607506,1.0854727,1.0441965
0.1,0.0,0.7,0.5235987755982988,-0.5235987755982988,0,-1.2314905,1.3410103,-0.31052312,0.10118441,0.33035654,1.2681636,-0.9028963,1.3497498,1.0615643,0.116366394,0.19247253,-0.21831997,1.0632793,0.77438337
0.1,0.0,0.7,0.5235987755982988,-0.5235987755982988,0,-1.2254317,1.3334252,-0.31917682,0.10363151,0.32146406,1.2628034,-0.87422985,1.3270267,1.0769457,0.12816769,0.19908579,-0.20390643,1.0654292,0.94834995
0.1,0.0,0.7,0.5235987755982988,-0.5235987755982988,0,-1.2249478,1.3378626,-0.30715427,0.09917585,0.32015073,1.262188,-0.89805925,1.3366351,1.0779012,0.10873575,0.20361581,-0.21192998,1.0552342,0.9584506
0.1,0.0,0.7,0.5235987755982988,-0.5235987755982988,0,-1.227985,1.3447585,-0.30541602,0.10253833,0.33082384,1.2673081,-0.8712132,1.3684603,1.0668799,0.13175322,0.1923967,-0.22155553,1.0725944,0.92042345
0.1,0.0,0.7,0.5235987755982988,-0.5235987755982988,0,-1.2312689,1.3315442,-0.30180755,0.10230844,0.3297873,1.2661432,-0.8987128,1.3159689,1.0733669,0.13147844,0.19739145,-0.18857166,1.0586187,0.9550968
0.1,0.0,0.7,0.5235987755982988,-0.5235987755982988,0,-1.2197636,1.3372607,-0.31086698,0.10243323,0.32529935,1.2681824,-0.8969833,1.3172938,1.0731055,0.13750842,0.1870984,-0.17906788,1.0679295,0.99610585
0.1,0.0,0.7,0.5235987755982988,-0.5235987755982988,0,-1.2286648,1.3346629,-0.31448042,0.104975656,0.32522598,1.2640814,-0.8912195,1.3160352,1.0629345,0.12731032,0.18546076,-0.204634,1.0595018,0.7287277
0.1,0.0,0.7,0.5235987755982988,-0.5235987755982988,0,-1.226942,1.3370247,-0.310879,0.10199334,0.33478802,1.2644854,-0.8911871,1.324047,1.0697036,0.12693541,0.1954764,-0.2004844,1.0681127,0.7333265
0.1,0.0,0.7,0.5235987755982988,-0.5235987755982988,0,-1.2220341,1.3424486,-0.301979,0.103018425,0.32855618,1.2625185,-0.84704417,1.3218325,1.0788819,0.111306496,0.20434858,-0.2200385,1.0743513,0.85991216
0.1,0.0,0.7,0.5235987755982988,-0.5235987755982988,0,-1.2270463,1.3395077,-0.31578007,0.099700734,0.33105597,1.2659951,-0.89922494,1.3158177,1.071291,0.12446624,0.19049267,-0.19301023,1.0710098,0.956488
0.1,0.0,0.7,0.5235987755982988,-0.5235987755982988,0,-1.2281933,1.3419864,-0.30853194,0.099235535,0.3325456,1.2663256,-0.8999912,1.3489702,1.0752844,0.10748331,0.18462716,-0.18743353,1.0502162,0.73557913
0.1,0.0,0.7,0.5235987755982988,-0.5235987755982988,0,-1.2242051,1.3351177,-0.3054964,0.101969026,0.32553902,1.2651142,-0.85318553,1.3322326,1.0930403,0.1071118,0.20127298,-0.18365861,1.0736146,0.8816669
0.1,0.0,0.7,0.5235987755982988,-0.5235987755982988,0,-1.2306479,1.338459,-0.30992886,0.100025006,0.32468218,1.2690356,-0.88657695,1.3510967,1.0774614,0.12794453,0.18666081,-0.19047153,1.0821753,0.9481611
0.1,0.0,0.7,0.5235987755982988,-0.5235987755982988,0,-1.220265,1.3348025,-0.31163457,0.101305194,0.32787764,1.2664772,-0.928267,1.329542,1.0752108,0.12923257,0.1919219,-0.1989196,1.0745151,0.93345773
0.1,0.0,0.7,0.5235987755982988,-0.5235987755982988,0,-1.2220483,1.3362868,-0.31031623,0.10190462,0.3298423,1.2638495,-0.87501013,1.3390325,1.072484,0.12792632,0.19982259,-0.19593427,1.0618694,0.8753894
0.1,0.0,0.7,0.5235987755982988,-0.5235987755982988,0,-1.2255555,1.3429487,-0.30410662,0.10002819,0.32496053,1.2651632,-0.8525556,1.3454671,1.0763259,0.12402227,0.18510902,-0.18785445,1.0594624,0.85949093
0.1,0.0,0.7,0.5235987755982988,-0.5235987755982988,0,-1.2249569,1.3326685,-0.30105096,0.10201197,0.3267215,1.2639077,-0.87148654,1.3282087,1.0779871,0.10954553,0.19921382,-0.20391957,1.0756259,0.68906444
0.1,0.0,0.7,0.5235987755982988,-0.5235987755982988,0,-1.222896,1.3387463,-0.3097241,0.101266116,0.33169374,1.2620975,-0.88370794,1.3318719,1.0865504,0.12313772,0.19968985,-0.19721885,1.0519998,0.7355333
0.1,0.0,0.7,0.5235987755982988,-0.5235987755982988,0,-1.2196355,1.3336372,-0.31044656,0.10270968,0.33408055,1.2646048,-0.87885094,1.3356825,1.0839264,0.12472574,0.18823786,-0.2184718,1.0678248,0.7647825
0.1,0.0,0.7,0.5235987755982988,-0.5235987755982988,0,-1.2242466,1.336735,-0.31058136,0.10155596,0.32877094,1.2666653,-0.909343,1.3392642,1.0860599,0.12549202,0.20016384,-0.1942839,1.0746137,0.6638514
0.1,0.0,0.7,0.5235987755982988,-0.5235987755982988,0,-1.2236146,1.3333155,-0.31169045,0.101548426,0.33065832,1.2633053,-0.8885918,1.3559985,1.0767276,0.11652342,0.17776287,-0.18704781,1.0673857,0.74392027
0.1,0.0,0.7,0.5235987755982988,-0.5235987755982988,0,-1.2234951,1.3369677,-0.3094121,0.10311524,0.33025005,1.2684981,-0.87716913,1.3179773,1.0883747,0.12228852,0.18400502,-0.20359996,1.0660731,1.0352389
0.1,0.0,0.7,0.5235987755982988,-0.5235987755982988,0,-1.2213703,1.3421626,-0.30635092,0.10083813,0.3238759,1.2634254,-0.8620864,1.3305686,1.0876205,0.11761788,0.19587722,-0.1930852,1.0866811,0.8346202
0.1,0.0,0.7,0.5235987755982988,-0.5235987755982988,0,-1.2264713,1.3409611,-0.30987757,0.10224472,0.32418782,1.2652067,-0.87508446,1.3417342,1.0737634,0.13609861,0.18980913,-0.18979639,1.0646554,0.8059133
0.1,0.0,0.7,0.5235987755982988,-0.5235987755982988,0,-1.2166861,1.3382801,-0.31244907,0.10293384,0.32909784,1.2649813,-0.8591246,1.325527,1.0760419,0.12120466,0.19905086,-0.19648153,1.0535835,0.7876423
0.1,0.0,0.7,0.5235987755982988,-0.5235987755982988,0,-1.2217146,1.3361707,-0.31053284,0.1023513,0.33252347,1.2656553,-0.87023383,1.349482,1.0626631,0.1281459,0.1945899,-0.18652658,1.0512367,1.0225345
0.1,0.0,0.7,0.5235987755982988,-0.5235987755982988,0,-1.229526,1.3377777,-0.3072638,0.10152655,0.33003995,1.2656581,-0.88476306,1.3618077,1.0891721,0.117203236,0.18625525,-0.19361396,1.056282,0.8535172
0.1,0.0,0.7,0.5235987755982988,-0.5235987755982988,0,-1.2301294,1.3315728,-0.30484954,0.103370294,0.3276728,1.262505,-0.8847296,1.3187255,1.0801643,0.118325725,0.18562014,-0.19448733,1.0390422,0.9258244
0.1,0.0,0.7,0.5235987755982988,-0.5235987755982988,0,-1.2255067,1.3345134,-0.30732396,0.099987246,0.32496476,1.2634963,-0.9089229,1.3500394,1.0738187,0.1186004,0.18943466,-0.19704808,1.0577724,1.0182588
0.1,0.0,0.7,0.5235987755982988,-0.5235987755982988,0,-1.2221618,1.3414292,-0.31020898,0.0996566,0.33180678,1.2641683,-0.8788723,1.3319148,1.0636431,0.110746615,0.19559713,-0.17444289,1.0672848,0.9005688
0.1,0.0,0.7,0.5235987755982988,-0.5235987755982988,0,-1.2304857,1.3350142,-0.3059712,0.1002453,0.32308832,1.2652311,-0.9053262,1.3489587,1.0797248,0.11860794,0.1920878,-0.18174851,1.0617284,0.9425558
0.1,0.0,0.7,0.5235987755982988,-0.5235987755982988,0,-1.2187998,1.3354846,-0.31233993,0.10151886,0.32621807,1.2631333,-0.9096835,1.3427383,1.073041,0.12612827,0.1894559,-0.20210889,1.059114,0.9634046
0.1,0.0,0.7,0.5235987755982988,-0.5235987755982988,0,-1.2195389,1.3350931,-0.31056058,0.10139498,0.33281243,1.2641737,-0.8842343,1.325177,1.0760967,0.10925935,0.1872437,-0.19039918,1.0872881,0.9467677
0.1,0.0,0.7,0.5235987755982988,-0.5235987755982988,0,-1.2283493,1.3366748,-0.30918914,0.101397544,0.33285514,1.264846,-0.9065672,1.3439231,1.082901,0.108991645,0.19467776,-0.1947437,1.0527105,0.877709
0.1,0.0,0.7,0.5235987755982988,-0.5235987755982988,0,-1.2298436,1.3374791,-0.3080141,0.10042583,0.3337186,1.2665218,-0.84798163,1.3366188,1.080056,0.11889038,0.1923937,-0.20279688,1.0679051,0.8386485
0.1,0.0,0.7,0.5235987755982988,-0.5235987755982988,0,-1.2218753,1.3343748,-0.31110367,0.10129103,0.32351318,1.2660233,-0.8537194,1.3506591,1.0820125,0.11458936,0.1918179,-0.19732386,1.0667963,0.8237073
0.1,0.0,0.7,0.5235987755982988,-0.5235987755982988,0,-1.2197562,1.3345413,-0.30844072,0.103540726,0.3318926,1.2667221,-0.89621246,1.3365952,1.0830673,0.12980486,0.19754975,-0.21977404,1.0598853,0.8801332
0.1,0.0,0.7,0.5235987755982988,-0.5235987755982988,0,-1.2290171,1.3396364,-0.30610287,0.10282739,0.32779226,1.2664208,-0.8804663,1.3406836,1.0679414,0.10091155,0.19849573,-0.19141686,1.0641013,0.7052456
0.1,0.0,0.7,0.5235987755982988,-0.5235987755982988,0,-1.2253623,1.3390223,-0.30780903,0.102301195,0.32959914,1.2641535,-0.87317467,1.3131224,1.0923458,0.12200939,0.1919518,-0.20373045,1.0527451,0.75494075
0.1,0.0,0.7,0.5235987755982988,-0.5235987755982988,0,-1.2282709,1.3340753,-0.3048611,0.10092687,0.32693675,1.2651777,-0.86398506,1.3290623,1.0835748,0.12528405,0.19835584,-0.20273018,1.0576981,0.8370729
0.1,0.0,0.7,0.5235987755982988,-0.5235987755982988,0,-1.2245785,1.3394195,-0.31059963,0.10239962,0.3275091,1.2644619,-0.8798848,1.3599406,1.0967987,0.11273084,0.1862853,-0.18202038,1.0665462,0.9874608
0.1,0.0,0.7,0.5235987755982988,-0.5235987755982988,0,-1.2244668,1.34443,-0.3054221,0.10500498,0.32651576,1.2651874,-0.89111716,1.3538821,1.0608895,0.13009451,0.19050455,-0.19018549,1.0791055,0.88156796
0.1,0.0,0.7,0.5235987755982988,-0.5235987755982988,0,-1.2248363,1.331752,-0.31688333,0.102170296,0.33183405,1.2628506,-0.898911,1.3308079,1.0791705,0.13538764,0.19486737,-0.19838364,1.0597978,0.9956194
0.1,0.0,0.7,0.5235987755982988,-0.5235987755982988,0,-1.2283704,1.3333399,-0.31170738,0.10299714,0.31844223,1.2667608,-0.91389644,1.3234366,1.0669022,0.13293646,0.19178525,-0.19157028,1.0598712,0.8134356
0.1,0.0,0.7,0.5235987755982988,-0.5235987755982988,0,-1.2239125,1.3378834,-0.30783555,0.101366594,0.32782802,1.2661301,-0.8555145,1.3451209,1.0724036,0.117578134,0.19006911,-0.1993123,1.056357,0.77484417
0.1,0.0,0.7,0.5235987755982988,-0.5235987755982988,0,-1.2279377,1.3434438,-0.3040208,0.10058218,0.336718,1.2668945,-0.881086,1.3227912,1.0704964,0.11645948,0.19312361,-0.21261227,1.0586333,0.8584395
0.1,0.0,0.7,0.5235987755982988,-0.5235987755982988,0,-1.2262528,1.3355353,-0.3055477,0.10198033,0.32094994,1.2651846,-0.89334124,1.3102856,1.0777738,0.118841216,0.20516305,-0.19200669,1.0647882,0.7791237
0.1,0.0,0.7,0.5235987755982988,-0.5235987755982988,0,-1.2281388,1.3364171,-0.3088354,0.101878285,0.3292969,1.2652438,-0.9123471,1.3282173,1.0859597,0.13145745,0.1931627,-0.20372969,1.0640308,0.74948
0.1,0.0,0.7,0.5235987755982988,-0.5235987755982988,0,-1.2233344,1.3442156,-0.30552697,0.10021838,0.33695138,1.2637208,-0.87691903,1.3267092,1.0753732,0.10996802,0.19339356,-0.21161267,1.0667564,0.7883003
0.1,0.0,0.7,0.5235987755982988,-0.5235987755982988,0,-1.2199138,1.3396081,-0.3044937,0.102057785,0.32639745,1.2668152,-0.8974537,1.3319682,1.0754217,0.12110219,0.18172422,-0.19562784,1.052944,0.8009293
0.1,0.0,0.7,0.5235987755982988,-0.5235987755982988,0,-1.2288951,1.3382936,-0.30482456,0.10243407,0.32708925,1.2674501,-0.86913246,1.3269404,1.0817115,0.118815884,0.1945586,-0.18433917,1.0733409,0.8026685
0.1,0.0,0.7,0.5235987755982988,-0.5235987755982988,0,-1.2201148,1.3435997,-0.31058532,0.10207204,0.3357353,1.2655308,-0.8695038,1.31288,1.0726788,0.12818502,0.1861589,-0.20575088,1.0587864,1.0765977
0.1,0.0,0.7,0.5235987755982988,-0.5235987755982988,0,-1.226841,1.3398174,-0.31668824,0.100473,0.33403024,1.2651508,-0.88901913,1.328765,1.0748199,0.11500249,0.18569718,-0.2133363,1.0509125,0.8645334
0.1,0.0,0.7,0.5235987755982988,-0.5235987755982988,0,-1.223489,1.3374717,-0.3115523,0.10347055,0.3275375,1.263448,-0.87356836,1.3460784,1.0724398,0.11831943,0.19100676,-0.1918656,1.0700136,0.81592447
0.1,0.0,0.7,0.5235987755982988,-0.5235987755982988,0,-1.2247798,1.3339336,-0.3059005,0.1025621,0.33089295,1.2670331,-0.8871218,1.3519251,1.0699086,0.12809892,0.19974701,-0.21054159,1.0608921,1.0216713
0.1,0.0,0.7,0.5235987755982988,-0.5235987755982988,0,-1.2226342,1.3375074,-0.30295482,0.103458375,0.3341025,1.2658833,-0.8885644,1.3345646,1.0813067,0.118213065,0.19724908,-0.20234357,1.0687847,0.94449586
0.1,0.0,0.7,0.5235987755982988,-0.5235987755982988,0,-1.228193,1.3357649,-0.31073874,0.10387317,0.32370114,1.2625066,-0.9051322,1.3340839,1.0792918,0.12860389,0.1997768,-0.18054831,1.0481583,0.9313388
0.1,0.0,0.7,0.5235987755982988,-0.5235987755982988,0,-1.2164371,1.3461224,-0.31039664,0.102787636,0.32926297,1.2679763,-0.83740777,1.3363167,1.0795629,0.12602954,0.1929654,-0.20933972,1.0547094,0.7655509
0.1,0.0,0.7,0.5235987755982988,-0.5235987755982988,0,-1.2259161,1.3405975,-0.31066403,0.10104927,0.32905808,1.2654525,-0.87045556,1.3367815,1.0820531,0.114740394,0.18975823,-0.19541517,1.0652815,0.9331132
0.1,0.0,0.7,0.5235987755982988,-0.5235987755982988,0,-1.2290916,1.3347285,-0.3011327,0.100470185,0.32104367,1.2629715,-0.8903358,1.3286932,1.0971774,0.108710684,0.18490419,-0.19249049,1.06662,0.9057915
0.1,0.0,0.7,0.5235987755982988,-0.5235987755982988,0,-1.2242665,1.3414798,-0.30683622,0.10403338,0.33130145,1.2628752,-0.8831199,1.3384498,1.0771329,0.13212003,0.21187194,-0.21997754,1.0655384,0.7600632
0.1,0.0,0.7,0.5235987755982988,-0.5235987755982988,0,-1.2199197,1.3386141,-0.30812296,0.10086959,0.3335389,1.2681012,-0.89630824,1.3224528,1.0646987,0.13367842,0.19714063,-0.1947389,1.062301,0.8696687
0.1,0.0,0.7,0.5235987755982988,-0.5235987755982988,0,-1.2212924,1.3430643,-0.30309603,0.102052085,0.32795674,1.2662315,-0.83679307,1.3521171,1.0757833,0.11333912,0.19258036,-0.20593356,1.0442835,0.80634475
0.1,0.0,0.7,0.5235987755982988,-0.5235987755982988,0,-1.2227058,1.3379643,-0.3072562,0.10340962,0.32963303,1.2674164,-0.86280686,1.3436087,1.0729265,0.1195665,0.20286931,-0.18609527,1.0573971,0.83766186
0.1,0.0,0.7,0.5235987755982988,-0.5235987755982988,0,-1.226779,1.3396962,-0.31191683,0.104509786,0.33159736,1.2614043,-0.8779753,1.2952279,1.0785915,0.12507698,0.19506814,-0.21117201,1.0615077,0.7338663
0.1,0.0,0.7,0.5235987755982988,-0.5235987755982988,0,-1.2281282,1.3362429,-0.30543464,0.1009726,0.32863933,1.262946,-0.86505777,1.3223654,1.0759314,0.12205799,0.19570465,-0.21132147,1.0537442,0.97279286
0.1,0.0,0.7,0.5235987755982988,-0.5235987755982988,0,-1.2242532,1.3411257,-0.31086525,0.101680376,0.32901815,1.2648624,-0.871856,1.326136,1.0759013,0.12548523,0.19046181,-0.19104612,1.0580498,0.74889445
0.1,0.0,0.7,0.5235987755982988,-0.5235987755982988,0,-1.2303696,1.3334147,-0.30403855,0.103719555,0.32780552,1.26285,-0.9239877,1.3134992,1.0683405,0.12752995,0.19237581,-0.16845456,1.0637904,0.77293736
0.1,0.0,0.7,0.5235987755982988,-0.5235987755982988,0,-1.2325078,1.3446414,-0.30969015,0.102485925,0.3340438,1.2632811,-0.8814828,1.3357443,1.0883963,0.13562168,0.19022033,-0.20464657,1.075375,0.76933724
0.1,0.0,0.7,0.5235987755982988,-0.5235987755982988,0,-1.2287905,1.3406023,-0.30637437,0.10257772,0.33312556,1.2654096,-0.8830748,1.328148,1.0658199,0.13139483,0.1860256,-0.1966285,1.0620562,0.76588905
0.1,0.0,0.7,0.5235987755982988,-0.5235987755982988,0,-1.2276492,1.3346012,-0.30667186,0.10212155,0.3270199,1.2621617,-0.8843629,1.3453528,1.0872108,0.11593792,0.19441272,-0.20290998,1.0737975,0.71708095
0.1,0.0,0.7,0.5235987755982988,-0.5235987755982988,0,-1.226458,1.3404847,-0.30732548,0.10128549,0.3302349,1.2644389,-0.8775731,1.3286377,1.0650184,0.114132985,0.19199845,-0.20388407,1.0755302,0.8643235
0.1,0.0,0.7,0.5235987755982988,-0.5235987755982988,0,-1.2237976,1.3379433,-0.31310225,0.10153808,0.33080357,1.2688198,-0.8673433,1.3430002,1.0705574,0.11592516,0.18688321,-0.19479792,1.0706351,0.873045
0.1,0.0,0.7,0.5235987755982988,-0.5235987755982988,0,-1.2253978,1.3431966,-0.30731553,0.101382785,0.32909206,1.2677169,-0.87738276,1.3179636,1.0755867,0.10827234,0.19766383,-0.20457585,1.0678474,0.8694067
0.1,0.0,0.7,0.5235987755982988,-0.5235987755982988,0,-1.2254031,1.3420887,-0.3164642,0.10284242,0.33006236,1.2612244,-0.87868917,1.3318347,1.0840902,0.12447363,0.19107994,-0.1941744,1.0758234,0.8189655
0.1,0.0,0.7,0.5235987755982988,-0.5235987755982988,0,-1.2252944,1.3360833,-0.306544,0.10226579,0.33192223,1.2678473,-0.87908494,1.3414944,1.080102,0.10888282,0.20109114,-0.20023786,1.0620192,0.8839963
0.1,0.0,0.7,0.5235987755982988,-0.5235987755982988,0,-1.2248117,1.3370377,-0.30790284,0.09891695,0.3257238,1.2658827,-0.89506423,1.3420259,1.0654765,0.120206065,0.18660377,-0.21728013,1.050913,0.78122056
0.1,0.0,0.7,0.5235987755982988,-0.5235987755982988,0,-1.2201086,1.3387684,-0.30727658,0.10103198,0.3265755,1.263618,-0.855995,1.3543155,1.0947765,0.11550648,0.19521548,-0.2127593,1.0433447,0.809423
0.1,0.0,0.7,0.5235987755982988,-0.5235987755982988,0,-1.221445,1.339987,-0.30559057,0.10373656,0.32892635,1.2670455,-0.90956795,1.3369586,1.0784141,0.11612085,0.18010098,-0.1978358,1.0727527,0.9799291
0.1,0.0,0.7,0.5235987755982988,-0.5235987755982988,0,-1.2341882,1.3374761,-0.30613282,0.10168116,0.32486194,1.264621,-0.88257307,1.3470381,1.0747502,0.13180813,0.18491419,-0.19866034,1.0519629,0.93048227
0.1,0.0,0.7,0.5235987755982988,-0.5235987755982988,0,-1.2278048,1.3371823,-0.30976543,0.10012204,0.33150205,1.2625166,-0.9012432,1.307898,1.0695345,0.11957477,0.19162877,-0.2130161,1.0593642,0.8502799
0.1,0.0,0.7,0.5235987755982988,-0.5235987755982988,0,-1.2286743,1.3343599,-0.30200452,0.103511564,0.32387283,1.2667246,-0.8840315,1.3381976,1.0701776,0.115356684,0.19983593,-0.20741838,1.0622522,0.81350887
0.1,0.0,0.7,0.5235987755982988,-0.5235987755982988,0,-1.227278,1.3471657,-0.30796552,0.10114589,0.3231953,1.2649432,-0.84068406,1.3151656,1.067491,0.12820758,0.1882451,-0.20297574,1.0714718,0.82233375
0.1,0.0,0.7,0.5235987755982988,-0.5235987755982988,0,-1.2294552,1.3391918,-0.3130061,0.10169133,0.33057958,1.2693728,-0.9184391,1.356571,1.0849811,0.13409862,0.19340818,-0.19378446,1.0586646,0.90586317
0.1,0.0,0.7,0.5235987755982988,-0.5235987755982988,0,-1.2269725,1.3385148,-0.3093359,0.100528695,0.32891458,1.2648934,-0.8840827,1.3386654,1.0678264,0.13547538,0.19167173,-0.18981455,1.0536543,0.91783005
0.1,0.0,0.7,0.5235987755982988,-0.5235987755982988,0,-1.2336607,1.3311589,-0.3099173,0.10349166,0.33113065,1.2648435,-0.8661287,1.324025,1.0764229,0.12980118,0.17983237,-0.18502063,1.0738492,0.8756797
0.1,0.0,0.7,0.5235987755982988,-0.5235987755982988,0,-1.2215964,1.3417627,-0.3075095,0.10212547,0.33109248,1.2655665,-0.88039494,1.342963,1.0871463,0.11046321,0.1921898,-0.20611896,1.0734552,0.9037898
0.1,0.0,0.7,0.5235987755982988,-0.5235987755982988,0,-1.2223158,1.3388051,-0.32014492,0.103116006,0.3337405,1.2632596,-0.89095914,1.343273,1.0725789,0.12501238,0.18993984,-0.20273058,1.0605861,0.8729085
0.1,0.0,0.7,0.5235987755982988,-0.5235987755982988,0,-1.2247568,1.3452789,-0.31060958,0.10293052,0.3321189,1.26945,-0.8481244,1.3550755,1.0577565,0.12467391,0.18908893,-0.19731481,1.0602047,0.7431102
0.1,0.0,0.7,0.5235987755982988,-0.5235987755982988,0,-1.2255718,1.336548,-0.30641443,0.103016526,0.3274511,1.2689908,-0.8835457,1.3457248,1.069227,0.12479305,0.19956993,-0.211414,1.0610428,0.7712046
0.1,0.0,0.7,0.5235987755982988,-0.5235987755982988,0,-1.2276697,1.3360014,-0.31568393,0.10207948,0.32469198,1.2634825,-0.88348365,1.3401719,1.0819714,0.117106214,0.19793673,-0.21227382,1.0790403,0.8786631
0.1,0.0,0.7,0.5235987755982988,-0.5235987755982988,0,-1.2262138,1.3389559,-0.3145148,0.10069912,0.32697257,1.2626177,-0.8930544,1.3285781,1.0864304,0.11330946,0.19171025,-0.19916579,1.0878518,1.0621394
0.1,0.0,0.7,0.5235987755982988,-0.5235987755982988,0,-1.2275017,1.3368202,-0.31253847,0.10079563,0.32796624,1.2644178,-0.8832017,1.3343551,1.0633913,0.12465262,0.17951576,-0.20124395,1.0744575,0.98784316
0.1,0.0,0.7,0.5235987755982988,-0.5235987755982988,0,-1.2265496,1.340719,-0.3142193,0.1037903,0.33133024,1.2643673,-0.8779486,1.3076813,1.0717949,0.12273862,0.206101,-0.2056487,1.0689495,0.8631849
0.1,0.0,0.7,0.5235987755982988,-0.5235987755982988,0,-1.2244217,1.3374606,-0.31238815,0.10460357,0.32555097,1.2641582,-0.90595657,1.324806,1.0681547,0.119797744,0.18571848,-0.18125507,1.0657592,0.90409344
0.1,0.0,0.7,0.5235987755982988,-0.5235987755982988,0,-1.2192993,1.3395644,-0.31662497,0.102074504,0.32445922,1.2599745,-0.88832796,1.3430854,1.0669878,0.11280762,0.18928486,-0.20313075,1.0516694,0.8904098
0.1,0.0,0.7,0.5235987755982988,-0.5235987755982988,0,-1.2319721,1.3412439,-0.3138921,0.10131248,0.33319852,1.2628937,-0.8802553,1.3452041,1.0740906,0.13146518,0.18806075,-0.20764534,1.0657988,0.9332235
0.1,0.0,0.7,0.5235987755982988,-0.5235987755982988,0,-1.2202855,1.3419366,-0.3117663,0.10358832,0.33135545,1.2646807,-0.89216644,1.3435969,1.0741926,0.120564416,0.19100143,-0.20291397,1.0538585,0.7762683
0.1,0.0,0.7,0.5235987755982988,-0.5235987755982988,0,-1.2328521,1.344252,-0.3114389,0.10297641,0.31691724,1.2595934,-0.8663082,1.3139789,1.0796824,0.11613697,0.19163394,-0.1959788,1.07298,0.76660097
0.1,0.0,0.7,0.5235987755982988,-0.5235987755982988,0,-1.2284284,1.3397249,-0.30245653,0.103332974,0.32741302,1.2659048,-0.85685676,1.3314308,1.0726521,0.1185767,0.19894494,-0.19180688,1.0539173,0.83432865
0.1,0.0,0.7,0.5235987755982988,-0.5235987755982988,0,-1.2371196,1.3327943,-0.31144997,0.10152705,0.32752675,1.2679627,-0.8922694,1.3374109,1.0704855,0.115865,0.19316097,-0.19710493,1.0631894,1.1594203
0.1,0.0,0.7,0.5235987755982988,-0.5235987755982988,0,-1.2318618,1.3385895,-0.30895117,0.10227612,0.32491496,1.2650822,-0.8916659,1.3208898,1.0871309,0.13025132,0.18990189,-0.19455387,1.0640708,0.9731382
0.1,0.0,0.7,0.5235987755982988,-0.5235987755982988,0,-1.2283523,1.341428,-0.31382033,0.102894664,0.3275649,1.2663641,-0.8908768,1.340803,1.0702755,0.121201985,0.18856288,-0.17964031,1.0557344,1.0640478
0.1,0.0,0.7,0.5235987755982988,-0.5235987755982988,0,-1.2305857,1.3436697,-0.3089054,0.10105329,0.3289874,1.2644253,-0.8611798,1.334214,1.0723914,0.122327544,0.19516453,-0.21021444,1.0482523,0.9597207
0.1,0.0,0.7,0.5235987755982988,-0.5235987755982988,0,-1.2236503,1.3445734,-0.30971345,0.102048956,0.32557926,1.2667222,-0.884292,1.3159188,1.0812948,0.12584047,0.18786044,-0.19697456,1.0805233,1.0907687
0.1,0.0,0.7,0.5235987755982988,-0.5235987755982988,0,-1.2280473,1.3475313,-0.309942,0.101817526,0.32739833,1.2667046,-0.8861767,1.3194964,1.0606805,0.12013696,0.19492587,-0.21484138,1.075591,0.8507801
0.1,0.0,0.7,0.5235987755982988,-0.5235987755982988,0,-1.2299101,1.3430523,-0.30568847,0.10267841,0.32866946,1.2662592,-0.8716114,1.3210627,1.072132,0.13516597,0.18409239,-0.19397074,1.0594487,0.95733565
0.1,0.0,0.7,0.5235987755982988,-0.5235987755982988,0,-1.2283378,1.3387067,-0.30568904,0.10040675,0.3229412,1.2669923,-0.90364814,1.3277676,1.0817136,0.11849959,0.20073803,-0.20560814,1.0706108,0.78544056
0.1,0.0,0.7,0.5235987755982988,-0.5235987755982988,0,-1.2288616,1.3332415,-0.30080846,0.10208344,0.32142693,1.2660558,-0.87157965,1.3357923,1.086639,0.124355406,0.19085452,-0.20520684,1.0762905,0.9022486
0.1,0.0,0.7,0.5235987755982988,-0.5235987755982988,0,-1.2309804,1.3359017,-0.3077327,0.10230767,0.32952866,1.2667661,-0.9142338,1.3513672,1.1002951,0.11683609,0.19163692,-0.19520544,1.073806,0.92635226
0.1,0.0,0.7,0.5235987755982988,-0.5235987755982988,0,-1.2305845,1.3441527,-0.30696633,0.10023029,0.32913586,1.2676284,-0.8769844,1.331975,1.1004109,0.12977065,0.18935856,-0.18658216,1.0534279,0.87363774
0.1,0.0,0.7,0.5235987755982988,-0.5235987755982988,0,-1.2284834,1.341835,-0.30856654,0.10153449,0.33467546,1.2632364,-0.85360163,1.3338697,1.0905277,0.11764675,0.19747265,-0.18742894,1.0574843,0.9733702
0.1,0.0,0.7,0.5235987755982988,-0.5235987755982988,0,-1.2264969,1.3419881,-0.31262147,0.10064416,0.32383013,1.2677413,-0.8862231,1.3081682,1.0666646,0.11276062,0.19498663,-0.21082336,1.0510434,0.8015199
0.1,0.0,0.7,0.5235987755982988,-0.5235987755982988,0,-1.2215567,1.3394223,-0.31087816,0.10418526,0.33009252,1.2636769,-0.91549313,1.3214025,1.0756348,0.11969239,0.20207733,-0.23286965,1.0739088,0.9360508
0.1,0.0,0.7,0.5235987755982988,-0.5235987755982988,0,-1.2297962,1.3401517,-0.3038361,0.10212251,0.32233104,1.2618682,-0.8861881,1.3455412,1.0606513,0.135081,0.18731764,-0.20445503,1.049195,0.80630726
0.1,0.0,0.7,0.5235987755982988,-0.5235987755982988,0,-1.2279962,1.3398631,-0.30139577,0.10301178,0.32639858,1.265594,-0.8437437,1.3407958,1.0820148,0.12668777,0.1852652,-0.18755409,1.056349,0.7454546
0.1,0.0,0.7,0.5235987755982988,-0.5235987755982988,0,-1.2240247,1.3373533,-0.309821,0.10440736,0.328101,1.2655785,-0.88304543,1.3592893,1.0891929,0.12019466,0.18671435,-0.20216587,1.0656711,0.8804847
0.1,0.0,0.7,0.5235987755982988,-0.5235987755982988,0,-1.2307457,1.3413849,-0.31032717,0.100581646,0.32763553,1.2684491,-0.8628398,1.3522468,1.0817986,0.117688715,0.19604598,-0.21141571,1.0685681,0.9599335
0.1,0.0,0.7,0.5235987755982988,-0.5235987755982988,0,-1.229147,1.336793,-0.3041039,0.10321166,0.3281724,1.2682538,-0.9021697,1.3442898,1.0729947,0.12466056,0.19816743,-0.19501792,1.0535903,0.969604
0.1,0.0,0.7,0.5235987755982988,-0.5235987755982988,0,-1.2311687,1.342736,-0.30779475,0.101369634,0.333549,1.2665166,-0.9015655,1.3427467,1.074512,0.12085296,0.19355845,-0.1989757,1.0574011,0.96125364
0.1,0.0,0.7,0.5235987755982988,-0.5235987755982988,0,-1.2257885,1.3441608,-0.30847937,0.10316307,0.32949182,1.265968,-0.89395654,1.3114399,1.0956212,0.11381861,0.20840342,-0.19284612,1.058803,0.8515983
0.1,0.0,0.7,0.5235987755982988,-0.5235987755982988,0,-1.2257323,1.334246,-0.30865338,0.10373505,0.32691145,1.2630851,-0.8789272,1.3314501,1.0668881,0.12485148,0.20134793,-0.20637828,1.0744948,0.8108562
0.1,0.0,0.7,0.5235987755982988,-0.5235987755982988,0,-1.22518,1.3064153,-0.3104526,0.10358784,0.33390236,1.2634976,-0.8807868,1.3256121,1.0690417,0.12896208,0.19739261,-0.20550767,1.0656772,0.8076209
0.1,0.0,0.7,0.5235987755982988,-0.5235987755982988,0,-1.2227652,1.3370857,-0.30642465,0.10063325,0.33125535,1.2573891,-0.8630903,1.310494,1.0962152,0.13545994,0.19011468,-0.20578964,1.0770854,1.0340257
0.1,0.0,0.7,0.5235987755982988,-0.5235987755982988,0,-1.2222693,1.3275701,-0.3174022,0.10413374,0.32792768,1.2636617,-0.85748965,1.3485448,1.0695285,0.13608138,0.2053293,-0.21591073,1.055254,1.0113646
0.1,0.0,0.7,0.5235987755982988,-0.5235987755982988,0,-1.2220932,1.3417348,-0.3065424,0.102404974,0.32956266,1.2615535,-0.90388805,1.3693753,1.0636184,0.114207245,0.18505467,-0.2026812,1.0729836,0.88422185
0.1,0.0,0.7,0.5235987755982988,-0.5235987755982988,0,-1.2244276,1.3350956,-0.30677542,0.10340733,0.32881093,1.2554559,-0.89648956,1.3366451,1.0761951,0.09897851,0.19234426,-0.19391796,1.0520648,0.89014167
0.1,0.0,0.7,0.5235987755982988,-0.5235987755982988,0,-1.2183728,1.3347121,-0.3033382,0.09873334,0.32368797,1.2642986,-0.90013236,1.3013202,1.0684004,0.1349813,0.19891353,-0.18804473,1.0702549,0.7879928
0.1,0.0,0.7,0.5235987755982988,-0.5235987755982988,0,-1.2255731,1.334639,-0.31739137,0.10206956,0.33335048,1.2643515,-0.87154835,1.3305743,1.0745513,0.1283203,0.20156313,-0.20137377,1.0671554,0.91261446
0.1,0.0,0.7,0.5235987755982988,-0.5235987755982988,0,-1.2191287,1.3358419,-0.305265,0.10193199,0.32454658,1.2676208,-0.88914037,1.3108778,1.0684625,0.10122311,0.19992475,-0.18513872,1.0621327,0.832897
0.1,0.0,0.7,0.5235987755982988,-0.5235987755982988,0,-1.222538,1.3450719,-0.30576143,0.10252393,0.33769223,1.2651354,-0.8987799,1.329012,1.0857801,0.12124419,0.18895203,-0.18881772,1.0570074,0.77563506
0.1,0.0,0.7,0.5235987755982988,-0.5235987755982988,0,-1.2218705,1.3515371,-0.2940219,0.10132402,0.32580048,1.2604688,-0.8660625,1.3454386,1.0779467,0.124530874,0.18491967,-0.19953044,1.0673217,0.78470224
0.1,0.0,0.7,0.5235987755982988,-0.5235987755982988,0,-1.2200781,1.3378527,-0.30687043,0.102074526,0.33544275,1.2629565,-0.9019081,1.3243641,1.0742661,0.1055978,0.198472,-0.19661328,1.054758,0.9363005
0.1,0.0,0.7,0.5235987755982988,-0.5235987755982988,0,-1.2253441,1.3316183,-0.31240714,0.10238175,0.33042017,1.2662505,-0.8848289,1.3203658,1.0669571,0.12601376,0.20118985,-0.20850472,1.0521202,0.73516226
0.1,0.0,0.7,0.5235987755982988,-0.5235987755982988,0,-1.2232028,1.3354173,-0.30842823,0.10030673,0.34054464,1.2668941,-0.87895,1.3154212,1.085439,0.11896134,0.18454242,-0.1982678,1.0656645,0.9071245
0.1,0.0,0.7,0.5235987755982988,-0.5235987755982988,0,-1.2188991,1.3305424,-0.3117227,0.10158816,0.3317921,1.267062,-0.8632051,1.3265512,1.0606885,0.124390475,0.20346878,-0.21075286,1.0733615,0.9234117
0.1,0.0,0.7,0.5235987755982988,-0.5235987755982988,0,-1.2246557,1.3361952,-0.3069875,0.10107817,0.33012506,1.2595273,-0.8995194,1.3614542,1.0889763,0.12171463,0.19325948,-0.21728843,1.0629119,0.77898836
0.1,0.0,0.7,0.5235987755982988,-0.5235987755982988,0,-1.2291216,1.3349506,-0.309689,0.10265205,0.3185701,1.2659404,-0.88224345,1.356611,1.0786505,0.11982142,0.18301101,-0.20904209,1.0780663,0.9839413
0.1,0.0,0.7,0.5235987755982988,-0.5235987755982988,0,-1.2279451,1.3348944,-0.30554098,0.10273448,0.32998446,1.2622507,-0.87705123,1.345823,1.0851856,0.12053915,0.20175824,-0.1919942,1.0592427,0.80319995
0.1,0.0,0.7,0.5235987755982988,-0.5235987755982988,0,-1.220692,1.3336288,-0.30587795,0.10393483,0.32646197,1.2691275,-0.8493176,1.348877,1.0744717,0.12671825,0.18373631,-0.20538731,1.062369,0.8211095
0.1,0.0,0.7,0.5235987755982988,-0.5235987755982988,0,-1.2208828,1.3402206,-0.31052122,0.101387314,0.32759443,1.2660204,-0.8814538,1.3433021,1.0910006,0.112404086,0.19279866,-0.19407724,1.0702906,0.8982413
0.1,0.0,0.7,0.5235987755982988,-0.5235987755982988,0,-1.2230046,1.3330809,-0.30866838,0.10110689,0.3258257,1.2623365,-0.89805585,1.3587229,1.0764568,0.118878216,0.1958705,-0.2050606,1.0658,0.8952758
0.1,0.0,0.7,0.5235987755982988,-0.5235987755982988,0,-1.2266009,1.3400359,-0.3041934,0.10175164,0.3307191,1.2661978,-0.8632289,1.3283525,1.0652796,0.118642,0.19851552,-0.21885993,1.0745379,0.7418892
0.1,0.0,0.7,0.5235987755982988,-0.5235987755982988,0,-1.2241148,1.3381875,-0.3058387,0.10173537,0.3301627,1.264101,-0.89315134,1.333248,1.0964737,0.12754408,0.17338145,-0.18964785,1.0638554,0.7959256
0.1,0.0,0.7,0.5235987755982988,-0.5235987755982988,0,-1.2255311,1.3351989,-0.30579546,0.10294543,0.32811478,1.2660651,-0.9068157,1.3465759,1.0842853,0.11084653,0.198079,-0.19846818,1.0680615,1.0091785
0.1,0.0,0.7,0.5235987755982988,-0.5235987755982988,0,-1.2235192,1.3376504,-0.3166024,0.10188506,0.333063,1.2651396,-0.88587606,1.3495122,1.0702797,0.111243166,0.190049,-0.18075715,1.0707653,0.78123075
0.1,0.0,0.7,0.5235987755982988,-0.5235987755982988,0,-1.2261105,1.3408066,-0.3092424,0.10182524,0.33172485,1.2637562,-0.8912116,1.3136857,1.0818775,0.11866423,0.1927294,-0.20643577,1.0848527,0.8385245
0.1,0.0,0.7,0.5235987755982988,-0.5235987755982988,0,-1.227124,1.338887,-0.30355355,0.102616966,0.32594144,1.263372,-0.90609765,1.3276612,1.079604,0.12354587,0.19452149,-0.20734517,1.0636394,0.806233
0.1,0.0,0.7,0.5235987755982988,-0.5235987755982988,0,-1.2313563,1.3379192,-0.30768684,0.101559415,0.32549465,1.2669557,-0.8665946,1.3381678,1.0603878,0.12672834,0.19988875,-0.19707721,1.0731977,0.9349703
0.1,0.0,0.7,0.5235987755982988,-0.5235987755982988,0,-1.2283463,1.3350314,-0.3090462,0.10168633,0.33067152,1.2666389,-0.8885972,1.3435606,1.0748771,0.11917094,0.18804385,-0.20165502,1.0466101,0.8680634
0.1,0.0,0.7,0.5235987755982988,-0.5235987755982988,0,-1.2331289,1.333701,-0.30137798,0.10426998,0.3355055,1.2628028,-0.8691314,1.3345758,1.0968814,0.11845496,0.19611771,-0.18559396,1.0735804,0.9855686
0.1,0.0,0.7,0.5235987755982988,-0.5235987755982988,0,-1.2188581,1.3343508,-0.30742556,0.10093252,0.33184135,1.263528,-0.8894401,1.3274173,1.0715569,0.121215664,0.19631144,-0.20021784,1.0480475,0.8656354
