sanky1234/BimanualDexCatch/isaacgymenvs/cem_results/football_pose_-0.2_0.10000000000000003_0.6_0.5235987755982988_0.5235987755982988_0_2025-05-25.csv
x,y,z,roll,pitch,yaw,robot1/joint1,robot1/joint2,robot1/joint3,robot1/joint4,robot1/joint5,robot1/joint6,robot1/joint7,robot2/joint1,robot2/joint2,robot2/joint3,robot2/joint4,robot2/joint5,robot2/joint6,robot2/joint7
-0.2,0.10000000000000003,0.6,0.5235987755982988,0.5235987755982988,0,0.23506357,1.6123177,0.35546485,-0.4931047,0.15399425,1.1575005,-0.733201,-1.096129,1.434723,-0.014061594,-0.0938905,0.2333954,0.99695736,1.6874381
-0.2,0.10000000000000003,0.6,0.5235987755982988,0.5235987755982988,0,0.2455044,1.6140367,0.34492853,-0.49436074,0.16655022,1.1570622,-0.740111,-1.0821576,1.4488729,-0.018638818,-0.09170886,0.2601008,1.0070409,1.8342581
-0.2,0.10000000000000003,0.6,0.5235987755982988,0.5235987755982988,0,0.26508513,1.6123718,0.34947044,-0.49726018,0.16283853,1.1598328,-0.7464452,-1.0598192,1.4474914,-0.020333568,-0.08244244,0.24367028,0.94488806,1.7895299
-0.2,0.10000000000000003,0.6,0.5235987755982988,0.5235987755982988,0,0.25689474,1.6100762,0.34968638,-0.49200553,0.1623158,1.1547731,-0.7388168,-1.0393158,1.4346316,-0.01637258,-0.092619605,0.28088653,0.96855205,1.5887432
-0.2,0.10000000000000003,0.6,0.5235987755982988,0.5235987755982988,0,0.2504565,1.611179,0.3525347,-0.4931544,0.15039413,1.1557825,-0.7476766,-1.085706,1.4457841,-0.026345415,-0.090617955,0.25954717,0.98302966,1.6902958
-0.2,0.10000000000000003,0.6,0.5235987755982988,0.5235987755982988,0,0.2395792,1.6101286,0.3530157,-0.4942648,0.16019832,1.1636366,-0.76071215,-1.0384103,1.440887,-0.011386028,-0.06677878,0.2383424,1.0025822,1.6880679
-0.2,0.10000000000000003,0.6,0.5235987755982988,0.5235987755982988,0,0.24902138,1.6124387,0.35000327,-0.49355575,0.15753627,1.1587836,-0.7337381,-1.03296,1.4455653,-0.014684983,-0.08156003,0.2649545,0.96829677,1.7405894
-0.2,0.10000000000000003,0.6,0.5235987755982988,0.5235987755982988,0,0.26088798,1.6142668,0.34869525,-0.49567473,0.16475888,1.156527,-0.7187451,-1.0696361,1.4461229,-0.021810979,-0.09911989,0.2568976,0.9764036,1.6431355
-0.2,0.10000000000000003,0.6,0.5235987755982988,0.5235987755982988,0,0.25058267,1.6115363,0.35060328,-0.49228314,0.15807681,1.1563234,-0.73067904,-0.99990016,1.4345355,-0.008338888,-0.08595818,0.26323718,0.96030205,1.7139219
-0.2,0.10000000000000003,0.6,0.5235987755982988,0.5235987755982988,0,0.2510065,1.6125433,0.3485775,-0.49254414,0.15557767,1.1579653,-0.69088584,-1.0374273,1.4504873,-0.010424982,-0.07795789,0.26058105,0.9886886,1.8852265
-0.2,0.10000000000000003,0.6,0.5235987755982988,0.5235987755982988,0,0.25907966,1.6094157,0.35215175,-0.4934608,0.16066277,1.1565117,-0.7444451,-0.99246365,1.4451816,-0.018453447,-0.06919697,0.26041204,1.0035444,1.5147266
-0.2,0.10000000000000003,0.6,0.5235987755982988,0.5235987755982988,0,0.25580496,1.6114984,0.35141504,-0.49406898,0.16952945,1.1584753,-0.7617518,-1.0763175,1.4389695,-0.022285322,-0.074560344,0.24320056,0.9543607,1.6042092
-0.2,0.10000000000000003,0.6,0.5235987755982988,0.5235987755982988,0,0.26431954,1.6109073,0.34870207,-0.49574643,0.14523806,1.1548535,-0.7939943,-1.038961,1.446681,-0.01593747,-0.09592347,0.27283612,0.9418705,1.6377962
-0.2,0.10000000000000003,0.6,0.5235987755982988,0.5235987755982988,0,0.26138368,1.6128769,0.35545754,-0.49350914,0.16423988,1.1539135,-0.721485,-1.0474243,1.4423814,-0.016609557,-0.07092275,0.2644519,0.9795955,1.5917677
-0.2,0.10000000000000003,0.6,0.5235987755982988,0.5235987755982988,0,0.2629885,1.61433,0.3492596,-0.49441156,0.15578511,1.1520482,-0.7185666,-1.0646819,1.4557552,-0.017580086,-0.07464586,0.25196323,0.9555057,1.6838454
-0.2,0.10000000000000003,0.6,0.5235987755982988,0.5235987755982988,0,0.23614693,1.6126438,0.34912258,-0.49015224,0.16085385,1.1592797,-0.74446887,-1.106927,1.449321,-0.03438929,-0.078327686,0.2754198,0.9789246,1.6559433
-0.2,0.10000000000000003,0.6,0.5235987755982988,0.5235987755982988,0,0.24847473,1.612664,0.3513455,-0.49087366,0.15682457,1.1535385,-0.7316565,-1.0804756,1.4516953,-0.013536218,-0.08533716,0.26601645,0.9675598,1.5851892
-0.2,0.10000000000000003,0.6,0.5235987755982988,0.5235987755982988,0,0.24520911,1.6118724,0.34852263,-0.4927753,0.14842069,1.1579946,-0.7326274,-1.0258954,1.4410752,-0.011591571,-0.07598392,0.26091117,0.98149866,1.7381846
-0.2,0.10000000000000003,0.6,0.5235987755982988,0.5235987755982988,0,0.24887311,1.6113689,0.35075885,-0.4919221,0.16058959,1.1563715,-0.73907447,-1.0545512,1.4450207,-0.011133513,-0.0794827,0.25636864,0.98231584,1.6962734
-0.2,0.10000000000000003,0.6,0.5235987755982988,0.5235987755982988,0,0.23997942,1.6138428,0.354445,-0.49165484,0.14716111,1.157936,-0.7122549,-1.0227182,1.4440285,-0.022931915,-0.089958474,0.28245908,0.9796839,1.4338269
-0.2,0.10000000000000003,0.6,0.5235987755982988,0.5235987755982988,0,0.25990942,1.6114128,0.34856808,-0.49437642,0.15846172,1.1552414,-0.74919754,-1.0726105,1.449764,-0.014080698,-0.08748129,0.30475873,0.9873647,1.5949548
-0.2,0.10000000000000003,0.6,0.5235987755982988,0.5235987755982988,0,0.2590113,1.6118435,0.34837556,-0.49438438,0.1587792,1.1575873,-0.74488574,-1.0783498,1.4361906,-0.0057723452,-0.076246336,0.25214243,0.9475273,1.6638795
-0.2,0.10000000000000003,0.6,0.5235987755982988,0.5235987755982988,0,0.2506332,1.61435,0.34735855,-0.49478307,0.15171735,1.1563754,-0.753925,-1.0185553,1.4375023,-0.019779786,-0.060138766,0.25428888,0.9361827,1.8162149
-0.2,0.10000000000000003,0.6,0.5235987755982988,0.5235987755982988,0,0.255725,1.6134269,0.35237393,-0.49260008,0.16897936,1.1562173,-0.71392787,-1.0384388,1.4370692,-0.013212765,-0.06468406,0.2682679,0.98504597,1.5377078
-0.2,0.10000000000000003,0.6,0.5235987755982988,0.5235987755982988,0,0.25321937,1.6110522,0.3555117,-0.49572623,0.1479236,1.1594328,-0.7464482,-1.0377288,1.4382803,-0.0139758475,-0.07940012,0.23677145,0.9856612,1.7270867
-0.2,0.10000000000000003,0.6,0.5235987755982988,0.5235987755982988,0,0.2514462,1.6085303,0.35293877,-0.49469566,0.15588503,1.1582203,-0.72276074,-1.0539564,1.4485672,0.0008680383,-0.078153305,0.23171888,0.9972898,1.7783067
-0.2,0.10000000000000003,0.6,0.5235987755982988,0.5235987755982988,0,0.25052845,1.6118602,0.34571126,-0.49109203,0.152084,1.1528001,-0.7267428,-1.0682662,1.425789,-0.02625822,-0.07639898,0.2599857,0.9762329,1.7759967
-0.2,0.10000000000000003,0.6,0.5235987755982988,0.5235987755982988,0,0.23867267,1.6125314,0.35372123,-0.49100488,0.16723429,1.1590723,-0.76815706,-1.0275677,1.4440603,-0.01747517,-0.0864304,0.23783758,0.97118336,1.8770964
-0.2,0.10000000000000003,0.6,0.5235987755982988,0.5235987755982988,0,0.24580014,1.6111412,0.35457695,-0.49407935,0.14395256,1.1602215,-0.75125396,-1.0774851,1.4463271,-0.021289714,-0.07397142,0.26257583,0.9874175,1.9410338
-0.2,0.10000000000000003,0.6,0.5235987755982988,0.5235987755982988,0,0.26154572,1.6115657,0.35469714,-0.4943547,0.16102634,1.1568928,-0.7214989,-1.0735873,1.4391295,-0.032170497,-0.078067206,0.28249344,1.0094683,1.4758316
-0.2,0.10000000000000003,0.6,0.5235987755982988,0.5235987755982988,0,0.2702759,1.6130657,0.3525432,-0.49733934,0.15425009,1.1582137,-0.6767295,-1.0051134,1.4463333,-0.02118115,-0.08202846,0.2527975,0.99168795,1.9205534
-0.2,0.10000000000000003,0.6,0.5235987755982988,0.5235987755982988,0,0.25657582,1.6129274,0.354204,-0.4966266,0.14965956,1.1586397,-0.764887,-1.0103164,1.4422133,-0.023036378,-0.08071923,0.23976429,0.95846313,1.6337825
-0.2,0.10000000000000003,0.6,0.5235987755982988,0.5235987755982988,0,0.25176302,1.6099854,0.35090524,-0.4913863,0.16018766,1.155935,-0.7247647,-1.0358986,1.4472578,-0.011061441,-0.08920551,0.24215308,0.9820712,1.4976234
-0.2,0.10000000000000003,0.6,0.5235987755982988,0.5235987755982988,0,0.26315883,1.6111814,0.35224319,-0.4928583,0.15915476,1.1523405,-0.7451435,-1.0780146,1.4465387,-0.004392406,-0.08697368,0.28675488,0.9839558,1.8659035
-0.2,0.10000000000000003,0.6,0.5235987755982988,0.5235987755982988,0,0.24960908,1.6143776,0.35134682,-0.49332452,0.15374199,1.1554217,-0.7414875,-1.0780277,1.4305626,-0.010073075,-0.07687008,0.24733017,1.0103688,1.6834021
-0.2,0.10000000000000003,0.6,0.5235987755982988,0.5235987755982988,0,0.254974,1.6118945,0.35409734,-0.49497068,0.15540096,1.1589555,-0.719557,-1.05115,1.4511529,-0.011228586,-0.07315588,0.24872042,1.0262719,1.6963859
-0.2,0.10000000000000003,0.6,0.5235987755982988,0.5235987755982988,0,0.25984326,1.6149127,0.35328162,-0.49416405,0.15795155,1.1513542,-0.75083786,-1.0645734,1.4434773,-0.022727463,-0.07462275,0.25323004,0.99818116,1.7601234
-0.2,0.10000000000000003,0.6,0.5235987755982988,0.5235987755982988,0,0.25393742,1.610955,0.35208556,-0.49331045,0.14874476,1.1553694,-0.7521964,-1.0339352,1.4442887,-0.0221044,-0.07620862,0.23898302,0.96563363,1.7981237
-0.2,0.10000000000000003,0.6,0.5235987755982988,0.5235987755982988,0,0.2553146,1.6072363,0.34814355,-0.49414873,0.1508971,1.1608336,-0.79343534,-1.0401618,1.4332292,-0.006635221,-0.07760025,0.28063223,0.9583824,1.632354
-0.2,0.10000000000000003,0.6,0.5235987755982988,0.5235987755982988,0,0.25022098,1.6113482,0.35131487,-0.48991507,0.15406695,1.154664,-0.6930241,-1.0685582,1.4444238,-0.015314226,-0.07111637,0.24705572,0.97946274,1.5610443
-0.2,0.10000000000000003,0.6,0.5235987755982988,0.5235987755982988,0,0.25112873,1.6094738,0.34811333,-0.49162236,0.15633641,1.1561058,-0.76789284,-1.0167124,1.4509805,0.0022844425,-0.071955085,0.2544118,0.95384383,1.655265
-0.2,0.10000000000000003,0.6,0.5235987755982988,0.5235987755982988,0,0.24085996,1.6107907,0.35168895,-0.490793,0.15243207,1.1546297,-0.6985006,-1.08921,1.4419409,-0.0143959075,-0.09674575,0.2548336,0.96217996,1.3947101
-0.2,0.10000000000000003,0.6,0.5235987755982988,0.5235987755982988,0,0.2552178,1.6133338,0.35918057,-0.492216,0.16380157,1.1557121,-0.7273837,-1.0521284,1.4412416,-0.016522197,-0.09876065,0.2522742,0.9687169,1.7967206
-0.2,0.10000000000000003,0.6,0.5235987755982988,0.5235987755982988,0,0.24844822,1.6118649,0.3515753,-0.48895922,0.15616117,1.1529582,-0.7182078,-1.043756,1.4526442,-0.015071786,-0.08389868,0.2702953,0.9641753,1.7383766
-0.2,0.10000000000000003,0.6,0.5235987755982988,0.5235987755982988,0,0.2589381,1.6137722,0.34818855,-0.49500996,0.15870972,1.1573541,-0.7217269,-1.0276625,1.4424642,-0.0003371759,-0.060763206,0.2399239,0.998651,1.6341257
-0.2,0.10000000000000003,0.6,0.5235987755982988,0.5235987755982988,0,0.24406841,1.6097217,0.35157278,-0.48998743,0.15129302,1.1589878,-0.7139862,-1.0598781,1.4444509,-0.020034837,-0.073545836,0.2802148,0.9816642,1.6229663
-0.2,0.10000000000000003,0.6,0.5235987755982988,0.5235987755982988,0,0.25273228,1.6137465,0.34957722,-0.49410474,0.14985374,1.15727,-0.7345082,-1.0536737,1.4357564,-0.006052551,-0.05989466,0.26588994,0.9458221,1.5244716
-0.2,0.10000000000000003,0.6,0.5235987755982988,0.5235987755982988,0,0.251547,1.609878,0.35706618,-0.49146,0.15791161,1.1566197,-0.7484522,-1.0710803,1.4459211,-0.02611765,-0.08267291,0.24840686,0.9914681,1.7301904
-0.2,0.10000000000000003,0.6,0.5235987755982988,0.5235987755982988,0,0.25338584,1.609364,0.3492706,-0.4915661,0.16441058,1.1571383,-0.75753486,-1.0833173,1.4384223,-0.027789455,-0.0731079,0.26973668,0.9635441,1.6651947
-0.2,0.10000000000000003,0.6,0.5235987755982988,0.5235987755982988,0,0.25605094,1.6115235,0.34745052,-0.4942369,0.15579797,1.1562897,-0.74373823,-1.097913,1.4339457,-0.020466585,-0.0812864,0.2468877,0.9943532,1.813534
-0.2,0.10000000000000003,0.6,0.5235987755982988,0.5235987755982988,0,0.26342237,1.6108077,0.35442907,-0.4959557,0.1574819,1.1576874,-0.7606908,-1.047075,1.4372888,-0.007379238,-0.0848208,0.24603637,1.0044793,1.7123859
-0.2,0.10000000000000003,0.6,0.5235987755982988,0.5235987755982988,0,0.25577745,1.614573,0.35621983,-0.49382934,0.16131608,1.1563839,-0.73250645,-1.0180176,1.4547178,-0.011417468,-0.08469734,0.25915915,0.97566706,1.7830848
-0.2,0.10000000000000003,0.6,0.5235987755982988,0.5235987755982988,0,0.26230386,1.6129346,0.346047,-0.49466655,0.1686672,1.1558475,-0.7428996,-1.0257517,1.4449577,-0.013072823,-0.06650995,0.23661968,0.97021896,1.645346
-0.2,0.10000000000000003,0.6,0.5235987755982988,0.5235987755982988,0,0.2510732,1.6128736,0.3526841,-0.49350494,0.15008318,1.1572331,-0.76075864,-1.0456522,1.4528893,-0.021486942,-0.0898559,0.24461135,0.9349241,1.7237505
-0.2,0.10000000000000003,0.6,0.5235987755982988,0.5235987755982988,0,0.26095226,1.6089083,0.35221618,-0.49389026,0.15113337,1.1570425,-0.74290645,-1.0317177,1.447277,-0.024083799,-0.07213658,0.22954327,0.98699546,1.658012
-0.2,0.10000000000000003,0.6,0.5235987755982988,0.5235987755982988,0,0.24864168,1.6125386,0.35495484,-0.49256402,0.15519188,1.1584475,-0.73752123,-1.0308794,1.4443866,0.0027117524,-0.07506294,0.26464975,0.96035063,1.7559662
-0.2,0.10000000000000003,0.6,0.5235987755982988,0.5235987755982988,0,0.25023913,1.6133965,0.35064927,-0.49417683,0.15228058,1.1594831,-0.7195647,-1.0907563,1.4578333,-0.017903479,-0.09076434,0.225833,1.0071102,1.6580478
-0.2,0.10000000000000003,0.6,0.5235987755982988,0.5235987755982988,0,0.25181144,1.6119103,0.34950796,-0.4926513,0.1497044,1.1541923,-0.7531811,-1.0451294,1.4510458,-0.004092896,-0.07013157,0.23815666,0.98749137,1.5387481
-0.2,0.10000000000000003,0.6,0.5235987755982988,0.5235987755982988,0,0.24304037,1.6096551,0.3515721,-0.48953134,0.15041953,1.154617,-0.7770408,-0.9955363,1.4446864,-0.016253326,-0.06796382,0.27363375,0.97926575,1.9093146
-0.2,0.10000000000000003,0.6,0.5235987755982988,0.5235987755982988,0,0.26804045,1.612079,0.34711108,-0.49300218,0.16487254,1.154421,-0.7039262,-1.0250139,1.4495628,-0.006591628,-0.072815605,0.2379166,0.9214958,1.7348619
-0.2,0.10000000000000003,0.6,0.5235987755982988,0.5235987755982988,0,0.2538198,1.6094261,0.35180357,-0.49106804,0.15534803,1.1581824,-0.713864,-1.0638319,1.4454595,-0.013904137,-0.08704373,0.28322378,0.9641853,1.8114642
-0.2,0.10000000000000003,0.6,0.5235987755982988,0.5235987755982988,0,0.26136327,1.6121387,0.3474096,-0.49534944,0.15571389,1.1562436,-0.7413055,-1.03345,1.4270276,-0.0041725216,-0.086021475,0.22217973,0.98670155,1.789051
-0.2,0.10000000000000003,0.6,0.5235987755982988,0.5235987755982988,0,0.25836462,1.6124127,0.34480646,-0.4954171,0.14752555,1.1571958,-0.7130824,-1.0548481,1.4349412,-0.022832232,-0.07001215,0.23584363,1.0009625,1.6393255
-0.2,0.10000000000000003,0.6,0.5235987755982988,0.5235987755982988,0,0.2658983,1.6126306,0.35354045,-0.49490002,0.1619067,1.1542913,-0.74302804,-1.0298294,1.4514599,-0.0042312397,-0.07565964,0.25315484,0.99069,1.8318646
-0.2,0.10000000000000003,0.6,0.5235987755982988,0.5235987755982988,0,0.26068577,1.6121254,0.3542008,-0.4940048,0.1677233,1.1558168,-0.7586801,-1.0626909,1.444472,-0.033213288,-0.087932795,0.2475951,0.99793535,1.7051528
-0.2,0.10000000000000003,0.6,0.5235987755982988,0.5235987755982988,0,0.26205984,1.6096543,0.3496301,-0.49296007,0.16073933,1.1564977,-0.7368661,-1.0878159,1.4413847,-0.017291537,-0.066443525,0.27322114,0.99224997,1.6318393
-0.2,0.10000000000000003,0.6,0.5235987755982988,0.5235987755982988,0,0.2548498,1.6136736,0.35228184,-0.49551624,0.16042952,1.153377,-0.7143665,-1.0197351,1.4385349,-0.015719954,-0.089425944,0.2815081,0.98282045,1.7010756
-0.2,0.10000000000000003,0.6,0.5235987755982988,0.5235987755982988,0,0.25127208,1.613125,0.34844005,-0.491971,0.16570115,1.1588954,-0.7029577,-1.0635122,1.4551691,-0.016383434,-0.07119746,0.24972585,0.9788665,1.6186931
-0.2,0.10000000000000003,0.6,0.5235987755982988,0.5235987755982988,0,0.24533571,1.6100503,0.35295385,-0.48930874,0.15183158,1.1524608,-0.7736572,-1.0478916,1.4447099,-0.010782148,-0.08883511,0.27395025,0.9957067,1.588507
-0.2,0.10000000000000003,0.6,0.5235987755982988,0.5235987755982988,0,0.2686511,1.6132563,0.352155,-0.4960121,0.16119997,1.1551062,-0.73096967,-1.0758486,1.4536382,-0.028716236,-0.06426836,0.26087567,0.9771839,1.5921758
-0.2,0.10000000000000003,0.6,0.5235987755982988,0.5235987755982988,0,0.26146314,1.6135932,0.35056308,-0.49492693,0.16181318,1.1556123,-0.72984505,-1.0641648,1.4370309,-0.032386877,-0.07433732,0.2658863,1.0136156,1.7791008
-0.2,0.10000000000000003,0.6,0.5235987755982988,0.5235987755982988,0,0.25393984,1.6110687,0.3531359,-0.49204776,0.14882869,1.1540008,-0.7446484,-1.0754035,1.4372221,-0.018088704,-0.08995134,0.26492757,0.9858175,1.5963069
-0.2,0.10000000000000003,0.6,0.5235987755982988,0.5235987755982988,0,0.22352429,1.6114391,0.34975687,-0.49007925,0.14480583,1.1567664,-0.7158902,-1.0770241,1.4410839,-0.02918407,-0.0814336,0.25677577,0.9435375,1.6996645
-0.2,0.10000000000000003,0.6,0.5235987755982988,0.5235987755982988,0,0.25717804,1.610784,0.34925848,-0.49202496,0.1597494,1.1564747,-0.722691,-1.0575354,1.4386803,-0.013869121,-0.07524201,0.24891335,0.9775947,1.6724412
-0.2,0.10000000000000003,0.6,0.5235987755982988,0.5235987755982988,0,0.257038,1.610397,0.35099086,-0.49446917,0.14991236,1.1572082,-0.769392,-1.0487607,1.4511433,-0.0040932717,-0.0794206,0.24786146,0.9982449,1.7683027
-0.2,0.10000000000000003,0.6,0.5235987755982988,0.5235987755982988,0,0.2635921,1.6089102,0.35629708,-0.49487326,0.15912251,1.1574258,-0.7899225,-1.0236571,1.45771,-0.008929686,-0.08117846,0.2696548,1.0177394,1.7993591
-0.2,0.10000000000000003,0.6,0.5235987755982988,0.5235987755982988,0,0.26043564,1.6109558,0.35354006,-0.49300852,0.15950775,1.157218,-0.72020274,-1.0332814,1.4529902,-0.031578884,-0.07557152,0.25849414,0.96206987,1.4916073
-0.2,0.10000000000000003,0.6,0.5235987755982988,0.5235987755982988,0,0.23890805,1.614159,0.35669908,-0.4951232,0.15815124,1.159156,-0.7438719,-1.1087831,1.4535792,-0.0047381124,-0.07955392,0.25627217,0.98687875,1.4991463
-0.2,0.10000000000000003,0.6,0.5235987755982988,0.5235987755982988,0,0.25486204,1.6128709,0.34919366,-0.49153477,0.15329136,1.1511497,-0.74271816,-1.0479262,1.4430598,-0.017583631,-0.07345165,0.2520421,0.9893457,1.7808875
-0.2,0.10000000000000003,0.6,0.5235987755982988,0.5235987755982988,0,0.23992784,1.6146872,0.3503058,-0.4881426,0.15892203,1.1551971,-0.70173156,-1.0668683,1.4427469,-0.020268992,-0.090952866,0.24251297,0.94179684,1.7472107
-0.2,0.10000000000000003,0.6,0.5235987755982988,0.5235987755982988,0,0.26613256,1.6093013,0.3577643,-0.49306613,0.16258417,1.1549201,-0.7537778,-1.0341505,1.4366438,-0.015894536,-0.082093,0.25501657,0.9933805,1.669065
-0.2,0.10000000000000003,0.6,0.5235987755982988,0.5235987755982988,0,0.26231062,1.6118755,0.34983587,-0.49484912,0.15623099,1.1557486,-0.75625116,-1.0169196,1.4407977,-0.0019562175,-0.082305446,0.26005155,1.0041614,1.6087102
-0.2,0.10000000000000003,0.6,0.5235987755982988,0.5235987755982988,0,0.2565799,1.6133026,0.3531875,-0.49600074,0.15518057,1.1599705,-0.7490029,-1.0470104,1.4470605,-0.015729977,-0.07721534,0.23644003,1.0014755,1.8175467
-0.2,0.10000000000000003,0.6,0.5235987755982988,0.5235987755982988,0,0.2518862,1.6143522,0.34998024,-0.49380547,0.16177888,1.1563869,-0.75899297,-1.0420983,1.4377279,-0.019799462,-0.08218573,0.25908634,0.98938096,1.6857619
-0.2,0.10000000000000003,0.6,0.5235987755982988,0.5235987755982988,0,0.26733324,1.6130614,0.34998325,-0.4953456,0.1530087,1.1548771,-0.70870477,-1.0532302,1.4318101,-0.010981936,-0.07976596,0.24361472,0.97664464,1.7171811
-0.2,0.10000000000000003,0.6,0.5235987755982988,0.5235987755982988,0,0.25691295,1.6128024,0.35309732,-0.4979147,0.15751696,1.1555605,-0.764408,-1.0360622,1.4466563,-0.024220183,-0.09078507,0.24779527,0.97242516,1.8256851
-0.2,0.10000000000000003,0.6,0.5235987755982988,0.5235987755982988,0,0.24696197,1.6096144,0.35513973,-0.4902237,0.15585539,1.1606947,-0.7171598,-1.0642428,1.4341141,-0.0056132,-0.06755326,0.29578397,0.9784502,1.6919384
-0.2,0.10000000000000003,0.6,0.5235987755982988,0.5235987755982988,0,0.2646309,1.6112078,0.34923658,-0.4930313,0.15612997,1.1562582,-0.70517987,-1.0428046,1.4512602,-0.018516164,-0.08086178,0.22797862,0.9381941,1.6737673
-0.2,0.10000000000000003,0.6,0.5235987755982988,0.5235987755982988,0,0.2535004,1.6133823,0.34884682,-0.4914686,0.17037956,1.1551327,-0.73776394,-1.0505168,1.4348904,-0.019717438,-0.06898022,0.26237255,0.97879666,1.4828916
-0.2,0.10000000000000003,0.6,0.5235987755982988,0.5235987755982988,0,0.25221932,1.6121904,0.34945238,-0.49139398,0.15845892,1.154576,-0.743342,-1.0529187,1.4247972,-0.009477732,-0.078608915,0.27145824,0.9797664,1.810954
-0.2,0.10000000000000003,0.6,0.5235987755982988,0.5235987755982988,0,0.25436032,1.6113489,0.35437748,-0.49283618,0.14418119,1.1556872,-0.74639255,-1.0480164,1.4426136,-0.021423712,-0.067064784,0.25622135,0.970334,1.6639788
-0.2,0.10000000000000003,0.6,0.5235987755982988,0.5235987755982988,0,0.2501705,1.6110829,0.35026076,-0.4936869,0.1526902,1.1615574,-0.7559823,-1.0640109,1.4436618,-0.009452498,-0.07455171,0.27696875,0.9732326,1.7671475
-0.2,0.10000000000000003,0.6,0.5235987755982988,0.5235987755982988,0,0.24543022,1.6099608,0.35136774,-0.49087748,0.15343025,1.1619214,-0.7369869,-1.0663315,1.4565619,0.0038682735,-0.07665331,0.2670183,0.94010556,1.781658
-0.2,0.10000000000000003,0.6,0.5235987755982988,0.5235987755982988,0,0.24192248,1.6147332,0.35239333,-0.49078313,0.15932408,1.156938,-0.74446416,-1.0229,1.4429674,-0.017678952,-0.0871707,0.28415605,0.97204703,1.8741492
-0.2,0.10000000000000003,0.6,0.5235987755982988,0.5235987755982988,0,0.26516017,1.6117405,0.35137412,-0.49574307,0.15393843,1.1572934,-0.73804504,-1.0373971,1.4430248,-0.028266776,-0.067165405,0.2546137,0.96968323,1.8549535
-0.2,0.10000000000000003,0.6,0.5235987755982988,0.5235987755982988,0,0.24424814,1.6101273,0.34779665,-0.4912075,0.144904,1.160603,-0.7279938,-1.0245255,1.4506865,0.003432659,-0.07683122,0.28467545,0.98406357,1.759787
-0.2,0.10000000000000003,0.6,0.5235987755982988,0.5235987755982988,0,0.25108933,1.61176,0.35267577,-0.49059185,0.15540545,1.1570678,-0.7023413,-1.0343473,1.4450668,-0.013736311,-0.08483675,0.27083546,0.98321056,1.8055056
-0.2,0.10000000000000003,0.6,0.5235987755982988,0.5235987755982988,0,0.25582042,1.6103033,0.35302374,-0.49268004,0.16012092,1.1583408,-0.7427684,-1.0658896,1.4522152,-0.01636347,-0.10104728,0.27459136,1.0210876,1.696349
-0.2,0.10000000000000003,0.6,0.5235987755982988,0.5235987755982988,0,0.2574737,1.6111342,0.35255775,-0.491936,0.1611107,1.1548254,-0.74203295,-1.0573801,1.4404144,-0.037991613,-0.087563045,0.2658226,1.0057275,1.5521947
-0.2,0.10000000000000003,0.6,0.5235987755982988,0.5235987755982988,0,0.2411648,1.6129698,0.34581062,-0.4885063,0.15529318,1.1560841,-0.7133751,-1.0466256,1.4457979,-0.026649958,-0.08528088,0.27704644,0.95542735,1.7891723
-0.2,0.10000000000000003,0.6,0.5235987755982988,0.5235987755982988,0,0.26158005,1.6107244,0.34884593,-0.49267906,0.15816545,1.1568266,-0.7178898,-1.0581172,1.4515792,-0.021533584,-0.084272586,0.25369707,0.97212213,1.7360357
-0.2,0.10000000000000003,0.6,0.5235987755982988,0.5235987755982988,0,0.26204753,1.6119552,0.35225737,-0.49587178,0.14572676,1.1586411,-0.72903854,-1.0785811,1.4397264,-0.007989627,-0.088373974,0.27819327,0.9534719,1.8475311
-0.2,0.10000000000000003,0.6,0.5235987755982988,0.5235987755982988,0,0.24808675,1.6125019,0.34630924,-0.49184316,0.15244322,1.1560917,-0.74768937,-1.0155377,1.45379,-0.02344685,-0.07494813,0.2859825,1.0116651,1.5377828
-0.2,0.10000000000000003,0.6,0.5235987755982988,0.5235987755982988,0,0.24645329,1.6125407,0.34743008,-0.49155763,0.15173008,1.1563909,-0.7462771,-1.0485501,1.4454966,-0.0046952083,-0.077201754,0.2720524,0.99087775,1.9052986
-0.2,0.10000000000000003,0.6,0.5235987755982988,0.5235987755982988,0,0.24337906,1.6078993,0.35397094,-0.4895359,0.15631877,1.1604632,-0.75734144,-1.0522646,1.45217,-0.00024784618,-0.07078377,0.26549923,1.0001745,1.504176
-0.2,0.10000000000000003,0.6,0.5235987755982988,0.5235987755982988,0,0.26913705,1.6103989,0.34790826,-0.49357304,0.15551911,1.1548837,-0.70939934,-1.0215356,1.4549294,-0.026169546,-0.092733234,0.26473406,0.9688146,1.5617744
-0.2,0.10000000000000003,0.6,0.5235987755982988,0.5235987755982988,0,0.25191417,1.6130182,0.34679592,-0.49317715,0.15361165,1.1568097,-0.75378984,-1.0862656,1.4425305,-0.025965372,-0.0733988,0.25537226,0.9674701,1.7400125
-0.2,0.10000000000000003,0.6,0.5235987755982988,0.5235987755982988,0,0.2539821,1.6101773,0.35205814,-0.4924893,0.16466974,1.1586878,-0.77064043,-1.0754733,1.4457667,-0.008397725,-0.07113144,0.27129188,0.99269754,1.7232393
-0.2,0.10000000000000003,0.6,0.5235987755982988,0.5235987755982988,0,0.24849458,1.613241,0.3472159,-0.49305397,0.15751296,1.1573919,-0.7831214,-1.0431408,1.4465697,-0.019125624,-0.095803455,0.25026622,0.9599944,1.6474944
-0.2,0.10000000000000003,0.6,0.5235987755982988,0.5235987755982988,0,0.2615705,1.610406,0.35267386,-0.49197373,0.15617433,1.1542821,-0.7220865,-1.0174384,1.4377421,-0.015304913,-0.079339996,0.26844847,1.0354711,1.7446553
-0.2,0.10000000000000003,0.6,0.5235987755982988,0.5235987755982988,0,0.25072467,1.6126131,0.35562602,-0.49406826,0.1539386,1.1609039,-0.74759716,-1.0560199,1.4465604,-0.012243177,-0.08884235,0.23548853,0.99629617,1.6575114
-0.2,0.10000000000000003,0.6,0.5235987755982988,0.5235987755982988,0,0.2533438,1.6117846,0.35297394,-0.49100626,0.15749985,1.1566743,-0.7289255,-1.0638452,1.4502202,-0.038309436,-0.07374894,0.24727866,0.95021486,1.6813232
-0.2,0.10000000000000003,0.6,0.5235987755982988,0.5235987755982988,0,0.25711343,1.6099702,0.35386512,-0.49366513,0.16132629,1.1603218,-0.78052706,-1.0856588,1.4416081,-0.018550508,-0.07978999,0.27695546,0.9540032,1.5262958
-0.2,0.10000000000000003,0.6,0.5235987755982988,0.5235987755982988,0,0.27434266,1.611413,0.34375823,-0.49541938,0.15991649,1.156629,-0.6999706,-1.087271,1.4262383,-0.015384713,-0.08175798,0.26079437,0.9819888,1.7442746
-0.2,0.10000000000000003,0.6,0.5235987755982988,0.5235987755982988,0,0.25838715,1.6119827,0.35045093,-0.49714348,0.14630571,1.1643659,-0.72165126,-1.0044972,1.4327995,-0.022496149,-0.09504198,0.28912348,0.9644765,1.5621943
-0.2,0.10000000000000003,0.6,0.5235987755982988,0.5235987755982988,0,0.26035985,1.6082796,0.35071653,-0.49020848,0.15961051,1.1571206,-0.71098536,-1.0803685,1.4388516,-0.028095895,-0.10013209,0.2576818,0.9706332,1.8492749
-0.2,0.10000000000000003,0.6,0.5235987755982988,0.5235987755982988,0,0.26036417,1.6126691,0.35132682,-0.49314186,0.16448992,1.1546856,-0.7555303,-1.0653374,1.4503417,-0.023578644,-0.08541541,0.23994616,0.98324627,1.6629696
-0.2,0.10000000000000003,0.6,0.5235987755982988,0.5235987755982988,0,0.25049764,1.611688,0.3500354,-0.4902705,0.15378161,1.1562653,-0.701788,-1.0790231,1.4520224,-0.008207057,-0.08256043,0.25222313,1.0091281,1.7288647
-0.2,0.10000000000000003,0.6,0.5235987755982988,0.5235987755982988,0,0.2509091,1.6130382,0.3488331,-0.4912907,0.14869536,1.1549258,-0.72651446,-1.005706,1.4489712,-0.013166279,-0.078932926,0.29772958,0.9829932,1.4967883
-0.2,0.10000000000000003,0.6,0.5235987755982988,0.5235987755982988,0,0.25636116,1.6129085,0.34992397,-0.49207875,0.15845606,1.1536623,-0.7613141,-1.090862,1.4557633,-0.012419947,-0.08748707,0.25167868,0.9553633,1.7988982
-0.2,0.10000000000000003,0.6,0.5235987755982988,0.5235987755982988,0,0.2544449,1.6133404,0.35426316,-0.49504074,0.15474363,1.1620103,-0.7250082,-1.0702579,1.438702,-0.01846607,-0.084923826,0.2546597,0.98853076,1.866944
-0.2,0.10000000000000003,0.6,0.5235987755982988,0.5235987755982988,0,0.24396987,1.6142427,0.35078394,-0.49176818,0.15162617,1.1561247,-0.74441,-1.0528646,1.445585,-0.018377056,-0.075584196,0.22391602,0.9963024,1.8538537
-0.2,0.10000000000000003,0.6,0.5235987755982988,0.5235987755982988,0,0.25698504,1.6111002,0.3537804,-0.49227858,0.15876752,1.1561552,-0.7594485,-1.0579996,1.446867,-0.008226167,-0.06562586,0.25192505,0.95793986,1.5580983
-0.2,0.10000000000000003,0.6,0.5235987755982988,0.5235987755982988,0,0.22480126,1.6094404,0.3519131,-0.4930844,0.14829724,1.155851,-0.73677,-1.0444981,1.4431386,-0.018585889,-0.082189426,0.2465832,0.9611249,1.7508752
-0.2,0.10000000000000003,0.6,0.5235987755982988,0.5235987755982988,0,0.27055576,1.6156865,0.35477692,-0.49664348,0.155876,1.1523067,-0.7104758,-1.0370829,1.4540396,-0.0020741562,-0.067281164,0.24269904,1.0084666,1.6796314
-0.2,0.10000000000000003,0.6,0.5235987755982988,0.5235987755982988,0,0.24423833,1.6130797,0.3535108,-0.49235812,0.1648801,1.1644189,-0.73728293,-1.0787983,1.4445323,-0.016396679,-0.06259723,0.27101573,0.9508059,1.7274061
-0.2,0.10000000000000003,0.6,0.5235987755982988,0.5235987755982988,0,0.2593654,1.6110613,0.35134083,-0.49235058,0.16707455,1.1577433,-0.73815703,-1.0646582,1.4476643,-0.0075306273,-0.087780975,0.2973311,0.9994366,1.4909326
-0.2,0.10000000000000003,0.6,0.5235987755982988,0.5235987755982988,0,0.24845827,1.6130224,0.34338674,-0.4908593,0.15668362,1.1586661,-0.6953301,-1.0523436,1.445007,-0.010163897,-0.07157474,0.26318207,0.98259115,1.7261317
-0.2,0.10000000000000003,0.6,0.5235987755982988,0.5235987755982988,0,0.25750393,1.6107676,0.3570452,-0.4949869,0.1385995,1.1583626,-0.7635778,-1.0385946,1.4535589,-0.0064798966,-0.078568704,0.25909847,0.96047544,1.839576
-0.2,0.10000000000000003,0.6,0.5235987755982988,0.5235987755982988,0,0.26494122,1.6110216,0.355804,-0.49665678,0.1565555,1.1609092,-0.76063627,-1.0650429,1.4407871,-0.0026546153,-0.07937832,0.25966904,0.99334127,1.619388
-0.2,0.10000000000000003,0.6,0.5235987755982988,0.5235987755982988,0,0.24565439,1.614573,0.35007408,-0.49134085,0.15454626,1.156539,-0.7323632,-1.1103435,1.4527117,-0.020052891,-0.08387066,0.25456396,0.96117634,1.6597188
-0.2,0.10000000000000003,0.6,0.5235987755982988,0.5235987755982988,0,0.25755,1.6125671,0.3483529,-0.4928958,0.15080994,1.1544259,-0.75747067,-1.0817325,1.4439617,-0.013752883,-0.08248716,0.27216735,0.9841242,1.734357
-0.2,0.10000000000000003,0.6,0.5235987755982988,0.5235987755982988,0,0.24754252,1.61277,0.35531238,-0.49108198,0.1446105,1.1547738,-0.7469249,-1.0429639,1.4417557,-0.012844852,-0.08608094,0.26175418,1.0021905,1.699331
-0.2,0.10000000000000003,0.6,0.5235987755982988,0.5235987755982988,0,0.2531013,1.6129793,0.3556168,-0.49031293,0.16399099,1.1550668,-0.72853625,-1.0407914,1.4452697,-0.020392872,-0.07150389,0.26016945,0.9680158,1.7443532
-0.2,0.10000000000000003,0.6,0.5235987755982988,0.5235987755982988,0,0.24970616,1.6140666,0.35092294,-0.491311,0.15537585,1.1572667,-0.7045443,-1.048169,1.4361051,-0.017462345,-0.08142707,0.26068586,0.9736677,1.6677117
-0.2,0.10000000000000003,0.6,0.5235987755982988,0.5235987755982988,0,0.25150773,1.6120028,0.34731275,-0.4928069,0.14965709,1.157517,-0.7543544,-1.0587713,1.4495524,-0.0011616538,-0.069533624,0.26156795,1.0161325,1.4631828
-0.2,0.10000000000000003,0.6,0.5235987755982988,0.5235987755982988,0,0.251862,1.6115971,0.35620305,-0.4943278,0.16174455,1.159791,-0.7139669,-1.0336981,1.4412341,-0.034484327,-0.07440464,0.2722798,1.0024676,1.5503905
-0.2,0.10000000000000003,0.6,0.5235987755982988,0.5235987755982988,0,0.25824004,1.6126082,0.35112482,-0.49357724,0.14925703,1.1549574,-0.76047933,-1.049721,1.461137,-0.0073027606,-0.06790157,0.24759409,0.98005533,1.9173068
-0.2,0.10000000000000003,0.6,0.5235987755982988,0.5235987755982988,0,0.24967109,1.6137197,0.34735686,-0.49265096,0.14642492,1.1572555,-0.74364424,-1.0769422,1.4437068,-0.0123191895,-0.0858168,0.26192242,0.9587489,1.7373059
-0.2,0.10000000000000003,0.6,0.5235987755982988,0.5235987755982988,0,0.259074,1.6101961,0.3508996,-0.49269435,0.1499518,1.1566688,-0.7606116,-1.0463922,1.43967,-0.023584267,-0.08845516,0.2595826,0.96243966,1.4661878
-0.2,0.10000000000000003,0.6,0.5235987755982988,0.5235987755982988,0,0.23782225,1.612186,0.35137078,-0.4887127,0.15409634,1.1568372,-0.75642645,-1.0470707,1.4441158,-0.013572696,-0.06747468,0.24049002,0.9860645,1.6646549
-0.2,0.10000000000000003,0.6,0.5235987755982988,0.5235987755982988,0,0.25459933,1.6130117,0.3534832,-0.49158368,0.14537275,1.1526706,-0.7279813,-1.0426415,1.4381684,-0.012367339,-0.069695584,0.2470542,1.0048052,1.8025424
-0.2,0.10000000000000003,0.6,0.5235987755982988,0.5235987755982988,0,0.25290424,1.6128551,0.35122377,-0.49128526,0.15962373,1.1564523,-0.7225096,-1.0328069,1.4414489,-0.014996063,-0.072782785,0.24647452,0.9634897,1.7446916
-0.2,0.10000000000000003,0.6,0.5235987755982988,0.5235987755982988,0,0.24958731,1.6128896,0.3473804,-0.49092653,0.15940732,1.1553985,-0.73708314,-1.079312,1.4384373,-0.0065110577,-0.0879677,0.256742,0.9921613,1.776041
-0.2,0.10000000000000003,0.6,0.5235987755982988,0.5235987755982988,0,0.2509334,1.6117522,0.35653034,-0.4934921,0.14651965,1.1602812,-0.73855126,-1.0198655,1.4440458,-0.014924665,-0.081972234,0.25644785,0.98733443,1.786362
-0.2,0.10000000000000003,0.6,0.5235987755982988,0.5235987755982988,0,0.25244606,1.6143855,0.34703478,-0.49228972,0.15923324,1.1557232,-0.7476579,-1.0626229,1.4549369,-0.020395366,-0.08368547,0.2980726,0.98007756,1.6847776
-0.2,0.10000000000000003,0.6,0.5235987755982988,0.5235987755982988,0,0.24558657,1.6129845,0.34920388,-0.49252218,0.14958061,1.1610149,-0.7254673,-1.0745819,1.4412615,-0.031561058,-0.06711669,0.2404646,0.97581595,1.6363231
-0.2,0.10000000000000003,0.6,0.5235987755982988,0.5235987755982988,0,0.25364268,1.6104327,0.34982413,-0.49033478,0.1561715,1.1573732,-0.7156637,-1.090438,1.4437728,-0.011388147,-0.067787215,0.26798803,0.99777097,1.7549974
-0.2,0.10000000000000003,0.6,0.5235987755982988,0.5235987755982988,0,0.23973644,1.6160221,0.35218853,-0.49180278,0.15940467,1.1614598,-0.7263687,-1.0597656,1.4358597,-0.012913503,-0.08726538,0.26198035,0.9685823,1.8462945
-0.2,0.10000000000000003,0.6,0.5235987755982988,0.5235987755982988,0,0.25777826,1.611936,0.34942737,-0.49292934,0.15652414,1.1562036,-0.7552524,-1.0323074,1.4359494,-0.007860298,-0.08150358,0.25816485,0.98830336,1.5183511
-0.2,0.10000000000000003,0.6,0.5235987755982988,0.5235987755982988,0,0.2634565,1.6110258,0.3487934,-0.49373195,0.15017113,1.1567723,-0.7370495,-1.0226903,1.4421502,-0.022987725,-0.068927325,0.25936016,0.9867676,1.8094321
-0.2,0.10000000000000003,0.6,0.5235987755982988,0.5235987755982988,0,0.2554371,1.6110537,0.35303006,-0.4925644,0.15940692,1.1567348,-0.76949394,-1.0811187,1.4322592,-0.024964472,-0.07156943,0.25357118,0.99866825,1.8522397
-0.2,0.10000000000000003,0.6,0.5235987755982988,0.5235987755982988,0,0.25758135,1.6109061,0.3488823,-0.4924643,0.1531229,1.1584047,-0.7325112,-1.054889,1.4297879,-0.01524969,-0.08752034,0.25238135,0.95935065,1.7748652
-0.2,0.10000000000000003,0.6,0.5235987755982988,0.5235987755982988,0,0.25525817,1.6153874,0.35241178,-0.49330938,0.1569506,1.1557263,-0.7306276,-1.0712457,1.4409269,-0.011172924,-0.06468714,0.26648897,0.98337877,1.5925696
-0.2,0.10000000000000003,0.6,0.5235987755982988,0.5235987755982988,0,0.24951646,1.6125529,0.3496124,-0.49441606,0.14925706,1.1593401,-0.7870889,-1.041486,1.452201,-0.0024636746,-0.08826293,0.2639026,1.0340793,1.7197484
-0.2,0.10000000000000003,0.6,0.5235987755982988,0.5235987755982988,0,0.2557425,1.6121271,0.34629145,-0.49120706,0.15937434,1.1556293,-0.74218524,-1.0730991,1.439698,-0.013607618,-0.08176126,0.25596693,1.0013005,1.7237108
-0.2,0.10000000000000003,0.6,0.5235987755982988,0.5235987755982988,0,0.24828857,1.613221,0.35071123,-0.49119067,0.15170465,1.1566348,-0.73253566,-1.0445731,1.4552593,-0.019884123,-0.067067996,0.24024329,1.0218443,1.583088
-0.2,0.10000000000000003,0.6,0.5235987755982988,0.5235987755982988,0,0.22938815,1.609989,0.3529889,-0.4932094,0.15454723,1.1544915,-0.7791895,-1.0582364,1.4363879,-0.016395658,-0.07424512,0.26621974,1.0068898,1.7232034
-0.2,0.10000000000000003,0.6,0.5235987755982988,0.5235987755982988,0,0.2199234,1.6146911,0.35588658,-0.49189916,0.15717782,1.1566159,-0.7347083,-1.082063,1.4418013,-0.018876968,-0.07712722,0.2571281,1.0120063,1.6709684
-0.2,0.10000000000000003,0.6,0.5235987755982988,0.5235987755982988,0,0.22307864,1.61276,0.35147327,-0.49562055,0.15823185,1.1615444,-0.7024363,-1.1053488,1.448645,-0.011485789,-0.074887864,0.29058462,0.9837748,1.5733342
-0.2,0.10000000000000003,0.6,0.5235987755982988,0.5235987755982988,0,0.24520372,1.6119925,0.35203293,-0.49068877,0.15961,1.158673,-0.7255704,-1.017271,1.4468659,-0.01604919,-0.08072571,0.2721665,0.97861713,1.7867011
-0.2,0.10000000000000003,0.6,0.5235987755982988,0.5235987755982988,0,0.22062258,1.6126045,0.35564792,-0.4897776,0.15987557,1.1554322,-0.7433055,-1.0505675,1.4334108,-0.013794371,-0.08624521,0.2869062,1.0075667,1.7567201
-0.2,0.10000000000000003,0.6,0.5235987755982988,0.5235987755982988,0,0.22752833,1.6094946,0.34922698,-0.48837784,0.14729016,1.1607226,-0.7283395,-1.0485932,1.4421617,-0.0079537695,-0.089747176,0.2602799,0.98852015,1.6015408
-0.2,0.10000000000000003,0.6,0.5235987755982988,0.5235987755982988,0,0.24170174,1.6102402,0.35688266,-0.49313506,0.15272525,1.1529555,-0.7585905,-1.0798626,1.4500773,-0.030374821,-0.07387921,0.2856506,0.96880454,1.6903652
-0.2,0.10000000000000003,0.6,0.5235987755982988,0.5235987755982988,0,0.26644936,1.6102628,0.3521505,-0.50129837,0.14896254,1.1585276,-0.7449505,-1.0467126,1.438295,-0.00617787,-0.078641325,0.2643801,0.9490254,1.6631507
-0.2,0.10000000000000003,0.6,0.5235987755982988,0.5235987755982988,0,0.23397753,1.6114607,0.35187483,-0.4907424,0.14917359,1.1595943,-0.76210165,-1.0386482,1.4443736,-0.01642451,-0.07936763,0.263027,0.9409944,1.9024957
-0.2,0.10000000000000003,0.6,0.5235987755982988,0.5235987755982988,0,0.25234246,1.6096145,0.34879914,-0.49388072,0.15986939,1.1567302,-0.7303038,-1.0638711,1.4416189,-0.030228393,-0.08122196,0.24000883,0.9576349,1.7622727
-0.2,0.10000000000000003,0.6,0.5235987755982988,0.5235987755982988,0,0.26425293,1.6118656,0.3511878,-0.4971915,0.15482825,1.1537255,-0.73199373,-1.0475045,1.4377267,-0.01476209,-0.070409924,0.24757932,1.01759,1.5969191
-0.2,0.10000000000000003,0.6,0.5235987755982988,0.5235987755982988,0,0.24714148,1.6135447,0.34821934,-0.49603564,0.15375267,1.1610247,-0.7053042,-1.0446582,1.4451399,-0.017750628,-0.08399705,0.26472658,0.9562788,1.629416
-0.2,0.10000000000000003,0.6,0.5235987755982988,0.5235987755982988,0,0.2541512,1.6141014,0.34928524,-0.49643663,0.1643618,1.1577095,-0.7280853,-1.0818849,1.4480962,-0.012536332,-0.06545527,0.24454238,0.9858339,1.6614566
-0.2,0.10000000000000003,0.6,0.5235987755982988,0.5235987755982988,0,0.24491377,1.6105609,0.34900025,-0.48973688,0.15810095,1.152867,-0.72313195,-1.0304823,1.4455067,-0.01644004,-0.07699924,0.24856286,0.9891929,1.826745
-0.2,0.10000000000000003,0.6,0.5235987755982988,0.5235987755982988,0,0.24764313,1.6129221,0.354348,-0.49263415,0.15483588,1.1553892,-0.72052354,-1.0768294,1.4288638,-0.015530751,-0.088417135,0.24728987,0.98176605,1.7108064
-0.2,0.10000000000000003,0.6,0.5235987755982988,0.5235987755982988,0,0.26265115,1.6115733,0.35391897,-0.4925612,0.15358831,1.1560252,-0.6759516,-1.0500667,1.4563138,-0.0011204936,-0.08672732,0.26543975,0.98536444,1.8026078
-0.2,0.10000000000000003,0.6,0.5235987755982988,0.5235987755982988,0,0.25743845,1.6143929,0.35325712,-0.49587518,0.15502106,1.1580063,-0.74010783,-1.0781797,1.4471499,-0.0051176473,-0.07577999,0.2702581,0.9701797,1.4722884
-0.2,0.10000000000000003,0.6,0.5235987755982988,0.5235987755982988,0,0.26157233,1.6143787,0.35402945,-0.49785808,0.15552142,1.1544865,-0.7284836,-1.0085493,1.4374423,-0.015400957,-0.08827674,0.23988995,0.94782215,1.7734009
-0.2,0.10000000000000003,0.6,0.5235987755982988,0.5235987755982988,0,0.24989794,1.6081638,0.35558033,-0.48814607,0.14776677,1.157484,-0.7096833,-1.0678774,1.4362649,-0.006407635,-0.08647546,0.26668018,0.9746328,1.7900479
-0.2,0.10000000000000003,0.6,0.5235987755982988,0.5235987755982988,0,0.25973865,1.6116748,0.34923795,-0.49158427,0.16022338,1.154882,-0.7799566,-1.0553937,1.4492006,-0.012118851,-0.07368497,0.25678703,0.96975255,1.526061
-0.2,0.10000000000000003,0.6,0.5235987755982988,0.5235987755982988,0,0.24629986,1.6122983,0.35056144,-0.49654275,0.161436,1.1591675,-0.7194715,-1.0437928,1.4450417,-0.011808476,-0.08187466,0.2515144,0.98275685,1.626642
-0.2,0.10000000000000003,0.6,0.5235987755982988,0.5235987755982988,0,0.25850528,1.6125932,0.34744614,-0.49279165,0.16737951,1.1566957,-0.7032456,-1.0561153,1.4431283,-0.031707164,-0.07011138,0.24887055,0.974063,1.7896103
-0.2,0.10000000000000003,0.6,0.5235987755982988,0.5235987755982988,0,0.2441814,1.6093965,0.35295784,-0.49235353,0.16046809,1.1567785,-0.70067775,-1.0589855,1.4534508,-0.016058719,-0.05987999,0.24342144,0.9894096,1.5874918
-0.2,0.10000000000000003,0.6,0.5235987755982988,0.5235987755982988,0,0.24186577,1.6098815,0.35472837,-0.49107295,0.1631492,1.1582927,-0.6998499,-1.0434896,1.4459562,0.010205223,-0.06737873,0.2442766,0.9514343,1.6093018
-0.2,0.10000000000000003,0.6,0.5235987755982988,0.5235987755982988,0,0.25557593,1.6147594,0.35107043,-0.49912444,0.16394526,1.1593637,-0.7272061,-1.0366821,1.4392393,-0.027706861,-0.077269934,0.26418364,0.9725701,1.8021624
-0.2,0.10000000000000003,0.6,0.5235987755982988,0.5235987755982988,0,0.24800937,1.6108781,0.3559123,-0.49260652,0.16151094,1.1551313,-0.7011231,-1.0216069,1.4430758,-0.011158783,-0.100848995,0.23521195,0.94794244,1.848144
-0.2,0.10000000000000003,0.6,0.5235987755982988,0.5235987755982988,0,0.24990804,1.6093229,0.35274687,-0.49216744,0.15283813,1.1559348,-0.7005183,-1.0557833,1.4505104,-0.0072522745,-0.057252962,0.31041306,0.99004704,1.8390018
-0.2,0.10000000000000003,0.6,0.5235987755982988,0.5235987755982988,0,0.25563955,1.6109247,0.3480768,-0.49578106,0.16521141,1.1578612,-0.7130102,-1.0518818,1.4425575,-0.030999295,-0.084651604,0.26476225,1.0043064,1.7746645
-0.2,0.10000000000000003,0.6,0.5235987755982988,0.5235987755982988,0,0.24616456,1.6082426,0.35323703,-0.4926978,0.15205003,1.1586812,-0.716155,-1.0326099,1.4486074,-0.022788247,-0.09155775,0.23328489,0.9706099,1.6311531
-0.2,0.10000000000000003,0.6,0.5235987755982988,0.5235987755982988,0,0.24457493,1.6112902,0.3501655,-0.48944867,0.1630483,1.1516743,-0.6979625,-1.0460439,1.4383266,-0.018376956,-0.092308015,0.24417764,0.974171,1.5356365
-0.2,0.10000000000000003,0.6,0.5235987755982988,0.5235987755982988,0,0.25547206,1.6104237,0.3498978,-0.49573177,0.16193563,1.1595435,-0.715645,-1.0369767,1.4402924,-0.021098798,-0.061483525,0.24998605,0.94177777,1.6386135
-0.2,0.10000000000000003,0.6,0.5235987755982988,0.5235987755982988,0,0.25963047,1.6136254,0.3542892,-0.4962759,0.15427645,1.1568439,-0.72694945,-1.0345261,1.4504013,-0.014242851,-0.08409301,0.2424903,0.981962,1.7098974
-0.2,0.10000000000000003,0.6,0.5235987755982988,0.5235987755982988,0,0.24544631,1.6114634,0.35366347,-0.49039832,0.15989359,1.1533166,-0.7068813,-1.0250493,1.4407645,-0.025900789,-0.084471576,0.25887752,0.9566173,1.550839
-0.2,0.10000000000000003,0.6,0.5235987755982988,0.5235987755982988,0,0.25140908,1.613082,0.3522612,-0.49287128,0.16729252,1.1533902,-0.73862785,-0.99900526,1.437907,-0.016251322,-0.08017847,0.26263157,0.9777415,1.7501769
-0.2,0.10000000000000003,0.6,0.5235987755982988,0.5235987755982988,0,0.25143394,1.6128716,0.35211167,-0.4948043,0.15086566,1.157228,-0.71060157,-1.0577645,1.4450707,-0.02899606,-0.08906716,0.28291115,0.95804536,1.6591715
-0.2,0.10000000000000003,0.6,0.5235987755982988,0.5235987755982988,0,0.2656568,1.613134,0.34959972,-0.4943888,0.15563962,1.1551329,-0.67813426,-1.0819765,1.4406011,-0.033423096,-0.08655993,0.25908768,1.012767,1.6891952
-0.2,0.10000000000000003,0.6,0.5235987755982988,0.5235987755982988,0,0.2526245,1.6100094,0.34885022,-0.49296454,0.15886378,1.1578012,-0.7371181,-1.0644428,1.456385,-0.021550056,-0.09108914,0.26144546,1.0082177,1.7566193
-0.2,0.10000000000000003,0.6,0.5235987755982988,0.5235987755982988,0,0.25714198,1.6123325,0.34882024,-0.49311563,0.15618855,1.1552888,-0.74305457,-1.0919238,1.4430645,-0.010858426,-0.080746956,0.26347214,1.001738,1.6005815
-0.2,0.10000000000000003,0.6,0.5235987755982988,0.5235987755982988,0,0.24691162,1.6125135,0.3499438,-0.492441,0.16367343,1.156122,-0.72033554,-1.0933212,1.4315548,-0.014538449,-0.10258318,0.2670685,0.9916778,1.7491312
-0.2,0.10000000000000003,0.6,0.5235987755982988,0.5235987755982988,0,0.24345428,1.60792,0.3511913,-0.49167007,0.15959455,1.1585342,-0.73903954,-1.0478109,1.4449825,-0.014391744,-0.090961404,0.26141298,0.96227247,1.8359097
-0.2,0.10000000000000003,0.6,0.5235987755982988,0.5235987755982988,0,0.26021415,1.6107922,0.35701182,-0.4901839,0.15238577,1.1561205,-0.7294386,-1.082798,1.4480762,-0.013217673,-0.09113532,0.2782884,0.96841496,1.7010692
-0.2,0.10000000000000003,0.6,0.5235987755982988,0.5235987755982988,0,0.25014174,1.6109338,0.35163608,-0.49219742,0.14666891,1.1522844,-0.70031977,-1.0810665,1.4308045,-0.0012972852,-0.09633382,0.27659917,0.98208994,1.676286
-0.2,0.10000000000000003,0.6,0.5235987755982988,0.5235987755982988,0,0.25119212,1.6116093,0.35582402,-0.4937981,0.1456447,1.1613463,-0.68022496,-1.0837842,1.4450421,-0.013410932,-0.08803839,0.25007704,0.96252716,1.528629
-0.2,0.10000000000000003,0.6,0.5235987755982988,0.5235987755982988,0,0.2478794,1.611593,0.3583944,-0.48946103,0.15840697,1.1603992,-0.7469872,-1.0650722,1.4484842,-0.0005086322,-0.07165987,0.26620382,0.960051,1.6697963
-0.2,0.10000000000000003,0.6,0.5235987755982988,0.5235987755982988,0,0.24066173,1.6113575,0.34814218,-0.49148852,0.1600561,1.1593986,-0.79634273,-1.0436748,1.4530902,-0.02178764,-0.06941764,0.2842814,0.9952433,1.5988915
-0.2,0.10000000000000003,0.6,0.5235987755982988,0.5235987755982988,0,0.25432733,1.6097581,0.3515762,-0.49325714,0.15342574,1.1604548,-0.68201137,-1.0669284,1.4357535,-0.019656152,-0.08498549,0.24302292,0.97380054,1.7853314
-0.2,0.10000000000000003,0.6,0.5235987755982988,0.5235987755982988,0,0.25110874,1.6124014,0.34731856,-0.4950905,0.15305726,1.154885,-0.77278143,-1.0104928,1.435882,-0.012561066,-0.08561063,0.24610895,0.9780515,1.7606907
-0.2,0.10000000000000003,0.6,0.5235987755982988,0.5235987755982988,0,0.25577524,1.6123736,0.35178074,-0.49147093,0.16322744,1.1576108,-0.73436767,-1.0551116,1.4422389,-0.0096905315,-0.07969992,0.24571158,0.97154576,1.6853994
-0.2,0.10000000000000003,0.6,0.5235987755982988,0.5235987755982988,0,0.2155619,1.6110115,0.34637204,-0.4950248,0.16330065,1.1564393,-0.751747,-1.0091808,1.4387778,-0.011270567,-0.064145744,0.2421918,0.97997016,1.600745
-0.2,0.10000000000000003,0.6,0.5235987755982988,0.5235987755982988,0,0.24270193,1.6098543,0.35240844,-0.49388516,0.15625645,1.1539918,-0.73284644,-1.0647213,1.4366716,-0.010721368,-0.08157647,0.28369233,0.97229666,1.9149015
-0.2,0.10000000000000003,0.6,0.5235987755982988,0.5235987755982988,0,0.24383229,1.6112292,0.34839037,-0.49402776,0.15599377,1.1550722,-0.73253345,-1.0900153,1.4343543,-0.01946459,-0.08527638,0.27485034,0.9669353,1.5311658
-0.2,0.10000000000000003,0.6,0.5235987755982988,0.5235987755982988,0,0.24100783,1.6109842,0.3545532,-0.49565983,0.1634744,1.159722,-0.70479673,-1.046643,1.4407521,-0.01862894,-0.0929103,0.26473448,0.98960143,1.6821564
-0.2,0.10000000000000003,0.6,0.5235987755982988,0.5235987755982988,0,0.2390433,1.6135308,0.35718045,-0.49496254,0.1489174,1.152901,-0.7131192,-1.0539379,1.4439441,-0.015085437,-0.082831025,0.2667257,0.9887644,1.7139436
-0.2,0.10000000000000003,0.6,0.5235987755982988,0.5235987755982988,0,0.24277548,1.6077511,0.35355446,-0.49174613,0.16322133,1.1524881,-0.7362726,-1.0463147,1.4393073,-0.015326262,-0.08240116,0.2679154,0.9972994,1.7503254
-0.2,0.10000000000000003,0.6,0.5235987755982988,0.5235987755982988,0,0.23838674,1.6122727,0.34986353,-0.49512398,0.15806748,1.1574583,-0.7184675,-1.0300182,1.455923,-0.015096339,-0.089625165,0.26623744,0.9509522,1.4738806
-0.2,0.10000000000000003,0.6,0.5235987755982988,0.5235987755982988,0,0.24502195,1.6118659,0.3515548,-0.49416974,0.15957746,1.1529415,-0.7055376,-1.0723497,1.436347,-0.014512445,-0.0856927,0.27581078,0.9846521,1.5618504
-0.2,0.10000000000000003,0.6,0.5235987755982988,0.5235987755982988,0,0.25303778,1.6134042,0.35293972,-0.5018318,0.15051797,1.1635318,-0.7139033,-1.0207065,1.4453402,-0.030764084,-0.07138367,0.25815392,0.9353376,1.657768
-0.2,0.10000000000000003,0.6,0.5235987755982988,0.5235987755982988,0,0.23809317,1.6123307,0.35921484,-0.49398643,0.15509808,1.1561208,-0.7193018,-1.0617154,1.4291352,-0.016381107,-0.09106221,0.25724545,0.99833435,1.8474092
-0.2,0.10000000000000003,0.6,0.5235987755982988,0.5235987755982988,0,0.24707001,1.6101041,0.3542353,-0.49667448,0.1526672,1.1544431,-0.7364351,-1.0603323,1.4405937,-0.011135131,-0.08326376,0.27268177,0.98792654,1.4228642
-0.2,0.10000000000000003,0.6,0.5235987755982988,0.5235987755982988,0,0.23664796,1.6114107,0.3499547,-0.4956487,0.15468541,1.1593024,-0.76243556,-1.0563613,1.4445698,-0.0037084308,-0.08701268,0.27057344,1.0009739,1.6190157
-0.2,0.10000000000000003,0.6,0.5235987755982988,0.5235987755982988,0,0.24687743,1.6110728,0.35198283,-0.49340403,0.15950978,1.1551758,-0.7155493,-1.0498551,1.4365431,-0.002453884,-0.09217148,0.2676538,0.99450785,1.7454762
-0.2,0.10000000000000003,0.6,0.5235987755982988,0.5235987755982988,0,0.25399694,1.6131815,0.35153124,-0.5020968,0.14870654,1.1611037,-0.75190693,-1.0360446,1.44097,-0.012466188,-0.08479232,0.28939578,0.971383,1.6262828
-0.2,0.10000000000000003,0.6,0.5235987755982988,0.5235987755982988,0,0.24513619,1.6138995,0.35032684,-0.49642918,0.15631741,1.1589518,-0.75517154,-1.0856714,1.4475205,-0.024416223,-0.08595487,0.2657851,0.95970935,1.7050822
-0.2,0.10000000000000003,0.6,0.5235987755982988,0.5235987755982988,0,0.24865532,1.6102817,0.35289776,-0.4936186,0.1642715,1.1555568,-0.7185791,-1.0603262,1.4382763,-0.0022217173,-0.096568175,0.25593096,0.97426313,1.7217352
-0.2,0.10000000000000003,0.6,0.5235987755982988,0.5235987755982988,0,0.23919931,1.6106344,0.3550464,-0.49396852,0.15399374,1.1584648,-0.72620165,-1.0299703,1.455963,-0.02343416,-0.08075565,0.26512325,0.9810989,1.727467
-0.2,0.10000000000000003,0.6,0.5235987755982988,0.5235987755982988,0,0.26175764,1.6137253,0.34899256,-0.4987285,0.15066737,1.155023,-0.71813184,-1.037398,1.4393765,-0.019669976,-0.08455908,0.26157013,1.0074637,1.5314554
-0.2,0.10000000000000003,0.6,0.5235987755982988,0.5235987755982988,0,0.24240866,1.6113976,0.3535598,-0.49451333,0.15216066,1.1573353,-0.7185953,-1.0366269,1.4408178,-0.022690218,-0.07550336,0.26425767,0.98516756,1.722525
-0.2,0.10000000000000003,0.6,0.5235987755982988,0.5235987755982988,0,0.24625643,1.6101494,0.3455692,-0.49609396,0.15048389,1.1593488,-0.7311666,-1.0429226,1.445503,-0.020784814,-0.08231437,0.23548913,0.93639153,1.6750488
-0.2,0.10000000000000003,0.6,0.5235987755982988,0.5235987755982988,0,0.23563889,1.6160051,0.34713972,-0.49308217,0.16590346,1.1568804,-0.69800496,-1.0558358,1.4484916,-0.01573178,-0.08651468,0.24163257,0.9673871,1.8316089
-0.2,0.10000000000000003,0.6,0.5235987755982988,0.5235987755982988,0,0.24443685,1.6097537,0.35121185,-0.4961429,0.1523365,1.1616994,-0.7286481,-1.0427507,1.4335713,-0.0080422005,-0.07764443,0.25918844,1.0066792,1.7166849
-0.2,0.10000000000000003,0.6,0.5235987755982988,0.5235987755982988,0,0.25077096,1.6112851,0.3516073,-0.49619868,0.14836194,1.1568542,-0.73528767,-1.045884,1.4359686,-0.015872894,-0.086039014,0.29045048,0.971346,1.7333444
-0.2,0.10000000000000003,0.6,0.5235987755982988,0.5235987755982988,0,0.25059623,1.6115392,0.35091004,-0.49412897,0.15329881,1.1560022,-0.70041776,-1.0876056,1.4424764,-0.011584413,-0.08406081,0.23970851,0.9546788,1.7136629
-0.2,0.10000000000000003,0.6,0.5235987755982988,0.5235987755982988,0,0.24288993,1.6141932,0.3530585,-0.49403292,0.16547833,1.1529682,-0.7667873,-1.0081142,1.4459244,-0.002615273,-0.07979547,0.22960633,0.9978863,1.5579593
-0.2,0.10000000000000003,0.6,0.5235987755982988,0.5235987755982988,0,0.24586748,1.6123092,0.35113785,-0.4940828,0.16744478,1.162247,-0.6734284,-1.0407472,1.443718,-0.0021670973,-0.068417825,0.24473502,0.9774104,1.8041847
-0.2,0.10000000000000003,0.6,0.5235987755982988,0.5235987755982988,0,0.2458828,1.6098783,0.34851313,-0.49404615,0.15245394,1.1562347,-0.755116,-1.025582,1.4529877,-0.03299427,-0.07948218,0.2584654,0.98074657,1.8117138
-0.2,0.10000000000000003,0.6,0.5235987755982988,0.5235987755982988,0,0.24389464,1.6100388,0.35140967,-0.4942694,0.15527712,1.1611953,-0.7275083,-1.0330604,1.4302559,-0.01551018,-0.08335547,0.26964837,0.98888826,1.5860206
-0.2,0.10000000000000003,0.6,0.5235987755982988,0.5235987755982988,0,0.24846883,1.6086171,0.35403568,-0.49320394,0.15973759,1.1582712,-0.75122595,-1.0433067,1.439344,-0.011765339,-0.072992355,0.24489753,0.9849315,1.5896746
-0.2,0.10000000000000003,0.6,0.5235987755982988,0.5235987755982988,0,0.24166128,1.6129876,0.35255697,-0.4930415,0.1533,1.1567322,-0.71246487,-1.0517814,1.4347327,-0.02019915,-0.07353742,0.25181112,0.98349535,1.6223599
-0.2,0.10000000000000003,0.6,0.5235987755982988,0.5235987755982988,0,0.23711573,1.61152,0.350471,-0.4907058,0.15189907,1.1575037,-0.70436764,-1.0826311,1.4441414,-0.02221301,-0.07873777,0.24912891,0.9517342,1.7093292
-0.2,0.10000000000000003,0.6,0.5235987755982988,0.5235987755982988,0,0.23090324,1.6156386,0.3532665,-0.49107808,0.1494403,1.1564605,-0.70206004,-1.0762604,1.4507046,-0.021198165,-0.08868867,0.23662731,0.959813,1.6260564
-0.2,0.10000000000000003,0.6,0.5235987755982988,0.5235987755982988,0,0.24316932,1.612316,0.35497105,-0.49276865,0.15475711,1.1546603,-0.7589442,-1.0474474,1.4431845,-0.005113669,-0.086652614,0.25549966,0.98355925,1.6274908
-0.2,0.10000000000000003,0.6,0.5235987755982988,0.5235987755982988,0,0.24394515,1.6108211,0.35587505,-0.4928745,0.15298435,1.1599069,-0.70809627,-1.0640197,1.4326775,0.0076072696,-0.07603751,0.26491728,1.014483,1.7229326
-0.2,0.10000000000000003,0.6,0.5235987755982988,0.5235987755982988,0,0.25955904,1.611017,0.34855673,-0.49155864,0.15427956,1.1551427,-0.6698057,-1.0902053,1.4393461,-0.03272799,-0.088272616,0.2510306,0.95756406,1.677124
-0.2,0.10000000000000003,0.6,0.5235987755982988,0.5235987755982988,0,0.24904501,1.6118242,0.35404694,-0.49064103,0.15089741,1.1544218,-0.72886294,-1.0617867,1.4473971,-0.02225586,-0.07545774,0.23042928,0.9235758,1.5819803
-0.2,0.10000000000000003,0.6,0.5235987755982988,0.5235987755982988,0,0.25911257,1.6085858,0.34977886,-0.49205884,0.15330952,1.1587763,-0.7186227,-1.0331708,1.434352,-0.018290903,-0.06854942,0.26353258,0.9471072,1.8001531
-0.2,0.10000000000000003,0.6,0.5235987755982988,0.5235987755982988,0,0.2589486,1.6086489,0.35340512,-0.49380004,0.14935945,1.1499543,-0.76089764,-1.030204,1.4344323,-0.023316631,-0.08045353,0.26013237,0.9757258,1.7734782
-0.2,0.10000000000000003,0.6,0.5235987755982988,0.5235987755982988,0,0.25332373,1.6116894,0.34998617,-0.4924675,0.1590818,1.1557456,-0.7667484,-1.0401033,1.4414992,-0.008680648,-0.073439255,0.27693826,0.9914594,1.7181644
-0.2,0.10000000000000003,0.6,0.5235987755982988,0.5235987755982988,0,0.25944066,1.6109245,0.353624,-0.4955963,0.15343381,1.1608057,-0.7663643,-1.0372925,1.4510604,-0.02443699,-0.0802757,0.282505,0.9716339,1.7628248
-0.2,0.10000000000000003,0.6,0.5235987755982988,0.5235987755982988,0,0.25625953,1.611912,0.35370857,-0.49331072,0.16934727,1.1600108,-0.7542612,-1.0443457,1.434523,-0.028345942,-0.07842086,0.26812088,0.9676409,1.6348407
-0.2,0.10000000000000003,0.6,0.5235987755982988,0.5235987755982988,0,0.2518624,1.6131592,0.35132235,-0.49186668,0.15133359,1.1584562,-0.7126878,-1.0290096,1.4405113,-0.03776321,-0.068090744,0.23921856,0.9712948,1.5489203
-0.2,0.10000000000000003,0.6,0.5235987755982988,0.5235987755982988,0,0.24191117,1.6111804,0.3530641,-0.49094024,0.15504882,1.1574214,-0.8107613,-1.0527753,1.4489923,-0.025686515,-0.075028375,0.2238124,0.97152376,1.787474
-0.2,0.10000000000000003,0.6,0.5235987755982988,0.5235987755982988,0,0.26691854,1.6107273,0.3497135,-0.49805367,0.15261665,1.1553538,-0.73633957,-1.0328621,1.447669,-0.017323578,-0.080859154,0.2712467,1.0002276,1.7374535
-0.2,0.10000000000000003,0.6,0.5235987755982988,0.5235987755982988,0,0.2530224,1.6110413,0.34781888,-0.49484885,0.15364388,1.1565905,-0.7427552,-1.0703672,1.4415467,-0.017165437,-0.098601006,0.27109545,0.95631015,1.7602195
-0.2,0.10000000000000003,0.6,0.5235987755982988,0.5235987755982988,0,0.25366768,1.6119142,0.34954503,-0.49145335,0.16049922,1.1564353,-0.729731,-1.0615004,1.4418274,-0.010871101,-0.08554873,0.26185912,1.0089055,1.5918378
-0.2,0.10000000000000003,0.6,0.5235987755982988,0.5235987755982988,0,0.24039987,1.6117246,0.3545821,-0.49724784,0.14949939,1.1570363,-0.78850406,-1.0366118,1.4400574,-0.008686592,-0.08694677,0.2720622,0.9907282,1.8674475
-0.2,0.10000000000000003,0.6,0.5235987755982988,0.5235987755982988,0,0.25239635,1.6136354,0.34876904,-0.49861306,0.15487982,1.1558547,-0.72675854,-1.0436523,1.4482298,-0.010921971,-0.0725755,0.25225443,0.99825644,1.6216209
-0.2,0.10000000000000003,0.6,0.5235987755982988,0.5235987755982988,0,0.24323457,1.6102308,0.35661703,-0.49202585,0.15385973,1.1581918,-0.72846955,-1.065896,1.4461397,-0.013757461,-0.09035726,0.27218258,0.9257648,1.6691756
-0.2,0.10000000000000003,0.6,0.5235987755982988,0.5235987755982988,0,0.25105637,1.6124274,0.347059,-0.4916654,0.16286588,1.1560463,-0.74486464,-1.0802041,1.4330655,0.0013980631,-0.07603382,0.2509372,1.009162,1.7805492
-0.2,0.10000000000000003,0.6,0.5235987755982988,0.5235987755982988,0,0.25043753,1.612383,0.3556297,-0.4909338,0.1509191,1.1578412,-0.7135591,-1.0512345,1.4464206,-0.032959033,-0.074100845,0.2599087,0.97571284,1.4823232
