sanky1234/BimanualDexCatch/isaacgymenvs/cem_results/football_pose_0.0_0.0_0.9999999999999999_-0.5235987755982988_-0.5235987755982988_0_2025-05-26.csv
x,y,z,roll,pitch,yaw,robot1/joint1,robot1/joint2,robot1/joint3,robot1/joint4,robot1/joint5,robot1/joint6,robot1/joint7,robot2/joint1,robot2/joint2,robot2/joint3,robot2/joint4,robot2/joint5,robot2/joint6,robot2/joint7
0.0,0.0,0.9999999999999999,-0.5235987755982988,-0.5235987755982988,0,0.39675573,-1.2030398,-0.42192873,-0.16079849,-0.0075016282,0.9288287,-0.09885145,1.6081358,1.0510644,-0.0379569,-0.053711187,-0.0334841,1.3370804,0.1028655
0.0,0.0,0.9999999999999999,-0.5235987755982988,-0.5235987755982988,0,0.39781287,-1.199943,-0.41353497,-0.20588353,-0.04910178,0.91256386,0.22485092,1.5974013,1.0349357,0.08287602,-0.039018515,0.28986865,1.3121725,-0.2123464
0.0,0.0,0.9999999999999999,-0.5235987755982988,-0.5235987755982988,0,0.40225607,-1.2042909,-0.41317174,-0.19588584,-0.01468508,0.9740092,-0.895412,1.6049031,1.0805653,0.10767933,-0.06937431,-0.011718999,1.2822059,0.43191817
0.0,0.0,0.9999999999999999,-0.5235987755982988,-0.5235987755982988,0,0.3979667,-1.2017238,-0.41949004,-0.16920996,-0.104684755,0.8370667,-0.4453237,1.5978689,1.0631852,0.041471068,-0.01872761,-0.035600796,1.3709402,-0.2380642
0.0,0.0,0.9999999999999999,-0.5235987755982988,-0.5235987755982988,0,0.4021192,-1.203675,-0.4182047,-0.1967082,-0.13685083,1.0208218,0.6423605,1.5996614,1.0722075,-0.039945506,-0.07826335,0.04643491,1.2563881,-0.25536308
0.0,0.0,0.9999999999999999,-0.5235987755982988,-0.5235987755982988,0,0.40290797,-1.2053072,-0.41974142,-0.17212301,-0.06320369,0.92071056,1.0277302,1.5981,1.0722727,0.15514143,-0.016891075,-0.017602738,1.2668025,-0.6408957
0.0,0.0,0.9999999999999999,-0.5235987755982988,-0.5235987755982988,0,0.39260176,-1.2003843,-0.40990707,-0.19644034,-0.060782474,0.953265,0.4525278,1.6037982,1.1015745,0.12526627,-0.044782415,0.08036166,1.2414898,0.65629846
0.0,0.0,0.9999999999999999,-0.5235987755982988,-0.5235987755982988,0,0.4014387,-1.2048452,-0.42029452,-0.16565438,-0.057843816,0.9764997,0.26295415,1.6031619,1.0700632,-0.1088522,-0.039407466,0.08277333,1.3677988,-0.17529315
0.0,0.0,0.9999999999999999,-0.5235987755982988,-0.5235987755982988,0,0.39988333,-1.2010701,-0.42041406,-0.17086561,-0.10555595,1.0735155,0.21727018,1.5997819,1.0752507,-0.010261633,-0.0037706275,0.20559554,1.3507414,0.099898115
0.0,0.0,0.9999999999999999,-0.5235987755982988,-0.5235987755982988,0,0.4010956,-1.2025232,-0.41537985,-0.20315856,0.05382324,1.002166,-0.36585617,1.6028802,1.0604968,-0.014512573,-0.02825547,0.029016616,1.3383652,0.40580183
0.0,0.0,0.9999999999999999,-0.5235987755982988,-0.5235987755982988,0,0.39913976,-1.2029945,-0.42184222,-0.1845317,-0.17060645,1.0282948,-0.18248828,1.6026398,1.059709,-0.0583011,-0.10297203,0.12378365,1.3965567,0.75844973
0.0,0.0,0.9999999999999999,-0.5235987755982988,-0.5235987755982988,0,0.39640757,-1.2028416,-0.42230228,-0.17283876,-0.011525196,0.90644366,0.22411428,1.5933595,1.0688441,-0.103871204,-0.0020070544,0.17691743,1.2191242,-0.56203187
0.0,0.0,0.9999999999999999,-0.5235987755982988,-0.5235987755982988,0,0.39293665,-1.2001787,-0.41904926,-0.15933098,0.00474125,0.86772245,0.39933363,1.6011803,1.0609834,0.06865234,-0.07010691,0.01814062,1.2746217,0.37528625
0.0,0.0,0.9999999999999999,-0.5235987755982988,-0.5235987755982988,0,0.39482513,-1.2010638,-0.4149976,-0.17999841,0.009601255,1.0223689,0.66062045,1.5989995,1.0852747,0.07049699,-0.041014947,0.12344524,1.2916303,-0.19914243
0.0,0.0,0.9999999999999999,-0.5235987755982988,-0.5235987755982988,0,0.3976769,-1.2035851,-0.42101884,-0.16425474,-0.12418611,0.8647203,0.35752273,1.5982009,1.0726507,-0.1128519,-0.07367339,0.012966718,1.1606619,1.0828679
0.0,0.0,0.9999999999999999,-0.5235987755982988,-0.5235987755982988,0,0.39605135,-1.2021126,-0.4160033,-0.1551367,-0.07263439,0.85894454,-0.045068953,1.5984315,1.0727642,0.121336736,-0.0694843,-0.37927872,1.2972198,-0.35307875
0.0,0.0,0.9999999999999999,-0.5235987755982988,-0.5235987755982988,0,0.3958127,-1.2018974,-0.4167845,-0.20625019,0.089565,1.0396963,0.7187197,1.5956469,1.0965438,0.10487604,-0.057840053,0.27152768,1.2770863,1.0471522
0.0,0.0,0.9999999999999999,-0.5235987755982988,-0.5235987755982988,0,0.3928495,-1.2008021,-0.4119387,-0.17556235,0.04916153,1.0300564,0.5599784,1.6002357,1.0565354,0.24478543,-0.071066834,0.19505094,1.3052984,0.20214407
0.0,0.0,0.9999999999999999,-0.5235987755982988,-0.5235987755982988,0,0.39847407,-1.2011886,-0.41913372,-0.20852472,0.043713793,0.94285285,0.03167523,1.5999947,1.0266715,0.07130478,-0.010357339,-0.16642119,1.2517306,-0.73873186
0.0,0.0,0.9999999999999999,-0.5235987755982988,-0.5235987755982988,0,0.3976855,-1.2030559,-0.41592637,-0.18231402,-0.09258358,0.96872056,0.86875427,1.5965077,1.1007477,0.1350491,-0.041296985,-0.036095534,1.3292247,-0.057329115
0.0,0.0,0.9999999999999999,-0.5235987755982988,-0.5235987755982988,0,0.40209776,-1.205032,-0.42155352,-0.22596915,0.10056729,1.0355345,-0.4146187,1.6053171,1.0433254,-0.18551812,-0.02713726,0.011635978,1.3022501,0.4817472
0.0,0.0,0.9999999999999999,-0.5235987755982988,-0.5235987755982988,0,0.39601713,-1.2032593,-0.41916683,-0.16018263,-0.1662817,0.8101803,1.4183102,1.5992211,1.0485854,0.04027858,-0.018259235,-0.33811462,1.2700636,0.27842516
0.0,0.0,0.9999999999999999,-0.5235987755982988,-0.5235987755982988,0,0.3921697,-1.1994864,-0.4164472,-0.19529721,-0.005230432,0.8843284,-0.3609587,1.5976061,1.0493237,0.06814282,-0.029211653,-0.02016746,1.3955454,0.43968937
0.0,0.0,0.9999999999999999,-0.5235987755982988,-0.5235987755982988,0,0.39385507,-1.200867,-0.41877997,-0.20513391,0.02597776,0.91482913,0.00056608475,1.5988868,1.0637919,0.059716925,-0.07608535,-0.26970685,1.3182144,-0.1154343
0.0,0.0,0.9999999999999999,-0.5235987755982988,-0.5235987755982988,0,0.39368674,-1.2004355,-0.41747734,-0.20173746,-0.06539171,0.89536923,2.1965895,1.5984153,1.048037,0.09512297,-0.008813819,-0.1987015,1.3689256,0.600249
0.0,0.0,0.9999999999999999,-0.5235987755982988,-0.5235987755982988,0,0.39155188,-1.2008448,-0.41564626,-0.17374696,0.026942626,0.9888431,0.8788957,1.5969596,1.0989428,0.06239953,-0.06819973,-0.15462804,1.2436862,0.20629668
0.0,0.0,0.9999999999999999,-0.5235987755982988,-0.5235987755982988,0,0.393904,-1.2015522,-0.41408798,-0.18419664,0.001837175,0.884586,-0.0110786,1.6023072,1.0910879,-0.120869376,-0.016192086,-0.10662309,1.2900482,0.875368
0.0,0.0,0.9999999999999999,-0.5235987755982988,-0.5235987755982988,0,0.39278382,-1.2017151,-0.41877413,-0.1794114,-0.050412495,0.8351268,-0.19358696,1.5989826,1.0910206,0.111572996,-0.10180757,-0.18167838,1.3138077,0.89556444
0.0,0.0,0.9999999999999999,-0.5235987755982988,-0.5235987755982988,0,0.39640152,-1.2030582,-0.42026088,-0.16271353,-0.040127296,0.91441375,0.079812445,1.5968276,1.0853181,-0.07807254,-0.052553017,0.10805668,1.2831014,-0.09238771
0.0,0.0,0.9999999999999999,-0.5235987755982988,-0.5235987755982988,0,0.39714003,-1.2028894,-0.4151819,-0.25260305,-0.13674948,0.86386245,0.26721603,1.5958292,1.075071,0.08991346,-0.046658207,-0.11014875,1.266533,0.55825484
0.0,0.0,0.9999999999999999,-0.5235987755982988,-0.5235987755982988,0,0.39329058,-1.2002645,-0.41957596,-0.18441378,-0.19439006,0.9398686,0.015417526,1.6019903,1.0355905,-0.091517195,4.3337575e-05,0.010447039,1.3505117,0.3482822
0.0,0.0,0.9999999999999999,-0.5235987755982988,-0.5235987755982988,0,0.39816156,-1.2027656,-0.41190842,-0.19655275,0.10073856,1.0612328,0.13682239,1.6027882,1.0910853,0.11012562,-0.0614584,0.10732888,1.2933683,1.3260523
0.0,0.0,0.9999999999999999,-0.5235987755982988,-0.5235987755982988,0,0.39910427,-1.2019166,-0.41510636,-0.17613603,-0.050028175,0.9324278,1.3412992,1.6007094,1.0549649,0.04569589,-0.0935858,-0.11990889,1.2831846,0.695617
0.0,0.0,0.9999999999999999,-0.5235987755982988,-0.5235987755982988,0,0.3978611,-1.2020478,-0.4172661,-0.19666311,0.004490102,0.993143,0.23932433,1.6012839,1.0449029,-0.06810378,-0.074812725,-0.1332096,1.2709688,-0.1557347
0.0,0.0,0.9999999999999999,-0.5235987755982988,-0.5235987755982988,0,0.3985337,-1.203175,-0.4213944,-0.19940339,-0.0048499336,0.88128,1.172886,1.5996369,1.0367522,0.052988693,-0.04432636,0.1142278,1.3208798,0.5274874
0.0,0.0,0.9999999999999999,-0.5235987755982988,-0.5235987755982988,0,0.39437038,-1.2005924,-0.41359973,-0.185329,-0.1436163,0.95409304,0.42522424,1.6035126,1.0528445,-0.07996128,-0.04356217,0.07497478,1.349097,1.6585081
0.0,0.0,0.9999999999999999,-0.5235987755982988,-0.5235987755982988,0,0.39139047,-1.2010907,-0.41127422,-0.19400081,0.028407924,0.8861825,1.1656674,1.6020918,1.0903506,-0.07734129,-0.03261649,-0.028708566,1.3776243,0.30581722
0.0,0.0,0.9999999999999999,-0.5235987755982988,-0.5235987755982988,0,0.39701533,-1.2015045,-0.41518626,-0.22447923,0.008955147,0.9684048,0.36090106,1.596485,1.0526998,0.20276748,-0.05363171,-0.10160746,1.3273815,-0.43168268
0.0,0.0,0.9999999999999999,-0.5235987755982988,-0.5235987755982988,0,0.4007843,-1.204926,-0.41978818,-0.20445852,-0.007181922,1.0015007,0.4955711,1.6062894,1.0316712,-0.0553302,-0.068640426,0.119063415,1.2165518,0.9217789
0.0,0.0,0.9999999999999999,-0.5235987755982988,-0.5235987755982988,0,0.39351848,-1.2026749,-0.4189883,-0.17368867,-0.027751328,0.81209785,0.44667208,1.6010299,1.0617557,0.075395085,-0.02425992,-0.06095429,1.3049135,-0.42574993
0.0,0.0,0.9999999999999999,-0.5235987755982988,-0.5235987755982988,0,0.39479372,-1.2031251,-0.41875905,-0.19523679,-0.12662116,0.9926742,0.43396515,1.606868,1.0639814,0.05694285,-0.035115764,-0.15591337,1.3497213,-0.33209983
0.0,0.0,0.9999999999999999,-0.5235987755982988,-0.5235987755982988,0,0.3973233,-1.2024511,-0.41581547,-0.18873619,0.04911797,0.88982826,-0.073242486,1.596337,1.0581406,-0.06591551,-0.01927102,-0.1043702,1.2847849,0.37783924
0.0,0.0,0.9999999999999999,-0.5235987755982988,-0.5235987755982988,0,0.4007784,-1.2056118,-0.4150689,-0.19736294,-0.15263346,0.9114369,0.0031521358,1.6037091,1.0834577,0.14801766,-0.054029215,-0.107155815,1.2717701,-0.24774116
0.0,0.0,0.9999999999999999,-0.5235987755982988,-0.5235987755982988,0,0.39689842,-1.2032623,-0.41850057,-0.17799917,-0.124799706,0.94068414,0.40124112,1.5998478,1.046368,0.013593703,-0.043465197,-0.048522778,1.231645,0.91180414
0.0,0.0,0.9999999999999999,-0.5235987755982988,-0.5235987755982988,0,0.39710975,-1.202512,-0.41483527,-0.20102465,-0.044284366,0.87055206,-0.15696506,1.6024194,1.0380367,0.15603378,-0.02338994,-0.14792718,1.2914698,1.0882684
0.0,0.0,0.9999999999999999,-0.5235987755982988,-0.5235987755982988,0,0.39763564,-1.2028205,-0.41520277,-0.20731458,0.09934599,1.0437771,0.21827488,1.6011493,1.0514364,-0.12987557,-0.08957711,0.168709,1.4036411,-0.5613936
0.0,0.0,0.9999999999999999,-0.5235987755982988,-0.5235987755982988,0,0.39117527,-1.2026503,-0.4186519,-0.17824796,0.036209207,0.9292279,1.4228191,1.5980415,1.0871123,0.02275515,-0.02154002,0.05871453,1.1991123,-0.39869365
0.0,0.0,0.9999999999999999,-0.5235987755982988,-0.5235987755982988,0,0.39570525,-1.2045444,-0.416584,-0.22317645,-0.11875631,0.76375884,0.9982511,1.6026108,1.0213494,0.04901346,-0.03473464,0.17581291,1.2599512,0.26049975
0.0,0.0,0.9999999999999999,-0.5235987755982988,-0.5235987755982988,0,0.39395818,-1.2005025,-0.41117623,-0.17649609,-0.06016839,0.9630039,0.7720548,1.5985354,1.0498983,-0.060173895,-0.026414117,0.112644576,1.3328322,0.13248716
0.0,0.0,0.9999999999999999,-0.5235987755982988,-0.5235987755982988,0,0.39644787,-1.2028736,-0.4180028,-0.19181319,-0.119812235,0.9789113,-0.0550779,1.5981442,1.070198,0.14279269,-0.041507382,0.11753379,1.2498968,1.2878048
0.0,0.0,0.9999999999999999,-0.5235987755982988,-0.5235987755982988,0,0.39818907,-1.2044195,-0.41494837,-0.2112944,-0.092967875,0.87816226,0.9383036,1.5984536,1.0886958,-0.017113063,-0.04006197,0.0622514,1.2590023,0.57766247
0.0,0.0,0.9999999999999999,-0.5235987755982988,-0.5235987755982988,0,0.40057942,-1.2030847,-0.41921228,-0.16690978,0.038758297,0.8556633,0.30403277,1.6016563,1.0257982,0.20223603,-0.0061859204,-0.16084181,1.3019389,0.17451209
0.0,0.0,0.9999999999999999,-0.5235987755982988,-0.5235987755982988,0,0.40329823,-1.2056005,-0.4167706,-0.23378775,0.03696949,1.0225936,0.39807993,1.5961586,1.0521529,-0.14669271,-0.062695146,0.06584198,1.2369773,0.886991
0.0,0.0,0.9999999999999999,-0.5235987755982988,-0.5235987755982988,0,0.3997841,-1.204673,-0.4147715,-0.2023945,-0.05949948,0.87667686,0.7053284,1.6017876,1.071276,-0.19957787,-0.024834089,0.11937149,1.3383892,0.57785994
0.0,0.0,0.9999999999999999,-0.5235987755982988,-0.5235987755982988,0,0.39569932,-1.2017596,-0.41488025,-0.21268217,0.0024769746,0.9989234,1.3927652,1.5921203,1.0676382,-0.102539815,-0.055319168,0.20658036,1.2653208,0.4900631
0.0,0.0,0.9999999999999999,-0.5235987755982988,-0.5235987755982988,0,0.3967517,-1.2036393,-0.4190218,-0.19579124,-0.056948476,0.9524189,0.81358844,1.5942144,1.0623026,-0.17203484,-0.086472355,-0.09380673,1.3651695,1.1224122
0.0,0.0,0.9999999999999999,-0.5235987755982988,-0.5235987755982988,0,0.39351994,-1.203215,-0.4132238,-0.21341775,0.00921057,0.94392264,0.25544605,1.608523,1.069908,0.30549628,-0.06857317,-0.053258233,1.345153,0.7766603
0.0,0.0,0.9999999999999999,-0.5235987755982988,-0.5235987755982988,0,0.39305225,-1.2037268,-0.41873205,-0.13182658,0.016309218,0.8151343,0.45428127,1.5976298,1.0725719,0.1198253,-0.047644526,-0.065456435,1.3136071,0.5007697
0.0,0.0,0.9999999999999999,-0.5235987755982988,-0.5235987755982988,0,0.39562625,-1.204726,-0.41414267,-0.1776023,-0.050251655,0.9043193,1.113938,1.6012629,1.0617932,0.039730407,-0.04058471,0.28516367,1.185938,0.31965387
0.0,0.0,0.9999999999999999,-0.5235987755982988,-0.5235987755982988,0,0.3934378,-1.2011456,-0.41590574,-0.22284132,-0.06176057,0.90827304,0.18434857,1.5911826,1.0687765,0.124386564,-0.06574109,-0.037826594,1.3185318,-0.059534315
0.0,0.0,0.9999999999999999,-0.5235987755982988,-0.5235987755982988,0,0.39526507,-1.2036307,-0.4183392,-0.1971896,-0.08688088,0.9030913,-0.4386515,1.59688,1.073828,-0.08226413,-0.047319267,-0.012631234,1.205615,-0.41294128
0.0,0.0,0.9999999999999999,-0.5235987755982988,-0.5235987755982988,0,0.39327845,-1.2025675,-0.418797,-0.15502311,-0.02838939,0.88463724,-0.9697717,1.6016018,1.0615803,0.017630152,-0.06501061,-0.100291744,1.251907,0.64918035
0.0,0.0,0.9999999999999999,-0.5235987755982988,-0.5235987755982988,0,0.3959644,-1.2035539,-0.41083494,-0.19980659,-0.029449547,0.9384775,0.01190331,1.6020076,1.0704045,-0.03244022,-0.036736235,0.012199533,1.3524082,0.2998221
0.0,0.0,0.9999999999999999,-0.5235987755982988,-0.5235987755982988,0,0.39103425,-1.2019733,-0.41699284,-0.19686885,-0.043840226,0.8407557,0.3047268,1.6031069,1.0689942,0.03234771,0.007483148,0.00026545866,1.249636,1.2368917
0.0,0.0,0.9999999999999999,-0.5235987755982988,-0.5235987755982988,0,0.39380157,-1.2047961,-0.42365256,-0.1757406,0.0053019864,0.8772823,-0.05779693,1.5974184,1.0400251,-0.08395826,-0.047271647,-0.39829344,1.2867653,1.3075718
0.0,0.0,0.9999999999999999,-0.5235987755982988,-0.5235987755982988,0,0.3904827,-1.2030841,-0.4196779,-0.18874614,-0.024174321,0.9372394,0.22094783,1.6029128,1.0753621,-0.15975551,-0.030159878,-0.033060033,1.1919055,0.5281998
0.0,0.0,0.9999999999999999,-0.5235987755982988,-0.5235987755982988,0,0.3953744,-1.2019444,-0.4145625,-0.2265258,-0.020665456,0.9807739,-0.33806434,1.6000335,1.0378712,0.06838466,-0.03917607,-0.22297423,1.2800777,-0.029084343
0.0,0.0,0.9999999999999999,-0.5235987755982988,-0.5235987755982988,0,0.3977948,-1.2051755,-0.41687194,-0.2357375,-0.025717322,1.031601,0.55368495,1.595671,1.0792339,-0.17838927,-0.005246533,0.21397795,1.2091675,1.0788126
0.0,0.0,0.9999999999999999,-0.5235987755982988,-0.5235987755982988,0,0.40277615,-1.2046434,-0.4205291,-0.15039088,0.119347,0.9618936,0.14843374,1.5928978,1.065292,0.039573904,-0.011213479,-0.121408045,1.2590351,-0.09395117
0.0,0.0,0.9999999999999999,-0.5235987755982988,-0.5235987755982988,0,0.3990347,-1.2018883,-0.4152343,-0.16168612,-0.12376288,0.9373226,0.95573974,1.5954874,1.0437847,0.04916581,-0.08048837,0.054536834,1.2879002,0.013716691
0.0,0.0,0.9999999999999999,-0.5235987755982988,-0.5235987755982988,0,0.38963985,-1.2017115,-0.42031002,-0.22533894,0.03167139,0.915025,0.6497588,1.6000832,1.0951662,0.11467571,-0.08962281,-0.01692935,1.410994,-0.2535299
0.0,0.0,0.9999999999999999,-0.5235987755982988,-0.5235987755982988,0,0.39284998,-1.2054646,-0.42440134,-0.22497565,-0.086264126,0.9704425,-0.17813636,1.6027192,1.0898621,0.162011,-0.06668454,-0.017170932,1.4711624,0.7170535
0.0,0.0,0.9999999999999999,-0.5235987755982988,-0.5235987755982988,0,0.39302844,-1.2031195,-0.41820678,-0.19712797,-0.016910724,0.9116028,1.0200953,1.600242,1.0777534,0.032434627,0.012982047,0.12696016,1.3746508,1.0270964
0.0,0.0,0.9999999999999999,-0.5235987755982988,-0.5235987755982988,0,0.39128375,-1.2014595,-0.41340578,-0.19228126,-0.00387137,0.91408247,1.0515788,1.597483,1.0816933,0.13844068,-0.016757537,0.27594018,1.3198195,0.7113694
0.0,0.0,0.9999999999999999,-0.5235987755982988,-0.5235987755982988,0,0.39642188,-1.2048956,-0.41880462,-0.2081811,-0.033319168,0.99068815,0.032617994,1.5978307,1.0631062,-0.1523072,-0.02611395,0.14147747,1.305621,0.02422207
0.0,0.0,0.9999999999999999,-0.5235987755982988,-0.5235987755982988,0,0.39358285,-1.1999849,-0.41676542,-0.1719171,-0.07422746,0.884531,-0.023670577,1.5945354,1.0233355,-0.19123434,-0.0022171172,-0.14450118,1.3872879,0.6387019
0.0,0.0,0.9999999999999999,-0.5235987755982988,-0.5235987755982988,0,0.39168835,-1.2035345,-0.41962475,-0.17697501,-0.18160625,0.95382583,2.2299664,1.5969282,1.0641272,-0.016391914,-0.09307822,0.17414828,1.362351,0.25182098
0.0,0.0,0.9999999999999999,-0.5235987755982988,-0.5235987755982988,0,0.39140204,-1.2037634,-0.41835606,-0.20650923,-0.08785693,0.8663484,0.7814773,1.6038233,1.0578618,0.15103096,-0.045702532,0.010486834,1.208991,0.64354074
0.0,0.0,0.9999999999999999,-0.5235987755982988,-0.5235987755982988,0,0.3976022,-1.2046833,-0.4178911,-0.22312953,-0.0018846919,0.8387352,1.0187442,1.5989022,1.0374231,0.044135,-0.065246284,-0.26597384,1.2749074,0.40485325
0.0,0.0,0.9999999999999999,-0.5235987755982988,-0.5235987755982988,0,0.39186975,-1.2045001,-0.42163867,-0.2030324,0.041398127,0.9165967,0.9573558,1.5983033,1.0262972,0.28049666,-0.06334961,-0.03169347,1.255444,-0.6840257
0.0,0.0,0.9999999999999999,-0.5235987755982988,-0.5235987755982988,0,0.3944411,-1.201783,-0.41516557,-0.2015967,-0.0743065,0.8295071,0.3504833,1.5966423,1.0145094,0.060360856,-0.04771575,-0.015637286,1.3392663,-0.15909405
0.0,0.0,0.9999999999999999,-0.5235987755982988,-0.5235987755982988,0,0.3986514,-1.2045695,-0.41283166,-0.21198763,-0.055091713,0.9537781,0.8278333,1.5956268,1.0801184,-0.17695868,-0.012564599,0.18972285,1.2739472,-0.5802782
0.0,0.0,0.9999999999999999,-0.5235987755982988,-0.5235987755982988,0,0.39089614,-1.2016184,-0.41340742,-0.19513363,-0.13010779,0.8975245,0.85503376,1.6004169,1.0153561,0.052538034,-0.047334958,0.023358127,1.3629385,-0.77014214
0.0,0.0,0.9999999999999999,-0.5235987755982988,-0.5235987755982988,0,0.3932051,-1.2022487,-0.4188311,-0.18436874,0.022296641,1.0251255,1.3392669,1.6007023,0.9958041,-0.014902007,-0.06833032,-0.14373511,1.3098277,0.17276478
0.0,0.0,0.9999999999999999,-0.5235987755982988,-0.5235987755982988,0,0.39364836,-1.2027688,-0.41384336,-0.23314396,-0.057405338,1.003238,0.47895533,1.5984085,1.0438663,-0.13340364,-0.10621856,0.24116684,1.1980258,0.41867352
0.0,0.0,0.9999999999999999,-0.5235987755982988,-0.5235987755982988,0,0.39412355,-1.2024196,-0.41402903,-0.22273998,0.0028096307,0.9160596,0.083256885,1.595998,1.0466223,0.07358653,-0.038725022,0.023681706,1.361437,0.23575172
0.0,0.0,0.9999999999999999,-0.5235987755982988,-0.5235987755982988,0,0.39016765,-1.2027161,-0.41517165,-0.18967406,0.046885986,1.044031,0.07410889,1.6070272,1.0457436,0.064052336,-0.07218194,-0.269633,1.3069681,0.012995064
0.0,0.0,0.9999999999999999,-0.5235987755982988,-0.5235987755982988,0,0.3889601,-1.2037444,-0.42250562,-0.20812136,0.0051923543,0.936623,0.7364038,1.604912,1.0029433,0.07296888,-0.03013965,-0.15257727,1.3597983,-0.14234878
0.0,0.0,0.9999999999999999,-0.5235987755982988,-0.5235987755982988,0,0.39689332,-1.2037934,-0.41649026,-0.15030187,-0.082175665,0.9734002,0.6727311,1.5983256,1.0534319,0.080106,-0.05715362,-0.10345802,1.2550594,0.1588003
0.0,0.0,0.9999999999999999,-0.5235987755982988,-0.5235987755982988,0,0.38895458,-1.2031646,-0.4190462,-0.17513157,-0.001778456,0.9865814,0.49629232,1.595413,1.0790118,-0.021127306,-0.0073310826,0.18965784,1.2172275,0.43128246
0.0,0.0,0.9999999999999999,-0.5235987755982988,-0.5235987755982988,0,0.39199433,-1.201485,-0.4187769,-0.17732963,-0.09416057,0.87793785,0.3940061,1.5984706,1.0196339,0.043340005,-0.047761966,-0.12900881,1.3015949,0.0003842157
0.0,0.0,0.9999999999999999,-0.5235987755982988,-0.5235987755982988,0,0.39763352,-1.2013861,-0.4158813,-0.17863356,-0.16229011,0.9267904,0.68555903,1.5960472,1.0293288,0.052687544,-0.06228405,-0.13778692,1.3871648,-1.2235768
0.0,0.0,0.9999999999999999,-0.5235987755982988,-0.5235987755982988,0,0.39241478,-1.2045972,-0.41756505,-0.17230353,-0.07230363,1.0165216,0.3483821,1.5966781,1.077892,-0.017043265,-0.07579173,-0.035447143,1.2724234,0.7433345
0.0,0.0,0.9999999999999999,-0.5235987755982988,-0.5235987755982988,0,0.3990147,-1.2033356,-0.4161714,-0.1798632,-0.006756941,0.94557357,1.0827849,1.604635,1.0127069,0.09302557,0.0027200999,0.018711813,1.3738962,0.18782818
0.0,0.0,0.9999999999999999,-0.5235987755982988,-0.5235987755982988,0,0.39921373,-1.2035326,-0.4199684,-0.17112434,-0.09019126,0.93731296,0.34294158,1.5977414,1.0267935,0.06723423,-0.095616266,0.0790919,1.2399446,0.1488127
0.0,0.0,0.9999999999999999,-0.5235987755982988,-0.5235987755982988,0,0.3894143,-1.2023636,-0.41159797,-0.1939822,-0.150922,0.8243353,0.89948,1.5982099,1.0464364,0.052058976,-0.0013734392,-0.18304312,1.3622427,-0.44377914
0.0,0.0,0.9999999999999999,-0.5235987755982988,-0.5235987755982988,0,0.39545515,-1.2044257,-0.41564444,-0.20227684,0.06390944,0.9674289,0.8400258,1.6008707,1.0534599,0.12006399,-0.0012658132,-0.044959605,1.3877271,0.113690816
0.0,0.0,0.9999999999999999,-0.5235987755982988,-0.5235987755982988,0,0.39246058,-1.2017213,-0.41764462,-0.2094309,-0.10316589,1.034696,-0.5383238,1.5946018,1.0543154,0.012139489,-0.0761551,-0.2708359,1.3496393,0.537595
0.0,0.0,0.9999999999999999,-0.5235987755982988,-0.5235987755982988,0,0.39700127,-1.1999726,-0.4127379,-0.18964985,-0.04989055,0.9466297,1.3585492,1.5969543,1.0196809,-0.07332874,-0.06988457,0.024260629,1.2647517,0.56620383
0.0,0.0,0.9999999999999999,-0.5235987755982988,-0.5235987755982988,0,0.3963665,-1.2065617,-0.4236961,-0.16830193,-0.1504133,0.9049266,-0.04641612,1.5999093,1.0462728,-0.042316105,-0.020492004,-0.22505765,1.3453225,0.90927196
0.0,0.0,0.9999999999999999,-0.5235987755982988,-0.5235987755982988,0,0.39117992,-1.2043747,-0.4197515,-0.20099398,-0.018192979,1.0015832,0.4537868,1.6007161,1.0644937,0.27604064,-0.04343204,0.06594177,1.250419,0.7302666
0.0,0.0,0.9999999999999999,-0.5235987755982988,-0.5235987755982988,0,0.39563024,-1.2031453,-0.41513205,-0.17469324,-0.035483558,0.8397879,-0.46387973,1.5948671,1.0431114,-0.058133706,-0.0606521,-0.017737404,1.4479642,-0.2729422
0.0,0.0,0.9999999999999999,-0.5235987755982988,-0.5235987755982988,0,0.39402124,-1.2020384,-0.41466656,-0.20056587,-0.06808038,0.9245639,0.7860762,1.5959808,1.0386666,0.042914562,-0.037938118,0.09739937,1.2476342,-0.06412095
0.0,0.0,0.9999999999999999,-0.5235987755982988,-0.5235987755982988,0,0.39005786,-1.2050512,-0.41081458,-0.15010002,0.039066114,1.028358,0.19848351,1.5973687,1.0225426,0.07626666,-0.11365861,0.3324223,1.331727,-0.062491573
0.0,0.0,0.9999999999999999,-0.5235987755982988,-0.5235987755982988,0,0.40189913,-1.2049809,-0.41581833,-0.17914237,0.03075876,0.9443152,0.8029445,1.6016206,1.0186408,0.017255172,-0.08768677,0.018217059,1.3880266,-0.459529
0.0,0.0,0.9999999999999999,-0.5235987755982988,-0.5235987755982988,0,0.39172754,-1.2052178,-0.41894895,-0.19913688,-0.050215255,0.8827961,1.4524351,1.5992669,1.0469313,0.041743625,-0.047834866,-0.14143096,1.3667806,0.34920022
0.0,0.0,0.9999999999999999,-0.5235987755982988,-0.5235987755982988,0,0.39387494,-1.2054436,-0.41619053,-0.16090792,0.03451617,0.9054679,0.11897723,1.5974231,1.0712559,0.16123876,-0.030029207,-0.11219406,1.4414389,-0.30688193
0.0,0.0,0.9999999999999999,-0.5235987755982988,-0.5235987755982988,0,0.39154008,-1.2038056,-0.4130029,-0.19303395,0.038961712,0.89257723,0.4497362,1.5913361,1.097838,-0.009694681,-0.08567195,-0.24781239,1.2283208,0.22607417
0.0,0.0,0.9999999999999999,-0.5235987755982988,-0.5235987755982988,0,0.39720023,-1.2041522,-0.41075477,-0.2212232,0.06634457,0.95969063,0.31111407,1.5984879,1.0634187,-0.004028763,-0.114051804,-0.060002286,1.325165,-0.97715676
0.0,0.0,0.9999999999999999,-0.5235987755982988,-0.5235987755982988,0,0.39229694,-1.2031233,-0.4167852,-0.19102421,0.038654067,0.94106615,0.9219816,1.5960386,1.0542485,0.018631877,-0.0053929244,0.08785528,1.2560132,0.16805883
0.0,0.0,0.9999999999999999,-0.5235987755982988,-0.5235987755982988,0,0.3972768,-1.2058617,-0.41255412,-0.24911837,0.048570957,0.95152795,1.4923009,1.5960722,1.0384982,0.056282077,0.054355033,0.08597377,1.4321686,-0.14458178
0.0,0.0,0.9999999999999999,-0.5235987755982988,-0.5235987755982988,0,0.39460316,-1.2037216,-0.41810423,-0.18441023,0.09463938,1.0904746,0.65963435,1.598201,1.0398381,0.15778446,-0.014301611,-0.07226151,1.3544545,-0.16270444
0.0,0.0,0.9999999999999999,-0.5235987755982988,-0.5235987755982988,0,0.39456558,-1.203695,-0.41925973,-0.19094852,-0.063315645,0.914494,1.4380543,1.5968664,1.0300533,-0.05617295,-0.044986725,0.13395177,1.2970742,0.39066088
0.0,0.0,0.9999999999999999,-0.5235987755982988,-0.5235987755982988,0,0.3991893,-1.2054081,-0.41589898,-0.16687806,-0.15896732,1.0292599,-0.1213006,1.6017851,1.0425305,-0.14637119,-0.011613165,0.07275479,1.3455772,-0.00357808
0.0,0.0,0.9999999999999999,-0.5235987755982988,-0.5235987755982988,0,0.39727768,-1.204412,-0.41353706,-0.17782037,-0.11629998,1.0359473,0.08299144,1.5937098,1.0597527,0.057460714,-0.011497943,0.15159348,1.2320257,0.36801642
0.0,0.0,0.9999999999999999,-0.5235987755982988,-0.5235987755982988,0,0.39439017,-1.2030569,-0.41257733,-0.16556452,-0.03451024,0.969864,-0.3010989,1.5931947,1.0595568,-0.0017151313,-0.063390724,0.0718802,1.2553871,-0.45216224
0.0,0.0,0.9999999999999999,-0.5235987755982988,-0.5235987755982988,0,0.39224043,-1.2045723,-0.4152227,-0.17810002,-0.029536868,1.0219485,1.2972555,1.5986012,1.0419104,-0.1714231,-0.045155793,0.043376286,1.4239864,0.30694443
0.0,0.0,0.9999999999999999,-0.5235987755982988,-0.5235987755982988,0,0.38883004,-1.2049636,-0.41870776,-0.15244675,-0.040721547,0.9243545,0.2147715,1.5995082,1.0675595,-0.024901329,-0.075790204,-0.09525044,1.3101002,-0.19079764
0.0,0.0,0.9999999999999999,-0.5235987755982988,-0.5235987755982988,0,0.39991543,-1.2067235,-0.41635156,-0.18261732,0.020201143,1.018285,0.07861259,1.6059566,1.0317212,-0.081852615,-0.03429241,-0.12116425,1.2506406,0.80575204
0.0,0.0,0.9999999999999999,-0.5235987755982988,-0.5235987755982988,0,0.39553472,-1.2038202,-0.4185955,-0.17912108,-0.09217234,0.9170928,1.8236574,1.6041281,1.0201367,0.014764656,-0.05369439,0.12608665,1.326021,0.9907523
0.0,0.0,0.9999999999999999,-0.5235987755982988,-0.5235987755982988,0,0.3906308,-1.2039869,-0.41013828,-0.19355483,-0.019360414,0.9373023,-0.09176335,1.5983406,1.0604202,0.08770308,-0.05613964,-0.12884147,1.4059372,-0.10442421
0.0,0.0,0.9999999999999999,-0.5235987755982988,-0.5235987755982988,0,0.3926317,-1.2042491,-0.4151135,-0.17308205,-0.095802106,1.0136424,0.53043896,1.6045126,1.0319712,0.008467115,-0.09087725,-0.11819578,1.2746892,-0.13187079
0.0,0.0,0.9999999999999999,-0.5235987755982988,-0.5235987755982988,0,0.40194243,-1.201014,-0.41206762,-0.18481246,0.0070706075,0.88902706,-0.08617296,1.5950775,1.0437639,-0.08434605,-0.0054739015,-0.082456395,1.2962289,-0.045760475
0.0,0.0,0.9999999999999999,-0.5235987755982988,-0.5235987755982988,0,0.40088737,-1.2009168,-0.40999117,-0.20084062,-0.11191257,0.9387077,0.10801782,1.602743,1.0776091,-0.036407027,-0.050301347,-0.03882325,1.406337,1.1104583
0.0,0.0,0.9999999999999999,-0.5235987755982988,-0.5235987755982988,0,0.40654007,-1.2011795,-0.41091466,-0.18289348,-0.104383096,0.9117937,-0.15576652,1.6009519,1.0541642,0.09358274,-0.05793276,0.004348724,1.2302046,0.40901497
0.0,0.0,0.9999999999999999,-0.5235987755982988,-0.5235987755982988,0,0.3894243,-1.200145,-0.40486735,-0.20142192,-0.049318776,0.94638216,0.6708156,1.6016136,1.0320572,0.11043016,-0.087418504,0.006325509,1.2399275,0.23200653
0.0,0.0,0.9999999999999999,-0.5235987755982988,-0.5235987755982988,0,0.40143466,-1.20368,-0.40916803,-0.1823864,-0.0013214428,0.87655485,-0.043052793,1.5993326,1.0536244,-0.09203118,-0.095175415,-0.12413458,1.2527574,1.7757275
0.0,0.0,0.9999999999999999,-0.5235987755982988,-0.5235987755982988,0,0.40292752,-1.2003025,-0.41408545,-0.17838965,-0.067508005,0.83130074,-0.47701842,1.5994613,1.0732447,0.0792397,-0.032705836,0.07661867,1.2737405,-0.55896205
0.0,0.0,0.9999999999999999,-0.5235987755982988,-0.5235987755982988,0,0.40289643,-1.2001936,-0.41306663,-0.22121987,0.002895207,0.97669584,0.54019433,1.5991336,1.073493,0.06680679,-0.056438312,-0.31946144,1.2668687,0.4104214
0.0,0.0,0.9999999999999999,-0.5235987755982988,-0.5235987755982988,0,0.40102714,-1.2001215,-0.42326027,-0.19117783,-0.098143674,0.90928715,-0.7939643,1.6029844,1.0499431,0.05086219,-0.042118296,0.16082205,1.254661,1.0954585
0.0,0.0,0.9999999999999999,-0.5235987755982988,-0.5235987755982988,0,0.3929502,-1.1983976,-0.42217085,-0.19037163,0.00826761,0.8720579,1.3488449,1.5968032,1.0840911,-0.11774173,-0.088603854,0.1379456,1.276735,0.001551767
0.0,0.0,0.9999999999999999,-0.5235987755982988,-0.5235987755982988,0,0.4022165,-1.2020744,-0.41948602,-0.17495097,-0.09070538,0.9099094,0.61870277,1.606676,1.0630987,-0.07385643,-0.046493553,-0.04149184,1.3714509,0.39801624
0.0,0.0,0.9999999999999999,-0.5235987755982988,-0.5235987755982988,0,0.39977193,-1.2000604,-0.41796464,-0.20926288,-0.196251,0.9738616,0.6240631,1.5982362,1.0961581,0.13846998,-0.08043384,0.060965072,1.1857052,-0.2711206
0.0,0.0,0.9999999999999999,-0.5235987755982988,-0.5235987755982988,0,0.39212635,-1.1980734,-0.41789815,-0.1674021,-0.08385391,0.78284305,-0.7448883,1.6005461,1.053429,0.06229596,-0.08093396,0.09962883,1.3596284,0.5205825
0.0,0.0,0.9999999999999999,-0.5235987755982988,-0.5235987755982988,0,0.3986255,-1.2000594,-0.42222685,-0.21079326,-0.032641217,0.9229944,0.33396456,1.6021936,1.0610833,-0.13145317,-0.051310554,0.08171642,1.3182358,0.019322647
0.0,0.0,0.9999999999999999,-0.5235987755982988,-0.5235987755982988,0,0.40330562,-1.2009171,-0.4147709,-0.17336525,0.0007885906,0.88080096,0.77869034,1.5971147,1.0743519,-0.18764932,-0.060174234,0.23397654,1.3699093,0.41949204
0.0,0.0,0.9999999999999999,-0.5235987755982988,-0.5235987755982988,0,0.40678826,-1.2048992,-0.41729555,-0.17709357,-0.14317524,0.96018714,0.5743437,1.6041446,1.0570589,0.070842296,-0.039246034,0.2070092,1.2705299,-0.31350976
0.0,0.0,0.9999999999999999,-0.5235987755982988,-0.5235987755982988,0,0.3959384,-1.1996291,-0.41273168,-0.16736315,0.01364548,0.92444855,0.612773,1.5961329,1.0849617,0.1604075,-0.09555347,0.114055075,1.2882389,-0.07500493
0.0,0.0,0.9999999999999999,-0.5235987755982988,-0.5235987755982988,0,0.39924467,-1.201181,-0.4135228,-0.18150222,0.035205886,1.0340475,0.5016718,1.5962846,1.0993959,-0.11058854,-0.06459159,-0.03182009,1.2521659,-0.64347136
0.0,0.0,0.9999999999999999,-0.5235987755982988,-0.5235987755982988,0,0.40001208,-1.1986027,-0.41644815,-0.19379485,0.10872765,0.9694267,1.5962571,1.5964923,1.0492898,-0.06788279,-0.08102213,-0.13460156,1.3121613,0.84844315
0.0,0.0,0.9999999999999999,-0.5235987755982988,-0.5235987755982988,0,0.40413156,-1.2034305,-0.4159843,-0.15899867,-0.12001692,1.0408225,1.1185858,1.5992069,1.0755582,0.20361367,-0.08614928,-0.16931237,1.2892848,0.20317174
0.0,0.0,0.9999999999999999,-0.5235987755982988,-0.5235987755982988,0,0.402862,-1.2023828,-0.41619492,-0.18230334,0.09076046,0.97794527,1.5230256,1.6007727,1.041917,0.020256534,-0.047425937,0.1056598,1.4016354,1.2843091
0.0,0.0,0.9999999999999999,-0.5235987755982988,-0.5235987755982988,0,0.395538,-1.2015843,-0.41692355,-0.17307396,-0.11296532,0.9604986,0.35435593,1.6007887,1.0958775,-0.1660903,-0.06288896,0.09888893,1.3518232,1.5332946
0.0,0.0,0.9999999999999999,-0.5235987755982988,-0.5235987755982988,0,0.39751783,-1.2023638,-0.41547853,-0.1677949,0.02693606,0.9401679,0.56803143,1.6018951,1.0551858,-0.016692355,-0.027183175,-0.28713584,1.3111115,-0.4061541
0.0,0.0,0.9999999999999999,-0.5235987755982988,-0.5235987755982988,0,0.3971235,-1.2047682,-0.42267427,-0.13056974,-0.02152812,0.99625707,0.1659724,1.6028756,1.0797241,0.085280724,-0.09138126,0.017354371,1.2525681,0.96291924
0.0,0.0,0.9999999999999999,-0.5235987755982988,-0.5235987755982988,0,0.3996655,-1.2009289,-0.4126212,-0.16881405,-0.059561547,0.9189042,0.76656985,1.6043702,1.0349349,0.045973722,-0.107534945,0.009237015,1.2970822,0.29259923
0.0,0.0,0.9999999999999999,-0.5235987755982988,-0.5235987755982988,0,0.40011403,-1.2019018,-0.41890702,-0.18723387,0.007341187,0.9883816,-0.051231768,1.6022829,1.0433903,-0.05855936,-0.050293934,0.09998214,1.4172089,0.53472245
0.0,0.0,0.9999999999999999,-0.5235987755982988,-0.5235987755982988,0,0.39847308,-1.2030581,-0.4244665,-0.19484112,-0.00997239,0.9272371,0.9368625,1.6008288,1.0364827,0.19174115,-0.03551236,0.43978342,1.2877815,0.0650379
0.0,0.0,0.9999999999999999,-0.5235987755982988,-0.5235987755982988,0,0.39825043,-1.2018335,-0.41729543,-0.17822975,0.030570595,0.8879581,0.32524475,1.5987698,1.0669703,-0.17061357,-0.0546257,-0.013491,1.2670993,-0.07373293
0.0,0.0,0.9999999999999999,-0.5235987755982988,-0.5235987755982988,0,0.39536068,-1.2023113,-0.41749182,-0.14634196,0.008287542,0.94468755,0.3567317,1.6006594,1.0980006,0.06876301,-0.036555383,-0.016506054,1.360254,0.13581325
0.0,0.0,0.9999999999999999,-0.5235987755982988,-0.5235987755982988,0,0.40014207,-1.2032876,-0.41812673,-0.1858054,-0.031185739,0.9753631,-0.02054173,1.5974878,1.1047748,-0.13434903,-0.025780685,0.21887013,1.3271555,0.08220157
0.0,0.0,0.9999999999999999,-0.5235987755982988,-0.5235987755982988,0,0.40242198,-1.202247,-0.4136394,-0.21753733,0.017583733,1.021028,0.59748375,1.5944183,1.0464342,0.15706445,-0.10235353,0.15626903,1.2332786,0.10225226
0.0,0.0,0.9999999999999999,-0.5235987755982988,-0.5235987755982988,0,0.3960235,-1.2011273,-0.4261417,-0.18800211,-0.026458498,1.0517846,0.8693448,1.6022781,1.0466905,0.017655622,-0.054566618,-0.016799876,1.3189535,0.08792558
0.0,0.0,0.9999999999999999,-0.5235987755982988,-0.5235987755982988,0,0.39889872,-1.2025286,-0.41475195,-0.17524725,-0.053868752,0.880429,0.30087504,1.5983521,1.0678967,0.3115251,-0.071912356,0.074277155,1.3751131,0.72786784
0.0,0.0,0.9999999999999999,-0.5235987755982988,-0.5235987755982988,0,0.39888084,-1.2033112,-0.41836402,-0.16160989,-0.030326849,0.97208536,-0.024709092,1.6045969,1.0504174,-0.22165622,-0.08446122,0.06844495,1.3294436,0.58065826
0.0,0.0,0.9999999999999999,-0.5235987755982988,-0.5235987755982988,0,0.39330497,-1.2013398,-0.41817173,-0.16275665,7.797982e-06,0.85165656,1.4376926,1.6049302,1.0468855,0.15464944,-0.09873852,0.07627533,1.3420544,0.86288196
0.0,0.0,0.9999999999999999,-0.5235987755982988,-0.5235987755982988,0,0.40303478,-1.20402,-0.41811684,-0.17866418,-0.007861607,0.9600145,0.13222648,1.5967683,1.0815961,-0.121137515,-0.0499009,-0.2127671,1.2670523,-0.8411766
0.0,0.0,0.9999999999999999,-0.5235987755982988,-0.5235987755982988,0,0.40139365,-1.202212,-0.41673085,-0.19876048,-0.09041975,0.93034685,0.9433974,1.6030037,1.036226,0.16081357,-0.04076904,0.08416395,1.2958304,-0.061819978
0.0,0.0,0.9999999999999999,-0.5235987755982988,-0.5235987755982988,0,0.3994988,-1.2036753,-0.42088944,-0.16983289,0.054320347,0.9744019,0.39825878,1.5948199,1.0615203,0.2440095,-0.059325717,0.2937619,1.2867471,0.35424462
0.0,0.0,0.9999999999999999,-0.5235987755982988,-0.5235987755982988,0,0.3968299,-1.2014153,-0.41374364,-0.19451244,-0.051773537,0.85744566,-0.2177984,1.5984678,1.0685617,-0.03043505,-0.11392926,0.07494615,1.2783549,-0.07197857
0.0,0.0,0.9999999999999999,-0.5235987755982988,-0.5235987755982988,0,0.39818442,-1.2008736,-0.41340712,-0.24415645,-0.19355963,0.95096964,0.6376002,1.5942281,1.0523406,-0.04207482,-0.04746314,0.12257392,1.4262571,0.67798096
0.0,0.0,0.9999999999999999,-0.5235987755982988,-0.5235987755982988,0,0.3981148,-1.2040796,-0.41935045,-0.18033078,-0.045029223,0.95728064,-0.16837762,1.5946561,1.0933768,0.18199886,-0.03318655,-0.0923114,1.3284886,0.5455843
0.0,0.0,0.9999999999999999,-0.5235987755982988,-0.5235987755982988,0,0.40036365,-1.201648,-0.41993007,-0.1819001,-0.11583117,0.979867,0.39206067,1.5991392,1.0375595,0.016521612,-0.09567597,-0.06768676,1.32,-0.27559665
0.0,0.0,0.9999999999999999,-0.5235987755982988,-0.5235987755982988,0,0.39976993,-1.2032732,-0.41334444,-0.19601233,-0.09519352,1.0046499,0.54154605,1.6035426,1.0495992,0.017179796,-0.10107179,0.13060573,1.2596803,0.3763402
0.0,0.0,0.9999999999999999,-0.5235987755982988,-0.5235987755982988,0,0.39551258,-1.2021886,-0.415292,-0.16306268,-0.010483884,0.9884662,-0.35137662,1.6015451,1.0700809,0.21208712,-0.074015856,0.029071962,1.3610575,-0.41645432
0.0,0.0,0.9999999999999999,-0.5235987755982988,-0.5235987755982988,0,0.39789328,-1.201597,-0.41264957,-0.19865336,-0.11876902,0.9678284,0.98473126,1.5957628,1.0616677,0.07087644,-0.035150092,-0.04693394,1.2613939,-0.0414
0.0,0.0,0.9999999999999999,-0.5235987755982988,-0.5235987755982988,0,0.39474162,-1.2014186,-0.41756913,-0.2255257,-0.030700069,0.8656136,0.5802024,1.6019515,1.0354754,-0.03306793,-0.013315499,0.23660244,1.3725622,0.042766623
0.0,0.0,0.9999999999999999,-0.5235987755982988,-0.5235987755982988,0,0.40088144,-1.2029788,-0.4167216,-0.18280287,-0.102636866,0.93944174,-0.01749741,1.5943967,1.0766805,0.10295093,-0.03430286,-0.0701248,1.2288301,-0.54257053
0.0,0.0,0.9999999999999999,-0.5235987755982988,-0.5235987755982988,0,0.39762685,-1.2031138,-0.4151376,-0.17725573,0.008468808,0.9677755,0.11466896,1.5970284,1.0872765,0.011947418,-0.042972017,0.020640593,1.2568103,0.15553726
0.0,0.0,0.9999999999999999,-0.5235987755982988,-0.5235987755982988,0,0.39582822,-1.200818,-0.41038102,-0.21450044,0.105016775,0.8596753,0.25265476,1.6005727,1.0554838,0.017941156,-0.008634093,-0.016849589,1.3596267,0.089095436
0.0,0.0,0.9999999999999999,-0.5235987755982988,-0.5235987755982988,0,0.4031122,-1.2035584,-0.4185409,-0.20613672,-0.036312364,1.0121026,1.1221446,1.5935541,1.0504484,0.084712304,-0.042844526,0.14523321,1.1323025,0.4693701
0.0,0.0,0.9999999999999999,-0.5235987755982988,-0.5235987755982988,0,0.39934596,-1.2043893,-0.41625872,-0.20719548,-0.04142935,0.9028837,0.66113216,1.602016,1.0763868,-0.08096932,-0.114063546,-0.15616785,1.2667778,-0.35419
0.0,0.0,0.9999999999999999,-0.5235987755982988,-0.5235987755982988,0,0.3952804,-1.2030375,-0.41954923,-0.19339968,0.16407718,0.9903452,0.5189939,1.597432,1.0723152,-0.075051956,-0.14631791,-0.016475763,1.1990986,-0.023735726
0.0,0.0,0.9999999999999999,-0.5235987755982988,-0.5235987755982988,0,0.39769965,-1.2044748,-0.4118187,-0.17416808,-0.060988773,0.8978491,0.35155708,1.5973481,1.1108196,0.23386134,-0.06834255,-0.24485907,1.3355064,0.94314736
0.0,0.0,0.9999999999999999,-0.5235987755982988,-0.5235987755982988,0,0.39640045,-1.2021933,-0.4138076,-0.19580805,-0.034422815,0.8910394,1.0638249,1.6007245,1.053964,0.046534866,-0.09483547,0.2390063,1.3910756,0.63520384
0.0,0.0,0.9999999999999999,-0.5235987755982988,-0.5235987755982988,0,0.39464432,-1.2026185,-0.41679937,-0.15896365,0.008966912,0.97943354,-0.3768527,1.6046433,1.0626642,0.09468467,-0.07109376,-0.02991623,1.3082682,-0.10565095
0.0,0.0,0.9999999999999999,-0.5235987755982988,-0.5235987755982988,0,0.39658907,-1.2048436,-0.4197048,-0.19135325,-0.088624775,0.91056633,0.58928484,1.6045843,1.0672528,0.12339732,0.028653568,0.12820034,1.3792669,-1.5025944
0.0,0.0,0.9999999999999999,-0.5235987755982988,-0.5235987755982988,0,0.39727345,-1.203689,-0.42146504,-0.20760454,-0.034478698,0.964348,0.9620596,1.5980477,1.0563146,0.12559839,-0.07460174,0.030926796,1.3706259,-0.15675727
0.0,0.0,0.9999999999999999,-0.5235987755982988,-0.5235987755982988,0,0.3922059,-1.2022305,-0.41914132,-0.17902912,0.02128913,1.0236577,-0.2704181,1.6012896,1.0551664,-0.011754912,-0.10695468,0.06095996,1.4398531,0.099931225
0.0,0.0,0.9999999999999999,-0.5235987755982988,-0.5235987755982988,0,0.39606798,-1.2010626,-0.41235936,-0.18547861,-0.078910984,0.98083675,0.19360793,1.5988809,1.0542685,0.008868449,-0.013077815,0.012616595,1.2912097,-0.2221146
0.0,0.0,0.9999999999999999,-0.5235987755982988,-0.5235987755982988,0,0.39554778,-1.2037601,-0.41984704,-0.20072776,-0.009770961,0.9496844,0.35723877,1.6034836,1.0497456,0.01068028,-0.08210371,0.20535828,1.2419518,0.7877222
0.0,0.0,0.9999999999999999,-0.5235987755982988,-0.5235987755982988,0,0.3931236,-1.2018231,-0.41753805,-0.18660735,-0.13411738,0.9975086,0.9219847,1.5976154,1.092155,0.07554111,-0.03198907,0.014692367,1.3737265,0.17597805
0.0,0.0,0.9999999999999999,-0.5235987755982988,-0.5235987755982988,0,0.40038264,-1.2049115,-0.41968793,-0.20487565,0.00587322,0.9530285,-0.5028485,1.601623,1.0481626,0.0132482005,-0.045870878,0.03445856,1.2909845,0.78607106
0.0,0.0,0.9999999999999999,-0.5235987755982988,-0.5235987755982988,0,0.3983939,-1.2051475,-0.41700482,-0.17008367,0.013337149,0.94763756,0.21660186,1.6004419,1.0609144,-0.13844123,-0.09571687,0.061154786,1.2825799,-0.26158816
0.0,0.0,0.9999999999999999,-0.5235987755982988,-0.5235987755982988,0,0.39336964,-1.2020912,-0.4151905,-0.18834943,-0.089229904,1.0452306,-0.14654005,1.6028323,1.0470521,0.09236091,0.016102089,-0.024099367,1.276044,-0.4390976
0.0,0.0,0.9999999999999999,-0.5235987755982988,-0.5235987755982988,0,0.39448363,-1.2026066,-0.4168899,-0.17597839,-0.118359335,1.0180522,0.7730339,1.6032392,1.0560231,0.041235685,-0.033344883,-0.1823996,1.3052249,-0.254364
0.0,0.0,0.9999999999999999,-0.5235987755982988,-0.5235987755982988,0,0.39190793,-1.2038903,-0.4207012,-0.16794503,-0.0401213,0.9403242,0.5621988,1.6068808,1.081445,0.14831749,-0.07317719,0.24329594,1.3551586,0.45652333
0.0,0.0,0.9999999999999999,-0.5235987755982988,-0.5235987755982988,0,0.39454094,-1.2035586,-0.419127,-0.2046979,-0.043610945,0.85209525,1.6859102,1.6037303,1.0430318,0.07843436,-0.069484405,0.016838282,1.2383596,0.074140914
0.0,0.0,0.9999999999999999,-0.5235987755982988,-0.5235987755982988,0,0.3938982,-1.203271,-0.4208821,-0.19717495,-0.046533488,0.95511836,-0.25792027,1.5993532,1.0624114,-0.010381986,-0.072688386,0.31711584,1.2968162,0.40457466
0.0,0.0,0.9999999999999999,-0.5235987755982988,-0.5235987755982988,0,0.3978327,-1.2053038,-0.41960472,-0.19012246,-0.04253609,0.91949075,-0.29645926,1.599099,1.0908138,-0.064830184,-0.0044304393,-0.10229536,1.4151039,-1.0991926
0.0,0.0,0.9999999999999999,-0.5235987755982988,-0.5235987755982988,0,0.39118493,-1.2031068,-0.41976947,-0.16228081,0.006099634,0.94591016,-0.59496063,1.6011212,1.0864656,0.038291033,-0.04457611,0.13775152,1.3248999,-0.55826014
0.0,0.0,0.9999999999999999,-0.5235987755982988,-0.5235987755982988,0,0.38771105,-1.2021452,-0.42063698,-0.18482575,-0.17825337,0.9689806,1.178377,1.6002088,1.0428689,-0.095887154,-0.025327325,-0.018348774,1.195029,0.5670503
0.0,0.0,0.9999999999999999,-0.5235987755982988,-0.5235987755982988,0,0.39345887,-1.2011492,-0.41974217,-0.17923398,-0.09709126,1.035234,0.19090202,1.5966071,1.0567253,0.0036364468,-0.031237612,0.24399577,1.2461605,-1.0255126
0.0,0.0,0.9999999999999999,-0.5235987755982988,-0.5235987755982988,0,0.3967994,-1.2017918,-0.4164026,-0.17259422,-0.0751804,0.9803575,-0.040604655,1.5980434,1.0310055,0.17707849,-0.078162596,-0.113567956,1.3509276,1.0566286
0.0,0.0,0.9999999999999999,-0.5235987755982988,-0.5235987755982988,0,0.39956954,-1.2048517,-0.4127004,-0.17667103,0.018484782,0.84189624,-0.5439015,1.5996586,1.0354568,0.13416165,-0.055487804,-0.23151635,1.3075776,-0.2930414
0.0,0.0,0.9999999999999999,-0.5235987755982988,-0.5235987755982988,0,0.3926686,-1.2026241,-0.41541135,-0.1806541,-0.013703982,0.98129225,0.72367066,1.5999244,1.0575483,0.13699411,-0.048800763,-0.29534623,1.3305258,0.5538334
0.0,0.0,0.9999999999999999,-0.5235987755982988,-0.5235987755982988,0,0.39341578,-1.2035176,-0.4235534,-0.18678592,-0.09990418,0.88542116,1.1408448,1.5960584,1.0255051,0.0152921,-0.041626744,0.077400655,1.3753268,0.026317632
0.0,0.0,0.9999999999999999,-0.5235987755982988,-0.5235987755982988,0,0.39608297,-1.2010397,-0.4121275,-0.19975157,-0.03529333,0.9242274,-0.21664199,1.5944686,1.0343382,-0.04304312,-0.03772137,-0.11500636,1.2936802,0.18577594
0.0,0.0,0.9999999999999999,-0.5235987755982988,-0.5235987755982988,0,0.40163413,-1.2066543,-0.41556183,-0.2044202,0.0118237445,0.9431627,0.16866058,1.5975422,1.0582613,0.0074799955,-0.048030443,0.025568875,1.356846,0.78307825
0.0,0.0,0.9999999999999999,-0.5235987755982988,-0.5235987755982988,0,0.39467153,-1.2034948,-0.41819265,-0.18506017,-0.07760817,0.93149114,-0.10005991,1.5977023,1.0443443,-0.04480031,-0.064838625,0.052729137,1.1969677,0.8099443
0.0,0.0,0.9999999999999999,-0.5235987755982988,-0.5235987755982988,0,0.399261,-1.2065091,-0.41758847,-0.21057339,-0.03055793,0.9030988,0.024526482,1.5936149,1.0778458,0.05222615,0.019721888,0.00718759,1.3108096,-0.24692571
0.0,0.0,0.9999999999999999,-0.5235987755982988,-0.5235987755982988,0,0.390907,-1.2038882,-0.4130993,-0.19186994,-0.09105327,0.9515778,1.243419,1.6030825,1.0693097,0.0028641259,-0.028375028,0.08967863,1.2716258,-0.027054427
0.0,0.0,0.9999999999999999,-0.5235987755982988,-0.5235987755982988,0,0.39030772,-1.2032205,-0.41890848,-0.20470534,-0.102317736,1.0771061,0.024869451,1.600111,1.058594,-0.0756243,-0.03501297,-0.13332245,1.2557476,-0.2347208
0.0,0.0,0.9999999999999999,-0.5235987755982988,-0.5235987755982988,0,0.3909446,-1.2039601,-0.41260204,-0.1851672,-0.15006703,0.96531373,-0.16521487,1.6030557,1.0589898,0.008147274,-0.013579608,0.14782469,1.3319958,0.26058155
0.0,0.0,0.9999999999999999,-0.5235987755982988,-0.5235987755982988,0,0.39612666,-1.202548,-0.42122006,-0.16453406,-0.08047749,1.0174302,0.110619105,1.5964346,1.0551977,0.1532811,-0.05281204,-0.21384977,1.3334156,0.3584828
0.0,0.0,0.9999999999999999,-0.5235987755982988,-0.5235987755982988,0,0.38546604,-1.2024753,-0.4152468,-0.18489118,-0.02154858,0.9800087,0.7723631,1.5947268,1.0380538,-0.07277068,-0.05152664,-0.22351736,1.1991602,-0.1285151
0.0,0.0,0.9999999999999999,-0.5235987755982988,-0.5235987755982988,0,0.38834304,-1.2011645,-0.40958792,-0.18875475,0.019724574,0.94791806,0.8566754,1.5999116,1.0359048,0.06263212,-0.0131942835,-0.20025168,1.2756491,0.22214165
0.0,0.0,0.9999999999999999,-0.5235987755982988,-0.5235987755982988,0,0.39535683,-1.202824,-0.42188165,-0.21439382,0.019847658,0.9125467,-0.19602981,1.5935161,1.0507183,-0.08159806,-0.012663021,0.17393844,1.3177181,0.20476496
0.0,0.0,0.9999999999999999,-0.5235987755982988,-0.5235987755982988,0,0.38987073,-1.2032264,-0.4175861,-0.19605486,-0.019433942,0.92306125,-0.106903225,1.6022276,1.0419178,0.04960266,-0.053602066,-0.025310762,1.3539121,0.18645094
0.0,0.0,0.9999999999999999,-0.5235987755982988,-0.5235987755982988,0,0.3930699,-1.2037373,-0.41780397,-0.1891335,0.03262077,0.8724194,0.5714525,1.5960132,1.0418346,0.004939178,-0.09523644,-0.13696435,1.3653914,1.0235565
0.0,0.0,0.9999999999999999,-0.5235987755982988,-0.5235987755982988,0,0.39224395,-1.2028505,-0.41755527,-0.19168934,-0.123636305,0.9894411,1.3204248,1.6010879,1.0305923,-0.020277945,-0.019851455,0.0025479365,1.3029113,0.29969975
0.0,0.0,0.9999999999999999,-0.5235987755982988,-0.5235987755982988,0,0.39504984,-1.2068232,-0.4191834,-0.1991442,-0.10505526,0.9117603,0.9507769,1.5976232,1.0712274,0.23133242,-0.0340757,0.22639221,1.2871478,0.50798315
0.0,0.0,0.9999999999999999,-0.5235987755982988,-0.5235987755982988,0,0.39471874,-1.2072176,-0.42060035,-0.21758461,-0.03691767,0.91871774,1.146836,1.5986048,1.0619241,0.05551794,-0.044975124,0.257957,1.251349,0.37051636
0.0,0.0,0.9999999999999999,-0.5235987755982988,-0.5235987755982988,0,0.39432606,-1.2045807,-0.41470084,-0.23156619,-0.04772123,0.91260576,1.6042262,1.5978506,1.0599717,-0.027337026,-0.045513853,-0.086628996,1.2591815,0.63077766
0.0,0.0,0.9999999999999999,-0.5235987755982988,-0.5235987755982988,0,0.39072922,-1.2049639,-0.41325262,-0.2050447,-0.07028658,1.0244863,0.9300665,1.6044772,1.0634279,0.090404615,-0.06122434,-0.21442007,1.3224888,0.8282395
0.0,0.0,0.9999999999999999,-0.5235987755982988,-0.5235987755982988,0,0.3924729,-1.2056926,-0.4100235,-0.21074964,-0.046237107,0.9926837,0.19741705,1.6030667,1.0856633,0.032036692,-0.09531602,-0.04022041,1.2883153,-0.15856549
0.0,0.0,0.9999999999999999,-0.5235987755982988,-0.5235987755982988,0,0.40402138,-1.2019501,-0.40888795,-0.21635836,-0.0148613155,0.9501899,0.17239994,1.6025988,1.0736853,0.12560578,-0.085203476,-0.021328522,1.4498938,0.11894395
0.0,0.0,0.9999999999999999,-0.5235987755982988,-0.5235987755982988,0,0.39599845,-1.2045207,-0.4097683,-0.19046281,-0.019942192,0.89356905,-0.047865137,1.6056498,1.0432596,0.11009307,-0.04873346,0.09034327,1.2410407,1.1772552
0.0,0.0,0.9999999999999999,-0.5235987755982988,-0.5235987755982988,0,0.40201283,-1.2024425,-0.4188884,-0.21342537,-0.024838176,0.97072816,1.2097303,1.600249,1.0852046,-0.2349636,-0.024274908,-0.035859685,1.2712892,0.04032337
0.0,0.0,0.9999999999999999,-0.5235987755982988,-0.5235987755982988,0,0.40116453,-1.2024575,-0.41824144,-0.20534076,-0.044366937,0.9905002,0.030898254,1.5983821,1.0893445,0.17625731,0.032644678,0.11233137,1.3499117,-0.5898749
0.0,0.0,0.9999999999999999,-0.5235987755982988,-0.5235987755982988,0,0.40132418,-1.2003472,-0.41509807,-0.1912348,-0.10208395,0.8951193,0.50064975,1.6000239,1.0928931,0.022457978,-0.037396524,-0.1848464,1.3011966,-0.659562
0.0,0.0,0.9999999999999999,-0.5235987755982988,-0.5235987755982988,0,0.39935893,-1.2019818,-0.4172903,-0.21138851,-0.1782906,0.94755566,1.0069768,1.6061518,1.0461967,0.21911739,-0.022746345,0.033214003,1.390566,-0.030747967
0.0,0.0,0.9999999999999999,-0.5235987755982988,-0.5235987755982988,0,0.39966795,-1.2007881,-0.41228077,-0.2298602,0.065665096,0.9752617,0.52042115,1.5936722,1.1018265,0.13687415,-0.02256753,0.045702696,1.2842371,-0.045917522
0.0,0.0,0.9999999999999999,-0.5235987755982988,-0.5235987755982988,0,0.40052068,-1.2011188,-0.41289675,-0.19276461,-0.10490055,1.0637422,-0.009982865,1.5978047,1.0807089,0.11990255,-0.084338136,0.02094063,1.3133339,0.96983284
0.0,0.0,0.9999999999999999,-0.5235987755982988,-0.5235987755982988,0,0.3996161,-1.2010264,-0.41845247,-0.23778197,-0.11606945,0.962493,0.5778816,1.5966727,1.0541933,-0.09053497,-0.108334504,0.026483802,1.2941839,0.32902429
0.0,0.0,0.9999999999999999,-0.5235987755982988,-0.5235987755982988,0,0.40002078,-1.2005682,-0.41905457,-0.21005355,-0.019150011,0.9760767,-0.23690808,1.5997291,1.0507625,-0.17272793,-0.03656397,0.023484912,1.395045,0.3629826
0.0,0.0,0.9999999999999999,-0.5235987755982988,-0.5235987755982988,0,0.39872026,-1.2033032,-0.42226717,-0.1950202,0.011168893,0.8832251,1.3184425,1.598686,1.0548432,-0.046074178,-0.06185737,-0.18926829,1.1910807,1.2128043
0.0,0.0,0.9999999999999999,-0.5235987755982988,-0.5235987755982988,0,0.39836425,-1.2027718,-0.41583675,-0.1661039,-0.12941459,1.0351745,0.20278554,1.5998826,1.0836077,0.11704763,-0.031155,-0.13737541,1.3053509,0.107555225
0.0,0.0,0.9999999999999999,-0.5235987755982988,-0.5235987755982988,0,0.4004346,-1.2023705,-0.42347085,-0.1663203,-0.15027426,0.91531765,0.52718145,1.5974565,1.0634048,0.0057606543,-0.07450565,0.09269713,1.3314967,0.51031154
0.0,0.0,0.9999999999999999,-0.5235987755982988,-0.5235987755982988,0,0.39572287,-1.2000253,-0.40903527,-0.18854994,0.11141721,0.897617,0.28009108,1.5995952,1.0408692,0.17518924,-0.077504575,-0.06895781,1.2168272,-1.7000284
0.0,0.0,0.9999999999999999,-0.5235987755982988,-0.5235987755982988,0,0.39485097,-1.2012459,-0.41918072,-0.23679186,-0.040705252,0.9374039,-0.68511766,1.5995486,1.0789684,0.011619929,-0.046036582,-0.049340975,1.1961195,0.2963889
0.0,0.0,0.9999999999999999,-0.5235987755982988,-0.5235987755982988,0,0.3936501,-1.2014544,-0.41986227,-0.2158619,-0.055828363,1.0114307,0.8695946,1.5948437,1.0664763,0.28033254,0.0071670613,0.072949514,1.2225798,0.26327735
0.0,0.0,0.9999999999999999,-0.5235987755982988,-0.5235987755982988,0,0.39497638,-1.2014247,-0.41238964,-0.1603436,0.083420515,0.93013227,0.995396,1.5991161,1.066747,0.11621685,-0.051335342,0.053089596,1.3312597,-0.5252096
0.0,0.0,0.9999999999999999,-0.5235987755982988,-0.5235987755982988,0,0.3996686,-1.2042098,-0.41609964,-0.18600668,-0.20786633,0.9050768,0.9672014,1.6012366,1.0442495,0.28809893,-0.04460757,-0.16224849,1.2869569,0.7649053
0.0,0.0,0.9999999999999999,-0.5235987755982988,-0.5235987755982988,0,0.39823434,-1.2039526,-0.41395932,-0.17342636,0.022768365,0.8753462,0.65741616,1.6000886,1.0741247,0.26903966,-0.020457957,0.28456387,1.3182715,-0.26087725
0.0,0.0,0.9999999999999999,-0.5235987755982988,-0.5235987755982988,0,0.39397827,-1.2024497,-0.41442364,-0.2126748,-0.09750967,1.0039734,-0.40861198,1.6016736,1.0956296,0.012534621,-0.012113725,0.0756817,1.4216843,0.05692101
0.0,0.0,0.9999999999999999,-0.5235987755982988,-0.5235987755982988,0,0.39471638,-1.2021627,-0.41498256,-0.23077129,-0.047048572,0.8689257,0.4339268,1.5949262,1.0592736,0.25617835,-0.071447454,0.031637285,1.183083,-0.14182985
0.0,0.0,0.9999999999999999,-0.5235987755982988,-0.5235987755982988,0,0.3939144,-1.202873,-0.41243073,-0.2033619,0.010781765,1.0147126,0.77984655,1.5996329,1.0926529,0.04926529,-0.021500923,-0.27738804,1.2949762,0.10926085
0.0,0.0,0.9999999999999999,-0.5235987755982988,-0.5235987755982988,0,0.39636987,-1.2022418,-0.41395307,-0.24085219,-0.06320269,0.951823,0.286296,1.599711,1.0547739,0.036074575,-0.025990432,-0.12230352,1.2213922,0.2019501
0.0,0.0,0.9999999999999999,-0.5235987755982988,-0.5235987755982988,0,0.39904,-1.2038506,-0.41490552,-0.17942043,-0.088692635,1.0108598,0.966953,1.5987182,1.050938,-0.1241812,-0.027399898,-0.051298104,1.323359,0.35056323
0.0,0.0,0.9999999999999999,-0.5235987755982988,-0.5235987755982988,0,0.39545676,-1.2026392,-0.41323546,-0.20529553,0.00072645745,0.94845647,1.336464,1.598471,1.0659307,0.052923188,-0.04073545,-0.097698085,1.2865418,0.8377618
0.0,0.0,0.9999999999999999,-0.5235987755982988,-0.5235987755982988,0,0.3938994,-1.2027127,-0.416132,-0.1718976,-0.054828223,1.0201619,0.5713527,1.5962907,1.0734428,0.15268731,-0.06407574,0.11653034,1.3037896,1.6148474
0.0,0.0,0.9999999999999999,-0.5235987755982988,-0.5235987755982988,0,0.39364624,-1.2033396,-0.41294548,-0.21189009,-0.03264536,1.0011811,0.34706292,1.598394,1.0522269,-0.010247671,-0.014861448,0.1110001,1.3018067,0.18159717
0.0,0.0,0.9999999999999999,-0.5235987755982988,-0.5235987755982988,0,0.39727318,-1.2038842,-0.4147687,-0.18928203,0.012037174,0.9204321,1.3327413,1.600151,1.0326685,0.29165304,-0.06871649,0.13423724,1.3686923,0.62884116
0.0,0.0,0.9999999999999999,-0.5235987755982988,-0.5235987755982988,0,0.3989046,-1.202895,-0.4192489,-0.19061695,-0.06535192,1.0259669,0.20134278,1.5944453,1.0352063,0.17282727,-0.032943327,-0.09565287,1.2158793,1.1751771
0.0,0.0,0.9999999999999999,-0.5235987755982988,-0.5235987755982988,0,0.38970578,-1.2028595,-0.41653284,-0.1937746,0.020685902,0.9011231,0.31030497,1.6023148,1.0643077,0.1812692,-0.08226201,-0.12383082,1.2387102,0.1460099
0.0,0.0,0.9999999999999999,-0.5235987755982988,-0.5235987755982988,0,0.39093012,-1.2025278,-0.41904536,-0.20271644,-0.09350946,0.94615275,0.617362,1.5977267,1.0886608,0.13028556,-0.078515194,-0.1382462,1.3247483,0.34262356
0.0,0.0,0.9999999999999999,-0.5235987755982988,-0.5235987755982988,0,0.38809514,-1.2019048,-0.4161295,-0.19434366,-0.050013047,0.9908451,1.6222504,1.6019405,1.0518711,0.14816326,0.0048606596,-0.12053718,1.3686829,-0.33918345
0.0,0.0,0.9999999999999999,-0.5235987755982988,-0.5235987755982988,0,0.3995325,-1.2035098,-0.41846335,-0.2076321,-0.035947893,0.9573241,-0.53306603,1.5937061,1.0322028,0.10685512,-0.020057924,-0.25828502,1.3018408,-0.87896186
0.0,0.0,0.9999999999999999,-0.5235987755982988,-0.5235987755982988,0,0.39329383,-1.204337,-0.4147306,-0.20205544,-0.041510183,0.8714956,1.3234854,1.5931116,1.1085534,0.22685559,-0.03023102,-0.22383699,1.3457682,0.8212964
0.0,0.0,0.9999999999999999,-0.5235987755982988,-0.5235987755982988,0,0.3965429,-1.2049049,-0.41711363,-0.19782801,-0.07724781,0.98870826,0.5051085,1.5962065,1.0536371,-0.12894504,-0.046600003,-0.097816646,1.3855772,1.0508956
0.0,0.0,0.9999999999999999,-0.5235987755982988,-0.5235987755982988,0,0.39455524,-1.2061517,-0.41943607,-0.1767902,-0.047897417,0.9502772,0.7556088,1.6029372,1.0397787,0.058423262,-0.035915945,-0.0638961,1.3131145,0.16925858
0.0,0.0,0.9999999999999999,-0.5235987755982988,-0.5235987755982988,0,0.39315465,-1.2031358,-0.4122107,-0.19574273,0.008537623,0.9220923,0.3489353,1.5901614,1.0534443,0.074780755,-0.023778096,0.33460826,1.3471528,1.6034826
0.0,0.0,0.9999999999999999,-0.5235987755982988,-0.5235987755982988,0,0.3913647,-1.2035865,-0.41288713,-0.17879032,0.0069874926,1.0453298,0.33594844,1.5903635,1.0756507,0.114236385,-0.057282533,0.21758083,1.3868576,1.143409
0.0,0.0,0.9999999999999999,-0.5235987755982988,-0.5235987755982988,0,0.3944455,-1.2034484,-0.41688952,-0.19026849,-0.029959332,0.95491636,1.0073069,1.5939661,1.049396,0.03339476,-0.03459273,0.16783638,1.3181106,-0.8652931
0.0,0.0,0.9999999999999999,-0.5235987755982988,-0.5235987755982988,0,0.40675026,-1.2033374,-0.41323164,-0.22034943,0.0045428267,0.9462835,0.83793765,1.5967525,1.046451,0.03563921,-0.09190259,-0.15721181,1.2188439,0.92382264
