sanky1234/BimanualDexCatch/isaacgymenvs/cem_results/football_pose_-0.2_-0.2_0.6_-0.5235987755982988_-0.34906585039886584_-0.5235987755982988.csv
x,y,z,roll,pitch,yaw,robot1/joint1,robot1/joint2,robot1/joint3,robot1/joint4,robot1/joint5,robot1/joint6,robot1/joint7,robot2/joint1,robot2/joint2,robot2/joint3,robot2/joint4,robot2/joint5,robot2/joint6,robot2/joint7
-0.2,-0.2,0.6,-0.5235987755982988,-0.34906585039886584,-0.5235987755982988,1.7916127,1.2530652,0.33815727,-0.12855512,-0.07801472,1.0193449,-0.14378639,-0.17635712,1.4432142,-0.2738795,-0.11296959,-0.04722519,1.3306786,0.09658352
-0.2,-0.2,0.6,-0.5235987755982988,-0.34906585039886584,-0.5235987755982988,1.7846512,1.2546484,0.33228284,-0.10683728,-0.06116967,1.02351,-0.1621156,-0.18110411,1.4436257,-0.28142568,-0.1340549,-0.07390194,1.3078556,-0.22676149
-0.2,-0.2,0.6,-0.5235987755982988,-0.34906585039886584,-0.5235987755982988,1.7824858,1.2511373,0.3234573,-0.12207471,-0.057349045,1.0164232,-0.09574545,-0.1894297,1.4481322,-0.2821088,-0.1417482,-0.08132854,1.3113916,-0.20477559
-0.2,-0.2,0.6,-0.5235987755982988,-0.34906585039886584,-0.5235987755982988,1.7687407,1.2562166,0.34885302,-0.11883983,-0.07554839,1.0197328,-0.15081012,-0.19585793,1.4443018,-0.27896857,-0.12802228,-0.06494684,1.33294,-0.22668855
-0.2,-0.2,0.6,-0.5235987755982988,-0.34906585039886584,-0.5235987755982988,1.7943172,1.2484624,0.3187026,-0.12001595,-0.06903739,1.016808,-0.13780558,-0.17379099,1.4468282,-0.28545988,-0.12431856,-0.076354794,1.3204343,-0.09135088
-0.2,-0.2,0.6,-0.5235987755982988,-0.34906585039886584,-0.5235987755982988,1.7712803,1.2638658,0.3496114,-0.11368188,-0.062243026,1.0325224,-0.17819919,-0.18746689,1.4425558,-0.29674432,-0.14741647,-0.048792325,1.296476,0.016472364
-0.2,-0.2,0.6,-0.5235987755982988,-0.34906585039886584,-0.5235987755982988,1.7778012,1.2592384,0.33960772,-0.12235391,-0.0778589,1.0216187,-0.1474967,-0.18311435,1.4373474,-0.286667,-0.11510989,-0.07236924,1.306963,-0.16375057
-0.2,-0.2,0.6,-0.5235987755982988,-0.34906585039886584,-0.5235987755982988,1.787579,1.2516154,0.32291532,-0.1220978,-0.07140978,1.0185525,-0.14203201,-0.18265393,1.445097,-0.28053442,-0.12145793,-0.051171705,1.3175614,-0.30949903
-0.2,-0.2,0.6,-0.5235987755982988,-0.34906585039886584,-0.5235987755982988,1.7722203,1.2407922,0.33097038,-0.11722541,-0.08650406,1.0207646,-0.11659628,-0.1800369,1.4353583,-0.27261725,-0.120514415,-0.056727942,1.3583604,-0.08630734
-0.2,-0.2,0.6,-0.5235987755982988,-0.34906585039886584,-0.5235987755982988,1.7683012,1.246683,0.35619906,-0.11560698,-0.09214115,1.0209469,-0.10621593,-0.18584369,1.4410071,-0.28027695,-0.13145883,-0.06675749,1.3064784,-0.23343435
-0.2,-0.2,0.6,-0.5235987755982988,-0.34906585039886584,-0.5235987755982988,1.789236,1.2627847,0.34426138,-0.11743726,-0.073029466,1.0193616,-0.11766575,-0.19150226,1.4363688,-0.28292164,-0.13746819,-0.04903654,1.299259,-0.08528163
-0.2,-0.2,0.6,-0.5235987755982988,-0.34906585039886584,-0.5235987755982988,1.7991741,1.249934,0.31282273,-0.12755291,-0.06486782,1.0323172,-0.11460593,-0.17368206,1.444932,-0.28780535,-0.12526661,-0.031844486,1.3285167,-0.15019174
-0.2,-0.2,0.6,-0.5235987755982988,-0.34906585039886584,-0.5235987755982988,1.7672385,1.2475846,0.33174604,-0.12422767,-0.066722706,1.0093601,-0.104825705,-0.18424742,1.4553897,-0.2734154,-0.11599909,-0.055709727,1.3028042,0.102826476
-0.2,-0.2,0.6,-0.5235987755982988,-0.34906585039886584,-0.5235987755982988,1.8007948,1.2522246,0.3290975,-0.11867692,-0.05862251,1.0221978,-0.16847022,-0.17781211,1.4494983,-0.29351798,-0.115742005,-0.076473564,1.3219383,-0.15389943
-0.2,-0.2,0.6,-0.5235987755982988,-0.34906585039886584,-0.5235987755982988,1.772998,1.2414289,0.33811176,-0.11652649,-0.07372171,1.0392027,-0.15660305,-0.19069868,1.4459897,-0.2841643,-0.12312684,-0.066157706,1.2999482,-0.038760766
-0.2,-0.2,0.6,-0.5235987755982988,-0.34906585039886584,-0.5235987755982988,1.7836128,1.2588625,0.33151892,-0.12336775,-0.06551567,1.025298,-0.11711999,-0.17617631,1.447995,-0.2791785,-0.1264949,-0.048150457,1.3208767,0.07667424
-0.2,-0.2,0.6,-0.5235987755982988,-0.34906585039886584,-0.5235987755982988,1.7902286,1.2512321,0.33297,-0.11926394,-0.06818595,1.0236593,-0.16324759,-0.18224052,1.4457275,-0.2764844,-0.0894342,-0.0653503,1.2967141,-0.36305755
-0.2,-0.2,0.6,-0.5235987755982988,-0.34906585039886584,-0.5235987755982988,1.7786416,1.2495996,0.3444706,-0.11883723,-0.06115304,1.0237875,-0.07416825,-0.18429509,1.4527519,-0.29667366,-0.11406137,-0.046868198,1.3032176,-0.012334226
-0.2,-0.2,0.6,-0.5235987755982988,-0.34906585039886584,-0.5235987755982988,1.8006371,1.2585075,0.35333076,-0.11565462,-0.076177746,1.0272142,-0.08470588,-0.20512156,1.4381692,-0.27594063,-0.1372677,-0.06575388,1.3066306,-0.16521049
-0.2,-0.2,0.6,-0.5235987755982988,-0.34906585039886584,-0.5235987755982988,1.7850581,1.2590786,0.33317572,-0.11824531,-0.07936457,1.0255247,-0.113599926,-0.17859882,1.4537616,-0.29309085,-0.15154141,-0.048514325,1.3243325,-0.20355503
-0.2,-0.2,0.6,-0.5235987755982988,-0.34906585039886584,-0.5235987755982988,1.790049,1.2504157,0.3337612,-0.127287,-0.073787965,1.031788,-0.1482715,-0.1719014,1.4509819,-0.27956945,-0.1151933,-0.042176984,1.3113207,-0.13330773
-0.2,-0.2,0.6,-0.5235987755982988,-0.34906585039886584,-0.5235987755982988,1.7882185,1.2523055,0.32588917,-0.1199928,-0.06878324,1.0332468,-0.1414485,-0.18099831,1.443712,-0.2854155,-0.1377672,-0.0715843,1.2994189,-0.0496426
-0.2,-0.2,0.6,-0.5235987755982988,-0.34906585039886584,-0.5235987755982988,1.78323,1.2492523,0.32081464,-0.124944,-0.050577912,1.0280126,-0.109401785,-0.18447116,1.4589646,-0.27988258,-0.10931041,-0.062473644,1.3221258,-0.023311418
-0.2,-0.2,0.6,-0.5235987755982988,-0.34906585039886584,-0.5235987755982988,1.7794181,1.256498,0.34645644,-0.12735401,-0.08547712,1.0241275,-0.07592834,-0.17478864,1.4501375,-0.27191687,-0.10007281,-0.051287133,1.3133389,-0.2661411
-0.2,-0.2,0.6,-0.5235987755982988,-0.34906585039886584,-0.5235987755982988,1.8178471,1.2552971,0.35190704,-0.1205352,-0.07543538,1.0286396,-0.0995966,-0.20588066,1.450811,-0.27634728,-0.112710595,-0.07476563,1.3099382,-0.1985599
-0.2,-0.2,0.6,-0.5235987755982988,-0.34906585039886584,-0.5235987755982988,1.8132435,1.2581198,0.34072137,-0.11279369,-0.069902,1.0087043,-0.1599448,-0.18333687,1.4386529,-0.28030184,-0.11736169,-0.039610602,1.3100656,-0.11058628
-0.2,-0.2,0.6,-0.5235987755982988,-0.34906585039886584,-0.5235987755982988,1.7940867,1.2472283,0.33706573,-0.123702176,-0.08159433,1.0235766,-0.12341068,-0.19102502,1.4418428,-0.2857674,-0.11953133,-0.048462626,1.3232323,-0.21491116
-0.2,-0.2,0.6,-0.5235987755982988,-0.34906585039886584,-0.5235987755982988,1.7852503,1.2565641,0.33318827,-0.11997355,-0.06365031,1.0200144,-0.13760744,-0.17617445,1.4380525,-0.2951968,-0.13135174,-0.03772679,1.3309605,-0.14715393
-0.2,-0.2,0.6,-0.5235987755982988,-0.34906585039886584,-0.5235987755982988,1.7833923,1.2598815,0.32928607,-0.11628406,-0.072056934,1.0286726,-0.13963865,-0.19427474,1.4394623,-0.27072787,-0.13774258,-0.06428307,1.2861958,-0.060253274
-0.2,-0.2,0.6,-0.5235987755982988,-0.34906585039886584,-0.5235987755982988,1.7782055,1.2531444,0.34967402,-0.11573053,-0.06200589,1.0185258,-0.105836414,-0.18749008,1.4338474,-0.2768181,-0.10325842,-0.098877385,1.3259314,0.15448983
-0.2,-0.2,0.6,-0.5235987755982988,-0.34906585039886584,-0.5235987755982988,1.7924093,1.2501163,0.33371755,-0.11825195,-0.06749363,1.0293272,-0.09926884,-0.18866771,1.4414604,-0.27886745,-0.11804637,-0.07810773,1.3197182,-0.19814219
-0.2,-0.2,0.6,-0.5235987755982988,-0.34906585039886584,-0.5235987755982988,1.8043424,1.2564182,0.34646353,-0.113817625,-0.07780766,1.0209322,-0.088153265,-0.17502175,1.4406391,-0.29213086,-0.13291295,-0.055956747,1.3470942,-0.26638103
-0.2,-0.2,0.6,-0.5235987755982988,-0.34906585039886584,-0.5235987755982988,1.7870378,1.2431015,0.3283144,-0.12043925,-0.07949302,1.0253569,-0.10455424,-0.16995251,1.4415337,-0.28960836,-0.1178374,-0.06653034,1.2956913,0.12724103
-0.2,-0.2,0.6,-0.5235987755982988,-0.34906585039886584,-0.5235987755982988,1.7887746,1.2502518,0.3268684,-0.1206896,-0.0772969,1.0214376,-0.127397,-0.1709021,1.4511867,-0.27774638,-0.113379546,-0.07898292,1.346906,-0.26621172
-0.2,-0.2,0.6,-0.5235987755982988,-0.34906585039886584,-0.5235987755982988,1.7931024,1.2586505,0.3308537,-0.1113947,-0.07110303,1.0184611,-0.09014293,-0.19176912,1.4464488,-0.2800024,-0.14977652,-0.05816978,1.2835926,0.007889861
-0.2,-0.2,0.6,-0.5235987755982988,-0.34906585039886584,-0.5235987755982988,1.7836986,1.2459333,0.33745277,-0.1246078,-0.067551576,1.0182521,-0.18100229,-0.2008444,1.4431632,-0.29992107,-0.122192204,-0.03224795,1.3264637,-0.34202915
-0.2,-0.2,0.6,-0.5235987755982988,-0.34906585039886584,-0.5235987755982988,1.7858431,1.25254,0.32698864,-0.121031016,-0.07236919,1.0196679,-0.14053719,-0.1765547,1.4391673,-0.28622633,-0.14082697,-0.06558501,1.3006356,-0.11433952
-0.2,-0.2,0.6,-0.5235987755982988,-0.34906585039886584,-0.5235987755982988,1.7902489,1.2460569,0.34047946,-0.11683037,-0.07544093,1.0293535,-0.17236601,-0.16819635,1.4450672,-0.2811818,-0.1142685,-0.075344644,1.3178314,-0.26427603
-0.2,-0.2,0.6,-0.5235987755982988,-0.34906585039886584,-0.5235987755982988,1.7912723,1.2564635,0.3479525,-0.10038437,-0.08583667,1.0325671,-0.13096583,-0.18252556,1.4458252,-0.26868126,-0.14224924,-0.09963719,1.3146865,-0.12969281
-0.2,-0.2,0.6,-0.5235987755982988,-0.34906585039886584,-0.5235987755982988,1.7648933,1.2619792,0.357204,-0.11578806,-0.07634613,1.0100116,-0.1754349,-0.19096395,1.4506487,-0.2930571,-0.1314128,-0.06014724,1.3167647,-0.4071913
-0.2,-0.2,0.6,-0.5235987755982988,-0.34906585039886584,-0.5235987755982988,1.7847987,1.2468089,0.31810087,-0.12044477,-0.075837575,1.0200258,-0.13619772,-0.17332198,1.4344277,-0.27147603,-0.113986425,-0.05767149,1.3257838,0.15739952
-0.2,-0.2,0.6,-0.5235987755982988,-0.34906585039886584,-0.5235987755982988,1.7849215,1.2565393,0.37410825,-0.11243782,-0.08092642,1.0105196,-0.12773561,-0.20113441,1.4580979,-0.28922632,-0.12369868,-0.06050263,1.3152194,0.036784135
-0.2,-0.2,0.6,-0.5235987755982988,-0.34906585039886584,-0.5235987755982988,1.7949322,1.2483895,0.33069834,-0.1217359,-0.06594658,1.0307152,-0.12223736,-0.17116532,1.4461164,-0.288251,-0.120319486,-0.0625942,1.329384,-0.03790166
-0.2,-0.2,0.6,-0.5235987755982988,-0.34906585039886584,-0.5235987755982988,1.8079618,1.2447612,0.32257414,-0.123917416,-0.06910224,1.0194124,-0.096359394,-0.17617284,1.4475967,-0.29491687,-0.109718524,-0.061026726,1.2969993,0.12735389
-0.2,-0.2,0.6,-0.5235987755982988,-0.34906585039886584,-0.5235987755982988,1.7773128,1.2590982,0.327463,-0.12523174,-0.07550238,1.0321509,-0.11530602,-0.17087987,1.4464128,-0.27903697,-0.13472526,-0.046104968,1.3309288,-0.33676013
-0.2,-0.2,0.6,-0.5235987755982988,-0.34906585039886584,-0.5235987755982988,1.8081483,1.2601328,0.31003234,-0.14150885,-0.05680948,1.0197983,-0.15857306,-0.1835856,1.4442046,-0.2953596,-0.13694498,-0.052470054,1.309123,-0.09002684
-0.2,-0.2,0.6,-0.5235987755982988,-0.34906585039886584,-0.5235987755982988,1.7833095,1.2485011,0.32455283,-0.11747934,-0.06194036,1.0213962,-0.16079155,-0.17590763,1.431008,-0.26723537,-0.11911808,-0.04870349,1.3286624,0.017418213
-0.2,-0.2,0.6,-0.5235987755982988,-0.34906585039886584,-0.5235987755982988,1.8016545,1.244308,0.31599417,-0.12702365,-0.047288757,1.0226474,-0.137777,-0.17004229,1.4435189,-0.3061902,-0.10341412,-0.050387207,1.3054553,-0.20531374
-0.2,-0.2,0.6,-0.5235987755982988,-0.34906585039886584,-0.5235987755982988,1.7836838,1.2449956,0.32788593,-0.12050805,-0.05322524,1.0240223,-0.13012841,-0.18722068,1.443492,-0.28970852,-0.109365724,-0.05740296,1.2801193,0.013146788
-0.2,-0.2,0.6,-0.5235987755982988,-0.34906585039886584,-0.5235987755982988,1.7716624,1.2517942,0.33208632,-0.12584692,-0.056190863,1.0131592,-0.09991942,-0.17310764,1.4493114,-0.26908383,-0.13611184,-0.045945704,1.3213022,-0.15254031
-0.2,-0.2,0.6,-0.5235987755982988,-0.34906585039886584,-0.5235987755982988,1.7780375,1.2444263,0.32966232,-0.12482158,-0.059515066,1.0199924,-0.12986101,-0.16920744,1.4506446,-0.28110015,-0.10579063,-0.06332137,1.3188485,-0.07753907
-0.2,-0.2,0.6,-0.5235987755982988,-0.34906585039886584,-0.5235987755982988,1.7880536,1.2607555,0.33653918,-0.12602872,-0.07877118,1.0365859,-0.1192877,-0.16885838,1.4411459,-0.28300056,-0.12260188,-0.052518334,1.3087487,-0.06921923
-0.2,-0.2,0.6,-0.5235987755982988,-0.34906585039886584,-0.5235987755982988,1.7704816,1.2502213,0.33843827,-0.11189683,-0.06730433,1.0072743,-0.12713483,-0.17177159,1.4507055,-0.29844025,-0.112609446,-0.060839456,1.3291986,-0.28963497
-0.2,-0.2,0.6,-0.5235987755982988,-0.34906585039886584,-0.5235987755982988,1.7881978,1.2537516,0.3444076,-0.11798449,-0.083156265,1.0038822,-0.13495013,-0.18873714,1.4359027,-0.27575183,-0.10387366,-0.0498039,1.3211112,0.023594035
-0.2,-0.2,0.6,-0.5235987755982988,-0.34906585039886584,-0.5235987755982988,1.7872756,1.2548108,0.33461395,-0.12153534,-0.08063107,1.0154535,-0.14968286,-0.18091716,1.4422438,-0.273875,-0.13442545,-0.058693305,1.3034334,0.16324167
-0.2,-0.2,0.6,-0.5235987755982988,-0.34906585039886584,-0.5235987755982988,1.7844903,1.2485292,0.34381902,-0.11598226,-0.07499972,1.0112482,-0.16873947,-0.1747693,1.4564358,-0.30117044,-0.1283991,-0.08063605,1.3298458,0.023264142
-0.2,-0.2,0.6,-0.5235987755982988,-0.34906585039886584,-0.5235987755982988,1.794476,1.2521074,0.32815257,-0.11733314,-0.07677463,1.0299058,-0.112172626,-0.17604947,1.4473966,-0.2899287,-0.1454825,-0.07842242,1.2949613,-0.3223904
-0.2,-0.2,0.6,-0.5235987755982988,-0.34906585039886584,-0.5235987755982988,1.8033952,1.2499886,0.33453885,-0.115296006,-0.08503511,1.0132194,-0.12252752,-0.18568718,1.4435133,-0.26571673,-0.13434711,-0.040941574,1.2914516,-0.04317634
-0.2,-0.2,0.6,-0.5235987755982988,-0.34906585039886584,-0.5235987755982988,1.7986648,1.2532301,0.31835416,-0.124204434,-0.06882458,1.0192468,-0.17116009,-0.1807659,1.4499706,-0.28180736,-0.123329036,-0.09177412,1.3239156,0.22057955
-0.2,-0.2,0.6,-0.5235987755982988,-0.34906585039886584,-0.5235987755982988,1.7741989,1.2474899,0.33380085,-0.117342845,-0.07937934,1.022347,-0.10459579,-0.16555367,1.446458,-0.29466352,-0.105949186,-0.07959928,1.3070943,-0.46333265
-0.2,-0.2,0.6,-0.5235987755982988,-0.34906585039886584,-0.5235987755982988,1.7975881,1.2578034,0.3308106,-0.12211465,-0.09569692,1.0151362,-0.12749527,-0.16722752,1.4515297,-0.27867827,-0.14103693,-0.054132402,1.3326893,-0.0026288778
-0.2,-0.2,0.6,-0.5235987755982988,-0.34906585039886584,-0.5235987755982988,1.7763325,1.2576698,0.33506095,-0.13125119,-0.06746688,1.022182,-0.09259763,-0.18143272,1.4451176,-0.29434487,-0.14322856,-0.03860065,1.3243774,-0.23668286
-0.2,-0.2,0.6,-0.5235987755982988,-0.34906585039886584,-0.5235987755982988,1.7823578,1.2579516,0.35122,-0.1237592,-0.067040004,1.0260168,-0.13541666,-0.1813988,1.4437906,-0.28360662,-0.12371236,-0.07514782,1.3074306,-0.236385
-0.2,-0.2,0.6,-0.5235987755982988,-0.34906585039886584,-0.5235987755982988,1.7946457,1.2533115,0.33779523,-0.11571698,-0.08033573,1.0151321,-0.093546465,-0.18590225,1.4473562,-0.2881954,-0.12688345,-0.051321037,1.3205144,-0.31381184
-0.2,-0.2,0.6,-0.5235987755982988,-0.34906585039886584,-0.5235987755982988,1.7918166,1.257646,0.3320431,-0.11904147,-0.07110882,1.023478,-0.14576705,-0.1931181,1.4372439,-0.28496113,-0.13058886,-0.055776715,1.3023927,-0.20846237
-0.2,-0.2,0.6,-0.5235987755982988,-0.34906585039886584,-0.5235987755982988,1.7974857,1.2572541,0.3241577,-0.112500906,-0.0771406,1.0207925,-0.15675752,-0.17484856,1.444093,-0.27991766,-0.13894491,-0.04256248,1.3503995,-0.12927337
-0.2,-0.2,0.6,-0.5235987755982988,-0.34906585039886584,-0.5235987755982988,1.8004687,1.2557347,0.32083416,-0.116719924,-0.06778656,1.0288737,-0.16499028,-0.1803839,1.4518232,-0.28118023,-0.12486319,-0.03667617,1.308788,-0.054749575
-0.2,-0.2,0.6,-0.5235987755982988,-0.34906585039886584,-0.5235987755982988,1.7970525,1.2490722,0.31456894,-0.11175788,-0.07210228,1.0167167,-0.14033271,-0.1795961,1.4458584,-0.2835607,-0.13653964,-0.034907307,1.2963511,-0.11855565
-0.2,-0.2,0.6,-0.5235987755982988,-0.34906585039886584,-0.5235987755982988,1.7756108,1.2522862,0.31897908,-0.1158446,-0.07301641,1.0146211,-0.14538541,-0.17468141,1.4470432,-0.2735645,-0.12969351,-0.06360306,1.318609,0.06670178
-0.2,-0.2,0.6,-0.5235987755982988,-0.34906585039886584,-0.5235987755982988,1.7858661,1.2521539,0.31656414,-0.119983576,-0.070526674,1.0093005,-0.15447363,-0.17989062,1.448003,-0.2827398,-0.122704305,-0.06734562,1.3100505,-0.39598563
-0.2,-0.2,0.6,-0.5235987755982988,-0.34906585039886584,-0.5235987755982988,1.7744449,1.2380182,0.3550578,-0.11168196,-0.07203109,1.0116569,-0.13226879,-0.1909062,1.4542898,-0.29445973,-0.13321087,-0.048636273,1.33175,-0.17005897
-0.2,-0.2,0.6,-0.5235987755982988,-0.34906585039886584,-0.5235987755982988,1.7908461,1.2507873,0.3221581,-0.11443659,-0.054110497,1.0133164,-0.10669515,-0.18918009,1.4441248,-0.26403552,-0.114186816,-0.056755148,1.298119,-0.027405202
-0.2,-0.2,0.6,-0.5235987755982988,-0.34906585039886584,-0.5235987755982988,1.7876859,1.2479455,0.33975396,-0.11756071,-0.06775728,1.0133384,-0.12392246,-0.19225487,1.4512402,-0.28409252,-0.14310788,-0.061832134,1.3014953,-0.08805732
-0.2,-0.2,0.6,-0.5235987755982988,-0.34906585039886584,-0.5235987755982988,1.7846899,1.2467237,0.32313043,-0.11910649,-0.07450136,1.0145717,-0.097088836,-0.17547745,1.4471023,-0.28728276,-0.12516993,-0.06412311,1.3361347,-0.37856185
-0.2,-0.2,0.6,-0.5235987755982988,-0.34906585039886584,-0.5235987755982988,1.7907859,1.2554704,0.3217705,-0.12097025,-0.0537857,1.0102637,-0.11040928,-0.16975513,1.4494069,-0.29357442,-0.13456862,-0.060182538,1.315326,-0.17539628
-0.2,-0.2,0.6,-0.5235987755982988,-0.34906585039886584,-0.5235987755982988,1.7888784,1.2523,0.31575996,-0.123522095,-0.04604211,1.0129789,-0.13628408,-0.18433161,1.4511883,-0.2745041,-0.13579622,-0.04070011,1.3142717,-0.15062413
-0.2,-0.2,0.6,-0.5235987755982988,-0.34906585039886584,-0.5235987755982988,1.7940438,1.2514247,0.32384437,-0.12252042,-0.072577186,1.0211732,-0.10256192,-0.18986648,1.4413618,-0.26378518,-0.15379536,-0.04195304,1.3237656,0.13512535
-0.2,-0.2,0.6,-0.5235987755982988,-0.34906585039886584,-0.5235987755982988,1.7997775,1.2507265,0.31847906,-0.13505208,-0.0451085,1.0332736,-0.11523984,-0.17499602,1.4427639,-0.28207874,-0.11488005,-0.058437653,1.3134875,-0.0986973
-0.2,-0.2,0.6,-0.5235987755982988,-0.34906585039886584,-0.5235987755982988,1.7885504,1.2526144,0.34201106,-0.118765905,-0.05921626,1.0235916,-0.15847133,-0.18427363,1.4396201,-0.28624403,-0.13559024,-0.053210706,1.3098959,-0.048452504
-0.2,-0.2,0.6,-0.5235987755982988,-0.34906585039886584,-0.5235987755982988,1.8045368,1.2534722,0.33733276,-0.11443782,-0.07985216,1.0154527,-0.14577962,-0.17191032,1.4422225,-0.28749925,-0.10102653,-0.061336987,1.2907501,-0.17875518
-0.2,-0.2,0.6,-0.5235987755982988,-0.34906585039886584,-0.5235987755982988,1.7869099,1.2588487,0.3395144,-0.109827414,-0.061611522,1.0180573,-0.095084056,-0.16964635,1.4372866,-0.28133386,-0.12506212,-0.050463095,1.303677,0.09160189
-0.2,-0.2,0.6,-0.5235987755982988,-0.34906585039886584,-0.5235987755982988,1.804071,1.2542466,0.31880128,-0.12830083,-0.05210108,1.0305899,-0.118624635,-0.17553154,1.4346694,-0.28031877,-0.11169883,-0.048869528,1.3072444,0.042786606
-0.2,-0.2,0.6,-0.5235987755982988,-0.34906585039886584,-0.5235987755982988,1.7876991,1.2588482,0.32798827,-0.13315946,-0.06146272,1.0151826,-0.15902711,-0.1850606,1.440307,-0.28641593,-0.098143555,-0.035561725,1.3257701,-0.07649365
-0.2,-0.2,0.6,-0.5235987755982988,-0.34906585039886584,-0.5235987755982988,1.7787025,1.2543284,0.33642223,-0.12637657,-0.059832007,1.0181385,-0.13928388,-0.17243609,1.4457326,-0.28306445,-0.11746611,-0.05636728,1.3225126,-0.017178373
-0.2,-0.2,0.6,-0.5235987755982988,-0.34906585039886584,-0.5235987755982988,1.7837106,1.2510918,0.3252468,-0.1140845,-0.07802995,1.0227712,-0.15634656,-0.18696429,1.4471784,-0.28660652,-0.14739466,-0.052166816,1.3308973,-0.15157859
-0.2,-0.2,0.6,-0.5235987755982988,-0.34906585039886584,-0.5235987755982988,1.7735136,1.2483851,0.346432,-0.11372293,-0.063926175,1.0253627,-0.115999915,-0.16375028,1.4408412,-0.29903743,-0.11728857,-0.052837215,1.3552904,-0.13625208
-0.2,-0.2,0.6,-0.5235987755982988,-0.34906585039886584,-0.5235987755982988,1.7861512,1.26131,0.3454063,-0.12067901,-0.05386875,1.0196587,-0.13681191,-0.17566746,1.4443518,-0.27574793,-0.08937506,-0.04224927,1.3233833,-0.28365096
-0.2,-0.2,0.6,-0.5235987755982988,-0.34906585039886584,-0.5235987755982988,1.7826118,1.2536067,0.32904738,-0.13112225,-0.0678062,1.025705,-0.115339525,-0.17986864,1.439486,-0.28611946,-0.13008708,-0.046989404,1.2979356,0.18951362
-0.2,-0.2,0.6,-0.5235987755982988,-0.34906585039886584,-0.5235987755982988,1.777847,1.2544451,0.34392515,-0.121139996,-0.080920026,1.0253364,-0.094958894,-0.17287286,1.4366721,-0.2859661,-0.12081235,-0.06438969,1.3031622,-0.22395414
-0.2,-0.2,0.6,-0.5235987755982988,-0.34906585039886584,-0.5235987755982988,1.7628735,1.2553477,0.3541078,-0.1243009,-0.091794886,1.0164981,-0.13519071,-0.15777135,1.442821,-0.2951356,-0.08169275,-0.06407751,1.3040758,-0.6063752
-0.2,-0.2,0.6,-0.5235987755982988,-0.34906585039886584,-0.5235987755982988,1.798069,1.2555181,0.34947658,-0.11844345,-0.07211134,1.0225838,-0.093741365,-0.19131915,1.444558,-0.29163572,-0.12583306,-0.048648924,1.2943621,-0.23263872
-0.2,-0.2,0.6,-0.5235987755982988,-0.34906585039886584,-0.5235987755982988,1.7618308,1.2419412,0.3357057,-0.124498785,-0.08787017,1.016407,-0.10278441,-0.1722486,1.4426682,-0.28309426,-0.10971591,-0.043047994,1.2909209,-0.032141425
-0.2,-0.2,0.6,-0.5235987755982988,-0.34906585039886584,-0.5235987755982988,1.79413,1.2516341,0.32595125,-0.12332319,-0.07185638,1.0260189,-0.18500516,-0.18063354,1.4417094,-0.28342178,-0.117648825,-0.061098687,1.3162657,0.038461305
-0.2,-0.2,0.6,-0.5235987755982988,-0.34906585039886584,-0.5235987755982988,1.7985486,1.2543774,0.3362876,-0.12014231,-0.05764226,1.0188049,-0.06161478,-0.17354377,1.4391484,-0.2817965,-0.11814182,-0.040197413,1.3102671,-0.07312173
-0.2,-0.2,0.6,-0.5235987755982988,-0.34906585039886584,-0.5235987755982988,1.7986037,1.2477428,0.33415642,-0.12313913,-0.07577285,1.0215384,-0.11345863,-0.17539135,1.4567715,-0.28625533,-0.12073281,-0.08717249,1.3190467,-0.49217662
-0.2,-0.2,0.6,-0.5235987755982988,-0.34906585039886584,-0.5235987755982988,1.7934772,1.2516625,0.31854448,-0.116812505,-0.058571972,1.0275979,-0.12984706,-0.17410165,1.4422466,-0.2776826,-0.12811048,-0.06836473,1.3339177,0.21729189
-0.2,-0.2,0.6,-0.5235987755982988,-0.34906585039886584,-0.5235987755982988,1.8068527,1.2515732,0.32840815,-0.11958072,-0.07253544,1.0218322,-0.12211312,-0.18275264,1.4480784,-0.28043476,-0.115294755,-0.053313117,1.3472832,-0.18154243
-0.2,-0.2,0.6,-0.5235987755982988,-0.34906585039886584,-0.5235987755982988,1.770485,1.2506301,0.32514343,-0.1335775,-0.052588467,1.021463,-0.15285051,-0.18704782,1.4319698,-0.2747205,-0.14035666,-0.06119138,1.3127713,-0.020994937
-0.2,-0.2,0.6,-0.5235987755982988,-0.34906585039886584,-0.5235987755982988,1.789192,1.2505692,0.33438697,-0.12528965,-0.06427623,1.0297976,-0.12693615,-0.18381286,1.4420204,-0.279535,-0.13913605,-0.048521407,1.3184115,-0.0335639
-0.2,-0.2,0.6,-0.5235987755982988,-0.34906585039886584,-0.5235987755982988,1.7908044,1.2485834,0.32052484,-0.13378812,-0.06404019,1.0274287,-0.10435695,-0.17404045,1.4412545,-0.29257378,-0.14168434,-0.044221528,1.2954941,0.12824465
-0.2,-0.2,0.6,-0.5235987755982988,-0.34906585039886584,-0.5235987755982988,1.7709769,1.250236,0.34409744,-0.123743564,-0.046190955,1.01622,-0.1449193,-0.16984618,1.4466195,-0.2817895,-0.12087312,-0.06722087,1.3172553,-0.15055178
-0.2,-0.2,0.6,-0.5235987755982988,-0.34906585039886584,-0.5235987755982988,1.7911395,1.2564646,0.3265121,-0.114231646,-0.079873875,1.0289884,-0.13776986,-0.18608543,1.4373684,-0.285362,-0.14235356,-0.05168184,1.3181669,-0.1200174
-0.2,-0.2,0.6,-0.5235987755982988,-0.34906585039886584,-0.5235987755982988,1.8258154,1.250942,0.31399664,-0.124607034,-0.0803107,1.0204221,-0.12305157,-0.19203082,1.4475337,-0.28158605,-0.15539902,-0.044581518,1.3302743,-0.1578734
-0.2,-0.2,0.6,-0.5235987755982988,-0.34906585039886584,-0.5235987755982988,1.7883745,1.2433088,0.32865047,-0.10917215,-0.0666337,1.0181099,-0.10337163,-0.17985356,1.4435215,-0.2797506,-0.12952417,-0.05593425,1.3276705,-0.2563504
-0.2,-0.2,0.6,-0.5235987755982988,-0.34906585039886584,-0.5235987755982988,1.8145075,1.257567,0.35660723,-0.10252676,-0.07858982,1.019822,-0.12180426,-0.18695392,1.4382132,-0.27231866,-0.14284304,-0.07181437,1.3101268,-0.30014098
-0.2,-0.2,0.6,-0.5235987755982988,-0.34906585039886584,-0.5235987755982988,1.7979852,1.2544513,0.31878215,-0.12825264,-0.054095715,1.0130543,-0.103909686,-0.19387706,1.4463786,-0.2677033,-0.11645368,-0.072694376,1.2971032,-0.096160404
-0.2,-0.2,0.6,-0.5235987755982988,-0.34906585039886584,-0.5235987755982988,1.7834332,1.2609081,0.3443658,-0.12245238,-0.06517993,1.0212089,-0.1275369,-0.17872055,1.4529849,-0.2968334,-0.12591295,-0.043300956,1.3207059,-0.08686235
-0.2,-0.2,0.6,-0.5235987755982988,-0.34906585039886584,-0.5235987755982988,1.7897892,1.259144,0.33047327,-0.111592114,-0.058315452,1.0115181,-0.15182287,-0.18386257,1.4476272,-0.28971615,-0.14237057,-0.06775053,1.3139724,-0.007309613
-0.2,-0.2,0.6,-0.5235987755982988,-0.34906585039886584,-0.5235987755982988,1.8036319,1.2400163,0.32915035,-0.12364193,-0.048246548,1.0349027,-0.16459484,-0.18324138,1.4406748,-0.2934883,-0.12199844,-0.07316691,1.3111731,-0.14571021
-0.2,-0.2,0.6,-0.5235987755982988,-0.34906585039886584,-0.5235987755982988,1.7965319,1.2643889,0.3190195,-0.13121024,-0.06507142,1.013402,-0.15651664,-0.1911877,1.4427084,-0.2678043,-0.1411595,-0.06610194,1.3137302,0.043074325
-0.2,-0.2,0.6,-0.5235987755982988,-0.34906585039886584,-0.5235987755982988,1.7831106,1.2579621,0.33532792,-0.1088193,-0.07299657,1.0107712,-0.11643156,-0.17946753,1.4561722,-0.27911508,-0.120032035,-0.05624337,1.2993052,-0.23445849
-0.2,-0.2,0.6,-0.5235987755982988,-0.34906585039886584,-0.5235987755982988,1.7805564,1.2465445,0.35799938,-0.11591218,-0.05314961,1.0119536,-0.121077284,-0.1855161,1.4540957,-0.29056463,-0.11197291,-0.08827257,1.3439606,0.102730416
-0.2,-0.2,0.6,-0.5235987755982988,-0.34906585039886584,-0.5235987755982988,1.7983277,1.2660398,0.2978722,-0.12503324,-0.049086865,1.0168368,-0.14206545,-0.18172489,1.4416939,-0.24051037,-0.12575664,-0.05561072,1.3405015,-0.0821062
-0.2,-0.2,0.6,-0.5235987755982988,-0.34906585039886584,-0.5235987755982988,1.7967933,1.2465255,0.30780798,-0.12142899,-0.07780997,1.0034347,-0.1094558,-0.17746235,1.4380468,-0.26677316,-0.1367154,-0.072148174,1.3346242,-0.46282566
-0.2,-0.2,0.6,-0.5235987755982988,-0.34906585039886584,-0.5235987755982988,1.7838252,1.2504747,0.33050665,-0.10781769,-0.07673489,1.0169597,-0.1653405,-0.18096454,1.4428762,-0.2761932,-0.1382396,-0.06955139,1.3045305,-0.16146511
-0.2,-0.2,0.6,-0.5235987755982988,-0.34906585039886584,-0.5235987755982988,1.768151,1.2439749,0.31336594,-0.10915344,-0.06997083,1.0211691,-0.151476,-0.17587395,1.4506601,-0.27679786,-0.13862427,-0.05730392,1.3040869,-0.115474746
-0.2,-0.2,0.6,-0.5235987755982988,-0.34906585039886584,-0.5235987755982988,1.7882577,1.2571,0.3402293,-0.118841395,-0.049700703,1.0332671,-0.110942334,-0.17097017,1.4543403,-0.29988772,-0.11166689,-0.055765748,1.3406458,0.026919039
-0.2,-0.2,0.6,-0.5235987755982988,-0.34906585039886584,-0.5235987755982988,1.81023,1.2526569,0.32076538,-0.1258021,-0.076840825,1.0106554,-0.119945586,-0.19844028,1.456502,-0.27444527,-0.1664093,-0.05293456,1.3182849,-0.03942516
-0.2,-0.2,0.6,-0.5235987755982988,-0.34906585039886584,-0.5235987755982988,1.7808752,1.2605959,0.33696082,-0.11331896,-0.06991252,1.0264144,-0.12505396,-0.19738533,1.4433331,-0.2782002,-0.1551181,-0.029343879,1.293187,-0.11168142
-0.2,-0.2,0.6,-0.5235987755982988,-0.34906585039886584,-0.5235987755982988,1.7731643,1.2516439,0.32777786,-0.11855783,-0.060436666,0.99985826,-0.108632475,-0.17531541,1.4404731,-0.2709939,-0.094165504,-0.06450115,1.3271905,-0.08820101
-0.2,-0.2,0.6,-0.5235987755982988,-0.34906585039886584,-0.5235987755982988,1.807407,1.2611982,0.33732384,-0.122479126,-0.067408234,1.0167001,-0.15419261,-0.18670842,1.4448532,-0.28370622,-0.13723084,-0.059718866,1.3205987,-0.0643289
-0.2,-0.2,0.6,-0.5235987755982988,-0.34906585039886584,-0.5235987755982988,1.7929361,1.2539612,0.33176008,-0.116840824,-0.07162331,1.0164078,-0.14702347,-0.17863874,1.4398729,-0.28048533,-0.11506206,-0.0536006,1.3137474,-0.25765264
-0.2,-0.2,0.6,-0.5235987755982988,-0.34906585039886584,-0.5235987755982988,1.7851381,1.2518357,0.31310833,-0.11985104,-0.078792065,1.0065756,-0.1022571,-0.15844001,1.4487642,-0.27868363,-0.12109952,-0.055631224,1.3188225,-0.13519035
-0.2,-0.2,0.6,-0.5235987755982988,-0.34906585039886584,-0.5235987755982988,1.7868994,1.2558516,0.3398967,-0.115250744,-0.07527538,1.0178548,-0.13218518,-0.18083586,1.4514112,-0.27771524,-0.13545294,-0.05780934,1.3187395,-0.1311476
-0.2,-0.2,0.6,-0.5235987755982988,-0.34906585039886584,-0.5235987755982988,1.7769835,1.2589879,0.32526892,-0.12572092,-0.06760889,1.0230281,-0.13106516,-0.17128581,1.4379702,-0.27845997,-0.12616338,-0.06607532,1.3189713,-0.251382
-0.2,-0.2,0.6,-0.5235987755982988,-0.34906585039886584,-0.5235987755982988,1.8030487,1.2513539,0.32076812,-0.12960224,-0.0787519,1.014294,-0.10076021,-0.18895333,1.4465271,-0.28617796,-0.12204357,-0.043352284,1.3080477,-0.18249962
-0.2,-0.2,0.6,-0.5235987755982988,-0.34906585039886584,-0.5235987755982988,1.7808962,1.2509364,0.32968608,-0.12600711,-0.065344594,1.0030636,-0.14000921,-0.18071944,1.4472187,-0.27744558,-0.14788203,-0.07465022,1.298525,-0.10536754
-0.2,-0.2,0.6,-0.5235987755982988,-0.34906585039886584,-0.5235987755982988,1.790122,1.2497505,0.3243636,-0.124677084,-0.08186027,1.0215994,-0.13089117,-0.18176785,1.439364,-0.27586398,-0.11589312,-0.067231834,1.3207917,-0.19262652
-0.2,-0.2,0.6,-0.5235987755982988,-0.34906585039886584,-0.5235987755982988,1.792443,1.2491701,0.3336406,-0.12870006,-0.07855479,1.026903,-0.112112105,-0.16833653,1.4369738,-0.28495574,-0.112785526,-0.048432205,1.3228551,-0.10073401
-0.2,-0.2,0.6,-0.5235987755982988,-0.34906585039886584,-0.5235987755982988,1.800158,1.254324,0.34617373,-0.11963297,-0.06912614,1.0186279,-0.15322293,-0.17887464,1.4433205,-0.29964882,-0.11875763,-0.0754364,1.3185258,0.044787735
-0.2,-0.2,0.6,-0.5235987755982988,-0.34906585039886584,-0.5235987755982988,1.779223,1.246154,0.33915913,-0.11979157,-0.06533801,1.0279353,-0.18040001,-0.18240662,1.4578619,-0.27383065,-0.1374244,-0.047017265,1.3179977,-0.15542252
-0.2,-0.2,0.6,-0.5235987755982988,-0.34906585039886584,-0.5235987755982988,1.7893015,1.2563502,0.34681112,-0.116201594,-0.072050035,1.0142586,-0.15774235,-0.17212836,1.4478588,-0.26368096,-0.1197568,-0.062191825,1.3444002,-0.05582142
-0.2,-0.2,0.6,-0.5235987755982988,-0.34906585039886584,-0.5235987755982988,1.7675235,1.2504237,0.3343034,-0.12806053,-0.0786061,1.0198879,-0.13012075,-0.17650275,1.4366101,-0.27098933,-0.109037966,-0.06630362,1.335382,-0.33266103
-0.2,-0.2,0.6,-0.5235987755982988,-0.34906585039886584,-0.5235987755982988,1.7819124,1.2586411,0.3293726,-0.1315671,-0.10658956,1.0291823,-0.11004211,-0.16211763,1.4413841,-0.28353617,-0.1318872,-0.058882613,1.3039026,-0.4236949
-0.2,-0.2,0.6,-0.5235987755982988,-0.34906585039886584,-0.5235987755982988,1.7631923,1.2487832,0.3733704,-0.11912764,-0.09638742,1.0341483,-0.099792175,-0.17742164,1.4499853,-0.29726326,-0.11611249,-0.07158777,1.3228422,-0.10008315
-0.2,-0.2,0.6,-0.5235987755982988,-0.34906585039886584,-0.5235987755982988,1.8052527,1.2537569,0.317333,-0.11227373,-0.076735124,1.0244436,-0.077646516,-0.17222491,1.4518757,-0.2731661,-0.13124086,-0.07587465,1.3210114,-0.21914652
-0.2,-0.2,0.6,-0.5235987755982988,-0.34906585039886584,-0.5235987755982988,1.7844946,1.2527659,0.31975105,-0.12071842,-0.06982965,1.0271679,-0.1518879,-0.1665397,1.4416779,-0.27204937,-0.12891646,-0.065985255,1.3259025,-0.070822544
-0.2,-0.2,0.6,-0.5235987755982988,-0.34906585039886584,-0.5235987755982988,1.7764889,1.2318584,0.34500998,-0.11382726,-0.07259887,1.0284265,-0.10053803,-0.19873686,1.4367594,-0.27671733,-0.10680512,-0.045900647,1.332252,-0.24627423
-0.2,-0.2,0.6,-0.5235987755982988,-0.34906585039886584,-0.5235987755982988,1.7714767,1.2619705,0.34150472,-0.12134185,-0.069530316,1.0172379,-0.13147713,-0.18083848,1.4473939,-0.2856663,-0.1285038,-0.046303105,1.2958939,-0.09123356
-0.2,-0.2,0.6,-0.5235987755982988,-0.34906585039886584,-0.5235987755982988,1.7871232,1.2558041,0.33399147,-0.12263472,-0.07579323,1.0345372,-0.14473256,-0.1764107,1.4495391,-0.27064386,-0.12461888,-0.061313637,1.2921329,-0.28165638
-0.2,-0.2,0.6,-0.5235987755982988,-0.34906585039886584,-0.5235987755982988,1.7706462,1.2432954,0.33563644,-0.1150931,-0.057022743,1.0404191,-0.13306049,-0.17502294,1.4447554,-0.27623522,-0.11959309,-0.0362216,1.3160468,-0.2931395
-0.2,-0.2,0.6,-0.5235987755982988,-0.34906585039886584,-0.5235987755982988,1.7805796,1.2556454,0.32581154,-0.12219321,-0.07091338,1.0348336,-0.12074689,-0.18725362,1.442765,-0.25392124,-0.13379739,-0.07767189,1.328715,0.06533523
-0.2,-0.2,0.6,-0.5235987755982988,-0.34906585039886584,-0.5235987755982988,1.7759211,1.2470334,0.31486845,-0.12225945,-0.066672094,1.0219718,-0.13966192,-0.16882269,1.4422597,-0.28629428,-0.13121524,-0.02713277,1.3198701,-0.15471843
-0.2,-0.2,0.6,-0.5235987755982988,-0.34906585039886584,-0.5235987755982988,1.7894763,1.2492719,0.32321274,-0.122656845,-0.06958596,1.0289172,-0.15358602,-0.18870805,1.4507008,-0.28045222,-0.15643965,-0.07794924,1.2947834,0.05338162
-0.2,-0.2,0.6,-0.5235987755982988,-0.34906585039886584,-0.5235987755982988,1.796193,1.2654562,0.32571623,-0.11580784,-0.044234,1.0169977,-0.14421181,-0.17633621,1.4539809,-0.28595996,-0.13386232,-0.050941356,1.311932,-0.3233024
-0.2,-0.2,0.6,-0.5235987755982988,-0.34906585039886584,-0.5235987755982988,1.7968525,1.2537109,0.33233517,-0.12116962,-0.06459082,1.0320451,-0.13183928,-0.1658714,1.4476281,-0.288515,-0.13504861,-0.05145453,1.3317482,-0.27446416
-0.2,-0.2,0.6,-0.5235987755982988,-0.34906585039886584,-0.5235987755982988,1.7631333,1.2530366,0.33309257,-0.119013205,-0.058300514,1.0252757,-0.11331909,-0.18044077,1.4497138,-0.2699062,-0.13148074,-0.07013844,1.3020728,-0.18565233
-0.2,-0.2,0.6,-0.5235987755982988,-0.34906585039886584,-0.5235987755982988,1.7769395,1.2556626,0.33208638,-0.12688698,-0.056045197,1.0162711,-0.12189491,-0.17089468,1.4426987,-0.29914138,-0.11068362,-0.06224769,1.2922258,-0.25770885
-0.2,-0.2,0.6,-0.5235987755982988,-0.34906585039886584,-0.5235987755982988,1.7868955,1.258455,0.32826674,-0.12300971,-0.051842913,1.0247337,-0.11476974,-0.18360162,1.4457068,-0.28259978,-0.11861891,-0.06275132,1.3037018,-0.2839993
-0.2,-0.2,0.6,-0.5235987755982988,-0.34906585039886584,-0.5235987755982988,1.8015263,1.2508073,0.32676634,-0.110105194,-0.080143966,1.0110723,-0.17020415,-0.19192517,1.4414288,-0.2822632,-0.15172313,-0.05922419,1.3323286,-0.12933436
-0.2,-0.2,0.6,-0.5235987755982988,-0.34906585039886584,-0.5235987755982988,1.787036,1.2506742,0.33342052,-0.12699804,-0.064759634,1.0231448,-0.09801364,-0.19526008,1.4370154,-0.27403364,-0.11701001,-0.066814415,1.341108,-0.004114149
-0.2,-0.2,0.6,-0.5235987755982988,-0.34906585039886584,-0.5235987755982988,1.8047442,1.2533964,0.3258454,-0.12009214,-0.078108765,1.0259155,-0.1364313,-0.17814209,1.4417516,-0.2808843,-0.109531045,-0.065099336,1.3021904,-0.08102934
-0.2,-0.2,0.6,-0.5235987755982988,-0.34906585039886584,-0.5235987755982988,1.7680442,1.2526586,0.31684688,-0.117798224,-0.041656762,1.0140997,-0.10735034,-0.16721603,1.447826,-0.29307103,-0.1411668,-0.04636136,1.3031385,-0.23998322
-0.2,-0.2,0.6,-0.5235987755982988,-0.34906585039886584,-0.5235987755982988,1.7894032,1.2531627,0.33656323,-0.12796868,-0.07328099,1.0159881,-0.11540975,-0.16967957,1.4474605,-0.2901326,-0.098758236,-0.05655096,1.2861898,-0.26261026
-0.2,-0.2,0.6,-0.5235987755982988,-0.34906585039886584,-0.5235987755982988,1.7854202,1.2396171,0.33607426,-0.11961232,-0.07342866,1.0040035,-0.10924696,-0.18528332,1.444229,-0.2970823,-0.1354193,-0.05611171,1.3214121,-0.04454486
-0.2,-0.2,0.6,-0.5235987755982988,-0.34906585039886584,-0.5235987755982988,1.7989435,1.2550308,0.33678135,-0.11871014,-0.08456849,1.0173986,-0.13820487,-0.17098175,1.4502647,-0.28678644,-0.12813069,-0.048765887,1.302866,-0.012363363
-0.2,-0.2,0.6,-0.5235987755982988,-0.34906585039886584,-0.5235987755982988,1.7883135,1.2440274,0.32424107,-0.123246245,-0.08308966,1.012987,-0.10052574,-0.16370621,1.4480684,-0.2883422,-0.109028704,-0.069763094,1.3056993,0.010500637
-0.2,-0.2,0.6,-0.5235987755982988,-0.34906585039886584,-0.5235987755982988,1.7828501,1.2570676,0.32969868,-0.11172923,-0.053812794,1.0158257,-0.14156777,-0.17214216,1.4550585,-0.27802005,-0.12013181,-0.047053296,1.3389252,-0.15891057
-0.2,-0.2,0.6,-0.5235987755982988,-0.34906585039886584,-0.5235987755982988,1.8045441,1.2530758,0.3254701,-0.12414355,-0.08131237,1.0231366,-0.1406155,-0.15457855,1.4471068,-0.30253038,-0.101604834,-0.07814802,1.3043901,-0.19837727
-0.2,-0.2,0.6,-0.5235987755982988,-0.34906585039886584,-0.5235987755982988,1.8070064,1.2670518,0.32142943,-0.12825817,-0.06896222,1.0043118,-0.1390428,-0.18242359,1.4515966,-0.28721768,-0.12622114,-0.054431733,1.3059977,-0.16523533
-0.2,-0.2,0.6,-0.5235987755982988,-0.34906585039886584,-0.5235987755982988,1.7916582,1.2541451,0.34146002,-0.1197727,-0.067902096,1.0323985,-0.12550907,-0.16779244,1.4441426,-0.28373325,-0.11877829,-0.07789865,1.3100964,-0.042890273
-0.2,-0.2,0.6,-0.5235987755982988,-0.34906585039886584,-0.5235987755982988,1.7800455,1.2494379,0.33631468,-0.12355083,-0.05258768,1.0235782,-0.13134603,-0.17397681,1.4345882,-0.27451718,-0.11554462,-0.08586477,1.3108978,-0.018696992
-0.2,-0.2,0.6,-0.5235987755982988,-0.34906585039886584,-0.5235987755982988,1.7863319,1.2473992,0.32689762,-0.12794095,-0.075050704,1.0198475,-0.102150746,-0.16952425,1.44766,-0.27882865,-0.111703545,-0.044779696,1.3361981,-0.16630594
-0.2,-0.2,0.6,-0.5235987755982988,-0.34906585039886584,-0.5235987755982988,1.7802128,1.2414672,0.33572143,-0.1161505,-0.0642921,1.009753,-0.16774717,-0.19206636,1.4525421,-0.2957982,-0.11615472,-0.07492399,1.3016268,-0.11394182
-0.2,-0.2,0.6,-0.5235987755982988,-0.34906585039886584,-0.5235987755982988,1.776575,1.2508961,0.33540854,-0.11487293,-0.07943593,1.0249071,-0.1396887,-0.17428501,1.444702,-0.2787223,-0.1292426,-0.04322131,1.3320034,-0.05526433
-0.2,-0.2,0.6,-0.5235987755982988,-0.34906585039886584,-0.5235987755982988,1.7920561,1.2542646,0.32432964,-0.11516697,-0.08390297,1.0316427,-0.16908513,-0.16912352,1.4446113,-0.26962152,-0.11905506,-0.06206501,1.3110938,-0.077883996
-0.2,-0.2,0.6,-0.5235987755982988,-0.34906585039886584,-0.5235987755982988,1.7939894,1.2503337,0.32013902,-0.1299087,-0.07644579,1.0287896,-0.103618234,-0.18087935,1.4387043,-0.2768377,-0.14428481,-0.060613077,1.3426844,-0.3339281
-0.2,-0.2,0.6,-0.5235987755982988,-0.34906585039886584,-0.5235987755982988,1.8008162,1.2533661,0.32775432,-0.11771442,-0.074625716,1.0348073,-0.14729597,-0.1659378,1.4441859,-0.28096098,-0.12985454,-0.042741783,1.3126347,-0.17282894
-0.2,-0.2,0.6,-0.5235987755982988,-0.34906585039886584,-0.5235987755982988,1.7729837,1.2502269,0.34220022,-0.11907985,-0.078603454,1.0173242,-0.10910499,-0.17919356,1.4451833,-0.2846041,-0.11362535,-0.05135329,1.315939,0.041562274
-0.2,-0.2,0.6,-0.5235987755982988,-0.34906585039886584,-0.5235987755982988,1.7848747,1.254978,0.31525877,-0.12414635,-0.081475854,1.0121065,-0.1003591,-0.1868322,1.454035,-0.26606494,-0.14280957,-0.07806919,1.3230894,-0.08611784
-0.2,-0.2,0.6,-0.5235987755982988,-0.34906585039886584,-0.5235987755982988,1.788964,1.2550349,0.3334125,-0.1322716,-0.07880067,1.0117012,-0.15705118,-0.1851663,1.4435732,-0.28095904,-0.13935308,-0.054980785,1.2999841,-0.23903409
-0.2,-0.2,0.6,-0.5235987755982988,-0.34906585039886584,-0.5235987755982988,1.7806474,1.2565656,0.34486398,-0.11993779,-0.06244153,1.0068243,-0.14280203,-0.17651816,1.4452391,-0.277598,-0.11414143,-0.059353463,1.3132712,-0.40318274
-0.2,-0.2,0.6,-0.5235987755982988,-0.34906585039886584,-0.5235987755982988,1.7930204,1.2543694,0.32312852,-0.121303245,-0.05715552,1.0247382,-0.14361528,-0.17066549,1.4493221,-0.28805345,-0.12570465,-0.05311336,1.308898,-0.06883557
-0.2,-0.2,0.6,-0.5235987755982988,-0.34906585039886584,-0.5235987755982988,1.800587,1.2598978,0.31494075,-0.12330469,-0.08931665,1.0215951,-0.11840701,-0.172567,1.44298,-0.2763403,-0.13428979,-0.058528293,1.3122946,0.07503524
-0.2,-0.2,0.6,-0.5235987755982988,-0.34906585039886584,-0.5235987755982988,1.7885934,1.2645473,0.33116147,-0.11578407,-0.071135305,1.018126,-0.14688665,-0.178211,1.4471302,-0.27693337,-0.14002106,-0.05080453,1.3435541,-0.16573806
-0.2,-0.2,0.6,-0.5235987755982988,-0.34906585039886584,-0.5235987755982988,1.7865193,1.2499654,0.3381969,-0.12189603,-0.046786956,1.0223285,-0.10330756,-0.18253341,1.4439669,-0.27734,-0.12733898,-0.055012975,1.3175437,-0.042453684
-0.2,-0.2,0.6,-0.5235987755982988,-0.34906585039886584,-0.5235987755982988,1.7698654,1.2601608,0.3384083,-0.116325885,-0.08323453,1.0129607,-0.13990729,-0.17171413,1.4542763,-0.2779353,-0.109344594,-0.036977243,1.3038113,-0.21637619
-0.2,-0.2,0.6,-0.5235987755982988,-0.34906585039886584,-0.5235987755982988,1.7991834,1.2499712,0.33051947,-0.116636455,-0.0723941,1.0269244,-0.12444925,-0.17485666,1.4491442,-0.2834291,-0.13216916,-0.045488354,1.2911794,0.11672392
-0.2,-0.2,0.6,-0.5235987755982988,-0.34906585039886584,-0.5235987755982988,1.7888256,1.2511008,0.33552417,-0.103094205,-0.07133821,1.0177568,-0.16549996,-0.17627199,1.4418069,-0.27620888,-0.11681074,-0.041409038,1.3184676,-0.13479069
-0.2,-0.2,0.6,-0.5235987755982988,-0.34906585039886584,-0.5235987755982988,1.7860813,1.2561165,0.32447046,-0.11689612,-0.047448408,1.0150815,-0.16153067,-0.18355638,1.4597456,-0.28741258,-0.12833092,-0.046370342,1.3061495,0.0015544147
-0.2,-0.2,0.6,-0.5235987755982988,-0.34906585039886584,-0.5235987755982988,1.7928447,1.2622352,0.3578414,-0.124021806,-0.08551401,1.0302529,-0.17227635,-0.18645792,1.442427,-0.27774578,-0.09368839,-0.06741097,1.3112334,0.08344435
-0.2,-0.2,0.6,-0.5235987755982988,-0.34906585039886584,-0.5235987755982988,1.7994502,1.2579838,0.3182507,-0.119406715,-0.061508287,1.0118412,-0.120886855,-0.16693065,1.442982,-0.28256285,-0.12613057,-0.06668017,1.3020905,-0.12152014
-0.2,-0.2,0.6,-0.5235987755982988,-0.34906585039886584,-0.5235987755982988,1.7893227,1.2582343,0.32468137,-0.12346914,-0.06798156,1.0116756,-0.12778181,-0.1805156,1.443971,-0.2841088,-0.12821028,-0.03682995,1.306871,-0.1309068
-0.2,-0.2,0.6,-0.5235987755982988,-0.34906585039886584,-0.5235987755982988,1.8164997,1.2525462,0.3133031,-0.120876275,-0.075881556,1.0152301,-0.10396992,-0.18168034,1.4600897,-0.28306887,-0.13748233,-0.048772898,1.3227184,-0.02483369
-0.2,-0.2,0.6,-0.5235987755982988,-0.34906585039886584,-0.5235987755982988,1.8067731,1.248579,0.3210661,-0.12960565,-0.059869323,1.0253248,-0.12758492,-0.20247355,1.447106,-0.28094822,-0.12451173,-0.07765764,1.3039502,-0.1789604
-0.2,-0.2,0.6,-0.5235987755982988,-0.34906585039886584,-0.5235987755982988,1.7975804,1.2532614,0.3545689,-0.115017384,-0.08774791,1.0155711,-0.1435994,-0.17241727,1.4308908,-0.28236863,-0.13326666,-0.07728413,1.3064543,-0.09839549
-0.2,-0.2,0.6,-0.5235987755982988,-0.34906585039886584,-0.5235987755982988,1.7842444,1.2603594,0.33380988,-0.12398513,-0.06575404,1.0221887,-0.13284354,-0.18394434,1.4420422,-0.27912772,-0.14585488,-0.05772726,1.3103569,0.03525152
-0.2,-0.2,0.6,-0.5235987755982988,-0.34906585039886584,-0.5235987755982988,1.7789634,1.2492638,0.33469167,-0.12443869,-0.063881814,1.0301079,-0.13813154,-0.1736936,1.4535053,-0.29489094,-0.14315717,-0.059031058,1.3110805,-0.25890118
-0.2,-0.2,0.6,-0.5235987755982988,-0.34906585039886584,-0.5235987755982988,1.7971972,1.2532446,0.32715952,-0.12327364,-0.082847476,1.0238584,-0.14856085,-0.17098576,1.4482384,-0.28416413,-0.14650868,-0.046717707,1.3137581,-0.30319825
-0.2,-0.2,0.6,-0.5235987755982988,-0.34906585039886584,-0.5235987755982988,1.773983,1.2480682,0.32079768,-0.12021874,-0.0689943,1.0228605,-0.13469113,-0.18056458,1.4215341,-0.26787078,-0.13087861,-0.051332444,1.3242793,-0.12168102
-0.2,-0.2,0.6,-0.5235987755982988,-0.34906585039886584,-0.5235987755982988,1.7895356,1.2577637,0.3378571,-0.12731989,-0.082008824,1.0261728,-0.12660389,-0.17349784,1.4453963,-0.28676,-0.13177721,-0.0639288,1.3071005,-0.17263594
-0.2,-0.2,0.6,-0.5235987755982988,-0.34906585039886584,-0.5235987755982988,1.8043692,1.250964,0.30965528,-0.111438125,-0.07053562,1.0167677,-0.14621362,-0.17323382,1.4560772,-0.28741714,-0.11982971,-0.042380184,1.3058573,-0.19921422
-0.2,-0.2,0.6,-0.5235987755982988,-0.34906585039886584,-0.5235987755982988,1.797652,1.2514087,0.3074405,-0.12560229,-0.06848379,1.0141273,-0.13735963,-0.16867852,1.4517908,-0.29119512,-0.14000916,-0.06267381,1.3406242,-0.12545037
-0.2,-0.2,0.6,-0.5235987755982988,-0.34906585039886584,-0.5235987755982988,1.7902862,1.2622914,0.32057655,-0.12648755,-0.07773112,1.0163019,-0.1354588,-0.17224798,1.44917,-0.28192347,-0.12402423,-0.04984442,1.3191988,0.15625046
-0.2,-0.2,0.6,-0.5235987755982988,-0.34906585039886584,-0.5235987755982988,1.7795229,1.2528076,0.34325248,-0.12539811,-0.057526384,1.0260383,-0.11828626,-0.1677372,1.438963,-0.2792657,-0.1042633,-0.041996785,1.3116966,-0.12718359
-0.2,-0.2,0.6,-0.5235987755982988,-0.34906585039886584,-0.5235987755982988,1.7915739,1.2498875,0.33318594,-0.121388696,-0.08344921,1.0318658,-0.11026832,-0.1586209,1.4458907,-0.30041018,-0.1266969,-0.054725934,1.3347625,-0.3965132
-0.2,-0.2,0.6,-0.5235987755982988,-0.34906585039886584,-0.5235987755982988,1.7870739,1.2580495,0.32855952,-0.11636589,-0.07227482,1.008827,-0.15192181,-0.17921594,1.4441178,-0.2796097,-0.11826197,-0.06834637,1.3071501,-0.32860312
-0.2,-0.2,0.6,-0.5235987755982988,-0.34906585039886584,-0.5235987755982988,1.7823716,1.2596734,0.33721766,-0.1195697,-0.067580625,1.02104,-0.09513971,-0.17498091,1.4412569,-0.28046453,-0.13137677,-0.046824154,1.3171812,-0.08268769
-0.2,-0.2,0.6,-0.5235987755982988,-0.34906585039886584,-0.5235987755982988,1.7990949,1.2453206,0.3134477,-0.11536725,-0.067257166,1.0163354,-0.113477685,-0.19236262,1.4410778,-0.28055266,-0.14574936,-0.06607419,1.3117009,-0.08540224
-0.2,-0.2,0.6,-0.5235987755982988,-0.34906585039886584,-0.5235987755982988,1.7852302,1.2547989,0.3332432,-0.124641754,-0.06770788,1.0228584,-0.15033074,-0.17836227,1.4447068,-0.28164595,-0.10225147,-0.06299869,1.3404026,9.963232e-05
-0.2,-0.2,0.6,-0.5235987755982988,-0.34906585039886584,-0.5235987755982988,1.8144807,1.253579,0.3371141,-0.116106525,-0.081738405,1.0142213,-0.11614387,-0.15951575,1.4554868,-0.29004833,-0.11332474,-0.054545127,1.2795224,0.23583016
-0.2,-0.2,0.6,-0.5235987755982988,-0.34906585039886584,-0.5235987755982988,1.8006995,1.2567943,0.33285835,-0.120429814,-0.071923524,1.0284809,-0.11966166,-0.1574762,1.4325564,-0.2894509,-0.13228668,-0.06228236,1.3305433,-0.23578122
-0.2,-0.2,0.6,-0.5235987755982988,-0.34906585039886584,-0.5235987755982988,1.7899426,1.25358,0.33752725,-0.115918,-0.061973244,1.0181909,-0.09053211,-0.16848522,1.4495511,-0.28160417,-0.1136087,-0.047767635,1.3425231,0.13718049
-0.2,-0.2,0.6,-0.5235987755982988,-0.34906585039886584,-0.5235987755982988,1.7801014,1.2511008,0.32258722,-0.12356928,-0.06678605,1.0165359,-0.116277196,-0.16592106,1.4452962,-0.28061354,-0.12886246,-0.045648772,1.3032025,-0.07768442
-0.2,-0.2,0.6,-0.5235987755982988,-0.34906585039886584,-0.5235987755982988,1.7977332,1.2464511,0.3219916,-0.12055412,-0.059114836,1.0019773,-0.09711014,-0.18848439,1.4458873,-0.27762058,-0.11831491,-0.053844597,1.3154787,-0.23626897
-0.2,-0.2,0.6,-0.5235987755982988,-0.34906585039886584,-0.5235987755982988,1.8064892,1.2589266,0.33912235,-0.12228742,-0.068549596,1.017781,-0.15868157,-0.17784081,1.4445586,-0.29599002,-0.1309752,-0.0793074,1.3041192,-0.39735833
-0.2,-0.2,0.6,-0.5235987755982988,-0.34906585039886584,-0.5235987755982988,1.7854153,1.2484219,0.3547478,-0.12515178,-0.093106724,1.0182823,-0.11933996,-0.18526347,1.4401938,-0.290166,-0.12859637,-0.06292433,1.3260986,-0.25954762
-0.2,-0.2,0.6,-0.5235987755982988,-0.34906585039886584,-0.5235987755982988,1.7916064,1.2535228,0.35108522,-0.10896047,-0.07834747,1.0208424,-0.11717025,-0.18665445,1.4439161,-0.29462132,-0.12332639,-0.037277706,1.3148696,-0.10807387
-0.2,-0.2,0.6,-0.5235987755982988,-0.34906585039886584,-0.5235987755982988,1.8190153,1.254641,0.32222867,-0.1417606,-0.06414809,1.025086,-0.146225,-0.17309529,1.4438905,-0.28210762,-0.12519072,-0.063468985,1.3176917,-0.20350155
-0.2,-0.2,0.6,-0.5235987755982988,-0.34906585039886584,-0.5235987755982988,1.7686074,1.25258,0.3132593,-0.12314317,-0.0675601,1.0290409,-0.11821737,-0.17217368,1.4620422,-0.2841943,-0.14509873,-0.060002286,1.2997117,0.068540916
-0.2,-0.2,0.6,-0.5235987755982988,-0.34906585039886584,-0.5235987755982988,1.7939351,1.2605456,0.3372227,-0.11334126,-0.056057606,1.0209662,-0.13645236,-0.17233062,1.4481088,-0.2807133,-0.13514718,-0.03794687,1.3241426,0.009873737
-0.2,-0.2,0.6,-0.5235987755982988,-0.34906585039886584,-0.5235987755982988,1.7969645,1.2532287,0.31064308,-0.1319342,-0.05298575,1.0118902,-0.15572336,-0.18333142,1.4362545,-0.27903715,-0.11339697,-0.063134335,1.3155084,0.056169216
-0.2,-0.2,0.6,-0.5235987755982988,-0.34906585039886584,-0.5235987755982988,1.7940086,1.2563953,0.3423539,-0.12032556,-0.06731882,1.0114304,-0.1323792,-0.17932917,1.4387493,-0.2818449,-0.10572598,-0.048425984,1.3149785,-0.24099723
-0.2,-0.2,0.6,-0.5235987755982988,-0.34906585039886584,-0.5235987755982988,1.7775395,1.2541137,0.32236907,-0.12614928,-0.061298795,0.998393,-0.1350789,-0.17180371,1.4464034,-0.2963094,-0.1185083,-0.06981224,1.3103087,-0.27417234
-0.2,-0.2,0.6,-0.5235987755982988,-0.34906585039886584,-0.5235987755982988,1.7923506,1.2586995,0.33741874,-0.12270411,-0.07852488,1.0202183,-0.14372502,-0.16499873,1.4485817,-0.29000401,-0.13027018,-0.08057607,1.3039621,-0.028880987
-0.2,-0.2,0.6,-0.5235987755982988,-0.34906585039886584,-0.5235987755982988,1.7912716,1.250033,0.33189124,-0.11950168,-0.081963085,1.0207186,-0.13164394,-0.16699295,1.4531529,-0.30406752,-0.11646513,-0.051531717,1.2842256,0.026397977
-0.2,-0.2,0.6,-0.5235987755982988,-0.34906585039886584,-0.5235987755982988,1.7765437,1.2530572,0.3291409,-0.10833875,-0.07996964,1.0142375,-0.16711684,-0.18731365,1.4408551,-0.25935212,-0.12666962,-0.08800163,1.3036193,-0.08988139
-0.2,-0.2,0.6,-0.5235987755982988,-0.34906585039886584,-0.5235987755982988,1.7843239,1.249767,0.3194648,-0.11843045,-0.087620266,1.0148265,-0.1581014,-0.1677893,1.4431845,-0.28607386,-0.12771863,-0.043404177,1.2997229,-0.102593526
-0.2,-0.2,0.6,-0.5235987755982988,-0.34906585039886584,-0.5235987755982988,1.7929717,1.2503977,0.34640414,-0.12089801,-0.07293531,1.016616,-0.14870057,-0.17871428,1.4496698,-0.29872888,-0.1381532,-0.052185204,1.3056372,-0.20248142
-0.2,-0.2,0.6,-0.5235987755982988,-0.34906585039886584,-0.5235987755982988,1.7859544,1.2453918,0.3338714,-0.12593016,-0.08445205,1.011067,-0.14487323,-0.18337569,1.4446955,-0.27591538,-0.14136831,-0.050160628,1.3112653,-0.31451142
-0.2,-0.2,0.6,-0.5235987755982988,-0.34906585039886584,-0.5235987755982988,1.775948,1.2548357,0.3343722,-0.117888145,-0.07220818,1.0218492,-0.09040272,-0.18656188,1.4468423,-0.2704249,-0.12388463,-0.039732475,1.3409224,-0.16641971
-0.2,-0.2,0.6,-0.5235987755982988,-0.34906585039886584,-0.5235987755982988,1.7856832,1.2449268,0.32421228,-0.11313171,-0.06970745,1.0187396,-0.13868314,-0.1775663,1.4450493,-0.30169496,-0.12507719,-0.062441237,1.3008885,-0.33793384
-0.2,-0.2,0.6,-0.5235987755982988,-0.34906585039886584,-0.5235987755982988,1.7936503,1.2502116,0.33961472,-0.117076755,-0.07797151,1.0389636,-0.15787761,-0.18057418,1.4503413,-0.28169042,-0.11508555,-0.0696228,1.2891527,0.13296801
-0.2,-0.2,0.6,-0.5235987755982988,-0.34906585039886584,-0.5235987755982988,1.820949,1.2540126,0.34218952,-0.13091475,-0.06673552,1.0149288,-0.16203935,-0.19057545,1.4461186,-0.28223324,-0.14132023,-0.0556428,1.3103489,-0.18125169
-0.2,-0.2,0.6,-0.5235987755982988,-0.34906585039886584,-0.5235987755982988,1.7822981,1.2371892,0.32971087,-0.11586577,-0.06035233,1.0171982,-0.16817714,-0.19410877,1.4539193,-0.2847461,-0.10650837,-0.06772687,1.3270317,-0.23983563
-0.2,-0.2,0.6,-0.5235987755982988,-0.34906585039886584,-0.5235987755982988,1.7839106,1.2658778,0.35243306,-0.11767612,-0.077594355,1.0214494,-0.13278249,-0.18639812,1.4381968,-0.27295923,-0.14864591,-0.05809249,1.3025491,-0.01950761
-0.2,-0.2,0.6,-0.5235987755982988,-0.34906585039886584,-0.5235987755982988,1.7759892,1.2553971,0.32344875,-0.12183116,-0.07281042,1.0168417,-0.13921586,-0.18706541,1.451301,-0.27909103,-0.1350971,-0.058752377,1.3294297,-0.33790353
-0.2,-0.2,0.6,-0.5235987755982988,-0.34906585039886584,-0.5235987755982988,1.8083723,1.2541783,0.30126154,-0.11888793,-0.08847199,1.0237014,-0.113490224,-0.17943083,1.4575931,-0.26197731,-0.14393577,-0.046431612,1.2982782,-0.06533943
-0.2,-0.2,0.6,-0.5235987755982988,-0.34906585039886584,-0.5235987755982988,1.7943677,1.2543141,0.3175002,-0.12703297,-0.07162826,1.0201063,-0.08728085,-0.18092178,1.4458057,-0.27703574,-0.15165791,-0.010756664,1.302783,-0.083822444
-0.2,-0.2,0.6,-0.5235987755982988,-0.34906585039886584,-0.5235987755982988,1.7974906,1.2548641,0.31303084,-0.12894797,-0.08577151,1.0251894,-0.1445369,-0.17084663,1.4377894,-0.28056344,-0.1301528,-0.07044823,1.3082232,-0.31476882
-0.2,-0.2,0.6,-0.5235987755982988,-0.34906585039886584,-0.5235987755982988,1.7895485,1.2451642,0.31465703,-0.110063575,-0.06678396,1.0078317,-0.11856761,-0.16895565,1.4523746,-0.29296762,-0.14047118,-0.048345763,1.2967762,-0.14503066
-0.2,-0.2,0.6,-0.5235987755982988,-0.34906585039886584,-0.5235987755982988,1.7779584,1.2569089,0.36093953,-0.12133545,-0.07827724,1.0269618,-0.12524334,-0.19300431,1.4503126,-0.2753391,-0.11714532,-0.060635056,1.3421345,-0.23598532
-0.2,-0.2,0.6,-0.5235987755982988,-0.34906585039886584,-0.5235987755982988,1.7767038,1.2560565,0.33480483,-0.10966547,-0.077719405,1.0122383,-0.08719951,-0.17696527,1.451588,-0.26544544,-0.1250861,-0.067823775,1.3074687,-0.052952673
-0.2,-0.2,0.6,-0.5235987755982988,-0.34906585039886584,-0.5235987755982988,1.7982982,1.2515427,0.31998727,-0.11551518,-0.07645315,1.0139495,-0.15130503,-0.17825757,1.4520977,-0.2788016,-0.113677554,-0.063372165,1.3401606,-0.17200498
-0.2,-0.2,0.6,-0.5235987755982988,-0.34906585039886584,-0.5235987755982988,1.7742897,1.2584157,0.34993005,-0.12394163,-0.06920362,1.014542,-0.09821672,-0.17717947,1.4429002,-0.27282262,-0.1373137,-0.058179017,1.3321252,-0.22669004
-0.2,-0.2,0.6,-0.5235987755982988,-0.34906585039886584,-0.5235987755982988,1.7725077,1.2502676,0.32481715,-0.12327883,-0.058951803,1.0197494,-0.13623987,-0.1773282,1.4515535,-0.29147926,-0.118870124,-0.06564879,1.3330492,-0.21266331
-0.2,-0.2,0.6,-0.5235987755982988,-0.34906585039886584,-0.5235987755982988,1.7757251,1.2532963,0.32169136,-0.1297287,-0.07468823,1.0169547,-0.10899802,-0.16003937,1.4401907,-0.2895816,-0.11414824,-0.06710348,1.2879603,-0.13960151
-0.2,-0.2,0.6,-0.5235987755982988,-0.34906585039886584,-0.5235987755982988,1.7840841,1.2497859,0.32622072,-0.12938097,-0.071792565,1.0203774,-0.16689932,-0.18256874,1.4507117,-0.29565614,-0.15222341,-0.03743724,1.3047823,-0.2301188
-0.2,-0.2,0.6,-0.5235987755982988,-0.34906585039886584,-0.5235987755982988,1.7926203,1.2491158,0.31947687,-0.12250042,-0.05980346,1.0266442,-0.1454628,-0.17351781,1.4369209,-0.27626032,-0.12156147,-0.06574469,1.3170364,-0.11282906
-0.2,-0.2,0.6,-0.5235987755982988,-0.34906585039886584,-0.5235987755982988,1.7850983,1.2515894,0.33530968,-0.10796023,-0.08589825,1.0230287,-0.14465635,-0.17948098,1.449173,-0.2831778,-0.14278178,-0.06325158,1.3024745,-0.020513821
-0.2,-0.2,0.6,-0.5235987755982988,-0.34906585039886584,-0.5235987755982988,1.7635592,1.240513,0.3319861,-0.12355698,-0.074967645,1.014889,-0.12086868,-0.18363802,1.4535903,-0.2916275,-0.101998895,-0.06882895,1.3153409,-0.18350482
-0.2,-0.2,0.6,-0.5235987755982988,-0.34906585039886584,-0.5235987755982988,1.7954662,1.2513185,0.3410293,-0.109849684,-0.07735031,1.0282624,-0.121780716,-0.17255007,1.4395959,-0.2700426,-0.112256825,-0.08346649,1.2961758,-0.27172613
-0.2,-0.2,0.6,-0.5235987755982988,-0.34906585039886584,-0.5235987755982988,1.8054844,1.2580365,0.32309347,-0.11829207,-0.06934023,1.0244107,-0.11887703,-0.18328212,1.447034,-0.2864954,-0.14510648,-0.05121117,1.3258547,-0.09141322
-0.2,-0.2,0.6,-0.5235987755982988,-0.34906585039886584,-0.5235987755982988,1.7832437,1.2494346,0.33873406,-0.113571405,-0.083920464,1.0134174,-0.1274433,-0.16560917,1.4394298,-0.27978146,-0.14462489,-0.058453914,1.3113606,0.10772529
-0.2,-0.2,0.6,-0.5235987755982988,-0.34906585039886584,-0.5235987755982988,1.7907331,1.2479644,0.33104074,-0.11732263,-0.0844902,1.0273229,-0.11521072,-0.17481127,1.452297,-0.2892883,-0.1010931,-0.036576014,1.3033398,0.056662045
-0.2,-0.2,0.6,-0.5235987755982988,-0.34906585039886584,-0.5235987755982988,1.7855161,1.2422473,0.33074358,-0.11511586,-0.07313521,1.0302768,-0.09786816,-0.161797,1.4480413,-0.28852847,-0.12316166,-0.029223654,1.3506142,-0.12167003
-0.2,-0.2,0.6,-0.5235987755982988,-0.34906585039886584,-0.5235987755982988,1.8037292,1.2584045,0.36391312,-0.12652628,-0.1093195,1.0087659,-0.11234771,-0.18283337,1.4501698,-0.29110792,-0.14180453,-0.05972553,1.3017008,-0.37232617
-0.2,-0.2,0.6,-0.5235987755982988,-0.34906585039886584,-0.5235987755982988,1.7564893,1.255462,0.32445547,-0.12354273,-0.062115267,1.0154357,-0.14947861,-0.1667983,1.4417199,-0.27501523,-0.115043424,-0.06555125,1.3136535,-0.32362506
-0.2,-0.2,0.6,-0.5235987755982988,-0.34906585039886584,-0.5235987755982988,1.7799733,1.2579291,0.33049205,-0.11857836,-0.06815041,1.0118778,-0.1118139,-0.17625666,1.439938,-0.27621162,-0.12887417,-0.057820305,1.298367,0.17020871
-0.2,-0.2,0.6,-0.5235987755982988,-0.34906585039886584,-0.5235987755982988,1.788,1.2497243,0.31450278,-0.11544332,-0.06186106,1.017211,-0.12177252,-0.17312694,1.4387271,-0.2676481,-0.113484114,-0.05798294,1.3279037,-0.094188176
-0.2,-0.2,0.6,-0.5235987755982988,-0.34906585039886584,-0.5235987755982988,1.7946287,1.2610685,0.32832783,-0.11807863,-0.06343749,1.0242124,-0.099150136,-0.18482494,1.4473355,-0.2649341,-0.12484644,-0.04113231,1.3013115,-0.20326664
-0.2,-0.2,0.6,-0.5235987755982988,-0.34906585039886584,-0.5235987755982988,1.7840768,1.2570436,0.33109936,-0.11709484,-0.07733945,1.0172936,-0.13939363,-0.1970934,1.4537665,-0.28334886,-0.15245557,-0.03788339,1.3102679,-0.11940247
-0.2,-0.2,0.6,-0.5235987755982988,-0.34906585039886584,-0.5235987755982988,1.7643814,1.2556968,0.33451253,-0.12626614,-0.059903797,1.0253898,-0.08575232,-0.17464577,1.4427971,-0.2925594,-0.13276869,-0.03449184,1.3313214,-0.20308647
-0.2,-0.2,0.6,-0.5235987755982988,-0.34906585039886584,-0.5235987755982988,1.7653404,1.251229,0.32103577,-0.1231214,-0.064594135,1.0186936,-0.10512974,-0.18304369,1.4381864,-0.27340332,-0.11671726,-0.054617938,1.2894198,0.15635738
-0.2,-0.2,0.6,-0.5235987755982988,-0.34906585039886584,-0.5235987755982988,1.7965963,1.2484511,0.3437278,-0.11534874,-0.07488077,1.014987,-0.11275466,-0.17625812,1.4436269,-0.28213122,-0.14418663,-0.076294,1.3120261,-0.12896186
-0.2,-0.2,0.6,-0.5235987755982988,-0.34906585039886584,-0.5235987755982988,1.7996483,1.2556283,0.31911573,-0.12501498,-0.06529917,1.0189943,-0.14893363,-0.17387894,1.4488187,-0.29481986,-0.1493628,-0.06165521,1.3216527,-0.20838533
-0.2,-0.2,0.6,-0.5235987755982988,-0.34906585039886584,-0.5235987755982988,1.7979517,1.2579879,0.3301568,-0.11948145,-0.06689471,1.0280373,-0.13902967,-0.19521649,1.4556812,-0.26938578,-0.15838428,-0.05865439,1.3116204,-0.3405749
-0.2,-0.2,0.6,-0.5235987755982988,-0.34906585039886584,-0.5235987755982988,1.7667025,1.2545599,0.3363679,-0.1181065,-0.08274827,1.0106847,-0.09350468,-0.17008518,1.4535849,-0.2837938,-0.12509456,-0.05632169,1.2878414,-0.15438338
-0.2,-0.2,0.6,-0.5235987755982988,-0.34906585039886584,-0.5235987755982988,1.781916,1.2638022,0.3444847,-0.1132928,-0.07717937,1.0147576,-0.15370211,-0.16839407,1.4535257,-0.29689044,-0.1376516,-0.062756866,1.3183452,-0.018556224
-0.2,-0.2,0.6,-0.5235987755982988,-0.34906585039886584,-0.5235987755982988,1.7797347,1.2560008,0.3674844,-0.12118118,-0.08479125,1.0161265,-0.1261199,-0.17629495,1.4545343,-0.29524776,-0.11590102,-0.06849159,1.3203229,-0.133715
-0.2,-0.2,0.6,-0.5235987755982988,-0.34906585039886584,-0.5235987755982988,1.7763551,1.2564347,0.32696286,-0.127383,-0.07668356,1.0228913,-0.12007633,-0.18317217,1.4434496,-0.278408,-0.13858545,-0.06720356,1.3028045,-0.3780108
-0.2,-0.2,0.6,-0.5235987755982988,-0.34906585039886584,-0.5235987755982988,1.7706038,1.2551421,0.3259147,-0.13099891,-0.07620163,1.0303799,-0.10403821,-0.1688474,1.4485466,-0.27884877,-0.10982065,-0.049527142,1.2879168,-0.24460581
-0.2,-0.2,0.6,-0.5235987755982988,-0.34906585039886584,-0.5235987755982988,1.7974455,1.2493404,0.32818124,-0.12266504,-0.05132786,1.0304265,-0.15093234,-0.16451257,1.4378887,-0.28900525,-0.13303332,-0.05241248,1.3020139,0.21296272
-0.2,-0.2,0.6,-0.5235987755982988,-0.34906585039886584,-0.5235987755982988,1.7755042,1.2505914,0.33819255,-0.1140121,-0.086593315,1.0161542,-0.13634421,-0.18146838,1.4496137,-0.28792128,-0.14308374,-0.035730988,1.3067111,0.0532281
-0.2,-0.2,0.6,-0.5235987755982988,-0.34906585039886584,-0.5235987755982988,1.8094856,1.2485105,0.3192805,-0.12394715,-0.07889672,1.0355066,-0.11973275,-0.15956917,1.4508812,-0.29890457,-0.12225242,-0.058001105,1.2949213,-0.112250514
-0.2,-0.2,0.6,-0.5235987755982988,-0.34906585039886584,-0.5235987755982988,1.7719809,1.2423419,0.32524553,-0.13444021,-0.07461653,1.0249026,-0.09631103,-0.19623044,1.4498901,-0.2750878,-0.13635764,-0.06548865,1.3468969,-0.08845389
-0.2,-0.2,0.6,-0.5235987755982988,-0.34906585039886584,-0.5235987755982988,1.7831391,1.2478,0.33034325,-0.11897051,-0.07099392,1.0218769,-0.121834666,-0.19397002,1.4432319,-0.27515203,-0.12024034,-0.049413487,1.3112674,-0.09136187
-0.2,-0.2,0.6,-0.5235987755982988,-0.34906585039886584,-0.5235987755982988,1.7874213,1.2503008,0.3302671,-0.1183359,-0.07241507,1.0218663,-0.123448364,-0.16749519,1.4437668,-0.289357,-0.14208776,-0.056016803,1.3078521,-0.06795021
-0.2,-0.2,0.6,-0.5235987755982988,-0.34906585039886584,-0.5235987755982988,1.8255827,1.2591869,0.31578276,-0.124555044,-0.08939083,1.0226053,-0.1431339,-0.17595686,1.4508272,-0.28829414,-0.13441229,-0.07015391,1.3321779,-0.29703403
-0.2,-0.2,0.6,-0.5235987755982988,-0.34906585039886584,-0.5235987755982988,1.7839798,1.2489772,0.33101588,-0.11219152,-0.07373249,1.0229871,-0.12139331,-0.17254934,1.4433119,-0.28074634,-0.12810174,-0.030061277,1.3280343,-0.2911022
-0.2,-0.2,0.6,-0.5235987755982988,-0.34906585039886584,-0.5235987755982988,1.7829415,1.2483069,0.34228805,-0.12015636,-0.07855548,1.020791,-0.11403974,-0.1790355,1.4432336,-0.2798337,-0.12086449,-0.051899225,1.308781,-0.18431489
-0.2,-0.2,0.6,-0.5235987755982988,-0.34906585039886584,-0.5235987755982988,1.7979548,1.2552543,0.33397648,-0.11980359,-0.05701812,1.0189664,-0.10867397,-0.17392741,1.4525363,-0.28380233,-0.14166048,-0.08625507,1.2969128,-0.25911742
-0.2,-0.2,0.6,-0.5235987755982988,-0.34906585039886584,-0.5235987755982988,1.7954088,1.2496948,0.33246258,-0.109585494,-0.085207306,1.0267751,-0.16030677,-0.18727943,1.4411398,-0.28261122,-0.124368556,-0.07213998,1.2688944,-0.19303627
-0.2,-0.2,0.6,-0.5235987755982988,-0.34906585039886584,-0.5235987755982988,1.7848066,1.2556608,0.33401465,-0.12373574,-0.074596934,1.0228049,-0.13675015,-0.16619678,1.4480022,-0.2882448,-0.103955455,-0.06132839,1.3145444,-0.15373991
-0.2,-0.2,0.6,-0.5235987755982988,-0.34906585039886584,-0.5235987755982988,1.7783518,1.259249,0.34732977,-0.11789971,-0.074287765,1.0189724,-0.11958314,-0.17332137,1.4293752,-0.28743324,-0.11426554,-0.06284491,1.2829163,-0.2718148
-0.2,-0.2,0.6,-0.5235987755982988,-0.34906585039886584,-0.5235987755982988,1.8072263,1.2546707,0.3333703,-0.12288625,-0.07637597,1.019081,-0.15310727,-0.19061108,1.45001,-0.28876603,-0.12862647,-0.07221183,1.3123741,0.09416933
-0.2,-0.2,0.6,-0.5235987755982988,-0.34906585039886584,-0.5235987755982988,1.7864884,1.2541919,0.31550905,-0.11832449,-0.07027751,1.0096786,-0.13345712,-0.1842611,1.4541756,-0.26507944,-0.12639134,-0.035359237,1.3279902,-0.32501078
-0.2,-0.2,0.6,-0.5235987755982988,-0.34906585039886584,-0.5235987755982988,1.7687483,1.2414509,0.32967392,-0.121816434,-0.06729768,1.0211734,-0.13463275,-0.17717803,1.43797,-0.28221223,-0.087947756,-0.05380098,1.3256898,-0.35819814
-0.2,-0.2,0.6,-0.5235987755982988,-0.34906585039886584,-0.5235987755982988,1.7779206,1.2520796,0.32345292,-0.12225363,-0.07769926,1.0200657,-0.138975,-0.1664952,1.4430469,-0.29216087,-0.13610797,-0.03199756,1.3253332,-0.07372371
-0.2,-0.2,0.6,-0.5235987755982988,-0.34906585039886584,-0.5235987755982988,1.7892678,1.2477552,0.30756077,-0.11726369,-0.058157276,1.0220795,-0.16489574,-0.17780581,1.4405341,-0.27197382,-0.15021491,-0.050520953,1.3099631,0.07150062
-0.2,-0.2,0.6,-0.5235987755982988,-0.34906585039886584,-0.5235987755982988,1.7631849,1.2534995,0.32217777,-0.11555509,-0.046648014,1.0246209,-0.11993744,-0.1807378,1.4449074,-0.2873221,-0.1292503,-0.051902764,1.2901804,-0.17981814
-0.2,-0.2,0.6,-0.5235987755982988,-0.34906585039886584,-0.5235987755982988,1.7805854,1.2616683,0.35298893,-0.114337794,-0.06902791,1.0114424,-0.13313258,-0.18494408,1.4378537,-0.2972799,-0.13728525,-0.057054408,1.3005215,0.17971103
-0.2,-0.2,0.6,-0.5235987755982988,-0.34906585039886584,-0.5235987755982988,1.7894601,1.2495426,0.32097682,-0.11847288,-0.06775465,1.0310984,-0.078830294,-0.16572334,1.4457552,-0.301266,-0.14496359,-0.074504234,1.2899851,-0.10645756
-0.2,-0.2,0.6,-0.5235987755982988,-0.34906585039886584,-0.5235987755982988,1.8078872,1.2585357,0.3505009,-0.11527568,-0.08288767,1.0318719,-0.1600398,-0.18537727,1.4460279,-0.2741469,-0.12941723,-0.045114014,1.3083036,-0.16593893
-0.2,-0.2,0.6,-0.5235987755982988,-0.34906585039886584,-0.5235987755982988,1.7919531,1.2574465,0.32604992,-0.121093675,-0.07639435,1.0320922,-0.11175903,-0.18663913,1.4437029,-0.28513017,-0.13857418,-0.06412333,1.2912266,-0.27012378
-0.2,-0.2,0.6,-0.5235987755982988,-0.34906585039886584,-0.5235987755982988,1.7789131,1.2531054,0.31509805,-0.12993634,-0.053997003,1.0098326,-0.13409129,-0.16675839,1.4608154,-0.2913963,-0.1582187,-0.057474498,1.3072305,-0.21128763
-0.2,-0.2,0.6,-0.5235987755982988,-0.34906585039886584,-0.5235987755982988,1.794715,1.2608359,0.33156925,-0.1277289,-0.07867991,1.0091578,-0.14954951,-0.16977653,1.4465297,-0.27630085,-0.12101281,-0.033239327,1.3249186,-0.14346613
-0.2,-0.2,0.6,-0.5235987755982988,-0.34906585039886584,-0.5235987755982988,1.7889694,1.2495972,0.34413123,-0.11338258,-0.08916145,1.0283318,-0.17683692,-0.16435169,1.4439948,-0.28760365,-0.11041625,-0.043415878,1.3327404,-0.26696053
-0.2,-0.2,0.6,-0.5235987755982988,-0.34906585039886584,-0.5235987755982988,1.768563,1.2584841,0.33784848,-0.116742395,-0.061945386,1.0218774,-0.12232619,-0.16947381,1.4496713,-0.2886599,-0.13237302,-0.05396204,1.30025,-0.083809175
-0.2,-0.2,0.6,-0.5235987755982988,-0.34906585039886584,-0.5235987755982988,1.8047247,1.2551783,0.34107816,-0.12680249,-0.08031742,1.0237147,-0.1381926,-0.18909372,1.4444551,-0.27543998,-0.13154502,-0.046442986,1.3245704,-0.20248264
-0.2,-0.2,0.6,-0.5235987755982988,-0.34906585039886584,-0.5235987755982988,1.7820365,1.2631538,0.3608342,-0.09986678,-0.05753524,1.0227172,-0.13130991,-0.1796331,1.4506277,-0.2871903,-0.12317609,-0.065492354,1.3279123,-0.15677243
-0.2,-0.2,0.6,-0.5235987755982988,-0.34906585039886584,-0.5235987755982988,1.7974839,1.2674154,0.34225187,-0.1301462,-0.06943842,1.0286955,-0.12509294,-0.1772582,1.4424391,-0.2775267,-0.108101904,-0.06899112,1.281357,-0.18880735
-0.2,-0.2,0.6,-0.5235987755982988,-0.34906585039886584,-0.5235987755982988,1.79397,1.2573951,0.32371908,-0.111723274,-0.061634675,1.0132505,-0.07809601,-0.16626978,1.4475489,-0.28325233,-0.12779087,-0.033137616,1.3212919,-0.05969096
-0.2,-0.2,0.6,-0.5235987755982988,-0.34906585039886584,-0.5235987755982988,1.7684189,1.2519562,0.33429888,-0.11094612,-0.06748182,1.0220337,-0.10625385,-0.18140726,1.4389417,-0.26216516,-0.12771116,-0.06569382,1.3279643,-0.20654921
-0.2,-0.2,0.6,-0.5235987755982988,-0.34906585039886584,-0.5235987755982988,1.7781965,1.2483599,0.32803506,-0.114821106,-0.063917965,1.0212284,-0.14640042,-0.17469285,1.4413369,-0.2858333,-0.114506274,-0.055389702,1.3159524,-0.11228781
-0.2,-0.2,0.6,-0.5235987755982988,-0.34906585039886584,-0.5235987755982988,1.7929093,1.2666223,0.3087813,-0.12958543,-0.06373223,1.018987,-0.12616032,-0.17221536,1.4481995,-0.2605894,-0.13014585,-0.060281575,1.3101177,-0.15248527
-0.2,-0.2,0.6,-0.5235987755982988,-0.34906585039886584,-0.5235987755982988,1.7931547,1.243472,0.31124675,-0.11410061,-0.07329482,1.0235807,-0.15080781,-0.17529069,1.4384215,-0.28158903,-0.11933338,-0.061718125,1.278182,0.16081792
-0.2,-0.2,0.6,-0.5235987755982988,-0.34906585039886584,-0.5235987755982988,1.7674338,1.2501112,0.30557021,-0.11689644,-0.056458626,1.0186671,-0.11848861,-0.17161343,1.4517368,-0.26931033,-0.12064043,-0.078714184,1.3030405,-0.30051246
-0.2,-0.2,0.6,-0.5235987755982988,-0.34906585039886584,-0.5235987755982988,1.7929903,1.2628471,0.30895418,-0.1124994,-0.04276324,1.0169104,-0.15435171,-0.19915144,1.4519371,-0.2580148,-0.16863894,-0.07858233,1.3332984,-0.20823862
-0.2,-0.2,0.6,-0.5235987755982988,-0.34906585039886584,-0.5235987755982988,1.7869226,1.247694,0.32583392,-0.12258867,-0.065917514,1.0195946,-0.13053511,-0.1735023,1.4412577,-0.26853403,-0.106806956,-0.06428465,1.3490368,-0.013642739
-0.2,-0.2,0.6,-0.5235987755982988,-0.34906585039886584,-0.5235987755982988,1.7821014,1.254836,0.32437706,-0.11923459,-0.060820643,1.0083023,-0.10297804,-0.17308363,1.4370972,-0.26826268,-0.13511305,-0.06419871,1.3181839,-0.29578656
-0.2,-0.2,0.6,-0.5235987755982988,-0.34906585039886584,-0.5235987755982988,1.7687472,1.2505203,0.31815025,-0.12197512,-0.08256102,1.0170127,-0.11520319,-0.15043041,1.4514958,-0.2848326,-0.11279276,-0.042393256,1.3025938,0.12484505
-0.2,-0.2,0.6,-0.5235987755982988,-0.34906585039886584,-0.5235987755982988,1.7660345,1.2590215,0.32704988,-0.12178815,-0.07492512,1.019018,-0.1593197,-0.16719565,1.4462473,-0.29062557,-0.117589034,-0.0441195,1.2807919,-0.15138887
-0.2,-0.2,0.6,-0.5235987755982988,-0.34906585039886584,-0.5235987755982988,1.7852222,1.2496741,0.33610642,-0.12526394,-0.07017237,1.0255402,-0.17116888,-0.18112215,1.4439694,-0.29490575,-0.13504215,-0.053542808,1.3190254,-0.039150093
-0.2,-0.2,0.6,-0.5235987755982988,-0.34906585039886584,-0.5235987755982988,1.7913374,1.255721,0.34459415,-0.11250004,-0.07922045,1.0127782,-0.13275051,-0.18212222,1.4376432,-0.27062425,-0.1282838,-0.076503925,1.2896442,0.08415731
-0.2,-0.2,0.6,-0.5235987755982988,-0.34906585039886584,-0.5235987755982988,1.7931093,1.2584349,0.32991514,-0.13969533,-0.08573647,1.009265,-0.12072184,-0.19441637,1.46241,-0.2626297,-0.13637187,-0.05240674,1.3280041,0.112230346
-0.2,-0.2,0.6,-0.5235987755982988,-0.34906585039886584,-0.5235987755982988,1.7999246,1.2531228,0.31549254,-0.116616644,-0.07144283,1.0257056,-0.1458285,-0.16494575,1.4509277,-0.2828351,-0.12661268,-0.071249895,1.3219218,0.22228275
-0.2,-0.2,0.6,-0.5235987755982988,-0.34906585039886584,-0.5235987755982988,1.7896364,1.2575327,0.3244801,-0.12143038,-0.05853038,1.030878,-0.10042301,-0.1807766,1.4458597,-0.27390307,-0.120906636,-0.077310696,1.3244102,0.07769737
-0.2,-0.2,0.6,-0.5235987755982988,-0.34906585039886584,-0.5235987755982988,1.7685679,1.2475305,0.33442703,-0.11763723,-0.055944953,1.0205469,-0.1245257,-0.179124,1.4468569,-0.28339577,-0.099033855,-0.060854632,1.3200072,-0.38982904
-0.2,-0.2,0.6,-0.5235987755982988,-0.34906585039886584,-0.5235987755982988,1.7904332,1.2572523,0.32947046,-0.11853197,-0.06079766,0.9985469,-0.115450025,-0.18559615,1.4482809,-0.27313966,-0.13438919,-0.06372239,1.3151686,0.013882935
-0.2,-0.2,0.6,-0.5235987755982988,-0.34906585039886584,-0.5235987755982988,1.7825624,1.2473389,0.33427966,-0.11803585,-0.075946726,1.0194364,-0.12950474,-0.18044649,1.4429926,-0.27990532,-0.12775864,-0.074022405,1.3340786,0.04216624
-0.2,-0.2,0.6,-0.5235987755982988,-0.34906585039886584,-0.5235987755982988,1.7755289,1.2409086,0.33106858,-0.11181358,-0.051535267,1.0262955,-0.17612964,-0.17730625,1.4622291,-0.29268688,-0.10443859,-0.06802514,1.3250285,-0.12256652
-0.2,-0.2,0.6,-0.5235987755982988,-0.34906585039886584,-0.5235987755982988,1.7827022,1.2595943,0.33578986,-0.11641382,-0.055894844,1.027685,-0.13716368,-0.18231748,1.437367,-0.2654711,-0.12019566,-0.0659796,1.3462497,-0.012510756
-0.2,-0.2,0.6,-0.5235987755982988,-0.34906585039886584,-0.5235987755982988,1.797561,1.2582422,0.33562082,-0.1091685,-0.06379792,1.0247234,-0.09796054,-0.18218102,1.438681,-0.27944565,-0.13159114,-0.04030458,1.3160789,0.09024011
-0.2,-0.2,0.6,-0.5235987755982988,-0.34906585039886584,-0.5235987755982988,1.7837598,1.2532959,0.32294217,-0.10856565,-0.092981964,1.0122334,-0.16807725,-0.17407486,1.4532292,-0.28834027,-0.15181598,-0.058302958,1.2984799,-0.019935621
-0.2,-0.2,0.6,-0.5235987755982988,-0.34906585039886584,-0.5235987755982988,1.7857366,1.2541327,0.33047467,-0.11303096,-0.08281664,1.0346909,-0.1496416,-0.16453975,1.4451246,-0.28368026,-0.145957,-0.0380624,1.3227733,-0.24046487
-0.2,-0.2,0.6,-0.5235987755982988,-0.34906585039886584,-0.5235987755982988,1.7812694,1.2508147,0.34301198,-0.1191931,-0.086114295,1.0208286,-0.13969062,-0.17391117,1.4464972,-0.28752592,-0.12724064,-0.0679564,1.3147328,-0.16500485
-0.2,-0.2,0.6,-0.5235987755982988,-0.34906585039886584,-0.5235987755982988,1.7856518,1.2537218,0.33611968,-0.11617895,-0.06385454,1.027097,-0.116907105,-0.1877871,1.4405904,-0.28655848,-0.13506757,-0.06820127,1.3186642,-0.21784048
-0.2,-0.2,0.6,-0.5235987755982988,-0.34906585039886584,-0.5235987755982988,1.7821769,1.2589298,0.3305081,-0.10639222,-0.04708825,1.0141667,-0.15280765,-0.17371763,1.4446995,-0.28013262,-0.13910306,-0.048956826,1.343277,-0.11645578
-0.2,-0.2,0.6,-0.5235987755982988,-0.34906585039886584,-0.5235987755982988,1.7843771,1.2527835,0.3426599,-0.11990129,-0.08228649,1.0139688,-0.13130333,-0.19809642,1.4440178,-0.26601943,-0.11492461,-0.07905617,1.2977616,-0.17376006
-0.2,-0.2,0.6,-0.5235987755982988,-0.34906585039886584,-0.5235987755982988,1.7916261,1.2473735,0.3320021,-0.11244669,-0.0753797,1.0126437,-0.11471859,-0.1812889,1.4418347,-0.28470945,-0.12466586,-0.05653653,1.3309399,-0.03373502
-0.2,-0.2,0.6,-0.5235987755982988,-0.34906585039886584,-0.5235987755982988,1.7918122,1.2515737,0.3160087,-0.11911989,-0.08875619,1.0198488,-0.10952392,-0.1725549,1.4613008,-0.28398755,-0.13115413,-0.051792838,1.3050508,-0.07917998
-0.2,-0.2,0.6,-0.5235987755982988,-0.34906585039886584,-0.5235987755982988,1.8044813,1.2557546,0.3138487,-0.12088677,-0.053820428,1.0183815,-0.11978535,-0.18934959,1.448378,-0.27927372,-0.14007705,-0.07330613,1.3151519,-0.41572908
-0.2,-0.2,0.6,-0.5235987755982988,-0.34906585039886584,-0.5235987755982988,1.8205687,1.250669,0.33533698,-0.11707313,-0.088628456,1.0219486,-0.1480024,-0.17860337,1.4484187,-0.28792718,-0.13474698,-0.061332487,1.3080996,-0.24071348
-0.2,-0.2,0.6,-0.5235987755982988,-0.34906585039886584,-0.5235987755982988,1.786223,1.2528788,0.3397225,-0.12936361,-0.08098868,1.0205189,-0.119695894,-0.17430456,1.4500368,-0.2990382,-0.11489515,-0.039611492,1.3182622,-0.21881644
-0.2,-0.2,0.6,-0.5235987755982988,-0.34906585039886584,-0.5235987755982988,1.784967,1.2472668,0.33295026,-0.11709155,-0.0716218,1.0102209,-0.14973845,-0.18485089,1.4432989,-0.28080952,-0.10086772,-0.05914998,1.3261971,-0.12164164
-0.2,-0.2,0.6,-0.5235987755982988,-0.34906585039886584,-0.5235987755982988,1.7760427,1.2493378,0.33414412,-0.1266573,-0.07344465,1.0152626,-0.17697668,-0.19007333,1.441193,-0.2625371,-0.12325385,-0.06739729,1.3320451,0.055989835
-0.2,-0.2,0.6,-0.5235987755982988,-0.34906585039886584,-0.5235987755982988,1.7877337,1.2459362,0.309959,-0.11224883,-0.07825905,1.0309277,-0.14943653,-0.17736682,1.460281,-0.27013433,-0.12030646,-0.025714999,1.2792491,-0.2393491
-0.2,-0.2,0.6,-0.5235987755982988,-0.34906585039886584,-0.5235987755982988,1.770135,1.2490046,0.34673938,-0.12537836,-0.07267839,1.0300132,-0.084518,-0.2023348,1.4444128,-0.26821977,-0.12606536,-0.06254965,1.2820714,-0.124094374
-0.2,-0.2,0.6,-0.5235987755982988,-0.34906585039886584,-0.5235987755982988,1.7927103,1.2424682,0.32348055,-0.10280822,-0.068860695,1.0195236,-0.08657605,-0.18512946,1.4526395,-0.28836337,-0.12936983,-0.036652215,1.3081405,-0.073418364
-0.2,-0.2,0.6,-0.5235987755982988,-0.34906585039886584,-0.5235987755982988,1.7998433,1.2606658,0.33681014,-0.1200584,-0.058026228,1.014351,-0.14789797,-0.19786447,1.4537771,-0.27416196,-0.12949464,-0.07672026,1.3200121,0.18816929
-0.2,-0.2,0.6,-0.5235987755982988,-0.34906585039886584,-0.5235987755982988,1.7782718,1.2640228,0.3289119,-0.12625223,-0.07955742,1.0139023,-0.13012068,-0.15222985,1.4552753,-0.30761144,-0.1204558,-0.04535339,1.3170005,0.03668421
-0.2,-0.2,0.6,-0.5235987755982988,-0.34906585039886584,-0.5235987755982988,1.7865005,1.2606088,0.34229255,-0.12734008,-0.06118765,1.0170524,-0.15664892,-0.18500297,1.4426613,-0.27903858,-0.14117517,-0.055489767,1.3156857,-0.23834044
-0.2,-0.2,0.6,-0.5235987755982988,-0.34906585039886584,-0.5235987755982988,1.790907,1.2478551,0.3266162,-0.115869835,-0.06909157,1.0109802,-0.14592813,-0.18359031,1.4418232,-0.2697436,-0.12157987,-0.06186089,1.3112643,-0.389391
-0.2,-0.2,0.6,-0.5235987755982988,-0.34906585039886584,-0.5235987755982988,1.7763318,1.247306,0.31526423,-0.11998797,-0.06683753,1.0118165,-0.09190231,-0.16707134,1.4433259,-0.2796992,-0.1305765,-0.017885623,1.3296279,0.085126705
-0.2,-0.2,0.6,-0.5235987755982988,-0.34906585039886584,-0.5235987755982988,1.7899863,1.2445946,0.34014553,-0.10455115,-0.06132747,1.0152011,-0.07483926,-0.17003778,1.4495783,-0.29594555,-0.14311317,-0.07141001,1.3004447,-0.045573935
-0.2,-0.2,0.6,-0.5235987755982988,-0.34906585039886584,-0.5235987755982988,1.7837119,1.253309,0.3423312,-0.120808564,-0.07012234,1.0225557,-0.13779154,-0.17541675,1.4493685,-0.27984756,-0.120505355,-0.048023727,1.3324333,-0.5908993
-0.2,-0.2,0.6,-0.5235987755982988,-0.34906585039886584,-0.5235987755982988,1.79824,1.2585918,0.31293294,-0.11291586,-0.049205747,1.0196306,-0.15942432,-0.16947062,1.4559778,-0.2906805,-0.1271332,-0.048836123,1.3130476,-0.2992265
-0.2,-0.2,0.6,-0.5235987755982988,-0.34906585039886584,-0.5235987755982988,1.7880522,1.257602,0.32403854,-0.121344425,-0.0740801,1.0168701,-0.08665123,-0.1644381,1.445949,-0.27409345,-0.12192517,-0.03267058,1.333573,-0.08593393
-0.2,-0.2,0.6,-0.5235987755982988,-0.34906585039886584,-0.5235987755982988,1.798899,1.2588477,0.32167727,-0.11770106,-0.06283755,1.0283238,-0.112306304,-0.18517484,1.4498783,-0.28220567,-0.15481515,-0.04993682,1.313401,-0.22949764
-0.2,-0.2,0.6,-0.5235987755982988,-0.34906585039886584,-0.5235987755982988,1.7843384,1.2513362,0.332131,-0.11820889,-0.053780943,1.0165074,-0.0979971,-0.19085136,1.4458138,-0.2777177,-0.13593034,-0.063133925,1.3042748,-0.066436686
-0.2,-0.2,0.6,-0.5235987755982988,-0.34906585039886584,-0.5235987755982988,1.8086376,1.2535832,0.33749,-0.1149439,-0.07153471,1.023556,-0.10100026,-0.19804053,1.4445075,-0.27251256,-0.12350163,-0.0652253,1.319569,0.049248658
-0.2,-0.2,0.6,-0.5235987755982988,-0.34906585039886584,-0.5235987755982988,1.799779,1.2513367,0.32532325,-0.12852345,-0.08948255,1.0166885,-0.1576816,-0.16597362,1.4549475,-0.2856315,-0.115115315,-0.060684867,1.3342009,0.029941935
-0.2,-0.2,0.6,-0.5235987755982988,-0.34906585039886584,-0.5235987755982988,1.7740828,1.2454029,0.31148264,-0.12682982,-0.07173277,1.0246983,-0.10455049,-0.18076748,1.4415098,-0.2779897,-0.11727673,-0.0611058,1.3058151,-0.18283938
-0.2,-0.2,0.6,-0.5235987755982988,-0.34906585039886584,-0.5235987755982988,1.79412,1.2575203,0.33641875,-0.1331528,-0.081024006,1.011213,-0.12391229,-0.1656178,1.4465911,-0.3058907,-0.14484158,-0.06885736,1.3016472,-0.37801218
-0.2,-0.2,0.6,-0.5235987755982988,-0.34906585039886584,-0.5235987755982988,1.7660015,1.2634033,0.3432003,-0.12270239,-0.07560265,1.0203269,-0.10028228,-0.1541869,1.4510068,-0.2840377,-0.11971051,-0.06369414,1.3241295,-0.053162903
-0.2,-0.2,0.6,-0.5235987755982988,-0.34906585039886584,-0.5235987755982988,1.7824757,1.2578523,0.2981506,-0.15424512,-0.083747454,1.0124576,-0.12945625,-0.18051063,1.4421608,-0.28032345,-0.13609022,-0.05391005,1.335496,-0.3416372
-0.2,-0.2,0.6,-0.5235987755982988,-0.34906585039886584,-0.5235987755982988,1.7767287,1.2517202,0.32479694,-0.12428293,-0.070909694,1.0208975,-0.13708167,-0.17292023,1.4378808,-0.29527542,-0.12804805,-0.07248757,1.3168584,-0.14755075
-0.2,-0.2,0.6,-0.5235987755982988,-0.34906585039886584,-0.5235987755982988,1.7907572,1.2475373,0.3293131,-0.11418838,-0.055062916,1.0131172,-0.1573122,-0.16555601,1.4498768,-0.28671598,-0.12646341,-0.051472202,1.3027968,-0.28352025
-0.2,-0.2,0.6,-0.5235987755982988,-0.34906585039886584,-0.5235987755982988,1.7787294,1.2483237,0.31810933,-0.11337527,-0.06671562,1.0250021,-0.11844624,-0.16703072,1.4496987,-0.26798326,-0.11948837,-0.0813722,1.2929673,-0.12729014
-0.2,-0.2,0.6,-0.5235987755982988,-0.34906585039886584,-0.5235987755982988,1.8023793,1.25592,0.3177532,-0.119329646,-0.08631115,1.0188051,-0.13255988,-0.15439907,1.4526806,-0.30008355,-0.12054413,-0.05711525,1.3017786,-0.45789894
-0.2,-0.2,0.6,-0.5235987755982988,-0.34906585039886584,-0.5235987755982988,1.8012463,1.2480298,0.31780735,-0.11054243,-0.053956978,1.0181429,-0.14429455,-0.16109051,1.451696,-0.28782424,-0.10805019,-0.0678848,1.3109788,-0.1396812
-0.2,-0.2,0.6,-0.5235987755982988,-0.34906585039886584,-0.5235987755982988,1.7850227,1.2526314,0.3118067,-0.122197025,-0.061766736,1.0122944,-0.139154,-0.1830551,1.4462816,-0.27666867,-0.13448884,-0.04181108,1.3202658,-0.023063753
-0.2,-0.2,0.6,-0.5235987755982988,-0.34906585039886584,-0.5235987755982988,1.7923839,1.2511984,0.3192584,-0.1130492,-0.06749254,1.0192459,-0.13666269,-0.15747124,1.4417586,-0.2953531,-0.1501753,-0.038834423,1.2940813,-0.071185924
-0.2,-0.2,0.6,-0.5235987755982988,-0.34906585039886584,-0.5235987755982988,1.771034,1.2615421,0.32278022,-0.11422262,-0.06571824,1.0122744,-0.13946985,-0.1370702,1.4520054,-0.28833506,-0.10760908,-0.06259111,1.2984926,0.059879966
-0.2,-0.2,0.6,-0.5235987755982988,-0.34906585039886584,-0.5235987755982988,1.7965602,1.23773,0.3279705,-0.1046059,-0.07878954,1.009781,-0.11292057,-0.18524304,1.4611899,-0.27736774,-0.14070973,-0.04686155,1.3403182,0.09088294
-0.2,-0.2,0.6,-0.5235987755982988,-0.34906585039886584,-0.5235987755982988,1.8002445,1.2592734,0.30200118,-0.122359134,-0.0906062,1.0216345,-0.14232707,-0.16548945,1.4554136,-0.2591361,-0.12294033,-0.027275376,1.3418459,-0.18403298
-0.2,-0.2,0.6,-0.5235987755982988,-0.34906585039886584,-0.5235987755982988,1.7876176,1.2577077,0.32677764,-0.13229372,-0.061697185,1.0202098,-0.15768427,-0.18107943,1.4509851,-0.28331643,-0.13083148,-0.05284193,1.3299211,0.0039063483
-0.2,-0.2,0.6,-0.5235987755982988,-0.34906585039886584,-0.5235987755982988,1.7861096,1.252828,0.35268894,-0.12859666,-0.092739366,1.0261008,-0.13484934,-0.16925158,1.4512314,-0.29336563,-0.13553123,-0.0457153,1.3269187,-0.19071934
-0.2,-0.2,0.6,-0.5235987755982988,-0.34906585039886584,-0.5235987755982988,1.7801208,1.2513909,0.3263957,-0.12039807,-0.07887544,1.0316099,-0.15214458,-0.17174493,1.4425281,-0.28085926,-0.13299903,-0.049873583,1.3353213,0.09364916
-0.2,-0.2,0.6,-0.5235987755982988,-0.34906585039886584,-0.5235987755982988,1.785458,1.2568032,0.3091381,-0.12886807,-0.06794911,1.0238923,-0.110812224,-0.15899985,1.457886,-0.28852105,-0.13420989,-0.0706059,1.3026704,-0.17188258
-0.2,-0.2,0.6,-0.5235987755982988,-0.34906585039886584,-0.5235987755982988,1.7667016,1.2499049,0.35185605,-0.11468043,-0.051569525,1.0251759,-0.14275156,-0.17273441,1.4379466,-0.2948149,-0.11493946,-0.091034465,1.3085572,-0.10228485
-0.2,-0.2,0.6,-0.5235987755982988,-0.34906585039886584,-0.5235987755982988,1.7917107,1.2518393,0.32846326,-0.12335067,-0.07320272,1.0247512,-0.11772135,-0.18597813,1.4402969,-0.27610874,-0.10267025,-0.057661626,1.3118433,-0.17265806
-0.2,-0.2,0.6,-0.5235987755982988,-0.34906585039886584,-0.5235987755982988,1.7892941,1.2539713,0.33017638,-0.13051352,-0.06844542,1.0184482,-0.12370004,-0.18008642,1.4366282,-0.28699282,-0.111685224,-0.048296716,1.3137512,-0.009993242
-0.2,-0.2,0.6,-0.5235987755982988,-0.34906585039886584,-0.5235987755982988,1.7851237,1.2490976,0.325419,-0.11769059,-0.06433996,1.0269396,-0.15648352,-0.16008075,1.458063,-0.28769726,-0.13307679,-0.0645979,1.3082485,-0.34586802
-0.2,-0.2,0.6,-0.5235987755982988,-0.34906585039886584,-0.5235987755982988,1.7901446,1.2662505,0.35175955,-0.1177009,-0.06538698,1.0120083,-0.14040841,-0.1939963,1.4486126,-0.29017493,-0.13304283,-0.049657695,1.3071375,-0.27297828
-0.2,-0.2,0.6,-0.5235987755982988,-0.34906585039886584,-0.5235987755982988,1.802537,1.2421503,0.32380256,-0.11802082,-0.06407955,1.017249,-0.17042014,-0.17231022,1.455338,-0.28858837,-0.1279089,-0.06290625,1.3161141,0.015703054
-0.2,-0.2,0.6,-0.5235987755982988,-0.34906585039886584,-0.5235987755982988,1.7797251,1.2594829,0.32794055,-0.11775837,-0.060339298,1.0336082,-0.09019089,-0.16462252,1.4368095,-0.2736422,-0.1131074,-0.06867041,1.3045106,-0.3380298
-0.2,-0.2,0.6,-0.5235987755982988,-0.34906585039886584,-0.5235987755982988,1.7909703,1.248303,0.32312235,-0.109339125,-0.049062572,1.0245215,-0.11779817,-0.19011192,1.4433036,-0.26687884,-0.13503556,-0.0656571,1.3191857,-0.08712809
-0.2,-0.2,0.6,-0.5235987755982988,-0.34906585039886584,-0.5235987755982988,1.7923898,1.254024,0.3393053,-0.11886538,-0.07298136,1.022481,-0.14422895,-0.1697895,1.438977,-0.28419027,-0.14472555,-0.05839091,1.2858791,-0.26583326
-0.2,-0.2,0.6,-0.5235987755982988,-0.34906585039886584,-0.5235987755982988,1.7751774,1.2491817,0.32005188,-0.11607172,-0.066863984,1.0297185,-0.094411924,-0.18655981,1.444344,-0.27901748,-0.14402209,-0.05065081,1.2952119,-0.031041391
-0.2,-0.2,0.6,-0.5235987755982988,-0.34906585039886584,-0.5235987755982988,1.7750455,1.2540947,0.32797366,-0.10929693,-0.053182483,1.0417026,-0.14676471,-0.15557963,1.4474453,-0.28182653,-0.13668703,-0.03238629,1.3077451,-0.56850666
-0.2,-0.2,0.6,-0.5235987755982988,-0.34906585039886584,-0.5235987755982988,1.7776747,1.2620945,0.34048542,-0.123238206,-0.07163668,1.0322077,-0.10558714,-0.17180091,1.4386929,-0.28204203,-0.11639994,-0.059794005,1.317203,-0.051301457
-0.2,-0.2,0.6,-0.5235987755982988,-0.34906585039886584,-0.5235987755982988,1.8061448,1.250473,0.32806158,-0.12077154,-0.09396786,1.0180805,-0.13652073,-0.16238725,1.4371209,-0.2817064,-0.12177109,-0.04486658,1.2994169,-0.2367669
-0.2,-0.2,0.6,-0.5235987755982988,-0.34906585039886584,-0.5235987755982988,1.7673805,1.2603279,0.33746758,-0.11061267,-0.056172896,1.0109138,-0.15624417,-0.16896378,1.4521272,-0.29967654,-0.13904431,-0.0681373,1.296347,-0.16960695
-0.2,-0.2,0.6,-0.5235987755982988,-0.34906585039886584,-0.5235987755982988,1.7883748,1.2598269,0.3212401,-0.12313368,-0.08099075,1.0188866,-0.12982872,-0.17771702,1.4372746,-0.27856103,-0.124543466,-0.05280973,1.3069162,-0.17505765
-0.2,-0.2,0.6,-0.5235987755982988,-0.34906585039886584,-0.5235987755982988,1.8124413,1.2506533,0.33621773,-0.124003,-0.07929238,1.0264118,-0.12542154,-0.1569128,1.444037,-0.28445274,-0.09217385,-0.05108047,1.2963017,-0.1681507
-0.2,-0.2,0.6,-0.5235987755982988,-0.34906585039886584,-0.5235987755982988,1.7788336,1.2528776,0.33077738,-0.12047141,-0.05142292,1.0165668,-0.1504089,-0.17485671,1.4509238,-0.28091192,-0.106619,-0.050041854,1.3301405,-0.30628648
-0.2,-0.2,0.6,-0.5235987755982988,-0.34906585039886584,-0.5235987755982988,1.8022481,1.260046,0.3188473,-0.12326448,-0.08461293,1.0203841,-0.13119185,-0.18222243,1.4443853,-0.26961097,-0.13686216,-0.06511886,1.333665,0.3001803
-0.2,-0.2,0.6,-0.5235987755982988,-0.34906585039886584,-0.5235987755982988,1.7791489,1.2514361,0.34344804,-0.116324075,-0.075874455,1.0248256,-0.12290044,-0.16794552,1.4448531,-0.29440236,-0.13843286,-0.07281172,1.3277386,-0.18080428
-0.2,-0.2,0.6,-0.5235987755982988,-0.34906585039886584,-0.5235987755982988,1.7916743,1.2523875,0.32214627,-0.12397807,-0.078275666,1.0197891,-0.13735299,-0.18033609,1.4442536,-0.26737213,-0.12356623,-0.025315698,1.2903224,0.09970465
-0.2,-0.2,0.6,-0.5235987755982988,-0.34906585039886584,-0.5235987755982988,1.7733947,1.2654867,0.35307938,-0.11474064,-0.056462638,1.0199991,-0.11959409,-0.17317837,1.4444294,-0.295194,-0.12651543,-0.07662544,1.3012406,-0.0924298
-0.2,-0.2,0.6,-0.5235987755982988,-0.34906585039886584,-0.5235987755982988,1.7852998,1.252871,0.33388364,-0.1194483,-0.05827538,1.0324551,-0.15584323,-0.15580685,1.43875,-0.3080782,-0.12544397,-0.047963254,1.3093386,0.03899984
-0.2,-0.2,0.6,-0.5235987755982988,-0.34906585039886584,-0.5235987755982988,1.7771435,1.2617266,0.32428905,-0.12209144,-0.09168062,1.0144339,-0.15354878,-0.17591575,1.4427913,-0.27190563,-0.14136837,-0.06210216,1.309202,-0.16786315
-0.2,-0.2,0.6,-0.5235987755982988,-0.34906585039886584,-0.5235987755982988,1.7554997,1.2543218,0.34089047,-0.12365473,-0.054317906,1.0221395,-0.12574379,-0.1694307,1.4488984,-0.27904722,-0.13161553,-0.054932974,1.2974523,-0.28461617
-0.2,-0.2,0.6,-0.5235987755982988,-0.34906585039886584,-0.5235987755982988,1.7943928,1.2566137,0.32389796,-0.11647374,-0.055735894,1.0240623,-0.12523004,-0.15786713,1.4452676,-0.28755516,-0.117883794,-0.066679776,1.292537,-0.20058939
-0.2,-0.2,0.6,-0.5235987755982988,-0.34906585039886584,-0.5235987755982988,1.7807468,1.2570318,0.34068477,-0.12503304,-0.07576812,1.0185652,-0.15331474,-0.16836913,1.4454045,-0.28555283,-0.14012414,-0.057879683,1.3276329,-0.16961169
-0.2,-0.2,0.6,-0.5235987755982988,-0.34906585039886584,-0.5235987755982988,1.7845918,1.2530705,0.33637512,-0.113705754,-0.064741105,1.0070835,-0.16331261,-0.17409638,1.4388224,-0.28756195,-0.10664475,-0.05997684,1.312577,-0.08602085
-0.2,-0.2,0.6,-0.5235987755982988,-0.34906585039886584,-0.5235987755982988,1.7959318,1.2612878,0.31501758,-0.12431421,-0.074304976,1.0193927,-0.0834743,-0.17794703,1.4442214,-0.25791684,-0.13399537,-0.082056336,1.287883,-0.18989152
-0.2,-0.2,0.6,-0.5235987755982988,-0.34906585039886584,-0.5235987755982988,1.7923937,1.2539966,0.3181585,-0.1177188,-0.062274177,1.008993,-0.133516,-0.17437774,1.4413432,-0.29109362,-0.12747677,-0.07776967,1.2940893,-0.015945792
-0.2,-0.2,0.6,-0.5235987755982988,-0.34906585039886584,-0.5235987755982988,1.810431,1.249532,0.3135157,-0.1253519,-0.073696665,1.0222186,-0.15232389,-0.15903462,1.4394103,-0.2810179,-0.12472073,-0.049217887,1.3124712,-0.1320603
-0.2,-0.2,0.6,-0.5235987755982988,-0.34906585039886584,-0.5235987755982988,1.804094,1.2513423,0.32540226,-0.122483976,-0.076098725,1.0088578,-0.12339386,-0.18036945,1.4433396,-0.27100003,-0.12395071,-0.06286079,1.2771599,-0.1220637
-0.2,-0.2,0.6,-0.5235987755982988,-0.34906585039886584,-0.5235987755982988,1.7897351,1.2532319,0.32805923,-0.13313046,-0.08523684,1.0218595,-0.15727806,-0.1744277,1.4474758,-0.28199807,-0.13032883,-0.048092138,1.309656,-0.17918374
-0.2,-0.2,0.6,-0.5235987755982988,-0.34906585039886584,-0.5235987755982988,1.7953876,1.2514683,0.32425338,-0.119009376,-0.075574994,1.0254778,-0.1011978,-0.16307718,1.4398341,-0.28126362,-0.111489736,-0.06091704,1.3046048,-0.06971827
-0.2,-0.2,0.6,-0.5235987755982988,-0.34906585039886584,-0.5235987755982988,1.7785764,1.2568027,0.33938244,-0.12173224,-0.057122998,1.0170175,-0.13242134,-0.19362763,1.4363588,-0.27243277,-0.12381361,-0.06055545,1.3213978,-0.05174157
-0.2,-0.2,0.6,-0.5235987755982988,-0.34906585039886584,-0.5235987755982988,1.7831373,1.2520552,0.32590523,-0.11805406,-0.071470216,1.0110881,-0.14549656,-0.15669158,1.436416,-0.29687512,-0.112931356,-0.046666995,1.2990053,0.00048186682
-0.2,-0.2,0.6,-0.5235987755982988,-0.34906585039886584,-0.5235987755982988,1.7799987,1.255789,0.34346807,-0.121392876,-0.07810438,1.0174571,-0.12964104,-0.19168772,1.4507674,-0.28218165,-0.14064239,-0.036644682,1.3073516,-0.26384333
-0.2,-0.2,0.6,-0.5235987755982988,-0.34906585039886584,-0.5235987755982988,1.7965405,1.2487662,0.31268308,-0.113566026,-0.06505434,1.0053269,-0.121125154,-0.16750778,1.4445511,-0.27738675,-0.12072876,-0.066715546,1.3356647,-0.32886663
-0.2,-0.2,0.6,-0.5235987755982988,-0.34906585039886584,-0.5235987755982988,1.7884108,1.24443,0.3270118,-0.10389611,-0.07163277,1.0138547,-0.11786025,-0.17842203,1.4466829,-0.28015116,-0.14682624,-0.0420746,1.2862775,-0.04848166
-0.2,-0.2,0.6,-0.5235987755982988,-0.34906585039886584,-0.5235987755982988,1.788619,1.2539315,0.32179025,-0.1228736,-0.08829255,1.0271689,-0.13902654,-0.1738569,1.439406,-0.2822863,-0.153011,-0.038789313,1.3179592,-0.14285064
-0.2,-0.2,0.6,-0.5235987755982988,-0.34906585039886584,-0.5235987755982988,1.7820585,1.2465162,0.32307005,-0.11588969,-0.056113306,1.0189022,-0.118787944,-0.16943093,1.448686,-0.28679562,-0.12102255,-0.06094946,1.3281327,-0.36927855
-0.2,-0.2,0.6,-0.5235987755982988,-0.34906585039886584,-0.5235987755982988,1.781996,1.2488351,0.34306496,-0.1225513,-0.08848302,0.9993468,-0.123814724,-0.17463489,1.4449571,-0.28154227,-0.12038713,-0.0800546,1.3210851,-0.097880445
-0.2,-0.2,0.6,-0.5235987755982988,-0.34906585039886584,-0.5235987755982988,1.7879134,1.2572888,0.33340546,-0.11757083,-0.08156779,1.0224451,-0.10522209,-0.18548603,1.4594293,-0.26513124,-0.16105947,-0.071327545,1.3394475,-0.41623288
-0.2,-0.2,0.6,-0.5235987755982988,-0.34906585039886584,-0.5235987755982988,1.7719277,1.2524679,0.31515968,-0.1251442,-0.072934106,1.0197463,-0.10316001,-0.16099152,1.4431664,-0.2790332,-0.12034855,-0.03934436,1.3292623,-0.09807132
-0.2,-0.2,0.6,-0.5235987755982988,-0.34906585039886584,-0.5235987755982988,1.7757086,1.2543277,0.3388442,-0.1113596,-0.078841254,1.0187433,-0.12890989,-0.17618282,1.4445349,-0.2724406,-0.13808009,-0.07228131,1.2956842,0.06495518
-0.2,-0.2,0.6,-0.5235987755982988,-0.34906585039886584,-0.5235987755982988,1.7930955,1.2573607,0.32360455,-0.1228919,-0.07560936,1.0238847,-0.12336276,-0.15401866,1.449102,-0.28714707,-0.12885247,-0.028652985,1.3170141,-0.19579634
-0.2,-0.2,0.6,-0.5235987755982988,-0.34906585039886584,-0.5235987755982988,1.7809654,1.252109,0.3236954,-0.12071234,-0.06417193,1.0187223,-0.11223824,-0.18450911,1.4456042,-0.2813295,-0.13703728,-0.07543459,1.3102869,-0.49396464
-0.2,-0.2,0.6,-0.5235987755982988,-0.34906585039886584,-0.5235987755982988,1.7735423,1.2583239,0.31310242,-0.12789717,-0.06071404,1.0159503,-0.12142176,-0.17362842,1.4510843,-0.26989272,-0.12419252,-0.06328153,1.326818,-0.17367077
-0.2,-0.2,0.6,-0.5235987755982988,-0.34906585039886584,-0.5235987755982988,1.795569,1.2526789,0.3277219,-0.11888528,-0.08349465,1.0199758,-0.12679455,-0.1891484,1.440904,-0.28094652,-0.15617636,-0.055973776,1.3035055,0.1823208
-0.2,-0.2,0.6,-0.5235987755982988,-0.34906585039886584,-0.5235987755982988,1.7757523,1.2417367,0.32444033,-0.11515032,-0.0709849,1.0230458,-0.11649127,-0.17926471,1.4453164,-0.28484717,-0.11420371,-0.055232063,1.3136249,-0.08211367
-0.2,-0.2,0.6,-0.5235987755982988,-0.34906585039886584,-0.5235987755982988,1.7754141,1.2506299,0.33355534,-0.122901306,-0.051259052,1.0265115,-0.13010815,-0.18335654,1.4355894,-0.29006287,-0.12793294,-0.05631444,1.3301728,-0.23333871
-0.2,-0.2,0.6,-0.5235987755982988,-0.34906585039886584,-0.5235987755982988,1.7906353,1.2531606,0.32280162,-0.11230596,-0.068328924,1.0135735,-0.12892093,-0.16956745,1.4451087,-0.27072874,-0.119352125,-0.06268865,1.3237829,-0.08714808
-0.2,-0.2,0.6,-0.5235987755982988,-0.34906585039886584,-0.5235987755982988,1.7625251,1.2578573,0.33375895,-0.12862082,-0.07181808,1.0244222,-0.121079296,-0.16356915,1.448392,-0.26920152,-0.1241777,-0.08494245,1.2885638,-0.27060395
-0.2,-0.2,0.6,-0.5235987755982988,-0.34906585039886584,-0.5235987755982988,1.8130167,1.2604847,0.32545543,-0.1291241,-0.051972248,1.023488,-0.13886595,-0.19347374,1.4525969,-0.2807935,-0.13385579,-0.050481252,1.2999936,-0.26944852
-0.2,-0.2,0.6,-0.5235987755982988,-0.34906585039886584,-0.5235987755982988,1.7850072,1.2564659,0.32528067,-0.12904032,-0.06979555,1.0178597,-0.14934945,-0.17388298,1.4469438,-0.29158595,-0.13419539,-0.08948151,1.3346242,-0.09481474
-0.2,-0.2,0.6,-0.5235987755982988,-0.34906585039886584,-0.5235987755982988,1.7825584,1.2556305,0.33986866,-0.110501006,-0.07249739,1.0183843,-0.12093143,-0.17877898,1.452116,-0.29271042,-0.14393172,-0.03892185,1.3204057,-0.117815696
-0.2,-0.2,0.6,-0.5235987755982988,-0.34906585039886584,-0.5235987755982988,1.7842151,1.2528712,0.34541938,-0.11980354,-0.08378667,1.0253363,-0.106960654,-0.18071085,1.4475613,-0.28306365,-0.10691967,-0.052241687,1.3265932,0.021873433
-0.2,-0.2,0.6,-0.5235987755982988,-0.34906585039886584,-0.5235987755982988,1.7779914,1.2569888,0.34534916,-0.11699505,-0.054681152,1.0102816,-0.10171554,-0.1723781,1.4500587,-0.287864,-0.112089366,-0.045436602,1.3362615,-0.2224909
-0.2,-0.2,0.6,-0.5235987755982988,-0.34906585039886584,-0.5235987755982988,1.7909553,1.2492263,0.32743403,-0.108981,-0.0774046,1.019144,-0.1360377,-0.18304689,1.4511867,-0.2746846,-0.14597836,-0.06438284,1.3254957,-0.06053932
-0.2,-0.2,0.6,-0.5235987755982988,-0.34906585039886584,-0.5235987755982988,1.7836646,1.2463953,0.3218043,-0.1167699,-0.05964258,1.0230799,-0.14850238,-0.17918313,1.4496677,-0.27446535,-0.1085498,-0.06554388,1.3308295,-0.05717309
-0.2,-0.2,0.6,-0.5235987755982988,-0.34906585039886584,-0.5235987755982988,1.7811774,1.2511777,0.32149038,-0.123135515,-0.06968888,1.01239,-0.118495464,-0.16103254,1.4473368,-0.277332,-0.1302288,-0.049814023,1.3085556,-0.22168382
-0.2,-0.2,0.6,-0.5235987755982988,-0.34906585039886584,-0.5235987755982988,1.7884592,1.2553241,0.33024412,-0.11681187,-0.058332,1.0215193,-0.092283174,-0.17025436,1.4514261,-0.28596172,-0.12437321,-0.050430275,1.3060184,-0.26518548
-0.2,-0.2,0.6,-0.5235987755982988,-0.34906585039886584,-0.5235987755982988,1.7926668,1.2596262,0.315052,-0.11169712,-0.06312913,1.0213815,-0.124045275,-0.13931474,1.4418757,-0.28245974,-0.12155129,-0.07225688,1.3325635,-0.36205935
-0.2,-0.2,0.6,-0.5235987755982988,-0.34906585039886584,-0.5235987755982988,1.7781723,1.257666,0.31741527,-0.123227976,-0.06462139,1.0150347,-0.11950152,-0.1635898,1.4445018,-0.285199,-0.13303743,-0.042865507,1.2992312,0.06808499
-0.2,-0.2,0.6,-0.5235987755982988,-0.34906585039886584,-0.5235987755982988,1.7800797,1.2553382,0.35120952,-0.118865296,-0.08457549,1.0190238,-0.11212867,-0.1583809,1.431251,-0.29289895,-0.10434386,-0.032081116,1.3285614,-0.17667785
-0.2,-0.2,0.6,-0.5235987755982988,-0.34906585039886584,-0.5235987755982988,1.7817831,1.2529845,0.33462447,-0.11499655,-0.060173765,1.0245833,-0.12828171,-0.16347674,1.4429215,-0.2915504,-0.11448707,-0.09386759,1.2974583,-0.24004048
-0.2,-0.2,0.6,-0.5235987755982988,-0.34906585039886584,-0.5235987755982988,1.7820382,1.2540414,0.3159125,-0.12786761,-0.075031176,1.0136517,-0.17159861,-0.18316497,1.4481491,-0.27406812,-0.10787886,-0.054105736,1.3439332,0.19399522
-0.2,-0.2,0.6,-0.5235987755982988,-0.34906585039886584,-0.5235987755982988,1.7811096,1.2470502,0.33393237,-0.11659942,-0.06729563,1.0103241,-0.14564347,-0.15981784,1.4461987,-0.3067592,-0.10970806,-0.04737015,1.3247373,0.015975503
-0.2,-0.2,0.6,-0.5235987755982988,-0.34906585039886584,-0.5235987755982988,1.7768358,1.2572867,0.34830186,-0.11426512,-0.068048954,1.026282,-0.12329859,-0.16627084,1.4524238,-0.2958062,-0.120171785,-0.048845567,1.3308798,-0.267776
-0.2,-0.2,0.6,-0.5235987755982988,-0.34906585039886584,-0.5235987755982988,1.7954524,1.251019,0.32668707,-0.11808353,-0.045717373,1.0245944,-0.113839366,-0.18249807,1.4498346,-0.2934983,-0.13948156,-0.059443813,1.3305993,-0.07294057
-0.2,-0.2,0.6,-0.5235987755982988,-0.34906585039886584,-0.5235987755982988,1.7766402,1.2442955,0.3208939,-0.11768388,-0.061455004,1.0241598,-0.14137219,-0.19393232,1.4504409,-0.26704198,-0.11978573,-0.04984443,1.3380607,-0.06730598
