sanky1234/BimanualDexCatch/isaacgymenvs/cem_results/football_pose_-0.1_0.0_1.0999999999999999_0.0_0.0_0_2025-05-25.csv
x,y,z,roll,pitch,yaw,robot1/joint1,robot1/joint2,robot1/joint3,robot1/joint4,robot1/joint5,robot1/joint6,robot1/joint7,robot2/joint1,robot2/joint2,robot2/joint3,robot2/joint4,robot2/joint5,robot2/joint6,robot2/joint7
-0.1,0.0,1.0999999999999999,0.0,0.0,0,-0.9380454,-1.4457263,1.641495,-0.08591583,0.15331976,1.1556838,0.30273905,0.9083041,-0.9789187,-2.7325933,-0.06580957,0.24604164,1.446954,0.0073217703
-0.1,0.0,1.0999999999999999,0.0,0.0,0,-0.9380008,-1.4465332,1.6424345,-0.050586957,-0.09250814,1.1513513,-0.004849871,0.9109559,-0.97837937,-2.726459,-0.038393024,-0.24360459,1.3138242,1.9418573
-0.1,0.0,1.0999999999999999,0.0,0.0,0,-0.93816274,-1.4458392,1.641261,-0.05083695,-0.012606286,1.1638466,0.02567472,0.9072581,-0.97848016,-2.7673955,-0.03400732,-0.05912647,1.4156103,0.11515613
-0.1,0.0,1.0999999999999999,0.0,0.0,0,-0.9381447,-1.4463252,1.6412494,-0.073825896,0.083603546,1.1783636,0.6821453,0.9067635,-0.9785783,-2.7387042,-0.06920774,0.028968725,1.3050016,0.79962695
-0.1,0.0,1.0999999999999999,0.0,0.0,0,-0.9380631,-1.44585,1.641662,-0.10495565,0.14254965,1.164812,0.57537407,0.91264206,-0.97819096,-2.7528958,-0.06115132,-0.11130194,1.2874236,-0.09299455
-0.1,0.0,1.0999999999999999,0.0,0.0,0,-0.93822026,-1.4455224,1.6417415,-0.06330577,0.07299749,1.219898,0.42859188,0.9056775,-0.9782613,-2.7398815,-0.0958874,0.000868881,1.261187,2.0754695
-0.1,0.0,1.0999999999999999,0.0,0.0,0,-0.93797266,-1.4449574,1.6426898,-0.037141617,0.09420058,1.223895,0.605873,0.9061856,-0.9777226,-2.7466116,-0.040339895,-0.02513573,1.2800277,0.3124358
-0.1,0.0,1.0999999999999999,0.0,0.0,0,-0.9381262,-1.4463091,1.6423084,-0.06873167,0.13917516,1.1533226,0.41901827,0.9124742,-0.9789894,-2.7538,-0.12807743,0.10204712,1.328832,-0.8283531
-0.1,0.0,1.0999999999999999,0.0,0.0,0,-0.938239,-1.4458078,1.6424562,-0.11448896,0.005557889,1.1958535,-1.0919995,0.9118768,-0.97794926,-2.734371,-0.06773592,-0.23968194,1.3766434,0.98061013
-0.1,0.0,1.0999999999999999,0.0,0.0,0,-0.9382782,-1.4453015,1.6411284,-0.13645732,0.1582447,1.2226322,1.2766147,0.9079652,-0.9781744,-2.747931,-0.06496917,-0.06490858,1.3151786,1.4560361
-0.1,0.0,1.0999999999999999,0.0,0.0,0,-0.9383665,-1.4456893,1.6419265,-0.116865985,0.1091525,1.1378756,-0.5204487,0.9089548,-0.9786677,-2.7341802,-0.07040269,-0.1594455,1.3801829,-0.71496975
-0.1,0.0,1.0999999999999999,0.0,0.0,0,-0.9377286,-1.4458802,1.6418335,-0.078284144,-0.030731404,1.2076575,0.09795024,0.9103058,-0.9776158,-2.7470505,-0.091059946,0.026701894,1.3539753,0.3806315
-0.1,0.0,1.0999999999999999,0.0,0.0,0,-0.93812406,-1.4463918,1.6425971,-0.09293026,0.10221665,1.1599504,0.5354168,0.9062744,-0.9776203,-2.7541304,-0.040715776,0.06696442,1.3477001,2.2614818
-0.1,0.0,1.0999999999999999,0.0,0.0,0,-0.9381769,-1.4460194,1.6430808,-0.08675944,0.09858176,1.1525817,1.6267347,0.9123086,-0.97820264,-2.734787,-0.07614131,0.048998952,1.3467791,-0.78259915
-0.1,0.0,1.0999999999999999,0.0,0.0,0,-0.9381301,-1.4456829,1.6421489,-0.14439239,-0.024002269,1.2385125,-0.56681144,0.9044557,-0.9775813,-2.7381802,-0.1091302,0.1093311,1.3407005,0.122397706
-0.1,0.0,1.0999999999999999,0.0,0.0,0,-0.93827957,-1.4461696,1.6434346,-0.13410214,0.091367014,1.0827688,-0.28522646,0.9058873,-0.978206,-2.7445776,-0.07665716,0.19570017,1.3075311,0.21996656
-0.1,0.0,1.0999999999999999,0.0,0.0,0,-0.93794847,-1.4462924,1.6414672,-0.09409415,0.13628368,1.1729689,0.30867773,0.9052083,-0.97885597,-2.7493994,-0.15464474,-0.020332927,1.282007,0.8610721
-0.1,0.0,1.0999999999999999,0.0,0.0,0,-0.9382298,-1.4457138,1.6422361,-0.10726536,0.12702549,1.1967331,1.3207796,0.9077202,-0.9786416,-2.7144597,-0.12729958,-0.026546247,1.3455068,1.4445314
-0.1,0.0,1.0999999999999999,0.0,0.0,0,-0.93837154,-1.446489,1.6419722,-0.101914346,0.20037244,1.17512,-1.4973178,0.9023189,-0.97857976,-2.7266054,-0.009188513,0.024507068,1.262433,-0.11503643
-0.1,0.0,1.0999999999999999,0.0,0.0,0,-0.9381131,-1.446193,1.6422936,-0.051806517,0.03392919,1.2203573,0.20218849,0.91187066,-0.9785277,-2.7408342,-0.05785391,0.10439651,1.3451582,1.6181388
-0.1,0.0,1.0999999999999999,0.0,0.0,0,-0.9382175,-1.4465158,1.6420588,-0.05352419,0.035392404,1.2460296,-0.16964906,0.9078652,-0.979246,-2.745255,-0.014383128,0.23771721,1.2281433,0.9329667
-0.1,0.0,1.0999999999999999,0.0,0.0,0,-0.93808544,-1.4449214,1.6423519,-0.07838104,0.21985593,1.2055995,-0.3011313,0.9048331,-0.9782573,-2.7095575,-0.11492912,-0.20918946,1.3776656,0.5567947
-0.1,0.0,1.0999999999999999,0.0,0.0,0,-0.9379998,-1.4453562,1.6427199,-0.041005503,0.0491864,1.1634312,0.5540424,0.9028195,-0.97767544,-2.730289,-0.0806876,0.16195905,1.2585272,0.6341401
-0.1,0.0,1.0999999999999999,0.0,0.0,0,-0.9379654,-1.4455627,1.6418372,-0.10435114,0.013028884,1.1724702,-0.19831075,0.90913635,-0.97852033,-2.7460558,-0.04619758,0.0034364662,1.2599982,-0.42561248
-0.1,0.0,1.0999999999999999,0.0,0.0,0,-0.937976,-1.4457505,1.6414264,-0.046164334,-0.05870601,1.0871032,1.7137104,0.9040109,-0.97862977,-2.752059,-0.10425234,0.05694743,1.3191146,-0.062232826
-0.1,0.0,1.0999999999999999,0.0,0.0,0,-0.937928,-1.4458256,1.6426294,-0.05268616,0.10324407,1.1573144,0.8007925,0.91100264,-0.9787556,-2.730885,-0.11031011,0.06335434,1.3368492,-0.060484808
-0.1,0.0,1.0999999999999999,0.0,0.0,0,-0.9381462,-1.4457557,1.6413721,-0.112766616,0.13516413,1.1935678,-0.81684786,0.91231775,-0.9789506,-2.7496579,-0.057286885,0.02551004,1.2717772,-0.0058590705
-0.1,0.0,1.0999999999999999,0.0,0.0,0,-0.93809617,-1.4463277,1.6415901,-0.119020335,-0.04132907,1.1482792,0.35569116,0.90922964,-0.97910875,-2.7278872,-0.10052189,0.00071576395,1.3113979,1.731426
-0.1,0.0,1.0999999999999999,0.0,0.0,0,-0.9383307,-1.4459504,1.6414832,-0.07648464,0.08655883,1.2163627,-0.0176204,0.90162724,-0.9784197,-2.753071,-0.065680705,0.18711312,1.2873385,0.2847334
-0.1,0.0,1.0999999999999999,0.0,0.0,0,-0.93827134,-1.4463087,1.6419146,-0.09825483,0.084469214,1.1951741,0.40884584,0.9055835,-0.9792635,-2.7182882,-0.1283045,-0.009702436,1.3645115,0.48035693
-0.1,0.0,1.0999999999999999,0.0,0.0,0,-0.93814504,-1.4457805,1.6426395,-0.07547386,0.13145208,1.2153404,0.9569701,0.9062044,-0.9780762,-2.7356293,-0.01956529,-0.033843696,1.3421876,-0.16156405
-0.1,0.0,1.0999999999999999,0.0,0.0,0,-0.9379898,-1.4451594,1.6422389,-0.10677695,0.0981512,1.0827861,-0.75686496,0.90195507,-0.9773242,-2.7667382,-0.084393665,-0.18566327,1.2870413,-0.561326
-0.1,0.0,1.0999999999999999,0.0,0.0,0,-0.93806916,-1.4460825,1.6423433,-0.11607991,0.21845977,1.1512228,0.12188949,0.90667754,-0.97830313,-2.736987,-0.043351833,-0.20466964,1.3122389,0.71742344
-0.1,0.0,1.0999999999999999,0.0,0.0,0,-0.9381448,-1.4454463,1.6419147,-0.09354492,0.13298143,1.1689887,-1.0118749,0.90906847,-0.97836804,-2.7522597,-0.071362026,0.05984157,1.3509526,-0.6058906
-0.1,0.0,1.0999999999999999,0.0,0.0,0,-0.9382899,-1.44557,1.6427314,-0.071141645,-0.04598448,1.1827322,-0.4877143,0.9047505,-0.97798514,-2.7532933,-0.06760018,0.032386255,1.2844827,-0.43057892
-0.1,0.0,1.0999999999999999,0.0,0.0,0,-0.9382429,-1.4460093,1.6417302,-0.10134746,-0.0030186013,1.1352366,0.74995756,0.90237087,-0.97836393,-2.774267,-0.12833458,0.09166103,1.3026075,-0.94974154
-0.1,0.0,1.0999999999999999,0.0,0.0,0,-0.93811584,-1.4457465,1.641847,-0.08114296,0.06462119,1.1725051,-0.12500007,0.9078167,-0.9786662,-2.7412047,-0.063842855,0.24137957,1.3144181,0.57378227
-0.1,0.0,1.0999999999999999,0.0,0.0,0,-0.93813133,-1.4454083,1.6428336,-0.09563194,-0.014464044,1.1839926,-0.118656,0.90563846,-0.97748727,-2.7381501,-0.04993317,-0.10821272,1.2825263,0.31681278
-0.1,0.0,1.0999999999999999,0.0,0.0,0,-0.9380294,-1.4459963,1.6420391,-0.082884006,0.07644205,1.1539272,0.9631359,0.90108013,-0.97732884,-2.7667139,-0.065667875,-0.2710324,1.3677223,0.446762
-0.1,0.0,1.0999999999999999,0.0,0.0,0,-0.9378526,-1.4465593,1.6431104,-0.08257451,0.0546036,1.1259706,-0.8912919,0.90934706,-0.9780293,-2.7298508,-0.055333447,-0.33381027,1.3402008,1.5892392
-0.1,0.0,1.0999999999999999,0.0,0.0,0,-0.93814427,-1.4461695,1.6424206,-0.071368665,0.023157308,1.1462778,-1.0054911,0.9007086,-0.9779884,-2.7447102,-0.07170509,0.39104646,1.284276,1.1469251
-0.1,0.0,1.0999999999999999,0.0,0.0,0,-0.93809086,-1.4462624,1.6426896,-0.08005734,0.06115966,1.1844885,0.07450297,0.9086957,-0.97780883,-2.7528296,-0.03014325,-0.059241958,1.3113402,1.8023546
-0.1,0.0,1.0999999999999999,0.0,0.0,0,-0.93802816,-1.4462643,1.6413996,-0.09647988,-0.020292219,1.0741423,0.57906634,0.9075981,-0.9787526,-2.7450125,-0.0363025,-0.10861169,1.3640977,0.76851696
-0.1,0.0,1.0999999999999999,0.0,0.0,0,-0.93810004,-1.4457225,1.642885,-0.08798871,0.074124254,1.1966738,-0.4086198,0.9076246,-0.9778506,-2.7304857,-0.021459881,0.17084698,1.3193343,0.61508423
-0.1,0.0,1.0999999999999999,0.0,0.0,0,-0.93814635,-1.4465322,1.642949,-0.021395398,-0.024322115,1.1407844,-0.8651237,0.9045925,-0.97822374,-2.7625082,-0.05778703,0.072524875,1.3520247,0.3250541
-0.1,0.0,1.0999999999999999,0.0,0.0,0,-0.9380765,-1.445701,1.6425594,-0.07225033,0.094888285,1.184222,-1.4288282,0.9078306,-0.97802037,-2.7416403,-0.080591686,-0.02931415,1.3556116,0.46082497
-0.1,0.0,1.0999999999999999,0.0,0.0,0,-0.9382026,-1.4463843,1.6416739,-0.060927022,-0.04401247,1.2217233,1.208359,0.9042462,-0.97829825,-2.7687376,-0.113692865,-0.29648772,1.3023015,0.13914326
-0.1,0.0,1.0999999999999999,0.0,0.0,0,-0.93813425,-1.4455446,1.6413008,-0.08669944,0.22211541,1.1997559,0.8893702,0.90602577,-0.97864246,-2.7342713,-0.030692555,0.029397218,1.339269,0.17519505
-0.1,0.0,1.0999999999999999,0.0,0.0,0,-0.9381004,-1.4462246,1.6428045,-0.08635292,0.18839127,1.1847026,0.04492899,0.90401775,-0.9782849,-2.728557,-0.114573695,-0.037613247,1.4240865,1.0968095
-0.1,0.0,1.0999999999999999,0.0,0.0,0,-0.93808335,-1.446213,1.6423129,-0.05659707,0.16892284,1.1605883,-0.880649,0.90499246,-0.9782196,-2.7507238,-0.08547387,-0.16946307,1.2868152,-0.056512844
-0.1,0.0,1.0999999999999999,0.0,0.0,0,-0.938115,-1.4461309,1.6413581,-0.06977622,0.05706668,1.1490076,0.73510236,0.9051501,-0.97920233,-2.740353,-0.042820144,0.16237274,1.2742158,-0.39210656
-0.1,0.0,1.0999999999999999,0.0,0.0,0,-0.9381555,-1.4461035,1.6415895,-0.07482395,0.13090253,1.2191925,-0.38568667,0.90329576,-0.97846204,-2.7376366,-0.121948816,-0.11782251,1.3460021,-0.51544094
-0.1,0.0,1.0999999999999999,0.0,0.0,0,-0.93792474,-1.445802,1.6428261,-0.080392696,0.00445696,1.1823817,0.13710502,0.90417707,-0.97712064,-2.750296,-0.03889233,-0.1528496,1.3631854,1.0519892
-0.1,0.0,1.0999999999999999,0.0,0.0,0,-0.9378978,-1.4458357,1.641447,-0.09120966,0.06475949,1.1744434,0.7781954,0.90482306,-0.97847134,-2.7675161,-0.0771781,-0.39901584,1.2750788,1.1667594
-0.1,0.0,1.0999999999999999,0.0,0.0,0,-0.93808013,-1.4462078,1.6414953,-0.15255836,0.07643507,1.2213428,-0.55004835,0.90491,-0.9788878,-2.7516577,-0.04304599,0.1907509,1.2714995,-0.0968509
-0.1,0.0,1.0999999999999999,0.0,0.0,0,-0.93806195,-1.4459805,1.6432097,-0.05001666,0.0087316595,1.1298691,-1.2911154,0.9053229,-0.9784157,-2.7651062,-0.14368665,0.23221883,1.3243123,1.1753637
-0.1,0.0,1.0999999999999999,0.0,0.0,0,-0.9381533,-1.4466743,1.6428514,-0.0703371,0.06431685,1.1291153,1.0792989,0.9070629,-0.9790352,-2.744164,-0.057239156,-0.1324304,1.2244476,-0.30288526
-0.1,0.0,1.0999999999999999,0.0,0.0,0,-0.93797225,-1.4459536,1.6427596,-0.11742127,0.039328784,1.2033666,1.0259098,0.90715843,-0.97824126,-2.7396371,-0.03078882,0.07686738,1.2518153,0.742082
-0.1,0.0,1.0999999999999999,0.0,0.0,0,-0.9379642,-1.4463347,1.6418228,-0.06927629,-0.10241117,1.2070917,-1.2999667,0.90525705,-0.97854954,-2.7600396,-0.05828909,0.0027525125,1.3412048,-0.26894397
-0.1,0.0,1.0999999999999999,0.0,0.0,0,-0.9381036,-1.446226,1.6420923,-0.13606064,0.19600692,1.1729878,-2.1803463,0.9079953,-0.9787769,-2.7492843,-0.041766386,-0.12784669,1.3837503,0.7936831
-0.1,0.0,1.0999999999999999,0.0,0.0,0,-0.9382869,-1.4463418,1.642362,-0.09289945,0.027300704,1.1921395,0.0797281,0.90620184,-0.9785999,-2.7681997,-0.056780145,-0.120629705,1.29509,0.078054614
-0.1,0.0,1.0999999999999999,0.0,0.0,0,-0.93787444,-1.4460702,1.6424801,-0.06263596,0.14483173,1.1748991,0.8478999,0.9106188,-0.9790741,-2.7434375,-0.11581304,-0.054884255,1.3263795,0.47848162
-0.1,0.0,1.0999999999999999,0.0,0.0,0,-0.93828213,-1.4455811,1.6411401,-0.08041759,0.046638448,1.2063836,0.3797188,0.90669966,-0.97896904,-2.7621818,-0.048581008,0.11826928,1.3451384,1.312019
-0.1,0.0,1.0999999999999999,0.0,0.0,0,-0.9381954,-1.4460981,1.6421287,-0.083812185,-0.046764866,1.1939273,-0.981428,0.90252286,-0.97826785,-2.7357953,-0.07272756,-0.009159608,1.2893503,0.33714873
-0.1,0.0,1.0999999999999999,0.0,0.0,0,-0.9382328,-1.4457651,1.6429027,-0.07699796,-0.020724706,1.191537,-0.14300276,0.8995589,-0.97782314,-2.7277365,-0.08493562,-0.29359853,1.3208727,1.2350897
-0.1,0.0,1.0999999999999999,0.0,0.0,0,-0.9380366,-1.4449977,1.6411575,-0.11568144,0.057404447,1.1139097,0.8640403,0.9018181,-0.97843444,-2.7475386,-0.07377003,-0.29629973,1.3005005,1.0193809
-0.1,0.0,1.0999999999999999,0.0,0.0,0,-0.9380602,-1.4459673,1.6425868,-0.069628984,0.13999054,1.1513572,-2.0838165,0.90719,-0.9787976,-2.7483115,-0.07950561,-0.018469347,1.2362186,0.857842
-0.1,0.0,1.0999999999999999,0.0,0.0,0,-0.93834496,-1.4460593,1.6421206,-0.11015979,0.15939459,1.179006,-1.2624912,0.9024484,-0.97840333,-2.7391841,-0.06538265,-0.0103288395,1.3071427,-0.38723084
-0.1,0.0,1.0999999999999999,0.0,0.0,0,-0.9381599,-1.4458588,1.6417168,-0.14231777,0.03625977,1.1568366,0.47722793,0.90230364,-0.9786035,-2.7582617,-0.108057395,-0.00032395654,1.294117,0.75824624
-0.1,0.0,1.0999999999999999,0.0,0.0,0,-0.93812954,-1.445982,1.6415293,-0.07185481,0.049631763,1.1828139,-0.82996994,0.9084248,-0.9794405,-2.740843,-0.06563839,0.04578862,1.4384654,0.30843696
-0.1,0.0,1.0999999999999999,0.0,0.0,0,-0.9379727,-1.4459797,1.6414249,-0.057577375,0.0016123371,1.1733483,0.7944768,0.9034754,-0.97923917,-2.7585104,-0.071357064,0.14012791,1.3587711,-0.742207
-0.1,0.0,1.0999999999999999,0.0,0.0,0,-0.93813103,-1.4458836,1.6425967,-0.05830355,0.10419809,1.1828122,-0.08960783,0.9078265,-0.978925,-2.720816,-0.08051318,0.16942087,1.345303,0.701844
-0.1,0.0,1.0999999999999999,0.0,0.0,0,-0.9380399,-1.4456353,1.6422013,-0.0831844,0.12135036,1.1810409,1.2341907,0.90299565,-0.9783145,-2.7563171,-0.030372964,-0.08219392,1.3167602,-0.41475368
-0.1,0.0,1.0999999999999999,0.0,0.0,0,-0.938238,-1.445713,1.6423576,-0.13201128,0.0414796,1.1828841,0.21832414,0.9089991,-0.97874653,-2.7649739,-0.051408857,-0.00012516865,1.3336523,0.052970942
-0.1,0.0,1.0999999999999999,0.0,0.0,0,-0.93809015,-1.4454452,1.6416128,-0.13643414,0.023537623,1.2120081,0.15616845,0.90693486,-0.9790301,-2.765839,-0.067214705,-0.35829836,1.3115832,0.55081785
-0.1,0.0,1.0999999999999999,0.0,0.0,0,-0.93808997,-1.4463733,1.6430235,-0.11914294,0.06518004,1.1247299,0.6923579,0.9009835,-0.9783254,-2.7323825,-0.10898075,-0.23036851,1.306693,-0.12029387
-0.1,0.0,1.0999999999999999,0.0,0.0,0,-0.93806654,-1.445577,1.6425025,-0.08646573,-0.019526748,1.1636444,-1.5592709,0.90874296,-0.97939456,-2.701358,-0.10253772,0.13066907,1.273121,1.021654
-0.1,0.0,1.0999999999999999,0.0,0.0,0,-0.9379756,-1.4458503,1.6419894,-0.05499327,0.035549466,1.1669598,-0.38808355,0.9089604,-0.9793875,-2.765019,-0.106200464,-0.26593977,1.381477,0.36031148
-0.1,0.0,1.0999999999999999,0.0,0.0,0,-0.9380702,-1.4464661,1.6419432,-0.08865792,0.17135231,1.1601946,0.8542867,0.89836836,-0.97815865,-2.745381,-0.015714055,0.02252241,1.3001788,1.4430625
-0.1,0.0,1.0999999999999999,0.0,0.0,0,-0.93816364,-1.4456798,1.6423808,-0.12811847,0.18969837,1.1958095,-0.02662719,0.91171634,-0.9798242,-2.7414777,-0.063097656,-0.16119938,1.3239986,0.7693922
-0.1,0.0,1.0999999999999999,0.0,0.0,0,-0.9382006,-1.4459013,1.6415492,-0.09360209,-0.015694872,1.1554158,0.7220733,0.9016465,-0.9798349,-2.7484071,-0.104887985,-0.22115225,1.2166457,1.5305619
-0.1,0.0,1.0999999999999999,0.0,0.0,0,-0.9380508,-1.4458747,1.6430658,-0.09083209,0.085331224,1.1336861,1.0764763,0.9082249,-0.97870815,-2.7588491,-0.051498953,0.028028391,1.3014181,-0.16822822
-0.1,0.0,1.0999999999999999,0.0,0.0,0,-0.9380299,-1.4456222,1.6427072,-0.12073387,0.079593055,1.1309782,0.2575531,0.91016656,-0.97942144,-2.7521193,-0.07333502,-0.06418084,1.3181165,0.9775368
-0.1,0.0,1.0999999999999999,0.0,0.0,0,-0.93792814,-1.4460467,1.6424342,-0.06826406,0.023381311,1.1292071,0.8467401,0.9084031,-0.97969204,-2.7249808,-0.09076094,-0.0370959,1.3169715,0.028871028
-0.1,0.0,1.0999999999999999,0.0,0.0,0,-0.93787545,-1.4451809,1.6422231,-0.10767171,0.12326881,1.0999612,-0.0098658055,0.91491807,-0.97840965,-2.7439218,-0.12329287,-0.14775385,1.3126141,-0.043025475
-0.1,0.0,1.0999999999999999,0.0,0.0,0,-0.9379741,-1.4463316,1.641981,-0.088808455,0.075205356,1.2375553,-1.1489651,0.914297,-0.97780937,-2.743184,0.016674148,0.25939232,1.3040648,0.12428837
-0.1,0.0,1.0999999999999999,0.0,0.0,0,-0.93838847,-1.4457215,1.6418922,-0.068193495,0.14227776,1.1488521,-1.0193361,0.90483403,-0.9775297,-2.7376108,0.013732787,0.041142218,1.2537416,0.6956737
-0.1,0.0,1.0999999999999999,0.0,0.0,0,-0.93829674,-1.4453868,1.6417905,-0.09622293,0.060516387,1.152084,0.59056586,0.9084022,-0.9785127,-2.7558095,-0.086918876,0.09481885,1.3536912,1.8429931
-0.1,0.0,1.0999999999999999,0.0,0.0,0,-0.93818575,-1.4460595,1.6426136,-0.07657126,0.049062945,1.1823466,-0.9916362,0.9019824,-0.978581,-2.714721,-0.12068045,0.017597998,1.3981246,0.8203335
-0.1,0.0,1.0999999999999999,0.0,0.0,0,-0.9382099,-1.4457439,1.6418138,-0.034444097,0.045865316,1.1427051,-0.8100457,0.90547496,-0.979073,-2.7126763,-0.111514576,-0.20138969,1.2935874,-0.18983687
-0.1,0.0,1.0999999999999999,0.0,0.0,0,-0.9381067,-1.4462005,1.6416743,-0.0665711,0.024489503,1.1978337,1.6530277,0.9036845,-0.9763934,-2.738816,-0.18364578,-0.12865329,1.3705189,0.84730625
-0.1,0.0,1.0999999999999999,0.0,0.0,0,-0.93831396,-1.4457515,1.6419752,-0.19165613,0.09716096,1.1525372,-0.35273516,0.9058854,-0.97633606,-2.7555988,-0.113906614,0.30386764,1.2864611,0.93107945
-0.1,0.0,1.0999999999999999,0.0,0.0,0,-0.93819714,-1.446752,1.6416126,-0.037118096,0.0828809,1.2650032,0.5820162,0.90203017,-0.9771533,-2.7292247,-0.059938755,0.20354187,1.3198793,0.25005528
-0.1,0.0,1.0999999999999999,0.0,0.0,0,-0.938289,-1.4457436,1.6418787,-0.08896439,0.070969656,1.1802764,-0.14314052,0.91310364,-0.97602755,-2.7711937,-0.06508932,-0.18729134,1.3253934,0.57152086
-0.1,0.0,1.0999999999999999,0.0,0.0,0,-0.9381192,-1.4459288,1.6420093,-0.06243918,0.12972195,1.1535354,0.9210836,0.9120058,-0.9779141,-2.7487278,-0.16624232,-0.26055923,1.2269257,0.45624596
-0.1,0.0,1.0999999999999999,0.0,0.0,0,-0.93821853,-1.4456235,1.6415812,-0.09952952,0.012556885,1.1429229,-0.7951585,0.9090341,-0.976243,-2.7485762,-0.10838473,-0.12075146,1.321658,-1.4954792
-0.1,0.0,1.0999999999999999,0.0,0.0,0,-0.93827796,-1.4462411,1.641659,-0.12149345,-0.0337702,1.1200846,-1.3622764,0.90709263,-0.9766954,-2.7240775,-0.023801092,-0.26766288,1.3100377,1.1738639
-0.1,0.0,1.0999999999999999,0.0,0.0,0,-0.9382188,-1.4467795,1.6414752,-0.12948164,0.043278944,1.2072078,-0.7576905,0.90956485,-0.97721255,-2.7365057,-0.0706248,-0.017300209,1.3215321,1.3224586
-0.1,0.0,1.0999999999999999,0.0,0.0,0,-0.93804914,-1.4462366,1.6413774,-0.10902544,0.19146141,1.1788226,-1.1878594,0.9023475,-0.9762394,-2.7395213,-0.04631311,-0.22469829,1.2757874,0.3693273
-0.1,0.0,1.0999999999999999,0.0,0.0,0,-0.93812865,-1.4467288,1.6416122,-0.07193883,0.13884516,1.155547,-0.42883274,0.9095839,-0.97713417,-2.747702,-0.031874903,-0.05724155,1.3527857,0.024404967
-0.1,0.0,1.0999999999999999,0.0,0.0,0,-0.9381824,-1.4462367,1.6417102,-0.039429694,0.08480177,1.1700122,0.52640307,0.9052545,-0.9777468,-2.7377512,-0.13171417,-0.1986216,1.364154,0.60746413
-0.1,0.0,1.0999999999999999,0.0,0.0,0,-0.9384091,-1.4466348,1.6415684,-0.108359724,-0.022600664,1.1806155,-0.30868077,0.90664923,-0.9765985,-2.7559025,-0.093080275,-0.15090032,1.309958,1.6135008
-0.1,0.0,1.0999999999999999,0.0,0.0,0,-0.9380248,-1.4457798,1.6416394,-0.1274981,0.12724744,1.2473185,2.1679666,0.9074194,-0.97669613,-2.7143145,-0.06469366,-0.10571638,1.3219986,-1.4123347
-0.1,0.0,1.0999999999999999,0.0,0.0,0,-0.93794745,-1.4464648,1.6412406,-0.08993356,0.08860036,1.2059996,-0.2973427,0.9094343,-0.97677743,-2.7533436,-0.079801776,-0.10067342,1.3277144,0.8219848
-0.1,0.0,1.0999999999999999,0.0,0.0,0,-0.9380079,-1.4453123,1.6410785,-0.05847678,0.11789566,1.1707708,-0.8967263,0.9087103,-0.9771203,-2.7380104,-0.12163594,0.10433825,1.3131677,2.0433338
-0.1,0.0,1.0999999999999999,0.0,0.0,0,-0.93811876,-1.445748,1.6407175,-0.08445265,-0.065684274,1.200715,-0.106102064,0.90569264,-0.9773921,-2.7246568,-0.12060803,-0.058860235,1.3519464,-0.106165275
-0.1,0.0,1.0999999999999999,0.0,0.0,0,-0.93814784,-1.4454949,1.6411291,-0.115744814,0.059187815,1.1299922,0.042372134,0.9094722,-0.9768486,-2.7726285,-0.031271394,-0.12623595,1.3012218,0.669876
-0.1,0.0,1.0999999999999999,0.0,0.0,0,-0.93825656,-1.4460032,1.6421689,-0.11255961,0.17447436,1.2382926,2.2248547,0.90914726,-0.97647154,-2.7653909,-0.06375994,-0.07162458,1.35241,0.16921054
-0.1,0.0,1.0999999999999999,0.0,0.0,0,-0.93833244,-1.4459538,1.6424617,-0.06186265,0.044564817,1.1500152,0.37282082,0.9083176,-0.9772164,-2.7533073,-0.072413735,-0.37595433,1.3070223,-0.25946346
-0.1,0.0,1.0999999999999999,0.0,0.0,0,-0.9383126,-1.4460783,1.642284,-0.08826045,0.11054544,1.2084684,1.078319,0.91195995,-0.97706383,-2.758968,-0.029745188,-0.0072180824,1.3195294,-0.22450033
-0.1,0.0,1.0999999999999999,0.0,0.0,0,-0.93832874,-1.4458208,1.6416293,-0.08882861,-0.026117062,1.1431373,0.6971147,0.9046175,-0.9769195,-2.7361307,-0.084931955,0.058755815,1.3910303,0.058412876
-0.1,0.0,1.0999999999999999,0.0,0.0,0,-0.9380824,-1.4459586,1.6408355,-0.02792045,-0.016816294,1.1322892,-0.96692634,0.9066089,-0.978225,-2.7238135,-0.06317731,0.039941143,1.2803237,-0.012923304
-0.1,0.0,1.0999999999999999,0.0,0.0,0,-0.938014,-1.4460194,1.642491,-0.123539835,-0.0937069,1.1246852,0.094173804,0.90556806,-0.9769645,-2.7406578,-0.14646971,-0.26987058,1.3533018,0.11832812
-0.1,0.0,1.0999999999999999,0.0,0.0,0,-0.9382016,-1.4458199,1.6411281,-0.08737879,0.0046761334,1.1529416,-0.0011972552,0.9023493,-0.97686845,-2.7299907,-0.07509925,0.16628854,1.3906672,1.2396505
-0.1,0.0,1.0999999999999999,0.0,0.0,0,-0.938073,-1.4458097,1.6416256,-0.12839477,0.054540627,1.2316278,1.8589958,0.91636693,-0.977688,-2.7475011,-0.031010969,0.052303888,1.2985443,0.4790684
-0.1,0.0,1.0999999999999999,0.0,0.0,0,-0.93807775,-1.4459864,1.6426952,-0.123328604,-0.02884553,1.1738206,-0.5005317,0.9084751,-0.97692,-2.743758,-0.05819575,0.21147963,1.2883681,-0.82878816
-0.1,0.0,1.0999999999999999,0.0,0.0,0,-0.93803245,-1.4457862,1.6418018,-0.09952321,0.0049785185,1.1589468,1.3149585,0.90463775,-0.9771639,-2.7431746,-0.08847005,0.3374535,1.2827219,-0.20038448
-0.1,0.0,1.0999999999999999,0.0,0.0,0,-0.9382281,-1.4457272,1.6424263,-0.12547496,0.117771,1.1419648,1.7651781,0.9025193,-0.9766226,-2.7478478,-0.0809289,0.38266966,1.3436815,0.9998078
-0.1,0.0,1.0999999999999999,0.0,0.0,0,-0.9382035,-1.4463596,1.641595,-0.094993725,0.0884198,1.1896564,1.118594,0.9014614,-0.9768327,-2.7150736,-0.106165975,-0.10240457,1.312967,0.74145687
-0.1,0.0,1.0999999999999999,0.0,0.0,0,-0.93834853,-1.4459354,1.641471,-0.14677948,0.009907882,1.2300491,-0.56316566,0.9058205,-0.97755617,-2.7256231,-0.03120562,0.05532848,1.2382956,0.717081
-0.1,0.0,1.0999999999999999,0.0,0.0,0,-0.9383654,-1.4455957,1.642095,-0.04356211,0.03463678,1.1888903,0.25484532,0.9106489,-0.9780333,-2.7573485,-0.046199255,0.06271061,1.2426982,-0.71459866
-0.1,0.0,1.0999999999999999,0.0,0.0,0,-0.9381128,-1.4461809,1.6420252,-0.07589092,0.14115357,1.2353413,-0.4115907,0.9081547,-0.97735614,-2.7301135,-0.09154852,0.07015272,1.3230883,1.4812398
-0.1,0.0,1.0999999999999999,0.0,0.0,0,-0.9382339,-1.4460461,1.6428453,-0.11775452,0.08294155,1.2186832,0.2121119,0.9039333,-0.9767258,-2.7392037,-0.04713492,-0.19887453,1.2425667,-0.10553161
-0.1,0.0,1.0999999999999999,0.0,0.0,0,-0.9383436,-1.4461786,1.6419675,-0.13892168,-0.004197063,1.1744503,0.41189027,0.9119122,-0.9780405,-2.7364562,-0.04911538,0.1161957,1.3034217,0.14483404
-0.1,0.0,1.0999999999999999,0.0,0.0,0,-0.9383237,-1.4465691,1.6417218,-0.0702369,0.10128034,1.12728,1.0568838,0.9081693,-0.97829825,-2.7511966,-0.12192256,-0.024227215,1.3350888,-0.3714098
-0.1,0.0,1.0999999999999999,0.0,0.0,0,-0.9379329,-1.4452837,1.6416554,-0.08907817,0.16435187,1.2203315,0.37905884,0.9070311,-0.9767778,-2.7454212,-0.06931954,-0.007430899,1.2816703,1.4542361
-0.1,0.0,1.0999999999999999,0.0,0.0,0,-0.93809974,-1.4455082,1.6421925,-0.11808654,0.2079538,1.1901637,-0.08440609,0.907475,-0.9771223,-2.7193747,0.0013109393,-0.07612188,1.3452886,0.5534349
-0.1,0.0,1.0999999999999999,0.0,0.0,0,-0.9379406,-1.4467465,1.6423845,-0.07986454,-0.019030053,1.2246456,-0.370758,0.9083188,-0.97678536,-2.7460039,-0.11508637,0.025942607,1.3741452,-0.42443776
-0.1,0.0,1.0999999999999999,0.0,0.0,0,-0.93815845,-1.4456111,1.642815,-0.07795554,0.09838345,1.0802845,0.9265155,0.906805,-0.9775017,-2.7131834,-0.123137236,-0.049068883,1.3629678,1.1820328
-0.1,0.0,1.0999999999999999,0.0,0.0,0,-0.938337,-1.4465637,1.6417439,-0.045656662,0.0065780054,1.1696075,0.1548253,0.9057733,-0.9777635,-2.7409358,-0.08944575,-0.036858667,1.2641503,0.47523963
-0.1,0.0,1.0999999999999999,0.0,0.0,0,-0.9382801,-1.4457295,1.6424478,-0.07695693,0.08504771,1.1824178,0.6766046,0.9077458,-0.9776363,-2.7536273,-0.09945398,0.1607614,1.2720177,0.110610574
-0.1,0.0,1.0999999999999999,0.0,0.0,0,-0.93810344,-1.4454619,1.6417685,-0.13099976,-0.019422771,1.1589035,-0.63765794,0.90913695,-0.9774369,-2.759342,0.012824108,-0.08055865,1.3589925,-0.34021956
-0.1,0.0,1.0999999999999999,0.0,0.0,0,-0.93824434,-1.4465464,1.6417987,-0.14187272,0.13085487,1.1564629,-2.2337637,0.9107951,-0.97822005,-2.7413821,-0.03211288,-0.115589365,1.3171803,0.9096337
-0.1,0.0,1.0999999999999999,0.0,0.0,0,-0.9382353,-1.445744,1.6417278,-0.06386142,-0.032896448,1.1666886,-0.52929884,0.90389276,-0.9774624,-2.7419102,-0.10921989,0.030609123,1.2670581,0.6205983
-0.1,0.0,1.0999999999999999,0.0,0.0,0,-0.9383938,-1.4458785,1.6413578,-0.08819288,-0.0297542,1.2345647,-1.9935431,0.9068403,-0.97798425,-2.7262447,-0.08378003,-0.07517599,1.2824551,-0.15009701
-0.1,0.0,1.0999999999999999,0.0,0.0,0,-0.937849,-1.4457923,1.6418023,-0.10787404,0.023211895,1.1979533,1.0593219,0.9129747,-0.97714174,-2.761721,-0.04709871,0.09004735,1.303301,1.3266584
-0.1,0.0,1.0999999999999999,0.0,0.0,0,-0.93786526,-1.446031,1.6421553,-0.13145238,0.018147647,1.1318152,1.0918685,0.9068563,-0.9769557,-2.7532713,-0.08380219,-0.30919918,1.3685176,-0.67206335
-0.1,0.0,1.0999999999999999,0.0,0.0,0,-0.9381252,-1.4457605,1.6425896,-0.077598594,0.017465662,1.1593845,-0.45972756,0.90683144,-0.9768508,-2.741126,-0.07480903,-0.119693965,1.3491694,-0.013327298
-0.1,0.0,1.0999999999999999,0.0,0.0,0,-0.938086,-1.4458526,1.641246,-0.10190701,0.050637566,1.1959301,0.66666365,0.90783966,-0.9774992,-2.738609,-0.06490905,-0.09471903,1.3405842,-0.5455781
-0.1,0.0,1.0999999999999999,0.0,0.0,0,-0.9381578,-1.446046,1.6412263,-0.10291988,0.10882382,1.1568846,0.72082996,0.908388,-0.9789774,-2.7337575,-0.10898234,0.05962361,1.2216642,-0.81529754
-0.1,0.0,1.0999999999999999,0.0,0.0,0,-0.93820107,-1.4463991,1.6436851,-0.07666882,0.1482131,1.1760737,0.43076706,0.90840924,-0.9771064,-2.7621193,-0.07593044,-0.1628149,1.3076903,0.9576278
-0.1,0.0,1.0999999999999999,0.0,0.0,0,-0.9380969,-1.4455029,1.6430207,-0.13699414,0.14365351,1.1319133,0.08406741,0.90614474,-0.9775122,-2.7363136,-0.013031053,-0.22263543,1.3316277,-0.09546773
-0.1,0.0,1.0999999999999999,0.0,0.0,0,-0.9379,-1.4459478,1.6422697,-0.13303307,0.018662266,1.0901601,0.3483164,0.9080922,-0.9775491,-2.7440925,-0.007137813,-0.060561016,1.3304404,-0.5309057
-0.1,0.0,1.0999999999999999,0.0,0.0,0,-0.938164,-1.445594,1.6424268,-0.08853789,-0.034881532,1.1320279,0.96687925,0.9100779,-0.9774426,-2.7467117,-0.028139727,-0.23792724,1.3696294,1.8223475
-0.1,0.0,1.0999999999999999,0.0,0.0,0,-0.9383033,-1.4455441,1.6417459,-0.07966015,0.059426706,1.2215636,0.050733734,0.90231746,-0.9766313,-2.7599993,-0.088324115,-0.09121424,1.3004537,-0.12627266
-0.1,0.0,1.0999999999999999,0.0,0.0,0,-0.93819964,-1.4457306,1.6416025,-0.13584359,0.078160375,1.1820034,-1.192905,0.904862,-0.9774484,-2.740114,-0.07734121,-0.12449267,1.3330916,-0.3531533
-0.1,0.0,1.0999999999999999,0.0,0.0,0,-0.93804526,-1.446265,1.6410633,-0.07358609,0.019571574,1.1327559,-0.64545727,0.9084468,-0.9782153,-2.7362297,-0.069179334,0.06480009,1.3017048,-0.27947047
-0.1,0.0,1.0999999999999999,0.0,0.0,0,-0.9381051,-1.4456073,1.6412365,-0.06299671,0.12408037,1.1739202,-0.03876602,0.9058638,-0.9780444,-2.7194905,0.007886702,0.03887302,1.3650678,0.88792527
-0.1,0.0,1.0999999999999999,0.0,0.0,0,-0.93819386,-1.446163,1.6418661,-0.08152585,0.037457608,1.1416595,0.33541253,0.90560037,-0.97747886,-2.744242,-0.08450369,-0.14009133,1.3829204,0.17920753
-0.1,0.0,1.0999999999999999,0.0,0.0,0,-0.9383049,-1.4459575,1.6430771,-0.13682961,0.09132231,1.1682508,0.008984304,0.9133476,-0.97787213,-2.7539797,-0.03822684,0.13028055,1.2817985,1.6956992
-0.1,0.0,1.0999999999999999,0.0,0.0,0,-0.9381176,-1.4462502,1.642613,-0.10353896,0.19333674,1.2069601,-0.6146439,0.90551406,-0.97687835,-2.7679849,-0.04580791,-0.07729078,1.3590151,-0.10015737
-0.1,0.0,1.0999999999999999,0.0,0.0,0,-0.93813413,-1.4462941,1.6415744,-0.052217577,0.07436277,1.155378,-1.6689707,0.90500593,-0.9778722,-2.7429404,-0.07985301,-0.10766909,1.3411,0.7324895
-0.1,0.0,1.0999999999999999,0.0,0.0,0,-0.93824875,-1.4460799,1.6414276,-0.064219825,0.05409279,1.2036219,-0.5857157,0.9109754,-0.9790904,-2.7551117,-0.1430386,0.11606055,1.359884,0.8864684
-0.1,0.0,1.0999999999999999,0.0,0.0,0,-0.93802136,-1.4457681,1.641002,-0.08779685,0.06855094,1.10914,0.9309418,0.9089723,-0.9779314,-2.760731,-0.05121282,-0.08569978,1.3415076,1.5384034
-0.1,0.0,1.0999999999999999,0.0,0.0,0,-0.9382635,-1.4457147,1.6414968,-0.12365032,-0.0066375067,1.1564851,-0.5702251,0.908447,-0.9779504,-2.7534692,-0.05079158,0.032645017,1.2989874,0.099271186
-0.1,0.0,1.0999999999999999,0.0,0.0,0,-0.93815196,-1.4457309,1.643156,-0.06966174,0.222976,1.1883155,0.42996904,0.9107887,-0.9774795,-2.749631,-0.04267632,-0.085617974,1.2776086,0.5118007
-0.1,0.0,1.0999999999999999,0.0,0.0,0,-0.9381275,-1.446163,1.6418734,-0.024913117,0.07005093,1.2345719,0.77365875,0.90787905,-0.97873735,-2.725326,-0.056569323,-0.16542101,1.3192995,0.27431852
-0.1,0.0,1.0999999999999999,0.0,0.0,0,-0.93811584,-1.4460388,1.6411899,-0.12114698,0.09304851,1.1598871,0.12523057,0.90181816,-0.9774847,-2.7356725,-0.08543564,-0.056962382,1.307546,0.30968484
-0.1,0.0,1.0999999999999999,0.0,0.0,0,-0.93780273,-1.4456738,1.6423423,-0.086341254,0.06650842,1.1192076,0.82138574,0.90998673,-0.97752124,-2.7515893,-0.0072479825,-0.06596868,1.3124913,0.3610963
-0.1,0.0,1.0999999999999999,0.0,0.0,0,-0.93842345,-1.4460344,1.6414448,-0.10238069,0.0038275332,1.2180749,-0.42585364,0.9066146,-0.9788348,-2.7587478,0.05276252,-0.087275736,1.3198496,0.8825406
-0.1,0.0,1.0999999999999999,0.0,0.0,0,-0.93829936,-1.445588,1.6417673,-0.14386408,0.10935915,1.1501507,0.3380662,0.90337384,-0.9775256,-2.7404664,-0.0916535,-0.13187078,1.3232045,-0.34987456
-0.1,0.0,1.0999999999999999,0.0,0.0,0,-0.9381349,-1.4464202,1.6425729,-0.10838267,0.09508416,1.19613,0.38459238,0.90489316,-0.97815627,-2.7602382,0.018254038,-0.16197701,1.1842941,0.6620842
-0.1,0.0,1.0999999999999999,0.0,0.0,0,-0.93789434,-1.4461511,1.6410513,-0.11047083,0.07375885,1.1144153,0.36899942,0.9030039,-0.9780396,-2.7335923,-0.102600634,-0.01821434,1.3400137,1.4018874
-0.1,0.0,1.0999999999999999,0.0,0.0,0,-0.9379024,-1.4456396,1.6408871,-0.10300014,0.066397496,1.1264075,0.9393027,0.9097517,-0.9785361,-2.7489066,-0.06578485,-0.041293222,1.3239986,1.7545583
-0.1,0.0,1.0999999999999999,0.0,0.0,0,-0.9381525,-1.4466442,1.6416368,-0.06662959,0.04000211,1.1706278,0.80529094,0.9078682,-0.9789244,-2.7371206,-0.059161074,-0.3273657,1.3355986,-0.6180659
-0.1,0.0,1.0999999999999999,0.0,0.0,0,-0.93840367,-1.4460282,1.6424134,-0.10724795,0.13639459,1.2176104,-0.40899822,0.90527433,-0.9780497,-2.7173326,-0.039407834,-0.15693796,1.3376004,1.3021586
-0.1,0.0,1.0999999999999999,0.0,0.0,0,-0.9379196,-1.4463058,1.6423197,-0.033293337,0.050229575,1.2891264,-0.66582716,0.9033139,-0.97769266,-2.7379637,-0.090862125,0.09955494,1.3107724,0.7520311
-0.1,0.0,1.0999999999999999,0.0,0.0,0,-0.9381847,-1.4462119,1.6416351,-0.08354709,0.12281173,1.1680241,1.4111882,0.9019994,-0.97735924,-2.7303848,-0.053613584,-0.03765057,1.3433812,0.74075127
-0.1,0.0,1.0999999999999999,0.0,0.0,0,-0.93815756,-1.4457784,1.6412523,-0.08338449,0.1496743,1.1153476,-0.8914473,0.90285367,-0.9785376,-2.7188377,-0.00400606,0.03960426,1.3810114,0.1594815
-0.1,0.0,1.0999999999999999,0.0,0.0,0,-0.9383262,-1.4457877,1.6416593,-0.06394539,0.038561154,1.1633263,1.256911,0.90610594,-0.9789457,-2.7343607,-0.036082055,0.25022307,1.308883,0.8434692
-0.1,0.0,1.0999999999999999,0.0,0.0,0,-0.9382477,-1.4459144,1.6423107,-0.10180085,0.042382248,1.1753045,-1.1662291,0.90854967,-0.9783302,-2.7518914,-0.057938013,-0.067494035,1.2306904,0.12454211
-0.1,0.0,1.0999999999999999,0.0,0.0,0,-0.93781674,-1.4456117,1.6426655,-0.120140694,0.10330813,1.1632022,0.27327427,0.90864253,-0.9770181,-2.754219,-0.11717774,-0.011938269,1.2775168,1.0797783
-0.1,0.0,1.0999999999999999,0.0,0.0,0,-0.93820155,-1.4459587,1.6425859,-0.076580085,0.12053782,1.1358068,-0.40355095,0.905951,-0.9783755,-2.7286234,-0.117869176,0.107590355,1.3030113,0.658694
-0.1,0.0,1.0999999999999999,0.0,0.0,0,-0.93820965,-1.4460591,1.6420013,-0.049096387,0.013208606,1.1872959,0.78246987,0.90412,-0.9779024,-2.749853,-0.058651187,-0.04723341,1.409194,0.61815226
-0.1,0.0,1.0999999999999999,0.0,0.0,0,-0.9381047,-1.4459366,1.6420363,-0.08274496,-0.038963612,1.1629596,1.992177,0.9075351,-0.9786769,-2.7202759,-0.103282474,0.08954891,1.3245497,0.5723696
-0.1,0.0,1.0999999999999999,0.0,0.0,0,-0.9379886,-1.446005,1.6419877,-0.08825466,0.029585904,1.1226184,0.19128503,0.90874785,-0.97790337,-2.7212465,-0.037106153,-0.004170228,1.3358988,0.5561715
-0.1,0.0,1.0999999999999999,0.0,0.0,0,-0.93811697,-1.4457945,1.6416167,-0.0904367,0.038333174,1.1563056,1.5967509,0.9056713,-0.9782557,-2.7502987,-0.07106386,-0.049659286,1.2721846,1.1578658
-0.1,0.0,1.0999999999999999,0.0,0.0,0,-0.93806005,-1.4459066,1.6416014,-0.08179604,0.090485126,1.1641767,-0.030458137,0.90889084,-0.97871035,-2.7510955,0.027313069,0.07452062,1.3656534,1.1996808
-0.1,0.0,1.0999999999999999,0.0,0.0,0,-0.93829626,-1.4459779,1.6417433,-0.13493368,0.16037051,1.1885501,0.23656964,0.90993506,-0.97873235,-2.7438843,-0.09569082,-0.06720739,1.3037189,0.702758
-0.1,0.0,1.0999999999999999,0.0,0.0,0,-0.93814254,-1.4454552,1.6422068,-0.07218842,0.055744085,1.1562719,-1.0562991,0.9052891,-0.97770095,-2.7538154,-0.11187719,-0.01912504,1.3030512,0.661563
-0.1,0.0,1.0999999999999999,0.0,0.0,0,-0.9381901,-1.4459873,1.6425078,-0.10236961,0.1357892,1.1175988,-0.86789775,0.9084166,-0.978674,-2.7545276,-0.09509888,-0.033421785,1.2997116,-0.5188655
-0.1,0.0,1.0999999999999999,0.0,0.0,0,-0.93820995,-1.4462456,1.6426752,-0.12049632,0.057170805,1.1689209,-0.49675667,0.9051315,-0.97795254,-2.7305303,-0.09907382,-0.050589178,1.2711211,-0.5038996
-0.1,0.0,1.0999999999999999,0.0,0.0,0,-0.9381064,-1.446353,1.6429166,-0.11114562,0.15168287,1.2095144,-0.5815988,0.9028433,-0.97731525,-2.742043,-0.06626373,0.07852922,1.3364365,0.111838415
-0.1,0.0,1.0999999999999999,0.0,0.0,0,-0.9383537,-1.4461446,1.6421036,-0.09693169,-0.0014508014,1.2430032,1.3018588,0.91197854,-0.9793523,-2.7387009,0.0029349725,-0.13159813,1.3399916,0.35902247
-0.1,0.0,1.0999999999999999,0.0,0.0,0,-0.9380762,-1.4454331,1.6415963,-0.09621148,0.112521484,1.1071348,-0.758298,0.9102863,-0.9785759,-2.7545485,-0.051695433,-0.043111593,1.3457947,0.8088916
-0.1,0.0,1.0999999999999999,0.0,0.0,0,-0.93837947,-1.4459335,1.6410742,-0.11068873,0.11412236,1.2103517,0.17610706,0.9097471,-0.97917664,-2.7443712,-0.083831824,0.019902391,1.3829737,0.9680935
-0.1,0.0,1.0999999999999999,0.0,0.0,0,-0.9382651,-1.4456645,1.6410908,-0.070276044,0.15380146,1.1886631,0.5386232,0.90707976,-0.9788114,-2.7543128,-0.08093366,0.21866676,1.3231143,1.5000182
-0.1,0.0,1.0999999999999999,0.0,0.0,0,-0.9379891,-1.4464289,1.6418512,-0.113443606,0.21035945,1.2034297,-0.9801991,0.9025435,-0.97761506,-2.762214,-0.12676659,0.25930464,1.320111,-0.025957644
-0.1,0.0,1.0999999999999999,0.0,0.0,0,-0.93821526,-1.4459753,1.6415747,-0.13089485,0.04357959,1.1564524,0.8259672,0.90935826,-0.9791144,-2.7354484,-0.0042724414,0.012678156,1.2791766,0.51209277
-0.1,0.0,1.0999999999999999,0.0,0.0,0,-0.93798304,-1.4459186,1.64283,-0.042266678,0.119123414,1.2070731,-1.0519301,0.90346634,-0.97728837,-2.7483706,-0.055331394,0.0030335682,1.3411665,0.2661902
-0.1,0.0,1.0999999999999999,0.0,0.0,0,-0.93782663,-1.4460033,1.6411939,-0.08572805,-0.10826791,1.1914407,-0.8785327,0.90851575,-0.9783466,-2.7517776,-0.06996822,0.15367444,1.3238777,-0.03235208
-0.1,0.0,1.0999999999999999,0.0,0.0,0,-0.9382336,-1.4456913,1.6414076,-0.06233956,0.027804675,1.152201,-0.0756394,0.90321875,-0.97856504,-2.7349064,-0.025019443,-0.15953247,1.32023,1.1353424
-0.1,0.0,1.0999999999999999,0.0,0.0,0,-0.9381376,-1.446183,1.6422759,-0.137294,-0.0039538415,1.1415455,0.56025386,0.9043824,-0.97851235,-2.7220607,-0.11059181,0.15450336,1.349936,1.1807616
-0.1,0.0,1.0999999999999999,0.0,0.0,0,-0.9383085,-1.4459924,1.6413556,-0.09237406,0.060977727,1.1881683,-1.6159929,0.90805066,-0.97893757,-2.7415228,-0.0896661,-0.073764764,1.3605406,-0.45398068
-0.1,0.0,1.0999999999999999,0.0,0.0,0,-0.9381018,-1.4453962,1.6405574,-0.09981898,0.04454531,1.1681455,-1.0176605,0.9080498,-0.9789178,-2.7337418,-0.054663785,-0.14366576,1.3538954,-0.14479297
-0.1,0.0,1.0999999999999999,0.0,0.0,0,-0.9381902,-1.4462568,1.6420368,-0.09323031,-0.16073188,1.1160831,-0.14349124,0.9052606,-0.97878796,-2.7476046,-0.091944866,-0.029360345,1.4015054,-0.33989257
-0.1,0.0,1.0999999999999999,0.0,0.0,0,-0.937982,-1.4457855,1.6421486,-0.10403644,0.05555245,1.1223171,0.5498964,0.90691656,-0.9784012,-2.7575147,-0.048788846,0.18566477,1.2957009,0.5994012
-0.1,0.0,1.0999999999999999,0.0,0.0,0,-0.93799347,-1.4449917,1.6423017,-0.027039351,0.13484627,1.1850468,-0.8302493,0.904786,-0.9779919,-2.7545693,-0.053565074,-0.04873379,1.3488393,0.060714353
-0.1,0.0,1.0999999999999999,0.0,0.0,0,-0.9382781,-1.4461681,1.6426659,-0.047326297,0.14739685,1.198872,0.59047425,0.9062842,-0.978645,-2.7392752,-0.057759307,-0.0037097095,1.3437299,-0.5675008
-0.1,0.0,1.0999999999999999,0.0,0.0,0,-0.938017,-1.4460717,1.6414227,-0.07809529,-0.0051595797,1.1810113,0.62887496,0.90688056,-0.9786172,-2.737013,-0.039487805,-0.04428722,1.3251424,0.6770586
-0.1,0.0,1.0999999999999999,0.0,0.0,0,-0.93835074,-1.4465202,1.6414958,-0.14919175,0.046308763,1.2091517,-1.2904865,0.90765953,-0.97922564,-2.7400262,-0.109246425,-0.21007714,1.3359584,1.3240374
-0.1,0.0,1.0999999999999999,0.0,0.0,0,-0.93823445,-1.4457031,1.6418878,-0.08193926,0.052286394,1.1602926,0.24453068,0.90518326,-0.9789855,-2.7571843,-0.11597676,0.06152933,1.3778036,0.25002268
-0.1,0.0,1.0999999999999999,0.0,0.0,0,-0.9380489,-1.4457785,1.6427552,-0.08181274,0.1710048,1.1808721,1.4006413,0.9009023,-0.9775129,-2.7330093,-0.033467144,-0.03675737,1.3388255,0.1365671
-0.1,0.0,1.0999999999999999,0.0,0.0,0,-0.93811965,-1.4462543,1.6417457,-0.12824334,0.14288358,1.1886207,0.8721898,0.9075361,-0.97871757,-2.7565224,-0.0887988,-0.017971061,1.332927,0.41527694
-0.1,0.0,1.0999999999999999,0.0,0.0,0,-0.93796355,-1.4456072,1.6420714,-0.0894065,0.1572052,1.1707144,-0.7262887,0.9093942,-0.97904193,-2.7528527,-0.11524656,-0.08859499,1.3488907,0.30090988
-0.1,0.0,1.0999999999999999,0.0,0.0,0,-0.9382018,-1.44641,1.6417686,-0.13018496,0.061162528,1.1732473,-0.07611635,0.90804356,-0.97913086,-2.7521791,-0.025011985,-0.12897824,1.3112872,-0.25986403
-0.1,0.0,1.0999999999999999,0.0,0.0,0,-0.9380422,-1.4461169,1.642339,-0.11018748,0.09380329,1.1952224,0.6938995,0.90547067,-0.97866386,-2.737279,-0.0035666118,0.0066386545,1.2587848,0.5972551
-0.1,0.0,1.0999999999999999,0.0,0.0,0,-0.93820965,-1.4457583,1.6421803,-0.0615357,-0.0125747165,1.1283795,-1.24344,0.90328455,-0.97863925,-2.7524767,-0.06776767,-0.27596042,1.3141052,0.74107534
-0.1,0.0,1.0999999999999999,0.0,0.0,0,-0.9382318,-1.4468012,1.6426147,-0.0832826,0.106203884,1.1571866,1.4871553,0.9034879,-0.9789553,-2.746283,-0.06574254,-0.37260836,1.2825857,-0.50635445
-0.1,0.0,1.0999999999999999,0.0,0.0,0,-0.9378957,-1.4457306,1.6423789,-0.054185238,0.0050902776,1.2025543,-0.45127654,0.9093678,-0.97893006,-2.7480483,-0.06561818,-0.31972492,1.4139404,0.68382233
-0.1,0.0,1.0999999999999999,0.0,0.0,0,-0.9382104,-1.4456605,1.6426768,-0.12641893,0.088254586,1.1682384,-0.39405996,0.9001982,-0.9781035,-2.7369957,-0.087866224,-0.11231051,1.3307092,1.2770379
-0.1,0.0,1.0999999999999999,0.0,0.0,0,-0.937982,-1.445436,1.6424314,-0.060944542,0.056522764,1.1227856,1.0406041,0.9025406,-0.9780086,-2.748781,-0.077849425,-0.067531034,1.3528141,0.8458067
-0.1,0.0,1.0999999999999999,0.0,0.0,0,-0.9382286,-1.4457029,1.6412326,-0.11287802,0.084402785,1.1988275,0.9569765,0.9077866,-0.9798258,-2.744245,-0.07174227,-0.36971495,1.3310268,1.2152745
-0.1,0.0,1.0999999999999999,0.0,0.0,0,-0.93807375,-1.4461426,1.6417478,-0.06797535,0.028583396,1.17564,0.5048496,0.9065399,-0.9790968,-2.736473,-0.07283536,-0.07444877,1.314122,1.5363395
-0.1,0.0,1.0999999999999999,0.0,0.0,0,-0.93820757,-1.4459325,1.6422944,-0.10768657,0.12989634,1.09596,-0.5142606,0.90415835,-0.97916067,-2.7502763,-0.081806645,0.028132016,1.2946458,1.7708699
-0.1,0.0,1.0999999999999999,0.0,0.0,0,-0.93820983,-1.4457421,1.6416447,-0.09152537,0.09089616,1.1789836,-1.0631657,0.9074764,-0.98027074,-2.735196,-0.089521445,0.107547246,1.3544788,-0.0017610275
-0.1,0.0,1.0999999999999999,0.0,0.0,0,-0.9380327,-1.4454249,1.6418356,-0.116901964,0.0025658463,1.1878358,-0.10524884,0.89919215,-0.9785985,-2.741552,-0.06294164,-0.14369848,1.3081322,1.6706403
-0.1,0.0,1.0999999999999999,0.0,0.0,0,-0.9379944,-1.44636,1.6420568,-0.12155686,-0.06018722,1.1961129,0.50539786,0.9012136,-0.97921234,-2.7322164,-0.06827,-0.19898476,1.3415898,0.8537646
-0.1,0.0,1.0999999999999999,0.0,0.0,0,-0.93795145,-1.4458301,1.6416005,-0.09955862,-0.095337845,1.2144356,0.9532854,0.9083573,-0.97612923,-2.7533588,-0.13795425,0.0784525,1.3572146,1.6021324
-0.1,0.0,1.0999999999999999,0.0,0.0,0,-0.9382126,-1.4458448,1.6420542,-0.13906108,0.09344483,1.0739437,-0.050492126,0.9061638,-0.97644573,-2.7500503,-0.07257729,-0.116687134,1.365781,1.1546718
-0.1,0.0,1.0999999999999999,0.0,0.0,0,-0.93830335,-1.4460517,1.6411325,-0.14278959,0.24723628,1.1837288,-0.65087456,0.9086878,-0.9771829,-2.751305,-0.103598244,0.00968811,1.3393729,1.5083541
-0.1,0.0,1.0999999999999999,0.0,0.0,0,-0.93826234,-1.4463761,1.6418998,-0.060063038,0.1405501,1.1844878,-1.2700982,0.90270466,-0.97786564,-2.7285018,-0.16713817,0.2873095,1.3176644,0.64452296
-0.1,0.0,1.0999999999999999,0.0,0.0,0,-0.93805134,-1.4461886,1.6413702,-0.16073339,0.1698541,1.1442934,-0.528765,0.9087289,-0.9782495,-2.7457855,-0.1331276,-0.095085345,1.292837,0.39498708
-0.1,0.0,1.0999999999999999,0.0,0.0,0,-0.9382701,-1.4457811,1.6423631,-0.078271315,0.1668742,1.20202,0.83432025,0.9090782,-0.9769861,-2.7778542,-0.025368402,0.012644078,1.3434596,-0.43919894
-0.1,0.0,1.0999999999999999,0.0,0.0,0,-0.9381226,-1.445728,1.6411388,-0.11933627,0.08803809,1.1243167,-0.88540286,0.9080944,-0.9779573,-2.7333212,-0.050396647,0.18284978,1.2960379,0.40050575
-0.1,0.0,1.0999999999999999,0.0,0.0,0,-0.93808395,-1.4459679,1.641388,-0.112127975,0.14343376,1.126877,-0.9822961,0.9064226,-0.97775036,-2.72521,-0.08848989,-0.16279295,1.3460681,0.28290993
-0.1,0.0,1.0999999999999999,0.0,0.0,0,-0.93808246,-1.4466691,1.6430296,-0.12329583,0.09633085,1.1498314,-0.37874123,0.9108192,-0.9770787,-2.7711515,-0.067744255,-0.03158605,1.3294703,-0.029651018
-0.1,0.0,1.0999999999999999,0.0,0.0,0,-0.9382685,-1.4461234,1.6407105,-0.12982778,0.21100101,1.2044228,-0.84696215,0.90608287,-0.9786147,-2.7376044,-0.12471519,-0.1525774,1.3222442,0.4058441
-0.1,0.0,1.0999999999999999,0.0,0.0,0,-0.9382501,-1.4457754,1.6411446,-0.09582772,0.11319729,1.1504759,0.9353298,0.90843797,-0.9785647,-2.7263467,-0.014767021,0.15375504,1.2988305,0.37923744
-0.1,0.0,1.0999999999999999,0.0,0.0,0,-0.93814677,-1.4467039,1.6424078,-0.13165358,-0.013993878,1.1476029,-1.3136985,0.9083023,-0.9776197,-2.739415,-0.07515884,-0.18076578,1.3513114,-0.15962735
-0.1,0.0,1.0999999999999999,0.0,0.0,0,-0.9381759,-1.4465294,1.6422611,-0.11540295,0.09977811,1.2065742,0.9274455,0.9119817,-0.977872,-2.7502573,-0.08869659,-0.25146237,1.3231447,0.29635644
-0.1,0.0,1.0999999999999999,0.0,0.0,0,-0.9381989,-1.4460415,1.641622,-0.09963495,-0.057979207,1.1624483,0.14395288,0.9089763,-0.97783095,-2.7440138,-0.02565485,-0.16939926,1.330625,-0.07937541
-0.1,0.0,1.0999999999999999,0.0,0.0,0,-0.9382187,-1.4463133,1.6416368,-0.14190052,0.08002932,1.151872,-0.6233382,0.902434,-0.9780984,-2.733672,-0.11653676,0.12549168,1.3774337,0.49919125
-0.1,0.0,1.0999999999999999,0.0,0.0,0,-0.93802124,-1.445712,1.6418346,-0.14247118,0.04365767,1.1548432,1.326981,0.9065995,-0.97824144,-2.7534716,-0.13317151,-0.012674033,1.2786419,0.1191476
-0.1,0.0,1.0999999999999999,0.0,0.0,0,-0.93825,-1.4458792,1.6417673,-0.11231703,-0.015787154,1.1337439,-0.08869511,0.9026964,-0.97846055,-2.7225785,-0.08436402,0.20293696,1.2286876,-1.035815
-0.1,0.0,1.0999999999999999,0.0,0.0,0,-0.93807775,-1.4456064,1.641437,-0.0911489,0.1142462,1.1768867,-0.35750204,0.9068845,-0.97850376,-2.728155,-0.055440404,-0.29373592,1.2653044,-0.02742626
-0.1,0.0,1.0999999999999999,0.0,0.0,0,-0.9383683,-1.4460295,1.6425629,-0.10706256,0.16963638,1.1653049,-1.2256465,0.9045912,-0.97830534,-2.7310073,-0.038183652,-0.3919437,1.3029524,1.4013884
-0.1,0.0,1.0999999999999999,0.0,0.0,0,-0.9381605,-1.4463053,1.6418883,-0.09068315,0.045584142,1.1441921,0.3279766,0.9065366,-0.97820926,-2.7447546,-0.060299836,-0.10141156,1.2511466,1.389026
-0.1,0.0,1.0999999999999999,0.0,0.0,0,-0.9381048,-1.4455802,1.6412569,-0.09030747,-0.013681121,1.1372958,-0.44872683,0.90702695,-0.978421,-2.7476785,-0.013806843,-0.1863851,1.3420043,1.2555609
-0.1,0.0,1.0999999999999999,0.0,0.0,0,-0.937955,-1.4460311,1.6414903,-0.09010812,0.11303606,1.1749358,0.37542403,0.90598875,-0.97807825,-2.7326243,-0.105867,-0.008464758,1.3500888,1.5269129
-0.1,0.0,1.0999999999999999,0.0,0.0,0,-0.9380827,-1.4466068,1.6417438,-0.10611928,0.048847403,1.1461943,-1.1995369,0.9083747,-0.97811735,-2.7434309,-0.05144143,-0.0721394,1.3531843,0.3911708
-0.1,0.0,1.0999999999999999,0.0,0.0,0,-0.93818223,-1.4456589,1.6418825,-0.07447248,0.04666686,1.1480356,-0.18174762,0.9025152,-0.97800124,-2.7138004,-0.079123944,0.10720671,1.345501,0.038411155
-0.1,0.0,1.0999999999999999,0.0,0.0,0,-0.93807364,-1.445917,1.6417222,-0.13686089,0.04483486,1.1541013,0.18456855,0.90446395,-0.9784598,-2.7375998,-0.0063572326,-0.03633799,1.3777158,0.9977513
-0.1,0.0,1.0999999999999999,0.0,0.0,0,-0.9379561,-1.4463868,1.6424094,-0.03361335,-0.035870317,1.1517547,-2.3036773,0.90442514,-0.9782557,-2.7358809,-0.10630364,-0.21615645,1.3060169,1.1136875
-0.1,0.0,1.0999999999999999,0.0,0.0,0,-0.93797135,-1.4455148,1.6420858,-0.059303537,-0.04896352,1.156452,-0.9197364,0.9050153,-0.97807944,-2.7529676,-0.0704529,-0.02884422,1.2939392,1.0607464
-0.1,0.0,1.0999999999999999,0.0,0.0,0,-0.93828195,-1.4459428,1.6430103,-0.110014565,-0.10726879,1.1585133,-0.8337235,0.90888643,-0.978618,-2.7488213,-0.089444354,-0.070803836,1.322503,-0.67032015
-0.1,0.0,1.0999999999999999,0.0,0.0,0,-0.9381476,-1.4459138,1.6421707,-0.11671103,0.1433404,1.1616427,0.5524133,0.9042293,-0.97866946,-2.7276807,-0.12095094,-0.20581831,1.3706537,0.92214173
-0.1,0.0,1.0999999999999999,0.0,0.0,0,-0.93819726,-1.4456104,1.6418234,-0.05056276,0.05020755,1.1790956,0.920176,0.90380436,-0.97881687,-2.7463243,-0.010053993,-0.07794841,1.2895284,-0.46152294
-0.1,0.0,1.0999999999999999,0.0,0.0,0,-0.938137,-1.4463159,1.6428456,-0.085995406,0.08411736,1.1707312,-0.3764782,0.90727913,-0.979118,-2.7147558,-0.08908145,0.07542135,1.2792375,0.56115925
-0.1,0.0,1.0999999999999999,0.0,0.0,0,-0.9381972,-1.4459456,1.6434758,-0.10312886,0.15259942,1.1404105,0.52258515,0.90694207,-0.9781603,-2.7510695,-0.07695293,-0.04773589,1.394553,-0.22646491
-0.1,0.0,1.0999999999999999,0.0,0.0,0,-0.9381305,-1.4456886,1.6422834,-0.09650687,0.008669234,1.1763939,0.5165911,0.90427923,-0.9781062,-2.7394953,-0.070614874,0.015966265,1.2959682,1.8649362
-0.1,0.0,1.0999999999999999,0.0,0.0,0,-0.93806887,-1.445614,1.6424327,-0.07799546,-0.15426134,1.1757013,0.592328,0.9086655,-0.9802226,-2.737471,-0.079963356,0.1302278,1.3297863,-0.81186086
-0.1,0.0,1.0999999999999999,0.0,0.0,0,-0.938444,-1.4458985,1.6422219,-0.10370826,0.08107426,1.207191,0.43651927,0.91217226,-0.9777354,-2.7423959,-0.13462798,0.030679675,1.2988702,0.8400713
-0.1,0.0,1.0999999999999999,0.0,0.0,0,-0.93849844,-1.4463856,1.6422014,-0.10977243,-0.038763728,1.1793606,-0.5649154,0.91044587,-0.97864175,-2.7371395,-0.08006407,-0.20964505,1.2768649,0.21819335
-0.1,0.0,1.0999999999999999,0.0,0.0,0,-0.93828833,-1.4461021,1.6422355,-0.10209286,0.0885207,1.1741557,0.17014803,0.9063,-0.9783263,-2.7265253,-0.040042546,0.18083343,1.3033808,0.85436434
-0.1,0.0,1.0999999999999999,0.0,0.0,0,-0.93823415,-1.4458737,1.6424333,-0.1123251,0.121930614,1.2358494,0.2725395,0.9133183,-0.9792522,-2.7609239,-0.13016456,0.018414361,1.3498479,1.8390145
