sanky1234/BimanualDexCatch/isaacgymenvs/cem_results/football_pose_-0.2_-0.1_1.4_-0.5235987755982988_0.5235987755982988_0_2025-05-24.csv
x,y,z,roll,pitch,yaw,robot1/joint1,robot1/joint2,robot1/joint3,robot1/joint4,robot1/joint5,robot1/joint6,robot1/joint7,robot2/joint1,robot2/joint2,robot2/joint3,robot2/joint4,robot2/joint5,robot2/joint6,robot2/joint7
-0.2,-0.1,1.4,-0.5235987755982988,0.5235987755982988,0,0.16873449,0.4231427,1.0931774,0.48513192,0.7036368,0.497662,0.38952532,1.8670133,-1.4736325,-1.377578,0.012377266,0.124304466,1.0888973,-0.26568744
-0.2,-0.1,1.4,-0.5235987755982988,0.5235987755982988,0,0.1686007,0.42459998,1.0933679,0.48515156,0.7025558,0.4977354,0.3950884,1.8667754,-1.4603779,-1.336633,0.03867506,-0.0068641934,1.143133,-0.6803757
-0.2,-0.1,1.4,-0.5235987755982988,0.5235987755982988,0,0.16770795,0.42218554,1.0940949,0.4854419,0.70168626,0.4979668,0.39246678,1.8663901,-1.4510591,-1.499666,0.023690382,-0.014386284,1.0998615,0.3029953
-0.2,-0.1,1.4,-0.5235987755982988,0.5235987755982988,0,0.1693427,0.42541283,1.0925533,0.4850503,0.70369375,0.49863192,0.39670053,1.8656418,-1.4534441,-1.0964226,0.0516266,-0.34666228,1.0429902,-0.75603867
-0.2,-0.1,1.4,-0.5235987755982988,0.5235987755982988,0,0.16951148,0.42448986,1.0929824,0.4850697,0.7044413,0.49740046,0.39172548,1.8665712,-1.4405478,-0.7962625,-0.012060791,0.031397868,1.202745,0.09703317
-0.2,-0.1,1.4,-0.5235987755982988,0.5235987755982988,0,0.1673913,0.4220409,1.0929599,0.4850826,0.7060679,0.49780077,0.3950264,1.866954,-1.4590293,-1.1125854,-0.029293906,-0.012298855,1.0936483,0.2561321
-0.2,-0.1,1.4,-0.5235987755982988,0.5235987755982988,0,0.1680654,0.4218002,1.0937669,0.48520625,0.705117,0.49743482,0.3857026,1.8660227,-1.4704518,-1.3128651,-0.030173138,-0.00093179656,1.1723897,0.3283914
-0.2,-0.1,1.4,-0.5235987755982988,0.5235987755982988,0,0.1685743,0.4288204,1.0930943,0.484867,0.7054773,0.49741977,0.3953793,1.8665391,-1.4486423,-1.4218065,-0.02841107,-0.034092218,1.1088442,0.35358042
-0.2,-0.1,1.4,-0.5235987755982988,0.5235987755982988,0,0.16821398,0.42288798,1.0930963,0.4854923,0.7030542,0.49767742,0.39547393,1.8667473,-1.4695315,-0.9353008,-0.007870477,-0.008970187,1.0703136,0.3215321
-0.2,-0.1,1.4,-0.5235987755982988,0.5235987755982988,0,0.16812481,0.42462865,1.0935401,0.4854576,0.70418775,0.49752885,0.39261556,1.8659332,-1.461437,-1.1970512,0.009701141,-0.021255327,1.1354865,0.39779678
-0.2,-0.1,1.4,-0.5235987755982988,0.5235987755982988,0,0.16749,0.42286858,1.0938593,0.48497796,0.7031345,0.4976804,0.39640722,1.8661624,-1.4630003,-1.1241773,0.037260607,-0.034876063,1.0306952,-0.08852535
-0.2,-0.1,1.4,-0.5235987755982988,0.5235987755982988,0,0.16828783,0.42360917,1.0934671,0.48592952,0.702311,0.49879506,0.39312452,1.867029,-1.4756103,-1.0999426,-0.012738841,-0.015951307,1.2300731,0.028722307
-0.2,-0.1,1.4,-0.5235987755982988,0.5235987755982988,0,0.1682888,0.42352483,1.0929807,0.4848035,0.7045747,0.49747947,0.39654016,1.8659185,-1.4562238,-1.497181,0.00020769736,0.12618686,1.1947622,0.104708284
-0.2,-0.1,1.4,-0.5235987755982988,0.5235987755982988,0,0.16695654,0.42487276,1.0937569,0.4850325,0.7064082,0.4982081,0.39293858,1.8666668,-1.4746312,-0.8939137,-0.018536668,-0.1234779,1.0926889,0.00992725
-0.2,-0.1,1.4,-0.5235987755982988,0.5235987755982988,0,0.16893707,0.42141968,1.0930504,0.48461312,0.7010875,0.497897,0.39650774,1.8667011,-1.4618952,-1.2557439,-0.026277428,-0.0023378155,1.0073574,0.31472084
-0.2,-0.1,1.4,-0.5235987755982988,0.5235987755982988,0,0.16825059,0.42170987,1.0940987,0.4853488,0.7012666,0.49768537,0.39323112,1.8658655,-1.4478322,-1.822358,0.05253806,-0.08827342,1.1055706,-1.8013775
-0.2,-0.1,1.4,-0.5235987755982988,0.5235987755982988,0,0.16890863,0.42326862,1.0933639,0.48549014,0.7036366,0.49721912,0.3914699,1.8677396,-1.4666123,-1.1302438,-0.054760613,-0.13351548,1.0917871,1.9438999
-0.2,-0.1,1.4,-0.5235987755982988,0.5235987755982988,0,0.1692246,0.4242927,1.0926871,0.48533767,0.7049856,0.49784622,0.39206427,1.8662854,-1.4615601,-0.83772194,-0.030523172,0.029344968,1.1094327,-0.06742615
-0.2,-0.1,1.4,-0.5235987755982988,0.5235987755982988,0,0.1677257,0.42517942,1.092166,0.4848434,0.7050279,0.49825218,0.4048448,1.8669672,-1.4629005,-1.0049505,-0.014675529,0.20727515,1.1000135,-0.15068038
-0.2,-0.1,1.4,-0.5235987755982988,0.5235987755982988,0,0.16822854,0.42058298,1.0927504,0.48608285,0.70499986,0.49753207,0.39727086,1.8686551,-1.451069,-0.8387571,0.046121225,-0.02556048,1.0342097,-0.10479573
-0.2,-0.1,1.4,-0.5235987755982988,0.5235987755982988,0,0.16838081,0.42136234,1.0932766,0.48497424,0.70214474,0.4987341,0.39309308,1.8668455,-1.4687607,-1.46961,0.025337186,0.20140897,1.2212238,0.49804932
-0.2,-0.1,1.4,-0.5235987755982988,0.5235987755982988,0,0.1682457,0.42272803,1.093065,0.4860681,0.7043261,0.4980077,0.39332175,1.8663813,-1.458691,-1.2967445,-0.02430317,-0.06789174,1.1475211,0.18027948
-0.2,-0.1,1.4,-0.5235987755982988,0.5235987755982988,0,0.16809359,0.42199886,1.0923773,0.4853721,0.7036599,0.4988282,0.39832142,1.8659782,-1.4762062,-1.0618727,0.02382662,-0.013341543,1.0849386,-0.7608713
-0.2,-0.1,1.4,-0.5235987755982988,0.5235987755982988,0,0.16796762,0.4216624,1.0925617,0.4856029,0.70569766,0.49661714,0.40047196,1.8667481,-1.4678848,-1.0809156,0.009808384,-0.08623112,1.1235396,0.010174768
-0.2,-0.1,1.4,-0.5235987755982988,0.5235987755982988,0,0.16774108,0.42295226,1.0931883,0.48546338,0.70343345,0.4993638,0.39466044,1.866041,-1.4793223,-1.1210442,-0.032963905,0.1681102,1.18201,0.7346933
-0.2,-0.1,1.4,-0.5235987755982988,0.5235987755982988,0,0.16834699,0.42287058,1.0930063,0.48544014,0.7045713,0.49877742,0.39483956,1.8669114,-1.4643544,-0.93951285,-0.0010013914,-0.017604368,1.2495164,-0.13802089
-0.2,-0.1,1.4,-0.5235987755982988,0.5235987755982988,0,0.16806017,0.4230571,1.0930758,0.48513722,0.7048543,0.49791667,0.39846176,1.8660648,-1.4646313,-0.9159482,-0.030347059,-0.042029206,1.0689338,-0.13312018
-0.2,-0.1,1.4,-0.5235987755982988,0.5235987755982988,0,0.16764276,0.42626086,1.0932016,0.48521945,0.70504516,0.4991918,0.3986389,1.8667463,-1.472416,-1.2950845,-0.012177966,0.10237409,1.0340593,0.25889036
-0.2,-0.1,1.4,-0.5235987755982988,0.5235987755982988,0,0.16845025,0.42347693,1.0921535,0.48469076,0.7019531,0.49950677,0.40327123,1.865715,-1.4706341,-1.3616767,-0.0816431,0.19849093,1.0878159,0.9484223
-0.2,-0.1,1.4,-0.5235987755982988,0.5235987755982988,0,0.16883498,0.42226446,1.0930984,0.48508164,0.70365185,0.4985763,0.39439064,1.8676307,-1.470433,-1.6055987,-0.0024060055,0.2648444,1.2054056,-0.9555512
-0.2,-0.1,1.4,-0.5235987755982988,0.5235987755982988,0,0.16761582,0.42598546,1.0935899,0.48536837,0.7067393,0.49700323,0.40237775,1.8669436,-1.4649827,-2.099515,-0.0045793913,0.19782418,1.098059,0.97813976
-0.2,-0.1,1.4,-0.5235987755982988,0.5235987755982988,0,0.16931917,0.42511085,1.0931209,0.48473316,0.7038529,0.4979668,0.39793548,1.8651456,-1.4464357,-1.512116,0.002211182,0.06105395,1.15555,0.6372286
-0.2,-0.1,1.4,-0.5235987755982988,0.5235987755982988,0,0.16833577,0.42193046,1.0926701,0.48603305,0.7051762,0.49812737,0.39675352,1.866455,-1.4676163,-1.2230643,-0.063677564,0.109924324,1.1948537,-0.13463213
-0.2,-0.1,1.4,-0.5235987755982988,0.5235987755982988,0,0.16879427,0.42399222,1.0935962,0.48519024,0.70399183,0.4985406,0.3924188,1.8673196,-1.462275,-1.5035652,-0.031037923,-0.0137643395,1.0719897,-1.0781327
-0.2,-0.1,1.4,-0.5235987755982988,0.5235987755982988,0,0.16829187,0.4241409,1.0929555,0.4861779,0.7061868,0.49925825,0.39329612,1.8673722,-1.4528861,-1.570509,-0.036657307,0.033579964,1.1890384,0.08361171
-0.2,-0.1,1.4,-0.5235987755982988,0.5235987755982988,0,0.16830629,0.42172146,1.0933298,0.48490942,0.70353377,0.4981544,0.40041628,1.8666779,-1.4710057,-1.6746188,0.030515054,-0.041124534,1.0907121,-0.4243688
-0.2,-0.1,1.4,-0.5235987755982988,0.5235987755982988,0,0.16825645,0.42424375,1.0943254,0.48478737,0.7039199,0.49845412,0.3928499,1.8666626,-1.4666609,-1.8144654,-0.017798347,-0.10722251,1.13649,-0.12866344
-0.2,-0.1,1.4,-0.5235987755982988,0.5235987755982988,0,0.16830793,0.42348936,1.0928025,0.48487982,0.7006932,0.49731356,0.38556832,1.8668672,-1.4587144,-1.5130575,0.013836341,-0.21114033,1.1342493,-0.124017484
-0.2,-0.1,1.4,-0.5235987755982988,0.5235987755982988,0,0.16836342,0.42080703,1.0928568,0.48520252,0.70378625,0.49833742,0.38907886,1.8672731,-1.4701153,-1.8424063,0.010162165,-0.008432887,1.1403728,0.7090307
-0.2,-0.1,1.4,-0.5235987755982988,0.5235987755982988,0,0.1680725,0.4252392,1.0934705,0.48466265,0.7044193,0.4972697,0.39335328,1.8664634,-1.4505079,-1.1148696,-0.009429848,-0.06542875,1.0352595,-1.0694915
-0.2,-0.1,1.4,-0.5235987755982988,0.5235987755982988,0,0.1679536,0.42281199,1.0933836,0.48572138,0.70564526,0.4983645,0.39211902,1.8650829,-1.4555095,-1.771682,-0.067286834,0.0069724196,1.1124301,-0.4356454
-0.2,-0.1,1.4,-0.5235987755982988,0.5235987755982988,0,0.16808711,0.4285465,1.0913737,0.48484182,0.7020705,0.49762487,0.3834878,1.8675911,-1.4717193,-1.3562396,0.022480514,0.2919461,1.1662503,-0.74492645
-0.2,-0.1,1.4,-0.5235987755982988,0.5235987755982988,0,0.1674165,0.42772436,1.0909897,0.485989,0.70195013,0.49717095,0.38565844,1.8667989,-1.4664625,-1.0078311,-0.0012797379,0.12368586,1.1115422,-0.7513399
-0.2,-0.1,1.4,-0.5235987755982988,0.5235987755982988,0,0.16771181,0.4262499,1.092595,0.4850756,0.70215774,0.49767593,0.3927862,1.8673633,-1.469036,-0.7334728,0.0523741,0.08320022,1.167441,0.36047804
-0.2,-0.1,1.4,-0.5235987755982988,0.5235987755982988,0,0.16745988,0.42354167,1.0916346,0.48500505,0.7016247,0.4970142,0.39471918,1.8662709,-1.456554,-1.14912,0.0050340076,0.314326,1.1099588,0.15968977
-0.2,-0.1,1.4,-0.5235987755982988,0.5235987755982988,0,0.16807061,0.42882663,1.0913931,0.48515785,0.7027581,0.4976268,0.39136025,1.8664619,-1.4584492,-1.1578068,0.027201151,-0.11247403,1.2924888,-0.7919878
-0.2,-0.1,1.4,-0.5235987755982988,0.5235987755982988,0,0.1674993,0.41999713,1.0909712,0.4854284,0.7030744,0.49708706,0.3925399,1.8669696,-1.4751272,-1.1823567,-0.025068734,-0.18321341,1.0518271,0.8691127
-0.2,-0.1,1.4,-0.5235987755982988,0.5235987755982988,0,0.16811705,0.4230506,1.0910361,0.48531845,0.7025724,0.49826118,0.3924552,1.8667225,-1.4411838,-0.7049491,0.015310014,0.14290759,1.1481569,1.2463311
-0.2,-0.1,1.4,-0.5235987755982988,0.5235987755982988,0,0.1678746,0.42895687,1.0928475,0.48497435,0.70100516,0.49787125,0.38701662,1.8654811,-1.4698069,-1.1036491,0.060612753,-0.13605599,1.1666197,0.4946459
-0.2,-0.1,1.4,-0.5235987755982988,0.5235987755982988,0,0.16827586,0.4271119,1.0911899,0.48479533,0.7038001,0.4985554,0.38752407,1.8668407,-1.4556211,-0.9837302,0.008011745,-0.07556533,1.204656,1.7493541
-0.2,-0.1,1.4,-0.5235987755982988,0.5235987755982988,0,0.16859473,0.42334843,1.0925704,0.48502427,0.69912314,0.49802533,0.38581663,1.8653553,-1.4490486,-1.5434848,0.0829477,-0.13048436,1.1461102,-0.13352379
-0.2,-0.1,1.4,-0.5235987755982988,0.5235987755982988,0,0.16832735,0.42725247,1.091754,0.4850146,0.70093334,0.4987053,0.3875754,1.8674977,-1.4510325,-1.7951472,0.022153743,0.19270335,1.1188741,0.7284527
-0.2,-0.1,1.4,-0.5235987755982988,0.5235987755982988,0,0.16882704,0.42507848,1.0915437,0.48530415,0.7013025,0.49813,0.3894933,1.8659351,-1.4568933,-1.3769288,-0.00084586034,-0.03520195,1.0017095,-0.9291226
-0.2,-0.1,1.4,-0.5235987755982988,0.5235987755982988,0,0.1678746,0.4259444,1.0926292,0.48523507,0.70154685,0.49601254,0.39195994,1.8664701,-1.4823871,-1.5497953,-0.03257629,0.02522823,1.0440106,0.9469616
-0.2,-0.1,1.4,-0.5235987755982988,0.5235987755982988,0,0.16755384,0.42552096,1.0918792,0.4853306,0.7034755,0.49772492,0.39143035,1.8669124,-1.4595929,-0.9736121,-0.054758687,-0.025553666,1.0062273,0.009870858
-0.2,-0.1,1.4,-0.5235987755982988,0.5235987755982988,0,0.16753586,0.4269161,1.0923567,0.48488098,0.70243,0.49775743,0.3906517,1.8667219,-1.4539886,-1.5629195,0.019471006,0.050585713,1.0545465,0.6807624
-0.2,-0.1,1.4,-0.5235987755982988,0.5235987755982988,0,0.16675505,0.42497903,1.091956,0.48572132,0.70547855,0.49723774,0.39434934,1.866229,-1.4644907,-0.9260855,0.04157296,0.0050322805,1.1005119,-0.3510582
-0.2,-0.1,1.4,-0.5235987755982988,0.5235987755982988,0,0.16832957,0.42437863,1.0917516,0.4852736,0.70576835,0.49698976,0.3844767,1.8676045,-1.4521638,-1.1935169,0.011786537,-0.13517493,1.0322076,0.5608262
-0.2,-0.1,1.4,-0.5235987755982988,0.5235987755982988,0,0.16776726,0.42263532,1.0926216,0.48475656,0.700499,0.49785593,0.38998526,1.867265,-1.4716835,-1.1373016,-0.004638359,0.13003725,0.9749586,0.42032966
-0.2,-0.1,1.4,-0.5235987755982988,0.5235987755982988,0,0.16764516,0.42834985,1.0923897,0.4855991,0.7024566,0.4973109,0.3918951,1.8668996,-1.4569042,-1.2713487,-0.05656059,0.20788653,1.1482307,0.49872097
-0.2,-0.1,1.4,-0.5235987755982988,0.5235987755982988,0,0.16840112,0.42658022,1.0920609,0.48515415,0.7037829,0.497387,0.3851793,1.8654267,-1.4702514,-1.221753,-0.0038153327,0.164931,1.2232523,-0.15735659
-0.2,-0.1,1.4,-0.5235987755982988,0.5235987755982988,0,0.16757517,0.42690894,1.092791,0.48530614,0.7048193,0.49694097,0.3866384,1.8670838,-1.4523144,-1.3313469,0.047327407,-0.16575196,1.0473598,-0.6515639
-0.2,-0.1,1.4,-0.5235987755982988,0.5235987755982988,0,0.16782196,0.42216778,1.0917357,0.48525113,0.7051331,0.496636,0.39145818,1.8666642,-1.4630693,-1.0670577,-0.046514545,-0.09926137,0.9754394,0.92408913
-0.2,-0.1,1.4,-0.5235987755982988,0.5235987755982988,0,0.16813858,0.42167395,1.0919534,0.48531774,0.7019857,0.4971528,0.39151326,1.8666574,-1.4615904,-0.8257035,-0.0107472595,0.115486816,1.110638,0.15063116
-0.2,-0.1,1.4,-0.5235987755982988,0.5235987755982988,0,0.16849287,0.42646387,1.0926777,0.48536006,0.70054483,0.49676856,0.3910991,1.8667318,-1.4622996,-1.0223403,-0.007866933,-0.038646948,1.1174438,0.2171443
-0.2,-0.1,1.4,-0.5235987755982988,0.5235987755982988,0,0.166966,0.4263835,1.09227,0.48596886,0.7061097,0.49777257,0.39273283,1.8674028,-1.4527521,-1.1266019,-0.016463177,-0.28310776,0.97438794,0.11188264
-0.2,-0.1,1.4,-0.5235987755982988,0.5235987755982988,0,0.16867521,0.42543408,1.0929028,0.48602477,0.69976014,0.49719447,0.38913384,1.866401,-1.4481221,-1.7660663,0.03350046,-0.00851291,1.1677386,2.0600667
-0.2,-0.1,1.4,-0.5235987755982988,0.5235987755982988,0,0.16756356,0.4238278,1.0921252,0.48449028,0.70347184,0.49809554,0.39636296,1.8669703,-1.4477264,-0.69223917,-0.019739576,0.41358778,1.0061616,-0.9256929
-0.2,-0.1,1.4,-0.5235987755982988,0.5235987755982988,0,0.1679359,0.42712402,1.0925876,0.48546588,0.7048653,0.49697828,0.38515756,1.8673385,-1.4732066,-1.3737947,-0.070164375,-3.0345589e-05,1.0452579,0.558915
-0.2,-0.1,1.4,-0.5235987755982988,0.5235987755982988,0,0.16798763,0.42211416,1.0921986,0.48505625,0.70436317,0.4975418,0.38843077,1.8670863,-1.4515374,-1.1552042,0.0021002549,-0.26529557,0.9358123,-0.7185714
-0.2,-0.1,1.4,-0.5235987755982988,0.5235987755982988,0,0.16864966,0.42463738,1.0920478,0.48512954,0.70192367,0.49647182,0.3934829,1.8670133,-1.4672564,-0.84926116,-0.020785341,0.23015238,1.0736774,-0.52066827
-0.2,-0.1,1.4,-0.5235987755982988,0.5235987755982988,0,0.16809641,0.42643115,1.0915556,0.4848565,0.703331,0.498264,0.3930403,1.8664899,-1.4581882,-1.5282547,0.015360978,-0.19141988,1.1139238,-0.62624985
-0.2,-0.1,1.4,-0.5235987755982988,0.5235987755982988,0,0.16804361,0.42422146,1.0921592,0.48548058,0.7013334,0.49744996,0.3918236,1.8666492,-1.4630978,-1.7897812,-0.06798607,0.060097788,1.0573068,0.36057946
-0.2,-0.1,1.4,-0.5235987755982988,0.5235987755982988,0,0.16774094,0.42580917,1.0928408,0.48532534,0.701672,0.49626434,0.39386088,1.8655246,-1.4697803,-1.697997,-0.00839562,0.028929478,1.151122,0.74320704
-0.2,-0.1,1.4,-0.5235987755982988,0.5235987755982988,0,0.16705598,0.4253502,1.0927111,0.48526236,0.70053506,0.4983047,0.40122,1.8663538,-1.4529296,-1.0576444,0.075627334,-0.21521913,1.2534578,-0.14589038
-0.2,-0.1,1.4,-0.5235987755982988,0.5235987755982988,0,0.16816461,0.423801,1.0917029,0.4849085,0.7040604,0.49787986,0.39196563,1.8667257,-1.4562984,-1.3315381,0.016793873,-0.3126047,1.0563874,0.21901084
-0.2,-0.1,1.4,-0.5235987755982988,0.5235987755982988,0,0.16799356,0.4254606,1.0929121,0.48553458,0.7035224,0.49654186,0.3872649,1.8671491,-1.4724615,-1.2991723,-0.0069112177,-0.18390435,1.0735527,-0.20103148
-0.2,-0.1,1.4,-0.5235987755982988,0.5235987755982988,0,0.1685512,0.42423618,1.0910044,0.48507223,0.7005117,0.49893993,0.39749086,1.8665329,-1.4622675,-1.2219639,0.0007657634,-0.07431858,1.1657065,0.2571773
-0.2,-0.1,1.4,-0.5235987755982988,0.5235987755982988,0,0.16783488,0.42892706,1.0922477,0.48526466,0.7047055,0.4988896,0.39027345,1.8675698,-1.4605739,-1.7109407,-0.040216073,-0.2873876,1.0587217,-0.31162524
-0.2,-0.1,1.4,-0.5235987755982988,0.5235987755982988,0,0.1688359,0.4212921,1.0923884,0.4849837,0.7031107,0.4960951,0.38786697,1.866277,-1.469886,-1.1918166,0.017924491,0.14331727,0.9926489,-0.22856373
-0.2,-0.1,1.4,-0.5235987755982988,0.5235987755982988,0,0.16827676,0.42429504,1.0929976,0.4852832,0.70312464,0.49726337,0.38349015,1.8669909,-1.4745793,-0.6810811,-0.057850555,-0.15430963,1.1116968,-1.5668968
-0.2,-0.1,1.4,-0.5235987755982988,0.5235987755982988,0,0.16810974,0.42556298,1.0924585,0.48504648,0.7039515,0.49756092,0.38772652,1.8667545,-1.4702706,-1.1117578,0.019303838,-0.17762117,1.0986279,0.40019423
-0.2,-0.1,1.4,-0.5235987755982988,0.5235987755982988,0,0.16826512,0.42155355,1.0923854,0.485296,0.70407814,0.49561396,0.392911,1.8652422,-1.4639568,-0.76771045,0.0045935246,0.24149053,1.0165509,2.1667032
-0.2,-0.1,1.4,-0.5235987755982988,0.5235987755982988,0,0.16813342,0.42449307,1.0913335,0.48545197,0.7010673,0.49837926,0.4004317,1.8667256,-1.456015,-1.0391558,0.043447997,0.23395513,1.1797416,-0.25091678
-0.2,-0.1,1.4,-0.5235987755982988,0.5235987755982988,0,0.16864169,0.42336085,1.0914356,0.4855075,0.70469576,0.4976038,0.39041975,1.8673971,-1.4652457,-1.6067559,0.064175785,0.1049365,1.0377239,-0.20471275
-0.2,-0.1,1.4,-0.5235987755982988,0.5235987755982988,0,0.1677875,0.42435563,1.0923321,0.48568374,0.70255566,0.49803364,0.39179185,1.8669139,-1.4645531,-1.1307914,-0.013930676,0.15002072,1.121412,-0.18023372
-0.2,-0.1,1.4,-0.5235987755982988,0.5235987755982988,0,0.16763267,0.42275977,1.092457,0.48570672,0.70379776,0.49674457,0.39253786,1.8662014,-1.4690937,-1.3812509,0.045041878,-0.029553417,1.0308492,-0.059251256
-0.2,-0.1,1.4,-0.5235987755982988,0.5235987755982988,0,0.16753267,0.4236403,1.0921295,0.4854801,0.70386153,0.49807012,0.39143437,1.8656838,-1.4617283,-1.5842899,0.02041337,0.12764066,1.2083305,-0.7092847
-0.2,-0.1,1.4,-0.5235987755982988,0.5235987755982988,0,0.16826758,0.42442486,1.0927457,0.4855597,0.70551306,0.49697343,0.3864316,1.8673946,-1.4525421,-1.3991159,-0.05975649,0.108683854,1.0297263,-0.2560118
-0.2,-0.1,1.4,-0.5235987755982988,0.5235987755982988,0,0.1682211,0.42310423,1.0919807,0.48489815,0.70385176,0.49739966,0.39082587,1.8665619,-1.4675663,-1.1383834,0.010042384,-0.0555831,1.1415886,0.21984954
-0.2,-0.1,1.4,-0.5235987755982988,0.5235987755982988,0,0.16771652,0.4238073,1.0921432,0.48510203,0.705203,0.49753743,0.38948816,1.8666726,-1.4605979,-1.5244379,-0.03360298,0.04127422,1.2114348,0.7675397
-0.2,-0.1,1.4,-0.5235987755982988,0.5235987755982988,0,0.16817757,0.424975,1.0918436,0.48542964,0.7037351,0.49681133,0.3967789,1.8662165,-1.4691756,-1.3610967,0.019909885,-0.17730476,0.97989947,-0.55449873
-0.2,-0.1,1.4,-0.5235987755982988,0.5235987755982988,0,0.1679801,0.42469525,1.0929549,0.4848314,0.70322466,0.49683502,0.39094383,1.8664048,-1.4618096,-1.0496349,0.015949452,0.042298045,1.0944465,-0.1285189
-0.2,-0.1,1.4,-0.5235987755982988,0.5235987755982988,0,0.16675138,0.42298585,1.0922447,0.48530036,0.7050183,0.49676576,0.40167403,1.8683279,-1.4549376,-0.89934367,0.008244787,-0.18967009,1.2058818,0.2241954
-0.2,-0.1,1.4,-0.5235987755982988,0.5235987755982988,0,0.16822341,0.42279613,1.0922909,0.48522845,0.7034388,0.49832734,0.38758248,1.8659863,-1.463209,-1.426634,0.035074636,-0.1530736,1.1549337,-0.7521032
-0.2,-0.1,1.4,-0.5235987755982988,0.5235987755982988,0,0.16786027,0.4243526,1.0934054,0.48555446,0.7021975,0.49725822,0.388074,1.8673048,-1.4643322,-0.9110412,-0.006097616,-0.02991995,1.1127508,-0.4011863
-0.2,-0.1,1.4,-0.5235987755982988,0.5235987755982988,0,0.16726767,0.42079005,1.0927533,0.48544115,0.70307344,0.4976511,0.38911042,1.8678445,-1.4635736,-1.7314229,-0.0119543215,-0.0052241473,1.0981666,-0.53758305
-0.2,-0.1,1.4,-0.5235987755982988,0.5235987755982988,0,0.16714114,0.42414343,1.0927696,0.48509786,0.7028066,0.49821177,0.39512736,1.8668774,-1.4507866,-1.4748081,-0.0023170933,-0.02747039,0.98670703,0.8798389
-0.2,-0.1,1.4,-0.5235987755982988,0.5235987755982988,0,0.16751544,0.4204559,1.0927826,0.48546457,0.70037085,0.49820668,0.39195734,1.8663683,-1.4647394,-1.5639328,0.027841646,-0.018757878,1.0793804,0.8165218
-0.2,-0.1,1.4,-0.5235987755982988,0.5235987755982988,0,0.1679971,0.4231911,1.0924476,0.48470545,0.7026231,0.49686062,0.39435062,1.8666967,-1.473136,-0.8098579,-0.04429975,0.024304267,1.0701994,0.8978611
-0.2,-0.1,1.4,-0.5235987755982988,0.5235987755982988,0,0.16815601,0.42528436,1.0925752,0.48555377,0.7027266,0.4967199,0.394895,1.8676213,-1.4590573,-1.2300471,0.014781163,-0.22615439,1.1353381,-0.2169892
-0.2,-0.1,1.4,-0.5235987755982988,0.5235987755982988,0,0.16842334,0.4217688,1.0915983,0.48567313,0.70266765,0.49732667,0.39606327,1.8664497,-1.4630599,-1.1792282,-0.0378214,-0.28691724,0.99624896,-0.8156719
-0.2,-0.1,1.4,-0.5235987755982988,0.5235987755982988,0,0.16823447,0.4249494,1.0921708,0.4857169,0.704894,0.4986275,0.38767928,1.8659176,-1.4646086,-1.0233053,-0.06913885,-0.10941637,1.0439408,0.34442276
-0.2,-0.1,1.4,-0.5235987755982988,0.5235987755982988,0,0.16746856,0.42686653,1.0930225,0.4858233,0.70398575,0.49695083,0.39397156,1.8675689,-1.4473243,-1.4873136,-0.058040455,-0.14788432,1.0058419,-0.03947265
-0.2,-0.1,1.4,-0.5235987755982988,0.5235987755982988,0,0.16809285,0.424297,1.0914527,0.48521507,0.705403,0.49814194,0.3952226,1.8660952,-1.4462436,-0.8794929,-0.06346919,-0.13098444,1.0747824,0.08642606
-0.2,-0.1,1.4,-0.5235987755982988,0.5235987755982988,0,0.16758975,0.42722046,1.0923824,0.48553726,0.7046923,0.49670294,0.39874443,1.8672507,-1.470545,-1.3967146,0.089932606,-0.017601114,1.0424384,0.7872485
-0.2,-0.1,1.4,-0.5235987755982988,0.5235987755982988,0,0.16700144,0.42594132,1.0922953,0.48564845,0.70594925,0.49860242,0.39438292,1.8663213,-1.4565248,-1.1235359,-0.013415511,0.27306443,1.0253918,-0.75921845
-0.2,-0.1,1.4,-0.5235987755982988,0.5235987755982988,0,0.16821596,0.42363808,1.0927366,0.48578092,0.7038278,0.4964851,0.39114365,1.868097,-1.473198,-1.3065151,0.00044823,-0.11140354,0.97267765,-1.1382861
-0.2,-0.1,1.4,-0.5235987755982988,0.5235987755982988,0,0.16833697,0.42628095,1.0927062,0.48561153,0.7027177,0.49772602,0.39270163,1.8667572,-1.4669647,-0.63890123,-0.01938762,-0.22985189,1.0198522,-0.15702623
-0.2,-0.1,1.4,-0.5235987755982988,0.5235987755982988,0,0.1679359,0.4250979,1.092117,0.48457035,0.7045089,0.496827,0.39724073,1.8676213,-1.4561763,-1.3085834,0.0025841556,-0.19264637,1.1056223,-1.7682394
-0.2,-0.1,1.4,-0.5235987755982988,0.5235987755982988,0,0.1689772,0.42469004,1.0926601,0.4852221,0.70206743,0.49741468,0.38764504,1.8667599,-1.4886748,-1.3057445,-0.0034207085,-0.20786944,1.0093443,-1.0646641
-0.2,-0.1,1.4,-0.5235987755982988,0.5235987755982988,0,0.16792858,0.42337653,1.0929476,0.48527429,0.7034978,0.4966045,0.39160725,1.8665253,-1.4776621,-0.98320115,0.027999906,-0.14551371,1.1696287,0.78832465
-0.2,-0.1,1.4,-0.5235987755982988,0.5235987755982988,0,0.16790323,0.42379972,1.0924649,0.48525533,0.7020532,0.49828312,0.3947491,1.8674767,-1.4617987,-1.5642754,-0.012758035,-0.10305267,0.97823095,0.32552665
-0.2,-0.1,1.4,-0.5235987755982988,0.5235987755982988,0,0.16873758,0.42255577,1.0919396,0.48522422,0.70307606,0.4961124,0.39462623,1.8664466,-1.470649,-1.3670986,-0.027413635,-0.021541096,1.2185336,0.453027
-0.2,-0.1,1.4,-0.5235987755982988,0.5235987755982988,0,0.16822396,0.42429933,1.0917774,0.48538363,0.7057852,0.49706635,0.3951332,1.8673391,-1.469987,-1.4719827,-0.010675424,0.1568629,0.9439892,0.3363843
-0.2,-0.1,1.4,-0.5235987755982988,0.5235987755982988,0,0.16779695,0.4270969,1.0922645,0.48540163,0.7029165,0.49695724,0.40063536,1.8667165,-1.4657474,-1.0731179,-0.019147586,0.15536846,1.1800622,0.075388506
-0.2,-0.1,1.4,-0.5235987755982988,0.5235987755982988,0,0.16848171,0.42466724,1.0931005,0.4848713,0.70250744,0.49762234,0.3915873,1.8680544,-1.4562503,-0.9383511,-0.0019837879,0.34839243,1.1724874,-0.54104066
-0.2,-0.1,1.4,-0.5235987755982988,0.5235987755982988,0,0.1683307,0.42236605,1.0921794,0.48530313,0.7032522,0.49631625,0.39589167,1.8659602,-1.4634284,-1.0255549,-0.016548466,-0.065946154,1.1316187,0.30083075
-0.2,-0.1,1.4,-0.5235987755982988,0.5235987755982988,0,0.16803704,0.4233093,1.0923147,0.48524016,0.70326215,0.49784273,0.39871714,1.8656234,-1.4597442,-1.1315179,-0.0018851298,-0.031484164,0.90216213,-0.16725653
-0.2,-0.1,1.4,-0.5235987755982988,0.5235987755982988,0,0.16911617,0.42462552,1.0924512,0.48517334,0.70190245,0.49743986,0.39193925,1.8670845,-1.463513,-1.2120371,0.015619377,-0.064994,1.011228,-0.10076501
-0.2,-0.1,1.4,-0.5235987755982988,0.5235987755982988,0,0.16805503,0.42580467,1.0924295,0.48600826,0.70286465,0.49797037,0.39480746,1.8670658,-1.4648988,-1.8759053,0.02233051,0.2296756,1.1014041,0.7110872
-0.2,-0.1,1.4,-0.5235987755982988,0.5235987755982988,0,0.16737135,0.42081723,1.093511,0.4851691,0.7039368,0.49664336,0.39048743,1.8676434,-1.4610924,-1.4218119,0.010588624,-0.10272613,1.0267082,-0.6683658
-0.2,-0.1,1.4,-0.5235987755982988,0.5235987755982988,0,0.16748081,0.42389834,1.0921651,0.48564354,0.7043623,0.49875283,0.392331,1.867677,-1.4586116,-1.5637647,-0.07571468,-0.18714796,1.1130209,0.99707526
-0.2,-0.1,1.4,-0.5235987755982988,0.5235987755982988,0,0.16908672,0.42152673,1.0922823,0.48582834,0.70389265,0.49730328,0.3875023,1.866451,-1.4664756,-0.9044521,-0.02259577,0.050730847,0.96866953,1.2907885
-0.2,-0.1,1.4,-0.5235987755982988,0.5235987755982988,0,0.16851719,0.42310706,1.092905,0.48529172,0.702076,0.49582955,0.39526227,1.8681933,-1.4690658,-1.3622985,-0.04577538,-0.22313474,1.2151352,0.23263752
-0.2,-0.1,1.4,-0.5235987755982988,0.5235987755982988,0,0.16807391,0.42455113,1.0930779,0.48490766,0.7036295,0.4962296,0.3967763,1.866901,-1.4597359,-0.778576,0.0041790497,0.10301931,1.0786619,0.00071587774
-0.2,-0.1,1.4,-0.5235987755982988,0.5235987755982988,0,0.16835743,0.42305177,1.0915656,0.48550913,0.7047371,0.49857774,0.39244395,1.8670344,-1.4599049,-1.421743,-0.014637117,-0.1963891,1.1024748,0.7026869
-0.2,-0.1,1.4,-0.5235987755982988,0.5235987755982988,0,0.16710642,0.42274496,1.093059,0.4855663,0.70419776,0.49820167,0.39068708,1.8673205,-1.4625579,-1.2122189,-0.044572406,0.05400171,1.0315561,-0.21415721
-0.2,-0.1,1.4,-0.5235987755982988,0.5235987755982988,0,0.16895147,0.42277235,1.0917548,0.48572236,0.7040737,0.49753225,0.3941337,1.8666257,-1.4636978,-0.7694768,-0.0149079235,0.1171446,1.2504885,2.042148
-0.2,-0.1,1.4,-0.5235987755982988,0.5235987755982988,0,0.1678128,0.42415816,1.0924679,0.4852954,0.702249,0.49766836,0.39887938,1.8672285,-1.4653965,-1.5285739,0.0354207,-0.04881783,1.0804647,0.31686208
-0.2,-0.1,1.4,-0.5235987755982988,0.5235987755982988,0,0.16768724,0.42544773,1.0935874,0.48503703,0.7046223,0.4974144,0.38713762,1.8664165,-1.4749898,-1.5012466,-0.025364976,-0.14665902,1.0962882,-0.48059842
-0.2,-0.1,1.4,-0.5235987755982988,0.5235987755982988,0,0.16848086,0.42048073,1.0911672,0.48499835,0.70473725,0.49860987,0.3948247,1.8661801,-1.4573888,-0.94847095,-0.009592234,0.026009357,1.0804605,0.35742888
-0.2,-0.1,1.4,-0.5235987755982988,0.5235987755982988,0,0.16797496,0.4275297,1.0930436,0.48497447,0.7027901,0.4985076,0.39722413,1.8657203,-1.4418447,-1.1642722,0.0008502098,0.19784033,0.99741286,0.9476101
-0.2,-0.1,1.4,-0.5235987755982988,0.5235987755982988,0,0.16810818,0.4246135,1.0930269,0.48570675,0.70029885,0.49733108,0.39836407,1.8662146,-1.4709312,-1.4439778,-0.005815226,-0.08383641,1.1413503,-0.5120642
-0.2,-0.1,1.4,-0.5235987755982988,0.5235987755982988,0,0.16796121,0.42260116,1.0935713,0.48599514,0.70182735,0.49773943,0.38994431,1.8673899,-1.4698124,-0.8672961,-0.015432035,0.15395506,1.0235138,0.6254606
-0.2,-0.1,1.4,-0.5235987755982988,0.5235987755982988,0,0.16775428,0.42564824,1.093054,0.48537287,0.7044561,0.4972055,0.3955545,1.8666183,-1.4396808,-1.2865684,-0.022231687,0.02145409,1.1661435,0.16444218
-0.2,-0.1,1.4,-0.5235987755982988,0.5235987755982988,0,0.1678121,0.4256828,1.092993,0.4852511,0.70503306,0.49785098,0.39225864,1.8657864,-1.4529291,-0.96729684,0.0110369,0.03214969,1.0647341,-0.10210787
-0.2,-0.1,1.4,-0.5235987755982988,0.5235987755982988,0,0.16861425,0.42762008,1.0926172,0.48499775,0.70731163,0.49632463,0.39024252,1.8656615,-1.4589316,-1.6204065,-0.0616546,-0.088174686,1.081791,-0.2180723
-0.2,-0.1,1.4,-0.5235987755982988,0.5235987755982988,0,0.16891088,0.42489225,1.0928699,0.48515013,0.7043709,0.4989247,0.387383,1.8654228,-1.4443771,-0.9651487,-0.01642107,0.24733599,1.10831,0.38971886
-0.2,-0.1,1.4,-0.5235987755982988,0.5235987755982988,0,0.16886087,0.42347196,1.0912772,0.48615497,0.704303,0.4983252,0.39706546,1.8666885,-1.4537838,-1.1736586,0.028456226,0.054137666,1.0934049,0.8996131
-0.2,-0.1,1.4,-0.5235987755982988,0.5235987755982988,0,0.16794838,0.42678222,1.0925739,0.48533088,0.7028422,0.49910277,0.3953747,1.8667349,-1.4565016,-1.5899514,-0.047459796,0.1066527,1.1360915,-1.2745471
-0.2,-0.1,1.4,-0.5235987755982988,0.5235987755982988,0,0.1691596,0.42488724,1.0923154,0.48483098,0.70275587,0.4973319,0.39381367,1.8666798,-1.4797745,-1.2165027,-0.011963002,0.018518295,1.1407396,-0.21691285
-0.2,-0.1,1.4,-0.5235987755982988,0.5235987755982988,0,0.16859035,0.42899728,1.0933686,0.48449066,0.70223844,0.49873313,0.39260316,1.8667856,-1.4625646,-1.482148,-0.029266508,0.0728185,0.9872262,-0.6893737
-0.2,-0.1,1.4,-0.5235987755982988,0.5235987755982988,0,0.16852073,0.4250592,1.0923096,0.48577556,0.70546556,0.49611685,0.3985373,1.8658623,-1.4588795,-1.0807457,-0.000987828,-0.07215247,1.1829062,1.6288621
-0.2,-0.1,1.4,-0.5235987755982988,0.5235987755982988,0,0.16739188,0.42744803,1.0928129,0.4852866,0.7039583,0.49823678,0.40196267,1.8671219,-1.4484761,-1.5651622,-0.04601432,0.0139668835,1.058533,-0.33526587
-0.2,-0.1,1.4,-0.5235987755982988,0.5235987755982988,0,0.16772933,0.4215532,1.0931128,0.48602298,0.7026525,0.49835357,0.39356595,1.8659987,-1.4622014,-1.7279359,-0.03594679,-0.24081297,1.1306983,1.1648781
-0.2,-0.1,1.4,-0.5235987755982988,0.5235987755982988,0,0.16821688,0.42237368,1.0931555,0.48544976,0.7046125,0.4976925,0.38935697,1.8674778,-1.4594375,-1.6982288,0.0037020515,0.04628374,1.0956734,-0.29675367
-0.2,-0.1,1.4,-0.5235987755982988,0.5235987755982988,0,0.16881806,0.424155,1.092675,0.48510107,0.7034138,0.49826255,0.39240724,1.8663867,-1.4564024,-1.6782141,-0.019148787,-0.106161274,1.3085129,-0.8407713
-0.2,-0.1,1.4,-0.5235987755982988,0.5235987755982988,0,0.16841845,0.42464828,1.0923008,0.48520717,0.7035507,0.49774072,0.40132207,1.8667227,-1.4532096,-1.1077853,-0.011316125,-0.18625963,1.1133411,2.0527534
-0.2,-0.1,1.4,-0.5235987755982988,0.5235987755982988,0,0.16902551,0.4223936,1.0925462,0.48498926,0.70494634,0.4970575,0.3934293,1.8661224,-1.4734532,-0.8828825,0.03962019,0.08836256,1.0237033,-0.64535594
-0.2,-0.1,1.4,-0.5235987755982988,0.5235987755982988,0,0.1688772,0.4251632,1.0923053,0.48617575,0.7059867,0.497159,0.39693382,1.8656338,-1.4668204,-1.401718,-0.019946055,-0.079252966,1.0341799,1.2660017
-0.2,-0.1,1.4,-0.5235987755982988,0.5235987755982988,0,0.16780557,0.42274815,1.0922422,0.48525587,0.7052149,0.4982691,0.3997832,1.8666806,-1.476872,-1.4457123,0.0895862,0.015581846,1.0165942,0.46915802
-0.2,-0.1,1.4,-0.5235987755982988,0.5235987755982988,0,0.16730177,0.42150262,1.0937861,0.48545966,0.70429516,0.49739823,0.39142412,1.867176,-1.4747964,-1.5251161,-0.02515523,0.08822227,1.0248992,-0.37250653
-0.2,-0.1,1.4,-0.5235987755982988,0.5235987755982988,0,0.16912901,0.4222218,1.092599,0.48508146,0.70361835,0.49720716,0.39424288,1.8663859,-1.4486666,-1.3721896,-0.026575103,0.037043616,1.1209546,-0.44180062
-0.2,-0.1,1.4,-0.5235987755982988,0.5235987755982988,0,0.16868164,0.42436755,1.0933598,0.48492023,0.70471984,0.49693048,0.39216265,1.8663081,-1.4545442,-1.1754789,-0.04773796,-0.03373223,1.0582982,0.35239053
-0.2,-0.1,1.4,-0.5235987755982988,0.5235987755982988,0,0.16915776,0.42156658,1.0928775,0.4849803,0.70509,0.4972626,0.38753223,1.8654995,-1.4531986,-1.7693148,-0.029184666,-0.022914842,1.0624332,-1.212671
-0.2,-0.1,1.4,-0.5235987755982988,0.5235987755982988,0,0.16840298,0.42123964,1.0930473,0.48525867,0.7028283,0.4979558,0.39671767,1.8660196,-1.4654725,-0.5683092,0.00041161926,-0.05875095,0.9974841,0.71584016
-0.2,-0.1,1.4,-0.5235987755982988,0.5235987755982988,0,0.16797036,0.4211156,1.0932386,0.4853868,0.7042239,0.49791625,0.39415172,1.8666774,-1.46509,-0.6869629,0.012841458,0.06443904,1.1064804,-0.3902701
-0.2,-0.1,1.4,-0.5235987755982988,0.5235987755982988,0,0.16834086,0.42335045,1.0930471,0.48553187,0.70671564,0.49723873,0.3932926,1.8668292,-1.4579616,-1.1850684,0.034429785,-0.06519638,1.064145,-0.41586936
-0.2,-0.1,1.4,-0.5235987755982988,0.5235987755982988,0,0.16834503,0.4239174,1.0934656,0.4855713,0.70389557,0.4970669,0.39664823,1.8663982,-1.459425,-1.717661,-0.07736414,-0.19720422,0.96038467,-0.4364026
-0.2,-0.1,1.4,-0.5235987755982988,0.5235987755982988,0,0.16783603,0.425125,1.0932713,0.48530862,0.7047911,0.4970543,0.39984968,1.865388,-1.4647902,-0.95150185,-0.0090567,-0.056083012,0.9603236,-0.53029984
-0.2,-0.1,1.4,-0.5235987755982988,0.5235987755982988,0,0.16821218,0.42261434,1.0928488,0.48523614,0.70653886,0.49823344,0.39330414,1.8671871,-1.4561578,-0.9135734,-0.012383322,0.236656,1.0298139,-0.6168316
-0.2,-0.1,1.4,-0.5235987755982988,0.5235987755982988,0,0.16914536,0.4241376,1.0940592,0.48445088,0.7020528,0.49783742,0.39214844,1.866742,-1.4588299,-1.4055994,0.037015177,-0.03591522,1.0460241,-0.22560796
-0.2,-0.1,1.4,-0.5235987755982988,0.5235987755982988,0,0.16817091,0.42532447,1.0940822,0.48531625,0.7057478,0.4973378,0.3913685,1.8672225,-1.4795436,-2.1411004,0.008742121,-0.055526376,1.1939396,-0.29072115
-0.2,-0.1,1.4,-0.5235987755982988,0.5235987755982988,0,0.16793618,0.42508852,1.0922676,0.48530006,0.7063313,0.49918127,0.40004107,1.8673359,-1.4654006,-1.0996467,-0.03398849,-0.047823217,1.0390633,-0.040699217
-0.2,-0.1,1.4,-0.5235987755982988,0.5235987755982988,0,0.16842741,0.42232722,1.093588,0.4856096,0.7044484,0.49754697,0.39302424,1.8672723,-1.4722552,-1.3783956,-0.006365068,0.15857075,1.0868088,0.041751683
-0.2,-0.1,1.4,-0.5235987755982988,0.5235987755982988,0,0.1687632,0.4206573,1.0930057,0.48503518,0.70444643,0.49792328,0.3937598,1.8665574,-1.4712385,-0.8305063,0.008780061,0.1212416,1.1115733,0.1737855
-0.2,-0.1,1.4,-0.5235987755982988,0.5235987755982988,0,0.1681495,0.421142,1.0932556,0.48553613,0.70513463,0.49728012,0.3950165,1.8660991,-1.4778839,-1.0152495,0.0064232103,0.0014521669,1.0802196,0.37311065
-0.2,-0.1,1.4,-0.5235987755982988,0.5235987755982988,0,0.16842699,0.42400125,1.0942287,0.48552823,0.7031181,0.4984232,0.39079124,1.8678933,-1.4600244,-1.4071667,0.014241895,0.03399301,1.0736775,0.28948608
-0.2,-0.1,1.4,-0.5235987755982988,0.5235987755982988,0,0.16954532,0.42006347,1.0916486,0.4852689,0.7049921,0.49744627,0.39825782,1.8669535,-1.4625932,-1.459773,0.0036122885,0.06413203,1.1276582,-1.8831204
-0.2,-0.1,1.4,-0.5235987755982988,0.5235987755982988,0,0.16873364,0.42311123,1.0931752,0.48556086,0.7044637,0.4976176,0.39863792,1.8672848,-1.4796715,-1.5238755,0.037810817,-0.009551974,1.0829878,-0.07923474
-0.2,-0.1,1.4,-0.5235987755982988,0.5235987755982988,0,0.16914472,0.4195484,1.0932432,0.48542652,0.7051603,0.49771586,0.3905161,1.8667563,-1.447207,-1.8584763,-0.0029756823,-0.0028500143,1.2195469,-0.4598124
-0.2,-0.1,1.4,-0.5235987755982988,0.5235987755982988,0,0.16765803,0.42257577,1.0928159,0.4851204,0.7048865,0.49723634,0.3931295,1.8658191,-1.4665278,-1.3764069,-0.052429568,-0.14024438,0.8863046,-0.41128775
-0.2,-0.1,1.4,-0.5235987755982988,0.5235987755982988,0,0.16726974,0.42488268,1.0918424,0.48502648,0.70209724,0.49661025,0.3879531,1.868465,-1.4451729,-1.5722156,0.05681125,-0.030158399,1.1657774,0.4810282
-0.2,-0.1,1.4,-0.5235987755982988,0.5235987755982988,0,0.16823953,0.42901695,1.0921665,0.48514733,0.7022036,0.4966889,0.38517222,1.8673031,-1.4611251,-1.3985022,0.013205679,0.39868,1.1533252,-1.8157605
-0.2,-0.1,1.4,-0.5235987755982988,0.5235987755982988,0,0.16702493,0.42351002,1.0916439,0.48496622,0.70253,0.4971236,0.39208758,1.8668144,-1.4704993,-1.7209495,-0.018063731,-0.13856323,1.1374927,0.20078072
-0.2,-0.1,1.4,-0.5235987755982988,0.5235987755982988,0,0.16713773,0.42288697,1.0917126,0.4851986,0.70254344,0.4972389,0.38428876,1.8659554,-1.4613668,-1.5034864,-0.10515526,0.19657128,1.2654388,0.6781483
-0.2,-0.1,1.4,-0.5235987755982988,0.5235987755982988,0,0.16793,0.4285657,1.0923374,0.4852596,0.7034083,0.4973222,0.3863154,1.8656753,-1.4573256,-0.5391816,-0.0085536055,0.17764516,1.0806843,0.1725889
-0.2,-0.1,1.4,-0.5235987755982988,0.5235987755982988,0,0.16844013,0.4288682,1.0912668,0.48556435,0.7058681,0.4972941,0.38580036,1.866645,-1.4661202,-1.0915667,0.03903697,0.11894129,1.0081985,0.3413177
-0.2,-0.1,1.4,-0.5235987755982988,0.5235987755982988,0,0.16813271,0.42471147,1.0924233,0.48555425,0.70267385,0.49770215,0.3838443,1.8661357,-1.4552113,-1.234189,0.0022143067,-0.040440828,1.009056,0.7595063
-0.2,-0.1,1.4,-0.5235987755982988,0.5235987755982988,0,0.167638,0.42658705,1.0929693,0.4850527,0.7004611,0.49757758,0.39078975,1.8669485,-1.4652423,-0.7242964,-0.0029516965,0.08451548,1.1493702,0.9362202
-0.2,-0.1,1.4,-0.5235987755982988,0.5235987755982988,0,0.16790162,0.42808485,1.0925199,0.4855945,0.70410275,0.49719688,0.38385996,1.867086,-1.467689,-1.4346715,-0.0037912244,0.041863907,1.0759128,-0.1365127
-0.2,-0.1,1.4,-0.5235987755982988,0.5235987755982988,0,0.16774403,0.42451432,1.0923246,0.4854163,0.7014399,0.49749652,0.39398918,1.8671947,-1.4524776,-0.9975921,-0.008568635,-0.18613638,1.0170418,0.61676955
-0.2,-0.1,1.4,-0.5235987755982988,0.5235987755982988,0,0.16841836,0.42368156,1.0921288,0.48520738,0.7024588,0.49613523,0.39104176,1.8673015,-1.4552017,-1.5756238,-0.029895078,-0.022982819,1.1585579,-0.68683386
-0.2,-0.1,1.4,-0.5235987755982988,0.5235987755982988,0,0.16875674,0.42807415,1.0916772,0.48549026,0.7019671,0.4962842,0.39541683,1.8672087,-1.4710653,-0.849711,-0.015131291,0.11269171,1.1088636,-0.056474175
-0.2,-0.1,1.4,-0.5235987755982988,0.5235987755982988,0,0.16895857,0.42216918,1.0914285,0.48519164,0.70108575,0.49700603,0.3942343,1.8673187,-1.4661247,-0.6922955,0.0070179263,0.19152693,1.1268787,-0.8035341
-0.2,-0.1,1.4,-0.5235987755982988,0.5235987755982988,0,0.16746496,0.42208484,1.092024,0.48500988,0.705259,0.497557,0.38860014,1.8675755,-1.4589217,-1.140295,0.009371797,-0.17030688,0.98563975,-0.22655332
-0.2,-0.1,1.4,-0.5235987755982988,0.5235987755982988,0,0.1676079,0.42558628,1.0925614,0.4846406,0.70295966,0.4974884,0.3898959,1.8671852,-1.4663775,-1.3708986,-0.046585806,-0.13264681,1.0612013,1.6405597
-0.2,-0.1,1.4,-0.5235987755982988,0.5235987755982988,0,0.16826886,0.42585543,1.0924811,0.48560753,0.7007579,0.49790606,0.39008832,1.8670722,-1.4377955,-1.5086684,-0.050188564,0.103897355,1.1703955,-0.22372371
-0.2,-0.1,1.4,-0.5235987755982988,0.5235987755982988,0,0.16816705,0.4258942,1.0925925,0.48543236,0.7003658,0.497783,0.39164525,1.8668281,-1.462627,-1.6548077,-0.070696905,-0.18832776,1.066471,-0.205534
-0.2,-0.1,1.4,-0.5235987755982988,0.5235987755982988,0,0.1679992,0.4278026,1.0915288,0.48506245,0.7043195,0.49829075,0.39441973,1.8665614,-1.4565077,-1.3778998,0.00802856,-0.07181552,1.2216257,-1.0467724
-0.2,-0.1,1.4,-0.5235987755982988,0.5235987755982988,0,0.16789624,0.42790177,1.0918648,0.48531926,0.7069801,0.4975463,0.39131662,1.8667732,-1.4605826,-1.0136118,0.06405853,0.08019306,1.1537145,-0.19946827
-0.2,-0.1,1.4,-0.5235987755982988,0.5235987755982988,0,0.16806203,0.42222124,1.0921652,0.48529115,0.7019835,0.4977696,0.3953041,1.8662846,-1.4501469,-1.0722544,0.04135428,0.34948874,1.004844,1.7603203
-0.2,-0.1,1.4,-0.5235987755982988,0.5235987755982988,0,0.1674587,0.42480272,1.0921035,0.48543748,0.7035882,0.49776006,0.39383706,1.8673563,-1.4620069,-1.3807671,-0.018307606,0.030037867,1.0184078,-0.584627
-0.2,-0.1,1.4,-0.5235987755982988,0.5235987755982988,0,0.16805145,0.42510816,1.0929191,0.48536617,0.7027668,0.4973497,0.38855743,1.8685024,-1.4769814,-1.0734692,0.022198465,-0.10289646,1.013656,0.39503694
-0.2,-0.1,1.4,-0.5235987755982988,0.5235987755982988,0,0.16856611,0.4219956,1.0925012,0.48512104,0.704564,0.4967853,0.38923082,1.866186,-1.4530548,-0.39417893,0.06275867,0.04353095,1.1365646,1.5023668
-0.2,-0.1,1.4,-0.5235987755982988,0.5235987755982988,0,0.1675946,0.42151582,1.0926068,0.48578337,0.7026654,0.49762246,0.38827166,1.8671206,-1.4760727,-0.78561527,-0.048592784,-0.1429206,1.106566,0.8288518
-0.2,-0.1,1.4,-0.5235987755982988,0.5235987755982988,0,0.16906074,0.424599,1.0915538,0.48529473,0.70070636,0.49791196,0.39645606,1.8667271,-1.4725014,-1.1788664,0.0068770745,0.39474702,1.1080062,-0.28852087
-0.2,-0.1,1.4,-0.5235987755982988,0.5235987755982988,0,0.1688846,0.42563853,1.0918766,0.48558703,0.70443016,0.49611506,0.39225835,1.8656753,-1.4714159,-1.1324524,0.018714862,-0.19201188,1.0181468,-0.07526748
-0.2,-0.1,1.4,-0.5235987755982988,0.5235987755982988,0,0.16845998,0.42294443,1.0917107,0.4853696,0.70268375,0.49823582,0.39065617,1.8665992,-1.4712063,-0.9482452,-0.013365448,-0.21398218,1.0855393,0.34110048
-0.2,-0.1,1.4,-0.5235987755982988,0.5235987755982988,0,0.16741382,0.4247311,1.0921124,0.48524725,0.7056601,0.49729782,0.39376023,1.8662845,-1.4645225,-0.9862155,-0.018747486,0.26238722,0.9981061,0.04498864
-0.2,-0.1,1.4,-0.5235987755982988,0.5235987755982988,0,0.16792634,0.42427954,1.0928494,0.48540506,0.7036956,0.49735138,0.3891481,1.8658161,-1.4608207,-1.35058,0.055003136,-0.08428244,1.0581121,-0.22930713
-0.2,-0.1,1.4,-0.5235987755982988,0.5235987755982988,0,0.16854739,0.42313573,1.0917469,0.48521745,0.70322144,0.49792606,0.3912884,1.867374,-1.4586293,-1.1286254,0.009099489,0.23202582,1.1777242,-0.25622043
-0.2,-0.1,1.4,-0.5235987755982988,0.5235987755982988,0,0.1676683,0.425387,1.0928774,0.48599997,0.7038,0.49889117,0.38546142,1.8674417,-1.4649221,-1.8560097,-0.002254202,-0.12518987,1.0095494,0.9200941
-0.2,-0.1,1.4,-0.5235987755982988,0.5235987755982988,0,0.16783129,0.42432296,1.0922548,0.48539692,0.7031509,0.4972313,0.39479092,1.8678329,-1.459284,-1.6544446,0.018945033,0.0799151,1.0728124,-0.24872538
-0.2,-0.1,1.4,-0.5235987755982988,0.5235987755982988,0,0.16746092,0.4234662,1.091823,0.4854287,0.70392454,0.49708816,0.39966318,1.8663126,-1.4694515,-0.91564924,-0.04032364,0.09332853,0.98396015,-0.4758426
-0.2,-0.1,1.4,-0.5235987755982988,0.5235987755982988,0,0.16913526,0.42110005,1.0915033,0.48515743,0.7039364,0.49780005,0.3869192,1.8662469,-1.4582949,-2.1743479,-0.027042689,0.059833802,1.1114755,-0.49835047
-0.2,-0.1,1.4,-0.5235987755982988,0.5235987755982988,0,0.16803786,0.42498735,1.0916659,0.48564628,0.7020161,0.49701807,0.4022507,1.8661968,-1.4584937,-1.0761319,-0.051977407,-0.0036487684,1.1831888,-0.57452977
-0.2,-0.1,1.4,-0.5235987755982988,0.5235987755982988,0,0.1670812,0.42594326,1.093266,0.48580942,0.70389706,0.49824128,0.38874128,1.8665982,-1.4655867,-1.4783398,0.02136587,0.13890994,1.0969734,0.5433112
-0.2,-0.1,1.4,-0.5235987755982988,0.5235987755982988,0,0.16805293,0.42316636,1.0921514,0.4854269,0.7023111,0.49704617,0.39640847,1.8665915,-1.4630213,-1.6387899,-0.03139972,-0.17783791,1.0769393,-1.0266804
-0.2,-0.1,1.4,-0.5235987755982988,0.5235987755982988,0,0.16914186,0.42292908,1.0920445,0.48502156,0.70309895,0.49673614,0.391216,1.866585,-1.4691423,-1.1369077,-0.0038859942,-0.12956335,1.0890274,0.014224841
-0.2,-0.1,1.4,-0.5235987755982988,0.5235987755982988,0,0.1686241,0.42451876,1.0927516,0.48513943,0.70467836,0.49636686,0.3877468,1.8667564,-1.4668753,-1.3203619,-0.0008037333,-0.046214305,1.1262834,-0.8801729
-0.2,-0.1,1.4,-0.5235987755982988,0.5235987755982988,0,0.1682005,0.42520234,1.093862,0.4853838,0.70328,0.49608254,0.38762638,1.866285,-1.4576339,-1.377289,-0.009888361,0.16394001,1.1774149,-0.11004701
-0.2,-0.1,1.4,-0.5235987755982988,0.5235987755982988,0,0.16780409,0.4263472,1.0936174,0.48528698,0.70217156,0.49707606,0.3930294,1.8660802,-1.4584169,-1.2938008,0.009097948,-0.122468986,1.0789753,0.2182996
-0.2,-0.1,1.4,-0.5235987755982988,0.5235987755982988,0,0.16769294,0.4227902,1.0930544,0.48508072,0.7015133,0.49822584,0.3938386,1.8673409,-1.4566493,-1.1886134,-0.02932172,-0.29642466,1.153145,-0.6093736
-0.2,-0.1,1.4,-0.5235987755982988,0.5235987755982988,0,0.16807814,0.42607343,1.0930383,0.4854416,0.7034054,0.4985485,0.38873553,1.8673518,-1.4605334,-1.7704148,0.014527763,-0.15639836,1.0111536,0.76244736
-0.2,-0.1,1.4,-0.5235987755982988,0.5235987755982988,0,0.16811252,0.42219907,1.092115,0.4855973,0.70267427,0.49633768,0.40121102,1.8671551,-1.461296,-0.9734727,-0.015088832,0.28911948,1.1752166,-0.77000856
-0.2,-0.1,1.4,-0.5235987755982988,0.5235987755982988,0,0.16808015,0.42710397,1.0925037,0.48508388,0.7025006,0.49854264,0.3960441,1.8666213,-1.4552851,-1.0411345,-0.03621618,0.072070755,1.1100582,-0.038094003
-0.2,-0.1,1.4,-0.5235987755982988,0.5235987755982988,0,0.16767572,0.42766544,1.0923021,0.48586744,0.7028107,0.49838272,0.40196526,1.866636,-1.4511416,-0.5923816,-0.0065836227,0.10965546,1.0462798,0.85894156
-0.2,-0.1,1.4,-0.5235987755982988,0.5235987755982988,0,0.16847953,0.4242361,1.0923764,0.48514232,0.7023066,0.49843696,0.3933483,1.8663343,-1.4667583,-1.3335147,-0.0030194551,0.018634714,1.0885499,-1.110906
-0.2,-0.1,1.4,-0.5235987755982988,0.5235987755982988,0,0.16794981,0.4271068,1.0918722,0.48557252,0.7070327,0.49747524,0.39676055,1.8659072,-1.4608164,-1.2728544,-0.04551899,-0.095652394,1.0055788,1.0068163
-0.2,-0.1,1.4,-0.5235987755982988,0.5235987755982988,0,0.1685279,0.4263272,1.0920247,0.4855625,0.7034717,0.4977648,0.39833114,1.8669325,-1.4653163,-1.087982,-0.009435445,-0.143888,1.1433934,0.11494153
-0.2,-0.1,1.4,-0.5235987755982988,0.5235987755982988,0,0.16951206,0.42137015,1.0925165,0.48529205,0.70219105,0.4970361,0.38862565,1.8666892,-1.4731749,-1.5355716,-0.0112982225,-0.14374064,1.1520891,-0.36911467
-0.2,-0.1,1.4,-0.5235987755982988,0.5235987755982988,0,0.16851002,0.42501864,1.0920099,0.4850808,0.70855194,0.49782294,0.3910126,1.8665838,-1.4468775,-0.7568253,-0.014677811,-0.02917804,1.056046,1.6811652
-0.2,-0.1,1.4,-0.5235987755982988,0.5235987755982988,0,0.16893935,0.42543364,1.0920317,0.48561117,0.7054815,0.49802473,0.39268625,1.8656057,-1.4488797,-1.122436,-0.01526982,-0.23915023,1.195426,-0.7201159
-0.2,-0.1,1.4,-0.5235987755982988,0.5235987755982988,0,0.168248,0.4247529,1.0921803,0.48530382,0.70515364,0.4979401,0.39737335,1.8673766,-1.4621074,-1.1871958,0.022983257,0.20760933,1.1104126,0.6041234
-0.2,-0.1,1.4,-0.5235987755982988,0.5235987755982988,0,0.16800797,0.42765316,1.0927547,0.48585972,0.70492506,0.49904475,0.393605,1.8671008,-1.4611156,-1.1198303,0.005145696,0.024783133,1.1023108,0.088273674
-0.2,-0.1,1.4,-0.5235987755982988,0.5235987755982988,0,0.16748905,0.42289436,1.0930523,0.48552063,0.7041065,0.49842662,0.39816925,1.8660059,-1.4734628,-0.97652304,0.0027953358,-0.10479831,1.223056,-1.2145958
-0.2,-0.1,1.4,-0.5235987755982988,0.5235987755982988,0,0.16841905,0.42613098,1.0936359,0.4857848,0.7050531,0.49711353,0.39466724,1.8661652,-1.4648494,-1.2514317,0.015356925,-0.1035693,1.1527481,1.2334601
-0.2,-0.1,1.4,-0.5235987755982988,0.5235987755982988,0,0.16946086,0.42386696,1.093309,0.48504353,0.7040705,0.49717468,0.3930746,1.8660142,-1.455784,-1.2564396,0.03777067,-0.040474776,1.0901643,-0.101263
-0.2,-0.1,1.4,-0.5235987755982988,0.5235987755982988,0,0.16736905,0.42751276,1.091577,0.48545936,0.6999666,0.49766958,0.38525566,1.8668468,-1.4484683,-1.27789,0.015608687,0.21764584,1.2366523,-0.21045655
-0.2,-0.1,1.4,-0.5235987755982988,0.5235987755982988,0,0.16810466,0.4310374,1.0924752,0.48536944,0.70109695,0.49708387,0.3879854,1.8658973,-1.4609752,-0.7726503,0.013293312,-0.15507798,1.1291035,-0.27040187
-0.2,-0.1,1.4,-0.5235987755982988,0.5235987755982988,0,0.16804188,0.4237684,1.0931551,0.48499465,0.6998323,0.49771437,0.38248658,1.8658969,-1.4564465,-1.3270781,-0.04878578,-0.18414894,1.0571985,1.4096473
-0.2,-0.1,1.4,-0.5235987755982988,0.5235987755982988,0,0.16704172,0.42529806,1.0932783,0.48572782,0.70417684,0.49701318,0.38502568,1.8669882,-1.4508502,-0.8257996,0.014902171,0.15754347,1.0744482,-0.8263842
-0.2,-0.1,1.4,-0.5235987755982988,0.5235987755982988,0,0.16705441,0.42359957,1.0931463,0.4853141,0.7024133,0.49753892,0.38666937,1.8668749,-1.4582975,-1.547111,0.018296482,0.06359885,1.1245381,0.6227332
-0.2,-0.1,1.4,-0.5235987755982988,0.5235987755982988,0,0.16726962,0.42504126,1.0912652,0.4847868,0.7069695,0.49786562,0.39452013,1.8674451,-1.4591721,-0.6950959,-0.02877628,-0.030316815,1.0660323,-0.22398889
-0.2,-0.1,1.4,-0.5235987755982988,0.5235987755982988,0,0.16884762,0.4286327,1.0920367,0.48504648,0.7021466,0.49598923,0.39510244,1.8666726,-1.4599327,-1.4548948,-0.08263545,-0.111617915,1.0936729,-1.0735673
-0.2,-0.1,1.4,-0.5235987755982988,0.5235987755982988,0,0.1663714,0.42745182,1.0935116,0.48524207,0.70363796,0.49631652,0.39613137,1.86641,-1.4598924,-1.1672274,-0.021585433,-0.2880759,1.1585965,-0.08845255
-0.2,-0.1,1.4,-0.5235987755982988,0.5235987755982988,0,0.16740574,0.4256607,1.0930496,0.4854897,0.70277,0.49812537,0.38827214,1.8675745,-1.4659634,-1.1699098,0.0346121,-0.01614068,1.0431945,1.7520564
-0.2,-0.1,1.4,-0.5235987755982988,0.5235987755982988,0,0.1685444,0.42735776,1.0935155,0.4850523,0.70574844,0.49585375,0.38262808,1.8669708,-1.4643961,-0.78086054,0.02207003,0.036323547,1.0595812,0.5012779
-0.2,-0.1,1.4,-0.5235987755982988,0.5235987755982988,0,0.16901606,0.42225435,1.0916795,0.48575142,0.7003921,0.4990543,0.3888893,1.865837,-1.4636154,-1.4173653,0.022870924,0.018744612,1.1695042,-0.19053943
-0.2,-0.1,1.4,-0.5235987755982988,0.5235987755982988,0,0.16908197,0.42499307,1.0922667,0.48506874,0.70197153,0.4966981,0.38971657,1.8669935,-1.4900528,-1.1998857,-0.02885406,-0.17403261,1.0933955,0.4783566
-0.2,-0.1,1.4,-0.5235987755982988,0.5235987755982988,0,0.16718808,0.4271787,1.0927111,0.4849001,0.7022844,0.4974222,0.40092736,1.8659525,-1.4436355,-1.9165459,-0.011240296,-0.12229754,1.1452136,-0.44730788
-0.2,-0.1,1.4,-0.5235987755982988,0.5235987755982988,0,0.16801995,0.42710778,1.0936096,0.48507223,0.7026128,0.4976938,0.38767824,1.866867,-1.4554995,-1.3343008,-0.0136636365,-0.07173239,1.0389985,-0.093167685
-0.2,-0.1,1.4,-0.5235987755982988,0.5235987755982988,0,0.1685946,0.42407778,1.0927554,0.48540458,0.7025975,0.49817157,0.38900235,1.8663565,-1.4687238,-1.0450634,0.051599167,0.06309037,1.1776047,-0.5506439
-0.2,-0.1,1.4,-0.5235987755982988,0.5235987755982988,0,0.16839926,0.42188314,1.0920796,0.48589435,0.701661,0.49788707,0.3947508,1.865989,-1.4642699,-1.2062061,-0.03902684,-0.10369906,1.0336118,-0.47942317
-0.2,-0.1,1.4,-0.5235987755982988,0.5235987755982988,0,0.16775782,0.4231197,1.0929483,0.48568842,0.7029652,0.49795333,0.3923176,1.8664134,-1.4706256,-1.4846989,0.058150604,-0.054962907,1.1193792,0.3270366
-0.2,-0.1,1.4,-0.5235987755982988,0.5235987755982988,0,0.16699058,0.42285523,1.09333,0.48507956,0.7023501,0.49690187,0.39683786,1.8665726,-1.4756325,-1.6566755,-0.021201227,-0.039599363,1.067893,-1.7075875
-0.2,-0.1,1.4,-0.5235987755982988,0.5235987755982988,0,0.1687277,0.42160556,1.0921928,0.4849863,0.7020647,0.49756372,0.3968296,1.8662305,-1.4610194,-1.3505753,-0.01268984,0.24738978,1.1375687,0.4123472
-0.2,-0.1,1.4,-0.5235987755982988,0.5235987755982988,0,0.1687929,0.42217016,1.0922686,0.48511744,0.70380116,0.49817732,0.39208278,1.866815,-1.4502732,-1.3296012,-0.03789472,0.28876284,1.1206199,-0.033238232
-0.2,-0.1,1.4,-0.5235987755982988,0.5235987755982988,0,0.16840309,0.4193984,1.0921794,0.4859459,0.7061974,0.49755913,0.39423952,1.8668884,-1.4551177,-1.5332791,0.019382803,-0.37008306,1.0859532,0.91158926
-0.2,-0.1,1.4,-0.5235987755982988,0.5235987755982988,0,0.16836931,0.42274964,1.0932096,0.48547024,0.70383745,0.49806157,0.39565182,1.8669126,-1.4484837,-1.5410856,-0.015079702,0.0893519,0.937998,0.21578467
-0.2,-0.1,1.4,-0.5235987755982988,0.5235987755982988,0,0.16822605,0.42291248,1.0925708,0.48549825,0.70582366,0.49713567,0.4000327,1.8669504,-1.4549032,-1.806595,0.044896204,-0.19214456,1.114735,-1.2007983
-0.2,-0.1,1.4,-0.5235987755982988,0.5235987755982988,0,0.16779715,0.42315346,1.0918251,0.48511225,0.704096,0.49740413,0.3921904,1.8673725,-1.4537455,-1.1015041,0.022408329,-0.2694893,1.1232355,1.1959078
-0.2,-0.1,1.4,-0.5235987755982988,0.5235987755982988,0,0.16829525,0.42847818,1.092117,0.48576623,0.70326895,0.49780327,0.3967741,1.867172,-1.4651868,-1.7422901,-0.05703675,0.15175804,1.2263016,1.424781
-0.2,-0.1,1.4,-0.5235987755982988,0.5235987755982988,0,0.16830884,0.42260978,1.0918049,0.4855311,0.70323765,0.49903387,0.39367974,1.8661398,-1.465007,-1.6813583,0.0017562159,-0.014972503,1.165234,1.1772505
