sanky1234/BimanualDexCatch/isaacgymenvs/cem_results/football_pose_-0.2_-0.2_1.2999999999999998_0.0_0.0_0_2025-05-24.csv
x,y,z,roll,pitch,yaw,robot1/joint1,robot1/joint2,robot1/joint3,robot1/joint4,robot1/joint5,robot1/joint6,robot1/joint7,robot2/joint1,robot2/joint2,robot2/joint3,robot2/joint4,robot2/joint5,robot2/joint6,robot2/joint7
-0.2,-0.2,1.2999999999999998,0.0,0.0,0,-0.4518029,-1.2732192,0.19274907,-0.07533253,0.36207363,0.7447771,0.1634519,0.022007365,-1.1579953,-0.91984135,0.9164879,-1.0435995,0.24856855,-0.09037032
-0.2,-0.2,1.2999999999999998,0.0,0.0,0,-0.7691038,-1.3532356,-0.1822266,-0.2036776,-0.13826434,0.9260317,0.613892,0.021700185,-1.1578621,-0.91951126,0.91694915,-1.055744,0.25645727,0.012781513
-0.2,-0.2,1.2999999999999998,0.0,0.0,0,-0.5183947,-1.2231854,0.2763171,-0.3509016,-0.18183096,0.80979955,1.5128945,0.020138366,-1.1583544,-0.9199899,0.91777277,-1.0721065,0.25299156,-0.030774869
-0.2,-0.2,1.2999999999999998,0.0,0.0,0,1.7571232,-1.1977865,0.013735281,-0.49406016,-0.13497049,1.0245501,-1.3951328,0.02266493,-1.1578014,-0.91979724,0.9178518,-1.0452006,0.25137,-0.0062005296
-0.2,-0.2,1.2999999999999998,0.0,0.0,0,1.493384,-1.2781736,-0.7654712,0.109708466,0.27725714,0.81223065,0.42593792,0.024014309,-1.1579492,-0.91902417,0.91742057,-1.0438018,0.2613086,-0.062264938
-0.2,-0.2,1.2999999999999998,0.0,0.0,0,-1.1353501,-1.2510589,-0.00053181505,-0.5034943,0.2627777,0.7312442,0.10418474,0.021563135,-1.1576105,-0.9203925,0.9172168,-1.0782483,0.23971374,0.014787775
-0.2,-0.2,1.2999999999999998,0.0,0.0,0,-1.1186532,-1.1101955,-0.002769693,0.06804017,0.10426634,0.74074847,-0.4623326,0.022743398,-1.1580489,-0.9201377,0.91669154,-1.0504296,0.25844884,-0.0014478773
-0.2,-0.2,1.2999999999999998,0.0,0.0,0,-0.33245063,-1.2648507,-0.18419221,0.093795,-0.4732924,0.9900264,0.89467156,0.022022175,-1.1580595,-0.91983354,0.9166749,-1.0466273,0.2517473,0.054564286
-0.2,-0.2,1.2999999999999998,0.0,0.0,0,-0.02508702,-1.43633,0.11248671,0.1405512,-0.23051468,0.8165488,0.27651057,0.02422995,-1.158135,-0.91900295,0.91748756,-1.0894201,0.25629693,-0.004080104
-0.2,-0.2,1.2999999999999998,0.0,0.0,0,-1.2690201,-1.3589348,0.16495174,-0.47693688,-0.058728848,0.6637035,0.95407224,0.021580739,-1.1575716,-0.91950005,0.9173088,-1.0646539,0.2592987,-0.04780494
-0.2,-0.2,1.2999999999999998,0.0,0.0,0,-0.29164642,-1.1244109,-0.12539645,-0.4183389,-0.43711329,0.9673535,0.5581185,0.024443422,-1.1580489,-0.91969305,0.9171216,-1.0503073,0.25649136,0.019026212
-0.2,-0.2,1.2999999999999998,0.0,0.0,0,0.33721393,-1.2229214,-0.27341142,-0.03915489,-0.086799644,0.78016776,1.9694997,0.019617448,-1.1581098,-0.9196781,0.917543,-1.0773107,0.25133467,-0.04231566
-0.2,-0.2,1.2999999999999998,0.0,0.0,0,-1.0694813,-1.6357313,-0.19177823,-0.14961153,-0.2359965,0.8427002,-1.5533102,0.022041772,-1.1587297,-0.91974795,0.9177755,-1.0824608,0.2616127,-0.092481375
-0.2,-0.2,1.2999999999999998,0.0,0.0,0,0.5037776,-1.3051705,0.11201134,0.08440215,0.08065988,0.8377378,1.5532705,0.022005277,-1.1582689,-0.9200396,0.9179505,-1.0606625,0.25080284,-0.041521393
-0.2,-0.2,1.2999999999999998,0.0,0.0,0,-0.7442994,-1.5069813,-0.4787931,-0.099467754,0.10059117,0.91393536,0.15886767,0.020914905,-1.1581075,-0.9192476,0.9176041,-1.066566,0.2558371,0.020286513
-0.2,-0.2,1.2999999999999998,0.0,0.0,0,-0.12488494,-1.4107116,-0.32549205,0.12862533,-0.2753701,1.0050228,0.9889465,0.020538514,-1.1577245,-0.91831017,0.9173305,-1.0483361,0.2545144,-0.04804097
-0.2,-0.2,1.2999999999999998,0.0,0.0,0,0.017978774,-1.1492773,0.17330751,0.12150767,0.14672507,0.8279852,0.7195098,0.024526015,-1.1585377,-0.9198562,0.91659653,-1.0468707,0.2565488,-0.040254094
-0.2,-0.2,1.2999999999999998,0.0,0.0,0,-0.3982609,-1.076392,0.12133544,-0.09692382,-0.13483591,0.8381202,0.18017094,0.021053497,-1.1577604,-0.92080396,0.91755897,-1.0767077,0.2593346,-0.043498702
-0.2,-0.2,1.2999999999999998,0.0,0.0,0,-1.0463482,-1.5459616,-0.05311318,-0.35678017,-0.19586016,0.9613853,0.402181,0.022687746,-1.1581652,-0.9201419,0.9172421,-1.06773,0.2487566,-0.031321075
-0.2,-0.2,1.2999999999999998,0.0,0.0,0,-0.36547402,-1.2012029,0.66234875,-0.039228994,-0.24090947,0.523906,0.70667857,0.022929592,-1.157955,-0.92022294,0.917009,-1.0427914,0.25733617,-0.046154447
-0.2,-0.2,1.2999999999999998,0.0,0.0,0,-0.025966877,-1.322682,-0.30564877,0.07295323,-0.36815405,0.8627083,-0.19875962,0.023485007,-1.1583165,-0.92045563,0.91694653,-1.0789117,0.2622009,-0.022182904
-0.2,-0.2,1.2999999999999998,0.0,0.0,0,-2.09452,-1.4625467,-0.13081372,-0.14315294,-0.11478708,0.7961301,0.35535762,0.023225812,-1.1583425,-0.91979074,0.91725767,-1.0868089,0.25274292,-0.10268578
-0.2,-0.2,1.2999999999999998,0.0,0.0,0,-1.7190185,-1.3661878,-1.0157841,-0.13956125,-0.020836892,0.4036247,-0.005201581,0.020633075,-1.1584979,-0.91861254,0.9172055,-1.0847288,0.26340693,-0.01314989
-0.2,-0.2,1.2999999999999998,0.0,0.0,0,0.014686606,-1.2475952,0.31778914,0.40140158,0.051920157,0.6872401,-0.16129713,0.021276988,-1.1580867,-0.91907644,0.91684335,-1.0464494,0.24407344,-0.014406315
-0.2,-0.2,1.2999999999999998,0.0,0.0,0,0.4892333,-1.2196958,-0.498726,-0.09971582,0.24035753,0.92871636,-0.20377052,0.02281014,-1.1572843,-0.9190423,0.9180358,-1.0654283,0.24604283,-0.031300742
-0.2,-0.2,1.2999999999999998,0.0,0.0,0,0.16735773,-1.532556,0.04805696,-0.37908316,-0.059085667,0.9543322,0.32741904,0.023154944,-1.158027,-0.92116004,0.91719186,-1.0845073,0.25217652,-0.028458405
-0.2,-0.2,1.2999999999999998,0.0,0.0,0,-0.14244798,-1.4162031,-0.21375456,-0.13217467,-0.08965987,1.0445187,0.50730133,0.02509073,-1.1573925,-0.91905975,0.9164346,-1.0976524,0.26003757,0.01803911
-0.2,-0.2,1.2999999999999998,0.0,0.0,0,-0.6999824,-1.4102548,-0.29743335,0.15206097,-0.12293112,0.93972355,0.74060255,0.021946631,-1.1577624,-0.91897637,0.91765076,-1.0599501,0.25683272,-0.10128885
-0.2,-0.2,1.2999999999999998,0.0,0.0,0,-0.51691973,-1.5370717,-0.23370951,-0.3564309,-0.043837283,0.6336393,0.66538656,0.020643737,-1.1578814,-0.91991204,0.9176433,-1.057721,0.26016715,-0.030478599
-0.2,-0.2,1.2999999999999998,0.0,0.0,0,0.00065051316,-1.1823369,0.30381277,0.06833412,-0.2758941,0.6909272,-0.07542694,0.022762086,-1.1583127,-0.91918784,0.9180703,-1.0428714,0.25516963,-0.08975501
-0.2,-0.2,1.2999999999999998,0.0,0.0,0,0.5008689,-1.3795503,0.09675154,-0.25997016,0.4148574,0.85294425,0.059951033,0.022951907,-1.1576993,-0.91909134,0.91789305,-1.0838715,0.25291297,0.014521689
-0.2,-0.2,1.2999999999999998,0.0,0.0,0,0.4429962,-1.1949396,-0.22324914,0.11072136,-0.32772636,0.6288511,0.27183425,0.023620525,-1.1573758,-0.91882426,0.9169411,-1.0700417,0.25557557,-0.03538392
-0.2,-0.2,1.2999999999999998,0.0,0.0,0,-0.53617746,-1.0754586,0.4955435,-0.24814336,-0.011626536,1.1262603,1.180864,0.02183999,-1.1575552,-0.9190944,0.9172864,-1.0532626,0.25618085,-0.06933097
-0.2,-0.2,1.2999999999999998,0.0,0.0,0,-0.63185775,-1.2740918,-0.4432128,-0.2508778,0.029044883,0.77953804,0.6314921,0.025925145,-1.1573128,-0.9201403,0.91737235,-1.05574,0.2550773,-0.055844065
-0.2,-0.2,1.2999999999999998,0.0,0.0,0,-0.16668877,-1.2297746,-0.59986186,-0.02019643,0.010228643,0.70114684,0.09902192,0.022626348,-1.1584195,-0.9188401,0.9168667,-1.0755099,0.25870755,-0.029735886
-0.2,-0.2,1.2999999999999998,0.0,0.0,0,0.7753166,-1.154937,-0.10961698,0.0005934604,-0.21933357,0.7562402,-0.13441686,0.020764794,-1.1588514,-0.9196195,0.91700006,-1.0917493,0.26023883,-0.018490337
-0.2,-0.2,1.2999999999999998,0.0,0.0,0,-0.5692308,-0.891384,-0.22517462,0.22799149,0.11703821,0.86420906,0.14266528,0.021893445,-1.1577901,-0.9209461,0.9174706,-1.0675219,0.25983846,0.0051230034
-0.2,-0.2,1.2999999999999998,0.0,0.0,0,-1.6647826,-1.0089096,0.45085755,0.34707198,0.35866377,0.7983277,0.79435873,0.023689764,-1.1579529,-0.9192888,0.9180126,-1.0511495,0.25256515,-0.04295436
-0.2,-0.2,1.2999999999999998,0.0,0.0,0,0.2113147,-1.4887264,-0.2584535,-0.35355633,0.19876866,0.7488299,0.30411065,0.024770387,-1.1584864,-0.91915965,0.91752976,-1.0524461,0.25720632,-0.1119745
-0.2,-0.2,1.2999999999999998,0.0,0.0,0,0.32951257,-1.2617763,-0.5873027,-0.14319928,-0.20740776,0.77098083,0.35109633,0.02027479,-1.157983,-0.92115843,0.91659653,-1.076052,0.2555567,-0.033467058
-0.2,-0.2,1.2999999999999998,0.0,0.0,0,0.6741021,-1.2282114,-0.45549393,-0.3550456,-0.08963397,1.1855179,0.5937899,0.021408271,-1.1585426,-0.91935414,0.918408,-1.0537882,0.25682753,-0.029148133
-0.2,-0.2,1.2999999999999998,0.0,0.0,0,1.0671657,-0.9789217,-0.24070346,0.04749056,0.15914476,0.59989184,0.59681726,0.024065278,-1.1583083,-0.91897196,0.91718245,-1.0752822,0.24998723,-0.055849895
-0.2,-0.2,1.2999999999999998,0.0,0.0,0,0.042705264,-1.2259009,-0.095747076,0.0422711,0.40713564,0.53644806,0.82749677,0.021787079,-1.1581304,-0.9204377,0.9168935,-1.0988276,0.25292146,-0.029552286
-0.2,-0.2,1.2999999999999998,0.0,0.0,0,-1.7115802,-1.0814393,-0.832151,-0.010397068,-0.12015876,1.0112331,0.8112358,0.023320679,-1.1582913,-0.91952723,0.9176411,-1.0583668,0.2524475,-0.03347513
-0.2,-0.2,1.2999999999999998,0.0,0.0,0,-0.31759623,-1.1084428,-0.0687621,0.00789252,0.3535256,1.06419,0.24550344,0.022612568,-1.1575985,-0.9191168,0.9176324,-1.0900934,0.25190377,-0.042275988
-0.2,-0.2,1.2999999999999998,0.0,0.0,0,-0.55018544,-1.417599,-0.11774676,-0.23668696,-0.09419917,0.8339812,0.09286726,0.023594422,-1.1576204,-0.91917676,0.91707593,-1.065397,0.24947852,-0.07076108
-0.2,-0.2,1.2999999999999998,0.0,0.0,0,-0.56710047,-1.3892721,0.0867501,0.0065035583,0.16367386,0.8694211,0.8346063,0.023546644,-1.15768,-0.9203507,0.91728175,-1.090243,0.26028463,-0.04174205
-0.2,-0.2,1.2999999999999998,0.0,0.0,0,-0.4329302,-1.2243326,-0.20376098,0.249566,-0.15939322,0.79021966,-0.31265903,0.021726318,-1.1579547,-0.91972446,0.91764265,-1.0750265,0.25705796,0.027039945
-0.2,-0.2,1.2999999999999998,0.0,0.0,0,-1.5080771,-1.3466357,-0.5457463,0.22421862,0.012791979,0.83986574,1.2303793,0.020715997,-1.1581634,-0.9197413,0.91650724,-1.0776753,0.25225693,-0.0032830918
-0.2,-0.2,1.2999999999999998,0.0,0.0,0,-2.2101295,-1.1542449,-0.14530888,0.4490414,-0.24848548,0.80788714,0.632964,0.021382801,-1.1584114,-0.92002535,0.9171121,-1.073831,0.24484669,0.0077199703
-0.2,-0.2,1.2999999999999998,0.0,0.0,0,-2.0601506,-1.4590815,-0.1306175,-0.25660288,-0.048791897,0.9558874,0.6350845,0.020927075,-1.1575645,-0.9198063,0.9171486,-1.0367241,0.24817811,-0.03712547
-0.2,-0.2,1.2999999999999998,0.0,0.0,0,-1.8566952,-1.1304438,-0.035837926,0.20963056,-0.025324171,0.721596,-0.33040193,0.023898676,-1.1574591,-0.9193507,0.917298,-1.0607246,0.25516054,-0.05280864
-0.2,-0.2,1.2999999999999998,0.0,0.0,0,0.2447449,-1.2104362,-0.72731334,-0.23259686,-0.040869012,0.5425087,0.7533946,0.021174597,-1.1582069,-0.92026466,0.9182804,-1.0916053,0.24780266,-0.022415671
-0.2,-0.2,1.2999999999999998,0.0,0.0,0,-0.36899668,-1.3769413,0.4038033,0.02015997,-0.31484056,0.7521871,-0.67051584,0.022572618,-1.1583384,-0.9190365,0.9175658,-1.0737711,0.25255048,-0.050418336
-0.2,-0.2,1.2999999999999998,0.0,0.0,0,0.1281508,-1.2941363,0.17059886,0.32190922,0.022734514,0.77510786,-0.6834826,0.021016631,-1.1577929,-0.92020756,0.9175227,-1.0365475,0.25365052,-0.024355287
-0.2,-0.2,1.2999999999999998,0.0,0.0,0,-0.68359584,-1.4313732,-0.14104468,-0.14729612,0.312917,0.8636939,0.71053207,0.023124518,-1.1575834,-0.9198168,0.9172434,-1.0585097,0.2509359,0.0010506337
-0.2,-0.2,1.2999999999999998,0.0,0.0,0,-0.33740908,-1.2821804,0.40997574,-0.26055205,-0.2530698,0.8407983,0.44291806,0.02201387,-1.1575742,-0.91903394,0.9169049,-1.0241247,0.25333023,-0.014427083
-0.2,-0.2,1.2999999999999998,0.0,0.0,0,-1.0311884,-1.1853936,0.28794363,-0.15123212,-0.48175004,0.83255374,-0.03739132,0.021642124,-1.1581525,-0.9192684,0.9167937,-1.0406654,0.25616652,-0.014658409
-0.2,-0.2,1.2999999999999998,0.0,0.0,0,-1.4896084,-1.465074,-0.24450055,0.22622871,0.3297499,0.9369494,-0.26090568,0.021336788,-1.1579372,-0.91937923,0.91747624,-1.0815618,0.2534337,-0.021907404
-0.2,-0.2,1.2999999999999998,0.0,0.0,0,-0.13761877,-1.1588125,-0.0058117043,0.22070342,-0.059642136,0.4665063,1.3845556,0.021682344,-1.1578827,-0.91874576,0.91695523,-1.0592133,0.25834578,-0.022217436
-0.2,-0.2,1.2999999999999998,0.0,0.0,0,-0.20534842,-1.5732243,-0.041036256,-0.3374448,-0.3429446,0.5867152,0.22387448,0.021983156,-1.1578727,-0.9202857,0.91806835,-1.0288363,0.25478077,-0.0441722
-0.2,-0.2,1.2999999999999998,0.0,0.0,0,0.70674807,-1.3929316,0.23079158,-0.14922696,-0.3038597,0.84777915,-1.5023252,0.021815928,-1.1575664,-0.9193189,0.9174228,-1.08306,0.2546292,-0.003401559
-0.2,-0.2,1.2999999999999998,0.0,0.0,0,-0.52047515,-0.8011192,0.09872496,-0.29839924,0.19825254,0.9647668,0.66615885,0.021054171,-1.1577393,-0.91942215,0.91746265,-1.0901414,0.2578843,-0.011940739
-0.2,-0.2,1.2999999999999998,0.0,0.0,0,-0.87277853,-1.2877061,-0.16073179,-0.25551125,-0.27097863,0.7066072,1.7986729,0.022806907,-1.157879,-0.91979253,0.91756266,-1.0287772,0.2583659,-0.020714248
-0.2,-0.2,1.2999999999999998,0.0,0.0,0,0.02200414,-1.3225701,0.43650308,-0.1391431,0.32318056,0.76714903,-0.5713931,0.022711733,-1.1580793,-0.9198033,0.91815555,-1.0741676,0.25852188,-0.042815555
-0.2,-0.2,1.2999999999999998,0.0,0.0,0,-0.36800778,-1.3521427,-0.11477715,-0.45639482,0.05329958,0.94228965,0.49356422,0.021618979,-1.1582088,-0.9193159,0.91730803,-1.0646659,0.2500768,-0.102948114
-0.2,-0.2,1.2999999999999998,0.0,0.0,0,-1.0509746,-1.3487399,-0.17062545,0.18390104,0.004051909,0.9184534,0.5002715,0.023460386,-1.157333,-0.9196159,0.91691077,-1.0769736,0.25270912,-0.013095477
-0.2,-0.2,1.2999999999999998,0.0,0.0,0,-0.5236227,-1.1793929,0.6154816,-0.0765524,-0.64084005,0.7034157,1.3523185,0.021867473,-1.1573434,-0.9187029,0.9169797,-1.0504619,0.25057468,-0.09028503
-0.2,-0.2,1.2999999999999998,0.0,0.0,0,0.5018134,-1.2293372,0.048483305,-0.06191749,-0.09995579,0.74046403,0.21039946,0.023095243,-1.1575354,-0.9204937,0.918061,-1.0268353,0.25944534,-0.07544501
-0.2,-0.2,1.2999999999999998,0.0,0.0,0,1.541546,-1.3281438,-0.00658121,-0.19722237,0.14505915,0.6119455,0.045655563,0.021451868,-1.1579598,-0.92054594,0.9177653,-1.1023597,0.2532703,-0.026551588
-0.2,-0.2,1.2999999999999998,0.0,0.0,0,-0.51745474,-1.4729601,-0.14714555,0.2989096,-0.30631495,0.81072605,0.4887782,0.020886553,-1.1577324,-0.9193539,0.9175622,-1.0647849,0.25664738,0.0026914997
-0.2,-0.2,1.2999999999999998,0.0,0.0,0,-1.7243241,-1.5181006,-0.059770647,0.36841083,0.024080161,0.78628993,0.24480516,0.020626282,-1.1578892,-0.91943824,0.91740286,-1.0541776,0.25725365,-0.025556894
-0.2,-0.2,1.2999999999999998,0.0,0.0,0,0.5543745,-1.2037293,-0.023756245,0.04328687,-0.072870776,0.92967045,-0.019111093,0.020478802,-1.1576092,-0.91932017,0.91807306,-1.0425663,0.25093982,-0.09909362
-0.2,-0.2,1.2999999999999998,0.0,0.0,0,-0.7770777,-1.1953676,0.022780024,0.17843771,0.15960085,0.7071628,0.63656604,0.02045029,-1.1571289,-0.9201322,0.9173419,-1.0934551,0.25244638,-0.009349941
-0.2,-0.2,1.2999999999999998,0.0,0.0,0,-0.009855067,-1.2595267,-0.20036733,0.27428117,0.16360532,0.84363776,0.034999415,0.020598901,-1.1576349,-0.919283,0.9171107,-1.0410318,0.25495368,-0.09155783
-0.2,-0.2,1.2999999999999998,0.0,0.0,0,-0.5051179,-1.3228714,0.4606053,0.05747514,-0.19736807,0.7614644,0.4469907,0.024202988,-1.1578863,-0.92003775,0.91814107,-1.0400728,0.24698721,-0.041861188
-0.2,-0.2,1.2999999999999998,0.0,0.0,0,-1.0596429,-1.0623814,0.0032220238,0.04881139,-0.35229334,0.80847394,0.9406946,0.019893974,-1.1580688,-0.91986763,0.9171557,-1.0687469,0.26336363,-0.07065366
-0.2,-0.2,1.2999999999999998,0.0,0.0,0,0.41183555,-1.2280587,-0.16191657,-0.37650144,0.22303678,0.8615137,1.9129803,0.023401225,-1.1581216,-0.9193029,0.9171761,-1.0786552,0.26555508,-0.003406602
-0.2,-0.2,1.2999999999999998,0.0,0.0,0,-0.20946586,-1.5126415,-0.00860516,-0.19598639,-0.32088125,1.0181105,0.727851,0.020631587,-1.1586372,-0.9195234,0.9174995,-1.0872346,0.26311874,-0.04670658
-0.2,-0.2,1.2999999999999998,0.0,0.0,0,0.61854154,-1.0698198,-0.3053535,0.17787082,0.10321347,1.0180814,1.262583,0.02262331,-1.1572813,-0.91995215,0.9164173,-1.0351025,0.25442564,-0.05815317
-0.2,-0.2,1.2999999999999998,0.0,0.0,0,-0.65014136,-1.4392844,0.035001308,-0.18321332,-0.21410947,0.87858826,0.37016115,0.02450828,-1.1578352,-0.9200262,0.9171215,-1.060481,0.2471069,-0.08293287
-0.2,-0.2,1.2999999999999998,0.0,0.0,0,0.3730896,-1.2940371,-0.34293243,-0.3345058,0.06744038,1.0777684,-0.44287053,0.020685323,-1.1579762,-0.9200172,0.91686016,-1.0596124,0.24970847,-0.007203641
-0.2,-0.2,1.2999999999999998,0.0,0.0,0,0.11766664,-1.2516485,0.19754285,0.0059123626,0.103794,0.8676686,0.42353442,0.022864524,-1.1579671,-0.9185317,0.91730434,-1.0676736,0.26235032,-0.0025309317
-0.2,-0.2,1.2999999999999998,0.0,0.0,0,1.0023665,-1.4079713,0.18703881,-0.009608618,-0.16551171,0.93857753,0.5406489,0.020661471,-1.1574888,-0.919103,0.917403,-1.0863085,0.24799353,-0.017883813
-0.2,-0.2,1.2999999999999998,0.0,0.0,0,-0.26132274,-1.2137945,-1.1806479,0.43482435,-0.056305658,0.91713804,0.7614239,0.025555419,-1.1591414,-0.9196886,0.9170095,-1.0496858,0.25324282,-0.01746261
-0.2,-0.2,1.2999999999999998,0.0,0.0,0,1.2822902,-1.2524697,-0.1810773,-0.29331937,0.3021868,0.67758334,0.7932715,0.02304291,-1.1580385,-0.91910154,0.9174976,-1.0907786,0.24786124,-0.07044918
-0.2,-0.2,1.2999999999999998,0.0,0.0,0,-0.6545859,-1.332842,-0.30207473,-0.36911306,0.14496967,0.76694685,0.44312018,0.02269588,-1.1578548,-0.91954744,0.9172107,-1.0433598,0.25742278,0.01863432
-0.2,-0.2,1.2999999999999998,0.0,0.0,0,-0.71601766,-1.114996,-0.43912715,0.29238442,-0.13464133,0.93896,0.2364284,0.021973142,-1.1574638,-0.9191812,0.9165671,-1.0358281,0.24983254,-0.007373535
-0.2,-0.2,1.2999999999999998,0.0,0.0,0,-1.9252893,-1.7290049,0.19402938,-0.19821194,0.0016046022,1.0388632,-0.24085128,0.021878652,-1.157817,-0.9184652,0.9176902,-1.0298471,0.25386694,-0.030111667
-0.2,-0.2,1.2999999999999998,0.0,0.0,0,-1.5646151,-0.98362267,-0.03453199,0.3176388,0.24541588,0.8052898,-0.43102795,0.021316912,-1.1586696,-0.9186209,0.91731364,-1.0667573,0.25754753,-0.036141735
-0.2,-0.2,1.2999999999999998,0.0,0.0,0,-1.1323363,-1.2443184,-0.56694806,-0.24818715,0.08430166,0.6874723,0.44877687,0.02067747,-1.1574668,-0.92010117,0.91843104,-1.056151,0.25387856,0.004684684
-0.2,-0.2,1.2999999999999998,0.0,0.0,0,-0.62895924,-1.2979819,-0.023683943,-0.059797708,-0.14513887,0.50705874,-0.041291986,0.021186396,-1.1576039,-0.91891575,0.91721827,-1.0517104,0.2636551,0.044046525
-0.2,-0.2,1.2999999999999998,0.0,0.0,0,-1.237551,-1.2946979,0.28675666,-0.0170874,-0.059678018,0.59516495,1.0640919,0.020986358,-1.158565,-0.9203653,0.9171992,-1.0476959,0.24763536,0.018997613
-0.2,-0.2,1.2999999999999998,0.0,0.0,0,-1.1584439,-1.2745969,-0.6368165,0.19359294,0.17934322,0.91877115,1.0848058,0.022817736,-1.1578509,-0.9202142,0.91717327,-1.0791303,0.26063675,-0.057777107
-0.2,-0.2,1.2999999999999998,0.0,0.0,0,-0.52363884,-1.4562945,0.26253158,-0.026544813,-0.029798357,1.0471609,0.69104064,0.021675322,-1.1576207,-0.91860396,0.91799504,-1.0373117,0.25202957,-0.053403378
-0.2,-0.2,1.2999999999999998,0.0,0.0,0,-0.7343542,-1.2942044,0.19590741,-0.36153656,0.26405126,0.84755254,0.7003407,0.02097569,-1.1582977,-0.9195927,0.91754204,-1.0883894,0.25443983,-0.025518036
-0.2,-0.2,1.2999999999999998,0.0,0.0,0,0.5551941,-1.2012197,-0.13177244,0.27839506,0.12823245,0.93410724,0.94444996,0.02362459,-1.1578966,-0.91944635,0.9177441,-1.0689415,0.25332427,-0.08958071
-0.2,-0.2,1.2999999999999998,0.0,0.0,0,-0.545872,-1.4668207,0.22961427,-0.18063065,0.1602997,1.0270408,0.62383425,0.025630161,-1.158857,-0.92000157,0.9171493,-1.0615163,0.25943097,-0.047560554
-0.2,-0.2,1.2999999999999998,0.0,0.0,0,-0.71710885,-1.2114103,-0.49286202,-0.0115142865,0.13234144,0.9068727,-0.99249667,0.022494644,-1.1580424,-0.9201314,0.91699266,-1.1015534,0.24815686,-0.031358838
-0.2,-0.2,1.2999999999999998,0.0,0.0,0,0.059239347,-1.1401356,-0.059975475,-0.083739586,-0.23662226,0.9077077,1.4042642,0.021266297,-1.1579316,-0.91997015,0.9172193,-1.0708201,0.25050634,-0.058431514
-0.2,-0.2,1.2999999999999998,0.0,0.0,0,0.06075637,-1.3130187,0.10435641,0.0035072565,0.023507427,0.753026,0.7389193,0.021191219,-1.1578737,-0.91981936,0.91756,-1.0934211,0.2516395,-0.0439629
-0.2,-0.2,1.2999999999999998,0.0,0.0,0,0.6905107,-1.2894117,-0.028877113,-0.39350942,-0.019824237,0.6737456,0.14978586,0.022314604,-1.1579975,-0.9186823,0.91680956,-1.059396,0.25713977,-0.069602296
-0.2,-0.2,1.2999999999999998,0.0,0.0,0,-1.2476022,-1.3403351,0.012158547,0.15831673,-0.13123512,0.97483575,1.4767673,0.022016017,-1.1579552,-0.91964936,0.9172197,-1.0472633,0.24853775,-0.06257136
-0.2,-0.2,1.2999999999999998,0.0,0.0,0,-0.09435634,-1.0671147,-0.16213605,-0.34747118,-0.18848877,0.79666406,0.085630365,0.021422291,-1.1577296,-0.9205722,0.9169521,-1.0521902,0.25455552,-0.0494892
-0.2,-0.2,1.2999999999999998,0.0,0.0,0,-2.1028478,-1.3692855,-0.44827437,-0.10735981,-0.24457185,0.80765754,1.0935761,0.021096578,-1.1588855,-0.9190403,0.916925,-1.0367769,0.26298356,-0.054090165
-0.2,-0.2,1.2999999999999998,0.0,0.0,0,-0.9496285,-1.2467663,0.3714835,-0.18378289,-0.004171527,0.51392615,2.4741776,0.02277796,-1.1577392,-0.92107314,0.9176503,-1.0763726,0.2497255,-0.11786433
-0.2,-0.2,1.2999999999999998,0.0,0.0,0,0.036166314,-1.1606202,-0.26447633,-0.055815693,-0.30218875,0.6043589,1.043282,0.024560839,-1.1581609,-0.9190586,0.9171141,-1.0673903,0.2544474,0.03140551
-0.2,-0.2,1.2999999999999998,0.0,0.0,0,0.59393233,-1.2768288,-0.15573026,-0.016002176,-0.18774524,0.9517862,0.44367388,0.023123879,-1.1584427,-0.9212578,0.9181138,-1.0497081,0.2534735,-0.0035487665
-0.2,-0.2,1.2999999999999998,0.0,0.0,0,-0.3417834,-1.2765217,0.01894989,-0.13758811,0.15907407,0.75547886,0.7688775,0.02188265,-1.1582972,-0.9182123,0.9174138,-1.0803303,0.25184655,-0.058419038
-0.2,-0.2,1.2999999999999998,0.0,0.0,0,0.9556188,-1.2252347,0.16382083,-0.21770756,-0.12663844,0.87878335,0.6904144,0.021626456,-1.1581267,-0.9184967,0.9168521,-1.0283651,0.254291,-0.063791454
-0.2,-0.2,1.2999999999999998,0.0,0.0,0,-1.0159141,-1.4496502,-0.12825352,0.48806652,0.010520043,0.8328045,-0.13840209,0.021036725,-1.1576962,-0.9193947,0.9171308,-1.0638248,0.26578417,-0.04614815
-0.2,-0.2,1.2999999999999998,0.0,0.0,0,-0.57284653,-1.3606206,-0.57300055,-0.27203447,-0.19454381,0.99478364,0.7336091,0.023881136,-1.1571307,-0.9201411,0.91715115,-1.0773176,0.24661937,-0.03832798
-0.2,-0.2,1.2999999999999998,0.0,0.0,0,-0.6650148,-1.4736937,-0.21813105,-0.050526164,-0.38259965,0.7482494,-0.05802627,0.022828134,-1.1580569,-0.9196486,0.91703683,-1.0803144,0.258391,-0.0476111
-0.2,-0.2,1.2999999999999998,0.0,0.0,0,-1.8934916,-1.2751483,-0.4598673,0.2139024,-0.18791674,0.7177436,-0.38254702,0.02102122,-1.1579262,-0.9204018,0.91657585,-1.0882132,0.25739774,-0.022905445
-0.2,-0.2,1.2999999999999998,0.0,0.0,0,-0.64194506,-1.3748784,0.02242317,-0.22998223,-0.45458576,0.84903526,0.5417591,0.023724651,-1.1587677,-0.91986406,0.91770464,-1.0768927,0.26187983,-0.06111489
-0.2,-0.2,1.2999999999999998,0.0,0.0,0,1.431368,-1.1175058,-0.26300326,0.03861506,0.42367274,0.7795321,1.3340844,0.023320034,-1.1578244,-0.9191983,0.91715455,-1.0742848,0.25964102,-0.018346645
-0.2,-0.2,1.2999999999999998,0.0,0.0,0,0.22348776,-1.2750969,0.013143814,-0.20931825,-0.16284257,0.9059822,-0.8977133,0.022674708,-1.1574683,-0.9197562,0.9163002,-1.068675,0.25052643,-0.017920658
-0.2,-0.2,1.2999999999999998,0.0,0.0,0,-0.6575822,-0.9109109,0.28103662,0.21485054,-0.084984556,0.8720113,1.0376445,0.024890488,-1.158261,-0.9187499,0.91705066,-1.0683653,0.2525004,-0.05327993
-0.2,-0.2,1.2999999999999998,0.0,0.0,0,-1.6034807,-1.3907743,-0.78261566,-0.08854978,-0.4741318,0.8182971,0.03338667,0.022269035,-1.1578007,-0.9199068,0.9170388,-1.0813485,0.26029727,-0.12956221
-0.2,-0.2,1.2999999999999998,0.0,0.0,0,1.3956643,-1.1974243,-0.41781566,0.0022713833,-0.024192452,0.77365094,0.18119286,0.020555926,-1.1584979,-0.9198937,0.91797954,-1.0536226,0.24834932,-0.004051583
-0.2,-0.2,1.2999999999999998,0.0,0.0,0,-0.5258564,-1.3844261,0.20531364,-0.036385372,-0.22381642,0.8317209,0.10427787,0.023194874,-1.1582599,-0.9199131,0.9171777,-1.1061217,0.25891587,-0.050968327
-0.2,-0.2,1.2999999999999998,0.0,0.0,0,0.24441983,-1.3282317,-0.10032856,0.19112687,0.18878895,0.858424,0.7041414,0.021603892,-1.1584228,-0.92046714,0.9166878,-1.0394325,0.256766,0.03149199
-0.2,-0.2,1.2999999999999998,0.0,0.0,0,-0.4959308,-0.9842241,-0.13019893,-0.1296056,0.17445822,0.66472435,0.44442642,0.02277729,-1.1574895,-0.9190852,0.9169309,-1.053514,0.25181505,-0.004474781
-0.2,-0.2,1.2999999999999998,0.0,0.0,0,-0.43630594,-1.2005233,-0.34477267,-0.17855361,-0.2587421,0.8008284,-0.2987355,0.022379296,-1.1579839,-0.91968393,0.9176084,-1.0613741,0.2642355,-0.09458297
-0.2,-0.2,1.2999999999999998,0.0,0.0,0,0.5415414,-1.4476731,-0.52387464,-0.008303648,-0.012324725,1.2297447,1.3989002,0.02175621,-1.1575234,-0.918543,0.91685945,-1.0445033,0.2601257,-0.010656259
-0.2,-0.2,1.2999999999999998,0.0,0.0,0,-0.3415827,-1.2502822,-0.51671183,-0.119422354,0.0188265,0.6529847,0.697185,0.025690967,-1.1580057,-0.9190654,0.91854745,-1.0654742,0.25533706,-0.040731337
-0.2,-0.2,1.2999999999999998,0.0,0.0,0,0.75228673,-1.2112595,0.5251267,-0.104051776,-0.5656933,0.4765833,0.5931892,0.022983965,-1.1581525,-0.9193678,0.91707957,-1.0451461,0.25508374,0.03687633
-0.2,-0.2,1.2999999999999998,0.0,0.0,0,-1.5424452,-1.1650392,-0.14525461,-0.058730915,0.13122082,0.91336817,0.7525164,0.021120021,-1.15768,-0.9212062,0.9174877,-1.1101545,0.2518802,-0.009523214
-0.2,-0.2,1.2999999999999998,0.0,0.0,0,-0.22008528,-1.1072335,-0.21387447,0.015702583,0.16605626,0.7054132,1.0546125,0.022338537,-1.1582439,-0.9198637,0.91795325,-1.0565586,0.25300285,0.031826783
-0.2,-0.2,1.2999999999999998,0.0,0.0,0,0.49887288,-1.5239459,-0.10579227,0.3373049,0.008187614,0.8757278,1.863392,0.02331317,-1.1576532,-0.9193328,0.917287,-1.0454311,0.26192877,-0.050145168
-0.2,-0.2,1.2999999999999998,0.0,0.0,0,-0.6591629,-1.229072,-0.010416895,0.4549164,0.03757559,0.72692674,-0.6603633,0.024335073,-1.1577226,-0.9201503,0.91729254,-1.051559,0.25475666,0.021475065
-0.2,-0.2,1.2999999999999998,0.0,0.0,0,0.37496623,-1.4204074,-0.0927638,-0.34816733,-0.059857104,0.8139137,1.3030692,0.02122048,-1.1584374,-0.9203039,0.91700125,-1.0584894,0.2549393,-0.07496651
-0.2,-0.2,1.2999999999999998,0.0,0.0,0,-0.54788905,-1.3821352,-0.45894575,-0.3717122,0.034868684,0.9412039,0.5561351,0.021395782,-1.1580626,-0.919157,0.9169808,-1.1148099,0.24917224,-0.018871713
-0.2,-0.2,1.2999999999999998,0.0,0.0,0,-0.7764044,-1.3214426,0.20803733,-0.029418893,0.033502813,0.85173404,0.96589977,0.021926027,-1.1579915,-0.9206144,0.9180838,-1.077066,0.25413078,-0.04063427
-0.2,-0.2,1.2999999999999998,0.0,0.0,0,-0.90986854,-1.1717784,0.15157303,0.01110115,0.0075370986,0.6805487,-1.196694,0.021228109,-1.1578431,-0.9191435,0.91702944,-1.0690763,0.25312144,0.0036949713
-0.2,-0.2,1.2999999999999998,0.0,0.0,0,-2.2173967,-1.1546712,-0.2764547,-0.024884189,-0.13250862,0.7841996,0.24641082,0.021190718,-1.1576107,-0.91947556,0.91770595,-1.0886644,0.2547387,-0.06937204
-0.2,-0.2,1.2999999999999998,0.0,0.0,0,-0.6187777,-1.497552,0.37391785,0.03809249,-0.14172122,0.9228254,-0.4365288,0.020590356,-1.1579695,-0.9192506,0.9181727,-1.0719671,0.25733396,-0.103198946
-0.2,-0.2,1.2999999999999998,0.0,0.0,0,-1.7128253,-1.2774348,-0.1884996,0.020133616,0.21347243,0.9197309,0.23112914,0.022084838,-1.158096,-0.91855735,0.91783834,-1.0537081,0.25053662,-0.025633937
-0.2,-0.2,1.2999999999999998,0.0,0.0,0,-0.90589076,-1.2883897,-0.69368464,-0.18853201,-0.06429323,0.75903386,1.0181278,0.021722067,-1.1580435,-0.92031246,0.91715646,-1.0618812,0.25669146,-0.038224928
-0.2,-0.2,1.2999999999999998,0.0,0.0,0,-0.027151205,-1.5150489,-0.45121947,-0.13588491,0.19451256,0.93805486,-0.31192654,0.02306273,-1.158034,-0.9193199,0.9172457,-1.0632149,0.25805473,-0.009910944
-0.2,-0.2,1.2999999999999998,0.0,0.0,0,-0.7573718,-1.0734748,-0.14604458,0.3887069,0.27095702,0.8952292,1.1082569,0.02180922,-1.1580647,-0.9197151,0.91663194,-1.0654976,0.25382516,-0.009761113
-0.2,-0.2,1.2999999999999998,0.0,0.0,0,-0.13787967,-1.362883,-0.92078227,-0.010165614,-0.20034498,0.8695805,0.5576457,0.02246833,-1.1576041,-0.91938525,0.9166179,-1.0778878,0.25853062,-0.057574622
-0.2,-0.2,1.2999999999999998,0.0,0.0,0,-0.6011352,-1.4767848,-0.60084796,-0.16434029,-0.13542962,0.830713,1.6969383,0.021957599,-1.1581384,-0.9197174,0.9171706,-1.076198,0.26623708,-0.021316959
-0.2,-0.2,1.2999999999999998,0.0,0.0,0,-0.15813032,-1.2130804,0.52465695,-0.44070393,0.05133217,0.77963954,0.5926364,0.022527657,-1.1577934,-0.9188361,0.91677165,-1.066211,0.25316575,-0.10149767
-0.2,-0.2,1.2999999999999998,0.0,0.0,0,0.44362357,-1.0654203,0.16132626,-0.13790317,0.04811184,0.970276,2.0259078,0.022334523,-1.1574855,-0.9199918,0.9168658,-1.0593448,0.2628843,-0.094156064
-0.2,-0.2,1.2999999999999998,0.0,0.0,0,-1.1679584,-1.4355135,-0.13647489,0.1703095,0.04956774,0.85753536,0.59302074,0.022891901,-1.1578696,-0.9187124,0.91727656,-1.0930874,0.2589048,-0.038237695
-0.2,-0.2,1.2999999999999998,0.0,0.0,0,0.19730733,-1.1087161,0.2449358,-0.4512798,-0.03163249,0.8413435,-0.40663326,0.020746494,-1.1580603,-0.91988724,0.91703993,-1.0908053,0.25566635,-0.028385848
-0.2,-0.2,1.2999999999999998,0.0,0.0,0,-1.2156394,-1.2799733,-0.07126492,-0.31680185,-0.14259012,0.7804688,0.9041315,0.020931238,-1.1584691,-0.9182892,0.9178951,-1.0860083,0.25753263,-0.000372746
-0.2,-0.2,1.2999999999999998,0.0,0.0,0,-0.45890045,-1.3057196,0.20326938,-0.032928698,0.028216667,0.68228555,-0.31418425,0.02236351,-1.1587456,-0.920128,0.91695106,-1.0773585,0.25468147,-0.018593213
-0.2,-0.2,1.2999999999999998,0.0,0.0,0,-0.4389851,-1.531407,0.47785336,0.050300844,0.10993459,0.9332871,1.361087,0.022492092,-1.1587259,-0.92025083,0.9176418,-1.0327736,0.2526787,-0.041952804
-0.2,-0.2,1.2999999999999998,0.0,0.0,0,0.37291354,-1.4721885,-0.07589545,-0.17729743,0.028030332,0.89973605,0.962561,0.023023158,-1.1575214,-0.9185843,0.91634667,-1.0750937,0.25795352,-0.03358872
-0.2,-0.2,1.2999999999999998,0.0,0.0,0,0.21954836,-1.1379982,-0.30800858,0.16373351,-0.2061758,0.96516615,0.6601705,0.021524962,-1.1579567,-0.91941404,0.9173783,-1.0603915,0.2633716,-0.08946084
-0.2,-0.2,1.2999999999999998,0.0,0.0,0,0.06533199,-1.1430053,-0.48422456,0.017048039,-0.039366394,1.025733,-0.062457174,0.021687046,-1.1580337,-0.9192068,0.91794956,-1.0569223,0.2542708,-0.04006638
-0.2,-0.2,1.2999999999999998,0.0,0.0,0,0.39537606,-1.2852267,0.27829203,0.14461932,-0.0015241909,0.87933546,0.53575885,0.021073608,-1.1583382,-0.9198991,0.9171041,-1.0662321,0.2589755,-0.026544165
-0.2,-0.2,1.2999999999999998,0.0,0.0,0,0.27644148,-1.2979926,-0.5017792,0.066290975,-0.25104064,0.87244326,0.939191,0.024045624,-1.157839,-0.9204534,0.91760075,-1.0671135,0.25175926,-0.030353162
-0.2,-0.2,1.2999999999999998,0.0,0.0,0,-0.64783615,-1.4137156,0.059699643,0.45750412,-6.992137e-05,0.49542284,0.54964715,0.02177028,-1.1579431,-0.91895944,0.9171292,-1.0452505,0.2516192,-0.03958106
-0.2,-0.2,1.2999999999999998,0.0,0.0,0,1.361032,-1.4629792,0.25096366,0.061771724,-0.058107506,0.96429807,1.0782852,0.022179384,-1.1579758,-0.91968286,0.91721976,-1.1188877,0.25762504,-0.035349555
-0.2,-0.2,1.2999999999999998,0.0,0.0,0,0.29484388,-1.2828819,-0.23034564,-0.29886672,-0.23075707,0.6421905,0.4018992,0.022623803,-1.1578296,-0.92018414,0.91702586,-1.0517805,0.258926,-0.05214767
-0.2,-0.2,1.2999999999999998,0.0,0.0,0,-0.77681655,-1.2939098,-0.10982737,-0.11515471,-0.11156884,0.6400914,0.35540584,0.02135013,-1.1572878,-0.9196113,0.917768,-1.0557742,0.2660415,0.013122916
-0.2,-0.2,1.2999999999999998,0.0,0.0,0,-2.0498104,-1.2971567,-0.040323116,-0.3017661,-0.20850044,0.76335967,1.2409171,0.023968376,-1.1586175,-0.921911,0.91730464,-1.070185,0.25425708,-0.017028945
-0.2,-0.2,1.2999999999999998,0.0,0.0,0,-0.7995433,-1.2724605,0.6091075,0.13893868,-0.017548077,0.84544957,-0.8688938,0.0240879,-1.1577288,-0.91846913,0.9171651,-1.0565238,0.24951403,-0.03493908
-0.2,-0.2,1.2999999999999998,0.0,0.0,0,-0.21172258,-1.356531,-0.58755505,0.05104493,-0.11369264,0.7131905,0.6561157,0.020655021,-1.1587626,-0.9189292,0.91741097,-1.0831261,0.26021713,-0.022235047
-0.2,-0.2,1.2999999999999998,0.0,0.0,0,-0.82345194,-1.3418775,0.16921197,-0.21595247,-0.07002438,0.72846925,0.7178383,0.021152042,-1.1577058,-0.919488,0.9174136,-1.0863948,0.25965133,-0.056157228
-0.2,-0.2,1.2999999999999998,0.0,0.0,0,-1.5465596,-1.2249715,0.31261018,0.18674837,-0.09026765,0.7807322,0.4093674,0.021126568,-1.1577125,-0.91938394,0.9170114,-1.096535,0.24980316,-0.009397954
-0.2,-0.2,1.2999999999999998,0.0,0.0,0,-0.9411423,-1.0733473,-0.48333454,0.27289027,-0.14343666,0.74564946,0.40236306,0.023108216,-1.1587051,-0.9197561,0.917363,-1.0516614,0.2575999,-0.0117564555
-0.2,-0.2,1.2999999999999998,0.0,0.0,0,0.13394931,-1.3529748,-0.030918075,0.39166507,0.1928049,0.6020354,-0.32010296,0.020010015,-1.1574703,-0.9199473,0.9178227,-1.103557,0.25403053,-0.03244689
-0.2,-0.2,1.2999999999999998,0.0,0.0,0,-0.7965636,-1.482689,0.2452296,0.1001513,0.13222842,0.9727484,0.944668,0.023113105,-1.1577797,-0.91976583,0.91720915,-1.0365148,0.26578623,0.037597757
-0.2,-0.2,1.2999999999999998,0.0,0.0,0,-0.17199628,-1.4428787,-0.94416684,-0.26135498,-0.15220094,0.7421147,0.044721663,0.020905105,-1.1579496,-0.9193942,0.9169631,-1.0667031,0.24885517,-0.051843278
-0.2,-0.2,1.2999999999999998,0.0,0.0,0,-0.16098402,-1.1955699,-0.51552045,0.04645417,0.22671609,0.7596469,0.3806692,0.019771948,-1.1582153,-0.9196663,0.9173706,-1.0900406,0.25955448,-0.033247277
-0.2,-0.2,1.2999999999999998,0.0,0.0,0,-0.82008713,-1.2726777,0.17647126,-0.30434418,-0.08915132,0.79885805,0.37936142,0.021439541,-1.1581767,-0.91877574,0.91694623,-1.0504925,0.25259274,-0.068938196
-0.2,-0.2,1.2999999999999998,0.0,0.0,0,0.2986159,-1.1132299,-0.6416085,-0.30923897,-0.1661902,0.85478896,0.5549462,0.020548351,-1.1580089,-0.91945285,0.9174969,-1.104019,0.2564002,-0.0310149
-0.2,-0.2,1.2999999999999998,0.0,0.0,0,-1.9228375,-1.5307342,0.44993058,-0.076808736,0.07298071,0.85506433,0.81461525,0.022754647,-1.1581815,-0.9185612,0.91679704,-1.0592457,0.24899994,-0.025736624
-0.2,-0.2,1.2999999999999998,0.0,0.0,0,-1.074852,-1.3144807,-0.120389424,0.18382105,-0.0069621047,0.63926363,1.4232783,0.024576643,-1.158294,-0.91928005,0.91808563,-1.0795735,0.25955677,0.019415537
-0.2,-0.2,1.2999999999999998,0.0,0.0,0,-0.05613899,-1.5249937,0.27167222,-0.06443743,-0.0054786447,0.8044951,0.41115215,0.022214212,-1.1582155,-0.91944194,0.9179838,-1.0657717,0.252552,-0.056080468
-0.2,-0.2,1.2999999999999998,0.0,0.0,0,-0.3272814,-1.2862651,-0.23958361,0.5551375,-0.11558978,0.59405184,-0.4554714,0.021975,-1.1581795,-0.9207486,0.9174892,-1.0995641,0.2502358,-0.06296647
-0.2,-0.2,1.2999999999999998,0.0,0.0,0,-0.04056191,-1.2896614,-0.35067374,0.077265546,0.15538242,0.5204023,1.1666495,0.023246156,-1.1580834,-0.9202523,0.9165237,-1.0396609,0.2557935,-0.077079855
-0.2,-0.2,1.2999999999999998,0.0,0.0,0,-0.004996459,-1.3156219,-0.25185674,-0.22421417,-0.40403873,0.7939809,0.8671294,0.019983122,-1.1580017,-0.919301,0.9170127,-1.0789798,0.2579403,-0.0847466
-0.2,-0.2,1.2999999999999998,0.0,0.0,0,-0.946288,-1.4383376,-0.004331126,-0.18402502,-0.30020168,0.8972927,0.4610877,0.021410037,-1.1581825,-0.92021257,0.9174955,-1.0425036,0.26361296,-0.032399807
-0.2,-0.2,1.2999999999999998,0.0,0.0,0,0.9526444,-1.2518375,-0.08215858,0.09663809,0.11061077,0.7670564,0.9329077,0.021669842,-1.1581892,-0.9194941,0.91729337,-1.0523356,0.26089877,-0.022131847
-0.2,-0.2,1.2999999999999998,0.0,0.0,0,-0.28450322,-1.3632095,0.5508224,0.06069576,-0.24287039,0.8304794,0.37835142,0.02366327,-1.1576719,-0.91955,0.9177829,-1.0740056,0.2641997,-0.027885618
-0.2,-0.2,1.2999999999999998,0.0,0.0,0,0.7863139,-1.2291907,0.47056323,-0.08185512,0.011554264,0.8660347,-0.24211116,0.021678345,-1.1579903,-0.91953427,0.9172875,-1.0879097,0.26106864,-0.039671708
-0.2,-0.2,1.2999999999999998,0.0,0.0,0,0.9251967,-1.1354647,-0.30699444,-0.24977133,-0.49527374,0.8141819,1.8248067,0.022421148,-1.1586524,-0.9187482,0.917131,-1.085078,0.2512096,-0.055956792
-0.2,-0.2,1.2999999999999998,0.0,0.0,0,-0.34716013,-1.282246,0.23436284,-0.26926816,-0.27661744,1.0042686,-0.5933926,0.0218823,-1.158107,-0.9192076,0.91743046,-1.0671192,0.26134798,-0.048495565
-0.2,-0.2,1.2999999999999998,0.0,0.0,0,-1.0556161,-1.4266498,0.7328945,-0.17386357,-0.051968638,0.88237447,0.3274522,0.023999946,-1.1575929,-0.9201084,0.9174403,-1.1027375,0.25355116,-0.052128375
-0.2,-0.2,1.2999999999999998,0.0,0.0,0,-0.94560903,-1.4151376,0.072914414,0.2430544,-0.048046235,0.9510368,0.24729946,0.023023365,-1.1579307,-0.91882735,0.9166244,-1.0723472,0.26068288,-0.11504474
-0.2,-0.2,1.2999999999999998,0.0,0.0,0,-2.420205,-1.2351365,0.19632335,-0.23129255,0.21524923,0.7687659,0.114139944,0.021952188,-1.1583375,-0.91891766,0.9167367,-1.0432937,0.25034767,-0.011546254
-0.2,-0.2,1.2999999999999998,0.0,0.0,0,-0.19759911,-1.3021107,-0.2383753,0.064480506,0.06885786,0.83448464,0.29962265,0.022393115,-1.1575439,-0.9200417,0.9169675,-1.0529925,0.25113267,-0.022454027
-0.2,-0.2,1.2999999999999998,0.0,0.0,0,0.22306329,-1.3836473,-0.4280984,0.015629891,-0.027254065,0.9465939,0.7484409,0.022034613,-1.1579652,-0.91967475,0.91691107,-1.0607145,0.2520286,-0.096802585
-0.2,-0.2,1.2999999999999998,0.0,0.0,0,-1.1409755,-1.357713,0.09287488,0.12868768,0.0022648792,0.8031996,0.47235113,0.0186317,-1.1577598,-0.9186154,0.9171401,-1.062346,0.25137326,0.0022162013
-0.2,-0.2,1.2999999999999998,0.0,0.0,0,-1.7740443,-1.527418,-0.012119391,-0.18804438,0.087960936,0.8902618,0.4153084,0.02315574,-1.1584883,-0.9195252,0.9172729,-1.0967879,0.25755566,-0.026642254
-0.2,-0.2,1.2999999999999998,0.0,0.0,0,-0.26191902,-1.3025728,-0.17107706,-0.3185352,-0.18065576,0.7999377,1.2069868,0.019674994,-1.1581513,-0.9189983,0.9173277,-1.0645262,0.25534275,-0.036415644
-0.2,-0.2,1.2999999999999998,0.0,0.0,0,1.3380203,-1.2275226,0.19342573,-0.07511091,0.4455451,0.91436654,-0.2575266,0.023270031,-1.1579685,-0.92028254,0.91752005,-1.0727502,0.24770555,-0.052128945
-0.2,-0.2,1.2999999999999998,0.0,0.0,0,-1.2180345,-1.1130326,0.050156865,-0.18393122,-0.39384663,0.99976,-0.38327613,0.020263636,-1.1581156,-0.9189874,0.91764396,-1.08905,0.24515328,0.010540061
-0.2,-0.2,1.2999999999999998,0.0,0.0,0,-0.22490425,-1.6182497,0.033392414,-0.038097285,-0.038620863,0.94662356,-0.036411382,0.02170033,-1.1582768,-0.9197547,0.91752034,-1.0702798,0.25723872,-0.04205871
-0.2,-0.2,1.2999999999999998,0.0,0.0,0,-0.22633046,-1.5231135,-0.16693254,0.035545748,-0.045258753,0.61832166,0.41835466,0.021220976,-1.1575117,-0.9188725,0.91695875,-1.0549693,0.24905963,-0.05710866
-0.2,-0.2,1.2999999999999998,0.0,0.0,0,0.006645952,-1.2833549,-0.45981798,-0.19304638,-0.6073933,0.93540215,0.23548749,0.020546194,-1.1584255,-0.91974515,0.9174183,-1.0833058,0.25610897,-0.036290485
-0.2,-0.2,1.2999999999999998,0.0,0.0,0,-1.5745988,-1.5264069,-0.68842775,-0.60789794,-0.2511502,0.7839678,1.6715684,0.021557465,-1.1581144,-0.92003936,0.9174944,-1.0531813,0.26013103,0.0072343536
-0.2,-0.2,1.2999999999999998,0.0,0.0,0,-1.3568506,-1.1567265,-0.369011,0.20767954,-0.07548834,0.76654214,-0.8064056,0.022521932,-1.1582853,-0.920726,0.91669524,-1.0828375,0.24945728,-0.11331653
-0.2,-0.2,1.2999999999999998,0.0,0.0,0,-0.9773789,-1.0935977,-0.27010438,-0.057783768,-0.059803586,0.77451056,0.8348385,0.021513632,-1.1583232,-0.91985613,0.9176482,-1.0543275,0.25435808,-0.06852301
-0.2,-0.2,1.2999999999999998,0.0,0.0,0,-2.2881231,-1.4664459,-0.295931,-0.061150923,-0.4210981,0.8799923,-0.98392224,0.02296074,-1.1577312,-0.91961646,0.9173947,-1.0573088,0.2556595,-0.0887599
-0.2,-0.2,1.2999999999999998,0.0,0.0,0,0.79637444,-1.6334213,-0.6052325,-0.083291866,-0.014759896,0.6066422,0.040676948,0.022054097,-1.1574706,-0.91967505,0.9172034,-1.067708,0.25381267,0.0012701908
-0.2,-0.2,1.2999999999999998,0.0,0.0,0,0.3288922,-1.2116449,-0.68904424,0.004904139,0.08846303,0.79526454,-0.53340954,0.022521365,-1.1583854,-0.9188617,0.9176574,-1.0664632,0.2667068,-0.104602166
-0.2,-0.2,1.2999999999999998,0.0,0.0,0,0.11254075,-1.5808215,0.22003531,-0.20129938,0.3584781,0.72008944,1.225206,0.022289503,-1.1584883,-0.9198136,0.91718006,-1.0676081,0.25490496,0.038238097
-0.2,-0.2,1.2999999999999998,0.0,0.0,0,0.22804558,-1.4257027,-0.14657497,0.226332,-0.16617832,0.7088875,1.2232656,0.019972015,-1.1576581,-0.9196315,0.9180691,-1.0833641,0.258111,-0.004339883
-0.2,-0.2,1.2999999999999998,0.0,0.0,0,-0.15463549,-1.1739603,-0.5531668,-0.14178011,0.1671799,0.6024152,1.5598773,0.022266502,-1.158113,-0.9194498,0.91750365,-1.0240293,0.2507556,0.0129385395
-0.2,-0.2,1.2999999999999998,0.0,0.0,0,-0.66821045,-0.96265984,-0.123073936,0.06519358,-0.26582798,0.54837555,0.92208993,0.02208401,-1.1580712,-0.9189097,0.916686,-1.056455,0.25334758,0.006312115
-0.2,-0.2,1.2999999999999998,0.0,0.0,0,-1.7428411,-1.3317723,0.279795,-0.3392005,-0.2348426,0.87821597,0.52532196,0.02229532,-1.1579487,-0.91890985,0.9167449,-1.0436996,0.26125467,-0.057623867
-0.2,-0.2,1.2999999999999998,0.0,0.0,0,0.7551262,-1.2841265,0.62536514,0.10854234,-0.1866458,0.8407507,1.5522969,0.023481803,-1.1584586,-0.92024064,0.9165894,-1.0722337,0.2554935,-0.09446372
-0.2,-0.2,1.2999999999999998,0.0,0.0,0,-2.178872,-1.362864,-0.30589753,-0.54887396,0.059236575,0.9314683,0.09721089,0.02505012,-1.158024,-0.92022556,0.9168944,-1.0667177,0.25910503,-0.006437758
-0.2,-0.2,1.2999999999999998,0.0,0.0,0,-0.19871603,-1.238179,-0.45436472,-0.020590726,0.035905514,0.9060679,2.0524354,0.02504176,-1.1575947,-0.9201794,0.9172681,-1.0753953,0.2538497,-0.062014937
-0.2,-0.2,1.2999999999999998,0.0,0.0,0,-0.69611925,-1.289073,-1.0425454,0.22150443,-0.065246366,0.66823316,-0.07010776,0.02178159,-1.1583244,-0.9196548,0.91718835,-1.0892618,0.24607848,0.02920525
-0.2,-0.2,1.2999999999999998,0.0,0.0,0,0.0587295,-1.261314,-0.29500437,-0.17826192,-0.15937345,0.67539847,0.812644,0.02213195,-1.1582985,-0.9190603,0.9176713,-1.0248861,0.26588893,0.008907622
-0.2,-0.2,1.2999999999999998,0.0,0.0,0,-0.09792982,-1.4536979,-0.1616941,-0.02367211,0.11946927,0.74926907,1.3982036,0.020277483,-1.1579002,-0.91985774,0.91693014,-1.0716932,0.25645497,-0.057959173
-0.2,-0.2,1.2999999999999998,0.0,0.0,0,0.6939621,-1.09364,0.0844063,-0.10823039,0.02627674,0.85175425,1.1534365,0.021919107,-1.1585203,-0.9200876,0.91732347,-1.0678781,0.2594418,0.011500316
-0.2,-0.2,1.2999999999999998,0.0,0.0,0,0.15369478,-1.1359257,-0.43117887,-0.038663153,-0.29424414,0.74054503,-0.37550536,0.021858223,-1.1581826,-0.9192081,0.9166578,-1.0667533,0.26142222,-0.09602171
-0.2,-0.2,1.2999999999999998,0.0,0.0,0,-0.48691785,-1.4177884,-0.043491326,-0.225274,0.23447394,0.8535543,1.3478713,0.02164501,-1.1579211,-0.9196206,0.9166705,-1.0554811,0.25518593,0.053248722
-0.2,-0.2,1.2999999999999998,0.0,0.0,0,-0.1998349,-1.2977899,0.44797406,0.18572076,0.1262168,0.93533957,0.8339038,0.023240618,-1.1585947,-0.9197528,0.91782546,-1.0696073,0.26135746,0.017632362
-0.2,-0.2,1.2999999999999998,0.0,0.0,0,1.2323207,-1.2883854,0.08569451,0.041818038,0.1137435,0.82614774,-0.66033643,0.019913271,-1.1578307,-0.9209224,0.91743404,-1.0546623,0.25481325,-0.031364076
-0.2,-0.2,1.2999999999999998,0.0,0.0,0,-0.03485869,-1.3292912,-0.24615043,-0.23834324,-0.04020391,1.1585957,-0.6963512,0.019754848,-1.1580284,-0.9200527,0.91668695,-1.0400683,0.2566874,0.023660034
-0.2,-0.2,1.2999999999999998,0.0,0.0,0,-0.23601551,-1.5399839,-0.05769413,0.19952384,-0.23395407,0.8076086,0.9269941,0.022876881,-1.1582834,-0.9201996,0.91773707,-1.0819052,0.26574826,0.002050002
-0.2,-0.2,1.2999999999999998,0.0,0.0,0,-0.8077529,-1.3261889,0.008608471,-0.29169893,0.10598353,1.1304727,-0.44692475,0.022382537,-1.1580083,-0.919649,0.91707313,-1.0839797,0.25274295,-0.08671954
-0.2,-0.2,1.2999999999999998,0.0,0.0,0,1.7894489,-1.1917859,-0.07493584,-0.46532023,0.035559,0.9021783,0.98711133,0.022480672,-1.1573021,-0.91931564,0.91757804,-1.0553697,0.25190845,-0.0448275
-0.2,-0.2,1.2999999999999998,0.0,0.0,0,-0.42974466,-1.1305082,-0.22006023,-0.045179244,0.10685329,0.9506078,-0.24553046,0.022329854,-1.1581247,-0.9193507,0.9169889,-1.059654,0.254538,-0.082385205
-0.2,-0.2,1.2999999999999998,0.0,0.0,0,-0.7131546,-1.352344,-0.4669605,0.24509072,-0.024132347,1.0883667,1.1555582,0.022951627,-1.1578106,-0.9195195,0.9172332,-1.064825,0.25887138,-0.016463006
-0.2,-0.2,1.2999999999999998,0.0,0.0,0,-0.31539178,-0.8162934,-0.010694915,-0.1261045,-0.35291097,0.5342768,1.226382,0.022836674,-1.1588614,-0.919433,0.9163018,-1.0531818,0.24783035,-0.001700499
-0.2,-0.2,1.2999999999999998,0.0,0.0,0,-2.3295844,-0.9835584,-0.22180232,-0.033580583,-0.5798805,0.82141566,0.544341,0.021115499,-1.1583505,-0.9198728,0.9169925,-1.0719615,0.2646424,-0.052723218
-0.2,-0.2,1.2999999999999998,0.0,0.0,0,0.40382212,-1.3695996,0.24938083,0.36457375,0.015477327,0.5601845,0.93229187,0.024309197,-1.1578329,-0.9212686,0.9166328,-1.0863411,0.2520737,-0.008066802
-0.2,-0.2,1.2999999999999998,0.0,0.0,0,-1.5638028,-1.2489171,-0.2356883,0.015023146,0.06914735,0.6347395,0.47877365,0.022351384,-1.1584479,-0.9205107,0.9172135,-1.0953504,0.24624087,-0.02042876
-0.2,-0.2,1.2999999999999998,0.0,0.0,0,-0.15566872,-1.1976488,-0.529259,-0.4242055,-0.5110104,0.8397911,-0.38331813,0.020085836,-1.1579133,-0.9207151,0.91675925,-1.0665829,0.2534182,0.026887847
-0.2,-0.2,1.2999999999999998,0.0,0.0,0,0.31963077,-1.3462256,-0.39064902,0.27205583,0.04337575,0.70599043,0.6950884,0.022689171,-1.1584272,-0.9207331,0.91721064,-1.0680642,0.25206766,-0.07347725
-0.2,-0.2,1.2999999999999998,0.0,0.0,0,-0.9749428,-1.4279636,-0.32487273,-0.029882893,0.087764256,0.8498493,-0.6812007,0.024219476,-1.1579977,-0.9204269,0.91656727,-1.0960675,0.25828665,-0.088828534
-0.2,-0.2,1.2999999999999998,0.0,0.0,0,-0.98722243,-1.2854341,0.73439735,0.2175876,0.13391195,0.6826059,0.97666866,0.018323816,-1.1572224,-0.91839725,0.91741,-1.0485035,0.2514828,0.09623417
-0.2,-0.2,1.2999999999999998,0.0,0.0,0,-0.06524357,-1.101306,-0.171763,-0.2948322,-0.19155669,0.74265075,2.4235673,0.023334254,-1.1584444,-0.9203628,0.9168577,-1.0809441,0.2525467,-0.06590051
-0.2,-0.2,1.2999999999999998,0.0,0.0,0,-0.7785224,-1.1598146,-0.31017452,0.1697316,0.08388024,0.71458733,0.89319974,0.023706073,-1.1587912,-0.92035854,0.91704154,-1.0753556,0.25377202,0.0004948533
-0.2,-0.2,1.2999999999999998,0.0,0.0,0,-1.5887594,-1.3161806,-0.024954593,-0.12243731,0.07957934,0.6743346,0.8207703,0.022382494,-1.1583347,-0.920562,0.9171623,-1.0737289,0.25460687,-0.09810656
-0.2,-0.2,1.2999999999999998,0.0,0.0,0,-1.0489116,-1.3325671,-0.52091885,0.30554554,-0.29601082,0.86620224,1.8452739,0.021661125,-1.1578653,-0.92073923,0.916011,-1.0635326,0.24949636,0.029253772
-0.2,-0.2,1.2999999999999998,0.0,0.0,0,-1.0425947,-1.1353735,-0.08734508,-0.08180042,0.28420445,0.81866544,0.6572659,0.024660802,-1.1570339,-0.921123,0.9165493,-1.0738477,0.25734612,-0.048001144
-0.2,-0.2,1.2999999999999998,0.0,0.0,0,-1.1753346,-1.548628,-0.0043484783,-0.42399257,-0.36176318,0.74040705,0.94956094,0.023464317,-1.1580476,-0.92057395,0.9160283,-1.0452718,0.2582018,-0.09113363
-0.2,-0.2,1.2999999999999998,0.0,0.0,0,-0.058590777,-1.3009573,-0.3987192,-0.19731389,-0.09648,0.8693666,-0.49739972,0.021042284,-1.1575943,-0.92151946,0.917257,-1.0656512,0.25626296,0.02246381
-0.2,-0.2,1.2999999999999998,0.0,0.0,0,0.29267856,-1.0153024,-0.3048923,0.1123995,0.3117594,0.9482573,0.1981502,0.021646153,-1.1584367,-0.919441,0.9166137,-1.0718237,0.25385812,-0.029231777
-0.2,-0.2,1.2999999999999998,0.0,0.0,0,-2.3508973,-1.3672911,-0.13045968,-0.35284445,0.022915177,0.90842193,0.993932,0.022745948,-1.157862,-0.9202049,0.9164163,-1.0815854,0.25573754,-0.072576776
-0.2,-0.2,1.2999999999999998,0.0,0.0,0,-1.8108658,-1.2689339,-0.557341,-0.19035105,-0.34851986,0.6322944,0.8890992,0.021058084,-1.1579256,-0.9203129,0.9161774,-1.0580953,0.2521214,-0.03053264
-0.2,-0.2,1.2999999999999998,0.0,0.0,0,1.8143483,-1.0922682,-0.0036167593,-0.008812975,-0.18977968,0.6438394,-0.15692666,0.02170069,-1.1585662,-0.9191457,0.91631377,-1.0717251,0.2566751,-0.017615438
-0.2,-0.2,1.2999999999999998,0.0,0.0,0,-0.61702704,-1.1924323,0.47385398,-0.17648216,-0.51525474,1.0032483,0.090319514,0.02209508,-1.1585243,-0.92079544,0.9167617,-1.0364044,0.25649622,-0.04720384
-0.2,-0.2,1.2999999999999998,0.0,0.0,0,0.07949824,-1.3640587,0.034225,-0.22822206,0.04897336,0.7733922,-0.30444363,0.020655956,-1.158425,-0.9208766,0.91797525,-1.0457299,0.26124308,0.0054244096
-0.2,-0.2,1.2999999999999998,0.0,0.0,0,-0.54688066,-1.3811326,-0.23818175,-0.3000565,-0.27489004,0.8247865,0.76348263,0.02448734,-1.1579834,-0.9197587,0.9170442,-1.0821083,0.24520397,0.0035923019
-0.2,-0.2,1.2999999999999998,0.0,0.0,0,0.77401197,-1.4351773,-0.39114046,-0.2620673,0.14330804,0.56799555,-0.1597577,0.021372177,-1.1580027,-0.9201129,0.916721,-1.0894806,0.26203614,-0.004004548
-0.2,-0.2,1.2999999999999998,0.0,0.0,0,-0.78876626,-1.3056293,-0.34425375,-0.6497413,0.12938562,0.85974663,-0.017121142,0.020065434,-1.1573195,-0.9184902,0.91689587,-1.0974238,0.26292652,-0.014669533
-0.2,-0.2,1.2999999999999998,0.0,0.0,0,0.46890903,-1.0439595,0.2858913,-0.054079834,-0.10369191,0.6993259,0.9645821,0.022417894,-1.1584263,-0.9201232,0.9168797,-1.0747693,0.24486257,-0.01466308
-0.2,-0.2,1.2999999999999998,0.0,0.0,0,-0.47693437,-1.3902721,-0.426234,-0.18471235,0.045737054,0.727254,-0.43135306,0.019488446,-1.15821,-0.91985035,0.9172768,-1.0398082,0.2569578,-0.017853977
-0.2,-0.2,1.2999999999999998,0.0,0.0,0,-1.0282657,-1.4861648,-0.43837902,0.09949537,-0.5380803,0.62544435,-0.05772207,0.022079598,-1.1582518,-0.92031944,0.91835535,-1.0748922,0.2598024,-0.054421168
-0.2,-0.2,1.2999999999999998,0.0,0.0,0,0.13760298,-1.5620749,0.6138201,-0.22482647,0.03204907,0.60844475,1.389967,0.021088533,-1.1576283,-0.91909647,0.91749644,-1.0826818,0.2586162,-0.03788357
-0.2,-0.2,1.2999999999999998,0.0,0.0,0,-0.42321682,-1.2217518,-0.6561708,0.24688184,0.03582516,0.9929931,0.70899224,0.019455213,-1.1579297,-0.9189154,0.9168058,-1.0640727,0.2535498,0.0008348119
-0.2,-0.2,1.2999999999999998,0.0,0.0,0,-0.7375136,-1.3829957,0.36699185,0.20135544,0.16441263,0.8860027,-0.038364634,0.021350095,-1.1580995,-0.920153,0.9169922,-1.0604653,0.2539675,-0.029524291
-0.2,-0.2,1.2999999999999998,0.0,0.0,0,-0.13163233,-1.1487124,-0.84524,-0.09024177,0.005422393,0.83388174,-0.7215501,0.02033264,-1.1580459,-0.9189427,0.9180584,-1.0949371,0.26473442,-0.049535554
-0.2,-0.2,1.2999999999999998,0.0,0.0,0,-0.42333108,-1.275652,0.3582479,-0.23538539,-0.27592865,0.9321314,0.59703016,0.022034885,-1.1585518,-0.9203074,0.9173416,-1.076529,0.2516596,-0.021836301
