sanky1234/BimanualDexCatch/isaacgymenvs/cem_results/football_pose_0.0_0.0_1.4_0.0_0.5235987755982988_0_2025-05-26.csv
x,y,z,roll,pitch,yaw,robot1/joint1,robot1/joint2,robot1/joint3,robot1/joint4,robot1/joint5,robot1/joint6,robot1/joint7,robot2/joint1,robot2/joint2,robot2/joint3,robot2/joint4,robot2/joint5,robot2/joint6,robot2/joint7
0.0,0.0,1.4,0.0,0.5235987755982988,0,-0.31945482,-1.0315893,0.77312744,0.028242392,-0.008673173,1.086249,-0.20082018,0.18375507,1.2689092,-0.008891965,-0.05615854,0.07537405,1.262687,-0.035304613
0.0,0.0,1.4,0.0,0.5235987755982988,0,-0.31931975,-1.0317267,0.77289784,0.029714204,0.058340468,1.0831276,-1.4772193,0.24364422,1.2871376,0.026997328,-0.0719723,-0.023720082,1.2629389,-1.8968002
0.0,0.0,1.4,0.0,0.5235987755982988,0,-0.3192596,-1.0316522,0.7706154,0.03774329,-0.030917317,1.0679864,-2.772907,0.23295237,1.2760541,0.01781301,-0.08108077,0.009579394,1.2887585,-0.8340961
0.0,0.0,1.4,0.0,0.5235987755982988,0,-0.3193452,-1.0315772,0.7737891,0.015656104,0.013588478,1.090177,-1.4834814,0.21748653,1.2495424,0.021375062,-0.075188994,0.058349412,1.2678773,0.57464314
0.0,0.0,1.4,0.0,0.5235987755982988,0,-0.31923875,-1.0315846,0.77225333,0.036457967,0.024425825,1.067895,1.8934505,0.20712629,1.2760192,-0.02957254,-0.06911258,0.041980635,1.2274854,-0.6360148
0.0,0.0,1.4,0.0,0.5235987755982988,0,-0.31917882,-1.0317019,0.77127457,0.02969168,0.056305572,1.0811199,-0.2846901,0.22102754,1.2447774,-0.046232563,-0.07917867,-0.012090117,1.2587675,-0.1959832
0.0,0.0,1.4,0.0,0.5235987755982988,0,-0.31945637,-1.031559,0.772824,0.03061126,0.05924673,1.0842379,-1.0126592,0.22657293,1.2906033,0.07678804,-0.077641636,-0.03826844,1.2939217,-0.6484607
0.0,0.0,1.4,0.0,0.5235987755982988,0,-0.31933936,-1.031546,0.773125,0.022266988,-0.015652306,1.1034775,-0.9558044,0.30835825,1.2882425,-0.115148954,-0.082762025,-0.018565105,1.2563794,-0.23245324
0.0,0.0,1.4,0.0,0.5235987755982988,0,-0.3192811,-1.0316867,0.7697507,0.02005048,0.022739593,1.1000824,1.2338804,0.23411046,1.2479005,-0.011740544,-0.08299913,-0.069041036,1.2924391,-0.33137527
0.0,0.0,1.4,0.0,0.5235987755982988,0,-0.31930646,-1.0315689,0.7724818,0.027992627,-0.00842795,1.0511779,-0.035430286,0.2609204,1.2729841,0.043470677,-0.073600076,-0.015188944,1.2922212,-1.0879201
0.0,0.0,1.4,0.0,0.5235987755982988,0,-0.3192805,-1.0315379,0.7730442,0.030772394,-0.010785481,1.0753858,-0.17923312,0.2276003,1.2762156,-0.02626437,-0.07237203,-0.02843763,1.2880896,0.8777619
0.0,0.0,1.4,0.0,0.5235987755982988,0,-0.31932217,-1.0315766,0.7705074,0.018215818,0.016433394,1.0928907,0.32265404,0.21810493,1.2810384,0.03336627,-0.09403188,-0.05439605,1.2718982,-0.7616672
0.0,0.0,1.4,0.0,0.5235987755982988,0,-0.31934562,-1.0316218,0.7731994,0.02397488,-0.019424649,1.0755312,-1.2425016,0.20914738,1.261805,0.018477239,-0.073877946,-0.04296881,1.2586687,-1.4432287
0.0,0.0,1.4,0.0,0.5235987755982988,0,-0.31933174,-1.0315455,0.7739817,0.022006508,0.03924472,1.0603795,-1.2911391,0.23356187,1.2607319,-0.008669742,-0.09682349,-0.03494865,1.2614151,0.5895533
0.0,0.0,1.4,0.0,0.5235987755982988,0,-0.31939226,-1.0317367,0.77158284,0.028291155,-0.009901235,1.0835134,0.24976483,0.261761,1.2582923,0.031068936,-0.07718427,0.012674302,1.2581661,-0.5982028
0.0,0.0,1.4,0.0,0.5235987755982988,0,-0.31928104,-1.0315711,0.7733243,0.02241469,-0.04840057,1.0992697,0.0677642,0.18909118,1.2767165,0.017635074,-0.07773179,-0.07009785,1.2807577,0.21848746
0.0,0.0,1.4,0.0,0.5235987755982988,0,-0.31934717,-1.0316572,0.77189714,0.043108787,-0.073854946,1.0724285,0.56564826,0.23802675,1.2763685,-0.032599334,-0.088979356,-0.06658643,1.2646904,-1.0732936
0.0,0.0,1.4,0.0,0.5235987755982988,0,-0.31920353,-1.0315852,0.7720796,0.024495821,-0.007664573,1.0530314,0.23249927,0.21097647,1.2696705,-0.046216708,-0.08627099,0.03717213,1.2726568,0.0034259586
0.0,0.0,1.4,0.0,0.5235987755982988,0,-0.3194622,-1.0315825,0.7733125,0.036914725,0.032897558,1.0783794,-0.09972017,0.22846243,1.2612897,0.026240248,-0.09288357,-0.016919125,1.2531376,-0.61533743
0.0,0.0,1.4,0.0,0.5235987755982988,0,-0.31929195,-1.031679,0.7719681,0.03633557,0.08318278,1.0603822,0.44995782,0.18451488,1.2875577,-0.007611914,-0.06369918,0.02056968,1.2601604,0.25091368
0.0,0.0,1.4,0.0,0.5235987755982988,0,-0.31916127,-1.0315813,0.77240956,0.032187287,-0.012612198,1.0568241,-0.6358046,0.2094099,1.2681252,-0.040369235,-0.07539882,0.07217207,1.2797436,-0.54090893
0.0,0.0,1.4,0.0,0.5235987755982988,0,-0.31916142,-1.0315399,0.7732823,0.025713338,0.025027335,1.0800694,-0.39960074,0.17955558,1.2886997,-0.028883288,-0.065605186,0.028518692,1.2422947,-0.103402756
0.0,0.0,1.4,0.0,0.5235987755982988,0,-0.3193577,-1.0315264,0.77406186,0.024891427,0.11825251,1.0766753,0.80000037,0.25105956,1.2671002,0.017458636,-0.073467694,0.05563956,1.2547665,0.3074795
0.0,0.0,1.4,0.0,0.5235987755982988,0,-0.31923503,-1.031663,0.7716802,0.028827885,-0.037088312,1.059308,0.41464967,0.2709627,1.2374808,0.028132271,-0.07731265,0.035166483,1.2913266,0.18362992
0.0,0.0,1.4,0.0,0.5235987755982988,0,-0.31926858,-1.0315056,0.7733219,0.022134041,-0.0102265775,1.0863557,-1.9517585,0.21601929,1.2762204,-0.04050086,-0.07618054,0.019921586,1.2846303,0.19390173
0.0,0.0,1.4,0.0,0.5235987755982988,0,-0.31934002,-1.0316422,0.7729546,0.027968798,0.0079760235,1.0497135,-1.0865995,0.23914516,1.2838534,0.0128829805,-0.08171782,-0.026754474,1.2509197,1.5035043
0.0,0.0,1.4,0.0,0.5235987755982988,0,-0.3193042,-1.0315541,0.77376467,0.02135664,0.042467143,1.0709752,-1.265784,0.1937615,1.2547773,0.06572808,-0.07232381,-0.018306797,1.2542461,0.059488717
0.0,0.0,1.4,0.0,0.5235987755982988,0,-0.31918365,-1.0316037,0.7726211,0.03821821,-0.0416758,1.0729924,0.06388791,0.20246525,1.2606828,-0.01336248,-0.088787116,-0.079688296,1.2612115,-0.2912792
0.0,0.0,1.4,0.0,0.5235987755982988,0,-0.31932858,-1.0316286,0.77298045,0.027042605,0.016084751,1.0943528,-0.12675393,0.22101854,1.2649888,0.0020583896,-0.059721958,0.009512114,1.2914194,0.400832
0.0,0.0,1.4,0.0,0.5235987755982988,0,-0.31949258,-1.0318104,0.7722807,0.02387799,0.036676574,1.0739855,0.93183887,0.23094995,1.2879989,0.025200188,-0.077816695,-0.027121564,1.2554377,-0.6014972
0.0,0.0,1.4,0.0,0.5235987755982988,0,-0.31944516,-1.0315818,0.7740786,0.03500847,-0.050366975,1.0674901,-0.3185902,0.2016938,1.2225001,0.04366718,-0.08265449,-0.082111515,1.2552378,-0.681592
0.0,0.0,1.4,0.0,0.5235987755982988,0,-0.3193953,-1.0315161,0.7738861,0.032760754,0.04063014,1.05175,-0.82325935,0.2531721,1.2529583,-0.01614955,-0.07143178,0.04240297,1.2616962,-1.3883157
0.0,0.0,1.4,0.0,0.5235987755982988,0,-0.31934988,-1.0315281,0.7739003,0.028374298,-0.037243433,1.0723854,0.17114107,0.23228946,1.2697372,0.017474273,-0.10674421,-0.014744277,1.2576951,-0.72531664
0.0,0.0,1.4,0.0,0.5235987755982988,0,-0.31930602,-1.0315845,0.7707514,0.019626236,0.020770809,1.0880295,-1.0163043,0.24209183,1.2603735,-0.015281974,-0.09876484,-0.046648774,1.2591376,-0.2783316
0.0,0.0,1.4,0.0,0.5235987755982988,0,-0.3193127,-1.031722,0.7731937,0.034323007,0.09910158,1.0946383,-0.35152075,0.20663978,1.2527783,-0.09479879,-0.09575984,-0.0131946495,1.2886643,-0.27946037
0.0,0.0,1.4,0.0,0.5235987755982988,0,-0.3191095,-1.0316038,0.77241886,0.027547598,0.014616889,1.0924934,0.64562595,0.19592808,1.2716988,0.038889084,-0.09054206,0.0008175792,1.259205,-0.22206116
0.0,0.0,1.4,0.0,0.5235987755982988,0,-0.31930265,-1.0316104,0.77300656,0.037668258,0.04135923,1.0890539,-0.53222466,0.2070328,1.2801093,-0.035050604,-0.07032997,0.027555184,1.2614307,-0.6301147
0.0,0.0,1.4,0.0,0.5235987755982988,0,-0.31923985,-1.0315481,0.7735638,0.03887566,0.014445725,1.0390066,-1.9309156,0.20450737,1.2650067,0.02543823,-0.097839974,-0.015623794,1.2666659,-0.3312371
0.0,0.0,1.4,0.0,0.5235987755982988,0,-0.31934068,-1.0314306,0.7718331,0.008366575,-0.018307729,1.0649459,-0.868421,0.28171444,1.2480248,0.032866247,-0.08284623,-0.004601329,1.2699453,1.4439335
0.0,0.0,1.4,0.0,0.5235987755982988,0,-0.31937668,-1.0314326,0.7693418,0.016937863,0.0076279715,1.081187,-0.75288427,0.3044042,1.2842656,-0.06674636,-0.08596738,0.045068536,1.2853255,-0.4888728
0.0,0.0,1.4,0.0,0.5235987755982988,0,-0.31957728,-1.0316255,0.77218366,0.01967183,-0.016005492,1.0793476,-0.89465535,0.19542477,1.2620046,0.02475221,-0.076527014,-0.02826479,1.2565933,0.32635263
0.0,0.0,1.4,0.0,0.5235987755982988,0,-0.31932044,-1.0316267,0.7708471,0.019060161,-0.030338159,1.078211,-0.5019903,0.22916743,1.252941,0.019886073,-0.09038835,0.013057973,1.2853966,-0.36693585
0.0,0.0,1.4,0.0,0.5235987755982988,0,-0.31922954,-1.0316459,0.7719049,0.03240329,-0.016377352,1.0654913,-0.14702927,0.34218654,1.252503,0.0023487126,-0.08248158,-0.09339853,1.2529875,0.33887783
0.0,0.0,1.4,0.0,0.5235987755982988,0,-0.31920564,-1.0315807,0.7708455,0.023484888,-0.014607955,1.0947587,-0.74129254,0.34842074,1.2714404,0.015190826,-0.09298168,-0.05021811,1.2639873,-0.18903184
0.0,0.0,1.4,0.0,0.5235987755982988,0,-0.31932604,-1.0314628,0.7725006,0.031726524,-0.07407408,1.0944527,0.71492046,0.21832941,1.2520989,0.048923682,-0.08914799,-0.048681475,1.267752,0.0040113693
0.0,0.0,1.4,0.0,0.5235987755982988,0,-0.31934568,-1.0316848,0.7715085,0.036476813,-0.04406446,1.0616744,-0.27302638,0.29688558,1.2545938,-0.023636373,-0.07387631,-0.028379895,1.2692935,-0.68273985
0.0,0.0,1.4,0.0,0.5235987755982988,0,-0.3192509,-1.0314467,0.7707572,0.031127261,0.041150548,1.0885092,-0.8486695,0.21056958,1.2766008,0.036099836,-0.079052866,-0.025833188,1.2641313,0.082787074
0.0,0.0,1.4,0.0,0.5235987755982988,0,-0.31928524,-1.031654,0.7727873,0.035301637,-0.03873902,1.0876704,-1.4989908,0.16539808,1.2351372,-0.036297534,-0.07147667,0.011041594,1.3008783,-0.04635549
0.0,0.0,1.4,0.0,0.5235987755982988,0,-0.31951076,-1.0315475,0.77207166,0.034799207,0.07598226,1.0699205,0.5293772,0.28912666,1.2699186,-0.027643984,-0.09367558,0.016078478,1.2494085,-0.31545225
0.0,0.0,1.4,0.0,0.5235987755982988,0,-0.31934252,-1.0316144,0.77172303,0.032576185,-0.065117344,1.0846487,0.92259383,0.25717574,1.242982,-0.018028332,-0.07569725,0.042776354,1.2730577,-0.42838344
0.0,0.0,1.4,0.0,0.5235987755982988,0,-0.31935987,-1.0316106,0.7731467,0.027865013,0.019872464,1.076872,-0.4449067,0.26661053,1.2555649,0.0050500794,-0.09403517,-0.046347566,1.2569498,1.0764633
0.0,0.0,1.4,0.0,0.5235987755982988,0,-0.3192815,-1.0314418,0.7709944,0.014233272,-0.04003769,1.069481,-0.4783991,0.3040187,1.2543,-0.013506048,-0.09563217,-0.0073225903,1.2591381,-0.34221473
0.0,0.0,1.4,0.0,0.5235987755982988,0,-0.31920612,-1.031506,0.7728657,0.029755525,0.024320532,1.0858222,-1.3603708,0.2656543,1.2831186,0.0077270702,-0.073737904,0.024882428,1.2619585,-0.6344478
0.0,0.0,1.4,0.0,0.5235987755982988,0,-0.31934932,-1.031579,0.77190554,0.020995826,-0.07968526,1.0820261,-0.8365328,0.23498715,1.2473423,-0.014219013,-0.08046481,-0.069171086,1.2692415,-0.3348113
0.0,0.0,1.4,0.0,0.5235987755982988,0,-0.31930578,-1.0314362,0.77237874,0.026480615,0.032303147,1.0790181,-0.06118688,0.28761747,1.2675686,0.026469896,-0.07397609,-0.06974228,1.2648637,-0.68975294
0.0,0.0,1.4,0.0,0.5235987755982988,0,-0.3193042,-1.0317552,0.7712844,0.026825776,0.041200586,1.0812354,0.09416111,0.21731037,1.2599304,0.0021881217,-0.08088806,-0.00507505,1.2423557,-0.28604183
0.0,0.0,1.4,0.0,0.5235987755982988,0,-0.31923252,-1.031729,0.77281255,0.027931774,0.01134786,1.0531633,-0.33532554,0.21816327,1.292115,0.036750626,-0.08945076,-0.010744051,1.2750665,-1.1467153
0.0,0.0,1.4,0.0,0.5235987755982988,0,-0.31933534,-1.0315185,0.7724284,0.021113034,0.080294564,1.0626782,1.3186239,0.25150642,1.265241,-0.047832984,-0.08032124,-0.030867323,1.2651122,0.63185644
0.0,0.0,1.4,0.0,0.5235987755982988,0,-0.31950787,-1.0316745,0.77177364,0.028165579,-0.007686667,1.0868717,-0.13901807,0.27480373,1.2632934,-0.054995842,-0.07266318,-0.0030687505,1.2641416,0.54639685
0.0,0.0,1.4,0.0,0.5235987755982988,0,-0.31933388,-1.0315717,0.7723039,0.01850348,-0.044166807,1.0803443,0.77348304,0.22326496,1.2401028,-0.012750435,-0.07768221,-0.07639855,1.2493067,0.4677595
0.0,0.0,1.4,0.0,0.5235987755982988,0,-0.3191647,-1.031679,0.7703335,0.020706913,-0.013809982,1.0527198,-1.5443454,0.2218817,1.2503695,-0.030716188,-0.09418032,0.04846789,1.2706693,-0.9952538
0.0,0.0,1.4,0.0,0.5235987755982988,0,-0.31923118,-1.0314393,0.77065694,0.018039102,-0.042809315,1.0871605,0.28331518,0.17229444,1.260071,-0.06784277,-0.08869178,0.039448354,1.235788,0.15811713
0.0,0.0,1.4,0.0,0.5235987755982988,0,-0.31919533,-1.0317868,0.77216804,0.026114488,0.004594343,1.0886778,-0.85082006,0.22312616,1.2693644,0.047913417,-0.078736834,-0.02019993,1.2925403,-0.74080646
0.0,0.0,1.4,0.0,0.5235987755982988,0,-0.319423,-1.0317138,0.7733416,0.024902048,-0.012378043,1.103913,0.6504745,0.14474022,1.2775782,-0.05427235,-0.077016495,0.03351867,1.21976,0.27509588
0.0,0.0,1.4,0.0,0.5235987755982988,0,-0.31925386,-1.0316644,0.7738156,0.022360673,0.00407268,1.1235269,0.06326453,0.19609702,1.2867522,0.009296706,-0.07691827,-0.059176795,1.2764895,0.4835305
0.0,0.0,1.4,0.0,0.5235987755982988,0,-0.319141,-1.0316848,0.7728287,0.021350546,-0.04618163,1.0953246,0.14331746,0.19680598,1.2777156,0.033140976,-0.08742138,-0.022992603,1.2583467,0.11649959
0.0,0.0,1.4,0.0,0.5235987755982988,0,-0.3192363,-1.0314904,0.77239585,0.018571133,0.034411862,1.0541714,-1.2788899,0.28509095,1.2630167,-0.03713275,-0.093379535,0.0015690062,1.2765765,-1.0908008
0.0,0.0,1.4,0.0,0.5235987755982988,0,-0.31941783,-1.0318334,0.7726946,0.028341724,0.0023264012,1.0823507,-0.019293232,0.24530481,1.2630907,0.03687889,-0.07646294,0.008201314,1.2850289,-0.69999546
0.0,0.0,1.4,0.0,0.5235987755982988,0,-0.31922802,-1.031683,0.7728987,0.020030012,-0.045651924,1.093102,0.3008864,0.3537753,1.2652627,0.022724776,-0.08768871,-0.013446342,1.2607116,-0.4608189
0.0,0.0,1.4,0.0,0.5235987755982988,0,-0.31914544,-1.03163,0.77236724,0.041699916,0.012455913,1.044183,-1.219942,0.27775908,1.2688519,-0.053598747,-0.08618373,0.017312758,1.2475945,-0.35607898
0.0,0.0,1.4,0.0,0.5235987755982988,0,-0.31930846,-1.0316138,0.770699,0.03914521,0.013910971,1.0652118,-0.83529127,0.23247354,1.2775574,-0.07025052,-0.071827166,-0.011734465,1.2650778,-1.3939041
0.0,0.0,1.4,0.0,0.5235987755982988,0,-0.3194177,-1.0316423,0.77244157,0.029879749,0.08143683,1.0748016,-0.45225278,0.1977724,1.2427855,-0.017862275,-0.07066096,-0.09534471,1.2697377,-0.54942364
0.0,0.0,1.4,0.0,0.5235987755982988,0,-0.31927258,-1.0316443,0.7713898,0.027415538,0.095855266,1.0989647,-0.34393597,0.33975822,1.259264,-0.07162525,-0.06896709,-0.029468555,1.2559756,-0.8818046
0.0,0.0,1.4,0.0,0.5235987755982988,0,-0.31934932,-1.0315624,0.7713376,0.034008358,0.05466069,1.059937,-0.8067184,0.1884473,1.2928103,-0.04624678,-0.06448986,0.023001835,1.2654335,0.08887064
0.0,0.0,1.4,0.0,0.5235987755982988,0,-0.31959704,-1.031747,0.7719494,0.037588645,0.048111223,1.0992066,0.09927402,0.34290233,1.2722455,0.011087841,-0.097624406,0.03236453,1.2592103,-1.0133694
0.0,0.0,1.4,0.0,0.5235987755982988,0,-0.31943047,-1.0315778,0.7728841,0.025541335,0.016539332,1.0554291,-0.61636513,0.2679527,1.2579882,-0.021167,-0.08176254,-0.037838843,1.272358,-1.0808725
0.0,0.0,1.4,0.0,0.5235987755982988,0,-0.31921926,-1.031758,0.7718689,0.036244646,-0.039175738,1.0936201,-0.99710286,0.1773766,1.2858194,-0.02246483,-0.10614355,0.018302334,1.2637475,1.0813874
0.0,0.0,1.4,0.0,0.5235987755982988,0,-0.31919092,-1.0314997,0.77171445,0.023590758,0.0782236,1.0609517,-2.8325758,0.19731182,1.2850388,-0.10968407,-0.10604575,-0.003989416,1.2678674,0.5527516
0.0,0.0,1.4,0.0,0.5235987755982988,0,-0.3192814,-1.0316242,0.7718361,0.030692069,-0.0045165676,1.0674148,0.8194499,0.30773667,1.2567543,0.016971374,-0.09228006,-0.005754129,1.2918267,1.0783911
0.0,0.0,1.4,0.0,0.5235987755982988,0,-0.3193625,-1.0314221,0.7731977,0.031593144,0.0062016454,1.0770878,-0.114908576,0.22906032,1.2752905,-0.042053822,-0.09675658,0.021513764,1.2835282,-0.06970271
0.0,0.0,1.4,0.0,0.5235987755982988,0,-0.31944308,-1.0314826,0.77413183,0.029948361,0.03332345,1.1181993,0.11299833,0.22178125,1.2649963,-0.09069132,-0.08026896,0.041709412,1.2688242,-0.545088
0.0,0.0,1.4,0.0,0.5235987755982988,0,-0.3193467,-1.0315151,0.77255845,0.02307463,0.081717744,1.1015013,-0.66778713,0.27026117,1.2767526,0.0041310685,-0.07828246,0.071214974,1.2845814,-0.7104787
0.0,0.0,1.4,0.0,0.5235987755982988,0,-0.3193612,-1.0315571,0.7717521,0.02036032,0.059342876,1.0893044,-0.6051815,0.22448206,1.2579341,0.06849068,-0.079265565,-0.041650914,1.2513406,0.048931655
0.0,0.0,1.4,0.0,0.5235987755982988,0,-0.31928867,-1.0316298,0.77092344,0.020886397,0.06892481,1.0641713,-1.0547261,0.28468043,1.2513533,-0.069620274,-0.08265306,0.1053292,1.2452905,-1.035496
0.0,0.0,1.4,0.0,0.5235987755982988,0,-0.31921056,-1.0317377,0.77271277,0.029905498,-0.04214372,1.0703185,-0.43733704,0.2521292,1.2661185,-0.03473354,-0.06374143,0.07251298,1.2749832,1.1419878
0.0,0.0,1.4,0.0,0.5235987755982988,0,-0.31931347,-1.0315865,0.77326167,0.028438069,-0.0019337016,1.0521438,-1.2206806,0.29949388,1.2787006,-0.017486444,-0.075758964,-0.054144837,1.2780637,-0.6863417
0.0,0.0,1.4,0.0,0.5235987755982988,0,-0.31932983,-1.0317279,0.7720138,0.02506007,-0.05568801,1.0610511,-1.0770715,0.20511937,1.2626543,0.015003707,-0.061553027,-0.07725234,1.2432178,0.699679
0.0,0.0,1.4,0.0,0.5235987755982988,0,-0.31903103,-1.0315967,0.7708484,0.015769605,0.039810132,1.0648271,0.3741198,0.337808,1.2410057,-0.07497558,-0.09505193,-0.10176486,1.2650155,-0.85314316
0.0,0.0,1.4,0.0,0.5235987755982988,0,-0.31931484,-1.0315665,0.7706762,0.022825895,0.013794049,1.0771376,-1.2136651,0.18808503,1.2674729,-0.0051390445,-0.08240522,-0.015962686,1.2297984,-0.14220908
0.0,0.0,1.4,0.0,0.5235987755982988,0,-0.31951958,-1.0315886,0.77290785,0.02316358,0.008140728,1.1032338,-0.33297402,0.21002047,1.2649859,0.010667164,-0.06939464,-0.029055458,1.2652124,0.45349592
0.0,0.0,1.4,0.0,0.5235987755982988,0,-0.3192918,-1.0315892,0.7725981,0.023167918,-0.032526657,1.0591308,-0.60043997,0.26774544,1.2834008,-0.01863842,-0.07025483,-0.013643082,1.2700204,0.12968275
0.0,0.0,1.4,0.0,0.5235987755982988,0,-0.31919965,-1.0316404,0.76998943,0.019541498,-0.016353097,1.082829,-0.35647458,0.18933207,1.2537656,-0.0011543456,-0.06416649,0.1002684,1.2722422,-0.09797401
0.0,0.0,1.4,0.0,0.5235987755982988,0,-0.31936154,-1.0316294,0.77255815,0.01945896,-0.03869031,1.0918959,-0.493923,0.2196704,1.2803926,0.01667745,-0.10288069,-0.01830551,1.2732396,0.7634961
0.0,0.0,1.4,0.0,0.5235987755982988,0,-0.31930798,-1.0316039,0.77090895,0.01997243,-0.052789897,1.0654788,0.045649398,0.24537577,1.2572684,0.028954454,-0.08051531,-0.030463329,1.2591281,-0.43731833
0.0,0.0,1.4,0.0,0.5235987755982988,0,-0.31907982,-1.0314896,0.7716192,0.019646442,-0.007557956,1.0829806,-1.6124783,0.23262385,1.2638217,0.033431996,-0.0770413,-0.059141308,1.2645496,-1.2978069
0.0,0.0,1.4,0.0,0.5235987755982988,0,-0.31938937,-1.0315987,0.77232283,0.02256965,-0.015264201,1.0832508,-0.09764937,0.19123523,1.2640163,-0.0462191,-0.08977957,0.01687967,1.2698656,-0.12022348
0.0,0.0,1.4,0.0,0.5235987755982988,0,-0.3193035,-1.0317547,0.77282935,0.017853718,0.03502269,1.073122,-1.0347496,0.26594403,1.247446,0.03455333,-0.09624086,-0.011218106,1.2736915,-0.6587733
0.0,0.0,1.4,0.0,0.5235987755982988,0,-0.31951386,-1.0315844,0.7715516,0.015049586,-0.028156817,1.0974222,0.0599649,0.17202674,1.2795714,-0.028746182,-0.08635951,0.0515473,1.2505265,0.04601374
0.0,0.0,1.4,0.0,0.5235987755982988,0,-0.31941256,-1.0316305,0.7726959,0.016128039,0.008861008,1.0604374,-1.8263856,0.22758761,1.2769673,0.021395775,-0.08492599,0.0035088677,1.2590917,0.31843895
0.0,0.0,1.4,0.0,0.5235987755982988,0,-0.3194042,-1.031553,0.7728987,0.015093654,-0.015210805,1.0646302,0.6380409,0.23430888,1.2546594,-0.021894008,-0.08277249,0.012539627,1.2847465,0.37377894
0.0,0.0,1.4,0.0,0.5235987755982988,0,-0.31928945,-1.0315773,0.7730642,0.023447365,-0.013236442,1.0699303,-0.20236221,0.21947359,1.2699035,-0.06653438,-0.091644965,0.060494754,1.2693866,-0.20511518
0.0,0.0,1.4,0.0,0.5235987755982988,0,-0.3192145,-1.0315919,0.7730243,0.019166667,0.04465328,1.0857131,-0.57373464,0.25842306,1.2584323,-0.08792067,-0.10293072,0.03631231,1.267765,-0.28972813
0.0,0.0,1.4,0.0,0.5235987755982988,0,-0.3192589,-1.0317546,0.77118754,0.013641174,-0.018705541,1.0725528,0.77660835,0.3200788,1.2592152,-0.048100058,-0.0678543,-0.04653982,1.2856723,-1.6064837
0.0,0.0,1.4,0.0,0.5235987755982988,0,-0.31925792,-1.0317078,0.77277476,0.031346273,-0.019599449,1.0772144,-0.8325231,0.23744829,1.2382263,-0.06372308,-0.08460771,0.031916104,1.2663605,0.54258454
0.0,0.0,1.4,0.0,0.5235987755982988,0,-0.31933442,-1.0316323,0.77376723,0.028650615,0.00977772,1.0682727,-0.97531426,0.21948166,1.2415255,0.09048509,-0.09778393,-0.040389873,1.2411807,-0.20087667
0.0,0.0,1.4,0.0,0.5235987755982988,0,-0.3191907,-1.0316368,0.77444845,0.020963896,-0.016374651,1.0477488,1.5472088,0.26193717,1.24408,0.03549671,-0.089912266,0.028703386,1.2663919,-0.1067398
0.0,0.0,1.4,0.0,0.5235987755982988,0,-0.31916642,-1.0316594,0.7723738,0.030992277,-0.0014962194,1.0690563,1.1667547,0.22035646,1.2487986,0.010728773,-0.06749835,-0.010168476,1.2638537,-0.751274
0.0,0.0,1.4,0.0,0.5235987755982988,0,-0.31924275,-1.0317584,0.77239996,0.032221947,-0.086780496,1.0427471,0.942973,0.24551734,1.2792803,-0.03821438,-0.0766937,-0.016011044,1.246746,-1.4795427
0.0,0.0,1.4,0.0,0.5235987755982988,0,-0.3192427,-1.0316949,0.7739463,0.029275296,0.027079651,1.070659,0.73003125,0.27277204,1.2646917,0.020681506,-0.08038593,0.045712464,1.2721914,-0.006380489
0.0,0.0,1.4,0.0,0.5235987755982988,0,-0.3192415,-1.0318066,0.7714821,0.015300216,0.0064771594,1.0899434,-1.0022488,0.24545611,1.2271564,-0.041231148,-0.10157956,0.06516601,1.2878429,-0.855161
0.0,0.0,1.4,0.0,0.5235987755982988,0,-0.31916463,-1.031625,0.7730749,0.04035709,-0.026360333,1.037289,1.060991,0.23305018,1.2688057,-0.022743462,-0.0869388,-0.020340571,1.2336944,-1.3554509
0.0,0.0,1.4,0.0,0.5235987755982988,0,-0.31921205,-1.0316806,0.77274686,0.029665908,-0.06353324,1.0756823,1.0583925,0.32430637,1.2613317,-0.055944636,-0.0823689,-0.0051635834,1.2429916,-0.5068949
0.0,0.0,1.4,0.0,0.5235987755982988,0,-0.3193176,-1.031668,0.7731237,0.029147334,-0.0077462215,1.0727946,2.2405686,0.20946403,1.2673458,0.03791398,-0.09786388,-0.010462575,1.2826655,-0.4066809
0.0,0.0,1.4,0.0,0.5235987755982988,0,-0.31922114,-1.0317209,0.7723809,0.03451585,-0.0020345403,1.1006639,-1.5519991,0.2546501,1.2711227,-0.033739004,-0.09399635,-0.07766458,1.2558362,-0.5575468
0.0,0.0,1.4,0.0,0.5235987755982988,0,-0.31922716,-1.0316801,0.77248013,0.031932246,-0.034683343,1.0802134,-0.6897873,0.2601181,1.259392,0.007365617,-0.069766015,-0.0038652597,1.2788146,-0.62304205
0.0,0.0,1.4,0.0,0.5235987755982988,0,-0.31937328,-1.031847,0.7727395,0.027101656,-0.044878896,1.0672019,-0.06717269,0.23648281,1.2605044,0.02123406,-0.072272606,0.028684704,1.2484361,-2.0866563
0.0,0.0,1.4,0.0,0.5235987755982988,0,-0.31917992,-1.0316838,0.7722788,0.028610216,0.03967988,1.0626787,-1.3747438,0.22020954,1.2513068,-0.0010374261,-0.065358125,0.00041228993,1.2948649,-0.5919343
0.0,0.0,1.4,0.0,0.5235987755982988,0,-0.31934956,-1.0318683,0.7721476,0.03468648,0.04754488,1.067448,-1.7994089,0.2673946,1.2651746,-0.028035339,-0.100867644,-0.06912842,1.2700841,0.25669062
0.0,0.0,1.4,0.0,0.5235987755982988,0,-0.3192561,-1.0318264,0.7713878,0.026030308,0.0062299534,1.1032127,-0.7732804,0.19733097,1.2690591,-0.07159069,-0.07577577,-0.01754171,1.2780406,-0.7225681
0.0,0.0,1.4,0.0,0.5235987755982988,0,-0.3192824,-1.0317726,0.772636,0.013052268,-0.0018589318,1.1041067,-0.8503043,0.23219186,1.2537135,-0.027178178,-0.06807426,0.03045073,1.286444,-0.61754763
0.0,0.0,1.4,0.0,0.5235987755982988,0,-0.3192663,-1.0317366,0.7723522,0.030420154,0.056883566,1.0579555,0.8618093,0.25343266,1.26408,-0.06762824,-0.07743325,-0.027679471,1.2672831,-1.5255039
0.0,0.0,1.4,0.0,0.5235987755982988,0,-0.31923386,-1.0317453,0.7732185,0.027429946,0.034122083,1.0756032,0.24732363,0.20294203,1.2622825,0.041754354,-0.077397846,-0.034373518,1.2528977,0.17689008
0.0,0.0,1.4,0.0,0.5235987755982988,0,-0.3192341,-1.0317708,0.7723024,0.027668715,0.055423293,1.0928378,1.7042024,0.27809197,1.253364,0.054443464,-0.09042415,0.03334986,1.284583,0.052175082
0.0,0.0,1.4,0.0,0.5235987755982988,0,-0.31925026,-1.0316597,0.77288836,0.020188916,-0.01272386,1.0783693,0.022385255,0.1885709,1.3009773,0.022856927,-0.07815756,0.053691417,1.2791207,-1.7793199
0.0,0.0,1.4,0.0,0.5235987755982988,0,-0.31924757,-1.031759,0.77149266,0.025589472,-0.034609564,1.0962394,-1.1391919,0.21236591,1.2661635,-0.005168704,-0.07454982,0.07733874,1.2456348,-0.09282841
0.0,0.0,1.4,0.0,0.5235987755982988,0,-0.319212,-1.0317334,0.77124083,0.0314816,0.047189604,1.0527213,1.105664,0.24397746,1.2442112,0.006097377,-0.087748356,0.020789787,1.2699304,-0.041136388
0.0,0.0,1.4,0.0,0.5235987755982988,0,-0.3192479,-1.0315084,0.77428085,0.032623854,-0.03504849,1.0844918,1.2364807,0.2689806,1.2718434,-0.081052005,-0.07783685,-0.094872475,1.2536052,-1.3348019
0.0,0.0,1.4,0.0,0.5235987755982988,0,-0.31919122,-1.0316951,0.7718697,0.017902093,-0.015000526,1.061958,0.13204879,0.24363439,1.2664049,0.017096732,-0.07436931,0.06073116,1.2461085,-0.112831086
0.0,0.0,1.4,0.0,0.5235987755982988,0,-0.31928584,-1.0318062,0.7729449,0.021031797,-0.07505259,1.0776821,0.12730014,0.26969835,1.2515757,-0.05426988,-0.07475826,-0.025406264,1.2360201,-0.44250262
0.0,0.0,1.4,0.0,0.5235987755982988,0,-0.31935468,-1.0317534,0.7724751,0.024556046,-0.07276297,1.0630649,-0.18443008,0.21511567,1.2585365,-0.10407129,-0.09916485,-0.04145786,1.2610438,-0.7564357
0.0,0.0,1.4,0.0,0.5235987755982988,0,-0.3192803,-1.0316808,0.77358145,0.022029592,-0.015318194,1.0695922,0.046618696,0.2719999,1.2765352,-0.025859037,-0.07757526,-0.0007134933,1.2556022,-0.96133393
0.0,0.0,1.4,0.0,0.5235987755982988,0,-0.31905827,-1.0315742,0.77175725,0.018312007,-0.04772712,1.0601777,-1.2234205,0.2722182,1.2748419,0.0030712897,-0.08641141,0.038515054,1.2561648,-1.0394133
0.0,0.0,1.4,0.0,0.5235987755982988,0,-0.31921408,-1.0317377,0.77205896,0.027587816,-0.038451094,1.0886639,-1.0829475,0.25217384,1.2496811,0.030833699,-0.08124629,0.016273279,1.2748414,0.048569776
0.0,0.0,1.4,0.0,0.5235987755982988,0,-0.3190979,-1.0315737,0.7716296,0.031488206,-0.024817215,1.1165924,0.99343014,0.23728602,1.2587733,-0.044726595,-0.07850421,-0.013345718,1.2628902,-0.6952795
0.0,0.0,1.4,0.0,0.5235987755982988,0,-0.3192103,-1.0317839,0.7713177,0.024990907,0.021011762,1.0777601,-0.949681,0.27521586,1.2646729,-0.05076969,-0.08734038,-0.086308666,1.2969022,-1.3391902
0.0,0.0,1.4,0.0,0.5235987755982988,0,-0.319241,-1.0319124,0.77195656,0.037434347,-0.022570306,1.0768926,-0.7406521,0.23195234,1.2553036,-0.03149588,-0.079947345,0.07607188,1.2307752,-0.16494137
0.0,0.0,1.4,0.0,0.5235987755982988,0,-0.31920704,-1.0317008,0.77196205,0.024930906,-0.028919594,1.1075022,-1.0700207,0.22541587,1.2785622,-0.031391196,-0.075971864,-0.023869183,1.2768681,0.6705675
0.0,0.0,1.4,0.0,0.5235987755982988,0,-0.31922063,-1.0316802,0.7727505,0.02686959,-0.046143588,1.0939796,1.2251445,0.24428064,1.2441591,-0.023548866,-0.08995203,-0.03720105,1.2503446,0.47848484
0.0,0.0,1.4,0.0,0.5235987755982988,0,-0.31916222,-1.0317478,0.77167505,0.02840532,0.03387558,1.0312718,0.50550497,0.15044998,1.2602198,0.07516299,-0.08126429,0.017417029,1.2576922,0.026979094
0.0,0.0,1.4,0.0,0.5235987755982988,0,-0.31919834,-1.0317556,0.77267766,0.019063126,-0.04230002,1.0943776,-0.762282,0.2548948,1.2529901,0.003532074,-0.08227994,-0.015962882,1.2345974,-0.2755495
0.0,0.0,1.4,0.0,0.5235987755982988,0,-0.31916508,-1.0317953,0.77065456,0.031312615,0.011818983,1.0940132,1.2684842,0.32515526,1.2577913,-0.0329679,-0.077504985,0.010459715,1.2727793,1.2828234
0.0,0.0,1.4,0.0,0.5235987755982988,0,-0.31935084,-1.0317245,0.77333325,0.03492888,0.0036490185,1.0941889,1.0347247,0.1565902,1.2577604,-0.07836525,-0.0804657,-0.029296698,1.2712003,0.5004716
0.0,0.0,1.4,0.0,0.5235987755982988,0,-0.3190988,-1.0316207,0.77246743,0.020787591,0.016285146,1.0854709,-0.43421525,0.2555262,1.2459524,-0.10029957,-0.09052552,0.08207128,1.2648491,-0.9204153
0.0,0.0,1.4,0.0,0.5235987755982988,0,-0.31926063,-1.0317873,0.7728045,0.030307164,0.08285738,1.0607355,-0.526593,0.2555741,1.2771056,-0.03370249,-0.099502824,0.025378998,1.2795421,-0.39240912
0.0,0.0,1.4,0.0,0.5235987755982988,0,-0.31916586,-1.031724,0.7720586,0.029217059,-0.029964566,1.0669852,-0.37972903,0.20171751,1.2668995,-0.014410866,-0.076810256,0.049081434,1.2773805,-1.3996545
0.0,0.0,1.4,0.0,0.5235987755982988,0,-0.31920615,-1.0316741,0.7732411,0.020379696,-0.04604098,1.083117,-0.9084793,0.21259694,1.2617595,-0.07004556,-0.09126612,-0.016044755,1.2467351,0.22022176
0.0,0.0,1.4,0.0,0.5235987755982988,0,-0.31923705,-1.0318053,0.77078855,0.032584317,0.04004234,1.0878024,-1.040184,0.28192738,1.2860528,0.07557219,-0.08559879,-0.04012371,1.2686247,-0.02944006
0.0,0.0,1.4,0.0,0.5235987755982988,0,-0.31920242,-1.0317019,0.77243733,0.028964043,-0.025247019,1.0842978,0.9543779,0.21942662,1.2890882,0.007829379,-0.085067324,-0.09481081,1.2416914,-0.20989725
0.0,0.0,1.4,0.0,0.5235987755982988,0,-0.3193061,-1.0317608,0.7730393,0.028440248,-0.0013942987,1.0760778,1.4494681,0.18232395,1.2579508,0.00922103,-0.06848792,0.00014936582,1.264431,-0.638422
0.0,0.0,1.4,0.0,0.5235987755982988,0,-0.31928015,-1.0315639,0.7739387,0.03604037,-0.127605,1.08482,-0.39379716,0.21402298,1.2794861,-0.0055645867,-0.08770557,-0.062006213,1.2410291,-0.40262005
0.0,0.0,1.4,0.0,0.5235987755982988,0,-0.31912395,-1.0316597,0.7732024,0.022625377,0.034615647,1.0901569,-0.99741155,0.28602105,1.2718552,-0.023708807,-0.078585,0.013662029,1.2746241,0.53653485
0.0,0.0,1.4,0.0,0.5235987755982988,0,-0.31923747,-1.031669,0.7731437,0.025670063,0.04244003,1.0571593,-0.8919513,0.31197545,1.2984644,-0.0007656399,-0.07272633,-0.014901541,1.2702701,0.18935663
0.0,0.0,1.4,0.0,0.5235987755982988,0,-0.319327,-1.0317026,0.7738713,0.01929633,0.032624464,1.0944176,-0.53028667,0.20351447,1.2757317,-0.035967495,-0.07928083,-0.006445268,1.2711395,-0.2345308
0.0,0.0,1.4,0.0,0.5235987755982988,0,-0.31916907,-1.0317324,0.77353853,0.027021205,0.003188559,1.0741692,-1.3413445,0.22941792,1.2332442,-0.0622168,-0.08127328,-0.056739386,1.2669969,-0.8372103
0.0,0.0,1.4,0.0,0.5235987755982988,0,-0.31921655,-1.0316746,0.77202713,0.0258458,-0.017365435,1.067313,-0.15270777,0.1448978,1.2742527,-0.0073968656,-0.08934964,-0.07617365,1.2671068,1.0070695
0.0,0.0,1.4,0.0,0.5235987755982988,0,-0.31925663,-1.0316551,0.7731475,0.031440284,-0.037358273,1.1022751,-1.5111609,0.25814018,1.2709486,0.026915206,-0.0797692,-0.04017389,1.271769,0.47703826
0.0,0.0,1.4,0.0,0.5235987755982988,0,-0.31929109,-1.0316621,0.7733868,0.029401084,-0.0003682482,1.1053863,-2.044809,0.2343886,1.2600148,0.040387183,-0.082220085,-0.04147762,1.2664914,-1.1034045
0.0,0.0,1.4,0.0,0.5235987755982988,0,-0.31909344,-1.0315416,0.7736514,0.020949172,-0.010850312,1.0741868,-0.6446661,0.25037888,1.2794267,0.011972826,-0.05751447,0.042699337,1.2422832,-1.1275413
0.0,0.0,1.4,0.0,0.5235987755982988,0,-0.31928387,-1.0317558,0.7728824,0.020138025,-0.043714065,1.0722058,-0.62332714,0.2531589,1.2559651,0.016030928,-0.080323026,-0.02058057,1.2906611,1.5605761
0.0,0.0,1.4,0.0,0.5235987755982988,0,-0.3193086,-1.031738,0.7718884,0.023884615,0.018899301,1.069948,0.27935112,0.26580012,1.2736297,-0.04393824,-0.07504095,-0.042693987,1.2632794,-0.32824886
0.0,0.0,1.4,0.0,0.5235987755982988,0,-0.31927577,-1.0316554,0.77395016,0.023111315,-0.080903836,1.0859255,0.5790206,0.24404374,1.2693508,0.0062529985,-0.06709672,0.0017762596,1.2432307,1.6750604
0.0,0.0,1.4,0.0,0.5235987755982988,0,-0.31921867,-1.0316268,0.77297986,0.022339998,-0.03720555,1.093258,0.704638,0.23484565,1.2532042,0.027713662,-0.07628741,0.078984626,1.284855,0.3193249
0.0,0.0,1.4,0.0,0.5235987755982988,0,-0.3192746,-1.03173,0.7730268,0.024683405,0.016112255,1.1130861,0.5607671,0.213735,1.2539557,-0.012999523,-0.08830499,0.004956058,1.2803818,0.16101818
0.0,0.0,1.4,0.0,0.5235987755982988,0,-0.31922692,-1.0316511,0.7731972,0.020186286,-0.029022567,1.0862408,0.3348949,0.20947058,1.286419,0.010889545,-0.08748742,0.022718988,1.2506889,-0.5340151
0.0,0.0,1.4,0.0,0.5235987755982988,0,-0.31918067,-1.0318232,0.7727239,0.037151936,-0.059114385,1.0598502,-0.10216648,0.29586634,1.265481,-0.029830392,-0.08248393,-0.041518137,1.2543093,-0.75634366
0.0,0.0,1.4,0.0,0.5235987755982988,0,-0.3192399,-1.0316057,0.773354,0.021657567,-0.025900515,1.0648819,-0.066697955,0.18876821,1.2513372,0.029253757,-0.07806392,-0.017015796,1.2779382,0.28896046
0.0,0.0,1.4,0.0,0.5235987755982988,0,-0.31918758,-1.0315322,0.7734743,0.024123907,-0.010654916,1.091749,-0.51189363,0.18603143,1.2921569,0.029899264,-0.10707099,-0.04615699,1.2973086,-0.26997608
0.0,0.0,1.4,0.0,0.5235987755982988,0,-0.3193321,-1.0316806,0.7729479,0.03624181,-0.043321837,1.0841689,-0.5249559,0.2460908,1.2689952,-0.10268995,-0.084201984,-0.0554043,1.2839296,-0.5787389
0.0,0.0,1.4,0.0,0.5235987755982988,0,-0.31925288,-1.0316757,0.7733746,0.026714163,-0.06332009,1.0840605,-0.14910276,0.24917401,1.2739456,0.02788584,-0.08107628,0.0022463202,1.2671086,1.0274183
0.0,0.0,1.4,0.0,0.5235987755982988,0,-0.31920877,-1.031547,0.7735347,0.028549364,0.02886643,1.0709386,1.3565923,0.22389735,1.2616504,-0.07549619,-0.078871116,-0.00056778296,1.2858175,-1.3015693
0.0,0.0,1.4,0.0,0.5235987755982988,0,-0.31921962,-1.0316077,0.773118,0.017359162,0.0050324495,1.0739584,-0.14569856,0.21129742,1.2710811,-0.0022515715,-0.07924293,0.052171256,1.283977,-1.1610243
0.0,0.0,1.4,0.0,0.5235987755982988,0,-0.31923333,-1.031632,0.7735406,0.020146046,-0.0034297183,1.0972735,-2.0874066,0.20138559,1.2874999,-0.046729922,-0.10251916,0.023426987,1.2598968,-0.20376647
0.0,0.0,1.4,0.0,0.5235987755982988,0,-0.31922966,-1.0315853,0.7736384,0.030835468,-0.040659826,1.1049925,0.04780826,0.2875749,1.3006816,-0.010449139,-0.074844435,-0.039745986,1.25999,-0.22294866
0.0,0.0,1.4,0.0,0.5235987755982988,0,-0.31914452,-1.0316418,0.7725013,0.037431754,0.021470577,1.0689986,0.9877243,0.2372568,1.2515862,-0.09780233,-0.07470527,0.019288667,1.2907038,-1.262618
0.0,0.0,1.4,0.0,0.5235987755982988,0,-0.31935698,-1.0317308,0.77437925,0.026051939,0.028326929,1.0806389,1.211319,0.19613533,1.3028122,0.0076899133,-0.09031902,-0.09917264,1.2564948,-0.79775745
0.0,0.0,1.4,0.0,0.5235987755982988,0,-0.31935805,-1.0317136,0.7737067,0.020120095,0.035212737,1.0971221,1.0018034,0.23772053,1.2577446,-0.010835718,-0.07124336,0.0024221272,1.2888235,-0.4212475
0.0,0.0,1.4,0.0,0.5235987755982988,0,-0.3192637,-1.0317138,0.7727656,0.030149724,0.035403937,1.0802541,0.3048625,0.23543322,1.2624035,0.019578379,-0.08150388,0.050048932,1.2577345,0.11178556
0.0,0.0,1.4,0.0,0.5235987755982988,0,-0.31923938,-1.0317354,0.77281344,0.037829913,-0.042654462,1.0638125,0.74323213,0.30208093,1.258954,-0.05580715,-0.078391396,0.013829635,1.2889036,0.40174782
0.0,0.0,1.4,0.0,0.5235987755982988,0,-0.31939012,-1.0316591,0.77448344,0.03449892,0.002354374,1.0908074,-0.73313516,0.26050383,1.2423579,-0.058013752,-0.09451737,0.013611684,1.2675982,0.36493462
0.0,0.0,1.4,0.0,0.5235987755982988,0,-0.31924626,-1.0317295,0.7740374,0.038124993,-0.020259956,1.0728544,-0.47096592,0.24868466,1.2612584,0.021048203,-0.060994457,0.03331596,1.2799965,0.22753736
0.0,0.0,1.4,0.0,0.5235987755982988,0,-0.31934774,-1.0315585,0.7758367,0.018950937,-0.0981947,1.090657,-0.37835506,0.24253646,1.2602991,-0.09465379,-0.09644857,-0.043147393,1.2620243,-1.3868445
0.0,0.0,1.4,0.0,0.5235987755982988,0,-0.31934884,-1.0317204,0.7733764,0.018651193,-0.015328162,1.0694971,-0.6453908,0.26528284,1.2696247,-0.034624595,-0.06371173,0.008875027,1.266907,0.50423366
0.0,0.0,1.4,0.0,0.5235987755982988,0,-0.31937307,-1.0317013,0.7750267,0.02848929,0.031433742,1.1029158,-0.9314555,0.20325331,1.2605989,-0.029525941,-0.08100461,-0.037689615,1.2697784,0.13715054
0.0,0.0,1.4,0.0,0.5235987755982988,0,-0.3192304,-1.0316834,0.7755106,0.014617293,-0.0053380434,1.0865257,-0.6203367,0.23227446,1.2832576,-0.01684837,-0.09108726,-0.002298019,1.2610855,-2.3720286
0.0,0.0,1.4,0.0,0.5235987755982988,0,-0.31941164,-1.0313963,0.7711545,0.03360603,0.005739423,1.0887353,-0.7738239,0.19329908,1.2794688,-0.0047470597,-0.09808976,0.053414863,1.2638898,-0.46987826
0.0,0.0,1.4,0.0,0.5235987755982988,0,-0.31936535,-1.0315924,0.77301663,0.033715494,0.02448149,1.0358438,-0.984574,0.21463636,1.2733778,-0.026021708,-0.10226134,-0.011083916,1.2674712,-0.24184354
0.0,0.0,1.4,0.0,0.5235987755982988,0,-0.3192434,-1.0316682,0.7735642,0.031789724,0.006823067,1.0733507,-0.76646733,0.17942962,1.2567396,0.021964038,-0.09143748,0.06599732,1.2817622,-0.63174295
0.0,0.0,1.4,0.0,0.5235987755982988,0,-0.3192215,-1.0313846,0.772807,0.024919897,-0.07281959,1.0805696,-0.3915771,0.20140107,1.2865646,-0.06500782,-0.070408225,0.0040217424,1.2627004,-1.7699009
0.0,0.0,1.4,0.0,0.5235987755982988,0,-0.319253,-1.0317492,0.7721575,0.030676756,0.044139314,1.0461214,-1.9866649,0.255276,1.285253,0.03324807,-0.062995866,-0.015739625,1.2741026,1.292326
0.0,0.0,1.4,0.0,0.5235987755982988,0,-0.3192977,-1.031673,0.7730717,0.026546007,-0.030636683,1.0643325,0.10679865,0.2375164,1.2966003,-0.0061216624,-0.0783519,-0.0013271587,1.2538909,0.36441043
0.0,0.0,1.4,0.0,0.5235987755982988,0,-0.31923676,-1.0315799,0.7721266,0.032725364,0.023703575,1.0809503,-0.587128,0.22512364,1.2442697,0.053201605,-0.08556344,-0.010407676,1.2825187,-0.5459233
0.0,0.0,1.4,0.0,0.5235987755982988,0,-0.31938994,-1.0315208,0.76996034,0.0211367,-0.07418273,1.0817327,-1.5900156,0.24504057,1.2596439,-0.011809291,-0.08723811,0.00023465756,1.2536491,-0.47350502
0.0,0.0,1.4,0.0,0.5235987755982988,0,-0.31929094,-1.031653,0.770617,0.025463259,0.014162112,1.1046964,1.0775963,0.2500549,1.2746673,-0.011629044,-0.091988996,-4.580344e-05,1.2941769,-1.2435414
0.0,0.0,1.4,0.0,0.5235987755982988,0,-0.31949893,-1.0316021,0.7727735,0.037189428,-0.016064225,1.0694791,0.38976446,0.20744078,1.2841196,0.024536872,-0.06387121,-0.018866703,1.2578983,-0.33365327
0.0,0.0,1.4,0.0,0.5235987755982988,0,-0.3193178,-1.0316026,0.7708552,0.019969707,-0.11833097,1.0712627,0.48942998,0.27161184,1.2628392,0.031677745,-0.08274294,0.028787168,1.2592819,-1.0639123
0.0,0.0,1.4,0.0,0.5235987755982988,0,-0.31893933,-1.0318125,0.76984024,0.025462393,0.023834731,1.0599133,-0.50659233,0.1403486,1.2774132,0.03411749,-0.058554567,-0.057356957,1.2483203,0.70475155
0.0,0.0,1.4,0.0,0.5235987755982988,0,-0.31934226,-1.031653,0.77107507,0.024075344,-0.06290861,1.0747334,0.55958945,0.18732955,1.2552395,0.06359627,-0.07593373,0.0952468,1.2764454,0.46057153
0.0,0.0,1.4,0.0,0.5235987755982988,0,-0.31948218,-1.0317136,0.7722862,0.031566948,0.03445398,1.0426974,0.0011868812,0.19576496,1.2455698,0.009329105,-0.080539525,-0.07569354,1.2516379,-0.25468642
0.0,0.0,1.4,0.0,0.5235987755982988,0,-0.31955627,-1.0315976,0.77174485,0.020873588,0.04506869,1.0785131,-0.08392207,0.19931862,1.2462114,0.039089188,-0.067057066,0.0546323,1.2703053,0.44094416
0.0,0.0,1.4,0.0,0.5235987755982988,0,-0.3194607,-1.0316037,0.77205646,0.0196669,0.04858499,1.0918914,0.41415682,0.2623672,1.2829232,0.0019232283,-0.10611235,-0.04355085,1.2589002,-0.20699276
0.0,0.0,1.4,0.0,0.5235987755982988,0,-0.31926325,-1.0315514,0.7719803,0.02167457,-0.05093695,1.064913,-0.46882513,0.22226937,1.2635101,-0.032157723,-0.06650602,-0.056378562,1.276759,-0.5722596
0.0,0.0,1.4,0.0,0.5235987755982988,0,-0.31933448,-1.0314938,0.7717053,0.029874248,-0.013634109,1.075008,-0.6247352,0.23494601,1.249515,-0.09601272,-0.06585253,-0.014632123,1.2778009,-0.18811043
0.0,0.0,1.4,0.0,0.5235987755982988,0,-0.31925756,-1.0316442,0.77150655,0.029580474,0.002452153,1.0979791,0.8257002,0.19741227,1.2553233,-0.066556476,-0.06713538,-0.020924363,1.2570189,0.044294953
0.0,0.0,1.4,0.0,0.5235987755982988,0,-0.31924424,-1.0314505,0.7711772,0.020633431,0.0011354814,1.0551594,1.4195716,0.24071455,1.2770104,-0.04533125,-0.083425075,-0.09717328,1.2503605,0.033820607
0.0,0.0,1.4,0.0,0.5235987755982988,0,-0.31926912,-1.031519,0.772038,0.024025945,0.06607773,1.0514117,-1.8402928,0.18866393,1.2527721,-0.017129324,-0.07254259,0.09856811,1.249558,0.2986804
0.0,0.0,1.4,0.0,0.5235987755982988,0,-0.3192427,-1.0315638,0.77271664,0.018688526,-0.044350147,1.0652478,-0.6452351,0.24105161,1.2903427,0.05854419,-0.08683887,0.022634896,1.2714777,-0.3685437
0.0,0.0,1.4,0.0,0.5235987755982988,0,-0.3193719,-1.0315173,0.7693222,0.03540221,-0.007633019,1.0932007,-1.7641962,0.2208571,1.2920376,-0.015353803,-0.0677989,0.021094829,1.2711065,-0.73990834
0.0,0.0,1.4,0.0,0.5235987755982988,0,-0.31937182,-1.0314559,0.7717296,0.025364567,-0.020977767,1.0935873,-0.9621812,0.22583064,1.2631013,-0.0563251,-0.08174277,-0.018454837,1.2546443,-0.6704455
0.0,0.0,1.4,0.0,0.5235987755982988,0,-0.31949076,-1.0315163,0.77203614,0.019257838,0.013332935,1.0668892,-0.10971471,0.22536178,1.2710438,-0.03519098,-0.0831267,-0.010505752,1.2631217,0.15952699
0.0,0.0,1.4,0.0,0.5235987755982988,0,-0.31927553,-1.0315266,0.77020174,0.032661214,-0.014170093,1.0573183,-1.0968916,0.228866,1.2686977,-0.041686364,-0.06637685,-0.05024628,1.2365501,-1.4522254
0.0,0.0,1.4,0.0,0.5235987755982988,0,-0.3193567,-1.0313483,0.77198726,0.01929756,0.062001575,1.0940143,-0.16594039,0.29528257,1.2582353,-0.028255027,-0.09109416,0.03145368,1.2624002,-0.7764444
0.0,0.0,1.4,0.0,0.5235987755982988,0,-0.3192029,-1.0313786,0.7706565,0.025807196,0.013424547,1.0869639,-0.25681227,0.24507067,1.2600559,-0.048950307,-0.08634761,0.07071913,1.2793801,0.28636202
0.0,0.0,1.4,0.0,0.5235987755982988,0,-0.31941897,-1.0315685,0.7736014,0.037994757,-0.0041445903,1.06656,-1.3639542,0.21847561,1.2808654,0.046917688,-0.083888955,0.052124407,1.2899003,-0.18761547
0.0,0.0,1.4,0.0,0.5235987755982988,0,-0.31940234,-1.0316495,0.7718034,0.028010601,0.043895915,1.072404,-0.33392534,0.19458836,1.2688038,-0.0464864,-0.09079748,0.041503858,1.2874955,-1.8501058
0.0,0.0,1.4,0.0,0.5235987755982988,0,-0.3192713,-1.0315287,0.77305186,0.02957931,-0.004853788,1.0668612,1.3052229,0.25729233,1.2655656,-0.08044444,-0.087773375,-0.0074947486,1.2838693,0.28850985
0.0,0.0,1.4,0.0,0.5235987755982988,0,-0.31930086,-1.0314126,0.76959854,0.019515699,-0.012337974,1.0470545,0.015236547,0.1813222,1.2402853,-0.05985102,-0.08772356,0.047234476,1.2514678,-1.0722139
0.0,0.0,1.4,0.0,0.5235987755982988,0,-0.31932217,-1.0314978,0.7720525,0.038297355,0.01941956,1.0484971,-0.6608061,0.2588697,1.2516752,0.014198858,-0.09437753,0.023099285,1.2769945,0.27920544
0.0,0.0,1.4,0.0,0.5235987755982988,0,-0.3195564,-1.0315373,0.77227587,0.023792295,-0.059779316,1.1125598,-0.9187661,0.25428694,1.2629412,-0.041093808,-0.08942694,-0.04824225,1.2647295,-0.19236378
0.0,0.0,1.4,0.0,0.5235987755982988,0,-0.31927213,-1.0315566,0.77096456,0.019837812,0.011494498,1.0643038,0.09566722,0.218299,1.2647606,-0.03839123,-0.080077596,-0.057172127,1.2804635,-0.064734235
0.0,0.0,1.4,0.0,0.5235987755982988,0,-0.31929252,-1.0315732,0.77291167,0.024253257,0.035558797,1.0697919,-0.43053994,0.2324413,1.2575631,0.004984285,-0.09044293,0.017461725,1.2581831,-0.5261789
0.0,0.0,1.4,0.0,0.5235987755982988,0,-0.31931165,-1.0316305,0.7731228,0.032507222,-0.053774998,1.0777516,0.8661535,0.183162,1.2509443,0.0036245245,-0.076560505,0.08230557,1.2696612,0.923526
0.0,0.0,1.4,0.0,0.5235987755982988,0,-0.31948572,-1.0316203,0.77017814,0.029676396,-0.04258552,1.1066648,-1.5265316,0.25455233,1.2651409,-0.008983005,-0.056379035,-0.07668037,1.2691146,0.21293345
0.0,0.0,1.4,0.0,0.5235987755982988,0,-0.3193101,-1.0316734,0.772282,0.031733792,0.003971653,1.0824163,0.73643625,0.24715646,1.2972059,-0.08755953,-0.07138198,-0.02195933,1.2717865,-0.05822533
0.0,0.0,1.4,0.0,0.5235987755982988,0,-0.31938818,-1.0314986,0.7715399,0.032697454,-0.012775814,1.0997003,-0.19370964,0.2221767,1.2766026,0.030847462,-0.07642918,-0.036519382,1.2486405,0.9600148
0.0,0.0,1.4,0.0,0.5235987755982988,0,-0.3194914,-1.0317153,0.77074677,0.03125323,-0.042165596,1.074793,0.7881647,0.24747169,1.2576207,0.011370828,-0.09885025,-0.051187597,1.2637123,-0.33800834
0.0,0.0,1.4,0.0,0.5235987755982988,0,-0.31924146,-1.0317364,0.77390057,0.026654186,-0.00044039192,1.0533485,-0.5815911,0.26642883,1.2515318,-0.0539949,-0.07765699,0.0367282,1.2711024,-0.10560272
0.0,0.0,1.4,0.0,0.5235987755982988,0,-0.31945235,-1.0317537,0.77007574,0.023931332,-0.032745156,1.0782152,-0.42000425,0.2051125,1.2991551,0.013252749,-0.082899764,-0.08610021,1.2782065,-0.4215315
0.0,0.0,1.4,0.0,0.5235987755982988,0,-0.3193008,-1.031586,0.77034163,0.013258657,0.011835376,1.0643861,-1.4347768,0.16518354,1.278382,-0.08118533,-0.08410859,0.024509763,1.2773509,-0.38899764
0.0,0.0,1.4,0.0,0.5235987755982988,0,-0.31927666,-1.031682,0.77386,0.031272393,-0.016469633,1.0686698,0.3973396,0.273602,1.2839563,-0.10268671,-0.07051822,0.036975164,1.2918161,-0.093606316
0.0,0.0,1.4,0.0,0.5235987755982988,0,-0.31936002,-1.0319079,0.77195853,0.020200863,0.01332684,1.0864954,-1.3033837,0.23170364,1.2775004,0.029147843,-0.08737582,-0.021749143,1.2594324,0.5024335
0.0,0.0,1.4,0.0,0.5235987755982988,0,-0.31936923,-1.0318186,0.7714761,0.03027353,-0.040683575,1.0880241,1.1331738,0.25098926,1.2565247,-0.0495508,-0.088357,-0.032604907,1.2512379,1.0555484
0.0,0.0,1.4,0.0,0.5235987755982988,0,-0.31920567,-1.0318476,0.7720419,0.02637178,0.03814479,1.0787505,-1.8196876,0.24130337,1.2352175,-0.06642089,-0.07167005,0.030818949,1.2716882,0.78649026
0.0,0.0,1.4,0.0,0.5235987755982988,0,-0.31922606,-1.0316368,0.77356064,0.030359725,-0.007856572,1.059754,-0.7068757,0.25670078,1.2715567,-0.08509826,-0.07606118,-0.049749713,1.2954689,-1.3322397
0.0,0.0,1.4,0.0,0.5235987755982988,0,-0.3193139,-1.0317897,0.7733147,0.043254282,0.031471383,1.058721,-0.32822385,0.2823895,1.2848421,-0.06535186,-0.08237756,0.01689253,1.2694538,-0.5708964
0.0,0.0,1.4,0.0,0.5235987755982988,0,-0.31935647,-1.0316149,0.77168876,0.032445572,-0.028305871,1.0729164,0.46832526,0.26553053,1.260748,-0.006124511,-0.07522807,0.05356356,1.2432218,1.9096057
0.0,0.0,1.4,0.0,0.5235987755982988,0,-0.31926098,-1.0317861,0.77190185,0.033026624,0.0056926482,1.0645294,1.1463476,0.2182318,1.2505679,0.03338676,-0.07565503,0.05838657,1.270577,-0.6054616
0.0,0.0,1.4,0.0,0.5235987755982988,0,-0.31922564,-1.0317417,0.7711387,0.03150944,0.0018208802,1.0635219,-0.37563854,0.2265879,1.2701743,-0.012819848,-0.09085327,-0.045547307,1.2538452,-0.04939651
0.0,0.0,1.4,0.0,0.5235987755982988,0,-0.31941354,-1.0315425,0.7710132,0.03018683,0.026581755,1.0575316,0.67154187,0.22949655,1.2809876,0.04653424,-0.083808266,0.053504474,1.2893181,-0.045786284
0.0,0.0,1.4,0.0,0.5235987755982988,0,-0.3193385,-1.0315179,0.7729301,0.023010103,-0.07413918,1.0630957,-0.78553706,0.18946524,1.2679584,-0.060236156,-0.087728545,-0.050024085,1.2451504,-0.15099305
0.0,0.0,1.4,0.0,0.5235987755982988,0,-0.3192898,-1.0317839,0.7692032,0.022347884,0.08847782,1.0475444,0.27386624,0.22695714,1.251539,0.08107936,-0.08912594,0.011988941,1.2434969,1.4012046
0.0,0.0,1.4,0.0,0.5235987755982988,0,-0.3193612,-1.0315801,0.77476674,0.038957685,-0.004517589,1.0887187,0.7878548,0.2470514,1.263776,-0.016914742,-0.08449997,-0.0030993735,1.2678547,-0.59367836
0.0,0.0,1.4,0.0,0.5235987755982988,0,-0.31935972,-1.0318054,0.77224016,0.020777255,-0.0046855696,1.0826635,0.6010856,0.18074717,1.2663453,-0.007952372,-0.09094757,0.010923011,1.2544808,-0.32976148
0.0,0.0,1.4,0.0,0.5235987755982988,0,-0.31932577,-1.0314817,0.7725425,0.023000767,0.03850267,1.0738492,-0.89509404,0.22714932,1.2680867,-0.027945003,-0.089019574,-0.014764008,1.3067172,0.46599156
0.0,0.0,1.4,0.0,0.5235987755982988,0,-0.3193355,-1.0314701,0.7706153,0.030983118,-0.0268471,1.0659345,1.2537359,0.21991803,1.2454381,-0.013093435,-0.07788562,0.052481983,1.2556274,0.11547105
0.0,0.0,1.4,0.0,0.5235987755982988,0,-0.3191773,-1.0317117,0.7714635,0.030007254,-0.00684582,1.0656972,0.15847512,0.23357828,1.2787544,-0.015837401,-0.077956155,-0.025985029,1.2764792,-0.13437228
0.0,0.0,1.4,0.0,0.5235987755982988,0,-0.31932768,-1.0316827,0.768559,0.027969852,-0.004483928,1.1177993,1.5741428,0.25528035,1.2689291,0.019033326,-0.060226932,-0.023733525,1.2675177,-0.78125
0.0,0.0,1.4,0.0,0.5235987755982988,0,-0.31941923,-1.0314999,0.7717242,0.022510346,-0.017239496,1.0625544,-0.3553033,0.2990274,1.2476149,-0.05635337,-0.09721542,-0.018777305,1.2711345,0.88999224
0.0,0.0,1.4,0.0,0.5235987755982988,0,-0.31943145,-1.0315741,0.772803,0.028849293,0.031095177,1.0682937,-0.91065365,0.24074897,1.297671,0.02124472,-0.08404255,-0.020467142,1.2631029,0.13593107
0.0,0.0,1.4,0.0,0.5235987755982988,0,-0.31928623,-1.031577,0.7713955,0.021549776,0.036116842,1.0594981,-0.5148474,0.24641408,1.2517267,-0.06007817,-0.09516261,-0.0180864,1.2671447,-0.18809117
0.0,0.0,1.4,0.0,0.5235987755982988,0,-0.31924224,-1.0315269,0.7721073,0.027685413,0.009097723,1.0676422,1.1858811,0.18690632,1.2628906,-0.116164505,-0.08384984,-0.03414982,1.2532771,-1.1706351
0.0,0.0,1.4,0.0,0.5235987755982988,0,-0.31923637,-1.0315586,0.77091134,0.018920071,-0.04843307,1.0829024,0.5107455,0.18767935,1.2859986,-0.020172423,-0.0806489,-0.0058477633,1.2661558,0.016168563
0.0,0.0,1.4,0.0,0.5235987755982988,0,-0.3191086,-1.0317465,0.7707744,0.023086116,-0.041322723,1.0838302,0.3196239,0.26833704,1.2741818,0.010223283,-0.08297214,-0.011425612,1.2825707,-0.06210284
0.0,0.0,1.4,0.0,0.5235987755982988,0,-0.31940317,-1.0317258,0.77366185,0.034405313,0.06872464,1.092523,2.4293616,0.25669944,1.287249,-0.03703048,-0.07955198,0.0044731796,1.2588562,1.2450733
0.0,0.0,1.4,0.0,0.5235987755982988,0,-0.31921065,-1.0317003,0.7738749,0.025959048,0.011220513,1.0858167,-0.7038195,0.21565193,1.2465856,-0.0059551583,-0.09282083,-0.0055685276,1.2720951,-0.06530108
0.0,0.0,1.4,0.0,0.5235987755982988,0,-0.3192963,-1.0317919,0.77232444,0.026741065,0.06948625,1.0849214,0.73191494,0.2075802,1.2542404,0.013907966,-0.061857715,0.05586582,1.2728556,-1.2836318
0.0,0.0,1.4,0.0,0.5235987755982988,0,-0.31948808,-1.0315977,0.7715139,0.020837221,-0.008156963,1.0690485,1.4651823,0.24289742,1.2604302,0.006655915,-0.08415854,0.049029335,1.2404653,0.68812686
