sanky1234/BimanualDexCatch/isaacgymenvs/cem_results/football_pose_0.1_-0.1_1.4_0.5235987755982988_0.0_0_2025-05-26.csv
x,y,z,roll,pitch,yaw,robot1/joint1,robot1/joint2,robot1/joint3,robot1/joint4,robot1/joint5,robot1/joint6,robot1/joint7,robot2/joint1,robot2/joint2,robot2/joint3,robot2/joint4,robot2/joint5,robot2/joint6,robot2/joint7
0.1,-0.1,1.4,0.5235987755982988,0.0,0,-0.2701008,-1.0868872,-0.7417624,0.13425924,-0.04613366,0.93893796,-0.44870737,-0.95835555,-1.3736943,2.2583377,-0.0024430414,0.30075678,1.2616643,0.03546842
0.1,-0.1,1.4,0.5235987755982988,0.0,0,-0.26911464,-1.0890043,-0.74803907,0.14821501,-0.06983895,0.90226245,0.15776925,-0.9594836,-1.3701774,2.2559748,0.027672494,0.1913385,1.2862632,0.39274773
0.1,-0.1,1.4,0.5235987755982988,0.0,0,-0.26888806,-1.0875729,-0.74094206,0.14566387,0.08577137,1.0170448,-0.23654781,-0.96050125,-1.3709723,2.2580614,-0.022330955,0.3278678,1.1967511,0.027269214
0.1,-0.1,1.4,0.5235987755982988,0.0,0,-0.27009395,-1.0880792,-0.7468402,0.12815718,-0.016612176,0.9664204,-0.31761366,-0.9603692,-1.3737196,2.262893,-0.009522712,0.3275805,1.2676644,-0.025112012
0.1,-0.1,1.4,0.5235987755982988,0.0,0,-0.26992935,-1.0876594,-0.7463885,0.14436916,0.06203023,0.8951219,-0.66252524,-0.95836467,-1.3729287,2.2536464,-0.018356953,0.44968495,1.2594213,0.33855647
0.1,-0.1,1.4,0.5235987755982988,0.0,0,-0.27039233,-1.0873469,-0.7522374,0.16615508,-0.0021350281,0.97640115,-0.12594834,-0.9595005,-1.3726975,2.2610655,0.02393448,0.28704324,1.2927067,0.9657941
0.1,-0.1,1.4,0.5235987755982988,0.0,0,-0.2698084,-1.0878396,-0.7384327,0.14260069,-0.06929848,1.0407399,-0.39549017,-0.96016645,-1.371706,2.2507412,0.008647553,0.2710052,1.2850459,-0.26563582
0.1,-0.1,1.4,0.5235987755982988,0.0,0,-0.26863798,-1.0876768,-0.7474053,0.16601804,0.008320648,0.9409269,-0.42675698,-0.9598665,-1.3708968,2.2567992,0.0038819807,0.28037167,1.2720436,0.011710087
0.1,-0.1,1.4,0.5235987755982988,0.0,0,-0.26892346,-1.0867552,-0.74625814,0.16231476,0.0014322124,0.8919152,-0.36716452,-0.95919704,-1.3713222,2.2561717,-0.03905231,0.25421864,1.2217151,1.1754487
0.1,-0.1,1.4,0.5235987755982988,0.0,0,-0.27020216,-1.0874747,-0.748992,0.15020736,0.009590168,0.8895151,-0.39319694,-0.95893896,-1.371658,2.2612188,-0.023637882,0.28201306,1.267409,0.80227697
0.1,-0.1,1.4,0.5235987755982988,0.0,0,-0.27008766,-1.088111,-0.75819653,0.15444002,-0.098019384,0.8287803,-0.32276174,-0.95937717,-1.3708159,2.2573843,-0.0072383373,0.2620534,1.3224739,0.4503712
0.1,-0.1,1.4,0.5235987755982988,0.0,0,-0.26970443,-1.0873172,-0.75714165,0.1538261,-0.14452341,0.9268294,-0.05515677,-0.95908093,-1.370371,2.2572968,0.00012717926,0.31850398,1.2650307,0.7139145
0.1,-0.1,1.4,0.5235987755982988,0.0,0,-0.2700809,-1.0876352,-0.7504389,0.15525569,0.009614995,0.91910625,0.2227857,-0.9596923,-1.371742,2.2542791,-0.019311098,0.28348285,1.2695671,0.39249405
0.1,-0.1,1.4,0.5235987755982988,0.0,0,-0.26835826,-1.0864604,-0.7484527,0.14371842,0.0063191345,0.9575581,-0.321375,-0.95868623,-1.3701164,2.260383,-0.008702565,0.33491597,1.1802834,0.31953382
0.1,-0.1,1.4,0.5235987755982988,0.0,0,-0.2703497,-1.0881091,-0.7466487,0.1365161,-0.009557936,1.0698451,-0.1303383,-0.95992124,-1.3721607,2.2535357,-0.031828362,0.3032315,1.1797866,0.24878159
0.1,-0.1,1.4,0.5235987755982988,0.0,0,-0.2697848,-1.0871505,-0.7497995,0.16123691,0.054927442,1.0868878,0.11502916,-0.9590318,-1.3715138,2.2560031,-0.028517568,0.16291787,1.3235718,0.81258446
0.1,-0.1,1.4,0.5235987755982988,0.0,0,-0.2692401,-1.0869353,-0.74367356,0.15181793,0.0024381976,1.0982974,-0.45107886,-0.9578083,-1.3710678,2.2514083,-0.019341692,0.21735449,1.1997024,0.2930355
0.1,-0.1,1.4,0.5235987755982988,0.0,0,-0.26926512,-1.0877197,-0.7477188,0.15222235,-0.0038540736,1.1005945,-0.40904042,-0.9605202,-1.3714966,2.2601652,0.0076289396,0.39986947,1.2061594,0.4285097
0.1,-0.1,1.4,0.5235987755982988,0.0,0,-0.26989177,-1.0875169,-0.7485532,0.14686671,-0.028321048,0.98062783,0.17833515,-0.9607724,-1.3724566,2.2537372,-0.0025000782,0.305043,1.2045579,-0.19622011
0.1,-0.1,1.4,0.5235987755982988,0.0,0,-0.2685907,-1.0869818,-0.74496645,0.16383806,-0.024963161,1.0401851,-0.60872275,-0.95925564,-1.371689,2.24887,-0.048168216,0.30163267,1.1991366,0.14081666
0.1,-0.1,1.4,0.5235987755982988,0.0,0,-0.26989174,-1.0876344,-0.74624586,0.16579036,0.0016964551,0.9335096,-0.16584027,-0.95912546,-1.372867,2.2607841,-0.06639314,0.3147676,1.2191144,0.9732504
0.1,-0.1,1.4,0.5235987755982988,0.0,0,-0.26946652,-1.0877064,-0.74513286,0.1555428,-0.10195597,0.90858924,0.39624575,-0.9603262,-1.3717327,2.2544956,-0.04810771,0.29961103,1.2342196,0.20313808
0.1,-0.1,1.4,0.5235987755982988,0.0,0,-0.26951456,-1.0873314,-0.7441918,0.1449444,0.014058417,0.91853493,-0.0150698,-0.95980537,-1.372052,2.255864,-0.0061532147,0.26710877,1.2630495,-0.051013097
0.1,-0.1,1.4,0.5235987755982988,0.0,0,-0.26973572,-1.0881639,-0.7422019,0.14579026,0.20157348,0.88790303,-0.5750438,-0.95856446,-1.3710781,2.2552898,-0.012787094,0.37762606,1.2461354,-0.293352
0.1,-0.1,1.4,0.5235987755982988,0.0,0,-0.26997378,-1.0873779,-0.74766654,0.1422677,0.012850029,1.0201083,-0.68609464,-0.96069056,-1.372798,2.257148,-0.058451217,0.22683537,1.2844378,0.4979548
0.1,-0.1,1.4,0.5235987755982988,0.0,0,-0.27002496,-1.0876406,-0.74830616,0.1355332,-0.017097095,0.94805586,-0.6046449,-0.9596369,-1.3728261,2.2632997,0.0010528389,0.38434854,1.2028253,0.57255346
0.1,-0.1,1.4,0.5235987755982988,0.0,0,-0.27085298,-1.0875884,-0.7458605,0.15570551,-0.07006556,1.0314797,-0.7960995,-0.95999616,-1.3723314,2.252612,-0.03221757,0.30165705,1.2399192,1.1640527
0.1,-0.1,1.4,0.5235987755982988,0.0,0,-0.2698369,-1.0880086,-0.7498406,0.14806,-0.03985568,0.91919196,-0.19260204,-0.95898974,-1.3726122,2.2573588,-0.0009393144,0.41881752,1.2358412,0.3362473
0.1,-0.1,1.4,0.5235987755982988,0.0,0,-0.27025494,-1.0875927,-0.74665517,0.13996767,0.05398193,0.89374804,-0.13701518,-0.9581841,-1.3703027,2.2543764,-0.029363481,0.16612794,1.2443392,0.39388955
0.1,-0.1,1.4,0.5235987755982988,0.0,0,-0.27000046,-1.0877314,-0.7456062,0.15003672,0.069427714,0.92979234,0.3742777,-0.96009505,-1.3722972,2.2544274,-0.01669728,0.25093716,1.2270125,0.37629506
0.1,-0.1,1.4,0.5235987755982988,0.0,0,-0.2686267,-1.0880576,-0.7393339,0.14144623,-0.23571303,0.9738377,-0.27514055,-0.9589077,-1.3694649,2.2558148,-0.03614124,0.41225022,1.374149,0.21912205
0.1,-0.1,1.4,0.5235987755982988,0.0,0,-0.26906535,-1.0875468,-0.74649525,0.14787312,-0.053681236,0.9521363,0.11178228,-0.96026665,-1.3719515,2.257288,-0.033059448,0.27378845,1.1949509,1.4077103
0.1,-0.1,1.4,0.5235987755982988,0.0,0,-0.2695332,-1.0873672,-0.74473804,0.17168395,-0.027253225,0.89017653,-0.77715087,-0.9606978,-1.3728789,2.2570765,-0.03816828,0.38594112,1.2300994,0.9099754
0.1,-0.1,1.4,0.5235987755982988,0.0,0,-0.26949102,-1.087107,-0.7523366,0.12573075,-0.07427057,0.98543507,-0.20436874,-0.96110934,-1.3718219,2.2552934,0.0051821843,0.33931386,1.1966494,0.5610464
0.1,-0.1,1.4,0.5235987755982988,0.0,0,-0.26954755,-1.0872171,-0.749467,0.14126007,0.101413645,1.0488454,-0.15319943,-0.9589772,-1.3697551,2.2584138,-0.012818315,0.26474255,1.2305379,0.37606946
0.1,-0.1,1.4,0.5235987755982988,0.0,0,-0.27149653,-1.0876427,-0.74667543,0.14157799,0.08693342,1.1106122,-0.22422548,-0.95954305,-1.3711777,2.251924,-0.00025360446,0.24163912,1.2140037,0.23153523
0.1,-0.1,1.4,0.5235987755982988,0.0,0,-0.27020028,-1.0882373,-0.7433356,0.13949585,-0.19878888,0.96170354,-0.14420481,-0.9597914,-1.3726273,2.2569642,-0.0049474756,0.28329998,1.3107429,0.15375826
0.1,-0.1,1.4,0.5235987755982988,0.0,0,-0.26899508,-1.0888407,-0.74554724,0.15181814,0.02182525,0.9624845,0.30029064,-0.9596226,-1.37062,2.2547445,-0.025419304,0.32772225,1.2063456,0.07800281
0.1,-0.1,1.4,0.5235987755982988,0.0,0,-0.26885235,-1.0877435,-0.74366474,0.15754126,-0.07271756,0.93352205,-0.17951186,-0.95964384,-1.3723793,2.258029,-0.02921484,0.26944262,1.2185191,0.30889353
0.1,-0.1,1.4,0.5235987755982988,0.0,0,-0.26971188,-1.0876291,-0.74229527,0.13067421,0.080508634,0.9495693,-0.34221184,-0.9587348,-1.3706994,2.2553854,0.004368617,0.2509454,1.2226206,0.09269205
0.1,-0.1,1.4,0.5235987755982988,0.0,0,-0.2696298,-1.0880978,-0.75271916,0.16546705,0.06549111,0.98956734,-0.1748523,-0.9598394,-1.3719162,2.256617,-0.024061894,0.19310163,1.2331381,0.2902725
0.1,-0.1,1.4,0.5235987755982988,0.0,0,-0.26990196,-1.0874933,-0.7500678,0.15185703,0.011818972,1.0519007,-0.37373745,-0.9602672,-1.3731337,2.2606637,-0.038349595,0.31648156,1.2439362,0.8098913
0.1,-0.1,1.4,0.5235987755982988,0.0,0,-0.27002156,-1.0872298,-0.75776875,0.15901904,-0.0031449024,0.91655743,-0.5358944,-0.9583362,-1.3706897,2.249979,-0.043904904,0.28235257,1.2385446,0.3183185
0.1,-0.1,1.4,0.5235987755982988,0.0,0,-0.2695797,-1.0879252,-0.7492313,0.15181313,-0.054207355,0.9832765,-0.50820106,-0.9592621,-1.3714205,2.2569911,0.0042471993,0.20094046,1.2248067,0.805561
0.1,-0.1,1.4,0.5235987755982988,0.0,0,-0.26986438,-1.0880069,-0.7513178,0.16366242,-0.13682091,0.95235175,-0.95314,-0.96009815,-1.3729367,2.2624986,0.0021018768,0.30516863,1.2606374,0.65030116
0.1,-0.1,1.4,0.5235987755982988,0.0,0,-0.26876014,-1.0872446,-0.73775536,0.15631951,0.01580733,1.0259429,0.16366978,-0.96024764,-1.370666,2.2518992,-0.031909578,0.35434926,1.226655,0.35034192
0.1,-0.1,1.4,0.5235987755982988,0.0,0,-0.27031973,-1.087545,-0.7404284,0.14951749,-0.088782154,1.0070928,-0.473195,-0.9596171,-1.3708891,2.255069,-0.024219306,0.3775366,1.2044688,-0.124975346
0.1,-0.1,1.4,0.5235987755982988,0.0,0,-0.27049237,-1.0874063,-0.7523,0.14013016,-0.12077267,0.9595343,-0.67014617,-0.9585753,-1.3708283,2.2589614,-0.0526905,0.30539533,1.2754788,0.19966426
0.1,-0.1,1.4,0.5235987755982988,0.0,0,-0.26962224,-1.0877383,-0.7511235,0.1434702,0.062172543,0.98515517,-0.29647928,-0.9590474,-1.3725139,2.2525225,0.01124318,0.23872241,1.2489648,0.1760982
0.1,-0.1,1.4,0.5235987755982988,0.0,0,-0.26945603,-1.0873442,-0.74128693,0.14567254,-0.104179755,0.9919487,0.024331044,-0.95895094,-1.3706229,2.255304,-0.038678244,0.35531354,1.2130965,0.6833334
0.1,-0.1,1.4,0.5235987755982988,0.0,0,-0.26964274,-1.0876099,-0.7525715,0.16708887,-0.14928845,1.0096933,-0.12295187,-0.9593284,-1.3703254,2.2567415,-0.010433614,0.40447032,1.2103829,0.99289757
0.1,-0.1,1.4,0.5235987755982988,0.0,0,-0.26953214,-1.0884428,-0.7376688,0.12151609,-0.08338994,0.90574396,0.02835317,-0.95949113,-1.3716103,2.2553072,-0.028506523,0.36853528,1.2670983,0.67011213
0.1,-0.1,1.4,0.5235987755982988,0.0,0,-0.2700749,-1.0884329,-0.7504207,0.130217,0.047375903,0.97730494,-0.26333177,-0.96018887,-1.3708131,2.258269,-0.004895671,0.2901809,1.1945336,0.5385338
0.1,-0.1,1.4,0.5235987755982988,0.0,0,-0.26858798,-1.0880793,-0.74368155,0.1413162,-0.10160907,0.9965718,-0.849997,-0.9596343,-1.373096,2.2549138,-0.005204933,0.3110962,1.239833,0.7001295
0.1,-0.1,1.4,0.5235987755982988,0.0,0,-0.2692605,-1.0869669,-0.7443454,0.1415543,-0.06622219,1.0812737,-0.45067284,-0.9596453,-1.3730503,2.2598562,0.024106782,0.30483493,1.2581009,0.25542504
0.1,-0.1,1.4,0.5235987755982988,0.0,0,-0.27043504,-1.0879819,-0.74223346,0.15088947,0.10045755,0.97272617,0.18157749,-0.95831865,-1.3721453,2.2540233,-0.045867253,0.31710756,1.1967657,1.0073248
0.1,-0.1,1.4,0.5235987755982988,0.0,0,-0.27020335,-1.0884854,-0.74810904,0.13730274,-0.090116024,0.8793319,0.5817674,-0.9591811,-1.3715369,2.2511966,-0.022034563,0.28260928,1.2996012,0.31329212
0.1,-0.1,1.4,0.5235987755982988,0.0,0,-0.2708727,-1.0882193,-0.74888206,0.118498,-0.04711401,1.0289792,-0.7664508,-0.95876837,-1.3698474,2.2555134,-0.0052756635,0.330249,1.2427511,0.30038077
0.1,-0.1,1.4,0.5235987755982988,0.0,0,-0.2702355,-1.0887295,-0.7457397,0.16488229,-0.029263316,0.94560295,-0.106895104,-0.9597721,-1.371937,2.260005,-0.02816672,0.2795772,1.270995,0.83184797
0.1,-0.1,1.4,0.5235987755982988,0.0,0,-0.26763323,-1.0871911,-0.7422792,0.14020911,-0.044170965,0.9395552,-0.25630367,-0.9595723,-1.3729932,2.2626803,0.013445007,0.37040377,1.2614346,0.24107254
0.1,-0.1,1.4,0.5235987755982988,0.0,0,-0.26957375,-1.0883145,-0.7477826,0.16446759,-0.26421502,0.93031555,-0.23721944,-0.96002996,-1.3721067,2.2604153,0.0036750832,0.33629623,1.2044636,0.22367825
0.1,-0.1,1.4,0.5235987755982988,0.0,0,-0.27023086,-1.0876949,-0.7472065,0.17158116,-0.06702544,0.9548261,-0.37009925,-0.95860654,-1.3717865,2.2579854,-0.038412113,0.2976193,1.1725056,0.23831114
0.1,-0.1,1.4,0.5235987755982988,0.0,0,-0.2707044,-1.0881486,-0.75178504,0.1439192,0.045528416,0.9777029,-0.3103141,-0.9595486,-1.3716108,2.2565224,0.010725801,0.26696244,1.1664082,0.21392424
0.1,-0.1,1.4,0.5235987755982988,0.0,0,-0.26972342,-1.0869504,-0.7547475,0.13979155,0.08205469,1.0063994,0.07216516,-0.960191,-1.3721141,2.2570548,-0.036579587,0.3362591,1.2459904,0.1643634
0.1,-0.1,1.4,0.5235987755982988,0.0,0,-0.26930374,-1.0874302,-0.7486101,0.16437295,0.045562163,0.9864223,-0.9059775,-0.95879567,-1.3720165,2.254851,-0.028185988,0.2824885,1.1894987,0.67592305
0.1,-0.1,1.4,0.5235987755982988,0.0,0,-0.2704833,-1.0878489,-0.7516094,0.13419174,-0.043316588,0.9424809,-0.15469803,-0.95884115,-1.371675,2.2573276,-0.036158934,0.1934692,1.2088679,0.47641498
0.1,-0.1,1.4,0.5235987755982988,0.0,0,-0.27018854,-1.0879358,-0.7547799,0.14294103,0.06340667,1.0087787,0.072294995,-0.9594836,-1.3718358,2.2546134,0.042225227,0.3101145,1.1936659,0.6997068
0.1,-0.1,1.4,0.5235987755982988,0.0,0,-0.26951668,-1.087804,-0.74504304,0.1575845,-0.08825186,0.9281614,-0.18670358,-0.96040696,-1.3715843,2.2550952,-0.017018996,0.39510477,1.2124778,0.58703166
0.1,-0.1,1.4,0.5235987755982988,0.0,0,-0.26974615,-1.0876644,-0.74756914,0.15452103,-0.033286203,0.99477375,0.15815246,-0.9601234,-1.3726169,2.2561958,-0.030122332,0.33106545,1.230597,0.37454674
0.1,-0.1,1.4,0.5235987755982988,0.0,0,-0.27015316,-1.0877124,-0.74925953,0.13141225,-0.094990216,0.9974742,-0.7156204,-0.95951104,-1.3725222,2.256925,-0.00184114,0.23974279,1.2654736,0.76117045
0.1,-0.1,1.4,0.5235987755982988,0.0,0,-0.2675918,-1.0879997,-0.7428734,0.14037065,0.0025523114,0.92740345,-0.28707808,-0.96037436,-1.3719043,2.263192,-0.068689436,0.3388954,1.3027536,-0.034797862
0.1,-0.1,1.4,0.5235987755982988,0.0,0,-0.27026373,-1.0879313,-0.74389404,0.14003581,0.011087032,1.0191388,-0.42580885,-0.9593022,-1.3703796,2.25668,0.00020993939,0.24122494,1.2014021,0.1923642
0.1,-0.1,1.4,0.5235987755982988,0.0,0,-0.26976538,-1.0868281,-0.75631344,0.15150614,-0.0033417232,0.93250763,-0.14499594,-0.95817095,-1.3708233,2.2512262,-0.00033227485,0.44631132,1.2944386,1.0657182
0.1,-0.1,1.4,0.5235987755982988,0.0,0,-0.27058893,-1.088464,-0.7401952,0.14719869,-0.025492486,0.9099088,-0.29716814,-0.9596539,-1.372469,2.258653,-0.00035001917,0.2962688,1.1930059,0.18069729
0.1,-0.1,1.4,0.5235987755982988,0.0,0,-0.27022448,-1.0876166,-0.76079226,0.13507347,-0.07746776,1.0008566,-0.23301433,-0.9597509,-1.3719063,2.2530477,-0.053108428,0.22327231,1.2368388,0.6162974
0.1,-0.1,1.4,0.5235987755982988,0.0,0,-0.2694418,-1.0875372,-0.7427386,0.15430437,0.026218215,1.0230997,-0.27804348,-0.9599685,-1.3733655,2.2609828,-0.039855856,0.229656,1.1908904,0.16823018
0.1,-0.1,1.4,0.5235987755982988,0.0,0,-0.2704569,-1.0879532,-0.7477989,0.1463938,0.02866213,0.93053544,0.021379158,-0.9590202,-1.3716661,2.252866,-0.06972079,0.4312925,1.246634,0.4948015
0.1,-0.1,1.4,0.5235987755982988,0.0,0,-0.26962924,-1.0876828,-0.7433754,0.13927254,-0.033103127,0.97707045,-0.5749403,-0.9586275,-1.3711063,2.2575722,-0.027081951,0.34057537,1.2986035,0.38274023
0.1,-0.1,1.4,0.5235987755982988,0.0,0,-0.2684655,-1.0874517,-0.7545934,0.151708,0.008973288,1.019147,0.2517618,-0.9600662,-1.3739221,2.2554848,0.02588846,0.38050956,1.2241061,0.39463592
0.1,-0.1,1.4,0.5235987755982988,0.0,0,-0.26873294,-1.0878044,-0.7467974,0.14180346,-0.09054716,0.9396713,-0.31153834,-0.9590719,-1.3702925,2.2533855,-0.01379827,0.3606343,1.2379241,0.5706284
0.1,-0.1,1.4,0.5235987755982988,0.0,0,-0.27037978,-1.088305,-0.7488516,0.1381252,-0.028680237,0.9235947,-0.06797524,-0.9595181,-1.3722328,2.2609894,-0.029067265,0.2965583,1.2089343,0.6554684
0.1,-0.1,1.4,0.5235987755982988,0.0,0,-0.27018133,-1.0876708,-0.7487443,0.15543646,0.07572734,0.92029876,0.47914565,-0.9584695,-1.3716657,2.2605789,-0.01214662,0.2872238,1.237213,-0.18378101
0.1,-0.1,1.4,0.5235987755982988,0.0,0,-0.2697502,-1.0877918,-0.74333704,0.122739255,0.06136755,0.9348141,-0.107426845,-0.959085,-1.3720495,2.260491,-0.012703033,0.21244976,1.2475369,0.6597075
0.1,-0.1,1.4,0.5235987755982988,0.0,0,-0.26833346,-1.0876696,-0.7349756,0.1215588,-0.09201477,1.0086217,-0.17238262,-0.95921135,-1.3716729,2.2574189,-0.024896005,0.35837147,1.2825123,0.18414213
0.1,-0.1,1.4,0.5235987755982988,0.0,0,-0.27112383,-1.0886036,-0.7460483,0.16818611,0.02300653,0.93655187,-0.0795315,-0.95862085,-1.3725389,2.251855,-0.0576849,0.33741304,1.2369859,1.172627
0.1,-0.1,1.4,0.5235987755982988,0.0,0,-0.26992604,-1.0880249,-0.745719,0.1579304,-0.084978476,0.8647493,-0.43321216,-0.9586055,-1.3718691,2.2583423,-0.053243596,0.27657166,1.2472333,-0.33982033
0.1,-0.1,1.4,0.5235987755982988,0.0,0,-0.2696198,-1.0877943,-0.74961823,0.11993194,0.016987741,1.0525308,0.03955512,-0.9598471,-1.3724332,2.2571175,-0.021491978,0.3223893,1.2518336,0.5392322
0.1,-0.1,1.4,0.5235987755982988,0.0,0,-0.26977584,-1.087473,-0.74890304,0.15008911,-0.02670908,1.0074894,0.032927983,-0.9584192,-1.370983,2.2599504,0.010132356,0.19829261,1.2064006,0.23916544
0.1,-0.1,1.4,0.5235987755982988,0.0,0,-0.26889953,-1.0872825,-0.73901725,0.14756018,0.008882833,1.0261049,0.2941608,-0.959442,-1.3719778,2.259018,-0.0574357,0.2873008,1.1582595,0.7656807
0.1,-0.1,1.4,0.5235987755982988,0.0,0,-0.27049232,-1.0883206,-0.7469884,0.14379002,-0.0057139364,0.9546829,-0.23037829,-0.95933795,-1.372745,2.2503474,0.021389853,0.17383838,1.2014939,0.40949094
0.1,-0.1,1.4,0.5235987755982988,0.0,0,-0.26994044,-1.0882356,-0.74439776,0.13185635,-0.11858601,0.93458384,-0.14435436,-0.9587362,-1.3722107,2.2569804,0.02499403,0.2362947,1.2788949,0.52277434
0.1,-0.1,1.4,0.5235987755982988,0.0,0,-0.26947346,-1.0873692,-0.75133216,0.13837442,0.15050894,1.0247182,-0.27456966,-0.95965827,-1.3713628,2.252194,-0.035589416,0.32410124,1.2455561,0.6390984
0.1,-0.1,1.4,0.5235987755982988,0.0,0,-0.26955673,-1.0879507,-0.7450275,0.17035334,0.03967402,0.98069054,-0.1702266,-0.9587066,-1.3723558,2.2595966,0.044024333,0.24405774,1.1661584,0.6286901
0.1,-0.1,1.4,0.5235987755982988,0.0,0,-0.27007937,-1.0881215,-0.743199,0.16393113,-0.08598126,0.8923907,-0.08299855,-0.9582787,-1.3732121,2.2565382,-0.013040012,0.27546102,1.2587177,1.0759758
0.1,-0.1,1.4,0.5235987755982988,0.0,0,-0.26900756,-1.0877132,-0.74581426,0.15189674,-0.024628287,1.0319128,-0.2618492,-0.95855623,-1.3719003,2.258105,-0.038922995,0.17771478,1.2215239,0.16071491
0.1,-0.1,1.4,0.5235987755982988,0.0,0,-0.26936454,-1.0878315,-0.7532066,0.15032499,-0.057246722,0.952223,0.0651373,-0.9585753,-1.3711028,2.2626877,-0.02455168,0.28351608,1.2641386,0.42451867
0.1,-0.1,1.4,0.5235987755982988,0.0,0,-0.26994252,-1.0875163,-0.75039834,0.15358159,-0.061105933,0.97225463,-0.2370936,-0.958545,-1.3724469,2.2489986,-0.012641558,0.36309814,1.2687027,1.1259967
0.1,-0.1,1.4,0.5235987755982988,0.0,0,-0.27010453,-1.0879278,-0.7461818,0.1578719,-0.046364035,1.0113573,-0.6877057,-0.95946723,-1.3729578,2.2522674,-0.03960393,0.19169626,1.244295,0.6839139
0.1,-0.1,1.4,0.5235987755982988,0.0,0,-0.26919162,-1.087789,-0.74671817,0.16294615,0.0720901,1.0109475,-0.42670926,-0.9583852,-1.3724655,2.2539282,0.00762088,0.25700253,1.2117487,0.58944845
0.1,-0.1,1.4,0.5235987755982988,0.0,0,-0.26893622,-1.087614,-0.7474964,0.17088702,0.103937216,1.0271271,-0.34323114,-0.9588796,-1.3716627,2.2563708,-0.013056799,0.30117604,1.2416797,0.7025992
0.1,-0.1,1.4,0.5235987755982988,0.0,0,-0.27029112,-1.0872376,-0.75334615,0.14972304,-0.05727075,0.9330145,-0.090236105,-0.95808417,-1.3720295,2.2592824,0.004644759,0.266633,1.1955798,1.0152841
0.1,-0.1,1.4,0.5235987755982988,0.0,0,-0.2691213,-1.0878953,-0.74792933,0.13071454,0.002405108,0.9857505,-0.10008521,-0.9604412,-1.371695,2.258801,-0.054653265,0.2775864,1.1765652,0.25264454
0.1,-0.1,1.4,0.5235987755982988,0.0,0,-0.27041158,-1.0873169,-0.745076,0.13270678,-0.123684585,1.0346583,0.051874146,-0.9577522,-1.3699759,2.2552724,-0.008545664,0.39622983,1.2219214,0.47608662
0.1,-0.1,1.4,0.5235987755982988,0.0,0,-0.27039653,-1.0874816,-0.7476343,0.14631462,0.0020280944,1.0149578,0.15656677,-0.95883584,-1.3723927,2.2565007,-0.038056463,0.29477024,1.2246014,0.76138175
0.1,-0.1,1.4,0.5235987755982988,0.0,0,-0.26886597,-1.0875671,-0.74021196,0.15703654,0.01828039,1.0046694,0.2236213,-0.9595896,-1.3731846,2.2554529,-0.036870897,0.25377464,1.2653953,0.58286315
0.1,-0.1,1.4,0.5235987755982988,0.0,0,-0.26959825,-1.0879849,-0.7324198,0.14252165,-0.010946295,1.0520071,-0.30745348,-0.9581084,-1.3723916,2.253314,0.0011952347,0.42808074,1.2694867,0.82182074
0.1,-0.1,1.4,0.5235987755982988,0.0,0,-0.2690187,-1.0878794,-0.7484721,0.15933152,-0.008310448,0.9493533,-0.1350872,-0.95964414,-1.3725404,2.257723,-0.06553999,0.19197601,1.2595811,0.8670064
0.1,-0.1,1.4,0.5235987755982988,0.0,0,-0.2693372,-1.0879728,-0.75450397,0.15232904,-0.09005585,0.9465468,-0.19799823,-0.95858514,-1.3713305,2.2581122,-0.05070565,0.36065242,1.1727453,-0.06426968
0.1,-0.1,1.4,0.5235987755982988,0.0,0,-0.26955593,-1.0875202,-0.7467645,0.12557082,-0.02710788,0.88434017,-0.18338154,-0.95813704,-1.3724418,2.2578676,-0.022604605,0.33668113,1.2557849,0.3369205
0.1,-0.1,1.4,0.5235987755982988,0.0,0,-0.27028796,-1.0884926,-0.74593955,0.16415966,-0.017748732,0.9282004,-0.12843554,-0.9582483,-1.3719146,2.2544122,0.009584944,0.2998489,1.2319672,0.76978433
0.1,-0.1,1.4,0.5235987755982988,0.0,0,-0.26957008,-1.0872202,-0.7454857,0.14287372,-0.111647196,0.99051297,-0.10348624,-0.9582809,-1.3725116,2.2563114,-0.028136821,0.15478627,1.1955591,0.6848388
0.1,-0.1,1.4,0.5235987755982988,0.0,0,-0.27079877,-1.0886266,-0.7559122,0.14665948,0.06473379,0.9660298,-0.16954702,-0.9589268,-1.3720815,2.2553158,-0.034309663,0.2505337,1.1867555,-0.10687772
0.1,-0.1,1.4,0.5235987755982988,0.0,0,-0.26953325,-1.0876254,-0.75217855,0.16700125,-0.18656804,0.98270965,-0.609155,-0.95854336,-1.3720282,2.2606924,-0.017811315,0.3757539,1.2296171,0.6025941
0.1,-0.1,1.4,0.5235987755982988,0.0,0,-0.26967528,-1.0876532,-0.75312996,0.17037246,0.033889465,1.0454569,-0.21948606,-0.9588857,-1.3724277,2.2613356,-0.01681783,0.28627893,1.2277156,0.42467067
0.1,-0.1,1.4,0.5235987755982988,0.0,0,-0.26958883,-1.087742,-0.7534891,0.14718853,-0.020011906,0.9858973,-0.19241427,-0.9589213,-1.3715336,2.258773,-0.054200817,0.4209511,1.2684201,0.78223085
0.1,-0.1,1.4,0.5235987755982988,0.0,0,-0.26976386,-1.0880799,-0.73930144,0.13028443,-0.12418104,1.0501902,-0.19167054,-0.9584738,-1.3722438,2.2569733,-0.00065558596,0.25858265,1.248147,-0.03602477
0.1,-0.1,1.4,0.5235987755982988,0.0,0,-0.26993468,-1.0883633,-0.75167286,0.1597809,0.13613886,0.9581257,-0.22797239,-0.95796156,-1.371511,2.2583182,-0.0017170684,0.33683014,1.2569209,0.16830601
0.1,-0.1,1.4,0.5235987755982988,0.0,0,-0.27082297,-1.0885268,-0.75058824,0.13963361,0.040874265,0.97886574,-0.2873316,-0.9583423,-1.3724942,2.2547817,-0.007333937,0.3154896,1.2282152,0.61586106
0.1,-0.1,1.4,0.5235987755982988,0.0,0,-0.26960295,-1.0882618,-0.75521076,0.13700911,-0.06826754,0.9762548,0.058311045,-0.9591488,-1.3735366,2.2564118,-0.050557688,0.32195902,1.2166277,0.3216715
0.1,-0.1,1.4,0.5235987755982988,0.0,0,-0.26905257,-1.0881565,-0.7462158,0.15731844,0.028864104,1.0035518,-0.3481207,-0.95913094,-1.3710703,2.2492664,-0.041263137,0.42530438,1.2193198,0.74373806
0.1,-0.1,1.4,0.5235987755982988,0.0,0,-0.27004448,-1.0876503,-0.75177836,0.13929513,-0.066889845,1.0155519,0.06148958,-0.95842505,-1.3728542,2.2524498,-0.057515487,0.25790155,1.2385173,0.51576966
0.1,-0.1,1.4,0.5235987755982988,0.0,0,-0.26848012,-1.0872968,-0.7427392,0.14630528,-0.20127209,1.0202209,-0.21060082,-0.9584174,-1.3731081,2.2545743,-0.04095365,0.22451338,1.280992,0.4236566
0.1,-0.1,1.4,0.5235987755982988,0.0,0,-0.26887298,-1.0881847,-0.75044894,0.14267747,-0.0008903838,0.94320405,0.10711886,-0.9603019,-1.3720006,2.2549763,-0.03310837,0.2938909,1.1455942,0.20134847
0.1,-0.1,1.4,0.5235987755982988,0.0,0,-0.26901647,-1.087664,-0.74852604,0.15764289,-0.043993946,0.98906916,0.2615232,-0.9585821,-1.372852,2.2560656,-0.041348033,0.22106914,1.2904427,0.36794722
0.1,-0.1,1.4,0.5235987755982988,0.0,0,-0.27060083,-1.087448,-0.7533327,0.14846955,-0.056418087,0.9083737,-0.52411646,-0.9610724,-1.3718318,2.251661,-0.05718114,0.33099166,1.2397522,0.837853
0.1,-0.1,1.4,0.5235987755982988,0.0,0,-0.27037314,-1.087726,-0.7502207,0.178983,-0.008483024,0.9985732,-0.45626408,-0.9605667,-1.373919,2.254945,-0.016469568,0.2784802,1.2433854,-0.33864745
0.1,-0.1,1.4,0.5235987755982988,0.0,0,-0.27022696,-1.0877063,-0.74330264,0.12366197,-0.11256489,0.9787888,-0.122782685,-0.96071863,-1.3716975,2.257711,-0.042753156,0.42637253,1.2816873,-0.007831197
0.1,-0.1,1.4,0.5235987755982988,0.0,0,-0.2701264,-1.0871272,-0.7519891,0.14826782,0.07140612,0.93982095,-0.3871727,-0.96088886,-1.372043,2.2523198,-0.052521273,0.36707845,1.2193769,0.36097208
0.1,-0.1,1.4,0.5235987755982988,0.0,0,-0.26988626,-1.0873779,-0.7397689,0.14514294,0.07919874,0.90032023,0.12783696,-0.961206,-1.3712188,2.2556238,-0.031885248,0.32580516,1.2798127,0.7426034
0.1,-0.1,1.4,0.5235987755982988,0.0,0,-0.26992354,-1.0871953,-0.74583954,0.15099607,-0.055377938,0.9069938,-0.8343989,-0.9609151,-1.3706979,2.2526593,-0.0025564728,0.31129447,1.2228494,0.37471983
0.1,-0.1,1.4,0.5235987755982988,0.0,0,-0.27014747,-1.0874821,-0.7326711,0.16074525,-0.11274613,0.95106685,-0.046433624,-0.95939296,-1.3694806,2.2570956,-0.037787084,0.3691068,1.2401427,-0.070337646
0.1,-0.1,1.4,0.5235987755982988,0.0,0,-0.26974192,-1.0864652,-0.74897075,0.16840851,-0.0053700404,0.98280054,-0.32574955,-0.96123683,-1.3719941,2.2568216,-0.0022585192,0.2745183,1.2173789,0.84095055
0.1,-0.1,1.4,0.5235987755982988,0.0,0,-0.2700758,-1.0878116,-0.74238914,0.13997579,0.027672486,0.9245098,-0.27494302,-0.96102184,-1.3719583,2.2559829,0.00722202,0.26384193,1.3203853,0.7159642
0.1,-0.1,1.4,0.5235987755982988,0.0,0,-0.27131137,-1.0879105,-0.74744916,0.12623285,-0.051052853,0.9488956,-0.15846132,-0.95981824,-1.372723,2.2606318,-0.018257992,0.29307482,1.2687322,-0.41850123
0.1,-0.1,1.4,0.5235987755982988,0.0,0,-0.26985934,-1.087699,-0.7429547,0.114595845,-0.07236415,0.9579808,-0.3101065,-0.96080124,-1.3726285,2.261531,0.0033713495,0.3515081,1.2121198,0.75611615
0.1,-0.1,1.4,0.5235987755982988,0.0,0,-0.27082464,-1.0871291,-0.74463797,0.12528624,-0.18680133,0.9339116,-0.5854952,-0.96026534,-1.3729645,2.2542608,-0.04487352,0.27899262,1.2627541,0.12573335
0.1,-0.1,1.4,0.5235987755982988,0.0,0,-0.26905197,-1.0873617,-0.74318874,0.14579433,-0.027619518,0.98298335,-0.1022278,-0.95930666,-1.370114,2.2578156,-0.06375635,0.43649498,1.2882773,0.48039922
0.1,-0.1,1.4,0.5235987755982988,0.0,0,-0.26919818,-1.0880892,-0.74513227,0.1589832,0.01790565,0.8624775,0.053318102,-0.9589152,-1.3701712,2.255869,-0.0028587133,0.23457125,1.2527677,-0.00054691895
0.1,-0.1,1.4,0.5235987755982988,0.0,0,-0.26971638,-1.0880896,-0.7436333,0.1501133,-0.11939815,0.8849245,-0.336994,-0.9592187,-1.3721619,2.2513294,-0.002080815,0.4517801,1.2603477,0.62416774
0.1,-0.1,1.4,0.5235987755982988,0.0,0,-0.26998892,-1.0883248,-0.74670756,0.16592571,0.09813836,0.92936736,-0.59177303,-0.95928186,-1.3706135,2.251713,0.019867932,0.27582806,1.2111826,1.1128342
0.1,-0.1,1.4,0.5235987755982988,0.0,0,-0.27005142,-1.0872587,-0.74716437,0.14669009,-0.053910803,0.96139437,-0.7690618,-0.959439,-1.3723568,2.2579846,0.02271597,0.21842821,1.1157038,0.42676833
0.1,-0.1,1.4,0.5235987755982988,0.0,0,-0.26956657,-1.0870697,-0.7400499,0.15035832,-0.23482963,0.9603442,-0.048847787,-0.958564,-1.3701735,2.2504942,0.020358166,0.32546133,1.2854285,1.0769798
0.1,-0.1,1.4,0.5235987755982988,0.0,0,-0.26907277,-1.0872225,-0.75065774,0.15236293,-0.004990859,0.9648142,-0.07952262,-0.96104723,-1.3722141,2.259618,-0.03030423,0.32805467,1.236814,0.61641544
0.1,-0.1,1.4,0.5235987755982988,0.0,0,-0.27009374,-1.0875236,-0.74643046,0.13448688,-0.06751332,1.0664655,-0.36002535,-0.9597969,-1.3718737,2.2531788,-0.058155805,0.326649,1.2368969,0.24743284
0.1,-0.1,1.4,0.5235987755982988,0.0,0,-0.269506,-1.0879135,-0.74939126,0.17477217,-0.037363686,1.0192518,-0.19063048,-0.95919126,-1.37079,2.2607996,-0.012126491,0.21282442,1.1714329,0.059873186
0.1,-0.1,1.4,0.5235987755982988,0.0,0,-0.26930755,-1.087306,-0.75257,0.1450011,-0.08474786,0.9940559,-0.09154733,-0.9603218,-1.3720925,2.254285,-0.067786284,0.33085385,1.2430357,0.63741714
0.1,-0.1,1.4,0.5235987755982988,0.0,0,-0.26863888,-1.0867395,-0.7533874,0.14463215,-0.16665904,0.9582592,-0.019027287,-0.95929813,-1.3715624,2.2593865,-0.010239346,0.35848135,1.318575,-0.5836717
0.1,-0.1,1.4,0.5235987755982988,0.0,0,-0.27054134,-1.0871321,-0.74786973,0.16358338,0.008443368,1.0092286,-0.6028669,-0.95849127,-1.3709412,2.2572727,-0.020411411,0.3789392,1.2291307,0.7704682
0.1,-0.1,1.4,0.5235987755982988,0.0,0,-0.26843852,-1.0870863,-0.7512274,0.13286617,0.033940755,0.9129658,-0.5059537,-0.9602189,-1.3718143,2.261166,0.0032677278,0.27462748,1.2406206,-0.22465098
0.1,-0.1,1.4,0.5235987755982988,0.0,0,-0.26879758,-1.0876296,-0.75442404,0.14987859,0.020853408,0.95724475,-0.1429235,-0.96107256,-1.3711643,2.2563968,-0.018588878,0.40740335,1.2369713,-0.10321473
0.1,-0.1,1.4,0.5235987755982988,0.0,0,-0.26927397,-1.0876715,-0.74561876,0.14926636,-0.01926004,1.0153714,-0.5277866,-0.9610999,-1.3733104,2.2544963,-0.0047134934,0.32762563,1.1855742,0.50720453
0.1,-0.1,1.4,0.5235987755982988,0.0,0,-0.27098495,-1.0883673,-0.75751597,0.14185245,0.015588409,0.92952305,-0.65497625,-0.96031314,-1.3722987,2.2575793,-0.010869133,0.37911677,1.2431154,0.7342105
0.1,-0.1,1.4,0.5235987755982988,0.0,0,-0.26985916,-1.0873485,-0.7481463,0.14154866,-0.04279267,0.928178,-0.6481213,-0.9602683,-1.372205,2.253746,-0.04048026,0.32802847,1.2525452,0.64374584
0.1,-0.1,1.4,0.5235987755982988,0.0,0,-0.27024245,-1.0882219,-0.7601405,0.15311472,0.08740224,0.94591683,-0.37969407,-0.95981115,-1.3723663,2.2641625,0.0019905611,0.23721053,1.295274,0.3112751
0.1,-0.1,1.4,0.5235987755982988,0.0,0,-0.26967934,-1.0875872,-0.75162554,0.14252402,0.009600748,0.9599935,-0.22189917,-0.96006644,-1.3718402,2.2567632,0.009722592,0.3518678,1.2813855,0.11345712
0.1,-0.1,1.4,0.5235987755982988,0.0,0,-0.27005926,-1.0882515,-0.75297517,0.12830257,0.057895564,0.956297,-0.08411405,-0.96032864,-1.3704188,2.259932,-0.05290774,0.32896522,1.2715491,-0.009191187
0.1,-0.1,1.4,0.5235987755982988,0.0,0,-0.27075285,-1.0874846,-0.7497122,0.15655279,-0.057545397,0.8842009,-0.29799703,-0.95890623,-1.3712158,2.2536077,-0.035343904,0.32978436,1.246185,1.0078186
0.1,-0.1,1.4,0.5235987755982988,0.0,0,-0.26907128,-1.0875423,-0.7398913,0.15264432,-0.06176225,0.94758993,-0.20611243,-0.959116,-1.3715533,2.2562726,0.007688623,0.30698952,1.2322233,0.6056252
0.1,-0.1,1.4,0.5235987755982988,0.0,0,-0.26999938,-1.0873905,-0.74925685,0.15352583,0.12804115,0.99615365,-0.55285585,-0.95776767,-1.3711767,2.2536726,-0.041895676,0.26896363,1.2097118,0.83917534
0.1,-0.1,1.4,0.5235987755982988,0.0,0,-0.26973575,-1.0891196,-0.7436241,0.13935706,0.07548944,0.8773827,-0.09334961,-0.95899755,-1.3707244,2.2625673,-0.029484596,0.24369243,1.1629374,-0.19165654
0.1,-0.1,1.4,0.5235987755982988,0.0,0,-0.2705581,-1.0877924,-0.75242096,0.14689785,-0.046830047,0.9897698,-0.6251947,-0.9592084,-1.3727831,2.2577145,0.02961832,0.36016953,1.2973006,0.15804932
0.1,-0.1,1.4,0.5235987755982988,0.0,0,-0.26959336,-1.0875831,-0.74616176,0.12952058,0.1056438,0.97929966,-0.5830467,-0.9594389,-1.3717409,2.2536726,-0.026711825,0.2798055,1.2213593,1.0287883
0.1,-0.1,1.4,0.5235987755982988,0.0,0,-0.2691907,-1.087924,-0.74128115,0.13304996,0.0018136621,0.8602717,0.06531862,-0.95975983,-1.3726662,2.2532609,-0.0074371626,0.33327234,1.1936836,1.1456438
0.1,-0.1,1.4,0.5235987755982988,0.0,0,-0.2682682,-1.0875939,-0.7411703,0.13648719,0.09703292,0.97344077,-0.270356,-0.9608262,-1.3734379,2.259342,0.0090114195,0.31491223,1.1921269,0.97907895
0.1,-0.1,1.4,0.5235987755982988,0.0,0,-0.26990262,-1.0881588,-0.7467178,0.13324289,-0.009619605,0.99260694,-0.057626557,-0.9595227,-1.3710449,2.25828,-0.0135911275,0.34883332,1.2010212,0.9620895
0.1,-0.1,1.4,0.5235987755982988,0.0,0,-0.27064878,-1.0881201,-0.7463226,0.12858245,-0.057136778,0.9484859,-0.2596171,-0.95797867,-1.3709099,2.2545822,-0.0023767287,0.2512659,1.237426,-0.3290234
0.1,-0.1,1.4,0.5235987755982988,0.0,0,-0.27030078,-1.08737,-0.74996144,0.15408942,-0.0045697046,1.0059117,-0.23933266,-0.9585799,-1.3720943,2.2573535,-0.045123596,0.24805783,1.1996598,1.0863734
0.1,-0.1,1.4,0.5235987755982988,0.0,0,-0.26917827,-1.0869699,-0.7470549,0.13311718,-0.08816248,0.9800298,-0.22366786,-0.95858335,-1.3719132,2.262395,-0.038861822,0.33330828,1.155156,0.5048975
0.1,-0.1,1.4,0.5235987755982988,0.0,0,-0.2696356,-1.0877246,-0.74612164,0.13628714,-0.0409944,1.0938494,-0.7508546,-0.9581599,-1.3715994,2.2621377,-0.0036152068,0.3632009,1.2353013,0.78170145
0.1,-0.1,1.4,0.5235987755982988,0.0,0,-0.2686717,-1.0883733,-0.7445546,0.16515754,-0.022108182,0.987281,-0.43664432,-0.95980597,-1.3711785,2.2561374,-0.04341931,0.29771453,1.2289312,0.13489033
0.1,-0.1,1.4,0.5235987755982988,0.0,0,-0.2690161,-1.0886146,-0.7420373,0.14576763,-0.06793204,0.95510095,-0.43313438,-0.96002364,-1.3718443,2.2548416,0.010138144,0.43891838,1.2759988,0.80879515
0.1,-0.1,1.4,0.5235987755982988,0.0,0,-0.26954937,-1.0875503,-0.7433852,0.17590976,0.11254539,0.9354851,0.0013444345,-0.95935994,-1.3739536,2.257322,0.0059166886,0.31938797,1.2815082,0.81912774
0.1,-0.1,1.4,0.5235987755982988,0.0,0,-0.26906964,-1.0881498,-0.7384865,0.11991147,-0.175967,0.88321555,-0.0022789715,-0.9591859,-1.3711307,2.2547474,-0.015993467,0.28577858,1.2653298,0.8917875
0.1,-0.1,1.4,0.5235987755982988,0.0,0,-0.26943064,-1.0874786,-0.74337727,0.15693027,-0.00055578706,1.0015491,-0.11731499,-0.9586516,-1.3722492,2.2527335,-0.026872681,0.28863493,1.2596505,-0.07178199
0.1,-0.1,1.4,0.5235987755982988,0.0,0,-0.2707396,-1.0873429,-0.74725044,0.14654046,-0.09263091,1.007684,-0.2553266,-0.95727473,-1.3710774,2.2528484,-0.009709978,0.37157023,1.2479185,0.16422771
0.1,-0.1,1.4,0.5235987755982988,0.0,0,-0.2687121,-1.0875479,-0.75171465,0.15952055,-0.055086482,1.0453354,-0.59256274,-0.9591514,-1.3701742,2.258454,0.00610686,0.28298143,1.1883289,0.36384454
0.1,-0.1,1.4,0.5235987755982988,0.0,0,-0.26959538,-1.0881118,-0.75020164,0.11542013,-0.08863658,0.91780806,0.021509834,-0.95955694,-1.3720926,2.2574027,-0.016939271,0.33925188,1.3425664,0.7079273
0.1,-0.1,1.4,0.5235987755982988,0.0,0,-0.26992887,-1.0875063,-0.7453353,0.12825347,-0.10612778,0.95414454,-0.099712566,-0.9593487,-1.3722854,2.2600496,-0.039319627,0.34223977,1.2428821,0.4790848
0.1,-0.1,1.4,0.5235987755982988,0.0,0,-0.2688942,-1.0872467,-0.74611324,0.14147319,0.059208255,0.94590676,-0.2464343,-0.95886266,-1.3725748,2.2566383,-0.017013766,0.32101226,1.2631847,0.6730814
0.1,-0.1,1.4,0.5235987755982988,0.0,0,-0.26937208,-1.0872827,-0.7460311,0.12942044,-0.07498241,0.95234144,-0.10516684,-0.95827997,-1.3717521,2.2615497,-0.0015262801,0.3198274,1.2241395,0.6079239
0.1,-0.1,1.4,0.5235987755982988,0.0,0,-0.26963058,-1.0881139,-0.7389522,0.16041733,0.017520513,1.0532901,-0.32216164,-0.96057403,-1.3697317,2.2569504,-0.036127828,0.48781228,1.2435414,0.36112964
0.1,-0.1,1.4,0.5235987755982988,0.0,0,-0.2706237,-1.0880904,-0.75339496,0.15040521,-2.9414698e-05,0.98325044,0.18626507,-0.9595652,-1.3730632,2.2552495,-0.015786361,0.284067,1.2894273,0.5782433
0.1,-0.1,1.4,0.5235987755982988,0.0,0,-0.27009523,-1.0877119,-0.748741,0.17964658,-0.15878047,0.94245183,0.088654876,-0.9577924,-1.3725976,2.2588925,-0.03515765,0.22603768,1.2827657,0.61975265
0.1,-0.1,1.4,0.5235987755982988,0.0,0,-0.27022046,-1.0874922,-0.74593973,0.1465395,-0.04279475,0.97388905,-0.28531095,-0.95800513,-1.3712218,2.2561674,0.009005655,0.30309126,1.1937822,0.38504118
0.1,-0.1,1.4,0.5235987755982988,0.0,0,-0.26976383,-1.0879804,-0.7504012,0.14935495,0.10098072,1.0309753,-0.63020426,-0.95902944,-1.3717821,2.2577107,-0.00040024225,0.309865,1.2044411,0.011552147
0.1,-0.1,1.4,0.5235987755982988,0.0,0,-0.26999798,-1.0874395,-0.75082856,0.13973139,-0.02554881,1.0103686,-0.4591802,-0.95863235,-1.3722131,2.2565458,-0.039867703,0.3370375,1.2630651,0.6073006
0.1,-0.1,1.4,0.5235987755982988,0.0,0,-0.2687679,-1.0886111,-0.7475701,0.1324757,-0.1235653,0.9412871,-0.67507434,-0.9593444,-1.371729,2.256154,-0.016866248,0.3002815,1.2877072,0.44682828
0.1,-0.1,1.4,0.5235987755982988,0.0,0,-0.26885614,-1.087881,-0.74373233,0.13637654,0.019030593,0.99575096,0.035898965,-0.95880204,-1.372208,2.2610571,-0.042656608,0.21950765,1.3039166,0.5633035
0.1,-0.1,1.4,0.5235987755982988,0.0,0,-0.26933065,-1.0879955,-0.74558306,0.1494187,-0.04641864,0.98980296,-0.29136676,-0.95798326,-1.3708051,2.2572742,-0.026739197,0.33226544,1.2687688,-0.22474357
0.1,-0.1,1.4,0.5235987755982988,0.0,0,-0.2697799,-1.088212,-0.7388518,0.14372864,-0.091019966,1.0310774,-0.44942105,-0.95903736,-1.3737969,2.2584255,0.014194918,0.30741203,1.2110797,1.1926835
0.1,-0.1,1.4,0.5235987755982988,0.0,0,-0.26918265,-1.0880327,-0.7412475,0.13684724,0.040585555,1.0083566,-0.44263852,-0.9592925,-1.3737129,2.2514873,-0.004538213,0.32093254,1.2594343,-0.09170102
0.1,-0.1,1.4,0.5235987755982988,0.0,0,-0.2700854,-1.0878518,-0.7382935,0.1404183,-0.044973146,0.95512044,-0.30070636,-0.96043545,-1.3720407,2.2557182,-0.040675674,0.33567262,1.2932496,0.82599324
0.1,-0.1,1.4,0.5235987755982988,0.0,0,-0.26935512,-1.0875547,-0.7425269,0.14725684,-0.04358745,1.0439531,-0.4230826,-0.96216774,-1.369894,2.2553382,-0.044585954,0.35593525,1.2394485,-0.12764041
0.1,-0.1,1.4,0.5235987755982988,0.0,0,-0.2706647,-1.0871848,-0.7568862,0.14066263,0.021079844,1.0224763,-0.39763528,-0.9590019,-1.3714782,2.2605815,-0.08232831,0.37316027,1.2348766,0.12841079
0.1,-0.1,1.4,0.5235987755982988,0.0,0,-0.27030075,-1.087542,-0.7387337,0.13704993,-0.045777403,0.8094916,0.011574042,-0.96008325,-1.3738644,2.2527754,0.014094395,0.36516005,1.2734947,0.3914148
0.1,-0.1,1.4,0.5235987755982988,0.0,0,-0.27030167,-1.0874684,-0.7483259,0.13010842,0.028439956,0.94586515,-0.5250827,-0.9595089,-1.3715483,2.253884,-0.041574314,0.29992288,1.2125326,0.5588375
0.1,-0.1,1.4,0.5235987755982988,0.0,0,-0.2692309,-1.0874363,-0.74097383,0.14313968,-0.115477145,0.9612725,-0.727108,-0.9586142,-1.3710605,2.2526686,-0.0145771485,0.26687533,1.1702211,0.8817575
0.1,-0.1,1.4,0.5235987755982988,0.0,0,-0.26939777,-1.0875757,-0.7470207,0.16092838,-0.026109695,0.9579534,-0.3252282,-0.95928013,-1.3704656,2.253269,-0.005320683,0.304724,1.2569349,0.16608681
0.1,-0.1,1.4,0.5235987755982988,0.0,0,-0.26919746,-1.0879725,-0.74743277,0.13638683,-0.04394185,1.0674076,0.0014065639,-0.95959085,-1.3703711,2.2608905,-0.006798248,0.23676972,1.2140363,0.6591883
0.1,-0.1,1.4,0.5235987755982988,0.0,0,-0.2689262,-1.0879052,-0.74776125,0.15724134,-0.11801601,0.9265757,-0.6427879,-0.9597022,-1.3711636,2.256683,-0.01619636,0.34861162,1.2835319,-0.072917834
0.1,-0.1,1.4,0.5235987755982988,0.0,0,-0.269653,-1.0875643,-0.748456,0.13073115,0.008024426,0.969337,0.09010897,-0.9587579,-1.3704733,2.2585304,-0.0129429465,0.2529017,1.2679578,0.6032432
0.1,-0.1,1.4,0.5235987755982988,0.0,0,-0.269697,-1.0872555,-0.7492062,0.1673102,-0.12216583,0.9741594,-0.2130937,-0.9586483,-1.3716099,2.258384,-0.022110848,0.30729038,1.26469,0.06793809
0.1,-0.1,1.4,0.5235987755982988,0.0,0,-0.2692935,-1.0873206,-0.74976796,0.12570295,-0.06808162,0.9978213,-0.2495236,-0.96002346,-1.3720856,2.2582457,-0.013580893,0.21854624,1.2372954,1.1719831
0.1,-0.1,1.4,0.5235987755982988,0.0,0,-0.2689803,-1.0881146,-0.74679244,0.17385863,0.05588147,0.9918059,-0.8077099,-0.959687,-1.3717566,2.2605405,-0.010174401,0.328088,1.2523975,0.13544783
0.1,-0.1,1.4,0.5235987755982988,0.0,0,-0.26937568,-1.0875754,-0.75154805,0.14615074,0.0472615,1.0246468,0.034042913,-0.9597343,-1.3708355,2.252611,0.00063221593,0.3793624,1.2052531,0.07220416
0.1,-0.1,1.4,0.5235987755982988,0.0,0,-0.269649,-1.0873052,-0.74924123,0.1358142,0.12742475,1.0064262,-0.6149541,-0.95854783,-1.3717835,2.2542188,-0.034835946,0.29191938,1.2546619,1.1178068
0.1,-0.1,1.4,0.5235987755982988,0.0,0,-0.26915503,-1.0891572,-0.7486952,0.13640442,-0.0045314524,0.97780114,-0.6207691,-0.95937175,-1.3723772,2.2520256,0.056756295,0.41181132,1.1862887,0.80540127
0.1,-0.1,1.4,0.5235987755982988,0.0,0,-0.2703773,-1.0878004,-0.74598694,0.13449103,-0.030673077,1.0103137,-0.18109956,-0.9590535,-1.3717266,2.2544444,-0.02078469,0.27961856,1.2282355,0.5192037
0.1,-0.1,1.4,0.5235987755982988,0.0,0,-0.26947397,-1.087465,-0.752445,0.14209688,0.045335304,0.956463,-0.028815001,-0.9599453,-1.3712426,2.2549503,0.0011342815,0.3015639,1.2377242,1.0499393
0.1,-0.1,1.4,0.5235987755982988,0.0,0,-0.27011207,-1.0875373,-0.7432448,0.14275168,-0.07185018,0.89539176,-0.7498377,-0.9595981,-1.3714304,2.2572656,-0.04321084,0.18460757,1.257881,0.9654524
0.1,-0.1,1.4,0.5235987755982988,0.0,0,-0.27051666,-1.0875773,-0.7520163,0.164802,-0.04437808,0.9572545,0.12198254,-0.9591517,-1.3729924,2.257135,0.029405907,0.26936865,1.2395504,0.4069566
0.1,-0.1,1.4,0.5235987755982988,0.0,0,-0.2704335,-1.0865506,-0.74684966,0.15162264,-0.007565101,1.0052929,-0.3159921,-0.96063364,-1.3716251,2.2579522,-0.03421599,0.30133563,1.2330422,0.32584873
0.1,-0.1,1.4,0.5235987755982988,0.0,0,-0.26989758,-1.0882034,-0.7491868,0.13311489,-0.042874582,0.93047965,-0.6193447,-0.95995665,-1.3718953,2.252432,0.016334198,0.36829057,1.2349211,0.33941916
0.1,-0.1,1.4,0.5235987755982988,0.0,0,-0.26975718,-1.0876964,-0.75158167,0.13460037,0.0132990815,0.98933965,-0.41695637,-0.9606888,-1.3696071,2.2547684,-0.031404775,0.30016887,1.2770903,0.37728053
0.1,-0.1,1.4,0.5235987755982988,0.0,0,-0.27094597,-1.0871185,-0.74449605,0.16622081,0.0049544615,1.016455,-0.12600562,-0.9592797,-1.3728232,2.2583468,-0.01993855,0.3331069,1.2539773,-0.14614694
0.1,-0.1,1.4,0.5235987755982988,0.0,0,-0.26863673,-1.0885661,-0.75500345,0.13170503,-0.08231454,0.96854115,-0.28109053,-0.9597783,-1.3737323,2.254312,-0.054365993,0.341881,1.2298464,0.05621012
0.1,-0.1,1.4,0.5235987755982988,0.0,0,-0.27052957,-1.0878558,-0.750456,0.15925981,-0.11477868,0.96880656,-0.5489918,-0.95978284,-1.372714,2.2555327,-0.008381301,0.340354,1.2479899,0.6072325
0.1,-0.1,1.4,0.5235987755982988,0.0,0,-0.27001292,-1.0881519,-0.7459364,0.13882157,-0.07266466,0.9436958,-0.5110126,-0.95847934,-1.3732768,2.255758,-0.026555074,0.31300956,1.2034771,0.4870334
0.1,-0.1,1.4,0.5235987755982988,0.0,0,-0.2696139,-1.0884238,-0.742803,0.13427109,-0.03734985,1.023424,-0.13693587,-0.9589452,-1.3718265,2.2547174,-0.039202813,0.29633117,1.2474732,0.52333295
0.1,-0.1,1.4,0.5235987755982988,0.0,0,-0.27002463,-1.0873995,-0.753886,0.14542998,-0.10324258,0.9490424,-0.878969,-0.9608334,-1.3729292,2.2597516,-0.028551413,0.22657527,1.2417058,-0.2683944
0.1,-0.1,1.4,0.5235987755982988,0.0,0,-0.2694061,-1.0887419,-0.7443812,0.16561863,0.066815846,0.9223058,-0.1607848,-0.9601236,-1.3728783,2.2581308,0.022753052,0.35693797,1.2094791,0.18300053
0.1,-0.1,1.4,0.5235987755982988,0.0,0,-0.26876852,-1.0872579,-0.75384045,0.13841939,-0.145069,1.0015547,-0.20289575,-0.95962286,-1.3720758,2.2622607,-0.014263257,0.3487236,1.2972895,0.3955954
0.1,-0.1,1.4,0.5235987755982988,0.0,0,-0.2692088,-1.0889285,-0.75427735,0.14005008,0.03064362,0.98427284,-0.77303743,-0.9590756,-1.3718635,2.2544277,0.018676283,0.3378446,1.2116265,1.125795
0.1,-0.1,1.4,0.5235987755982988,0.0,0,-0.26944178,-1.0885043,-0.7488122,0.13448013,-0.22644508,0.95531976,-0.028778045,-0.96015626,-1.3722174,2.255725,-0.031477332,0.4156958,1.2715837,-0.067158096
0.1,-0.1,1.4,0.5235987755982988,0.0,0,-0.26960543,-1.0881287,-0.7488065,0.13587895,-0.07155784,0.9892036,0.11501516,-0.96029216,-1.3722221,2.2567935,-0.005104319,0.24855936,1.283784,0.3041838
0.1,-0.1,1.4,0.5235987755982988,0.0,0,-0.26921952,-1.0871532,-0.74823874,0.14666024,0.019627692,0.9745127,-0.19885105,-0.9589891,-1.3711798,2.254124,-0.029065602,0.16543885,1.2518867,0.38067386
0.1,-0.1,1.4,0.5235987755982988,0.0,0,-0.26955602,-1.0888548,-0.75336444,0.15867493,-0.14198929,0.92904556,-0.14832853,-0.96005976,-1.3721564,2.257763,-0.056306444,0.40282655,1.2454824,0.997129
0.1,-0.1,1.4,0.5235987755982988,0.0,0,-0.27013645,-1.0876123,-0.7466733,0.1339854,0.020273214,1.0280957,-0.5732477,-0.95975924,-1.3715237,2.256049,-0.025221545,0.35919377,1.190099,0.8687213
0.1,-0.1,1.4,0.5235987755982988,0.0,0,-0.26993695,-1.0888942,-0.74236935,0.12776701,-0.06631033,0.97465754,-0.014174396,-0.95835686,-1.3709413,2.2551699,-0.053867918,0.34173355,1.2327919,0.6172973
0.1,-0.1,1.4,0.5235987755982988,0.0,0,-0.26932412,-1.0876194,-0.747565,0.13361761,0.069015555,0.9977184,-0.0125841135,-0.9614286,-1.3721511,2.2588642,0.0005235478,0.25285602,1.3037686,1.1128426
0.1,-0.1,1.4,0.5235987755982988,0.0,0,-0.2709925,-1.0877167,-0.7507368,0.151019,0.12495213,0.9453589,-0.50824887,-0.9593067,-1.3720037,2.2635458,-0.004465866,0.3397361,1.2905498,0.69387496
0.1,-0.1,1.4,0.5235987755982988,0.0,0,-0.26874706,-1.0890793,-0.75165164,0.14744766,0.024153387,0.9888606,-0.24691696,-0.96097356,-1.3715758,2.257327,-0.0178944,0.34778026,1.259993,0.6477954
0.1,-0.1,1.4,0.5235987755982988,0.0,0,-0.26908004,-1.0873629,-0.7472597,0.16117872,-0.068918556,1.0138414,-0.02549055,-0.9568006,-1.3722272,2.251415,0.01741489,0.42000866,1.2612929,0.5923528
0.1,-0.1,1.4,0.5235987755982988,0.0,0,-0.26943186,-1.0874491,-0.7509102,0.13585876,0.004938707,1.0094715,-0.29865003,-0.9584994,-1.3712527,2.2596242,-0.023155356,0.28453484,1.224336,0.51216936
0.1,-0.1,1.4,0.5235987755982988,0.0,0,-0.26800063,-1.0878136,-0.7479818,0.13050243,-0.061588656,0.9377141,-0.34098014,-0.95977956,-1.3704585,2.2589653,-0.010040153,0.27259046,1.2304631,0.52369726
0.1,-0.1,1.4,0.5235987755982988,0.0,0,-0.2702337,-1.0879717,-0.7409201,0.16588461,0.046832394,0.9562131,0.076311804,-0.9597456,-1.3724172,2.2549028,-0.032967605,0.42987397,1.2069324,0.24829847
0.1,-0.1,1.4,0.5235987755982988,0.0,0,-0.271261,-1.0876393,-0.7589359,0.15679651,0.052577365,0.95261186,-0.40891343,-0.9597331,-1.3707181,2.2531476,0.037993945,0.22415856,1.2027104,0.5759055
0.1,-0.1,1.4,0.5235987755982988,0.0,0,-0.27019066,-1.0877287,-0.74938774,0.14686891,-0.029008735,1.0210816,-0.32889512,-0.9577214,-1.3714404,2.2504888,0.015706286,0.2783535,1.209979,0.2913172
0.1,-0.1,1.4,0.5235987755982988,0.0,0,-0.27086207,-1.0875102,-0.7476997,0.13809636,-0.18330847,0.9631499,-0.52084094,-0.96045643,-1.3700749,2.260406,0.011962511,0.3749382,1.2511535,0.81558657
0.1,-0.1,1.4,0.5235987755982988,0.0,0,-0.2706593,-1.0883194,-0.7473134,0.16665821,-0.059101664,0.9088525,-0.8094263,-0.9608578,-1.3713412,2.2583556,-0.012094484,0.3212904,1.2377447,0.7922351
0.1,-0.1,1.4,0.5235987755982988,0.0,0,-0.26914468,-1.0879759,-0.7454929,0.1585622,0.0128449155,0.9230913,-0.8085709,-0.9570067,-1.3717893,2.262059,-0.060753834,0.20210955,1.2309531,0.3833545
0.1,-0.1,1.4,0.5235987755982988,0.0,0,-0.2682903,-1.0879319,-0.75038314,0.1308218,-0.10715016,0.86797005,-0.18779151,-0.9601476,-1.3718357,2.2517762,0.004894413,0.24857736,1.2701846,0.49418694
0.1,-0.1,1.4,0.5235987755982988,0.0,0,-0.27014825,-1.0870153,-0.7493309,0.16767597,-0.0103206,0.93114996,-0.4095111,-0.9586789,-1.3739009,2.2550218,-0.01653946,0.38572088,1.2684922,0.5785305
0.1,-0.1,1.4,0.5235987755982988,0.0,0,-0.26845706,-1.0879916,-0.7392357,0.14077626,-0.03155569,1.014194,0.03674563,-0.9589927,-1.3712751,2.255877,0.01915369,0.3431708,1.2286417,0.6502343
0.1,-0.1,1.4,0.5235987755982988,0.0,0,-0.2717613,-1.0874119,-0.753728,0.14912915,0.0074440325,1.0392873,0.34484908,-0.9588675,-1.3723265,2.2538543,-0.018898562,0.25331986,1.2033818,0.40960163
0.1,-0.1,1.4,0.5235987755982988,0.0,0,-0.26904866,-1.0883102,-0.7438982,0.15842529,-0.056744542,0.99456936,-0.3078367,-0.9593634,-1.3732787,2.2529333,0.019555092,0.33146518,1.2144591,0.11129828
0.1,-0.1,1.4,0.5235987755982988,0.0,0,-0.2696463,-1.0875384,-0.7504352,0.14719105,-0.07857254,1.036676,0.14124641,-0.95837456,-1.3712869,2.251401,-0.036934257,0.2942305,1.2522733,0.2702199
0.1,-0.1,1.4,0.5235987755982988,0.0,0,-0.26917168,-1.0883281,-0.7517478,0.17884699,-0.051663794,0.9547098,-0.6033329,-0.96033114,-1.3728093,2.2615042,0.021795234,0.35831314,1.2336318,0.72036976
0.1,-0.1,1.4,0.5235987755982988,0.0,0,-0.2692693,-1.0872645,-0.74580646,0.13293824,0.08601331,1.0199803,-0.20286962,-0.95911473,-1.3713672,2.253917,-0.030347954,0.30192292,1.246155,-0.031447522
0.1,-0.1,1.4,0.5235987755982988,0.0,0,-0.2696647,-1.0873159,-0.7541361,0.14405885,-0.12642793,0.8713303,-0.07797036,-0.9588397,-1.3720998,2.2555149,-0.0052777166,0.3190883,1.291621,0.5848272
0.1,-0.1,1.4,0.5235987755982988,0.0,0,-0.26966462,-1.088815,-0.7568951,0.1640156,-0.055213384,0.93225,-0.2789475,-0.95915616,-1.3704706,2.2561479,-0.0065331752,0.23838106,1.2279038,0.3541971
0.1,-0.1,1.4,0.5235987755982988,0.0,0,-0.26846588,-1.088274,-0.7478129,0.14725736,0.022857936,0.9551302,-0.5481006,-0.95768195,-1.3731415,2.2552536,0.0031644846,0.34648782,1.2749944,0.6048104
0.1,-0.1,1.4,0.5235987755982988,0.0,0,-0.268478,-1.0880463,-0.7479208,0.12851173,-0.17454088,0.941046,-0.33143434,-0.9595914,-1.3714597,2.2527387,-0.0018453663,0.4538726,1.2345983,-0.9044146
0.1,-0.1,1.4,0.5235987755982988,0.0,0,-0.26948655,-1.087726,-0.7489997,0.16909905,-0.057881545,0.9527537,-0.38407493,-0.95868224,-1.3729945,2.2513244,0.011709282,0.3142697,1.1626744,-0.27623844
0.1,-0.1,1.4,0.5235987755982988,0.0,0,-0.26967517,-1.0878496,-0.7542383,0.16750282,0.012495109,0.94347775,-0.2161676,-0.9570426,-1.371298,2.2512336,-0.005159603,0.33454457,1.2352426,-0.30225477
0.1,-0.1,1.4,0.5235987755982988,0.0,0,-0.2695899,-1.0874091,-0.75228775,0.12596613,-0.034992266,0.9310591,-0.10409039,-0.9577067,-1.3723197,2.2538881,-0.046030056,0.27541164,1.2555696,-0.16330326
