sanky1234/BimanualDexCatch/isaacgymenvs/cem_results/football_pose_-0.1_0.1_0.7999999999999999_0.5235987755982988_0.5235987755982988_0_2025-05-26.csv
x,y,z,roll,pitch,yaw,robot1/joint1,robot1/joint2,robot1/joint3,robot1/joint4,robot1/joint5,robot1/joint6,robot1/joint7,robot2/joint1,robot2/joint2,robot2/joint3,robot2/joint4,robot2/joint5,robot2/joint6,robot2/joint7
-0.1,0.1,0.7999999999999999,0.5235987755982988,0.5235987755982988,0,0.69817275,0.24799211,0.4086812,-0.3958637,0.18117301,1.4830755,1.4861249,-0.20676844,-0.46560925,-0.0848017,-0.087038435,-0.5111451,0.13139056,0.25743937
-0.1,0.1,0.7999999999999999,0.5235987755982988,0.5235987755982988,0,0.70265996,0.25019982,0.39774784,-0.4050377,0.1747869,1.4971206,1.4881124,0.6925062,-0.7153208,-0.2989528,-0.7635137,0.28118825,-0.80119616,-0.33356646
-0.1,0.1,0.7999999999999999,0.5235987755982988,0.5235987755982988,0,0.6738901,0.24915384,0.42106655,-0.39078692,0.19569509,1.5275373,1.5296316,0.7062755,-0.82774836,-0.011986569,-0.12696436,0.11480085,-0.09724333,-0.50899136
-0.1,0.1,0.7999999999999999,0.5235987755982988,0.5235987755982988,0,0.7192138,0.2422227,0.41506281,-0.40004265,0.18416467,1.4688095,1.4785694,0.5739243,-0.56345624,0.116230965,-0.31621307,-0.28159133,-0.12010144,0.47181442
-0.1,0.1,0.7999999999999999,0.5235987755982988,0.5235987755982988,0,0.70849365,0.23483472,0.4153936,-0.39133462,0.16970323,1.4667081,1.4877857,0.17908768,-0.90166366,0.12994242,-0.031557415,-0.12674609,-0.7717419,0.051727027
-0.1,0.1,0.7999999999999999,0.5235987755982988,0.5235987755982988,0,0.7172323,0.24678102,0.41817194,-0.3814337,0.19107607,1.4855605,1.4748884,0.0124882255,-0.7491002,0.29293036,-0.6707596,0.2549127,0.26538977,-0.05915143
-0.1,0.1,0.7999999999999999,0.5235987755982988,0.5235987755982988,0,0.71924555,0.24377897,0.40656447,-0.4132599,0.21532208,1.5272622,1.5122124,0.34716305,-0.7890439,-0.63608336,-0.35644576,-0.21709028,-0.10097323,0.4473562
-0.1,0.1,0.7999999999999999,0.5235987755982988,0.5235987755982988,0,0.6984665,0.24337472,0.40288785,-0.4385823,0.18109588,1.502595,1.395868,-0.18475099,-0.61318624,0.03972839,0.14858606,-0.9914346,-0.21313219,-0.040949058
-0.1,0.1,0.7999999999999999,0.5235987755982988,0.5235987755982988,0,0.7231591,0.23005378,0.40603855,-0.43618977,0.18156701,1.5234,1.4964979,0.071765356,-0.77557325,0.26729128,-0.09904549,0.06692076,0.89949566,-0.23825374
-0.1,0.1,0.7999999999999999,0.5235987755982988,0.5235987755982988,0,0.70812976,0.21619758,0.4171807,-0.40826884,0.20081452,1.4975355,1.4984134,0.81994617,-0.6277878,-0.19048764,-0.22922273,0.16557562,0.7147072,-0.6357718
-0.1,0.1,0.7999999999999999,0.5235987755982988,0.5235987755982988,0,0.73102754,0.23604822,0.4041453,-0.3805616,0.16767025,1.4703627,1.4794499,-0.77855265,-0.66205215,-0.34235543,-0.31278396,0.043911338,0.3444443,0.089584626
-0.1,0.1,0.7999999999999999,0.5235987755982988,0.5235987755982988,0,0.6792312,0.24434164,0.40859053,-0.43141955,0.18982618,1.4826319,1.4580743,-0.15577511,-0.6551362,0.11655276,-0.44801897,0.6325248,-0.1228994,0.5858521
-0.1,0.1,0.7999999999999999,0.5235987755982988,0.5235987755982988,0,0.71595335,0.21798848,0.42231855,-0.39881903,0.18665911,1.4827411,1.4868429,-0.11323846,-0.74994606,-0.15821785,-0.18358022,-0.029204065,0.6480448,0.6209918
-0.1,0.1,0.7999999999999999,0.5235987755982988,0.5235987755982988,0,0.714465,0.2443202,0.3963761,-0.41738495,0.17627886,1.4950405,1.5133189,-0.13337219,-0.8215955,-0.11739792,-0.4541567,-0.36525783,1.1088514,0.2213172
-0.1,0.1,0.7999999999999999,0.5235987755982988,0.5235987755982988,0,0.7024194,0.2347278,0.41245234,-0.3866251,0.18572052,1.504099,1.4784379,0.49635026,-0.93791085,0.019087361,0.0044666436,-0.114877686,-0.032431338,-0.23408917
-0.1,0.1,0.7999999999999999,0.5235987755982988,0.5235987755982988,0,0.70810425,0.23082201,0.41065383,-0.37713936,0.1672346,1.5206779,1.4866433,1.0384448,-0.5143932,0.32383108,-0.08349744,-0.04494821,-0.9783559,0.482046
-0.1,0.1,0.7999999999999999,0.5235987755982988,0.5235987755982988,0,0.72885,0.23454247,0.41817892,-0.39830965,0.19162163,1.4799035,1.471094,0.2185586,-0.6772028,0.08737772,-0.21081029,-0.15953213,0.15480454,0.03426993
-0.1,0.1,0.7999999999999999,0.5235987755982988,0.5235987755982988,0,0.73004913,0.23213404,0.40937904,-0.39882556,0.17831378,1.5149506,1.4982204,0.47898814,-0.6538116,-0.28138894,-0.5007712,0.08354965,-0.63113636,0.18911712
-0.1,0.1,0.7999999999999999,0.5235987755982988,0.5235987755982988,0,0.7129307,0.23025411,0.3972254,-0.38773215,0.20908803,1.4999633,1.4446813,0.09227648,-0.6722986,-0.095536575,-0.04079527,-0.49379203,0.14252616,-0.13108507
-0.1,0.1,0.7999999999999999,0.5235987755982988,0.5235987755982988,0,0.7252272,0.2263789,0.41460526,-0.3930667,0.19350006,1.4875295,1.5275552,0.29991964,-0.776919,-0.47202247,-0.3253288,-0.48844758,-0.6857604,-0.16452606
-0.1,0.1,0.7999999999999999,0.5235987755982988,0.5235987755982988,0,0.71598434,0.26180372,0.40554836,-0.3845521,0.19819924,1.505963,1.4839935,-0.21921752,-0.44554162,0.13237919,-0.46953222,-0.17057438,-0.18987225,0.16663076
-0.1,0.1,0.7999999999999999,0.5235987755982988,0.5235987755982988,0,0.69914955,0.23618202,0.41488704,-0.42118233,0.20599747,1.4996098,1.5039164,0.14878722,-0.63307625,0.30986497,-0.5283856,-0.34782273,-0.22279514,0.05702212
-0.1,0.1,0.7999999999999999,0.5235987755982988,0.5235987755982988,0,0.71779245,0.24220662,0.4136456,-0.3899733,0.1813769,1.5077963,1.4494607,0.4475633,-0.776049,0.07485894,0.0029722713,-0.25867128,0.7234118,0.6931226
-0.1,0.1,0.7999999999999999,0.5235987755982988,0.5235987755982988,0,0.69860184,0.24510297,0.41592404,-0.37518436,0.1760995,1.4954249,1.4206616,0.4797463,-0.86261815,-0.41613853,-0.25900182,0.42669848,0.07411665,0.6103481
-0.1,0.1,0.7999999999999999,0.5235987755982988,0.5235987755982988,0,0.7322346,0.22042738,0.40812135,-0.4069926,0.2004612,1.4811271,1.4777867,0.40567955,-0.7389743,0.08328795,-0.09277787,-0.056704927,0.1354867,-0.45843577
-0.1,0.1,0.7999999999999999,0.5235987755982988,0.5235987755982988,0,0.7228577,0.2503727,0.42003894,-0.4095605,0.19689962,1.5031974,1.4480641,-0.033669252,-0.7219827,-0.42368135,-0.3717812,-0.6085441,0.5726853,0.1406372
-0.1,0.1,0.7999999999999999,0.5235987755982988,0.5235987755982988,0,0.6802137,0.24209885,0.3973502,-0.43442678,0.16907243,1.4977199,1.4936925,0.5332363,-0.65872985,-0.45160863,-0.4837335,0.077770986,0.98148423,0.8007149
-0.1,0.1,0.7999999999999999,0.5235987755982988,0.5235987755982988,0,0.71485126,0.24456973,0.43414474,-0.37210265,0.20865959,1.4919736,1.4529319,0.21238084,-0.7626927,0.0619835,-0.4326029,0.67482144,0.1911968,0.15421192
-0.1,0.1,0.7999999999999999,0.5235987755982988,0.5235987755982988,0,0.69607806,0.24281217,0.40422162,-0.3935355,0.16773422,1.5255291,1.4664222,0.16656615,-0.69923323,-0.40844035,-0.02660729,-0.014939148,-1.1232302,0.74802405
-0.1,0.1,0.7999999999999999,0.5235987755982988,0.5235987755982988,0,0.7431551,0.2427057,0.40924287,-0.4017153,0.18595299,1.4708782,1.488675,-0.14588335,-0.69332236,-0.15780725,-0.61656755,-0.56323695,0.6014048,0.074718095
-0.1,0.1,0.7999999999999999,0.5235987755982988,0.5235987755982988,0,0.6807167,0.23346616,0.42412537,-0.3801278,0.20427829,1.5187713,1.466942,0.49812898,-0.77482504,-0.5986419,-0.0073978114,0.77297264,0.44568127,0.20913863
-0.1,0.1,0.7999999999999999,0.5235987755982988,0.5235987755982988,0,0.7274539,0.22566307,0.43988082,-0.3869277,0.17318043,1.5111983,1.4565672,0.3273103,-0.7339719,-0.6428285,0.0332554,1.0834976,0.24373183,-1.0741383
-0.1,0.1,0.7999999999999999,0.5235987755982988,0.5235987755982988,0,0.70375836,0.23692732,0.40496087,-0.371484,0.19182125,1.5231587,1.4816104,0.8976287,-0.7980489,0.1518524,-0.63518614,-0.49158943,0.21353826,0.55360216
-0.1,0.1,0.7999999999999999,0.5235987755982988,0.5235987755982988,0,0.7393114,0.22708213,0.41647187,-0.40398192,0.15992844,1.4742556,1.5215218,-0.6035355,-0.7251761,0.37485418,-0.041936714,0.348382,-0.9960388,0.11510152
-0.1,0.1,0.7999999999999999,0.5235987755982988,0.5235987755982988,0,0.7006706,0.24031432,0.4137282,-0.40230528,0.15877892,1.5100695,1.4826288,-0.47835785,-0.70696265,0.39040503,-0.09463103,0.051427983,-0.42619509,0.36798835
-0.1,0.1,0.7999999999999999,0.5235987755982988,0.5235987755982988,0,0.6578972,0.2623399,0.39797217,-0.3630083,0.16754483,1.440734,1.4989959,0.40515155,-0.80695105,0.2926796,0.06411922,0.018986026,0.08047798,-0.20964453
-0.1,0.1,0.7999999999999999,0.5235987755982988,0.5235987755982988,0,0.6778773,0.23544721,0.40455496,-0.4116845,0.1936293,1.4712584,1.4672096,0.21863317,-0.78767186,0.11527735,0.0045438632,-0.4665229,-0.7702802,0.37445894
-0.1,0.1,0.7999999999999999,0.5235987755982988,0.5235987755982988,0,0.6885911,0.2169962,0.4283057,-0.41431773,0.1922798,1.5009899,1.5075516,-0.056674324,-0.6717873,0.11760565,-0.2894221,0.8504613,0.08285863,0.74860454
-0.1,0.1,0.7999999999999999,0.5235987755982988,0.5235987755982988,0,0.69347894,0.22941321,0.40275905,-0.41276017,0.21090718,1.4791821,1.4580333,-0.06437937,-0.7027788,0.040489517,-0.08726167,0.038330693,-0.8368907,0.018231964
-0.1,0.1,0.7999999999999999,0.5235987755982988,0.5235987755982988,0,0.6837345,0.24847588,0.40774387,-0.4318363,0.19682074,1.4730895,1.466585,0.3117066,-0.674594,0.16300736,0.2537396,-0.64392215,-0.7404994,0.22103961
-0.1,0.1,0.7999999999999999,0.5235987755982988,0.5235987755982988,0,0.7206175,0.2387057,0.4061764,-0.39594483,0.17177814,1.5391827,1.4962047,-0.57872367,-0.5858494,-0.99530274,-0.40911266,-0.29413128,-0.621211,0.02635834
-0.1,0.1,0.7999999999999999,0.5235987755982988,0.5235987755982988,0,0.69402236,0.25813127,0.43183023,-0.43032005,0.19775653,1.5175997,1.4761924,-0.22143736,-0.7013348,0.37161514,-0.08965014,-0.2662631,0.066742405,0.6089531
-0.1,0.1,0.7999999999999999,0.5235987755982988,0.5235987755982988,0,0.71799237,0.23458865,0.40502018,-0.38434845,0.16086985,1.4968178,1.4850789,-0.025793852,-0.46522677,-0.1438425,-0.29337728,-0.38403815,0.45872152,1.0749468
-0.1,0.1,0.7999999999999999,0.5235987755982988,0.5235987755982988,0,0.7131094,0.24243425,0.40331274,-0.41371873,0.21215974,1.5124847,1.4755762,0.34364983,-0.59416485,-0.35153988,-0.007368342,-0.50870955,-0.63017994,-0.15034503
-0.1,0.1,0.7999999999999999,0.5235987755982988,0.5235987755982988,0,0.72453785,0.21945332,0.40125257,-0.36756462,0.19079307,1.5137568,1.4376559,-0.27589703,-0.38646898,-0.107272774,-0.19386406,0.3746467,-0.12020745,0.13193673
-0.1,0.1,0.7999999999999999,0.5235987755982988,0.5235987755982988,0,0.69991535,0.21660893,0.39569643,-0.38918602,0.16531855,1.5391234,1.4632026,0.08175402,-0.69436973,0.35587028,-0.20541929,-0.074998386,0.14181553,0.072266035
-0.1,0.1,0.7999999999999999,0.5235987755982988,0.5235987755982988,0,0.6918999,0.23350418,0.40136138,-0.39214656,0.17853972,1.4901066,1.5033784,0.3797847,-0.6165639,0.14405788,-0.4898168,0.1905727,-0.102930136,0.09930857
-0.1,0.1,0.7999999999999999,0.5235987755982988,0.5235987755982988,0,0.6976168,0.2391567,0.41725317,-0.40417135,0.18580472,1.5097976,1.4757771,0.5439222,-0.93505806,-0.0046659173,-0.23501897,-0.8487343,-0.04661709,1.013792
-0.1,0.1,0.7999999999999999,0.5235987755982988,0.5235987755982988,0,0.71793383,0.24652101,0.43130398,-0.4006436,0.19753247,1.5176008,1.4787221,-0.5887926,-0.56885946,-0.68686277,0.19124822,0.54747075,0.4400584,0.48174167
-0.1,0.1,0.7999999999999999,0.5235987755982988,0.5235987755982988,0,0.69298863,0.22136393,0.40792432,-0.3948226,0.2018504,1.4951359,1.4758483,-0.36761686,-0.8261911,-0.29642552,-0.39092213,0.854896,0.8922954,0.07212433
-0.1,0.1,0.7999999999999999,0.5235987755982988,0.5235987755982988,0,0.6825994,0.22490458,0.41769662,-0.42757583,0.21071465,1.5388969,1.4495193,0.124561876,-0.46901476,0.32320392,-0.33020985,-0.14530574,0.038733516,0.06874908
-0.1,0.1,0.7999999999999999,0.5235987755982988,0.5235987755982988,0,0.6713397,0.24642287,0.41139016,-0.3889106,0.18181033,1.5105785,1.4913183,-0.20166339,-0.7600879,-0.46046454,0.029553995,-0.052948095,0.6701367,0.44898215
-0.1,0.1,0.7999999999999999,0.5235987755982988,0.5235987755982988,0,0.6960829,0.2410831,0.4157584,-0.39952776,0.16888915,1.5199761,1.468652,0.4965192,-0.7552333,-0.4852566,-0.40579373,0.29749778,-0.6546774,0.52235913
-0.1,0.1,0.7999999999999999,0.5235987755982988,0.5235987755982988,0,0.7029149,0.25489902,0.40339074,-0.43550745,0.21479301,1.5030856,1.513189,0.68755424,-0.9218576,0.008590998,-1.0478089,0.2043703,0.76055795,-0.17038319
-0.1,0.1,0.7999999999999999,0.5235987755982988,0.5235987755982988,0,0.69552386,0.24322073,0.41137025,-0.383405,0.16196251,1.5084711,1.4889736,0.46116483,-0.7710928,0.15428975,0.11554156,0.9961927,0.4787922,0.2708111
-0.1,0.1,0.7999999999999999,0.5235987755982988,0.5235987755982988,0,0.69839674,0.24197997,0.43990576,-0.4292628,0.15109327,1.5207523,1.4634709,-0.123380065,-0.84102875,-0.052690834,-0.22209471,-0.1291966,-0.007968225,0.44354326
-0.1,0.1,0.7999999999999999,0.5235987755982988,0.5235987755982988,0,0.7039724,0.23634887,0.4080782,-0.38545486,0.18316628,1.5264636,1.4681442,0.2833465,-0.5140335,-0.41993934,0.07234864,0.48069808,0.4987947,0.24605776
-0.1,0.1,0.7999999999999999,0.5235987755982988,0.5235987755982988,0,0.742326,0.23568311,0.40925357,-0.39474285,0.18403444,1.5145177,1.4753741,-0.021138424,-0.76226604,-0.41309533,-0.47889936,-0.45235887,0.0047955457,0.43840045
-0.1,0.1,0.7999999999999999,0.5235987755982988,0.5235987755982988,0,0.72806394,0.23801209,0.4188839,-0.40764362,0.1779725,1.4737853,1.498124,-0.27520165,-0.8185502,0.74288005,-0.2576296,-0.021096328,0.08252508,-0.38317725
-0.1,0.1,0.7999999999999999,0.5235987755982988,0.5235987755982988,0,0.67252773,0.24282435,0.41303992,-0.4117946,0.18880372,1.5270289,1.4643109,-0.48328394,-0.6219375,0.22196212,-0.05468977,0.30468413,0.59608626,0.11093335
-0.1,0.1,0.7999999999999999,0.5235987755982988,0.5235987755982988,0,0.67412394,0.24870363,0.4180232,-0.4269112,0.20148133,1.4698254,1.512585,0.26652977,-0.830387,-0.2661822,0.20860188,0.85868955,-0.28206635,-0.77533513
-0.1,0.1,0.7999999999999999,0.5235987755982988,0.5235987755982988,0,0.72851914,0.2337573,0.42023847,-0.38208228,0.19001123,1.5111804,1.4506259,0.11276149,-0.5461556,0.071602106,0.25599542,0.346029,0.22659186,-0.16457303
-0.1,0.1,0.7999999999999999,0.5235987755982988,0.5235987755982988,0,0.68894464,0.23577753,0.41713685,-0.42023993,0.20302281,1.5235932,1.4459717,1.0512558,-0.6881274,-0.09449614,-0.06715268,-0.03466562,0.35687947,0.31128323
-0.1,0.1,0.7999999999999999,0.5235987755982988,0.5235987755982988,0,0.7068963,0.23258625,0.4096015,-0.39798704,0.19269492,1.509512,1.4616033,0.45530272,-0.715052,-0.48186228,-0.43047002,-0.7006161,-0.3065459,0.3736244
-0.1,0.1,0.7999999999999999,0.5235987755982988,0.5235987755982988,0,0.7216582,0.22399268,0.41397825,-0.3994729,0.17468433,1.5013247,1.492408,0.15626594,-0.42757952,-0.64403063,-0.18459536,0.38888723,-0.5665602,-0.28612003
-0.1,0.1,0.7999999999999999,0.5235987755982988,0.5235987755982988,0,0.7074617,0.2633269,0.42173815,-0.43891767,0.18957384,1.5249295,1.460854,0.84529257,-0.59053606,-0.58085567,-0.11083732,-0.26766905,-0.054122437,0.34448957
-0.1,0.1,0.7999999999999999,0.5235987755982988,0.5235987755982988,0,0.7091408,0.25245276,0.409765,-0.41088322,0.15386724,1.5101831,1.4693049,-0.087479554,-0.8033769,-0.049416218,-0.42739388,-0.012900296,-0.19339395,0.44640362
-0.1,0.1,0.7999999999999999,0.5235987755982988,0.5235987755982988,0,0.7162144,0.21062115,0.41512886,-0.40512893,0.17636587,1.4957751,1.4820642,0.06690111,-0.5831829,0.039321665,-0.043850254,0.029125895,-0.208546,0.63560766
-0.1,0.1,0.7999999999999999,0.5235987755982988,0.5235987755982988,0,0.71812606,0.24123608,0.4121825,-0.37597847,0.1552352,1.5212733,1.4973743,0.47483426,-0.816343,-0.023503419,-0.18048646,-0.99469775,0.124772094,0.24571964
-0.1,0.1,0.7999999999999999,0.5235987755982988,0.5235987755982988,0,0.71657145,0.24931389,0.41818908,-0.400084,0.1616809,1.4751546,1.514194,-0.2822176,-0.559125,-0.11690903,-0.058773857,0.2543572,0.17513256,0.064040646
-0.1,0.1,0.7999999999999999,0.5235987755982988,0.5235987755982988,0,0.7208249,0.24161305,0.42360407,-0.34769255,0.16715468,1.4797438,1.5289412,0.05480806,-0.6503968,0.45771578,0.32496572,-0.4351306,-0.38466907,0.18218699
-0.1,0.1,0.7999999999999999,0.5235987755982988,0.5235987755982988,0,0.72586554,0.23825888,0.4179545,-0.42310628,0.17675741,1.4940606,1.5119523,-0.25881526,-0.7742074,0.17904772,-0.19676335,0.3513661,-0.13210063,-0.010940923
-0.1,0.1,0.7999999999999999,0.5235987755982988,0.5235987755982988,0,0.7398742,0.23753333,0.4155097,-0.37953153,0.2035297,1.4834636,1.4840852,0.694717,-0.9524825,0.1170259,-0.19160852,0.703984,0.6515873,0.3016442
-0.1,0.1,0.7999999999999999,0.5235987755982988,0.5235987755982988,0,0.7317308,0.2343541,0.425088,-0.44066644,0.17382962,1.4963717,1.4561298,0.28695405,-0.6844124,-0.035205215,0.24549538,0.61412656,-0.0032022472,1.0652509
-0.1,0.1,0.7999999999999999,0.5235987755982988,0.5235987755982988,0,0.6984768,0.24250388,0.41032797,-0.43485782,0.20703104,1.5023891,1.5223106,0.41657197,-0.5960532,-0.4593237,-0.29926085,0.047331486,0.21476305,0.35245657
-0.1,0.1,0.7999999999999999,0.5235987755982988,0.5235987755982988,0,0.67616063,0.26121885,0.40665802,-0.436224,0.18430875,1.5038979,1.4869897,-0.31976497,-0.6736356,-0.10542022,-0.0613599,-0.9231347,0.73054737,-0.2517958
-0.1,0.1,0.7999999999999999,0.5235987755982988,0.5235987755982988,0,0.71307576,0.23809546,0.4036343,-0.37466052,0.15487435,1.4903551,1.5280435,-0.23851499,-0.63157225,0.4414559,0.055419758,-0.15888155,0.17341988,-0.5844256
-0.1,0.1,0.7999999999999999,0.5235987755982988,0.5235987755982988,0,0.679761,0.24519412,0.39469472,-0.4205437,0.18827607,1.5385797,1.470058,-0.3687419,-0.7601508,-0.22224301,-0.2677401,0.06212202,0.32635233,-0.16842055
-0.1,0.1,0.7999999999999999,0.5235987755982988,0.5235987755982988,0,0.67636114,0.2461585,0.41072506,-0.42606494,0.20741907,1.5046961,1.4510698,-0.24369179,-0.89331645,-0.0203044,0.11833316,0.30848032,0.3740808,0.15068156
-0.1,0.1,0.7999999999999999,0.5235987755982988,0.5235987755982988,0,0.67979825,0.24003637,0.40244588,-0.34446928,0.17284106,1.4962304,1.4802928,0.5650463,-0.67214113,0.19969426,-0.29715115,-0.17474858,0.7799143,0.8986557
-0.1,0.1,0.7999999999999999,0.5235987755982988,0.5235987755982988,0,0.6739266,0.2374585,0.40527642,-0.44900793,0.16760087,1.4918306,1.5041308,0.63738155,-0.53757364,0.04461134,-0.19840272,0.10769573,0.1427168,0.37191746
-0.1,0.1,0.7999999999999999,0.5235987755982988,0.5235987755982988,0,0.67810494,0.24726707,0.40265366,-0.37214583,0.21303903,1.5174273,1.487944,0.7060146,-0.5952157,0.03414535,-0.15093762,0.6415749,0.044467013,1.1152449
-0.1,0.1,0.7999999999999999,0.5235987755982988,0.5235987755982988,0,0.67849445,0.24698086,0.4062964,-0.45537478,0.19747344,1.4757894,1.4804771,0.59410787,-0.6368373,-0.20534077,-0.4711399,0.37941664,0.44217515,-0.5822104
-0.1,0.1,0.7999999999999999,0.5235987755982988,0.5235987755982988,0,0.6470998,0.27286118,0.41272834,-0.4068761,0.18167514,1.5111046,1.4859202,-0.06384036,-0.70080227,0.5712368,-0.25401884,-0.73317134,-0.2398438,-0.0033012896
-0.1,0.1,0.7999999999999999,0.5235987755982988,0.5235987755982988,0,0.66733307,0.23736529,0.41550043,-0.43779674,0.17198153,1.4872748,1.4880588,-0.2750553,-0.6858686,-0.14581557,-0.0777392,-0.19421344,0.17517988,-0.12969168
-0.1,0.1,0.7999999999999999,0.5235987755982988,0.5235987755982988,0,0.6707027,0.23901854,0.41627204,-0.45654112,0.18809111,1.4944444,1.4697285,-0.2930914,-0.50605726,0.3158363,-0.20538554,-0.0937116,0.24732114,0.114481166
-0.1,0.1,0.7999999999999999,0.5235987755982988,0.5235987755982988,0,0.706112,0.21890388,0.40866336,-0.40029195,0.18067425,1.5160737,1.4556174,0.32372618,-0.7147573,0.4333713,-0.36004087,0.086929485,1.1731092,-0.632337
-0.1,0.1,0.7999999999999999,0.5235987755982988,0.5235987755982988,0,0.6870877,0.2444166,0.41739988,-0.46456206,0.20027183,1.5051731,1.4525107,0.47232303,-0.7711149,0.48302022,-0.3481261,0.1917642,-0.06433486,-0.7903448
-0.1,0.1,0.7999999999999999,0.5235987755982988,0.5235987755982988,0,0.6847387,0.24265851,0.40248263,-0.44146562,0.19184145,1.4973851,1.4553994,-0.15490851,-0.672129,-0.3055859,-0.6934239,-0.8400325,0.68635046,0.37414443
-0.1,0.1,0.7999999999999999,0.5235987755982988,0.5235987755982988,0,0.67835796,0.23041464,0.4192595,-0.4287353,0.18904719,1.4782975,1.4364014,-0.1622536,-0.91438544,0.3062763,-0.3489062,-1.1129643,-0.15504317,-0.03648121
-0.1,0.1,0.7999999999999999,0.5235987755982988,0.5235987755982988,0,0.6832159,0.25792566,0.4069553,-0.44423264,0.20101929,1.4838479,1.4644722,0.5724809,-0.73113245,0.12410153,0.14508635,0.6437322,-0.5928305,0.378412
-0.1,0.1,0.7999999999999999,0.5235987755982988,0.5235987755982988,0,0.6751989,0.24006824,0.38213822,-0.40359604,0.16089284,1.4983907,1.4509674,0.7288857,-0.64174736,0.3940746,-0.010119528,0.46587363,-0.8204573,0.70229995
-0.1,0.1,0.7999999999999999,0.5235987755982988,0.5235987755982988,0,0.67641383,0.2337572,0.39520803,-0.4258236,0.1706214,1.5179815,1.4841821,-0.36197004,-0.6509503,-0.5181334,-0.3313437,-0.71422,-0.5574233,0.20225741
-0.1,0.1,0.7999999999999999,0.5235987755982988,0.5235987755982988,0,0.689158,0.23370902,0.39968306,-0.4448784,0.21528919,1.4997379,1.4695618,0.6037874,-0.6862556,-0.12870994,-0.25904197,0.4649212,0.031760365,1.0356547
-0.1,0.1,0.7999999999999999,0.5235987755982988,0.5235987755982988,0,0.6709997,0.24773072,0.4216766,-0.4379694,0.1952244,1.479297,1.4671388,0.116806924,-0.94733274,-0.1224907,-0.14649044,-0.0011939325,-0.838594,0.10573994
-0.1,0.1,0.7999999999999999,0.5235987755982988,0.5235987755982988,0,0.6684479,0.22809148,0.39481091,-0.39713994,0.17383583,1.5174125,1.450836,0.41323093,-0.7170128,-0.34199378,-0.72248095,-1.3545445,0.38124084,0.737204
-0.1,0.1,0.7999999999999999,0.5235987755982988,0.5235987755982988,0,0.6763089,0.2331074,0.41548726,-0.44703266,0.2109876,1.5060134,1.4555491,0.5807961,-0.69170916,-0.85030067,-0.47982112,0.3254428,-0.90319693,-0.5938387
-0.1,0.1,0.7999999999999999,0.5235987755982988,0.5235987755982988,0,0.67304033,0.24204323,0.39891228,-0.4019245,0.18757634,1.4754876,1.4943401,0.24736632,-0.7904544,-0.17469999,-0.40229753,-0.5060741,0.0676367,0.31991082
-0.1,0.1,0.7999999999999999,0.5235987755982988,0.5235987755982988,0,0.67545503,0.231931,0.40281186,-0.39295265,0.17142536,1.4708765,1.5097582,0.50481343,-0.9006583,-0.25093693,-0.45830864,0.07192363,0.13444588,0.4709944
-0.1,0.1,0.7999999999999999,0.5235987755982988,0.5235987755982988,0,0.6848427,0.23519841,0.4101616,-0.3829586,0.19702773,1.528195,1.4720995,0.2614649,-0.6657988,-0.65629745,-0.69508934,0.14205685,0.025978277,-0.14541622
-0.1,0.1,0.7999999999999999,0.5235987755982988,0.5235987755982988,0,0.73312014,0.26139492,0.39668795,-0.41998342,0.22127329,1.4985341,1.4579798,0.21371807,-0.6800743,0.03176344,-0.328119,0.7905103,0.78841066,0.22326405
-0.1,0.1,0.7999999999999999,0.5235987755982988,0.5235987755982988,0,0.68402416,0.2346565,0.42719555,-0.40564504,0.17590368,1.475043,1.4232208,-0.32966846,-0.8060801,0.17839356,-0.6300775,0.34659472,-0.21550722,-0.2624054
-0.1,0.1,0.7999999999999999,0.5235987755982988,0.5235987755982988,0,0.68370193,0.25247866,0.4092857,-0.4104395,0.18165046,1.5033208,1.4804301,-0.3256607,-0.6520201,-0.051512692,-0.19343364,-0.8309906,0.14095259,-0.15961526
-0.1,0.1,0.7999999999999999,0.5235987755982988,0.5235987755982988,0,0.745336,0.22528118,0.41599947,-0.43346822,0.19501679,1.5183803,1.4748504,0.39960834,-0.92852324,-0.08113203,-0.38516128,-0.6148698,0.79011744,-0.26395136
-0.1,0.1,0.7999999999999999,0.5235987755982988,0.5235987755982988,0,0.68839,0.23992959,0.41972524,-0.4045532,0.18323605,1.5228795,1.5077834,0.3995078,-1.0116558,-0.1238532,-0.09840807,-0.14133504,0.13718359,0.46386516
-0.1,0.1,0.7999999999999999,0.5235987755982988,0.5235987755982988,0,0.69658345,0.2582839,0.410328,-0.43393403,0.1604895,1.4598111,1.4448348,-0.475192,-0.61831534,0.32089484,-0.32996267,0.45751253,0.2934141,0.7864122
-0.1,0.1,0.7999999999999999,0.5235987755982988,0.5235987755982988,0,0.7189467,0.24418543,0.41992438,-0.43507263,0.22505446,1.4947467,1.4964403,0.3291714,-0.59043187,-0.44068658,-0.4198863,-0.097629376,-0.25323024,0.33551663
-0.1,0.1,0.7999999999999999,0.5235987755982988,0.5235987755982988,0,0.7230908,0.2617304,0.40850708,-0.4278477,0.16806263,1.4714317,1.4488783,0.04443674,-0.6433522,0.29990414,-0.16011508,0.27499688,0.1760461,0.68345624
-0.1,0.1,0.7999999999999999,0.5235987755982988,0.5235987755982988,0,0.6938052,0.23695427,0.4104211,-0.39091235,0.19154537,1.502599,1.4767767,-0.18092845,-0.7271886,0.37739974,0.14837113,0.10040328,0.21615933,0.08688317
-0.1,0.1,0.7999999999999999,0.5235987755982988,0.5235987755982988,0,0.7314685,0.23064521,0.42367554,-0.42429373,0.17543343,1.4695622,1.5010103,0.76019883,-0.8216411,-0.072438486,-0.58023304,0.16174181,-0.56768316,-0.02564154
-0.1,0.1,0.7999999999999999,0.5235987755982988,0.5235987755982988,0,0.7053574,0.24919339,0.41935,-0.3943488,0.1732842,1.4720134,1.5025704,0.4196055,-0.79650885,-0.15592714,-0.69015896,-0.048560675,-0.096101865,-0.02975
-0.1,0.1,0.7999999999999999,0.5235987755982988,0.5235987755982988,0,0.70233166,0.24805214,0.4159519,-0.4144308,0.18950725,1.4915001,1.5011401,0.49752775,-0.64764756,0.5627536,-0.883079,-0.14674519,-0.1847441,0.2110256
-0.1,0.1,0.7999999999999999,0.5235987755982988,0.5235987755982988,0,0.71186876,0.23665099,0.413867,-0.4011959,0.18442048,1.4843469,1.480389,0.7778543,-0.7459925,-0.455397,-0.24327895,-0.13127838,-0.13501723,0.19303519
-0.1,0.1,0.7999999999999999,0.5235987755982988,0.5235987755982988,0,0.7089389,0.2456458,0.41530097,-0.38683346,0.17351784,1.4770024,1.4571902,-0.83210045,-0.72855175,-0.09171658,-0.1426155,-0.5051422,-0.027995737,0.120483994
-0.1,0.1,0.7999999999999999,0.5235987755982988,0.5235987755982988,0,0.7219384,0.24348685,0.4247092,-0.43135428,0.17278734,1.4908878,1.5006635,0.3848176,-0.89164174,-0.099326655,-0.19597572,0.531617,-0.28031138,0.4217579
-0.1,0.1,0.7999999999999999,0.5235987755982988,0.5235987755982988,0,0.7118401,0.23838118,0.4131386,-0.4171902,0.19009636,1.500669,1.4871507,0.6936849,-0.948348,-0.47949454,-0.02953105,-0.32943934,0.05066451,-0.5787752
-0.1,0.1,0.7999999999999999,0.5235987755982988,0.5235987755982988,0,0.709048,0.24954034,0.40176514,-0.39476702,0.17902698,1.4974269,1.4939257,-0.2509674,-0.45090646,-0.33316985,-0.8424709,-0.41495785,0.2642262,0.2728229
-0.1,0.1,0.7999999999999999,0.5235987755982988,0.5235987755982988,0,0.7044697,0.22803126,0.416871,-0.38297808,0.17838897,1.5066819,1.5164224,-0.18110731,-0.6799789,-0.080762394,-0.3554361,0.3657304,-0.104060195,0.120629855
-0.1,0.1,0.7999999999999999,0.5235987755982988,0.5235987755982988,0,0.7231374,0.24619937,0.39914253,-0.3850166,0.1732089,1.4872472,1.4636652,-0.634469,-0.8884847,0.15013401,-0.5194816,-0.16047287,0.046242397,0.75203913
-0.1,0.1,0.7999999999999999,0.5235987755982988,0.5235987755982988,0,0.7216281,0.23951158,0.39595678,-0.40730482,0.17683358,1.4951882,1.5022281,0.13395926,-0.84551394,-0.3939506,-0.40587243,-0.29160717,-0.3263151,0.35235402
-0.1,0.1,0.7999999999999999,0.5235987755982988,0.5235987755982988,0,0.705371,0.24472658,0.41771185,-0.42086035,0.1922028,1.5114484,1.4669342,-0.47234347,-0.91338426,-0.309415,-0.44117677,0.2965969,0.35231346,0.0059653856
-0.1,0.1,0.7999999999999999,0.5235987755982988,0.5235987755982988,0,0.72063535,0.23626588,0.42107177,-0.39748317,0.16700213,1.506018,1.4602923,1.0408139,-0.70972955,-0.06842652,-0.45483813,0.1067475,-0.69910437,0.9531042
-0.1,0.1,0.7999999999999999,0.5235987755982988,0.5235987755982988,0,0.70961344,0.2608468,0.41326663,-0.3982524,0.16518171,1.5098833,1.5122726,-0.23408549,-0.7140037,0.19476916,-0.36124504,0.17719899,0.19134355,-0.013422638
-0.1,0.1,0.7999999999999999,0.5235987755982988,0.5235987755982988,0,0.7249885,0.22808248,0.42318767,-0.39008996,0.18319795,1.5047761,1.4465263,-0.41336158,-0.6671684,-0.73126227,-0.71700925,-0.35316774,0.7506974,0.4249408
-0.1,0.1,0.7999999999999999,0.5235987755982988,0.5235987755982988,0,0.6994137,0.22812851,0.4179854,-0.4288483,0.16691186,1.5071667,1.4612647,0.035943687,-0.82273555,-0.47822264,0.0011912684,-0.4728565,-0.4134096,0.064065985
-0.1,0.1,0.7999999999999999,0.5235987755982988,0.5235987755982988,0,0.7359017,0.25257465,0.416082,-0.39231148,0.1639895,1.5105889,1.4888675,-0.01262513,-0.38846424,-0.2092028,-0.5590632,-0.19600798,-0.27800775,1.0816172
-0.1,0.1,0.7999999999999999,0.5235987755982988,0.5235987755982988,0,0.6926908,0.23488058,0.41084877,-0.42189965,0.1639077,1.5212142,1.525646,-0.08659772,-0.6702872,0.4016358,-0.38893616,-0.006418015,-0.36189008,-0.7455722
-0.1,0.1,0.7999999999999999,0.5235987755982988,0.5235987755982988,0,0.6716013,0.2182237,0.3984072,-0.38362178,0.19323179,1.4986796,1.4845353,-0.13951667,-0.61133736,-0.4260606,0.581101,0.09288855,-0.81022054,0.3920588
-0.1,0.1,0.7999999999999999,0.5235987755982988,0.5235987755982988,0,0.67702025,0.23317418,0.42369577,-0.41808528,0.19031037,1.4956832,1.4700092,0.41905674,-0.5890083,-0.28486463,-0.43865484,-0.5012129,0.30624887,0.24052218
-0.1,0.1,0.7999999999999999,0.5235987755982988,0.5235987755982988,0,0.69159377,0.2552521,0.40410548,-0.40520686,0.20388088,1.5105686,1.4891104,0.5815134,-0.79063493,-0.06008216,-0.1525125,-0.38604918,-0.8058002,0.6035032
-0.1,0.1,0.7999999999999999,0.5235987755982988,0.5235987755982988,0,0.67422175,0.2417727,0.40886468,-0.4122035,0.19723769,1.5122153,1.4369828,0.05677944,-0.712974,0.6775871,-0.08837939,-0.7691522,0.49659285,0.906723
-0.1,0.1,0.7999999999999999,0.5235987755982988,0.5235987755982988,0,0.71778363,0.24472733,0.40010628,-0.39414236,0.17751117,1.5113084,1.4970846,0.5387988,-1.0524918,-0.18324296,0.073743515,-0.020022226,0.12082059,-0.10932977
-0.1,0.1,0.7999999999999999,0.5235987755982988,0.5235987755982988,0,0.68334,0.2593577,0.4229225,-0.4081356,0.18773659,1.5158079,1.4808166,0.15259449,-0.77410144,0.040948454,-0.06433155,-0.6695693,0.26108378,-0.19549431
-0.1,0.1,0.7999999999999999,0.5235987755982988,0.5235987755982988,0,0.69769645,0.21428202,0.42014298,-0.3884573,0.18398383,1.463767,1.4892881,0.28517908,-0.7920594,0.09407591,-0.19617985,0.39737937,-0.23201393,-0.18318458
-0.1,0.1,0.7999999999999999,0.5235987755982988,0.5235987755982988,0,0.68758154,0.23414563,0.41096082,-0.40815443,0.17801304,1.5178291,1.5064226,0.21475968,-0.31063566,-0.031977188,-0.04868247,-0.21137117,-0.08679805,0.025498938
-0.1,0.1,0.7999999999999999,0.5235987755982988,0.5235987755982988,0,0.71593577,0.23201227,0.4094946,-0.3789601,0.20221882,1.4932203,1.4993404,-0.35132,-0.6329801,0.3434846,-0.32241672,-0.006669905,0.42933998,0.52722424
-0.1,0.1,0.7999999999999999,0.5235987755982988,0.5235987755982988,0,0.67602885,0.23474771,0.39696988,-0.41643956,0.19505918,1.5255393,1.4654621,0.55804485,-0.769941,-0.18057507,-0.37964192,-0.663951,0.8237154,0.03438783
-0.1,0.1,0.7999999999999999,0.5235987755982988,0.5235987755982988,0,0.6896746,0.22611108,0.40772703,-0.41189876,0.17193967,1.4947219,1.5046383,0.5561125,-0.97291166,0.016974663,0.05926883,0.21448378,0.45943806,0.49941188
-0.1,0.1,0.7999999999999999,0.5235987755982988,0.5235987755982988,0,0.6619987,0.2450366,0.41482973,-0.4237102,0.18152308,1.478331,1.5037633,-0.32817212,-0.72688776,-0.5073133,-0.09884374,-0.1838132,0.17750007,0.3961841
-0.1,0.1,0.7999999999999999,0.5235987755982988,0.5235987755982988,0,0.71459574,0.23309702,0.42541504,-0.39480677,0.18847099,1.4964458,1.4798367,-0.09802825,-0.9454948,0.23532526,0.10398894,-0.3630332,-0.5424971,-0.6922125
-0.1,0.1,0.7999999999999999,0.5235987755982988,0.5235987755982988,0,0.69386995,0.23238981,0.41211414,-0.41645482,0.19249614,1.5255519,1.5033776,0.28276017,-0.7458472,0.124392316,-0.65490633,-0.40321422,0.50670767,0.31450382
-0.1,0.1,0.7999999999999999,0.5235987755982988,0.5235987755982988,0,0.70031446,0.22674789,0.42285988,-0.45657855,0.19683446,1.5158703,1.4588081,-0.15023498,-0.52093923,0.29750702,-0.21222045,0.44020215,-0.18909685,-0.37373626
-0.1,0.1,0.7999999999999999,0.5235987755982988,0.5235987755982988,0,0.6826585,0.24496296,0.43417683,-0.40739754,0.20877652,1.5149673,1.469806,0.16522357,-0.935869,0.28668535,-0.49236885,-0.2961921,0.078283675,0.082228124
-0.1,0.1,0.7999999999999999,0.5235987755982988,0.5235987755982988,0,0.6955982,0.24318849,0.41140392,-0.42120197,0.17321248,1.5046782,1.4655836,0.622633,-0.817997,0.2169004,-0.49582145,0.01297155,0.41194433,0.28410757
-0.1,0.1,0.7999999999999999,0.5235987755982988,0.5235987755982988,0,0.69393015,0.22930421,0.40506822,-0.42558357,0.17854244,1.5195836,1.5287362,0.23433337,-0.95296425,-0.3232002,-0.26624927,-0.40200606,-1.3901542,0.39522588
-0.1,0.1,0.7999999999999999,0.5235987755982988,0.5235987755982988,0,0.7262135,0.22737104,0.42362884,-0.41910765,0.19371356,1.5240353,1.4756273,0.24546678,-0.56970114,-0.06419926,-0.6375771,-0.7617614,-0.1984132,0.5916418
-0.1,0.1,0.7999999999999999,0.5235987755982988,0.5235987755982988,0,0.694001,0.23322739,0.42816728,-0.4219871,0.16302262,1.4981552,1.5245506,-0.119241074,-0.83358634,0.18760532,-0.3389442,-0.30751875,0.23237927,0.8967414
-0.1,0.1,0.7999999999999999,0.5235987755982988,0.5235987755982988,0,0.707843,0.25023198,0.41531622,-0.36778966,0.16220495,1.5187092,1.5199118,0.49654305,-1.0307779,0.23271668,-0.17026545,0.42865422,0.46651083,0.3101046
-0.1,0.1,0.7999999999999999,0.5235987755982988,0.5235987755982988,0,0.72861564,0.25249752,0.4225369,-0.4818878,0.18587379,1.5274407,1.4832906,0.650104,-0.71361035,-0.03829248,-0.25839433,-0.61799043,0.0078067826,0.63682884
-0.1,0.1,0.7999999999999999,0.5235987755982988,0.5235987755982988,0,0.6980634,0.25282228,0.42847955,-0.4146084,0.18708824,1.5121804,1.4143413,-0.16059098,-0.90699863,-0.008096265,0.2610399,0.5060649,-0.3358484,-0.06436896
-0.1,0.1,0.7999999999999999,0.5235987755982988,0.5235987755982988,0,0.68093425,0.24581186,0.40958932,-0.40598795,0.21692294,1.4628509,1.4764743,0.52187586,-0.572572,0.5897713,-0.60360307,-0.8331971,0.1831174,0.48613885
-0.1,0.1,0.7999999999999999,0.5235987755982988,0.5235987755982988,0,0.73564243,0.24894077,0.4222469,-0.40004486,0.19352455,1.4917424,1.4715594,0.17097557,-0.8221392,-0.20721209,-0.5017445,-0.3031413,0.47074646,0.9168884
-0.1,0.1,0.7999999999999999,0.5235987755982988,0.5235987755982988,0,0.66096234,0.24061914,0.42625073,-0.39092308,0.17681712,1.4690516,1.4615902,-0.8220636,-0.9816439,-0.03347176,-0.073724344,-0.75523275,0.096812606,0.7875061
-0.1,0.1,0.7999999999999999,0.5235987755982988,0.5235987755982988,0,0.7180402,0.26053956,0.42210913,-0.39867052,0.18179952,1.4669453,1.5252821,0.6554415,-0.5172009,-0.53559506,-0.076646335,-0.47819057,-0.6060482,0.5920502
-0.1,0.1,0.7999999999999999,0.5235987755982988,0.5235987755982988,0,0.7072849,0.24969183,0.40679947,-0.39583609,0.20144959,1.4909024,1.4864296,0.16043898,-0.67684364,-0.0136190485,-0.018801644,-0.09121674,-0.23231195,0.082685
-0.1,0.1,0.7999999999999999,0.5235987755982988,0.5235987755982988,0,0.7195891,0.21424727,0.4162069,-0.40944988,0.20203795,1.5261366,1.5083197,0.118551105,-0.43643346,-0.045017563,-0.21355344,0.21902938,0.18117014,-0.69046795
-0.1,0.1,0.7999999999999999,0.5235987755982988,0.5235987755982988,0,0.7025861,0.24333757,0.41109252,-0.39380848,0.17743956,1.5231739,1.5476016,0.7541864,-0.7003823,0.2836993,-0.22321968,0.04632007,0.11901147,0.28264922
-0.1,0.1,0.7999999999999999,0.5235987755982988,0.5235987755982988,0,0.7206603,0.22496518,0.40486085,-0.4177446,0.19095586,1.5171223,1.4475492,0.34810862,-1.0365006,0.20156473,-0.20176513,-0.19631283,0.08545979,0.8101103
-0.1,0.1,0.7999999999999999,0.5235987755982988,0.5235987755982988,0,0.709064,0.2286404,0.42024162,-0.41698655,0.17563824,1.5269221,1.4743774,-0.356681,-0.69089437,-0.059607968,-0.23776476,-0.067354284,-0.22022273,-0.20695409
-0.1,0.1,0.7999999999999999,0.5235987755982988,0.5235987755982988,0,0.71149886,0.23328874,0.40037274,-0.3961265,0.18950358,1.5194389,1.4575777,0.102143504,-0.85254693,-0.2317054,-0.120194316,-0.33608216,0.05401998,0.41577643
-0.1,0.1,0.7999999999999999,0.5235987755982988,0.5235987755982988,0,0.6758007,0.25174746,0.3990153,-0.4140946,0.20239939,1.5010624,1.4791062,0.5051163,-0.5751816,-0.35666537,-0.39697322,-0.2856995,-0.4759847,-0.64558685
-0.1,0.1,0.7999999999999999,0.5235987755982988,0.5235987755982988,0,0.6923388,0.2446123,0.3929371,-0.39981157,0.19670592,1.5043749,1.4775811,-0.019740218,-0.60415673,-0.35287642,-0.4720227,-0.72383046,0.30344173,0.19475676
-0.1,0.1,0.7999999999999999,0.5235987755982988,0.5235987755982988,0,0.773446,0.23532389,0.41447017,-0.397227,0.16839576,1.5121136,1.5301447,-0.27473646,-0.79840845,-0.7768136,-0.28815988,-0.5315726,0.6737039,-0.4050385
-0.1,0.1,0.7999999999999999,0.5235987755982988,0.5235987755982988,0,0.7473309,0.25263596,0.39879605,-0.40466774,0.19667915,1.522284,1.475353,0.65417784,-0.82169884,0.21042436,0.06870293,-0.25169897,0.18395472,-0.1534821
-0.1,0.1,0.7999999999999999,0.5235987755982988,0.5235987755982988,0,0.7272011,0.23229153,0.41471902,-0.38788253,0.21575613,1.4928876,1.5057044,-0.46439654,-0.7235007,0.28970474,-0.33498567,-0.29813236,-0.4656521,0.26707006
-0.1,0.1,0.7999999999999999,0.5235987755982988,0.5235987755982988,0,0.67452854,0.24324854,0.41100895,-0.4162809,0.18953507,1.4473323,1.5029705,0.12540627,-0.6445894,0.077424385,-0.35776123,-0.36620656,0.24413809,0.2123715
-0.1,0.1,0.7999999999999999,0.5235987755982988,0.5235987755982988,0,0.6767487,0.25436056,0.41591045,-0.3867508,0.17012163,1.5428823,1.4682107,0.6433988,-0.72175014,0.019529656,-0.3120341,0.29233766,0.09746452,-0.10457609
-0.1,0.1,0.7999999999999999,0.5235987755982988,0.5235987755982988,0,0.717814,0.22321604,0.393712,-0.4000548,0.18361443,1.5353769,1.5021478,0.22288747,-0.6351263,0.33946553,-0.48522705,-0.6765129,-0.08234086,-0.1534666
-0.1,0.1,0.7999999999999999,0.5235987755982988,0.5235987755982988,0,0.7098026,0.21923196,0.39899307,-0.41760325,0.18735392,1.5315602,1.5493199,0.2397871,-0.8267693,0.2117786,-0.441576,-0.09691979,-1.215001,-0.47346717
-0.1,0.1,0.7999999999999999,0.5235987755982988,0.5235987755982988,0,0.72296035,0.23601644,0.38922477,-0.38934037,0.18785957,1.5265919,1.4547476,0.3532002,-0.5823501,0.1530205,-0.07639471,-0.2806752,0.24564226,0.5748128
-0.1,0.1,0.7999999999999999,0.5235987755982988,0.5235987755982988,0,0.7091297,0.25741106,0.41199476,-0.3721961,0.17546661,1.5238204,1.5249734,0.10092187,-0.7738471,0.3387129,-0.58810884,-0.228911,0.5386379,0.78585434
-0.1,0.1,0.7999999999999999,0.5235987755982988,0.5235987755982988,0,0.68934083,0.26207855,0.40859473,-0.4082991,0.1913392,1.4941566,1.4898407,0.1879887,-0.98423135,0.0794212,-0.23730664,0.30229387,0.086896084,-0.63222617
-0.1,0.1,0.7999999999999999,0.5235987755982988,0.5235987755982988,0,0.7051511,0.24291213,0.40032932,-0.42137605,0.17919041,1.5004648,1.4960555,0.84701294,-1.0359535,0.6995133,-0.16804822,-0.470236,-0.63189596,0.09359345
-0.1,0.1,0.7999999999999999,0.5235987755982988,0.5235987755982988,0,0.7110638,0.24604535,0.4114995,-0.38296017,0.1918291,1.5291667,1.4754844,0.21330912,-0.9703719,0.06479359,-0.05265007,-0.49921486,-0.16458447,0.4770549
-0.1,0.1,0.7999999999999999,0.5235987755982988,0.5235987755982988,0,0.7025065,0.2634032,0.40796563,-0.43731928,0.17853239,1.5209819,1.484742,-0.034218583,-0.67498106,0.12680748,0.085401274,-0.12103454,-0.91618097,0.12874153
-0.1,0.1,0.7999999999999999,0.5235987755982988,0.5235987755982988,0,0.7072276,0.21379986,0.4176761,-0.41159958,0.20037954,1.5220274,1.4901681,0.33548298,-0.83429,-0.37147018,0.28161722,0.1351161,0.556543,-0.60138535
-0.1,0.1,0.7999999999999999,0.5235987755982988,0.5235987755982988,0,0.6970474,0.22268544,0.40038216,-0.39864355,0.1936897,1.4813615,1.477608,-0.50240993,-0.7738546,0.09475565,-0.06443578,0.4929301,0.21008325,-1.0249867
-0.1,0.1,0.7999999999999999,0.5235987755982988,0.5235987755982988,0,0.7112035,0.24003577,0.41518068,-0.38550958,0.21222353,1.5151824,1.4503255,0.5650265,-0.3529171,0.14747742,-0.15553974,0.006076758,0.3222698,0.2772026
-0.1,0.1,0.7999999999999999,0.5235987755982988,0.5235987755982988,0,0.71345764,0.25457224,0.40842417,-0.37635574,0.17183822,1.4950849,1.4869909,0.3729932,-0.6436805,-0.50067437,-0.22942397,0.14494827,0.75285167,-0.4258887
-0.1,0.1,0.7999999999999999,0.5235987755982988,0.5235987755982988,0,0.6825947,0.22900738,0.42549452,-0.4346824,0.17879896,1.5045366,1.4736987,-0.18802194,-0.82768834,0.54188764,-0.16659988,-0.4281981,0.25446925,0.04776253
-0.1,0.1,0.7999999999999999,0.5235987755982988,0.5235987755982988,0,0.70037436,0.25019,0.40041545,-0.41846037,0.16242315,1.4955758,1.4629837,0.34496304,-0.88855886,0.4543163,-0.3864004,-0.44550943,-0.24657685,0.676512
-0.1,0.1,0.7999999999999999,0.5235987755982988,0.5235987755982988,0,0.711498,0.24485263,0.40204182,-0.37067604,0.16310136,1.5189732,1.4809319,-0.687938,-0.86463857,-0.34331244,-0.19122021,-0.14075637,1.0960168,0.97424185
-0.1,0.1,0.7999999999999999,0.5235987755982988,0.5235987755982988,0,0.69222826,0.2389336,0.41765237,-0.400601,0.17417261,1.4925665,1.4302047,-0.14559962,-0.6619345,0.23176636,-0.5206396,0.25417992,1.3876021,0.6864278
-0.1,0.1,0.7999999999999999,0.5235987755982988,0.5235987755982988,0,0.6836311,0.23380663,0.40774828,-0.41371167,0.18546538,1.5027765,1.474821,0.26054755,-0.4979633,-0.26949617,-0.49274445,0.6149237,0.8287094,0.44250894
-0.1,0.1,0.7999999999999999,0.5235987755982988,0.5235987755982988,0,0.72009385,0.25737894,0.40962765,-0.4299939,0.16784438,1.5101475,1.5132697,-0.048617143,-0.80610234,0.44859833,-0.43919244,-0.4355885,-0.3278486,0.60418856
-0.1,0.1,0.7999999999999999,0.5235987755982988,0.5235987755982988,0,0.689208,0.2529221,0.40144867,-0.4016675,0.19738998,1.4932939,1.4471571,0.43173438,-0.7327297,0.24591042,-0.27769697,0.06316657,-0.1844044,0.102903254
-0.1,0.1,0.7999999999999999,0.5235987755982988,0.5235987755982988,0,0.699079,0.24794495,0.4077025,-0.40906358,0.17075782,1.5141598,1.4674184,0.0087339515,-0.5904735,-0.23690477,-0.3216381,0.97439724,0.08870819,0.43044835
-0.1,0.1,0.7999999999999999,0.5235987755982988,0.5235987755982988,0,0.6988777,0.25130686,0.41100162,-0.43282077,0.17780751,1.5163002,1.4417703,-0.18199125,-0.67266023,0.14084592,-1.2304246,-0.12102111,0.2957394,0.4881375
-0.1,0.1,0.7999999999999999,0.5235987755982988,0.5235987755982988,0,0.6840361,0.23998909,0.40895537,-0.3877916,0.1681182,1.5437049,1.4528718,-0.6224028,-0.7158194,0.28269285,-0.3996387,0.02207712,0.42765442,0.46934032
-0.1,0.1,0.7999999999999999,0.5235987755982988,0.5235987755982988,0,0.69253075,0.24933791,0.4240123,-0.38686755,0.20659663,1.4593303,1.5037055,0.2303053,-0.624595,-0.34728658,-0.5316093,-0.45409787,-0.05239349,0.40045717
-0.1,0.1,0.7999999999999999,0.5235987755982988,0.5235987755982988,0,0.7021838,0.24857712,0.40272263,-0.39471743,0.21464433,1.5019219,1.4976447,0.6787936,-0.9027338,-0.2022855,-0.73624057,0.230797,-0.47117302,0.11539387
-0.1,0.1,0.7999999999999999,0.5235987755982988,0.5235987755982988,0,0.70878726,0.23893456,0.41860616,-0.40074432,0.21061075,1.5206734,1.4757284,0.4802012,-0.8390784,-0.05299211,-0.5599162,-0.48925793,-0.48122966,0.6246184
-0.1,0.1,0.7999999999999999,0.5235987755982988,0.5235987755982988,0,0.72476023,0.2298399,0.41716975,-0.41102928,0.19275302,1.4864535,1.4980474,-0.14696947,-0.726646,0.5400842,-0.23971991,-0.6265992,0.09969535,-0.21299148
-0.1,0.1,0.7999999999999999,0.5235987755982988,0.5235987755982988,0,0.7348934,0.250429,0.39538863,-0.40679625,0.1841504,1.5119023,1.5233241,0.3717096,-0.487586,-0.86902994,-0.35833523,1.0156686,-0.40887147,1.093627
-0.1,0.1,0.7999999999999999,0.5235987755982988,0.5235987755982988,0,0.69099283,0.23804104,0.40866676,-0.38306713,0.16686122,1.4926659,1.5092524,-0.24607068,-0.85711074,-0.72299176,-0.12775333,-0.18442051,-0.07948359,-0.26598507
-0.1,0.1,0.7999999999999999,0.5235987755982988,0.5235987755982988,0,0.71824354,0.23673318,0.40666038,-0.39513513,0.1872501,1.5118568,1.471748,-0.8168805,-0.87533003,0.13230681,-0.25307322,0.49980703,-0.086440735,0.030939206
-0.1,0.1,0.7999999999999999,0.5235987755982988,0.5235987755982988,0,0.6911463,0.2588358,0.4060545,-0.38869923,0.18561567,1.4685838,1.5086126,0.20336284,-0.7067513,0.30419514,-0.41202,-0.07426828,0.6835216,-0.11862535
-0.1,0.1,0.7999999999999999,0.5235987755982988,0.5235987755982988,0,0.68193066,0.23817612,0.41425785,-0.39543912,0.18974788,1.4939779,1.5191184,0.26139298,-0.6207801,0.23967443,-0.5773969,-0.050601546,0.63056403,0.3830009
-0.1,0.1,0.7999999999999999,0.5235987755982988,0.5235987755982988,0,0.68591166,0.2544005,0.42861706,-0.403902,0.18706961,1.5052379,1.4990734,-0.5339287,-0.7780909,-0.53082687,-0.15376835,-0.7178582,0.24768832,0.34496418
-0.1,0.1,0.7999999999999999,0.5235987755982988,0.5235987755982988,0,0.69874483,0.23735976,0.39192247,-0.39200225,0.18269582,1.4746405,1.4582182,-0.6256854,-0.6590977,-0.27866966,-0.19703789,-0.2178451,-0.6681045,0.021929856
-0.1,0.1,0.7999999999999999,0.5235987755982988,0.5235987755982988,0,0.7229746,0.23106772,0.40528968,-0.38404372,0.1749058,1.5045931,1.4847984,-0.21137975,-0.642479,0.036435287,-0.76612186,0.3571699,-0.61057925,0.39556456
-0.1,0.1,0.7999999999999999,0.5235987755982988,0.5235987755982988,0,0.71461314,0.23651056,0.41571805,-0.3769908,0.1808209,1.48531,1.4715501,-0.030183773,-0.6369366,-0.1578822,-0.20717068,0.15835842,0.02277328,0.31924075
-0.1,0.1,0.7999999999999999,0.5235987755982988,0.5235987755982988,0,0.7050899,0.23999211,0.4170517,-0.41317406,0.1799579,1.4971387,1.4808992,-0.28014508,-0.70089364,0.6140219,-0.38852122,-0.22854869,0.47854716,1.0793291
-0.1,0.1,0.7999999999999999,0.5235987755982988,0.5235987755982988,0,0.6821746,0.22595645,0.4075456,-0.4072356,0.20997675,1.4855629,1.4845554,0.3351307,-1.0242205,-0.070977665,-0.29857546,-0.09400678,0.26089516,0.48721322
-0.1,0.1,0.7999999999999999,0.5235987755982988,0.5235987755982988,0,0.7203364,0.23030342,0.41321388,-0.3807152,0.17838475,1.4883692,1.5127022,0.24418592,-0.6268522,0.28609,-0.20798211,0.23891154,-0.34553275,0.77689224
-0.1,0.1,0.7999999999999999,0.5235987755982988,0.5235987755982988,0,0.71464866,0.24770431,0.40240404,-0.37916175,0.19908746,1.4910102,1.4583038,0.24580444,-0.83698565,0.021266187,-0.23103605,-0.1193262,-0.043985836,0.73626
-0.1,0.1,0.7999999999999999,0.5235987755982988,0.5235987755982988,0,0.698132,0.24223492,0.41395405,-0.4206356,0.16300647,1.485662,1.4715766,0.10545765,-1.0341007,0.05242827,-0.31484053,0.8969641,-0.38294563,0.44564867
-0.1,0.1,0.7999999999999999,0.5235987755982988,0.5235987755982988,0,0.7133051,0.22817402,0.4149003,-0.40289223,0.19798209,1.5337167,1.4674859,-0.48951632,-0.45267752,-0.23058875,-0.4267728,0.54033047,-0.5228419,0.61343217
-0.1,0.1,0.7999999999999999,0.5235987755982988,0.5235987755982988,0,0.7052175,0.25172836,0.40077496,-0.41893658,0.19336976,1.5091943,1.4698232,0.89173955,-0.7520988,-0.23035736,-0.23587714,-0.018114623,-0.23486887,0.13368051
-0.1,0.1,0.7999999999999999,0.5235987755982988,0.5235987755982988,0,0.71569383,0.25387216,0.42443207,-0.40466058,0.18675517,1.4961492,1.4718082,0.21586765,-0.70443606,0.33799163,-0.4029215,-0.48519605,0.06973706,-0.23282316
-0.1,0.1,0.7999999999999999,0.5235987755982988,0.5235987755982988,0,0.6973906,0.25057703,0.4090442,-0.38915354,0.1753982,1.5026053,1.4844362,0.06259959,-0.854977,0.50584215,-0.12500942,0.531972,-0.189117,0.075594075
-0.1,0.1,0.7999999999999999,0.5235987755982988,0.5235987755982988,0,0.70185614,0.23657537,0.40618587,-0.3731072,0.18616368,1.4974906,1.5007036,0.73342127,-0.90867805,-0.060111366,-0.08682971,-0.8915261,1.0581528,0.39816627
-0.1,0.1,0.7999999999999999,0.5235987755982988,0.5235987755982988,0,0.7167936,0.23823866,0.40239894,-0.40592757,0.18895955,1.4979064,1.5073332,-0.72678596,-0.7214269,-0.41599143,0.011448814,-0.6058824,-0.36774373,-0.17952068
-0.1,0.1,0.7999999999999999,0.5235987755982988,0.5235987755982988,0,0.68114674,0.24240416,0.39823404,-0.41485363,0.17602757,1.5121683,1.4872974,0.28662118,-0.595068,0.042959522,-0.28730714,0.54267335,-0.5122299,1.1271003
-0.1,0.1,0.7999999999999999,0.5235987755982988,0.5235987755982988,0,0.7074107,0.2250306,0.4257049,-0.40059313,0.18846191,1.5008234,1.4711905,-0.3622706,-1.0784358,0.030563803,-0.5848935,-0.4434532,0.26511896,0.9323803
-0.1,0.1,0.7999999999999999,0.5235987755982988,0.5235987755982988,0,0.660659,0.24453081,0.40758562,-0.41576347,0.21191171,1.4814073,1.4689488,0.28016245,-0.7369329,-0.25092965,-0.5315937,0.14763604,-0.86671674,-0.063405655
-0.1,0.1,0.7999999999999999,0.5235987755982988,0.5235987755982988,0,0.69470686,0.2403803,0.40607592,-0.38809466,0.19231756,1.5199448,1.4910966,-0.22359313,-0.9328324,0.35481566,0.03338955,0.33580795,0.45505795,0.446684
-0.1,0.1,0.7999999999999999,0.5235987755982988,0.5235987755982988,0,0.6777877,0.21804543,0.4118402,-0.3969186,0.17931762,1.5093449,1.4871243,-0.67831844,-0.58564,-0.31846917,-0.19933514,-1.0789121,-0.0548315,0.40034077
-0.1,0.1,0.7999999999999999,0.5235987755982988,0.5235987755982988,0,0.69584346,0.23559722,0.38902503,-0.40614098,0.19270344,1.4956105,1.4550271,0.6066613,-0.7746791,0.1360443,-0.5002791,-0.21681465,0.023285761,0.26554927
-0.1,0.1,0.7999999999999999,0.5235987755982988,0.5235987755982988,0,0.6902567,0.2458276,0.42620477,-0.38279706,0.17254859,1.510964,1.4753189,0.3352199,-0.5108908,0.15912893,0.027239366,-0.25024936,-0.39157116,0.30476162
-0.1,0.1,0.7999999999999999,0.5235987755982988,0.5235987755982988,0,0.67384714,0.22615886,0.4160401,-0.39820513,0.16625811,1.4796661,1.4988438,0.024094025,-0.5905098,0.018202264,-0.17392983,-0.18831049,-0.5112534,0.32468748
-0.1,0.1,0.7999999999999999,0.5235987755982988,0.5235987755982988,0,0.6944719,0.23660518,0.40326232,-0.38188836,0.20425268,1.5000479,1.4817327,0.46444756,-0.9174316,-0.21827629,-0.51183224,-0.112370946,-0.4557625,0.5223862
-0.1,0.1,0.7999999999999999,0.5235987755982988,0.5235987755982988,0,0.6926413,0.24340683,0.4096503,-0.40704864,0.21184595,1.5133557,1.4766861,-0.45656562,-0.8140478,-0.23990004,-0.2002081,-0.46577516,0.8359542,-0.017169094
-0.1,0.1,0.7999999999999999,0.5235987755982988,0.5235987755982988,0,0.7238467,0.22450356,0.3917252,-0.4663188,0.17342909,1.526493,1.4725918,0.38807127,-0.96300894,0.18089892,0.05911029,0.19098516,-0.6487961,0.025488684
-0.1,0.1,0.7999999999999999,0.5235987755982988,0.5235987755982988,0,0.7266244,0.24718574,0.42566183,-0.4836645,0.1933264,1.485421,1.4367859,1.2491157,-0.79968095,0.12114753,-0.26891193,0.28060755,-0.23790313,0.38817173
-0.1,0.1,0.7999999999999999,0.5235987755982988,0.5235987755982988,0,0.7101496,0.2395014,0.4084457,-0.37227222,0.1807713,1.4954621,1.5069488,-0.2448742,-0.64048153,-0.056322034,-0.6075643,-0.007819918,-0.06535451,0.50977975
-0.1,0.1,0.7999999999999999,0.5235987755982988,0.5235987755982988,0,0.6769162,0.22566345,0.4048153,-0.39606497,0.19640623,1.5099168,1.4484537,0.11714036,-0.8737792,0.2980085,-0.4850103,-0.2566121,-0.4816758,0.36864
-0.1,0.1,0.7999999999999999,0.5235987755982988,0.5235987755982988,0,0.68329704,0.22734219,0.41975725,-0.37535483,0.2206477,1.4870969,1.4703828,0.12386267,-0.92105204,0.09937012,-0.13215257,0.68653893,-0.71891296,0.075589575
-0.1,0.1,0.7999999999999999,0.5235987755982988,0.5235987755982988,0,0.65436286,0.2640962,0.41277668,-0.42516762,0.19475295,1.4868009,1.4941667,-0.03240439,-0.62369835,0.33941495,-0.037243623,-0.42232162,-0.07565648,0.0030733047
-0.1,0.1,0.7999999999999999,0.5235987755982988,0.5235987755982988,0,0.69513327,0.23676983,0.39566782,-0.4006992,0.1888053,1.4977416,1.4894851,-0.6319434,-0.7968566,-0.14951509,-0.29935974,0.57691044,-0.20516135,0.27365375
-0.1,0.1,0.7999999999999999,0.5235987755982988,0.5235987755982988,0,0.6809477,0.22788906,0.42233682,-0.39345908,0.19197296,1.5071671,1.4376131,-0.23672278,-0.6499638,0.21073519,0.11687176,-0.3332658,-0.4013575,0.23284572
-0.1,0.1,0.7999999999999999,0.5235987755982988,0.5235987755982988,0,0.6839431,0.23439217,0.4250066,-0.3975159,0.18223676,1.5098743,1.4857172,-0.4054137,-0.6224218,0.09625179,-0.058876723,-0.22480522,-0.0638069,-0.06615745
-0.1,0.1,0.7999999999999999,0.5235987755982988,0.5235987755982988,0,0.6913542,0.25268674,0.40481594,-0.37132534,0.13526918,1.5229294,1.5104625,0.8148056,-0.52477056,-0.086807065,0.18870631,0.07943379,0.10140485,0.37233105
-0.1,0.1,0.7999999999999999,0.5235987755982988,0.5235987755982988,0,0.6754078,0.23807858,0.41949385,-0.435169,0.16939794,1.5389935,1.4972954,0.28286466,-0.8921518,0.30976993,-0.32170045,-0.16256037,0.09773256,0.92951757
-0.1,0.1,0.7999999999999999,0.5235987755982988,0.5235987755982988,0,0.68489766,0.23668087,0.41969013,-0.3944231,0.19138941,1.4857916,1.4904693,0.46467236,-0.6523875,0.22287709,-0.21966942,-0.003686956,-0.9821305,-0.44325557
-0.1,0.1,0.7999999999999999,0.5235987755982988,0.5235987755982988,0,0.66494745,0.22818097,0.43507332,-0.4490374,0.16575444,1.5176932,1.4986025,0.42725894,-0.9553087,0.002408758,-0.35487983,0.46425706,-0.14666119,0.44965398
-0.1,0.1,0.7999999999999999,0.5235987755982988,0.5235987755982988,0,0.6845396,0.20712915,0.399147,-0.42585054,0.21309465,1.5117911,1.4767404,0.41157654,-0.7806662,-0.17199609,0.018032176,1.4782499,-0.15773922,0.3106721
-0.1,0.1,0.7999999999999999,0.5235987755982988,0.5235987755982988,0,0.6881773,0.21964896,0.40389416,-0.41497627,0.20602998,1.4865887,1.4353503,-0.2736873,-0.91740924,0.122973256,-0.16153155,0.11180881,0.38507885,0.34278476
-0.1,0.1,0.7999999999999999,0.5235987755982988,0.5235987755982988,0,0.6862696,0.21964498,0.40814948,-0.40233284,0.1765307,1.506033,1.4815092,0.31777266,-1.0039504,-0.32318714,-0.07125009,0.66468644,0.3894776,-0.0780871
-0.1,0.1,0.7999999999999999,0.5235987755982988,0.5235987755982988,0,0.67256993,0.21853188,0.39973328,-0.4180808,0.17691296,1.546049,1.5030515,-0.19340679,-1.057218,0.157834,0.0706521,0.19732875,0.49766707,0.034265608
-0.1,0.1,0.7999999999999999,0.5235987755982988,0.5235987755982988,0,0.67668474,0.25201133,0.42100602,-0.40987793,0.18244742,1.5194596,1.477523,0.64921767,-0.7156269,0.58676046,-0.4142769,-0.3807175,-0.37874955,1.0846089
-0.1,0.1,0.7999999999999999,0.5235987755982988,0.5235987755982988,0,0.68094116,0.23193225,0.4191142,-0.34672505,0.18934774,1.4690913,1.4621308,0.3119596,-0.55904114,0.20989753,-0.4797277,-0.2653861,0.11198763,-0.7396657
-0.1,0.1,0.7999999999999999,0.5235987755982988,0.5235987755982988,0,0.6822002,0.23137051,0.42286447,-0.37329525,0.18521577,1.4853556,1.4660726,0.32378283,-0.7448676,-0.3433469,0.14216913,-0.042030655,-0.13304189,0.89388484
-0.1,0.1,0.7999999999999999,0.5235987755982988,0.5235987755982988,0,0.6937748,0.25643554,0.41844183,-0.40612316,0.15943326,1.5075173,1.4929186,0.03682498,-1.0337609,0.5389401,0.12877451,-0.46106222,0.70783615,0.66830057
-0.1,0.1,0.7999999999999999,0.5235987755982988,0.5235987755982988,0,0.6853103,0.22863558,0.40631807,-0.39463317,0.20183966,1.4889833,1.472777,-0.6868929,-0.81282556,-0.29660228,-0.43780157,-0.42295152,-0.12344807,0.43789527
-0.1,0.1,0.7999999999999999,0.5235987755982988,0.5235987755982988,0,0.6882914,0.22961749,0.40829048,-0.41806036,0.16959402,1.500336,1.4961461,0.39003053,-0.7299609,-0.42421487,-0.31684464,0.077720985,1.3104867,0.49397972
-0.1,0.1,0.7999999999999999,0.5235987755982988,0.5235987755982988,0,0.6729164,0.24803089,0.40557584,-0.43837902,0.21757728,1.4963126,1.5014995,0.2514566,-0.9609401,-0.14532211,-0.18459833,-0.4300508,-0.46358955,0.37179407
-0.1,0.1,0.7999999999999999,0.5235987755982988,0.5235987755982988,0,0.6870869,0.23586544,0.39694798,-0.38417768,0.1876294,1.5239723,1.489601,0.081142515,-0.7223028,0.039016288,-0.14303434,-0.656601,-0.100934796,0.30642858
-0.1,0.1,0.7999999999999999,0.5235987755982988,0.5235987755982988,0,0.6799039,0.24395859,0.41263905,-0.4041158,0.16612692,1.4861313,1.4553399,0.80956244,-0.6662295,0.091648035,-0.4488023,-0.14741838,0.2498699,-0.0384416
-0.1,0.1,0.7999999999999999,0.5235987755982988,0.5235987755982988,0,0.68035144,0.23633246,0.40719473,-0.4119074,0.19160351,1.4926637,1.4934806,0.5077533,-0.5775582,0.4854109,0.24099591,0.40662488,-0.2730286,1.0502365
-0.1,0.1,0.7999999999999999,0.5235987755982988,0.5235987755982988,0,0.686887,0.2508141,0.4170369,-0.3884401,0.18449673,1.5133741,1.4837983,0.3759614,-0.8272661,-0.27600116,-0.0058644996,0.03710056,-0.21258673,0.5052367
-0.1,0.1,0.7999999999999999,0.5235987755982988,0.5235987755982988,0,0.7180703,0.23904295,0.41129377,-0.38840404,0.18450443,1.4840934,1.4715683,-0.078346625,-0.749641,0.06049576,-0.5661011,0.28065974,0.64963686,0.059756916
-0.1,0.1,0.7999999999999999,0.5235987755982988,0.5235987755982988,0,0.66994196,0.25221592,0.41301095,-0.3859911,0.18275726,1.5068302,1.5222886,0.60260546,-0.5453572,0.311414,-0.39900905,0.08643,-0.04279398,1.1437405
-0.1,0.1,0.7999999999999999,0.5235987755982988,0.5235987755982988,0,0.7012752,0.22831777,0.40990302,-0.39649156,0.18075165,1.4912126,1.4731671,0.59142166,-1.0661465,0.28883576,-0.17046823,0.24052007,0.4328695,0.28353772
-0.1,0.1,0.7999999999999999,0.5235987755982988,0.5235987755982988,0,0.69643253,0.22579367,0.4046759,-0.3981,0.16960724,1.5042818,1.4920747,0.5868037,-0.80424637,0.19319619,-0.06320442,0.08229971,-0.7943305,0.29412746
-0.1,0.1,0.7999999999999999,0.5235987755982988,0.5235987755982988,0,0.6791145,0.23507261,0.42482686,-0.39809588,0.2172988,1.4940493,1.4417385,-0.2863738,-0.72241783,0.7282888,-0.06113766,-0.06892703,-0.21730676,0.1884483
