sanky1234/BimanualDexCatch/isaacgymenvs/cem_results/football_pose_-0.2_-0.2_0.6_-0.5235987755982988_-0.34906585039886584_0.34906585039886606.csv
x,y,z,roll,pitch,yaw,robot1/joint1,robot1/joint2,robot1/joint3,robot1/joint4,robot1/joint5,robot1/joint6,robot1/joint7,robot2/joint1,robot2/joint2,robot2/joint3,robot2/joint4,robot2/joint5,robot2/joint6,robot2/joint7
-0.2,-0.2,0.6,-0.5235987755982988,-0.34906585039886584,0.34906585039886606,1.5671337,1.3842095,0.33964747,0.5814732,-0.1835933,0.17297167,0.89549947,-0.41986337,1.5474463,-0.2733263,-0.8027694,-0.15226404,1.499562,1.6664194
-0.2,-0.2,0.6,-0.5235987755982988,-0.34906585039886584,0.34906585039886606,1.5634111,1.4127938,0.32842335,0.6319824,-0.1143577,0.11953279,0.93824863,-0.42964435,1.547179,-0.28680125,-0.7338262,-0.16157025,1.5240148,1.4676529
-0.2,-0.2,0.6,-0.5235987755982988,-0.34906585039886584,0.34906585039886606,1.6152009,1.3903029,0.30406335,0.61809397,-0.17316818,0.16243017,0.89923924,-0.43220916,1.5510145,-0.29105976,-0.7681932,-0.15366039,1.4779011,1.4874164
-0.2,-0.2,0.6,-0.5235987755982988,-0.34906585039886584,0.34906585039886606,1.5357658,1.3884487,0.32516047,0.59843045,-0.17557375,0.13218324,0.7846075,-0.44511512,1.5525057,-0.31514537,-0.7221084,-0.17223653,1.4474341,1.5901735
-0.2,-0.2,0.6,-0.5235987755982988,-0.34906585039886584,0.34906585039886606,1.5018121,1.388524,0.3245564,0.62163407,-0.20114656,0.15293913,0.9396017,-0.43433565,1.5371958,-0.3054859,-0.720694,-0.12293377,1.4727054,1.3334402
-0.2,-0.2,0.6,-0.5235987755982988,-0.34906585039886584,0.34906585039886606,1.5484709,1.3936253,0.33627656,0.6389498,-0.17499004,0.18913159,0.8623985,-0.4436966,1.5596149,-0.29630247,-0.7837144,-0.18257912,1.5146921,1.5264529
-0.2,-0.2,0.6,-0.5235987755982988,-0.34906585039886584,0.34906585039886606,1.5493603,1.3930922,0.3076581,0.66872025,-0.17827396,0.15006714,0.7821963,-0.43934983,1.5313601,-0.3108517,-0.69367784,-0.15180945,1.4980288,1.5794408
-0.2,-0.2,0.6,-0.5235987755982988,-0.34906585039886584,0.34906585039886606,1.5337539,1.4120533,0.32372957,0.5903239,-0.15945904,0.119311966,0.89174247,-0.4444108,1.5452478,-0.2884887,-0.6931123,-0.16863437,1.4121246,1.6104604
-0.2,-0.2,0.6,-0.5235987755982988,-0.34906585039886584,0.34906585039886606,1.5626644,1.3895806,0.31508338,0.6419958,-0.1405964,0.18172723,0.8446377,-0.4325447,1.5403054,-0.29437938,-0.68571126,-0.18867828,1.4585598,1.4725311
-0.2,-0.2,0.6,-0.5235987755982988,-0.34906585039886584,0.34906585039886606,1.562177,1.4019703,0.32576376,0.5925835,-0.13150069,0.16034739,0.95975137,-0.43956912,1.5556724,-0.3076091,-0.67216873,-0.10528734,1.3936225,1.5838248
-0.2,-0.2,0.6,-0.5235987755982988,-0.34906585039886584,0.34906585039886606,1.5458506,1.413409,0.31872565,0.6364682,-0.23041907,0.17653671,0.9621435,-0.4442731,1.5517323,-0.29842415,-0.7151773,-0.19417588,1.5022807,1.5924622
-0.2,-0.2,0.6,-0.5235987755982988,-0.34906585039886584,0.34906585039886606,1.5413888,1.3929412,0.3204358,0.61105645,-0.22884138,0.17506626,0.9821862,-0.4356943,1.5591038,-0.2979989,-0.70621204,-0.18789016,1.4758322,1.6589217
-0.2,-0.2,0.6,-0.5235987755982988,-0.34906585039886584,0.34906585039886606,1.5708053,1.4050484,0.30157217,0.5972041,-0.25576362,0.19818501,0.85268927,-0.4281464,1.543934,-0.31903318,-0.6991316,-0.15890995,1.4489872,1.5854812
-0.2,-0.2,0.6,-0.5235987755982988,-0.34906585039886584,0.34906585039886606,1.5754473,1.3882711,0.33454743,0.6526362,-0.20509146,0.1820755,0.77429855,-0.4430463,1.5513185,-0.2903392,-0.6915533,-0.1635492,1.4506289,1.4948134
-0.2,-0.2,0.6,-0.5235987755982988,-0.34906585039886584,0.34906585039886606,1.5344507,1.3878815,0.32952416,0.596743,-0.2303074,0.15640807,0.8968783,-0.41175458,1.5433073,-0.30217826,-0.6951861,-0.12754765,1.4797984,1.6714813
-0.2,-0.2,0.6,-0.5235987755982988,-0.34906585039886584,0.34906585039886606,1.5495148,1.3770621,0.3117677,0.65465194,-0.22788857,0.0972479,0.8428277,-0.43232113,1.5559721,-0.28863895,-0.7541054,-0.13045447,1.4676188,1.7153337
-0.2,-0.2,0.6,-0.5235987755982988,-0.34906585039886584,0.34906585039886606,1.5715784,1.4105877,0.33193463,0.60954916,-0.112777896,0.12476885,0.8495858,-0.44969505,1.5576187,-0.3019099,-0.6915612,-0.19435747,1.446116,1.6331819
-0.2,-0.2,0.6,-0.5235987755982988,-0.34906585039886584,0.34906585039886606,1.5544972,1.3784364,0.3280124,0.6067587,-0.17431751,0.12608425,0.8516631,-0.43475115,1.540668,-0.29661417,-0.67431784,-0.111878835,1.4770476,1.6042763
-0.2,-0.2,0.6,-0.5235987755982988,-0.34906585039886584,0.34906585039886606,1.5408916,1.3929433,0.31220046,0.6325986,-0.18981692,0.12972522,0.9086623,-0.42067382,1.546175,-0.28177902,-0.7217114,-0.15368077,1.42662,1.6858988
-0.2,-0.2,0.6,-0.5235987755982988,-0.34906585039886584,0.34906585039886606,1.5165342,1.4010894,0.347282,0.60384595,-0.13755845,0.25297296,0.89027894,-0.44118458,1.5429631,-0.2858837,-0.70847464,-0.11898498,1.4908935,1.6607884
-0.2,-0.2,0.6,-0.5235987755982988,-0.34906585039886584,0.34906585039886606,1.5492492,1.3924525,0.35072982,0.60910624,-0.116278045,0.16327985,0.88425994,-0.43328592,1.553539,-0.2991019,-0.70394033,-0.18428624,1.4232651,1.6426411
-0.2,-0.2,0.6,-0.5235987755982988,-0.34906585039886584,0.34906585039886606,1.5405415,1.4032445,0.34185287,0.61789274,-0.17156449,0.15469259,0.8467814,-0.4144745,1.5405709,-0.30535942,-0.739022,-0.11417014,1.4474407,1.6994897
-0.2,-0.2,0.6,-0.5235987755982988,-0.34906585039886584,0.34906585039886606,1.5673438,1.3913987,0.3267226,0.5704935,-0.22001833,0.21025462,0.93222696,-0.42441732,1.5489028,-0.27463314,-0.70484364,-0.14899558,1.4863921,1.5726526
-0.2,-0.2,0.6,-0.5235987755982988,-0.34906585039886584,0.34906585039886606,1.5380675,1.3943764,0.30973575,0.6473288,-0.19018514,0.15662867,0.8678131,-0.4274006,1.5485002,-0.28680637,-0.71964157,-0.13872603,1.448218,1.5489938
-0.2,-0.2,0.6,-0.5235987755982988,-0.34906585039886584,0.34906585039886606,1.5380642,1.393859,0.32484075,0.6016298,-0.17273325,0.14329164,0.7910374,-0.4433948,1.536862,-0.28874466,-0.7846607,-0.22108161,1.5029513,1.634212
-0.2,-0.2,0.6,-0.5235987755982988,-0.34906585039886584,0.34906585039886606,1.5462122,1.3780451,0.32511118,0.66061765,-0.17098507,0.1177758,0.8320365,-0.43090707,1.5519627,-0.3079992,-0.6950029,-0.17811036,1.4425603,1.6105384
-0.2,-0.2,0.6,-0.5235987755982988,-0.34906585039886584,0.34906585039886606,1.5436574,1.3947699,0.331205,0.6120443,-0.2498428,0.19654574,0.8578184,-0.42961738,1.5393416,-0.28584746,-0.6879783,-0.14312077,1.4757359,1.4727398
-0.2,-0.2,0.6,-0.5235987755982988,-0.34906585039886584,0.34906585039886606,1.5789394,1.380912,0.2938355,0.6588592,-0.17810947,0.14069617,0.97923565,-0.4259645,1.5387233,-0.30120802,-0.67248106,-0.19932322,1.4579172,1.7246797
-0.2,-0.2,0.6,-0.5235987755982988,-0.34906585039886584,0.34906585039886606,1.517148,1.397941,0.31498107,0.5814782,-0.17150155,0.15408574,0.8700847,-0.44496655,1.538707,-0.28429857,-0.7352065,-0.15949826,1.4216574,1.5883415
-0.2,-0.2,0.6,-0.5235987755982988,-0.34906585039886584,0.34906585039886606,1.547631,1.3819109,0.31240794,0.6230555,-0.1625411,0.12999333,1.0008259,-0.42304304,1.5495688,-0.30983597,-0.76926935,-0.16784088,1.508283,1.6672025
-0.2,-0.2,0.6,-0.5235987755982988,-0.34906585039886584,0.34906585039886606,1.5154687,1.3962849,0.34053332,0.6137153,-0.2111545,0.18100117,0.8402425,-0.4216404,1.5504719,-0.29601458,-0.72153294,-0.1164287,1.484282,1.6520858
-0.2,-0.2,0.6,-0.5235987755982988,-0.34906585039886584,0.34906585039886606,1.5572935,1.3898671,0.312115,0.61188537,-0.18016571,0.1502941,0.939877,-0.43794712,1.5450454,-0.28604698,-0.6626205,-0.08743613,1.4831473,1.657617
-0.2,-0.2,0.6,-0.5235987755982988,-0.34906585039886584,0.34906585039886606,1.5053658,1.3928378,0.33009544,0.6257572,-0.15828103,0.16789348,0.92086303,-0.42399988,1.529215,-0.31115884,-0.69586664,-0.17478542,1.4834572,1.5148029
-0.2,-0.2,0.6,-0.5235987755982988,-0.34906585039886584,0.34906585039886606,1.5159413,1.3945445,0.3216697,0.6429668,-0.2066152,0.14778285,0.8289664,-0.44696352,1.541527,-0.2894304,-0.7260007,-0.16210675,1.4647931,1.7497084
-0.2,-0.2,0.6,-0.5235987755982988,-0.34906585039886584,0.34906585039886606,1.5342965,1.3993264,0.31633946,0.62864244,-0.19515309,0.16196133,0.8330386,-0.43510005,1.5549979,-0.3054418,-0.72475666,-0.15823539,1.4941694,1.5595194
-0.2,-0.2,0.6,-0.5235987755982988,-0.34906585039886584,0.34906585039886606,1.5160452,1.3995497,0.31341833,0.61943483,-0.17921326,0.15925564,0.8876917,-0.4370456,1.5414454,-0.30317083,-0.7187222,-0.13912097,1.4439765,1.3944781
-0.2,-0.2,0.6,-0.5235987755982988,-0.34906585039886584,0.34906585039886606,1.577625,1.3808767,0.32287112,0.59519327,-0.223709,0.19777358,0.8541813,-0.44149372,1.5547619,-0.33499804,-0.7734412,-0.19334415,1.4725429,1.568979
-0.2,-0.2,0.6,-0.5235987755982988,-0.34906585039886584,0.34906585039886606,1.5591539,1.399801,0.32852966,0.54935336,-0.17831706,0.14630058,0.9226538,-0.44278365,1.5423764,-0.2991978,-0.70575106,-0.15747516,1.4194336,1.4549404
-0.2,-0.2,0.6,-0.5235987755982988,-0.34906585039886584,0.34906585039886606,1.5447973,1.3955253,0.33750778,0.64132243,-0.1535706,0.11942278,0.8882628,-0.43601647,1.5364172,-0.27919674,-0.71411204,-0.18069854,1.4843612,1.6918936
-0.2,-0.2,0.6,-0.5235987755982988,-0.34906585039886584,0.34906585039886606,1.5411156,1.3785099,0.3286469,0.631765,-0.16252041,0.18366714,0.8047553,-0.4306276,1.5408107,-0.30232006,-0.7053781,-0.15450098,1.4853932,1.5201626
-0.2,-0.2,0.6,-0.5235987755982988,-0.34906585039886584,0.34906585039886606,1.5761843,1.3931166,0.3241559,0.6293289,-0.18893483,0.13931267,0.944068,-0.44174057,1.5423416,-0.2742192,-0.7534875,-0.11448814,1.4860386,1.4424688
-0.2,-0.2,0.6,-0.5235987755982988,-0.34906585039886584,0.34906585039886606,1.5523237,1.4008968,0.3082951,0.5723671,-0.21519202,0.17147703,0.9586504,-0.436778,1.5524875,-0.28770012,-0.7778195,-0.14086212,1.4505311,1.5602888
-0.2,-0.2,0.6,-0.5235987755982988,-0.34906585039886584,0.34906585039886606,1.5499495,1.402927,0.32440564,0.6004798,-0.14754292,0.19518319,0.9359745,-0.43427444,1.5401126,-0.30655164,-0.71507967,-0.15624857,1.4909272,1.503956
-0.2,-0.2,0.6,-0.5235987755982988,-0.34906585039886584,0.34906585039886606,1.5312557,1.3995883,0.32320148,0.6250152,-0.246053,0.13820644,0.9002842,-0.42902598,1.5411658,-0.27650854,-0.67182386,-0.17465977,1.4031167,1.6112553
-0.2,-0.2,0.6,-0.5235987755982988,-0.34906585039886584,0.34906585039886606,1.5770172,1.3892448,0.3256595,0.6415774,-0.23543473,0.1614081,0.8596668,-0.41949558,1.5481642,-0.30291495,-0.7383148,-0.18196112,1.478087,1.4713105
-0.2,-0.2,0.6,-0.5235987755982988,-0.34906585039886584,0.34906585039886606,1.569284,1.3919342,0.30778465,0.6307715,-0.2047721,0.11303864,1.0186124,-0.44134414,1.5519321,-0.28783745,-0.7087957,-0.13440478,1.4428648,1.5185548
-0.2,-0.2,0.6,-0.5235987755982988,-0.34906585039886584,0.34906585039886606,1.5509185,1.3846244,0.32184562,0.5918451,-0.23082374,0.17298566,0.97069097,-0.43397588,1.5362217,-0.2868898,-0.6732933,-0.1400139,1.461088,1.5507494
-0.2,-0.2,0.6,-0.5235987755982988,-0.34906585039886584,0.34906585039886606,1.5215666,1.3849777,0.32175532,0.6125241,-0.24825929,0.19498578,0.8915309,-0.4164014,1.5441937,-0.3003837,-0.71328163,-0.1667964,1.4820988,1.6191806
-0.2,-0.2,0.6,-0.5235987755982988,-0.34906585039886584,0.34906585039886606,1.5509402,1.3948103,0.33066005,0.60822433,-0.23276094,0.1999823,0.8993767,-0.44527367,1.540592,-0.29559898,-0.6928554,-0.17690796,1.4214456,1.5943869
-0.2,-0.2,0.6,-0.5235987755982988,-0.34906585039886584,0.34906585039886606,1.5371447,1.3789122,0.31522012,0.6388467,-0.20017897,0.17303081,0.8311208,-0.44021845,1.5530202,-0.3160823,-0.73575777,-0.15436509,1.4489843,1.7277217
-0.2,-0.2,0.6,-0.5235987755982988,-0.34906585039886584,0.34906585039886606,1.520786,1.3933225,0.3309612,0.62332505,-0.18550526,0.17057756,0.91960454,-0.42741466,1.548291,-0.31236866,-0.72126615,-0.16497293,1.4674166,1.5491444
-0.2,-0.2,0.6,-0.5235987755982988,-0.34906585039886584,0.34906585039886606,1.4913892,1.3913027,0.34174234,0.63122547,-0.23065904,0.13047343,0.9454064,-0.44224867,1.5576596,-0.2851186,-0.73049974,-0.17012204,1.4718013,1.6309568
-0.2,-0.2,0.6,-0.5235987755982988,-0.34906585039886584,0.34906585039886606,1.5639364,1.3902225,0.34769654,0.6160554,-0.21787691,0.1606536,0.8512443,-0.42203832,1.5435423,-0.28800884,-0.7224081,-0.15888105,1.4900135,1.70822
-0.2,-0.2,0.6,-0.5235987755982988,-0.34906585039886584,0.34906585039886606,1.5841749,1.3927025,0.32647824,0.5763187,-0.1806078,0.18542728,0.88258004,-0.42819783,1.5614765,-0.28684297,-0.7473731,-0.08489123,1.4941832,1.5482091
-0.2,-0.2,0.6,-0.5235987755982988,-0.34906585039886584,0.34906585039886606,1.5477114,1.3843441,0.32057944,0.61914754,-0.16820201,0.13812314,0.97923374,-0.43513232,1.5402703,-0.30369383,-0.70322925,-0.10747105,1.4374057,1.6936114
-0.2,-0.2,0.6,-0.5235987755982988,-0.34906585039886584,0.34906585039886606,1.5569715,1.3956119,0.34566203,0.6027716,-0.1305206,0.11818287,0.94453746,-0.43742633,1.5435216,-0.29224926,-0.73020977,-0.1654503,1.50211,1.7462436
-0.2,-0.2,0.6,-0.5235987755982988,-0.34906585039886584,0.34906585039886606,1.5426115,1.3834326,0.33337247,0.64596087,-0.19570495,0.14381903,0.8049581,-0.4271643,1.5438999,-0.28615957,-0.71940035,-0.15261218,1.4912491,1.7997737
-0.2,-0.2,0.6,-0.5235987755982988,-0.34906585039886584,0.34906585039886606,1.5753251,1.38857,0.32448152,0.61817783,-0.24294005,0.14924319,0.8635967,-0.42903754,1.5476332,-0.27519375,-0.73933434,-0.10697117,1.4272872,1.6433616
-0.2,-0.2,0.6,-0.5235987755982988,-0.34906585039886584,0.34906585039886606,1.5586846,1.3837847,0.3309113,0.6231328,-0.1733452,0.12654887,0.91227776,-0.43571982,1.5356896,-0.31170508,-0.6881054,-0.16420828,1.42471,1.4644543
-0.2,-0.2,0.6,-0.5235987755982988,-0.34906585039886584,0.34906585039886606,1.5492291,1.3844332,0.33059105,0.605618,-0.19795936,0.19902593,0.88281566,-0.44796154,1.5407393,-0.2969545,-0.7267547,-0.16712353,1.4561652,1.560453
-0.2,-0.2,0.6,-0.5235987755982988,-0.34906585039886584,0.34906585039886606,1.5550519,1.4134517,0.3368637,0.630435,-0.21408574,0.1335127,0.8598255,-0.4289601,1.5395914,-0.2858268,-0.70810145,-0.18020785,1.4404645,1.6249466
-0.2,-0.2,0.6,-0.5235987755982988,-0.34906585039886584,0.34906585039886606,1.5659746,1.3846263,0.3384043,0.59902275,-0.21202192,0.13615973,0.8855316,-0.4331017,1.5396602,-0.3228742,-0.69360864,-0.13960928,1.4091175,1.4658571
-0.2,-0.2,0.6,-0.5235987755982988,-0.34906585039886584,0.34906585039886606,1.5736583,1.3997627,0.3128412,0.60735667,-0.16344483,0.1574077,0.84024215,-0.427464,1.5478302,-0.31076336,-0.71075326,-0.13265994,1.4192734,1.6837233
-0.2,-0.2,0.6,-0.5235987755982988,-0.34906585039886584,0.34906585039886606,1.5202974,1.3805714,0.32795817,0.642877,-0.21254824,0.14281717,0.89581364,-0.42466548,1.5472953,-0.32056358,-0.7207112,-0.14805822,1.4399592,1.564541
-0.2,-0.2,0.6,-0.5235987755982988,-0.34906585039886584,0.34906585039886606,1.5585754,1.3897636,0.33816916,0.61577827,-0.23194505,0.18055862,0.96053547,-0.4290932,1.5529021,-0.29460064,-0.77965045,-0.18746147,1.4477105,1.7145283
-0.2,-0.2,0.6,-0.5235987755982988,-0.34906585039886584,0.34906585039886606,1.5760704,1.3948485,0.29790536,0.6075124,-0.18302193,0.20496005,0.74919224,-0.41726205,1.5465968,-0.3123073,-0.69443774,-0.15347421,1.4312881,1.4799192
-0.2,-0.2,0.6,-0.5235987755982988,-0.34906585039886584,0.34906585039886606,1.5634907,1.3897544,0.3545027,0.5868981,-0.17501603,0.16659789,0.87651324,-0.43939996,1.5404546,-0.2986968,-0.71900165,-0.18648413,1.4423053,1.5689878
-0.2,-0.2,0.6,-0.5235987755982988,-0.34906585039886584,0.34906585039886606,1.5409137,1.3696431,0.34448388,0.6071403,-0.20521641,0.13288464,0.8401529,-0.43290526,1.5519024,-0.3018725,-0.7193319,-0.17599948,1.4313682,1.7860488
-0.2,-0.2,0.6,-0.5235987755982988,-0.34906585039886584,0.34906585039886606,1.5560375,1.4005884,0.332753,0.60178095,-0.17571811,0.16635531,0.88801295,-0.42637372,1.5665408,-0.30078286,-0.71281785,-0.124057986,1.4940639,1.5978187
-0.2,-0.2,0.6,-0.5235987755982988,-0.34906585039886584,0.34906585039886606,1.547417,1.3883184,0.32856628,0.6154479,-0.20961644,0.18548992,0.88765216,-0.44017097,1.5481386,-0.2964345,-0.73346746,-0.13586658,1.4603392,1.6372247
-0.2,-0.2,0.6,-0.5235987755982988,-0.34906585039886584,0.34906585039886606,1.5672954,1.4142097,0.32584447,0.59981513,-0.1795717,0.12167212,0.90041244,-0.42443734,1.5409843,-0.28256518,-0.6573353,-0.14753205,1.4526836,1.605567
-0.2,-0.2,0.6,-0.5235987755982988,-0.34906585039886584,0.34906585039886606,1.5559223,1.4003202,0.32273373,0.58798444,-0.18898949,0.14999092,0.8468466,-0.4247917,1.5458761,-0.29058146,-0.805167,-0.15005904,1.4403187,1.5742847
-0.2,-0.2,0.6,-0.5235987755982988,-0.34906585039886584,0.34906585039886606,1.5009749,1.3811669,0.33512998,0.6191864,-0.19194818,0.16078365,0.8284901,-0.44340223,1.5580649,-0.30080554,-0.7291108,-0.14752111,1.4212655,1.7981106
-0.2,-0.2,0.6,-0.5235987755982988,-0.34906585039886584,0.34906585039886606,1.5544684,1.3806245,0.31151897,0.62576103,-0.21097875,0.16202547,0.97761256,-0.43299544,1.5422767,-0.2682232,-0.7049365,-0.14831106,1.4404721,1.495264
-0.2,-0.2,0.6,-0.5235987755982988,-0.34906585039886584,0.34906585039886606,1.5338886,1.3935359,0.32116717,0.59534645,-0.23715477,0.14680761,1.0012002,-0.43756473,1.5650141,-0.27770096,-0.7392045,-0.16960517,1.4580612,1.6286376
-0.2,-0.2,0.6,-0.5235987755982988,-0.34906585039886584,0.34906585039886606,1.5405763,1.3997616,0.3277649,0.5909114,-0.17948247,0.17418282,0.94127,-0.43384495,1.5423883,-0.29150718,-0.7342558,-0.131959,1.4345597,1.7725327
-0.2,-0.2,0.6,-0.5235987755982988,-0.34906585039886584,0.34906585039886606,1.5504004,1.3870962,0.31575233,0.5806178,-0.16239478,0.17472778,0.84585273,-0.4195236,1.5480512,-0.29705742,-0.86391246,-0.14667623,1.5214809,1.6757288
-0.2,-0.2,0.6,-0.5235987755982988,-0.34906585039886584,0.34906585039886606,1.5568272,1.3952903,0.32617894,0.60055,-0.18763563,0.12401915,0.9276908,-0.4342839,1.5572727,-0.28845268,-0.7275119,-0.13994811,1.4209768,1.7239624
-0.2,-0.2,0.6,-0.5235987755982988,-0.34906585039886584,0.34906585039886606,1.5558804,1.3892554,0.32469967,0.61098003,-0.17223291,0.14856458,0.86967736,-0.42472023,1.5463436,-0.30985913,-0.73337746,-0.17364012,1.4392428,1.7283844
-0.2,-0.2,0.6,-0.5235987755982988,-0.34906585039886584,0.34906585039886606,1.5489776,1.4075402,0.32162976,0.56839734,-0.22861183,0.16818278,0.9031277,-0.41725793,1.5491756,-0.2606783,-0.78067887,-0.1415834,1.410732,1.6143792
-0.2,-0.2,0.6,-0.5235987755982988,-0.34906585039886584,0.34906585039886606,1.5304203,1.3839768,0.339765,0.6304492,-0.20748194,0.14899378,0.8139236,-0.42649037,1.5393939,-0.30408433,-0.73034394,-0.18352513,1.4714149,1.6095341
-0.2,-0.2,0.6,-0.5235987755982988,-0.34906585039886584,0.34906585039886606,1.55683,1.3814586,0.31844524,0.6048255,-0.1799382,0.1121648,0.8042652,-0.427456,1.5520463,-0.28427455,-0.7871745,-0.17698142,1.4173869,1.5484409
-0.2,-0.2,0.6,-0.5235987755982988,-0.34906585039886584,0.34906585039886606,1.5479643,1.3945708,0.32180968,0.6070634,-0.20307778,0.16790587,0.93393475,-0.43193823,1.5455762,-0.28508362,-0.72633713,-0.17891124,1.4518236,1.5153075
-0.2,-0.2,0.6,-0.5235987755982988,-0.34906585039886584,0.34906585039886606,1.5707262,1.3969446,0.333801,0.57791406,-0.18270645,0.18682927,0.9154061,-0.42838496,1.535035,-0.29755574,-0.70254445,-0.13224234,1.4434583,1.6929319
-0.2,-0.2,0.6,-0.5235987755982988,-0.34906585039886584,0.34906585039886606,1.561464,1.3948464,0.33374804,0.59300894,-0.17305352,0.19353758,0.8603345,-0.4282901,1.5510157,-0.31083524,-0.71500677,-0.120855905,1.4362109,1.6458926
-0.2,-0.2,0.6,-0.5235987755982988,-0.34906585039886584,0.34906585039886606,1.5569662,1.4007442,0.3289772,0.6130467,-0.16960718,0.12648067,0.94321847,-0.43604884,1.5522603,-0.2718613,-0.754264,-0.15353116,1.4702183,1.6673079
-0.2,-0.2,0.6,-0.5235987755982988,-0.34906585039886584,0.34906585039886606,1.5822165,1.3748909,0.3508598,0.5735767,-0.123625815,0.18091069,0.8617577,-0.43025953,1.5450457,-0.2825017,-0.7281647,-0.19084767,1.4340954,1.4744713
-0.2,-0.2,0.6,-0.5235987755982988,-0.34906585039886584,0.34906585039886606,1.5342436,1.3964621,0.32656553,0.6216084,-0.2045617,0.10415775,0.9721796,-0.4258086,1.555782,-0.30752233,-0.7248148,-0.16347377,1.447181,1.5345126
-0.2,-0.2,0.6,-0.5235987755982988,-0.34906585039886584,0.34906585039886606,1.533819,1.4105319,0.3360013,0.6039963,-0.20733102,0.17524053,0.816865,-0.43064895,1.5469519,-0.28643766,-0.7306413,-0.15336119,1.4516068,1.6949102
-0.2,-0.2,0.6,-0.5235987755982988,-0.34906585039886584,0.34906585039886606,1.5723876,1.3815867,0.3235254,0.5726308,-0.19492407,0.19305855,1.0132902,-0.43086705,1.5437688,-0.2708869,-0.7301249,-0.16438237,1.4154514,1.5554632
-0.2,-0.2,0.6,-0.5235987755982988,-0.34906585039886584,0.34906585039886606,1.5613108,1.3900412,0.31826016,0.619545,-0.16849202,0.13452749,0.8377181,-0.41987512,1.551263,-0.30801326,-0.72380096,-0.13783178,1.4315199,1.5986205
-0.2,-0.2,0.6,-0.5235987755982988,-0.34906585039886584,0.34906585039886606,1.5588719,1.3856851,0.3189941,0.5922323,-0.24010901,0.19560236,0.96604425,-0.4348867,1.5521612,-0.314602,-0.7349806,-0.15929101,1.4431338,1.691963
-0.2,-0.2,0.6,-0.5235987755982988,-0.34906585039886584,0.34906585039886606,1.5951446,1.395366,0.32561877,0.5910208,-0.16571833,0.1367399,0.8853893,-0.43233615,1.5464983,-0.27497938,-0.71205634,-0.15011339,1.3994471,1.4217967
-0.2,-0.2,0.6,-0.5235987755982988,-0.34906585039886584,0.34906585039886606,1.5555314,1.4032222,0.32704055,0.5924048,-0.16800995,0.14126576,0.92907304,-0.4338995,1.5503246,-0.2983861,-0.74478513,-0.1638585,1.4374152,1.6169657
-0.2,-0.2,0.6,-0.5235987755982988,-0.34906585039886584,0.34906585039886606,1.5790979,1.3923991,0.33977705,0.55948967,-0.12350946,0.21116228,0.88619393,-0.43315175,1.547005,-0.2907007,-0.73437077,-0.1449614,1.4123243,1.6632957
-0.2,-0.2,0.6,-0.5235987755982988,-0.34906585039886584,0.34906585039886606,1.5269697,1.4120964,0.32747504,0.5941163,-0.18548435,0.16001259,0.9110151,-0.43897808,1.5595391,-0.2819629,-0.77459186,-0.17519395,1.4938037,1.5683211
-0.2,-0.2,0.6,-0.5235987755982988,-0.34906585039886584,0.34906585039886606,1.5142525,1.404153,0.32882282,0.5734479,-0.17115518,0.16288748,0.93783927,-0.42969516,1.5468298,-0.29437652,-0.6564968,-0.16430362,1.3112956,1.5822772
-0.2,-0.2,0.6,-0.5235987755982988,-0.34906585039886584,0.34906585039886606,1.5473181,1.3878388,0.32648665,0.5747632,-0.11230125,0.12872174,0.80485684,-0.4422879,1.5358628,-0.2870384,-0.7041684,-0.17629841,1.3613744,1.5936273
-0.2,-0.2,0.6,-0.5235987755982988,-0.34906585039886584,0.34906585039886606,1.5165741,1.3929914,0.3236486,0.6035395,-0.26292524,0.16938064,0.78918487,-0.43883088,1.5384237,-0.28442743,-0.7424781,-0.14799877,1.398414,1.5032638
-0.2,-0.2,0.6,-0.5235987755982988,-0.34906585039886584,0.34906585039886606,1.527361,1.4092462,0.33883718,0.5928021,-0.23372726,0.18937598,0.89195544,-0.43032408,1.5506116,-0.29559627,-0.69840425,-0.114667945,1.4162729,1.7025645
-0.2,-0.2,0.6,-0.5235987755982988,-0.34906585039886584,0.34906585039886606,1.5263233,1.3902963,0.3310017,0.6080837,-0.16916668,0.14576636,0.8358831,-0.43777356,1.5340545,-0.2963059,-0.7634043,-0.18053141,1.4639804,1.5362211
-0.2,-0.2,0.6,-0.5235987755982988,-0.34906585039886584,0.34906585039886606,1.546105,1.4046625,0.32282984,0.60026956,-0.22061794,0.13782674,0.9219508,-0.43403852,1.5516189,-0.28770468,-0.7141032,-0.1509847,1.4049728,1.5393053
-0.2,-0.2,0.6,-0.5235987755982988,-0.34906585039886584,0.34906585039886606,1.551959,1.4022832,0.33505806,0.6071651,-0.20654458,0.12973978,0.8264156,-0.4268705,1.5403391,-0.30586848,-0.7363168,-0.13926177,1.437523,1.4836442
-0.2,-0.2,0.6,-0.5235987755982988,-0.34906585039886584,0.34906585039886606,1.5262622,1.3663846,0.3411264,0.6058076,-0.1574461,0.15789963,0.86130375,-0.42473695,1.5432224,-0.32092038,-0.72029525,-0.15436077,1.4216944,1.7413454
-0.2,-0.2,0.6,-0.5235987755982988,-0.34906585039886584,0.34906585039886606,1.5299009,1.3915886,0.33659717,0.5718504,-0.15168127,0.12896234,0.92984533,-0.4270493,1.5461543,-0.29180205,-0.7250814,-0.108334035,1.4471848,1.5354419
-0.2,-0.2,0.6,-0.5235987755982988,-0.34906585039886584,0.34906585039886606,1.5115116,1.4038985,0.3234038,0.61069524,-0.16237614,0.16885935,0.7749406,-0.45046577,1.5385286,-0.28768098,-0.78828996,-0.15001778,1.4774745,1.605737
-0.2,-0.2,0.6,-0.5235987755982988,-0.34906585039886584,0.34906585039886606,1.5371212,1.4025201,0.3481927,0.6043439,-0.12590109,0.097388834,0.8013845,-0.44796565,1.5452528,-0.2719004,-0.79511184,-0.18277368,1.4941515,1.6409737
-0.2,-0.2,0.6,-0.5235987755982988,-0.34906585039886584,0.34906585039886606,1.5675956,1.3930779,0.34470007,0.58610994,-0.16954918,0.13128018,0.87595236,-0.43443123,1.5476835,-0.28463182,-0.72089493,-0.1224638,1.4079847,1.5324751
-0.2,-0.2,0.6,-0.5235987755982988,-0.34906585039886584,0.34906585039886606,1.5381457,1.389145,0.3276638,0.62265694,-0.17782898,0.12482055,0.8054121,-0.42349735,1.543701,-0.301495,-0.71225035,-0.16075273,1.394973,1.6686773
-0.2,-0.2,0.6,-0.5235987755982988,-0.34906585039886584,0.34906585039886606,1.5438744,1.3860102,0.32421488,0.605202,-0.20805599,0.1843403,0.8290847,-0.4362765,1.5466468,-0.28931946,-0.7581654,-0.12795983,1.4551346,1.5213976
-0.2,-0.2,0.6,-0.5235987755982988,-0.34906585039886584,0.34906585039886606,1.5040252,1.3812845,0.3478821,0.5866544,-0.15914859,0.16501266,0.85981023,-0.41779533,1.5414531,-0.3129491,-0.7455257,-0.13935386,1.4041492,1.5519227
-0.2,-0.2,0.6,-0.5235987755982988,-0.34906585039886584,0.34906585039886606,1.5602188,1.3892751,0.34473273,0.59347683,-0.18246408,0.13951907,0.8937611,-0.44048968,1.539138,-0.28756034,-0.74356824,-0.13988045,1.4199585,1.7026323
-0.2,-0.2,0.6,-0.5235987755982988,-0.34906585039886584,0.34906585039886606,1.5468836,1.3897774,0.32896292,0.5758452,-0.1613975,0.17854017,0.8692998,-0.4256675,1.5556492,-0.28453094,-0.76209295,-0.09712611,1.4219683,1.5770853
-0.2,-0.2,0.6,-0.5235987755982988,-0.34906585039886584,0.34906585039886606,1.5683956,1.384035,0.33442256,0.59771705,-0.20781058,0.13933015,0.86671543,-0.4246266,1.558465,-0.29717734,-0.747602,-0.17106909,1.4232726,1.5584829
-0.2,-0.2,0.6,-0.5235987755982988,-0.34906585039886584,0.34906585039886606,1.536879,1.4038749,0.30924475,0.60249513,-0.10725871,0.12919539,0.86218166,-0.42410868,1.537438,-0.31783038,-0.68988144,-0.14454108,1.3780077,1.6609331
-0.2,-0.2,0.6,-0.5235987755982988,-0.34906585039886584,0.34906585039886606,1.5501959,1.3950099,0.32971606,0.5756973,-0.17682347,0.16593927,0.9615194,-0.43088698,1.537004,-0.30973738,-0.725081,-0.12560676,1.3974261,1.6756234
-0.2,-0.2,0.6,-0.5235987755982988,-0.34906585039886584,0.34906585039886606,1.5764388,1.3678365,0.32605007,0.585728,-0.23405728,0.18591265,0.923282,-0.4240228,1.5516195,-0.2958802,-0.746424,-0.15063019,1.4091014,1.5314506
-0.2,-0.2,0.6,-0.5235987755982988,-0.34906585039886584,0.34906585039886606,1.5179269,1.3937238,0.31429726,0.61818224,-0.23196532,0.14688103,0.8125658,-0.4258469,1.5568659,-0.26466805,-0.78516215,-0.17509253,1.4590147,1.5368301
-0.2,-0.2,0.6,-0.5235987755982988,-0.34906585039886584,0.34906585039886606,1.5719169,1.3886206,0.33212534,0.59484965,-0.22072814,0.12327778,0.9307263,-0.43150023,1.5490689,-0.28915903,-0.72772616,-0.18312608,1.4082013,1.7105309
-0.2,-0.2,0.6,-0.5235987755982988,-0.34906585039886584,0.34906585039886606,1.5309986,1.399407,0.31886646,0.574763,-0.2001096,0.15040135,1.0062292,-0.4369097,1.5507835,-0.27894425,-0.79387254,-0.17144729,1.4183954,1.648644
-0.2,-0.2,0.6,-0.5235987755982988,-0.34906585039886584,0.34906585039886606,1.5070435,1.3982683,0.3393845,0.5919908,-0.15647528,0.133691,0.88860273,-0.43285373,1.5399872,-0.29044244,-0.73949325,-0.15185133,1.4133126,1.5618896
-0.2,-0.2,0.6,-0.5235987755982988,-0.34906585039886584,0.34906585039886606,1.563466,1.3875647,0.3433538,0.5841986,-0.18661563,0.15367138,0.8801895,-0.43613437,1.5403546,-0.2900157,-0.7644331,-0.166337,1.4348298,1.5252168
-0.2,-0.2,0.6,-0.5235987755982988,-0.34906585039886584,0.34906585039886606,1.5868309,1.403286,0.31919143,0.5644729,-0.206237,0.15641294,0.8235916,-0.4361718,1.5467432,-0.2851606,-0.7189306,-0.14883116,1.4229697,1.5283487
-0.2,-0.2,0.6,-0.5235987755982988,-0.34906585039886584,0.34906585039886606,1.5308683,1.3914888,0.3216704,0.58376294,-0.26375762,0.15065144,0.92645836,-0.43388662,1.5511632,-0.28616694,-0.6961502,-0.12597391,1.3223299,1.6103712
-0.2,-0.2,0.6,-0.5235987755982988,-0.34906585039886584,0.34906585039886606,1.5296509,1.3972132,0.34465873,0.5959658,-0.14852242,0.13536361,0.8041075,-0.43678474,1.5332034,-0.27532864,-0.8106132,-0.18466969,1.4810165,1.508079
-0.2,-0.2,0.6,-0.5235987755982988,-0.34906585039886584,0.34906585039886606,1.5788163,1.3851902,0.32647455,0.58344567,-0.16765408,0.12797473,0.9125078,-0.42213494,1.5534917,-0.28362113,-0.70803154,-0.167412,1.3690907,1.427342
-0.2,-0.2,0.6,-0.5235987755982988,-0.34906585039886584,0.34906585039886606,1.5703585,1.3911157,0.33495888,0.5614022,-0.17395481,0.18617213,0.87450534,-0.42601267,1.5436407,-0.27940843,-0.7194249,-0.15731615,1.3873383,1.4138439
-0.2,-0.2,0.6,-0.5235987755982988,-0.34906585039886584,0.34906585039886606,1.5171133,1.3921559,0.32399392,0.5635389,-0.20172472,0.17075324,0.89172816,-0.43423003,1.5504704,-0.28608552,-0.76398104,-0.1585333,1.3890811,1.5055715
-0.2,-0.2,0.6,-0.5235987755982988,-0.34906585039886584,0.34906585039886606,1.5208604,1.3971077,0.33271042,0.58153665,-0.20340051,0.18375692,0.8634846,-0.41124287,1.5456111,-0.31943378,-0.73824,-0.18231313,1.4172896,1.4588839
-0.2,-0.2,0.6,-0.5235987755982988,-0.34906585039886584,0.34906585039886606,1.5531136,1.3795289,0.33699754,0.6036448,-0.2295972,0.13304205,0.8415443,-0.43812084,1.5441617,-0.29603168,-0.74578106,-0.15987653,1.3922637,1.690707
-0.2,-0.2,0.6,-0.5235987755982988,-0.34906585039886584,0.34906585039886606,1.5785012,1.3918742,0.30357212,0.5740109,-0.18115257,0.16127652,0.96041983,-0.4354296,1.5372533,-0.29100698,-0.75457895,-0.12609504,1.403157,1.7682688
-0.2,-0.2,0.6,-0.5235987755982988,-0.34906585039886584,0.34906585039886606,1.554541,1.3921199,0.33509356,0.6046551,-0.21940242,0.121764444,0.84707254,-0.44179237,1.5474358,-0.28696868,-0.8432366,-0.14583132,1.4896551,1.7209967
-0.2,-0.2,0.6,-0.5235987755982988,-0.34906585039886584,0.34906585039886606,1.5475206,1.3991294,0.31559443,0.5441298,-0.16737103,0.18241732,0.96593255,-0.44021252,1.5447773,-0.30435136,-0.7230571,-0.0911539,1.3640603,1.6540082
-0.2,-0.2,0.6,-0.5235987755982988,-0.34906585039886584,0.34906585039886606,1.527016,1.3837262,0.32959676,0.57055,-0.18385416,0.12457682,0.9109691,-0.43591043,1.5411968,-0.28625384,-0.801373,-0.16625571,1.4498138,1.6207463
-0.2,-0.2,0.6,-0.5235987755982988,-0.34906585039886584,0.34906585039886606,1.5309411,1.3892255,0.3387675,0.5656447,-0.1515794,0.16862051,0.869914,-0.42759058,1.5410628,-0.31402433,-0.73746127,-0.17089272,1.3758582,1.5625483
-0.2,-0.2,0.6,-0.5235987755982988,-0.34906585039886584,0.34906585039886606,1.558094,1.3766567,0.32462573,0.5820946,-0.18200313,0.16867168,0.8566584,-0.425932,1.555506,-0.3228372,-0.78348947,-0.13652107,1.4220172,1.5466152
-0.2,-0.2,0.6,-0.5235987755982988,-0.34906585039886584,0.34906585039886606,1.5675424,1.4017516,0.30938244,0.5880269,-0.13957919,0.13020529,0.89277285,-0.42298907,1.547184,-0.3129354,-0.7675758,-0.14193788,1.4360533,1.5657771
-0.2,-0.2,0.6,-0.5235987755982988,-0.34906585039886584,0.34906585039886606,1.526134,1.3759663,0.3221878,0.5585605,-0.17913993,0.17210259,0.9572491,-0.43590987,1.5568117,-0.29596752,-0.78288007,-0.15615408,1.3754083,1.6253433
-0.2,-0.2,0.6,-0.5235987755982988,-0.34906585039886584,0.34906585039886606,1.5556806,1.3831767,0.32371306,0.57319045,-0.1874071,0.15635225,0.9474025,-0.43201363,1.5454072,-0.3061476,-0.8105479,-0.19079036,1.4718559,1.4892042
-0.2,-0.2,0.6,-0.5235987755982988,-0.34906585039886584,0.34906585039886606,1.5531384,1.3870616,0.33575597,0.580968,-0.16571619,0.16865799,0.76370275,-0.43656746,1.5369678,-0.2931459,-0.7868986,-0.12444124,1.4151939,1.7539716
-0.2,-0.2,0.6,-0.5235987755982988,-0.34906585039886584,0.34906585039886606,1.5210141,1.3813124,0.32551524,0.59897333,-0.19315296,0.1373973,0.875216,-0.43907315,1.5408952,-0.29704392,-0.81008404,-0.1256026,1.4577403,1.5214968
-0.2,-0.2,0.6,-0.5235987755982988,-0.34906585039886584,0.34906585039886606,1.5359674,1.3968247,0.3273227,0.5843826,-0.22278576,0.15147847,0.84342074,-0.4301748,1.5503631,-0.3060854,-0.84507465,-0.16161859,1.490595,1.6954514
-0.2,-0.2,0.6,-0.5235987755982988,-0.34906585039886584,0.34906585039886606,1.5735053,1.3855796,0.33560184,0.5826955,-0.19641468,0.13655792,0.76465356,-0.43728912,1.5418723,-0.29850954,-0.81857115,-0.15649045,1.448151,1.5435126
-0.2,-0.2,0.6,-0.5235987755982988,-0.34906585039886584,0.34906585039886606,1.5551046,1.389762,0.32279158,0.5397701,-0.19152136,0.17657973,0.8448864,-0.42960307,1.5534973,-0.28144002,-0.74044526,-0.14195795,1.2987434,1.6275375
-0.2,-0.2,0.6,-0.5235987755982988,-0.34906585039886584,0.34906585039886606,1.5698453,1.407896,0.31816036,0.5340944,-0.100780874,0.17608833,0.86772364,-0.4237117,1.5426601,-0.2861563,-0.7174226,-0.14250997,1.3404682,1.4003345
-0.2,-0.2,0.6,-0.5235987755982988,-0.34906585039886584,0.34906585039886606,1.5487114,1.4073724,0.33005613,0.5622164,-0.09852769,0.11799375,0.8064383,-0.4301633,1.5571862,-0.2881162,-0.7685522,-0.14407547,1.35965,1.5438789
-0.2,-0.2,0.6,-0.5235987755982988,-0.34906585039886584,0.34906585039886606,1.5563024,1.3817822,0.31325975,0.5543651,-0.17693251,0.1560213,0.9341146,-0.43830216,1.5499102,-0.2748192,-0.76550776,-0.16049209,1.3796811,1.6500778
-0.2,-0.2,0.6,-0.5235987755982988,-0.34906585039886584,0.34906585039886606,1.5258671,1.3976907,0.3261251,0.64289093,-0.27227736,0.15814485,0.88340086,-0.42852503,1.5400614,-0.2751,-0.6381439,-0.14003724,1.4705399,1.728714
-0.2,-0.2,0.6,-0.5235987755982988,-0.34906585039886584,0.34906585039886606,1.5637103,1.3860494,0.31255966,0.57531357,-0.1702156,0.16309735,0.8505385,-0.44580105,1.5496279,-0.28744662,-0.74832785,-0.16848782,1.4064165,1.5961703
-0.2,-0.2,0.6,-0.5235987755982988,-0.34906585039886584,0.34906585039886606,1.5038196,1.3818561,0.3477867,0.5994978,-0.16868496,0.19846909,0.8084923,-0.43704465,1.5427648,-0.27647033,-0.79031426,-0.13734059,1.4512736,1.6455916
-0.2,-0.2,0.6,-0.5235987755982988,-0.34906585039886584,0.34906585039886606,1.5537658,1.3803711,0.35570258,0.57661873,-0.2448314,0.20370515,0.9349564,-0.4368885,1.5404694,-0.2838742,-0.79716974,-0.1116472,1.4532449,1.4760725
-0.2,-0.2,0.6,-0.5235987755982988,-0.34906585039886584,0.34906585039886606,1.554496,1.3910612,0.33774248,0.67565423,-0.19544701,0.17131913,0.8349194,-0.4233842,1.5424708,-0.30115083,-0.69268376,-0.21441732,1.5194573,1.6235056
-0.2,-0.2,0.6,-0.5235987755982988,-0.34906585039886584,0.34906585039886606,1.5597495,1.4036478,0.32677054,0.68040305,-0.2474508,0.14746511,0.88150775,-0.43179667,1.5454652,-0.27749988,-0.7304034,-0.18655936,1.5615613,1.6264142
-0.2,-0.2,0.6,-0.5235987755982988,-0.34906585039886584,0.34906585039886606,1.5593623,1.3859694,0.31454438,0.6681333,-0.17106524,0.12804069,0.90284866,-0.436714,1.5458075,-0.2983591,-0.7022536,-0.13988282,1.4852736,1.6050656
-0.2,-0.2,0.6,-0.5235987755982988,-0.34906585039886584,0.34906585039886606,1.5123215,1.4000735,0.3286594,0.5719971,-0.15207835,0.14095677,0.9542726,-0.42531383,1.5432078,-0.31584647,-0.7481765,-0.19122222,1.4177293,1.4670486
-0.2,-0.2,0.6,-0.5235987755982988,-0.34906585039886584,0.34906585039886606,1.5481687,1.3969402,0.32801098,0.65638775,-0.19589949,0.1760652,0.9160346,-0.42908475,1.5480199,-0.29112238,-0.74470806,-0.12348824,1.4724922,1.4287438
-0.2,-0.2,0.6,-0.5235987755982988,-0.34906585039886584,0.34906585039886606,1.5380303,1.4012241,0.3280104,0.67042375,-0.21805935,0.17394449,0.78339094,-0.43162256,1.5588549,-0.29575777,-0.7025202,-0.16598687,1.5069478,1.5565735
-0.2,-0.2,0.6,-0.5235987755982988,-0.34906585039886584,0.34906585039886606,1.5508839,1.3869842,0.33649203,0.5794583,-0.20954506,0.14565368,0.83071744,-0.42234787,1.5444274,-0.29281768,-0.69984835,-0.1931284,1.5407424,1.6036575
-0.2,-0.2,0.6,-0.5235987755982988,-0.34906585039886584,0.34906585039886606,1.5428003,1.4005637,0.3416035,0.6607144,-0.23007065,0.14944668,0.85711044,-0.42499387,1.5516766,-0.31779116,-0.7011569,-0.18941355,1.4952956,1.5942079
-0.2,-0.2,0.6,-0.5235987755982988,-0.34906585039886584,0.34906585039886606,1.5324314,1.3767949,0.31867504,0.67905605,-0.2204404,0.15359202,0.7995231,-0.4325739,1.5512892,-0.3033578,-0.64977324,-0.21218596,1.4255185,1.6133744
-0.2,-0.2,0.6,-0.5235987755982988,-0.34906585039886584,0.34906585039886606,1.5409904,1.3988547,0.31612366,0.61404127,-0.175576,0.1560339,0.9028884,-0.4358659,1.5508765,-0.3099809,-0.7452332,-0.16251203,1.4320239,1.5744172
-0.2,-0.2,0.6,-0.5235987755982988,-0.34906585039886584,0.34906585039886606,1.5606271,1.3984191,0.32366234,0.6218933,-0.19674033,0.16423473,0.9487606,-0.42623758,1.5479361,-0.2984121,-0.68335634,-0.14172767,1.4440025,1.5766588
-0.2,-0.2,0.6,-0.5235987755982988,-0.34906585039886584,0.34906585039886606,1.5468632,1.40003,0.32245088,0.61618435,-0.21794583,0.16893604,0.88416666,-0.42200825,1.5440102,-0.30804408,-0.7174342,-0.15614828,1.4331183,1.5676497
-0.2,-0.2,0.6,-0.5235987755982988,-0.34906585039886584,0.34906585039886606,1.5326647,1.3989149,0.319441,0.5856944,-0.23716284,0.15350938,0.9049037,-0.42491332,1.546088,-0.29786822,-0.6978411,-0.1159619,1.4508104,1.7511231
-0.2,-0.2,0.6,-0.5235987755982988,-0.34906585039886584,0.34906585039886606,1.4985206,1.3905034,0.33054557,0.62106925,-0.20192806,0.1495035,0.86641234,-0.42062202,1.5519085,-0.26459223,-0.71023124,-0.15748964,1.4374353,1.5000354
-0.2,-0.2,0.6,-0.5235987755982988,-0.34906585039886584,0.34906585039886606,1.5343359,1.3821372,0.30456612,0.60861564,-0.18831883,0.23352477,0.84483474,-0.4281456,1.5377973,-0.2913482,-0.7106404,-0.15625691,1.4106678,1.5817856
-0.2,-0.2,0.6,-0.5235987755982988,-0.34906585039886584,0.34906585039886606,1.5539273,1.4070026,0.31473398,0.6351379,-0.25739214,0.16181016,0.8789662,-0.4317169,1.5550501,-0.26372576,-0.7316319,-0.2010136,1.4874865,1.5303245
-0.2,-0.2,0.6,-0.5235987755982988,-0.34906585039886584,0.34906585039886606,1.5621982,1.3932812,0.3222096,0.6435619,-0.19513062,0.12926474,0.8967596,-0.4313367,1.5483447,-0.29409194,-0.68931466,-0.17881332,1.4505302,1.4717351
-0.2,-0.2,0.6,-0.5235987755982988,-0.34906585039886584,0.34906585039886606,1.5765071,1.4066474,0.3303163,0.62975067,-0.19415702,0.16308926,0.9125652,-0.43172196,1.5412699,-0.28761524,-0.6694818,-0.1540841,1.4670321,1.6330093
-0.2,-0.2,0.6,-0.5235987755982988,-0.34906585039886584,0.34906585039886606,1.5353247,1.3958969,0.316871,0.62485236,-0.14869292,0.18778321,0.89653844,-0.42521602,1.5457788,-0.3173637,-0.69462097,-0.15622786,1.4592167,1.7280138
-0.2,-0.2,0.6,-0.5235987755982988,-0.34906585039886584,0.34906585039886606,1.5383219,1.3996718,0.3434751,0.5706138,-0.21041813,0.14792606,0.9943572,-0.42135987,1.5340987,-0.3136347,-0.77181077,-0.14853913,1.4710101,1.3703568
-0.2,-0.2,0.6,-0.5235987755982988,-0.34906585039886584,0.34906585039886606,1.5488356,1.4006923,0.34348825,0.6059581,-0.14450137,0.13677604,0.8573046,-0.42970133,1.560496,-0.2963957,-0.6787067,-0.1828294,1.4719021,1.6571579
-0.2,-0.2,0.6,-0.5235987755982988,-0.34906585039886584,0.34906585039886606,1.5626332,1.3853,0.33936167,0.608531,-0.17295623,0.16793813,0.89430493,-0.4359345,1.5522044,-0.27878764,-0.7464617,-0.1976701,1.5131844,1.7422299
-0.2,-0.2,0.6,-0.5235987755982988,-0.34906585039886584,0.34906585039886606,1.5826569,1.3962955,0.3114537,0.6360915,-0.14685224,0.10902364,0.87758833,-0.43059412,1.5364773,-0.29999205,-0.6642287,-0.116052546,1.4146417,1.5267152
-0.2,-0.2,0.6,-0.5235987755982988,-0.34906585039886584,0.34906585039886606,1.5273986,1.3842827,0.32328042,0.64695597,-0.20963329,0.1751938,0.8573539,-0.43526164,1.5480255,-0.29140526,-0.7119886,-0.18499349,1.4624535,1.5038139
-0.2,-0.2,0.6,-0.5235987755982988,-0.34906585039886584,0.34906585039886606,1.5452509,1.3943158,0.32805234,0.61817133,-0.16519229,0.13210468,0.82929397,-0.43822885,1.539118,-0.2854657,-0.7478622,-0.14048485,1.4602582,1.8029885
-0.2,-0.2,0.6,-0.5235987755982988,-0.34906585039886584,0.34906585039886606,1.5706091,1.3995129,0.33449775,0.6297749,-0.23261626,0.16381201,0.8639914,-0.42979294,1.5346901,-0.3101664,-0.72098064,-0.11957623,1.4743443,1.4610873
-0.2,-0.2,0.6,-0.5235987755982988,-0.34906585039886584,0.34906585039886606,1.5885298,1.3988816,0.3226216,0.62628675,-0.22828424,0.18590568,0.8412833,-0.43037948,1.5473167,-0.28500766,-0.75786537,-0.12152753,1.4143016,1.5663011
-0.2,-0.2,0.6,-0.5235987755982988,-0.34906585039886584,0.34906585039886606,1.5872463,1.3908826,0.3503983,0.6223311,-0.19951169,0.1642523,0.9060927,-0.42793214,1.5477428,-0.2969814,-0.73295087,-0.1613257,1.4949507,1.5467823
-0.2,-0.2,0.6,-0.5235987755982988,-0.34906585039886584,0.34906585039886606,1.5477597,1.4021131,0.34311244,0.6451481,-0.19147298,0.09896215,0.875241,-0.44207916,1.5516723,-0.29156592,-0.7383859,-0.16185905,1.5003793,1.7163695
-0.2,-0.2,0.6,-0.5235987755982988,-0.34906585039886584,0.34906585039886606,1.5199958,1.3949531,0.340483,0.60260075,-0.15240432,0.20310317,0.9210271,-0.4305451,1.5424312,-0.26946315,-0.66143036,-0.16595632,1.4670541,1.7933758
-0.2,-0.2,0.6,-0.5235987755982988,-0.34906585039886584,0.34906585039886606,1.5507988,1.3880739,0.308646,0.64049214,-0.17127617,0.16102917,0.85822046,-0.43116316,1.5538183,-0.2919553,-0.7504945,-0.17013095,1.5180646,1.6177864
-0.2,-0.2,0.6,-0.5235987755982988,-0.34906585039886584,0.34906585039886606,1.5554719,1.4004735,0.32976404,0.605565,-0.16125594,0.19042797,0.90160555,-0.42617446,1.5473766,-0.281017,-0.74872184,-0.13214394,1.4916786,1.5620577
-0.2,-0.2,0.6,-0.5235987755982988,-0.34906585039886584,0.34906585039886606,1.5635759,1.3863691,0.32039306,0.6425372,-0.1814784,0.122445814,0.9026989,-0.42836615,1.5548035,-0.31184998,-0.7337319,-0.14895134,1.4651746,1.5939279
-0.2,-0.2,0.6,-0.5235987755982988,-0.34906585039886584,0.34906585039886606,1.549185,1.3884358,0.3286629,0.617074,-0.1810715,0.15283096,0.92860675,-0.4391809,1.5437815,-0.30995154,-0.686087,-0.18525879,1.4741406,1.9325479
-0.2,-0.2,0.6,-0.5235987755982988,-0.34906585039886584,0.34906585039886606,1.4936482,1.4035219,0.3332861,0.63063484,-0.15055032,0.0963232,0.95836395,-0.43254873,1.5507911,-0.30673334,-0.7402061,-0.13369669,1.4924461,1.6977065
-0.2,-0.2,0.6,-0.5235987755982988,-0.34906585039886584,0.34906585039886606,1.5214016,1.3963244,0.30494285,0.6083052,-0.1738904,0.19042563,0.87547505,-0.43559122,1.5523472,-0.30554342,-0.6762568,-0.18045089,1.4056168,1.8604085
-0.2,-0.2,0.6,-0.5235987755982988,-0.34906585039886584,0.34906585039886606,1.544988,1.3906733,0.3337987,0.6485962,-0.1788352,0.10387646,0.88098747,-0.42146334,1.5522647,-0.30917072,-0.7272028,-0.13935485,1.4685551,1.5673789
-0.2,-0.2,0.6,-0.5235987755982988,-0.34906585039886584,0.34906585039886606,1.5401915,1.4030144,0.31093132,0.6213894,-0.12666942,0.14085968,0.8698742,-0.44029167,1.5385317,-0.290224,-0.7158339,-0.17387083,1.4878782,1.5480448
-0.2,-0.2,0.6,-0.5235987755982988,-0.34906585039886584,0.34906585039886606,1.5447482,1.4092842,0.33527914,0.60296434,-0.18224654,0.1639194,0.94644356,-0.42646062,1.5530881,-0.2914887,-0.7305539,-0.16994104,1.4675716,1.4643185
-0.2,-0.2,0.6,-0.5235987755982988,-0.34906585039886584,0.34906585039886606,1.5507342,1.3701855,0.3380367,0.60222286,-0.14771155,0.17974235,0.96504474,-0.4310578,1.5554546,-0.31473795,-0.70512444,-0.11531266,1.4346921,1.5819088
-0.2,-0.2,0.6,-0.5235987755982988,-0.34906585039886584,0.34906585039886606,1.5651406,1.3949909,0.32145455,0.6235162,-0.1350903,0.15332504,0.9105125,-0.43637538,1.5440046,-0.29613456,-0.7247054,-0.14379163,1.4617655,1.5628695
-0.2,-0.2,0.6,-0.5235987755982988,-0.34906585039886584,0.34906585039886606,1.5464921,1.3854306,0.33627495,0.6474991,-0.19030683,0.11464596,0.84833467,-0.4424135,1.5481563,-0.27915552,-0.74983346,-0.19747947,1.4831505,1.6723691
-0.2,-0.2,0.6,-0.5235987755982988,-0.34906585039886584,0.34906585039886606,1.5450833,1.3940837,0.33373734,0.6337045,-0.19771235,0.13592237,0.9114927,-0.4219892,1.5493279,-0.30826318,-0.71880376,-0.16517287,1.4426303,1.6120894
-0.2,-0.2,0.6,-0.5235987755982988,-0.34906585039886584,0.34906585039886606,1.5628792,1.3900238,0.33142507,0.5944064,-0.2139821,0.19085066,0.9255461,-0.43536857,1.5408036,-0.27943215,-0.7101877,-0.15954155,1.4349536,1.7470226
-0.2,-0.2,0.6,-0.5235987755982988,-0.34906585039886584,0.34906585039886606,1.5788542,1.3895049,0.33168453,0.60366666,-0.14030157,0.14088702,0.8850412,-0.43909925,1.545496,-0.27762666,-0.6604361,-0.17202961,1.4260926,1.778667
-0.2,-0.2,0.6,-0.5235987755982988,-0.34906585039886584,0.34906585039886606,1.5561864,1.3849895,0.31389025,0.6381962,-0.17900829,0.12588759,0.93431056,-0.42690578,1.5530869,-0.27396494,-0.7070637,-0.1755898,1.4466528,1.5896794
-0.2,-0.2,0.6,-0.5235987755982988,-0.34906585039886584,0.34906585039886606,1.5576138,1.3962816,0.3148774,0.62710214,-0.15838386,0.13347809,0.88605624,-0.42772585,1.5533897,-0.32366335,-0.76040465,-0.13198236,1.4777727,1.4870025
-0.2,-0.2,0.6,-0.5235987755982988,-0.34906585039886584,0.34906585039886606,1.5505139,1.3982043,0.32032248,0.5779152,-0.18305077,0.17868493,0.91434723,-0.4151367,1.5559949,-0.30227613,-0.76569045,-0.14666054,1.4103417,1.6240602
-0.2,-0.2,0.6,-0.5235987755982988,-0.34906585039886584,0.34906585039886606,1.5387349,1.3974522,0.31369093,0.6241387,-0.18748634,0.11034915,0.91442394,-0.43545735,1.5528777,-0.2885563,-0.7112884,-0.12792234,1.4482408,1.8939685
-0.2,-0.2,0.6,-0.5235987755982988,-0.34906585039886584,0.34906585039886606,1.5471834,1.3989505,0.3555089,0.5962471,-0.22752433,0.17467746,0.97039944,-0.43257695,1.5557415,-0.31416523,-0.74906754,-0.1715663,1.4893409,1.6533638
-0.2,-0.2,0.6,-0.5235987755982988,-0.34906585039886584,0.34906585039886606,1.5835435,1.3863418,0.32513458,0.6331591,-0.2017444,0.1227574,0.85505205,-0.42217052,1.5481287,-0.28705966,-0.72937346,-0.16117065,1.4504212,1.6193415
-0.2,-0.2,0.6,-0.5235987755982988,-0.34906585039886584,0.34906585039886606,1.5660422,1.3826752,0.3145368,0.6258444,-0.16272987,0.14510421,0.94534165,-0.43250808,1.5463748,-0.2809169,-0.7255602,-0.17339529,1.4304173,1.5878302
-0.2,-0.2,0.6,-0.5235987755982988,-0.34906585039886584,0.34906585039886606,1.5364854,1.3890768,0.32734913,0.58779544,-0.17823091,0.1763704,0.9187696,-0.4317053,1.5351604,-0.29749182,-0.7638977,-0.14288995,1.5098014,1.7286286
-0.2,-0.2,0.6,-0.5235987755982988,-0.34906585039886584,0.34906585039886606,1.5536382,1.3993307,0.34314132,0.6081009,-0.23320475,0.16322406,0.8568248,-0.42701498,1.5535318,-0.31478712,-0.7042163,-0.14555725,1.4194098,1.5795906
-0.2,-0.2,0.6,-0.5235987755982988,-0.34906585039886584,0.34906585039886606,1.5821848,1.3988924,0.30895048,0.6107616,-0.2449191,0.14107583,0.9155685,-0.42310163,1.5500578,-0.29557467,-0.69771343,-0.1937334,1.4394044,1.6811426
-0.2,-0.2,0.6,-0.5235987755982988,-0.34906585039886584,0.34906585039886606,1.5704232,1.4008416,0.33942962,0.6017652,-0.1573481,0.19732094,0.76796234,-0.4238126,1.5457429,-0.30023885,-0.75708383,-0.12974012,1.4735172,1.6418136
-0.2,-0.2,0.6,-0.5235987755982988,-0.34906585039886584,0.34906585039886606,1.5269526,1.4066321,0.3238208,0.57029504,-0.13967451,0.16152656,0.850922,-0.42751828,1.5589137,-0.2626341,-0.66920257,-0.19817497,1.4398683,1.6907791
-0.2,-0.2,0.6,-0.5235987755982988,-0.34906585039886584,0.34906585039886606,1.5367392,1.389746,0.33196354,0.5864963,-0.13536318,0.20318276,0.8024239,-0.42939085,1.5536932,-0.29495347,-0.7498376,-0.18562256,1.4745505,1.4905761
-0.2,-0.2,0.6,-0.5235987755982988,-0.34906585039886584,0.34906585039886606,1.5369022,1.384534,0.3528356,0.5842924,-0.13431272,0.15638821,0.93595225,-0.41770867,1.5583856,-0.29356614,-0.75637406,-0.16441974,1.472631,1.7103517
-0.2,-0.2,0.6,-0.5235987755982988,-0.34906585039886584,0.34906585039886606,1.5265853,1.4064865,0.3239628,0.6243284,-0.16215906,0.1290226,0.84592515,-0.4138518,1.5571933,-0.301264,-0.7367022,-0.15103783,1.4484931,1.545458
-0.2,-0.2,0.6,-0.5235987755982988,-0.34906585039886584,0.34906585039886606,1.5683575,1.3912305,0.31728882,0.57342374,-0.19872673,0.18158978,0.939651,-0.4338983,1.5519664,-0.28984058,-0.84282166,-0.18466535,1.5486877,1.7913798
-0.2,-0.2,0.6,-0.5235987755982988,-0.34906585039886584,0.34906585039886606,1.5737584,1.3861167,0.30950552,0.62033445,-0.15423386,0.12136373,0.87183356,-0.4289752,1.5389793,-0.29595035,-0.7372765,-0.15464224,1.4573717,1.7041403
-0.2,-0.2,0.6,-0.5235987755982988,-0.34906585039886584,0.34906585039886606,1.5511259,1.4006311,0.31963834,0.5928696,-0.15013367,0.16903144,0.82664883,-0.43116945,1.5433712,-0.2943883,-0.7238237,-0.1351704,1.4516095,1.920989
-0.2,-0.2,0.6,-0.5235987755982988,-0.34906585039886584,0.34906585039886606,1.522343,1.3895992,0.3240959,0.6325878,-0.22096266,0.14881185,0.7792879,-0.43906462,1.5535756,-0.28519288,-0.7323844,-0.18833095,1.4219048,1.3777184
-0.2,-0.2,0.6,-0.5235987755982988,-0.34906585039886584,0.34906585039886606,1.5410722,1.403887,0.31762835,0.60298246,-0.2179271,0.1570025,0.8429502,-0.4345317,1.5452904,-0.2800215,-0.6973485,-0.14679196,1.4571922,1.6805662
-0.2,-0.2,0.6,-0.5235987755982988,-0.34906585039886584,0.34906585039886606,1.5528839,1.3806381,0.33679056,0.6037392,-0.21119653,0.18025948,0.861667,-0.4389724,1.543493,-0.29851866,-0.7605731,-0.16188975,1.4748559,1.6153696
-0.2,-0.2,0.6,-0.5235987755982988,-0.34906585039886584,0.34906585039886606,1.5653297,1.3897414,0.3108668,0.6007398,-0.21581239,0.1741163,0.8443665,-0.42907682,1.5567615,-0.32061008,-0.7621122,-0.10827616,1.4260803,1.8273162
-0.2,-0.2,0.6,-0.5235987755982988,-0.34906585039886584,0.34906585039886606,1.5945933,1.3868682,0.3254376,0.6018352,-0.14469281,0.14619829,0.8932155,-0.41910413,1.5592856,-0.32115418,-0.74915606,-0.16983198,1.4745091,1.7090381
-0.2,-0.2,0.6,-0.5235987755982988,-0.34906585039886584,0.34906585039886606,1.5355936,1.3803142,0.31066862,0.63077205,-0.19023211,0.09230384,0.97177637,-0.4300588,1.5384048,-0.28754315,-0.7295716,-0.20578654,1.433828,1.5234536
-0.2,-0.2,0.6,-0.5235987755982988,-0.34906585039886584,0.34906585039886606,1.5203613,1.3774347,0.32577184,0.5976784,-0.14932469,0.1884091,0.8642654,-0.4424234,1.5476303,-0.29812366,-0.75403833,-0.11782555,1.4372029,1.5896556
-0.2,-0.2,0.6,-0.5235987755982988,-0.34906585039886584,0.34906585039886606,1.523993,1.397884,0.30847806,0.6276329,-0.1983977,0.15005298,0.78684235,-0.43099213,1.544338,-0.29747504,-0.76898086,-0.20558771,1.4493551,1.5979995
-0.2,-0.2,0.6,-0.5235987755982988,-0.34906585039886584,0.34906585039886606,1.5756593,1.3860714,0.32659212,0.5636918,-0.18830656,0.16739298,0.8719611,-0.41529113,1.540246,-0.27215698,-0.71808565,-0.19381025,1.4748529,1.6724958
-0.2,-0.2,0.6,-0.5235987755982988,-0.34906585039886584,0.34906585039886606,1.5542037,1.3956511,0.32707408,0.57468885,-0.14740002,0.16490276,0.93298274,-0.43113726,1.5592403,-0.29970172,-0.7530676,-0.13080172,1.4371915,1.6325346
-0.2,-0.2,0.6,-0.5235987755982988,-0.34906585039886584,0.34906585039886606,1.5291791,1.3852311,0.33187738,0.5987831,-0.19797897,0.17380866,0.91597563,-0.4269568,1.5539683,-0.30162734,-0.74635786,-0.16548656,1.4385668,1.6577138
-0.2,-0.2,0.6,-0.5235987755982988,-0.34906585039886584,0.34906585039886606,1.541752,1.4035228,0.31508863,0.5811566,-0.2121556,0.17079939,0.99077314,-0.42082655,1.5471212,-0.31570902,-0.7508296,-0.0911529,1.4307823,1.6888113
-0.2,-0.2,0.6,-0.5235987755982988,-0.34906585039886584,0.34906585039886606,1.5373492,1.3947334,0.33405173,0.58916575,-0.14096354,0.12965515,0.9309061,-0.43039384,1.5364228,-0.29505095,-0.71241647,-0.15277307,1.4081073,1.6527046
-0.2,-0.2,0.6,-0.5235987755982988,-0.34906585039886584,0.34906585039886606,1.5248976,1.3871747,0.33801052,0.5906881,-0.1548745,0.1379615,0.9382033,-0.4320736,1.5393242,-0.29926538,-0.7233011,-0.10502945,1.4120607,1.6883146
-0.2,-0.2,0.6,-0.5235987755982988,-0.34906585039886584,0.34906585039886606,1.5442479,1.3990608,0.32295692,0.5776519,-0.17109129,0.13417035,0.8904515,-0.43105406,1.5574237,-0.29416648,-0.78153336,-0.19437703,1.4484481,1.4161664
-0.2,-0.2,0.6,-0.5235987755982988,-0.34906585039886584,0.34906585039886606,1.5401275,1.3862835,0.32485622,0.59987366,-0.23076388,0.15900698,0.86511487,-0.43263823,1.5538647,-0.2993974,-0.8523913,-0.16480483,1.4792136,1.587239
-0.2,-0.2,0.6,-0.5235987755982988,-0.34906585039886584,0.34906585039886606,1.565165,1.3984255,0.320837,0.57853574,-0.20479693,0.14468443,0.8625902,-0.44004184,1.547308,-0.30173677,-0.75328827,-0.121137805,1.3744965,1.6857142
-0.2,-0.2,0.6,-0.5235987755982988,-0.34906585039886584,0.34906585039886606,1.5456549,1.3933556,0.32327384,0.5839484,-0.17896175,0.15565185,0.88783807,-0.4239779,1.5514951,-0.32000348,-0.7759811,-0.18624897,1.4361109,1.6194167
-0.2,-0.2,0.6,-0.5235987755982988,-0.34906585039886584,0.34906585039886606,1.5309446,1.4008973,0.32988313,0.5849364,-0.20291932,0.13479862,0.9326403,-0.44127753,1.5429121,-0.30725113,-0.8663652,-0.15415841,1.5037441,1.6497314
-0.2,-0.2,0.6,-0.5235987755982988,-0.34906585039886584,0.34906585039886606,1.5154593,1.3948689,0.32397038,0.5786122,-0.20159903,0.1501056,0.96554494,-0.43793532,1.5531915,-0.30352452,-0.7988318,-0.15449746,1.4434252,1.6015118
-0.2,-0.2,0.6,-0.5235987755982988,-0.34906585039886584,0.34906585039886606,1.5385838,1.3824471,0.3233004,0.5766893,-0.17617153,0.18765013,0.80989903,-0.43895543,1.5511957,-0.29313305,-0.8221358,-0.16084903,1.4642313,1.5166432
-0.2,-0.2,0.6,-0.5235987755982988,-0.34906585039886584,0.34906585039886606,1.508459,1.3819206,0.33843303,0.60791266,-0.19235778,0.18195815,1.0761353,-0.4276297,1.5432636,-0.28350687,-0.6489014,-0.12697558,1.4215773,1.5894094
-0.2,-0.2,0.6,-0.5235987755982988,-0.34906585039886584,0.34906585039886606,1.5409352,1.3931162,0.33440864,0.601832,-0.19253732,0.14131816,0.91250485,-0.42475465,1.5416195,-0.3081412,-0.76574016,-0.17503251,1.4651501,1.6191585
-0.2,-0.2,0.6,-0.5235987755982988,-0.34906585039886584,0.34906585039886606,1.5433663,1.3850174,0.3042418,0.59286475,-0.19531363,0.12066506,0.8820155,-0.4369886,1.5396657,-0.29944277,-0.68424606,-0.16802602,1.3830395,1.7017066
-0.2,-0.2,0.6,-0.5235987755982988,-0.34906585039886584,0.34906585039886606,1.5352105,1.3785458,0.33563066,0.59423995,-0.18094644,0.15044864,0.9053452,-0.43879482,1.537074,-0.2984414,-0.6863036,-0.1711749,1.3996555,1.6929924
-0.2,-0.2,0.6,-0.5235987755982988,-0.34906585039886584,0.34906585039886606,1.5593225,1.3983804,0.34634963,0.5779066,-0.22833352,0.14461198,0.8205498,-0.42278314,1.5436184,-0.2790114,-0.68862015,-0.13044836,1.4411582,1.628748
-0.2,-0.2,0.6,-0.5235987755982988,-0.34906585039886584,0.34906585039886606,1.5590068,1.3975534,0.3167501,0.64706194,-0.18352793,0.1246774,0.88821936,-0.41959766,1.5516467,-0.27722117,-0.76326805,-0.1663489,1.4792292,1.6661026
-0.2,-0.2,0.6,-0.5235987755982988,-0.34906585039886584,0.34906585039886606,1.5484068,1.3783932,0.3300973,0.58519256,-0.19763812,0.17014033,0.9230271,-0.42599657,1.5469921,-0.32131183,-0.71828496,-0.13414459,1.3870479,1.4407378
-0.2,-0.2,0.6,-0.5235987755982988,-0.34906585039886584,0.34906585039886606,1.5378569,1.4010351,0.32764414,0.6217953,-0.18425404,0.13897848,0.85246634,-0.42686135,1.5523864,-0.26693806,-0.8056236,-0.11871294,1.454923,1.5271952
-0.2,-0.2,0.6,-0.5235987755982988,-0.34906585039886584,0.34906585039886606,1.5425988,1.3801664,0.34473997,0.5666012,-0.23801517,0.1568652,0.8693714,-0.42326793,1.5576032,-0.2929264,-0.6535997,-0.14260288,1.4369481,1.6795019
-0.2,-0.2,0.6,-0.5235987755982988,-0.34906585039886584,0.34906585039886606,1.5404079,1.3882443,0.3348525,0.5996818,-0.1968386,0.12732187,0.91974884,-0.44541642,1.5426298,-0.28468332,-0.7345963,-0.12152208,1.4463689,1.6935866
-0.2,-0.2,0.6,-0.5235987755982988,-0.34906585039886584,0.34906585039886606,1.4977916,1.3808054,0.31666362,0.581985,-0.23156898,0.15670152,0.91138536,-0.4381709,1.5579141,-0.3086797,-0.74434906,-0.17781958,1.4129086,1.5703144
-0.2,-0.2,0.6,-0.5235987755982988,-0.34906585039886584,0.34906585039886606,1.5459018,1.3944023,0.33671856,0.6340915,-0.25506604,0.16857275,0.8637152,-0.42721638,1.5418772,-0.28390372,-0.70539945,-0.1888006,1.5194364,1.5312666
-0.2,-0.2,0.6,-0.5235987755982988,-0.34906585039886584,0.34906585039886606,1.5686197,1.3862859,0.3271816,0.5624103,-0.18958576,0.19596209,0.97465116,-0.43115166,1.5473363,-0.27133378,-0.76092994,-0.15355358,1.4392703,1.5575784
-0.2,-0.2,0.6,-0.5235987755982988,-0.34906585039886584,0.34906585039886606,1.5261376,1.3899072,0.3267143,0.60262954,-0.14944859,0.15494215,0.8810921,-0.43036234,1.5483923,-0.29623556,-0.6794843,-0.1719718,1.4693586,1.5740503
-0.2,-0.2,0.6,-0.5235987755982988,-0.34906585039886584,0.34906585039886606,1.5627235,1.4001458,0.31407005,0.56414914,-0.17773692,0.12859301,0.86150247,-0.4398169,1.5415165,-0.2933896,-0.72589445,-0.14751826,1.4726554,1.5591366
-0.2,-0.2,0.6,-0.5235987755982988,-0.34906585039886584,0.34906585039886606,1.5387707,1.3851837,0.32789457,0.603725,-0.20489028,0.1515848,0.959303,-0.4214128,1.5424426,-0.3119512,-0.76433635,-0.13062726,1.4296024,1.4318581
-0.2,-0.2,0.6,-0.5235987755982988,-0.34906585039886584,0.34906585039886606,1.5322143,1.3968872,0.32377782,0.57038236,-0.19365187,0.17225768,0.9417557,-0.42367724,1.5375396,-0.31129697,-0.7514786,-0.16602801,1.5175086,1.5937856
-0.2,-0.2,0.6,-0.5235987755982988,-0.34906585039886584,0.34906585039886606,1.5619326,1.386935,0.33542767,0.57110125,-0.1825944,0.16261962,0.83434165,-0.42484412,1.5367469,-0.2888461,-0.69376075,-0.12085456,1.4347075,1.5631586
-0.2,-0.2,0.6,-0.5235987755982988,-0.34906585039886584,0.34906585039886606,1.5740836,1.3968595,0.3248259,0.65648496,-0.227102,0.18059926,0.81750304,-0.42553884,1.542033,-0.33191067,-0.692733,-0.14343843,1.5198501,1.4625288
-0.2,-0.2,0.6,-0.5235987755982988,-0.34906585039886584,0.34906585039886606,1.577854,1.383773,0.3456085,0.607106,-0.2641125,0.15687248,0.9316362,-0.42788863,1.5499797,-0.2923485,-0.70234257,-0.14779972,1.3979486,1.4779197
-0.2,-0.2,0.6,-0.5235987755982988,-0.34906585039886584,0.34906585039886606,1.5593761,1.3834507,0.32937318,0.56174695,-0.15563376,0.17616177,0.8003366,-0.4254225,1.5432888,-0.31605285,-0.7635361,-0.15902236,1.4448674,1.6185743
-0.2,-0.2,0.6,-0.5235987755982988,-0.34906585039886584,0.34906585039886606,1.5583571,1.4016607,0.34090865,0.6379047,-0.18229158,0.13936873,0.9424487,-0.42632094,1.5447303,-0.28902417,-0.69715995,-0.17870033,1.5637232,1.8141413
-0.2,-0.2,0.6,-0.5235987755982988,-0.34906585039886584,0.34906585039886606,1.5317166,1.399145,0.3294984,0.6807706,-0.21575375,0.1257917,0.8283486,-0.43256694,1.5464278,-0.30687016,-0.6453511,-0.19139726,1.4838284,1.5205395
-0.2,-0.2,0.6,-0.5235987755982988,-0.34906585039886584,0.34906585039886606,1.5448086,1.3922751,0.3283757,0.6775736,-0.23893777,0.134656,0.8910812,-0.4314515,1.5544233,-0.29403472,-0.6668239,-0.14842127,1.5131799,1.4648283
-0.2,-0.2,0.6,-0.5235987755982988,-0.34906585039886584,0.34906585039886606,1.5807186,1.4138131,0.3251428,0.62782663,-0.2137085,0.16446541,0.9383414,-0.4337235,1.5533419,-0.31529877,-0.76225895,-0.13061708,1.5276523,1.5744277
-0.2,-0.2,0.6,-0.5235987755982988,-0.34906585039886584,0.34906585039886606,1.5383945,1.3909819,0.32714123,0.5769685,-0.20138435,0.15980566,0.8808034,-0.43241373,1.545456,-0.30121914,-0.69056845,-0.08838163,1.4539754,1.5974182
-0.2,-0.2,0.6,-0.5235987755982988,-0.34906585039886584,0.34906585039886606,1.5526837,1.387643,0.31728986,0.6679338,-0.18489487,0.1654339,0.845581,-0.43159503,1.5357836,-0.3140223,-0.6498423,-0.17641908,1.4736449,1.5283277
-0.2,-0.2,0.6,-0.5235987755982988,-0.34906585039886584,0.34906585039886606,1.5266519,1.3906236,0.33055833,0.6577084,-0.15141281,0.1671541,0.90135825,-0.4451993,1.5501075,-0.2894436,-0.6421916,-0.19265649,1.4793532,1.6333268
-0.2,-0.2,0.6,-0.5235987755982988,-0.34906585039886584,0.34906585039886606,1.5564103,1.3913085,0.32855487,0.62462497,-0.21215992,0.18309541,0.9952944,-0.43653986,1.5380205,-0.31657046,-0.66295767,-0.18160938,1.4792204,1.4188814
-0.2,-0.2,0.6,-0.5235987755982988,-0.34906585039886584,0.34906585039886606,1.5092163,1.3982629,0.31878024,0.64351445,-0.13224018,0.16482083,0.9234666,-0.43102148,1.5547588,-0.28437746,-0.73919445,-0.1461452,1.5102625,1.6806908
-0.2,-0.2,0.6,-0.5235987755982988,-0.34906585039886584,0.34906585039886606,1.5708513,1.4013127,0.32977822,0.6199205,-0.16495489,0.16557026,0.85904527,-0.43102917,1.5471767,-0.3095056,-0.65580416,-0.17715707,1.4881499,1.4856021
-0.2,-0.2,0.6,-0.5235987755982988,-0.34906585039886584,0.34906585039886606,1.5481966,1.3867644,0.32142574,0.60575217,-0.19245787,0.16401304,1.0047117,-0.42448866,1.5448939,-0.30906028,-0.69420034,-0.18855323,1.4368836,1.6080381
-0.2,-0.2,0.6,-0.5235987755982988,-0.34906585039886584,0.34906585039886606,1.5627234,1.4070483,0.31216413,0.63869447,-0.17655042,0.111829765,0.8452284,-0.42517266,1.5425793,-0.30071482,-0.6768845,-0.19179696,1.4893208,1.6312735
-0.2,-0.2,0.6,-0.5235987755982988,-0.34906585039886584,0.34906585039886606,1.5646057,1.4043399,0.3225725,0.6154973,-0.17287432,0.18004864,0.8410585,-0.43948352,1.5470662,-0.28383702,-0.7313521,-0.19972813,1.4899371,1.6392486
-0.2,-0.2,0.6,-0.5235987755982988,-0.34906585039886584,0.34906585039886606,1.5215682,1.3993276,0.33687133,0.59670544,-0.18483412,0.14803644,0.8655534,-0.4230564,1.5520273,-0.29486898,-0.6732681,-0.15366474,1.4316523,1.5752616
-0.2,-0.2,0.6,-0.5235987755982988,-0.34906585039886584,0.34906585039886606,1.5237653,1.3916966,0.31831348,0.63327634,-0.17175102,0.18460736,0.80213463,-0.43206125,1.5458697,-0.3040461,-0.6567825,-0.17891358,1.4552732,1.4266006
-0.2,-0.2,0.6,-0.5235987755982988,-0.34906585039886584,0.34906585039886606,1.5557427,1.3991652,0.32370204,0.57116556,-0.17700584,0.13152382,0.86099327,-0.4354195,1.5308806,-0.30126682,-0.67080075,-0.18995287,1.3944392,1.8318341
-0.2,-0.2,0.6,-0.5235987755982988,-0.34906585039886584,0.34906585039886606,1.5706096,1.3858665,0.32947975,0.6272333,-0.23272285,0.16713291,0.95644754,-0.4295497,1.5529677,-0.30986542,-0.6749966,-0.1907261,1.4844939,1.4436301
-0.2,-0.2,0.6,-0.5235987755982988,-0.34906585039886584,0.34906585039886606,1.5144079,1.3810691,0.33669382,0.6541962,-0.15793055,0.14613603,0.7644518,-0.44025484,1.5422046,-0.29919618,-0.7487207,-0.13490976,1.5092163,1.5269
-0.2,-0.2,0.6,-0.5235987755982988,-0.34906585039886584,0.34906585039886606,1.5152271,1.3790694,0.31843498,0.6014891,-0.11619826,0.13913652,0.94129425,-0.43166992,1.5327128,-0.28572097,-0.72946316,-0.1077139,1.4447356,1.7250408
-0.2,-0.2,0.6,-0.5235987755982988,-0.34906585039886584,0.34906585039886606,1.5366598,1.3785475,0.33133414,0.650957,-0.18444769,0.14742431,0.87382996,-0.4398224,1.5471945,-0.2946716,-0.69576406,-0.17923912,1.4991986,1.5592555
-0.2,-0.2,0.6,-0.5235987755982988,-0.34906585039886584,0.34906585039886606,1.5776751,1.3897102,0.345518,0.6011481,-0.196521,0.21785372,0.9002175,-0.43347898,1.5580934,-0.30065292,-0.65244704,-0.20266202,1.4920791,1.6036131
-0.2,-0.2,0.6,-0.5235987755982988,-0.34906585039886584,0.34906585039886606,1.5444039,1.3848513,0.32845563,0.6257461,-0.1622899,0.114976756,0.96069175,-0.42986405,1.5414093,-0.30753788,-0.69848037,-0.12311652,1.4613127,1.5388737
-0.2,-0.2,0.6,-0.5235987755982988,-0.34906585039886584,0.34906585039886606,1.522963,1.394386,0.34530044,0.6635605,-0.16911346,0.11336057,0.87503576,-0.43942875,1.5420965,-0.3115181,-0.67898476,-0.1587657,1.4759198,1.5144918
-0.2,-0.2,0.6,-0.5235987755982988,-0.34906585039886584,0.34906585039886606,1.5237663,1.4005102,0.32540992,0.63188565,-0.19725369,0.18593843,0.90749395,-0.42384008,1.5463272,-0.27751252,-0.7531464,-0.14888097,1.5146573,1.5517381
-0.2,-0.2,0.6,-0.5235987755982988,-0.34906585039886584,0.34906585039886606,1.5856124,1.3987978,0.31891617,0.6074243,-0.19333419,0.15234686,0.8400321,-0.43609893,1.5585749,-0.31781104,-0.6802512,-0.1844302,1.5047264,1.525595
-0.2,-0.2,0.6,-0.5235987755982988,-0.34906585039886584,0.34906585039886606,1.5462706,1.4036323,0.33765367,0.6210471,-0.14940706,0.18669161,0.93924475,-0.44522917,1.5530343,-0.30053428,-0.68887556,-0.1322003,1.4911042,1.5578971
-0.2,-0.2,0.6,-0.5235987755982988,-0.34906585039886584,0.34906585039886606,1.5615437,1.3974828,0.3379777,0.63546634,-0.19305792,0.17742139,0.8749343,-0.42814744,1.5405718,-0.30470333,-0.7382232,-0.12584035,1.5052137,1.6190634
-0.2,-0.2,0.6,-0.5235987755982988,-0.34906585039886584,0.34906585039886606,1.5302877,1.3956826,0.3114632,0.62605876,-0.17030838,0.1581097,0.9580541,-0.44161797,1.5454134,-0.28018403,-0.7180828,-0.1319044,1.4848866,1.555505
-0.2,-0.2,0.6,-0.5235987755982988,-0.34906585039886584,0.34906585039886606,1.5487585,1.4000878,0.3214459,0.569091,-0.20694198,0.17229123,0.83706325,-0.43217543,1.5487162,-0.28825465,-0.67211336,-0.12398026,1.4158734,1.6838844
-0.2,-0.2,0.6,-0.5235987755982988,-0.34906585039886584,0.34906585039886606,1.5783112,1.3802654,0.3216468,0.58716464,-0.13587686,0.17275724,0.78227013,-0.43403867,1.5496744,-0.29168966,-0.68624055,-0.12159514,1.4706142,1.5413355
-0.2,-0.2,0.6,-0.5235987755982988,-0.34906585039886584,0.34906585039886606,1.5817775,1.3803774,0.31536514,0.59985983,-0.17351933,0.18546994,0.9501125,-0.42965466,1.5551256,-0.2896474,-0.7429219,-0.16651888,1.5020021,1.7873918
-0.2,-0.2,0.6,-0.5235987755982988,-0.34906585039886584,0.34906585039886606,1.530836,1.4002634,0.3161292,0.630668,-0.18796203,0.13378058,0.9485546,-0.44362932,1.5436935,-0.26302522,-0.7202875,-0.13744567,1.4626621,1.5246416
-0.2,-0.2,0.6,-0.5235987755982988,-0.34906585039886584,0.34906585039886606,1.56046,1.38468,0.3097487,0.62749904,-0.1603813,0.19212182,0.88710165,-0.43594706,1.5572608,-0.29169437,-0.73217064,-0.18454523,1.4986725,1.5512819
-0.2,-0.2,0.6,-0.5235987755982988,-0.34906585039886584,0.34906585039886606,1.6097395,1.384457,0.34088984,0.58055276,-0.21033566,0.18733305,0.9514708,-0.4143138,1.5609436,-0.3232095,-0.7235975,-0.1239134,1.4533721,1.5862228
-0.2,-0.2,0.6,-0.5235987755982988,-0.34906585039886584,0.34906585039886606,1.5385025,1.3768723,0.32578257,0.6148897,-0.11106335,0.14877455,0.8472884,-0.46060058,1.5501173,-0.28503406,-0.74758935,-0.187338,1.470185,1.6724741
-0.2,-0.2,0.6,-0.5235987755982988,-0.34906585039886584,0.34906585039886606,1.5312473,1.3770094,0.3345525,0.64423394,-0.17958991,0.1687177,0.82602,-0.4257679,1.5513291,-0.30355301,-0.71949697,-0.161958,1.5156137,1.6636666
-0.2,-0.2,0.6,-0.5235987755982988,-0.34906585039886584,0.34906585039886606,1.5756505,1.393011,0.30922592,0.6239654,-0.18361256,0.18636689,0.9075754,-0.42216858,1.5436716,-0.31203502,-0.7010025,-0.13207033,1.4640144,1.594761
-0.2,-0.2,0.6,-0.5235987755982988,-0.34906585039886584,0.34906585039886606,1.5319672,1.3916032,0.33289918,0.6097443,-0.16925111,0.17539537,0.9048927,-0.42535663,1.5351413,-0.2993228,-0.6778228,-0.1631918,1.4561568,1.6642349
-0.2,-0.2,0.6,-0.5235987755982988,-0.34906585039886584,0.34906585039886606,1.5808485,1.3738542,0.32864565,0.63169897,-0.21600364,0.1262655,0.8611675,-0.4402342,1.5478593,-0.29246652,-0.6690103,-0.159752,1.4923723,1.6395924
-0.2,-0.2,0.6,-0.5235987755982988,-0.34906585039886584,0.34906585039886606,1.5419464,1.3884311,0.32433966,0.6261615,-0.23442836,0.12285137,0.9723174,-0.42634204,1.5502878,-0.2983466,-0.71601224,-0.18454762,1.4741174,1.6591557
-0.2,-0.2,0.6,-0.5235987755982988,-0.34906585039886584,0.34906585039886606,1.551462,1.379231,0.30155885,0.6272364,-0.12924892,0.18106444,0.884474,-0.43214998,1.5517801,-0.32430938,-0.71200603,-0.122840196,1.4613239,1.6081983
-0.2,-0.2,0.6,-0.5235987755982988,-0.34906585039886584,0.34906585039886606,1.5532823,1.3873785,0.3228608,0.61044633,-0.190408,0.15611908,1.0181847,-0.4265441,1.5508763,-0.3009864,-0.7176666,-0.12434622,1.4832088,1.4941258
-0.2,-0.2,0.6,-0.5235987755982988,-0.34906585039886584,0.34906585039886606,1.5490175,1.386508,0.32761943,0.6350209,-0.19356504,0.15858343,0.85556674,-0.4332309,1.5492375,-0.30938572,-0.72402304,-0.18136053,1.4987084,1.6918658
-0.2,-0.2,0.6,-0.5235987755982988,-0.34906585039886584,0.34906585039886606,1.5143778,1.3969872,0.3325564,0.5845303,-0.21096401,0.20600365,0.95487696,-0.4367403,1.5625701,-0.29455897,-0.7176254,-0.13310139,1.5328625,1.6133074
-0.2,-0.2,0.6,-0.5235987755982988,-0.34906585039886584,0.34906585039886606,1.5695554,1.3922155,0.31842816,0.5521464,-0.20239589,0.19934954,0.93577236,-0.4209752,1.5499502,-0.28598973,-0.65731895,-0.13330592,1.4099221,1.550844
-0.2,-0.2,0.6,-0.5235987755982988,-0.34906585039886584,0.34906585039886606,1.5738661,1.3875188,0.33710036,0.62140614,-0.1780804,0.1773765,0.8680259,-0.44412532,1.5559413,-0.31262302,-0.71989006,-0.14876129,1.4723386,1.6690257
-0.2,-0.2,0.6,-0.5235987755982988,-0.34906585039886584,0.34906585039886606,1.541217,1.3895549,0.31672326,0.6036171,-0.21185014,0.19784464,0.93866277,-0.44055146,1.5377299,-0.29885533,-0.73722893,-0.1845538,1.4742626,1.5796912
-0.2,-0.2,0.6,-0.5235987755982988,-0.34906585039886584,0.34906585039886606,1.5710183,1.3870131,0.32542363,0.60548574,-0.21040581,0.18527104,0.79323995,-0.44116327,1.5531752,-0.28923666,-0.7691291,-0.16156377,1.4917446,1.5985101
-0.2,-0.2,0.6,-0.5235987755982988,-0.34906585039886584,0.34906585039886606,1.5478035,1.3802745,0.31836432,0.6087191,-0.14350441,0.14604858,0.8723465,-0.42420813,1.5438567,-0.30210084,-0.70051783,-0.16953723,1.4200685,1.704732
-0.2,-0.2,0.6,-0.5235987755982988,-0.34906585039886584,0.34906585039886606,1.5082206,1.3904912,0.31488618,0.60800564,-0.22429842,0.17364378,0.8894001,-0.4340525,1.5455495,-0.2819771,-0.7155959,-0.116996355,1.4700598,1.463094
-0.2,-0.2,0.6,-0.5235987755982988,-0.34906585039886584,0.34906585039886606,1.5445776,1.3869903,0.31225938,0.61625916,-0.20527412,0.16995768,0.93704915,-0.4232694,1.5573815,-0.30289665,-0.6997114,-0.23675579,1.4502308,1.5159612
-0.2,-0.2,0.6,-0.5235987755982988,-0.34906585039886584,0.34906585039886606,1.5695523,1.3952148,0.32103577,0.6029561,-0.19643857,0.14538138,0.95345974,-0.44092852,1.5461946,-0.29129758,-0.7289999,-0.13343686,1.489867,1.7250453
-0.2,-0.2,0.6,-0.5235987755982988,-0.34906585039886584,0.34906585039886606,1.5384467,1.3907329,0.32888654,0.6391281,-0.24364713,0.16959389,0.91543496,-0.42336252,1.5474244,-0.3046936,-0.69517887,-0.19341598,1.4571705,1.6911995
-0.2,-0.2,0.6,-0.5235987755982988,-0.34906585039886584,0.34906585039886606,1.5224409,1.3985174,0.33116257,0.6227244,-0.19792107,0.1645269,0.9382159,-0.4305178,1.5518603,-0.29310837,-0.6968254,-0.1602181,1.4463147,1.5608914
-0.2,-0.2,0.6,-0.5235987755982988,-0.34906585039886584,0.34906585039886606,1.5660856,1.4002786,0.3217346,0.60960233,-0.20411843,0.19686909,0.8134108,-0.438024,1.5534939,-0.30987325,-0.7423107,-0.14881814,1.4631082,1.5487667
-0.2,-0.2,0.6,-0.5235987755982988,-0.34906585039886584,0.34906585039886606,1.5731888,1.3833596,0.3219551,0.6144035,-0.17341584,0.16164158,0.95996195,-0.44209763,1.5286714,-0.27599505,-0.6959572,-0.13164286,1.4601387,1.5395529
-0.2,-0.2,0.6,-0.5235987755982988,-0.34906585039886584,0.34906585039886606,1.5912006,1.3893466,0.31971422,0.6391572,-0.13158768,0.12814087,0.81928813,-0.43440554,1.5492235,-0.31780753,-0.7809811,-0.17876612,1.5018727,1.5703431
-0.2,-0.2,0.6,-0.5235987755982988,-0.34906585039886584,0.34906585039886606,1.5651459,1.4101535,0.32393944,0.5455869,-0.10029509,0.1359224,0.8777108,-0.42457283,1.5560157,-0.28770816,-0.757248,-0.12503624,1.4220396,1.638167
-0.2,-0.2,0.6,-0.5235987755982988,-0.34906585039886584,0.34906585039886606,1.5098584,1.376022,0.3271327,0.61471236,-0.22187322,0.18765041,0.9150726,-0.43035704,1.5517812,-0.2989323,-0.7031811,-0.14053997,1.5118499,1.695365
-0.2,-0.2,0.6,-0.5235987755982988,-0.34906585039886584,0.34906585039886606,1.5278376,1.4004071,0.3322465,0.620194,-0.19356929,0.19571945,0.8416521,-0.43941686,1.558012,-0.31204036,-0.75155395,-0.2034385,1.5038959,1.6060215
-0.2,-0.2,0.6,-0.5235987755982988,-0.34906585039886584,0.34906585039886606,1.5337375,1.4031146,0.31993917,0.61920583,-0.21832721,0.15900262,0.8569158,-0.43531203,1.5496334,-0.27367258,-0.6732234,-0.12506977,1.4825933,1.7110128
-0.2,-0.2,0.6,-0.5235987755982988,-0.34906585039886584,0.34906585039886606,1.5253583,1.3873336,0.31034544,0.5999964,-0.19384073,0.19642554,0.81853676,-0.43704194,1.5455968,-0.32319638,-0.736388,-0.16864146,1.4431226,1.5772886
-0.2,-0.2,0.6,-0.5235987755982988,-0.34906585039886584,0.34906585039886606,1.5669392,1.3784918,0.33739597,0.6083333,-0.19484249,0.13929154,0.801476,-0.42878342,1.5541035,-0.28996933,-0.6427463,-0.11179647,1.411418,1.665158
-0.2,-0.2,0.6,-0.5235987755982988,-0.34906585039886584,0.34906585039886606,1.5333718,1.3928261,0.33360958,0.61827254,-0.17832915,0.11854686,0.8214247,-0.42547435,1.5476688,-0.3047535,-0.76826185,-0.18049018,1.4877763,1.5573686
-0.2,-0.2,0.6,-0.5235987755982988,-0.34906585039886584,0.34906585039886606,1.5449264,1.4054198,0.3295162,0.58660644,-0.16756567,0.15672344,0.92212707,-0.4397513,1.525991,-0.28793728,-0.757851,-0.12731516,1.4491928,1.4807577
-0.2,-0.2,0.6,-0.5235987755982988,-0.34906585039886584,0.34906585039886606,1.5483253,1.384519,0.3315334,0.5908817,-0.21479154,0.16089882,0.92866606,-0.4264852,1.5506252,-0.30150586,-0.68983704,-0.13659726,1.5006076,1.6653521
-0.2,-0.2,0.6,-0.5235987755982988,-0.34906585039886584,0.34906585039886606,1.5539209,1.3966589,0.33294192,0.57325184,-0.15688235,0.13477856,0.933079,-0.43065807,1.5497414,-0.29258832,-0.72872007,-0.13544077,1.419358,1.5723515
-0.2,-0.2,0.6,-0.5235987755982988,-0.34906585039886584,0.34906585039886606,1.5558279,1.3895395,0.33472085,0.56886107,-0.23345236,0.19004746,0.9954444,-0.43718708,1.5488634,-0.27550024,-0.6760467,-0.15893218,1.4272405,1.6458367
-0.2,-0.2,0.6,-0.5235987755982988,-0.34906585039886584,0.34906585039886606,1.555927,1.3943472,0.32402524,0.6120461,-0.20336854,0.15946916,0.8431635,-0.4537776,1.5377086,-0.2880019,-0.7602731,-0.12174505,1.4552722,1.5922074
-0.2,-0.2,0.6,-0.5235987755982988,-0.34906585039886584,0.34906585039886606,1.558281,1.4024887,0.33661252,0.60341215,-0.20209731,0.18715768,0.920193,-0.419068,1.5361458,-0.32479352,-0.7348502,-0.1829376,1.4892051,1.6212252
-0.2,-0.2,0.6,-0.5235987755982988,-0.34906585039886584,0.34906585039886606,1.5652999,1.3811355,0.3155785,0.5942148,-0.21356201,0.12500837,0.88448805,-0.42522466,1.5485994,-0.28350994,-0.6718651,-0.1798366,1.4733876,1.5943416
-0.2,-0.2,0.6,-0.5235987755982988,-0.34906585039886584,0.34906585039886606,1.5635182,1.3921052,0.31100777,0.61863375,-0.23971595,0.16341998,0.81073976,-0.4364599,1.5454067,-0.32668436,-0.74587154,-0.16112639,1.4617789,1.6319757
-0.2,-0.2,0.6,-0.5235987755982988,-0.34906585039886584,0.34906585039886606,1.5569714,1.3776952,0.31945303,0.6183748,-0.21015127,0.113653794,0.8961555,-0.4380529,1.553035,-0.30466843,-0.7674974,-0.12658189,1.4513125,1.5657315
-0.2,-0.2,0.6,-0.5235987755982988,-0.34906585039886584,0.34906585039886606,1.5287757,1.3929799,0.32355145,0.63658357,-0.2471376,0.14584708,0.87582,-0.42591938,1.5398749,-0.29958543,-0.66885084,-0.16982913,1.3919165,1.5650772
-0.2,-0.2,0.6,-0.5235987755982988,-0.34906585039886584,0.34906585039886606,1.5751245,1.3941817,0.34271577,0.577125,-0.20121568,0.17397836,0.8662872,-0.42116994,1.5398309,-0.31079873,-0.6704357,-0.1889445,1.3653752,1.413674
-0.2,-0.2,0.6,-0.5235987755982988,-0.34906585039886584,0.34906585039886606,1.527413,1.3991971,0.3283475,0.5986902,-0.22283295,0.16885701,0.924825,-0.43981695,1.5502137,-0.29925188,-0.80167955,-0.1255676,1.4954717,1.4410344
-0.2,-0.2,0.6,-0.5235987755982988,-0.34906585039886584,0.34906585039886606,1.5534363,1.3947045,0.30956998,0.60127014,-0.12891659,0.11007618,0.88968116,-0.43429732,1.5618423,-0.2910193,-0.71040213,-0.14932415,1.4587356,1.8273643
-0.2,-0.2,0.6,-0.5235987755982988,-0.34906585039886584,0.34906585039886606,1.5817962,1.3832022,0.32904407,0.5830677,-0.19788828,0.15596743,0.912193,-0.4372466,1.5497426,-0.32128504,-0.763756,-0.16382441,1.4547199,1.7178087
-0.2,-0.2,0.6,-0.5235987755982988,-0.34906585039886584,0.34906585039886606,1.531641,1.3958939,0.33920127,0.6011332,-0.1669444,0.16555184,0.888931,-0.42857248,1.5381219,-0.30807316,-0.7044082,-0.16214962,1.425415,1.7148933
-0.2,-0.2,0.6,-0.5235987755982988,-0.34906585039886584,0.34906585039886606,1.5767858,1.3970484,0.3259876,0.5756394,-0.18088967,0.13256405,0.8850635,-0.42753702,1.5500735,-0.30323955,-0.80845344,-0.18252867,1.4712498,1.6646969
-0.2,-0.2,0.6,-0.5235987755982988,-0.34906585039886584,0.34906585039886606,1.5637673,1.3824259,0.3203419,0.6050768,-0.19707353,0.1558458,0.8338159,-0.4377096,1.5392116,-0.31245354,-0.7519714,-0.173881,1.4555303,1.781227
-0.2,-0.2,0.6,-0.5235987755982988,-0.34906585039886584,0.34906585039886606,1.6053008,1.3857418,0.3438316,0.56802845,-0.18133855,0.16247337,0.95065284,-0.42702517,1.5396154,-0.29521117,-0.7832912,-0.15967299,1.5117934,1.5322644
-0.2,-0.2,0.6,-0.5235987755982988,-0.34906585039886584,0.34906585039886606,1.5689113,1.3880554,0.33711493,0.58660024,-0.124512464,0.14695618,0.9228931,-0.4322639,1.5508555,-0.29220337,-0.75027347,-0.15041828,1.4790555,1.6418848
-0.2,-0.2,0.6,-0.5235987755982988,-0.34906585039886584,0.34906585039886606,1.5689324,1.3942523,0.31842518,0.58970016,-0.14888375,0.14599915,0.8831151,-0.43232757,1.5500929,-0.29929972,-0.7241345,-0.16023768,1.4293995,1.3740903
-0.2,-0.2,0.6,-0.5235987755982988,-0.34906585039886584,0.34906585039886606,1.5336932,1.3912772,0.33582467,0.5849095,-0.14388634,0.15257171,0.89157104,-0.43305925,1.5456458,-0.2684006,-0.70743585,-0.1864451,1.4807659,1.7439623
-0.2,-0.2,0.6,-0.5235987755982988,-0.34906585039886584,0.34906585039886606,1.5397569,1.3774798,0.32248867,0.5654585,-0.16790172,0.20552614,0.90945023,-0.4437897,1.5472711,-0.28283697,-0.6927235,-0.18023445,1.3625474,1.6662855
-0.2,-0.2,0.6,-0.5235987755982988,-0.34906585039886584,0.34906585039886606,1.575124,1.3858278,0.3172727,0.5694732,-0.21471609,0.18154797,0.9143274,-0.43248835,1.548736,-0.3004788,-0.81554264,-0.14855532,1.4981211,1.6748073
-0.2,-0.2,0.6,-0.5235987755982988,-0.34906585039886584,0.34906585039886606,1.5600233,1.3912743,0.314149,0.60282874,-0.15537706,0.13942921,0.92139,-0.43313605,1.5456743,-0.299078,-0.7338372,-0.13705434,1.4335568,1.5660989
-0.2,-0.2,0.6,-0.5235987755982988,-0.34906585039886584,0.34906585039886606,1.5430197,1.3891273,0.32760528,0.61041045,-0.19491632,0.18179585,0.892421,-0.43686634,1.5245577,-0.30603924,-0.6996245,-0.13725647,1.4093546,1.5086441
-0.2,-0.2,0.6,-0.5235987755982988,-0.34906585039886584,0.34906585039886606,1.5484729,1.3873266,0.31517667,0.58193433,-0.22611341,0.21303065,0.909549,-0.42239895,1.5420965,-0.31532532,-0.78021765,-0.21393676,1.4333332,1.758685
-0.2,-0.2,0.6,-0.5235987755982988,-0.34906585039886584,0.34906585039886606,1.5440677,1.3890269,0.31548887,0.58144784,-0.2021096,0.1567483,0.90854067,-0.42784694,1.555282,-0.27390745,-0.75863475,-0.12927242,1.5319371,1.6436344
-0.2,-0.2,0.6,-0.5235987755982988,-0.34906585039886584,0.34906585039886606,1.5595828,1.3832784,0.3114795,0.6139512,-0.23476925,0.17190252,0.789803,-0.42036498,1.5469964,-0.26348543,-0.74994254,-0.16986464,1.4630944,1.3199226
-0.2,-0.2,0.6,-0.5235987755982988,-0.34906585039886584,0.34906585039886606,1.5352172,1.3816111,0.30899352,0.60783595,-0.1621264,0.15638982,0.8881378,-0.4428253,1.5451182,-0.2824662,-0.75307274,-0.12255377,1.4319764,1.6023769
-0.2,-0.2,0.6,-0.5235987755982988,-0.34906585039886584,0.34906585039886606,1.5602906,1.3879716,0.31701902,0.604158,-0.18107112,0.1465365,0.9303196,-0.43252307,1.5411798,-0.31279466,-0.70508736,-0.123321384,1.4045278,1.6128315
-0.2,-0.2,0.6,-0.5235987755982988,-0.34906585039886584,0.34906585039886606,1.5404679,1.3924176,0.32366055,0.606131,-0.14578791,0.15447128,0.8627654,-0.44264704,1.5554785,-0.30876112,-0.73808074,-0.09394137,1.4396584,1.7456431
-0.2,-0.2,0.6,-0.5235987755982988,-0.34906585039886584,0.34906585039886606,1.5457691,1.386525,0.32013407,0.58890367,-0.20159024,0.14013301,0.86385506,-0.44333735,1.5632938,-0.29148415,-0.7753706,-0.12757303,1.4186244,1.559326
-0.2,-0.2,0.6,-0.5235987755982988,-0.34906585039886584,0.34906585039886606,1.5640665,1.3917668,0.3191395,0.5980291,-0.17481603,0.108820625,0.86769116,-0.4445556,1.5426824,-0.28811917,-0.7418962,-0.14926444,1.3904537,1.5408695
-0.2,-0.2,0.6,-0.5235987755982988,-0.34906585039886584,0.34906585039886606,1.5721275,1.3951434,0.32438093,0.5507888,-0.21982466,0.21498986,0.8090387,-0.41949973,1.5419271,-0.30747455,-0.680639,-0.11504194,1.4347706,1.5720676
-0.2,-0.2,0.6,-0.5235987755982988,-0.34906585039886584,0.34906585039886606,1.5391967,1.3912289,0.31213337,0.6048666,-0.12815402,0.11600764,0.95015264,-0.42591897,1.5570517,-0.279241,-0.72539914,-0.17172553,1.4224039,1.5217744
-0.2,-0.2,0.6,-0.5235987755982988,-0.34906585039886584,0.34906585039886606,1.5798305,1.3820684,0.30542114,0.61814356,-0.21009298,0.16511975,0.7972683,-0.43051726,1.5467205,-0.28780204,-0.76495636,-0.1536299,1.4478197,1.4653616
-0.2,-0.2,0.6,-0.5235987755982988,-0.34906585039886584,0.34906585039886606,1.5646949,1.3969465,0.33220568,0.5704238,-0.16824986,0.14230834,0.96396995,-0.43509582,1.5391687,-0.26222193,-0.7004986,-0.10522441,1.4623892,1.730376
-0.2,-0.2,0.6,-0.5235987755982988,-0.34906585039886584,0.34906585039886606,1.541161,1.3907377,0.32481322,0.59897906,-0.21657479,0.15954962,0.8971333,-0.42747295,1.546153,-0.29871258,-0.72914,-0.167346,1.4077536,1.527493
-0.2,-0.2,0.6,-0.5235987755982988,-0.34906585039886584,0.34906585039886606,1.5316163,1.3941793,0.32259163,0.5673655,-0.2230522,0.20288345,0.9317051,-0.43814033,1.5438737,-0.27537927,-0.7304015,-0.15572664,1.4919531,1.6481587
-0.2,-0.2,0.6,-0.5235987755982988,-0.34906585039886584,0.34906585039886606,1.5502651,1.3873098,0.32304046,0.5822566,-0.21874748,0.16369855,0.87690675,-0.43039376,1.5362284,-0.2749175,-0.6804062,-0.20688619,1.3726557,1.6344512
-0.2,-0.2,0.6,-0.5235987755982988,-0.34906585039886584,0.34906585039886606,1.5548179,1.399843,0.32292947,0.58838767,-0.17456354,0.19589992,0.85589826,-0.43054596,1.5471511,-0.3081631,-0.7784087,-0.17859171,1.4821559,1.5460479
-0.2,-0.2,0.6,-0.5235987755982988,-0.34906585039886584,0.34906585039886606,1.5644267,1.3826388,0.333324,0.59661937,-0.22511452,0.16642736,0.9507176,-0.42839333,1.5533603,-0.28712702,-0.7481577,-0.16467467,1.4517606,1.5908424
-0.2,-0.2,0.6,-0.5235987755982988,-0.34906585039886584,0.34906585039886606,1.5651363,1.3861688,0.34058988,0.5645,-0.21323189,0.20717707,0.90379995,-0.4240982,1.5438062,-0.32658827,-0.7331105,-0.12202446,1.408914,1.6027142
-0.2,-0.2,0.6,-0.5235987755982988,-0.34906585039886584,0.34906585039886606,1.5164014,1.3973683,0.33549613,0.57469165,-0.12581408,0.16049683,0.89313376,-0.42645067,1.550101,-0.30214465,-0.7576293,-0.17046833,1.4578257,1.5501751
-0.2,-0.2,0.6,-0.5235987755982988,-0.34906585039886584,0.34906585039886606,1.5811936,1.389875,0.3110178,0.5918242,-0.22210719,0.1633569,0.9118911,-0.43788394,1.5464854,-0.3060973,-0.7673949,-0.20607263,1.4428306,1.5401795
-0.2,-0.2,0.6,-0.5235987755982988,-0.34906585039886584,0.34906585039886606,1.5640348,1.3850482,0.33600757,0.57747763,-0.1860832,0.14136973,1.001234,-0.42233852,1.5553021,-0.29454783,-0.7467135,-0.14706385,1.4373528,1.6032093
-0.2,-0.2,0.6,-0.5235987755982988,-0.34906585039886584,0.34906585039886606,1.5667999,1.3927166,0.32038736,0.59303695,-0.18436003,0.17382972,0.8749349,-0.43151847,1.5445293,-0.29534066,-0.7345819,-0.15113509,1.4199173,1.5673982
-0.2,-0.2,0.6,-0.5235987755982988,-0.34906585039886584,0.34906585039886606,1.5610976,1.3831506,0.32471257,0.5699926,-0.21818481,0.14787154,0.91187555,-0.44027632,1.5539109,-0.28645763,-0.77202094,-0.16057588,1.4229114,1.8314291
-0.2,-0.2,0.6,-0.5235987755982988,-0.34906585039886584,0.34906585039886606,1.535191,1.4034251,0.31919774,0.5721267,-0.16116585,0.13670412,0.8929386,-0.42945743,1.5440768,-0.3203417,-0.778566,-0.12758663,1.4163116,1.6252116
-0.2,-0.2,0.6,-0.5235987755982988,-0.34906585039886584,0.34906585039886606,1.5486326,1.4018229,0.33528787,0.5673359,-0.19747607,0.15036087,0.7956019,-0.4338418,1.5566238,-0.28077504,-0.7592678,-0.15083538,1.4884394,1.701541
-0.2,-0.2,0.6,-0.5235987755982988,-0.34906585039886584,0.34906585039886606,1.5672247,1.3963972,0.32884735,0.5794925,-0.18244365,0.1319504,0.9039289,-0.43828732,1.5451112,-0.28002805,-0.74123585,-0.109194614,1.3979616,1.4381696
-0.2,-0.2,0.6,-0.5235987755982988,-0.34906585039886584,0.34906585039886606,1.5689135,1.395141,0.34451827,0.5671215,-0.1388801,0.1243903,0.8744881,-0.43637055,1.5459727,-0.2912332,-0.726145,-0.17639807,1.3820485,1.5198666
-0.2,-0.2,0.6,-0.5235987755982988,-0.34906585039886584,0.34906585039886606,1.5494394,1.4012452,0.3105248,0.5951743,-0.2461926,0.13374853,0.9398834,-0.4486515,1.5519768,-0.28095484,-0.7356541,-0.12617104,1.3689309,1.4507983
-0.2,-0.2,0.6,-0.5235987755982988,-0.34906585039886584,0.34906585039886606,1.5485095,1.4065549,0.3096697,0.5678193,-0.19902536,0.11481768,0.94879127,-0.42746225,1.554516,-0.3049517,-0.72116333,-0.10233944,1.4258503,1.6409355
-0.2,-0.2,0.6,-0.5235987755982988,-0.34906585039886584,0.34906585039886606,1.571598,1.3772532,0.31816912,0.55603975,-0.089526646,0.15122868,0.9982432,-0.44958547,1.5524217,-0.30605888,-0.7898548,-0.1323342,1.4564221,1.5987401
-0.2,-0.2,0.6,-0.5235987755982988,-0.34906585039886584,0.34906585039886606,1.5345165,1.4142642,0.31820753,0.5895992,-0.19063355,0.15969321,0.795232,-0.43191308,1.5620388,-0.29905885,-0.77261823,-0.10399298,1.4110618,1.52835
-0.2,-0.2,0.6,-0.5235987755982988,-0.34906585039886584,0.34906585039886606,1.5361888,1.400588,0.33398134,0.55224156,-0.19613993,0.144531,1.0596837,-0.4270614,1.5519236,-0.32569408,-0.80771005,-0.1662407,1.4858738,1.667208
-0.2,-0.2,0.6,-0.5235987755982988,-0.34906585039886584,0.34906585039886606,1.5676858,1.3960804,0.32301453,0.57502764,-0.19756596,0.14648397,0.93271345,-0.42404187,1.5465091,-0.28230962,-0.7515702,-0.16540891,1.4005002,1.4467994
-0.2,-0.2,0.6,-0.5235987755982988,-0.34906585039886584,0.34906585039886606,1.5445199,1.4014506,0.30439028,0.5743877,-0.22222862,0.16519457,0.9212619,-0.42546955,1.5498039,-0.27167714,-0.71433014,-0.14104275,1.4076364,1.5865687
-0.2,-0.2,0.6,-0.5235987755982988,-0.34906585039886584,0.34906585039886606,1.5546954,1.3938619,0.3160039,0.5681512,-0.19407618,0.19289623,0.9163267,-0.43362144,1.5498813,-0.2927119,-0.83795273,-0.15283795,1.488659,1.4735179
-0.2,-0.2,0.6,-0.5235987755982988,-0.34906585039886584,0.34906585039886606,1.5629537,1.4065042,0.3308731,0.5431919,-0.17215182,0.17116639,1.0046461,-0.43897778,1.564465,-0.3102637,-0.82062113,-0.15814027,1.4674139,1.6519212
-0.2,-0.2,0.6,-0.5235987755982988,-0.34906585039886584,0.34906585039886606,1.5211856,1.4038434,0.31446564,0.56343067,-0.14840731,0.15409964,0.98814493,-0.42272633,1.5546318,-0.29855338,-0.8302936,-0.16913399,1.4844042,1.736025
-0.2,-0.2,0.6,-0.5235987755982988,-0.34906585039886584,0.34906585039886606,1.526575,1.3906225,0.33530748,0.5282612,-0.18052332,0.16600887,0.9016394,-0.43480456,1.5543128,-0.29351386,-0.65891415,-0.13441159,1.330812,1.7441231
-0.2,-0.2,0.6,-0.5235987755982988,-0.34906585039886584,0.34906585039886606,1.57841,1.4064614,0.32546526,0.6134749,-0.21052055,0.14246148,0.8351166,-0.43643233,1.5587051,-0.28287107,-0.6473657,-0.1639484,1.4764199,1.7368526
-0.2,-0.2,0.6,-0.5235987755982988,-0.34906585039886584,0.34906585039886606,1.5734881,1.3996097,0.32304645,0.6071609,-0.16866305,0.20096216,0.8170738,-0.43487278,1.5397284,-0.2892783,-0.6654376,-0.19226666,1.3992035,1.4654948
-0.2,-0.2,0.6,-0.5235987755982988,-0.34906585039886584,0.34906585039886606,1.554956,1.3998169,0.31787726,0.6198177,-0.17041491,0.13506404,0.9065438,-0.43485665,1.5530858,-0.28562194,-0.7724794,-0.15818469,1.4914662,1.5542678
-0.2,-0.2,0.6,-0.5235987755982988,-0.34906585039886584,0.34906585039886606,1.5643667,1.3820364,0.31173488,0.57558846,-0.18249924,0.15745765,0.8288121,-0.43279722,1.5479321,-0.30468556,-0.7549243,-0.124097206,1.4753234,1.6692802
-0.2,-0.2,0.6,-0.5235987755982988,-0.34906585039886584,0.34906585039886606,1.5416619,1.3908566,0.3284012,0.6072261,-0.1948527,0.12895007,0.8988795,-0.44471636,1.5446123,-0.27447277,-0.7070496,-0.16227293,1.4376718,1.5204803
-0.2,-0.2,0.6,-0.5235987755982988,-0.34906585039886584,0.34906585039886606,1.5716714,1.3809092,0.3480835,0.6183138,-0.13701801,0.14648466,0.8344893,-0.43041307,1.5388451,-0.28876287,-0.69210005,-0.17444046,1.5269815,1.4688519
-0.2,-0.2,0.6,-0.5235987755982988,-0.34906585039886584,0.34906585039886606,1.5245527,1.3928833,0.31602275,0.6204655,-0.20231135,0.18051504,0.8429017,-0.43515223,1.5442861,-0.31424895,-0.72429967,-0.11575036,1.4951749,1.648916
-0.2,-0.2,0.6,-0.5235987755982988,-0.34906585039886584,0.34906585039886606,1.538723,1.3927963,0.33109447,0.59905934,-0.22761343,0.14746065,0.8747707,-0.42664915,1.5544736,-0.30500588,-0.7000833,-0.1639356,1.3728218,1.522185
-0.2,-0.2,0.6,-0.5235987755982988,-0.34906585039886584,0.34906585039886606,1.548701,1.402476,0.32160673,0.5590404,-0.26252204,0.17358784,0.82500845,-0.43031877,1.5533626,-0.27648646,-0.7011879,-0.14102502,1.4396185,1.6317198
-0.2,-0.2,0.6,-0.5235987755982988,-0.34906585039886584,0.34906585039886606,1.5154868,1.4119598,0.32370332,0.59109193,-0.18699834,0.18623967,0.8342412,-0.42265916,1.5582218,-0.30155915,-0.6701093,-0.15673852,1.445993,1.5449102
-0.2,-0.2,0.6,-0.5235987755982988,-0.34906585039886584,0.34906585039886606,1.5782051,1.3842037,0.3476185,0.61369956,-0.17144148,0.157871,0.91990787,-0.4389407,1.5453557,-0.2886346,-0.71566755,-0.1986134,1.4456892,1.5335587
-0.2,-0.2,0.6,-0.5235987755982988,-0.34906585039886584,0.34906585039886606,1.5796115,1.3948447,0.33404127,0.61138177,-0.28291458,0.17873679,0.9089152,-0.4375983,1.55392,-0.3150485,-0.74424124,-0.19790275,1.463291,1.6242954
-0.2,-0.2,0.6,-0.5235987755982988,-0.34906585039886584,0.34906585039886606,1.5297257,1.4087034,0.3240301,0.5495444,-0.15464629,0.16162153,0.92063916,-0.42477715,1.555266,-0.30493113,-0.7365057,-0.19394533,1.4707214,1.6317437
-0.2,-0.2,0.6,-0.5235987755982988,-0.34906585039886584,0.34906585039886606,1.5356603,1.3884376,0.32120106,0.5629446,-0.15604931,0.174966,0.8599703,-0.42666402,1.5545491,-0.31332096,-0.67438155,-0.14884776,1.4653915,1.687144
-0.2,-0.2,0.6,-0.5235987755982988,-0.34906585039886584,0.34906585039886606,1.5500752,1.3867044,0.32777676,0.67020863,-0.18466836,0.12364358,0.90581393,-0.4314636,1.5600709,-0.3031843,-0.7092891,-0.17025305,1.5184226,1.471405
-0.2,-0.2,0.6,-0.5235987755982988,-0.34906585039886584,0.34906585039886606,1.5394775,1.396345,0.32522872,0.64005286,-0.21647196,0.15121353,0.85151136,-0.4293723,1.5525758,-0.30995536,-0.70491266,-0.14309578,1.4669844,1.6137183
-0.2,-0.2,0.6,-0.5235987755982988,-0.34906585039886584,0.34906585039886606,1.5393193,1.3770939,0.31470305,0.6029274,-0.20734718,0.13401753,0.8346944,-0.45557725,1.5403932,-0.27143645,-0.7532705,-0.1999373,1.4477812,1.5523908
-0.2,-0.2,0.6,-0.5235987755982988,-0.34906585039886584,0.34906585039886606,1.5408605,1.3850659,0.32350683,0.65744364,-0.22697988,0.18634686,0.9112672,-0.42448732,1.5394014,-0.31038147,-0.7381835,-0.1341914,1.5503756,1.6718553
-0.2,-0.2,0.6,-0.5235987755982988,-0.34906585039886584,0.34906585039886606,1.5059015,1.3908908,0.3072636,0.683642,-0.22425924,0.10984677,0.8409893,-0.43923247,1.5600371,-0.30700642,-0.6708911,-0.15290077,1.4762193,1.5698178
-0.2,-0.2,0.6,-0.5235987755982988,-0.34906585039886584,0.34906585039886606,1.5594416,1.3867549,0.32863048,0.6425141,-0.19302481,0.16347791,0.8458976,-0.4223659,1.5423839,-0.2958127,-0.7706455,-0.19788443,1.5172967,1.4426333
-0.2,-0.2,0.6,-0.5235987755982988,-0.34906585039886584,0.34906585039886606,1.5371817,1.4027388,0.34222925,0.6377605,-0.24966644,0.15353595,0.89590824,-0.43570578,1.5464523,-0.30026463,-0.6806655,-0.18001021,1.4797591,1.624248
-0.2,-0.2,0.6,-0.5235987755982988,-0.34906585039886584,0.34906585039886606,1.5675968,1.39432,0.30106324,0.6388482,-0.18146287,0.12830932,0.83844995,-0.43457076,1.5501279,-0.29800195,-0.7266513,-0.18452601,1.4574462,1.6080999
-0.2,-0.2,0.6,-0.5235987755982988,-0.34906585039886584,0.34906585039886606,1.5724297,1.3997515,0.31614974,0.63901806,-0.21031809,0.1853602,0.82552683,-0.43845132,1.5697184,-0.31216916,-0.6909745,-0.2081366,1.4665122,1.5878015
-0.2,-0.2,0.6,-0.5235987755982988,-0.34906585039886584,0.34906585039886606,1.5305865,1.388855,0.32017,0.6250039,-0.19128025,0.17024706,0.9387504,-0.4327687,1.5545807,-0.28268635,-0.6877294,-0.15634634,1.4353671,1.481908
-0.2,-0.2,0.6,-0.5235987755982988,-0.34906585039886584,0.34906585039886606,1.532084,1.3831842,0.33110553,0.5870158,-0.19154346,0.18060334,0.88661623,-0.4263096,1.547855,-0.26295152,-0.67494905,-0.14288566,1.421184,1.6438739
-0.2,-0.2,0.6,-0.5235987755982988,-0.34906585039886584,0.34906585039886606,1.5751609,1.3867459,0.30685517,0.6333734,-0.17162806,0.1935212,0.8368763,-0.42611516,1.5421144,-0.29561839,-0.7298164,-0.10829482,1.4683489,1.4481541
-0.2,-0.2,0.6,-0.5235987755982988,-0.34906585039886584,0.34906585039886606,1.5216411,1.3988669,0.31173763,0.6167652,-0.19594838,0.12954265,0.8690532,-0.42948255,1.5601195,-0.3157271,-0.7368802,-0.16343133,1.4213653,1.4378116
-0.2,-0.2,0.6,-0.5235987755982988,-0.34906585039886584,0.34906585039886606,1.5278546,1.3973473,0.33736128,0.60167587,-0.23313618,0.15094398,1.002782,-0.444964,1.5472947,-0.33015293,-0.7358164,-0.18334307,1.427112,1.5137815
-0.2,-0.2,0.6,-0.5235987755982988,-0.34906585039886584,0.34906585039886606,1.5365343,1.3814404,0.3194811,0.5936025,-0.1745538,0.1438618,0.99948865,-0.43565643,1.539961,-0.3074297,-0.666373,-0.15235555,1.3941008,1.8139019
-0.2,-0.2,0.6,-0.5235987755982988,-0.34906585039886584,0.34906585039886606,1.5554959,1.3914553,0.34446883,0.59881413,-0.16226164,0.16863084,0.8640475,-0.4450569,1.5481194,-0.30368534,-0.615126,-0.16232821,1.4493766,1.6207749
-0.2,-0.2,0.6,-0.5235987755982988,-0.34906585039886584,0.34906585039886606,1.5678121,1.39167,0.3324569,0.65054476,-0.17871816,0.13581112,0.85847676,-0.4276289,1.5477707,-0.28897664,-0.7091546,-0.13575125,1.4958042,1.4811444
-0.2,-0.2,0.6,-0.5235987755982988,-0.34906585039886584,0.34906585039886606,1.5090936,1.3798691,0.32922304,0.59990424,-0.19267748,0.15622962,0.81174403,-0.4277783,1.5442802,-0.2971859,-0.7295869,-0.18684614,1.4544781,1.7206477
-0.2,-0.2,0.6,-0.5235987755982988,-0.34906585039886584,0.34906585039886606,1.5298591,1.3905593,0.34735644,0.6175151,-0.18712755,0.19896893,0.78759605,-0.44288725,1.5372803,-0.30111644,-0.67218626,-0.14939359,1.4586589,1.5692793
-0.2,-0.2,0.6,-0.5235987755982988,-0.34906585039886584,0.34906585039886606,1.5416514,1.4089094,0.32752046,0.6158113,-0.18126291,0.14605969,0.9647988,-0.435295,1.55415,-0.34939054,-0.6917896,-0.22056088,1.466464,1.619896
-0.2,-0.2,0.6,-0.5235987755982988,-0.34906585039886584,0.34906585039886606,1.5479417,1.4010288,0.30846667,0.6140224,-0.14106359,0.13522826,0.9338707,-0.4475225,1.5482792,-0.29307926,-0.7148479,-0.1517338,1.4721484,1.7083381
-0.2,-0.2,0.6,-0.5235987755982988,-0.34906585039886584,0.34906585039886606,1.5523267,1.3765708,0.3376962,0.57204574,-0.217978,0.14726245,0.90218174,-0.432076,1.5445755,-0.2894303,-0.7785286,-0.11412436,1.5209491,1.6515822
-0.2,-0.2,0.6,-0.5235987755982988,-0.34906585039886584,0.34906585039886606,1.5474594,1.3794206,0.3227037,0.61389524,-0.17163542,0.12470631,0.91009414,-0.44937402,1.5642821,-0.28730774,-0.7242899,-0.17278424,1.4943289,1.651712
-0.2,-0.2,0.6,-0.5235987755982988,-0.34906585039886584,0.34906585039886606,1.5420249,1.3798478,0.33966622,0.60415083,-0.15752503,0.19554435,0.8538374,-0.42669952,1.5515876,-0.30971923,-0.78740597,-0.18073569,1.5125201,1.5510447
-0.2,-0.2,0.6,-0.5235987755982988,-0.34906585039886584,0.34906585039886606,1.5655106,1.3775175,0.328802,0.59649956,-0.23028411,0.17271332,0.8827038,-0.42710453,1.5484705,-0.29497567,-0.6906341,-0.14838989,1.4211298,1.481414
-0.2,-0.2,0.6,-0.5235987755982988,-0.34906585039886584,0.34906585039886606,1.5150375,1.3862056,0.33481732,0.628345,-0.16771999,0.1733708,0.8490127,-0.42898765,1.5417126,-0.2924512,-0.69159657,-0.14655109,1.4458019,1.2823179
-0.2,-0.2,0.6,-0.5235987755982988,-0.34906585039886584,0.34906585039886606,1.5420351,1.3984427,0.34195814,0.61351943,-0.1324447,0.12602568,0.9365849,-0.43647018,1.5574697,-0.29496112,-0.6840197,-0.22441949,1.4660333,1.5413781
-0.2,-0.2,0.6,-0.5235987755982988,-0.34906585039886584,0.34906585039886606,1.5303216,1.408353,0.33309436,0.6128818,-0.17173263,0.18189682,0.8140649,-0.43355015,1.5474007,-0.31633827,-0.7496383,-0.1511207,1.4907343,1.5999815
-0.2,-0.2,0.6,-0.5235987755982988,-0.34906585039886584,0.34906585039886606,1.5354981,1.3919533,0.31467903,0.6003395,-0.2087065,0.16758522,0.8801521,-0.43332,1.5465798,-0.28335372,-0.69355893,-0.11345596,1.4761403,1.4997283
-0.2,-0.2,0.6,-0.5235987755982988,-0.34906585039886584,0.34906585039886606,1.5101393,1.4023808,0.3010219,0.6212631,-0.19976377,0.17414647,0.9281443,-0.43372026,1.5491089,-0.30502063,-0.6618728,-0.15146078,1.4593436,1.5440758
-0.2,-0.2,0.6,-0.5235987755982988,-0.34906585039886584,0.34906585039886606,1.5492183,1.4002523,0.3177332,0.6153294,-0.23433153,0.18082146,0.8848646,-0.4344351,1.536582,-0.29573992,-0.7155689,-0.16248526,1.4746939,1.5538441
-0.2,-0.2,0.6,-0.5235987755982988,-0.34906585039886584,0.34906585039886606,1.5656658,1.3918234,0.3319544,0.6025498,-0.15328771,0.1326116,1.0014521,-0.4460371,1.5476514,-0.29804704,-0.71825916,-0.15548737,1.4978186,1.6326147
-0.2,-0.2,0.6,-0.5235987755982988,-0.34906585039886584,0.34906585039886606,1.5558026,1.4180435,0.3340499,0.56025165,-0.1766802,0.1428272,0.8575823,-0.43021253,1.5527267,-0.29209462,-0.66038483,-0.12133252,1.5344777,1.5946958
-0.2,-0.2,0.6,-0.5235987755982988,-0.34906585039886584,0.34906585039886606,1.5527091,1.3877574,0.32858035,0.62365526,-0.17413479,0.14370038,0.88045615,-0.4307322,1.5430775,-0.29914054,-0.6952188,-0.1344154,1.4573874,1.6360788
-0.2,-0.2,0.6,-0.5235987755982988,-0.34906585039886584,0.34906585039886606,1.5981544,1.4026469,0.3340332,0.59893996,-0.19838123,0.17219505,0.9432338,-0.43485934,1.5541185,-0.3088825,-0.7120746,-0.17458425,1.4738579,1.4428068
-0.2,-0.2,0.6,-0.5235987755982988,-0.34906585039886584,0.34906585039886606,1.5771875,1.3946774,0.3324037,0.6015543,-0.16710402,0.1721162,0.85337335,-0.43866092,1.5547271,-0.29396206,-0.74706763,-0.12581906,1.502941,1.5891551
-0.2,-0.2,0.6,-0.5235987755982988,-0.34906585039886584,0.34906585039886606,1.5553641,1.4043769,0.3258235,0.57717836,-0.16809298,0.16966161,0.8368615,-0.43090758,1.5417515,-0.3266364,-0.683413,-0.112686016,1.3645132,1.583562
-0.2,-0.2,0.6,-0.5235987755982988,-0.34906585039886584,0.34906585039886606,1.5766591,1.3892931,0.32587504,0.6154429,-0.16775064,0.12951642,0.8165048,-0.4395537,1.5444362,-0.32938254,-0.72164994,-0.105622716,1.4746461,1.765566
-0.2,-0.2,0.6,-0.5235987755982988,-0.34906585039886584,0.34906585039886606,1.5415123,1.3965336,0.32690355,0.6064174,-0.18885463,0.1280191,0.8656078,-0.43180034,1.5522652,-0.30949926,-0.6687946,-0.15772247,1.457371,1.6249763
-0.2,-0.2,0.6,-0.5235987755982988,-0.34906585039886584,0.34906585039886606,1.562796,1.3917707,0.33612233,0.6032299,-0.19844829,0.15723759,0.9167692,-0.4350614,1.5351398,-0.2833424,-0.7052531,-0.15945703,1.4725614,1.5225159
-0.2,-0.2,0.6,-0.5235987755982988,-0.34906585039886584,0.34906585039886606,1.5688748,1.3950746,0.31454617,0.6194125,-0.2503123,0.16921924,0.8497734,-0.4283521,1.5554858,-0.26008996,-0.7140826,-0.19235888,1.4501685,1.5111606
-0.2,-0.2,0.6,-0.5235987755982988,-0.34906585039886584,0.34906585039886606,1.5486269,1.3860253,0.3276363,0.60563403,-0.19323313,0.14726488,0.8841229,-0.42590013,1.5427936,-0.29347333,-0.6894216,-0.12318189,1.438403,1.4919229
-0.2,-0.2,0.6,-0.5235987755982988,-0.34906585039886584,0.34906585039886606,1.5429442,1.3909811,0.33389735,0.60645497,-0.1366886,0.14584851,0.906239,-0.4333057,1.5440397,-0.30311924,-0.7303469,-0.15563884,1.4572761,1.4510478
-0.2,-0.2,0.6,-0.5235987755982988,-0.34906585039886584,0.34906585039886606,1.4808605,1.3846319,0.3256414,0.6318404,-0.18289244,0.13664974,0.9301767,-0.4432084,1.5442692,-0.3050531,-0.7388328,-0.13478109,1.4959276,1.7930146
-0.2,-0.2,0.6,-0.5235987755982988,-0.34906585039886584,0.34906585039886606,1.5680283,1.3893712,0.32114106,0.60829395,-0.18573475,0.17829686,0.90078294,-0.43914515,1.5479797,-0.2783755,-0.72132695,-0.0988236,1.4488201,1.4495376
-0.2,-0.2,0.6,-0.5235987755982988,-0.34906585039886584,0.34906585039886606,1.5577003,1.3994172,0.32876825,0.5900341,-0.1711936,0.154767,0.9020688,-0.44899085,1.5511649,-0.320315,-0.73284155,-0.13073415,1.445548,1.8106318
