sanky1234/BimanualDexCatch/isaacgymenvs/cem_results/football_pose_-0.2_0.0_0.7_-0.5235987755982988_0.0_0_2025-05-24.csv
x,y,z,roll,pitch,yaw,robot1/joint1,robot1/joint2,robot1/joint3,robot1/joint4,robot1/joint5,robot1/joint6,robot1/joint7,robot2/joint1,robot2/joint2,robot2/joint3,robot2/joint4,robot2/joint5,robot2/joint6,robot2/joint7
-0.2,0.0,0.7,-0.5235987755982988,0.0,0,0.83375186,1.8104725,0.07997109,-0.917391,0.42905506,1.4825678,-0.33744717,-0.75570685,1.3362721,0.21678743,-0.14845414,-0.15000844,1.441183,2.2014203
-0.2,0.0,0.7,-0.5235987755982988,0.0,0,0.84337854,1.828552,0.080207124,-0.90964454,0.4595917,1.4790083,-0.3629555,-0.75430816,1.3325987,0.21926458,-0.14937574,-0.15067162,1.4441625,2.1835635
-0.2,0.0,0.7,-0.5235987755982988,0.0,0,0.84063196,1.8049538,0.04266426,-0.9160094,0.41410547,1.4790328,-0.3561357,-0.74371105,1.335167,0.2116922,-0.15902649,-0.15428337,1.449829,2.2861483
-0.2,0.0,0.7,-0.5235987755982988,0.0,0,0.8370948,1.8136089,0.04755982,-0.9257916,0.4217173,1.4856313,-0.3807331,-0.75322294,1.334296,0.22163305,-0.15104829,-0.15227732,1.4507462,2.2915595
-0.2,0.0,0.7,-0.5235987755982988,0.0,0,0.8377567,1.8278729,0.08571604,-0.92082804,0.40454918,1.4901718,-0.35181788,-0.7507484,1.3411257,0.21735488,-0.15513383,-0.15041552,1.4307752,2.1961768
-0.2,0.0,0.7,-0.5235987755982988,0.0,0,0.82640207,1.8339877,0.10318737,-0.91914105,0.40735006,1.4810642,-0.37236515,-0.75349855,1.3342426,0.21731025,-0.15826531,-0.15632138,1.4541014,2.2155058
-0.2,0.0,0.7,-0.5235987755982988,0.0,0,0.83921707,1.8069408,0.07105086,-0.9138659,0.4047484,1.4722762,-0.35453317,-0.75878567,1.3266534,0.21480083,-0.15362586,-0.15408689,1.4488858,2.1426268
-0.2,0.0,0.7,-0.5235987755982988,0.0,0,0.8435198,1.8252281,0.10038196,-0.9189067,0.42141366,1.4845747,-0.34466627,-0.75007933,1.3305964,0.2148919,-0.1490729,-0.15085784,1.4345418,2.2628736
-0.2,0.0,0.7,-0.5235987755982988,0.0,0,0.83607376,1.8212999,0.10895233,-0.89967835,0.4441376,1.4776461,-0.3448052,-0.74877155,1.3307163,0.21647419,-0.14989908,-0.15385543,1.4353007,2.1690223
-0.2,0.0,0.7,-0.5235987755982988,0.0,0,0.84045964,1.8162284,0.028626885,-0.9259258,0.43945608,1.4849261,-0.34883082,-0.7603944,1.3385926,0.21629494,-0.15692522,-0.16088106,1.445318,2.184322
-0.2,0.0,0.7,-0.5235987755982988,0.0,0,0.8402729,1.8273869,0.07715338,-0.92290455,0.4119109,1.4837652,-0.365051,-0.76205003,1.3343902,0.2125125,-0.15009888,-0.15034394,1.438654,2.2055597
-0.2,0.0,0.7,-0.5235987755982988,0.0,0,0.8264077,1.815087,0.07682789,-0.9208645,0.4030771,1.4838666,-0.35946995,-0.7590682,1.3372386,0.2193931,-0.15056214,-0.15380222,1.4522483,2.1880841
-0.2,0.0,0.7,-0.5235987755982988,0.0,0,0.83391905,1.8226739,0.098204754,-0.92989105,0.45365086,1.481106,-0.3584069,-0.7461632,1.3296332,0.23545113,-0.14764768,-0.15655585,1.4411006,2.2367177
-0.2,0.0,0.7,-0.5235987755982988,0.0,0,0.8361947,1.8226755,0.066113986,-0.93056583,0.43697068,1.481456,-0.34524,-0.74834365,1.3339372,0.22285764,-0.15899582,-0.15000713,1.4268321,2.2251902
-0.2,0.0,0.7,-0.5235987755982988,0.0,0,0.85356516,1.812313,0.1080639,-0.9377219,0.38208312,1.4665756,-0.37503678,-0.7592581,1.3277653,0.21565452,-0.1449859,-0.15142407,1.4420524,2.2787743
-0.2,0.0,0.7,-0.5235987755982988,0.0,0,0.8323608,1.8187196,0.07932226,-0.94128317,0.44276485,1.4696625,-0.35006386,-0.7498604,1.3341271,0.21990582,-0.15631278,-0.15645626,1.4390877,2.1798978
-0.2,0.0,0.7,-0.5235987755982988,0.0,0,0.8339967,1.8272984,0.06875523,-0.9180738,0.4356801,1.4625688,-0.36214647,-0.74543357,1.3356415,0.21586825,-0.14981163,-0.15105742,1.4482077,2.1536453
-0.2,0.0,0.7,-0.5235987755982988,0.0,0,0.85209924,1.8262323,0.060095176,-0.92284185,0.43660563,1.461632,-0.37957346,-0.756204,1.3312752,0.22649094,-0.15818912,-0.14698039,1.4507984,2.222064
-0.2,0.0,0.7,-0.5235987755982988,0.0,0,0.8433394,1.8280133,0.05089592,-0.9150465,0.4199576,1.4722824,-0.3282928,-0.75046843,1.335757,0.22664526,-0.1535771,-0.14735883,1.4415327,2.229279
-0.2,0.0,0.7,-0.5235987755982988,0.0,0,0.8265166,1.813636,0.07391741,-0.93218464,0.4189636,1.4741632,-0.3603294,-0.7456807,1.3379573,0.22018473,-0.15283148,-0.15352158,1.4374689,2.19547
-0.2,0.0,0.7,-0.5235987755982988,0.0,0,0.84271556,1.825664,0.061796907,-0.9275072,0.42717656,1.4703751,-0.35172212,-0.75468004,1.334881,0.22016974,-0.15163183,-0.15368198,1.4433672,2.1029515
-0.2,0.0,0.7,-0.5235987755982988,0.0,0,0.8325415,1.8123441,0.07867439,-0.9333086,0.43265116,1.4836447,-0.37600946,-0.75678736,1.3335812,0.22921,-0.15023229,-0.14981261,1.4440426,2.1900277
-0.2,0.0,0.7,-0.5235987755982988,0.0,0,0.8257564,1.8236907,0.085345015,-0.92965156,0.43374056,1.4764609,-0.3657814,-0.75055414,1.3342112,0.22605239,-0.15424319,-0.15419114,1.4430693,2.2448635
-0.2,0.0,0.7,-0.5235987755982988,0.0,0,0.83812046,1.813564,0.05579422,-0.92843306,0.44412923,1.4742457,-0.34628406,-0.7608013,1.3371911,0.23035057,-0.14899133,-0.1484121,1.4441323,2.2635553
-0.2,0.0,0.7,-0.5235987755982988,0.0,0,0.83781433,1.8237247,0.08603324,-0.92137414,0.42414325,1.4644072,-0.37838572,-0.75082314,1.3326193,0.22042164,-0.1561215,-0.14965637,1.4352012,2.1265752
-0.2,0.0,0.7,-0.5235987755982988,0.0,0,0.8368707,1.8240527,0.05712843,-0.9379024,0.434338,1.4695088,-0.35058117,-0.7597645,1.3318955,0.22442466,-0.14648387,-0.15570961,1.445207,2.1875932
-0.2,0.0,0.7,-0.5235987755982988,0.0,0,0.8392732,1.8211926,0.029185303,-0.93882793,0.43423417,1.4678078,-0.35364503,-0.75348026,1.3327628,0.21971774,-0.15417068,-0.15217692,1.439911,2.186463
-0.2,0.0,0.7,-0.5235987755982988,0.0,0,0.8353273,1.8122448,0.049926244,-0.92553073,0.41174215,1.4738419,-0.36467424,-0.75652695,1.3366101,0.22625831,-0.1466023,-0.1522051,1.4391508,2.168233
-0.2,0.0,0.7,-0.5235987755982988,0.0,0,0.84084815,1.819058,0.07909308,-0.9283996,0.39569807,1.4781438,-0.34384167,-0.7591376,1.3290652,0.23362964,-0.14436433,-0.15627417,1.4343247,2.149848
-0.2,0.0,0.7,-0.5235987755982988,0.0,0,0.8427834,1.8261698,0.07399434,-0.9341934,0.42670724,1.4680126,-0.37962824,-0.7482226,1.3350973,0.21773961,-0.15488485,-0.15640828,1.4414383,2.1345677
-0.2,0.0,0.7,-0.5235987755982988,0.0,0,0.84936017,1.8262141,0.05608837,-0.9383984,0.42621264,1.4742857,-0.35348174,-0.749958,1.332587,0.2204279,-0.1552991,-0.14961584,1.430468,2.2256281
-0.2,0.0,0.7,-0.5235987755982988,0.0,0,0.8453563,1.806302,0.07907319,-0.92686915,0.42036596,1.4645478,-0.3679451,-0.751664,1.334619,0.22294085,-0.15371585,-0.14978537,1.4408584,2.2070613
-0.2,0.0,0.7,-0.5235987755982988,0.0,0,0.82991916,1.814106,0.04776984,-0.9382186,0.40564573,1.4786389,-0.35976332,-0.75244176,1.3356913,0.2249857,-0.153901,-0.1588062,1.4451778,2.1611884
-0.2,0.0,0.7,-0.5235987755982988,0.0,0,0.8362753,1.8122818,0.073820785,-0.9366782,0.43722618,1.4682052,-0.35183355,-0.7523654,1.3288727,0.21641874,-0.15262277,-0.14511247,1.4433985,2.1929562
-0.2,0.0,0.7,-0.5235987755982988,0.0,0,0.8470662,1.8169998,0.044605196,-0.930685,0.43524426,1.4684166,-0.3608347,-0.76416963,1.3375523,0.22351742,-0.15665099,-0.14734763,1.4399685,2.1329365
-0.2,0.0,0.7,-0.5235987755982988,0.0,0,0.8326092,1.8110037,0.02264338,-0.94143164,0.43211493,1.4776611,-0.362055,-0.75712097,1.3339984,0.21947834,-0.15652259,-0.14667508,1.4368527,2.235352
-0.2,0.0,0.7,-0.5235987755982988,0.0,0,0.8393768,1.8227888,0.070143394,-0.9347116,0.42381877,1.4672803,-0.37328526,-0.7619927,1.3323815,0.2240269,-0.14972597,-0.1499892,1.4421825,2.2218814
-0.2,0.0,0.7,-0.5235987755982988,0.0,0,0.8316237,1.8252484,0.045497533,-0.9349318,0.4164973,1.479406,-0.3597813,-0.7486554,1.3330185,0.22895952,-0.15467153,-0.15344056,1.4409244,2.2078474
-0.2,0.0,0.7,-0.5235987755982988,0.0,0,0.83901566,1.8215775,0.067644246,-0.93350124,0.41314572,1.4744846,-0.3977018,-0.7593186,1.3330245,0.22251861,-0.15617004,-0.14894983,1.4393896,2.1912072
-0.2,0.0,0.7,-0.5235987755982988,0.0,0,0.8393267,1.8093141,0.09346662,-0.9456838,0.418018,1.4836361,-0.36314678,-0.7483931,1.3339202,0.21462482,-0.15274596,-0.15584046,1.4367672,2.0971735
-0.2,0.0,0.7,-0.5235987755982988,0.0,0,0.83822584,1.8336917,0.0526569,-0.9466999,0.41988823,1.4815531,-0.3487143,-0.7659875,1.3367248,0.22051145,-0.1537141,-0.14664596,1.443395,2.1589148
-0.2,0.0,0.7,-0.5235987755982988,0.0,0,0.83675885,1.808429,0.071818,-0.9399833,0.4264766,1.4747936,-0.35802343,-0.7547807,1.329012,0.22166638,-0.16049804,-0.15597457,1.443893,2.233253
-0.2,0.0,0.7,-0.5235987755982988,0.0,0,0.8286743,1.833137,0.07459477,-0.9325648,0.42230985,1.4798162,-0.372567,-0.75272685,1.335383,0.2157356,-0.14357257,-0.14645545,1.4358906,2.1658814
-0.2,0.0,0.7,-0.5235987755982988,0.0,0,0.8421586,1.8181254,0.08731505,-0.93149513,0.42277083,1.469151,-0.36802265,-0.74235857,1.3354279,0.2249729,-0.15250629,-0.15627669,1.444238,2.2372136
-0.2,0.0,0.7,-0.5235987755982988,0.0,0,0.84526706,1.8320209,0.06293152,-0.9350451,0.4324746,1.480876,-0.38412672,-0.74949884,1.3343846,0.21730767,-0.15135281,-0.15317734,1.4403981,2.1823874
-0.2,0.0,0.7,-0.5235987755982988,0.0,0,0.83243144,1.8247472,0.061344665,-0.9323271,0.4318594,1.4687651,-0.37489438,-0.75320214,1.3351316,0.22121887,-0.14829004,-0.14885665,1.447745,2.1395874
-0.2,0.0,0.7,-0.5235987755982988,0.0,0,0.8320947,1.8098545,0.071536094,-0.9347096,0.4449251,1.4841168,-0.36630458,-0.74180114,1.3352093,0.22696821,-0.14661954,-0.15097943,1.4448425,2.1919034
-0.2,0.0,0.7,-0.5235987755982988,0.0,0,0.83358043,1.8203802,0.092908494,-0.92882836,0.44630358,1.4665046,-0.36830068,-0.7567847,1.3362931,0.22219965,-0.14836273,-0.15406835,1.449166,2.1445415
-0.2,0.0,0.7,-0.5235987755982988,0.0,0,0.83434075,1.8161922,0.03741767,-0.9278854,0.42042848,1.4761811,-0.3659096,-0.743724,1.3304062,0.22378352,-0.15200342,-0.14515992,1.4463818,2.1779652
-0.2,0.0,0.7,-0.5235987755982988,0.0,0,0.8338173,1.822128,0.064347215,-0.92929065,0.42943633,1.4703736,-0.35996068,-0.74838924,1.3354291,0.21824841,-0.15080301,-0.15417282,1.4521147,2.1458027
-0.2,0.0,0.7,-0.5235987755982988,0.0,0,0.8337119,1.8234103,0.070499234,-0.90915173,0.40998182,1.4535922,-0.3475107,-0.7514808,1.3376398,0.22125192,-0.15328287,-0.15580411,1.4345727,2.2320619
-0.2,0.0,0.7,-0.5235987755982988,0.0,0,0.8502135,1.8079702,0.0766057,-0.9515113,0.4046044,1.4926487,-0.34893656,-0.75464034,1.332167,0.21364358,-0.15507711,-0.14775339,1.4361856,2.1370132
-0.2,0.0,0.7,-0.5235987755982988,0.0,0,0.84535366,1.8235991,0.092055626,-0.92354447,0.43448794,1.4731767,-0.3710873,-0.7549201,1.3299106,0.22316337,-0.15858154,-0.15352996,1.4428022,2.2314847
-0.2,0.0,0.7,-0.5235987755982988,0.0,0,0.84361166,1.8213593,0.08218856,-0.9291653,0.40183848,1.4664361,-0.3670372,-0.7521564,1.334004,0.22140539,-0.15619749,-0.15301226,1.4374578,2.1627882
-0.2,0.0,0.7,-0.5235987755982988,0.0,0,0.8405612,1.8133223,0.04403216,-0.92010146,0.4305957,1.4643438,-0.3727518,-0.7539643,1.3348547,0.21598123,-0.15443097,-0.15361218,1.4413798,2.2191582
-0.2,0.0,0.7,-0.5235987755982988,0.0,0,0.8293454,1.8063307,0.08063456,-0.938305,0.40407836,1.485888,-0.3775201,-0.7468802,1.3327534,0.21667704,-0.15223742,-0.1526942,1.450665,2.2406967
-0.2,0.0,0.7,-0.5235987755982988,0.0,0,0.8461728,1.8038069,0.035448495,-0.93325496,0.44495463,1.4780815,-0.34163433,-0.7426324,1.3266808,0.21826097,-0.15014014,-0.14829774,1.4533812,2.1618128
-0.2,0.0,0.7,-0.5235987755982988,0.0,0,0.84441155,1.826806,0.091274545,-0.93135846,0.43215796,1.4696208,-0.35432252,-0.7613928,1.3347703,0.2200842,-0.1547522,-0.14841507,1.439484,2.269766
-0.2,0.0,0.7,-0.5235987755982988,0.0,0,0.8343857,1.8345801,0.07890696,-0.93253124,0.41854385,1.4760628,-0.36443874,-0.742249,1.3326217,0.21976225,-0.15691371,-0.15044019,1.4455531,2.231206
-0.2,0.0,0.7,-0.5235987755982988,0.0,0,0.8249915,1.8158858,0.042667273,-0.9410412,0.43403918,1.478918,-0.37580702,-0.7496801,1.335709,0.21981113,-0.15289208,-0.14836547,1.4470693,2.250732
-0.2,0.0,0.7,-0.5235987755982988,0.0,0,0.8528104,1.8160223,0.068580024,-0.9390535,0.41033763,1.4758637,-0.35660535,-0.74884164,1.3356838,0.22355813,-0.15486017,-0.1605055,1.4438821,2.1376688
-0.2,0.0,0.7,-0.5235987755982988,0.0,0,0.8415249,1.8216629,0.05628416,-0.92927283,0.4276527,1.4697795,-0.3574292,-0.7495097,1.3350419,0.22056618,-0.15484779,-0.15549754,1.4434819,2.2156224
-0.2,0.0,0.7,-0.5235987755982988,0.0,0,0.83568907,1.8235005,0.050056767,-0.921847,0.43371725,1.4679053,-0.3647184,-0.7478596,1.3383212,0.22056013,-0.16066635,-0.1465497,1.4417462,2.1465278
-0.2,0.0,0.7,-0.5235987755982988,0.0,0,0.8397801,1.8158478,0.11233924,-0.9384862,0.42470044,1.4681107,-0.35548246,-0.74850565,1.3379154,0.21625152,-0.14458059,-0.1482744,1.4395908,2.2471023
-0.2,0.0,0.7,-0.5235987755982988,0.0,0,0.84001815,1.8205372,0.05720949,-0.9302714,0.42880037,1.4673655,-0.3658604,-0.75705314,1.3329545,0.22043332,-0.15590118,-0.15378402,1.4383893,2.1847043
-0.2,0.0,0.7,-0.5235987755982988,0.0,0,0.8413819,1.8232217,0.053856723,-0.9315071,0.4360259,1.4711086,-0.3504107,-0.75753397,1.3317702,0.21803544,-0.14717835,-0.14815074,1.4330878,2.2408185
-0.2,0.0,0.7,-0.5235987755982988,0.0,0,0.83637697,1.8181481,0.07922355,-0.9270369,0.45460638,1.4746513,-0.37803948,-0.7493621,1.3326135,0.21904258,-0.1517422,-0.14812005,1.4447165,2.124802
-0.2,0.0,0.7,-0.5235987755982988,0.0,0,0.83440566,1.8159522,0.071438834,-0.9343512,0.41977006,1.4732277,-0.35102054,-0.7489761,1.3340827,0.21542367,-0.15387598,-0.15650742,1.4335155,2.2466373
-0.2,0.0,0.7,-0.5235987755982988,0.0,0,0.82772905,1.8111079,0.084151946,-0.92994416,0.42031395,1.4703754,-0.362595,-0.7624974,1.336327,0.22367704,-0.15051077,-0.14806242,1.4346819,2.2026498
-0.2,0.0,0.7,-0.5235987755982988,0.0,0,0.8285245,1.825748,0.09652927,-0.9225416,0.41821483,1.4623291,-0.3518856,-0.7662358,1.3340126,0.22205335,-0.1483047,-0.15090045,1.4471748,2.1651266
-0.2,0.0,0.7,-0.5235987755982988,0.0,0,0.83744735,1.8049711,0.06584166,-0.9373009,0.46325976,1.4702396,-0.35200605,-0.7558708,1.3353598,0.2171108,-0.1541645,-0.16011733,1.4426931,2.1688092
-0.2,0.0,0.7,-0.5235987755982988,0.0,0,0.8448293,1.8255677,0.09963139,-0.92791575,0.4225901,1.4688338,-0.36549845,-0.7703492,1.333804,0.21874847,-0.16295063,-0.15079683,1.444559,2.0730333
-0.2,0.0,0.7,-0.5235987755982988,0.0,0,0.8408862,1.813498,0.08786123,-0.93229,0.42757377,1.469913,-0.3551051,-0.7655613,1.3344216,0.22207755,-0.15212244,-0.1532109,1.4428335,2.1791306
-0.2,0.0,0.7,-0.5235987755982988,0.0,0,0.83228725,1.8187755,0.059814423,-0.9260887,0.43335202,1.4760619,-0.380953,-0.7538523,1.3363514,0.22344618,-0.15853071,-0.15337552,1.4439105,2.1325042
-0.2,0.0,0.7,-0.5235987755982988,0.0,0,0.84156704,1.8142779,0.11000825,-0.93841225,0.4082162,1.4743567,-0.37078834,-0.74699825,1.3303076,0.21559936,-0.15530512,-0.15625058,1.4488652,2.2211418
-0.2,0.0,0.7,-0.5235987755982988,0.0,0,0.8522497,1.8166398,0.05972623,-0.94281906,0.41309917,1.4912401,-0.35029975,-0.7495515,1.3367474,0.22226633,-0.15657997,-0.15304747,1.4378785,2.1734269
-0.2,0.0,0.7,-0.5235987755982988,0.0,0,0.8380203,1.8190224,0.09509524,-0.9332984,0.43233746,1.4753944,-0.37253428,-0.74772704,1.3380003,0.2149375,-0.15345031,-0.15173472,1.451832,2.1557171
-0.2,0.0,0.7,-0.5235987755982988,0.0,0,0.8398581,1.8203392,0.09313525,-0.9349263,0.42182752,1.4759402,-0.33872885,-0.7502202,1.3322189,0.228237,-0.15040924,-0.152168,1.4462069,2.2074928
-0.2,0.0,0.7,-0.5235987755982988,0.0,0,0.8466709,1.83579,0.0647118,-0.91870177,0.40541977,1.4664603,-0.35289484,-0.76159245,1.3336952,0.22041334,-0.15758927,-0.1547932,1.4382541,2.1869125
-0.2,0.0,0.7,-0.5235987755982988,0.0,0,0.83228683,1.8264205,0.03274343,-0.94005066,0.42999083,1.4849532,-0.3761356,-0.75278383,1.3304144,0.22250147,-0.15509789,-0.15435699,1.4366665,2.2007606
-0.2,0.0,0.7,-0.5235987755982988,0.0,0,0.8349834,1.8268889,0.05786709,-0.9251921,0.4306541,1.4692742,-0.37305707,-0.7558653,1.3310571,0.2172376,-0.14994755,-0.1589881,1.4414133,2.1680436
-0.2,0.0,0.7,-0.5235987755982988,0.0,0,0.84362936,1.8116031,0.05703603,-0.9408529,0.40986928,1.481354,-0.344113,-0.76193774,1.3303286,0.22100984,-0.14960167,-0.15134911,1.44364,2.2229621
-0.2,0.0,0.7,-0.5235987755982988,0.0,0,0.81976104,1.8135828,0.089563385,-0.93459606,0.42439735,1.4717851,-0.35496455,-0.7567896,1.3370275,0.21589667,-0.15088946,-0.15021455,1.4453263,2.2047575
-0.2,0.0,0.7,-0.5235987755982988,0.0,0,0.8426499,1.8032724,0.0120629165,-0.9247478,0.39852417,1.4650686,-0.37578914,-0.747443,1.3363273,0.21807235,-0.15564606,-0.15259214,1.4448693,2.1887667
-0.2,0.0,0.7,-0.5235987755982988,0.0,0,0.8350791,1.810954,0.05000467,-0.9279057,0.42634696,1.4702803,-0.33229184,-0.7510636,1.3388418,0.21808405,-0.15271294,-0.15176196,1.4425075,2.1459696
-0.2,0.0,0.7,-0.5235987755982988,0.0,0,0.84798104,1.812648,0.07306903,-0.9179565,0.4100727,1.4774024,-0.37439796,-0.7584406,1.3322419,0.22579952,-0.15930644,-0.14888923,1.443825,2.1101918
-0.2,0.0,0.7,-0.5235987755982988,0.0,0,0.8398117,1.8072019,0.066999495,-0.9230782,0.44099495,1.4768535,-0.3590914,-0.7473431,1.3314207,0.2250658,-0.15917721,-0.15452603,1.4422382,2.1311467
-0.2,0.0,0.7,-0.5235987755982988,0.0,0,0.8473828,1.8201933,0.09738444,-0.9230805,0.4165131,1.4686451,-0.35815015,-0.7422399,1.3344883,0.21746758,-0.15234491,-0.15221855,1.4402423,2.144153
-0.2,0.0,0.7,-0.5235987755982988,0.0,0,0.8408621,1.8325744,0.103699856,-0.92605716,0.4417605,1.4886363,-0.36827898,-0.7503517,1.3341087,0.22334702,-0.15789628,-0.15189756,1.4396304,2.247201
-0.2,0.0,0.7,-0.5235987755982988,0.0,0,0.8428865,1.8228741,0.07119667,-0.92374414,0.4479487,1.4719048,-0.37468177,-0.7561976,1.3357506,0.22511105,-0.14696291,-0.15059505,1.4488839,2.1330438
-0.2,0.0,0.7,-0.5235987755982988,0.0,0,0.8443799,1.8267331,0.061152916,-0.9194447,0.44606057,1.4706867,-0.34160414,-0.7526578,1.3300444,0.21440153,-0.15588754,-0.15285462,1.4371772,2.1317883
-0.2,0.0,0.7,-0.5235987755982988,0.0,0,0.83666813,1.8141555,0.06760536,-0.9173033,0.4100674,1.4687787,-0.34873983,-0.75034577,1.3365396,0.22108151,-0.15330212,-0.1504484,1.4384997,2.0691028
-0.2,0.0,0.7,-0.5235987755982988,0.0,0,0.8221967,1.8278042,0.097410254,-0.926728,0.4508393,1.4729873,-0.358831,-0.74953306,1.3373259,0.22297232,-0.1538479,-0.15293384,1.4469885,2.2024395
-0.2,0.0,0.7,-0.5235987755982988,0.0,0,0.84828764,1.8218374,0.08088999,-0.9202949,0.4198066,1.4730012,-0.37055367,-0.74755335,1.3330951,0.21481895,-0.15293166,-0.14927925,1.4452517,2.1694992
-0.2,0.0,0.7,-0.5235987755982988,0.0,0,0.82378757,1.827445,0.04594652,-0.91961086,0.42894414,1.4682167,-0.36995995,-0.75433564,1.3330011,0.21848184,-0.14845042,-0.15062259,1.435814,2.1618903
-0.2,0.0,0.7,-0.5235987755982988,0.0,0,0.839972,1.82544,0.051603854,-0.9241397,0.41631266,1.4727442,-0.38648114,-0.7477211,1.333129,0.22447178,-0.15262444,-0.15529804,1.4378117,2.1382713
-0.2,0.0,0.7,-0.5235987755982988,0.0,0,0.85888124,1.8282647,0.078310415,-0.9253105,0.42642412,1.4679526,-0.37129995,-0.7492616,1.3295344,0.21946192,-0.15017907,-0.14949134,1.4426845,2.2851102
-0.2,0.0,0.7,-0.5235987755982988,0.0,0,0.8407955,1.8201092,0.08691275,-0.9272061,0.4097435,1.4731139,-0.38059014,-0.75799185,1.3325751,0.21276405,-0.15700096,-0.15609628,1.4401827,2.1607716
-0.2,0.0,0.7,-0.5235987755982988,0.0,0,0.83102596,1.820029,0.055796362,-0.923565,0.41491258,1.4739537,-0.3622151,-0.7531022,1.3344392,0.22363518,-0.15833916,-0.14818932,1.4351268,2.2363732
-0.2,0.0,0.7,-0.5235987755982988,0.0,0,0.8306987,1.8191897,0.07296759,-0.9295856,0.41167894,1.4725264,-0.35527962,-0.75168306,1.3310785,0.22455283,-0.14687413,-0.15648627,1.4540138,2.2584488
-0.2,0.0,0.7,-0.5235987755982988,0.0,0,0.85285676,1.81577,0.07573954,-0.93081886,0.4495638,1.4756154,-0.3565325,-0.75363046,1.3332313,0.22370821,-0.1550855,-0.1544121,1.4462979,2.2075787
-0.2,0.0,0.7,-0.5235987755982988,0.0,0,0.8397164,1.8217106,0.087673165,-0.9336256,0.42717978,1.4804745,-0.36718127,-0.7540587,1.3371383,0.22338676,-0.15724997,-0.15040676,1.4384931,2.2160904
-0.2,0.0,0.7,-0.5235987755982988,0.0,0,0.83284163,1.8082399,0.0988168,-0.92514366,0.43902996,1.4701188,-0.39212584,-0.76637524,1.330095,0.22232156,-0.15654129,-0.15510772,1.450674,2.19412
-0.2,0.0,0.7,-0.5235987755982988,0.0,0,0.8372762,1.8196784,0.04926816,-0.93480474,0.41292912,1.4742929,-0.35977274,-0.74871874,1.3336023,0.22177579,-0.15370496,-0.15120009,1.4465219,2.1834724
-0.2,0.0,0.7,-0.5235987755982988,0.0,0,0.84080213,1.8109314,0.03867922,-0.9344836,0.42167747,1.4750034,-0.35938245,-0.75459915,1.337679,0.22049212,-0.1550018,-0.15386237,1.4382155,2.2730722
-0.2,0.0,0.7,-0.5235987755982988,0.0,0,0.833498,1.8082554,0.09961127,-0.9352174,0.4169541,1.4738551,-0.36369568,-0.7499275,1.3359581,0.21565999,-0.1581266,-0.15620063,1.4484097,2.1936693
-0.2,0.0,0.7,-0.5235987755982988,0.0,0,0.8448525,1.8212663,0.08036048,-0.9251476,0.45943424,1.4711354,-0.36970472,-0.7510166,1.3348923,0.2181497,-0.15090315,-0.15306902,1.4403119,2.1793358
-0.2,0.0,0.7,-0.5235987755982988,0.0,0,0.8417156,1.8092448,0.07054445,-0.93108994,0.4263636,1.4749752,-0.35188997,-0.7461828,1.3332727,0.21826293,-0.16128308,-0.14847094,1.4411285,2.2354527
-0.2,0.0,0.7,-0.5235987755982988,0.0,0,0.8363784,1.8191714,0.05927393,-0.9110203,0.4557238,1.4662211,-0.3550649,-0.7514621,1.3345628,0.21912749,-0.14915839,-0.1562916,1.4495386,2.1128132
-0.2,0.0,0.7,-0.5235987755982988,0.0,0,0.8489515,1.8010483,0.040265586,-0.93581647,0.41385263,1.4753251,-0.3519843,-0.75156856,1.3296683,0.21802007,-0.15360628,-0.1528542,1.4399219,2.2283688
-0.2,0.0,0.7,-0.5235987755982988,0.0,0,0.8308085,1.8152301,0.06537985,-0.9324509,0.44258893,1.4719391,-0.36763686,-0.7566985,1.3310667,0.21791577,-0.151274,-0.1512406,1.4448073,2.146434
-0.2,0.0,0.7,-0.5235987755982988,0.0,0,0.8428372,1.8174624,0.0782293,-0.9373187,0.41780508,1.477739,-0.3603558,-0.75635755,1.3321172,0.2262886,-0.14629674,-0.15196887,1.442057,2.1803017
-0.2,0.0,0.7,-0.5235987755982988,0.0,0,0.8375466,1.8235514,0.099697076,-0.9297961,0.40308595,1.4707912,-0.37513477,-0.7560863,1.3324028,0.21264237,-0.1496575,-0.14604114,1.4319581,2.1849597
-0.2,0.0,0.7,-0.5235987755982988,0.0,0,0.8337813,1.8087667,0.10343108,-0.9158077,0.42010602,1.4697691,-0.39866826,-0.74494267,1.3298118,0.21999048,-0.15667336,-0.1501756,1.454868,2.146162
-0.2,0.0,0.7,-0.5235987755982988,0.0,0,0.8383208,1.8300577,0.032250736,-0.9296847,0.43159488,1.4733078,-0.34557593,-0.7603258,1.3445303,0.2189448,-0.16136469,-0.1534382,1.4423549,2.0865057
-0.2,0.0,0.7,-0.5235987755982988,0.0,0,0.8426934,1.8166486,0.10966685,-0.92975956,0.4301443,1.4783782,-0.35752288,-0.75546664,1.3301736,0.22623967,-0.14905179,-0.14903283,1.4510455,2.1680026
-0.2,0.0,0.7,-0.5235987755982988,0.0,0,0.8340946,1.8281717,0.057094768,-0.9288453,0.41538247,1.475716,-0.35105246,-0.75782645,1.3339552,0.21875973,-0.14458482,-0.15648647,1.4536896,2.1080143
-0.2,0.0,0.7,-0.5235987755982988,0.0,0,0.82998306,1.8279767,0.08964135,-0.9273249,0.42219165,1.483224,-0.3730642,-0.76232916,1.3338661,0.22363006,-0.15092845,-0.15567522,1.4315035,2.1776674
-0.2,0.0,0.7,-0.5235987755982988,0.0,0,0.84433347,1.8132216,0.046857215,-0.9187663,0.44236004,1.472861,-0.35556793,-0.7527471,1.3281584,0.2163241,-0.15418407,-0.15095332,1.4425504,2.0889997
-0.2,0.0,0.7,-0.5235987755982988,0.0,0,0.8294971,1.8200082,0.056759067,-0.9200908,0.43595856,1.4769168,-0.3555543,-0.7572271,1.3368051,0.22485632,-0.14763686,-0.14945105,1.4343239,2.10265
-0.2,0.0,0.7,-0.5235987755982988,0.0,0,0.84754753,1.8243651,0.04923302,-0.92392963,0.4437601,1.4746838,-0.3477093,-0.751973,1.3340843,0.21548094,-0.15162566,-0.15264246,1.4416533,2.211578
-0.2,0.0,0.7,-0.5235987755982988,0.0,0,0.8315315,1.8134332,0.06730998,-0.92262477,0.4060779,1.4679339,-0.33814466,-0.7503374,1.3341221,0.22270808,-0.14354531,-0.15217666,1.4518203,2.190346
-0.2,0.0,0.7,-0.5235987755982988,0.0,0,0.8437072,1.8114556,0.047617603,-0.9251799,0.41565183,1.4795573,-0.35616723,-0.74489284,1.3297182,0.21735966,-0.15431717,-0.1568056,1.4447701,2.1474898
-0.2,0.0,0.7,-0.5235987755982988,0.0,0,0.83879644,1.7998658,0.086558074,-0.9276165,0.41538596,1.4757903,-0.358764,-0.759477,1.3305693,0.22171247,-0.15064147,-0.15221874,1.444855,2.1292248
-0.2,0.0,0.7,-0.5235987755982988,0.0,0,0.8443395,1.8234372,0.06029719,-0.9198988,0.42019504,1.4805665,-0.35056123,-0.7520802,1.3271748,0.22175656,-0.15407188,-0.1585483,1.4387709,2.156434
-0.2,0.0,0.7,-0.5235987755982988,0.0,0,0.8392563,1.8094338,0.09214376,-0.92549765,0.4120049,1.4627705,-0.3585378,-0.74616975,1.3318124,0.21646804,-0.15618673,-0.15494567,1.4455734,2.1881707
-0.2,0.0,0.7,-0.5235987755982988,0.0,0,0.8293352,1.8273746,0.039404538,-0.93016577,0.42603877,1.4744362,-0.36160386,-0.75758505,1.337834,0.21672729,-0.15139852,-0.15324388,1.4423025,2.162992
-0.2,0.0,0.7,-0.5235987755982988,0.0,0,0.83165044,1.8198481,0.085044846,-0.92572594,0.41299024,1.468515,-0.3785802,-0.7579633,1.3336753,0.22265776,-0.15271643,-0.1513535,1.4414893,2.1959271
-0.2,0.0,0.7,-0.5235987755982988,0.0,0,0.83655024,1.814737,0.114646114,-0.9215442,0.40263656,1.4707068,-0.3490754,-0.75595444,1.3391387,0.23293345,-0.1509233,-0.15574661,1.45324,2.3072724
-0.2,0.0,0.7,-0.5235987755982988,0.0,0,0.8451657,1.8252122,0.08983223,-0.90874934,0.4187876,1.4728986,-0.37848064,-0.75570744,1.3301044,0.22542398,-0.14849983,-0.15680325,1.433864,2.1771483
-0.2,0.0,0.7,-0.5235987755982988,0.0,0,0.8481396,1.8069292,0.039645445,-0.9387935,0.41160348,1.4782202,-0.3445939,-0.7546272,1.3314201,0.21552,-0.14401574,-0.15386496,1.4360461,2.165425
-0.2,0.0,0.7,-0.5235987755982988,0.0,0,0.8346288,1.8155223,0.08537557,-0.93493885,0.445801,1.4771478,-0.37288323,-0.7489939,1.3376877,0.22141692,-0.14638276,-0.15116969,1.4481432,2.1687412
-0.2,0.0,0.7,-0.5235987755982988,0.0,0,0.8564567,1.826077,0.06672909,-0.9139502,0.444269,1.479317,-0.3374683,-0.75691605,1.3350055,0.22292408,-0.147499,-0.15431689,1.4393327,2.0245254
-0.2,0.0,0.7,-0.5235987755982988,0.0,0,0.8467519,1.8136098,0.062151372,-0.92091036,0.44901684,1.4681147,-0.3346573,-0.7535343,1.3357729,0.21994,-0.15937468,-0.14904273,1.4495263,2.0988936
-0.2,0.0,0.7,-0.5235987755982988,0.0,0,0.8427521,1.8245541,0.08028559,-0.9175246,0.4050128,1.473896,-0.35809317,-0.76788455,1.3292338,0.22223902,-0.1447917,-0.15313432,1.4386194,2.1089232
-0.2,0.0,0.7,-0.5235987755982988,0.0,0,0.84856397,1.8234243,0.06604951,-0.92682135,0.42836553,1.4776798,-0.35530844,-0.746784,1.3317341,0.22027719,-0.15440911,-0.15718837,1.4428399,2.1510847
-0.2,0.0,0.7,-0.5235987755982988,0.0,0,0.8428341,1.824963,0.064479016,-0.92832994,0.42073,1.4752018,-0.38344514,-0.75979036,1.3289099,0.22308277,-0.15723163,-0.15282626,1.4475051,2.168863
-0.2,0.0,0.7,-0.5235987755982988,0.0,0,0.8443485,1.813415,0.06453257,-0.9365292,0.43386722,1.482784,-0.3558284,-0.763189,1.3337909,0.22240072,-0.15430269,-0.15154783,1.4339923,2.161723
-0.2,0.0,0.7,-0.5235987755982988,0.0,0,0.8425087,1.8153707,0.08847323,-0.9259331,0.41196513,1.4761921,-0.3762763,-0.75153434,1.3339244,0.22398761,-0.14567356,-0.15285645,1.4443557,2.1432638
-0.2,0.0,0.7,-0.5235987755982988,0.0,0,0.8345622,1.8147699,0.039255958,-0.9211089,0.44126844,1.483196,-0.36109173,-0.7453775,1.3340681,0.21840738,-0.15330286,-0.14558068,1.4543945,2.1714623
-0.2,0.0,0.7,-0.5235987755982988,0.0,0,0.83917624,1.8132344,0.059854753,-0.9211163,0.43638146,1.4698037,-0.38336542,-0.75847435,1.3369204,0.21373965,-0.15257856,-0.15178248,1.4365505,2.149795
-0.2,0.0,0.7,-0.5235987755982988,0.0,0,0.8447966,1.8209276,0.070532486,-0.931917,0.4079609,1.4816616,-0.36635333,-0.7481807,1.3307099,0.21935642,-0.15533553,-0.1526033,1.4420481,2.2025204
-0.2,0.0,0.7,-0.5235987755982988,0.0,0,0.8269187,1.8264847,0.066560745,-0.9314816,0.45554572,1.478794,-0.3737283,-0.74902606,1.3337275,0.22260746,-0.15351595,-0.15441342,1.4521147,2.2258346
-0.2,0.0,0.7,-0.5235987755982988,0.0,0,0.83822787,1.813899,0.10231111,-0.9268507,0.41585886,1.4713279,-0.3855784,-0.76046604,1.3356965,0.21562147,-0.14842817,-0.15465677,1.4371043,2.2282152
-0.2,0.0,0.7,-0.5235987755982988,0.0,0,0.83299834,1.8392884,0.08447578,-0.9255381,0.41964284,1.4739312,-0.35525304,-0.75380594,1.3318884,0.2173927,-0.15229018,-0.15609863,1.4481465,2.0862267
-0.2,0.0,0.7,-0.5235987755982988,0.0,0,0.83978164,1.8211946,0.03778811,-0.91415995,0.4212485,1.4737953,-0.35259894,-0.7549656,1.3320261,0.2198769,-0.15474765,-0.14784229,1.4347981,2.190377
-0.2,0.0,0.7,-0.5235987755982988,0.0,0,0.84403306,1.8178699,0.06882058,-0.9224706,0.42069846,1.4646553,-0.37168097,-0.7538803,1.3332546,0.22080883,-0.15610063,-0.15518081,1.4501448,2.2044597
-0.2,0.0,0.7,-0.5235987755982988,0.0,0,0.8465007,1.8092468,0.09068037,-0.9174761,0.41925493,1.4660655,-0.33981055,-0.74948424,1.3377157,0.22473215,-0.14674692,-0.15270182,1.4461348,2.1217036
-0.2,0.0,0.7,-0.5235987755982988,0.0,0,0.844374,1.8261774,0.08982828,-0.9346711,0.41671565,1.4791349,-0.3510024,-0.75125283,1.3353423,0.22128667,-0.1460934,-0.15216601,1.4449171,2.1682532
-0.2,0.0,0.7,-0.5235987755982988,0.0,0,0.8495372,1.820813,0.060965646,-0.932678,0.42154658,1.4800137,-0.35053137,-0.7503452,1.3341489,0.22522414,-0.15222456,-0.15069363,1.4444555,2.3035133
-0.2,0.0,0.7,-0.5235987755982988,0.0,0,0.83603793,1.829504,0.039000828,-0.9192803,0.4110092,1.4698248,-0.3636636,-0.760305,1.3376454,0.21521628,-0.15425886,-0.15250371,1.4450978,2.1286244
-0.2,0.0,0.7,-0.5235987755982988,0.0,0,0.8422705,1.8205539,0.055111323,-0.9268406,0.44664335,1.4770588,-0.36511832,-0.73867023,1.3335509,0.21844009,-0.15821858,-0.15052317,1.4469441,2.1965122
-0.2,0.0,0.7,-0.5235987755982988,0.0,0,0.8523458,1.8087859,0.037183505,-0.9216786,0.45496315,1.4799359,-0.35337737,-0.7463231,1.3370465,0.21680115,-0.15220664,-0.15717557,1.4450744,2.1212432
-0.2,0.0,0.7,-0.5235987755982988,0.0,0,0.8385248,1.8228964,0.05066473,-0.92607296,0.44244477,1.4895717,-0.35368574,-0.75501996,1.3404243,0.22048153,-0.1634249,-0.14849712,1.4492635,2.186658
-0.2,0.0,0.7,-0.5235987755982988,0.0,0,0.8336749,1.820154,0.06721874,-0.9386724,0.431395,1.4916459,-0.35822707,-0.7468061,1.3378949,0.2154902,-0.15565816,-0.15631045,1.4476846,2.0949929
-0.2,0.0,0.7,-0.5235987755982988,0.0,0,0.8455451,1.8077487,0.06980705,-0.9252157,0.39198008,1.4642692,-0.3838106,-0.76266587,1.3311931,0.22614673,-0.15343061,-0.14903735,1.4538245,2.273387
-0.2,0.0,0.7,-0.5235987755982988,0.0,0,0.84559757,1.818132,0.05171241,-0.9300856,0.4039496,1.4789962,-0.36225715,-0.7583294,1.3327799,0.2184338,-0.15142578,-0.15204298,1.4375616,2.156626
-0.2,0.0,0.7,-0.5235987755982988,0.0,0,0.83758175,1.8157221,0.11888101,-0.93493634,0.43725705,1.4839416,-0.38098887,-0.75869066,1.3367528,0.21821702,-0.15040839,-0.1524388,1.4511538,2.1527119
-0.2,0.0,0.7,-0.5235987755982988,0.0,0,0.8414598,1.8251083,0.028916081,-0.9302075,0.42642978,1.4787711,-0.38397893,-0.7562928,1.3328943,0.2199845,-0.15041132,-0.15423991,1.4528563,2.134958
-0.2,0.0,0.7,-0.5235987755982988,0.0,0,0.8393879,1.8200576,0.05872806,-0.9308409,0.44125295,1.48233,-0.37011677,-0.7495909,1.3306965,0.21776749,-0.14892808,-0.15605417,1.4420487,2.1658664
-0.2,0.0,0.7,-0.5235987755982988,0.0,0,0.82478684,1.8314537,0.07221837,-0.91508734,0.4187058,1.4715394,-0.38057414,-0.7514935,1.333168,0.2206023,-0.15344276,-0.1542713,1.4452635,2.1999876
-0.2,0.0,0.7,-0.5235987755982988,0.0,0,0.8306618,1.8156537,0.050648794,-0.9156246,0.42432433,1.4777651,-0.36660984,-0.7742052,1.3333274,0.2244198,-0.14920075,-0.15131539,1.4392163,2.1310775
-0.2,0.0,0.7,-0.5235987755982988,0.0,0,0.8383256,1.8188132,0.057669822,-0.90924335,0.436275,1.4710646,-0.3351957,-0.7501655,1.3365386,0.21478483,-0.15437114,-0.15216912,1.4415115,2.1092608
-0.2,0.0,0.7,-0.5235987755982988,0.0,0,0.83840936,1.8164145,0.055258624,-0.9231351,0.4399492,1.4783479,-0.37003946,-0.7411678,1.3337525,0.21956757,-0.15163983,-0.14966024,1.4382896,2.2171488
-0.2,0.0,0.7,-0.5235987755982988,0.0,0,0.8334993,1.8229879,0.11159856,-0.9284188,0.42391574,1.4783529,-0.37561136,-0.7549001,1.3305061,0.2225047,-0.15675212,-0.16124162,1.4411137,2.249939
-0.2,0.0,0.7,-0.5235987755982988,0.0,0,0.83340186,1.8090485,0.09724645,-0.9192944,0.43005276,1.4658157,-0.3461214,-0.7702182,1.3334517,0.22070058,-0.15216048,-0.15397951,1.4438374,2.2034492
-0.2,0.0,0.7,-0.5235987755982988,0.0,0,0.8444491,1.816438,0.085937805,-0.9138487,0.4437923,1.4667162,-0.35971323,-0.74627185,1.3395594,0.2131292,-0.1542483,-0.157113,1.4420825,2.2216015
-0.2,0.0,0.7,-0.5235987755982988,0.0,0,0.8431165,1.8201752,0.06397909,-0.9231656,0.39160293,1.475366,-0.37155816,-0.7615325,1.3378863,0.23054974,-0.1410102,-0.15528694,1.4487736,2.2145452
-0.2,0.0,0.7,-0.5235987755982988,0.0,0,0.84997594,1.8211464,0.052851025,-0.9250536,0.4645539,1.4793547,-0.37968817,-0.7637629,1.3290308,0.2218713,-0.14946789,-0.15394273,1.4409281,2.2075806
-0.2,0.0,0.7,-0.5235987755982988,0.0,0,0.8363973,1.8226647,0.09482818,-0.92360485,0.41982102,1.4803249,-0.36197564,-0.74983,1.3346251,0.22214282,-0.15141068,-0.15238927,1.4453712,2.1584933
-0.2,0.0,0.7,-0.5235987755982988,0.0,0,0.8346358,1.8153125,0.064868435,-0.9259634,0.42097414,1.4801469,-0.36611122,-0.74559987,1.3355778,0.22059438,-0.15377004,-0.1461494,1.4414977,2.2467656
-0.2,0.0,0.7,-0.5235987755982988,0.0,0,0.83110416,1.8071963,0.09076772,-0.92408544,0.40233615,1.4658704,-0.35930908,-0.75750846,1.3259387,0.22477682,-0.14805253,-0.15941682,1.4477826,2.1654253
-0.2,0.0,0.7,-0.5235987755982988,0.0,0,0.83900124,1.8093163,0.111160845,-0.92868847,0.43754193,1.4838539,-0.35948235,-0.74738944,1.3336759,0.22079246,-0.150907,-0.15159254,1.444461,2.117065
-0.2,0.0,0.7,-0.5235987755982988,0.0,0,0.8246535,1.8240061,0.060272817,-0.9110767,0.43143502,1.4727328,-0.35341635,-0.7594125,1.33762,0.21940349,-0.15673864,-0.15035012,1.4441997,2.1981387
-0.2,0.0,0.7,-0.5235987755982988,0.0,0,0.83830285,1.8215604,0.08952076,-0.9180237,0.44474578,1.474351,-0.35615,-0.7521441,1.3364357,0.2228839,-0.15352005,-0.15393086,1.4400153,2.240719
-0.2,0.0,0.7,-0.5235987755982988,0.0,0,0.8295662,1.8198171,0.09288347,-0.93132955,0.40749255,1.4793288,-0.35182044,-0.75128067,1.3340119,0.21803834,-0.15454067,-0.15544046,1.4513822,2.1859033
-0.2,0.0,0.7,-0.5235987755982988,0.0,0,0.84143347,1.8151516,0.051805694,-0.9272274,0.43670747,1.4772185,-0.3704215,-0.7573988,1.3372979,0.21735387,-0.15050878,-0.15068613,1.4460338,2.1280787
-0.2,0.0,0.7,-0.5235987755982988,0.0,0,0.83077997,1.8150715,0.036054946,-0.920526,0.41090885,1.4712236,-0.37233046,-0.76303756,1.3372014,0.22099134,-0.15177116,-0.1486527,1.4405273,2.216889
-0.2,0.0,0.7,-0.5235987755982988,0.0,0,0.8371046,1.8230505,0.08244236,-0.91623473,0.42572662,1.4790347,-0.3474157,-0.7521525,1.3295337,0.21993867,-0.16175963,-0.15716814,1.4382883,2.1163876
-0.2,0.0,0.7,-0.5235987755982988,0.0,0,0.84329474,1.8211083,0.098853685,-0.9157682,0.4164912,1.4731152,-0.3600184,-0.7589671,1.3334347,0.21440512,-0.15783985,-0.1492099,1.4363791,2.195565
-0.2,0.0,0.7,-0.5235987755982988,0.0,0,0.84991574,1.8209131,0.081722714,-0.9260727,0.43677607,1.4840966,-0.37441516,-0.7605707,1.3326167,0.21729036,-0.15463194,-0.15158409,1.4368234,2.1936731
-0.2,0.0,0.7,-0.5235987755982988,0.0,0,0.8476717,1.8084705,0.09889169,-0.9251992,0.43912014,1.4865133,-0.37987888,-0.7449685,1.3327438,0.22182034,-0.14526793,-0.15437143,1.4522285,2.1102078
-0.2,0.0,0.7,-0.5235987755982988,0.0,0,0.8473747,1.8169632,0.07293844,-0.92321146,0.42172667,1.4778141,-0.37302604,-0.75284535,1.3326709,0.22201307,-0.15891567,-0.15534379,1.4436095,2.272717
-0.2,0.0,0.7,-0.5235987755982988,0.0,0,0.8439818,1.8167963,0.10890893,-0.91087025,0.4284044,1.475809,-0.3497199,-0.7528334,1.3322856,0.21749225,-0.15718435,-0.15518154,1.4565734,2.1433778
-0.2,0.0,0.7,-0.5235987755982988,0.0,0,0.83411276,1.8113629,0.103076234,-0.9247371,0.41849253,1.4806414,-0.35107628,-0.7550027,1.3319732,0.22440846,-0.15548159,-0.15169619,1.4474763,2.227136
-0.2,0.0,0.7,-0.5235987755982988,0.0,0,0.8405898,1.810548,0.060580906,-0.932899,0.41519126,1.4778031,-0.3652987,-0.7541421,1.3308794,0.2191199,-0.15194878,-0.1538883,1.4385123,2.2906501
-0.2,0.0,0.7,-0.5235987755982988,0.0,0,0.8323468,1.8178419,0.083326645,-0.92340696,0.4142888,1.4750624,-0.36052322,-0.7484056,1.3328878,0.21662319,-0.15101825,-0.15120453,1.4426115,2.2113495
-0.2,0.0,0.7,-0.5235987755982988,0.0,0,0.83790106,1.8156574,0.05645633,-0.9195487,0.3900913,1.4781152,-0.35607964,-0.74839234,1.33525,0.21514106,-0.14311549,-0.1545733,1.443772,2.1088035
-0.2,0.0,0.7,-0.5235987755982988,0.0,0,0.83652484,1.8219281,0.10183744,-0.92105633,0.42458445,1.4784129,-0.35121617,-0.75353414,1.3379669,0.21960847,-0.15143524,-0.1553042,1.4413587,2.127862
-0.2,0.0,0.7,-0.5235987755982988,0.0,0,0.84453297,1.8164833,0.089742884,-0.9302802,0.41241068,1.4823179,-0.35057935,-0.7516249,1.3327305,0.2129109,-0.15146849,-0.15228336,1.4381394,2.1434243
-0.2,0.0,0.7,-0.5235987755982988,0.0,0,0.850348,1.8160657,0.02336162,-0.9172903,0.40990907,1.4673711,-0.34675926,-0.76754284,1.3331498,0.22615106,-0.14521496,-0.1512013,1.445325,2.2674403
-0.2,0.0,0.7,-0.5235987755982988,0.0,0,0.84830594,1.8082474,0.052235436,-0.92393345,0.4018352,1.4749097,-0.38733658,-0.7449687,1.3346579,0.2107752,-0.1497639,-0.15345602,1.4423534,2.2112935
-0.2,0.0,0.7,-0.5235987755982988,0.0,0,0.83759207,1.8198849,0.09273584,-0.91052693,0.4435093,1.4715135,-0.36429232,-0.7684219,1.3326372,0.21914443,-0.1536255,-0.15012562,1.4352676,2.1919668
-0.2,0.0,0.7,-0.5235987755982988,0.0,0,0.8270294,1.8133032,0.05944637,-0.91283596,0.43205032,1.4758708,-0.3522773,-0.7521633,1.3345715,0.21831903,-0.15155001,-0.15497676,1.4531274,2.1875396
-0.2,0.0,0.7,-0.5235987755982988,0.0,0,0.8493722,1.808214,0.069063164,-0.9180878,0.45298168,1.4772729,-0.36590216,-0.7444608,1.33522,0.21870911,-0.14694726,-0.15143402,1.4473183,2.2089093
-0.2,0.0,0.7,-0.5235987755982988,0.0,0,0.84387285,1.8209282,0.071047656,-0.9117548,0.44260037,1.4814864,-0.3756418,-0.7549265,1.3291718,0.22027713,-0.16221043,-0.14926842,1.4480555,2.185589
-0.2,0.0,0.7,-0.5235987755982988,0.0,0,0.8394521,1.8134737,0.06130694,-0.9211765,0.43095756,1.4788272,-0.33541134,-0.76632357,1.3346412,0.21827202,-0.15177935,-0.15304399,1.4403027,2.1974835
-0.2,0.0,0.7,-0.5235987755982988,0.0,0,0.8457235,1.833377,0.047525413,-0.9103809,0.42700475,1.4733851,-0.3598344,-0.7537016,1.3333583,0.21922094,-0.15262057,-0.15127887,1.4478722,2.157041
-0.2,0.0,0.7,-0.5235987755982988,0.0,0,0.84336686,1.823733,0.04544636,-0.9193355,0.42852736,1.4855942,-0.37216595,-0.7482628,1.3319148,0.22161011,-0.15473436,-0.1507644,1.4466038,2.2027528
-0.2,0.0,0.7,-0.5235987755982988,0.0,0,0.84079605,1.8195394,0.08018066,-0.9202018,0.40367162,1.4704453,-0.35124356,-0.75277084,1.3333858,0.215674,-0.15605831,-0.15166038,1.4521183,2.2216337
-0.2,0.0,0.7,-0.5235987755982988,0.0,0,0.83065176,1.8153186,0.05927736,-0.92658716,0.44625393,1.481566,-0.36449325,-0.7510136,1.3387567,0.21833889,-0.14270727,-0.1494167,1.4402438,2.2482467
-0.2,0.0,0.7,-0.5235987755982988,0.0,0,0.83214307,1.8133804,0.061091647,-0.93045163,0.4208095,1.4905235,-0.36456832,-0.7566323,1.3353167,0.22234984,-0.1470918,-0.15215321,1.4492325,2.2466881
-0.2,0.0,0.7,-0.5235987755982988,0.0,0,0.8342194,1.818009,0.07371619,-0.9325379,0.41293404,1.4832848,-0.3649343,-0.7439446,1.3306094,0.22164126,-0.14538036,-0.15646173,1.4487408,2.2713182
-0.2,0.0,0.7,-0.5235987755982988,0.0,0,0.83953756,1.8188812,0.09095893,-0.92211974,0.4219207,1.4843106,-0.36303753,-0.75213337,1.3328707,0.21296044,-0.15501958,-0.15494923,1.4339026,2.1403046
-0.2,0.0,0.7,-0.5235987755982988,0.0,0,0.84145635,1.8246734,0.08357463,-0.9155222,0.4131161,1.4694445,-0.3574143,-0.75762707,1.335209,0.21853659,-0.15463361,-0.15794684,1.4408895,2.2387755
-0.2,0.0,0.7,-0.5235987755982988,0.0,0,0.8466731,1.822933,0.09064105,-0.92064446,0.41525725,1.4780086,-0.33349565,-0.75470954,1.331601,0.21492025,-0.14955224,-0.14746433,1.4347196,2.2198048
-0.2,0.0,0.7,-0.5235987755982988,0.0,0,0.84288156,1.8123752,0.0731766,-0.9171326,0.40835413,1.4792049,-0.36878508,-0.7567844,1.3320192,0.22352195,-0.15487698,-0.14694738,1.4406897,2.2166023
-0.2,0.0,0.7,-0.5235987755982988,0.0,0,0.8352173,1.8090546,0.07886099,-0.918657,0.43678838,1.4740182,-0.34803256,-0.75067955,1.3324035,0.21883003,-0.15037334,-0.15242898,1.4424286,2.235762
-0.2,0.0,0.7,-0.5235987755982988,0.0,0,0.86092806,1.8068217,0.0800135,-0.9195086,0.3986493,1.4808911,-0.36338186,-0.75252575,1.3390213,0.21721455,-0.15615436,-0.14964676,1.4429742,2.1711016
-0.2,0.0,0.7,-0.5235987755982988,0.0,0,0.83969617,1.8126662,0.09555544,-0.93491846,0.369175,1.4837481,-0.35886535,-0.75454223,1.3376607,0.21901974,-0.14142467,-0.15250334,1.4464101,2.18866
-0.2,0.0,0.7,-0.5235987755982988,0.0,0,0.8413877,1.8118637,0.09815237,-0.911458,0.44676855,1.48867,-0.3656923,-0.75750786,1.3282166,0.22294551,-0.15893126,-0.15524499,1.4478753,2.1978052
-0.2,0.0,0.7,-0.5235987755982988,0.0,0,0.8416099,1.8269311,0.090259396,-0.9141215,0.4629076,1.4767423,-0.37062153,-0.7483837,1.3326541,0.21126948,-0.15752138,-0.15706946,1.4469874,2.2153122
-0.2,0.0,0.7,-0.5235987755982988,0.0,0,0.8412295,1.824664,0.06573151,-0.9292552,0.41757873,1.4844342,-0.3627708,-0.7530497,1.3394092,0.21327643,-0.15495634,-0.15325098,1.4403311,2.2718828
-0.2,0.0,0.7,-0.5235987755982988,0.0,0,0.83803445,1.8148385,0.10096663,-0.9106023,0.4603637,1.4754635,-0.3615307,-0.7527595,1.3367195,0.22053875,-0.15005395,-0.15666069,1.4455346,2.174398
-0.2,0.0,0.7,-0.5235987755982988,0.0,0,0.8416583,1.812504,0.07664151,-0.9229306,0.42436045,1.4903116,-0.36206636,-0.742668,1.3368227,0.21910352,-0.15258472,-0.1559678,1.446317,2.1802084
-0.2,0.0,0.7,-0.5235987755982988,0.0,0,0.85735303,1.818828,0.07422279,-0.91577816,0.40000296,1.4717773,-0.3476606,-0.7598102,1.3333648,0.2216127,-0.15180774,-0.151791,1.4447172,2.2760835
-0.2,0.0,0.7,-0.5235987755982988,0.0,0,0.8474193,1.8059864,0.06675231,-0.9160071,0.4165015,1.4748096,-0.36513802,-0.75793684,1.336117,0.22160004,-0.14743648,-0.15328704,1.4364032,2.263234
-0.2,0.0,0.7,-0.5235987755982988,0.0,0,0.8384125,1.8088204,0.08613748,-0.9233774,0.41949812,1.477728,-0.3502126,-0.7579766,1.3356769,0.216157,-0.1497046,-0.15395892,1.4409252,2.2043808
-0.2,0.0,0.7,-0.5235987755982988,0.0,0,0.8374276,1.8155017,0.08395693,-0.9102031,0.43833396,1.4786764,-0.35722673,-0.75093704,1.3351244,0.21756876,-0.15815425,-0.15341084,1.4359074,2.2674408
-0.2,0.0,0.7,-0.5235987755982988,0.0,0,0.8460399,1.8173717,0.072427094,-0.9244365,0.4464363,1.4855435,-0.34190467,-0.7532618,1.3367344,0.21336612,-0.15622385,-0.15415397,1.4369053,2.198954
-0.2,0.0,0.7,-0.5235987755982988,0.0,0,0.8473752,1.8067039,0.05459101,-0.92481285,0.42004156,1.4927549,-0.3580204,-0.76318324,1.3361518,0.21954216,-0.14474374,-0.15237154,1.4486164,2.2265236
-0.2,0.0,0.7,-0.5235987755982988,0.0,0,0.83804333,1.8209705,0.11248288,-0.9380072,0.4246866,1.4654553,-0.36798814,-0.75433517,1.329987,0.21895936,-0.15691644,-0.15165046,1.4435712,2.1556044
-0.2,0.0,0.7,-0.5235987755982988,0.0,0,0.83953106,1.8199396,0.028614653,-0.9296554,0.4357638,1.4663147,-0.37305188,-0.7626354,1.3322833,0.21924631,-0.15232502,-0.15070139,1.4384352,2.1202233
-0.2,0.0,0.7,-0.5235987755982988,0.0,0,0.8456564,1.823109,0.09142399,-0.91411084,0.4335786,1.4709496,-0.36037678,-0.7504057,1.3364352,0.21883307,-0.15447696,-0.14962362,1.4369892,2.1991441
-0.2,0.0,0.7,-0.5235987755982988,0.0,0,0.83662647,1.8189111,0.05529757,-0.92270523,0.43640494,1.4730625,-0.36635348,-0.75479215,1.3359432,0.22333115,-0.1528174,-0.14773378,1.4455956,2.2270951
-0.2,0.0,0.7,-0.5235987755982988,0.0,0,0.8340407,1.8168569,0.07384209,-0.93110883,0.39883208,1.4711998,-0.3770629,-0.7480081,1.3355076,0.2180734,-0.15979637,-0.15731223,1.4345095,2.1548083
-0.2,0.0,0.7,-0.5235987755982988,0.0,0,0.82271403,1.8118054,0.077577576,-0.9284797,0.43089408,1.4714935,-0.3420487,-0.75929254,1.3319992,0.21662405,-0.15686935,-0.14955252,1.445952,2.2324734
-0.2,0.0,0.7,-0.5235987755982988,0.0,0,0.8312996,1.8205936,0.09661955,-0.9190757,0.42444187,1.4750394,-0.33633974,-0.7521854,1.3364923,0.21974105,-0.15144992,-0.15384023,1.4375123,2.1652477
-0.2,0.0,0.7,-0.5235987755982988,0.0,0,0.8414475,1.8302312,0.035064157,-0.93205607,0.45568046,1.4795157,-0.36797652,-0.75077516,1.3383703,0.22186057,-0.15904205,-0.15400007,1.44122,2.2205956
-0.2,0.0,0.7,-0.5235987755982988,0.0,0,0.8351885,1.8287852,0.08665523,-0.9218158,0.4320666,1.4701158,-0.33823144,-0.7499408,1.3343166,0.21355519,-0.15857351,-0.14704484,1.443632,2.1595085
-0.2,0.0,0.7,-0.5235987755982988,0.0,0,0.8397226,1.8214184,0.043676794,-0.9348096,0.44395682,1.477247,-0.34711272,-0.75384736,1.3328568,0.21515968,-0.15387937,-0.14595163,1.4374907,2.2217414
-0.2,0.0,0.7,-0.5235987755982988,0.0,0,0.84427315,1.8275187,0.050285984,-0.90772384,0.41201198,1.4523472,-0.34192985,-0.750322,1.3321413,0.21650094,-0.15326203,-0.15396437,1.4435513,2.2169623
-0.2,0.0,0.7,-0.5235987755982988,0.0,0,0.82003963,1.8100879,0.06566029,-0.92640704,0.4561612,1.4857122,-0.36660963,-0.7520307,1.3331019,0.22213916,-0.15046145,-0.1538198,1.4383345,2.1470706
-0.2,0.0,0.7,-0.5235987755982988,0.0,0,0.8250727,1.807877,0.094613455,-0.9320846,0.42594853,1.4843676,-0.340692,-0.75822115,1.3361166,0.22459717,-0.15441814,-0.1487494,1.442663,2.22547
-0.2,0.0,0.7,-0.5235987755982988,0.0,0,0.8321703,1.8232747,0.074158646,-0.92647994,0.42690882,1.468474,-0.38703942,-0.75661165,1.3300749,0.22317669,-0.14648986,-0.150572,1.4429522,2.2051086
-0.2,0.0,0.7,-0.5235987755982988,0.0,0,0.83247554,1.8081114,0.07965674,-0.92848486,0.4004764,1.4756341,-0.3506163,-0.74835867,1.3340498,0.22008877,-0.15435325,-0.15182666,1.445952,2.2216172
-0.2,0.0,0.7,-0.5235987755982988,0.0,0,0.8373193,1.8038684,0.07736465,-0.9344113,0.42943272,1.4840349,-0.37341315,-0.74380404,1.3307145,0.2179275,-0.1523535,-0.15313354,1.4493049,2.2440565
-0.2,0.0,0.7,-0.5235987755982988,0.0,0,0.8271409,1.8106015,0.06786581,-0.9386528,0.42829493,1.4791602,-0.3735722,-0.7497499,1.3331499,0.219144,-0.15128829,-0.15730722,1.4446993,2.2616992
-0.2,0.0,0.7,-0.5235987755982988,0.0,0,0.84095323,1.8199756,0.054790016,-0.93200237,0.45443058,1.4742953,-0.33571112,-0.75355077,1.3322539,0.22046846,-0.15686968,-0.15157257,1.4399922,2.2721567
-0.2,0.0,0.7,-0.5235987755982988,0.0,0,0.8370205,1.8025169,0.06427243,-0.94004816,0.41052112,1.4798269,-0.35653663,-0.75877684,1.3349386,0.21904601,-0.15283228,-0.14969933,1.4423065,2.2275202
-0.2,0.0,0.7,-0.5235987755982988,0.0,0,0.8404858,1.8327051,0.07889546,-0.93168104,0.40861458,1.4729995,-0.3549872,-0.7593803,1.3353177,0.21720286,-0.15025552,-0.15399548,1.4419765,2.1757057
-0.2,0.0,0.7,-0.5235987755982988,0.0,0,0.8357923,1.8126599,0.07981317,-0.92633563,0.4056626,1.4728293,-0.3619541,-0.75219953,1.3374035,0.21763867,-0.1524073,-0.15514876,1.4516741,2.1485302
-0.2,0.0,0.7,-0.5235987755982988,0.0,0,0.85011965,1.8092465,0.07583153,-0.92364645,0.41979253,1.4799306,-0.37149453,-0.76371515,1.3355192,0.21857587,-0.15277465,-0.14705905,1.4428185,2.0937662
-0.2,0.0,0.7,-0.5235987755982988,0.0,0,0.85095125,1.8264079,0.08139401,-0.9120956,0.37971842,1.4654721,-0.3577163,-0.7603257,1.3355978,0.21791841,-0.15451275,-0.15314601,1.4486215,2.0869122
-0.2,0.0,0.7,-0.5235987755982988,0.0,0,0.83210105,1.8247956,0.08668372,-0.93085337,0.41822997,1.482241,-0.36307168,-0.74718595,1.3368826,0.21447441,-0.15342507,-0.15526938,1.4468625,2.2340696
-0.2,0.0,0.7,-0.5235987755982988,0.0,0,0.83639216,1.8218427,0.09039079,-0.9207633,0.42022735,1.47818,-0.33994704,-0.74724627,1.3321126,0.21426848,-0.14958939,-0.14371847,1.4505175,2.2102454
-0.2,0.0,0.7,-0.5235987755982988,0.0,0,0.8399083,1.8118776,0.09530767,-0.90605915,0.43120342,1.4710503,-0.35344172,-0.75427836,1.331765,0.22106943,-0.14387117,-0.15359159,1.4448962,2.2229369
-0.2,0.0,0.7,-0.5235987755982988,0.0,0,0.843662,1.82877,0.07747254,-0.9278295,0.41276604,1.4641317,-0.37446705,-0.7498869,1.3347578,0.21530855,-0.15459903,-0.15024997,1.4345491,2.2202685
-0.2,0.0,0.7,-0.5235987755982988,0.0,0,0.838709,1.8269243,0.071704924,-0.91688615,0.41454875,1.4723661,-0.35721925,-0.7582671,1.337533,0.22917883,-0.15321788,-0.1471874,1.4558318,2.1780944
-0.2,0.0,0.7,-0.5235987755982988,0.0,0,0.83578163,1.798808,0.084775366,-0.9479638,0.42254117,1.4834049,-0.36385518,-0.75218433,1.3403326,0.21521512,-0.1542411,-0.15757969,1.4520756,2.1946518
-0.2,0.0,0.7,-0.5235987755982988,0.0,0,0.8364507,1.8182617,0.068365745,-0.9330419,0.39153448,1.4790865,-0.36538163,-0.74962145,1.333806,0.22188136,-0.1586822,-0.15710467,1.4469632,2.2127028
-0.2,0.0,0.7,-0.5235987755982988,0.0,0,0.833714,1.8085327,0.06848901,-0.9292518,0.42622498,1.4834393,-0.3475496,-0.7503802,1.3323328,0.21842211,-0.15012006,-0.15660866,1.4436308,2.118263
-0.2,0.0,0.7,-0.5235987755982988,0.0,0,0.85170734,1.816818,0.08008941,-0.942907,0.4440919,1.4898942,-0.38684317,-0.7650083,1.3326414,0.22102153,-0.15038118,-0.15074411,1.439451,2.2270575
-0.2,0.0,0.7,-0.5235987755982988,0.0,0,0.84373707,1.8199915,0.087109074,-0.9316653,0.44763428,1.4680564,-0.36077148,-0.7471689,1.333142,0.21458726,-0.15319173,-0.14963913,1.4415462,2.1018832
-0.2,0.0,0.7,-0.5235987755982988,0.0,0,0.8263288,1.8158638,0.074156985,-0.9413367,0.43416637,1.4791412,-0.35381904,-0.75563693,1.3374741,0.21869126,-0.15529391,-0.15090314,1.4407345,2.1163685
-0.2,0.0,0.7,-0.5235987755982988,0.0,0,0.84190327,1.8253164,0.053061422,-0.90486723,0.42421624,1.4664578,-0.354087,-0.74864614,1.3356287,0.21507467,-0.14667964,-0.1561693,1.4367996,2.1584244
