sanky1234/BimanualDexCatch/isaacgymenvs/cem_results/football_pose_0.1_0.0_1.1999999999999997_0.5235987755982988_0.5235987755982988_0_2025-05-26.csv
x,y,z,roll,pitch,yaw,robot1/joint1,robot1/joint2,robot1/joint3,robot1/joint4,robot1/joint5,robot1/joint6,robot1/joint7,robot2/joint1,robot2/joint2,robot2/joint3,robot2/joint4,robot2/joint5,robot2/joint6,robot2/joint7
0.1,0.0,1.1999999999999997,0.5235987755982988,0.5235987755982988,0,0.49243,0.0422164,-1.5224314,0.9150052,-0.8280032,1.3973778,-2.9141827,-0.75890076,-1.8027344,1.0654788,-0.2790036,-0.16178587,1.1246953,0.26313043
0.1,0.0,1.1999999999999997,0.5235987755982988,0.5235987755982988,0,0.48095334,0.04858976,-1.5236399,0.91103804,-0.8275581,1.3983073,-2.965887,-0.760904,-1.8017131,1.0726923,-0.22879039,-0.029740738,1.1890333,0.4205804
0.1,0.0,1.1999999999999997,0.5235987755982988,0.5235987755982988,0,0.4776028,0.04579061,-1.5181371,0.91125906,-0.83165765,1.4027218,-2.9705565,-0.7645731,-1.8095192,1.0808053,-0.27408305,0.13014485,1.196174,0.18612733
0.1,0.0,1.1999999999999997,0.5235987755982988,0.5235987755982988,0,0.479857,0.040383276,-1.5128001,0.92157185,-0.8500418,1.3953146,-2.9652693,-0.7644761,-1.8075773,1.0631305,-0.3119717,0.29135215,0.81615996,-0.16365303
0.1,0.0,1.1999999999999997,0.5235987755982988,0.5235987755982988,0,0.47539285,0.044620078,-1.5219808,0.91681975,-0.8439388,1.387057,-2.962176,-0.76086164,-1.8064277,1.0644115,-0.29716444,0.16219598,0.9083018,-0.6672239
0.1,0.0,1.1999999999999997,0.5235987755982988,0.5235987755982988,0,0.48204118,0.046154696,-1.5070851,0.90895903,-0.8258198,1.3988501,-2.9932497,-0.762191,-1.8011831,1.0766295,-0.2917666,0.12712371,0.9942792,0.17196122
0.1,0.0,1.1999999999999997,0.5235987755982988,0.5235987755982988,0,0.48244718,0.049833126,-1.5078051,0.91375494,-0.8262017,1.3880508,-2.997687,-0.7617551,-1.8016279,1.0840225,-0.2549533,0.10287958,1.0517892,0.10164508
0.1,0.0,1.1999999999999997,0.5235987755982988,0.5235987755982988,0,0.4811845,0.05652277,-1.5124296,0.91418105,-0.8398149,1.3957261,-3.0132413,-0.76098436,-1.7983123,1.0838113,-0.2507356,0.53266907,0.9636945,0.18584105
0.1,0.0,1.1999999999999997,0.5235987755982988,0.5235987755982988,0,0.48361042,0.047248796,-1.5174156,0.918098,-0.8152316,1.4026868,-2.9868052,-0.7610813,-1.8093766,1.0702066,-0.27096042,-0.00478174,0.9411574,-0.8224092
0.1,0.0,1.1999999999999997,0.5235987755982988,0.5235987755982988,0,0.48758546,0.047999755,-1.5094463,0.9155809,-0.83194315,1.4019095,-2.9460537,-0.7606503,-1.8057334,1.0430856,-0.27379382,0.056093827,0.9095067,-0.3491553
0.1,0.0,1.1999999999999997,0.5235987755982988,0.5235987755982988,0,0.48054442,0.048919167,-1.5139083,0.92718494,-0.84093165,1.397008,-2.9693565,-0.76098794,-1.8070296,1.0647193,-0.27772394,0.003919526,0.92401457,0.7225063
0.1,0.0,1.1999999999999997,0.5235987755982988,0.5235987755982988,0,0.48155394,0.040289003,-1.5106719,0.92022765,-0.8270818,1.399222,-2.9991262,-0.7594692,-1.8044451,1.0967693,-0.22840391,0.103306584,1.0809343,-0.14923699
0.1,0.0,1.1999999999999997,0.5235987755982988,0.5235987755982988,0,0.48251852,0.04963953,-1.5174953,0.91637975,-0.8379126,1.4080133,-2.926865,-0.7606015,-1.8014994,1.0914026,-0.2373297,0.30885628,1.1525248,-0.71878064
0.1,0.0,1.1999999999999997,0.5235987755982988,0.5235987755982988,0,0.4813594,0.049892712,-1.5184739,0.91813654,-0.8517088,1.3814402,-2.997221,-0.7632727,-1.8028139,1.0783455,-0.25617218,0.013367277,0.9908727,0.48180887
0.1,0.0,1.1999999999999997,0.5235987755982988,0.5235987755982988,0,0.490033,0.054425217,-1.5189415,0.9220727,-0.8351303,1.4009466,-2.9567215,-0.7621422,-1.8020118,1.0609112,-0.22018495,0.028710691,0.9902899,0.7891851
0.1,0.0,1.1999999999999997,0.5235987755982988,0.5235987755982988,0,0.48095882,0.04142752,-1.4988747,0.9239215,-0.8296846,1.413654,-2.9422436,-0.76006365,-1.8048577,1.1019218,-0.24953806,0.078592055,0.8057485,0.4884642
0.1,0.0,1.1999999999999997,0.5235987755982988,0.5235987755982988,0,0.48034707,0.051067,-1.5193945,0.9148056,-0.85472214,1.3953145,-2.9825845,-0.7642689,-1.8081219,1.0765812,-0.2574349,0.18672639,0.8697932,-0.003925239
0.1,0.0,1.1999999999999997,0.5235987755982988,0.5235987755982988,0,0.4803405,0.045967508,-1.5130608,0.92025596,-0.8304088,1.3949704,-2.9815238,-0.76268214,-1.8080388,1.073311,-0.3114423,0.07442713,1.1002666,1.2927989
0.1,0.0,1.1999999999999997,0.5235987755982988,0.5235987755982988,0,0.47694314,0.05212094,-1.5116053,0.9122251,-0.8162431,1.3839728,-2.9738946,-0.7643361,-1.805754,1.0711843,-0.27076477,-0.057176102,0.88899904,0.47174415
0.1,0.0,1.1999999999999997,0.5235987755982988,0.5235987755982988,0,0.4880499,0.0480305,-1.5108175,0.92210543,-0.84344834,1.3818462,-2.9719615,-0.7624833,-1.8056561,1.0450188,-0.25323907,-0.15689413,1.0286868,0.48352212
0.1,0.0,1.1999999999999997,0.5235987755982988,0.5235987755982988,0,0.48364457,0.049790636,-1.512021,0.91807026,-0.84616154,1.4118462,-2.9631035,-0.76144785,-1.8047765,1.0638869,-0.24969745,0.13502608,0.86899894,0.3817872
0.1,0.0,1.1999999999999997,0.5235987755982988,0.5235987755982988,0,0.48070487,0.05322566,-1.5199373,0.9164383,-0.840323,1.4024282,-2.9972045,-0.7636734,-1.802974,1.0632354,-0.26555565,-0.26219454,0.7787225,0.5860799
0.1,0.0,1.1999999999999997,0.5235987755982988,0.5235987755982988,0,0.48869434,0.050919328,-1.5184971,0.9173917,-0.83820164,1.399571,-2.9612472,-0.76118344,-1.8050283,1.0614847,-0.2889675,-0.14355236,0.8681072,-0.07734199
0.1,0.0,1.1999999999999997,0.5235987755982988,0.5235987755982988,0,0.4878874,0.051830232,-1.5097578,0.9163681,-0.8155168,1.4040611,-2.9857633,-0.76477534,-1.8086921,1.0438235,-0.23485966,-0.20200267,1.1307826,0.28129226
0.1,0.0,1.1999999999999997,0.5235987755982988,0.5235987755982988,0,0.4785009,0.04840911,-1.5138386,0.9158625,-0.84341305,1.384063,-2.9292066,-0.76094055,-1.8064805,1.046523,-0.29368237,-0.024998836,0.90193087,0.2561642
0.1,0.0,1.1999999999999997,0.5235987755982988,0.5235987755982988,0,0.47572213,0.052290823,-1.5164067,0.9134013,-0.8388851,1.3919704,-2.910604,-0.76081216,-1.799303,1.0719846,-0.23546112,0.14953591,1.1090671,-0.2798891
0.1,0.0,1.1999999999999997,0.5235987755982988,0.5235987755982988,0,0.473183,0.046885245,-1.5208778,0.91383857,-0.8393859,1.3896744,-2.9760365,-0.7615199,-1.805594,1.0647855,-0.23270571,0.026830146,0.9585525,0.20102398
0.1,0.0,1.1999999999999997,0.5235987755982988,0.5235987755982988,0,0.48159507,0.0492017,-1.5181526,0.9193298,-0.8462297,1.3964282,-2.9888546,-0.7675941,-1.8092557,1.0839912,-0.23290107,0.032974698,1.0787685,1.1478951
0.1,0.0,1.1999999999999997,0.5235987755982988,0.5235987755982988,0,0.48125333,0.046951294,-1.5123494,0.911668,-0.8433186,1.4022427,-2.9534116,-0.7603757,-1.7997508,1.0750102,-0.2654302,-0.42909083,0.8102984,-0.20695181
0.1,0.0,1.1999999999999997,0.5235987755982988,0.5235987755982988,0,0.47653106,0.036427844,-1.5160273,0.91517293,-0.8157468,1.3889798,-2.9340324,-0.76190794,-1.8050723,1.0631449,-0.22671568,-0.21439257,0.8780658,-0.028695108
0.1,0.0,1.1999999999999997,0.5235987755982988,0.5235987755982988,0,0.48488963,0.04657536,-1.5146395,0.9121636,-0.8583848,1.4058307,-2.980556,-0.76218057,-1.8013542,1.0400776,-0.2796391,0.22131476,1.0153495,0.6561978
0.1,0.0,1.1999999999999997,0.5235987755982988,0.5235987755982988,0,0.4805671,0.05474913,-1.5164078,0.90899473,-0.84602034,1.4119546,-2.9443262,-0.7643217,-1.8063465,1.085222,-0.20543216,0.24517189,1.1281633,1.0965663
0.1,0.0,1.1999999999999997,0.5235987755982988,0.5235987755982988,0,0.48537013,0.052968897,-1.520181,0.9244104,-0.8488833,1.3989208,-2.9449108,-0.7638128,-1.803554,1.0679021,-0.2313677,0.14044788,0.7557092,0.9819931
0.1,0.0,1.1999999999999997,0.5235987755982988,0.5235987755982988,0,0.4865956,0.04604834,-1.5134501,0.9169694,-0.83797824,1.4087777,-2.949658,-0.764972,-1.7998966,1.0724614,-0.23909271,0.40729257,1.0102228,-0.110611364
0.1,0.0,1.1999999999999997,0.5235987755982988,0.5235987755982988,0,0.48895428,0.04855928,-1.5210288,0.9132098,-0.8374167,1.3861504,-2.9971218,-0.76017404,-1.8045727,1.0392275,-0.25497642,0.04053669,0.7808605,-0.12414486
0.1,0.0,1.1999999999999997,0.5235987755982988,0.5235987755982988,0,0.49233726,0.04693228,-1.5143434,0.91588223,-0.8265557,1.3965979,-2.9930894,-0.76177406,-1.8044491,1.0748556,-0.31206343,-0.10979807,0.7315921,0.5007688
0.1,0.0,1.1999999999999997,0.5235987755982988,0.5235987755982988,0,0.48310757,0.03866372,-1.5118444,0.9179911,-0.8374616,1.394249,-2.95385,-0.7589166,-1.8026551,1.0801836,-0.23052774,-0.037650123,0.6832119,1.1252662
0.1,0.0,1.1999999999999997,0.5235987755982988,0.5235987755982988,0,0.48438647,0.04783564,-1.5163268,0.9170394,-0.85278404,1.3915492,-2.978903,-0.7628859,-1.8037562,1.0850607,-0.24505985,-0.1842694,1.0047685,0.3111733
0.1,0.0,1.1999999999999997,0.5235987755982988,0.5235987755982988,0,0.48110566,0.0467264,-1.5136502,0.9158505,-0.8309048,1.3995388,-2.966203,-0.76199067,-1.8021498,1.0710226,-0.23870069,0.1314213,0.7024724,0.0106288465
0.1,0.0,1.1999999999999997,0.5235987755982988,0.5235987755982988,0,0.4841938,0.04400604,-1.5186833,0.9084051,-0.8344768,1.4016998,-2.9592001,-0.76151466,-1.8064369,1.0526999,-0.31458583,0.010828251,0.8801306,2.3210037
0.1,0.0,1.1999999999999997,0.5235987755982988,0.5235987755982988,0,0.47926286,0.053884644,-1.5162942,0.92337453,-0.859229,1.3979697,-2.9691703,-0.7639034,-1.8090876,1.0741878,-0.26251516,-0.045239966,0.86799455,1.4785069
0.1,0.0,1.1999999999999997,0.5235987755982988,0.5235987755982988,0,0.48656747,0.044382542,-1.5102841,0.92079353,-0.85081214,1.4063842,-2.966963,-0.7608616,-1.8049188,1.0943056,-0.29265866,0.18605903,0.94086903,-0.13829178
0.1,0.0,1.1999999999999997,0.5235987755982988,0.5235987755982988,0,0.47673088,0.046248708,-1.520474,0.91941243,-0.8270716,1.406116,-2.9332862,-0.7645629,-1.8008907,1.0778416,-0.2595466,0.25718826,1.0322181,0.9422808
0.1,0.0,1.1999999999999997,0.5235987755982988,0.5235987755982988,0,0.47419238,0.055616662,-1.5118437,0.91317064,-0.81286573,1.3929747,-3.0008154,-0.75986695,-1.8058712,1.0121411,-0.28075257,-0.15589954,1.0020583,0.7070159
0.1,0.0,1.1999999999999997,0.5235987755982988,0.5235987755982988,0,0.487072,0.052488144,-1.5181423,0.9162293,-0.8308043,1.3970706,-2.9350333,-0.75979286,-1.8034312,1.0572376,-0.21476397,-0.2752621,1.1180636,1.1020952
0.1,0.0,1.1999999999999997,0.5235987755982988,0.5235987755982988,0,0.48103422,0.045617413,-1.5232036,0.91851336,-0.8293685,1.3898808,-2.969188,-0.7610646,-1.8037556,1.0591682,-0.30797443,-0.2149844,0.7987159,0.44779354
0.1,0.0,1.1999999999999997,0.5235987755982988,0.5235987755982988,0,0.48338765,0.04511735,-1.5160835,0.9164952,-0.8416397,1.4114218,-3.0064127,-0.7614909,-1.8051507,1.0598124,-0.196283,0.28042102,0.8205973,0.21748273
0.1,0.0,1.1999999999999997,0.5235987755982988,0.5235987755982988,0,0.4845054,0.049447693,-1.5207067,0.91393775,-0.8403575,1.4058368,-2.959266,-0.7618705,-1.8043792,1.0937986,-0.27205285,0.16859896,0.84688586,0.0035495453
0.1,0.0,1.1999999999999997,0.5235987755982988,0.5235987755982988,0,0.47604573,0.043523736,-1.520936,0.9204224,-0.8039394,1.3914903,-2.9753885,-0.7617354,-1.8062667,1.051213,-0.26529524,-0.040912386,1.0728673,0.7800125
0.1,0.0,1.1999999999999997,0.5235987755982988,0.5235987755982988,0,0.4793038,0.050707057,-1.514675,0.91624135,-0.82918555,1.3908923,-2.9613335,-0.7617144,-1.8073142,1.046006,-0.26076937,0.0025013029,1.0921506,-0.0986516
0.1,0.0,1.1999999999999997,0.5235987755982988,0.5235987755982988,0,0.4814825,0.053575423,-1.520966,0.91717356,-0.84790134,1.3881956,-2.948872,-0.762609,-1.806882,1.0709199,-0.271842,0.012521882,1.1525782,0.95341355
0.1,0.0,1.1999999999999997,0.5235987755982988,0.5235987755982988,0,0.4788192,0.048669197,-1.5238067,0.9158904,-0.84742117,1.3964971,-2.9820106,-0.7594817,-1.7994273,1.0761075,-0.32159752,-0.0531251,0.8523759,0.03466448
0.1,0.0,1.1999999999999997,0.5235987755982988,0.5235987755982988,0,0.47648233,0.043675724,-1.5197519,0.92186266,-0.83357507,1.3900987,-2.973584,-0.7615795,-1.8049159,1.0315342,-0.20789617,0.48589578,1.1752788,0.71083415
0.1,0.0,1.1999999999999997,0.5235987755982988,0.5235987755982988,0,0.48617896,0.044974472,-1.5169204,0.91508204,-0.8353484,1.4061002,-2.9381413,-0.76040566,-1.801912,1.0498065,-0.32334223,-0.20205119,1.1540738,0.6270259
0.1,0.0,1.1999999999999997,0.5235987755982988,0.5235987755982988,0,0.48307973,0.047172934,-1.5149058,0.9163244,-0.8549304,1.4040935,-2.9968498,-0.7622044,-1.8029406,1.0671549,-0.2515229,-0.3042589,0.98053366,0.42844555
0.1,0.0,1.1999999999999997,0.5235987755982988,0.5235987755982988,0,0.48462257,0.048306577,-1.5253385,0.90914655,-0.84109104,1.4112308,-2.960907,-0.76026756,-1.804605,1.0629375,-0.22081526,-0.0048775906,1.1194159,0.45615107
0.1,0.0,1.1999999999999997,0.5235987755982988,0.5235987755982988,0,0.4801258,0.046805922,-1.5200547,0.9200909,-0.8177017,1.4025877,-2.9391925,-0.76148427,-1.7984409,1.0913,-0.26304555,0.18248467,1.0452534,0.44511223
0.1,0.0,1.1999999999999997,0.5235987755982988,0.5235987755982988,0,0.47941345,0.050956566,-1.525964,0.91267437,-0.84724766,1.3990906,-2.9841037,-0.7629675,-1.8070153,1.0704057,-0.3384376,-0.19306748,1.1319653,1.1439102
0.1,0.0,1.1999999999999997,0.5235987755982988,0.5235987755982988,0,0.48453638,0.04731627,-1.5143735,0.9187995,-0.84253895,1.4010214,-3.0105748,-0.7639278,-1.8023341,1.0999655,-0.2872351,-0.09116044,0.7423214,0.6761847
0.1,0.0,1.1999999999999997,0.5235987755982988,0.5235987755982988,0,0.48616368,0.04622767,-1.5247316,0.91602063,-0.84433496,1.3928784,-2.9690087,-0.7611867,-1.8074422,1.0410293,-0.18209735,0.1030545,0.89612836,0.32305822
0.1,0.0,1.1999999999999997,0.5235987755982988,0.5235987755982988,0,0.48825285,0.045507155,-1.5132776,0.9190096,-0.8467984,1.4105992,-2.999481,-0.76405174,-1.806132,1.1095612,-0.29888907,0.08539247,1.1586676,0.120787874
0.1,0.0,1.1999999999999997,0.5235987755982988,0.5235987755982988,0,0.481956,0.040688653,-1.5157747,0.91049236,-0.8332825,1.402456,-2.948151,-0.76028943,-1.8087596,1.0665524,-0.28803504,0.20913306,1.0104276,1.3608621
0.1,0.0,1.1999999999999997,0.5235987755982988,0.5235987755982988,0,0.47608092,0.036708195,-1.5030289,0.91224885,-0.8531608,1.3969575,-2.9599388,-0.7562765,-1.8029008,1.0818726,-0.29475188,0.031659435,1.0152863,-0.75529796
0.1,0.0,1.1999999999999997,0.5235987755982988,0.5235987755982988,0,0.481764,0.03955818,-1.511529,0.912998,-0.8461348,1.3946834,-2.9431174,-0.75935584,-1.805519,1.041626,-0.29383418,-0.07276779,0.92442137,0.22782779
0.1,0.0,1.1999999999999997,0.5235987755982988,0.5235987755982988,0,0.4853364,0.05240384,-1.5191594,0.91522515,-0.8268195,1.4036047,-3.008102,-0.76133573,-1.7956901,1.0543312,-0.23995407,0.15881191,0.8879011,0.20995826
0.1,0.0,1.1999999999999997,0.5235987755982988,0.5235987755982988,0,0.48201436,0.05345838,-1.5209199,0.9113143,-0.84290355,1.3896178,-2.990361,-0.76120347,-1.8060863,1.0791125,-0.3165954,-0.032291085,0.809812,-0.7363069
0.1,0.0,1.1999999999999997,0.5235987755982988,0.5235987755982988,0,0.47806972,0.052458137,-1.5206072,0.9149578,-0.8354195,1.3983213,-2.9427207,-0.75988096,-1.8043042,1.0647295,-0.3138638,-0.09194162,0.9108571,0.5119345
0.1,0.0,1.1999999999999997,0.5235987755982988,0.5235987755982988,0,0.47828546,0.045825377,-1.517925,0.9129068,-0.849903,1.3955005,-2.9521585,-0.7588365,-1.8082453,1.0661403,-0.2441697,-0.4378251,0.9833318,-0.26121363
0.1,0.0,1.1999999999999997,0.5235987755982988,0.5235987755982988,0,0.4788344,0.047339108,-1.5107952,0.9114623,-0.8344941,1.3930044,-2.9880712,-0.7615396,-1.8030845,1.0657187,-0.250247,-0.011153161,1.0332557,-0.647339
0.1,0.0,1.1999999999999997,0.5235987755982988,0.5235987755982988,0,0.48322788,0.051159844,-1.5105764,0.92143756,-0.82596606,1.3891628,-2.9829311,-0.76264304,-1.8056718,1.0404845,-0.28193846,0.30927092,0.962797,-0.0077415053
0.1,0.0,1.1999999999999997,0.5235987755982988,0.5235987755982988,0,0.47858405,0.055855993,-1.5141301,0.9184249,-0.8343633,1.3938711,-2.9694495,-0.76001686,-1.8075117,1.0691719,-0.2651015,0.010244107,0.78447187,0.39340323
0.1,0.0,1.1999999999999997,0.5235987755982988,0.5235987755982988,0,0.4878539,0.041222412,-1.5166211,0.91807526,-0.8424127,1.4025527,-2.9339755,-0.76060575,-1.8052409,1.0612636,-0.32078347,-0.06856794,1.0035988,0.24365893
0.1,0.0,1.1999999999999997,0.5235987755982988,0.5235987755982988,0,0.47850335,0.046968557,-1.5162356,0.91135794,-0.84715885,1.3936237,-2.967718,-0.76156133,-1.808132,1.0388082,-0.22882687,0.30301172,0.8678928,0.9619343
0.1,0.0,1.1999999999999997,0.5235987755982988,0.5235987755982988,0,0.48318794,0.056465052,-1.5126528,0.9180588,-0.8334262,1.3973106,-2.9616542,-0.7623179,-1.8045217,1.0711632,-0.24099703,-0.31176043,0.91398454,0.3287011
0.1,0.0,1.1999999999999997,0.5235987755982988,0.5235987755982988,0,0.4834519,0.04571959,-1.5108215,0.9232186,-0.85132533,1.4053179,-2.9637609,-0.76317346,-1.8068894,1.0661298,-0.24142142,-0.0077181705,0.91612995,0.22940949
0.1,0.0,1.1999999999999997,0.5235987755982988,0.5235987755982988,0,0.48104924,0.0551705,-1.5077269,0.9180966,-0.8413972,1.406018,-2.99259,-0.7613908,-1.8055816,1.0548662,-0.18127237,0.46418983,1.0564313,0.29519105
0.1,0.0,1.1999999999999997,0.5235987755982988,0.5235987755982988,0,0.48185793,0.039238375,-1.5174136,0.91638416,-0.8400713,1.4004676,-2.9932313,-0.7606921,-1.7975078,1.0778595,-0.25598386,0.10762471,0.9675748,0.38197035
0.1,0.0,1.1999999999999997,0.5235987755982988,0.5235987755982988,0,0.48609394,0.047734063,-1.519373,0.92407995,-0.86186594,1.3928667,-2.943625,-0.7588638,-1.8069649,1.0711018,-0.3237576,0.25867057,0.7251718,0.3833452
0.1,0.0,1.1999999999999997,0.5235987755982988,0.5235987755982988,0,0.47639114,0.049763102,-1.5178717,0.91919637,-0.86066145,1.4038513,-2.957769,-0.76445913,-1.8068314,1.0445987,-0.19827287,-0.08539965,0.9922283,0.76065356
0.1,0.0,1.1999999999999997,0.5235987755982988,0.5235987755982988,0,0.48480085,0.04667755,-1.5112263,0.9159851,-0.81479055,1.4100604,-2.9397674,-0.7586908,-1.8079724,1.0600568,-0.26066285,-0.038418986,0.7526297,0.48813713
0.1,0.0,1.1999999999999997,0.5235987755982988,0.5235987755982988,0,0.4748092,0.045790054,-1.5192323,0.91958576,-0.83947396,1.3914357,-2.9802392,-0.7618372,-1.8049763,1.0808332,-0.30385587,-0.29103613,0.77665246,0.019547265
0.1,0.0,1.1999999999999997,0.5235987755982988,0.5235987755982988,0,0.4857579,0.047710862,-1.5119861,0.9161627,-0.83073264,1.4053257,-2.9676445,-0.7613008,-1.8054297,1.0686091,-0.29365975,0.30950248,0.9865548,0.7348228
0.1,0.0,1.1999999999999997,0.5235987755982988,0.5235987755982988,0,0.48152122,0.049036276,-1.5173892,0.92333823,-0.83154786,1.386191,-2.9855523,-0.75970244,-1.8055246,1.0701829,-0.21589465,0.31520265,0.9618994,-0.21104793
0.1,0.0,1.1999999999999997,0.5235987755982988,0.5235987755982988,0,0.48950616,0.045803837,-1.5148149,0.9176507,-0.84383667,1.394012,-2.9562976,-0.76246697,-1.7996268,1.0418173,-0.30477414,0.3882853,0.94997156,0.09049597
0.1,0.0,1.1999999999999997,0.5235987755982988,0.5235987755982988,0,0.47818702,0.061974913,-1.5127833,0.9136569,-0.81650984,1.3864366,-2.942835,-0.76242274,-1.8075147,1.0771271,-0.2718958,-0.1605915,1.2588481,1.2325099
0.1,0.0,1.1999999999999997,0.5235987755982988,0.5235987755982988,0,0.4807261,0.04148362,-1.5122416,0.9241909,-0.85510564,1.3917383,-2.9781976,-0.76204216,-1.8052572,1.0649452,-0.2625487,-0.20083529,0.91391,1.246543
0.1,0.0,1.1999999999999997,0.5235987755982988,0.5235987755982988,0,0.48036504,0.0473979,-1.5158725,0.92063254,-0.85842365,1.3930098,-2.9797227,-0.7606087,-1.8103774,1.097303,-0.21712136,0.024337081,0.94144523,-0.7485796
0.1,0.0,1.1999999999999997,0.5235987755982988,0.5235987755982988,0,0.48457468,0.05051203,-1.519476,0.9234246,-0.8403218,1.3847952,-2.9965885,-0.7619916,-1.8036298,1.0762651,-0.2818745,-0.20142657,0.9322022,0.49284112
0.1,0.0,1.1999999999999997,0.5235987755982988,0.5235987755982988,0,0.4876632,0.04922603,-1.5101472,0.9143882,-0.8412927,1.4037157,-2.941235,-0.7603328,-1.8067262,1.075487,-0.27321047,0.08042074,0.94809496,0.544175
0.1,0.0,1.1999999999999997,0.5235987755982988,0.5235987755982988,0,0.47955084,0.05272465,-1.5194864,0.9146015,-0.8508825,1.3907862,-2.9525518,-0.7627043,-1.8058177,1.0613887,-0.26648533,-0.3565712,0.99407035,0.32028434
0.1,0.0,1.1999999999999997,0.5235987755982988,0.5235987755982988,0,0.4867188,0.047058683,-1.5180078,0.9210478,-0.8375319,1.4029349,-2.9529817,-0.7617538,-1.8101479,1.0803039,-0.24120504,0.21677615,0.9134741,-0.30457652
0.1,0.0,1.1999999999999997,0.5235987755982988,0.5235987755982988,0,0.48408693,0.042768266,-1.5127444,0.9204143,-0.8398921,1.4114349,-2.9874747,-0.7634063,-1.8099737,1.0716504,-0.26482943,-0.31712258,0.95397943,1.3163089
0.1,0.0,1.1999999999999997,0.5235987755982988,0.5235987755982988,0,0.47829774,0.053561945,-1.5164213,0.9115993,-0.8383286,1.3930358,-2.9677992,-0.7610436,-1.8064302,1.0638489,-0.25902936,0.23752682,0.96199113,0.23514028
0.1,0.0,1.1999999999999997,0.5235987755982988,0.5235987755982988,0,0.48134542,0.054493543,-1.5226165,0.91751945,-0.8434097,1.3905706,-2.9252532,-0.7627095,-1.8025521,1.0775812,-0.26163924,-0.08538005,0.9040258,0.8438407
0.1,0.0,1.1999999999999997,0.5235987755982988,0.5235987755982988,0,0.48080912,0.042451896,-1.515681,0.915801,-0.85719115,1.3995081,-2.9639373,-0.7609949,-1.8058199,1.08068,-0.28148594,-0.13142818,0.9672824,0.55421305
0.1,0.0,1.1999999999999997,0.5235987755982988,0.5235987755982988,0,0.47828743,0.04707444,-1.5126561,0.9099289,-0.8331671,1.4050932,-2.9428544,-0.76282144,-1.8067185,1.0576483,-0.32676607,0.25736275,0.66742104,1.74999
0.1,0.0,1.1999999999999997,0.5235987755982988,0.5235987755982988,0,0.48519194,0.05452735,-1.517689,0.9160805,-0.84316957,1.406356,-2.954235,-0.75981987,-1.803087,1.0670172,-0.27302784,-0.1847586,0.87335855,-0.11643711
0.1,0.0,1.1999999999999997,0.5235987755982988,0.5235987755982988,0,0.4843215,0.053118583,-1.5196517,0.91545284,-0.8283155,1.4037331,-2.9723477,-0.7618753,-1.8076724,1.0661942,-0.1529543,-0.34069562,1.0046991,0.69146895
0.1,0.0,1.1999999999999997,0.5235987755982988,0.5235987755982988,0,0.4849348,0.04425689,-1.5108987,0.91692877,-0.8398089,1.4034404,-2.9478981,-0.7630982,-1.802554,1.0376357,-0.28138277,-0.34622446,0.68594277,0.4778681
0.1,0.0,1.1999999999999997,0.5235987755982988,0.5235987755982988,0,0.48355255,0.053348087,-1.5217614,0.9182103,-0.83477706,1.4026926,-2.974682,-0.76536787,-1.8064467,1.0542217,-0.22031443,0.08892095,0.8751416,0.5363065
0.1,0.0,1.1999999999999997,0.5235987755982988,0.5235987755982988,0,0.47290275,0.054011166,-1.5103476,0.9186908,-0.8560852,1.4001272,-2.9737406,-0.76429856,-1.8028383,1.0641776,-0.23300901,-0.2665472,0.9222202,0.4028423
0.1,0.0,1.1999999999999997,0.5235987755982988,0.5235987755982988,0,0.4848787,0.05121137,-1.5221967,0.9210515,-0.84495807,1.3859975,-2.9532022,-0.7591945,-1.80644,1.0494773,-0.28418756,0.048921354,0.7914382,0.38986507
0.1,0.0,1.1999999999999997,0.5235987755982988,0.5235987755982988,0,0.48199877,0.049308788,-1.5150801,0.9246292,-0.83668697,1.4034809,-2.9454541,-0.7624822,-1.8073837,1.102315,-0.28606188,-0.012831735,1.0348437,1.1235216
0.1,0.0,1.1999999999999997,0.5235987755982988,0.5235987755982988,0,0.48186898,0.048388567,-1.5177156,0.91920805,-0.8401999,1.4050757,-2.9870315,-0.76054597,-1.8085063,1.0709857,-0.2575802,-0.14660996,0.75431406,-0.06686997
0.1,0.0,1.1999999999999997,0.5235987755982988,0.5235987755982988,0,0.48388776,0.047687553,-1.5190141,0.9104663,-0.840209,1.3919683,-2.9955246,-0.7612229,-1.8070861,1.0453273,-0.27045262,-0.07117501,1.2072592,0.35679474
0.1,0.0,1.1999999999999997,0.5235987755982988,0.5235987755982988,0,0.48627943,0.04830245,-1.5185815,0.91426367,-0.8349959,1.4100746,-2.9676344,-0.7610405,-1.8051245,1.0580416,-0.27775997,0.19904609,0.96885896,0.23733433
0.1,0.0,1.1999999999999997,0.5235987755982988,0.5235987755982988,0,0.49845362,0.050461598,-1.5143718,0.91399086,-0.82762396,1.3996884,-2.9755225,-0.7582547,-1.8075533,1.0419236,-0.23027948,-0.06065122,0.93038565,0.5835139
0.1,0.0,1.1999999999999997,0.5235987755982988,0.5235987755982988,0,0.48561406,0.045780685,-1.512244,0.90823424,-0.8425241,1.4099805,-3.0020845,-0.76071197,-1.8094891,1.0759133,-0.19918768,-0.21200943,0.8136417,1.0734669
0.1,0.0,1.1999999999999997,0.5235987755982988,0.5235987755982988,0,0.48636007,0.043017674,-1.526247,0.9217958,-0.823155,1.4059947,-2.9588401,-0.7592882,-1.8059776,1.0674812,-0.2890322,0.14191218,1.1136136,-0.2811428
0.1,0.0,1.1999999999999997,0.5235987755982988,0.5235987755982988,0,0.4853721,0.045975577,-1.5195638,0.91516405,-0.8423309,1.393224,-3.0208411,-0.760082,-1.8053961,1.0594189,-0.21118237,-0.30358714,0.8932552,0.35293916
0.1,0.0,1.1999999999999997,0.5235987755982988,0.5235987755982988,0,0.4823942,0.051950615,-1.5132537,0.91510344,-0.86446565,1.3880229,-2.990209,-0.76165223,-1.8069348,1.0559844,-0.26664785,0.098965675,1.0320225,-0.05542981
0.1,0.0,1.1999999999999997,0.5235987755982988,0.5235987755982988,0,0.48368472,0.047877606,-1.5158089,0.91140866,-0.8518488,1.3997518,-2.9805834,-0.76032376,-1.803313,1.0583704,-0.29715082,0.029180286,0.7511956,0.21434063
0.1,0.0,1.1999999999999997,0.5235987755982988,0.5235987755982988,0,0.4831114,0.045059305,-1.5236758,0.91598123,-0.8512743,1.3975009,-2.9410498,-0.75958294,-1.8038253,1.045624,-0.27747336,0.39055467,0.7994254,-0.21846071
0.1,0.0,1.1999999999999997,0.5235987755982988,0.5235987755982988,0,0.48791665,0.041278202,-1.5201083,0.91442865,-0.8362048,1.3972265,-2.9700294,-0.7620456,-1.8063425,1.0674057,-0.2951962,0.24856211,0.90861356,0.2298363
0.1,0.0,1.1999999999999997,0.5235987755982988,0.5235987755982988,0,0.48920763,0.04624585,-1.5189624,0.9221048,-0.83954704,1.392112,-2.9527173,-0.7612021,-1.8068868,1.0526158,-0.28511667,-0.026154175,0.840085,-0.070954435
0.1,0.0,1.1999999999999997,0.5235987755982988,0.5235987755982988,0,0.4809936,0.04788877,-1.5237772,0.9207941,-0.8534154,1.4063368,-2.975899,-0.7622222,-1.8059831,1.0695897,-0.28394958,-0.040263593,0.714577,0.31200525
0.1,0.0,1.1999999999999997,0.5235987755982988,0.5235987755982988,0,0.48060933,0.047448054,-1.5143261,0.91026217,-0.85646635,1.396487,-2.9890423,-0.7583751,-1.8047646,1.0655035,-0.28192866,0.006032058,0.77808595,2.0793414
0.1,0.0,1.1999999999999997,0.5235987755982988,0.5235987755982988,0,0.47917968,0.04579482,-1.5180277,0.9158302,-0.835667,1.3975643,-2.9958248,-0.76331264,-1.8056934,1.0610964,-0.25827464,-0.06605513,0.7866608,0.33276564
0.1,0.0,1.1999999999999997,0.5235987755982988,0.5235987755982988,0,0.4789762,0.051304244,-1.5063543,0.9184006,-0.8240545,1.4003894,-3.0044909,-0.76077473,-1.8038996,1.0615573,-0.3008492,0.003038782,0.6995192,0.60716736
0.1,0.0,1.1999999999999997,0.5235987755982988,0.5235987755982988,0,0.48873204,0.043674096,-1.5047696,0.91553634,-0.8468132,1.4112197,-2.9797459,-0.75928944,-1.806166,1.0404866,-0.24755855,-0.1999685,0.88086665,1.1354424
0.1,0.0,1.1999999999999997,0.5235987755982988,0.5235987755982988,0,0.47730416,0.044355087,-1.5103265,0.92157876,-0.83430594,1.4162525,-2.9636264,-0.7590204,-1.8089025,1.088053,-0.21979862,-0.09529934,0.7707284,-0.31284449
0.1,0.0,1.1999999999999997,0.5235987755982988,0.5235987755982988,0,0.47398823,0.055907108,-1.5080019,0.92292875,-0.8205634,1.3933787,-2.9843228,-0.7618365,-1.8057086,1.0675163,-0.3185497,-0.019481683,0.83737534,0.18226425
0.1,0.0,1.1999999999999997,0.5235987755982988,0.5235987755982988,0,0.4799402,0.039063267,-1.5220426,0.9217506,-0.8402369,1.413017,-2.9543712,-0.76176524,-1.8034347,1.0708339,-0.27218878,-0.17415646,1.1387829,0.41812125
0.1,0.0,1.1999999999999997,0.5235987755982988,0.5235987755982988,0,0.4816052,0.03322386,-1.5256294,0.9211583,-0.8409368,1.4012738,-2.9486444,-0.7578715,-1.8103071,1.0882715,-0.2658515,0.08058157,1.1270707,-0.048203073
0.1,0.0,1.1999999999999997,0.5235987755982988,0.5235987755982988,0,0.49034357,0.042816184,-1.5125049,0.92179525,-0.845375,1.4073585,-2.9620166,-0.76142347,-1.805559,1.0567564,-0.29863808,-0.050178155,1.0805721,2.1568208
0.1,0.0,1.1999999999999997,0.5235987755982988,0.5235987755982988,0,0.48731437,0.04579269,-1.5172276,0.91681594,-0.8271812,1.3892151,-3.009974,-0.7579617,-1.8036524,1.0668124,-0.2766111,0.26363602,0.84065497,-1.0446395
0.1,0.0,1.1999999999999997,0.5235987755982988,0.5235987755982988,0,0.48733827,0.04728575,-1.5274744,0.9179155,-0.83267236,1.390662,-3.0059993,-0.76342195,-1.8035564,1.0429648,-0.2739493,0.0070818537,0.92802465,0.7184082
0.1,0.0,1.1999999999999997,0.5235987755982988,0.5235987755982988,0,0.47827196,0.05369594,-1.5101267,0.9141615,-0.8364279,1.398613,-2.9585066,-0.76211995,-1.8006232,1.0665431,-0.26090983,-0.1342586,1.0274395,0.30432642
0.1,0.0,1.1999999999999997,0.5235987755982988,0.5235987755982988,0,0.48195627,0.05092664,-1.5226939,0.92300886,-0.83336735,1.3936471,-2.9608655,-0.76021516,-1.8064208,1.1153451,-0.2745472,0.08958579,0.9585849,-0.05637659
0.1,0.0,1.1999999999999997,0.5235987755982988,0.5235987755982988,0,0.46832418,0.049115118,-1.5129397,0.9134212,-0.82960737,1.3945475,-2.927457,-0.7587372,-1.8107406,1.0719639,-0.23822911,-0.0834433,0.93380713,-0.46450052
0.1,0.0,1.1999999999999997,0.5235987755982988,0.5235987755982988,0,0.48475027,0.048113894,-1.5212549,0.9143791,-0.8348222,1.3951815,-2.9755466,-0.7605767,-1.8018215,1.0614982,-0.27150875,-0.20442645,1.0634357,0.7136706
0.1,0.0,1.1999999999999997,0.5235987755982988,0.5235987755982988,0,0.48227224,0.04726889,-1.5221647,0.914858,-0.83245635,1.3959612,-2.9904788,-0.7628263,-1.8034848,1.0665704,-0.26957023,0.13507703,0.9441227,0.14126922
0.1,0.0,1.1999999999999997,0.5235987755982988,0.5235987755982988,0,0.47684327,0.043618787,-1.5248892,0.9174413,-0.844987,1.3869815,-2.9795704,-0.76305926,-1.8055491,1.0602131,-0.28415388,0.10485636,0.9411797,0.055370465
0.1,0.0,1.1999999999999997,0.5235987755982988,0.5235987755982988,0,0.47952402,0.04680969,-1.5242393,0.91226673,-0.8321226,1.4000599,-2.9403791,-0.75733244,-1.8020288,1.0469998,-0.2771297,0.21418324,0.934292,-0.13701925
0.1,0.0,1.1999999999999997,0.5235987755982988,0.5235987755982988,0,0.4850133,0.04517658,-1.5277251,0.91755736,-0.8174361,1.3946807,-2.9777875,-0.76107174,-1.7997642,1.0646955,-0.26916215,0.3426619,0.8924865,0.6773234
0.1,0.0,1.1999999999999997,0.5235987755982988,0.5235987755982988,0,0.4790587,0.047581267,-1.5152674,0.91798204,-0.8399875,1.3969827,-2.9680958,-0.7654148,-1.8031781,1.0448923,-0.2781541,-0.08934091,0.981309,-0.6373089
0.1,0.0,1.1999999999999997,0.5235987755982988,0.5235987755982988,0,0.48576972,0.052382383,-1.5166613,0.9146617,-0.82773095,1.4031162,-2.970978,-0.76297605,-1.806323,1.0530251,-0.24430509,0.15301327,0.958045,-0.4617868
0.1,0.0,1.1999999999999997,0.5235987755982988,0.5235987755982988,0,0.48870012,0.04685924,-1.5155447,0.9155652,-0.848959,1.4140106,-2.9418838,-0.7582927,-1.8024641,1.0700182,-0.20406583,-0.26516855,0.9130035,0.40495712
0.1,0.0,1.1999999999999997,0.5235987755982988,0.5235987755982988,0,0.47922802,0.05114078,-1.5152433,0.9154319,-0.8325484,1.4002769,-2.944521,-0.7638647,-1.8005937,1.0707307,-0.25338367,-0.059795644,0.95324713,0.38179615
0.1,0.0,1.1999999999999997,0.5235987755982988,0.5235987755982988,0,0.47720996,0.04899778,-1.5130296,0.9169368,-0.84822327,1.3995476,-2.9787273,-0.76004875,-1.805461,1.0633396,-0.3196986,0.15478884,0.84465706,0.2637191
0.1,0.0,1.1999999999999997,0.5235987755982988,0.5235987755982988,0,0.48194873,0.05243852,-1.5177453,0.9124254,-0.8253623,1.4023147,-2.9352968,-0.7619748,-1.8020504,1.0409468,-0.27376467,0.22051743,0.95784914,1.3225558
0.1,0.0,1.1999999999999997,0.5235987755982988,0.5235987755982988,0,0.48262432,0.041736364,-1.5147227,0.92037874,-0.84545785,1.3831362,-3.026757,-0.762332,-1.8099505,1.0555061,-0.31341946,-0.25151777,0.90466094,0.14596538
0.1,0.0,1.1999999999999997,0.5235987755982988,0.5235987755982988,0,0.49072105,0.055632144,-1.5178155,0.91684127,-0.8260119,1.3985916,-2.998477,-0.7607618,-1.8024317,1.0730368,-0.21968915,0.15514074,0.9071108,-0.20028962
0.1,0.0,1.1999999999999997,0.5235987755982988,0.5235987755982988,0,0.48680872,0.04450032,-1.5169271,0.91841847,-0.8442368,1.4109095,-3.0235238,-0.7615439,-1.804403,1.0724802,-0.27103305,0.06360001,0.89904326,1.737574
0.1,0.0,1.1999999999999997,0.5235987755982988,0.5235987755982988,0,0.48675153,0.05014661,-1.520639,0.9182362,-0.8395533,1.3924313,-2.9588032,-0.7609717,-1.8010302,1.0370266,-0.27012768,0.04111693,0.8745857,0.862429
0.1,0.0,1.1999999999999997,0.5235987755982988,0.5235987755982988,0,0.48021492,0.046351813,-1.5177402,0.9122116,-0.8433818,1.3848629,-2.9956744,-0.75853723,-1.8048207,1.0765563,-0.29703894,0.043182194,0.82747924,0.8407555
0.1,0.0,1.1999999999999997,0.5235987755982988,0.5235987755982988,0,0.47862926,0.048558667,-1.5086327,0.9177605,-0.8320047,1.3984618,-2.9395037,-0.75915205,-1.803035,1.042988,-0.28435805,0.1421389,0.87886727,0.57960737
0.1,0.0,1.1999999999999997,0.5235987755982988,0.5235987755982988,0,0.48138404,0.04971785,-1.513279,0.9139368,-0.82268256,1.3971335,-2.9746203,-0.7588399,-1.8079402,1.0760624,-0.29504102,-0.20061845,0.8247571,0.060776733
0.1,0.0,1.1999999999999997,0.5235987755982988,0.5235987755982988,0,0.48752642,0.0476611,-1.5168487,0.91654813,-0.85572886,1.3882056,-2.974883,-0.7634622,-1.8089676,1.0766033,-0.28167993,-0.0017480312,1.0252051,0.25565323
0.1,0.0,1.1999999999999997,0.5235987755982988,0.5235987755982988,0,0.47551584,0.051882166,-1.5077807,0.9224435,-0.8178467,1.4065685,-2.902573,-0.7623918,-1.80122,1.0595796,-0.22191708,0.16937135,0.93126327,0.60471785
0.1,0.0,1.1999999999999997,0.5235987755982988,0.5235987755982988,0,0.4765108,0.046393253,-1.5172019,0.90818053,-0.8035101,1.4002705,-3.018701,-0.76096964,-1.8118672,1.0591296,-0.24404487,0.35648912,0.93813777,0.9817532
0.1,0.0,1.1999999999999997,0.5235987755982988,0.5235987755982988,0,0.4805766,0.053808767,-1.5141926,0.9250908,-0.84706736,1.3917887,-2.979426,-0.76311857,-1.8047298,1.0661882,-0.26339185,-0.023980923,0.80947286,0.15319952
0.1,0.0,1.1999999999999997,0.5235987755982988,0.5235987755982988,0,0.47600746,0.044620913,-1.5148884,0.91620415,-0.8440404,1.3921331,-2.9883623,-0.7598724,-1.8040218,1.0468862,-0.26525906,-0.38561037,1.0391955,0.471718
0.1,0.0,1.1999999999999997,0.5235987755982988,0.5235987755982988,0,0.48555762,0.049989402,-1.5267128,0.9150292,-0.81971943,1.39849,-2.9679112,-0.7570231,-1.803329,1.0959992,-0.30577573,-0.045223292,1.0519133,0.7165249
0.1,0.0,1.1999999999999997,0.5235987755982988,0.5235987755982988,0,0.48219785,0.051053848,-1.5177723,0.9213124,-0.8203904,1.3913275,-2.9478097,-0.76198375,-1.8049701,1.0270934,-0.2792377,-0.2847043,0.88848996,0.6413896
0.1,0.0,1.1999999999999997,0.5235987755982988,0.5235987755982988,0,0.4789063,0.041155454,-1.5187653,0.91301936,-0.85695946,1.4030685,-2.973808,-0.76196605,-1.8055255,1.0264406,-0.2896941,-0.02277639,0.9918255,0.38934493
0.1,0.0,1.1999999999999997,0.5235987755982988,0.5235987755982988,0,0.47818625,0.049981546,-1.5223753,0.9204911,-0.8393096,1.3958188,-2.953378,-0.7625628,-1.8068944,1.058744,-0.2773443,0.056083266,0.87134534,-0.14805129
0.1,0.0,1.1999999999999997,0.5235987755982988,0.5235987755982988,0,0.4833764,0.053840797,-1.5210767,0.9163887,-0.83996767,1.3910736,-2.9893682,-0.7592147,-1.805467,1.0687579,-0.28416282,0.12901339,1.1416848,1.2432992
0.1,0.0,1.1999999999999997,0.5235987755982988,0.5235987755982988,0,0.4870996,0.043417,-1.508417,0.9234506,-0.8319175,1.409842,-2.984699,-0.7610202,-1.8053906,1.060596,-0.31882125,-0.19877423,0.7917148,1.0503775
0.1,0.0,1.1999999999999997,0.5235987755982988,0.5235987755982988,0,0.47792315,0.04398291,-1.5157834,0.9273014,-0.8187163,1.388379,-2.9586859,-0.7617881,-1.8023304,1.0784085,-0.273566,0.24258253,0.9508849,0.6121588
0.1,0.0,1.1999999999999997,0.5235987755982988,0.5235987755982988,0,0.47855338,0.05352693,-1.499866,0.918927,-0.8482701,1.4012758,-2.9304535,-0.76075196,-1.8128049,1.0802393,-0.25531358,0.3579254,0.97056854,0.1121941
0.1,0.0,1.1999999999999997,0.5235987755982988,0.5235987755982988,0,0.48939413,0.056298856,-1.5144137,0.9139227,-0.83554274,1.404978,-2.953904,-0.7583683,-1.8034627,1.0814784,-0.26798576,-0.072836004,0.74508375,-0.13232316
0.1,0.0,1.1999999999999997,0.5235987755982988,0.5235987755982988,0,0.4834314,0.05255284,-1.5103464,0.9227915,-0.8279145,1.396791,-2.9308312,-0.7588875,-1.8028072,1.0552913,-0.30973858,0.058929544,0.79498464,0.10154121
0.1,0.0,1.1999999999999997,0.5235987755982988,0.5235987755982988,0,0.4835255,0.05624074,-1.5106632,0.91584975,-0.825451,1.3928225,-2.9665453,-0.75920594,-1.8111542,1.0766689,-0.29161873,0.31474587,0.8048421,0.09010273
0.1,0.0,1.1999999999999997,0.5235987755982988,0.5235987755982988,0,0.47281438,0.05163771,-1.517431,0.9090247,-0.84682137,1.4073141,-2.97303,-0.76113737,-1.8009168,1.074608,-0.24858001,-0.34038085,0.71184826,0.07232244
0.1,0.0,1.1999999999999997,0.5235987755982988,0.5235987755982988,0,0.47686535,0.051341575,-1.5155903,0.91434115,-0.8488673,1.4163734,-2.9433482,-0.7620463,-1.8029616,1.0349993,-0.31851363,0.19894047,1.1404675,0.840883
0.1,0.0,1.1999999999999997,0.5235987755982988,0.5235987755982988,0,0.4828002,0.051302765,-1.5177907,0.9206805,-0.85202926,1.4153575,-3.0143828,-0.7606211,-1.8030216,1.0582316,-0.20722707,0.29558852,0.82246655,0.8222992
0.1,0.0,1.1999999999999997,0.5235987755982988,0.5235987755982988,0,0.47810495,0.043363437,-1.5122143,0.920155,-0.8488172,1.3952043,-2.9749093,-0.7600645,-1.8084421,1.0665565,-0.2704896,-0.09797407,1.0006442,0.41150886
0.1,0.0,1.1999999999999997,0.5235987755982988,0.5235987755982988,0,0.48417068,0.052745573,-1.5142281,0.91848344,-0.84739983,1.4078406,-2.968523,-0.76290894,-1.8070949,1.0602086,-0.3014224,-0.11893815,0.86297476,0.031200118
0.1,0.0,1.1999999999999997,0.5235987755982988,0.5235987755982988,0,0.4814066,0.05096557,-1.5179515,0.92307055,-0.8329502,1.395855,-2.9713395,-0.7623831,-1.8040938,1.0710568,-0.29558855,0.14320658,0.7377917,1.2755651
0.1,0.0,1.1999999999999997,0.5235987755982988,0.5235987755982988,0,0.4839836,0.0481364,-1.5138707,0.9155447,-0.8189298,1.4039536,-2.9435258,-0.7607785,-1.8107178,1.0485831,-0.31504986,0.18803349,1.3714547,0.06414334
0.1,0.0,1.1999999999999997,0.5235987755982988,0.5235987755982988,0,0.4830541,0.049645957,-1.5165427,0.91869104,-0.8301618,1.3977704,-2.956115,-0.7606633,-1.8056128,1.083906,-0.30818793,0.12554511,0.88302183,1.2894609
0.1,0.0,1.1999999999999997,0.5235987755982988,0.5235987755982988,0,0.4709725,0.04809779,-1.5063652,0.91910523,-0.85038495,1.4030707,-2.9841504,-0.7592539,-1.8084073,1.0701755,-0.24871224,0.012863824,0.97096795,0.8974815
0.1,0.0,1.1999999999999997,0.5235987755982988,0.5235987755982988,0,0.48885775,0.05042383,-1.5071064,0.91641337,-0.83401984,1.4094743,-3.0017457,-0.7598576,-1.8015225,1.0723894,-0.27982935,0.39062133,1.0969647,0.36184564
0.1,0.0,1.1999999999999997,0.5235987755982988,0.5235987755982988,0,0.48129734,0.04416519,-1.5194831,0.9176868,-0.8506732,1.4136672,-2.9550996,-0.76110095,-1.8028829,1.0914109,-0.2600929,0.07069019,1.0369002,1.0773427
0.1,0.0,1.1999999999999997,0.5235987755982988,0.5235987755982988,0,0.4812681,0.045289997,-1.5234307,0.91523814,-0.84298366,1.3953421,-2.9250252,-0.7614764,-1.8044175,1.0749886,-0.25876966,0.24918453,0.9891801,0.33886522
0.1,0.0,1.1999999999999997,0.5235987755982988,0.5235987755982988,0,0.48236245,0.05314752,-1.5158061,0.9244047,-0.8444047,1.4010216,-2.963964,-0.7613842,-1.8071454,1.0758765,-0.22868608,0.030368272,0.9145055,-0.2196983
0.1,0.0,1.1999999999999997,0.5235987755982988,0.5235987755982988,0,0.48969883,0.056474987,-1.5141993,0.92217934,-0.8417257,1.3987203,-2.9284995,-0.7582677,-1.8042969,1.0465919,-0.19951604,0.4167035,0.97002393,0.58871853
0.1,0.0,1.1999999999999997,0.5235987755982988,0.5235987755982988,0,0.4757403,0.047390513,-1.5284889,0.91580504,-0.83204263,1.3964857,-2.9854627,-0.76200503,-1.8056874,1.0788926,-0.25930548,0.078797065,0.8773882,0.96336126
0.1,0.0,1.1999999999999997,0.5235987755982988,0.5235987755982988,0,0.48549512,0.05090379,-1.5098596,0.91427433,-0.8483146,1.3949819,-2.9868822,-0.7606634,-1.8012036,1.0620155,-0.32446602,-0.0064535397,1.2190577,0.21621747
0.1,0.0,1.1999999999999997,0.5235987755982988,0.5235987755982988,0,0.47653708,0.046688687,-1.5189288,0.92027116,-0.8347187,1.3985883,-2.9828687,-0.7630543,-1.8044822,1.0668261,-0.24861635,0.15664737,0.90164876,1.1259385
0.1,0.0,1.1999999999999997,0.5235987755982988,0.5235987755982988,0,0.4892364,0.051875237,-1.5067945,0.91894644,-0.83601916,1.4007287,-2.9682784,-0.75970435,-1.8050845,1.0880429,-0.27424586,0.19622582,1.1033169,-0.011414712
0.1,0.0,1.1999999999999997,0.5235987755982988,0.5235987755982988,0,0.47731283,0.04490161,-1.514443,0.91409206,-0.8412974,1.4145652,-2.9866276,-0.7634712,-1.8048369,1.0671891,-0.27942756,0.12415717,1.1810856,0.7673466
0.1,0.0,1.1999999999999997,0.5235987755982988,0.5235987755982988,0,0.48179704,0.04553708,-1.5190306,0.9190989,-0.8534197,1.401116,-2.946223,-0.76126224,-1.8059771,1.059165,-0.30436537,0.29327962,0.94053835,0.20919186
0.1,0.0,1.1999999999999997,0.5235987755982988,0.5235987755982988,0,0.48530805,0.048293144,-1.519041,0.92700773,-0.8282002,1.4057325,-2.9571562,-0.7653608,-1.8082913,1.0696228,-0.25423828,0.041138038,0.8239082,0.26421902
0.1,0.0,1.1999999999999997,0.5235987755982988,0.5235987755982988,0,0.47851554,0.0532154,-1.5190873,0.91523737,-0.8361362,1.4065694,-2.9736674,-0.7644994,-1.8109958,1.066081,-0.24989605,0.4447919,0.9422869,-0.8431422
0.1,0.0,1.1999999999999997,0.5235987755982988,0.5235987755982988,0,0.47684133,0.05452449,-1.5106299,0.92121345,-0.85544735,1.401879,-2.968345,-0.7619608,-1.8075796,1.1009086,-0.252209,0.13660048,1.0365874,-0.08133214
0.1,0.0,1.1999999999999997,0.5235987755982988,0.5235987755982988,0,0.47838247,0.049030244,-1.5174019,0.9143333,-0.8229869,1.3983505,-2.9862993,-0.7618646,-1.8050327,1.0715536,-0.32314,0.10937759,0.85711014,1.0636795
0.1,0.0,1.1999999999999997,0.5235987755982988,0.5235987755982988,0,0.48473236,0.0504736,-1.5157703,0.9159865,-0.82974076,1.4011263,-2.9839554,-0.75964135,-1.8026727,1.0425687,-0.26761353,0.18626057,0.8660204,-0.955266
0.1,0.0,1.1999999999999997,0.5235987755982988,0.5235987755982988,0,0.48067787,0.049305785,-1.510331,0.9123348,-0.84238225,1.3960541,-2.9791794,-0.76070887,-1.8082653,1.0872884,-0.26470286,-0.25762907,1.0779318,0.8897517
0.1,0.0,1.1999999999999997,0.5235987755982988,0.5235987755982988,0,0.47802764,0.04909189,-1.5192181,0.92524636,-0.84896886,1.4144679,-2.9766526,-0.7638767,-1.8027949,1.0729078,-0.257944,-0.29932588,0.88582945,1.6120993
0.1,0.0,1.1999999999999997,0.5235987755982988,0.5235987755982988,0,0.48317862,0.051863395,-1.5164012,0.91964084,-0.8364078,1.3940594,-2.9609797,-0.7607883,-1.7996029,1.0503778,-0.28973588,0.28687283,1.1407536,0.63560116
0.1,0.0,1.1999999999999997,0.5235987755982988,0.5235987755982988,0,0.4752468,0.045440394,-1.5125979,0.9159721,-0.805627,1.3937277,-2.9356635,-0.7612658,-1.8093448,1.093574,-0.20313461,0.29603803,0.9222214,1.0842496
0.1,0.0,1.1999999999999997,0.5235987755982988,0.5235987755982988,0,0.4832122,0.047171395,-1.520578,0.9188504,-0.8368168,1.4036771,-2.9765935,-0.7604705,-1.8060843,1.0767286,-0.24868546,-0.04556372,0.8688658,-0.9115113
0.1,0.0,1.1999999999999997,0.5235987755982988,0.5235987755982988,0,0.47259513,0.05224053,-1.516378,0.92154574,-0.86261076,1.3986161,-2.9635344,-0.75837,-1.80278,1.0608852,-0.24294573,0.06370954,0.9962988,0.34548503
0.1,0.0,1.1999999999999997,0.5235987755982988,0.5235987755982988,0,0.47825584,0.05072616,-1.5140707,0.9114501,-0.826823,1.3958461,-3.0233889,-0.7619339,-1.8028151,1.0654051,-0.3190247,0.10304516,1.2523993,0.6847061
0.1,0.0,1.1999999999999997,0.5235987755982988,0.5235987755982988,0,0.47785196,0.046777636,-1.51566,0.9145101,-0.8443522,1.397034,-2.9703348,-0.75950944,-1.8094668,1.0528055,-0.2564661,0.12460569,1.0828581,1.3081772
0.1,0.0,1.1999999999999997,0.5235987755982988,0.5235987755982988,0,0.47341073,0.042183157,-1.5224004,0.9191963,-0.8529268,1.3968874,-2.9975593,-0.763826,-1.8035915,1.0478281,-0.2869621,-0.14794113,0.71976423,0.5632939
0.1,0.0,1.1999999999999997,0.5235987755982988,0.5235987755982988,0,0.48285824,0.058297124,-1.5190811,0.91668606,-0.8321722,1.3954909,-2.9628794,-0.7633802,-1.7990885,1.0791978,-0.2550729,0.12547703,1.0554506,0.6354414
0.1,0.0,1.1999999999999997,0.5235987755982988,0.5235987755982988,0,0.47872236,0.04897751,-1.5205998,0.9151723,-0.82537436,1.3942859,-2.9470162,-0.7630866,-1.8053093,1.0657836,-0.29206732,0.48391414,0.8538627,-0.3072874
0.1,0.0,1.1999999999999997,0.5235987755982988,0.5235987755982988,0,0.48258337,0.05146381,-1.5150841,0.91301316,-0.84820616,1.411212,-2.9813776,-0.7614246,-1.8035164,1.0812905,-0.3078935,-0.1266704,0.72562903,-0.5329602
0.1,0.0,1.1999999999999997,0.5235987755982988,0.5235987755982988,0,0.4882119,0.047925867,-1.513519,0.92328846,-0.82381034,1.4017756,-2.9944131,-0.760804,-1.8046311,1.0375323,-0.2983208,0.044359706,0.9582785,1.369308
0.1,0.0,1.1999999999999997,0.5235987755982988,0.5235987755982988,0,0.48500407,0.05082528,-1.5115385,0.9219984,-0.84641856,1.3894857,-2.9179668,-0.76084054,-1.8038696,1.075075,-0.21404871,0.51192635,0.8584731,-0.1099764
0.1,0.0,1.1999999999999997,0.5235987755982988,0.5235987755982988,0,0.4853301,0.051787168,-1.5197634,0.9132613,-0.8300212,1.4040093,-2.9968722,-0.76144403,-1.8029711,1.0727029,-0.27579388,-0.29393592,0.86580783,0.45629305
0.1,0.0,1.1999999999999997,0.5235987755982988,0.5235987755982988,0,0.490566,0.048117805,-1.5108329,0.921969,-0.83626586,1.4085295,-2.9776137,-0.76045054,-1.8045485,1.0752193,-0.27303872,-0.0031114651,1.0060437,0.71514463
0.1,0.0,1.1999999999999997,0.5235987755982988,0.5235987755982988,0,0.4753107,0.046225704,-1.5182275,0.9173205,-0.84871346,1.3939891,-2.9878254,-0.7663659,-1.8076731,1.0416002,-0.23100707,-0.25314748,1.1293739,1.2546586
0.1,0.0,1.1999999999999997,0.5235987755982988,0.5235987755982988,0,0.48854443,0.05665811,-1.5251838,0.91784894,-0.82178473,1.3916097,-3.043077,-0.75985986,-1.8064315,1.0660717,-0.27858967,0.06868264,1.0059294,0.7870933
0.1,0.0,1.1999999999999997,0.5235987755982988,0.5235987755982988,0,0.474361,0.05324049,-1.5095874,0.9124272,-0.8390869,1.4086643,-2.979716,-0.76299447,-1.8065429,1.052438,-0.2749693,0.0030257222,0.9363158,0.477918
0.1,0.0,1.1999999999999997,0.5235987755982988,0.5235987755982988,0,0.46866113,0.0427126,-1.5159609,0.9207069,-0.83431125,1.3974487,-3.0180793,-0.76113635,-1.8010466,1.0725992,-0.29508263,0.2611054,0.9374457,-0.26817077
0.1,0.0,1.1999999999999997,0.5235987755982988,0.5235987755982988,0,0.4852764,0.046507027,-1.5222483,0.9146103,-0.85078543,1.4038299,-2.952726,-0.75846463,-1.8130513,1.0669111,-0.28768912,-0.077056706,0.98021656,0.9681198
0.1,0.0,1.1999999999999997,0.5235987755982988,0.5235987755982988,0,0.48573232,0.05398054,-1.513229,0.9154629,-0.8496778,1.4018282,-2.9846969,-0.76119375,-1.8009262,1.0631037,-0.25156066,0.23516169,1.1466422,-0.36343998
0.1,0.0,1.1999999999999997,0.5235987755982988,0.5235987755982988,0,0.47972447,0.048594605,-1.5267243,0.9096584,-0.8145709,1.3964283,-2.9648356,-0.76277924,-1.8027498,1.0476804,-0.29618388,-0.18981813,0.9747929,1.1803699
0.1,0.0,1.1999999999999997,0.5235987755982988,0.5235987755982988,0,0.49066997,0.046919364,-1.5189903,0.9136525,-0.8294945,1.4109839,-2.9371772,-0.76215446,-1.8088442,1.0744437,-0.29687476,0.39885005,1.0438285,0.5112902
0.1,0.0,1.1999999999999997,0.5235987755982988,0.5235987755982988,0,0.4777814,0.045553457,-1.517799,0.9146203,-0.841258,1.3997148,-2.9839506,-0.76006657,-1.8127973,1.0550236,-0.25708327,-0.11018191,1.1273004,0.23898914
0.1,0.0,1.1999999999999997,0.5235987755982988,0.5235987755982988,0,0.49091288,0.049326964,-1.5084764,0.91643435,-0.8465423,1.4149959,-2.9720645,-0.7602086,-1.8067933,1.064188,-0.22716449,0.07276362,1.0161321,0.41354424
0.1,0.0,1.1999999999999997,0.5235987755982988,0.5235987755982988,0,0.47836846,0.05398722,-1.5139952,0.91748154,-0.8393283,1.4017841,-2.9610288,-0.76193213,-1.8037658,1.0514532,-0.30703807,-0.0043301918,0.8365762,0.17474633
0.1,0.0,1.1999999999999997,0.5235987755982988,0.5235987755982988,0,0.48543376,0.052963853,-1.5180886,0.9110204,-0.8327148,1.4012165,-3.0344768,-0.7609872,-1.8048489,1.0778944,-0.3152445,-0.06375262,0.9134574,-1.0166326
0.1,0.0,1.1999999999999997,0.5235987755982988,0.5235987755982988,0,0.4768031,0.04534637,-1.5206913,0.9239233,-0.842447,1.3976704,-2.9541986,-0.7593991,-1.8044767,1.0653796,-0.2460261,0.060637396,0.9369119,0.53139764
0.1,0.0,1.1999999999999997,0.5235987755982988,0.5235987755982988,0,0.4725105,0.050163027,-1.5212544,0.9158686,-0.83978665,1.3983111,-2.9967391,-0.7622569,-1.8076484,1.0540761,-0.19804966,0.1846138,0.83320755,0.28857136
0.1,0.0,1.1999999999999997,0.5235987755982988,0.5235987755982988,0,0.4770264,0.04778406,-1.5095037,0.9060957,-0.8486785,1.4041306,-2.9787545,-0.7608712,-1.8045099,1.03977,-0.20821652,-0.034393948,1.0029148,0.8890478
0.1,0.0,1.1999999999999997,0.5235987755982988,0.5235987755982988,0,0.4877617,0.04679151,-1.513758,0.9204105,-0.85002,1.4041533,-2.9964945,-0.7599045,-1.805735,1.0740114,-0.2553272,0.33845523,1.0010062,-0.37842652
0.1,0.0,1.1999999999999997,0.5235987755982988,0.5235987755982988,0,0.4812897,0.05125818,-1.5103998,0.9211121,-0.8246772,1.3975304,-3.010212,-0.76104504,-1.8108563,1.0550689,-0.23977388,-0.37098435,0.84027207,0.32322314
0.1,0.0,1.1999999999999997,0.5235987755982988,0.5235987755982988,0,0.4840302,0.052636288,-1.5219979,0.91685176,-0.8451661,1.4100091,-2.9616868,-0.7628959,-1.8042158,1.0453222,-0.2687768,-0.58279026,1.0666705,0.26236334
0.1,0.0,1.1999999999999997,0.5235987755982988,0.5235987755982988,0,0.48446992,0.0530278,-1.5205498,0.9240017,-0.84401387,1.402415,-2.971823,-0.76035595,-1.8023417,1.0755295,-0.3103441,0.15288216,1.035612,0.9608432
0.1,0.0,1.1999999999999997,0.5235987755982988,0.5235987755982988,0,0.47649512,0.048800103,-1.5168767,0.92708945,-0.84551656,1.3881627,-2.9969623,-0.7599385,-1.8027629,1.0798088,-0.2197573,0.28410152,1.0157851,0.6881536
0.1,0.0,1.1999999999999997,0.5235987755982988,0.5235987755982988,0,0.48419267,0.045274433,-1.5205474,0.92028314,-0.8554615,1.4019415,-3.0088294,-0.7625563,-1.8091455,1.0635958,-0.28165329,-0.015629683,0.9229687,-0.44772172
0.1,0.0,1.1999999999999997,0.5235987755982988,0.5235987755982988,0,0.47891763,0.049850944,-1.5199978,0.9250849,-0.85090524,1.3968533,-2.9858086,-0.76141036,-1.807743,1.072944,-0.29040605,0.04809726,0.8428812,-0.6389297
0.1,0.0,1.1999999999999997,0.5235987755982988,0.5235987755982988,0,0.48326403,0.051997405,-1.5190527,0.90968734,-0.8419944,1.4143473,-2.9690173,-0.75976694,-1.8038148,1.0825092,-0.25067022,-0.4240753,1.1127615,0.029572252
0.1,0.0,1.1999999999999997,0.5235987755982988,0.5235987755982988,0,0.47744715,0.047230247,-1.5123334,0.917398,-0.82438135,1.4124397,-2.9523365,-0.7617772,-1.8037186,1.0843323,-0.27647945,0.16693205,0.9533635,-0.8291647
0.1,0.0,1.1999999999999997,0.5235987755982988,0.5235987755982988,0,0.48191568,0.053813055,-1.5176474,0.9185958,-0.8381085,1.4048414,-3.0097995,-0.7617174,-1.8082441,1.0680448,-0.2734027,0.06330314,0.7450514,-0.09211694
0.1,0.0,1.1999999999999997,0.5235987755982988,0.5235987755982988,0,0.4832184,0.05188026,-1.5184304,0.9168965,-0.8463538,1.4029131,-2.9801006,-0.7601692,-1.8113517,1.0616177,-0.22604066,-0.28361067,1.0185226,-0.43442348
0.1,0.0,1.1999999999999997,0.5235987755982988,0.5235987755982988,0,0.4812572,0.05244072,-1.5222162,0.92316437,-0.81673425,1.405066,-2.9208474,-0.7634381,-1.802922,1.0825212,-0.2528201,0.12763695,1.0122278,1.3353405
0.1,0.0,1.1999999999999997,0.5235987755982988,0.5235987755982988,0,0.47724742,0.050415482,-1.5162405,0.917883,-0.81035674,1.4057151,-2.952308,-0.7628265,-1.8121674,1.062704,-0.2691072,0.12581395,0.86366475,0.81160563
0.1,0.0,1.1999999999999997,0.5235987755982988,0.5235987755982988,0,0.48637527,0.054600656,-1.5131675,0.9180453,-0.81730217,1.4217681,-2.9718022,-0.762846,-1.8088013,1.0696164,-0.25532585,0.3611364,0.97802985,0.024788285
0.1,0.0,1.1999999999999997,0.5235987755982988,0.5235987755982988,0,0.47832897,0.051694795,-1.5094981,0.92033416,-0.8226038,1.4015036,-2.971274,-0.7641564,-1.8092833,1.0921749,-0.27130884,0.66832644,1.0582547,0.29302278
0.1,0.0,1.1999999999999997,0.5235987755982988,0.5235987755982988,0,0.48024043,0.048048217,-1.5278544,0.9174348,-0.83257794,1.3914127,-3.031559,-0.76119924,-1.7994566,1.0745226,-0.2925975,-0.12509322,1.0323215,1.3018184
0.1,0.0,1.1999999999999997,0.5235987755982988,0.5235987755982988,0,0.49010095,0.05499247,-1.5084796,0.9198199,-0.8419567,1.3977932,-2.9662185,-0.7605506,-1.8030198,1.052492,-0.21929349,0.13745973,0.75910306,0.3258791
0.1,0.0,1.1999999999999997,0.5235987755982988,0.5235987755982988,0,0.4862541,0.046491973,-1.5070581,0.91898954,-0.83440155,1.3935641,-2.9976187,-0.7652668,-1.8055679,1.0828105,-0.22707926,0.27882427,1.1274328,-0.3672039
0.1,0.0,1.1999999999999997,0.5235987755982988,0.5235987755982988,0,0.48589537,0.04897951,-1.5155172,0.91432625,-0.8449954,1.3932021,-2.9566004,-0.7594541,-1.7980602,1.0621291,-0.28754884,-0.092093855,0.9839112,0.14079845
0.1,0.0,1.1999999999999997,0.5235987755982988,0.5235987755982988,0,0.4790874,0.036746487,-1.5171427,0.9138064,-0.8445075,1.3978812,-2.940191,-0.7619535,-1.8057168,1.0929003,-0.20541035,-0.14223279,0.99008226,1.20158
0.1,0.0,1.1999999999999997,0.5235987755982988,0.5235987755982988,0,0.49349505,0.0409334,-1.5186459,0.9198847,-0.8272627,1.3983928,-2.951046,-0.75880283,-1.8004049,1.0941443,-0.2912288,0.2160037,0.78992164,0.71483916
0.1,0.0,1.1999999999999997,0.5235987755982988,0.5235987755982988,0,0.49553353,0.05059217,-1.5099993,0.9196856,-0.8242731,1.3923707,-2.961409,-0.75965786,-1.8041784,1.0919191,-0.21704806,0.1953377,1.1586847,-0.17198792
0.1,0.0,1.1999999999999997,0.5235987755982988,0.5235987755982988,0,0.48350996,0.038944557,-1.511724,0.9179379,-0.84022236,1.3963917,-2.969628,-0.76200116,-1.8058625,1.0534555,-0.22231452,-0.1324356,0.89461374,0.73410547
0.1,0.0,1.1999999999999997,0.5235987755982988,0.5235987755982988,0,0.48623818,0.046716448,-1.5200826,0.91398394,-0.8339436,1.3986984,-2.983733,-0.7623365,-1.7995762,1.0677887,-0.23160364,-0.04893731,0.9887775,0.44270754
0.1,0.0,1.1999999999999997,0.5235987755982988,0.5235987755982988,0,0.4814854,0.044325642,-1.5173724,0.9139169,-0.85480183,1.4036908,-2.925905,-0.7594782,-1.8075575,1.0876969,-0.24112031,-0.129724,0.841864,-1.4782264
0.1,0.0,1.1999999999999997,0.5235987755982988,0.5235987755982988,0,0.48892215,0.04399084,-1.518762,0.9193081,-0.8429654,1.4003558,-2.9659579,-0.765373,-1.8084402,1.0619224,-0.24170004,-0.35678264,1.0896897,0.07379816
0.1,0.0,1.1999999999999997,0.5235987755982988,0.5235987755982988,0,0.47877476,0.045380294,-1.5164105,0.9238796,-0.83395463,1.4022763,-2.9327877,-0.76143533,-1.8041544,1.067075,-0.28212124,-0.02935197,0.7093276,0.08286326
0.1,0.0,1.1999999999999997,0.5235987755982988,0.5235987755982988,0,0.48628995,0.051521283,-1.516135,0.9089419,-0.84717274,1.3942572,-2.920823,-0.76194453,-1.8059458,1.0364889,-0.22530955,0.014378823,1.076229,0.72214603
0.1,0.0,1.1999999999999997,0.5235987755982988,0.5235987755982988,0,0.48793373,0.050771803,-1.5196362,0.9236273,-0.8365573,1.4031942,-2.9756732,-0.7645547,-1.8063693,1.0824664,-0.3268979,0.206592,0.76100296,0.50181496
0.1,0.0,1.1999999999999997,0.5235987755982988,0.5235987755982988,0,0.48616648,0.04399387,-1.5146701,0.91418576,-0.829903,1.4053386,-2.9734502,-0.76210177,-1.8064002,1.0715569,-0.25663188,0.10029918,0.97289956,1.3596045
0.1,0.0,1.1999999999999997,0.5235987755982988,0.5235987755982988,0,0.47350466,0.04197222,-1.509099,0.9142181,-0.83888865,1.3929656,-2.9669595,-0.7607199,-1.8068076,1.0746995,-0.27577114,-0.13792977,1.151765,-0.027722303
0.1,0.0,1.1999999999999997,0.5235987755982988,0.5235987755982988,0,0.47651044,0.060328234,-1.5108528,0.91286165,-0.8388277,1.3912933,-2.9850056,-0.76024044,-1.8038197,1.0503769,-0.26893,0.05657549,0.9731656,1.0617849
0.1,0.0,1.1999999999999997,0.5235987755982988,0.5235987755982988,0,0.4835144,0.044356458,-1.5203288,0.92258793,-0.8372666,1.3958964,-2.9844453,-0.76244754,-1.8030891,1.0458107,-0.21062022,0.23005034,1.1149814,0.6347455
0.1,0.0,1.1999999999999997,0.5235987755982988,0.5235987755982988,0,0.48514637,0.047808554,-1.523067,0.91405493,-0.84842646,1.3937933,-2.9765205,-0.7571169,-1.8041496,1.0752792,-0.22058174,0.23624106,1.1310401,1.0938411
0.1,0.0,1.1999999999999997,0.5235987755982988,0.5235987755982988,0,0.4761814,0.041948125,-1.5156343,0.922566,-0.84114164,1.4006208,-2.9901094,-0.7586415,-1.8037608,1.054492,-0.2779128,-0.18338156,0.916119,0.92790574
0.1,0.0,1.1999999999999997,0.5235987755982988,0.5235987755982988,0,0.4840582,0.047648486,-1.511208,0.9171538,-0.8386493,1.3999916,-2.9852414,-0.7616856,-1.808935,1.0603957,-0.2567652,0.27316207,1.1450139,0.6599503
