sanky1234/BimanualDexCatch/isaacgymenvs/cem_results/football_pose_0.0_-0.1_1.0999999999999999_0.0_-0.5235987755982988_0_2025-05-26.csv
x,y,z,roll,pitch,yaw,robot1/joint1,robot1/joint2,robot1/joint3,robot1/joint4,robot1/joint5,robot1/joint6,robot1/joint7,robot2/joint1,robot2/joint2,robot2/joint3,robot2/joint4,robot2/joint5,robot2/joint6,robot2/joint7
0.0,-0.1,1.0999999999999999,0.0,-0.5235987755982988,0,0.43751323,-0.798547,2.0612683,0.12131729,0.036080312,0.60040563,-0.61272573,0.062562406,-0.39778855,-1.1639247,0.14568222,0.2855614,0.9664441,-0.21837479
0.0,-0.1,1.0999999999999999,0.0,-0.5235987755982988,0,0.43514502,-0.7994205,2.0616717,0.12602198,0.14404337,0.65821326,-0.78928405,0.05860704,-0.39876324,-1.2296642,-0.034966726,0.18363355,0.76506215,-0.8550981
0.0,-0.1,1.0999999999999999,0.0,-0.5235987755982988,0,0.4350225,-0.798373,2.061553,0.12535557,0.16824079,0.594092,0.15870385,0.061522566,-0.3970694,-1.1311538,-0.0457228,-0.035002206,1.1233116,-0.20825529
0.0,-0.1,1.0999999999999999,0.0,-0.5235987755982988,0,0.43600708,-0.7984699,2.0594964,0.1288011,0.100774534,0.63775074,-0.4018304,0.06201127,-0.39633596,-1.1661652,0.07476669,-0.39007068,0.98966414,-1.0181084
0.0,-0.1,1.0999999999999999,0.0,-0.5235987755982988,0,0.43722463,-0.7973412,2.0601768,0.12883285,0.24389516,0.5859304,-0.018945662,0.057364676,-0.3969103,-1.1711953,0.035782907,0.30414435,0.9578967,-1.2367858
0.0,-0.1,1.0999999999999999,0.0,-0.5235987755982988,0,0.4353762,-0.7980786,2.0615537,0.12816405,0.3347399,0.58563304,-0.22940579,0.049807023,-0.39691982,-1.1610323,0.21903571,0.51208574,0.9988665,-0.45249304
0.0,-0.1,1.0999999999999999,0.0,-0.5235987755982988,0,0.43498096,-0.79886824,2.060609,0.1284907,0.32262206,0.6337265,-1.0605692,0.056551762,-0.39896962,-1.1849931,-0.13247097,0.6117972,1.038917,-0.053989395
0.0,-0.1,1.0999999999999999,0.0,-0.5235987755982988,0,0.4366705,-0.7981523,2.0603993,0.1278163,0.067443214,0.66017306,0.34001902,0.05515208,-0.3992506,-1.1093396,-0.028397065,-0.05256702,1.0261942,0.07099754
0.0,-0.1,1.0999999999999999,0.0,-0.5235987755982988,0,0.43655232,-0.7996827,2.0623183,0.13135257,0.17994572,0.639664,-0.08597246,0.062034536,-0.39748055,-1.1518373,0.16467848,0.06809748,0.85120267,0.1295852
0.0,-0.1,1.0999999999999999,0.0,-0.5235987755982988,0,0.43739313,-0.7980517,2.059558,0.1275127,0.3287312,0.6201345,-1.0659378,0.049394324,-0.39982432,-1.1690948,-0.019618474,0.22201927,1.1073794,-0.30152994
0.0,-0.1,1.0999999999999999,0.0,-0.5235987755982988,0,0.43715748,-0.798942,2.0594428,0.12511325,0.13415603,0.64598525,0.52240455,0.06715294,-0.3968839,-1.1241491,0.09454647,0.3592236,1.2182055,-1.0777375
0.0,-0.1,1.0999999999999999,0.0,-0.5235987755982988,0,0.43589216,-0.79883915,2.0597517,0.1287927,0.06145296,0.61141896,0.13689227,0.06128502,-0.39615333,-1.1080046,0.015247582,0.45817372,1.0174416,-0.3141788
0.0,-0.1,1.0999999999999999,0.0,-0.5235987755982988,0,0.43500462,-0.7997205,2.0618644,0.119404234,0.17726447,0.5908632,-0.85064,0.050576564,-0.39639056,-1.1830661,0.11968236,0.19370137,1.0825632,-0.6264812
0.0,-0.1,1.0999999999999999,0.0,-0.5235987755982988,0,0.4355546,-0.79900455,2.060144,0.12694477,0.09650754,0.66155195,-0.44295606,0.06200801,-0.39841807,-1.2180758,-0.035906173,0.032810755,0.8908255,-0.8220362
0.0,-0.1,1.0999999999999999,0.0,-0.5235987755982988,0,0.43717712,-0.7984715,2.061285,0.1259211,0.30276695,0.63563746,0.4174059,0.06438494,-0.39847794,-1.2052618,0.082694955,0.2544874,1.007996,-1.5001277
0.0,-0.1,1.0999999999999999,0.0,-0.5235987755982988,0,0.43757287,-0.79805607,2.0610018,0.12628478,0.12977685,0.6419564,-1.8411471,0.048678767,-0.3992014,-1.1684512,0.10818671,0.36936662,1.1510946,0.42504817
0.0,-0.1,1.0999999999999999,0.0,-0.5235987755982988,0,0.4341118,-0.79925233,2.062458,0.13004357,0.2592905,0.62131673,-0.09191695,0.04626018,-0.39714906,-1.0817276,0.1818619,0.7417023,0.9159854,-0.20967598
0.0,-0.1,1.0999999999999999,0.0,-0.5235987755982988,0,0.43638942,-0.79845464,2.0593672,0.12290287,0.08793611,0.65593493,-0.6988954,0.0586698,-0.39828214,-1.127275,0.05018423,0.28085193,1.1587867,-0.058660768
0.0,-0.1,1.0999999999999999,0.0,-0.5235987755982988,0,0.43315756,-0.7987926,2.0613852,0.12645587,0.019977631,0.6326858,-0.5905668,0.068336986,-0.40022892,-1.2001251,0.0444663,0.76738656,0.7485311,-0.4321228
0.0,-0.1,1.0999999999999999,0.0,-0.5235987755982988,0,0.43578115,-0.79870147,2.0603392,0.12864633,0.13745774,0.63678896,0.3552655,0.07550142,-0.39487088,-1.1611934,0.15899578,0.024434961,1.1520147,0.39745918
0.0,-0.1,1.0999999999999999,0.0,-0.5235987755982988,0,0.4342537,-0.79909635,2.0599642,0.12914526,0.018169463,0.6631938,-0.25679144,0.05995145,-0.40017867,-1.1483327,0.07321335,0.21230653,1.1099966,0.23596223
0.0,-0.1,1.0999999999999999,0.0,-0.5235987755982988,0,0.43567902,-0.7973659,2.0600462,0.124797724,0.1957857,0.63884836,-0.875248,0.06505263,-0.3977895,-1.1610429,0.15019518,0.09691119,1.0657556,-0.9725105
0.0,-0.1,1.0999999999999999,0.0,-0.5235987755982988,0,0.4361831,-0.7996404,2.0598624,0.12407538,0.14314666,0.6508217,-0.6346431,0.070439495,-0.39766884,-1.1516964,-0.027587265,0.13299333,0.9574331,-1.7380139
0.0,-0.1,1.0999999999999999,0.0,-0.5235987755982988,0,0.43405277,-0.7992169,2.0610223,0.12647909,0.16094774,0.61780417,-0.8472287,0.055590756,-0.39713663,-1.207078,0.05443793,0.642168,0.76902187,-1.414276
0.0,-0.1,1.0999999999999999,0.0,-0.5235987755982988,0,0.43490833,-0.79836047,2.062028,0.12273712,0.23607683,0.6671463,-0.832172,0.05799218,-0.39710706,-1.2053028,-0.0022692499,0.5099254,0.9949641,-0.97892445
0.0,-0.1,1.0999999999999999,0.0,-0.5235987755982988,0,0.4366785,-0.7986981,2.0602844,0.13262077,0.3369492,0.5873186,-0.48851195,0.059086915,-0.39624715,-1.1566683,0.024758164,-0.057515867,1.0511125,-0.5536945
0.0,-0.1,1.0999999999999999,0.0,-0.5235987755982988,0,0.43750256,-0.7992553,2.0585976,0.124072686,0.20963047,0.58492506,-0.96005654,0.045595527,-0.3978665,-1.1633903,0.011901059,0.43284562,1.0472825,-1.731506
0.0,-0.1,1.0999999999999999,0.0,-0.5235987755982988,0,0.43497545,-0.79816884,2.0616367,0.12963821,0.1696124,0.63739926,-0.32729766,0.047129784,-0.39758152,-1.2480652,0.16121571,0.38728058,1.0591186,-1.0762101
0.0,-0.1,1.0999999999999999,0.0,-0.5235987755982988,0,0.43623057,-0.7978758,2.061379,0.12874132,0.11201639,0.6396153,-0.58232164,0.072935954,-0.39709142,-1.169554,0.13754721,0.3575684,1.0136284,-2.0726366
0.0,-0.1,1.0999999999999999,0.0,-0.5235987755982988,0,0.4355442,-0.7992275,2.0599475,0.12842391,0.24540532,0.573502,-0.5763801,0.06460185,-0.3963062,-1.0850952,0.09842393,0.19425559,1.1421245,-0.6075175
0.0,-0.1,1.0999999999999999,0.0,-0.5235987755982988,0,0.43518138,-0.79838914,2.060736,0.12940258,0.14055476,0.61524135,-0.8423126,0.06918839,-0.3957301,-1.0998389,-0.01930745,-0.009474543,1.0053209,-0.8339607
0.0,-0.1,1.0999999999999999,0.0,-0.5235987755982988,0,0.43690553,-0.79778993,2.0598927,0.12761855,0.14555979,0.6441005,-1.1174155,0.046005324,-0.3997443,-1.2131255,0.02306229,0.27428502,0.88612264,-0.10348451
0.0,-0.1,1.0999999999999999,0.0,-0.5235987755982988,0,0.43526688,-0.79856557,2.0600107,0.12607677,0.20808794,0.6607629,-0.9141052,0.053623687,-0.39791378,-1.117923,0.058633316,-0.016912773,0.9675952,-1.2149254
0.0,-0.1,1.0999999999999999,0.0,-0.5235987755982988,0,0.43573713,-0.7970507,2.0618815,0.12631933,0.26150957,0.64012504,-0.77810913,0.057354562,-0.39643377,-1.1864455,0.13345283,0.4728113,1.0366545,-0.16164353
0.0,-0.1,1.0999999999999999,0.0,-0.5235987755982988,0,0.4374837,-0.79921275,2.0606253,0.11951602,0.15241976,0.60973126,-1.2289361,0.045754332,-0.39986044,-1.1174792,0.08647304,-0.1512307,1.051919,-0.501382
0.0,-0.1,1.0999999999999999,0.0,-0.5235987755982988,0,0.4363308,-0.7979641,2.0593247,0.12932925,0.17720088,0.6088083,-0.2906636,0.05630129,-0.3966007,-1.1773195,0.15551369,-0.16198574,0.95900095,-0.45064768
0.0,-0.1,1.0999999999999999,0.0,-0.5235987755982988,0,0.43661126,-0.7988048,2.058871,0.12453297,0.25059295,0.63121426,-0.82790554,0.068060495,-0.3993602,-1.2049416,-0.12234388,0.42496276,0.9703072,0.6410319
0.0,-0.1,1.0999999999999999,0.0,-0.5235987755982988,0,0.4370002,-0.7992084,2.0602262,0.12794702,0.13570045,0.58938116,-0.10719797,0.060488347,-0.39590687,-1.2264367,0.200689,0.46911922,1.0359987,0.02838244
0.0,-0.1,1.0999999999999999,0.0,-0.5235987755982988,0,0.436918,-0.7985231,2.062117,0.12717204,0.32556063,0.6021571,-0.14232711,0.058838103,-0.39705184,-1.1993403,0.019889357,-0.012167902,0.9494364,-0.8966846
0.0,-0.1,1.0999999999999999,0.0,-0.5235987755982988,0,0.4354208,-0.7973635,2.0626137,0.12529232,0.13658538,0.62523746,0.049994234,0.065913714,-0.3964387,-1.166559,-0.0086518545,0.060047247,0.81254846,-0.31580704
0.0,-0.1,1.0999999999999999,0.0,-0.5235987755982988,0,0.43896115,-0.7986807,2.0600784,0.12925388,0.17362021,0.61706436,-0.3357614,0.04939051,-0.39761847,-1.1825958,0.19471702,0.40044895,1.2308543,0.06493399
0.0,-0.1,1.0999999999999999,0.0,-0.5235987755982988,0,0.436585,-0.79784846,2.061446,0.12417681,0.09413756,0.63495535,-0.22453323,0.056725383,-0.3964194,-1.081954,0.30970734,0.7020937,0.9727301,-0.27662948
0.0,-0.1,1.0999999999999999,0.0,-0.5235987755982988,0,0.43655962,-0.79880846,2.0624957,0.13087673,0.19492733,0.63369954,-0.73448294,0.054421693,-0.39734152,-1.095479,-0.048806697,0.13677913,1.2549186,-1.9833813
0.0,-0.1,1.0999999999999999,0.0,-0.5235987755982988,0,0.43616265,-0.79849213,2.0605118,0.12707546,0.25003323,0.6348978,-0.44508493,0.039948992,-0.3981994,-1.1674765,0.035871796,0.31138396,1.0840712,-1.0058678
0.0,-0.1,1.0999999999999999,0.0,-0.5235987755982988,0,0.43455812,-0.7990923,2.0615904,0.1334508,-0.017103598,0.5849797,-1.2290226,0.051358655,-0.3956834,-1.1630156,0.029503144,0.43813848,0.8720807,-1.7045664
0.0,-0.1,1.0999999999999999,0.0,-0.5235987755982988,0,0.43409538,-0.79871327,2.062292,0.12698233,0.060509283,0.62163985,-1.0807847,0.049746074,-0.39712095,-1.1563773,0.09554554,0.6054678,0.98046625,0.83276606
0.0,-0.1,1.0999999999999999,0.0,-0.5235987755982988,0,0.4354922,-0.79955894,2.0600388,0.12436077,0.23642872,0.5985168,-0.23285437,0.06514248,-0.39831457,-1.1736706,0.0476155,0.6658723,1.0542997,0.11311285
0.0,-0.1,1.0999999999999999,0.0,-0.5235987755982988,0,0.4359903,-0.7992999,2.0618849,0.12844954,0.10786903,0.6240746,-0.9855625,0.058429297,-0.39637333,-1.1933494,0.096193165,-0.3095487,0.96400976,0.6361584
0.0,-0.1,1.0999999999999999,0.0,-0.5235987755982988,0,0.43590564,-0.79815507,2.0627882,0.12252517,0.19713905,0.6521242,0.07211945,0.06511258,-0.39918983,-1.1838361,0.15796076,0.63715214,0.9877968,-0.1619452
0.0,-0.1,1.0999999999999999,0.0,-0.5235987755982988,0,0.43751574,-0.79757327,2.0630832,0.1335418,0.35885507,0.60773605,-0.8689165,0.059940778,-0.3966995,-1.1316599,0.13637148,0.09171151,0.7171724,-1.0202788
0.0,-0.1,1.0999999999999999,0.0,-0.5235987755982988,0,0.4360019,-0.7973488,2.0620925,0.13184765,0.106408276,0.5727094,-0.89693546,0.061993275,-0.39965644,-1.0778731,0.27158746,0.038190242,0.8785926,-1.056936
0.0,-0.1,1.0999999999999999,0.0,-0.5235987755982988,0,0.43625253,-0.79868263,2.0609853,0.1192775,0.33772832,0.63152754,-0.81787723,0.059089966,-0.3973637,-1.1552727,0.15047203,-0.1608323,0.77261335,0.046854157
0.0,-0.1,1.0999999999999999,0.0,-0.5235987755982988,0,0.43646544,-0.7980443,2.0620222,0.13026996,0.16773695,0.6089885,-0.7022337,0.05122134,-0.39652115,-1.0819067,0.097734615,0.0973165,0.89511305,0.4443094
0.0,-0.1,1.0999999999999999,0.0,-0.5235987755982988,0,0.43542784,-0.79952365,2.0584853,0.12570441,0.2227426,0.5831347,-0.7128881,0.05549263,-0.3998432,-1.1575011,-0.05227867,0.21402119,1.026588,-0.18932939
0.0,-0.1,1.0999999999999999,0.0,-0.5235987755982988,0,0.43349722,-0.79826355,2.0616848,0.12973249,0.1790097,0.6199222,-0.92256474,0.057108093,-0.39747488,-1.1759425,0.030470846,0.33473116,1.0610819,-1.6404631
0.0,-0.1,1.0999999999999999,0.0,-0.5235987755982988,0,0.43564847,-0.79778874,2.0604513,0.123945765,0.2754554,0.674917,-1.0651168,0.06903155,-0.39739573,-1.147862,0.01834479,0.15499848,1.0197546,-0.78272444
0.0,-0.1,1.0999999999999999,0.0,-0.5235987755982988,0,0.43517482,-0.79697776,2.0602689,0.124195494,0.14619413,0.6396353,-0.3273566,0.0513137,-0.3980067,-1.1979406,0.26143718,0.11089622,0.73147434,-2.0837796
0.0,-0.1,1.0999999999999999,0.0,-0.5235987755982988,0,0.43508732,-0.7977528,2.0592952,0.13455641,0.15661469,0.607387,-1.1789014,0.058589574,-0.3980972,-1.0830752,0.2699828,0.46604782,1.1102726,-0.95304835
0.0,-0.1,1.0999999999999999,0.0,-0.5235987755982988,0,0.4366229,-0.799255,2.0598335,0.12690206,0.15973611,0.62685084,-0.16129006,0.056603312,-0.3964715,-1.1816555,-0.14131966,0.20015481,1.0680463,-1.8425351
0.0,-0.1,1.0999999999999999,0.0,-0.5235987755982988,0,0.43437955,-0.7986738,2.060452,0.13138299,0.3607984,0.60923505,-0.0055676918,0.06738039,-0.3941022,-1.1473267,0.18009657,0.093335815,1.0659733,-0.18986255
0.0,-0.1,1.0999999999999999,0.0,-0.5235987755982988,0,0.43362466,-0.7983395,2.059464,0.122561336,-0.030006966,0.59963566,-0.7517379,0.07533287,-0.39799058,-1.1787536,0.054922983,0.006911086,1.0299029,-0.8119534
0.0,-0.1,1.0999999999999999,0.0,-0.5235987755982988,0,0.4358797,-0.798527,2.0597,0.123776615,0.18322048,0.59370184,-1.1762787,0.060339335,-0.39719784,-1.1118755,0.030631328,0.50822884,0.82399815,-0.95424706
0.0,-0.1,1.0999999999999999,0.0,-0.5235987755982988,0,0.43519944,-0.799124,2.0591578,0.12683259,0.16303551,0.6191672,-0.29562962,0.047608443,-0.3963784,-1.1856943,0.0032838015,-0.000100625475,1.0320603,0.01993084
0.0,-0.1,1.0999999999999999,0.0,-0.5235987755982988,0,0.43724263,-0.79844683,2.061729,0.12406352,0.12910339,0.60632527,0.2898319,0.048085485,-0.3973433,-1.2009788,0.025141403,0.17874444,0.9430873,-1.9182464
0.0,-0.1,1.0999999999999999,0.0,-0.5235987755982988,0,0.43547314,-0.7985915,2.0598376,0.1315877,0.27665797,0.6020599,-0.4130365,0.04331771,-0.39683208,-1.1114069,0.07487343,-0.22663666,0.9375566,0.3348559
0.0,-0.1,1.0999999999999999,0.0,-0.5235987755982988,0,0.43506715,-0.7984437,2.059432,0.12749146,0.1459107,0.6282584,0.13409796,0.065020695,-0.39752483,-1.1584847,-0.081053525,0.41157168,0.97805244,-0.30268788
0.0,-0.1,1.0999999999999999,0.0,-0.5235987755982988,0,0.43558168,-0.79896027,2.0602424,0.12972942,0.20736377,0.643348,-0.22236691,0.06876439,-0.39725566,-1.1776898,0.11001861,0.59007186,0.95856714,-0.53168774
0.0,-0.1,1.0999999999999999,0.0,-0.5235987755982988,0,0.436186,-0.79955834,2.0610745,0.11389273,0.17953444,0.6213938,-0.8039942,0.048907083,-0.3992419,-1.141097,0.08335543,0.79694396,1.1845673,-0.48717183
0.0,-0.1,1.0999999999999999,0.0,-0.5235987755982988,0,0.43593287,-0.7977072,2.0605044,0.12668973,0.27586636,0.61851025,-0.6677715,0.06340806,-0.39599988,-1.2312512,0.13684747,0.1468882,0.95997685,0.4110719
0.0,-0.1,1.0999999999999999,0.0,-0.5235987755982988,0,0.43418178,-0.79700524,2.0621457,0.126232,0.18202625,0.5588254,-0.09650641,0.06869693,-0.3973986,-1.157799,-0.07525803,0.16364042,0.91380256,-0.28473306
0.0,-0.1,1.0999999999999999,0.0,-0.5235987755982988,0,0.4348102,-0.79918945,2.0609004,0.12654346,0.24581037,0.6157195,-0.56285316,0.056418743,-0.39712635,-1.1854899,0.05822441,0.51535255,0.8657002,-1.504463
0.0,-0.1,1.0999999999999999,0.0,-0.5235987755982988,0,0.43531072,-0.79833585,2.0613112,0.12547173,0.14918284,0.64556944,-0.74027616,0.060885195,-0.3985069,-1.0984442,0.091109015,0.37409002,0.8594845,-0.77433765
0.0,-0.1,1.0999999999999999,0.0,-0.5235987755982988,0,0.43420646,-0.7981478,2.0613577,0.124111496,0.24044521,0.59486043,-0.17084166,0.06166858,-0.3982769,-1.0799137,0.11970226,0.0705543,0.8944435,0.029266523
0.0,-0.1,1.0999999999999999,0.0,-0.5235987755982988,0,0.43590805,-0.7972058,2.0612483,0.13196754,0.34230113,0.6007176,-1.2652861,0.06106586,-0.3981909,-1.127658,0.12632917,0.5974849,0.8825868,-0.7763767
0.0,-0.1,1.0999999999999999,0.0,-0.5235987755982988,0,0.43474293,-0.79780626,2.0606396,0.12618068,0.10511673,0.6458385,-1.09158,0.062942706,-0.39697358,-1.0645164,-0.009873282,0.4587609,1.1605185,-0.8659865
0.0,-0.1,1.0999999999999999,0.0,-0.5235987755982988,0,0.43650672,-0.79762447,2.058921,0.12789817,0.14759651,0.56490386,-0.31664082,0.053515255,-0.398656,-1.1266533,-0.02139835,-0.28730357,0.8027604,0.10931537
0.0,-0.1,1.0999999999999999,0.0,-0.5235987755982988,0,0.4356883,-0.79816157,2.058998,0.12930599,0.17563795,0.5962336,-1.030315,0.065013036,-0.39776385,-1.1745642,0.06919158,0.40641376,0.8965417,0.8482582
0.0,-0.1,1.0999999999999999,0.0,-0.5235987755982988,0,0.43564487,-0.7975987,2.0610073,0.12848625,0.34282053,0.58112365,-1.0274001,0.06696194,-0.39587903,-1.1203837,0.05516507,0.21264371,1.0567682,-1.8085513
0.0,-0.1,1.0999999999999999,0.0,-0.5235987755982988,0,0.4348587,-0.798635,2.0602374,0.12553114,0.24001129,0.6131459,0.48007116,0.066173024,-0.39760822,-1.1072388,0.05025516,0.16887918,0.96027154,-1.4054704
0.0,-0.1,1.0999999999999999,0.0,-0.5235987755982988,0,0.4375597,-0.79339087,2.0624583,0.12876786,0.23914494,0.6285316,-0.22153495,0.06292484,-0.39935547,-1.1809005,0.05797386,0.5528512,1.1619831,-1.9015793
0.0,-0.1,1.0999999999999999,0.0,-0.5235987755982988,0,0.43764842,-0.7996911,2.060668,0.12689044,0.33646414,0.64916074,0.19071658,0.06356261,-0.39720458,-1.2060744,-0.11628375,0.56648856,0.9862806,0.8130958
0.0,-0.1,1.0999999999999999,0.0,-0.5235987755982988,0,0.43572986,-0.7989284,2.0588794,0.12825622,0.2993282,0.5974446,-0.037301533,0.077848226,-0.3961448,-1.1867936,0.17265178,0.38507771,0.8813962,-1.0424846
0.0,-0.1,1.0999999999999999,0.0,-0.5235987755982988,0,0.4355327,-0.79783607,2.0614161,0.13100559,0.05835463,0.6693298,-1.2425158,0.06857867,-0.39866206,-1.0759611,-0.04786006,0.08733192,0.78318495,-1.4414594
0.0,-0.1,1.0999999999999999,0.0,-0.5235987755982988,0,0.43665037,-0.7979392,2.0603282,0.131296,0.26493368,0.6629,0.23842624,0.07335157,-0.39842072,-1.2638915,-0.083356634,0.47328433,0.930948,-1.200144
0.0,-0.1,1.0999999999999999,0.0,-0.5235987755982988,0,0.43444803,-0.79846907,2.0609548,0.12406893,-0.017616948,0.63001966,-0.5694412,0.053158157,-0.39638728,-1.0958486,-0.031354785,0.1247478,1.0879173,-1.1311721
0.0,-0.1,1.0999999999999999,0.0,-0.5235987755982988,0,0.4359221,-0.7988933,2.0590343,0.13501166,0.23381442,0.6309327,-1.0918508,0.05854146,-0.39658853,-1.1976941,0.19766337,0.3395906,1.1325167,0.12486905
0.0,-0.1,1.0999999999999999,0.0,-0.5235987755982988,0,0.4362743,-0.7979529,2.0599575,0.12614614,0.1479855,0.62493885,-0.77398735,0.06318777,-0.3997441,-1.1025739,-0.15194708,0.08988329,0.93666774,-0.84331065
0.0,-0.1,1.0999999999999999,0.0,-0.5235987755982988,0,0.4355368,-0.79887235,2.0603917,0.12669818,0.17775328,0.59954476,-1.136092,0.0558476,-0.39520395,-1.142052,0.11538046,-0.02269939,1.0682174,-0.50314593
0.0,-0.1,1.0999999999999999,0.0,-0.5235987755982988,0,0.43426985,-0.79780823,2.061353,0.12728243,0.2692897,0.64685684,-0.49298996,0.07546103,-0.40022534,-1.2667222,0.11197348,-0.2080913,1.1220887,-0.29854596
0.0,-0.1,1.0999999999999999,0.0,-0.5235987755982988,0,0.43492088,-0.79877895,2.061138,0.124710955,0.30315065,0.5929005,-0.73177046,0.06472818,-0.39703238,-1.1990938,0.032309048,0.62030715,0.9787448,-1.1944937
0.0,-0.1,1.0999999999999999,0.0,-0.5235987755982988,0,0.43617833,-0.79905725,2.0585558,0.12602997,0.2064336,0.6208798,-1.3481297,0.05128473,-0.39735302,-1.1237903,0.031837516,-0.23971727,0.95807636,-1.5666951
0.0,-0.1,1.0999999999999999,0.0,-0.5235987755982988,0,0.43588895,-0.7979091,2.060208,0.1268551,0.1651749,0.64046955,-1.3759586,0.06308924,-0.3990686,-1.1243174,0.0842484,0.28102198,0.7550262,0.11777182
0.0,-0.1,1.0999999999999999,0.0,-0.5235987755982988,0,0.43396443,-0.7979178,2.0595865,0.12467663,0.10834983,0.6551574,-0.89365387,0.07036586,-0.39858222,-1.1229516,0.009327514,0.44797525,1.0684452,0.5520705
0.0,-0.1,1.0999999999999999,0.0,-0.5235987755982988,0,0.43557236,-0.7997097,2.058491,0.12716372,0.34787187,0.5723555,0.10188456,0.056177244,-0.3986208,-1.1837701,0.100800395,0.23873955,0.928894,-0.14370443
0.0,-0.1,1.0999999999999999,0.0,-0.5235987755982988,0,0.4353299,-0.7977436,2.0597389,0.13578486,0.22162384,0.593537,-0.121641025,0.07155491,-0.39597702,-1.154356,-0.018111318,0.22876234,1.1190851,0.43850982
0.0,-0.1,1.0999999999999999,0.0,-0.5235987755982988,0,0.43452895,-0.79837465,2.0594878,0.12794782,0.21272528,0.6453165,-1.0104632,0.07418158,-0.39810058,-1.2311419,-0.06292841,0.4122199,0.7954336,-0.7207567
0.0,-0.1,1.0999999999999999,0.0,-0.5235987755982988,0,0.4352346,-0.7995819,2.0601637,0.12686074,0.23891021,0.63440996,-1.0159005,0.054796323,-0.39855617,-1.1804767,-0.098483145,0.36571902,0.9924034,-1.8801925
0.0,-0.1,1.0999999999999999,0.0,-0.5235987755982988,0,0.43693778,-0.79771006,2.0592575,0.12760267,0.28610078,0.6400726,-1.1541315,0.06786228,-0.3995175,-1.1981544,0.08140721,0.3977203,0.77734536,-1.2401631
0.0,-0.1,1.0999999999999999,0.0,-0.5235987755982988,0,0.4353294,-0.79823,2.0601397,0.1291089,0.22728203,0.6447906,-0.69994676,0.058422156,-0.4005981,-1.1716874,-0.097181685,0.49588302,0.9914816,-0.6108723
0.0,-0.1,1.0999999999999999,0.0,-0.5235987755982988,0,0.4363961,-0.7983804,2.0611944,0.12809238,0.19391,0.6074111,-0.87769556,0.06715498,-0.39796847,-1.11587,-0.0555305,0.35872307,0.99496245,-1.595636
0.0,-0.1,1.0999999999999999,0.0,-0.5235987755982988,0,0.43493807,-0.7976287,2.0604665,0.12805161,0.08008967,0.597702,-0.75315404,0.06818884,-0.40139824,-1.1634346,0.02403137,0.10027483,1.0608364,-0.81547433
0.0,-0.1,1.0999999999999999,0.0,-0.5235987755982988,0,0.435099,-0.79914266,2.0617218,0.13043633,0.35697222,0.69165325,-0.37986752,0.0497775,-0.39776683,-1.1894786,-0.032384384,-0.21368678,0.7379787,-0.8262891
0.0,-0.1,1.0999999999999999,0.0,-0.5235987755982988,0,0.43714097,-0.7975896,2.0600016,0.12749276,0.28772604,0.6403557,-0.6485663,0.07251506,-0.39863664,-1.1900696,0.11169686,0.4227267,0.8212857,-1.137936
0.0,-0.1,1.0999999999999999,0.0,-0.5235987755982988,0,0.4378188,-0.79779357,2.0594485,0.12782599,0.09570296,0.6019376,0.35497987,0.06770845,-0.39994267,-1.1654269,0.10181125,0.47395962,1.052182,-0.38964564
0.0,-0.1,1.0999999999999999,0.0,-0.5235987755982988,0,0.43400165,-0.79743516,2.0594542,0.12759994,0.07843215,0.6125919,-0.73368186,0.060093056,-0.39832222,-1.143528,0.114832304,-0.38563433,1.0421653,-0.40136564
0.0,-0.1,1.0999999999999999,0.0,-0.5235987755982988,0,0.43753517,-0.7982324,2.0628603,0.12019642,-0.04994114,0.5705942,-0.9924747,0.06406023,-0.3994829,-1.1653117,-0.06825968,0.14792627,0.9055489,-1.1609974
0.0,-0.1,1.0999999999999999,0.0,-0.5235987755982988,0,0.43623793,-0.79778284,2.0591207,0.12956895,0.29546142,0.61389893,-0.87858593,0.06520168,-0.39962694,-1.1384975,-0.124356695,0.5072146,0.9235292,-0.81029713
0.0,-0.1,1.0999999999999999,0.0,-0.5235987755982988,0,0.43822852,-0.79832125,2.0605297,0.12883915,0.18569897,0.6548583,-0.5002752,0.057089236,-0.3984017,-1.1445382,0.10411783,0.58133477,0.85634,0.38837492
0.0,-0.1,1.0999999999999999,0.0,-0.5235987755982988,0,0.4355876,-0.7979357,2.0578618,0.1240409,0.043305423,0.58477324,-0.6270566,0.07241324,-0.39552474,-1.21283,0.04973616,0.45021158,0.8531238,0.32427323
0.0,-0.1,1.0999999999999999,0.0,-0.5235987755982988,0,0.4338729,-0.7984723,2.0595708,0.13021953,0.28011703,0.62024087,-0.6080117,0.06255138,-0.39845648,-1.159974,-0.09463502,0.47719938,1.0523359,0.33903402
0.0,-0.1,1.0999999999999999,0.0,-0.5235987755982988,0,0.43681657,-0.7972018,2.0608766,0.13176772,0.19015592,0.6265366,-1.1186807,0.05925364,-0.39829338,-1.1968455,0.12664141,0.30178663,0.953177,-1.0997331
0.0,-0.1,1.0999999999999999,0.0,-0.5235987755982988,0,0.43438792,-0.7986765,2.059848,0.12656304,0.23089592,0.59140193,-0.89140236,0.06837899,-0.39996532,-1.1881454,0.10238446,0.19723299,1.1622891,-0.9058546
0.0,-0.1,1.0999999999999999,0.0,-0.5235987755982988,0,0.43764192,-0.79887944,2.0584564,0.12949388,0.27351522,0.67489105,0.088792704,0.07038267,-0.39657298,-1.1679757,0.049146485,0.26081082,0.9113863,-2.4710019
0.0,-0.1,1.0999999999999999,0.0,-0.5235987755982988,0,0.4343297,-0.798761,2.0619416,0.13290668,0.16282551,0.63959634,-0.10047827,0.04987063,-0.39741763,-1.139686,0.15447733,0.0820187,0.9990433,-1.2137522
0.0,-0.1,1.0999999999999999,0.0,-0.5235987755982988,0,0.4359341,-0.79776156,2.0598164,0.12611715,0.15331307,0.6082189,-0.8919716,0.07316943,-0.40015382,-1.0888013,0.009090321,-0.20078993,0.9561382,-0.8021015
0.0,-0.1,1.0999999999999999,0.0,-0.5235987755982988,0,0.43545872,-0.7979455,2.0605628,0.1229569,0.20617436,0.58167535,-0.36845654,0.054947935,-0.39961413,-1.1824174,0.13681445,0.54115796,0.84815496,-1.8012412
0.0,-0.1,1.0999999999999999,0.0,-0.5235987755982988,0,0.43470657,-0.7975771,2.0620282,0.12862645,0.2024487,0.64208794,-1.2585615,0.0671378,-0.39628667,-1.1074194,0.064821474,0.0005556571,0.92744994,-0.63252276
0.0,-0.1,1.0999999999999999,0.0,-0.5235987755982988,0,0.4356428,-0.79787564,2.0602934,0.13230743,0.18847872,0.6053294,-0.60337555,0.06026853,-0.39826494,-1.1722906,0.19641376,0.13116659,0.8895804,-0.4141584
0.0,-0.1,1.0999999999999999,0.0,-0.5235987755982988,0,0.43495548,-0.7964817,2.0614552,0.12732734,-0.11396004,0.6490027,-0.38312742,0.0697319,-0.39911982,-1.1792673,0.26769903,0.25240856,0.9884374,-0.36675796
0.0,-0.1,1.0999999999999999,0.0,-0.5235987755982988,0,0.43672934,-0.79870325,2.0587752,0.13084763,0.15264015,0.66344875,-1.422148,0.059290014,-0.40028057,-1.2664948,0.0023068963,0.48215264,0.9199097,0.38292107
0.0,-0.1,1.0999999999999999,0.0,-0.5235987755982988,0,0.43530855,-0.79850465,2.0605526,0.12499442,-0.030229006,0.59332496,-0.4092703,0.06962439,-0.39576778,-1.1857766,-0.08887027,0.4298123,1.0438168,0.2092054
0.0,-0.1,1.0999999999999999,0.0,-0.5235987755982988,0,0.4371499,-0.79753923,2.059933,0.12953342,-0.041313387,0.65904516,-0.586509,0.060399607,-0.39993453,-1.1054965,-0.17517065,0.60329664,0.8068716,-0.47096884
0.0,-0.1,1.0999999999999999,0.0,-0.5235987755982988,0,0.4365371,-0.7982787,2.0605462,0.13020095,0.2487164,0.58897424,-0.2791102,0.06179126,-0.39431423,-1.2106786,-0.013789618,0.2446844,1.0950378,0.28249958
0.0,-0.1,1.0999999999999999,0.0,-0.5235987755982988,0,0.43597737,-0.7991821,2.0589275,0.1317303,0.2616513,0.6199413,-0.5221848,0.06921345,-0.39634946,-1.1400393,0.16437031,0.45450413,1.3046995,-0.99153936
0.0,-0.1,1.0999999999999999,0.0,-0.5235987755982988,0,0.43578127,-0.79899657,2.0609627,0.122152306,0.22230706,0.5780072,-0.4330292,0.05774175,-0.39961842,-1.1927388,0.06565402,0.16180335,1.0643661,0.014833161
0.0,-0.1,1.0999999999999999,0.0,-0.5235987755982988,0,0.4344193,-0.7994622,2.0593467,0.12256304,0.21245943,0.6578964,-0.4557779,0.07894748,-0.39668497,-1.2016913,0.035266094,0.14184031,0.9682096,-1.5072584
0.0,-0.1,1.0999999999999999,0.0,-0.5235987755982988,0,0.43629736,-0.7987631,2.0608616,0.12910119,0.17077774,0.61380905,-1.3260932,0.061335213,-0.39922014,-1.1211717,0.09114145,0.31005853,0.96619374,-0.12222973
0.0,-0.1,1.0999999999999999,0.0,-0.5235987755982988,0,0.4354143,-0.79890186,2.0606568,0.12602083,0.4070741,0.6357014,-0.27774894,0.057215557,-0.39994305,-1.103368,0.13522944,0.028594384,0.9712201,-1.0211434
0.0,-0.1,1.0999999999999999,0.0,-0.5235987755982988,0,0.43578923,-0.7986787,2.0614066,0.12899128,0.07863022,0.57907856,-0.5191063,0.058021102,-0.40039405,-1.190709,0.12609078,0.36510146,0.9065552,-0.9595851
0.0,-0.1,1.0999999999999999,0.0,-0.5235987755982988,0,0.43489847,-0.7983585,2.0598052,0.12804633,0.15652987,0.6489646,-0.7590275,0.07865534,-0.39893603,-1.1753671,0.10054056,0.4458275,1.0273434,0.38749206
0.0,-0.1,1.0999999999999999,0.0,-0.5235987755982988,0,0.4343251,-0.7980811,2.0617425,0.12188461,0.18119305,0.6055753,-0.07394375,0.05841248,-0.3977734,-1.123506,0.06369343,0.013462306,0.90378237,-0.9334654
0.0,-0.1,1.0999999999999999,0.0,-0.5235987755982988,0,0.43481258,-0.79918665,2.0595844,0.13077022,0.36712462,0.6573429,-0.77551013,0.067978375,-0.39822552,-1.1394417,0.15197207,0.3613686,0.9282807,-1.1875972
0.0,-0.1,1.0999999999999999,0.0,-0.5235987755982988,0,0.43643105,-0.79777324,2.0596812,0.12185638,0.23060514,0.59754884,-0.086808674,0.058765043,-0.39953518,-1.155927,-0.061010577,-0.008532705,0.99106526,-0.019594165
0.0,-0.1,1.0999999999999999,0.0,-0.5235987755982988,0,0.43358806,-0.79995596,2.0589006,0.12651141,0.17718293,0.617464,-0.2548795,0.057679128,-0.39921018,-1.1086247,0.070845634,0.46349186,0.7289752,0.51533437
0.0,-0.1,1.0999999999999999,0.0,-0.5235987755982988,0,0.4357626,-0.79802096,2.059565,0.13012744,0.19314584,0.6572262,-0.6487064,0.07149466,-0.39925408,-1.0929904,0.13673778,-0.12559567,1.1451904,-1.0891454
0.0,-0.1,1.0999999999999999,0.0,-0.5235987755982988,0,0.43660545,-0.7974745,2.0615857,0.13108133,0.26885188,0.62825906,-0.15135342,0.0614687,-0.39830223,-1.2190106,0.18563983,0.1104818,0.8748702,-0.7905626
0.0,-0.1,1.0999999999999999,0.0,-0.5235987755982988,0,0.43468595,-0.7980008,2.0617676,0.12535684,0.07723054,0.6287709,-0.19141468,0.073739864,-0.39919853,-1.1614157,-0.051522847,0.3241705,0.9041757,-0.94177413
0.0,-0.1,1.0999999999999999,0.0,-0.5235987755982988,0,0.43673155,-0.7981526,2.0603848,0.13507426,0.37491703,0.56191385,-0.32936138,0.058501747,-0.3970839,-1.1762971,0.10590948,0.41932404,1.0072051,-0.1669409
0.0,-0.1,1.0999999999999999,0.0,-0.5235987755982988,0,0.43521312,-0.79772097,2.0593698,0.1306912,0.25930852,0.61154693,-0.64695406,0.07796867,-0.40016818,-1.1628904,0.25660887,0.38937378,0.9810785,-0.6435027
0.0,-0.1,1.0999999999999999,0.0,-0.5235987755982988,0,0.43492204,-0.7979463,2.0608547,0.13043074,0.2837178,0.6177308,-0.8973128,0.04883918,-0.39945218,-1.1273427,0.19983228,0.2601999,1.105906,-0.89522034
0.0,-0.1,1.0999999999999999,0.0,-0.5235987755982988,0,0.43796557,-0.79762745,2.0600045,0.12259508,0.073005974,0.6436993,-0.3843544,0.06118762,-0.3977154,-1.1760378,0.13775146,0.40665582,1.1166421,-0.7145546
0.0,-0.1,1.0999999999999999,0.0,-0.5235987755982988,0,0.43588346,-0.79839635,2.0603337,0.12912871,0.19747305,0.6631631,-0.8441629,0.06535164,-0.39686522,-1.1725361,0.2106086,0.058136042,1.0108687,-1.9602351
0.0,-0.1,1.0999999999999999,0.0,-0.5235987755982988,0,0.43614358,-0.798095,2.0614276,0.12365176,0.15710385,0.58876854,-0.6255333,0.06292203,-0.3997679,-1.1588873,-0.035334777,-0.28309414,1.104653,-1.1576762
0.0,-0.1,1.0999999999999999,0.0,-0.5235987755982988,0,0.43517575,-0.7980882,2.0617323,0.13177414,0.1139872,0.6101868,-1.0188955,0.06486961,-0.39835012,-1.2221779,-0.11250647,-0.25646254,0.97359186,0.59468687
0.0,-0.1,1.0999999999999999,0.0,-0.5235987755982988,0,0.43786383,-0.8000993,2.0596595,0.12579161,0.11210157,0.6561296,0.04452413,0.07723262,-0.39499378,-1.1849976,0.1165683,0.6245182,0.7557474,-0.11193987
0.0,-0.1,1.0999999999999999,0.0,-0.5235987755982988,0,0.43576086,-0.79788554,2.0598457,0.12050047,0.10338845,0.60295445,-1.1248722,0.064098656,-0.3982502,-1.1195278,-0.046452656,0.44971633,1.0422074,-0.31038764
0.0,-0.1,1.0999999999999999,0.0,-0.5235987755982988,0,0.43742454,-0.7980186,2.060965,0.12821728,0.18226826,0.6190002,-0.24544291,0.07199788,-0.39620325,-1.1409842,0.009253859,0.18120727,0.78490365,-0.011865464
0.0,-0.1,1.0999999999999999,0.0,-0.5235987755982988,0,0.43649447,-0.79801404,2.0593128,0.12417847,0.34736884,0.6535284,-1.2249091,0.053576343,-0.39847878,-1.1633059,0.28326115,0.4776282,1.0466745,0.22060508
0.0,-0.1,1.0999999999999999,0.0,-0.5235987755982988,0,0.4346295,-0.7991378,2.0609076,0.12819284,0.20553146,0.61906064,-0.1489932,0.08710439,-0.40006977,-1.1416153,0.13517453,0.33089882,0.9602029,-0.85693693
0.0,-0.1,1.0999999999999999,0.0,-0.5235987755982988,0,0.43652782,-0.7986343,2.0609512,0.124413826,0.12457318,0.6129994,-0.60149586,0.049547005,-0.39814106,-1.1673561,0.17579335,-0.48240748,1.0616854,-0.9546986
0.0,-0.1,1.0999999999999999,0.0,-0.5235987755982988,0,0.4376942,-0.79836535,2.0610049,0.12547931,0.23274593,0.59562355,-0.37647432,0.071101926,-0.39787242,-1.1194845,-0.03418979,0.45696956,1.0737176,-0.648693
0.0,-0.1,1.0999999999999999,0.0,-0.5235987755982988,0,0.43527272,-0.79949355,2.059961,0.12980944,0.26125187,0.6273456,-0.7621485,0.05103209,-0.3986466,-1.2010168,-0.025434917,0.79035264,0.98792905,-1.1287066
0.0,-0.1,1.0999999999999999,0.0,-0.5235987755982988,0,0.43445984,-0.7987529,2.060237,0.12695394,0.20843594,0.57349,-1.4976478,0.059688345,-0.39817202,-1.182304,-0.045376435,0.4134569,0.98555714,-0.9983481
0.0,-0.1,1.0999999999999999,0.0,-0.5235987755982988,0,0.43642083,-0.79753876,2.061624,0.1330838,0.14000043,0.6281126,-1.0012757,0.06351599,-0.3983169,-1.1127915,0.133044,0.40031666,0.823775,-0.7297416
0.0,-0.1,1.0999999999999999,0.0,-0.5235987755982988,0,0.4347685,-0.79817444,2.0608926,0.12407914,0.14017974,0.60860795,-0.053562216,0.052315563,-0.3998841,-1.2015923,-2.4606514e-05,0.58909184,1.058248,-1.3229557
0.0,-0.1,1.0999999999999999,0.0,-0.5235987755982988,0,0.43446022,-0.7978519,2.0605285,0.1249234,0.2067365,0.64589906,-0.13248073,0.06137323,-0.3983131,-1.2198,0.18074806,0.2740727,0.96647394,1.0393922
0.0,-0.1,1.0999999999999999,0.0,-0.5235987755982988,0,0.437597,-0.7982992,2.0604784,0.12615894,0.15378773,0.60381854,-0.39520505,0.06904444,-0.3960714,-1.1338546,-0.089297555,0.41901278,0.91853255,-1.1176674
0.0,-0.1,1.0999999999999999,0.0,-0.5235987755982988,0,0.435435,-0.8008465,2.0599732,0.13193446,0.39373162,0.64713585,-0.8960091,0.06891696,-0.3885972,-1.1316649,-0.11910986,0.60408443,0.84680766,0.6068111
0.0,-0.1,1.0999999999999999,0.0,-0.5235987755982988,0,0.4378577,-0.79789126,2.0606306,0.1302397,0.091795444,0.62189823,-0.5623921,0.0660783,-0.3980836,-1.1830934,0.15747054,0.29229775,1.0663737,-0.9123602
0.0,-0.1,1.0999999999999999,0.0,-0.5235987755982988,0,0.43510145,-0.7997852,2.0608082,0.13086538,0.08790328,0.64348525,-0.6323105,0.06377563,-0.3952527,-1.1251167,0.05078436,0.118058205,0.91490865,-1.6308641
0.0,-0.1,1.0999999999999999,0.0,-0.5235987755982988,0,0.43597856,-0.7991478,2.058842,0.12479428,0.18661676,0.6045878,-0.12623022,0.063687325,-0.39991182,-1.1259909,0.12828341,0.26422673,0.90382814,-0.46658313
0.0,-0.1,1.0999999999999999,0.0,-0.5235987755982988,0,0.43675774,-0.7983193,2.0611575,0.13362324,-0.08446084,0.6239275,-0.12541133,0.0493654,-0.3975205,-1.1637795,-0.09277507,0.09707891,1.0499732,0.46919033
0.0,-0.1,1.0999999999999999,0.0,-0.5235987755982988,0,0.43411157,-0.7983487,2.0610213,0.12435653,0.25096813,0.5750126,-0.29235142,0.06056784,-0.39697427,-1.1242558,-0.1239412,0.016297534,1.0996743,-0.84055454
0.0,-0.1,1.0999999999999999,0.0,-0.5235987755982988,0,0.43537024,-0.79800147,2.060102,0.12845209,0.10916359,0.60210013,-1.203921,0.06322931,-0.39866605,-1.1315838,0.022803854,0.23285256,1.2360427,-2.0936813
0.0,-0.1,1.0999999999999999,0.0,-0.5235987755982988,0,0.43810087,-0.7971724,2.06133,0.12067952,0.26602745,0.6402191,-0.2710857,0.057654724,-0.3996532,-1.2109267,0.083254114,-0.27207708,1.1878506,-2.343789
0.0,-0.1,1.0999999999999999,0.0,-0.5235987755982988,0,0.4351324,-0.79861,2.0608883,0.12770918,0.15704688,0.6363789,-0.6466085,0.054751605,-0.3960598,-1.1199046,-0.021397712,0.3212886,1.1268556,-1.0327364
0.0,-0.1,1.0999999999999999,0.0,-0.5235987755982988,0,0.43504602,-0.7990285,2.0598168,0.13393278,0.101444334,0.6016528,-0.43430474,0.060849145,-0.3985128,-1.148471,0.049456477,0.26842743,1.0971522,-1.3775336
0.0,-0.1,1.0999999999999999,0.0,-0.5235987755982988,0,0.436267,-0.7980898,2.0610936,0.127387,0.07580396,0.6257504,-0.58779263,0.05786413,-0.40007982,-1.1159885,-0.037562806,0.18598364,0.9749125,-0.9371856
0.0,-0.1,1.0999999999999999,0.0,-0.5235987755982988,0,0.43630975,-0.79788697,2.0601416,0.12762076,0.08615406,0.59591013,-1.1286371,0.05336769,-0.39812428,-1.1567798,0.18538587,0.12506564,1.146844,-0.34977224
0.0,-0.1,1.0999999999999999,0.0,-0.5235987755982988,0,0.43557355,-0.79730076,2.0602143,0.1257878,0.025422378,0.63007295,-0.542535,0.06163587,-0.39708897,-1.0931692,0.08180946,0.35795355,1.0199186,-0.9730335
0.0,-0.1,1.0999999999999999,0.0,-0.5235987755982988,0,0.43598145,-0.7982933,2.0595956,0.12800457,0.15992509,0.5927941,-0.21727243,0.06532596,-0.39683992,-1.1834545,-0.047066577,0.40260994,1.0071614,-0.9218332
0.0,-0.1,1.0999999999999999,0.0,-0.5235987755982988,0,0.4340037,-0.79812026,2.0616775,0.13445167,0.19431266,0.5885586,-0.5023864,0.055766057,-0.3997713,-1.1532223,0.07044188,-0.093596615,1.0957962,-0.8109775
0.0,-0.1,1.0999999999999999,0.0,-0.5235987755982988,0,0.43641227,-0.79879063,2.0599174,0.12851994,0.07295235,0.6330386,-0.7786021,0.06931315,-0.39913628,-1.2179264,0.08775783,0.11717159,1.0105518,-0.8393857
0.0,-0.1,1.0999999999999999,0.0,-0.5235987755982988,0,0.4369177,-0.7985336,2.0602794,0.12782142,0.23398852,0.6038404,-1.010355,0.054458816,-0.3988312,-1.1596662,0.1167496,0.008860032,1.0320914,-1.433933
0.0,-0.1,1.0999999999999999,0.0,-0.5235987755982988,0,0.435149,-0.7977285,2.0607772,0.12586248,0.16238815,0.61296713,-0.53178716,0.07307005,-0.398375,-1.1562653,0.007812953,-0.039431304,0.93359935,-1.1270169
0.0,-0.1,1.0999999999999999,0.0,-0.5235987755982988,0,0.43838188,-0.7967939,2.0608099,0.13055347,0.33565733,0.6515828,-0.44582608,0.06838429,-0.39703646,-1.1530021,0.1890828,0.1664216,0.7749655,-1.9858592
0.0,-0.1,1.0999999999999999,0.0,-0.5235987755982988,0,0.43673712,-0.7986872,2.0592902,0.12635726,0.13878143,0.6151487,-0.57485133,0.058014665,-0.39714116,-1.256845,0.0627728,0.17887712,1.0373973,-0.84013754
0.0,-0.1,1.0999999999999999,0.0,-0.5235987755982988,0,0.4360474,-0.7990363,2.063029,0.12641372,0.3257914,0.62455565,-0.35703626,0.057063136,-0.39883193,-1.1685336,0.11640462,0.47619918,1.2178863,-1.963422
0.0,-0.1,1.0999999999999999,0.0,-0.5235987755982988,0,0.43223548,-0.79815817,2.0620873,0.1240188,0.04754841,0.6406677,-0.4323656,0.0704227,-0.396677,-1.2650403,-0.013598505,0.51476836,1.032342,-0.83493173
0.0,-0.1,1.0999999999999999,0.0,-0.5235987755982988,0,0.43730122,-0.79915595,2.0602615,0.12841961,0.03579225,0.63267624,-0.042118948,0.061776325,-0.39943105,-1.0924603,0.08589623,0.5106565,1.0429715,-0.8694038
0.0,-0.1,1.0999999999999999,0.0,-0.5235987755982988,0,0.43707764,-0.7975766,2.0607944,0.12779485,0.3467364,0.6371979,-0.82553947,0.061306067,-0.39964578,-1.1133188,0.03015794,-0.036914103,1.0473708,0.6438819
0.0,-0.1,1.0999999999999999,0.0,-0.5235987755982988,0,0.43676203,-0.7992736,2.0607452,0.12360047,0.20527896,0.579015,-0.9603432,0.06841398,-0.39725336,-1.1287663,0.07023181,0.59889877,0.86862665,-1.3344796
0.0,-0.1,1.0999999999999999,0.0,-0.5235987755982988,0,0.43964788,-0.7971084,2.0600066,0.12623906,0.2705762,0.6465191,-1.0975927,0.0602173,-0.39656746,-1.1512833,0.19727135,0.55746436,0.85530245,1.1420068
0.0,-0.1,1.0999999999999999,0.0,-0.5235987755982988,0,0.43536806,-0.7986632,2.062139,0.12581715,0.23450863,0.5932796,-0.5996155,0.057673294,-0.39750516,-1.1467341,0.026734594,0.7830902,1.1427906,-1.7774997
0.0,-0.1,1.0999999999999999,0.0,-0.5235987755982988,0,0.43731934,-0.7988722,2.061999,0.13099676,0.2342325,0.654746,-0.7330924,0.06478141,-0.3961791,-1.1192336,0.17808254,-0.034969896,1.0315167,-1.8386605
0.0,-0.1,1.0999999999999999,0.0,-0.5235987755982988,0,0.43521115,-0.7969995,2.0613904,0.12985718,0.2251581,0.6512837,-0.5608239,0.054051295,-0.397571,-1.1560348,0.120460905,0.082388006,1.1827992,-1.2589015
0.0,-0.1,1.0999999999999999,0.0,-0.5235987755982988,0,0.43542707,-0.7977125,2.0614383,0.1318432,0.2185165,0.61242527,-0.29106808,0.047988117,-0.39721927,-1.2032498,-0.13441397,0.5692773,0.9340668,-0.9889154
0.0,-0.1,1.0999999999999999,0.0,-0.5235987755982988,0,0.4366624,-0.7988788,2.0617678,0.122834444,0.061337173,0.64593714,-0.8733495,0.06426859,-0.39744276,-1.1760391,-0.059151806,0.6473537,1.0763206,-0.9735092
0.0,-0.1,1.0999999999999999,0.0,-0.5235987755982988,0,0.43363795,-0.7981348,2.061483,0.1352678,0.12502845,0.59135747,-0.68661654,0.058160994,-0.39686424,-1.1267396,0.041729793,0.16479446,1.0383614,1.4340373
0.0,-0.1,1.0999999999999999,0.0,-0.5235987755982988,0,0.435624,-0.798681,2.0610316,0.12709561,0.22900578,0.5955863,-0.9000526,0.0572479,-0.39752924,-1.1137294,0.045761675,0.1797284,0.9942411,-1.7821362
0.0,-0.1,1.0999999999999999,0.0,-0.5235987755982988,0,0.43481746,-0.79901594,2.0607605,0.12359725,0.12924783,0.65481615,-0.3652906,0.0633725,-0.39455062,-1.1555561,-0.034874305,0.08785796,0.9444059,-0.9634558
0.0,-0.1,1.0999999999999999,0.0,-0.5235987755982988,0,0.43720254,-0.799003,2.0613024,0.12537485,0.13478246,0.5994959,-0.5622722,0.044895306,-0.39774966,-1.2311378,0.08172093,0.58709073,1.0097834,-1.4170942
0.0,-0.1,1.0999999999999999,0.0,-0.5235987755982988,0,0.43597698,-0.7979693,2.0619698,0.13287741,0.20781417,0.6156693,-0.031265143,0.06308689,-0.3937895,-1.1284825,0.13282453,0.23397942,1.1037738,0.46905923
0.0,-0.1,1.0999999999999999,0.0,-0.5235987755982988,0,0.43575808,-0.7990859,2.0608056,0.1271953,0.17887181,0.59192246,-0.1901981,0.06616815,-0.39695182,-1.1645495,0.016799212,0.039838966,1.0828375,-0.50014997
0.0,-0.1,1.0999999999999999,0.0,-0.5235987755982988,0,0.43565658,-0.7995554,2.0628784,0.12589255,0.09171844,0.6290547,-0.3434267,0.04427255,-0.39908382,-1.1780543,0.039308093,0.09215437,0.8913033,0.1219255
0.0,-0.1,1.0999999999999999,0.0,-0.5235987755982988,0,0.4366639,-0.7984062,2.0611672,0.12910444,0.12906891,0.5916782,-0.98763376,0.07395119,-0.3959389,-1.1845553,0.09679887,-0.117211714,0.9893903,-0.22986445
0.0,-0.1,1.0999999999999999,0.0,-0.5235987755982988,0,0.43549746,-0.7982934,2.0610642,0.12674156,0.10951251,0.6297204,-0.512269,0.072761826,-0.39594302,-1.1645838,0.020527024,0.23045544,0.9631863,0.923163
0.0,-0.1,1.0999999999999999,0.0,-0.5235987755982988,0,0.43625337,-0.80013275,2.0636358,0.13019817,0.1310924,0.58614767,-0.8112507,0.05543654,-0.39584827,-1.2107596,0.029061431,0.0066742585,1.0496606,0.6041287
0.0,-0.1,1.0999999999999999,0.0,-0.5235987755982988,0,0.43743634,-0.7996953,2.0606122,0.13039295,0.040229145,0.6163989,-0.7299907,0.060501326,-0.39680627,-1.0782065,0.026195075,-0.0747637,1.0128875,-0.817362
0.0,-0.1,1.0999999999999999,0.0,-0.5235987755982988,0,0.43617058,-0.7981811,2.0625663,0.12285728,0.16048372,0.5974882,-0.50095844,0.06589845,-0.39795932,-1.1709775,0.09987766,-0.22062786,0.9851386,-0.49176794
0.0,-0.1,1.0999999999999999,0.0,-0.5235987755982988,0,0.4364024,-0.7991604,2.0618389,0.12519422,0.14121328,0.6342449,0.21920714,0.05623601,-0.39709902,-1.1906703,0.075614706,0.25131658,0.76898557,-0.8320916
0.0,-0.1,1.0999999999999999,0.0,-0.5235987755982988,0,0.43701598,-0.7970296,2.061133,0.12753211,0.19690241,0.6233466,-1.3455279,0.05733746,-0.3987531,-1.1355052,0.10949968,0.34948504,0.8728005,-0.3114228
0.0,-0.1,1.0999999999999999,0.0,-0.5235987755982988,0,0.43675297,-0.7989656,2.0600805,0.12686999,0.0014269504,0.6304551,-1.0883733,0.06355486,-0.3971246,-1.2207938,0.093853615,0.22433676,0.8058653,-1.8944151
0.0,-0.1,1.0999999999999999,0.0,-0.5235987755982988,0,0.43759432,-0.7987363,2.0601766,0.12634727,0.1752163,0.6187398,-0.7190502,0.07218398,-0.39612117,-1.1941047,0.003928438,0.21000287,0.7783466,-1.5249181
0.0,-0.1,1.0999999999999999,0.0,-0.5235987755982988,0,0.43684095,-0.7987497,2.0588894,0.12643245,0.37854415,0.6140327,-0.4503667,0.060886323,-0.39873463,-1.1697483,0.108340256,0.06942624,0.8437417,-0.39817405
0.0,-0.1,1.0999999999999999,0.0,-0.5235987755982988,0,0.4348143,-0.7980453,2.0609596,0.1273048,0.29502296,0.611482,-0.8178194,0.048220348,-0.39779022,-1.2179939,0.17741019,0.3955844,1.1069025,-0.9644203
0.0,-0.1,1.0999999999999999,0.0,-0.5235987755982988,0,0.43547627,-0.7988191,2.0597847,0.13235742,0.30155957,0.61113244,-0.49295688,0.076270625,-0.3961397,-1.1780661,-0.0015687811,0.14782469,0.7975064,-1.7594389
0.0,-0.1,1.0999999999999999,0.0,-0.5235987755982988,0,0.43531784,-0.7984344,2.0605614,0.13322535,0.30467385,0.599185,-0.76685196,0.06325493,-0.39696822,-1.1756879,0.05776828,0.5486005,1.0437955,-0.3430823
0.0,-0.1,1.0999999999999999,0.0,-0.5235987755982988,0,0.43777806,-0.7976752,2.057813,0.12951064,0.0822479,0.6410692,-0.8498193,0.05400402,-0.39974698,-1.203529,0.22958167,-0.21434708,0.6576345,0.4870659
0.0,-0.1,1.0999999999999999,0.0,-0.5235987755982988,0,0.43600285,-0.798443,2.061534,0.12841721,0.012989686,0.6148189,-0.8993584,0.07041175,-0.39630434,-1.0999974,0.03311141,0.47858766,0.80596733,-0.5636685
0.0,-0.1,1.0999999999999999,0.0,-0.5235987755982988,0,0.43395418,-0.7992715,2.0593498,0.12819092,0.3779678,0.5594695,-0.9424148,0.053408608,-0.3996331,-1.2025962,0.04718906,0.44995338,0.94705117,-0.12572028
0.0,-0.1,1.0999999999999999,0.0,-0.5235987755982988,0,0.43445134,-0.7983561,2.0592084,0.13009389,0.26265106,0.6225399,-1.2894615,0.07620522,-0.39651868,-1.1465801,0.12497956,-0.052673995,0.9690171,0.58620995
0.0,-0.1,1.0999999999999999,0.0,-0.5235987755982988,0,0.43531638,-0.797681,2.0601733,0.1324518,0.1993941,0.5542147,-1.0366834,0.06117575,-0.39609915,-1.1417347,0.22460836,0.12825213,0.85767496,-0.19490263
0.0,-0.1,1.0999999999999999,0.0,-0.5235987755982988,0,0.4365247,-0.79749644,2.0600114,0.13076775,0.17513506,0.6061368,-0.68774563,0.062480316,-0.3966249,-1.1563573,-0.005659757,0.4068566,0.6725723,-1.4497926
0.0,-0.1,1.0999999999999999,0.0,-0.5235987755982988,0,0.43443266,-0.79895604,2.0594175,0.12579863,0.27434793,0.59411204,-0.71478045,0.052511297,-0.39794245,-1.2018467,0.020941628,0.1244365,0.95860994,0.031292118
0.0,-0.1,1.0999999999999999,0.0,-0.5235987755982988,0,0.4336223,-0.79801905,2.0600717,0.12531962,0.20565178,0.6432584,-0.87913615,0.078065164,-0.396832,-1.1859525,0.21130823,0.38593775,1.1953732,0.15002745
0.0,-0.1,1.0999999999999999,0.0,-0.5235987755982988,0,0.435099,-0.7991522,2.0595443,0.12792319,0.16106042,0.6333359,-0.5689273,0.057802737,-0.39575866,-1.1502854,0.12396859,-0.02880896,0.95682234,0.6704147
0.0,-0.1,1.0999999999999999,0.0,-0.5235987755982988,0,0.43446833,-0.79801273,2.061823,0.1302014,0.1414482,0.6319061,0.0023112486,0.06434944,-0.39473814,-1.2089632,-0.14329636,-0.037813116,1.2010041,-0.27665496
0.0,-0.1,1.0999999999999999,0.0,-0.5235987755982988,0,0.43462345,-0.79716444,2.0609128,0.12929587,0.1211191,0.61662334,-1.3445922,0.07108475,-0.39899418,-1.0947948,0.010503003,0.13557021,1.1261667,-0.94717866
0.0,-0.1,1.0999999999999999,0.0,-0.5235987755982988,0,0.43559563,-0.79718995,2.060594,0.12509364,0.18718998,0.6251451,-0.612424,0.054929614,-0.39820778,-1.2273189,-0.012068784,0.26835194,1.1237041,-0.5876251
0.0,-0.1,1.0999999999999999,0.0,-0.5235987755982988,0,0.4337312,-0.79926646,2.0595496,0.12554839,0.22608036,0.6285753,-0.96312726,0.059611708,-0.3980156,-1.1164663,-0.04228776,0.6070038,0.86973387,-0.1527948
0.0,-0.1,1.0999999999999999,0.0,-0.5235987755982988,0,0.43478346,-0.798051,2.0626197,0.13312893,0.066675216,0.60237676,-0.18293191,0.06867112,-0.3952615,-1.2242831,0.036294863,0.0952354,0.84383816,0.13063641
0.0,-0.1,1.0999999999999999,0.0,-0.5235987755982988,0,0.4361155,-0.7971738,2.059038,0.12789483,0.24565674,0.5983553,-1.6098126,0.048838533,-0.40135103,-1.191377,0.045310166,0.11722381,0.908954,-0.25917056
0.0,-0.1,1.0999999999999999,0.0,-0.5235987755982988,0,0.43614158,-0.7982662,2.061616,0.12710033,0.21653363,0.5988972,-0.6439549,0.07473986,-0.3969217,-1.1252557,0.14321212,0.6073891,0.6767866,-1.9264632
0.0,-0.1,1.0999999999999999,0.0,-0.5235987755982988,0,0.43643942,-0.7984262,2.0594015,0.12715627,0.1829306,0.6048331,-0.62531495,0.07040422,-0.3979628,-1.1630049,0.1545269,0.7775863,1.1438005,-0.3208678
0.0,-0.1,1.0999999999999999,0.0,-0.5235987755982988,0,0.4352532,-0.798038,2.0602398,0.13044924,0.1780364,0.6067504,-1.1557527,0.06827191,-0.39956415,-1.2176266,0.21540096,0.022986026,0.9037353,0.63189954
0.0,-0.1,1.0999999999999999,0.0,-0.5235987755982988,0,0.43726197,-0.79783875,2.0607567,0.12711145,0.24874821,0.6071183,-1.0456688,0.0630846,-0.3987587,-1.1806072,0.1560495,0.37368184,0.90966266,-0.050623253
0.0,-0.1,1.0999999999999999,0.0,-0.5235987755982988,0,0.4370053,-0.79753184,2.061663,0.12856153,0.06546841,0.6413135,-1.415088,0.05935321,-0.39696077,-1.1281774,-0.024531927,0.5345766,1.0180202,-0.49490908
0.0,-0.1,1.0999999999999999,0.0,-0.5235987755982988,0,0.43592548,-0.79807955,2.060788,0.12501551,0.082806855,0.5776371,-1.0987971,0.05763365,-0.3968258,-1.1500564,0.12055141,0.4965482,0.9104304,-0.4166685
0.0,-0.1,1.0999999999999999,0.0,-0.5235987755982988,0,0.43768832,-0.79786134,2.0588708,0.12815063,0.24047694,0.6315527,-0.7969138,0.054448213,-0.39808282,-1.1624498,0.048334125,0.704732,0.8074389,-0.5999925
0.0,-0.1,1.0999999999999999,0.0,-0.5235987755982988,0,0.43481812,-0.7974626,2.0611267,0.12311982,0.17228699,0.6645067,-0.9738005,0.0682745,-0.39961824,-1.1938187,0.27277613,0.5020347,1.1328462,-1.0107778
0.0,-0.1,1.0999999999999999,0.0,-0.5235987755982988,0,0.43477264,-0.7970275,2.0615613,0.13145415,0.14694342,0.5747312,0.10340847,0.06020865,-0.39912543,-1.1290971,-0.008835994,0.1701948,1.1679273,-0.667133
0.0,-0.1,1.0999999999999999,0.0,-0.5235987755982988,0,0.43496662,-0.7986557,2.0601678,0.1234278,0.28252137,0.6519776,-0.70851815,0.062578835,-0.3991824,-1.1591552,0.033577453,-0.059067927,1.0828214,0.20879033
0.0,-0.1,1.0999999999999999,0.0,-0.5235987755982988,0,0.43664306,-0.79749215,2.060223,0.12654051,0.12345477,0.6045501,-0.5026439,0.062502116,-0.39673117,-1.1529149,-0.13301641,0.8861465,1.0328946,0.1823397
0.0,-0.1,1.0999999999999999,0.0,-0.5235987755982988,0,0.43812186,-0.7989513,2.060665,0.12684937,0.23700383,0.56378335,-0.87885255,0.051817495,-0.39904907,-1.192243,0.091634706,0.5408662,0.74891657,-1.0085726
0.0,-0.1,1.0999999999999999,0.0,-0.5235987755982988,0,0.43589938,-0.7980735,2.060153,0.12311203,0.052553345,0.62218475,-0.79099,0.053132318,-0.39945975,-1.1707729,-0.09082105,0.35116187,1.0592129,-1.1709658
0.0,-0.1,1.0999999999999999,0.0,-0.5235987755982988,0,0.43539613,-0.7984626,2.0613425,0.12762594,-0.05285677,0.6538881,-0.54730296,0.06883079,-0.39886278,-1.1556252,-0.10304817,0.30924287,1.1835904,1.13217
0.0,-0.1,1.0999999999999999,0.0,-0.5235987755982988,0,0.43357757,-0.79755944,2.0612917,0.13264081,0.05724494,0.6146544,-0.8900372,0.05662822,-0.3989815,-1.1870763,-0.03300223,0.33988914,1.0386326,-0.3006942
0.0,-0.1,1.0999999999999999,0.0,-0.5235987755982988,0,0.43465358,-0.79855824,2.060178,0.1236219,0.27169487,0.6259832,-0.0016978803,0.060442436,-0.3981747,-1.1427729,0.032215502,0.099208504,1.037298,0.030879444
0.0,-0.1,1.0999999999999999,0.0,-0.5235987755982988,0,0.43627754,-0.79869527,2.0628688,0.12460544,0.11755787,0.6086169,-1.438743,0.053227935,-0.3966114,-1.1659693,0.16062684,0.13413727,0.8725643,0.6390822
0.0,-0.1,1.0999999999999999,0.0,-0.5235987755982988,0,0.43683204,-0.7989084,2.0602047,0.12905447,0.17992394,0.5992423,-1.2695606,0.07335796,-0.39928448,-1.1906451,0.051515285,0.02780225,0.79765695,-1.163555
0.0,-0.1,1.0999999999999999,0.0,-0.5235987755982988,0,0.43562436,-0.79888535,2.0614004,0.122157946,0.105463475,0.60416925,-0.2523186,0.06767813,-0.39755365,-1.1059489,0.13416076,0.057236306,1.0404009,-0.14404194
0.0,-0.1,1.0999999999999999,0.0,-0.5235987755982988,0,0.43470454,-0.79809785,2.0611312,0.12678389,0.38154307,0.5711596,-0.8187738,0.061935846,-0.39654437,-1.2249668,0.021012206,0.039398335,0.9556963,-0.02027611
0.0,-0.1,1.0999999999999999,0.0,-0.5235987755982988,0,0.43467122,-0.7990913,2.0635965,0.12745789,0.21826637,0.5819557,-0.2006144,0.056288652,-0.3980562,-1.217189,-0.09708203,0.2103515,1.1223568,-1.5239979
0.0,-0.1,1.0999999999999999,0.0,-0.5235987755982988,0,0.4374298,-0.7987605,2.0595577,0.13188188,0.20061296,0.6103991,-0.34724975,0.06092473,-0.39505377,-1.2066698,0.13129133,0.021180347,1.0143127,0.27581337
0.0,-0.1,1.0999999999999999,0.0,-0.5235987755982988,0,0.43753377,-0.79946595,2.059907,0.12736003,0.08045344,0.633907,-0.48459747,0.05931163,-0.39499277,-1.1696136,0.07627973,0.5797538,0.93583935,-0.023718083
0.0,-0.1,1.0999999999999999,0.0,-0.5235987755982988,0,0.43835208,-0.7989954,2.0623026,0.12978914,0.07717851,0.62097275,0.13785495,0.057033625,-0.39606303,-1.20383,0.0051092906,0.17162879,0.9356629,-0.5716989
0.0,-0.1,1.0999999999999999,0.0,-0.5235987755982988,0,0.43635145,-0.79982644,2.0605915,0.12295156,0.2350991,0.6238972,-0.99955237,0.06457442,-0.3961814,-1.1532042,-0.08168224,-0.033042006,0.9284069,-0.8207195
0.0,-0.1,1.0999999999999999,0.0,-0.5235987755982988,0,0.43508765,-0.797476,2.0595222,0.12506682,0.08705107,0.66364723,-0.8626802,0.07717693,-0.3992907,-1.101795,0.05571452,0.16855146,1.0347428,-0.45193797
0.0,-0.1,1.0999999999999999,0.0,-0.5235987755982988,0,0.43430138,-0.7968535,2.059715,0.12976518,0.21424648,0.6776601,-0.6334195,0.0667336,-0.40102923,-1.1783925,0.17959549,0.08234412,0.86605525,-1.2366459
0.0,-0.1,1.0999999999999999,0.0,-0.5235987755982988,0,0.4342772,-0.79838413,2.0615408,0.12729342,0.09325007,0.6087346,-1.0691124,0.057087507,-0.3989332,-1.1505163,-0.01401036,0.38864377,1.1775019,0.13299194
0.0,-0.1,1.0999999999999999,0.0,-0.5235987755982988,0,0.43801996,-0.7983823,2.0616403,0.11816453,0.07723699,0.64070994,0.30054802,0.057206396,-0.39968702,-1.1708055,-0.0365562,0.39154705,1.012661,-1.5863433
0.0,-0.1,1.0999999999999999,0.0,-0.5235987755982988,0,0.43495566,-0.798055,2.0602746,0.13294633,0.08901748,0.5845535,-0.17616759,0.053680114,-0.39902115,-1.1798205,-0.12643717,0.29026166,0.79083246,-0.5516413
0.0,-0.1,1.0999999999999999,0.0,-0.5235987755982988,0,0.43813664,-0.7971438,2.0613837,0.12678675,0.43565863,0.6518027,-0.8017478,0.061798368,-0.39823887,-1.1867863,0.118257985,-0.5891463,0.84344506,-0.92045647
0.0,-0.1,1.0999999999999999,0.0,-0.5235987755982988,0,0.43798324,-0.7985472,2.0600986,0.1253239,0.144987,0.64319986,-0.7772819,0.06811097,-0.3969241,-1.151321,-0.15626869,0.07200919,0.9100411,-1.2122988
0.0,-0.1,1.0999999999999999,0.0,-0.5235987755982988,0,0.43626532,-0.7990025,2.0611923,0.12264354,0.061106276,0.6561394,-1.023933,0.05252006,-0.3978666,-1.2203395,-0.028131494,0.20929268,1.0218546,-0.36813596
