sanky1234/BimanualDexCatch/isaacgymenvs/cem_results/football_pose_0.1_-0.1_1.4999999999999998_0.0_0.5235987755982988_0_2025-05-26.csv
x,y,z,roll,pitch,yaw,robot1/joint1,robot1/joint2,robot1/joint3,robot1/joint4,robot1/joint5,robot1/joint6,robot1/joint7,robot2/joint1,robot2/joint2,robot2/joint3,robot2/joint4,robot2/joint5,robot2/joint6,robot2/joint7
0.1,-0.1,1.4999999999999998,0.0,0.5235987755982988,0,-0.8823005,0.85296327,-0.56570286,0.6420229,-0.7097274,0.7208773,-2.622461,0.17470971,0.51519185,0.540403,0.06395908,-0.14862989,0.9555939,1.3786601
0.1,-0.1,1.4999999999999998,0.0,0.5235987755982988,0,-0.88263124,0.8541006,-0.5677546,0.64277256,-0.6995838,0.7257216,-2.6053886,0.1704849,0.5572417,0.28536016,-0.06789383,0.038361974,1.2167584,-2.400946
0.1,-0.1,1.4999999999999998,0.0,0.5235987755982988,0,-0.882621,0.8550639,-0.57010067,0.64427793,-0.69800925,0.7299242,-2.6189866,0.19214477,0.5281789,0.14770249,-0.12867914,-0.3893388,1.3064153,1.5313895
0.1,-0.1,1.4999999999999998,0.0,0.5235987755982988,0,-0.88282293,0.8493336,-0.56757367,0.6463058,-0.70707965,0.7251123,-2.6049476,0.16911648,0.548344,0.0798356,0.3377631,0.62636286,1.4252194,0.25805694
0.1,-0.1,1.4999999999999998,0.0,0.5235987755982988,0,-0.8853745,0.85393363,-0.5663375,0.64364,-0.70301116,0.72040844,-2.606604,0.15415612,0.5077078,0.0823624,0.005329943,-0.0970656,1.1474583,0.9226403
0.1,-0.1,1.4999999999999998,0.0,0.5235987755982988,0,-0.8814661,0.8549051,-0.5687104,0.6418202,-0.70738417,0.7254234,-2.6014154,0.15895814,0.44053662,0.31988552,0.20159157,0.05917789,1.4166944,-0.7237852
0.1,-0.1,1.4999999999999998,0.0,0.5235987755982988,0,-0.8853313,0.852178,-0.56548727,0.6443251,-0.69926816,0.72504526,-2.5952125,0.17024504,0.48448157,0.13520056,0.21992956,0.10834536,1.015607,-0.46853563
0.1,-0.1,1.4999999999999998,0.0,0.5235987755982988,0,-0.8864934,0.8539182,-0.5698617,0.64294034,-0.7077911,0.725023,-2.6100652,0.14741766,0.5418009,0.2288534,-0.021135079,-0.42848918,1.0027115,-0.05624943
0.1,-0.1,1.4999999999999998,0.0,0.5235987755982988,0,-0.8858411,0.8470018,-0.57199794,0.6448592,-0.6934053,0.7202498,-2.6030352,0.17726707,0.5686108,0.048847716,0.17899367,0.1850131,1.1353297,0.42950106
0.1,-0.1,1.4999999999999998,0.0,0.5235987755982988,0,-0.88393277,0.8491466,-0.56295913,0.6422227,-0.7026911,0.7259212,-2.6034427,0.15296738,0.5782531,0.039458353,0.06384728,-0.07193348,1.1132652,0.7995628
0.1,-0.1,1.4999999999999998,0.0,0.5235987755982988,0,-0.88448316,0.84828204,-0.57367504,0.64365745,-0.7125921,0.73507345,-2.599745,0.18020079,0.5332502,0.0016698688,0.020577665,0.36738124,1.2191442,1.4930159
0.1,-0.1,1.4999999999999998,0.0,0.5235987755982988,0,-0.88422906,0.8548727,-0.5627042,0.6444964,-0.7045882,0.7225564,-2.6025376,0.15458488,0.4861184,0.18416391,0.20984136,0.28315607,1.2140869,-0.38926825
0.1,-0.1,1.4999999999999998,0.0,0.5235987755982988,0,-0.878865,0.8533185,-0.56429476,0.6443492,-0.7000281,0.7192094,-2.5916154,0.16125359,0.48540226,-0.22137517,0.11582772,-0.24715689,1.4210908,0.6578472
0.1,-0.1,1.4999999999999998,0.0,0.5235987755982988,0,-0.8876472,0.8475394,-0.56914425,0.64189273,-0.6971784,0.72611874,-2.5894594,0.17710596,0.5358501,0.060502216,-0.060360804,0.34973752,1.2629198,-0.104648605
0.1,-0.1,1.4999999999999998,0.0,0.5235987755982988,0,-0.87691724,0.85013986,-0.564888,0.64319927,-0.69855446,0.7270855,-2.6180382,0.1548042,0.48126286,-0.14039972,-0.109554954,-0.38697964,1.3996682,0.42793524
0.1,-0.1,1.4999999999999998,0.0,0.5235987755982988,0,-0.88618916,0.85560906,-0.5611909,0.64497507,-0.6969237,0.72350764,-2.5950105,0.12970135,0.5254874,-0.03440232,0.0041163997,-0.23522045,1.2602922,-0.09573532
0.1,-0.1,1.4999999999999998,0.0,0.5235987755982988,0,-0.87886757,0.85590625,-0.5637165,0.64583933,-0.7013356,0.73562944,-2.591206,0.1769903,0.532326,-0.028805088,0.06028398,-0.3791065,1.1803705,-0.2752858
0.1,-0.1,1.4999999999999998,0.0,0.5235987755982988,0,-0.8839754,0.858521,-0.5689961,0.6412575,-0.69709927,0.7235728,-2.604279,0.14497986,0.5358271,0.0010665817,-0.24116324,0.17095873,1.1930103,-0.4205797
0.1,-0.1,1.4999999999999998,0.0,0.5235987755982988,0,-0.88474256,0.8548472,-0.5656517,0.6446136,-0.7036491,0.7230463,-2.5896354,0.16512956,0.5577048,-0.30778915,-0.07721759,-0.32573465,1.1080296,-0.29096764
0.1,-0.1,1.4999999999999998,0.0,0.5235987755982988,0,-0.88181484,0.84739804,-0.574455,0.64819485,-0.70033497,0.7267429,-2.5955572,0.14804475,0.5604223,0.16211212,0.052979685,0.061165266,1.2467289,2.50092
0.1,-0.1,1.4999999999999998,0.0,0.5235987755982988,0,-0.87522376,0.85843337,-0.5692329,0.6426131,-0.7038451,0.7238746,-2.6041603,0.16707428,0.5389697,-0.08829906,-0.03156858,0.4561346,1.1560796,-0.37383524
0.1,-0.1,1.4999999999999998,0.0,0.5235987755982988,0,-0.8772262,0.8487282,-0.571238,0.6489345,-0.7037187,0.71428543,-2.619567,0.18024087,0.53045523,0.33062884,0.10093481,-0.3751362,1.1101664,-0.70243865
0.1,-0.1,1.4999999999999998,0.0,0.5235987755982988,0,-0.8788732,0.85699785,-0.5678773,0.64428014,-0.7037663,0.723328,-2.608831,0.13101837,0.53836066,0.19879895,0.02416253,0.49848127,1.2939209,-0.21765865
0.1,-0.1,1.4999999999999998,0.0,0.5235987755982988,0,-0.8834991,0.8561111,-0.5738871,0.64918697,-0.70526016,0.730183,-2.6057804,0.18064624,0.5278275,0.25727662,-0.20525904,0.8000957,1.3414391,1.9310739
0.1,-0.1,1.4999999999999998,0.0,0.5235987755982988,0,-0.87986124,0.85653335,-0.56484896,0.64329195,-0.7047242,0.7249213,-2.6083035,0.16798235,0.6109252,0.11569801,0.039221402,0.53079945,1.168283,-0.6153664
0.1,-0.1,1.4999999999999998,0.0,0.5235987755982988,0,-0.88447237,0.8488444,-0.5673702,0.6507046,-0.69550276,0.7247807,-2.5964415,0.14034669,0.5149697,0.22934434,0.12866306,0.24689412,1.0298489,-0.18322614
0.1,-0.1,1.4999999999999998,0.0,0.5235987755982988,0,-0.88155395,0.8552546,-0.5699963,0.64250827,-0.70953786,0.72722286,-2.601434,0.17450276,0.51464266,0.3677517,0.04320106,0.67257655,1.0866815,0.5758337
0.1,-0.1,1.4999999999999998,0.0,0.5235987755982988,0,-0.8811911,0.8494212,-0.5686432,0.64515877,-0.702722,0.7211724,-2.5889525,0.15665163,0.5463325,0.15171386,-0.05750299,-0.22114396,1.3083898,1.7798033
0.1,-0.1,1.4999999999999998,0.0,0.5235987755982988,0,-0.8789234,0.8528166,-0.5680443,0.64556646,-0.69973505,0.7333038,-2.5991552,0.13370965,0.4895917,0.12490338,-0.0906138,-0.10742178,1.1022638,-0.049336847
0.1,-0.1,1.4999999999999998,0.0,0.5235987755982988,0,-0.8851463,0.8549029,-0.56274664,0.6441252,-0.69974965,0.7250264,-2.5976734,0.17419106,0.5264144,-0.09752303,-0.17586757,-0.12276703,1.3138742,0.056035172
0.1,-0.1,1.4999999999999998,0.0,0.5235987755982988,0,-0.8830959,0.85065824,-0.5686623,0.6482051,-0.7077269,0.73577666,-2.5943432,0.15983307,0.608228,-0.059992503,0.28878883,-0.7081667,1.1382612,0.3535072
0.1,-0.1,1.4999999999999998,0.0,0.5235987755982988,0,-0.8832309,0.8510105,-0.56802934,0.6422231,-0.7052982,0.722999,-2.595706,0.16941938,0.5157768,0.11876649,0.23514009,-0.44120094,1.2034489,0.13826758
0.1,-0.1,1.4999999999999998,0.0,0.5235987755982988,0,-0.88357234,0.85595757,-0.5744613,0.64302677,-0.7005183,0.7199264,-2.6095648,0.13723198,0.5949867,0.3436215,-0.20912944,-0.1396295,1.2341558,0.31103873
0.1,-0.1,1.4999999999999998,0.0,0.5235987755982988,0,-0.88597554,0.8554338,-0.5679869,0.6457872,-0.7058061,0.72981066,-2.607154,0.1575006,0.5196851,0.013617388,0.0035044476,0.22183368,1.4581205,-1.2043519
0.1,-0.1,1.4999999999999998,0.0,0.5235987755982988,0,-0.88290054,0.85176855,-0.5685318,0.6401521,-0.70356035,0.72567755,-2.5922973,0.20080912,0.54817057,0.06899039,0.13624208,0.35777745,1.1491673,-0.6643473
0.1,-0.1,1.4999999999999998,0.0,0.5235987755982988,0,-0.87990713,0.8557587,-0.5780169,0.6477999,-0.7085952,0.7143129,-2.5969496,0.15101066,0.6079418,0.055103827,0.14241941,0.5947752,0.98646176,-0.90543586
0.1,-0.1,1.4999999999999998,0.0,0.5235987755982988,0,-0.8817817,0.8547134,-0.5706621,0.642828,-0.7050828,0.7286379,-2.5988019,0.16366816,0.4710962,0.15677874,0.0041438495,0.27322716,1.0730454,-1.202386
0.1,-0.1,1.4999999999999998,0.0,0.5235987755982988,0,-0.88363904,0.8551407,-0.5650572,0.6462865,-0.70234126,0.72477114,-2.6008546,0.16811922,0.51601624,0.07592712,0.30017465,0.16312882,1.438902,-0.55461854
0.1,-0.1,1.4999999999999998,0.0,0.5235987755982988,0,-0.88434774,0.851671,-0.5669294,0.6450403,-0.69969195,0.73175955,-2.611567,0.16911152,0.53685457,0.15591799,0.26964468,0.072254926,1.3702253,-0.5201408
0.1,-0.1,1.4999999999999998,0.0,0.5235987755982988,0,-0.8791688,0.84634227,-0.5742003,0.6450587,-0.70037717,0.71799636,-2.6172423,0.18281081,0.57561815,-0.19523974,0.08734856,-0.17259002,1.0463109,-0.15868324
0.1,-0.1,1.4999999999999998,0.0,0.5235987755982988,0,-0.8833134,0.8544863,-0.56479627,0.6428008,-0.6971379,0.72633195,-2.6195118,0.15477218,0.60729426,-0.10117395,0.02615302,0.27945584,1.2602187,0.30111438
0.1,-0.1,1.4999999999999998,0.0,0.5235987755982988,0,-0.8839372,0.8536194,-0.5676111,0.64888394,-0.7027458,0.72697693,-2.5938842,0.18542708,0.52236235,0.07642543,-0.098670475,-0.11657465,1.1349623,-0.5419632
0.1,-0.1,1.4999999999999998,0.0,0.5235987755982988,0,-0.8818724,0.85468465,-0.5642747,0.6416379,-0.70828164,0.7235588,-2.5911276,0.15297753,0.5636348,0.20799622,-0.09279075,0.18855594,1.2065734,0.39340162
0.1,-0.1,1.4999999999999998,0.0,0.5235987755982988,0,-0.8834129,0.8483115,-0.5706605,0.64324677,-0.704284,0.7324053,-2.5976706,0.1734287,0.5167604,-0.22872676,0.025069555,0.64478815,1.2241417,0.801176
0.1,-0.1,1.4999999999999998,0.0,0.5235987755982988,0,-0.8826593,0.851605,-0.568013,0.6485302,-0.70783323,0.72078776,-2.5947313,0.17011437,0.50234735,-0.067585744,0.04783809,0.3938303,1.0776657,0.79782295
0.1,-0.1,1.4999999999999998,0.0,0.5235987755982988,0,-0.88605845,0.85265374,-0.57595557,0.6447415,-0.6987906,0.7188146,-2.6034145,0.15937729,0.52808535,0.3300141,0.052555576,0.08093708,1.0408871,-1.2998161
0.1,-0.1,1.4999999999999998,0.0,0.5235987755982988,0,-0.8887084,0.8530788,-0.574861,0.6456646,-0.69939196,0.7239682,-2.6039314,0.1592668,0.533602,-0.16950588,0.120270014,0.21525826,1.0090479,0.74183077
0.1,-0.1,1.4999999999999998,0.0,0.5235987755982988,0,-0.87946576,0.85414404,-0.56906986,0.6467783,-0.69793683,0.7243026,-2.593278,0.15044776,0.5824732,0.016538125,0.0724289,0.45341116,1.0663546,-0.8816127
0.1,-0.1,1.4999999999999998,0.0,0.5235987755982988,0,-0.88484085,0.8477825,-0.5741775,0.6450815,-0.7073726,0.72562957,-2.6135888,0.1624368,0.50774014,0.322539,-0.104188025,0.09694952,1.1185361,-0.7123638
0.1,-0.1,1.4999999999999998,0.0,0.5235987755982988,0,-0.87998724,0.853836,-0.56214315,0.642966,-0.6944463,0.73217386,-2.6006837,0.12759402,0.52808803,0.21193443,0.066570275,0.055782985,1.1677753,-0.7388528
0.1,-0.1,1.4999999999999998,0.0,0.5235987755982988,0,-0.88113374,0.85020775,-0.57558554,0.6437909,-0.7012294,0.727156,-2.5932534,0.17782739,0.5548033,0.13848484,-0.007498044,0.6459574,1.0655001,-1.3291321
0.1,-0.1,1.4999999999999998,0.0,0.5235987755982988,0,-0.88621575,0.856013,-0.57395726,0.6444186,-0.69880307,0.72291696,-2.6041994,0.12211139,0.574763,-0.0010675204,0.29713055,0.22976875,1.2281533,2.651127
0.1,-0.1,1.4999999999999998,0.0,0.5235987755982988,0,-0.88382995,0.8515876,-0.5678843,0.6438649,-0.7013956,0.7249755,-2.6074026,0.17485815,0.5471151,-0.08201554,0.044485416,0.12853022,1.3622477,-0.17600021
0.1,-0.1,1.4999999999999998,0.0,0.5235987755982988,0,-0.88250244,0.85172325,-0.57393885,0.641043,-0.7001055,0.72135544,-2.5973659,0.16992018,0.5401333,0.24957979,0.11512226,-0.16255516,1.2087,2.4119217
0.1,-0.1,1.4999999999999998,0.0,0.5235987755982988,0,-0.88082147,0.85254693,-0.5697067,0.6419689,-0.6989306,0.7232132,-2.613853,0.15877336,0.5537609,0.17641532,0.03094968,0.43030867,1.2660832,-0.54991937
0.1,-0.1,1.4999999999999998,0.0,0.5235987755982988,0,-0.8806496,0.86000115,-0.568548,0.64670336,-0.6943273,0.7143861,-2.6103036,0.114499964,0.5245312,0.040960003,-0.21003598,0.401932,1.3291814,1.6722336
0.1,-0.1,1.4999999999999998,0.0,0.5235987755982988,0,-0.8829935,0.8536639,-0.5735517,0.6432641,-0.70120716,0.72098136,-2.6028945,0.15921791,0.52118784,-0.10839833,0.24889624,0.15337656,0.8654702,0.3395494
0.1,-0.1,1.4999999999999998,0.0,0.5235987755982988,0,-0.88225245,0.85088015,-0.5715403,0.6458815,-0.6978894,0.73225445,-2.5905561,0.15569478,0.5603319,0.24018653,0.044302944,0.19208938,1.0780712,-1.3577263
0.1,-0.1,1.4999999999999998,0.0,0.5235987755982988,0,-0.88244927,0.8470928,-0.5664618,0.6443155,-0.7015339,0.7260769,-2.594933,0.14335491,0.5463062,-0.12301477,0.1077381,-0.29361662,1.2863595,0.17674735
0.1,-0.1,1.4999999999999998,0.0,0.5235987755982988,0,-0.88793,0.8460836,-0.5648814,0.64488375,-0.70016885,0.71654534,-2.5858302,0.13089834,0.54310465,0.21045066,0.07608318,-0.43834376,1.103717,-0.9589924
0.1,-0.1,1.4999999999999998,0.0,0.5235987755982988,0,-0.8813519,0.8543495,-0.5659717,0.64229363,-0.69736904,0.7203387,-2.5985706,0.14509961,0.5780096,0.37161177,0.078918464,0.46679524,1.069105,-0.78516376
0.1,-0.1,1.4999999999999998,0.0,0.5235987755982988,0,-0.8868686,0.85066015,-0.5652622,0.6413692,-0.7025793,0.72855514,-2.6139731,0.15817994,0.5377924,-0.1012505,0.23906049,-0.20584649,1.2642022,0.35734832
0.1,-0.1,1.4999999999999998,0.0,0.5235987755982988,0,-0.8828132,0.8559326,-0.5646607,0.646071,-0.7029847,0.7132816,-2.5972586,0.17496923,0.50141984,-0.11678687,0.046130314,-0.07175948,1.1547447,1.5574247
0.1,-0.1,1.4999999999999998,0.0,0.5235987755982988,0,-0.88930184,0.85006803,-0.5568236,0.6456246,-0.7005835,0.727413,-2.6139255,0.17582971,0.5566895,-0.1714603,0.14318416,0.21751201,1.1239485,1.296953
0.1,-0.1,1.4999999999999998,0.0,0.5235987755982988,0,-0.8829854,0.8540588,-0.55901515,0.6461524,-0.7086496,0.7205981,-2.6094573,0.17661487,0.54837936,0.20434079,0.013248071,-0.508651,1.048822,0.7281361
0.1,-0.1,1.4999999999999998,0.0,0.5235987755982988,0,-0.8846634,0.8547195,-0.5700951,0.6447538,-0.7060757,0.7237662,-2.592726,0.16465488,0.535351,0.03385229,0.09272558,-0.38758427,0.9521666,-1.1908585
0.1,-0.1,1.4999999999999998,0.0,0.5235987755982988,0,-0.88609135,0.84659284,-0.5729573,0.6459767,-0.6991152,0.7286168,-2.617124,0.14939377,0.5513962,0.16480687,0.20190229,0.5947297,1.254368,-0.18083386
0.1,-0.1,1.4999999999999998,0.0,0.5235987755982988,0,-0.8777701,0.8498916,-0.57172996,0.6469828,-0.7063531,0.7227265,-2.6155708,0.18707578,0.51736075,0.34919727,0.0488141,-0.029906748,1.1895928,0.41174042
0.1,-0.1,1.4999999999999998,0.0,0.5235987755982988,0,-0.88021845,0.854363,-0.5737729,0.64517534,-0.70080173,0.72092694,-2.6229427,0.13982488,0.54960775,-0.0014309112,0.022933051,-0.14486168,1.045244,-0.1685572
0.1,-0.1,1.4999999999999998,0.0,0.5235987755982988,0,-0.882235,0.84808856,-0.56778514,0.6453575,-0.7102706,0.71886575,-2.5928655,0.1478104,0.49224287,0.4289226,0.06920834,-0.26315942,1.2476261,1.3104006
0.1,-0.1,1.4999999999999998,0.0,0.5235987755982988,0,-0.8811253,0.84800464,-0.57124364,0.64467126,-0.7083548,0.7321319,-2.613479,0.15001531,0.51434743,0.031240407,0.13073057,0.15666191,1.3604231,-0.93704766
0.1,-0.1,1.4999999999999998,0.0,0.5235987755982988,0,-0.88773113,0.84112203,-0.5729457,0.6423513,-0.7030243,0.72729164,-2.6053436,0.16884236,0.54973656,0.23489,0.010065423,0.24796218,1.0467547,0.72024673
0.1,-0.1,1.4999999999999998,0.0,0.5235987755982988,0,-0.8824357,0.85433716,-0.5680191,0.64807516,-0.70203686,0.73255605,-2.5743682,0.171785,0.5598689,0.01854819,0.033242233,-0.14490461,1.4266725,-0.22595897
0.1,-0.1,1.4999999999999998,0.0,0.5235987755982988,0,-0.8853947,0.8444701,-0.56666064,0.64804316,-0.69600534,0.7304895,-2.5889378,0.14994584,0.52468854,0.089194395,0.26339144,0.14029028,0.97551054,1.6604787
0.1,-0.1,1.4999999999999998,0.0,0.5235987755982988,0,-0.8831122,0.8472784,-0.57211524,0.6425789,-0.70101094,0.72383815,-2.6144614,0.17867453,0.55275583,0.2726144,0.36233163,0.26828402,0.8967701,-0.18416435
0.1,-0.1,1.4999999999999998,0.0,0.5235987755982988,0,-0.8772998,0.8545803,-0.56869125,0.6457778,-0.7033188,0.7365587,-2.5927086,0.1404191,0.54997027,-0.40870672,0.00092603144,-0.23835704,0.9916319,0.32194063
0.1,-0.1,1.4999999999999998,0.0,0.5235987755982988,0,-0.8797731,0.84972006,-0.5642109,0.6464006,-0.7050897,0.7306852,-2.6032693,0.1494718,0.6013201,-0.22540736,-0.039236218,0.105677515,1.1308041,-0.7980427
0.1,-0.1,1.4999999999999998,0.0,0.5235987755982988,0,-0.88088274,0.8615271,-0.57323706,0.642615,-0.7095911,0.7274537,-2.6086528,0.15476604,0.5730332,-0.17600687,0.09113891,0.42541516,1.1649528,-1.1649122
0.1,-0.1,1.4999999999999998,0.0,0.5235987755982988,0,-0.8894769,0.8488458,-0.56337124,0.64585525,-0.70179665,0.7229389,-2.596873,0.16254197,0.5237857,0.0854903,-0.07788092,-0.15111917,1.0977111,-1.0445063
0.1,-0.1,1.4999999999999998,0.0,0.5235987755982988,0,-0.87798345,0.85446197,-0.5719807,0.6457913,-0.7065402,0.7183255,-2.5991046,0.18426152,0.5505466,0.24956717,0.41283065,0.039450523,1.5453851,-0.8500497
0.1,-0.1,1.4999999999999998,0.0,0.5235987755982988,0,-0.8798859,0.8532925,-0.5681395,0.6461746,-0.6985938,0.72977316,-2.6223435,0.1928774,0.5016263,-0.0204131,-0.07394499,0.021648379,1.1383103,0.52869153
0.1,-0.1,1.4999999999999998,0.0,0.5235987755982988,0,-0.88305074,0.85417104,-0.5671314,0.6445717,-0.7108449,0.72246003,-2.5975595,0.16181578,0.5157762,0.30408785,0.29844436,-0.18877544,1.2909113,-0.47032154
0.1,-0.1,1.4999999999999998,0.0,0.5235987755982988,0,-0.87981284,0.8475689,-0.5695209,0.6456672,-0.69737244,0.7282647,-2.599933,0.15183082,0.58982474,0.11205823,0.062082812,0.22528572,1.234557,0.5397231
0.1,-0.1,1.4999999999999998,0.0,0.5235987755982988,0,-0.8822247,0.8533615,-0.5682194,0.64370954,-0.7044712,0.71932125,-2.611712,0.17494744,0.5351271,0.09576197,-0.06709648,-0.17842458,1.1476892,1.6886091
0.1,-0.1,1.4999999999999998,0.0,0.5235987755982988,0,-0.8831052,0.8506037,-0.5731041,0.6442324,-0.71144897,0.72463894,-2.6206534,0.17665671,0.49639863,-0.14861546,0.08664522,0.63230217,1.2702862,0.04934087
0.1,-0.1,1.4999999999999998,0.0,0.5235987755982988,0,-0.88201183,0.8511628,-0.56577706,0.6433576,-0.7041254,0.7265789,-2.602658,0.16499235,0.60693777,-0.41653642,0.13930048,0.18280293,1.364026,0.29092097
0.1,-0.1,1.4999999999999998,0.0,0.5235987755982988,0,-0.88873357,0.8553449,-0.5737345,0.64646083,-0.7035797,0.724344,-2.602546,0.1276113,0.5470041,0.43363056,0.14154875,0.3622735,1.4892863,-0.39809602
0.1,-0.1,1.4999999999999998,0.0,0.5235987755982988,0,-0.8824808,0.85167885,-0.5731119,0.64717394,-0.71083057,0.72762775,-2.6075358,0.14441007,0.48465088,0.18476105,0.16712263,-0.24252722,1.0575522,-0.016207527
0.1,-0.1,1.4999999999999998,0.0,0.5235987755982988,0,-0.8811421,0.8467087,-0.5697919,0.64678097,-0.7021664,0.7296322,-2.6002903,0.1550278,0.5444427,0.29147622,0.10387753,-0.18989451,1.1718534,-0.7398844
0.1,-0.1,1.4999999999999998,0.0,0.5235987755982988,0,-0.87911916,0.85318255,-0.57152754,0.6459464,-0.69372845,0.7296301,-2.6132512,0.1728923,0.47791576,-0.09455207,-0.024484621,0.2939179,1.1631587,0.50266284
0.1,-0.1,1.4999999999999998,0.0,0.5235987755982988,0,-0.87712944,0.8493014,-0.5683916,0.6450004,-0.70801336,0.7314632,-2.6085186,0.13267224,0.560592,-0.123555936,0.043406762,0.13543157,1.17985,-0.86732584
0.1,-0.1,1.4999999999999998,0.0,0.5235987755982988,0,-0.8812767,0.84577996,-0.5685611,0.64882445,-0.70653796,0.71904516,-2.5968354,0.17398398,0.5691746,0.1933304,0.25124672,-0.13194157,1.3274884,0.32900506
0.1,-0.1,1.4999999999999998,0.0,0.5235987755982988,0,-0.8810585,0.85408455,-0.5655342,0.6448685,-0.6990969,0.7302607,-2.6077578,0.18118802,0.52478623,0.0700505,0.090028845,-0.40182662,1.294125,-0.39423704
0.1,-0.1,1.4999999999999998,0.0,0.5235987755982988,0,-0.88117594,0.84761757,-0.56509286,0.6467815,-0.7052296,0.73924285,-2.610259,0.16205958,0.4846022,0.17260751,0.06647048,0.08017937,1.2473938,1.1326172
0.1,-0.1,1.4999999999999998,0.0,0.5235987755982988,0,-0.8838698,0.8535509,-0.56829643,0.6473504,-0.7035809,0.71842253,-2.6077619,0.18682681,0.5610259,0.28729308,0.22236858,-0.09595671,1.1247683,1.7793913
0.1,-0.1,1.4999999999999998,0.0,0.5235987755982988,0,-0.8828078,0.8519498,-0.5703072,0.6473249,-0.6999042,0.7308602,-2.596803,0.15690911,0.55166006,-0.24172975,0.11752572,0.78674495,1.1788815,0.6472204
0.1,-0.1,1.4999999999999998,0.0,0.5235987755982988,0,-0.8858444,0.84921527,-0.57060426,0.64196914,-0.69816065,0.7286624,-2.6089144,0.17077012,0.601068,0.02752557,-0.25052625,-0.39515433,1.3291605,-0.1435364
0.1,-0.1,1.4999999999999998,0.0,0.5235987755982988,0,-0.88204986,0.8518096,-0.5728557,0.6424485,-0.69435036,0.7244667,-2.6041884,0.16285065,0.5712354,0.0757559,-0.023047693,-0.13115959,1.2532897,-0.6737117
0.1,-0.1,1.4999999999999998,0.0,0.5235987755982988,0,-0.8829986,0.8476486,-0.5702783,0.64510566,-0.704585,0.7345199,-2.6001737,0.16044165,0.59149265,0.14197226,0.07005134,0.33976537,1.2737911,0.25064114
0.1,-0.1,1.4999999999999998,0.0,0.5235987755982988,0,-0.88686144,0.8572429,-0.56972224,0.6464215,-0.69623554,0.72876245,-2.607344,0.15135428,0.5618162,-0.11097316,0.43464836,-0.54895216,1.1041205,0.9320651
0.1,-0.1,1.4999999999999998,0.0,0.5235987755982988,0,-0.8785799,0.85114455,-0.56944215,0.64711374,-0.70533544,0.71877867,-2.6107717,0.18083927,0.5406545,-0.036777455,0.034020204,0.2095079,1.2392371,-0.575356
0.1,-0.1,1.4999999999999998,0.0,0.5235987755982988,0,-0.88382715,0.8477024,-0.5671752,0.6449432,-0.69771016,0.7291652,-2.6172943,0.16107859,0.5465607,0.36842343,0.0012144395,0.46285912,0.92213005,-1.1074245
0.1,-0.1,1.4999999999999998,0.0,0.5235987755982988,0,-0.88362634,0.8422439,-0.57356983,0.6458191,-0.7094966,0.7263129,-2.6012223,0.14015123,0.515333,-0.0058301175,0.24858442,-0.1458527,1.4880412,0.8021203
0.1,-0.1,1.4999999999999998,0.0,0.5235987755982988,0,-0.88302344,0.8534088,-0.56945586,0.6404104,-0.69722486,0.7249359,-2.620564,0.19346353,0.5555664,0.15460873,-0.18691774,-0.14974022,0.9751759,-0.3762939
0.1,-0.1,1.4999999999999998,0.0,0.5235987755982988,0,-0.8801632,0.85222006,-0.5655806,0.6452813,-0.70633817,0.72102886,-2.6035047,0.15203096,0.5759034,0.29367134,0.0743812,0.23067214,1.3433264,1.794577
0.1,-0.1,1.4999999999999998,0.0,0.5235987755982988,0,-0.8853886,0.85758626,-0.5727431,0.64622945,-0.69791436,0.71868867,-2.594644,0.13455313,0.5155469,0.29030055,0.15070613,0.16335697,0.925153,-0.4621702
0.1,-0.1,1.4999999999999998,0.0,0.5235987755982988,0,-0.88536656,0.85594314,-0.565773,0.64481497,-0.699839,0.72762835,-2.595233,0.14432718,0.53288203,0.18870583,0.18551624,0.14158347,1.3555373,0.38032746
0.1,-0.1,1.4999999999999998,0.0,0.5235987755982988,0,-0.881972,0.8542774,-0.5677719,0.64500445,-0.7065118,0.7229386,-2.6032329,0.19983348,0.56621623,0.14470713,0.24614826,-0.073389664,1.385234,-0.076441675
0.1,-0.1,1.4999999999999998,0.0,0.5235987755982988,0,-0.8834796,0.84949166,-0.5702613,0.6410766,-0.70277643,0.73006505,-2.614462,0.143172,0.5070119,-0.05905515,0.18518998,0.3305005,1.2926068,0.7552637
0.1,-0.1,1.4999999999999998,0.0,0.5235987755982988,0,-0.87941116,0.8545956,-0.5648478,0.64403117,-0.7066737,0.7221838,-2.6048982,0.16645487,0.53211385,0.23945281,0.08030697,0.22508542,1.1083045,-0.2795247
0.1,-0.1,1.4999999999999998,0.0,0.5235987755982988,0,-0.8855637,0.8504128,-0.56747615,0.6453433,-0.7034869,0.72663546,-2.588945,0.16349193,0.5137714,-0.31798586,0.08923861,-0.01784933,1.2346698,-0.7326157
0.1,-0.1,1.4999999999999998,0.0,0.5235987755982988,0,-0.8851371,0.84835887,-0.5672104,0.6472512,-0.7151933,0.721953,-2.6101687,0.18213986,0.4910995,0.18642056,0.19908756,0.33938906,1.2108262,0.7548504
0.1,-0.1,1.4999999999999998,0.0,0.5235987755982988,0,-0.88349205,0.84783614,-0.5718674,0.6447786,-0.7044138,0.72505885,-2.599142,0.19204375,0.4931192,0.030474136,0.17972791,-0.058578525,1.1665713,0.94310856
0.1,-0.1,1.4999999999999998,0.0,0.5235987755982988,0,-0.88019484,0.849993,-0.56433064,0.6429158,-0.6973188,0.7297687,-2.5956664,0.18860295,0.56481117,0.027044684,0.16329432,-0.19074151,1.3890713,1.8893511
0.1,-0.1,1.4999999999999998,0.0,0.5235987755982988,0,-0.88808155,0.8498885,-0.5725564,0.64691955,-0.7072936,0.72167134,-2.596224,0.15137845,0.58393365,0.4126686,0.29856443,-0.20760465,1.4392717,0.24946484
0.1,-0.1,1.4999999999999998,0.0,0.5235987755982988,0,-0.88768256,0.84966546,-0.5689255,0.6444357,-0.71341497,0.7327771,-2.619165,0.1465407,0.52911717,0.23504367,0.027910268,0.24514715,1.3431733,-1.1419607
0.1,-0.1,1.4999999999999998,0.0,0.5235987755982988,0,-0.8871957,0.84895027,-0.57286155,0.643123,-0.7069342,0.72647774,-2.590295,0.16623777,0.52657866,-0.11175261,-0.072950296,0.09119584,1.0767148,0.14541908
0.1,-0.1,1.4999999999999998,0.0,0.5235987755982988,0,-0.878991,0.85611963,-0.57034403,0.6429526,-0.7063155,0.72876793,-2.6045785,0.15623504,0.60868365,0.10930594,0.19058666,-0.4693938,1.151213,0.2396723
0.1,-0.1,1.4999999999999998,0.0,0.5235987755982988,0,-0.8845742,0.856288,-0.56546694,0.6450414,-0.7027062,0.7272073,-2.6019995,0.14720726,0.5086779,0.051107194,0.06587797,0.17031135,1.1837192,1.2707883
0.1,-0.1,1.4999999999999998,0.0,0.5235987755982988,0,-0.8753708,0.8545331,-0.56994134,0.6441108,-0.7024942,0.7289335,-2.6082857,0.1479179,0.5116727,0.26576468,-0.100196496,0.058370043,1.0381823,1.2044222
0.1,-0.1,1.4999999999999998,0.0,0.5235987755982988,0,-0.88396955,0.85555327,-0.5699933,0.64632696,-0.70250434,0.72509694,-2.6024144,0.14373225,0.6026541,0.10841553,0.13982356,0.15567979,1.2972791,-0.72839147
0.1,-0.1,1.4999999999999998,0.0,0.5235987755982988,0,-0.8822473,0.8526814,-0.5675954,0.64777243,-0.69475126,0.72488683,-2.574433,0.15509616,0.56017303,0.14945485,0.055103634,0.27167916,1.44106,0.46921632
0.1,-0.1,1.4999999999999998,0.0,0.5235987755982988,0,-0.8811239,0.8531539,-0.57412416,0.64215297,-0.70093113,0.7204716,-2.6000166,0.13102126,0.5531384,0.025810972,-0.09506496,0.30931368,1.1758268,0.63458407
0.1,-0.1,1.4999999999999998,0.0,0.5235987755982988,0,-0.8865497,0.8564897,-0.5688953,0.6487418,-0.70229185,0.7197598,-2.6062617,0.15968423,0.4977217,0.028208805,-0.13654576,-0.33971268,0.96541584,1.4480733
0.1,-0.1,1.4999999999999998,0.0,0.5235987755982988,0,-0.8838077,0.84728557,-0.5753784,0.643588,-0.7061001,0.7141213,-2.5898888,0.17579252,0.55445635,-0.05299048,0.052594963,0.018522471,1.2208236,1.2524434
0.1,-0.1,1.4999999999999998,0.0,0.5235987755982988,0,-0.88165474,0.85343486,-0.5685142,0.6443256,-0.7092471,0.7268491,-2.596312,0.16159575,0.5480008,0.13555032,0.10241936,-0.1889536,1.3329349,0.26801926
0.1,-0.1,1.4999999999999998,0.0,0.5235987755982988,0,-0.8806837,0.8525293,-0.5725352,0.6428506,-0.70306236,0.71895355,-2.6079876,0.14185001,0.51735425,-0.23510164,0.32684448,0.61966276,1.2783201,2.5391142
0.1,-0.1,1.4999999999999998,0.0,0.5235987755982988,0,-0.8840562,0.85279644,-0.56601995,0.6449158,-0.71040076,0.731816,-2.6081164,0.1550019,0.50683117,-0.12060756,0.06964565,0.18492584,1.1433692,1.6056172
0.1,-0.1,1.4999999999999998,0.0,0.5235987755982988,0,-0.8823934,0.8481285,-0.5711944,0.6433429,-0.7004074,0.7237863,-2.6056268,0.15038073,0.55030686,-0.07902562,0.22329393,-0.05509338,1.3111558,0.61839515
0.1,-0.1,1.4999999999999998,0.0,0.5235987755982988,0,-0.88735723,0.8555055,-0.56911105,0.64694744,-0.7078198,0.7431843,-2.6114595,0.116250806,0.5811314,0.21073748,0.12614939,-0.35700464,1.162256,-1.0674877
0.1,-0.1,1.4999999999999998,0.0,0.5235987755982988,0,-0.88385546,0.84866387,-0.5689361,0.6441428,-0.7044353,0.7305719,-2.6164753,0.14404109,0.53929895,0.14214167,-0.12878484,-0.04438096,1.219129,0.3104304
0.1,-0.1,1.4999999999999998,0.0,0.5235987755982988,0,-0.88214177,0.849389,-0.5719725,0.64494973,-0.70191437,0.7287405,-2.6202223,0.16302076,0.58917165,-0.10464293,0.11249092,-0.43468502,1.3482076,0.06841471
0.1,-0.1,1.4999999999999998,0.0,0.5235987755982988,0,-0.87980735,0.84529763,-0.5717887,0.6415462,-0.7077235,0.72131366,-2.6016002,0.14969945,0.55177593,0.2467174,0.37057778,-0.012844442,1.0932653,0.23464064
0.1,-0.1,1.4999999999999998,0.0,0.5235987755982988,0,-0.8884577,0.85987425,-0.5686772,0.6467148,-0.70595485,0.7266355,-2.587014,0.14152704,0.50361246,0.2020485,-0.00065123505,0.7441128,1.1546811,-0.31562963
0.1,-0.1,1.4999999999999998,0.0,0.5235987755982988,0,-0.88430977,0.8486911,-0.5718024,0.6450214,-0.69827193,0.724619,-2.606992,0.17695706,0.5683676,0.050117116,0.03993849,-0.114752404,1.2420611,0.16235311
0.1,-0.1,1.4999999999999998,0.0,0.5235987755982988,0,-0.87871224,0.8501924,-0.56480974,0.6457163,-0.6953499,0.71710974,-2.5970623,0.17935513,0.57462496,0.1702166,0.0695604,-0.31021178,1.0572476,-0.24171235
0.1,-0.1,1.4999999999999998,0.0,0.5235987755982988,0,-0.8819954,0.8507526,-0.5720267,0.64023393,-0.70547026,0.72793317,-2.6051145,0.18693408,0.5031343,0.12418438,0.14705479,0.07456211,1.3949131,0.2269594
0.1,-0.1,1.4999999999999998,0.0,0.5235987755982988,0,-0.88124174,0.84904104,-0.57356364,0.64280057,-0.6954856,0.7335322,-2.6216586,0.16609888,0.55101717,0.38532138,-0.07910579,0.5980053,1.2859648,0.664135
0.1,-0.1,1.4999999999999998,0.0,0.5235987755982988,0,-0.87959266,0.8525288,-0.568873,0.6450056,-0.69655544,0.72061634,-2.6081278,0.1797881,0.54979527,-0.10663026,-0.087446496,-0.23553418,1.2117562,-0.46596876
0.1,-0.1,1.4999999999999998,0.0,0.5235987755982988,0,-0.8831944,0.8450869,-0.5666019,0.64679444,-0.7031307,0.7221062,-2.5984473,0.16278516,0.53903544,0.2411315,0.097460605,0.30031797,1.4698784,-0.33256102
0.1,-0.1,1.4999999999999998,0.0,0.5235987755982988,0,-0.88266885,0.8565832,-0.5743152,0.6491578,-0.70371854,0.72324526,-2.6124096,0.16878772,0.5565888,0.031133933,0.17753436,-0.158788,1.3603377,1.1261016
0.1,-0.1,1.4999999999999998,0.0,0.5235987755982988,0,-0.879933,0.85492975,-0.56906927,0.64753586,-0.70048857,0.73503715,-2.6072056,0.16436347,0.55901146,-0.20830832,0.19573435,-0.42307177,1.2787409,1.3655928
0.1,-0.1,1.4999999999999998,0.0,0.5235987755982988,0,-0.8827555,0.8583385,-0.5661338,0.64918035,-0.7058562,0.7267058,-2.6148021,0.15502132,0.5472581,0.16564637,0.2503634,-0.4753004,0.95204633,2.0487654
0.1,-0.1,1.4999999999999998,0.0,0.5235987755982988,0,-0.88040245,0.8517437,-0.57012177,0.6410851,-0.6970453,0.733066,-2.6074095,0.1763556,0.52438027,0.34368986,-0.054116692,-0.14797747,1.359391,0.22637156
0.1,-0.1,1.4999999999999998,0.0,0.5235987755982988,0,-0.8842146,0.85167587,-0.567345,0.63969857,-0.6976181,0.7284818,-2.595877,0.14016454,0.5182809,0.15399598,-0.027883912,0.78224486,1.2575194,1.2063615
0.1,-0.1,1.4999999999999998,0.0,0.5235987755982988,0,-0.8824031,0.8570429,-0.5686045,0.6470541,-0.7009072,0.73139703,-2.599382,0.16814762,0.5617554,0.10052459,0.16007455,0.44971895,1.3326982,0.962422
0.1,-0.1,1.4999999999999998,0.0,0.5235987755982988,0,-0.8767478,0.86360055,-0.56602746,0.6432827,-0.7094367,0.72724056,-2.6120243,0.13585582,0.5982846,-0.001660176,0.07624857,-0.6219866,1.2854778,-0.1592681
0.1,-0.1,1.4999999999999998,0.0,0.5235987755982988,0,-0.8828513,0.8497259,-0.5712629,0.643647,-0.6951426,0.7228051,-2.6032665,0.13418107,0.47938672,-0.06476423,0.19270295,0.45362166,1.4377626,-0.99532
0.1,-0.1,1.4999999999999998,0.0,0.5235987755982988,0,-0.8838359,0.8544442,-0.57436866,0.64414364,-0.69608647,0.7285242,-2.6039994,0.20759396,0.5402932,0.18740001,-0.03238939,-0.33250904,1.0640117,0.30059403
0.1,-0.1,1.4999999999999998,0.0,0.5235987755982988,0,-0.8801805,0.8587272,-0.57563716,0.64013207,-0.7070397,0.7266413,-2.5923755,0.16270354,0.5139866,0.13669929,-0.00025624136,0.31593087,1.1940678,0.9281183
0.1,-0.1,1.4999999999999998,0.0,0.5235987755982988,0,-0.88064206,0.86023664,-0.5646836,0.647983,-0.70016336,0.7289507,-2.611545,0.19647256,0.5629762,0.32737887,0.2348099,0.3506578,1.1653272,1.6634425
0.1,-0.1,1.4999999999999998,0.0,0.5235987755982988,0,-0.88543415,0.8515488,-0.571849,0.6479129,-0.68951005,0.7215514,-2.6025639,0.14258024,0.5552644,0.017522171,0.0800307,0.16196127,1.2843761,0.3572112
0.1,-0.1,1.4999999999999998,0.0,0.5235987755982988,0,-0.88621795,0.8573559,-0.5679444,0.6454485,-0.70710427,0.7202788,-2.591596,0.14545572,0.5361987,0.19571704,0.0902992,-0.3175169,1.2268674,-1.091536
0.1,-0.1,1.4999999999999998,0.0,0.5235987755982988,0,-0.88809705,0.84601706,-0.5656212,0.64478177,-0.71094424,0.7267022,-2.612799,0.1613118,0.5385669,0.004956749,0.17932455,-0.009921076,1.271294,0.19506378
0.1,-0.1,1.4999999999999998,0.0,0.5235987755982988,0,-0.8837444,0.85322696,-0.5746312,0.6465164,-0.7009591,0.7246521,-2.6154292,0.12970646,0.5737158,-0.05887616,0.12157736,-0.14623037,1.4510154,0.57008743
0.1,-0.1,1.4999999999999998,0.0,0.5235987755982988,0,-0.8854814,0.8505094,-0.5733135,0.64641714,-0.70146215,0.7319265,-2.5980089,0.14635041,0.53304315,0.17477094,0.0050426433,0.09428712,1.0706545,0.56908876
0.1,-0.1,1.4999999999999998,0.0,0.5235987755982988,0,-0.88422567,0.8516653,-0.5656727,0.6450728,-0.7048564,0.7330644,-2.6082773,0.1753097,0.5277486,0.01321412,0.21036214,0.073800854,1.0361367,0.2890909
0.1,-0.1,1.4999999999999998,0.0,0.5235987755982988,0,-0.8842819,0.84770495,-0.5733583,0.64449805,-0.70635694,0.7261027,-2.605527,0.15479635,0.555581,0.14946657,-0.11635818,-0.047398716,1.2639931,-1.4131073
0.1,-0.1,1.4999999999999998,0.0,0.5235987755982988,0,-0.88704747,0.85315585,-0.56832415,0.64057523,-0.7026184,0.728642,-2.6096761,0.1524497,0.52815545,0.029242111,0.21908547,0.6325029,1.1299949,0.24955067
0.1,-0.1,1.4999999999999998,0.0,0.5235987755982988,0,-0.8843542,0.8553063,-0.57196826,0.64711803,-0.6980041,0.72715414,-2.606778,0.13517004,0.55373544,0.14548382,0.25142708,-0.18062593,1.3790916,-0.6134129
0.1,-0.1,1.4999999999999998,0.0,0.5235987755982988,0,-0.8826197,0.8542652,-0.566901,0.6472046,-0.70064497,0.7275174,-2.6132517,0.15102337,0.5037065,0.030114347,-0.123523206,0.28974554,1.0697423,-0.02445611
0.1,-0.1,1.4999999999999998,0.0,0.5235987755982988,0,-0.8800709,0.85403454,-0.5725052,0.6467951,-0.7007166,0.73485833,-2.600901,0.14861363,0.46635023,-0.22904207,0.028193543,0.105400935,1.3086299,-0.4204602
0.1,-0.1,1.4999999999999998,0.0,0.5235987755982988,0,-0.8854587,0.8562157,-0.57358503,0.6454924,-0.7092831,0.7231222,-2.5994587,0.16309796,0.54423493,0.1894773,0.066912666,-0.14414896,0.89932305,0.14745201
0.1,-0.1,1.4999999999999998,0.0,0.5235987755982988,0,-0.8845184,0.84823525,-0.57021165,0.6426518,-0.7044993,0.7238439,-2.6109726,0.17011304,0.5590258,-0.14176372,0.13464944,-0.07514799,1.0358224,-0.1509811
0.1,-0.1,1.4999999999999998,0.0,0.5235987755982988,0,-0.8878871,0.8502931,-0.56971043,0.6478168,-0.7109779,0.73389643,-2.599691,0.16786109,0.5565927,0.35945383,0.06884549,-0.24058688,1.127563,-0.102487944
0.1,-0.1,1.4999999999999998,0.0,0.5235987755982988,0,-0.8793069,0.845503,-0.5665505,0.6433458,-0.7078049,0.724366,-2.6120162,0.14830513,0.50195366,-0.15049987,0.1556921,0.38808912,0.98678356,1.7689322
0.1,-0.1,1.4999999999999998,0.0,0.5235987755982988,0,-0.885377,0.8549415,-0.566408,0.6447598,-0.7042504,0.72367805,-2.610393,0.14493737,0.49012753,0.16491863,-0.028097175,0.5966193,1.2392627,-0.022976633
0.1,-0.1,1.4999999999999998,0.0,0.5235987755982988,0,-0.8869821,0.84812135,-0.5695049,0.64774925,-0.7042441,0.72746867,-2.6024246,0.1718325,0.53044766,-0.041764304,-0.020021053,0.008579727,1.2015182,0.32805687
0.1,-0.1,1.4999999999999998,0.0,0.5235987755982988,0,-0.88487434,0.8569784,-0.5703306,0.64606625,-0.7054043,0.7289638,-2.6040063,0.14531459,0.5348899,0.22986393,0.12495503,0.4694917,1.2003766,-0.21581177
0.1,-0.1,1.4999999999999998,0.0,0.5235987755982988,0,-0.8798725,0.85955065,-0.5668806,0.64773256,-0.71267,0.7240094,-2.6145985,0.14073145,0.52378523,-0.103439175,0.23848106,-0.3641259,1.1414359,0.6081662
0.1,-0.1,1.4999999999999998,0.0,0.5235987755982988,0,-0.8834523,0.851995,-0.5734058,0.64638764,-0.7052836,0.72409344,-2.596084,0.15987617,0.55935633,-0.027787399,0.12107869,0.36064887,1.0510938,0.26678094
0.1,-0.1,1.4999999999999998,0.0,0.5235987755982988,0,-0.88741326,0.85329413,-0.57503724,0.64279646,-0.6970893,0.72864056,-2.6016695,0.16804016,0.520679,0.335209,-0.050191026,-0.34453976,1.3236575,2.3461578
0.1,-0.1,1.4999999999999998,0.0,0.5235987755982988,0,-0.88339746,0.848874,-0.57262355,0.6404713,-0.6976899,0.73463905,-2.5995162,0.15530945,0.60295403,-0.03899503,0.2010822,-0.27061272,1.4086347,0.24420378
0.1,-0.1,1.4999999999999998,0.0,0.5235987755982988,0,-0.8855924,0.84466624,-0.5739276,0.6441032,-0.70053273,0.72044164,-2.615368,0.14826983,0.53637,-0.100220844,0.15606198,-0.01479891,1.1071033,0.31638294
0.1,-0.1,1.4999999999999998,0.0,0.5235987755982988,0,-0.8826374,0.8455323,-0.57498926,0.64563864,-0.7043273,0.72354823,-2.6275027,0.15266027,0.543424,0.2390705,0.14523791,-0.16473043,0.9848952,0.26128328
0.1,-0.1,1.4999999999999998,0.0,0.5235987755982988,0,-0.8810947,0.8531496,-0.57219225,0.6451508,-0.6986644,0.7245568,-2.599228,0.16231185,0.604737,0.13033633,-0.026554571,-0.043411937,1.2860395,-0.1990451
0.1,-0.1,1.4999999999999998,0.0,0.5235987755982988,0,-0.8838847,0.85683256,-0.57255834,0.6445182,-0.7009355,0.72217745,-2.5970762,0.18878676,0.57881075,0.3232946,0.28315753,-0.014489766,1.4020891,0.2954999
0.1,-0.1,1.4999999999999998,0.0,0.5235987755982988,0,-0.87832886,0.8539087,-0.57417953,0.64224505,-0.69903445,0.7212502,-2.6080482,0.16673163,0.54679143,-0.04755253,0.0063046203,-0.045169324,0.95603275,1.7769554
0.1,-0.1,1.4999999999999998,0.0,0.5235987755982988,0,-0.87937874,0.8549292,-0.568641,0.6452667,-0.7148353,0.72298944,-2.6074312,0.17523776,0.56874174,-0.04417462,0.038498122,0.18593824,1.3355869,1.3581564
0.1,-0.1,1.4999999999999998,0.0,0.5235987755982988,0,-0.879874,0.85319483,-0.5734193,0.6452591,-0.7083419,0.7262396,-2.5978565,0.16394314,0.5613451,0.13789421,0.02292582,-0.14845793,1.1204523,0.0719879
0.1,-0.1,1.4999999999999998,0.0,0.5235987755982988,0,-0.88570416,0.8537708,-0.5703419,0.64195347,-0.7003484,0.7186754,-2.6151733,0.18475664,0.5222759,0.009862546,0.19492519,-0.011208238,1.4338232,-0.043480467
0.1,-0.1,1.4999999999999998,0.0,0.5235987755982988,0,-0.8880562,0.85608166,-0.57393664,0.6470116,-0.69697076,0.7221431,-2.6112728,0.16973217,0.5326153,-0.046251066,0.10312123,0.5976543,1.1310139,0.20932075
0.1,-0.1,1.4999999999999998,0.0,0.5235987755982988,0,-0.87946254,0.85495055,-0.57058114,0.6420432,-0.6992966,0.72545266,-2.629713,0.16372994,0.55288583,0.31360546,-0.09039476,-0.16481276,0.9397348,-1.836879
0.1,-0.1,1.4999999999999998,0.0,0.5235987755982988,0,-0.8848434,0.85507065,-0.57572156,0.6447203,-0.7023347,0.7228639,-2.5942338,0.16514781,0.5604668,-0.08615715,0.03682769,0.2035533,1.3254327,1.2476066
0.1,-0.1,1.4999999999999998,0.0,0.5235987755982988,0,-0.8777479,0.85522795,-0.5705946,0.64223176,-0.70338047,0.7260781,-2.6078565,0.14044197,0.57777256,0.038017258,0.20919126,0.261657,1.3554827,1.7793838
0.1,-0.1,1.4999999999999998,0.0,0.5235987755982988,0,-0.8848701,0.85572934,-0.5726483,0.6459124,-0.6932898,0.73364747,-2.6137443,0.15752369,0.5437367,0.10368642,-0.12233545,-0.2718584,1.0100303,-0.48371515
0.1,-0.1,1.4999999999999998,0.0,0.5235987755982988,0,-0.88383317,0.8551769,-0.57476956,0.6414204,-0.6984388,0.723328,-2.6171868,0.15072028,0.53133416,-0.061139174,-0.020097306,0.284072,1.1976074,-1.6756855
0.1,-0.1,1.4999999999999998,0.0,0.5235987755982988,0,-0.8792918,0.85803765,-0.5738387,0.6474489,-0.7027038,0.7325125,-2.5799992,0.18356413,0.5063803,0.27127042,0.065621994,0.4719022,1.3094465,-1.1294603
0.1,-0.1,1.4999999999999998,0.0,0.5235987755982988,0,-0.8844386,0.8575286,-0.57199067,0.6486861,-0.7087189,0.7260096,-2.5933824,0.15460996,0.5453472,0.065956034,0.022016795,-0.003356789,1.4831312,0.39443704
0.1,-0.1,1.4999999999999998,0.0,0.5235987755982988,0,-0.8836528,0.85464025,-0.5660154,0.6449952,-0.70566297,0.72780895,-2.6108408,0.13139965,0.5255405,0.04559394,0.1607961,-0.44466043,1.2448795,-0.4251123
0.1,-0.1,1.4999999999999998,0.0,0.5235987755982988,0,-0.88667977,0.8600056,-0.5745178,0.64628017,-0.7016858,0.726714,-2.614371,0.16129218,0.5767919,-0.0173625,0.36498392,0.1741802,1.2146734,0.902029
0.1,-0.1,1.4999999999999998,0.0,0.5235987755982988,0,-0.88498855,0.84759533,-0.5709769,0.6457808,-0.70502055,0.72405326,-2.6159437,0.17646462,0.5715206,0.09254065,0.07156122,0.19271985,1.2726524,1.1775273
0.1,-0.1,1.4999999999999998,0.0,0.5235987755982988,0,-0.8804298,0.8445222,-0.56832623,0.6498893,-0.7015559,0.73213166,-2.5942605,0.1767415,0.54213405,0.22689576,0.10857378,0.10569382,0.9844656,0.7092345
0.1,-0.1,1.4999999999999998,0.0,0.5235987755982988,0,-0.8816196,0.8451779,-0.574223,0.6465107,-0.7081856,0.72512144,-2.6146798,0.14640914,0.4738346,-0.11616127,0.12531972,0.17888692,1.4893937,0.43649152
0.1,-0.1,1.4999999999999998,0.0,0.5235987755982988,0,-0.8853073,0.8493651,-0.5762803,0.6485736,-0.70714825,0.73012084,-2.5916104,0.1836189,0.5366128,0.20918924,0.12214484,-0.013203487,0.9426428,0.3257666
0.1,-0.1,1.4999999999999998,0.0,0.5235987755982988,0,-0.8844239,0.854464,-0.5700236,0.6463852,-0.69472116,0.73030365,-2.6091816,0.1475984,0.5147451,-0.042997472,0.30168745,-0.3873376,1.1542261,-1.707078
0.1,-0.1,1.4999999999999998,0.0,0.5235987755982988,0,-0.88486975,0.8444414,-0.5710271,0.646218,-0.7053913,0.73025006,-2.6066701,0.15736167,0.52524215,-0.05205745,0.3317483,0.5817187,1.1203519,0.00058504427
0.1,-0.1,1.4999999999999998,0.0,0.5235987755982988,0,-0.87995726,0.84931266,-0.5680453,0.6445658,-0.69812626,0.73916405,-2.6076276,0.15452023,0.49401635,-0.11444421,0.08067468,0.33601403,0.8555999,0.10988543
0.1,-0.1,1.4999999999999998,0.0,0.5235987755982988,0,-0.884462,0.85194486,-0.57504517,0.6407768,-0.7035585,0.73326516,-2.6315897,0.16201854,0.538601,0.3532624,0.14478613,0.31784612,1.2046559,0.33166066
0.1,-0.1,1.4999999999999998,0.0,0.5235987755982988,0,-0.8827023,0.8541068,-0.57717305,0.64912975,-0.703931,0.72252554,-2.6071093,0.15680915,0.5307414,-0.00928796,0.31766352,0.023684394,1.1635656,-0.26681253
0.1,-0.1,1.4999999999999998,0.0,0.5235987755982988,0,-0.880672,0.85217524,-0.57185817,0.64408034,-0.7043404,0.72804713,-2.6228874,0.17198619,0.5680641,0.050078604,0.25350487,0.13411832,1.3150215,-0.21797095
0.1,-0.1,1.4999999999999998,0.0,0.5235987755982988,0,-0.88443977,0.8510094,-0.5681197,0.6454245,-0.6955134,0.7254364,-2.617957,0.15399566,0.5027778,0.17239988,0.1097929,0.2182256,1.3886857,-1.4022245
0.1,-0.1,1.4999999999999998,0.0,0.5235987755982988,0,-0.88394856,0.85289884,-0.5724103,0.64483565,-0.7079937,0.72331053,-2.5948114,0.1523583,0.5346723,0.14061227,0.121737815,0.13109466,1.277989,0.08023446
0.1,-0.1,1.4999999999999998,0.0,0.5235987755982988,0,-0.8784936,0.8459497,-0.577009,0.6443517,-0.6995972,0.73401546,-2.6156542,0.15283892,0.57965565,0.029469041,0.020783111,0.35921985,1.2440861,0.73086846
0.1,-0.1,1.4999999999999998,0.0,0.5235987755982988,0,-0.8886293,0.845865,-0.57120675,0.64474386,-0.70543927,0.72892374,-2.611882,0.20255122,0.50803316,0.009371288,0.13583913,0.07280843,1.3067267,1.3485142
0.1,-0.1,1.4999999999999998,0.0,0.5235987755982988,0,-0.87969327,0.8435746,-0.5695759,0.64898944,-0.69700015,0.7419338,-2.6077797,0.1769633,0.48437333,-0.18670061,0.2853283,-0.27530015,1.3386543,0.6644352
0.1,-0.1,1.4999999999999998,0.0,0.5235987755982988,0,-0.8878004,0.84758383,-0.57163614,0.6433239,-0.7071158,0.72415984,-2.6145523,0.12826897,0.52615345,0.052587032,0.061995212,-0.10475132,1.2085111,1.556042
0.1,-0.1,1.4999999999999998,0.0,0.5235987755982988,0,-0.8789827,0.8475158,-0.5644622,0.6425942,-0.70459837,0.7283291,-2.6068509,0.18970881,0.59011716,0.04993525,0.22567903,0.0025015066,1.3274205,0.5519542
0.1,-0.1,1.4999999999999998,0.0,0.5235987755982988,0,-0.88087934,0.8554277,-0.5764869,0.6445409,-0.70379025,0.7249526,-2.5971608,0.16418655,0.55382895,-0.042283643,0.19252548,-0.5807976,1.0702325,0.6389617
0.1,-0.1,1.4999999999999998,0.0,0.5235987755982988,0,-0.8823583,0.8470468,-0.5705945,0.64577985,-0.70430684,0.7271497,-2.6160846,0.1917897,0.54012656,0.016100891,-0.28059024,0.26738036,1.2250993,-0.44177127
0.1,-0.1,1.4999999999999998,0.0,0.5235987755982988,0,-0.88386387,0.8495622,-0.56974304,0.64343184,-0.70091265,0.73134327,-2.5991676,0.17587425,0.5554738,0.5732361,0.12488953,0.41271108,1.1840518,0.29741493
0.1,-0.1,1.4999999999999998,0.0,0.5235987755982988,0,-0.88107514,0.857502,-0.5667216,0.6456295,-0.7063781,0.72612786,-2.599815,0.15357034,0.4784873,0.269307,0.09502014,0.058938455,1.1311841,-0.14839196
0.1,-0.1,1.4999999999999998,0.0,0.5235987755982988,0,-0.8861767,0.8527207,-0.5674631,0.6459338,-0.69779724,0.7205937,-2.6121624,0.13289523,0.49573883,-0.014699997,0.15720758,-0.29961663,1.3037539,0.22993448
0.1,-0.1,1.4999999999999998,0.0,0.5235987755982988,0,-0.88196504,0.85174215,-0.5715319,0.640564,-0.7008823,0.718898,-2.6135952,0.17517039,0.557084,0.259386,0.0202282,0.16714813,1.2550738,-0.7524326
0.1,-0.1,1.4999999999999998,0.0,0.5235987755982988,0,-0.8826928,0.8600756,-0.56687605,0.64648676,-0.7048686,0.73351854,-2.6055558,0.1614166,0.5227834,0.20029421,-0.07412033,-0.39503583,1.3422135,-1.2882751
0.1,-0.1,1.4999999999999998,0.0,0.5235987755982988,0,-0.8848726,0.85467386,-0.5708141,0.64700806,-0.70541906,0.7255837,-2.597347,0.13817748,0.5305727,-0.02419245,0.22462893,-0.47076035,1.3346684,0.24049833
0.1,-0.1,1.4999999999999998,0.0,0.5235987755982988,0,-0.883477,0.85651493,-0.56730944,0.64716,-0.70232517,0.7249034,-2.6075902,0.19186051,0.53152525,0.05485198,-0.0829448,-0.4588699,0.9520045,-0.37693167
0.1,-0.1,1.4999999999999998,0.0,0.5235987755982988,0,-0.88404864,0.852749,-0.569543,0.6432501,-0.70421636,0.7320135,-2.611185,0.15023829,0.52374536,-0.059654906,0.14936695,-0.1921911,1.3161432,-1.5943899
0.1,-0.1,1.4999999999999998,0.0,0.5235987755982988,0,-0.87971663,0.85428715,-0.5739513,0.64517695,-0.7071404,0.7285994,-2.6020718,0.16631687,0.5586725,0.19177742,0.22718623,-0.1855306,1.4003919,0.7403719
0.1,-0.1,1.4999999999999998,0.0,0.5235987755982988,0,-0.8805159,0.84518135,-0.56862193,0.6483621,-0.7040498,0.7231351,-2.5900116,0.1966891,0.5529851,0.12271359,0.4689182,0.2030289,1.302805,0.24496995
0.1,-0.1,1.4999999999999998,0.0,0.5235987755982988,0,-0.88129723,0.8441171,-0.5642466,0.6477504,-0.6988995,0.7235271,-2.6063197,0.18127437,0.5166937,0.30255783,-0.044525348,-0.102130935,1.274285,-0.7060668
0.1,-0.1,1.4999999999999998,0.0,0.5235987755982988,0,-0.8805328,0.85786706,-0.5706584,0.64217675,-0.70591223,0.7294638,-2.6150782,0.15142778,0.5251246,0.24588567,0.15261619,0.31782588,1.4152385,-0.3336527
0.1,-0.1,1.4999999999999998,0.0,0.5235987755982988,0,-0.8810132,0.8528483,-0.5749532,0.6435502,-0.70209575,0.7298376,-2.6029708,0.16057196,0.57462144,0.00018763155,0.06749607,0.2857203,1.3652614,0.09804996
0.1,-0.1,1.4999999999999998,0.0,0.5235987755982988,0,-0.87779135,0.84890133,-0.57410103,0.6461578,-0.70825493,0.72963613,-2.610463,0.16392797,0.5711285,-0.06610215,-0.13362618,0.12247455,1.2487915,0.25474218
0.1,-0.1,1.4999999999999998,0.0,0.5235987755982988,0,-0.883084,0.8519809,-0.5726993,0.64434004,-0.6971538,0.7189536,-2.6031086,0.17086211,0.5047044,0.08026977,0.008950289,0.18629856,1.2652719,-0.73429793
0.1,-0.1,1.4999999999999998,0.0,0.5235987755982988,0,-0.88525075,0.84800917,-0.5776743,0.64307606,-0.70965314,0.7287239,-2.5935533,0.1811716,0.53951615,0.3117519,0.15339617,-0.40333077,1.4472924,-1.0445929
0.1,-0.1,1.4999999999999998,0.0,0.5235987755982988,0,-0.8812587,0.8522062,-0.57423615,0.64540476,-0.70174414,0.74164957,-2.6065404,0.15875386,0.63094246,0.1774257,0.20615655,0.3376745,1.0262363,-1.055173
0.1,-0.1,1.4999999999999998,0.0,0.5235987755982988,0,-0.88143855,0.851264,-0.5618353,0.64654815,-0.7003648,0.7234941,-2.5917964,0.17392974,0.50796795,-0.07810261,0.21092251,0.31178832,1.2682251,-0.15018803
0.1,-0.1,1.4999999999999998,0.0,0.5235987755982988,0,-0.8842883,0.8524778,-0.5647996,0.64544046,-0.70334184,0.7282058,-2.6063979,0.17384201,0.5279763,0.32799172,0.040723525,0.21273357,1.4985296,2.0922627
0.1,-0.1,1.4999999999999998,0.0,0.5235987755982988,0,-0.8819359,0.854813,-0.57241356,0.644757,-0.70657337,0.72727054,-2.6011755,0.15695383,0.52020806,-0.1528771,-0.026361488,-0.45268658,1.1797467,0.2855287
0.1,-0.1,1.4999999999999998,0.0,0.5235987755982988,0,-0.8809852,0.8476875,-0.5703424,0.6453889,-0.69766897,0.7241017,-2.597671,0.18832156,0.5383334,-0.46509868,0.2178795,0.74755585,1.2264477,0.5854692
0.1,-0.1,1.4999999999999998,0.0,0.5235987755982988,0,-0.87699914,0.8493435,-0.56572986,0.64727587,-0.71245676,0.7345106,-2.619929,0.15050481,0.4671548,-0.057752565,0.15682296,0.17803697,1.2424836,-0.32223526
0.1,-0.1,1.4999999999999998,0.0,0.5235987755982988,0,-0.8837387,0.85073024,-0.5725723,0.6438357,-0.7001441,0.72632456,-2.5866642,0.15870313,0.52566737,-0.20009926,0.1259592,0.073500186,1.1218555,-0.38430673
0.1,-0.1,1.4999999999999998,0.0,0.5235987755982988,0,-0.88558555,0.8582495,-0.568633,0.65096605,-0.70163506,0.7244332,-2.6021967,0.17192638,0.510857,0.22512613,-0.13547625,0.44667697,1.2912542,1.5650452
0.1,-0.1,1.4999999999999998,0.0,0.5235987755982988,0,-0.88387007,0.84971344,-0.57005316,0.64820373,-0.7015397,0.7241138,-2.586831,0.16794726,0.52660644,0.14897127,0.15233123,0.29103848,1.241939,-0.6134218
0.1,-0.1,1.4999999999999998,0.0,0.5235987755982988,0,-0.88737416,0.8482799,-0.572411,0.63956964,-0.70003384,0.7269154,-2.6167347,0.1782293,0.52381706,-0.033233684,0.22228132,-0.21711351,1.346776,-0.75686705
0.1,-0.1,1.4999999999999998,0.0,0.5235987755982988,0,-0.884902,0.8546598,-0.5750309,0.64825475,-0.70597756,0.7197154,-2.6027958,0.15040945,0.56646997,0.009265848,0.13174954,-0.005951503,1.1287739,-1.5329287
0.1,-0.1,1.4999999999999998,0.0,0.5235987755982988,0,-0.88334,0.8528236,-0.56643635,0.64443916,-0.7049979,0.72866374,-2.5879643,0.1972232,0.5287398,0.33734173,-0.104044594,0.2116464,1.1115798,-1.0821574
0.1,-0.1,1.4999999999999998,0.0,0.5235987755982988,0,-0.8800442,0.85028654,-0.57564926,0.64607495,-0.69980854,0.72362965,-2.5863876,0.1392697,0.52253556,0.13877936,0.0027319638,0.03730523,1.1756853,-1.3004683
0.1,-0.1,1.4999999999999998,0.0,0.5235987755982988,0,-0.8805977,0.85136354,-0.5659561,0.6440429,-0.71165615,0.7369893,-2.6237013,0.12574129,0.58566856,0.0050319536,0.31338355,0.29159248,1.1307095,1.2022294
0.1,-0.1,1.4999999999999998,0.0,0.5235987755982988,0,-0.8882038,0.8528606,-0.5659039,0.6465255,-0.69918334,0.7181648,-2.6112268,0.15442815,0.56200856,-0.28270906,0.27344266,0.21266337,1.0314711,0.3617419
0.1,-0.1,1.4999999999999998,0.0,0.5235987755982988,0,-0.8828404,0.8515404,-0.56964886,0.6461941,-0.7014857,0.7215402,-2.5852098,0.16739815,0.53549695,0.19125669,0.12665689,-0.35377964,1.477017,-0.08796627
0.1,-0.1,1.4999999999999998,0.0,0.5235987755982988,0,-0.88219076,0.85240155,-0.5711681,0.6427625,-0.7055675,0.72761697,-2.590792,0.15188088,0.5267854,-0.27855667,0.16852957,-0.4550731,1.0882872,0.8916317
0.1,-0.1,1.4999999999999998,0.0,0.5235987755982988,0,-0.888021,0.8519759,-0.56900346,0.64888114,-0.7071707,0.7222607,-2.6113741,0.13038114,0.5640224,-0.030981151,0.38300934,0.14462638,1.2894156,0.34547764
0.1,-0.1,1.4999999999999998,0.0,0.5235987755982988,0,-0.8821171,0.8493059,-0.5740811,0.6442698,-0.6992066,0.7270434,-2.604886,0.18334894,0.5471264,-0.076411694,0.12281732,-0.040323142,1.1897172,1.2457309
0.1,-0.1,1.4999999999999998,0.0,0.5235987755982988,0,-0.88049054,0.85698164,-0.57379824,0.6435119,-0.71102285,0.7295766,-2.5837758,0.14818214,0.5368488,0.032823473,-0.011595903,0.6955073,1.3345635,1.5656075
0.1,-0.1,1.4999999999999998,0.0,0.5235987755982988,0,-0.8860483,0.8612998,-0.5729852,0.6480637,-0.6961555,0.73048323,-2.604348,0.16867174,0.53859895,-0.0698943,0.089862555,0.3642352,1.0426452,-0.12295976
0.1,-0.1,1.4999999999999998,0.0,0.5235987755982988,0,-0.87903845,0.85304236,-0.56951255,0.64490414,-0.6993786,0.7275425,-2.6224103,0.14734717,0.5690404,-0.09399663,-0.08470023,0.6713459,1.0214211,1.333172
0.1,-0.1,1.4999999999999998,0.0,0.5235987755982988,0,-0.87694734,0.8473,-0.56990373,0.64184624,-0.70141244,0.72444046,-2.6126275,0.16159442,0.5115746,-0.24609685,0.07513268,0.23839706,1.0965196,-0.6159085
0.1,-0.1,1.4999999999999998,0.0,0.5235987755982988,0,-0.8821935,0.8496472,-0.56798863,0.642899,-0.7010632,0.7247636,-2.6059244,0.1663832,0.56375515,-0.11936331,0.12433548,-0.32742783,1.1272687,2.113874
0.1,-0.1,1.4999999999999998,0.0,0.5235987755982988,0,-0.8793487,0.8528179,-0.5667696,0.64275753,-0.7093657,0.72866356,-2.587006,0.15685664,0.6086083,0.15483189,-0.0867332,-0.3637297,0.9539722,0.013636134
0.1,-0.1,1.4999999999999998,0.0,0.5235987755982988,0,-0.8812242,0.8517328,-0.5619367,0.64372164,-0.7018599,0.7253368,-2.6048696,0.15654677,0.5247446,0.17430797,0.12619156,-0.08827377,1.2123775,-1.4079692
0.1,-0.1,1.4999999999999998,0.0,0.5235987755982988,0,-0.878633,0.85201555,-0.574222,0.64745104,-0.70624906,0.727391,-2.6022515,0.16737832,0.5837039,-0.15442058,0.35731333,-0.3070213,1.060189,-0.61054164
0.1,-0.1,1.4999999999999998,0.0,0.5235987755982988,0,-0.88475364,0.8521764,-0.56634134,0.6467999,-0.69872195,0.73574215,-2.5891278,0.15248843,0.573581,0.15601793,-0.11968529,-0.07440807,1.351713,-1.3556664
0.1,-0.1,1.4999999999999998,0.0,0.5235987755982988,0,-0.88357055,0.8515799,-0.5808517,0.64435315,-0.7026335,0.7288709,-2.5944202,0.14318292,0.51632744,-0.20055906,0.07101883,0.49641094,1.0638709,-0.20960997
0.1,-0.1,1.4999999999999998,0.0,0.5235987755982988,0,-0.87996525,0.8474723,-0.5672279,0.6435037,-0.71488154,0.73001456,-2.6004238,0.13785052,0.5260949,0.09955386,0.063726924,-0.42002866,1.1791474,-0.060110345
