sanky1234/BimanualDexCatch/isaacgymenvs/cem_results/football_pose_0.0_-0.1_0.8999999999999999_0.0_-0.5235987755982988_0_2025-05-26.csv
x,y,z,roll,pitch,yaw,robot1/joint1,robot1/joint2,robot1/joint3,robot1/joint4,robot1/joint5,robot1/joint6,robot1/joint7,robot2/joint1,robot2/joint2,robot2/joint3,robot2/joint4,robot2/joint5,robot2/joint6,robot2/joint7
0.0,-0.1,0.8999999999999999,0.0,-0.5235987755982988,0,-0.0031444961,-1.0087663,2.264885,0.10181823,-0.16347149,0.8216617,0.015814032,0.037489373,-0.864686,-1.8486811,0.16766548,0.011445982,1.0812699,-0.09722768
0.0,-0.1,0.8999999999999999,0.0,-0.5235987755982988,0,0.04552485,-1.0288913,2.2396305,0.10732226,-0.118113376,0.9326112,-0.70137036,0.04734441,-0.8770473,-1.9955274,0.100324005,0.2504197,1.1264906,-0.62226015
0.0,-0.1,0.8999999999999999,0.0,-0.5235987755982988,0,-0.048594482,-1.0046569,2.2446086,-0.1007621,0.23979482,0.9484904,-0.023156462,0.048296716,-0.8615291,-1.5459998,0.096151985,-0.3842214,1.0029824,-0.037844077
0.0,-0.1,0.8999999999999999,0.0,-0.5235987755982988,0,0.06747255,-0.99522525,2.3225622,0.12324977,0.3179206,1.105244,-1.063679,0.023598058,-0.87485653,-2.5190873,0.073513195,0.13306506,0.97525066,-0.27235016
0.0,-0.1,0.8999999999999999,0.0,-0.5235987755982988,0,-0.06870876,-1.0236179,2.2650619,-0.018665567,0.0910997,1.0858619,0.3398034,0.031590402,-0.8680809,-1.8356165,0.117843874,-0.052357808,0.9890992,-0.41990745
0.0,-0.1,0.8999999999999999,0.0,-0.5235987755982988,0,-0.09956786,-1.0198232,2.3691268,0.07327983,0.17726758,1.3579918,0.5884301,0.048595004,-0.8603191,-2.0822742,0.13710032,0.19689354,1.2748436,-0.96556836
0.0,-0.1,0.8999999999999999,0.0,-0.5235987755982988,0,0.022650197,-1.0283662,2.2566764,0.05101494,0.010166958,1.044456,-1.5743244,0.026264073,-0.8616607,-1.6090316,0.048026945,-0.011291113,1.1145467,-0.35312775
0.0,-0.1,0.8999999999999999,0.0,-0.5235987755982988,0,0.057308644,-1.0050476,2.1473136,0.0132565815,0.08599932,0.83944416,0.22408168,0.030018749,-0.8866385,-1.473561,0.03222965,0.71234536,1.0506108,-0.97959036
0.0,-0.1,0.8999999999999999,0.0,-0.5235987755982988,0,0.031934567,-1.0217638,2.2089043,-0.069402315,0.21419898,0.7643451,0.5457926,0.017527895,-0.8778733,-1.3563758,0.12204512,-0.045013342,1.0443761,-0.36444494
0.0,-0.1,0.8999999999999999,0.0,-0.5235987755982988,0,-0.0029607026,-1.0115386,2.2297368,0.08860939,0.21992174,0.843063,0.25048733,0.03609422,-0.8587023,-1.6713829,0.0984709,-0.16061267,1.0271648,0.027728094
0.0,-0.1,0.8999999999999999,0.0,-0.5235987755982988,0,0.005118644,-0.88204116,2.2026136,0.1258445,0.052560687,1.1923286,-0.509606,0.04258842,-0.81378376,-1.7318646,0.020555086,0.14401355,1.1163158,-1.1041085
0.0,-0.1,0.8999999999999999,0.0,-0.5235987755982988,0,-0.022994898,-1.0278162,2.1766472,-0.009273895,0.26692387,1.0868032,0.84317076,0.04123164,-0.86544096,-1.3725328,0.09157721,0.16552883,0.9986261,-0.12651043
0.0,-0.1,0.8999999999999999,0.0,-0.5235987755982988,0,0.11243548,-0.98146904,2.1529543,0.054846156,-0.3267139,0.7896689,0.19617791,0.02949564,-0.854425,-1.7154825,0.20016707,0.5260323,0.8744251,-0.2398543
0.0,-0.1,0.8999999999999999,0.0,-0.5235987755982988,0,-0.0006080392,-0.9923195,2.3406074,-0.03569896,0.24121767,1.1941528,1.1706616,0.04840775,-0.8764974,-2.3990273,0.123752154,-0.14217405,1.091195,-0.533238
0.0,-0.1,0.8999999999999999,0.0,-0.5235987755982988,0,0.034986455,-1.0179893,2.2254503,0.061606366,0.13532156,1.0467595,-1.1429423,0.045880288,-0.8817313,-1.7789942,0.13691336,0.21003017,1.1247232,-0.5299068
0.0,-0.1,0.8999999999999999,0.0,-0.5235987755982988,0,0.01567373,-1.0313631,2.1461997,0.03150971,-0.080590814,1.0976242,0.38535783,0.038470235,-0.88891155,-1.6418035,0.048698764,0.5809589,1.0087489,0.6737771
0.0,-0.1,0.8999999999999999,0.0,-0.5235987755982988,0,0.067814514,-1.0125339,2.2520463,-0.01071546,0.28128216,0.9114941,-1.4474198,0.038250636,-0.8731905,-1.5416075,0.06201109,-0.17785734,1.0360445,-0.73511124
0.0,-0.1,0.8999999999999999,0.0,-0.5235987755982988,0,0.0002187491,-1.0430156,2.1122615,-0.16706173,-0.0763507,1.127102,0.0004254509,0.055311035,-0.8576947,-1.8050116,0.12801279,-0.0048574707,0.9564028,-0.1412447
0.0,-0.1,0.8999999999999999,0.0,-0.5235987755982988,0,0.05016071,-1.0284249,2.1821136,-0.06897781,-0.033306453,0.908695,0.6559985,0.0324575,-0.86175066,-1.9056207,0.050910648,-0.24304205,1.0395112,-0.48132277
0.0,-0.1,0.8999999999999999,0.0,-0.5235987755982988,0,-0.023288691,-1.0173789,2.2727866,-0.01456707,0.033248335,0.8663296,-0.946857,0.030183587,-0.8878551,-1.7924744,0.05502494,-0.15174624,0.8440373,-0.10426995
0.0,-0.1,0.8999999999999999,0.0,-0.5235987755982988,0,-0.032402854,-1.0258375,2.296291,0.12443971,0.36918324,1.0383176,-0.068262935,0.028106637,-0.8567835,-1.5320758,0.12146592,0.17675774,1.0656822,-0.033860862
0.0,-0.1,0.8999999999999999,0.0,-0.5235987755982988,0,0.13786153,-1.0101181,2.0313842,-0.124977,0.18208171,0.81579894,0.21500652,0.023438726,-0.8587036,-1.9574516,0.082530715,0.30191743,1.1200845,-1.0685036
0.0,-0.1,0.8999999999999999,0.0,-0.5235987755982988,0,-0.044266902,-0.99847054,2.092942,-0.062725194,0.06641041,1.1908933,-0.8000233,0.03439043,-0.88006735,-2.2766452,0.016144084,0.41361368,1.0309103,-0.74141556
0.0,-0.1,0.8999999999999999,0.0,-0.5235987755982988,0,0.074153125,-1.0186715,2.1914659,0.20023043,0.15051937,0.88912153,0.82527834,0.031378053,-0.87492347,-1.4233388,0.06691671,-0.23032765,0.8774799,-0.72840196
0.0,-0.1,0.8999999999999999,0.0,-0.5235987755982988,0,0.043650527,-1.004384,2.2191548,-0.012801635,-0.2658429,1.1204497,-0.00071420777,0.03216489,-0.8838262,-1.7700899,0.13894533,0.18356645,1.0197381,0.042649187
0.0,-0.1,0.8999999999999999,0.0,-0.5235987755982988,0,-0.022419618,-1.0181653,2.2586894,0.13231654,-0.22891097,1.1825624,0.14559597,0.021461597,-0.8496385,-1.6276125,0.07721514,0.033617295,1.1139547,-0.14460063
0.0,-0.1,0.8999999999999999,0.0,-0.5235987755982988,0,-0.0059299404,-1.0201218,2.2441447,0.099982165,-0.051691834,0.7578112,-0.83537734,0.044603836,-0.8520602,-2.18199,0.06748347,-0.39969018,1.0566955,-0.8019219
0.0,-0.1,0.8999999999999999,0.0,-0.5235987755982988,0,0.022993535,-1.0172547,2.3479002,0.028879168,0.18211569,0.87685686,-0.9666213,0.028064754,-0.87982607,-1.4286882,0.08317876,0.008886924,0.9562202,-0.3361836
0.0,-0.1,0.8999999999999999,0.0,-0.5235987755982988,0,0.059940353,-1.0414982,2.3277752,-0.011537861,-0.051738903,0.5649269,0.0015944665,0.017688315,-0.8959933,-1.2920539,0.07681878,-0.08648458,0.9300779,-0.36337048
0.0,-0.1,0.8999999999999999,0.0,-0.5235987755982988,0,0.014773824,-1.016939,2.2162044,0.10476021,0.17900488,1.3745884,-0.6522717,0.035146993,-0.8490926,-1.4365568,0.120923676,0.10685132,0.89296657,-0.3167925
0.0,-0.1,0.8999999999999999,0.0,-0.5235987755982988,0,-0.0009549493,-0.99212885,2.0978508,0.10868742,-0.1225473,1.2364464,0.095325336,0.05279861,-0.89736736,-1.6512414,0.031939473,0.40300214,1.2931737,0.044558033
0.0,-0.1,0.8999999999999999,0.0,-0.5235987755982988,0,-0.01535012,-0.9972105,2.4615302,0.117181174,-0.167521,0.93632424,-0.23093635,0.029925535,-0.86926186,-2.6737776,0.043830793,-0.29342082,0.9121224,-0.4717042
0.0,-0.1,0.8999999999999999,0.0,-0.5235987755982988,0,0.07769992,-1.0046203,2.159845,0.09529858,0.27945563,1.2480769,-0.5880362,0.04035681,-0.8885374,-2.317627,0.08014493,-0.088680096,0.85096616,-0.17791139
0.0,-0.1,0.8999999999999999,0.0,-0.5235987755982988,0,-0.011127567,-1.0289809,2.22074,-0.051810898,-0.25064301,1.1538212,0.10526681,0.034395345,-0.8703755,-1.7988582,0.09624882,-0.04556494,0.92843074,-0.6588734
0.0,-0.1,0.8999999999999999,0.0,-0.5235987755982988,0,-0.021700721,-1.0231949,2.2894936,0.053768687,0.021931907,1.1304592,-0.019389777,0.046925325,-0.86059713,-1.9820423,0.0563745,-0.13881987,0.88784355,0.9807046
0.0,-0.1,0.8999999999999999,0.0,-0.5235987755982988,0,0.0695597,-0.99255985,2.2747214,0.037016436,0.037061978,1.1224928,-0.060968164,0.04108161,-0.86348754,-2.7111206,0.10555739,-0.039963026,0.95395404,-0.99558526
0.0,-0.1,0.8999999999999999,0.0,-0.5235987755982988,0,-0.030804738,-0.9979312,2.1798508,0.04045866,0.0047257137,1.0959518,-0.32495466,0.04374562,-0.8716371,-2.1353602,0.0774687,0.0864602,0.8585109,-1.2000103
0.0,-0.1,0.8999999999999999,0.0,-0.5235987755982988,0,0.023791684,-0.98937684,2.2821796,0.015057837,-0.08498674,0.93307275,-1.4335475,0.032616433,-0.8776711,-0.7330547,0.08093077,0.34263682,0.928393,-0.22013085
0.0,-0.1,0.8999999999999999,0.0,-0.5235987755982988,0,-0.019182902,-1.0044556,2.1872642,-0.033055365,-0.032088473,0.9768454,1.0395854,0.028860306,-0.8655395,-2.2404876,0.10118886,0.2569783,0.9826124,-0.87449294
0.0,-0.1,0.8999999999999999,0.0,-0.5235987755982988,0,0.061066482,-1.0166385,2.1958578,0.019621816,-0.17598927,1.0103234,-0.11611361,0.030828485,-0.8670608,-2.4065633,0.09344827,-0.001235636,1.0987439,-1.0655948
0.0,-0.1,0.8999999999999999,0.0,-0.5235987755982988,0,0.07936098,-0.9975856,2.1915944,-0.014193499,-0.0064705457,1.5257852,-0.77734673,0.032699924,-0.8761261,-1.1859919,0.0720812,0.006547076,0.91447574,0.049954865
0.0,-0.1,0.8999999999999999,0.0,-0.5235987755982988,0,0.07337245,-0.992714,2.2169166,-0.10892795,-0.16628498,1.1864231,-0.30922097,0.0220486,-0.85437363,-1.1211429,0.02917379,0.15166868,1.2336899,-0.28133303
0.0,-0.1,0.8999999999999999,0.0,-0.5235987755982988,0,-0.035979383,-1.0221653,2.1756687,-0.15268253,0.46689153,0.7208799,0.2926133,0.041743036,-0.8862799,-2.6667566,0.10284808,-0.09157982,1.008618,-0.5417129
0.0,-0.1,0.8999999999999999,0.0,-0.5235987755982988,0,0.025280511,-1.0264268,2.2381415,-0.03323578,-0.20543171,0.86862385,-1.0414459,0.013279288,-0.88849777,-1.1011108,0.08238941,0.20647828,0.9984295,-0.9485184
0.0,-0.1,0.8999999999999999,0.0,-0.5235987755982988,0,-0.05909823,-1.0494772,2.294209,0.07826724,0.22545114,1.2240946,-0.43670025,0.037433013,-0.84750485,-1.8842516,0.028442672,0.6567217,0.88860357,0.06163909
0.0,-0.1,0.8999999999999999,0.0,-0.5235987755982988,0,0.050188467,-1.0060625,2.2967615,0.08413251,0.065465055,1.1940877,-0.2134655,0.05498037,-0.87885654,-1.6937422,0.18032731,0.0065515237,0.92324096,-1.4181433
0.0,-0.1,0.8999999999999999,0.0,-0.5235987755982988,0,-0.024019677,-0.9844088,2.2580516,-0.005032617,0.1671907,1.2970816,-0.9205521,0.032352332,-0.8591102,-1.5704489,0.11546046,-0.11532471,1.0612515,-0.38328344
0.0,-0.1,0.8999999999999999,0.0,-0.5235987755982988,0,0.06534414,-1.0276663,2.1571403,-0.041120056,0.381144,0.98489314,-1.0689002,0.04432325,-0.8800002,-1.987553,-0.013994341,0.059417445,0.9040062,-0.87500906
0.0,-0.1,0.8999999999999999,0.0,-0.5235987755982988,0,0.09000355,-0.9710926,2.1871855,0.070140414,-0.04404422,1.082788,-0.4466748,0.022703072,-0.84793574,-2.3691032,0.078077234,0.56736785,1.141503,-1.052439
0.0,-0.1,0.8999999999999999,0.0,-0.5235987755982988,0,0.027884789,-1.0284746,2.1427426,-0.07295441,0.07469035,1.1846263,0.19732863,0.048032783,-0.86059755,-2.5312388,0.06157635,0.47909975,1.0784934,-0.570747
0.0,-0.1,0.8999999999999999,0.0,-0.5235987755982988,0,0.047157645,-1.0485232,2.2857108,0.011785733,0.12727422,1.0317216,0.08249246,0.038975507,-0.8702309,-1.4743861,0.11698836,0.6104867,1.1480623,-0.22475575
0.0,-0.1,0.8999999999999999,0.0,-0.5235987755982988,0,0.025184508,-1.0278394,2.1599815,0.0661683,0.23707888,1.0818897,-0.8787888,0.032665383,-0.8814591,-1.8574834,0.0916268,0.09768998,1.0451082,-0.14649549
0.0,-0.1,0.8999999999999999,0.0,-0.5235987755982988,0,0.0055672945,-1.0292947,2.2468786,-0.0073777377,-0.20048678,1.2042149,0.38623518,0.04214105,-0.8877212,-1.6043389,0.03171449,-0.16885519,1.0786784,-0.77679324
0.0,-0.1,0.8999999999999999,0.0,-0.5235987755982988,0,0.047005415,-1.0299546,2.236403,0.09974265,-0.13981663,0.89820147,-0.046913628,0.031797998,-0.8797068,-1.5796654,0.052792188,-0.04451505,1.0138079,-0.54666334
0.0,-0.1,0.8999999999999999,0.0,-0.5235987755982988,0,0.016689528,-1.0440847,2.3113458,0.07527506,-0.28887528,1.2640808,-0.25778332,0.028178768,-0.88186944,-1.8300232,0.13482793,-0.31174728,0.9442486,0.55191046
0.0,-0.1,0.8999999999999999,0.0,-0.5235987755982988,0,0.018618567,-0.99705607,2.1699996,0.062440712,0.3379711,0.74068534,-1.3776963,0.029545715,-0.8741654,-1.6719241,0.087291166,-0.0013294171,1.1296841,-0.032794673
0.0,-0.1,0.8999999999999999,0.0,-0.5235987755982988,0,-0.020189475,-1.0047594,2.266601,0.028029742,0.01890073,0.95511717,0.3707432,0.026767446,-0.86234367,-2.4623792,0.15417823,0.06604858,1.0664959,-1.1067239
0.0,-0.1,0.8999999999999999,0.0,-0.5235987755982988,0,-0.010785027,-1.0043395,2.3168116,0.12895505,0.13263582,1.2330357,-1.5141913,0.036970906,-0.86616457,-1.4205546,0.07394667,0.4903627,1.1381968,0.44773048
0.0,-0.1,0.8999999999999999,0.0,-0.5235987755982988,0,-0.021537082,-0.99695015,2.1510518,-0.014679032,-0.03878386,1.1493533,-0.7462554,0.0309526,-0.87451,-2.0713692,0.05219729,-0.20508015,1.0757711,-1.0717777
0.0,-0.1,0.8999999999999999,0.0,-0.5235987755982988,0,0.051350195,-0.99707407,2.2472596,0.12898213,0.33915254,0.8736772,0.21810406,0.037000503,-0.8616172,-1.033818,0.07405591,-0.292404,0.85323226,-1.1378556
0.0,-0.1,0.8999999999999999,0.0,-0.5235987755982988,0,0.059913013,-1.0232614,2.2631953,0.07755281,-0.3193847,1.2326423,0.33373493,0.026994744,-0.85276324,-1.8577763,0.024259148,0.3073001,0.8671309,-0.23019247
0.0,-0.1,0.8999999999999999,0.0,-0.5235987755982988,0,0.11269019,-0.98920524,2.1679862,-0.043118544,0.08330213,1.3097389,-0.7648059,0.01998576,-0.8505704,-1.6992002,0.12355363,0.029171953,1.0484862,-0.195189
0.0,-0.1,0.8999999999999999,0.0,-0.5235987755982988,0,-0.01407839,-1.0154309,2.1829035,0.045677252,-0.09865607,1.2889878,-1.0596715,0.04823371,-0.8638188,-2.0715516,0.10019851,0.13519555,1.0902516,0.5916917
0.0,-0.1,0.8999999999999999,0.0,-0.5235987755982988,0,0.032026496,-1.004472,2.324095,-0.055412866,0.15398534,0.63671726,0.14962249,0.02860793,-0.8673705,-1.7383803,0.02636433,0.05561276,1.0707288,0.09267722
0.0,-0.1,0.8999999999999999,0.0,-0.5235987755982988,0,0.1131991,-1.0639546,2.2249014,0.08877876,0.18929489,0.90404963,-1.2599868,0.047574807,-0.8489284,-2.3816361,0.11941424,-0.51327103,0.9146709,-0.34830284
0.0,-0.1,0.8999999999999999,0.0,-0.5235987755982988,0,0.027614605,-1.009286,2.145437,-0.1624898,0.3360151,0.7400333,-0.12862702,0.03471164,-0.88275045,-1.3740067,0.07772095,-0.5366731,1.2026916,-1.093976
0.0,-0.1,0.8999999999999999,0.0,-0.5235987755982988,0,-0.06913409,-1.0265874,2.4186528,0.112351336,0.14083992,1.052823,0.8615547,0.017463652,-0.881074,-2.2255847,0.077249765,0.0003327336,0.95063365,-0.9615399
0.0,-0.1,0.8999999999999999,0.0,-0.5235987755982988,0,-0.06996149,-1.0517291,2.2610672,-0.036842573,0.1226496,0.8614237,-0.93248934,0.034515545,-0.8613649,-2.8015094,0.118427105,-0.054543007,0.8559237,0.01576291
0.0,-0.1,0.8999999999999999,0.0,-0.5235987755982988,0,0.044981938,-1.0110701,2.0403028,0.056168303,-0.2120584,0.9313371,-1.0371364,0.031871792,-0.88177097,-1.7638589,0.043980025,0.19743846,1.0711837,-0.013542315
0.0,-0.1,0.8999999999999999,0.0,-0.5235987755982988,0,0.036606316,-1.0265334,2.392331,-0.19536649,0.042329095,1.1282809,0.15055561,0.030546807,-0.87116534,-2.013898,0.08124683,0.04242841,0.9974121,-0.10623333
0.0,-0.1,0.8999999999999999,0.0,-0.5235987755982988,0,0.026638879,-1.0118259,2.2887151,-0.024691202,0.21899949,1.1014806,-0.060241066,0.04427032,-0.8633184,-1.7701849,0.13429339,-0.044277433,0.91662335,0.67861444
0.0,-0.1,0.8999999999999999,0.0,-0.5235987755982988,0,0.042583514,-1.024384,2.2511044,0.23217516,-0.113883324,1.162852,-0.27718288,0.036299337,-0.8471752,-2.79159,0.0999121,-0.37247193,0.81200516,-0.67775494
0.0,-0.1,0.8999999999999999,0.0,-0.5235987755982988,0,0.07102037,-1.0130489,2.2073758,0.13788667,0.25862545,1.3774544,0.384411,0.04423046,-0.9041826,-2.1415927,0.10126917,0.26683182,1.164521,-0.03937723
0.0,-0.1,0.8999999999999999,0.0,-0.5235987755982988,0,0.04603582,-1.0077631,2.2654822,-0.018286325,0.11776877,1.4425123,0.13517566,0.027419737,-0.8665673,-1.6520976,0.061219353,-0.6990054,1.0425358,-0.36413348
0.0,-0.1,0.8999999999999999,0.0,-0.5235987755982988,0,-0.01693976,-1.012228,2.1870856,0.072519064,0.014849689,0.8616115,-0.33801535,0.039237145,-0.87921816,-2.0987644,0.13134193,0.091288924,1.0043385,0.18008116
0.0,-0.1,0.8999999999999999,0.0,-0.5235987755982988,0,0.047705103,-1.0193399,2.1755702,-0.023947386,-0.08324431,1.0170529,-0.8571672,0.032222793,-0.84147936,-1.913715,0.055149753,-0.24118571,1.0902631,-0.11982044
0.0,-0.1,0.8999999999999999,0.0,-0.5235987755982988,0,0.04849205,-1.004208,2.2052681,0.07498115,0.1107396,0.8241541,0.016003238,0.029022153,-0.8692545,-1.5653578,0.058282517,0.2924231,1.4300075,-0.04388713
0.0,-0.1,0.8999999999999999,0.0,-0.5235987755982988,0,0.014707435,-1.0379294,2.2801697,0.08586034,0.17961633,0.9409873,-0.038063794,0.029418366,-0.8692589,-1.5231351,0.00070440135,0.094322756,0.9452961,-0.5638531
0.0,-0.1,0.8999999999999999,0.0,-0.5235987755982988,0,0.034556,-1.0215702,2.3044105,0.12352592,0.014400812,1.1210195,-0.17224762,0.04160272,-0.86106706,-1.7759798,0.118750624,0.041948445,1.1537606,0.45824152
0.0,-0.1,0.8999999999999999,0.0,-0.5235987755982988,0,0.013761623,-1.000681,2.1699977,0.015171094,0.13836251,1.2082833,-0.14960325,0.038519323,-0.87650335,-1.7392769,0.076964445,-0.049380507,1.1289876,-0.17583656
0.0,-0.1,0.8999999999999999,0.0,-0.5235987755982988,0,0.09791337,-0.99617296,2.230329,0.11535133,0.002927167,0.92499095,0.21310793,0.042230874,-0.8447791,-0.8735968,0.10364596,-0.09153267,1.1090506,-1.0023613
0.0,-0.1,0.8999999999999999,0.0,-0.5235987755982988,0,0.0141595425,-1.0220884,2.346291,0.030846532,0.13566995,0.9127401,-0.11471958,0.03676832,-0.89505416,-1.4945652,-0.029032525,0.42645174,1.0726975,-0.4423826
0.0,-0.1,0.8999999999999999,0.0,-0.5235987755982988,0,0.0059691444,-1.0133604,2.391142,-0.08249879,0.0855098,0.9736059,-0.19330993,0.0380917,-0.84102374,-1.7298492,0.13148929,0.29781947,1.1592174,-0.4501087
0.0,-0.1,0.8999999999999999,0.0,-0.5235987755982988,0,0.009560698,-1.0286502,2.3341944,0.17703196,-0.1563996,0.8094019,-0.37401596,0.03907477,-0.8810413,-1.8175834,0.13353418,0.38005757,0.98223674,-0.63736063
0.0,-0.1,0.8999999999999999,0.0,-0.5235987755982988,0,-0.027745608,-1.051865,2.3524995,0.05323083,-0.14143704,0.88805914,0.5162676,0.04144366,-0.84933263,-2.6690576,0.07185509,0.36480308,1.1638994,-0.3383216
0.0,-0.1,0.8999999999999999,0.0,-0.5235987755982988,0,0.11804157,-1.0328151,2.2648478,-0.014335537,-0.34070086,1.009212,-0.53997654,0.036713276,-0.8707263,-1.8509947,0.090478,-0.32972178,1.1652884,0.12865919
0.0,-0.1,0.8999999999999999,0.0,-0.5235987755982988,0,0.002495149,-1.0354245,2.1886523,0.058513384,-0.09699717,0.8799382,1.5941944,0.02839911,-0.87125283,-1.6955872,0.122309275,0.07231554,1.0508084,0.41516307
0.0,-0.1,0.8999999999999999,0.0,-0.5235987755982988,0,0.05746053,-1.0002596,2.1840794,-0.06716699,0.24057245,0.86713856,0.518493,0.046437163,-0.87241066,-1.8997282,0.1079064,-0.058586307,0.9055937,0.013714002
0.0,-0.1,0.8999999999999999,0.0,-0.5235987755982988,0,-0.009042252,-1.0150584,2.2976382,0.16655423,-0.025425525,0.966904,-0.6338731,0.038046643,-0.8774784,-1.6614753,0.05186578,-0.014923706,0.8570034,-0.16658309
0.0,-0.1,0.8999999999999999,0.0,-0.5235987755982988,0,0.037058674,-1.0411761,2.0950036,0.13466576,0.0071616587,1.0431844,-0.15169537,0.022459457,-0.8631661,-1.9575047,0.109445654,0.27384564,0.93829435,-0.22094512
0.0,-0.1,0.8999999999999999,0.0,-0.5235987755982988,0,0.035048842,-1.0422028,2.1914628,0.0018251063,-0.106784455,0.7256778,0.59084296,0.03604638,-0.8861226,-1.8461396,0.025991831,0.4531717,1.0939698,-0.45665783
0.0,-0.1,0.8999999999999999,0.0,-0.5235987755982988,0,0.13714917,-1.0178453,2.1818624,0.02274954,-0.019749034,1.006892,-0.6646078,0.03588121,-0.865532,-1.8869191,0.092136115,0.026937095,1.2549591,0.09616491
0.0,-0.1,0.8999999999999999,0.0,-0.5235987755982988,0,-0.027101412,-1.0132374,2.1788414,0.015594299,0.030047929,1.0410448,0.121964104,0.03159177,-0.8680214,-2.2507324,0.11369725,0.31988293,1.0388395,-0.073604
0.0,-0.1,0.8999999999999999,0.0,-0.5235987755982988,0,0.00083483313,-1.0196573,2.4312491,0.08759334,0.2291703,1.1178632,-1.2237288,0.033755578,-0.885078,-1.6216047,0.012252054,0.1334501,0.99446243,-0.9145742
0.0,-0.1,0.8999999999999999,0.0,-0.5235987755982988,0,-0.04212395,-1.0301389,2.3118668,-0.083786346,0.20345324,0.76728606,-0.36311218,0.043976545,-0.85085595,-1.6457752,0.0748299,0.36395833,1.1241267,-0.25627023
0.0,-0.1,0.8999999999999999,0.0,-0.5235987755982988,0,-0.02943679,-1.0250747,2.2452073,0.014530507,0.2121923,1.3274417,0.28867134,0.04159723,-0.8618936,-0.76317424,0.06313903,0.098079786,0.9451166,-0.77629656
0.0,-0.1,0.8999999999999999,0.0,-0.5235987755982988,0,0.06701503,-1.0194584,2.3125665,0.003429482,-0.02667892,0.97579986,-0.18739755,0.028356338,-0.8813333,-1.3419019,0.08709838,-0.3567683,1.0070266,0.029865814
0.0,-0.1,0.8999999999999999,0.0,-0.5235987755982988,0,-0.007657218,-1.0547259,2.3117473,0.048065208,-0.09829062,1.0097097,0.02864848,0.035187647,-0.86990744,-1.3794787,0.06109699,0.23395146,1.0164318,-1.0550848
0.0,-0.1,0.8999999999999999,0.0,-0.5235987755982988,0,-0.025019996,-1.0087945,2.133008,0.013781302,0.17323549,1.0733402,-0.870185,0.043192264,-0.8706663,-1.276193,0.13937111,0.036909997,0.9431318,-0.58860224
0.0,-0.1,0.8999999999999999,0.0,-0.5235987755982988,0,-0.0018651834,-0.9843379,2.2743046,0.013975016,0.01450468,0.8790614,0.04351503,0.05407092,-0.8624253,-1.6217294,0.111996315,-0.098333724,0.91089505,-0.19959219
0.0,-0.1,0.8999999999999999,0.0,-0.5235987755982988,0,0.020859707,-1.0111003,2.321618,0.09010022,0.081393294,1.1382631,-0.57460207,0.018114962,-0.88045764,-2.2956827,0.12936042,0.10687014,0.8789999,-0.813023
0.0,-0.1,0.8999999999999999,0.0,-0.5235987755982988,0,-0.0023957295,-1.0531178,2.4187338,0.09707623,-0.2023041,1.3917503,0.3055827,0.037434734,-0.84361076,-1.9801123,0.085770525,0.26488984,0.8694346,-0.545205
0.0,-0.1,0.8999999999999999,0.0,-0.5235987755982988,0,0.056991763,-0.97764117,2.1392033,-0.012887098,0.012877699,1.2862642,-1.0644389,0.04226753,-0.8817276,-1.1831096,0.08221293,0.3082936,1.0138587,0.0013540229
0.0,-0.1,0.8999999999999999,0.0,-0.5235987755982988,0,0.06541413,-1.0343735,2.2842991,-0.00059571397,0.1495398,0.9855114,-1.3773215,0.034156926,-0.8821195,-2.2734365,0.10530815,0.15290867,1.075417,-0.5411681
0.0,-0.1,0.8999999999999999,0.0,-0.5235987755982988,0,0.0010234307,-1.0265267,2.2770486,0.04382751,0.061491467,1.0960519,-1.2320687,0.026501942,-0.8811424,-1.6611028,0.11918866,-0.4330531,1.0732772,-0.6726282
0.0,-0.1,0.8999999999999999,0.0,-0.5235987755982988,0,-0.0031511802,-1.0381914,2.229739,-0.10087974,-0.020568853,1.2719958,-1.5594449,0.03323963,-0.87446034,-1.6234895,0.08015793,0.16051514,1.0591617,-0.9807524
0.0,-0.1,0.8999999999999999,0.0,-0.5235987755982988,0,-0.034938987,-1.0053118,2.369563,0.04314875,-0.19924012,1.0811498,-0.18289252,0.040333282,-0.88351625,-2.1325884,0.078140154,-0.14824243,0.83390737,-1.4768463
0.0,-0.1,0.8999999999999999,0.0,-0.5235987755982988,0,0.0116637405,-1.0530187,2.3004243,0.11857239,0.42138478,0.87990934,0.038029354,0.037549373,-0.86953276,-1.9728471,0.03696812,0.10656721,1.013847,-0.5560316
0.0,-0.1,0.8999999999999999,0.0,-0.5235987755982988,0,-0.0036331967,-1.047251,2.2249155,0.1019743,-0.04499499,1.0389731,-0.96405655,0.044647496,-0.87317294,-1.4389094,-0.02506894,0.10617233,0.99732465,0.6259236
0.0,-0.1,0.8999999999999999,0.0,-0.5235987755982988,0,-0.046774205,-1.0278797,2.263164,0.07893084,0.2962266,0.9601839,-0.6400137,0.029377248,-0.8784856,-1.2145778,0.055858776,-0.035321034,1.0111511,-1.4177244
0.0,-0.1,0.8999999999999999,0.0,-0.5235987755982988,0,0.056257643,-1.0493643,2.2351458,0.083911195,-0.010004571,0.71728116,0.10353853,0.03820556,-0.8836495,-1.6578541,0.096954316,-0.11400689,1.0086633,-1.1806288
0.0,-0.1,0.8999999999999999,0.0,-0.5235987755982988,0,0.06068718,-0.9988472,2.259905,0.0948479,-0.0051165656,1.0829034,-0.71693766,0.040783122,-0.861962,-2.8833976,0.08954338,0.56470954,1.0602926,-0.36050245
0.0,-0.1,0.8999999999999999,0.0,-0.5235987755982988,0,0.11739029,-1.0335728,2.3405228,0.059166122,0.07750131,1.1615433,-0.49824858,0.034611918,-0.86651546,-2.4554517,0.02626011,0.10683676,1.1046516,-0.5361704
0.0,-0.1,0.8999999999999999,0.0,-0.5235987755982988,0,0.019650731,-1.0140263,2.3179781,-0.05660288,0.36103886,1.1413423,-0.605067,0.026092306,-0.8676242,-1.3801606,0.13042304,0.17844225,1.0810261,-0.9293761
0.0,-0.1,0.8999999999999999,0.0,-0.5235987755982988,0,0.04193613,-1.020033,2.2407506,0.10469065,-0.004349993,0.74028265,-0.97985363,0.0477522,-0.8722878,-2.163215,0.054745052,0.15347533,0.91220564,-0.31758302
0.0,-0.1,0.8999999999999999,0.0,-0.5235987755982988,0,0.09653269,-1.0512942,2.2795289,0.20599395,-0.09252281,0.93644714,-0.8896024,0.028320596,-0.86306155,-1.6898813,0.0677282,0.40855026,0.7707606,-0.45699155
0.0,-0.1,0.8999999999999999,0.0,-0.5235987755982988,0,0.0117255375,-1.0520896,2.3361225,-0.03022997,0.08043039,0.76346827,-0.24773817,0.04031259,-0.84436524,-1.9246898,0.10254227,0.8308285,1.0259831,-1.4583821
0.0,-0.1,0.8999999999999999,0.0,-0.5235987755982988,0,-0.025718588,-1.0295503,2.179117,-0.023887813,0.01995785,0.72969943,-1.4228528,0.03781302,-0.85090286,-2.1031485,0.09887438,0.017316785,0.85799056,-0.42907777
0.0,-0.1,0.8999999999999999,0.0,-0.5235987755982988,0,0.055556964,-0.98945314,2.1529107,0.032455795,0.0734353,0.9235511,-0.4934558,0.04350758,-0.883077,-2.761688,0.05931974,-0.3352357,1.2212447,-0.5855924
0.0,-0.1,0.8999999999999999,0.0,-0.5235987755982988,0,0.021999061,-1.0226771,2.3408022,0.14719567,-0.40243363,1.0860531,-0.47423783,0.039084636,-0.8571635,-1.449056,0.10398819,0.35590786,0.9255894,0.35512012
0.0,-0.1,0.8999999999999999,0.0,-0.5235987755982988,0,-0.037172083,-1.0482155,2.3793755,-0.12488097,-0.024611112,0.9439247,-0.22403076,0.046109967,-0.8614214,-2.3667822,0.082446806,0.15340273,1.02235,-0.09930616
0.0,-0.1,0.8999999999999999,0.0,-0.5235987755982988,0,0.011620078,-1.005261,2.2309196,-0.046245657,-0.15964231,1.2337195,-0.7728282,0.055809498,-0.84335154,-2.5318267,0.07177422,-0.13034724,1.1361309,-1.5275581
0.0,-0.1,0.8999999999999999,0.0,-0.5235987755982988,0,0.008848501,-1.0598068,2.1377718,0.08681186,-0.045907103,0.99089646,-0.9368518,0.042359356,-0.87613505,-1.7786949,0.08037012,0.15694061,1.0988915,-0.80490714
0.0,-0.1,0.8999999999999999,0.0,-0.5235987755982988,0,0.13827753,-1.0328671,2.3660426,0.041949783,0.2500787,0.9564628,-2.3160756,0.013904942,-0.8732839,-1.7517368,0.024054548,0.23056069,1.0929493,-0.46403462
0.0,-0.1,0.8999999999999999,0.0,-0.5235987755982988,0,-0.0009391803,-0.9999735,2.1803346,0.09434895,-0.18571538,0.84049994,-0.1724821,0.031849824,-0.8747073,-1.7888259,0.08162417,-0.054248568,1.2120175,0.519902
0.0,-0.1,0.8999999999999999,0.0,-0.5235987755982988,0,0.0031925237,-0.9924403,2.195434,0.11274466,0.09772784,1.3468933,-0.2919649,0.040984347,-0.8678376,-1.0862329,0.059834283,-0.16753966,0.85528666,-1.1368012
0.0,-0.1,0.8999999999999999,0.0,-0.5235987755982988,0,-0.006574305,-0.98546195,2.2395632,0.13753545,0.2434852,0.9214845,0.22957765,0.018467475,-0.8621008,-2.3127873,0.08002409,-0.20586364,1.205915,-0.53669876
0.0,-0.1,0.8999999999999999,0.0,-0.5235987755982988,0,0.01356797,-1.0145502,2.2061815,-0.0055768806,-0.062712446,1.2949576,-0.4201505,0.037434794,-0.8663311,-1.9296736,0.10832419,0.029912114,0.97300416,-0.6643387
0.0,-0.1,0.8999999999999999,0.0,-0.5235987755982988,0,-0.022758413,-0.9543419,2.2135668,-0.06928624,0.12043129,0.89859533,-0.3070882,0.037910372,-0.85920167,-2.363837,0.14586458,0.19483924,0.89267004,-0.34298128
0.0,-0.1,0.8999999999999999,0.0,-0.5235987755982988,0,-0.027465694,-0.995346,2.1607032,0.039925836,-0.08926678,1.2853233,-0.08893699,0.04036799,-0.85971993,-1.8120654,0.06335322,0.056936573,0.9311625,-0.3472397
0.0,-0.1,0.8999999999999999,0.0,-0.5235987755982988,0,-0.0056250445,-0.9818203,2.2256107,-0.07969599,0.061237063,1.2838781,-0.41721094,0.051387023,-0.88066155,-1.3387893,0.118666194,0.10458917,1.1700053,-0.730166
0.0,-0.1,0.8999999999999999,0.0,-0.5235987755982988,0,-0.025330855,-1.0253173,2.3455563,0.009033362,0.088873,1.4481431,0.9641731,0.05402667,-0.8682152,-2.4415069,0.050196685,0.0019620392,0.9672363,-0.5410923
0.0,-0.1,0.8999999999999999,0.0,-0.5235987755982988,0,0.030289324,-0.9994122,2.2162104,-0.099250905,0.03107701,1.2165381,-1.461636,0.055082068,-0.87505114,-1.6179084,0.033461146,-0.17789103,0.8714739,-1.4644616
0.0,-0.1,0.8999999999999999,0.0,-0.5235987755982988,0,0.02366788,-0.97642475,2.135769,0.066734195,-0.23151484,0.9884159,0.00034285936,0.04550151,-0.864641,-1.4104404,0.14426415,0.23475383,0.83120877,-0.4616245
0.0,-0.1,0.8999999999999999,0.0,-0.5235987755982988,0,0.04351967,-1.059942,2.3707547,-0.03446247,0.004180761,1.3854855,-0.3796959,0.025639994,-0.8595004,-1.527081,0.11171992,0.07249489,1.2229036,-1.8216991
0.0,-0.1,0.8999999999999999,0.0,-0.5235987755982988,0,-0.053716235,-0.96547025,2.1565742,0.20160672,0.06579242,0.9844664,-0.6107795,0.04828206,-0.8852368,-1.3821675,0.08587267,0.31630978,1.0608296,0.156446
0.0,-0.1,0.8999999999999999,0.0,-0.5235987755982988,0,0.059400313,-0.9534923,2.1420517,0.033466097,-0.24961407,1.0054826,-0.6363142,0.047324203,-0.8683773,-1.7692012,0.09628861,0.4521509,1.0121497,0.18460745
0.0,-0.1,0.8999999999999999,0.0,-0.5235987755982988,0,0.04626586,-0.9680086,2.233241,-0.11295078,-0.019095661,1.296361,-0.41108385,0.03875303,-0.8425754,-1.3823135,0.041988753,0.24997674,0.98893297,-1.3364042
0.0,-0.1,0.8999999999999999,0.0,-0.5235987755982988,0,0.078364514,-0.9871622,2.2437613,0.03628559,0.41081262,0.94212425,0.6194041,0.04435552,-0.8219368,-0.83537805,0.015672408,0.19858705,1.0100627,0.40163434
0.0,-0.1,0.8999999999999999,0.0,-0.5235987755982988,0,0.022875747,-0.9998613,2.2129388,0.007858335,0.25291386,1.2743734,0.25437427,0.028677186,-0.81835777,-1.1117074,0.13308255,-0.19300462,0.9643215,-1.248158
0.0,-0.1,0.8999999999999999,0.0,-0.5235987755982988,0,0.03279932,-0.9787127,2.2075198,0.018129176,-0.1602366,1.0146221,-0.82343614,0.027636405,-0.84029245,-1.6140752,0.09324132,-0.0018146948,1.0134203,-0.9146123
0.0,-0.1,0.8999999999999999,0.0,-0.5235987755982988,0,0.017428856,-0.9919774,2.2175918,0.00686668,-0.14637984,0.8870091,0.7340461,0.024880113,-0.8553629,-2.0770307,0.13864855,0.2472529,1.0981413,-0.9178802
0.0,-0.1,0.8999999999999999,0.0,-0.5235987755982988,0,-0.019968016,-0.97808987,2.2867768,0.0087466985,-0.024181005,1.419834,-0.64185566,0.05105468,-0.85900915,-1.5317904,0.11636099,0.29500294,1.1393116,0.13492471
0.0,-0.1,0.8999999999999999,0.0,-0.5235987755982988,0,0.05466385,-0.97640824,2.242356,0.073802896,0.5064679,1.3128288,-0.04288596,0.043906942,-0.84852076,-2.0662992,0.10289734,0.23904589,1.1434499,-1.1920356
0.0,-0.1,0.8999999999999999,0.0,-0.5235987755982988,0,-0.00088973803,-1.0097471,2.2260604,0.06067634,-0.1278995,1.0272835,1.2117445,0.038220618,-0.8791828,-2.057652,0.069922745,-0.026563138,1.0607569,-0.29628718
0.0,-0.1,0.8999999999999999,0.0,-0.5235987755982988,0,0.107944444,-0.97897923,2.3054967,0.044386275,0.15696858,0.9538491,-0.66644263,0.044167526,-0.84988946,-1.6038216,0.111051284,0.14497484,1.0855699,-1.330685
0.0,-0.1,0.8999999999999999,0.0,-0.5235987755982988,0,-0.020246841,-1.023731,2.1705883,-0.011505673,0.10325502,1.2466464,-0.5827319,0.04341659,-0.7927961,-1.49197,0.09193407,-0.0949958,1.0914832,-0.5045785
0.0,-0.1,0.8999999999999999,0.0,-0.5235987755982988,0,0.026878558,-0.9666697,2.2191603,0.031682257,-0.112183616,0.8862022,0.18231775,0.027767971,-0.8723276,-2.704294,0.049463492,0.20410225,0.9279229,0.10909328
0.0,-0.1,0.8999999999999999,0.0,-0.5235987755982988,0,-0.039447878,-0.9787062,2.2593584,0.059903342,-0.0041514607,0.9057865,-0.14890331,0.040855717,-0.8627291,-1.4565226,0.17483209,0.1819055,1.0355932,-0.44172955
0.0,-0.1,0.8999999999999999,0.0,-0.5235987755982988,0,0.07506552,-0.9673959,2.2936673,-0.02733163,-0.28984487,0.7084171,-0.5197496,0.057057012,-0.8857912,-2.5309346,0.014868984,0.070881374,1.000947,-0.6257883
0.0,-0.1,0.8999999999999999,0.0,-0.5235987755982988,0,0.076772355,-1.0036148,2.1281524,-0.099462494,-0.003761153,1.2362468,-0.4165303,0.04704999,-0.8530976,-1.648347,0.15215737,0.099821046,0.9660556,-0.2661061
0.0,-0.1,0.8999999999999999,0.0,-0.5235987755982988,0,0.026402632,-1.009184,2.2085853,0.051994216,-0.016519,0.9652679,-1.0356017,0.040731054,-0.857099,-1.2136146,0.13024019,0.19230069,1.1258096,-0.16840228
0.0,-0.1,0.8999999999999999,0.0,-0.5235987755982988,0,0.082240686,-0.9872374,2.2187455,-0.13188677,0.17423739,1.1108096,-1.3257035,0.03405984,-0.88866824,-1.644615,0.042526525,-0.26883152,1.0761732,0.19347967
0.0,-0.1,0.8999999999999999,0.0,-0.5235987755982988,0,-0.038172483,-0.9917633,2.2105782,0.06481584,0.044661522,0.9799438,1.0790727,0.039685577,-0.8475238,-1.1869026,0.078203835,-0.17383555,1.3351027,-0.3424175
0.0,-0.1,0.8999999999999999,0.0,-0.5235987755982988,0,-0.00436472,-1.0053856,2.1992137,-0.039546266,-0.001307244,1.4109389,-0.68438506,0.049045574,-0.8646991,-1.1712666,0.0005769354,0.06733717,1.0350529,0.19693205
0.0,-0.1,0.8999999999999999,0.0,-0.5235987755982988,0,0.0015694931,-1.0019426,2.2057216,0.095666416,0.17125094,0.9845479,-1.0902514,0.03431257,-0.85860366,-1.5625529,0.11491453,0.19660912,1.2568332,-1.1281505
0.0,-0.1,0.8999999999999999,0.0,-0.5235987755982988,0,-0.042906623,-0.98961043,2.1514564,0.011562689,-0.04807554,0.8430496,0.48799494,0.025191467,-0.8670727,-2.4704149,0.09807239,0.55667585,1.1289915,-0.1349122
0.0,-0.1,0.8999999999999999,0.0,-0.5235987755982988,0,0.096033596,-0.94013035,2.367124,0.10832664,-0.16846512,0.97422284,-1.6661149,0.047506016,-0.8977958,-1.6232727,0.09758619,0.08456383,1.0865589,-0.4433881
0.0,-0.1,0.8999999999999999,0.0,-0.5235987755982988,0,-0.028100718,-1.0044771,2.1638098,0.036812805,0.24094173,1.1438581,-0.29344714,0.035632294,-0.8620942,-1.3613807,0.1048788,-0.55802226,0.79131293,0.01330073
0.0,-0.1,0.8999999999999999,0.0,-0.5235987755982988,0,-0.031050306,-0.97936106,2.2851434,0.08106152,0.15183498,1.1879584,-0.87502605,0.040488157,-0.8648284,-1.3460813,0.113560796,0.27447283,1.0213803,-0.8644615
0.0,-0.1,0.8999999999999999,0.0,-0.5235987755982988,0,-0.039949693,-1.0290895,2.0702658,-0.02684757,-0.07739142,0.93411213,-2.0940714,0.023466837,-0.845602,-2.2766445,0.08306936,-0.38304317,0.8867221,-0.5076457
0.0,-0.1,0.8999999999999999,0.0,-0.5235987755982988,0,0.0008107002,-0.9981375,2.2948012,0.019741092,-0.04779512,1.1533835,-0.3638296,0.04191376,-0.85981804,-1.5171353,0.071050555,0.2876466,0.7475143,-0.4271688
0.0,-0.1,0.8999999999999999,0.0,-0.5235987755982988,0,0.0067120893,-0.9755467,2.2462418,0.055583093,0.059074797,0.87208897,-0.24581066,0.023131946,-0.8681808,-2.0367062,0.06431148,0.7139919,0.9233564,-0.8800352
0.0,-0.1,0.8999999999999999,0.0,-0.5235987755982988,0,0.011502401,-0.9974773,2.2553644,-0.06216992,-0.12544659,1.0831784,-1.0901613,0.024152603,-0.85942864,-2.0526037,0.14095683,-0.1619572,1.1752499,-0.56800646
0.0,-0.1,0.8999999999999999,0.0,-0.5235987755982988,0,0.043874633,-1.0036044,2.2190733,0.0323543,0.15476272,1.4532915,-0.853327,0.036861796,-0.8524751,-1.4088286,0.10903492,0.31487086,1.171192,-0.7967186
0.0,-0.1,0.8999999999999999,0.0,-0.5235987755982988,0,0.0553956,-0.9960591,2.2313786,-0.008662498,-0.15746154,1.2081904,0.33100244,0.040684946,-0.8541315,-1.8311859,0.072205774,0.099132456,1.099454,0.40695044
0.0,-0.1,0.8999999999999999,0.0,-0.5235987755982988,0,0.015057685,-0.98427385,2.2518408,0.025423622,-0.1655598,1.2893105,1.0329986,0.02547563,-0.86535966,-1.9249201,0.05179046,-0.21551193,1.2820833,-0.6255254
0.0,-0.1,0.8999999999999999,0.0,-0.5235987755982988,0,0.036918856,-1.0077487,2.186289,0.06289051,0.036967386,0.70388013,-0.654668,0.049034704,-0.85938495,-1.7201376,0.019423082,0.12576862,0.95335215,0.32606104
0.0,-0.1,0.8999999999999999,0.0,-0.5235987755982988,0,-0.042909905,-0.97968006,2.2752023,0.021901963,0.05184178,0.98414576,1.0942354,0.030087724,-0.8706615,-2.3940911,0.08353786,0.56477493,1.2314591,0.16452867
0.0,-0.1,0.8999999999999999,0.0,-0.5235987755982988,0,0.055845752,-0.9921487,2.2070844,-0.08200829,0.053440552,1.2127616,-0.5724805,0.04245408,-0.8825495,-1.7335129,0.06653865,0.18043754,0.88767934,-0.5234324
0.0,-0.1,0.8999999999999999,0.0,-0.5235987755982988,0,0.050075267,-0.99650455,2.1385305,0.03613298,-0.07413511,0.89470077,0.039948672,0.040050495,-0.8876346,-1.7993714,0.08414861,-0.13358673,0.99942774,-0.40062588
0.0,-0.1,0.8999999999999999,0.0,-0.5235987755982988,0,-0.013103016,-0.9760377,2.269797,0.07626724,-0.12209054,1.3938329,0.040965818,0.029475354,-0.8678848,-1.8622885,0.0055017015,0.014653312,1.0842608,-1.275968
0.0,-0.1,0.8999999999999999,0.0,-0.5235987755982988,0,0.036010727,-1.0023798,2.1507626,-0.044077177,0.16593684,0.83800846,0.24438955,0.055018123,-0.8744985,-1.6299164,0.07920478,0.01746683,0.8801146,0.1668801
0.0,-0.1,0.8999999999999999,0.0,-0.5235987755982988,0,0.08200238,-1.0179778,2.076985,-0.07808598,0.11767323,1.1246252,-1.1741685,0.048957586,-0.85597765,-1.8370655,0.12940964,-0.023202602,0.8955764,0.42126605
0.0,-0.1,0.8999999999999999,0.0,-0.5235987755982988,0,-0.029508375,-1.0067111,2.060682,0.04575569,0.062257167,0.86574256,0.46294552,0.03086593,-0.8520876,-1.8533732,0.09108374,-0.01615767,1.1832975,-0.11043669
0.0,-0.1,0.8999999999999999,0.0,-0.5235987755982988,0,-0.022206243,-1.0020229,2.2330494,-0.027381256,0.19836558,0.90494007,-0.19137703,0.03639192,-0.8574955,-1.7457868,0.07498904,0.4410472,0.8724668,-1.0536618
0.0,-0.1,0.8999999999999999,0.0,-0.5235987755982988,0,-0.06519011,-1.0100007,2.3207235,-0.014426839,0.12071543,1.1176103,0.045066215,0.04642877,-0.82736474,-1.7855101,0.10158375,0.14899728,1.1557316,-0.8151884
0.0,-0.1,0.8999999999999999,0.0,-0.5235987755982988,0,-0.055734627,-0.9929284,2.3167467,0.051673427,-0.011405783,1.2907214,-1.048914,0.041330617,-0.8736445,-1.9464427,0.11995148,0.03178176,1.0968639,0.040923618
0.0,-0.1,0.8999999999999999,0.0,-0.5235987755982988,0,0.000993382,-0.98598164,2.2972817,0.018771134,-0.2742543,1.2502424,0.2903387,0.036245592,-0.8698158,-2.267636,0.1307355,-0.14872651,0.96437114,-0.84063864
0.0,-0.1,0.8999999999999999,0.0,-0.5235987755982988,0,0.05478795,-0.99521554,2.2864099,0.001028298,0.27115968,0.8677356,-0.24103229,0.038133595,-0.87333333,-1.900839,0.07313946,0.28558233,0.9616226,-0.5873468
0.0,-0.1,0.8999999999999999,0.0,-0.5235987755982988,0,-0.058842596,-1.0088993,2.2398183,-0.04228117,0.31130776,0.97652453,-0.75426275,0.0259765,-0.8516107,-1.4961973,0.100283585,-0.033598203,0.8320554,-0.11592912
0.0,-0.1,0.8999999999999999,0.0,-0.5235987755982988,0,-0.03761488,-0.99015397,2.2273438,0.056459583,0.03320097,1.2334667,-1.2954617,0.03575119,-0.8800902,-1.467148,0.060010042,-0.20627756,0.82696706,-0.82549566
0.0,-0.1,0.8999999999999999,0.0,-0.5235987755982988,0,-0.09807656,-1.029516,2.2317057,-0.062305413,0.18839803,0.66748846,1.1090268,0.03365697,-0.84603405,-0.5063706,0.0575191,0.3385468,0.9628554,-0.20272869
0.0,-0.1,0.8999999999999999,0.0,-0.5235987755982988,0,-0.048612103,-0.976884,2.3482442,0.12885407,0.22745332,1.0186679,-0.155736,0.036117848,-0.87013054,-1.4637312,0.07758802,0.16597983,1.0591913,-0.33358988
0.0,-0.1,0.8999999999999999,0.0,-0.5235987755982988,0,0.049400277,-0.9930168,2.3957546,-0.03184514,0.12608789,1.0094959,-0.2613349,0.042530593,-0.8646678,-1.5819442,0.12951176,-0.0952038,1.0576578,-0.082696125
0.0,-0.1,0.8999999999999999,0.0,-0.5235987755982988,0,0.052404694,-0.9742816,2.3180099,-0.062098444,-0.016400917,1.0644552,-2.1042633,0.045810692,-0.879016,-2.4289203,0.011464627,-0.5236241,1.2159079,-0.61999017
0.0,-0.1,0.8999999999999999,0.0,-0.5235987755982988,0,0.032718167,-0.9939685,2.2395003,-0.0050446396,0.17778417,0.97611743,-0.23870574,0.028187996,-0.87387085,-1.8516768,0.07019405,0.32620603,1.0528557,-0.73518777
0.0,-0.1,0.8999999999999999,0.0,-0.5235987755982988,0,-0.008593481,-1.0101774,2.1968417,-0.17084622,-0.23206934,0.9494207,0.22800633,0.034355756,-0.8592042,-1.3770225,0.010193129,-0.6946114,1.0069795,-0.8946493
0.0,-0.1,0.8999999999999999,0.0,-0.5235987755982988,0,-0.015786985,-1.0022888,2.1788971,0.035134368,0.090949796,0.9967423,-1.4037137,0.029330952,-0.84444445,-1.4888004,0.02893382,0.1649536,0.8842875,-0.5271905
0.0,-0.1,0.8999999999999999,0.0,-0.5235987755982988,0,0.035606217,-1.0082941,2.239031,0.03148262,0.31278047,1.1329391,-0.38903105,0.031276416,-0.86709595,-2.5607586,0.15666933,0.17822373,1.0125692,-0.0689959
0.0,-0.1,0.8999999999999999,0.0,-0.5235987755982988,0,0.034173198,-1.0175121,2.283634,-0.010536293,-0.28214163,0.89689803,-0.53618133,0.036233485,-0.85259664,-1.4246393,0.12684135,0.73182136,1.0438786,-0.5304199
0.0,-0.1,0.8999999999999999,0.0,-0.5235987755982988,0,-0.036585953,-0.9879095,2.2457688,-0.058320083,-0.069681756,1.0123513,-0.9086544,0.027000764,-0.86491376,-1.8191762,-0.009567556,-0.09482129,0.98612344,-0.9302334
0.0,-0.1,0.8999999999999999,0.0,-0.5235987755982988,0,0.02003478,-0.99153787,2.3952746,-0.017884888,-0.042524584,0.71381724,-0.7426958,0.032897733,-0.871395,-1.9145534,0.03718094,0.42236483,1.0048443,-0.20242085
0.0,-0.1,0.8999999999999999,0.0,-0.5235987755982988,0,0.09130397,-1.0024751,2.2771327,0.027473373,0.22669639,0.92145056,-0.45411104,0.01890123,-0.88132834,-2.1626062,0.095427796,-0.06312986,0.9330782,-0.05077462
0.0,-0.1,0.8999999999999999,0.0,-0.5235987755982988,0,0.061699852,-0.9915965,2.1864793,-0.06473512,0.20236093,0.9550327,0.82341623,0.041202355,-0.86379457,-2.2892156,-0.027892604,-0.2587974,1.172022,-0.7518914
0.0,-0.1,0.8999999999999999,0.0,-0.5235987755982988,0,0.041490465,-1.0136552,2.2222564,0.06319432,-0.06486655,1.0678679,1.9667083,0.025214206,-0.84266907,-1.8823463,0.093135856,0.13803554,0.85221887,0.16217713
0.0,-0.1,0.8999999999999999,0.0,-0.5235987755982988,0,-0.028026307,-1.0091393,2.15055,0.026516845,-0.10889468,1.0727687,-1.0200958,0.04149747,-0.86101013,-2.0741951,0.08189642,-0.33264938,1.0362021,-1.4104193
0.0,-0.1,0.8999999999999999,0.0,-0.5235987755982988,0,-0.001752039,-0.98990834,2.2032232,-0.015756855,-0.22416267,1.0826753,-0.17262588,0.033216026,-0.90293586,-2.2585015,0.060224995,0.14684407,1.0430288,0.114383094
0.0,-0.1,0.8999999999999999,0.0,-0.5235987755982988,0,0.06675692,-0.97999126,2.279249,0.023893116,-0.12503658,0.9060397,-0.9405676,0.0318396,-0.8847755,-1.9412383,0.073177144,0.27978915,1.0520914,-0.20749858
0.0,-0.1,0.8999999999999999,0.0,-0.5235987755982988,0,0.030604877,-1.0144542,2.2549703,-0.021475373,0.07291434,1.1678606,0.21601008,0.036847524,-0.85790646,-1.7319591,0.013860364,0.40391356,1.0324523,0.015433887
0.0,-0.1,0.8999999999999999,0.0,-0.5235987755982988,0,-0.017945822,-1.0250366,2.1527514,0.009163042,0.040846694,1.0496485,-1.7245576,0.037905246,-0.86127424,-2.0054817,0.08199119,0.6498851,0.7731825,-0.4088212
0.0,-0.1,0.8999999999999999,0.0,-0.5235987755982988,0,0.08914618,-1.0330666,2.1717117,0.091886476,-0.21503536,0.91129416,-1.2568636,0.020563046,-0.86348474,-1.264619,0.10292915,0.20631006,0.9049052,-0.92274153
0.0,-0.1,0.8999999999999999,0.0,-0.5235987755982988,0,0.07311992,-0.9812487,2.1846414,0.24022488,0.3149008,0.8812375,0.26677603,0.040248495,-0.8950367,-1.6489965,0.08556406,-0.49369466,0.97433126,-0.16534784
0.0,-0.1,0.8999999999999999,0.0,-0.5235987755982988,0,0.060291827,-1.0117295,2.3417797,-0.106959805,0.30286202,0.9236188,-0.73645484,0.045005,-0.8589741,-1.9620633,0.070428595,0.16083765,1.059263,-0.48629403
0.0,-0.1,0.8999999999999999,0.0,-0.5235987755982988,0,0.07054035,-1.0381105,2.2327142,0.01443248,0.0039687813,0.67134553,-1.8370754,0.02711129,-0.8498911,-2.7290533,0.038664136,0.15383534,0.86372405,-0.17938481
0.0,-0.1,0.8999999999999999,0.0,-0.5235987755982988,0,0.015099481,-1.0099316,2.241493,0.04327921,0.2732411,0.97017384,-0.7406038,0.03314937,-0.87082464,-2.088923,0.10039638,-0.26824442,0.8017657,-0.99567574
0.0,-0.1,0.8999999999999999,0.0,-0.5235987755982988,0,-0.0034312757,-1.011871,2.2915623,0.075359836,-0.15322301,0.68152213,0.21410125,0.03401812,-0.86848086,-1.3856872,0.07430683,-0.066555016,1.091042,-0.99937946
0.0,-0.1,0.8999999999999999,0.0,-0.5235987755982988,0,-0.021782521,-1.0030965,2.207533,0.018229527,-0.0016049343,1.1995835,-0.93777806,0.03898033,-0.88177955,-2.2789176,0.089223705,0.0591843,1.1445808,0.08561108
0.0,-0.1,0.8999999999999999,0.0,-0.5235987755982988,0,0.02805103,-1.0030993,2.3961184,-0.03183478,0.12584603,1.4143538,-0.82266307,0.029082213,-0.8432594,-2.2039287,0.057476494,0.046006944,0.9540458,-1.2171944
0.0,-0.1,0.8999999999999999,0.0,-0.5235987755982988,0,-0.036199693,-1.0369008,2.2691965,0.039073102,0.14534812,0.7286123,-1.0868819,0.026399331,-0.8871949,-1.3184173,0.04986025,0.5202868,1.2121434,-0.12976333
0.0,-0.1,0.8999999999999999,0.0,-0.5235987755982988,0,0.0641476,-1.0293636,2.2222989,0.098530576,0.16176964,1.3789768,-1.0706469,0.024662228,-0.84369904,-2.1913068,0.07599939,0.425497,0.91924006,0.11011123
0.0,-0.1,0.8999999999999999,0.0,-0.5235987755982988,0,0.028421983,-0.9837854,2.2183084,0.046079114,0.36447537,1.2865713,0.008952887,0.035656497,-0.8959832,-2.4599073,0.040709153,0.6386414,1.1182656,-0.48130724
0.0,-0.1,0.8999999999999999,0.0,-0.5235987755982988,0,0.014060461,-1.0021309,2.2477968,-0.025342193,0.023911849,1.3043357,-0.42776108,0.03757562,-0.8854937,-1.5061005,0.09377725,0.08616687,1.0550789,-0.86845994
0.0,-0.1,0.8999999999999999,0.0,-0.5235987755982988,0,0.029248621,-1.0062494,2.2696648,0.07358276,-0.21380816,0.86785114,-1.0585618,0.019005438,-0.87442285,-2.686248,0.095463865,0.55529207,0.9648884,-1.2247951
0.0,-0.1,0.8999999999999999,0.0,-0.5235987755982988,0,-0.032124724,-1.0108347,2.2331991,0.083411396,-0.074750386,1.2285746,-0.19047718,0.031298347,-0.87230885,-2.7403734,0.06805905,0.23360243,0.98311317,-0.062805675
0.0,-0.1,0.8999999999999999,0.0,-0.5235987755982988,0,0.042650774,-0.99067897,2.3518004,0.083980486,-0.007176761,0.81917375,0.6720243,0.026487328,-0.87945783,-1.826236,0.0881368,0.031998184,1.1554006,0.0059723235
0.0,-0.1,0.8999999999999999,0.0,-0.5235987755982988,0,0.0339831,-1.0025644,2.3619146,0.029602712,0.009276285,0.8313657,-1.2954836,0.023207383,-0.88408786,-1.9199604,0.041686494,0.39127555,1.1358864,-0.6912686
0.0,-0.1,0.8999999999999999,0.0,-0.5235987755982988,0,-0.028928861,-1.0226706,2.338988,0.041927285,0.1712983,1.0013583,-0.661546,0.04007499,-0.8450811,-1.4766043,0.12184642,0.2820659,1.054025,0.38498166
0.0,-0.1,0.8999999999999999,0.0,-0.5235987755982988,0,-0.037760034,-1.0181525,2.1549368,-0.027969703,0.2909782,1.1291921,0.22872189,0.034632634,-0.8433844,-2.0310135,0.052637875,-0.1327782,1.1456347,-0.31249347
0.0,-0.1,0.8999999999999999,0.0,-0.5235987755982988,0,-0.04436984,-1.0026808,2.2564037,-0.103180766,0.35238683,1.2552588,-0.17461775,0.032941375,-0.88395643,-2.2891295,0.061998527,-0.008140305,0.857775,-0.9764378
0.0,-0.1,0.8999999999999999,0.0,-0.5235987755982988,0,0.0036606404,-1.0196935,2.29022,-0.014797054,0.21969575,0.6495313,-1.245498,0.05965329,-0.8591438,-1.1146477,0.038922027,-0.24938343,0.8830056,-0.30471557
0.0,-0.1,0.8999999999999999,0.0,-0.5235987755982988,0,0.050234318,-1.0168641,2.238195,0.0114955,-0.017078387,0.85706043,0.49099547,0.039988294,-0.87467694,-1.4351821,0.15197025,0.053489927,1.1525944,0.12555751
0.0,-0.1,0.8999999999999999,0.0,-0.5235987755982988,0,0.07054823,-0.99942964,2.301045,0.09271753,0.18086842,0.87083256,-1.4053577,0.025186159,-0.8698685,-1.675271,0.15457225,-0.08342715,1.0129427,-0.8847469
0.0,-0.1,0.8999999999999999,0.0,-0.5235987755982988,0,0.05951782,-1.0028286,2.2691567,0.11006248,-0.13423444,0.90251577,0.631426,0.0224962,-0.86349154,-2.3376186,0.13190195,-0.12072085,1.0648224,0.02862505
0.0,-0.1,0.8999999999999999,0.0,-0.5235987755982988,0,0.02662923,-0.974877,2.4136317,0.087661065,-0.030532323,1.1252161,-0.3255148,0.03346022,-0.8931666,-1.6288052,0.12753828,0.64656174,0.9852197,-0.40851447
0.0,-0.1,0.8999999999999999,0.0,-0.5235987755982988,0,0.017137328,-1.0246854,2.32696,0.013220691,0.5002634,1.1838673,-0.49201864,0.032291304,-0.88970387,-1.1314484,0.09585503,-0.20353955,0.9867357,-0.44077566
0.0,-0.1,0.8999999999999999,0.0,-0.5235987755982988,0,-0.022709716,-0.9869512,2.256473,0.042458143,-0.06756928,1.0761966,-0.14310424,0.03745251,-0.8726715,-1.516226,0.14892326,-0.51937574,0.7736214,-0.2878144
0.0,-0.1,0.8999999999999999,0.0,-0.5235987755982988,0,0.1221755,-0.9805033,2.2350473,0.17712046,-0.13470799,0.7090878,0.06045489,0.03531379,-0.869905,-1.60449,0.04621192,-0.13538009,1.1975452,-1.1086004
0.0,-0.1,0.8999999999999999,0.0,-0.5235987755982988,0,0.122967504,-0.9943981,2.2233222,0.1307788,0.10273117,1.1557958,0.12711342,0.031999465,-0.87570643,-2.2999504,0.13418294,0.26341182,0.80929255,-0.55191797
0.0,-0.1,0.8999999999999999,0.0,-0.5235987755982988,0,0.10146463,-1.0342577,2.113172,-0.053181037,0.100888364,1.1187686,-1.148811,0.025567636,-0.8532425,-1.8924998,0.038591824,0.74673843,0.9678494,-0.99009585
0.0,-0.1,0.8999999999999999,0.0,-0.5235987755982988,0,-0.013033891,-0.9984625,2.2502666,-0.058045067,0.14838673,1.2847704,-0.02607588,0.030906804,-0.8979062,-1.9782728,0.12838408,-0.15989129,1.1902287,0.68754065
0.0,-0.1,0.8999999999999999,0.0,-0.5235987755982988,0,0.013844294,-1.0091892,2.2280917,0.15554605,0.06892687,1.1341398,-0.062137246,0.04603314,-0.88407594,-1.9746424,0.05838436,-0.46546724,1.12115,-1.0118222
0.0,-0.1,0.8999999999999999,0.0,-0.5235987755982988,0,0.033336032,-1.0017031,2.1795871,0.15571949,0.19806616,1.3444293,-0.60518074,0.04885357,-0.889392,-2.1523688,0.09744755,0.15678002,0.9108779,-1.2313792
0.0,-0.1,0.8999999999999999,0.0,-0.5235987755982988,0,0.042348154,-0.98555315,2.2683864,0.09801812,-0.26187032,1.2556896,-1.2090532,0.039028324,-0.891031,-2.0851839,0.09353446,-0.49263656,0.9798287,-0.45840946
0.0,-0.1,0.8999999999999999,0.0,-0.5235987755982988,0,0.042269826,-0.9875369,2.3669922,0.06452731,-0.16610263,1.0700527,-1.131517,0.038865827,-0.8423066,-1.2604733,0.05759405,-0.17783569,1.1510226,-0.88475984
0.0,-0.1,0.8999999999999999,0.0,-0.5235987755982988,0,0.12433283,-1.0472927,2.2217102,0.06524518,0.10665855,1.2878013,-1.8056828,0.02895357,-0.84201425,-2.0681705,0.077686414,0.39808878,1.1427778,-0.009435507
0.0,-0.1,0.8999999999999999,0.0,-0.5235987755982988,0,0.043615162,-1.0132668,2.3032382,0.049525954,0.50232065,1.1000137,-0.08498267,0.028203465,-0.8794919,-1.9377851,0.09455583,-0.2814762,1.170566,-0.4152731
0.0,-0.1,0.8999999999999999,0.0,-0.5235987755982988,0,0.11845031,-1.0048931,2.2415402,-0.050238814,-0.09070488,1.1490736,0.4147266,0.03478398,-0.89727426,-1.6745018,0.043934178,-0.3636242,0.88127065,-1.0332806
0.0,-0.1,0.8999999999999999,0.0,-0.5235987755982988,0,0.04654961,-1.0024505,2.191759,0.029331667,-0.06418258,0.98454344,-0.2730268,0.030381177,-0.8634103,-2.2626808,0.09392708,-0.10997027,1.0971402,-0.1685021
0.0,-0.1,0.8999999999999999,0.0,-0.5235987755982988,0,-0.023745313,-0.9894794,2.4846015,-0.01509877,0.09890399,1.17242,0.7090824,0.048170336,-0.8637691,-1.76451,0.13996264,-0.0052052005,1.2289956,-0.40380913
0.0,-0.1,0.8999999999999999,0.0,-0.5235987755982988,0,0.10574184,-0.95579296,2.2478757,0.112790294,-0.062127035,0.97082496,-1.2405204,0.050824318,-0.88484263,-0.91965294,0.13062622,0.5776823,0.94217384,-0.26090574
0.0,-0.1,0.8999999999999999,0.0,-0.5235987755982988,0,-0.035012323,-1.0574094,2.3830428,0.010247828,0.38658357,1.3936449,-0.029978925,0.032185815,-0.8882259,-2.1477883,0.12901977,0.5859237,1.0697597,-0.7893009
0.0,-0.1,0.8999999999999999,0.0,-0.5235987755982988,0,-0.041520223,-0.97748446,2.0933826,0.09673543,0.3342054,1.2468842,0.58691263,0.036572285,-0.8892903,-2.289659,0.038088497,0.075694904,0.93361175,0.033323094
0.0,-0.1,0.8999999999999999,0.0,-0.5235987755982988,0,0.016697092,-0.9894177,2.3420324,0.046956893,-0.08583599,0.85507613,0.76437366,0.04162334,-0.8673485,-2.201882,0.077304855,-0.016045507,1.0203186,-0.73822623
0.0,-0.1,0.8999999999999999,0.0,-0.5235987755982988,0,0.029619755,-0.9697319,2.2228909,0.20363952,0.14217043,1.0659553,-1.5529331,0.02405328,-0.87720144,-1.9150418,0.079346016,0.21006915,1.1731914,-0.92608804
0.0,-0.1,0.8999999999999999,0.0,-0.5235987755982988,0,-0.015736658,-1.0065161,2.1949813,0.1813242,0.06802845,1.3223559,-0.39507577,0.032081977,-0.87471914,-1.7809546,0.1273635,0.06522866,1.0862448,-0.36252904
0.0,-0.1,0.8999999999999999,0.0,-0.5235987755982988,0,0.029457444,-0.99364495,2.4433956,-0.002609059,0.1333586,1.2049392,-0.20944756,0.039708033,-0.8719253,-2.8223753,0.09663891,-0.34078306,1.1127934,0.025385635
0.0,-0.1,0.8999999999999999,0.0,-0.5235987755982988,0,-0.034478083,-1.0196491,2.2482984,0.074621774,0.15244778,0.9307854,0.28449103,0.022660393,-0.8657962,-1.3473976,0.10362092,-0.14992431,0.9728056,0.1587097
0.0,-0.1,0.8999999999999999,0.0,-0.5235987755982988,0,0.010503959,-1.009473,2.0619547,0.05323838,0.14264643,1.2027233,-0.2870804,0.043294374,-0.8339903,-1.4550185,0.10385207,-0.030379934,1.1279969,-0.5552046
0.0,-0.1,0.8999999999999999,0.0,-0.5235987755982988,0,0.038197678,-0.9874831,2.1318204,-0.013056906,0.07905379,0.71795,-0.8246405,0.03410231,-0.8815256,-2.112597,0.08897687,-0.13936344,0.898293,-0.27149212
0.0,-0.1,0.8999999999999999,0.0,-0.5235987755982988,0,0.032980546,-1.007228,2.2237952,0.11049331,0.0712825,1.050711,-1.3174351,0.040716104,-0.8628503,-2.6566365,0.09668195,-0.22595236,0.88892454,-0.27853912
0.0,-0.1,0.8999999999999999,0.0,-0.5235987755982988,0,0.04398019,-0.9817324,2.2891667,0.24654648,0.14993864,0.962499,-0.53770834,0.044450168,-0.8742929,-2.3243706,0.05972872,0.33705673,1.040435,-0.75985926
0.0,-0.1,0.8999999999999999,0.0,-0.5235987755982988,0,0.05845943,-0.9998487,2.2716482,0.15752544,-0.029780626,1.0195924,0.10381707,0.026428984,-0.8847354,-2.110738,0.06335464,0.0668464,1.0789704,-1.7915862
0.0,-0.1,0.8999999999999999,0.0,-0.5235987755982988,0,0.06747798,-1.0122179,2.2405117,0.034338225,0.1970869,1.2828153,-1.5796702,0.03904548,-0.8543262,-1.3906777,0.07030726,0.32350782,1.0627583,0.3091731
0.0,-0.1,0.8999999999999999,0.0,-0.5235987755982988,0,0.019756258,-0.9762878,2.2947142,-0.12009134,-0.010348469,0.8333443,-0.30489033,0.046182036,-0.8699821,-1.054163,0.12996286,0.05888393,1.3222959,-0.42129537
0.0,-0.1,0.8999999999999999,0.0,-0.5235987755982988,0,-0.021662775,-0.9628276,2.2400904,0.11556397,-0.17216669,0.8897651,0.6473487,0.033937406,-0.8713588,-1.7578969,0.033953123,-0.25632766,1.0659176,-0.049663544
