sanky1234/BimanualDexCatch/isaacgymenvs/cem_results/football_pose_-0.2_0.10000000000000003_0.7_0.5235987755982988_0.5235987755982988_0_2025-05-25.csv
x,y,z,roll,pitch,yaw,robot1/joint1,robot1/joint2,robot1/joint3,robot1/joint4,robot1/joint5,robot1/joint6,robot1/joint7,robot2/joint1,robot2/joint2,robot2/joint3,robot2/joint4,robot2/joint5,robot2/joint6,robot2/joint7
-0.2,0.10000000000000003,0.7,0.5235987755982988,0.5235987755982988,0,-0.00090257905,1.399192,0.6272622,0.024457064,0.38714582,1.0367761,-1.3596245,0.13434446,1.5214845,0.3047972,-0.011599844,0.15704459,1.1951058,0.9080266
-0.2,0.10000000000000003,0.7,0.5235987755982988,0.5235987755982988,0,0.008277066,1.4076735,0.63410723,0.036797144,0.40715945,1.0299338,-1.3732814,0.6066989,1.3317821,0.0880052,-0.0041369707,0.11126182,0.95925486,-0.21663658
-0.2,0.10000000000000003,0.7,0.5235987755982988,0.5235987755982988,0,0.0067555914,1.4065074,0.6266361,0.010613128,0.4186292,1.0399452,-1.5625329,0.32957363,1.3330767,0.2010501,-0.03976523,0.17690131,1.1399939,0.16573516
-0.2,0.10000000000000003,0.7,0.5235987755982988,0.5235987755982988,0,0.0020370805,1.4085355,0.63768345,0.048016764,0.40341458,1.0252293,-1.3444965,-0.25561988,1.2682537,0.42778587,0.0054668654,0.082836166,1.0173229,-1.2120155
-0.2,0.10000000000000003,0.7,0.5235987755982988,0.5235987755982988,0,0.0013567565,1.4035438,0.63527566,0.01858512,0.40976033,1.0428537,-1.2833778,0.78832346,1.3706042,0.19775161,-0.14668736,-0.07523372,1.0499862,0.02388754
-0.2,0.10000000000000003,0.7,0.5235987755982988,0.5235987755982988,0,0.0020544708,1.4077733,0.6366243,0.017238196,0.40319088,1.0207642,-1.5030138,0.85450447,1.3121728,-0.30025956,-0.11393223,0.3388497,1.0172483,0.8915752
-0.2,0.10000000000000003,0.7,0.5235987755982988,0.5235987755982988,0,0.0025018828,1.4053439,0.63555014,0.016013283,0.42434475,1.0400547,-1.4795024,1.4837892,1.4379076,0.19676365,-0.06835381,0.0043429914,1.1924932,0.203298
-0.2,0.10000000000000003,0.7,0.5235987755982988,0.5235987755982988,0,0.0010297853,1.4026229,0.63432527,0.0230249,0.40494725,1.0348443,-1.2866805,0.1070398,1.3854154,0.06277103,-0.044409577,0.12772815,1.0936452,-0.49463478
-0.2,0.10000000000000003,0.7,0.5235987755982988,0.5235987755982988,0,0.005322068,1.4037652,0.6408922,0.016709866,0.4181252,1.0381721,-1.5151979,0.26518986,1.4044567,0.55522734,-0.05741383,0.20530021,0.8663197,0.29054236
-0.2,0.10000000000000003,0.7,0.5235987755982988,0.5235987755982988,0,-0.00061885174,1.4028008,0.63452595,0.032527104,0.4092742,1.0407591,-1.4195923,-0.02849378,1.1843414,0.40847963,0.035350602,0.26288176,1.0353326,0.42668924
-0.2,0.10000000000000003,0.7,0.5235987755982988,0.5235987755982988,0,0.004692764,1.3951136,0.6315632,0.029912926,0.41052914,1.0305693,-1.4581594,-0.22156416,1.2259316,0.5560759,-0.060193494,0.38937503,1.0154271,0.15516925
-0.2,0.10000000000000003,0.7,0.5235987755982988,0.5235987755982988,0,-0.00041190747,1.4002198,0.6426958,0.021780133,0.41163096,1.0272254,-1.4116051,-0.28410667,1.3818498,-0.15202639,-0.17677368,0.047587752,1.1322869,-0.8655004
-0.2,0.10000000000000003,0.7,0.5235987755982988,0.5235987755982988,0,0.005755305,1.4050059,0.6411258,0.020078802,0.39415783,1.0451488,-1.5308149,0.64214486,1.2263647,0.32380813,-0.11162152,0.4316953,0.91718817,0.7924182
-0.2,0.10000000000000003,0.7,0.5235987755982988,0.5235987755982988,0,0.0061687613,1.4040871,0.6404305,0.014588176,0.38778394,1.044736,-1.4449805,0.46375915,1.1807554,0.023741854,0.040602636,0.30832005,1.0415523,-0.0007546609
-0.2,0.10000000000000003,0.7,0.5235987755982988,0.5235987755982988,0,0.004255372,1.3992857,0.64443195,0.020084329,0.38974622,1.0366836,-1.4322908,0.24404328,1.3253543,-0.48105156,-0.06577993,0.33162782,1.1260641,1.60643
-0.2,0.10000000000000003,0.7,0.5235987755982988,0.5235987755982988,0,-0.0014310434,1.4070404,0.63142264,0.020202683,0.4012358,1.0286607,-1.4716787,0.5195612,1.4554962,0.30554962,-0.018223189,0.25568286,1.193529,0.12368961
-0.2,0.10000000000000003,0.7,0.5235987755982988,0.5235987755982988,0,0.00047613104,1.4046367,0.6375574,0.019739026,0.40804088,1.0370332,-1.4413712,0.11106468,1.4239012,0.093416974,0.025067415,-0.07600138,1.0309963,0.9292367
-0.2,0.10000000000000003,0.7,0.5235987755982988,0.5235987755982988,0,0.0028755867,1.4067855,0.62661797,0.016723597,0.40088347,1.0417414,-1.4821787,0.15265849,1.3571538,0.17741582,0.038101874,-0.035605878,1.1755279,0.37464604
-0.2,0.10000000000000003,0.7,0.5235987755982988,0.5235987755982988,0,0.0027083133,1.4029441,0.6256669,0.017835613,0.4131122,1.0384066,-1.4463285,1.0516734,1.5236421,0.751383,-0.0057230736,-0.11959415,1.0560633,-0.014686345
-0.2,0.10000000000000003,0.7,0.5235987755982988,0.5235987755982988,0,0.0055853245,1.3989468,0.63799304,0.019751241,0.40494806,1.0332546,-1.384927,0.085325144,1.1864072,-0.011156447,0.061162952,0.13207585,1.0938339,-0.35073707
-0.2,0.10000000000000003,0.7,0.5235987755982988,0.5235987755982988,0,0.0040127444,1.4057466,0.6340916,0.016529625,0.41189292,1.0466467,-1.3949859,-0.16669913,1.2990505,0.3227857,-0.03366984,0.45242298,1.2521045,0.82305187
-0.2,0.10000000000000003,0.7,0.5235987755982988,0.5235987755982988,0,0.0021645722,1.4000573,0.62332296,0.021973407,0.39869463,1.0461094,-1.3260467,-0.08938024,1.2141327,0.08977444,-0.098008625,0.32366875,1.051009,0.29432222
-0.2,0.10000000000000003,0.7,0.5235987755982988,0.5235987755982988,0,0.006543891,1.402812,0.6359196,0.02420534,0.4208202,1.0521224,-1.4922779,0.6211824,1.2437998,0.27643147,-0.0676455,0.38783327,0.9457907,-0.61095965
-0.2,0.10000000000000003,0.7,0.5235987755982988,0.5235987755982988,0,0.0029282763,1.4032688,0.64046365,0.022515213,0.40930828,1.0597587,-1.3176098,-0.11721418,1.3839662,-0.03176797,-0.019469706,-0.05310263,1.160601,0.21830775
-0.2,0.10000000000000003,0.7,0.5235987755982988,0.5235987755982988,0,-0.0007302498,1.4014537,0.6287186,0.029466957,0.42289665,1.0371332,-1.4447117,0.41442052,1.1341472,0.4803145,-0.093736544,0.062653184,0.9162452,-0.3871805
-0.2,0.10000000000000003,0.7,0.5235987755982988,0.5235987755982988,0,0.0022584388,1.399934,0.6332287,0.026124125,0.374079,1.012775,-1.3544099,0.5254098,1.2774181,0.2651323,-0.009899455,-0.07199302,1.0879371,0.3801708
-0.2,0.10000000000000003,0.7,0.5235987755982988,0.5235987755982988,0,-0.00047078938,1.3976408,0.6404899,0.024252443,0.39786616,1.0223532,-1.3477327,-0.6271761,1.3689542,0.3538176,-0.16563913,0.085544474,1.2901663,0.72237295
-0.2,0.10000000000000003,0.7,0.5235987755982988,0.5235987755982988,0,0.0039019396,1.4046258,0.62058145,0.024221288,0.40167353,1.0432252,-1.422719,-0.13272417,1.2040619,0.078125514,0.07983863,0.1645707,1.3702861,-0.17355826
-0.2,0.10000000000000003,0.7,0.5235987755982988,0.5235987755982988,0,0.0016780667,1.4066902,0.63934815,0.018544532,0.39078286,1.0500395,-1.4249283,0.5328684,1.2874199,0.95532817,-0.018639889,0.22970104,1.2731211,-0.2763309
-0.2,0.10000000000000003,0.7,0.5235987755982988,0.5235987755982988,0,0.004892169,1.3962002,0.63414234,0.034668706,0.3884111,1.0432098,-1.3638377,-0.47585732,1.327149,0.32698134,-0.058824163,0.31993926,1.068985,-0.5132644
-0.2,0.10000000000000003,0.7,0.5235987755982988,0.5235987755982988,0,0.0035451618,1.4004657,0.6287028,0.02618156,0.41392842,1.0452492,-1.5162846,0.3140252,1.294067,0.24865752,0.021616835,0.31668732,0.93199736,-0.63621163
-0.2,0.10000000000000003,0.7,0.5235987755982988,0.5235987755982988,0,0.0008099561,1.4058022,0.62379664,0.027104652,0.40275666,1.0401856,-1.5656099,-0.31572664,1.3589976,0.26938957,-0.1561957,0.07615146,1.1411934,-0.008327999
-0.2,0.10000000000000003,0.7,0.5235987755982988,0.5235987755982988,0,0.0009779895,1.4051552,0.63262415,0.01975441,0.38399363,1.044853,-1.3068656,0.8323552,1.4908137,-0.26460055,-0.10607434,0.09423202,1.0823799,-0.6370313
-0.2,0.10000000000000003,0.7,0.5235987755982988,0.5235987755982988,0,0.005089258,1.3991789,0.6271074,0.027741818,0.40547988,1.0345272,-1.464045,-0.362022,1.253308,0.32685006,-0.0219344,-0.18364225,1.3367231,-0.16542847
-0.2,0.10000000000000003,0.7,0.5235987755982988,0.5235987755982988,0,0.0018178739,1.4009398,0.64282894,0.030162636,0.38790935,1.029093,-1.4660003,0.1562698,1.5274345,0.081614,0.037436225,-0.09866476,0.9642085,0.83990115
-0.2,0.10000000000000003,0.7,0.5235987755982988,0.5235987755982988,0,0.003004909,1.3996114,0.6420858,0.03269928,0.4076064,1.0470729,-1.4403005,-0.61953074,1.3732971,0.027942596,-0.029032877,-0.021951886,0.9837247,0.8720668
-0.2,0.10000000000000003,0.7,0.5235987755982988,0.5235987755982988,0,0.0078113945,1.3989096,0.64134234,0.020186076,0.41026947,1.0336832,-1.5476565,0.23911205,1.2961226,-0.05321784,-0.14806038,-0.013732743,1.1239945,-0.17652957
-0.2,0.10000000000000003,0.7,0.5235987755982988,0.5235987755982988,0,0.0046925144,1.4038377,0.6382115,0.025556242,0.4022408,1.0214068,-1.4148203,0.9995359,1.392594,0.106228784,-0.12208657,-0.22212021,0.9210095,0.31014907
-0.2,0.10000000000000003,0.7,0.5235987755982988,0.5235987755982988,0,0.00014079959,1.4070605,0.64535195,0.024077816,0.40439957,1.0254272,-1.4317154,0.19275686,1.4279786,-0.11949597,-0.024683133,0.42085403,1.2094918,0.51863307
-0.2,0.10000000000000003,0.7,0.5235987755982988,0.5235987755982988,0,0.0042639044,1.4041688,0.6407121,0.021223513,0.41540685,1.024159,-1.4170929,0.1492482,1.3871526,-0.048483737,0.010832332,0.22283424,1.2486291,-0.6705633
-0.2,0.10000000000000003,0.7,0.5235987755982988,0.5235987755982988,0,0.0012155535,1.401594,0.6315537,0.025470737,0.40547082,1.0366218,-1.4462935,-0.12867485,1.2311825,-0.04047934,-0.046195325,-0.060705777,1.3931926,-0.18396099
-0.2,0.10000000000000003,0.7,0.5235987755982988,0.5235987755982988,0,0.00014600946,1.4161788,0.6397039,0.018731508,0.40519708,1.0555404,-1.5470066,0.43653277,1.3030511,-0.18346784,-0.06797279,0.3405092,0.9463605,0.51767176
-0.2,0.10000000000000003,0.7,0.5235987755982988,0.5235987755982988,0,0.004138288,1.4078829,0.63743836,0.026239386,0.40183654,1.0486934,-1.5040829,0.22935444,1.444423,0.38700703,-0.09502154,0.24425161,1.175316,-0.2840496
-0.2,0.10000000000000003,0.7,0.5235987755982988,0.5235987755982988,0,0.0038678276,1.4067544,0.6373977,0.024762858,0.39579612,1.0239604,-1.4463855,0.85178196,1.2009302,-0.6289406,-0.01438657,0.038551547,1.1518551,0.011775519
-0.2,0.10000000000000003,0.7,0.5235987755982988,0.5235987755982988,0,0.00087746745,1.407182,0.6287247,0.027681606,0.41331932,1.0226197,-1.4090965,0.9596625,1.0813982,0.40862072,-0.08484821,0.17550021,1.1106764,0.7563025
-0.2,0.10000000000000003,0.7,0.5235987755982988,0.5235987755982988,0,-0.001240629,1.4027338,0.6301514,0.028949955,0.40138733,1.0354705,-1.3725086,-0.5978187,1.3158563,0.5322141,-0.16886485,0.09864955,1.0933461,0.52942514
-0.2,0.10000000000000003,0.7,0.5235987755982988,0.5235987755982988,0,0.0069813128,1.4072815,0.6347268,0.02060761,0.41358718,1.0352132,-1.5227568,0.46114433,1.2819816,-0.25743783,-0.03292523,0.06737368,1.1178095,-1.1140248
-0.2,0.10000000000000003,0.7,0.5235987755982988,0.5235987755982988,0,-0.004455887,1.3993152,0.621775,0.034007914,0.39572203,1.0428092,-1.4536364,-0.6438407,1.3635308,-0.01607089,0.01427171,0.06966668,0.9297904,-0.32711908
-0.2,0.10000000000000003,0.7,0.5235987755982988,0.5235987755982988,0,0.002409434,1.4021946,0.63550127,0.024743114,0.4030185,1.0319488,-1.4243003,0.5670035,1.4852269,-0.20204018,-0.12725191,-0.05057309,1.0838419,-0.66946113
-0.2,0.10000000000000003,0.7,0.5235987755982988,0.5235987755982988,0,7.785423e-05,1.3995984,0.62792695,0.04471698,0.40627742,1.0323707,-1.5019972,1.2005283,1.2234051,0.4333895,-0.07407375,-0.19938244,1.1606917,-0.24267082
-0.2,0.10000000000000003,0.7,0.5235987755982988,0.5235987755982988,0,0.0032157956,1.402696,0.638563,0.027726695,0.40616584,1.021311,-1.3232607,0.12393579,1.1446625,0.49335885,-0.089718215,0.13206214,0.87710965,0.6760292
-0.2,0.10000000000000003,0.7,0.5235987755982988,0.5235987755982988,0,0.0053276704,1.4018764,0.64735967,0.031254794,0.4036022,1.0273776,-1.4278306,0.60353786,1.3460782,-0.004929319,0.15851584,-0.15566054,1.2364544,-0.06073617
-0.2,0.10000000000000003,0.7,0.5235987755982988,0.5235987755982988,0,0.0038402195,1.4006845,0.6340441,0.025943046,0.41472885,1.0453924,-1.2810888,-0.305313,1.441649,-0.12938096,-0.006845311,0.13307376,0.9610135,0.029026538
-0.2,0.10000000000000003,0.7,0.5235987755982988,0.5235987755982988,0,0.0063568573,1.4040155,0.6337002,0.028006965,0.40080324,1.0320379,-1.3587313,-0.47474235,1.5230658,0.387145,-0.07210157,0.46590436,1.2075765,0.1965502
-0.2,0.10000000000000003,0.7,0.5235987755982988,0.5235987755982988,0,0.001323491,1.4018661,0.640506,0.041493718,0.41738904,1.0445002,-1.4372452,-0.3342124,1.4657902,0.29470152,-0.042973712,0.18965614,1.1325781,0.6458353
-0.2,0.10000000000000003,0.7,0.5235987755982988,0.5235987755982988,0,0.0052246163,1.3986849,0.6402468,0.046798807,0.40694606,1.0305252,-1.3800468,-0.23355857,1.2333406,-0.36682287,0.015750349,-0.0096922815,0.9547681,-0.43650216
-0.2,0.10000000000000003,0.7,0.5235987755982988,0.5235987755982988,0,0.0068302266,1.4010835,0.6408835,0.026380293,0.4239126,1.0349265,-1.4798895,-0.46458516,1.3289479,0.2738863,-0.027794797,-0.14427282,1.155883,-0.35435167
-0.2,0.10000000000000003,0.7,0.5235987755982988,0.5235987755982988,0,0.007250968,1.405402,0.63951385,0.029284943,0.37532568,1.050082,-1.5230563,0.5485505,1.3949051,-0.2688961,0.0077692224,0.014508269,1.1741079,-0.34134018
-0.2,0.10000000000000003,0.7,0.5235987755982988,0.5235987755982988,0,0.0015721823,1.4030321,0.63750416,0.029267292,0.40351143,1.0224481,-1.3373412,1.5823556,1.4129633,-0.14220078,-0.0925195,0.20151328,0.89759666,0.24175993
-0.2,0.10000000000000003,0.7,0.5235987755982988,0.5235987755982988,0,0.0011830892,1.4087311,0.63567525,0.028627751,0.40961894,1.029281,-1.3850101,-0.22351038,1.4266479,0.090094194,0.03865129,0.12060088,1.2517896,-0.3488
-0.2,0.10000000000000003,0.7,0.5235987755982988,0.5235987755982988,0,0.0025577443,1.4019783,0.63913906,0.023748036,0.40872443,1.0386444,-1.502224,0.31342372,1.2748501,-0.16225766,-0.039969496,0.05231195,1.1943823,-0.3428091
-0.2,0.10000000000000003,0.7,0.5235987755982988,0.5235987755982988,0,0.0013357367,1.4029114,0.63203275,0.037338942,0.41644076,1.0238799,-1.4832127,0.008205828,1.2003925,0.5477724,-0.12249873,0.058670107,1.2990178,0.16963214
-0.2,0.10000000000000003,0.7,0.5235987755982988,0.5235987755982988,0,-0.0010950752,1.4024731,0.6383472,0.039367467,0.38702863,1.0143161,-1.4744499,0.060256183,1.384047,0.26319128,-0.050547075,0.21623854,1.2666988,-0.21917322
-0.2,0.10000000000000003,0.7,0.5235987755982988,0.5235987755982988,0,0.0025829533,1.4075803,0.63679254,0.022677578,0.43059278,1.0431577,-1.4439726,0.7087279,1.305558,0.22482203,-0.09348442,0.09722272,1.1114023,-0.6411448
-0.2,0.10000000000000003,0.7,0.5235987755982988,0.5235987755982988,0,0.0020628532,1.403375,0.6322037,0.02792922,0.40951613,1.049095,-1.3665776,-0.9288756,1.2532521,-0.08388599,-0.06134193,-0.073349595,1.2452757,-0.93893117
-0.2,0.10000000000000003,0.7,0.5235987755982988,0.5235987755982988,0,0.0031398602,1.4049095,0.6342826,0.038155995,0.4076445,1.0258648,-1.3819245,-1.1543603,1.2362708,0.49792483,0.058005538,0.27123767,1.1415205,0.43241546
-0.2,0.10000000000000003,0.7,0.5235987755982988,0.5235987755982988,0,0.0046699336,1.4028829,0.6330143,0.036316615,0.39554217,1.0277706,-1.3918904,1.0952971,1.3182653,0.4325451,-0.1676262,0.24094254,1.209821,0.2599141
-0.2,0.10000000000000003,0.7,0.5235987755982988,0.5235987755982988,0,0.0066168155,1.4046035,0.62821186,0.028748607,0.39516366,1.0267755,-1.5081117,0.92690134,1.2481035,0.23576607,-0.029073622,0.2669808,1.2992326,-0.46614304
-0.2,0.10000000000000003,0.7,0.5235987755982988,0.5235987755982988,0,0.0058954847,1.4022166,0.62661314,0.02538513,0.40025377,1.0376313,-1.4685929,-0.5481223,1.2734348,0.3424489,0.04492437,0.07281,1.0980662,-0.40362275
-0.2,0.10000000000000003,0.7,0.5235987755982988,0.5235987755982988,0,0.004781261,1.4056385,0.6443287,0.03950843,0.3892841,1.02908,-1.4866521,0.5763335,1.4809467,-0.12069933,-0.20191233,0.03600577,1.108009,1.6286077
-0.2,0.10000000000000003,0.7,0.5235987755982988,0.5235987755982988,0,0.0042398246,1.4022683,0.63032025,0.040703733,0.40047193,1.0328751,-1.4232033,-0.3382229,1.5582368,-0.07792742,-0.15123641,0.22305204,1.1119542,-0.8026573
-0.2,0.10000000000000003,0.7,0.5235987755982988,0.5235987755982988,0,0.004277377,1.4019156,0.634833,0.043783646,0.39109182,1.0447447,-1.4279889,0.16793565,1.4409096,0.16190343,-0.021319082,0.073191464,1.1171414,0.10904173
-0.2,0.10000000000000003,0.7,0.5235987755982988,0.5235987755982988,0,0.0028348442,1.4074066,0.635673,0.02362781,0.40471408,1.0525963,-1.4812553,-0.16275606,1.3712522,0.48171934,-0.1737084,0.30966753,1.2399746,-0.20358002
-0.2,0.10000000000000003,0.7,0.5235987755982988,0.5235987755982988,0,0.0020535975,1.4029825,0.6356121,0.030296411,0.39100736,1.030661,-1.4889686,-0.029923886,1.3611416,0.45864192,-0.060050048,0.07598244,0.992101,-0.5550504
-0.2,0.10000000000000003,0.7,0.5235987755982988,0.5235987755982988,0,0.0018694355,1.4049275,0.6524916,0.02400537,0.40068775,1.020896,-1.4054781,0.3102307,1.4874539,-0.42299947,0.04085325,0.14616807,1.2911539,-0.86294186
-0.2,0.10000000000000003,0.7,0.5235987755982988,0.5235987755982988,0,0.00033828322,1.405385,0.6323791,0.030658552,0.39316556,1.039078,-1.3131264,0.31003085,1.4581918,-0.49890697,-0.12933938,-0.12793282,1.1307625,-0.7493728
-0.2,0.10000000000000003,0.7,0.5235987755982988,0.5235987755982988,0,0.0018523843,1.4069374,0.6363086,0.027728288,0.40624607,1.0251296,-1.3262022,-0.55146176,1.2354629,-0.051478215,0.09619909,0.37089112,1.3419049,0.18391035
-0.2,0.10000000000000003,0.7,0.5235987755982988,0.5235987755982988,0,0.004884676,1.4045056,0.63105834,0.028618744,0.41462392,1.0224885,-1.4888188,-0.36256543,1.4443041,0.12401099,-0.07308721,0.23456383,0.9340319,-0.34410313
-0.2,0.10000000000000003,0.7,0.5235987755982988,0.5235987755982988,0,0.007763961,1.4093622,0.62912357,0.042209283,0.4084527,1.0368819,-1.3432523,-0.10499518,1.5061961,-0.20605388,-0.0985226,-0.09655886,1.1072067,-0.5290899
-0.2,0.10000000000000003,0.7,0.5235987755982988,0.5235987755982988,0,0.0011828635,1.4041823,0.6364649,0.027272815,0.4238462,1.0450354,-1.4430664,0.90674084,1.2746624,0.36941892,-0.015053113,0.12693104,1.1131831,-0.51405364
-0.2,0.10000000000000003,0.7,0.5235987755982988,0.5235987755982988,0,0.007124227,1.4007263,0.62955207,0.030121032,0.41797915,1.0412254,-1.4082464,-0.24014206,1.2828388,0.27450603,-0.036454268,0.32396877,1.1862028,-0.32805732
-0.2,0.10000000000000003,0.7,0.5235987755982988,0.5235987755982988,0,0.002926187,1.4024518,0.63031197,0.035191357,0.4117231,1.0256515,-1.3117806,-0.17576538,1.3365946,-0.23433529,0.03681127,0.03667092,1.0123948,-0.37835938
-0.2,0.10000000000000003,0.7,0.5235987755982988,0.5235987755982988,0,0.0048640314,1.4084707,0.65715545,0.019390138,0.41335353,1.0382394,-1.5155587,1.2087513,1.2877864,0.037065145,-0.023114564,0.2699156,1.176028,0.17301382
-0.2,0.10000000000000003,0.7,0.5235987755982988,0.5235987755982988,0,0.004339669,1.4076911,0.63104653,0.02944297,0.39348182,1.032752,-1.3611286,0.521899,1.5340477,0.21149994,-0.003971449,0.39145735,1.2782007,-0.1715998
-0.2,0.10000000000000003,0.7,0.5235987755982988,0.5235987755982988,0,0.0043306453,1.4012792,0.6316881,0.034934185,0.41350913,1.0279331,-1.5229223,-0.382166,1.2792158,0.33679157,-0.06923508,0.36609295,1.0240529,-0.7981509
-0.2,0.10000000000000003,0.7,0.5235987755982988,0.5235987755982988,0,0.0058221263,1.4062437,0.6365049,0.027383,0.39458865,1.0405402,-1.3741622,-1.1182208,1.4821043,0.81945574,-0.16772489,0.2892939,1.2581564,0.52964634
-0.2,0.10000000000000003,0.7,0.5235987755982988,0.5235987755982988,0,0.004967678,1.4024799,0.6519117,0.027362384,0.40792197,1.0590683,-1.2720184,0.62389207,1.303184,-0.18405096,0.048898485,0.1624467,1.30729,-0.42562032
-0.2,0.10000000000000003,0.7,0.5235987755982988,0.5235987755982988,0,0.00383035,1.4027771,0.62860525,0.03569922,0.40727705,1.040953,-1.5473512,0.31728306,1.2905887,0.33844867,0.06910757,0.16061917,1.4252126,0.52615875
-0.2,0.10000000000000003,0.7,0.5235987755982988,0.5235987755982988,0,0.0028350183,1.4086263,0.65226793,0.026010666,0.3805891,1.0402719,-1.4906334,0.47128215,1.2414556,-0.27233425,-0.075775936,0.119197756,0.9518845,-0.3212092
-0.2,0.10000000000000003,0.7,0.5235987755982988,0.5235987755982988,0,0.0023036925,1.4103193,0.63203526,0.032923732,0.43520108,1.0369555,-1.4865698,0.034108657,1.2362535,-0.6650292,0.050919175,0.1329052,0.9275082,-0.36948165
-0.2,0.10000000000000003,0.7,0.5235987755982988,0.5235987755982988,0,0.004147373,1.4045182,0.6339958,0.03104002,0.3775249,1.0429229,-1.5369096,-0.1733897,1.4093198,0.1912069,-0.07381063,0.095511414,1.2413727,-0.15838963
-0.2,0.10000000000000003,0.7,0.5235987755982988,0.5235987755982988,0,0.0032009517,1.4121695,0.6309627,0.02711324,0.3958695,1.0404326,-1.5295118,1.1627109,1.2722254,-0.0010809236,-0.00064400095,0.34099188,1.172872,0.2440846
-0.2,0.10000000000000003,0.7,0.5235987755982988,0.5235987755982988,0,0.002261859,1.4048034,0.6389529,0.034851894,0.3981602,1.0166982,-1.3976369,0.9556335,1.0310231,0.15869902,-0.0015208184,-0.06271516,1.1404234,-0.28756782
-0.2,0.10000000000000003,0.7,0.5235987755982988,0.5235987755982988,0,-0.00058980816,1.4089078,0.6239849,0.039765466,0.39247173,1.0182581,-1.4325761,-0.49607372,1.2392718,0.2380708,-0.08385273,0.09534736,0.89657104,-0.078736834
-0.2,0.10000000000000003,0.7,0.5235987755982988,0.5235987755982988,0,0.0045586894,1.4042536,0.63534194,0.026727812,0.40046364,1.0342699,-1.4502972,1.0827603,1.2296815,0.29911152,-0.06791211,0.28989354,0.95840377,0.6709155
-0.2,0.10000000000000003,0.7,0.5235987755982988,0.5235987755982988,0,0.0042689075,1.4052615,0.63550234,0.024774456,0.41268715,1.0327398,-1.4426329,0.17387724,1.3963498,0.55437386,-0.14824866,0.052960627,1.1961588,-0.91862077
-0.2,0.10000000000000003,0.7,0.5235987755982988,0.5235987755982988,0,0.0048833946,1.4095423,0.63720524,0.028078346,0.4070741,1.0260227,-1.3152411,-0.59300923,1.145775,0.047517754,-0.00036076605,0.12139475,1.3303711,-1.2706051
-0.2,0.10000000000000003,0.7,0.5235987755982988,0.5235987755982988,0,0.0030920045,1.405271,0.6349146,0.02741788,0.40205657,1.0389857,-1.3753699,0.42921764,1.3877195,0.2998776,-0.0050172126,0.41875124,0.8991079,0.5062364
-0.2,0.10000000000000003,0.7,0.5235987755982988,0.5235987755982988,0,0.0026880575,1.4058145,0.639747,0.03543009,0.38647553,1.0329115,-1.472443,1.2389615,1.283295,0.19385448,0.09053358,0.22678697,1.0044222,0.15204425
-0.2,0.10000000000000003,0.7,0.5235987755982988,0.5235987755982988,0,0.003989805,1.4059159,0.639522,0.032823835,0.39174488,1.0394099,-1.3494611,0.2209532,1.3670646,-0.010376194,0.011077364,0.068114914,1.0379549,0.57125247
-0.2,0.10000000000000003,0.7,0.5235987755982988,0.5235987755982988,0,0.0072118067,1.4038635,0.6415828,0.030962171,0.40876588,1.0363247,-1.3885095,-1.1078104,1.236442,0.5021105,0.037020624,0.22386229,1.2180871,-0.18239307
-0.2,0.10000000000000003,0.7,0.5235987755982988,0.5235987755982988,0,0.005018476,1.4072601,0.64156085,0.031107446,0.41410998,1.0490091,-1.3692471,0.15143673,1.331934,0.45283383,-0.017377827,0.20038188,1.1621965,-0.24582925
-0.2,0.10000000000000003,0.7,0.5235987755982988,0.5235987755982988,0,0.0050711525,1.4064182,0.6355855,0.036355514,0.40046096,1.0393709,-1.4365146,0.6757305,1.2892374,0.036279272,0.063085765,0.26902673,1.2662407,0.28277674
-0.2,0.10000000000000003,0.7,0.5235987755982988,0.5235987755982988,0,0.008658214,1.4070642,0.6348623,0.028399048,0.41008955,1.0504441,-1.5014181,0.46096608,1.2065504,-0.2239739,0.037149437,-0.17333212,1.126311,-0.2707908
-0.2,0.10000000000000003,0.7,0.5235987755982988,0.5235987755982988,0,0.0055730506,1.4059737,0.64165074,0.032452386,0.41445273,1.0277643,-1.4088125,-0.26452127,1.1788803,0.037919227,-0.07692926,-0.043077562,1.0625968,0.91666996
-0.2,0.10000000000000003,0.7,0.5235987755982988,0.5235987755982988,0,0.0028232166,1.3991963,0.63376474,0.035302065,0.3961756,1.0247099,-1.3298929,-0.012013971,1.5123477,0.23222601,-0.049572196,0.26710418,1.1493506,0.06268193
-0.2,0.10000000000000003,0.7,0.5235987755982988,0.5235987755982988,0,0.007003065,1.4030145,0.64251864,0.028164813,0.42832926,1.0175127,-1.3906353,0.62894624,1.2876623,-0.14697587,-0.12917006,-0.17348287,1.1628828,0.00926095
-0.2,0.10000000000000003,0.7,0.5235987755982988,0.5235987755982988,0,0.0035637312,1.4125819,0.6433114,0.027522853,0.41189805,1.0331995,-1.3976609,1.0029489,1.1863747,-0.48102647,-0.04191662,0.12509732,1.300377,0.8744804
-0.2,0.10000000000000003,0.7,0.5235987755982988,0.5235987755982988,0,0.0034857902,1.4088186,0.63798606,0.031424236,0.39775747,1.0428777,-1.355086,-0.25689775,1.0786412,0.012619498,0.006211303,0.21360391,1.2546515,1.0381995
-0.2,0.10000000000000003,0.7,0.5235987755982988,0.5235987755982988,0,0.002327626,1.4073533,0.64857656,0.03117388,0.39231527,1.0415967,-1.3435684,0.19326045,1.2477524,0.47688934,-0.0571802,0.14640738,1.1628367,-0.38808677
-0.2,0.10000000000000003,0.7,0.5235987755982988,0.5235987755982988,0,0.0058502723,1.4072685,0.6297237,0.030011099,0.39267093,1.027993,-1.3177395,0.13255186,1.2773302,0.29277828,-0.1130946,0.3267221,1.2487539,-0.3583622
-0.2,0.10000000000000003,0.7,0.5235987755982988,0.5235987755982988,0,-0.00048362892,1.4055632,0.6402868,0.040188536,0.405819,1.0355804,-1.4429973,-0.0690725,1.3907008,0.33142656,-0.06465621,0.015457532,1.259026,0.2274354
-0.2,0.10000000000000003,0.7,0.5235987755982988,0.5235987755982988,0,0.003223804,1.4068289,0.63408285,0.03952,0.41601813,1.0383979,-1.3253669,0.24840818,1.1921047,0.028858475,-0.010016495,0.026371084,0.89296514,0.8725045
-0.2,0.10000000000000003,0.7,0.5235987755982988,0.5235987755982988,0,0.0024536257,1.4063574,0.64471006,0.036431395,0.41686538,1.0244503,-1.4923573,1.1344662,1.2070638,0.367782,-0.03726022,0.08911266,1.2300228,-0.4260089
-0.2,0.10000000000000003,0.7,0.5235987755982988,0.5235987755982988,0,0.004315641,1.4068139,0.6342789,0.028486002,0.3877973,1.0240533,-1.3331546,1.2421243,1.1616396,-0.0100860875,-0.18857087,0.043766305,1.1618185,-0.12884435
-0.2,0.10000000000000003,0.7,0.5235987755982988,0.5235987755982988,0,0.0034189145,1.4069778,0.63272965,0.02363553,0.3927299,1.0362464,-1.4117643,-0.7104101,1.2907786,0.5871316,-0.001827803,0.46389022,1.1581165,-0.013409342
-0.2,0.10000000000000003,0.7,0.5235987755982988,0.5235987755982988,0,0.005234148,1.4102674,0.6372503,0.031562507,0.40919393,1.0327867,-1.3485088,1.2447263,1.3747976,0.08430853,0.024997951,0.009407451,1.1713159,0.44345886
-0.2,0.10000000000000003,0.7,0.5235987755982988,0.5235987755982988,0,0.008072099,1.399741,0.6441844,0.03523268,0.4083261,1.0305275,-1.5406053,1.5437541,1.2749211,-0.06959856,-0.10558997,0.025878858,0.9558092,0.77952164
-0.2,0.10000000000000003,0.7,0.5235987755982988,0.5235987755982988,0,0.00013419711,1.4127364,0.6405457,0.034491748,0.40672314,1.0372238,-1.5741873,0.19628766,1.1414976,-0.8302691,-0.0118462695,0.16517963,1.0979801,0.9932131
-0.2,0.10000000000000003,0.7,0.5235987755982988,0.5235987755982988,0,0.007700226,1.4066514,0.6374462,0.028541729,0.41780207,1.0241516,-1.3744366,0.6352468,1.2180372,-0.13858052,-0.06870893,0.4242768,0.98543054,0.5197522
-0.2,0.10000000000000003,0.7,0.5235987755982988,0.5235987755982988,0,0.006564125,1.4048544,0.64475477,0.028897421,0.39182943,1.032059,-1.4160936,-0.47904226,1.1158012,0.12780967,-0.110150784,0.07439803,1.0389408,0.5121509
-0.2,0.10000000000000003,0.7,0.5235987755982988,0.5235987755982988,0,0.005576852,1.4028352,0.63627595,0.040956326,0.40667665,1.0395058,-1.3911309,-0.36132213,1.1278824,0.0607064,-0.0557203,0.039376583,1.2079592,0.10370807
-0.2,0.10000000000000003,0.7,0.5235987755982988,0.5235987755982988,0,0.0015087806,1.4055705,0.643932,0.04819853,0.4215442,1.0354475,-1.4497669,0.041734803,1.3029636,0.38794878,-0.05456825,-0.22533172,1.1004782,-0.3492067
-0.2,0.10000000000000003,0.7,0.5235987755982988,0.5235987755982988,0,0.009141565,1.4056172,0.6451431,0.03310941,0.41891363,1.0304233,-1.4344102,-0.42468134,1.3225509,0.062585905,-0.045361176,-0.0024943706,1.2094649,0.88521415
-0.2,0.10000000000000003,0.7,0.5235987755982988,0.5235987755982988,0,0.006199657,1.4081197,0.63746065,0.031172695,0.39841083,1.0358242,-1.3906175,0.40007544,1.2043321,0.027123205,-0.114656314,0.2894996,1.2629416,0.46760884
-0.2,0.10000000000000003,0.7,0.5235987755982988,0.5235987755982988,0,0.0042208405,1.4123495,0.6381009,0.030070301,0.40907297,1.0197309,-1.3350621,0.32839242,1.399992,0.24814567,-0.04423089,0.28533256,1.3608353,-0.09574109
-0.2,0.10000000000000003,0.7,0.5235987755982988,0.5235987755982988,0,0.0049283146,1.4047178,0.6275837,0.04572837,0.40135828,1.034125,-1.331153,0.009179362,1.2006451,0.47012112,-0.005403428,0.05040182,1.0858921,0.4392593
-0.2,0.10000000000000003,0.7,0.5235987755982988,0.5235987755982988,0,0.00029863016,1.4004966,0.63321275,0.01748895,0.39642295,1.0356315,-1.2551519,-1.0817832,1.5042963,-0.28957537,-0.044612676,0.43581018,1.2662694,1.0274673
-0.2,0.10000000000000003,0.7,0.5235987755982988,0.5235987755982988,0,0.004856879,1.394622,0.6315589,0.020597823,0.41041765,1.0367776,-1.4503531,0.38102508,1.263672,-0.192975,-0.089938134,0.21687344,0.7134614,0.8229734
-0.2,0.10000000000000003,0.7,0.5235987755982988,0.5235987755982988,0,0.0071036094,1.3966861,0.6331886,0.02434294,0.4071925,1.017595,-1.2430878,-0.5294201,1.3293632,0.34954172,0.06661651,-0.16129944,1.1439244,-0.39645162
-0.2,0.10000000000000003,0.7,0.5235987755982988,0.5235987755982988,0,0.0057051457,1.4011607,0.6310919,0.020980628,0.40685523,1.0503653,-1.3326051,-0.59359807,1.2932644,-0.21484907,0.014288439,-0.053311553,1.1349914,-0.06759758
-0.2,0.10000000000000003,0.7,0.5235987755982988,0.5235987755982988,0,-0.00028651676,1.4050257,0.636836,0.01260669,0.40283626,1.0437139,-1.4565973,0.58881414,1.2567132,-0.093424365,0.07879136,0.17673144,1.3922247,-0.43376437
-0.2,0.10000000000000003,0.7,0.5235987755982988,0.5235987755982988,0,0.0021115725,1.3960861,0.634614,0.026735691,0.38503078,1.0438477,-1.2990317,0.0918254,1.290399,0.3750777,-0.06937751,0.13379504,0.92430323,-0.19234966
-0.2,0.10000000000000003,0.7,0.5235987755982988,0.5235987755982988,0,0.0053975605,1.3978196,0.6420113,0.015390423,0.41589972,1.0562257,-1.4775518,0.50182235,1.3726834,0.13015167,-0.11018801,0.2942901,1.2642055,-0.57811785
-0.2,0.10000000000000003,0.7,0.5235987755982988,0.5235987755982988,0,0.00073487044,1.4016945,0.64255416,0.017983627,0.3964427,1.0365168,-1.4883226,0.9561157,1.2219887,-0.06322049,0.121697485,0.32279253,1.0152867,0.66806364
-0.2,0.10000000000000003,0.7,0.5235987755982988,0.5235987755982988,0,0.003057302,1.4016848,0.63993704,0.01573442,0.41680196,1.0286192,-1.5180041,0.65062124,1.4732702,0.17490536,-0.036312435,0.2492431,1.2577337,0.22134511
-0.2,0.10000000000000003,0.7,0.5235987755982988,0.5235987755982988,0,0.002125776,1.4077138,0.6360235,0.011426919,0.4155965,1.0309925,-1.5235503,-0.019609092,1.3158301,0.16052935,-0.09739493,-0.20864628,1.2485281,-0.64555645
-0.2,0.10000000000000003,0.7,0.5235987755982988,0.5235987755982988,0,0.0009973849,1.407212,0.635167,0.019019352,0.41438693,1.0273933,-1.5726604,-0.018990189,1.2460308,-0.038927913,0.09787787,-0.0070062815,0.84983945,0.13584171
-0.2,0.10000000000000003,0.7,0.5235987755982988,0.5235987755982988,0,0.0020533411,1.4071475,0.6256298,0.025295304,0.4036288,1.039215,-1.3549567,0.23758383,1.4489926,0.33426434,0.057443388,0.42747864,1.1507497,0.8948654
-0.2,0.10000000000000003,0.7,0.5235987755982988,0.5235987755982988,0,0.0035579384,1.3947564,0.6426736,0.026168598,0.4024658,1.0417898,-1.430262,0.86933726,1.1820923,-0.079863444,0.01325399,0.25027934,0.8567019,0.008299658
-0.2,0.10000000000000003,0.7,0.5235987755982988,0.5235987755982988,0,0.005940358,1.3960986,0.6468876,0.015197852,0.4080563,1.0361043,-1.4231766,-0.10741862,1.4511,-0.007637419,-0.04546087,0.14602213,1.4424726,-0.66805947
-0.2,0.10000000000000003,0.7,0.5235987755982988,0.5235987755982988,0,-0.0017933185,1.4058465,0.6384661,0.030605821,0.4125635,1.0451446,-1.4151484,0.4827163,1.2180238,0.0061175004,0.0063157417,0.22629018,0.79648894,-0.17594978
-0.2,0.10000000000000003,0.7,0.5235987755982988,0.5235987755982988,0,0.004064831,1.411193,0.63990134,0.018057058,0.39803725,1.0332379,-1.4910418,-0.15311569,1.2957835,0.021908754,-0.17003828,0.13023578,0.7848565,-0.17200458
-0.2,0.10000000000000003,0.7,0.5235987755982988,0.5235987755982988,0,0.0017323251,1.4027259,0.6340616,0.02128682,0.39856187,1.0467341,-1.4326925,1.120621,1.3422594,-0.03365111,-0.08905305,0.15060623,0.9580995,0.45601812
-0.2,0.10000000000000003,0.7,0.5235987755982988,0.5235987755982988,0,0.004521124,1.4072145,0.63431555,0.021813493,0.41463184,1.0437762,-1.4946396,0.56352013,1.2601498,0.50220335,-0.0675638,-0.04896007,0.8904317,-0.06359781
-0.2,0.10000000000000003,0.7,0.5235987755982988,0.5235987755982988,0,0.0028532068,1.4024949,0.64265573,0.016958145,0.42010826,1.0366833,-1.4703664,-0.28688577,1.1445343,0.396931,-0.017425315,0.20438571,1.1465715,0.5984071
-0.2,0.10000000000000003,0.7,0.5235987755982988,0.5235987755982988,0,0.0031212277,1.3993577,0.6373058,0.025921417,0.39760157,1.031418,-1.4930357,0.0287038,1.2769939,-0.46619126,-0.053334106,0.20295031,0.91164815,-0.0040016784
-0.2,0.10000000000000003,0.7,0.5235987755982988,0.5235987755982988,0,0.004228695,1.4055825,0.6472013,-0.0066328463,0.39495447,1.0387751,-1.403434,-0.34771174,1.2412775,0.25794,0.024736023,0.17414372,1.0437802,-0.27308246
-0.2,0.10000000000000003,0.7,0.5235987755982988,0.5235987755982988,0,0.00079462526,1.4005086,0.65114206,0.018932061,0.40876892,1.0201255,-1.4359281,0.8769827,1.2463397,0.22312972,-0.039806437,0.20229527,1.0841383,-0.26724306
-0.2,0.10000000000000003,0.7,0.5235987755982988,0.5235987755982988,0,0.003801637,1.4010235,0.63483393,0.031037273,0.3981396,1.0439748,-1.4921643,0.7748466,1.144469,0.9557244,-0.057535313,0.09145221,1.1095417,0.024283491
-0.2,0.10000000000000003,0.7,0.5235987755982988,0.5235987755982988,0,0.0042206384,1.4034034,0.63487244,0.030165423,0.39961368,1.0579315,-1.3412553,0.734799,1.5081556,0.26995584,-0.16877562,0.18324082,1.030059,-0.28722495
-0.2,0.10000000000000003,0.7,0.5235987755982988,0.5235987755982988,0,0.0060568997,1.4011302,0.6415166,0.022041656,0.39893427,1.03682,-1.4846305,-0.66791236,1.4628974,0.5284434,0.04096247,-0.19640835,1.1893557,1.194825
-0.2,0.10000000000000003,0.7,0.5235987755982988,0.5235987755982988,0,0.0015168691,1.4017532,0.6370349,0.020156376,0.3946375,1.0278425,-1.393036,0.37158602,1.1944665,0.029073196,0.035400406,0.1709466,1.0046153,0.6973645
-0.2,0.10000000000000003,0.7,0.5235987755982988,0.5235987755982988,0,0.0065230215,1.4063628,0.6402304,0.008904397,0.41074806,1.0276668,-1.3984361,-0.25513962,1.2345976,-0.20361808,-0.048706666,-0.08277471,1.1730824,0.412098
-0.2,0.10000000000000003,0.7,0.5235987755982988,0.5235987755982988,0,-0.0007654319,1.403903,0.63629824,0.031322718,0.40753293,1.0339333,-1.4484272,1.7070972,1.2717975,0.9708913,0.051555727,0.1807064,1.2206267,-0.17818466
-0.2,0.10000000000000003,0.7,0.5235987755982988,0.5235987755982988,0,-0.001013875,1.4045641,0.6399669,0.040264998,0.39552563,1.018554,-1.458694,0.36989537,1.233152,-0.27005237,-0.026042882,0.30628982,0.9423829,0.22134963
-0.2,0.10000000000000003,0.7,0.5235987755982988,0.5235987755982988,0,0.0014003748,1.4053559,0.627311,0.028607681,0.40845537,1.0325525,-1.3691673,-0.5423329,1.2559433,0.16961773,-0.053392425,0.3308612,1.142673,0.12466392
-0.2,0.10000000000000003,0.7,0.5235987755982988,0.5235987755982988,0,0.0052615125,1.403758,0.632503,0.018670615,0.41723529,1.0315597,-1.4253228,-1.1160808,1.4872664,0.4675605,0.024576241,0.25672856,1.2531731,-0.17024226
-0.2,0.10000000000000003,0.7,0.5235987755982988,0.5235987755982988,0,0.005473185,1.404959,0.63094634,0.018381177,0.40801406,1.03089,-1.257332,-0.21211559,1.120576,0.41669455,0.034312923,0.0058340086,1.2699444,-0.14546666
-0.2,0.10000000000000003,0.7,0.5235987755982988,0.5235987755982988,0,0.00083312823,1.3981555,0.62902296,0.009605549,0.43052647,1.0368648,-1.4504236,0.027883258,1.2669156,0.08896354,0.07955182,0.1988143,1.1748531,0.4676386
-0.2,0.10000000000000003,0.7,0.5235987755982988,0.5235987755982988,0,-0.00042723448,1.3991888,0.6458142,0.028801462,0.39260286,1.0246907,-1.4054435,-0.14737312,1.2735798,0.20932576,-0.084019735,0.24187371,1.018966,0.26100498
-0.2,0.10000000000000003,0.7,0.5235987755982988,0.5235987755982988,0,0.0012979764,1.4057933,0.6386062,0.035688035,0.4057395,1.0391947,-1.4763027,0.31534198,1.03474,-0.20385444,-0.016112834,0.20156252,1.1790572,0.32692876
-0.2,0.10000000000000003,0.7,0.5235987755982988,0.5235987755982988,0,0.005503524,1.401221,0.6429568,0.02275222,0.38615727,1.0424134,-1.3643941,-0.26891145,1.3345495,0.08392536,-0.10823636,0.22143297,1.0892024,0.036679342
-0.2,0.10000000000000003,0.7,0.5235987755982988,0.5235987755982988,0,0.005198452,1.400803,0.6309178,0.025853591,0.40554288,1.0412977,-1.3876045,0.83736724,1.3657783,0.49849737,-0.0069282623,0.19324909,1.3070726,0.4464647
-0.2,0.10000000000000003,0.7,0.5235987755982988,0.5235987755982988,0,0.0043985737,1.408985,0.6418108,0.016430266,0.4071175,1.0339221,-1.3913602,0.2562118,1.242788,-0.08303591,-0.07114251,0.19858788,1.0550332,0.067037724
-0.2,0.10000000000000003,0.7,0.5235987755982988,0.5235987755982988,0,0.0011747135,1.4050299,0.64383644,0.025651695,0.40592644,1.0433657,-1.5279529,0.2908275,1.1170574,0.2263949,-0.02160368,-0.23285013,1.3513066,0.09964156
-0.2,0.10000000000000003,0.7,0.5235987755982988,0.5235987755982988,0,0.0052399286,1.4079251,0.6361031,0.017473143,0.42259872,1.0287894,-1.442601,0.39468792,1.1560965,-0.39400855,-0.050475497,0.05000423,1.157848,0.57133263
-0.2,0.10000000000000003,0.7,0.5235987755982988,0.5235987755982988,0,0.0055978955,1.4060705,0.63098,0.023434753,0.4087531,1.0296633,-1.392853,0.5283985,1.3878503,0.47204962,0.028668331,-0.015417292,1.098178,0.94617075
-0.2,0.10000000000000003,0.7,0.5235987755982988,0.5235987755982988,0,0.000559357,1.4097785,0.6392747,0.024668843,0.3916224,1.0479543,-1.4191175,0.20153409,1.2029988,0.63649064,0.022056675,-0.25183338,1.1085172,0.8736482
-0.2,0.10000000000000003,0.7,0.5235987755982988,0.5235987755982988,0,0.0055449237,1.4043136,0.63476753,0.029604422,0.41025668,1.0309566,-1.5518037,-0.26187962,1.1616067,-0.10632973,-0.04055454,0.41403615,1.1637574,0.23984124
-0.2,0.10000000000000003,0.7,0.5235987755982988,0.5235987755982988,0,0.0018780464,1.4043843,0.64134026,0.024455288,0.39503258,1.0325123,-1.3679731,1.4081972,1.27498,0.24539801,0.027598077,0.07054594,1.1584992,0.50370824
-0.2,0.10000000000000003,0.7,0.5235987755982988,0.5235987755982988,0,0.0017871667,1.4034421,0.6322762,0.031580903,0.40135667,1.0351621,-1.5707777,-0.7775427,1.3179862,0.41348085,-0.023126338,0.343206,1.2374951,0.028877648
-0.2,0.10000000000000003,0.7,0.5235987755982988,0.5235987755982988,0,0.0050179823,1.4061333,0.6437764,0.026619215,0.40265635,1.048719,-1.5363405,-1.6533496,1.4421988,0.7853979,-0.022584649,0.08636958,1.3226535,-0.21302693
-0.2,0.10000000000000003,0.7,0.5235987755982988,0.5235987755982988,0,0.0063045667,1.4073945,0.6384185,0.02799304,0.39853898,1.039468,-1.295399,-0.6123726,1.2852846,0.3453211,-0.063137054,0.2020853,1.0380443,0.21817409
-0.2,0.10000000000000003,0.7,0.5235987755982988,0.5235987755982988,0,0.004848341,1.4042654,0.6434475,0.028069444,0.4039823,1.0376108,-1.4412344,1.3396151,1.4703953,0.5685776,-0.086733505,-0.0411113,1.1190718,-0.05780125
-0.2,0.10000000000000003,0.7,0.5235987755982988,0.5235987755982988,0,0.003189432,1.4001279,0.6419617,0.028692916,0.3989871,1.0099669,-1.3765208,0.81839323,1.3257366,0.12699662,0.023709344,-0.056259673,1.0962485,0.48749343
-0.2,0.10000000000000003,0.7,0.5235987755982988,0.5235987755982988,0,-0.000104482395,1.4073288,0.6352656,0.02391121,0.4051235,1.0308884,-1.4622537,0.15666334,1.2887787,-0.16530165,-0.044934373,0.19362386,1.4105583,0.46054873
-0.2,0.10000000000000003,0.7,0.5235987755982988,0.5235987755982988,0,0.0017085026,1.4062834,0.6398878,0.02425869,0.39991876,1.0208235,-1.4947019,0.57750005,1.351891,-0.023915779,-0.15187761,-0.2108031,1.1797386,1.1906475
-0.2,0.10000000000000003,0.7,0.5235987755982988,0.5235987755982988,0,0.004261125,1.3988892,0.6310685,0.036592737,0.40622818,1.0332757,-1.4929022,0.5941,1.3753858,0.19940957,-0.0424566,0.0004552843,1.1014836,-0.072074585
-0.2,0.10000000000000003,0.7,0.5235987755982988,0.5235987755982988,0,0.00083188806,1.4017037,0.630441,0.03837636,0.41074184,1.0357952,-1.6132183,-0.9448487,1.1359906,0.113575816,-0.02018062,0.2656791,1.2337704,0.57361054
-0.2,0.10000000000000003,0.7,0.5235987755982988,0.5235987755982988,0,-0.0017226307,1.3978692,0.64334035,0.008347199,0.4098058,1.0458184,-1.385451,-0.52236885,1.4759651,0.1337581,-0.11450016,0.13283364,1.3041732,0.11294669
-0.2,0.10000000000000003,0.7,0.5235987755982988,0.5235987755982988,0,0.004788702,1.4079903,0.6345183,0.033089437,0.41383287,1.0406251,-1.4121352,-0.3715878,1.2733248,0.39082804,-0.01300944,0.08959202,1.1373289,-0.10173789
-0.2,0.10000000000000003,0.7,0.5235987755982988,0.5235987755982988,0,0.0054731146,1.4079605,0.6418177,0.026533974,0.38796225,1.0276903,-1.4595149,1.2077487,1.370551,0.20130959,-0.1253264,0.12686326,1.2391276,-0.23876458
-0.2,0.10000000000000003,0.7,0.5235987755982988,0.5235987755982988,0,0.00025495855,1.4085544,0.62843734,0.032277558,0.40251663,1.0371768,-1.3459979,-0.303895,1.2880794,0.11615436,-0.03975471,-0.2608246,1.2764647,0.11252731
-0.2,0.10000000000000003,0.7,0.5235987755982988,0.5235987755982988,0,0.0008131401,1.4011557,0.636702,0.012501175,0.39289537,1.0359075,-1.3957784,0.15074347,1.3845575,-0.2708751,-0.002470159,0.084728226,1.1894517,-0.020321727
-0.2,0.10000000000000003,0.7,0.5235987755982988,0.5235987755982988,0,-0.0032247994,1.398522,0.63382196,0.02065292,0.40860057,1.0197823,-1.4196199,1.1588813,1.1909909,0.13344233,-0.04385716,0.095489986,1.1422569,0.30732736
-0.2,0.10000000000000003,0.7,0.5235987755982988,0.5235987755982988,0,0.004430461,1.4007758,0.6307236,0.01948261,0.38919634,1.0504216,-1.4815854,-0.27970028,1.3036786,0.10424909,-0.014994273,-0.13572955,0.99133253,-0.6793219
-0.2,0.10000000000000003,0.7,0.5235987755982988,0.5235987755982988,0,0.0062968885,1.4014976,0.6448982,0.013756326,0.40158334,1.0200161,-1.4760039,0.7175997,1.3231357,0.07721345,-0.16705568,-0.21013594,0.8432383,0.9359586
-0.2,0.10000000000000003,0.7,0.5235987755982988,0.5235987755982988,0,0.0060538757,1.4062775,0.6400753,0.023597965,0.41275066,1.0346988,-1.4002274,-1.1705365,1.2161121,-0.07985577,0.054014094,0.1068026,1.0424095,-0.2367243
-0.2,0.10000000000000003,0.7,0.5235987755982988,0.5235987755982988,0,0.0039410293,1.3960683,0.6380961,0.01298666,0.41482288,1.0207733,-1.3744091,-0.58817935,1.3481622,0.33187568,-0.08332966,0.11884188,1.2928336,-0.9052809
-0.2,0.10000000000000003,0.7,0.5235987755982988,0.5235987755982988,0,0.0011515812,1.4057909,0.6357568,0.011264366,0.41613668,1.0385227,-1.4553218,0.7479531,1.3690467,0.46167737,-0.013660714,0.24730343,1.341015,0.099961914
-0.2,0.10000000000000003,0.7,0.5235987755982988,0.5235987755982988,0,0.004675894,1.4021009,0.6465208,0.008752338,0.40727702,1.0469066,-1.3839703,-0.055853464,1.2031972,0.112971015,-0.12971431,-0.17140938,1.0126996,0.3131009
-0.2,0.10000000000000003,0.7,0.5235987755982988,0.5235987755982988,0,0.00088095147,1.4083205,0.64519966,0.01747907,0.3945352,1.0485935,-1.4668616,-0.21001372,1.4262061,0.11479048,0.01474499,0.37534842,0.91336125,0.29250103
-0.2,0.10000000000000003,0.7,0.5235987755982988,0.5235987755982988,0,0.007492828,1.4003421,0.63992774,0.020436468,0.41192582,1.0335808,-1.400863,-0.13411371,1.2500141,0.3376697,-0.028939579,0.5370291,0.87007755,0.09927914
-0.2,0.10000000000000003,0.7,0.5235987755982988,0.5235987755982988,0,0.00023452478,1.4023862,0.6371373,0.027360532,0.40803984,1.0201782,-1.3943546,-0.11760738,1.3838507,0.48457465,0.004386621,0.06713795,0.72996813,-0.3569737
-0.2,0.10000000000000003,0.7,0.5235987755982988,0.5235987755982988,0,0.0048009907,1.3968728,0.6446156,0.01448602,0.42327625,1.0201133,-1.3322767,0.10543754,1.4222473,0.4765769,-0.055140372,0.25264585,1.1198771,-0.025733916
-0.2,0.10000000000000003,0.7,0.5235987755982988,0.5235987755982988,0,-0.0004878116,1.4050505,0.6396759,0.019542145,0.40448183,1.0230391,-1.3139695,-0.84812987,1.2673373,0.00524936,-0.049190924,0.084202476,0.94449854,0.12847386
-0.2,0.10000000000000003,0.7,0.5235987755982988,0.5235987755982988,0,-0.00045121828,1.404433,0.65071416,0.028465936,0.4072284,1.052264,-1.3948033,0.5258333,1.2929184,0.7986079,-0.0076172063,0.38384908,0.9832261,-0.26053953
-0.2,0.10000000000000003,0.7,0.5235987755982988,0.5235987755982988,0,-0.0011097101,1.4067084,0.6437129,0.024062201,0.39964965,1.0439215,-1.3781776,0.67636406,1.1528618,0.5642615,-0.20346044,0.23177403,0.8072703,0.5998099
-0.2,0.10000000000000003,0.7,0.5235987755982988,0.5235987755982988,0,0.004759936,1.3982635,0.63642675,0.01973133,0.39314294,1.0323633,-1.2193673,0.45453206,1.3008832,0.15879484,0.014603067,0.10137902,1.3209839,-0.43357685
-0.2,0.10000000000000003,0.7,0.5235987755982988,0.5235987755982988,0,0.0060762684,1.4081476,0.627077,0.0110051455,0.42601043,1.0323262,-1.4189185,-0.6729242,1.2904296,-0.25909862,0.017968453,0.10483015,1.2454505,0.00071991415
-0.2,0.10000000000000003,0.7,0.5235987755982988,0.5235987755982988,0,0.0018390543,1.3993995,0.6316582,0.034223564,0.4085135,1.0382323,-1.3548634,0.15846904,1.2831007,0.099450976,-0.0058337795,-0.10344276,1.1341197,-0.40006205
-0.2,0.10000000000000003,0.7,0.5235987755982988,0.5235987755982988,0,-0.0042812903,1.4111397,0.6247264,0.026516818,0.39799765,1.0392317,-1.4338558,0.20899005,1.3033805,0.49303693,-0.15698373,0.33374202,1.3267654,0.023217632
-0.2,0.10000000000000003,0.7,0.5235987755982988,0.5235987755982988,0,0.0019234671,1.398427,0.6379131,0.027594045,0.39201632,1.0220093,-1.4537058,-0.28269228,1.260437,0.35907498,-0.014597909,-0.13581708,1.117589,-0.7460509
-0.2,0.10000000000000003,0.7,0.5235987755982988,0.5235987755982988,0,0.0012494499,1.4050307,0.6407116,0.020584028,0.40961567,1.0250113,-1.3172476,1.0731237,1.3820345,0.17781198,-0.08539601,0.52282774,1.2810702,0.10464556
-0.2,0.10000000000000003,0.7,0.5235987755982988,0.5235987755982988,0,0.0020847654,1.4041542,0.6463347,0.02175105,0.38932323,1.0387717,-1.5247982,1.0840502,1.2876835,0.30664542,-0.026879631,0.018071033,1.1917043,-0.43134958
-0.2,0.10000000000000003,0.7,0.5235987755982988,0.5235987755982988,0,0.00066737784,1.4017832,0.6304985,0.024155555,0.4088773,1.0343086,-1.3068655,0.09677175,1.2962517,0.3977393,0.02310553,0.22702782,1.1071613,-0.4707625
-0.2,0.10000000000000003,0.7,0.5235987755982988,0.5235987755982988,0,0.0032924672,1.3988402,0.6459813,0.015874952,0.38808453,1.0449313,-1.447368,-0.77427423,1.315271,-0.42460093,-0.15639794,0.32287923,1.1326984,-0.3974277
-0.2,0.10000000000000003,0.7,0.5235987755982988,0.5235987755982988,0,0.0010725706,1.4087728,0.6247731,0.025827186,0.40035087,1.0202228,-1.5379336,-0.22546712,1.3224533,0.018648097,-0.050394893,0.0185312,1.2156917,0.30747834
-0.2,0.10000000000000003,0.7,0.5235987755982988,0.5235987755982988,0,-0.0014158799,1.4069,0.63614887,0.030142894,0.40471897,1.0241235,-1.3890469,0.9059808,1.2248864,0.44147822,-0.072243884,0.31658232,1.2541164,0.9288061
-0.2,0.10000000000000003,0.7,0.5235987755982988,0.5235987755982988,0,0.006359057,1.4032128,0.6337186,0.023668552,0.40148544,1.0369427,-1.2790967,1.0663481,1.3351617,0.22829336,-0.08559876,0.23513293,1.2596292,-0.7685941
-0.2,0.10000000000000003,0.7,0.5235987755982988,0.5235987755982988,0,0.0061991634,1.403805,0.63911873,0.021254119,0.42165598,1.0467856,-1.3886651,-0.19796523,1.1981256,0.34558418,-0.074813366,-0.09276797,0.9459715,0.5079989
-0.2,0.10000000000000003,0.7,0.5235987755982988,0.5235987755982988,0,0.0014945233,1.4069705,0.6354121,0.02296003,0.39551327,1.0490986,-1.4026688,0.2831409,1.3232815,0.32648218,-0.10371916,0.14753269,1.1449022,0.0003077338
-0.2,0.10000000000000003,0.7,0.5235987755982988,0.5235987755982988,0,0.007360291,1.401972,0.63850665,0.03482609,0.40028816,1.0371767,-1.516858,1.2746487,1.2785672,-0.051552888,-0.06851917,-0.030483961,1.1589637,0.2934719
-0.2,0.10000000000000003,0.7,0.5235987755982988,0.5235987755982988,0,0.008722263,1.4015468,0.64781183,0.019373503,0.40370697,1.0316404,-1.4508362,-0.069207825,1.2883836,-0.1252342,0.022513127,0.24648729,1.1725125,-0.9371205
-0.2,0.10000000000000003,0.7,0.5235987755982988,0.5235987755982988,0,0.0006067552,1.4036874,0.6355054,0.031779572,0.40574688,1.0153586,-1.4567343,0.0892942,1.2504288,0.40965247,-0.09198529,-0.113762245,1.2240663,0.7815705
-0.2,0.10000000000000003,0.7,0.5235987755982988,0.5235987755982988,0,0.0052121575,1.4075329,0.6454849,0.02320598,0.39969486,1.0239651,-1.494951,0.37798566,1.3857237,-0.19848,-0.103558846,0.1436594,1.0609462,0.5366965
-0.2,0.10000000000000003,0.7,0.5235987755982988,0.5235987755982988,0,0.004390655,1.4062418,0.63946915,0.023344504,0.39495388,1.0390599,-1.4836199,0.37703753,1.3147943,0.3058244,-0.022259146,0.1036108,1.1432643,0.20820743
-0.2,0.10000000000000003,0.7,0.5235987755982988,0.5235987755982988,0,0.0059909015,1.4070187,0.6439081,0.025553422,0.40834475,1.0312294,-1.4847438,0.54310924,1.4183319,-0.60956925,0.0897243,-0.07859667,1.0060446,1.1306365
-0.2,0.10000000000000003,0.7,0.5235987755982988,0.5235987755982988,0,0.004354973,1.4020059,0.6473485,0.033868007,0.39038876,1.0395521,-1.1454804,-0.51305395,1.131705,0.27225393,-0.21901195,0.26490673,1.1293728,-0.6618039
-0.2,0.10000000000000003,0.7,0.5235987755982988,0.5235987755982988,0,0.0009623453,1.4074596,0.63891834,0.034722958,0.40769666,1.0479045,-1.4475615,0.08372723,1.2099153,0.3823437,-0.16775803,-0.09476615,1.1956729,-0.5472769
-0.2,0.10000000000000003,0.7,0.5235987755982988,0.5235987755982988,0,0.004546428,1.4073082,0.6391835,0.030782714,0.39328414,1.040715,-1.4258585,-0.029762495,1.1838698,-0.04670835,-0.06942851,-0.13085617,1.3343129,-0.35762534
-0.2,0.10000000000000003,0.7,0.5235987755982988,0.5235987755982988,0,0.0014162331,1.4002485,0.6400569,0.025353024,0.40618417,1.0311424,-1.3881562,0.053495917,1.317862,-0.04492986,0.02908056,0.11987838,1.0271895,-0.20782954
-0.2,0.10000000000000003,0.7,0.5235987755982988,0.5235987755982988,0,0.0012756352,1.4058809,0.63630044,0.021617522,0.39956886,1.0316067,-1.4687814,0.67936045,1.3446796,0.10397342,-0.004829905,0.11284218,1.2190751,0.116156474
-0.2,0.10000000000000003,0.7,0.5235987755982988,0.5235987755982988,0,0.0029053888,1.3971926,0.63626343,0.0046441336,0.42225543,1.0423865,-1.447721,0.4471768,1.1473719,0.32460484,-0.08976805,0.26656187,1.210813,-0.012975599
-0.2,0.10000000000000003,0.7,0.5235987755982988,0.5235987755982988,0,0.0007962652,1.4040833,0.6392632,0.0017181411,0.40756586,1.0310249,-1.4095736,0.6094464,1.4717512,0.2801551,-0.03760112,0.46786022,1.3827137,0.2174595
-0.2,0.10000000000000003,0.7,0.5235987755982988,0.5235987755982988,0,0.0025143074,1.4053913,0.64089143,0.02967205,0.42381582,1.0197723,-1.433914,0.2948248,1.326492,-0.03978271,-0.0010604617,-0.0012453658,1.1569583,-0.30295628
-0.2,0.10000000000000003,0.7,0.5235987755982988,0.5235987755982988,0,0.008536831,1.404638,0.64912194,0.035128407,0.39463714,1.0287431,-1.3870523,-0.16073278,1.3602904,-0.089522734,-0.064739004,0.12571412,1.3351859,0.5193263
-0.2,0.10000000000000003,0.7,0.5235987755982988,0.5235987755982988,0,-0.0006548561,1.4044628,0.63553137,0.015301204,0.40999198,1.0302677,-1.3389843,-0.2133421,1.3702945,0.112601325,-0.06823862,0.23624374,1.1526722,-0.047269516
-0.2,0.10000000000000003,0.7,0.5235987755982988,0.5235987755982988,0,0.0049477587,1.4009458,0.62235355,0.021823864,0.39147568,1.0435017,-1.2147999,0.112151325,1.5993992,0.23444058,-0.11909809,-0.014499078,1.0525205,0.16195332
-0.2,0.10000000000000003,0.7,0.5235987755982988,0.5235987755982988,0,0.0043704947,1.4075896,0.6389701,0.031998597,0.40700424,1.034491,-1.4479985,0.1682016,1.2444675,0.559439,-0.09588535,0.1635539,1.3389958,0.2619612
-0.2,0.10000000000000003,0.7,0.5235987755982988,0.5235987755982988,0,0.002728375,1.3968029,0.64304405,0.016768882,0.4139868,1.0544983,-1.369207,-0.3056092,1.2448269,0.4382166,0.005200731,0.5105112,0.923957,-0.40078214
-0.2,0.10000000000000003,0.7,0.5235987755982988,0.5235987755982988,0,0.0029006458,1.3990647,0.6353458,0.020618908,0.4104585,1.0289651,-1.3296231,-0.33270353,1.5382978,0.01123322,-0.05517441,0.12751402,1.042744,0.20830666
-0.2,0.10000000000000003,0.7,0.5235987755982988,0.5235987755982988,0,0.0030184542,1.4056337,0.64261115,0.033840593,0.38754913,1.0288488,-1.3755314,1.1960524,1.3991545,0.078349724,-0.0745488,-0.1377655,1.0475453,0.2077754
-0.2,0.10000000000000003,0.7,0.5235987755982988,0.5235987755982988,0,0.0051432033,1.3991389,0.6388008,0.013134493,0.4046155,1.0365286,-1.4565421,0.5820696,1.3368155,0.092752375,0.009034775,0.2233521,0.9929263,-0.768143
-0.2,0.10000000000000003,0.7,0.5235987755982988,0.5235987755982988,0,0.005593507,1.3987983,0.64667124,0.018675689,0.4113678,1.0386844,-1.4741701,0.814452,1.4214809,0.24191502,-0.013433401,-0.15219097,0.9703303,-0.40364727
-0.2,0.10000000000000003,0.7,0.5235987755982988,0.5235987755982988,0,-0.0023249313,1.3976821,0.6394321,0.039228845,0.40498534,1.051046,-1.4229325,-0.040125173,1.3006338,0.084258385,0.1239321,-0.11972939,1.2031937,0.26684234
-0.2,0.10000000000000003,0.7,0.5235987755982988,0.5235987755982988,0,0.0022723912,1.4069381,0.6336625,0.035966754,0.4175667,1.0372269,-1.4160409,0.030460952,1.290014,0.29444283,-0.10372063,-0.061988365,1.2673903,0.14722179
-0.2,0.10000000000000003,0.7,0.5235987755982988,0.5235987755982988,0,0.006389057,1.4005733,0.64386994,0.011980347,0.40676597,1.024292,-1.5213528,0.02428828,1.3073878,-0.40795094,-0.099723674,0.02571245,1.1914372,0.89115185
-0.2,0.10000000000000003,0.7,0.5235987755982988,0.5235987755982988,0,0.0016041988,1.404709,0.63341844,0.019946251,0.40335947,1.0248183,-1.4572166,0.8505484,1.3915557,-0.0012846346,0.07172994,0.28904215,1.3417525,0.7116287
-0.2,0.10000000000000003,0.7,0.5235987755982988,0.5235987755982988,0,0.0029391535,1.4026365,0.6383768,0.022322675,0.3999041,1.0315677,-1.3753841,0.74530184,1.4336866,0.4764381,-0.08467212,0.23287457,1.06632,-0.27553713
-0.2,0.10000000000000003,0.7,0.5235987755982988,0.5235987755982988,0,-0.00062412623,1.3962401,0.6370722,0.030458856,0.38776386,1.0320423,-1.520867,0.7982067,1.3528244,0.051441453,0.06586841,0.06719301,0.856451,-0.4072474
-0.2,0.10000000000000003,0.7,0.5235987755982988,0.5235987755982988,0,0.0040702205,1.4079727,0.62693226,0.025419742,0.38968477,1.0324612,-1.358986,0.5057979,1.344255,0.22393644,0.0498075,0.1070432,0.94402915,0.17695345
-0.2,0.10000000000000003,0.7,0.5235987755982988,0.5235987755982988,0,0.0005961454,1.4073135,0.6324509,0.026606778,0.39557263,1.0395082,-1.3484799,0.43390042,1.4451827,0.45543385,-0.07096313,0.24100658,1.0931262,-0.33523327
-0.2,0.10000000000000003,0.7,0.5235987755982988,0.5235987755982988,0,0.0019075284,1.4016745,0.63474727,0.03151367,0.4100118,1.0364672,-1.4490455,0.23133592,1.0891731,-0.12373191,-0.04463205,0.11130442,1.2857852,0.34987018
-0.2,0.10000000000000003,0.7,0.5235987755982988,0.5235987755982988,0,0.0030742122,1.4016571,0.64289707,0.034586318,0.3869358,1.0318576,-1.3815645,0.27297568,1.4771967,0.5511373,-0.098063156,0.3720954,0.8372236,-1.1124489
-0.2,0.10000000000000003,0.7,0.5235987755982988,0.5235987755982988,0,0.003858163,1.4056112,0.635444,0.030409966,0.40988863,1.0457036,-1.465772,0.7276157,1.4078753,0.48814547,-0.057892185,-0.013714793,1.3035449,-0.6326508
-0.2,0.10000000000000003,0.7,0.5235987755982988,0.5235987755982988,0,0.0014765539,1.4029076,0.64007604,0.038366098,0.41054237,1.0424687,-1.3867028,1.0006479,1.3277255,0.15351512,-0.018679054,0.31412926,1.2418792,-0.12997814
-0.2,0.10000000000000003,0.7,0.5235987755982988,0.5235987755982988,0,0.003647244,1.4094498,0.6396316,0.03494054,0.41271183,1.0584507,-1.3782119,0.7180215,1.3372056,0.1316161,-0.043197718,0.1533027,0.9144809,-0.042827174
-0.2,0.10000000000000003,0.7,0.5235987755982988,0.5235987755982988,0,0.0048799133,1.4112748,0.6352057,0.033626515,0.4112925,1.0373069,-1.3647046,0.47679678,1.2230211,0.6106356,-0.054809954,0.23564479,1.2393391,0.30047068
-0.2,0.10000000000000003,0.7,0.5235987755982988,0.5235987755982988,0,0.0019160771,1.4094639,0.6353017,0.04214233,0.40502864,1.0371184,-1.4576646,0.050959647,1.1812792,0.075899616,-0.0547898,0.27802464,1.1255745,-0.3752396
-0.2,0.10000000000000003,0.7,0.5235987755982988,0.5235987755982988,0,0.0042074043,1.4126236,0.63675874,0.042303797,0.41913944,1.015494,-1.4220014,1.197989,1.2198929,0.5552276,-0.110522896,0.068040624,1.1635196,-0.11134455
-0.2,0.10000000000000003,0.7,0.5235987755982988,0.5235987755982988,0,0.0023699168,1.4096105,0.63121146,0.02391032,0.40775815,1.0292121,-1.3989325,-0.80010074,1.2681694,0.01794195,-0.030177781,-0.08979593,1.0251844,-0.3765042
-0.2,0.10000000000000003,0.7,0.5235987755982988,0.5235987755982988,0,0.004755156,1.4035208,0.63162094,0.0007893306,0.40799478,1.0402713,-1.3833628,-0.69312406,1.4566306,-0.3654742,-0.12167046,0.31518477,1.2198241,-0.6869751
-0.2,0.10000000000000003,0.7,0.5235987755982988,0.5235987755982988,0,0.0017741164,1.3998779,0.64278466,0.016774165,0.41866407,1.0182055,-1.3749471,-1.0885514,1.2075596,-0.34774902,-0.043585192,-0.011573441,0.98914117,0.24455215
-0.2,0.10000000000000003,0.7,0.5235987755982988,0.5235987755982988,0,-0.004312645,1.4012157,0.63593584,0.014704104,0.41313642,1.0500308,-1.4197408,-0.7274598,1.326949,-0.3649867,0.01940984,0.008378532,1.0683777,0.30490506
