sanky1234/BimanualDexCatch/isaacgymenvs/cem_results/football_pose_-0.1_-0.1_0.7_0.0_0.5235987755982988_0_2025-05-25.csv
x,y,z,roll,pitch,yaw,robot1/joint1,robot1/joint2,robot1/joint3,robot1/joint4,robot1/joint5,robot1/joint6,robot1/joint7,robot2/joint1,robot2/joint2,robot2/joint3,robot2/joint4,robot2/joint5,robot2/joint6,robot2/joint7
-0.1,-0.1,0.7,0.0,0.5235987755982988,0,-0.24931628,1.282964,-0.07907364,-0.10673054,0.15778145,1.1904854,-1.867401,0.12099015,1.2923212,-0.2307046,-0.01691064,-0.79983443,1.4051647,0.51304895
-0.1,-0.1,0.7,0.0,0.5235987755982988,0,0.7789201,1.3078736,-0.12513487,-0.09066792,-0.018072426,1.1931276,-0.14149472,0.12120186,1.2931541,-0.22758125,-0.01818735,-0.7986898,1.4006255,0.5191068
-0.1,-0.1,0.7,0.0,0.5235987755982988,0,-0.4685002,1.2782699,-0.2083895,-0.070980534,-0.009679683,1.2210792,-1.0975384,0.11916714,1.2929999,-0.22808702,-0.018451774,-0.80055,1.4043112,0.49011672
-0.1,-0.1,0.7,0.0,0.5235987755982988,0,-0.18375279,1.3527243,-0.16037463,-0.078334145,0.013223047,1.1776673,-0.28139576,0.12017993,1.2923846,-0.22776504,-0.017500706,-0.8000176,1.407951,0.48350433
-0.1,-0.1,0.7,0.0,0.5235987755982988,0,0.090717696,1.3033769,-0.1126377,-0.043291435,0.08073012,1.1943151,-0.059703305,0.120565794,1.2925799,-0.22693838,-0.018171787,-0.797184,1.4017885,0.5433492
-0.1,-0.1,0.7,0.0,0.5235987755982988,0,-0.7948892,1.3312145,-0.23170075,-0.07868024,0.0121077895,1.1611974,-0.06298849,0.11977027,1.2924392,-0.2293305,-0.018128391,-0.7981869,1.4101082,0.5298841
-0.1,-0.1,0.7,0.0,0.5235987755982988,0,-0.04676843,1.3603206,-0.044269186,-0.0654348,-0.17322016,1.1473029,-1.2668797,0.12056637,1.2919064,-0.22792748,-0.017300991,-0.7977694,1.4075562,0.54287493
-0.1,-0.1,0.7,0.0,0.5235987755982988,0,-0.3950152,1.3065134,-0.08093998,-0.085808046,-0.087041,1.182746,0.6382489,0.11920687,1.2924821,-0.2284844,-0.017847383,-0.79990214,1.4047856,0.5375763
-0.1,-0.1,0.7,0.0,0.5235987755982988,0,-0.4112229,1.3372039,0.046131983,-0.10206648,0.057674788,1.16215,-1.4389157,0.11993473,1.2934473,-0.22662883,-0.017424062,-0.8039703,1.4106214,0.48475298
-0.1,-0.1,0.7,0.0,0.5235987755982988,0,0.20891616,1.2871284,0.17181943,-0.102039,-0.09545343,1.1663226,0.35923976,0.11858341,1.2938875,-0.2297937,-0.016870761,-0.7970901,1.4067684,0.54130864
-0.1,-0.1,0.7,0.0,0.5235987755982988,0,-1.4271473,1.3193979,-0.20200779,-0.12550244,-0.013362564,1.2209077,-0.7489965,0.11850288,1.2926141,-0.22903837,-0.01826535,-0.8000521,1.4085386,0.5269977
-0.1,-0.1,0.7,0.0,0.5235987755982988,0,0.47592565,1.283714,-0.026603522,-0.08208379,-0.069109336,1.2164015,-0.70154744,0.12169291,1.2927815,-0.22651176,-0.016997674,-0.80119264,1.4149859,0.5176929
-0.1,-0.1,0.7,0.0,0.5235987755982988,0,0.14826186,1.2587707,-0.048988484,-0.063250795,-0.021659207,1.2261254,-0.55831784,0.12058816,1.2936683,-0.22902913,-0.018362027,-0.80029637,1.4039931,0.48695835
-0.1,-0.1,0.7,0.0,0.5235987755982988,0,-0.73581576,1.2779232,-0.03744144,-0.049162935,0.08542549,1.240842,-0.8461294,0.11942452,1.2905318,-0.22660021,-0.017044542,-0.79747784,1.4063313,0.52180225
-0.1,-0.1,0.7,0.0,0.5235987755982988,0,-0.20162112,1.2808883,-0.0109327445,-0.03181623,0.014654728,1.173093,-0.89015543,0.11892573,1.2919271,-0.22715037,-0.018229716,-0.79836243,1.412398,0.504018
-0.1,-0.1,0.7,0.0,0.5235987755982988,0,-0.4739833,1.3068999,-0.123849876,-0.069585755,-0.08591058,1.1744611,-0.16328144,0.12029356,1.2935765,-0.2278436,-0.017631663,-0.8028669,1.4053296,0.49156857
-0.1,-0.1,0.7,0.0,0.5235987755982988,0,0.1400032,1.326454,-0.01592342,-0.08960856,0.035132926,1.2156907,0.07258658,0.11971816,1.2933311,-0.2294793,-0.017386347,-0.8019513,1.4125341,0.59221375
-0.1,-0.1,0.7,0.0,0.5235987755982988,0,-0.6321527,1.3095057,-0.19657378,-0.070507124,0.041637037,1.1958407,-1.394216,0.11868477,1.2921158,-0.22857633,-0.017528024,-0.7999708,1.4083617,0.563569
-0.1,-0.1,0.7,0.0,0.5235987755982988,0,0.3110498,1.2805591,0.00409591,-0.04367806,-0.18294579,1.1991621,-0.3878511,0.11960284,1.292646,-0.23109975,-0.017646497,-0.79855543,1.4056935,0.5278174
-0.1,-0.1,0.7,0.0,0.5235987755982988,0,-0.15626408,1.3209196,-0.26306108,-0.068415366,0.051881097,1.2489463,-0.686386,0.118918836,1.2930372,-0.22924642,-0.017468467,-0.80075485,1.4117428,0.49548706
-0.1,-0.1,0.7,0.0,0.5235987755982988,0,0.054647934,1.3486434,0.114727065,-0.08559333,0.03696111,1.1793222,0.30564743,0.119010225,1.2929829,-0.22777729,-0.017989296,-0.79694664,1.3982817,0.543602
-0.1,-0.1,0.7,0.0,0.5235987755982988,0,0.095323056,1.2768351,-0.025792738,-0.1239901,0.06988431,1.216259,-0.794612,0.119296186,1.2924697,-0.22633491,-0.017494485,-0.7999007,1.4112562,0.48747215
-0.1,-0.1,0.7,0.0,0.5235987755982988,0,0.31194386,1.3174874,-0.053156044,-0.07948012,0.005497233,1.2029566,-0.43996233,0.11980055,1.2932818,-0.22676128,-0.017811125,-0.8011107,1.4191655,0.5357255
-0.1,-0.1,0.7,0.0,0.5235987755982988,0,-0.0051299282,1.2795672,-0.052225824,-0.12553792,0.020564746,1.1749048,-0.42770335,0.119677804,1.2929282,-0.2269775,-0.01792483,-0.8017799,1.4193836,0.56205195
-0.1,-0.1,0.7,0.0,0.5235987755982988,0,0.07692771,1.2582812,-0.28553587,-0.04536749,0.092209145,1.1896175,-0.20190355,0.12080428,1.2939031,-0.22865646,-0.016687986,-0.7993944,1.4108447,0.5149565
-0.1,-0.1,0.7,0.0,0.5235987755982988,0,-0.6077933,1.2554253,-0.0063808286,-0.098734185,-0.018099967,1.1521412,-1.278113,0.119884916,1.2933837,-0.22762968,-0.017943053,-0.79897445,1.3996725,0.50749904
-0.1,-0.1,0.7,0.0,0.5235987755982988,0,-0.46486303,1.2406181,-0.06261185,-0.1063682,-0.02143706,1.2196164,-0.8056699,0.119389385,1.2943985,-0.22735284,-0.018456403,-0.80168325,1.4100164,0.48600844
-0.1,-0.1,0.7,0.0,0.5235987755982988,0,-0.5560977,1.3430927,-0.19719931,0.024915678,0.061905567,1.1596838,0.44069728,0.12026221,1.2935752,-0.2300469,-0.017442942,-0.79821754,1.4148741,0.5390832
-0.1,-0.1,0.7,0.0,0.5235987755982988,0,-0.024294915,1.2549874,-0.03231162,-0.074885085,0.037464686,1.1998699,-1.0131118,0.12122573,1.2936049,-0.22720852,-0.018437523,-0.7999382,1.4084204,0.55080485
-0.1,-0.1,0.7,0.0,0.5235987755982988,0,0.36178404,1.2672716,-0.04227433,-0.077488266,0.10172918,1.2135208,-0.174274,0.11997286,1.293172,-0.22916716,-0.017404059,-0.80245364,1.4138782,0.5234128
-0.1,-0.1,0.7,0.0,0.5235987755982988,0,0.38917542,1.323795,-0.04825726,-0.04743042,0.02753527,1.1661147,-0.6631891,0.120003134,1.2916948,-0.22530562,-0.017636886,-0.797183,1.4127513,0.56558675
-0.1,-0.1,0.7,0.0,0.5235987755982988,0,0.5888431,1.2716753,-0.313538,-0.09051228,0.114295185,1.1909794,0.16947843,0.11921988,1.2947875,-0.22868177,-0.017815895,-0.7991309,1.4036821,0.54673475
-0.1,-0.1,0.7,0.0,0.5235987755982988,0,-0.54860055,1.3010088,-0.07566363,-0.029435,-0.018486442,1.237931,-0.5427666,0.116117105,1.293072,-0.22668675,-0.019111367,-0.79992163,1.4147754,0.5369054
-0.1,-0.1,0.7,0.0,0.5235987755982988,0,-0.17352909,1.280011,-0.019844867,-0.043762904,-0.16167052,1.1830616,-0.90290886,0.119968385,1.2928733,-0.22966036,-0.017639346,-0.7982171,1.4017961,0.483755
-0.1,-0.1,0.7,0.0,0.5235987755982988,0,0.5938435,1.3534398,-0.021165885,-0.040935908,-0.09393697,1.18738,0.04718581,0.11966364,1.293133,-0.22905885,-0.017718235,-0.7994135,1.4016697,0.5085201
-0.1,-0.1,0.7,0.0,0.5235987755982988,0,0.3485246,1.2612212,-0.013939657,-0.08597056,0.058719885,1.2018968,-0.20722161,0.12146496,1.2925873,-0.22932829,-0.017268188,-0.798802,1.4180095,0.5295706
-0.1,-0.1,0.7,0.0,0.5235987755982988,0,-0.5462327,1.3041145,-0.20585777,-0.0298708,0.007618267,1.2014549,-0.9267694,0.12248288,1.2927519,-0.22564554,-0.01772536,-0.79828286,1.4145541,0.5514271
-0.1,-0.1,0.7,0.0,0.5235987755982988,0,-0.49393794,1.2961498,-0.2506879,-0.08331271,0.024603631,1.14339,0.19855337,0.11922992,1.2944582,-0.22626689,-0.01831737,-0.7998109,1.4053667,0.5367762
-0.1,-0.1,0.7,0.0,0.5235987755982988,0,-0.03335087,1.3105878,-0.13749135,-0.09261527,-0.050893065,1.2229977,-0.93239284,0.12119056,1.292516,-0.22872782,-0.017709209,-0.7978619,1.4067565,0.5537944
-0.1,-0.1,0.7,0.0,0.5235987755982988,0,-0.87878954,1.276115,0.04770725,-0.049680993,0.063475035,1.2158566,-0.52698743,0.11943264,1.2927856,-0.22937214,-0.018210882,-0.7976389,1.4026433,0.48429877
-0.1,-0.1,0.7,0.0,0.5235987755982988,0,0.7060095,1.3407398,-0.12945628,-0.095306955,0.07485341,1.1694735,0.3630659,0.120597556,1.2931361,-0.23013666,-0.017098341,-0.8003837,1.4068404,0.48800537
-0.1,-0.1,0.7,0.0,0.5235987755982988,0,-0.6507815,1.3281031,-0.0804872,-0.0972394,0.17707926,1.2027749,-1.3697209,0.11865879,1.2929022,-0.22855729,-0.01781844,-0.8001068,1.4052893,0.5486419
-0.1,-0.1,0.7,0.0,0.5235987755982988,0,0.15876338,1.3463321,-0.15596148,-0.061931442,-0.13027607,1.2247831,-0.3805669,0.11890981,1.2940109,-0.2283874,-0.018694093,-0.7985361,1.4067788,0.5351592
-0.1,-0.1,0.7,0.0,0.5235987755982988,0,-0.12351382,1.2868891,-0.23773909,-0.08021038,0.09248511,1.1933296,-0.83608913,0.1196825,1.2914053,-0.22800967,-0.01675827,-0.798436,1.4066046,0.5207501
-0.1,-0.1,0.7,0.0,0.5235987755982988,0,-0.09388438,1.3863277,-0.09396723,-0.06274578,-0.07486733,1.1824759,-0.815705,0.12021701,1.292641,-0.22863375,-0.017876841,-0.7975797,1.4085974,0.56739736
-0.1,-0.1,0.7,0.0,0.5235987755982988,0,-0.15826097,1.2523068,0.30253735,-0.11898614,-0.14021958,1.2070998,-0.7922689,0.119627014,1.2924474,-0.22851853,-0.017830726,-0.7976317,1.4137521,0.54848474
-0.1,-0.1,0.7,0.0,0.5235987755982988,0,0.6625477,1.2667867,-0.23625794,-0.054562945,-0.09604293,1.2180239,0.5850647,0.119374424,1.29514,-0.22930239,-0.018167984,-0.8009494,1.4047457,0.5538275
-0.1,-0.1,0.7,0.0,0.5235987755982988,0,-0.8816563,1.1826533,-0.14788516,-0.087375514,-0.163813,1.1409087,-0.7218853,0.11837652,1.2926768,-0.22601506,-0.016626395,-0.8009526,1.404533,0.5687296
-0.1,-0.1,0.7,0.0,0.5235987755982988,0,-0.16927512,1.3186028,0.09009918,-0.06399971,-0.015764862,1.1770059,0.15650332,0.11672267,1.2923335,-0.22787334,-0.017935608,-0.79985815,1.4014844,0.52987385
-0.1,-0.1,0.7,0.0,0.5235987755982988,0,-0.54006785,1.2860979,-0.19141936,-0.07271825,0.050461043,1.214843,-0.40808994,0.12078313,1.2933388,-0.22750024,-0.01770218,-0.80114824,1.4125577,0.5401155
-0.1,-0.1,0.7,0.0,0.5235987755982988,0,-1.2230973,1.2700757,-0.19343802,-0.09388582,0.067683645,1.1399132,-1.5089687,0.11901325,1.2942355,-0.22923958,-0.018397192,-0.7991064,1.4230725,0.52910376
-0.1,-0.1,0.7,0.0,0.5235987755982988,0,-0.8497428,1.3767812,-0.23178852,-0.12175588,-0.005166014,1.2143687,-0.768568,0.11777511,1.2935473,-0.22740744,-0.018262379,-0.7941185,1.4162705,0.49711955
-0.1,-0.1,0.7,0.0,0.5235987755982988,0,-1.0673316,1.3326669,0.07525881,-0.07981279,-0.25628406,1.2508643,0.17292328,0.12230721,1.2936131,-0.22924149,-0.01717984,-0.80021316,1.4063115,0.5256086
-0.1,-0.1,0.7,0.0,0.5235987755982988,0,-0.47563505,1.2349141,0.014058565,-0.09547189,0.08366363,1.2194531,-1.5260667,0.119513564,1.2953333,-0.22940809,-0.017900746,-0.7992887,1.4151882,0.54514694
-0.1,-0.1,0.7,0.0,0.5235987755982988,0,-1.5437206,1.3281884,-0.2781857,-0.05167222,-0.03831081,1.254339,0.8485441,0.1210799,1.2934589,-0.2287332,-0.017882213,-0.79749256,1.3970467,0.53528816
-0.1,-0.1,0.7,0.0,0.5235987755982988,0,-0.2728384,1.2943429,-0.039548423,-0.09434682,-0.10354757,1.1880374,0.76350117,0.12148399,1.2938402,-0.22887091,-0.017856678,-0.7994514,1.4042928,0.5425871
-0.1,-0.1,0.7,0.0,0.5235987755982988,0,0.06053462,1.2970046,0.02786218,-0.09785559,-0.07958725,1.2565984,-0.6266712,0.12046075,1.2926328,-0.22746797,-0.017608022,-0.7995506,1.4117944,0.5214504
-0.1,-0.1,0.7,0.0,0.5235987755982988,0,0.4534932,1.3947909,-0.1711293,-0.08468865,-0.003445022,1.1728001,-0.8195,0.11779375,1.2919745,-0.22796884,-0.017588083,-0.7997807,1.4196022,0.5190422
-0.1,-0.1,0.7,0.0,0.5235987755982988,0,-0.34283617,1.2647382,-0.1539289,-0.047549345,-0.09300299,1.2430006,-0.6988315,0.119564034,1.2939788,-0.22681946,-0.017598923,-0.8012686,1.4038684,0.50329274
-0.1,-0.1,0.7,0.0,0.5235987755982988,0,0.23469403,1.3102596,0.11871386,-0.108378395,0.12329357,1.169455,-0.61310846,0.11952879,1.2933067,-0.22825986,-0.017736059,-0.7972745,1.4133692,0.5021192
-0.1,-0.1,0.7,0.0,0.5235987755982988,0,0.14184554,1.2525184,0.17831431,-0.10261241,-0.06870979,1.1550603,-0.9711183,0.120868355,1.2931534,-0.22875088,-0.01641642,-0.7996967,1.4127654,0.52300006
-0.1,-0.1,0.7,0.0,0.5235987755982988,0,-0.8294009,1.2794372,0.041609973,-0.049350955,0.08255232,1.2071717,-0.83721095,0.11975037,1.2931042,-0.22916777,-0.017385425,-0.8004368,1.4056365,0.49207544
-0.1,-0.1,0.7,0.0,0.5235987755982988,0,-0.042437382,1.3199247,-0.18115552,-0.10735535,0.07840061,1.2214026,-0.35329685,0.11925083,1.2932038,-0.22823827,-0.017826244,-0.7986353,1.4095858,0.5532665
-0.1,-0.1,0.7,0.0,0.5235987755982988,0,0.22039595,1.3847003,-0.031718284,-0.07889499,0.012281969,1.1995203,-0.39921668,0.116521165,1.2945975,-0.22992474,-0.018062493,-0.79798794,1.4045725,0.54275024
-0.1,-0.1,0.7,0.0,0.5235987755982988,0,-0.3744216,1.2908477,-0.06287283,-0.0509406,-0.0039385767,1.1774912,-2.0192811,0.11739329,1.2928145,-0.22914189,-0.017387066,-0.80215895,1.4132916,0.54016733
-0.1,-0.1,0.7,0.0,0.5235987755982988,0,0.027276287,1.3249182,-0.113676,-0.071967736,-0.14947848,1.1799228,0.28879264,0.11788073,1.2936313,-0.22866033,-0.01821984,-0.7999807,1.4123864,0.51423794
-0.1,-0.1,0.7,0.0,0.5235987755982988,0,0.18882094,1.2942373,-0.102570936,-0.06984377,0.0010120269,1.1623112,-0.33232757,0.11689027,1.2933277,-0.22961703,-0.01743822,-0.7993118,1.4066192,0.5417547
-0.1,-0.1,0.7,0.0,0.5235987755982988,0,0.73858565,1.3395841,-0.41398892,-0.07441798,-0.0008566135,1.2167556,-0.23783989,0.118172884,1.2933794,-0.22987297,-0.01781706,-0.7984013,1.4091704,0.51458704
-0.1,-0.1,0.7,0.0,0.5235987755982988,0,-0.58259493,1.3469592,-0.27589035,-0.12371721,0.10151017,1.1903929,-0.95059806,0.11627085,1.2928805,-0.23051569,-0.017542122,-0.8006697,1.4090272,0.53995943
-0.1,-0.1,0.7,0.0,0.5235987755982988,0,-0.15014037,1.2718589,-0.08443117,-0.03642106,0.17967084,1.1772277,-0.58774674,0.11954875,1.2929053,-0.2279739,-0.01665852,-0.7976675,1.4156283,0.5676773
-0.1,-0.1,0.7,0.0,0.5235987755982988,0,0.11056847,1.3237953,-0.016264673,-0.09723896,-0.14245152,1.1970155,-0.95530707,0.12067153,1.2952566,-0.22734407,-0.017750917,-0.79994375,1.413778,0.5388078
-0.1,-0.1,0.7,0.0,0.5235987755982988,0,-0.04876248,1.2784276,0.051689092,-0.104885414,-0.098032966,1.1954093,-1.1597666,0.12000575,1.2930287,-0.2272619,-0.017728627,-0.7991106,1.4050367,0.5457361
-0.1,-0.1,0.7,0.0,0.5235987755982988,0,-1.2696294,1.331581,-0.10284881,-0.064039566,-0.027436715,1.1865151,-0.30815253,0.11971829,1.292355,-0.23116878,-0.016969165,-0.79832023,1.4136349,0.55962265
-0.1,-0.1,0.7,0.0,0.5235987755982988,0,0.28913757,1.3090874,-0.25725606,-0.09675454,-0.013880856,1.1746944,-0.6781628,0.117871456,1.2931296,-0.22685727,-0.018276213,-0.8010193,1.4164256,0.5073697
-0.1,-0.1,0.7,0.0,0.5235987755982988,0,-0.4291605,1.3181812,0.055794407,-0.057571992,-0.20376602,1.1783053,-1.0978526,0.119629055,1.2932183,-0.22967096,-0.016556138,-0.79889464,1.4175516,0.48207054
-0.1,-0.1,0.7,0.0,0.5235987755982988,0,-1.1850277,1.2424492,-0.15735982,-0.062294826,0.034858264,1.2189268,-0.6122392,0.11866237,1.2935759,-0.23017369,-0.018171247,-0.8003825,1.4186394,0.49138358
-0.1,-0.1,0.7,0.0,0.5235987755982988,0,-0.07,1.1761429,-0.23567484,-0.0491857,-0.03182259,1.1642774,-0.02460782,0.11833419,1.2941958,-0.23007908,-0.017364923,-0.79930055,1.4038166,0.53494495
-0.1,-0.1,0.7,0.0,0.5235987755982988,0,0.5942562,1.360239,-0.12581965,-0.09811344,0.039780606,1.1890372,-1.0001222,0.11843004,1.2942166,-0.22867745,-0.017849082,-0.8010412,1.4121618,0.5707591
-0.1,-0.1,0.7,0.0,0.5235987755982988,0,0.18637437,1.2815766,-0.18599328,-0.06107969,-0.0011298592,1.1669115,-0.85033774,0.12015964,1.2929994,-0.22774675,-0.017416254,-0.80005723,1.4203176,0.5277537
-0.1,-0.1,0.7,0.0,0.5235987755982988,0,-0.11024766,1.317669,0.048621934,-0.04525447,-0.0143247545,1.1940665,-0.06590234,0.11899565,1.2925222,-0.22958487,-0.017327935,-0.7991626,1.4117951,0.52470237
-0.1,-0.1,0.7,0.0,0.5235987755982988,0,-0.20883599,1.3332901,-0.04588209,-0.14072691,0.0413761,1.1533633,0.0032731264,0.1185187,1.2937478,-0.22790872,-0.01739055,-0.7990467,1.4042608,0.53206956
-0.1,-0.1,0.7,0.0,0.5235987755982988,0,0.06845709,1.3073285,-0.33462778,-0.08747572,0.03600951,1.2534827,0.44425327,0.11828592,1.2932206,-0.22736906,-0.017788518,-0.8002974,1.4163055,0.5553816
-0.1,-0.1,0.7,0.0,0.5235987755982988,0,-0.13436157,1.2269621,-0.23328075,-0.039812002,-0.12641445,1.2051241,-0.022529146,0.119660795,1.2943578,-0.22709244,-0.018142836,-0.79649943,1.414448,0.56672645
-0.1,-0.1,0.7,0.0,0.5235987755982988,0,0.76610273,1.349656,-0.18046212,-0.1288952,-0.21046066,1.18297,-0.7103413,0.11814797,1.2934554,-0.22878939,-0.017059036,-0.800467,1.407922,0.5195391
-0.1,-0.1,0.7,0.0,0.5235987755982988,0,-0.007285694,1.3217872,-0.15168713,-0.0835643,-0.07276722,1.2150906,0.28656274,0.11892444,1.2930956,-0.22737718,-0.017771754,-0.8008676,1.4183071,0.51528203
-0.1,-0.1,0.7,0.0,0.5235987755982988,0,-0.79241604,1.2770222,-0.114876695,-0.11294202,-0.09134682,1.1637534,-0.9367566,0.116676226,1.2930995,-0.22740024,-0.017469464,-0.7998503,1.406698,0.5179127
-0.1,-0.1,0.7,0.0,0.5235987755982988,0,0.1835218,1.333139,-0.0874736,-0.16120324,0.018987684,1.1944381,-0.5579682,0.120742135,1.2936207,-0.22703288,-0.016603177,-0.79861104,1.404969,0.53006625
-0.1,-0.1,0.7,0.0,0.5235987755982988,0,-0.8830317,1.3034762,-0.08549148,-0.062707365,0.111616865,1.1302005,-0.281008,0.12084805,1.2939852,-0.22941878,-0.018026017,-0.79917616,1.4136658,0.524122
-0.1,-0.1,0.7,0.0,0.5235987755982988,0,-0.25613678,1.2618747,-0.009484971,-0.046693623,0.019258749,1.1163806,-0.44733474,0.1196853,1.2924857,-0.22815849,-0.017033478,-0.7952551,1.4086494,0.50004977
-0.1,-0.1,0.7,0.0,0.5235987755982988,0,-0.57965446,1.3669922,0.077068165,-0.06984805,0.1346337,1.1610154,-0.18634833,0.119724035,1.2928779,-0.23020874,-0.017189212,-0.79929453,1.4149303,0.53176254
-0.1,-0.1,0.7,0.0,0.5235987755982988,0,-0.11152108,1.3379407,-0.010532159,-0.09086597,0.06362015,1.2018173,-1.253907,0.119028255,1.2939538,-0.22929804,-0.018646028,-0.7995366,1.4213014,0.5148889
-0.1,-0.1,0.7,0.0,0.5235987755982988,0,0.020485612,1.3153892,-0.10219865,-0.07796879,-0.056531288,1.1658103,-0.062288787,0.11996747,1.293485,-0.22764085,-0.016774056,-0.8032927,1.4132382,0.5026712
-0.1,-0.1,0.7,0.0,0.5235987755982988,0,0.5292838,1.3592765,-0.25528875,-0.10804821,-0.11380052,1.1795542,-0.4748268,0.119981915,1.2942652,-0.22859353,-0.01806452,-0.7957002,1.4176865,0.5196074
-0.1,-0.1,0.7,0.0,0.5235987755982988,0,0.0112526,1.2841907,-0.15756236,-0.070306815,-0.0519338,1.1870135,-0.6063093,0.119573474,1.2926314,-0.22868425,-0.017878056,-0.79704005,1.4108399,0.50486183
-0.1,-0.1,0.7,0.0,0.5235987755982988,0,-0.6318956,1.3362604,-0.16104966,-0.024793122,0.1389572,1.251387,-1.2444507,0.12243398,1.2936689,-0.22910753,-0.016771497,-0.7992943,1.4116886,0.5381513
-0.1,-0.1,0.7,0.0,0.5235987755982988,0,-0.22374308,1.3496852,-0.18119217,-0.11003705,0.089180715,1.168243,0.44838795,0.118140146,1.2933578,-0.22807032,-0.017747993,-0.8013182,1.416608,0.5033527
-0.1,-0.1,0.7,0.0,0.5235987755982988,0,0.44815162,1.3000166,-0.1816192,-0.058311712,-0.15123957,1.2066423,-0.73189527,0.121191144,1.2945459,-0.22880727,-0.017097203,-0.8000983,1.4084347,0.5035523
-0.1,-0.1,0.7,0.0,0.5235987755982988,0,-0.6218531,1.2637547,-0.24725686,-0.06724036,-0.20943646,1.245349,-1.8336984,0.11810937,1.2918575,-0.22706735,-0.017438948,-0.79871154,1.415344,0.51789725
-0.1,-0.1,0.7,0.0,0.5235987755982988,0,-0.34927377,1.3058103,-0.119554594,-0.122068055,-0.11688955,1.177805,-0.70228565,0.12029297,1.2941537,-0.22987117,-0.017259374,-0.79820526,1.4163326,0.52484
-0.1,-0.1,0.7,0.0,0.5235987755982988,0,-0.2238082,1.2704445,-0.0772383,-0.065405674,0.03954127,1.1503583,-0.85163647,0.11786067,1.2933052,-0.22823289,-0.018409964,-0.79958117,1.421553,0.50467443
-0.1,-0.1,0.7,0.0,0.5235987755982988,0,-0.19336072,1.2324294,-0.28155437,-0.08088497,0.03949994,1.1851534,0.14432243,0.11884698,1.2937132,-0.22830592,-0.018356644,-0.79763055,1.4064355,0.5594248
-0.1,-0.1,0.7,0.0,0.5235987755982988,0,-0.964818,1.2660257,-0.18253586,-0.0480569,-0.098625004,1.2351896,-0.92670846,0.120645456,1.29429,-0.2294519,-0.017530499,-0.80136985,1.4092214,0.5563233
-0.1,-0.1,0.7,0.0,0.5235987755982988,0,-1.3845239,1.2994287,-0.009302241,-0.06865874,-0.18858169,1.181234,-0.45067126,0.11898971,1.2923394,-0.22872604,-0.017454764,-0.7960185,1.4113852,0.4983295
-0.1,-0.1,0.7,0.0,0.5235987755982988,0,-0.144345,1.3067836,-0.04207961,-0.09808086,0.12770307,1.1507239,0.38529122,0.11958415,1.293176,-0.22958528,-0.016652033,-0.79903376,1.4063696,0.49224696
-0.1,-0.1,0.7,0.0,0.5235987755982988,0,0.051902458,1.405967,-0.22398156,-0.02473436,0.1749306,1.2451017,-1.3357071,0.118592404,1.2947274,-0.22769539,-0.017174272,-0.79718333,1.4068242,0.53602946
-0.1,-0.1,0.7,0.0,0.5235987755982988,0,-0.5968114,1.2836654,-0.09374398,-0.035702877,0.040973313,1.185431,-0.39335507,0.12023047,1.293112,-0.22633508,-0.017448988,-0.7997685,1.4106472,0.504024
-0.1,-0.1,0.7,0.0,0.5235987755982988,0,-0.6392449,1.3025682,0.10723617,-0.10146809,-0.013799094,1.1749167,0.3353164,0.119115904,1.2920569,-0.22866431,-0.016686704,-0.7975112,1.413395,0.5277873
-0.1,-0.1,0.7,0.0,0.5235987755982988,0,-0.057487693,1.3045881,-0.035059858,-0.042120405,0.007391542,1.2010592,-0.85467577,0.12043646,1.2925254,-0.22810467,-0.017147262,-0.79883254,1.4149972,0.51524425
-0.1,-0.1,0.7,0.0,0.5235987755982988,0,0.030176882,1.3019474,-0.18701759,-0.13652503,0.1968303,1.2350018,-1.6631874,0.11799433,1.2937547,-0.22857046,-0.017281733,-0.8020187,1.4113686,0.5792842
-0.1,-0.1,0.7,0.0,0.5235987755982988,0,-0.31481162,1.3135656,0.005507849,-0.08517342,-0.21768242,1.2132783,-0.70584905,0.119366266,1.29403,-0.22984073,-0.017110273,-0.8006423,1.4058306,0.50525427
-0.1,-0.1,0.7,0.0,0.5235987755982988,0,0.38323346,1.3191824,-0.22554804,-0.10910459,0.0079136025,1.2515146,-1.9056633,0.11838101,1.2927102,-0.23015893,-0.01719448,-0.7999543,1.414463,0.55560136
-0.1,-0.1,0.7,0.0,0.5235987755982988,0,-0.7267142,1.3455077,-0.19135976,-0.07694819,-0.091966376,1.171966,-0.46958712,0.11723433,1.2944318,-0.22709234,-0.018859077,-0.79932094,1.4141055,0.54159236
-0.1,-0.1,0.7,0.0,0.5235987755982988,0,0.5596362,1.28595,0.0014185122,-0.064669035,-0.022024838,1.1720481,-0.23200415,0.11820309,1.2929648,-0.23099011,-0.017963711,-0.797644,1.4140896,0.5668987
-0.1,-0.1,0.7,0.0,0.5235987755982988,0,-0.7943882,1.291457,-0.041335028,-0.08243221,0.044117175,1.2124326,-1.306576,0.11939311,1.2935163,-0.22832973,-0.017798038,-0.80061316,1.4139191,0.5278342
-0.1,-0.1,0.7,0.0,0.5235987755982988,0,-0.49304974,1.3002567,0.066977106,-0.05789184,-0.16028453,1.1694221,0.4787817,0.11721102,1.2936392,-0.22788978,-0.01780616,-0.80050814,1.4096807,0.5589774
-0.1,-0.1,0.7,0.0,0.5235987755982988,0,-0.42948195,1.3753452,-0.09077768,-0.018607834,-0.13564868,1.2153215,-0.5186369,0.1194093,1.293298,-0.2283736,-0.017267305,-0.7972453,1.4120038,0.5342056
-0.1,-0.1,0.7,0.0,0.5235987755982988,0,-0.09634368,1.347065,0.0065210154,-0.07625835,-0.1727292,1.2126113,-1.0040164,0.11973572,1.2939882,-0.23001939,-0.017082283,-0.7983598,1.4171724,0.5408443
-0.1,-0.1,0.7,0.0,0.5235987755982988,0,-0.6595208,1.3360462,0.092975274,-0.12579791,0.05312929,1.2188079,0.62466216,0.11857652,1.2935404,-0.22881901,-0.017693246,-0.80020285,1.4086972,0.5113627
-0.1,-0.1,0.7,0.0,0.5235987755982988,0,-0.629859,1.3254206,0.019229392,-0.037147533,-0.1523336,1.1843905,-1.2406844,0.11820799,1.2926711,-0.22944663,-0.017384911,-0.79926205,1.4149727,0.5359794
-0.1,-0.1,0.7,0.0,0.5235987755982988,0,0.470114,1.3041997,-0.10474301,-0.05021905,-0.09264381,1.1682208,-1.9453022,0.1194102,1.2939974,-0.22879294,-0.017760266,-0.79983926,1.4133048,0.51194084
-0.1,-0.1,0.7,0.0,0.5235987755982988,0,-1.2434653,1.2847568,0.010285364,-0.054683898,0.062447958,1.1904727,1.1139665,0.11880291,1.2931483,-0.22834139,-0.017094975,-0.8003956,1.4066544,0.56639653
-0.1,-0.1,0.7,0.0,0.5235987755982988,0,0.2227896,1.3247925,-0.048124142,-0.05704493,0.044641055,1.224725,-0.2831651,0.11816185,1.2936119,-0.22907932,-0.01714758,-0.80154085,1.4113097,0.5001529
-0.1,-0.1,0.7,0.0,0.5235987755982988,0,0.40163362,1.2799098,0.080374144,-0.1582362,0.107989125,1.2148689,-0.627029,0.11851912,1.2932775,-0.22659455,-0.017538859,-0.7966203,1.4081361,0.5016287
-0.1,-0.1,0.7,0.0,0.5235987755982988,0,-0.03064985,1.2926272,-0.13056776,-0.0844957,0.06456041,1.1866256,-0.59523433,0.11863376,1.2938614,-0.22765206,-0.01774955,-0.7993051,1.4109676,0.54179054
-0.1,-0.1,0.7,0.0,0.5235987755982988,0,-0.30422002,1.2053361,-0.11251102,-0.083175085,-0.059437487,1.2263849,-0.30456352,0.11830163,1.293311,-0.22607127,-0.018166618,-0.7985289,1.4071622,0.5503383
-0.1,-0.1,0.7,0.0,0.5235987755982988,0,0.8417313,1.3175805,-0.039556745,-0.09136264,0.067425646,1.1768509,-0.86576587,0.11753303,1.2940474,-0.22968838,-0.01739106,-0.79908097,1.4060327,0.52948403
-0.1,-0.1,0.7,0.0,0.5235987755982988,0,-0.7353603,1.3234112,-0.062048763,-0.07345322,-0.1274107,1.2037494,-0.3036712,0.12031902,1.2925752,-0.22896808,-0.016779995,-0.79789567,1.4126563,0.5367658
-0.1,-0.1,0.7,0.0,0.5235987755982988,0,0.57859844,1.2757075,0.02900582,-0.059008677,-0.1365317,1.1993555,-1.0725253,0.12118752,1.2941437,-0.22977269,-0.018189419,-0.7967305,1.4120004,0.5248851
-0.1,-0.1,0.7,0.0,0.5235987755982988,0,0.14285488,1.2792643,-0.18360367,-0.040707048,0.08123331,1.2403146,-0.514309,0.117431074,1.2938358,-0.22871636,-0.016679091,-0.8008549,1.4061499,0.52526146
-0.1,-0.1,0.7,0.0,0.5235987755982988,0,0.2385687,1.3184385,-0.15722097,-0.10820918,-0.14283586,1.2096925,-0.79189366,0.11808241,1.2959294,-0.22944535,-0.018669458,-0.80056965,1.4043894,0.54391533
-0.1,-0.1,0.7,0.0,0.5235987755982988,0,-1.3436122,1.2766504,-0.33140007,-0.09020333,0.050670873,1.2106261,-1.3424841,0.1177176,1.2936168,-0.22576806,-0.017243903,-0.7985564,1.415948,0.53250074
-0.1,-0.1,0.7,0.0,0.5235987755982988,0,-0.76121175,1.2789612,-0.03335955,-0.08421557,0.006861013,1.1466326,0.07295486,0.11893869,1.294242,-0.22866374,-0.017570298,-0.79589456,1.4036368,0.53259224
-0.1,-0.1,0.7,0.0,0.5235987755982988,0,-1.3559144,1.2399261,-0.12683624,-0.07611187,-0.0017736615,1.2316585,0.10835798,0.11806692,1.2930963,-0.22585103,-0.017491853,-0.79827195,1.4092034,0.5213928
-0.1,-0.1,0.7,0.0,0.5235987755982988,0,0.5643615,1.2976573,-0.0104099065,-0.06003111,-0.0070277485,1.1993645,-2.0203454,0.119282775,1.2921506,-0.22424439,-0.017350435,-0.79535633,1.4102646,0.5030928
-0.1,-0.1,0.7,0.0,0.5235987755982988,0,-0.4239399,1.2831924,-0.095331945,-0.046664555,-0.0022340855,1.1711181,0.410629,0.118792556,1.294307,-0.22812365,-0.017608235,-0.80033296,1.4132994,0.5171099
-0.1,-0.1,0.7,0.0,0.5235987755982988,0,-0.94671875,1.3423256,0.008097724,-0.073028654,-0.03766385,1.195344,0.21298346,0.11846268,1.2944756,-0.22877257,-0.016801786,-0.8016366,1.4079278,0.5402932
-0.1,-0.1,0.7,0.0,0.5235987755982988,0,0.23344162,1.3113981,-0.065530375,-0.04825095,-0.034761753,1.1862029,-0.39118636,0.11800388,1.2935934,-0.22624037,-0.018371858,-0.8000184,1.4125731,0.5529928
-0.1,-0.1,0.7,0.0,0.5235987755982988,0,-0.05976551,1.2806814,-0.07482445,-0.09400677,0.02748038,1.1712955,-0.077947326,0.11803604,1.2935998,-0.22800957,-0.018791797,-0.7997252,1.4148344,0.49276814
-0.1,-0.1,0.7,0.0,0.5235987755982988,0,-0.4302408,1.2828745,-0.053502604,-0.0811252,-0.08448478,1.2596457,-1.1707176,0.11945916,1.2940058,-0.22734256,-0.017089436,-0.8014175,1.4213667,0.55420697
-0.1,-0.1,0.7,0.0,0.5235987755982988,0,-0.2943287,1.296094,0.03680236,-0.09002033,-0.23871215,1.2025836,-0.70451427,0.11952403,1.2936202,-0.22954267,-0.018159071,-0.79858387,1.4095638,0.52596664
-0.1,-0.1,0.7,0.0,0.5235987755982988,0,-0.52649146,1.3260269,0.038723763,-0.06989047,0.036074355,1.261587,-1.2828674,0.1206593,1.2940758,-0.23042616,-0.017804496,-0.79920244,1.4248616,0.5619099
-0.1,-0.1,0.7,0.0,0.5235987755982988,0,-0.6045291,1.3202006,-0.07072957,-0.15191065,-0.1683109,1.2103409,-0.6828845,0.12044325,1.2938187,-0.22991814,-0.016416797,-0.7972791,1.4069494,0.5339729
-0.1,-0.1,0.7,0.0,0.5235987755982988,0,-0.23909813,1.2240646,-0.20226333,-0.12091513,0.011437096,1.2394395,-0.13482203,0.11844277,1.294199,-0.22756527,-0.017325621,-0.7990085,1.4049397,0.56631815
-0.1,-0.1,0.7,0.0,0.5235987755982988,0,1.0066468,1.3191304,-0.16315451,-0.08801729,-0.047471523,1.2293433,-0.7212081,0.11817256,1.2937313,-0.22872058,-0.017306345,-0.8002194,1.4127722,0.52668804
-0.1,-0.1,0.7,0.0,0.5235987755982988,0,-1.0648414,1.2649345,-0.18715893,-0.12734203,0.019957844,1.1980151,-0.80042344,0.11947169,1.2927641,-0.227272,-0.017300116,-0.79732454,1.4148821,0.5838724
-0.1,-0.1,0.7,0.0,0.5235987755982988,0,0.24432096,1.3065805,-0.111993164,-0.06789902,-0.14866768,1.1291935,-1.1786883,0.11863285,1.2936828,-0.22692016,-0.017104734,-0.79844564,1.4082739,0.4978977
-0.1,-0.1,0.7,0.0,0.5235987755982988,0,-0.473198,1.3795259,-0.2822311,-0.07803293,-0.12319338,1.2366207,-1.7789823,0.121584326,1.2925817,-0.22946616,-0.018045338,-0.7976082,1.4117438,0.49815387
-0.1,-0.1,0.7,0.0,0.5235987755982988,0,0.7484296,1.3792149,0.12988983,-0.06335124,-0.13793978,1.2360586,-1.0045382,0.12174684,1.2921258,-0.23176375,-0.017117783,-0.800068,1.40842,0.49506766
-0.1,-0.1,0.7,0.0,0.5235987755982988,0,-1.1225733,1.2409035,-0.16185145,-0.12307769,-0.089304775,1.1769238,-0.574268,0.11896826,1.2923027,-0.22684573,-0.018568158,-0.79574287,1.400184,0.52881056
-0.1,-0.1,0.7,0.0,0.5235987755982988,0,-0.0757289,1.299776,-0.119057484,-0.10240368,-0.025191396,1.1946734,-1.2362812,0.11970029,1.2936604,-0.2271914,-0.017989712,-0.7972155,1.4007571,0.5173047
-0.1,-0.1,0.7,0.0,0.5235987755982988,0,-0.3618419,1.3434646,-0.15738957,-0.046528406,0.012540471,1.1589235,-1.3642553,0.118772075,1.2939316,-0.2286217,-0.018610923,-0.7992124,1.4239869,0.5257525
-0.1,-0.1,0.7,0.0,0.5235987755982988,0,-0.80512863,1.3057663,-0.10189003,-0.02799097,0.021194976,1.2189054,-1.4205661,0.11810691,1.2944945,-0.22707835,-0.018610418,-0.80074435,1.4016856,0.5094711
-0.1,-0.1,0.7,0.0,0.5235987755982988,0,-0.5893259,1.3253405,0.011545179,0.0055117286,-0.18052275,1.1833504,0.35238957,0.12057925,1.2918508,-0.22839451,-0.018919338,-0.8033273,1.4149004,0.5616559
-0.1,-0.1,0.7,0.0,0.5235987755982988,0,0.072838895,1.3284044,-0.317041,-0.03118152,-0.16393237,1.1643211,-0.016300509,0.11941421,1.2922901,-0.22778992,-0.01737703,-0.80213916,1.4004416,0.50703734
-0.1,-0.1,0.7,0.0,0.5235987755982988,0,-0.57389,1.2421503,-0.1172845,-0.09864447,-0.14683424,1.1765298,-0.306307,0.11993271,1.291354,-0.22816814,-0.01780674,-0.80392104,1.4148813,0.55317414
-0.1,-0.1,0.7,0.0,0.5235987755982988,0,-0.8577265,1.2842377,-0.15670432,-0.09506822,-0.022535754,1.1486607,-0.4039439,0.11848077,1.2933707,-0.22794601,-0.017997468,-0.79608333,1.4121692,0.5648848
-0.1,-0.1,0.7,0.0,0.5235987755982988,0,-0.71899444,1.345815,-0.17262293,-0.025057584,-0.0150403725,1.1959289,-0.96115386,0.12063294,1.2918895,-0.23027971,-0.018498214,-0.8010019,1.4121487,0.53159136
-0.1,-0.1,0.7,0.0,0.5235987755982988,0,0.177319,1.3099172,-0.03203023,-0.09731285,0.0139505025,1.1626378,0.20357116,0.12012093,1.2918797,-0.22886561,-0.018389875,-0.8013326,1.4086516,0.507495
-0.1,-0.1,0.7,0.0,0.5235987755982988,0,-0.21322912,1.3124129,-0.03981695,-0.082334444,-0.122642204,1.1613289,-0.7550959,0.119187616,1.2922945,-0.22894828,-0.017394552,-0.8035737,1.4029213,0.5092601
-0.1,-0.1,0.7,0.0,0.5235987755982988,0,-0.1250097,1.3757694,-0.045702018,-0.04637874,0.07092696,1.2104535,-1.3792335,0.12101917,1.2925445,-0.22982575,-0.018192064,-0.80038816,1.4090387,0.55349475
-0.1,-0.1,0.7,0.0,0.5235987755982988,0,-0.33468947,1.3494439,-0.1374052,-0.12030555,0.13973115,1.2022822,-0.9106509,0.1206088,1.2927852,-0.22811835,-0.017628286,-0.8005359,1.4060247,0.54313684
-0.1,-0.1,0.7,0.0,0.5235987755982988,0,-0.07612686,1.2533174,-0.24175511,-0.036505334,-0.07852282,1.2126013,-0.8937501,0.1214582,1.2910582,-0.22861919,-0.017098604,-0.8002144,1.4118605,0.51387525
-0.1,-0.1,0.7,0.0,0.5235987755982988,0,-0.5813465,1.310104,0.10796418,-0.081975505,-0.14923923,1.2361516,0.669741,0.11922012,1.2928319,-0.22891134,-0.017377038,-0.80013347,1.4028349,0.50639945
-0.1,-0.1,0.7,0.0,0.5235987755982988,0,-0.14231835,1.2195764,-0.22708715,-0.069046915,0.0068934616,1.2384335,0.9093506,0.11947022,1.2920498,-0.22970258,-0.018213406,-0.79950655,1.4022111,0.51003903
-0.1,-0.1,0.7,0.0,0.5235987755982988,0,-0.4797488,1.2568655,-0.08398543,-0.12514009,0.00789726,1.2198989,-0.35801622,0.12025016,1.2923601,-0.22947735,-0.018255666,-0.79984903,1.4059745,0.5784953
-0.1,-0.1,0.7,0.0,0.5235987755982988,0,-0.33119574,1.3766173,-0.19478148,-0.065492876,-0.16839105,1.2239599,-0.700881,0.120264255,1.2933806,-0.22861798,-0.017025623,-0.7994221,1.4116149,0.47760183
-0.1,-0.1,0.7,0.0,0.5235987755982988,0,-0.1846224,1.2651953,-0.23329575,-0.07893054,-0.05641608,1.2082703,0.41329327,0.12122469,1.2921175,-0.22972715,-0.017714621,-0.80138385,1.4120809,0.5599157
-0.1,-0.1,0.7,0.0,0.5235987755982988,0,0.43443996,1.3231713,0.22265825,-0.0985978,0.0857833,1.243123,-0.15707836,0.119315304,1.2916383,-0.22850113,-0.018011123,-0.7994061,1.4083982,0.51706856
-0.1,-0.1,0.7,0.0,0.5235987755982988,0,-0.51582843,1.3614609,-0.074948385,-0.021178806,-0.005752093,1.13993,-1.0069885,0.11981177,1.2930057,-0.22904561,-0.017970419,-0.8014803,1.4061852,0.5364538
-0.1,-0.1,0.7,0.0,0.5235987755982988,0,-0.51145095,1.2883658,0.10239835,-0.08702063,-0.05913255,1.2220931,-0.819366,0.12044161,1.2917801,-0.22986625,-0.017541392,-0.80146426,1.4046315,0.5672387
-0.1,-0.1,0.7,0.0,0.5235987755982988,0,0.12679486,1.3019891,0.23320296,-0.06929309,0.1784214,1.162616,-1.0652227,0.12094563,1.2928056,-0.22880358,-0.018013587,-0.7993855,1.4067603,0.48301703
-0.1,-0.1,0.7,0.0,0.5235987755982988,0,-0.82085973,1.291856,-0.1908389,-0.05132276,-0.0045669866,1.2380363,-1.1074682,0.11875272,1.2932425,-0.22733936,-0.018301493,-0.7997215,1.4065613,0.5498969
-0.1,-0.1,0.7,0.0,0.5235987755982988,0,-0.4170938,1.3420532,-0.03687787,-0.0018484783,-0.11924179,1.1850531,-0.9315556,0.11871484,1.2924848,-0.22718634,-0.018333182,-0.7994748,1.407206,0.5318509
-0.1,-0.1,0.7,0.0,0.5235987755982988,0,0.19762202,1.331427,-0.049780965,-0.06626003,0.04358957,1.2375221,0.27917045,0.11986837,1.2921504,-0.22744188,-0.017723504,-0.8005517,1.4049778,0.543559
-0.1,-0.1,0.7,0.0,0.5235987755982988,0,-0.04547446,1.3511407,-0.3910558,-0.09015429,-0.061270542,1.1575161,0.34492695,0.11913872,1.2913558,-0.22973037,-0.017474389,-0.7966764,1.4119332,0.52391344
-0.1,-0.1,0.7,0.0,0.5235987755982988,0,-0.026626416,1.3016642,-0.17114581,-0.058686275,0.07065471,1.1896782,-2.3293169,0.119931385,1.2924948,-0.22888952,-0.018674353,-0.7971993,1.4099351,0.5159474
-0.1,-0.1,0.7,0.0,0.5235987755982988,0,0.018735392,1.3470467,-0.052642543,-0.10780036,0.086679086,1.171294,0.14945516,0.11920973,1.2921017,-0.22952208,-0.017971512,-0.7994244,1.4195735,0.5333407
-0.1,-0.1,0.7,0.0,0.5235987755982988,0,0.036531195,1.2726136,-0.046174984,-0.09074002,-0.03555271,1.1751685,-0.8724797,0.12079643,1.2933391,-0.23054466,-0.017483482,-0.80186945,1.4085683,0.5303996
-0.1,-0.1,0.7,0.0,0.5235987755982988,0,0.03477968,1.3325176,-0.056859132,-0.04782424,0.15747441,1.2111901,-0.82298326,0.11826274,1.2935724,-0.22594602,-0.017913768,-0.7999886,1.407571,0.5150792
-0.1,-0.1,0.7,0.0,0.5235987755982988,0,0.11597425,1.3418125,-0.14967057,-0.08971484,0.1430651,1.129789,-1.5355254,0.11906305,1.2917581,-0.22876255,-0.017581081,-0.7958687,1.3999448,0.46466896
-0.1,-0.1,0.7,0.0,0.5235987755982988,0,0.032642152,1.2825441,0.16170414,-0.06136522,0.049908116,1.2147001,-0.12205691,0.12016456,1.2931179,-0.22996224,-0.017574107,-0.79995316,1.3966864,0.49654508
-0.1,-0.1,0.7,0.0,0.5235987755982988,0,-0.5639202,1.2864246,-0.24922763,-0.097834155,0.012713005,1.2451124,0.62823284,0.11895265,1.2936785,-0.22885537,-0.017720506,-0.801641,1.4077961,0.4936461
-0.1,-0.1,0.7,0.0,0.5235987755982988,0,0.19493847,1.2814372,-0.105458915,-0.08467544,-0.06942732,1.2348152,0.6849915,0.11776904,1.2919513,-0.22903475,-0.01769069,-0.7994844,1.4131622,0.49901375
-0.1,-0.1,0.7,0.0,0.5235987755982988,0,-1.0112516,1.279459,-0.030895542,-0.08571102,-0.117899306,1.2209556,0.2206442,0.12043023,1.2937509,-0.22959512,-0.017955229,-0.7998691,1.4130353,0.53350955
-0.1,-0.1,0.7,0.0,0.5235987755982988,0,0.15543345,1.2525717,-0.028335625,-0.09749743,0.106638454,1.1628212,-0.4317059,0.11936786,1.2918642,-0.2271259,-0.01746175,-0.7964429,1.4071589,0.5733532
-0.1,-0.1,0.7,0.0,0.5235987755982988,0,-0.018050365,1.298472,-0.12399354,-0.10976971,0.0007644795,1.2079935,0.13924971,0.12002312,1.2934952,-0.23013732,-0.017873498,-0.8004216,1.3997205,0.5234917
-0.1,-0.1,0.7,0.0,0.5235987755982988,0,-0.7417743,1.2489617,-0.18056463,-0.06762477,-0.061221898,1.1505741,-1.1124634,0.11795351,1.2921392,-0.22908969,-0.017284645,-0.7996022,1.4026138,0.524531
-0.1,-0.1,0.7,0.0,0.5235987755982988,0,-0.37817964,1.3129575,0.15535301,-0.08166094,0.013282733,1.2137902,-0.36034808,0.11834381,1.2918149,-0.22735842,-0.017473765,-0.80166256,1.4152491,0.53866893
-0.1,-0.1,0.7,0.0,0.5235987755982988,0,-0.73212373,1.3244463,-0.34717542,-0.110965155,-0.22982426,1.1951354,-0.94717324,0.11921852,1.2930106,-0.2282308,-0.018086568,-0.7967595,1.4092027,0.575171
-0.1,-0.1,0.7,0.0,0.5235987755982988,0,0.72102535,1.311819,0.07298312,-0.08437921,-0.059740964,1.16865,-0.70446056,0.119345546,1.2945734,-0.22854272,-0.018695248,-0.8003278,1.4117155,0.52734727
-0.1,-0.1,0.7,0.0,0.5235987755982988,0,-0.5592176,1.3565694,-0.12201198,-0.06885583,0.14122958,1.1534246,-1.8573003,0.11972239,1.293018,-0.22694959,-0.018277358,-0.795843,1.4030021,0.55845034
-0.1,-0.1,0.7,0.0,0.5235987755982988,0,0.09857082,1.3516572,-0.07834063,-0.10303855,0.055999726,1.2441747,-0.80970544,0.11796392,1.2932078,-0.228091,-0.017983798,-0.8031499,1.405884,0.539747
-0.1,-0.1,0.7,0.0,0.5235987755982988,0,-0.3751849,1.2970693,0.011046552,-0.08576958,-0.084700175,1.157089,-0.121055014,0.11910228,1.2906582,-0.23047312,-0.016879808,-0.79592013,1.4075085,0.50848657
-0.1,-0.1,0.7,0.0,0.5235987755982988,0,-0.38499805,1.2422038,-0.16912785,-0.075525396,0.17491308,1.1651626,-0.73364073,0.11820363,1.2926787,-0.22841676,-0.01829667,-0.7986695,1.4196695,0.5608937
-0.1,-0.1,0.7,0.0,0.5235987755982988,0,0.09767993,1.2144084,0.03351976,-0.034510743,-0.12565634,1.255219,0.32471272,0.11987577,1.2933198,-0.22675379,-0.017478077,-0.80335826,1.4096985,0.48851615
-0.1,-0.1,0.7,0.0,0.5235987755982988,0,-0.14399405,1.3361905,-0.0665552,-0.084986806,0.22591144,1.211825,-0.38361686,0.1190635,1.2935469,-0.22892828,-0.01708738,-0.7976029,1.414977,0.5372488
-0.1,-0.1,0.7,0.0,0.5235987755982988,0,-0.44750682,1.3284161,-0.08321971,-0.07832682,-0.022440042,1.1813455,-0.7102522,0.120598175,1.2942843,-0.22921704,-0.01816548,-0.80185163,1.4036906,0.53966564
-0.1,-0.1,0.7,0.0,0.5235987755982988,0,-0.18800525,1.2672772,0.012045837,-0.11014318,-0.07095779,1.1965921,-0.67099833,0.11979161,1.2929959,-0.22798191,-0.016736753,-0.8014138,1.4094259,0.45640928
-0.1,-0.1,0.7,0.0,0.5235987755982988,0,0.57998395,1.3224279,-0.013779628,-0.1126372,-0.08520013,1.2301655,-1.2119055,0.12004736,1.2927601,-0.23022091,-0.01729725,-0.8007322,1.406165,0.49103758
-0.1,-0.1,0.7,0.0,0.5235987755982988,0,-0.49442264,1.3011134,-0.04210519,-0.06096433,-0.07966041,1.1862822,-0.70169854,0.119905345,1.293098,-0.22876862,-0.017193561,-0.80178046,1.4040802,0.5476916
-0.1,-0.1,0.7,0.0,0.5235987755982988,0,-0.11688588,1.2852513,-0.009912,-0.05574577,0.032141656,1.1963573,0.13440324,0.120080344,1.2925897,-0.2288104,-0.016990494,-0.80108833,1.4063597,0.5287192
-0.1,-0.1,0.7,0.0,0.5235987755982988,0,-0.990981,1.3322967,-0.14036478,-0.10628974,0.041613836,1.1420739,-0.4816017,0.12018621,1.2934941,-0.22995102,-0.017750395,-0.79940504,1.4042424,0.5267931
-0.1,-0.1,0.7,0.0,0.5235987755982988,0,-0.27446654,1.3218206,-0.20583384,-0.06136647,-0.028913569,1.1888491,-0.96351224,0.11890743,1.2929248,-0.22722647,-0.017660504,-0.79836786,1.4030738,0.5692442
-0.1,-0.1,0.7,0.0,0.5235987755982988,0,-0.053659786,1.3053519,-0.03201587,-0.076757304,-0.22592764,1.2149605,0.01426771,0.120273955,1.2922747,-0.22843912,-0.016999999,-0.79495525,1.4135338,0.5102873
-0.1,-0.1,0.7,0.0,0.5235987755982988,0,-0.80154437,1.3274232,0.1614433,-0.07520668,0.009987439,1.1869467,-0.2657228,0.12078944,1.2927002,-0.22867554,-0.017205626,-0.80041873,1.4229422,0.53177875
-0.1,-0.1,0.7,0.0,0.5235987755982988,0,-0.45434824,1.2922946,-0.17705286,-0.10460321,-0.07144029,1.1856354,-0.61874586,0.12014144,1.2931391,-0.22730456,-0.017812733,-0.8007956,1.4116477,0.4913914
-0.1,-0.1,0.7,0.0,0.5235987755982988,0,0.15780571,1.3470024,0.00077063096,-0.073335305,-0.041335706,1.1665834,-0.6694834,0.11971227,1.2929604,-0.22664766,-0.018379044,-0.7990931,1.4149826,0.516236
-0.1,-0.1,0.7,0.0,0.5235987755982988,0,-0.23040211,1.2430617,-0.13183147,-0.083513014,-0.015424089,1.1930157,0.40780908,0.119809195,1.29458,-0.22733341,-0.018612176,-0.80151975,1.4066892,0.5384379
-0.1,-0.1,0.7,0.0,0.5235987755982988,0,0.38935313,1.3815873,-0.1438681,-0.06784365,0.18729888,1.247662,0.6082261,0.11899014,1.2926863,-0.22983772,-0.016901549,-0.80017066,1.4101915,0.50302315
-0.1,-0.1,0.7,0.0,0.5235987755982988,0,-0.5746122,1.2551115,-0.11933125,-0.05257165,0.017617662,1.20697,-0.25559172,0.11890406,1.2907116,-0.22614601,-0.016957447,-0.7964109,1.412673,0.5633339
-0.1,-0.1,0.7,0.0,0.5235987755982988,0,-0.44036204,1.3239996,-0.02448463,-0.016030151,-0.054980733,1.2076073,-0.37120926,0.11923743,1.2925267,-0.2275797,-0.017799616,-0.7971627,1.4273055,0.5541736
-0.1,-0.1,0.7,0.0,0.5235987755982988,0,-0.13577566,1.3631377,-0.15169333,-0.101955004,-0.15928362,1.1939434,0.55983275,0.118887566,1.2941267,-0.22770707,-0.017848918,-0.8001156,1.4068518,0.49666032
-0.1,-0.1,0.7,0.0,0.5235987755982988,0,-0.8572929,1.2832744,0.0076970416,-0.099621765,-0.04953328,1.2654731,-1.86516,0.11899856,1.2923032,-0.22629632,-0.017167091,-0.8008958,1.4082539,0.4956455
-0.1,-0.1,0.7,0.0,0.5235987755982988,0,-0.84043056,1.3302547,-0.2609641,-0.059837487,-0.19320539,1.1757754,1.2715753,0.12021217,1.2935145,-0.22861108,-0.016963083,-0.7986222,1.4190543,0.5266516
-0.1,-0.1,0.7,0.0,0.5235987755982988,0,-0.7131079,1.2717774,-0.12496607,-0.094266236,-0.066139854,1.1960772,-0.8471902,0.120184705,1.2929529,-0.22760662,-0.017267898,-0.79994464,1.4106327,0.48438272
-0.1,-0.1,0.7,0.0,0.5235987755982988,0,-0.18401834,1.3841734,-0.06325126,-0.1366851,-0.06909098,1.1994499,-0.8312539,0.117578484,1.2937984,-0.22869295,-0.018487416,-0.79778624,1.4108475,0.5335193
-0.1,-0.1,0.7,0.0,0.5235987755982988,0,-0.09970699,1.2257788,-0.12505864,-0.045160044,-0.027320165,1.1754688,0.3420997,0.11884385,1.2933835,-0.22690131,-0.017087927,-0.80034524,1.4140216,0.53817666
-0.1,-0.1,0.7,0.0,0.5235987755982988,0,-0.6341592,1.2293354,0.094563484,-0.09625013,0.0474403,1.2476591,-1.0795234,0.119089864,1.2922521,-0.22830895,-0.017349264,-0.7990392,1.4166131,0.5439396
-0.1,-0.1,0.7,0.0,0.5235987755982988,0,0.38455272,1.3175006,0.14679347,-0.07577899,-0.061102107,1.1400948,-0.69467545,0.117549464,1.294367,-0.2274199,-0.017712118,-0.79996127,1.4185779,0.56035054
-0.1,-0.1,0.7,0.0,0.5235987755982988,0,-0.08494714,1.2788424,-0.12691332,-0.056180563,-0.027241915,1.1890825,-0.9677632,0.11832649,1.294299,-0.22970262,-0.017637813,-0.8006518,1.4096557,0.52073765
-0.1,-0.1,0.7,0.0,0.5235987755982988,0,0.11379244,1.2998099,0.07278279,-0.059998497,-0.131043,1.1844238,-0.46309292,0.120243244,1.2940344,-0.22854349,-0.017546,-0.7975637,1.4057589,0.49779174
-0.1,-0.1,0.7,0.0,0.5235987755982988,0,-0.7093297,1.3414973,-0.11619685,-0.05891235,-0.07385277,1.2156907,-1.1484133,0.11822309,1.2947605,-0.22818203,-0.019428175,-0.79787004,1.412263,0.4781666
-0.1,-0.1,0.7,0.0,0.5235987755982988,0,-0.18285349,1.2192874,-0.070625484,-0.055222467,-0.06674518,1.2217271,-0.2723144,0.117543414,1.2938328,-0.22921005,-0.018045658,-0.79651886,1.3983711,0.53176874
-0.1,-0.1,0.7,0.0,0.5235987755982988,0,-0.36211005,1.3062476,0.100821935,-0.087605834,-0.09212821,1.1746103,0.040776182,0.11907396,1.2944832,-0.22810493,-0.017018033,-0.79875475,1.4078019,0.54532456
-0.1,-0.1,0.7,0.0,0.5235987755982988,0,-1.1372211,1.2899619,-0.14031826,-0.025243333,-0.04608557,1.2346997,-1.0066383,0.11963148,1.2937824,-0.22880541,-0.017452732,-0.7978264,1.4095342,0.50301313
-0.1,-0.1,0.7,0.0,0.5235987755982988,0,-0.5738698,1.2703941,-0.01738371,-0.065266244,-0.06754285,1.1913862,-0.78220445,0.12018794,1.2936134,-0.2279332,-0.01673413,-0.800503,1.4130919,0.55111855
-0.1,-0.1,0.7,0.0,0.5235987755982988,0,-0.11131659,1.3142072,-0.0477091,-0.046204705,0.005864817,1.2341455,-1.6103705,0.11959799,1.2935315,-0.22800016,-0.017127873,-0.7994185,1.4156429,0.5674308
-0.1,-0.1,0.7,0.0,0.5235987755982988,0,-0.6263234,1.2826535,0.06791069,-0.096784234,0.1322416,1.2137911,-0.10284143,0.12040188,1.2938914,-0.2271444,-0.018076174,-0.79845643,1.4203922,0.5494347
-0.1,-0.1,0.7,0.0,0.5235987755982988,0,-0.5466305,1.3382707,-0.30507085,-0.09599646,-0.031735364,1.2304093,-0.5649319,0.12198265,1.2930454,-0.22834563,-0.01738725,-0.80060905,1.41097,0.5315803
-0.1,-0.1,0.7,0.0,0.5235987755982988,0,0.22217521,1.3470076,-0.16101108,-0.06886877,-0.21904664,1.2157953,-1.7668056,0.11916709,1.2944543,-0.22813532,-0.017146988,-0.8036993,1.4050043,0.5086486
-0.1,-0.1,0.7,0.0,0.5235987755982988,0,0.5257417,1.317498,0.0026695742,-0.05202626,-0.03767131,1.1629583,-0.9661302,0.11893907,1.2937105,-0.2282191,-0.017660026,-0.8016487,1.4151528,0.5095539
-0.1,-0.1,0.7,0.0,0.5235987755982988,0,-0.064987704,1.3579959,-0.14245696,-0.08959071,0.11813093,1.1852992,-0.9771067,0.118588254,1.2925975,-0.22844854,-0.016877895,-0.80082554,1.4034085,0.53817725
-0.1,-0.1,0.7,0.0,0.5235987755982988,0,-0.30259994,1.3311713,-0.24061103,-0.08237126,-0.04032366,1.2599548,0.21431969,0.11969188,1.2935647,-0.22712359,-0.01747679,-0.8014827,1.4103047,0.5046699
-0.1,-0.1,0.7,0.0,0.5235987755982988,0,-0.19270338,1.307029,-0.020770436,-0.09918756,0.11120779,1.2545141,-0.9782659,0.12079146,1.2922329,-0.23119053,-0.017934458,-0.7992452,1.4121073,0.54218996
-0.1,-0.1,0.7,0.0,0.5235987755982988,0,0.3651103,1.2968116,-0.110230364,-0.05749686,-0.15261444,1.1840026,-0.13015652,0.12010645,1.2918086,-0.22808975,-0.01828977,-0.80257195,1.4156435,0.5422056
-0.1,-0.1,0.7,0.0,0.5235987755982988,0,-0.022962352,1.3798444,-0.2151577,-0.045912426,-0.055818208,1.2144243,-0.075122826,0.11732209,1.2928536,-0.23035134,-0.016823042,-0.7956849,1.4114017,0.49721265
-0.1,-0.1,0.7,0.0,0.5235987755982988,0,0.6472962,1.3896528,-0.18276341,-0.0860095,0.008818673,1.2227093,0.32316217,0.12048218,1.2942674,-0.22886896,-0.017506123,-0.80145776,1.4004015,0.5197159
-0.1,-0.1,0.7,0.0,0.5235987755982988,0,1.0841906,1.293798,-0.28570685,-0.042835504,-0.020228703,1.1783328,-0.65011096,0.1196401,1.292389,-0.23019347,-0.018250981,-0.8008983,1.4180876,0.53919584
-0.1,-0.1,0.7,0.0,0.5235987755982988,0,0.20855063,1.289691,-0.19537885,-0.0866643,-0.21516582,1.1947876,-1.7352381,0.11860918,1.2923319,-0.22685546,-0.018569473,-0.79921496,1.4145846,0.51323485
-0.1,-0.1,0.7,0.0,0.5235987755982988,0,0.3201806,1.2844683,-0.08058741,-0.006663105,-0.070344575,1.2301186,-1.079194,0.11976884,1.2924341,-0.22940987,-0.017849488,-0.79978967,1.4138509,0.5209562
-0.1,-0.1,0.7,0.0,0.5235987755982988,0,-0.9468841,1.3048322,0.08953381,-0.07890981,-0.019803585,1.166862,-0.3471138,0.11967058,1.2922062,-0.22911416,-0.016962761,-0.8002161,1.4020771,0.48772478
-0.1,-0.1,0.7,0.0,0.5235987755982988,0,-0.2443693,1.2799715,-0.052301712,-0.04231511,0.09791339,1.1847713,-0.33410087,0.12028086,1.2925022,-0.22890837,-0.01748577,-0.7990435,1.4102943,0.5050857
-0.1,-0.1,0.7,0.0,0.5235987755982988,0,0.07451213,1.3096372,-0.13601978,-0.082529634,0.09035971,1.1475717,-2.370467,0.1182581,1.2951006,-0.23014215,-0.017776798,-0.8034404,1.4177768,0.56681967
-0.1,-0.1,0.7,0.0,0.5235987755982988,0,-0.19802347,1.2796124,-0.07487013,-0.067371726,-0.080208525,1.1825022,-0.8886023,0.120436095,1.2933013,-0.22892033,-0.017920682,-0.7989513,1.4040307,0.48699474
-0.1,-0.1,0.7,0.0,0.5235987755982988,0,-0.17691389,1.3184863,-0.019300276,-0.057184126,-0.06605241,1.2191213,-1.0153183,0.11953199,1.2932447,-0.22874036,-0.017816454,-0.7999553,1.4045947,0.48298088
-0.1,-0.1,0.7,0.0,0.5235987755982988,0,0.3304351,1.342996,-0.041640203,-0.06575178,-0.15324318,1.2220372,-0.8536788,0.121252164,1.294022,-0.2279488,-0.016820556,-0.8015269,1.4149611,0.53553945
-0.1,-0.1,0.7,0.0,0.5235987755982988,0,0.65530235,1.2814496,-0.16698627,-0.1537696,-0.084688745,1.2013868,-0.018639952,0.1176345,1.2931414,-0.22785869,-0.016801393,-0.80163616,1.4111573,0.53847235
-0.1,-0.1,0.7,0.0,0.5235987755982988,0,-0.50216305,1.2879181,-0.1211861,-0.058258746,0.0018518255,1.1706133,-0.8084073,0.11934409,1.2932281,-0.22875081,-0.017749311,-0.7984839,1.4074665,0.5004375
-0.1,-0.1,0.7,0.0,0.5235987755982988,0,-0.09851968,1.2997094,-0.23180664,-0.06933106,-0.09098002,1.1957438,-0.2799032,0.118420415,1.2950984,-0.22916918,-0.017258542,-0.79959595,1.4091405,0.51293707
-0.1,-0.1,0.7,0.0,0.5235987755982988,0,-0.53526735,1.2782811,-0.1273911,-0.06975272,0.20085166,1.1808339,-0.5625754,0.11995917,1.2928796,-0.22842339,-0.016698569,-0.79948026,1.4047989,0.55558455
-0.1,-0.1,0.7,0.0,0.5235987755982988,0,-0.6168574,1.2662601,-0.06521255,-0.081209816,0.014684813,1.2068701,-0.3481822,0.118957125,1.2935727,-0.22801341,-0.017673116,-0.8005386,1.4114354,0.5255446
-0.1,-0.1,0.7,0.0,0.5235987755982988,0,-0.1197846,1.2392615,0.012582157,-0.13091867,0.15431823,1.1926593,-0.19991848,0.11974912,1.2930993,-0.22627011,-0.016894575,-0.7956546,1.4056426,0.49745822
-0.1,-0.1,0.7,0.0,0.5235987755982988,0,-0.11140045,1.3098247,-0.055787086,-0.0930412,-0.022079645,1.1502004,-0.43818554,0.116611265,1.2929442,-0.22744486,-0.018254045,-0.7979531,1.4145911,0.54166347
-0.1,-0.1,0.7,0.0,0.5235987755982988,0,-0.48785695,1.267575,-0.06330302,-0.04432969,-0.05307086,1.2457377,-1.3764825,0.117975414,1.2928301,-0.22920166,-0.017789738,-0.80437404,1.4094846,0.51000935
-0.1,-0.1,0.7,0.0,0.5235987755982988,0,0.19436504,1.3203473,-0.04301313,-0.041217115,-0.12393925,1.1681236,-0.8287768,0.11952464,1.2946336,-0.2271809,-0.01766582,-0.8010175,1.4101838,0.5137793
-0.1,-0.1,0.7,0.0,0.5235987755982988,0,-0.10726594,1.2906704,0.024063608,-0.103919394,0.13809624,1.1693571,-1.3172935,0.120538436,1.2932265,-0.22920905,-0.0175145,-0.7994602,1.4132978,0.5437206
