sanky1234/BimanualDexCatch/isaacgymenvs/cem_results/football_pose_-0.2_0.10000000000000003_1.1999999999999997_-0.5235987755982988_0.0_0_2025-05-25.csv
x,y,z,roll,pitch,yaw,robot1/joint1,robot1/joint2,robot1/joint3,robot1/joint4,robot1/joint5,robot1/joint6,robot1/joint7,robot2/joint1,robot2/joint2,robot2/joint3,robot2/joint4,robot2/joint5,robot2/joint6,robot2/joint7
-0.2,0.10000000000000003,1.1999999999999997,-0.5235987755982988,0.0,0,0.6335212,-0.14185767,1.0666963,0.67341655,-0.68553585,-0.4455578,-0.35437545,0.27626938,-1.4892436,-0.120501354,0.038866352,-0.19048691,1.1227757,-0.49314752
-0.2,0.10000000000000003,1.1999999999999997,-0.5235987755982988,0.0,0,0.6312897,-0.13061105,1.0724097,0.6751384,-0.66110444,-0.42587388,-0.23419254,0.27649298,-1.4847052,-0.122518554,0.01722005,0.08940447,1.1323378,-0.7165491
-0.2,0.10000000000000003,1.1999999999999997,-0.5235987755982988,0.0,0,0.63492334,-0.13633116,1.0718598,0.67250556,-0.6788352,-0.45478493,-1.2276678,0.27058014,-1.486509,-0.118980184,0.017446449,0.15196516,0.9718485,-0.14824109
-0.2,0.10000000000000003,1.1999999999999997,-0.5235987755982988,0.0,0,0.63647056,-0.13683161,1.0659662,0.6669285,-0.67901045,-0.4665353,-0.3426693,0.28168067,-1.4895945,-0.121256605,-0.054147188,-0.066351324,1.177458,-0.9436407
-0.2,0.10000000000000003,1.1999999999999997,-0.5235987755982988,0.0,0,0.6332623,-0.13169475,1.0684166,0.66702265,-0.6860891,-0.46990082,-0.6273156,0.28608376,-1.4919622,-0.12925492,-0.035130065,-0.22092263,1.0882195,-0.2502555
-0.2,0.10000000000000003,1.1999999999999997,-0.5235987755982988,0.0,0,0.63571286,-0.1397009,1.0639012,0.6681277,-0.67943984,-0.45790005,-0.83506423,0.28001717,-1.4898416,-0.12892078,-0.010571804,-0.009387634,0.9643182,-0.5846063
-0.2,0.10000000000000003,1.1999999999999997,-0.5235987755982988,0.0,0,0.6365337,-0.1381518,1.0673513,0.67237073,-0.6827278,-0.4791769,-0.25081256,0.27172494,-1.4874167,-0.12752745,0.11320125,-0.0124607375,0.858271,-0.593347
-0.2,0.10000000000000003,1.1999999999999997,-0.5235987755982988,0.0,0,0.63685787,-0.13491471,1.068742,0.6706727,-0.6609658,-0.5216412,-0.30428153,0.26851928,-1.4909992,-0.12848155,-0.018372513,0.038387578,1.1472414,-0.13887171
-0.2,0.10000000000000003,1.1999999999999997,-0.5235987755982988,0.0,0,0.63155174,-0.13823767,1.0660404,0.67123044,-0.65787464,-0.4936541,0.035778362,0.26552212,-1.4923077,-0.11846689,-0.019391868,-0.12467658,1.1505181,-0.11735531
-0.2,0.10000000000000003,1.1999999999999997,-0.5235987755982988,0.0,0,0.63385326,-0.13595869,1.0684776,0.6692453,-0.68498975,-0.41326278,-0.9573846,0.28588533,-1.4876683,-0.1256584,-0.016205305,-0.1604225,1.028966,-0.33044824
-0.2,0.10000000000000003,1.1999999999999997,-0.5235987755982988,0.0,0,0.636578,-0.14157507,1.0672896,0.6706033,-0.6956001,-0.41900676,-0.41545036,0.28328726,-1.4925638,-0.13276063,-0.012196452,-0.0522784,0.9836661,-1.0715692
-0.2,0.10000000000000003,1.1999999999999997,-0.5235987755982988,0.0,0,0.6337239,-0.14036603,1.0633299,0.67143327,-0.66961443,-0.50460106,-0.0796738,0.29958385,-1.4943432,-0.1327391,-0.011067481,0.22081713,1.1268187,-0.60739595
-0.2,0.10000000000000003,1.1999999999999997,-0.5235987755982988,0.0,0,0.6358539,-0.13009216,1.0691702,0.66936857,-0.65755904,-0.44008127,-0.7159975,0.2781086,-1.4907184,-0.13542296,-0.04802151,-0.063633464,1.1638316,-0.38169295
-0.2,0.10000000000000003,1.1999999999999997,-0.5235987755982988,0.0,0,0.6345653,-0.13312687,1.0661937,0.6713392,-0.65655714,-0.41418907,-0.2261067,0.27241832,-1.490645,-0.11972654,-0.08378666,-0.2627217,1.0873617,-0.24780466
-0.2,0.10000000000000003,1.1999999999999997,-0.5235987755982988,0.0,0,0.6366132,-0.13686316,1.0651373,0.66847473,-0.65162534,-0.45807135,-0.91435367,0.28890145,-1.4927226,-0.12164749,-0.03504068,-0.0781451,1.0933411,-0.84466016
-0.2,0.10000000000000003,1.1999999999999997,-0.5235987755982988,0.0,0,0.6314318,-0.14040132,1.0663022,0.66823006,-0.6714993,-0.43519422,-0.35091197,0.27934864,-1.488574,-0.14870252,-0.023850348,-0.4295305,1.0260606,0.13176066
-0.2,0.10000000000000003,1.1999999999999997,-0.5235987755982988,0.0,0,0.63415295,-0.13113461,1.065178,0.6703792,-0.6632512,-0.42447,-0.75284123,0.27477863,-1.4914585,-0.12436173,-0.02911941,-0.24147005,1.1749326,-0.46839014
-0.2,0.10000000000000003,1.1999999999999997,-0.5235987755982988,0.0,0,0.6319828,-0.13857831,1.071812,0.66920024,-0.6779272,-0.43460536,-0.4868722,0.28043488,-1.4936491,-0.12741601,-0.019600384,-0.13910913,0.9489148,-0.34504417
-0.2,0.10000000000000003,1.1999999999999997,-0.5235987755982988,0.0,0,0.63108826,-0.14104109,1.0677551,0.6710362,-0.65985936,-0.4566532,-0.7657426,0.2676154,-1.4899229,-0.119376086,0.025969006,0.080014236,1.1091282,-0.9432698
-0.2,0.10000000000000003,1.1999999999999997,-0.5235987755982988,0.0,0,0.63640344,-0.13986403,1.0690051,0.67066747,-0.6656631,-0.46421355,-0.8253106,0.26684314,-1.4938618,-0.12509899,-0.010808938,0.17714396,1.0900967,0.42134812
-0.2,0.10000000000000003,1.1999999999999997,-0.5235987755982988,0.0,0,0.63072914,-0.1357311,1.0684808,0.671706,-0.67095655,-0.43803295,-0.9234632,0.26012027,-1.4891679,-0.12131654,0.03843516,-0.2544595,1.0803732,-0.15864152
-0.2,0.10000000000000003,1.1999999999999997,-0.5235987755982988,0.0,0,0.6307259,-0.14295836,1.0677422,0.6714537,-0.69341165,-0.47465664,-0.07959816,0.27894595,-1.4903643,-0.11307233,-0.021289345,-0.0293733,1.1902434,-0.50618476
-0.2,0.10000000000000003,1.1999999999999997,-0.5235987755982988,0.0,0,0.6328255,-0.14029308,1.0685031,0.6733959,-0.66185683,-0.4697349,-0.38325524,0.26255727,-1.4937135,-0.124322444,-0.06037611,-0.13316575,0.9001638,-0.12764312
-0.2,0.10000000000000003,1.1999999999999997,-0.5235987755982988,0.0,0,0.6308895,-0.13839814,1.070095,0.6680514,-0.6627147,-0.48039213,-0.5879799,0.2775218,-1.4915955,-0.12336818,0.013151578,-0.16008997,1.071718,0.19102049
-0.2,0.10000000000000003,1.1999999999999997,-0.5235987755982988,0.0,0,0.6323573,-0.14288957,1.069148,0.67354584,-0.6588394,-0.43396243,-1.0642309,0.2828204,-1.4870228,-0.13932727,-0.04737744,-0.078600295,1.0725758,-0.32838437
-0.2,0.10000000000000003,1.1999999999999997,-0.5235987755982988,0.0,0,0.6377007,-0.13792947,1.0667987,0.6702267,-0.6612289,-0.4796427,-0.13326372,0.25931424,-1.4931566,-0.13128348,-0.06373291,-0.044725332,1.0643146,-0.45522422
-0.2,0.10000000000000003,1.1999999999999997,-0.5235987755982988,0.0,0,0.63041145,-0.13258804,1.0688813,0.6749647,-0.65586036,-0.44309443,-0.6038032,0.27189845,-1.4916499,-0.13289575,-0.010209737,0.077021405,1.125047,-0.32685754
-0.2,0.10000000000000003,1.1999999999999997,-0.5235987755982988,0.0,0,0.6330127,-0.13226816,1.0688217,0.67209405,-0.6738183,-0.44306225,-0.8235174,0.27808324,-1.4924681,-0.12689246,0.0288761,-0.033180885,0.9311974,0.012735553
-0.2,0.10000000000000003,1.1999999999999997,-0.5235987755982988,0.0,0,0.6349027,-0.13685912,1.0687321,0.67027074,-0.66978306,-0.43623817,-0.7277868,0.25752702,-1.4929751,-0.1159094,0.032119803,-0.08906236,1.0186467,0.26078466
-0.2,0.10000000000000003,1.1999999999999997,-0.5235987755982988,0.0,0,0.6346942,-0.13526294,1.065781,0.6691642,-0.66815996,-0.4484502,-1.1029158,0.26767454,-1.4875652,-0.11811681,-0.040590476,-0.043327782,1.1270951,0.28044978
-0.2,0.10000000000000003,1.1999999999999997,-0.5235987755982988,0.0,0,0.6348036,-0.13670708,1.061807,0.6683937,-0.66523284,-0.46143836,-0.8977892,0.28418604,-1.4911679,-0.13889575,-0.07992745,-0.07469361,1.055389,-0.14011241
-0.2,0.10000000000000003,1.1999999999999997,-0.5235987755982988,0.0,0,0.6333282,-0.13962293,1.0706242,0.66805243,-0.67859995,-0.41673404,-0.37309206,0.27488148,-1.4882985,-0.121031664,-0.049918283,0.03846156,1.0550306,-0.5654985
-0.2,0.10000000000000003,1.1999999999999997,-0.5235987755982988,0.0,0,0.63478494,-0.13681397,1.067681,0.6707166,-0.6653913,-0.46442643,-1.0626271,0.29264173,-1.4857886,-0.14060138,-0.030506877,-0.021953683,1.0966156,-0.3608762
-0.2,0.10000000000000003,1.1999999999999997,-0.5235987755982988,0.0,0,0.63224685,-0.14177671,1.0707841,0.67263293,-0.65551513,-0.4687642,-0.35764602,0.27590647,-1.490569,-0.13480408,0.009359037,-0.13702561,0.9975623,-0.48560607
-0.2,0.10000000000000003,1.1999999999999997,-0.5235987755982988,0.0,0,0.63055253,-0.13792086,1.069227,0.67301184,-0.6614409,-0.48006988,-0.75248796,0.28769642,-1.4904063,-0.12659001,-0.014003381,-0.18097264,1.1157477,0.1072787
-0.2,0.10000000000000003,1.1999999999999997,-0.5235987755982988,0.0,0,0.6355807,-0.1380059,1.0679986,0.6693932,-0.68160444,-0.48808977,-0.6170768,0.26692975,-1.493395,-0.12784028,0.07337939,-0.22087425,1.1702946,-0.1354689
-0.2,0.10000000000000003,1.1999999999999997,-0.5235987755982988,0.0,0,0.63869387,-0.14577736,1.0746946,0.6699737,-0.66947705,-0.5052162,-1.0446965,0.27071643,-1.4934983,-0.13446745,-0.031285442,-0.026993273,0.93257535,-0.38297653
-0.2,0.10000000000000003,1.1999999999999997,-0.5235987755982988,0.0,0,0.63622355,-0.13773784,1.0666946,0.67012274,-0.6501816,-0.39977473,-0.13787065,0.2801462,-1.4913507,-0.11479666,-0.08376104,-0.07622255,1.0140488,-0.8389024
-0.2,0.10000000000000003,1.1999999999999997,-0.5235987755982988,0.0,0,0.6347574,-0.13838491,1.0707076,0.6702466,-0.67436355,-0.49543175,-0.55405617,0.27599257,-1.4904603,-0.12315558,-0.014844992,-0.16668932,0.9684999,0.28825122
-0.2,0.10000000000000003,1.1999999999999997,-0.5235987755982988,0.0,0,0.6321787,-0.1331294,1.0686401,0.673388,-0.67972016,-0.44311163,-0.31029442,0.27949083,-1.491639,-0.116059795,-0.013318029,-0.027549388,1.0472938,-0.34807584
-0.2,0.10000000000000003,1.1999999999999997,-0.5235987755982988,0.0,0,0.63295496,-0.13177907,1.0686271,0.6684339,-0.6612948,-0.4605652,-0.66409194,0.2893064,-1.4908197,-0.124900445,-0.03399651,-0.28449106,1.077955,-0.30584168
-0.2,0.10000000000000003,1.1999999999999997,-0.5235987755982988,0.0,0,0.6333405,-0.13908534,1.0722626,0.6724964,-0.64058274,-0.47975492,-0.55646896,0.2750653,-1.4909034,-0.12833159,-0.092242725,-0.17071043,1.0386221,0.26905844
-0.2,0.10000000000000003,1.1999999999999997,-0.5235987755982988,0.0,0,0.6394746,-0.13200822,1.0658541,0.6709397,-0.67925644,-0.45419014,-0.4332241,0.27671513,-1.4884031,-0.12395131,-0.07404828,0.112472296,1.2831687,-0.84970725
-0.2,0.10000000000000003,1.1999999999999997,-0.5235987755982988,0.0,0,0.63505065,-0.13474229,1.0662676,0.67043906,-0.6668816,-0.44189394,0.11420151,0.2814038,-1.4903499,-0.11717818,0.004226796,0.054716785,1.0956553,0.025156531
-0.2,0.10000000000000003,1.1999999999999997,-0.5235987755982988,0.0,0,0.6322927,-0.12912725,1.0673788,0.6707406,-0.6614283,-0.44876516,-0.41067794,0.2852604,-1.4923788,-0.11513663,0.026188383,-0.17222917,1.0375103,0.06226265
-0.2,0.10000000000000003,1.1999999999999997,-0.5235987755982988,0.0,0,0.6378113,-0.13548853,1.0682881,0.6713061,-0.6763565,-0.44248173,-1.0134755,0.28431278,-1.4873359,-0.1249955,0.04028597,-0.50963616,1.1788944,-0.79194516
-0.2,0.10000000000000003,1.1999999999999997,-0.5235987755982988,0.0,0,0.634529,-0.13612776,1.067077,0.6694464,-0.6818425,-0.4290359,-0.58297163,0.29237074,-1.4918307,-0.12430465,-0.124298066,-0.11849537,1.1849262,-0.366325
-0.2,0.10000000000000003,1.1999999999999997,-0.5235987755982988,0.0,0,0.6352266,-0.1381191,1.0683786,0.6667747,-0.66071576,-0.45012534,-1.0271056,0.26315734,-1.4887531,-0.110238105,0.014257718,-0.07295018,1.1187896,0.39314947
-0.2,0.10000000000000003,1.1999999999999997,-0.5235987755982988,0.0,0,0.63899636,-0.13786851,1.0678557,0.6726507,-0.6956056,-0.43799967,-1.3421223,0.2856265,-1.4950321,-0.12125934,-0.015443936,-0.060723882,1.1124666,-0.5930576
-0.2,0.10000000000000003,1.1999999999999997,-0.5235987755982988,0.0,0,0.6345616,-0.1337437,1.0682517,0.67340225,-0.67346275,-0.45189017,0.13242105,0.27866945,-1.4883802,-0.12422873,0.020810189,-0.15483245,1.0941544,-0.023720743
-0.2,0.10000000000000003,1.1999999999999997,-0.5235987755982988,0.0,0,0.6337981,-0.14138241,1.0672637,0.67161137,-0.6620501,-0.42598936,-0.52252173,0.28510788,-1.4896072,-0.11552138,0.032806322,-0.09478203,1.2344755,-0.14890763
-0.2,0.10000000000000003,1.1999999999999997,-0.5235987755982988,0.0,0,0.6356399,-0.14255612,1.0664592,0.6722844,-0.66534716,-0.43984917,-0.43780512,0.28725332,-1.4912112,-0.13252802,0.019475631,-0.011258458,0.99411273,-0.055571202
-0.2,0.10000000000000003,1.1999999999999997,-0.5235987755982988,0.0,0,0.637393,-0.13466042,1.0746847,0.6740887,-0.6729473,-0.4150245,-0.72326857,0.2867573,-1.4877673,-0.118544586,-0.06173599,-0.121551,1.0539093,-0.64604586
-0.2,0.10000000000000003,1.1999999999999997,-0.5235987755982988,0.0,0,0.63205457,-0.13415262,1.0702156,0.66859704,-0.6562495,-0.4382835,-0.59484184,0.28349158,-1.493463,-0.13156693,0.0155491615,-0.145301,0.90969414,-0.17810974
-0.2,0.10000000000000003,1.1999999999999997,-0.5235987755982988,0.0,0,0.6378692,-0.13068978,1.063643,0.67224985,-0.6751911,-0.45015082,-0.72955054,0.28128976,-1.4885285,-0.12657583,-0.025831766,-0.123559915,1.0802966,0.09994803
-0.2,0.10000000000000003,1.1999999999999997,-0.5235987755982988,0.0,0,0.6383941,-0.13819575,1.0660306,0.6717483,-0.6677957,-0.46051556,-0.9101835,0.29109138,-1.4942766,-0.13025573,-0.045021806,0.06722557,1.1196029,0.22873783
-0.2,0.10000000000000003,1.1999999999999997,-0.5235987755982988,0.0,0,0.6354849,-0.13169234,1.0665792,0.6706827,-0.65729594,-0.43326604,-0.21875823,0.27297747,-1.4905123,-0.12751865,0.009488486,-0.012138561,1.0911214,0.11745711
-0.2,0.10000000000000003,1.1999999999999997,-0.5235987755982988,0.0,0,0.63840705,-0.1342833,1.0641253,0.67325854,-0.6666956,-0.43989864,-0.330295,0.27881807,-1.4889326,-0.12221508,0.0026744953,0.037213814,1.0459226,-0.53344095
-0.2,0.10000000000000003,1.1999999999999997,-0.5235987755982988,0.0,0,0.63581866,-0.13797502,1.0684555,0.6687433,-0.65915126,-0.49246284,-1.2025361,0.2743362,-1.4906336,-0.1480748,-0.0035900294,0.10105979,0.99170387,-0.25973397
-0.2,0.10000000000000003,1.1999999999999997,-0.5235987755982988,0.0,0,0.6363723,-0.14695644,1.0675434,0.66855055,-0.65948564,-0.5272936,-0.8971093,0.26918316,-1.491204,-0.12246446,-0.0040193605,-0.04134675,1.0156432,-0.08438939
-0.2,0.10000000000000003,1.1999999999999997,-0.5235987755982988,0.0,0,0.6338726,-0.13545525,1.0666943,0.6694072,-0.661405,-0.46525124,-0.68240863,0.28055313,-1.4853868,-0.133941,-0.023482326,-0.24638301,1.0593861,-0.51945984
-0.2,0.10000000000000003,1.1999999999999997,-0.5235987755982988,0.0,0,0.6336016,-0.13334668,1.0671823,0.66906387,-0.6721771,-0.44444895,-0.57096505,0.27890232,-1.4909462,-0.13371591,-0.017533328,-0.09851236,1.1201032,0.17620008
-0.2,0.10000000000000003,1.1999999999999997,-0.5235987755982988,0.0,0,0.63623834,-0.1352572,1.0624585,0.6700071,-0.69469297,-0.45508087,-0.8733848,0.29049808,-1.4875906,-0.13498357,0.0031100076,-0.13855393,1.1154804,-0.01618909
-0.2,0.10000000000000003,1.1999999999999997,-0.5235987755982988,0.0,0,0.63233536,-0.13402182,1.0678504,0.6732407,-0.66880363,-0.4401574,-0.96587926,0.28563878,-1.4901413,-0.11299479,-0.007263228,0.1563562,1.0432459,-0.40477657
-0.2,0.10000000000000003,1.1999999999999997,-0.5235987755982988,0.0,0,0.63264036,-0.13998595,1.0676144,0.66958827,-0.67196375,-0.39553946,-0.6035733,0.2692779,-1.4846988,-0.12985383,-0.03503671,-0.0142838005,1.0241524,-0.7900444
-0.2,0.10000000000000003,1.1999999999999997,-0.5235987755982988,0.0,0,0.6340376,-0.1447981,1.0674951,0.6715418,-0.64889675,-0.4986495,-0.47968188,0.2736807,-1.4885558,-0.13376659,0.045079663,0.017745996,1.0153251,-0.3135928
-0.2,0.10000000000000003,1.1999999999999997,-0.5235987755982988,0.0,0,0.6369801,-0.14044173,1.0675645,0.6691367,-0.6937611,-0.43612948,-0.4291027,0.28518435,-1.4966335,-0.12050417,0.031620614,-0.19913863,1.100478,-0.15845497
-0.2,0.10000000000000003,1.1999999999999997,-0.5235987755982988,0.0,0,0.6328462,-0.13614133,1.0684485,0.67063,-0.66707385,-0.4753906,-0.87686104,0.28259262,-1.4898415,-0.14060298,-0.029955115,0.035815462,0.9570006,-0.12378268
-0.2,0.10000000000000003,1.1999999999999997,-0.5235987755982988,0.0,0,0.6342735,-0.13445196,1.0664858,0.67342633,-0.6609568,-0.46471736,-0.590498,0.29186237,-1.4937469,-0.13395539,-0.08175708,-0.22623448,1.0892307,-0.46207678
-0.2,0.10000000000000003,1.1999999999999997,-0.5235987755982988,0.0,0,0.63616705,-0.14364575,1.0636177,0.6719034,-0.67297995,-0.47396883,-0.12188342,0.28051925,-1.4912251,-0.13084139,0.019609582,0.058649905,1.0730731,-0.187015
-0.2,0.10000000000000003,1.1999999999999997,-0.5235987755982988,0.0,0,0.63657814,-0.13605022,1.0665439,0.67198366,-0.6774877,-0.4440909,0.38882026,0.2778603,-1.4916468,-0.15242296,-0.049580164,-0.0060249334,0.98145014,-0.70698726
-0.2,0.10000000000000003,1.1999999999999997,-0.5235987755982988,0.0,0,0.6340542,-0.12953389,1.0685382,0.6724492,-0.6832717,-0.4934539,-0.39240387,0.26196405,-1.490809,-0.1327438,0.04511868,0.05520999,1.0694844,-0.7457389
-0.2,0.10000000000000003,1.1999999999999997,-0.5235987755982988,0.0,0,0.63447386,-0.13226604,1.0677742,0.66910213,-0.6642607,-0.46244928,-1.0458109,0.27255532,-1.4914359,-0.12756862,-0.026171612,-0.009051704,1.1291288,-0.3629542
-0.2,0.10000000000000003,1.1999999999999997,-0.5235987755982988,0.0,0,0.6320958,-0.14062372,1.0660641,0.67284846,-0.6682382,-0.42269018,-0.6045256,0.29712403,-1.490154,-0.14004588,-0.05988122,0.075345114,1.0455778,-0.12161876
-0.2,0.10000000000000003,1.1999999999999997,-0.5235987755982988,0.0,0,0.6349565,-0.13419549,1.0635123,0.6727198,-0.6734572,-0.50790083,-0.08551127,0.29016426,-1.4928732,-0.14007582,0.007633069,-0.17304058,1.0507233,-0.42067304
-0.2,0.10000000000000003,1.1999999999999997,-0.5235987755982988,0.0,0,0.6323236,-0.13737209,1.0707232,0.6681932,-0.68237835,-0.4669958,0.4131469,0.2652614,-1.4902693,-0.13533893,-0.06446668,0.105923966,1.0636872,-0.25557476
-0.2,0.10000000000000003,1.1999999999999997,-0.5235987755982988,0.0,0,0.63538605,-0.14250948,1.0657746,0.66566986,-0.66148037,-0.46961856,-0.5660204,0.2673966,-1.4921925,-0.1413505,-0.12348058,-0.089098476,1.1067435,-0.4936721
-0.2,0.10000000000000003,1.1999999999999997,-0.5235987755982988,0.0,0,0.636811,-0.13679,1.066151,0.6738482,-0.6699005,-0.47658804,-0.92148393,0.27717185,-1.4897441,-0.12167004,-0.0016930393,-0.15785141,0.9843644,-0.3395849
-0.2,0.10000000000000003,1.1999999999999997,-0.5235987755982988,0.0,0,0.6350597,-0.13671994,1.0677851,0.67022777,-0.68804276,-0.457054,-0.7375588,0.28208596,-1.4931847,-0.12449363,-0.073043235,-0.056495152,0.8860062,-0.5492105
-0.2,0.10000000000000003,1.1999999999999997,-0.5235987755982988,0.0,0,0.631973,-0.13358262,1.0665897,0.6699593,-0.6522883,-0.50380874,-0.39337072,0.2938306,-1.4910655,-0.1360761,-0.009405998,-0.2623035,1.0151758,0.1785535
-0.2,0.10000000000000003,1.1999999999999997,-0.5235987755982988,0.0,0,0.63874406,-0.13655692,1.0673995,0.6691266,-0.66232276,-0.4296449,-1.192224,0.27722552,-1.4893047,-0.13150404,-0.116797835,-0.108749814,0.9675034,-0.6120862
-0.2,0.10000000000000003,1.1999999999999997,-0.5235987755982988,0.0,0,0.6351875,-0.13616565,1.0675032,0.6743611,-0.6736458,-0.48488116,-0.6346805,0.2782798,-1.4902436,-0.11379956,-0.07690207,0.19165416,1.1065927,-0.29635403
-0.2,0.10000000000000003,1.1999999999999997,-0.5235987755982988,0.0,0,0.62882453,-0.13093397,1.0680704,0.6686771,-0.6764397,-0.45913538,-0.59437644,0.27934194,-1.4914649,-0.13233683,0.008838946,-0.09831886,1.1404074,0.0112266345
-0.2,0.10000000000000003,1.1999999999999997,-0.5235987755982988,0.0,0,0.63290936,-0.13758664,1.0699793,0.67502606,-0.6839289,-0.48467582,-0.7825041,0.29224107,-1.4883109,-0.13153933,-0.017723516,0.31860942,1.1333693,-0.2590746
-0.2,0.10000000000000003,1.1999999999999997,-0.5235987755982988,0.0,0,0.6374835,-0.14202172,1.066758,0.6693059,-0.6666315,-0.42650136,-0.8165361,0.27836785,-1.4898875,-0.14163324,0.065891854,-0.046735797,1.099678,-0.115080565
-0.2,0.10000000000000003,1.1999999999999997,-0.5235987755982988,0.0,0,0.6376686,-0.1362785,1.0709155,0.6697648,-0.66993266,-0.49719575,-0.30673108,0.2736219,-1.4900302,-0.12205259,0.00059219595,0.04157609,1.1873208,-0.44915688
-0.2,0.10000000000000003,1.1999999999999997,-0.5235987755982988,0.0,0,0.6348969,-0.13834144,1.0720649,0.67152894,-0.6681948,-0.45016956,-0.16592477,0.2876851,-1.4938781,-0.11834542,-0.017672475,-0.0320296,1.1512736,-0.30243227
-0.2,0.10000000000000003,1.1999999999999997,-0.5235987755982988,0.0,0,0.63453174,-0.14290626,1.0642592,0.67021453,-0.67521626,-0.4152641,-0.63661444,0.27996245,-1.4870666,-0.13325472,-0.012716495,-0.087387666,1.0905519,-0.17140399
-0.2,0.10000000000000003,1.1999999999999997,-0.5235987755982988,0.0,0,0.6328586,-0.14138201,1.0593392,0.67017436,-0.68449295,-0.42332706,-0.27657112,0.2703172,-1.4909439,-0.12980616,0.00016382677,-0.19294888,1.0295727,-0.45089176
-0.2,0.10000000000000003,1.1999999999999997,-0.5235987755982988,0.0,0,0.6350043,-0.13594058,1.0647705,0.6706962,-0.66658723,-0.42437696,-0.88299274,0.27532294,-1.4916004,-0.12801467,-0.0468492,0.00056207005,0.96391624,-0.26277015
-0.2,0.10000000000000003,1.1999999999999997,-0.5235987755982988,0.0,0,0.63806885,-0.13864522,1.0673237,0.671695,-0.6520328,-0.48003873,-0.35672405,0.2886335,-1.4930139,-0.116474934,-0.019276118,0.15033391,1.0197551,-0.3498741
-0.2,0.10000000000000003,1.1999999999999997,-0.5235987755982988,0.0,0,0.6333906,-0.13891646,1.0703062,0.66881204,-0.6654358,-0.44382355,-0.79776776,0.2747579,-1.4913971,-0.13724488,-0.029281631,-0.093018666,1.1617484,-0.23763101
-0.2,0.10000000000000003,1.1999999999999997,-0.5235987755982988,0.0,0,0.63125664,-0.12586528,1.0695903,0.66796803,-0.710542,-0.403961,-0.670264,0.27264622,-1.4895619,-0.13564794,-0.08166128,-0.043110143,1.048044,-0.9245789
-0.2,0.10000000000000003,1.1999999999999997,-0.5235987755982988,0.0,0,0.6377624,-0.13628946,1.0704025,0.6708225,-0.6824564,-0.47640544,-0.87843925,0.28944114,-1.4938967,-0.12377389,-0.010078564,0.030677073,0.96754754,-0.075333595
-0.2,0.10000000000000003,1.1999999999999997,-0.5235987755982988,0.0,0,0.6322206,-0.14529265,1.0675834,0.6709842,-0.65044653,-0.45987174,-0.6643412,0.2832863,-1.4932636,-0.11700674,-0.03464239,0.048221737,1.0353974,0.049637444
-0.2,0.10000000000000003,1.1999999999999997,-0.5235987755982988,0.0,0,0.63768786,-0.13288197,1.0667535,0.6725335,-0.6482239,-0.46593022,-0.6261597,0.28217298,-1.4902726,-0.13614418,-0.044313617,0.053327307,1.0562736,0.1245413
-0.2,0.10000000000000003,1.1999999999999997,-0.5235987755982988,0.0,0,0.63986796,-0.14232409,1.069973,0.67420363,-0.6735308,-0.4534403,-1.0184116,0.28878447,-1.4925535,-0.12245989,-0.12404728,-0.036790095,1.0912641,-0.42114097
-0.2,0.10000000000000003,1.1999999999999997,-0.5235987755982988,0.0,0,0.6332648,-0.14423949,1.0664494,0.6712051,-0.65708625,-0.44561255,-0.58950454,0.274849,-1.4878244,-0.12880056,0.019821286,-0.17112361,1.0972587,-0.61296946
-0.2,0.10000000000000003,1.1999999999999997,-0.5235987755982988,0.0,0,0.63106704,-0.13306028,1.0696943,0.66951346,-0.67889386,-0.44471627,-0.8060506,0.27320746,-1.4918714,-0.15611102,-0.024159465,0.029784245,0.99630237,-0.04582192
-0.2,0.10000000000000003,1.1999999999999997,-0.5235987755982988,0.0,0,0.6342403,-0.13472338,1.0705433,0.67067504,-0.6559365,-0.45612398,-0.33717114,0.28180438,-1.4920061,-0.1293471,0.019723108,0.050892927,1.2305784,-0.80143714
-0.2,0.10000000000000003,1.1999999999999997,-0.5235987755982988,0.0,0,0.6306394,-0.13286994,1.0663722,0.6687566,-0.6575777,-0.4365721,-1.0320566,0.28319907,-1.491428,-0.1257653,0.05214456,-0.09583562,1.0072201,-0.25946403
-0.2,0.10000000000000003,1.1999999999999997,-0.5235987755982988,0.0,0,0.63338596,-0.13762438,1.0740997,0.66952235,-0.679223,-0.4939544,-0.8686395,0.27070314,-1.4928598,-0.11142686,-0.12744124,0.09456307,1.1234314,-0.40242475
-0.2,0.10000000000000003,1.1999999999999997,-0.5235987755982988,0.0,0,0.6354626,-0.14326319,1.0640705,0.675551,-0.6580409,-0.47551212,-0.27637944,0.27646995,-1.4970177,-0.13771515,-0.072380096,-0.09513723,1.1301414,-0.23191434
-0.2,0.10000000000000003,1.1999999999999997,-0.5235987755982988,0.0,0,0.63177466,-0.14287055,1.0687163,0.67449236,-0.6531113,-0.45354533,-0.54907554,0.26501662,-1.4909035,-0.13275777,-0.012066511,0.093429245,1.1061639,-0.34479123
-0.2,0.10000000000000003,1.1999999999999997,-0.5235987755982988,0.0,0,0.6316301,-0.13225536,1.071432,0.67190236,-0.6672403,-0.49175087,-0.85071605,0.2815425,-1.4915395,-0.13273361,-0.048075356,-0.21939224,0.95755935,-0.25096843
-0.2,0.10000000000000003,1.1999999999999997,-0.5235987755982988,0.0,0,0.63379544,-0.13625987,1.0709791,0.66899735,-0.6764667,-0.43932563,-0.67667675,0.26861677,-1.4899707,-0.12128634,-0.029768273,-0.16673653,1.0345532,-0.17495033
-0.2,0.10000000000000003,1.1999999999999997,-0.5235987755982988,0.0,0,0.6339998,-0.14699079,1.0750455,0.6698453,-0.6597661,-0.4460492,-0.2186129,0.27887267,-1.4921476,-0.11206746,-0.0015412464,-0.2777846,1.0212117,-0.61798996
-0.2,0.10000000000000003,1.1999999999999997,-0.5235987755982988,0.0,0,0.6296893,-0.13546292,1.0639036,0.6725396,-0.6458454,-0.45119855,-1.1910881,0.2948402,-1.4908549,-0.12418505,-0.0331211,-0.036368478,1.1236073,-0.5453624
-0.2,0.10000000000000003,1.1999999999999997,-0.5235987755982988,0.0,0,0.6296911,-0.13572153,1.0654881,0.6708331,-0.6551406,-0.44850922,-1.4330993,0.28164202,-1.4917748,-0.12956442,0.026962996,-0.13901791,1.0986991,-0.5720314
-0.2,0.10000000000000003,1.1999999999999997,-0.5235987755982988,0.0,0,0.6376858,-0.14081022,1.0690666,0.6734991,-0.6662105,-0.44474897,-0.954325,0.27922788,-1.4924306,-0.116135456,-0.033237673,-0.014305213,1.0734181,-0.20968455
-0.2,0.10000000000000003,1.1999999999999997,-0.5235987755982988,0.0,0,0.6380928,-0.14116691,1.066338,0.67103136,-0.677835,-0.43875328,-0.5559675,0.2746995,-1.487166,-0.13989379,-0.023703467,-0.15004091,1.0086324,-0.4223104
-0.2,0.10000000000000003,1.1999999999999997,-0.5235987755982988,0.0,0,0.637593,-0.13427775,1.0700747,0.6723716,-0.67839587,-0.4210279,-0.5719591,0.26893497,-1.492528,-0.1329869,-0.02189166,-0.35375842,1.1027923,-0.42230222
-0.2,0.10000000000000003,1.1999999999999997,-0.5235987755982988,0.0,0,0.633111,-0.13578981,1.0676239,0.67023075,-0.65170723,-0.46281895,-0.7767686,0.26721853,-1.487338,-0.12242803,-0.027911725,-0.25646383,1.0143015,-0.14246422
-0.2,0.10000000000000003,1.1999999999999997,-0.5235987755982988,0.0,0,0.6392206,-0.1393714,1.0654225,0.67333657,-0.66311616,-0.45003077,-0.45966235,0.2792588,-1.4877759,-0.14411682,0.005377191,-0.13195394,1.1508285,-0.31179965
-0.2,0.10000000000000003,1.1999999999999997,-0.5235987755982988,0.0,0,0.633658,-0.13614924,1.0659448,0.670774,-0.6660503,-0.44360986,-0.61231065,0.28049314,-1.4930274,-0.13525392,-0.0811331,-0.20395713,1.028087,-0.19249678
-0.2,0.10000000000000003,1.1999999999999997,-0.5235987755982988,0.0,0,0.63620454,-0.13235193,1.0704404,0.6739697,-0.6736165,-0.48171714,-0.9795752,0.2640105,-1.4920362,-0.12022385,0.01659354,-0.045666058,1.040166,-0.5019488
-0.2,0.10000000000000003,1.1999999999999997,-0.5235987755982988,0.0,0,0.632436,-0.13403203,1.0664464,0.6696561,-0.67288435,-0.43534237,-0.9064553,0.27861705,-1.4894556,-0.12536973,-0.014171649,-0.114879414,1.0716197,-0.24181792
-0.2,0.10000000000000003,1.1999999999999997,-0.5235987755982988,0.0,0,0.6347546,-0.1421862,1.0643898,0.6711634,-0.66124684,-0.4644491,-0.4668853,0.27905285,-1.4912796,-0.1287636,-0.05185719,-0.043145537,1.0094107,-0.0048235287
-0.2,0.10000000000000003,1.1999999999999997,-0.5235987755982988,0.0,0,0.63674957,-0.13445304,1.0683235,0.6753854,-0.6781938,-0.524169,-0.5948148,0.2934069,-1.4868996,-0.12687919,-0.007028541,-0.30246457,1.0517933,-0.13146335
-0.2,0.10000000000000003,1.1999999999999997,-0.5235987755982988,0.0,0,0.63650507,-0.14352237,1.066978,0.6702788,-0.6587599,-0.44517636,-0.46541968,0.27593854,-1.4917974,-0.11487236,0.015797291,-0.020530095,1.1177851,-0.30471522
-0.2,0.10000000000000003,1.1999999999999997,-0.5235987755982988,0.0,0,0.63509905,-0.13493069,1.0679561,0.6733886,-0.6650545,-0.46189195,-0.9071955,0.27670878,-1.4896753,-0.13416438,-0.048760984,-0.06776905,0.9968771,-0.15136154
-0.2,0.10000000000000003,1.1999999999999997,-0.5235987755982988,0.0,0,0.63406765,-0.132326,1.0656886,0.6707942,-0.6573801,-0.44352216,-0.40533286,0.28165698,-1.4960637,-0.1315973,-0.071294986,0.063525185,1.0638689,-0.6133986
-0.2,0.10000000000000003,1.1999999999999997,-0.5235987755982988,0.0,0,0.63632363,-0.13947392,1.0682034,0.672,-0.6645879,-0.46141115,-0.4898831,0.26966676,-1.4903017,-0.1322609,-0.07767344,-0.20598283,0.8697629,-0.08103712
-0.2,0.10000000000000003,1.1999999999999997,-0.5235987755982988,0.0,0,0.6371115,-0.13756078,1.0722147,0.67184085,-0.66961515,-0.4255595,-0.31208342,0.27550048,-1.4913974,-0.13280386,-0.01972494,0.118588656,1.1335577,0.081035316
-0.2,0.10000000000000003,1.1999999999999997,-0.5235987755982988,0.0,0,0.63561165,-0.13747916,1.070664,0.66922426,-0.67576,-0.45752668,-0.56778914,0.28585842,-1.491741,-0.12669095,-0.016076023,-0.058969967,1.1776223,0.16356806
-0.2,0.10000000000000003,1.1999999999999997,-0.5235987755982988,0.0,0,0.632429,-0.13663977,1.0696853,0.6728704,-0.6656231,-0.4325333,-0.625912,0.28803623,-1.4910823,-0.14665689,0.028060868,-0.30794334,0.9524334,-0.94727445
-0.2,0.10000000000000003,1.1999999999999997,-0.5235987755982988,0.0,0,0.6323891,-0.13546486,1.0688279,0.6707842,-0.67262477,-0.48318365,-0.6649432,0.27559868,-1.493223,-0.12707354,0.018808821,0.07641714,1.0868512,-0.067565024
-0.2,0.10000000000000003,1.1999999999999997,-0.5235987755982988,0.0,0,0.6346483,-0.14286157,1.0672328,0.6704037,-0.66476184,-0.47507736,-0.7184526,0.27851444,-1.4888575,-0.13805734,0.012218881,-0.13544239,1.0545667,-0.34476745
-0.2,0.10000000000000003,1.1999999999999997,-0.5235987755982988,0.0,0,0.63531756,-0.14146481,1.065975,0.67105305,-0.65724826,-0.48296615,-0.6165357,0.2703941,-1.4896829,-0.14223239,-0.10764226,0.1042999,0.96795475,-0.2889513
-0.2,0.10000000000000003,1.1999999999999997,-0.5235987755982988,0.0,0,0.6356742,-0.14050002,1.0736923,0.6711078,-0.6633367,-0.44922552,-1.2471274,0.27516922,-1.4897597,-0.13972323,0.023686469,-0.112134546,1.0618577,0.3530343
-0.2,0.10000000000000003,1.1999999999999997,-0.5235987755982988,0.0,0,0.6344729,-0.1354395,1.0660982,0.670171,-0.67554325,-0.44695452,-0.59004164,0.26931405,-1.4962782,-0.12656341,0.015814548,-0.10098165,0.9664556,-0.08697291
-0.2,0.10000000000000003,1.1999999999999997,-0.5235987755982988,0.0,0,0.63316864,-0.14355195,1.0671139,0.67285925,-0.6826794,-0.47534758,-0.61610293,0.28683344,-1.4902984,-0.13244651,0.0011876959,-0.07113987,1.087925,0.508149
-0.2,0.10000000000000003,1.1999999999999997,-0.5235987755982988,0.0,0,0.6352495,-0.1398926,1.0683287,0.670231,-0.69028324,-0.5355962,-1.036357,0.28009725,-1.4890169,-0.12070357,0.047552202,-0.10076416,1.0035125,-0.27815914
-0.2,0.10000000000000003,1.1999999999999997,-0.5235987755982988,0.0,0,0.6365549,-0.13721599,1.0698937,0.672727,-0.66240996,-0.440814,-0.6842068,0.2808662,-1.4912152,-0.11648231,0.010960512,-0.2723571,1.0544398,0.19772133
-0.2,0.10000000000000003,1.1999999999999997,-0.5235987755982988,0.0,0,0.6342069,-0.13144156,1.0663786,0.671587,-0.6604801,-0.45619503,-0.78617066,0.2712281,-1.4959415,-0.12280963,-0.004624782,-0.21515913,1.0605704,-0.3080056
-0.2,0.10000000000000003,1.1999999999999997,-0.5235987755982988,0.0,0,0.63316447,-0.1458354,1.0650901,0.66822773,-0.6821924,-0.44932038,-0.66425264,0.28368908,-1.4905014,-0.11944512,-0.048673995,0.004855441,1.0120357,-0.6383606
-0.2,0.10000000000000003,1.1999999999999997,-0.5235987755982988,0.0,0,0.6346678,-0.14245191,1.067105,0.6668342,-0.6515081,-0.43049288,-0.8272949,0.27801242,-1.4917367,-0.1367858,-0.12440163,-0.1328839,0.9663587,0.1355412
-0.2,0.10000000000000003,1.1999999999999997,-0.5235987755982988,0.0,0,0.6326713,-0.14347847,1.0719559,0.67110264,-0.67505604,-0.45578936,-0.26634243,0.27694237,-1.4894452,-0.13605712,0.036621224,-0.033533953,1.0393186,0.4161757
-0.2,0.10000000000000003,1.1999999999999997,-0.5235987755982988,0.0,0,0.6366852,-0.14034441,1.0676928,0.67299294,-0.6710564,-0.4847988,-0.77157867,0.25853294,-1.4944178,-0.1358639,0.014039909,0.047670126,1.1470144,-0.530353
-0.2,0.10000000000000003,1.1999999999999997,-0.5235987755982988,0.0,0,0.63655216,-0.14421365,1.0649667,0.66988146,-0.6470773,-0.460778,-0.8462164,0.27572632,-1.490899,-0.135917,0.030961957,0.0447996,1.1866087,0.17776991
-0.2,0.10000000000000003,1.1999999999999997,-0.5235987755982988,0.0,0,0.6380965,-0.13814804,1.0661618,0.6696447,-0.6721501,-0.43735912,-0.6817054,0.2772532,-1.4898582,-0.1327601,0.0038391643,0.12634186,1.0334834,-0.41627812
-0.2,0.10000000000000003,1.1999999999999997,-0.5235987755982988,0.0,0,0.6347982,-0.14171475,1.0629996,0.66864645,-0.6763912,-0.4720177,-0.7713723,0.2808137,-1.4917247,-0.1440862,-0.052144803,0.117621526,0.83590287,0.09431631
-0.2,0.10000000000000003,1.1999999999999997,-0.5235987755982988,0.0,0,0.6352551,-0.1421229,1.0681033,0.6705275,-0.6706261,-0.4585166,-0.34360832,0.28310472,-1.4907752,-0.12822448,0.06918585,0.0069246627,1.047944,-0.6383827
-0.2,0.10000000000000003,1.1999999999999997,-0.5235987755982988,0.0,0,0.6357261,-0.1327376,1.0678147,0.6680182,-0.6860136,-0.47640544,-0.68258923,0.27871454,-1.4945817,-0.12916207,-0.02672446,-0.16959544,1.1491356,-0.16375707
-0.2,0.10000000000000003,1.1999999999999997,-0.5235987755982988,0.0,0,0.63077337,-0.14044091,1.0683589,0.66967607,-0.693489,-0.49291652,-0.6644111,0.27610084,-1.4927616,-0.1277421,0.058260497,0.15689485,0.9630866,-0.460956
-0.2,0.10000000000000003,1.1999999999999997,-0.5235987755982988,0.0,0,0.6348374,-0.15080984,1.071119,0.6702751,-0.6690196,-0.4262532,-1.0393342,0.27046382,-1.4922477,-0.13019438,-0.014277787,-0.030427897,1.1160619,-0.5002655
-0.2,0.10000000000000003,1.1999999999999997,-0.5235987755982988,0.0,0,0.6304519,-0.14841437,1.0710349,0.6711541,-0.6676314,-0.47808394,-1.0057323,0.27419153,-1.4905065,-0.118780926,-0.011102939,-0.16324773,0.9622197,0.094810635
-0.2,0.10000000000000003,1.1999999999999997,-0.5235987755982988,0.0,0,0.6379233,-0.13762431,1.068225,0.66869885,-0.66457164,-0.4660966,-0.94035184,0.27160046,-1.4904538,-0.12282773,-0.021576071,-0.0427676,1.1370093,0.73514163
-0.2,0.10000000000000003,1.1999999999999997,-0.5235987755982988,0.0,0,0.63387424,-0.1434912,1.0704881,0.6691611,-0.6602361,-0.48406523,-0.84588397,0.26755434,-1.4927926,-0.13160442,-0.08064009,-0.16072276,1.0714167,-0.45196852
-0.2,0.10000000000000003,1.1999999999999997,-0.5235987755982988,0.0,0,0.63739455,-0.14091544,1.0675818,0.6704463,-0.66183776,-0.4546399,-0.6604621,0.26032883,-1.493861,-0.12497283,-0.041027714,-0.0759654,1.166973,-0.3028037
-0.2,0.10000000000000003,1.1999999999999997,-0.5235987755982988,0.0,0,0.63465685,-0.13525632,1.0674946,0.67012644,-0.67263275,-0.47241214,0.08619201,0.25864962,-1.4934373,-0.13216907,-0.021853913,-0.22917259,1.1458479,-0.39872238
-0.2,0.10000000000000003,1.1999999999999997,-0.5235987755982988,0.0,0,0.6377914,-0.13751012,1.068884,0.6703414,-0.6538232,-0.44956735,-0.8697886,0.28259903,-1.488923,-0.13294132,0.00085233414,-0.14396776,0.9135293,-0.120970026
-0.2,0.10000000000000003,1.1999999999999997,-0.5235987755982988,0.0,0,0.6359459,-0.14016257,1.0686673,0.670968,-0.6658567,-0.48657206,-0.54191315,0.278611,-1.4912261,-0.13422522,0.049005058,0.28597245,1.1030673,-0.40114355
-0.2,0.10000000000000003,1.1999999999999997,-0.5235987755982988,0.0,0,0.6363565,-0.13913013,1.0694542,0.6722897,-0.67832303,-0.49642152,-0.95492893,0.27003026,-1.4907826,-0.12378652,-0.012380488,-0.25008398,1.1711569,-0.5684174
-0.2,0.10000000000000003,1.1999999999999997,-0.5235987755982988,0.0,0,0.63540816,-0.14081918,1.0687236,0.67088217,-0.6590835,-0.4567239,-0.40526864,0.28384528,-1.4915354,-0.12587525,-0.0556314,-0.0017000427,1.1055603,-0.0024751634
-0.2,0.10000000000000003,1.1999999999999997,-0.5235987755982988,0.0,0,0.63531387,-0.13974997,1.0646932,0.6715503,-0.65314007,-0.44791073,-0.40775433,0.28926942,-1.4959913,-0.12061285,-0.025021177,-0.21215102,1.2251142,-0.3365422
-0.2,0.10000000000000003,1.1999999999999997,-0.5235987755982988,0.0,0,0.6349182,-0.13888247,1.0705596,0.6711728,-0.6583648,-0.48449504,-0.2209706,0.2763529,-1.4901489,-0.14074232,-0.033187795,-0.18773375,0.9649657,-0.62074697
-0.2,0.10000000000000003,1.1999999999999997,-0.5235987755982988,0.0,0,0.6344672,-0.1347148,1.0649239,0.6734841,-0.67774177,-0.4872284,-1.0784258,0.27862027,-1.4945409,-0.123348705,-0.05223983,-0.3870263,1.0421118,-0.07915588
-0.2,0.10000000000000003,1.1999999999999997,-0.5235987755982988,0.0,0,0.63369083,-0.14013983,1.0706475,0.6715449,-0.6676308,-0.470489,-0.5677822,0.2705008,-1.4864819,-0.13923417,-0.05312682,-0.17879182,1.1552844,-0.33056256
-0.2,0.10000000000000003,1.1999999999999997,-0.5235987755982988,0.0,0,0.6378579,-0.1337052,1.0715516,0.6703109,-0.6591609,-0.45941907,-1.0378482,0.279515,-1.4921889,-0.12665714,-0.059687458,-0.09990332,1.0783521,0.0019330473
-0.2,0.10000000000000003,1.1999999999999997,-0.5235987755982988,0.0,0,0.63703185,-0.14007974,1.0719736,0.6672993,-0.6757158,-0.43497822,-0.9816451,0.26675314,-1.494136,-0.12290053,-0.11391518,-0.10016005,1.1301672,-0.06268059
-0.2,0.10000000000000003,1.1999999999999997,-0.5235987755982988,0.0,0,0.6329845,-0.14126521,1.0679586,0.6751781,-0.6796432,-0.46004912,-0.8371412,0.29557127,-1.4889487,-0.1344519,-0.02017218,-0.040580895,1.0359753,0.17651708
-0.2,0.10000000000000003,1.1999999999999997,-0.5235987755982988,0.0,0,0.63255644,-0.14314812,1.067496,0.67059696,-0.6701365,-0.47706926,-0.6742176,0.27068833,-1.4916383,-0.14740613,-0.04617054,-0.071182914,1.0713357,-0.2549457
-0.2,0.10000000000000003,1.1999999999999997,-0.5235987755982988,0.0,0,0.6346149,-0.14315294,1.0683525,0.6670221,-0.6823599,-0.47642395,-0.48734275,0.28385487,-1.4914335,-0.12368873,0.028741382,-0.06495142,0.9952564,-0.3194043
-0.2,0.10000000000000003,1.1999999999999997,-0.5235987755982988,0.0,0,0.6344631,-0.14137332,1.0638294,0.6730922,-0.67184645,-0.48500353,-1.162258,0.28678402,-1.4946615,-0.13415326,-0.06886345,-0.061950225,1.1008763,-0.075819634
-0.2,0.10000000000000003,1.1999999999999997,-0.5235987755982988,0.0,0,0.6348592,-0.14031748,1.0665427,0.6719594,-0.67176795,-0.46078122,-0.55579364,0.27651608,-1.4947616,-0.13286953,-0.055474408,-0.020212876,1.0635765,-0.34494057
-0.2,0.10000000000000003,1.1999999999999997,-0.5235987755982988,0.0,0,0.63755256,-0.1345041,1.0714254,0.66953844,-0.66880107,-0.47280678,-1.0802472,0.27310258,-1.4890492,-0.13494241,-0.027901364,0.07225514,1.0467222,-0.34563568
-0.2,0.10000000000000003,1.1999999999999997,-0.5235987755982988,0.0,0,0.6378215,-0.14272168,1.0662366,0.6714604,-0.6625924,-0.44824976,-0.1291792,0.2598096,-1.4920099,-0.121516384,-0.011594894,-0.15722844,1.0706741,-0.4254905
-0.2,0.10000000000000003,1.1999999999999997,-0.5235987755982988,0.0,0,0.63084453,-0.13858394,1.0703002,0.67138845,-0.6708294,-0.48567435,-0.71948284,0.2630895,-1.4929557,-0.13695872,-0.042006988,0.058330856,1.1569542,0.14969867
-0.2,0.10000000000000003,1.1999999999999997,-0.5235987755982988,0.0,0,0.6311406,-0.14548917,1.0673456,0.673218,-0.6634174,-0.45451894,-0.18083765,0.2727788,-1.4926755,-0.13175687,-0.032549042,0.30423474,1.1303607,0.19752248
-0.2,0.10000000000000003,1.1999999999999997,-0.5235987755982988,0.0,0,0.63384545,-0.1374388,1.0659057,0.6738557,-0.6556682,-0.44379953,-0.20259319,0.281131,-1.4896889,-0.13443503,0.0078055128,0.048858665,0.95441777,-0.39049295
-0.2,0.10000000000000003,1.1999999999999997,-0.5235987755982988,0.0,0,0.63992727,-0.13547085,1.0673448,0.67087823,-0.6686682,-0.47338435,-0.3422243,0.28185478,-1.4892414,-0.13690624,-0.00055667793,-0.08185126,1.1088237,-0.51926774
-0.2,0.10000000000000003,1.1999999999999997,-0.5235987755982988,0.0,0,0.6346323,-0.14132613,1.064902,0.67228115,-0.6814354,-0.4568138,-0.452091,0.28554618,-1.492518,-0.12381331,-0.036806393,-0.14366369,0.94577324,-0.6721304
-0.2,0.10000000000000003,1.1999999999999997,-0.5235987755982988,0.0,0,0.6334967,-0.14574751,1.0651411,0.6698087,-0.6779627,-0.47609958,-0.7657925,0.27604336,-1.4912919,-0.12943971,0.057141207,0.02975444,0.94046634,-0.58638346
-0.2,0.10000000000000003,1.1999999999999997,-0.5235987755982988,0.0,0,0.63341856,-0.130742,1.0686811,0.67038554,-0.6540349,-0.5001535,-0.47848237,0.285042,-1.4904839,-0.13154595,0.037593763,0.050131664,0.943524,-0.42310914
-0.2,0.10000000000000003,1.1999999999999997,-0.5235987755982988,0.0,0,0.63929963,-0.140756,1.0660688,0.6722196,-0.66196954,-0.41943046,-0.20702723,0.29431894,-1.4921978,-0.12530954,0.044692144,0.038294125,1.1511148,-0.22672567
-0.2,0.10000000000000003,1.1999999999999997,-0.5235987755982988,0.0,0,0.63503295,-0.14728439,1.0650611,0.6712245,-0.6855649,-0.44649982,-0.07803582,0.288393,-1.4932858,-0.13965411,-0.0593164,-0.086103626,1.0648856,-0.43270102
-0.2,0.10000000000000003,1.1999999999999997,-0.5235987755982988,0.0,0,0.63703525,-0.13465676,1.0649649,0.6725838,-0.6558046,-0.4510889,-0.77535284,0.27556762,-1.4908819,-0.1338402,-0.020854019,-0.08672584,0.8606164,-0.36367843
-0.2,0.10000000000000003,1.1999999999999997,-0.5235987755982988,0.0,0,0.63406336,-0.13886483,1.0707604,0.6730404,-0.6665973,-0.44251966,-0.73515403,0.28589126,-1.4905587,-0.14732721,-0.05318264,-0.19823316,1.0697845,-0.02013514
-0.2,0.10000000000000003,1.1999999999999997,-0.5235987755982988,0.0,0,0.63578355,-0.13278134,1.0702076,0.67036015,-0.6685968,-0.43939093,-0.4717807,0.26508224,-1.4923497,-0.12187583,-0.03971352,-0.1443907,1.2311796,-0.805071
-0.2,0.10000000000000003,1.1999999999999997,-0.5235987755982988,0.0,0,0.634967,-0.14375974,1.0667349,0.6730627,-0.67956835,-0.46464723,-1.2135922,0.28258538,-1.4891407,-0.141842,-0.059223704,-0.14543687,1.1515703,0.3812101
-0.2,0.10000000000000003,1.1999999999999997,-0.5235987755982988,0.0,0,0.63338596,-0.13732375,1.0672039,0.6708389,-0.68138075,-0.4652421,-1.0536008,0.27123085,-1.4896661,-0.14705567,-0.07741235,-0.04842024,1.0281496,0.6631393
-0.2,0.10000000000000003,1.1999999999999997,-0.5235987755982988,0.0,0,0.63715345,-0.14177968,1.0693518,0.6738023,-0.6750539,-0.44128898,-0.45826316,0.27138686,-1.4874281,-0.13812375,-0.0035071012,-0.21582633,1.0779537,-0.57667613
-0.2,0.10000000000000003,1.1999999999999997,-0.5235987755982988,0.0,0,0.63674134,-0.13304262,1.0682379,0.67014843,-0.66965246,-0.47562587,-1.0449193,0.2691823,-1.4923491,-0.13145287,-0.10217065,-0.26857117,1.0092027,-0.33329308
-0.2,0.10000000000000003,1.1999999999999997,-0.5235987755982988,0.0,0,0.6334377,-0.13711026,1.0663375,0.6708166,-0.6591975,-0.4894322,-0.49153134,0.2767534,-1.4926751,-0.12853764,-0.009344078,0.05073896,1.1330539,-0.49727648
-0.2,0.10000000000000003,1.1999999999999997,-0.5235987755982988,0.0,0,0.6337762,-0.1370709,1.0707937,0.66799897,-0.66763616,-0.49614215,-0.4297457,0.29046053,-1.4928008,-0.1127508,-0.058755457,0.1089334,1.1222908,0.82730085
-0.2,0.10000000000000003,1.1999999999999997,-0.5235987755982988,0.0,0,0.6367987,-0.13297717,1.064793,0.6682845,-0.6656119,-0.44492495,-0.2336667,0.27738318,-1.4914846,-0.1453252,0.018242631,-0.24524143,1.0085689,0.35562256
-0.2,0.10000000000000003,1.1999999999999997,-0.5235987755982988,0.0,0,0.6351045,-0.13759375,1.0686349,0.6713524,-0.6622312,-0.43104795,-0.8411286,0.2723578,-1.4931762,-0.121796444,-0.011751104,-0.20213997,1.1050057,-0.36430013
-0.2,0.10000000000000003,1.1999999999999997,-0.5235987755982988,0.0,0,0.63436973,-0.13665651,1.0689647,0.6685615,-0.66325355,-0.44892287,-0.49228397,0.27047607,-1.4931078,-0.120421104,0.0042154966,-0.032057192,1.0647445,0.37228042
-0.2,0.10000000000000003,1.1999999999999997,-0.5235987755982988,0.0,0,0.6325541,-0.13547692,1.0679713,0.67252356,-0.6599102,-0.4859744,-1.0397621,0.2715941,-1.4930223,-0.12989,-0.058731195,0.0372448,0.9947289,-0.54691166
-0.2,0.10000000000000003,1.1999999999999997,-0.5235987755982988,0.0,0,0.63544315,-0.13647097,1.070454,0.67192686,-0.6643297,-0.44379032,-0.5710953,0.27867296,-1.4871535,-0.13724752,-0.045346465,-0.23276617,1.0308777,0.51876223
-0.2,0.10000000000000003,1.1999999999999997,-0.5235987755982988,0.0,0,0.63582987,-0.13949914,1.0642511,0.670206,-0.6820003,-0.47865626,-0.5909111,0.27459285,-1.4940068,-0.12332337,-0.13027649,0.16518354,1.0161489,-0.21702528
-0.2,0.10000000000000003,1.1999999999999997,-0.5235987755982988,0.0,0,0.6325185,-0.13860662,1.0670474,0.6694386,-0.6722001,-0.44273698,-0.2927159,0.27334476,-1.4936628,-0.12819321,-0.0131029,-0.030909335,1.2121993,-0.37823954
-0.2,0.10000000000000003,1.1999999999999997,-0.5235987755982988,0.0,0,0.6364892,-0.14170839,1.0665027,0.6714953,-0.66624683,-0.4589105,-1.103681,0.26728526,-1.4894625,-0.12375762,-0.05606051,0.09376552,1.08895,0.36458677
-0.2,0.10000000000000003,1.1999999999999997,-0.5235987755982988,0.0,0,0.63616717,-0.14378852,1.0670847,0.66859484,-0.68543583,-0.49928844,-0.5616168,0.2838817,-1.4959092,-0.11242702,-0.09316113,0.029481865,1.1321068,0.011556755
-0.2,0.10000000000000003,1.1999999999999997,-0.5235987755982988,0.0,0,0.63616365,-0.14376558,1.0668194,0.67338437,-0.662111,-0.48371416,-1.1509016,0.28624994,-1.4891108,-0.1286705,-0.016688094,-0.25141987,1.0904243,0.20064071
-0.2,0.10000000000000003,1.1999999999999997,-0.5235987755982988,0.0,0,0.62941223,-0.13500339,1.0678005,0.67268634,-0.67557853,-0.42378,-0.6404992,0.2835617,-1.4891593,-0.13184956,0.025737967,-0.3569585,1.0660981,-0.18933702
-0.2,0.10000000000000003,1.1999999999999997,-0.5235987755982988,0.0,0,0.6316925,-0.13633145,1.070456,0.6761637,-0.6468838,-0.48273796,-1.1725335,0.26936257,-1.4885141,-0.1367989,0.0040939418,-0.31557658,1.0039026,0.28893852
-0.2,0.10000000000000003,1.1999999999999997,-0.5235987755982988,0.0,0,0.6374018,-0.14456004,1.0686402,0.670604,-0.66701615,-0.4426087,-0.7769848,0.26860708,-1.4915442,-0.122717135,-0.046465807,0.005003176,1.0448525,-0.1661052
-0.2,0.10000000000000003,1.1999999999999997,-0.5235987755982988,0.0,0,0.6301741,-0.13897748,1.0707048,0.6765166,-0.6667755,-0.47522265,-0.41731742,0.2736193,-1.4897578,-0.117932536,-0.07211984,0.028229764,1.1002218,-0.18837819
-0.2,0.10000000000000003,1.1999999999999997,-0.5235987755982988,0.0,0,0.6373206,-0.14060293,1.0653371,0.67158526,-0.65946805,-0.46588275,-0.8029669,0.2943903,-1.4924521,-0.11472943,-0.028341642,-0.14327131,1.0748688,-0.2694637
-0.2,0.10000000000000003,1.1999999999999997,-0.5235987755982988,0.0,0,0.6314982,-0.14119662,1.0713443,0.67204636,-0.6674263,-0.47163025,-0.89248836,0.28379828,-1.4862548,-0.13068192,-0.051539574,0.12486914,1.0830098,-0.0455817
-0.2,0.10000000000000003,1.1999999999999997,-0.5235987755982988,0.0,0,0.6355902,-0.14257376,1.0700324,0.6715544,-0.6675012,-0.44770393,-1.0978523,0.26946527,-1.4866763,-0.1271138,-0.019879853,-0.17941853,1.0728143,0.05105647
-0.2,0.10000000000000003,1.1999999999999997,-0.5235987755982988,0.0,0,0.6374154,-0.13496955,1.0674713,0.6708445,-0.6863279,-0.45945615,-0.45039514,0.2909077,-1.492345,-0.12015705,-0.040516973,0.011319414,1.0643804,0.27564752
-0.2,0.10000000000000003,1.1999999999999997,-0.5235987755982988,0.0,0,0.6337473,-0.14258748,1.0697606,0.6686617,-0.65698004,-0.47816524,-0.41319573,0.27824345,-1.4896882,-0.11567178,-0.047683455,0.08267616,1.0632055,0.41744238
-0.2,0.10000000000000003,1.1999999999999997,-0.5235987755982988,0.0,0,0.63629204,-0.13713935,1.0708427,0.67316335,-0.66811764,-0.46757498,-0.085850984,0.25639758,-1.4911247,-0.13631207,-0.007693832,-0.33931965,1.0861326,-0.53643125
-0.2,0.10000000000000003,1.1999999999999997,-0.5235987755982988,0.0,0,0.63412464,-0.13715523,1.0678703,0.66966057,-0.65238917,-0.46025476,-0.7655237,0.27854478,-1.4937027,-0.12226417,0.015636291,-0.21940978,0.96566164,0.13060354
-0.2,0.10000000000000003,1.1999999999999997,-0.5235987755982988,0.0,0,0.6317798,-0.13850632,1.068418,0.67210025,-0.657247,-0.47698644,-0.7451751,0.26951966,-1.4924277,-0.12840906,-0.056049224,0.097821444,1.1432025,-0.64557326
-0.2,0.10000000000000003,1.1999999999999997,-0.5235987755982988,0.0,0,0.63163745,-0.1427743,1.0689507,0.67114604,-0.6723294,-0.47166374,-0.48165807,0.27344063,-1.4920489,-0.12392649,0.027238993,-0.34642738,0.99027956,0.023972321
-0.2,0.10000000000000003,1.1999999999999997,-0.5235987755982988,0.0,0,0.6352007,-0.14015499,1.0615177,0.67379206,-0.67268527,-0.45206004,-0.64305073,0.28287452,-1.490721,-0.13191849,-0.020882992,0.017675076,1.2607049,0.3219586
-0.2,0.10000000000000003,1.1999999999999997,-0.5235987755982988,0.0,0,0.6311989,-0.13763167,1.0704192,0.6737384,-0.6852274,-0.48028728,-0.31299305,0.26609263,-1.491461,-0.1344035,0.025744362,-0.22557247,1.0064747,-0.40671048
-0.2,0.10000000000000003,1.1999999999999997,-0.5235987755982988,0.0,0,0.63569397,-0.13445011,1.0713499,0.66831475,-0.65337026,-0.46809933,-0.487652,0.27188703,-1.4895382,-0.14028743,-0.010351083,0.03954409,1.0811527,0.03959353
-0.2,0.10000000000000003,1.1999999999999997,-0.5235987755982988,0.0,0,0.64032495,-0.13792573,1.066762,0.672798,-0.6565853,-0.43365508,-0.8798282,0.27412617,-1.4899269,-0.11145053,-0.032416064,0.057702158,1.2420737,-0.53816235
-0.2,0.10000000000000003,1.1999999999999997,-0.5235987755982988,0.0,0,0.634929,-0.13299978,1.068998,0.6699542,-0.67188543,-0.44632304,-0.32842866,0.27488923,-1.4912655,-0.13073322,-0.080258265,0.15199542,1.1253741,0.48780578
-0.2,0.10000000000000003,1.1999999999999997,-0.5235987755982988,0.0,0,0.6333772,-0.13264056,1.0615023,0.66841745,-0.652115,-0.43810177,-0.72607654,0.27415323,-1.4893078,-0.12502635,-0.04857198,-0.00042159716,0.8748251,-0.2945594
-0.2,0.10000000000000003,1.1999999999999997,-0.5235987755982988,0.0,0,0.63427556,-0.13913435,1.0659131,0.67149323,-0.6746213,-0.46492743,-0.6106467,0.29392302,-1.4927132,-0.13470446,-0.05610267,-0.1457329,1.150484,0.11004978
-0.2,0.10000000000000003,1.1999999999999997,-0.5235987755982988,0.0,0,0.63470316,-0.13821726,1.067652,0.6692416,-0.6539618,-0.4292191,-0.23791733,0.2803489,-1.4920307,-0.11812395,-0.06947626,0.24781711,1.0351857,-0.3160764
-0.2,0.10000000000000003,1.1999999999999997,-0.5235987755982988,0.0,0,0.6351413,-0.13568719,1.0682752,0.6688027,-0.6663288,-0.4939523,-0.38441557,0.27313676,-1.4897249,-0.12041772,0.015081828,-0.17539145,1.0646251,-0.81199723
-0.2,0.10000000000000003,1.1999999999999997,-0.5235987755982988,0.0,0,0.6291319,-0.13304083,1.0652378,0.67219156,-0.67241484,-0.4732522,-0.045883574,0.2832031,-1.488059,-0.11786492,0.0040710187,-0.04400211,0.95258963,-0.28246355
-0.2,0.10000000000000003,1.1999999999999997,-0.5235987755982988,0.0,0,0.6380601,-0.12853841,1.0662503,0.67089283,-0.650216,-0.4764898,-0.55165005,0.28247586,-1.4875047,-0.13319832,-0.022763565,-0.024725337,1.0084882,0.30922922
-0.2,0.10000000000000003,1.1999999999999997,-0.5235987755982988,0.0,0,0.6339927,-0.13569763,1.0687121,0.6710579,-0.6818745,-0.4282914,-0.5748665,0.28898916,-1.489942,-0.12929344,-0.037161972,-0.019664673,1.1836677,-0.10786208
-0.2,0.10000000000000003,1.1999999999999997,-0.5235987755982988,0.0,0,0.6336217,-0.13705908,1.0664071,0.6700236,-0.6557941,-0.45422032,-0.8695133,0.26440984,-1.4925382,-0.12968998,-0.042664357,-0.06194797,0.975459,-0.28755957
-0.2,0.10000000000000003,1.1999999999999997,-0.5235987755982988,0.0,0,0.6367229,-0.14133175,1.0636888,0.6705673,-0.6696442,-0.47094363,-0.4220666,0.28392515,-1.4892886,-0.118573025,-0.01365735,-0.1172625,1.2251167,-0.5103544
-0.2,0.10000000000000003,1.1999999999999997,-0.5235987755982988,0.0,0,0.6353641,-0.14124525,1.0632715,0.66695976,-0.67664146,-0.42895147,-0.7348779,0.2797882,-1.4926772,-0.1232641,0.009926644,0.09745009,0.8322947,-0.09467697
-0.2,0.10000000000000003,1.1999999999999997,-0.5235987755982988,0.0,0,0.6299952,-0.13549785,1.0685912,0.6676589,-0.66796654,-0.42211702,-0.015413498,0.27570102,-1.4925301,-0.13123563,-0.029325832,0.039288882,1.0304924,-0.71585864
-0.2,0.10000000000000003,1.1999999999999997,-0.5235987755982988,0.0,0,0.63778406,-0.14080927,1.0679218,0.6698956,-0.6760446,-0.43403324,-0.34074578,0.27108893,-1.4888972,-0.12046796,-0.068226166,-0.013441441,1.0711659,-0.4802513
-0.2,0.10000000000000003,1.1999999999999997,-0.5235987755982988,0.0,0,0.63147527,-0.14093177,1.0696038,0.66830415,-0.6732249,-0.43413258,-0.46809393,0.26322636,-1.4922781,-0.11798175,-0.013560596,-0.27221742,1.0521678,0.43943024
-0.2,0.10000000000000003,1.1999999999999997,-0.5235987755982988,0.0,0,0.6355442,-0.14104483,1.0661272,0.6724097,-0.6595151,-0.43856087,-1.0084786,0.26559716,-1.4909043,-0.13969202,-0.032268457,-0.020996701,1.0268064,0.16532318
-0.2,0.10000000000000003,1.1999999999999997,-0.5235987755982988,0.0,0,0.63109624,-0.1373559,1.0655084,0.67058957,-0.69073313,-0.46604896,-0.5519599,0.27701935,-1.4944212,-0.12044802,-0.026481982,0.0922241,0.927765,0.14606293
-0.2,0.10000000000000003,1.1999999999999997,-0.5235987755982988,0.0,0,0.63258386,-0.13387762,1.063544,0.67111033,-0.6889667,-0.42201588,-0.62505627,0.28294966,-1.4873232,-0.13089573,-0.038900413,0.10454592,0.9983767,-0.574739
-0.2,0.10000000000000003,1.1999999999999997,-0.5235987755982988,0.0,0,0.6378045,-0.13196081,1.071673,0.6753164,-0.6686365,-0.43288645,-0.33414757,0.26188493,-1.487789,-0.11334061,-0.024206001,0.0754899,0.8297578,0.104677446
-0.2,0.10000000000000003,1.1999999999999997,-0.5235987755982988,0.0,0,0.6318669,-0.14080986,1.069948,0.66976875,-0.6861493,-0.4273566,-0.3695041,0.29074505,-1.4925027,-0.11579411,0.058476947,-0.29324993,1.1540033,-0.31989902
-0.2,0.10000000000000003,1.1999999999999997,-0.5235987755982988,0.0,0,0.6316598,-0.13881846,1.0708519,0.66760963,-0.6617127,-0.41623703,-0.2786564,0.27111986,-1.4914669,-0.1150435,-0.038839433,0.030314561,1.0089877,-0.04253531
-0.2,0.10000000000000003,1.1999999999999997,-0.5235987755982988,0.0,0,0.6330979,-0.13632482,1.0678887,0.67100096,-0.67098886,-0.5046893,-0.8888022,0.27983424,-1.493513,-0.1334777,0.038972393,0.058583144,0.937913,0.046563517
-0.2,0.10000000000000003,1.1999999999999997,-0.5235987755982988,0.0,0,0.64094293,-0.14227203,1.0667948,0.6699026,-0.6706419,-0.43884382,-0.58330107,0.28494728,-1.491909,-0.11507318,-0.09978414,0.049117323,1.1841305,-0.24000245
-0.2,0.10000000000000003,1.1999999999999997,-0.5235987755982988,0.0,0,0.63480157,-0.14233671,1.0689554,0.67282957,-0.6501229,-0.46136332,-0.7175037,0.26503584,-1.4909706,-0.12758459,-0.057734903,-0.102463886,1.0060216,-0.09218474
-0.2,0.10000000000000003,1.1999999999999997,-0.5235987755982988,0.0,0,0.63795125,-0.13813078,1.0672386,0.6717118,-0.6583366,-0.43885526,-1.0338476,0.27364174,-1.4926484,-0.13046752,0.008081104,0.048826706,1.0842937,-0.050123706
-0.2,0.10000000000000003,1.1999999999999997,-0.5235987755982988,0.0,0,0.63860244,-0.13808812,1.0672795,0.67008424,-0.6781541,-0.49116302,0.07670823,0.26489168,-1.4932317,-0.12402236,0.007075474,-0.25656408,1.0098299,0.572914
-0.2,0.10000000000000003,1.1999999999999997,-0.5235987755982988,0.0,0,0.6334118,-0.1372109,1.0674789,0.6680175,-0.6702959,-0.45887917,-0.43060064,0.2825951,-1.48673,-0.13419001,-0.06336273,-0.05858259,1.0843794,-0.18055761
-0.2,0.10000000000000003,1.1999999999999997,-0.5235987755982988,0.0,0,0.6381894,-0.14724354,1.064374,0.66972256,-0.68980217,-0.45277765,-0.37484413,0.28729215,-1.4884272,-0.12542203,0.03743828,0.09540849,1.1308095,-0.6410253
-0.2,0.10000000000000003,1.1999999999999997,-0.5235987755982988,0.0,0,0.6369927,-0.14264816,1.0678599,0.67235005,-0.69239396,-0.441516,-0.32083926,0.29086447,-1.493298,-0.13500631,0.03212537,-0.08855407,1.158837,0.28156987
-0.2,0.10000000000000003,1.1999999999999997,-0.5235987755982988,0.0,0,0.6345274,-0.14115612,1.0698305,0.6719808,-0.6766533,-0.4779446,-1.402797,0.28235847,-1.4928677,-0.11516979,0.0011126931,-0.1372023,1.016015,-0.6833957
-0.2,0.10000000000000003,1.1999999999999997,-0.5235987755982988,0.0,0,0.63318264,-0.1358084,1.0693209,0.6699065,-0.68062395,-0.45746222,-0.32917488,0.27945966,-1.4911942,-0.12507409,0.043354157,0.12830825,1.09113,-0.4560765
-0.2,0.10000000000000003,1.1999999999999997,-0.5235987755982988,0.0,0,0.6339634,-0.13049297,1.0703804,0.67041093,-0.6716043,-0.41813973,-0.6155862,0.27992278,-1.4955254,-0.13696484,-0.056717202,-0.140795,1.1447816,-0.6209217
-0.2,0.10000000000000003,1.1999999999999997,-0.5235987755982988,0.0,0,0.63323855,-0.14328353,1.0661473,0.67072135,-0.6562051,-0.4478941,-0.54090935,0.28455004,-1.4918042,-0.120169215,-0.014135861,-0.0365825,0.98879296,-0.30817834
-0.2,0.10000000000000003,1.1999999999999997,-0.5235987755982988,0.0,0,0.63403064,-0.14024055,1.0695347,0.6707613,-0.67601836,-0.47534785,-0.4603538,0.27431095,-1.4933809,-0.114594445,-0.083782755,-0.22759452,0.95125014,0.13760756
-0.2,0.10000000000000003,1.1999999999999997,-0.5235987755982988,0.0,0,0.6347699,-0.13629541,1.0671722,0.67427295,-0.6734,-0.48870027,-0.8221317,0.28343588,-1.4904839,-0.1182804,0.012720706,0.16451283,1.0744675,-0.4779206
-0.2,0.10000000000000003,1.1999999999999997,-0.5235987755982988,0.0,0,0.6355138,-0.1319043,1.0711557,0.67261696,-0.69542634,-0.45210388,-0.535014,0.28288925,-1.4887275,-0.13200158,-0.07074523,0.07236924,1.1045322,0.79420006
-0.2,0.10000000000000003,1.1999999999999997,-0.5235987755982988,0.0,0,0.63427836,-0.14237167,1.0672514,0.67104906,-0.64673406,-0.47513196,-0.39730555,0.27323794,-1.4911674,-0.13369752,-0.07058565,-0.11767594,1.0597296,-0.08097006
-0.2,0.10000000000000003,1.1999999999999997,-0.5235987755982988,0.0,0,0.6371136,-0.13754922,1.0703303,0.66901356,-0.67346233,-0.47036424,-0.6375023,0.26611775,-1.4908724,-0.13615118,-0.034592845,0.050787926,1.0160482,-0.29764378
-0.2,0.10000000000000003,1.1999999999999997,-0.5235987755982988,0.0,0,0.6356898,-0.14335108,1.0645592,0.66894716,-0.6605372,-0.4676302,-0.49214885,0.2732637,-1.4927495,-0.1250832,-0.050074823,-0.059796665,1.0463591,0.41443133
-0.2,0.10000000000000003,1.1999999999999997,-0.5235987755982988,0.0,0,0.6330879,-0.13605575,1.0680581,0.6710116,-0.6782178,-0.48688045,-0.6823305,0.28630948,-1.4896078,-0.14544918,-0.021356955,-0.20194077,1.0544738,-0.1426292
-0.2,0.10000000000000003,1.1999999999999997,-0.5235987755982988,0.0,0,0.63427985,-0.13790213,1.0701494,0.67095286,-0.6684848,-0.4563338,-0.13360144,0.275951,-1.4935023,-0.13856888,-0.030951906,-0.19993885,0.968573,-0.24175732
-0.2,0.10000000000000003,1.1999999999999997,-0.5235987755982988,0.0,0,0.6395566,-0.1377989,1.067818,0.6683702,-0.66095036,-0.4741656,-0.33239895,0.26410326,-1.4923795,-0.13113132,-0.07887442,0.011159931,1.0186026,-0.7904557
-0.2,0.10000000000000003,1.1999999999999997,-0.5235987755982988,0.0,0,0.63541406,-0.13702182,1.0713474,0.6702633,-0.66099256,-0.49100837,-0.65268064,0.28226554,-1.4886935,-0.14247003,-0.03825424,0.15337576,1.1039761,0.03564875
-0.2,0.10000000000000003,1.1999999999999997,-0.5235987755982988,0.0,0,0.63338363,-0.14136657,1.070087,0.6714117,-0.67529744,-0.47748858,-0.7757966,0.27788714,-1.4947681,-0.11624873,-0.06953578,-0.030901002,1.1536472,0.094505474
