sanky1234/BimanualDexCatch/isaacgymenvs/cem_results/football_pose_-0.2_-0.1_1.2999999999999998_0.5235987755982988_-0.5235987755982988_0_2025-05-24.csv
x,y,z,roll,pitch,yaw,robot1/joint1,robot1/joint2,robot1/joint3,robot1/joint4,robot1/joint5,robot1/joint6,robot1/joint7,robot2/joint1,robot2/joint2,robot2/joint3,robot2/joint4,robot2/joint5,robot2/joint6,robot2/joint7
-0.2,-0.1,1.2999999999999998,0.5235987755982988,-0.5235987755982988,0,-0.22002555,0.3064248,1.0776094,0.51661474,0.2293408,0.34042427,-0.32313302,-0.04404344,1.4343821,0.0624496,0.065991774,-0.343851,1.3078372,0.53271025
-0.2,-0.1,1.2999999999999998,0.5235987755982988,-0.5235987755982988,0,-0.21766005,0.3063437,1.0762441,0.5167651,0.22389908,0.3380355,-0.33054817,-0.44022334,1.3067814,-0.7046321,0.051995344,0.20824738,1.1069576,0.7896793
-0.2,-0.1,1.2999999999999998,0.5235987755982988,-0.5235987755982988,0,-0.21868123,0.30552122,1.0751498,0.5171232,0.22161819,0.3393341,-0.33443752,1.4781271,1.5540605,-0.0037452632,-0.07300718,-0.21602651,1.2027949,0.14074494
-0.2,-0.1,1.2999999999999998,0.5235987755982988,-0.5235987755982988,0,-0.21866314,0.30594504,1.0745912,0.51629823,0.22857583,0.34116992,-0.33616242,0.37088755,1.3402001,0.32091752,0.099692464,0.6623002,1.3336627,-0.81820506
-0.2,-0.1,1.2999999999999998,0.5235987755982988,-0.5235987755982988,0,-0.21906927,0.30783623,1.0761489,0.5169186,0.22261667,0.33875427,-0.3220846,-0.5803939,1.4279203,-0.002143844,-0.16172753,-0.13852857,1.1829731,0.80073863
-0.2,-0.1,1.2999999999999998,0.5235987755982988,-0.5235987755982988,0,-0.21724284,0.3059787,1.0745862,0.51666856,0.22142087,0.3388117,-0.3318629,0.39121714,1.3700712,0.21724,-0.12104685,-0.31332532,1.3306763,0.60709137
-0.2,-0.1,1.2999999999999998,0.5235987755982988,-0.5235987755982988,0,-0.21671699,0.30573085,1.0774139,0.5162611,0.23013344,0.33886206,-0.32333484,0.3435241,1.4039239,0.1020687,-0.012671335,0.18037969,1.0432787,1.1380163
-0.2,-0.1,1.2999999999999998,0.5235987755982988,-0.5235987755982988,0,-0.2198293,0.30626813,1.0783051,0.51578474,0.22385098,0.3401048,-0.32360327,0.19663101,1.3414419,-0.02287205,-0.033346873,-0.18160844,1.1847396,0.20502004
-0.2,-0.1,1.2999999999999998,0.5235987755982988,-0.5235987755982988,0,-0.22006193,0.3077302,1.0754925,0.5166729,0.22414783,0.34009543,-0.32768908,-0.09488124,1.4150088,0.5210632,-0.038159605,0.02428567,1.2609905,-0.3855857
-0.2,-0.1,1.2999999999999998,0.5235987755982988,-0.5235987755982988,0,-0.21921599,0.30458507,1.0753627,0.5165188,0.2189204,0.338713,-0.34119254,0.19858423,1.3873342,-0.09318954,-0.023486912,-0.21241872,1.1896256,0.5147447
-0.2,-0.1,1.2999999999999998,0.5235987755982988,-0.5235987755982988,0,-0.21919693,0.30701917,1.0789057,0.5173206,0.21971844,0.33915362,-0.32221502,-0.2584966,1.3516732,0.20997153,-0.033279557,0.064408,1.3307015,0.058018066
-0.2,-0.1,1.2999999999999998,0.5235987755982988,-0.5235987755982988,0,-0.21895978,0.3068437,1.0785726,0.51689523,0.2169999,0.33848178,-0.32775146,-0.27721214,1.407226,-0.071907,-0.07707713,0.5153391,1.19879,1.1806048
-0.2,-0.1,1.2999999999999998,0.5235987755982988,-0.5235987755982988,0,-0.21958448,0.31085122,1.0752219,0.51651096,0.22666012,0.3407874,-0.3340456,0.26915434,1.269931,-0.31418097,-0.04036467,0.39331886,1.2111093,1.1615108
-0.2,-0.1,1.2999999999999998,0.5235987755982988,-0.5235987755982988,0,-0.2191142,0.30757317,1.0738649,0.5174822,0.2288065,0.3395451,-0.3285699,-0.51436466,1.4009261,-0.2923497,-0.027303841,-0.20914999,1.1092635,0.8512611
-0.2,-0.1,1.2999999999999998,0.5235987755982988,-0.5235987755982988,0,-0.21960527,0.3063737,1.0750927,0.51727647,0.22771785,0.33924276,-0.33049485,0.30547816,1.3124387,0.22107622,-0.14574319,-0.10029162,1.1067516,0.12131231
-0.2,-0.1,1.2999999999999998,0.5235987755982988,-0.5235987755982988,0,-0.21857762,0.30781707,1.0731822,0.5166393,0.23979707,0.34030858,-0.34079733,0.14646383,1.2755075,0.17505093,0.051297236,0.21741395,1.3049102,-0.52509373
-0.2,-0.1,1.2999999999999998,0.5235987755982988,-0.5235987755982988,0,-0.21823208,0.3045182,1.0764354,0.51663846,0.22016619,0.34006295,-0.32804078,0.58134365,1.2972976,-0.3176942,0.063450426,0.3826311,1.2026826,0.4084301
-0.2,-0.1,1.2999999999999998,0.5235987755982988,-0.5235987755982988,0,-0.21796323,0.30793664,1.075927,0.51678616,0.23304202,0.34090677,-0.3333259,0.25912398,1.377217,-0.4288874,-0.007776852,-0.3865807,1.35574,1.1627908
-0.2,-0.1,1.2999999999999998,0.5235987755982988,-0.5235987755982988,0,-0.22024615,0.30569947,1.0748764,0.5171483,0.22201096,0.33981794,-0.34005633,-0.49105862,1.3276182,-0.3244326,-0.13611725,-0.1549235,1.3234414,0.95596874
-0.2,-0.1,1.2999999999999998,0.5235987755982988,-0.5235987755982988,0,-0.21964274,0.3044809,1.0762491,0.51664144,0.23230611,0.3413099,-0.3211881,-0.43229845,1.3709767,0.24741444,-0.12813137,0.20581107,1.1701503,-0.37468818
-0.2,-0.1,1.2999999999999998,0.5235987755982988,-0.5235987755982988,0,-0.21870387,0.30672008,1.0742302,0.5153849,0.22666526,0.34143993,-0.34333748,-0.13951507,1.3178022,-0.3893857,-0.050254967,0.37315586,1.0669678,0.025288042
-0.2,-0.1,1.2999999999999998,0.5235987755982988,-0.5235987755982988,0,-0.21982013,0.30857536,1.0754427,0.51703906,0.23235007,0.33916318,-0.330315,-0.37223414,1.3353295,-0.08744768,-0.06080901,0.083382264,1.2583044,0.56030816
-0.2,-0.1,1.2999999999999998,0.5235987755982988,-0.5235987755982988,0,-0.2190803,0.3082069,1.0745605,0.5175518,0.22974324,0.34050763,-0.31690022,-0.6099103,1.3170835,0.26064909,-0.14604749,0.10263092,1.112917,0.89347583
-0.2,-0.1,1.2999999999999998,0.5235987755982988,-0.5235987755982988,0,-0.21784286,0.3057419,1.075461,0.5170649,0.23212059,0.3385038,-0.3270362,0.84454054,1.2762123,-0.33188707,-0.077552535,-0.06402262,1.1994134,-0.38712722
-0.2,-0.1,1.2999999999999998,0.5235987755982988,-0.5235987755982988,0,-0.22082715,0.3070266,1.0757363,0.51699376,0.22718403,0.34105217,-0.33218768,0.6914846,1.3674868,0.13925757,-0.068679936,-0.14891319,1.3323628,0.77553517
-0.2,-0.1,1.2999999999999998,0.5235987755982988,-0.5235987755982988,0,-0.21886636,0.3043115,1.0749468,0.517186,0.23368713,0.33915955,-0.339445,0.40280652,1.2308255,0.28648365,0.088809095,0.12523131,1.1769724,0.69604594
-0.2,-0.1,1.2999999999999998,0.5235987755982988,-0.5235987755982988,0,-0.21767795,0.30693164,1.0760808,0.5162459,0.21175084,0.3398545,-0.32602745,0.71193963,1.2620373,-0.5099384,-0.09331031,-0.05280057,1.2519182,0.2641222
-0.2,-0.1,1.2999999999999998,0.5235987755982988,-0.5235987755982988,0,-0.216923,0.30458954,1.0763167,0.51676226,0.22514892,0.33891156,-0.32757938,-0.16325174,1.3034853,-0.5769841,-0.058245026,0.08545687,1.2000507,0.49161863
-0.2,-0.1,1.2999999999999998,0.5235987755982988,-0.5235987755982988,0,-0.22042099,0.3058178,1.077802,0.516409,0.21985488,0.34083828,-0.32932788,0.36628488,1.4600993,0.093861505,-0.002588971,-0.5420055,1.0547311,1.1072956
-0.2,-0.1,1.2999999999999998,0.5235987755982988,-0.5235987755982988,0,-0.21920341,0.30614865,1.0765017,0.516878,0.2249757,0.3385032,-0.34059757,0.8285307,1.3978626,-0.36630964,-0.1470489,0.4121691,1.2613484,0.70215964
-0.2,-0.1,1.2999999999999998,0.5235987755982988,-0.5235987755982988,0,-0.2209955,0.308469,1.0765915,0.5165168,0.23084071,0.34021387,-0.340277,0.66459924,1.1939496,-0.49974114,0.0024609817,-0.05228607,1.3422117,1.2554655
-0.2,-0.1,1.2999999999999998,0.5235987755982988,-0.5235987755982988,0,-0.21896431,0.30626255,1.0766525,0.5167993,0.22783236,0.33967197,-0.3192977,1.4918116,1.4008912,0.4495136,-0.032682672,0.20362799,1.2090403,-0.14650057
-0.2,-0.1,1.2999999999999998,0.5235987755982988,-0.5235987755982988,0,-0.21789043,0.30724508,1.0751226,0.51588506,0.22254927,0.33938548,-0.33895892,-0.1193474,1.421972,-0.21706834,-0.033074524,-0.17178428,1.345406,0.6998692
-0.2,-0.1,1.2999999999999998,0.5235987755982988,-0.5235987755982988,0,-0.21819435,0.3051253,1.0752126,0.51712495,0.22201495,0.33839515,-0.3413055,0.9623811,1.4539073,-0.3260617,-0.03121133,0.054090746,1.2268949,-0.34058857
-0.2,-0.1,1.2999999999999998,0.5235987755982988,-0.5235987755982988,0,-0.22007993,0.30724522,1.0749408,0.5170591,0.2213898,0.33901635,-0.34223765,0.019969665,1.3279345,-0.28512082,-0.04538554,0.65484226,1.3684913,0.58903545
-0.2,-0.1,1.2999999999999998,0.5235987755982988,-0.5235987755982988,0,-0.21830523,0.30682218,1.0757103,0.5166266,0.22544327,0.34056363,-0.3340189,0.29758936,1.3727664,0.31146803,-0.019604824,-0.4697502,1.2329029,0.87424797
-0.2,-0.1,1.2999999999999998,0.5235987755982988,-0.5235987755982988,0,-0.21960571,0.3077709,1.0745636,0.5174109,0.22815287,0.33929443,-0.33610752,-0.055687968,1.3845155,-0.24281591,-0.0479968,0.09440926,1.3997189,1.3989216
-0.2,-0.1,1.2999999999999998,0.5235987755982988,-0.5235987755982988,0,-0.21735957,0.30572754,1.0741339,0.51713973,0.22846244,0.3393547,-0.32792157,0.54899573,1.4443114,-0.26731995,0.019187829,0.26250446,1.074563,0.8863394
-0.2,-0.1,1.2999999999999998,0.5235987755982988,-0.5235987755982988,0,-0.2188546,0.30693525,1.0762405,0.5168257,0.233903,0.34021416,-0.32138774,0.5378142,1.4253163,-0.19624235,0.0049474034,-0.049651217,1.2557558,-0.18051475
-0.2,-0.1,1.2999999999999998,0.5235987755982988,-0.5235987755982988,0,-0.22107382,0.3082349,1.0769638,0.51681775,0.22524902,0.33933544,-0.33089423,0.017464943,1.3966848,-0.28448796,-0.13908932,-0.04984512,1.2592314,0.5379083
-0.2,-0.1,1.2999999999999998,0.5235987755982988,-0.5235987755982988,0,-0.2184721,0.30770478,1.0734295,0.516841,0.22055914,0.33890215,-0.34388363,0.8431732,1.2802153,-0.0015891124,-0.0117126405,-0.27188277,1.2366178,-0.14555542
-0.2,-0.1,1.2999999999999998,0.5235987755982988,-0.5235987755982988,0,-0.21820356,0.30495572,1.076103,0.51634455,0.22623241,0.3392325,-0.3311311,0.30331272,1.3250599,-0.40381438,-0.030049032,0.029086318,1.2606965,0.6880141
-0.2,-0.1,1.2999999999999998,0.5235987755982988,-0.5235987755982988,0,-0.2194686,0.3055143,1.076516,0.5160437,0.22855088,0.34014916,-0.33465016,0.71614534,1.3129816,-0.45015422,-0.19682728,0.11998575,1.2455925,0.6515199
-0.2,-0.1,1.2999999999999998,0.5235987755982988,-0.5235987755982988,0,-0.22171958,0.30947468,1.07767,0.51666653,0.21744424,0.3387936,-0.33823416,0.27644145,1.2698196,-0.504901,0.0037125587,-0.19989847,1.2349088,0.10869264
-0.2,-0.1,1.2999999999999998,0.5235987755982988,-0.5235987755982988,0,-0.21845877,0.30777302,1.0764118,0.51694125,0.23112547,0.34005037,-0.33142173,0.642954,1.4476414,-0.17334543,-0.04628732,0.40676808,1.1036352,0.54211766
-0.2,-0.1,1.2999999999999998,0.5235987755982988,-0.5235987755982988,0,-0.21828663,0.3062119,1.077207,0.51654077,0.23208664,0.3380374,-0.34113473,-0.06404383,1.3348099,0.16365886,0.014035503,-0.21462877,1.3185573,-0.24360272
-0.2,-0.1,1.2999999999999998,0.5235987755982988,-0.5235987755982988,0,-0.21908902,0.30820757,1.0761142,0.51721364,0.22833426,0.33854285,-0.3351015,-0.5100746,1.3149091,-0.09781389,-0.04710676,-0.053835373,1.4228344,0.08565564
-0.2,-0.1,1.2999999999999998,0.5235987755982988,-0.5235987755982988,0,-0.21931097,0.30475625,1.0764228,0.51672673,0.23493358,0.33938673,-0.33566883,0.34610277,1.3815674,0.20413312,-0.0018227234,0.1986135,1.238179,0.4213398
-0.2,-0.1,1.2999999999999998,0.5235987755982988,-0.5235987755982988,0,-0.21828972,0.30611846,1.0750368,0.5169781,0.22996406,0.337715,-0.3442113,0.3454977,1.3504047,-0.4627635,-0.063181914,-0.110351756,1.2767507,-0.56904215
-0.2,-0.1,1.2999999999999998,0.5235987755982988,-0.5235987755982988,0,-0.2199332,0.3078128,1.0757586,0.5172073,0.22352669,0.33876297,-0.32819888,0.8426756,1.356295,-0.083051324,-0.04975277,0.020633066,1.1798172,0.79433805
-0.2,-0.1,1.2999999999999998,0.5235987755982988,-0.5235987755982988,0,-0.21913019,0.30614722,1.0768251,0.51615834,0.2298217,0.33956462,-0.33006692,0.98105747,1.3753206,0.014388759,-0.0009779236,0.21677399,1.2415156,0.8044953
-0.2,-0.1,1.2999999999999998,0.5235987755982988,-0.5235987755982988,0,-0.2172554,0.3080573,1.0756019,0.51650673,0.22930865,0.33931503,-0.34113637,-0.22417298,1.3194361,-0.10579648,-0.1403455,0.0687493,1.2250918,-0.2982367
-0.2,-0.1,1.2999999999999998,0.5235987755982988,-0.5235987755982988,0,-0.21914211,0.30805224,1.0754291,0.5177524,0.22677372,0.33920762,-0.32157984,-0.14176641,1.3488675,-0.023486996,-0.100117125,0.08499665,1.2596755,-1.0442214
-0.2,-0.1,1.2999999999999998,0.5235987755982988,-0.5235987755982988,0,-0.21813226,0.30685356,1.0745074,0.516763,0.21435177,0.33804303,-0.3477801,-0.20928302,1.5393443,-0.13722518,-0.09566359,0.043248408,1.1683376,0.71289986
-0.2,-0.1,1.2999999999999998,0.5235987755982988,-0.5235987755982988,0,-0.21683452,0.30742228,1.0744942,0.5167476,0.22922504,0.34079245,-0.32213008,0.60293525,1.3713232,0.05812853,-0.078046426,-0.25268185,1.2038094,-0.073518716
-0.2,-0.1,1.2999999999999998,0.5235987755982988,-0.5235987755982988,0,-0.21967702,0.30712685,1.0791621,0.51678145,0.23178792,0.33900493,-0.33083105,-0.06855877,1.306098,-0.5157905,-0.008751785,0.31612495,1.1244419,0.8201943
-0.2,-0.1,1.2999999999999998,0.5235987755982988,-0.5235987755982988,0,-0.21915846,0.30558354,1.0753663,0.51651067,0.21292898,0.33989793,-0.3213424,-0.0800289,1.404629,-0.20270582,-0.04069993,0.23818596,1.0116464,0.29560328
-0.2,-0.1,1.2999999999999998,0.5235987755982988,-0.5235987755982988,0,-0.21748511,0.30678305,1.076223,0.5170823,0.22346397,0.33905926,-0.32458785,0.12238567,1.4221286,-0.0048875306,-0.06616524,0.32132486,1.3317536,-0.60432607
-0.2,-0.1,1.2999999999999998,0.5235987755982988,-0.5235987755982988,0,-0.21904312,0.30543572,1.0742078,0.5165481,0.22662495,0.3399845,-0.34425768,1.24925,1.3812231,-0.3985085,-0.005064226,-0.017624533,1.2036179,0.8567058
-0.2,-0.1,1.2999999999999998,0.5235987755982988,-0.5235987755982988,0,-0.21925314,0.30324277,1.077497,0.51717854,0.22463515,0.3388946,-0.32367402,0.047806323,1.4029777,-0.43512607,-0.12433398,0.20196034,1.0969119,1.0831078
-0.2,-0.1,1.2999999999999998,0.5235987755982988,-0.5235987755982988,0,-0.21862805,0.30516222,1.0769813,0.5172455,0.22642735,0.33889142,-0.3215128,0.48589632,1.4043188,-0.2869512,-0.18726043,0.2748412,1.2271651,1.1826997
-0.2,-0.1,1.2999999999999998,0.5235987755982988,-0.5235987755982988,0,-0.21797001,0.3067446,1.0761132,0.5166825,0.23768948,0.33892742,-0.3326833,0.41086432,1.3057501,-0.061300762,-0.12158862,0.013551658,1.2927147,0.06233543
-0.2,-0.1,1.2999999999999998,0.5235987755982988,-0.5235987755982988,0,-0.21830744,0.30588678,1.0762936,0.5171872,0.22502442,0.33999842,-0.3221833,0.19189458,1.4020435,-0.090350196,-0.03319178,0.432595,1.2035527,0.4742053
-0.2,-0.1,1.2999999999999998,0.5235987755982988,-0.5235987755982988,0,-0.21867873,0.30550066,1.075675,0.5160137,0.22982039,0.33948648,-0.34436652,-0.22467722,1.3521138,-0.30287725,-0.049063362,-0.39577436,1.221756,0.48149443
-0.2,-0.1,1.2999999999999998,0.5235987755982988,-0.5235987755982988,0,-0.21996634,0.30747238,1.076075,0.51766604,0.21891762,0.33712712,-0.34602192,0.637115,1.313384,-0.3368103,-0.010684603,-0.085572526,1.2437824,-0.47182238
-0.2,-0.1,1.2999999999999998,0.5235987755982988,-0.5235987755982988,0,-0.21885677,0.3038932,1.0766697,0.5165355,0.23169944,0.33944744,-0.3301524,-0.19675314,1.3190166,-0.013788963,-0.09750392,0.057421606,1.2795435,1.1503311
-0.2,-0.1,1.2999999999999998,0.5235987755982988,-0.5235987755982988,0,-0.22046772,0.30687422,1.075071,0.5173669,0.23500447,0.34034058,-0.33722937,0.33756855,1.3643426,0.06684366,-0.10127819,-0.35468456,1.1988208,1.3553008
-0.2,-0.1,1.2999999999999998,0.5235987755982988,-0.5235987755982988,0,-0.21700741,0.30632654,1.0765431,0.5160318,0.2218907,0.34025323,-0.3299929,0.19645368,1.3450514,-0.26550496,-0.11468988,-0.31814814,1.2451667,0.9836988
-0.2,-0.1,1.2999999999999998,0.5235987755982988,-0.5235987755982988,0,-0.21912372,0.30433077,1.0772923,0.51623493,0.2274902,0.34062082,-0.32667196,-0.464915,1.3967304,-0.28690144,-0.13203166,-0.05655003,1.2068151,1.3460846
-0.2,-0.1,1.2999999999999998,0.5235987755982988,-0.5235987755982988,0,-0.21825083,0.3059475,1.0766308,0.5160434,0.22528073,0.3398298,-0.32704836,0.10120327,1.2852952,-0.17612323,-0.08899415,-0.015406679,1.3317086,0.55
-0.2,-0.1,1.2999999999999998,0.5235987755982988,-0.5235987755982988,0,-0.21955505,0.30860376,1.0785228,0.51756215,0.22897825,0.33876014,-0.32667586,0.15763064,1.4231122,-0.029367886,0.04935093,0.030548451,1.1453917,0.51323915
-0.2,-0.1,1.2999999999999998,0.5235987755982988,-0.5235987755982988,0,-0.21696515,0.3072599,1.0759254,0.51617694,0.23055565,0.33980054,-0.33004433,0.8423621,1.4147176,-0.20428571,0.062193044,-0.23798041,1.226297,0.7898228
-0.2,-0.1,1.2999999999999998,0.5235987755982988,-0.5235987755982988,0,-0.22017992,0.30746976,1.0782936,0.5161768,0.21523711,0.33737525,-0.3384677,0.13439381,1.3530273,0.10647896,-0.090107374,-0.034221645,1.1951867,-0.27201432
-0.2,-0.1,1.2999999999999998,0.5235987755982988,-0.5235987755982988,0,-0.21859659,0.30557448,1.0761693,0.5158594,0.23111354,0.3389713,-0.34536752,0.25550872,1.3416386,0.20252295,-0.06644157,0.00543975,1.2530591,-0.7425458
-0.2,-0.1,1.2999999999999998,0.5235987755982988,-0.5235987755982988,0,-0.21804304,0.30449048,1.0752327,0.5163444,0.22939408,0.34060493,-0.34136578,-0.0840042,1.4604466,-0.43086177,0.046193715,0.44510895,1.0920765,-0.11107989
-0.2,-0.1,1.2999999999999998,0.5235987755982988,-0.5235987755982988,0,-0.21750917,0.30559105,1.0756607,0.5171745,0.21368383,0.33864495,-0.33990213,0.6165381,1.4748999,0.46272027,-0.078474015,-0.67098165,1.353738,2.3330426
-0.2,-0.1,1.2999999999999998,0.5235987755982988,-0.5235987755982988,0,-0.2183124,0.30503398,1.0770004,0.5166955,0.22317272,0.33912754,-0.32884768,-0.5715417,1.377066,-0.3756838,-0.09466214,0.21023932,1.0781704,0.18875623
-0.2,-0.1,1.2999999999999998,0.5235987755982988,-0.5235987755982988,0,-0.2156579,0.30518147,1.0749929,0.5168453,0.234583,0.33803293,-0.34523138,0.47484317,1.3078251,-0.39128155,-0.002196593,0.08911091,1.2920388,0.54367363
-0.2,-0.1,1.2999999999999998,0.5235987755982988,-0.5235987755982988,0,-0.21905369,0.30783942,1.076335,0.51771057,0.22647361,0.33972764,-0.3354813,-0.05876605,1.3692862,-0.19964993,-0.019993471,0.07507214,1.3774514,-0.45991212
-0.2,-0.1,1.2999999999999998,0.5235987755982988,-0.5235987755982988,0,-0.21750481,0.30575946,1.0741802,0.5167256,0.22487761,0.3388054,-0.34129158,-0.19527593,1.3472584,0.01874063,-0.0315794,0.18781137,1.1282705,-0.35789526
-0.2,-0.1,1.2999999999999998,0.5235987755982988,-0.5235987755982988,0,-0.21983017,0.3091793,1.0743233,0.5168255,0.229403,0.33997786,-0.33910382,-0.12999119,1.3556739,-0.39428282,-0.004986548,-0.072524816,1.2273746,0.662768
-0.2,-0.1,1.2999999999999998,0.5235987755982988,-0.5235987755982988,0,-0.2194061,0.30758044,1.0755625,0.51724195,0.21040817,0.34009624,-0.32446092,1.3486634,1.3292512,-0.1321813,-0.024638489,0.16816938,1.3322513,-0.26348835
-0.2,-0.1,1.2999999999999998,0.5235987755982988,-0.5235987755982988,0,-0.22012548,0.30825824,1.0762931,0.5163206,0.22794262,0.34057856,-0.33505437,-0.4922147,1.3600583,-0.5324568,-0.0032715648,0.15566161,1.3262669,0.78123695
-0.2,-0.1,1.2999999999999998,0.5235987755982988,-0.5235987755982988,0,-0.22047508,0.3076465,1.0763042,0.51678944,0.21995875,0.3400333,-0.32979506,0.21913633,1.377897,-0.026786333,-0.04736362,-0.13640624,1.1331453,-0.09147598
-0.2,-0.1,1.2999999999999998,0.5235987755982988,-0.5235987755982988,0,-0.21849786,0.30437645,1.0779766,0.5167367,0.22783811,0.33801877,-0.34784156,0.40868855,1.4146066,-0.5778859,-0.06997058,0.18582374,1.3503622,0.3219593
-0.2,-0.1,1.2999999999999998,0.5235987755982988,-0.5235987755982988,0,-0.22103037,0.30545557,1.0767484,0.51732576,0.22548723,0.3402568,-0.334823,0.16287805,1.2828817,-0.13314688,-0.07038455,0.0055707223,1.353467,-0.19372466
-0.2,-0.1,1.2999999999999998,0.5235987755982988,-0.5235987755982988,0,-0.21858849,0.30785057,1.0735643,0.5161659,0.22606924,0.34238803,-0.32577303,1.1310856,1.2997321,-0.17533857,-0.032115787,-0.059088394,1.1827164,0.10291088
-0.2,-0.1,1.2999999999999998,0.5235987755982988,-0.5235987755982988,0,-0.21909244,0.30670184,1.0749407,0.51681125,0.2207962,0.33882055,-0.34543088,1.1371531,1.2504425,-0.06275592,-0.034822334,0.056829512,1.3207933,0.93800515
-0.2,-0.1,1.2999999999999998,0.5235987755982988,-0.5235987755982988,0,-0.21745919,0.30459228,1.0767876,0.5169197,0.2256513,0.33898613,-0.34312314,0.90013367,1.4333733,0.015225887,0.0058768303,0.51200444,1.1892806,-0.03930908
-0.2,-0.1,1.2999999999999998,0.5235987755982988,-0.5235987755982988,0,-0.21941029,0.30530187,1.0775846,0.51672864,0.2184798,0.3392409,-0.32560077,0.27108833,1.2869548,-0.029215759,-0.02413532,-0.30371603,1.2124761,0.9285453
-0.2,-0.1,1.2999999999999998,0.5235987755982988,-0.5235987755982988,0,-0.21959157,0.30572557,1.0764319,0.51639193,0.23331693,0.3406391,-0.33400896,0.038654227,1.379621,-0.08000565,-0.03134576,-0.30328932,1.153519,-1.0166177
-0.2,-0.1,1.2999999999999998,0.5235987755982988,-0.5235987755982988,0,-0.21880072,0.30737388,1.0770929,0.5172231,0.22312395,0.33951178,-0.320844,0.9210882,1.3488005,-0.09370386,-0.06533773,-0.107988514,1.2326609,0.7552352
-0.2,-0.1,1.2999999999999998,0.5235987755982988,-0.5235987755982988,0,-0.21849023,0.30796513,1.0763011,0.51664734,0.23823172,0.3396864,-0.3465506,-0.4588264,1.2005588,-0.053074926,0.036036897,0.22951667,1.150289,0.15405788
-0.2,-0.1,1.2999999999999998,0.5235987755982988,-0.5235987755982988,0,-0.21958196,0.30780378,1.0753002,0.5175733,0.22606613,0.34086767,-0.31369284,0.36141777,1.3537358,-0.051338952,-0.047796953,-0.23689984,1.2928104,-0.62381554
-0.2,-0.1,1.2999999999999998,0.5235987755982988,-0.5235987755982988,0,-0.2195724,0.30584762,1.0772823,0.51667464,0.22417699,0.34030935,-0.32396346,-0.064393096,1.3727252,0.41585797,0.011657861,0.13328634,1.237001,0.62517846
-0.2,-0.1,1.2999999999999998,0.5235987755982988,-0.5235987755982988,0,-0.22067524,0.30590883,1.0760626,0.5164084,0.22067806,0.33935964,-0.3487009,0.918754,1.4043102,-0.03680674,-0.057709575,-0.080165856,1.1827945,-0.10731819
-0.2,-0.1,1.2999999999999998,0.5235987755982988,-0.5235987755982988,0,-0.22022666,0.30754253,1.0764697,0.5161967,0.23478408,0.3407825,-0.33504152,0.12790012,1.3225962,-0.19463375,-0.06866916,0.0177609,1.2314905,0.3381145
-0.2,-0.1,1.2999999999999998,0.5235987755982988,-0.5235987755982988,0,-0.21879509,0.30827168,1.0760133,0.51674885,0.23477729,0.337902,-0.3477505,-0.30839598,1.3929052,0.13355127,-0.022387508,0.054729383,1.2988471,-0.502772
-0.2,-0.1,1.2999999999999998,0.5235987755982988,-0.5235987755982988,0,-0.2174578,0.30474946,1.0762092,0.5162925,0.23657021,0.340255,-0.3224633,0.015692767,1.337937,-0.23994988,-0.07468139,-0.2669592,1.170602,0.06148329
-0.2,-0.1,1.2999999999999998,0.5235987755982988,-0.5235987755982988,0,-0.2191279,0.30584797,1.078236,0.5170007,0.22315232,0.34051675,-0.33080304,0.78291595,1.2716128,-0.22685511,-0.0475399,0.46085542,1.0576476,0.7250716
-0.2,-0.1,1.2999999999999998,0.5235987755982988,-0.5235987755982988,0,-0.21933477,0.30485532,1.0764295,0.51694286,0.23634426,0.34027824,-0.33057582,-0.40334034,1.3460057,-0.06769521,-0.021881966,0.08375602,1.0815452,-0.8806936
-0.2,-0.1,1.2999999999999998,0.5235987755982988,-0.5235987755982988,0,-0.22092348,0.30607903,1.0754099,0.5171141,0.21810278,0.34151357,-0.32692382,0.16461243,1.2977437,0.13045254,0.0016784605,0.09513582,1.1966096,0.5451013
-0.2,-0.1,1.2999999999999998,0.5235987755982988,-0.5235987755982988,0,-0.21929498,0.30730766,1.0753623,0.5168455,0.22263664,0.3404105,-0.32338116,0.13433401,1.3716099,0.24042524,-0.048514526,0.057707477,1.2650465,0.66784143
-0.2,-0.1,1.2999999999999998,0.5235987755982988,-0.5235987755982988,0,-0.22043167,0.3050872,1.076027,0.5172147,0.23490894,0.3403774,-0.3360411,0.3425379,1.3435955,-0.041216522,-0.08450605,-0.33308792,1.2235184,-0.31580588
-0.2,-0.1,1.2999999999999998,0.5235987755982988,-0.5235987755982988,0,-0.2168658,0.30745715,1.0763372,0.5161734,0.2179428,0.34059012,-0.3298596,1.0247355,1.2731643,-0.2138531,-0.016268298,-0.21916366,1.205,-0.28876814
-0.2,-0.1,1.2999999999999998,0.5235987755982988,-0.5235987755982988,0,-0.21984614,0.30631578,1.0750678,0.5177787,0.22298846,0.34018004,-0.33437675,0.16650862,1.480829,-0.256288,-0.069906846,0.3098303,1.1047368,-0.15276381
-0.2,-0.1,1.2999999999999998,0.5235987755982988,-0.5235987755982988,0,-0.21683452,0.30813423,1.0760617,0.5157529,0.22797604,0.33864132,-0.34828752,0.2483544,1.4033284,-0.043477774,-0.05399608,0.22217646,1.1274709,0.6833407
-0.2,-0.1,1.2999999999999998,0.5235987755982988,-0.5235987755982988,0,-0.21998662,0.30772623,1.0753939,0.51741034,0.22023782,0.34058887,-0.32704943,0.7188374,1.3494887,0.07127571,-0.14116873,0.07694812,1.2547889,0.72233796
-0.2,-0.1,1.2999999999999998,0.5235987755982988,-0.5235987755982988,0,-0.21893606,0.3071601,1.0770011,0.517247,0.22889274,0.33848947,-0.32542545,0.1731654,1.3212715,-0.044333257,-0.019768959,-0.024934355,1.1928152,0.39322552
-0.2,-0.1,1.2999999999999998,0.5235987755982988,-0.5235987755982988,0,-0.22006144,0.305167,1.0774251,0.51667285,0.21030195,0.33968845,-0.32765517,0.017622933,1.3119559,-0.26718542,-0.07207032,-0.1458426,1.2451888,1.0116416
-0.2,-0.1,1.2999999999999998,0.5235987755982988,-0.5235987755982988,0,-0.21936871,0.30585253,1.0771592,0.51625586,0.2217332,0.33968014,-0.3353378,0.035093296,1.4148195,-0.15819752,-0.060494147,0.08617651,1.2131664,-0.4896764
-0.2,-0.1,1.2999999999999998,0.5235987755982988,-0.5235987755982988,0,-0.2192344,0.30580568,1.0731006,0.51597404,0.22590041,0.33826593,-0.33116707,-0.4243172,1.2964884,0.23199552,-0.090889044,0.10913999,1.2391723,1.3308527
-0.2,-0.1,1.2999999999999998,0.5235987755982988,-0.5235987755982988,0,-0.21981378,0.30540642,1.0761796,0.5168412,0.23281752,0.34065244,-0.33388963,-0.49273917,1.3757365,0.11098462,-0.034037597,-0.026576452,1.2201651,-0.58266413
-0.2,-0.1,1.2999999999999998,0.5235987755982988,-0.5235987755982988,0,-0.21944946,0.30605662,1.0782421,0.5173233,0.22547473,0.33691666,-0.3393302,0.054771904,1.3543223,-0.07962849,-0.019950511,0.07102452,1.054801,1.0805044
-0.2,-0.1,1.2999999999999998,0.5235987755982988,-0.5235987755982988,0,-0.21859232,0.3070858,1.075832,0.5162245,0.22112697,0.34045914,-0.33420694,0.46360287,1.2991395,0.14947398,-0.07706551,0.5232048,1.3243806,0.5892572
-0.2,-0.1,1.2999999999999998,0.5235987755982988,-0.5235987755982988,0,-0.21852781,0.30619064,1.0762476,0.51688147,0.22824478,0.3399019,-0.32855803,0.704431,1.2685671,0.06658445,-0.14113657,0.19595683,1.2192727,0.20038888
-0.2,-0.1,1.2999999999999998,0.5235987755982988,-0.5235987755982988,0,-0.21843913,0.30823854,1.0754232,0.51641285,0.23352914,0.34051397,-0.33086005,0.055992104,1.4507821,-0.06651556,-0.09223418,-0.09264528,1.215011,0.36395904
-0.2,-0.1,1.2999999999999998,0.5235987755982988,-0.5235987755982988,0,-0.22157238,0.30505133,1.0782962,0.5158982,0.21908177,0.33940956,-0.35232067,0.3340384,1.4725125,0.07548902,-0.081910096,-0.2594722,1.2108892,0.50102437
-0.2,-0.1,1.2999999999999998,0.5235987755982988,-0.5235987755982988,0,-0.21968684,0.30751562,1.0750047,0.5171472,0.23298363,0.33977517,-0.34022978,0.47285154,1.4372072,-0.21206856,-0.066785485,0.09752276,1.1752012,1.4686322
-0.2,-0.1,1.2999999999999998,0.5235987755982988,-0.5235987755982988,0,-0.21847887,0.3047733,1.0744143,0.5167383,0.23120539,0.34149605,-0.33415163,0.045008678,1.4409215,-0.15882502,-0.07588153,0.2488494,1.1989793,0.58233494
-0.2,-0.1,1.2999999999999998,0.5235987755982988,-0.5235987755982988,0,-0.21944442,0.30395886,1.0754571,0.5170924,0.21669732,0.34024504,-0.33554763,0.59648216,1.4034376,-0.04660753,-0.013302057,-0.3285596,1.3746454,0.8508167
-0.2,-0.1,1.2999999999999998,0.5235987755982988,-0.5235987755982988,0,-0.21913712,0.3059162,1.0759605,0.5177482,0.23676811,0.34006238,-0.3264801,0.70577127,1.3199161,0.07299659,-0.06375726,-0.07918269,1.1555246,0.26961914
-0.2,-0.1,1.2999999999999998,0.5235987755982988,-0.5235987755982988,0,-0.21852528,0.3066208,1.0759877,0.5175251,0.22289233,0.33841047,-0.3398098,0.738418,1.280936,-0.056051888,-0.074387215,0.32532898,1.2717352,-0.4435671
-0.2,-0.1,1.2999999999999998,0.5235987755982988,-0.5235987755982988,0,-0.21983808,0.30475396,1.0789162,0.51700336,0.23332511,0.33886787,-0.3297624,-0.40726167,1.3140194,-0.082184546,-0.135001,0.26127458,1.3018352,-0.37296143
-0.2,-0.1,1.2999999999999998,0.5235987755982988,-0.5235987755982988,0,-0.21924438,0.30650166,1.0765489,0.5172313,0.22830446,0.34001228,-0.33548364,-0.386577,1.4421284,-0.34815204,-0.08524554,0.04556,1.2324239,1.0371046
-0.2,-0.1,1.2999999999999998,0.5235987755982988,-0.5235987755982988,0,-0.21969734,0.3051273,1.074526,0.5180725,0.22202434,0.34008506,-0.33244762,-0.24889058,1.3000535,-0.28224397,0.04615683,0.14692776,1.0955392,0.86099607
-0.2,-0.1,1.2999999999999998,0.5235987755982988,-0.5235987755982988,0,-0.21934064,0.30704156,1.0774424,0.51663464,0.2253831,0.33927152,-0.3464577,-0.27572682,1.3351928,0.2593311,0.014943232,0.10874421,1.3007864,0.12544194
-0.2,-0.1,1.2999999999999998,0.5235987755982988,-0.5235987755982988,0,-0.21691762,0.30706647,1.0749226,0.5159013,0.22768402,0.34049284,-0.333739,0.31177375,1.3786316,0.024425682,-0.11568542,-0.15035048,1.3222857,0.1824195
-0.2,-0.1,1.2999999999999998,0.5235987755982988,-0.5235987755982988,0,-0.21867456,0.30606148,1.0762458,0.51678807,0.22805698,0.34041384,-0.3270542,0.26127008,1.3301758,-0.13817951,0.016845819,0.11042002,1.1183081,0.15265723
-0.2,-0.1,1.2999999999999998,0.5235987755982988,-0.5235987755982988,0,-0.22059004,0.3057059,1.0766897,0.5168413,0.23142776,0.34012812,-0.33980486,-0.27335796,1.3166898,-0.1306586,-0.051213678,-0.043211028,1.2029935,0.10165091
-0.2,-0.1,1.2999999999999998,0.5235987755982988,-0.5235987755982988,0,-0.21906057,0.30663988,1.077041,0.5168911,0.23580265,0.33861977,-0.35434946,0.4001051,1.3688469,0.16114642,0.003449445,0.272751,1.0933938,0.41828084
-0.2,-0.1,1.2999999999999998,0.5235987755982988,-0.5235987755982988,0,-0.21746483,0.30787903,1.0771574,0.516335,0.23523322,0.33859885,-0.3415597,1.0185002,1.3611735,0.12624045,-0.09589236,0.2120384,1.2125683,0.035173763
-0.2,-0.1,1.2999999999999998,0.5235987755982988,-0.5235987755982988,0,-0.2185826,0.30610323,1.0761763,0.516765,0.23834288,0.3405249,-0.33854297,-0.27840322,1.2803161,-0.57849413,-0.12195196,0.2167924,1.1954466,0.08966905
-0.2,-0.1,1.2999999999999998,0.5235987755982988,-0.5235987755982988,0,-0.21948557,0.3056574,1.076071,0.5169507,0.22421797,0.34026358,-0.3326636,-0.5140859,1.4012554,-0.08290515,-0.09330049,-0.26457965,1.1078649,0.47998714
-0.2,-0.1,1.2999999999999998,0.5235987755982988,-0.5235987755982988,0,-0.22084093,0.3082763,1.0772717,0.5170441,0.2258137,0.3402772,-0.32560852,0.64640456,1.3733213,0.036915455,-0.0549099,0.1966568,1.3388201,1.5052274
-0.2,-0.1,1.2999999999999998,0.5235987755982988,-0.5235987755982988,0,-0.21822281,0.30629608,1.0737369,0.516204,0.23575275,0.3413146,-0.34495693,0.7678534,1.4239533,-0.08490691,-0.16232377,-0.0869773,1.2500169,0.76099604
-0.2,-0.1,1.2999999999999998,0.5235987755982988,-0.5235987755982988,0,-0.21938553,0.3049878,1.0758779,0.51773924,0.21458405,0.340216,-0.32920662,0.15522937,1.427326,-0.3231786,-0.082040094,-0.26453614,1.0436516,0.16730227
-0.2,-0.1,1.2999999999999998,0.5235987755982988,-0.5235987755982988,0,-0.2190842,0.3077047,1.0774971,0.5168479,0.22294597,0.33982256,-0.33633792,0.6030804,1.3310999,-0.35790902,-0.06034724,0.11944416,1.2116183,0.438333
-0.2,-0.1,1.2999999999999998,0.5235987755982988,-0.5235987755982988,0,-0.21854275,0.3074118,1.0753406,0.51703775,0.22100967,0.34143746,-0.33158505,-0.38370165,1.2719121,-0.3819158,-0.061571058,0.10695578,1.1968727,-0.21349968
-0.2,-0.1,1.2999999999999998,0.5235987755982988,-0.5235987755982988,0,-0.21849367,0.30706176,1.0783833,0.5166475,0.2193648,0.33880183,-0.3444018,-0.38905236,1.3975846,0.0039761136,0.0057025054,0.15786842,1.2831734,0.32375637
-0.2,-0.1,1.2999999999999998,0.5235987755982988,-0.5235987755982988,0,-0.2186678,0.3062228,1.0758784,0.5170581,0.22582254,0.34114927,-0.3312571,-0.15639672,1.3056681,0.17412077,-0.0919016,-0.08007186,1.2475588,0.27642354
-0.2,-0.1,1.2999999999999998,0.5235987755982988,-0.5235987755982988,0,-0.22166389,0.3075372,1.07769,0.51677704,0.22678451,0.34031275,-0.3368756,0.6205272,1.313127,-0.086606346,-0.08369845,-0.34016994,1.233254,-0.048460353
-0.2,-0.1,1.2999999999999998,0.5235987755982988,-0.5235987755982988,0,-0.2208502,0.30681545,1.0776157,0.5170373,0.2379386,0.3413739,-0.32033226,-1.02581,1.416332,-0.18430284,0.026016496,-0.15482356,1.2413409,1.3469373
-0.2,-0.1,1.2999999999999998,0.5235987755982988,-0.5235987755982988,0,-0.21948753,0.30597872,1.0770906,0.516637,0.22617123,0.3412524,-0.324686,0.41920558,1.3908428,-0.33449095,-0.00860588,-0.2448763,1.2711396,-0.50967
-0.2,-0.1,1.2999999999999998,0.5235987755982988,-0.5235987755982988,0,-0.21977514,0.3085997,1.0747454,0.51709014,0.2229366,0.34166935,-0.33666143,0.7455234,1.4325225,0.17025584,-0.025111478,0.08327181,1.3239049,-0.5352923
-0.2,-0.1,1.2999999999999998,0.5235987755982988,-0.5235987755982988,0,-0.21878788,0.3079619,1.076808,0.51603633,0.21974275,0.34152472,-0.32465494,-0.07852812,1.2789544,-0.20469512,-0.073719196,0.30715197,1.134322,-0.38848415
-0.2,-0.1,1.2999999999999998,0.5235987755982988,-0.5235987755982988,0,-0.21976331,0.30763426,1.0746615,0.51760054,0.22800916,0.33975628,-0.33931196,1.212484,1.4232134,-0.15162502,-0.15955892,0.17014003,1.1847649,-0.22359748
-0.2,-0.1,1.2999999999999998,0.5235987755982988,-0.5235987755982988,0,-0.2196964,0.3064854,1.0761958,0.516418,0.23624527,0.3404925,-0.34143808,0.04831127,1.260589,-0.3701607,-0.10699457,-0.20075148,1.1369962,0.9120304
-0.2,-0.1,1.2999999999999998,0.5235987755982988,-0.5235987755982988,0,-0.21985768,0.30617556,1.0763637,0.51663744,0.22624427,0.34158915,-0.32820052,0.61139137,1.3118434,0.02276437,-0.06919841,0.29603076,1.173854,0.63347334
-0.2,-0.1,1.2999999999999998,0.5235987755982988,-0.5235987755982988,0,-0.219322,0.30787787,1.0749762,0.5180154,0.2231333,0.34012643,-0.33416256,0.23473717,1.3408954,-0.17512923,-0.071862765,-0.49099627,1.2053012,1.2353108
-0.2,-0.1,1.2999999999999998,0.5235987755982988,-0.5235987755982988,0,-0.21993668,0.30597758,1.0765512,0.5183901,0.22396247,0.3393946,-0.33241907,0.61318296,1.354144,0.17409597,0.03396401,-0.033292044,1.2172565,0.23865734
-0.2,-0.1,1.2999999999999998,0.5235987755982988,-0.5235987755982988,0,-0.22126114,0.30673793,1.0760654,0.51771736,0.23796181,0.33897498,-0.34586042,-0.140044,1.3891383,-0.324304,-0.077490024,0.044667803,1.2461245,0.54040897
-0.2,-0.1,1.2999999999999998,0.5235987755982988,-0.5235987755982988,0,-0.2205125,0.3065597,1.0758734,0.5174497,0.23507786,0.34034282,-0.33716238,0.17522934,1.3726041,0.08406699,-0.05817531,-0.13240823,1.1488106,-0.22807053
-0.2,-0.1,1.2999999999999998,0.5235987755982988,-0.5235987755982988,0,-0.22048908,0.30817547,1.0785228,0.5175671,0.22992235,0.3400765,-0.3207753,0.58309764,1.4014329,-0.25029832,-0.04807002,-0.13181539,1.3181524,0.23108092
-0.2,-0.1,1.2999999999999998,0.5235987755982988,-0.5235987755982988,0,-0.21944734,0.3059002,1.0756271,0.5177392,0.2281545,0.34008238,-0.33683398,0.6192701,1.3538934,-0.03161255,-0.08157754,-0.15199853,1.0714743,0.22645673
-0.2,-0.1,1.2999999999999998,0.5235987755982988,-0.5235987755982988,0,-0.22071408,0.3065624,1.0753464,0.51675206,0.22405784,0.33926246,-0.33505353,0.7497085,1.3513086,-0.098364465,-0.103771456,0.15113078,1.4354355,0.5628441
-0.2,-0.1,1.2999999999999998,0.5235987755982988,-0.5235987755982988,0,-0.21921712,0.3060105,1.0768237,0.5168816,0.22351044,0.33944148,-0.3391569,-0.052035484,1.443545,-0.17109323,-0.15419099,-0.010217235,1.2599369,-0.25204286
-0.2,-0.1,1.2999999999999998,0.5235987755982988,-0.5235987755982988,0,-0.21902207,0.30614054,1.0771272,0.51636755,0.22012766,0.33985272,-0.34201685,1.2676954,1.433626,-0.19325905,0.03053025,0.07033204,1.198135,-0.26701978
-0.2,-0.1,1.2999999999999998,0.5235987755982988,-0.5235987755982988,0,-0.21926135,0.30379608,1.077336,0.51748073,0.21475066,0.3395475,-0.3342988,-0.118362665,1.2654357,-0.24899971,-0.059287075,-0.18017608,1.2719934,1.2201866
-0.2,-0.1,1.2999999999999998,0.5235987755982988,-0.5235987755982988,0,-0.22047827,0.30856147,1.0762842,0.51679605,0.22338276,0.34017175,-0.34214345,-0.19176358,1.312669,-0.26989958,0.0043418533,0.34139684,1.2159462,0.44334847
-0.2,-0.1,1.2999999999999998,0.5235987755982988,-0.5235987755982988,0,-0.21810359,0.30641755,1.0755016,0.51707053,0.23828366,0.34029981,-0.33202434,-0.26647887,1.2528179,-0.18051669,-0.022083722,0.08676898,1.2279599,1.0575742
-0.2,-0.1,1.2999999999999998,0.5235987755982988,-0.5235987755982988,0,-0.22034277,0.30728248,1.0759846,0.51757884,0.22345367,0.3406402,-0.3296594,0.8277465,1.4087809,-0.07172125,-0.049942825,0.18602635,1.1534075,-0.33232793
-0.2,-0.1,1.2999999999999998,0.5235987755982988,-0.5235987755982988,0,-0.21917465,0.30632457,1.0759872,0.5177183,0.226689,0.33950827,-0.3381573,-0.23181868,1.3783298,-0.12867032,-0.13546649,0.07294529,1.4091889,-0.35126016
-0.2,-0.1,1.2999999999999998,0.5235987755982988,-0.5235987755982988,0,-0.21654354,0.30659348,1.0715644,0.51650685,0.2213137,0.34110257,-0.34297997,0.5664066,1.396249,0.16706562,-0.06112607,-0.13978128,1.1928166,0.058159564
-0.2,-0.1,1.2999999999999998,0.5235987755982988,-0.5235987755982988,0,-0.21935984,0.30645907,1.077379,0.51744986,0.23697276,0.33981225,-0.34924066,0.19722721,1.3265854,-0.06244699,-0.09498691,0.28370312,1.1549089,1.1168274
-0.2,-0.1,1.2999999999999998,0.5235987755982988,-0.5235987755982988,0,-0.21903555,0.3071318,1.0774037,0.5163974,0.22349037,0.340167,-0.34841338,0.48012716,1.2211051,0.18001278,-0.067189775,0.32337332,1.1801909,-0.3775264
-0.2,-0.1,1.2999999999999998,0.5235987755982988,-0.5235987755982988,0,-0.21857159,0.30572194,1.0755086,0.5162379,0.22083831,0.3428397,-0.3305689,0.8463437,1.3172253,-0.40341797,-0.09700671,0.13514782,1.1483488,0.75422925
-0.2,-0.1,1.2999999999999998,0.5235987755982988,-0.5235987755982988,0,-0.21763296,0.3066139,1.0735853,0.51559937,0.22593401,0.34081036,-0.35135266,-0.2662993,1.3172327,-0.08057239,-0.06589937,0.009046263,1.2354959,0.12136772
-0.2,-0.1,1.2999999999999998,0.5235987755982988,-0.5235987755982988,0,-0.21883923,0.30499697,1.0748205,0.5171091,0.2194557,0.34026244,-0.3430146,-0.18977182,1.4060724,-0.072598085,-0.036437534,0.28587157,1.2521693,1.0224628
-0.2,-0.1,1.2999999999999998,0.5235987755982988,-0.5235987755982988,0,-0.21841015,0.30594075,1.0770992,0.51616496,0.2307898,0.34173757,-0.32843533,0.97944206,1.3126234,0.025590224,-0.12280571,-0.034654375,1.292089,0.53436476
-0.2,-0.1,1.2999999999999998,0.5235987755982988,-0.5235987755982988,0,-0.22026943,0.3045128,1.0772414,0.51719165,0.23352097,0.3408429,-0.33832774,0.30220667,1.3183929,-0.06070532,-0.016122188,0.109323226,1.2240405,0.050985362
-0.2,-0.1,1.2999999999999998,0.5235987755982988,-0.5235987755982988,0,-0.21713945,0.30320156,1.0754232,0.5162104,0.22693795,0.34094703,-0.34491155,0.63177305,1.3693752,-0.36268032,0.04620594,0.16833875,1.2424234,-0.23966968
-0.2,-0.1,1.2999999999999998,0.5235987755982988,-0.5235987755982988,0,-0.2195006,0.30738157,1.0744108,0.51664734,0.23331913,0.34124228,-0.35106453,0.41580653,1.4017892,-0.17504519,-0.057656515,0.25894943,1.382204,0.96658206
-0.2,-0.1,1.2999999999999998,0.5235987755982988,-0.5235987755982988,0,-0.22115567,0.30791327,1.0775336,0.51688546,0.2225257,0.34042385,-0.33832762,-0.46259293,1.349539,0.1675935,-0.07509433,-0.2309788,1.1856594,0.15509029
-0.2,-0.1,1.2999999999999998,0.5235987755982988,-0.5235987755982988,0,-0.21977742,0.30755198,1.0736406,0.5164964,0.22514911,0.33849898,-0.32854503,0.32802883,1.3119612,-0.13007134,-0.027488958,0.02407046,1.284285,-0.45344415
-0.2,-0.1,1.2999999999999998,0.5235987755982988,-0.5235987755982988,0,-0.21899138,0.30459166,1.0768197,0.51644254,0.22957532,0.3413055,-0.3534267,-0.51352274,1.4640307,-0.15792353,-0.13043109,0.3030694,1.278088,-0.49528825
-0.2,-0.1,1.2999999999999998,0.5235987755982988,-0.5235987755982988,0,-0.21729955,0.30838752,1.0720584,0.517179,0.22206423,0.33892593,-0.33200714,0.21641131,1.3592002,-0.08846677,-0.022564162,0.095693775,1.125243,0.007969599
-0.2,-0.1,1.2999999999999998,0.5235987755982988,-0.5235987755982988,0,-0.220102,0.30636916,1.0759954,0.5173039,0.21779375,0.3380626,-0.32660207,-0.13749695,1.2288073,-0.07976947,0.05128667,0.02812237,1.1585662,0.03567524
-0.2,-0.1,1.2999999999999998,0.5235987755982988,-0.5235987755982988,0,-0.22111678,0.30614206,1.0737281,0.5173422,0.21425185,0.33926624,-0.32854053,0.7350052,1.4702085,0.315267,-0.029285166,-0.033344846,1.2818949,1.6070585
-0.2,-0.1,1.2999999999999998,0.5235987755982988,-0.5235987755982988,0,-0.21965043,0.30591983,1.0757035,0.51771647,0.21748388,0.33705842,-0.32869,0.5993576,1.2442353,0.3476069,0.03696123,-0.23357873,1.230004,-0.58275425
-0.2,-0.1,1.2999999999999998,0.5235987755982988,-0.5235987755982988,0,-0.22100496,0.3063885,1.0769658,0.51696223,0.23616529,0.33973244,-0.33722347,0.36053476,1.2050016,-0.12917769,-0.13254073,0.1540708,1.1839486,0.41562894
-0.2,-0.1,1.2999999999999998,0.5235987755982988,-0.5235987755982988,0,-0.21902217,0.30682793,1.0767959,0.5158713,0.22115278,0.33647886,-0.33442283,-0.20141315,1.3798834,0.019875614,-0.08213016,0.24897556,1.2864959,0.23504356
-0.2,-0.1,1.2999999999999998,0.5235987755982988,-0.5235987755982988,0,-0.21753071,0.3045848,1.0747179,0.51705223,0.235115,0.33752188,-0.3284523,0.7553837,1.2457782,-0.10243294,-0.06170581,0.1225489,1.3039267,0.8271823
-0.2,-0.1,1.2999999999999998,0.5235987755982988,-0.5235987755982988,0,-0.21792324,0.30867133,1.0731858,0.51665825,0.23485893,0.33840722,-0.3337389,0.27170852,1.2787575,0.03497869,-0.123307414,0.17783731,1.2261568,0.21755934
-0.2,-0.1,1.2999999999999998,0.5235987755982988,-0.5235987755982988,0,-0.21680722,0.30717197,1.0748199,0.5167476,0.2247855,0.34071553,-0.31659123,0.536793,1.4157468,0.06802734,-0.053809166,-0.11898513,1.2196318,1.3734969
-0.2,-0.1,1.2999999999999998,0.5235987755982988,-0.5235987755982988,0,-0.21916023,0.30617598,1.0751133,0.51653254,0.23841974,0.3402948,-0.35129845,0.6930137,1.2368985,-0.05619272,-0.11288425,0.021416383,1.2160134,0.42655498
-0.2,-0.1,1.2999999999999998,0.5235987755982988,-0.5235987755982988,0,-0.21872011,0.30482274,1.0754681,0.5163221,0.22381213,0.33959365,-0.33187145,0.1631029,1.4138082,0.0034861495,-0.060682677,-0.15457396,1.2837389,-0.035682924
-0.2,-0.1,1.2999999999999998,0.5235987755982988,-0.5235987755982988,0,-0.21779843,0.30682442,1.077008,0.5171732,0.22596535,0.33849534,-0.31019944,-0.075997874,1.2666887,-0.5197292,-0.099480905,0.02665673,1.3584186,-0.060898464
-0.2,-0.1,1.2999999999999998,0.5235987755982988,-0.5235987755982988,0,-0.21997166,0.30693227,1.0770159,0.517005,0.2304169,0.33904436,-0.3281661,0.25958318,1.4378332,0.1045122,0.040601816,-0.06759842,1.2474433,0.45912427
-0.2,-0.1,1.2999999999999998,0.5235987755982988,-0.5235987755982988,0,-0.21678665,0.30633757,1.0735792,0.5178809,0.2241545,0.33933598,-0.34063137,0.39285427,1.435994,-0.32705456,-0.11549324,-0.20003083,1.389091,0.58474046
-0.2,-0.1,1.2999999999999998,0.5235987755982988,-0.5235987755982988,0,-0.21954814,0.3073596,1.077647,0.51660943,0.23170148,0.34021404,-0.34433502,0.6692352,1.2990214,-0.017137326,0.026804382,0.14177695,1.1427808,0.32677478
-0.2,-0.1,1.2999999999999998,0.5235987755982988,-0.5235987755982988,0,-0.2185761,0.30579433,1.0767186,0.51669145,0.22496812,0.33850577,-0.35073775,0.5612412,1.2996293,-0.41817775,0.04003706,-0.6545254,1.2809025,0.4435938
-0.2,-0.1,1.2999999999999998,0.5235987755982988,-0.5235987755982988,0,-0.22028428,0.30664307,1.074393,0.5158923,0.23095156,0.3389349,-0.32473013,0.3484206,1.5110512,-0.39065146,-0.08616551,-0.0031011098,1.3795389,0.68723917
-0.2,-0.1,1.2999999999999998,0.5235987755982988,-0.5235987755982988,0,-0.22022676,0.3071067,1.0744216,0.51660126,0.22923551,0.33709738,-0.32598084,0.58468455,1.3475065,-0.7185726,-0.024660695,-0.25225288,1.1362084,0.6053594
-0.2,-0.1,1.2999999999999998,0.5235987755982988,-0.5235987755982988,0,-0.2197693,0.30625215,1.0741692,0.51708966,0.23760377,0.33983555,-0.31425935,-0.07243601,1.4885821,-0.42098582,-0.03612485,-0.28000617,1.2009548,0.66622704
-0.2,-0.1,1.2999999999999998,0.5235987755982988,-0.5235987755982988,0,-0.22001821,0.3043453,1.0733025,0.5163613,0.22866945,0.33808985,-0.33110508,0.12755135,1.4224149,0.1520885,-0.094249666,0.24522373,1.3210199,0.14154392
-0.2,-0.1,1.2999999999999998,0.5235987755982988,-0.5235987755982988,0,-0.2187044,0.30473712,1.0776409,0.51653254,0.22993338,0.3381718,-0.3117501,0.16477568,1.3436722,-0.44414514,0.011961534,0.1453827,1.2199781,1.3815851
-0.2,-0.1,1.2999999999999998,0.5235987755982988,-0.5235987755982988,0,-0.219798,0.3065996,1.0739666,0.5167228,0.23365726,0.33976454,-0.322534,1.5229917,1.3354903,-0.1450775,0.02048171,0.18674175,1.2043954,1.8699651
-0.2,-0.1,1.2999999999999998,0.5235987755982988,-0.5235987755982988,0,-0.22093636,0.3060637,1.0744957,0.51578873,0.225522,0.3399168,-0.3267794,-0.392637,1.3072741,-0.16061264,-0.0015593603,-0.25127023,1.2456809,0.46418878
-0.2,-0.1,1.2999999999999998,0.5235987755982988,-0.5235987755982988,0,-0.21991283,0.30485517,1.0751133,0.5162821,0.23076703,0.3406213,-0.320829,-0.05023141,1.3704606,-0.13128377,-0.102241166,-0.09081887,1.2659526,0.83705634
-0.2,-0.1,1.2999999999999998,0.5235987755982988,-0.5235987755982988,0,-0.22070292,0.30806047,1.0752313,0.5168187,0.2222828,0.33930746,-0.31743518,0.119924285,1.3624994,-0.16285872,-0.10514304,0.024509043,1.1459359,0.23768866
-0.2,-0.1,1.2999999999999998,0.5235987755982988,-0.5235987755982988,0,-0.22201224,0.30635178,1.0750622,0.51695865,0.22874433,0.33923224,-0.3290314,-0.2216728,1.2913203,-0.15360893,-0.09215636,-0.1316472,1.2452908,0.7213923
-0.2,-0.1,1.2999999999999998,0.5235987755982988,-0.5235987755982988,0,-0.2209893,0.30456665,1.0756652,0.5160602,0.22142997,0.33827943,-0.3373395,-0.27551958,1.383586,-0.44797668,-0.0567282,0.44980568,1.2728784,1.3616272
-0.2,-0.1,1.2999999999999998,0.5235987755982988,-0.5235987755982988,0,-0.22016834,0.306306,1.0759993,0.51683897,0.23174569,0.3395818,-0.32889384,0.9982269,1.3991282,0.00062294264,-0.06082603,0.26162297,1.2182811,-0.23914291
-0.2,-0.1,1.2999999999999998,0.5235987755982988,-0.5235987755982988,0,-0.22167999,0.30473638,1.0768354,0.51594347,0.22930843,0.3414789,-0.3279072,0.009377989,1.2904358,-0.38310146,-0.05691603,0.1982351,1.2249687,0.62793434
-0.2,-0.1,1.2999999999999998,0.5235987755982988,-0.5235987755982988,0,-0.21939193,0.30827343,1.0734911,0.5163945,0.21739775,0.3392694,-0.3274118,0.96979374,1.2247436,-0.36095577,0.016929785,-0.052448533,1.2241114,-0.0831043
-0.2,-0.1,1.2999999999999998,0.5235987755982988,-0.5235987755982988,0,-0.21973424,0.3048045,1.0738463,0.51676756,0.21934329,0.33948687,-0.32718685,0.103223644,1.3222103,-0.48216376,-0.1339442,0.10191691,1.4083079,0.64006245
-0.2,-0.1,1.2999999999999998,0.5235987755982988,-0.5235987755982988,0,-0.2206957,0.30571085,1.0744406,0.51623183,0.23220776,0.34003964,-0.35408315,0.045158036,1.5668125,0.047964137,0.014737909,-0.3698268,1.1308008,0.7532131
-0.2,-0.1,1.2999999999999998,0.5235987755982988,-0.5235987755982988,0,-0.22095944,0.3078293,1.0744967,0.5171511,0.22127372,0.3388152,-0.33780456,1.5538393,1.3181967,-0.32957554,-0.15708013,0.35451642,1.261685,1.0392486
-0.2,-0.1,1.2999999999999998,0.5235987755982988,-0.5235987755982988,0,-0.21936443,0.3077601,1.0770038,0.5171418,0.22857024,0.3401668,-0.33363515,0.9890684,1.4649222,-0.20208734,0.017612787,-0.28672647,1.3327824,-0.4159392
-0.2,-0.1,1.2999999999999998,0.5235987755982988,-0.5235987755982988,0,-0.22249906,0.30453905,1.0759181,0.51665664,0.23228605,0.34070936,-0.31603584,0.13710405,1.4312565,0.016105339,-0.0022493643,0.058991376,1.2270253,-0.68182236
-0.2,-0.1,1.2999999999999998,0.5235987755982988,-0.5235987755982988,0,-0.2214971,0.30840942,1.0758524,0.51693416,0.21988375,0.33850607,-0.33965167,0.7600365,1.2518873,-0.17162175,0.013037941,-0.171578,1.2748426,0.551979
-0.2,-0.1,1.2999999999999998,0.5235987755982988,-0.5235987755982988,0,-0.21998958,0.3063039,1.0792286,0.5171437,0.21349175,0.3395956,-0.32681823,-0.35980684,1.3888905,0.3270773,-0.041786484,0.26192883,1.1478337,0.04211058
-0.2,-0.1,1.2999999999999998,0.5235987755982988,-0.5235987755982988,0,-0.22049193,0.30714026,1.0747182,0.51676923,0.22047548,0.33685234,-0.33058655,0.68764436,1.40419,0.04674158,0.025297903,-0.078337684,1.2119466,0.06052518
-0.2,-0.1,1.2999999999999998,0.5235987755982988,-0.5235987755982988,0,-0.22084215,0.30556557,1.0754918,0.5157876,0.22863525,0.3406064,-0.32421783,0.37448087,1.332309,0.23118797,-0.056148123,0.029593376,1.2490702,0.8287971
-0.2,-0.1,1.2999999999999998,0.5235987755982988,-0.5235987755982988,0,-0.21966025,0.30620226,1.0750461,0.51708627,0.22488233,0.3373192,-0.3425796,0.10436993,1.4365515,-0.32517114,0.06490563,-0.30649564,1.1323436,0.9562062
-0.2,-0.1,1.2999999999999998,0.5235987755982988,-0.5235987755982988,0,-0.2205693,0.30798402,1.077357,0.51605195,0.22897722,0.33841142,-0.33079237,0.19630235,1.3529975,-0.1993476,-0.06889956,0.418349,1.1723415,0.8570124
-0.2,-0.1,1.2999999999999998,0.5235987755982988,-0.5235987755982988,0,-0.22047386,0.30569556,1.0753465,0.51705295,0.23700033,0.3403729,-0.3174511,-0.6383108,1.236227,-0.4293522,0.03559109,-0.24058026,1.2775241,-0.24354829
-0.2,-0.1,1.2999999999999998,0.5235987755982988,-0.5235987755982988,0,-0.2196314,0.3043323,1.075126,0.5163662,0.23397452,0.33963075,-0.3370647,0.65047526,1.3545246,-0.09901531,-0.13459116,0.34082276,1.2363547,-1.3849765
-0.2,-0.1,1.2999999999999998,0.5235987755982988,-0.5235987755982988,0,-0.22153974,0.304079,1.0739683,0.5162491,0.2299692,0.34216484,-0.33716714,0.15810801,1.2763872,0.06612313,-0.0053266822,0.012749205,1.3174133,0.93721765
-0.2,-0.1,1.2999999999999998,0.5235987755982988,-0.5235987755982988,0,-0.2190278,0.30738732,1.0754054,0.5162465,0.22563769,0.3386214,-0.32564074,0.2586515,1.2939519,-0.034123626,-0.10523844,-0.083534926,1.2583126,0.3215895
-0.2,-0.1,1.2999999999999998,0.5235987755982988,-0.5235987755982988,0,-0.21860088,0.30711913,1.0753381,0.5162049,0.22326921,0.338981,-0.3435159,-0.097797565,1.2790005,0.24222161,0.08460647,-0.16991244,1.1939998,-0.39813614
-0.2,-0.1,1.2999999999999998,0.5235987755982988,-0.5235987755982988,0,-0.21991709,0.30649439,1.0752077,0.5173321,0.23434265,0.3399573,-0.3259749,0.25041467,1.2231903,0.57366073,-0.00598224,0.04270235,0.95346,-0.20259784
-0.2,-0.1,1.2999999999999998,0.5235987755982988,-0.5235987755982988,0,-0.21822146,0.3068335,1.076264,0.5167175,0.22570194,0.33678278,-0.33400962,-0.38068253,1.3363132,0.203587,-0.0026658638,0.104793236,1.0421854,0.5967661
-0.2,-0.1,1.2999999999999998,0.5235987755982988,-0.5235987755982988,0,-0.2195378,0.30798966,1.0747262,0.5171779,0.23221369,0.3393703,-0.33021098,0.011289743,1.3465315,-0.0966851,-0.0063888985,-0.41697222,1.0520831,0.99553126
-0.2,-0.1,1.2999999999999998,0.5235987755982988,-0.5235987755982988,0,-0.21922308,0.30747333,1.075028,0.5168803,0.22955966,0.3406424,-0.3174663,0.23258433,1.3403878,-0.045853075,0.013195664,0.053656265,1.2001846,-0.228376
-0.2,-0.1,1.2999999999999998,0.5235987755982988,-0.5235987755982988,0,-0.21838318,0.3068256,1.0769696,0.5165642,0.2210369,0.33992323,-0.307262,0.42611727,1.3894455,-0.25769034,-0.17441736,-0.33928737,1.2276958,0.5750138
-0.2,-0.1,1.2999999999999998,0.5235987755982988,-0.5235987755982988,0,-0.22000474,0.3064584,1.0763047,0.51661867,0.2320703,0.338167,-0.34133473,0.3749383,1.3623943,-0.28273135,0.00950717,0.016903518,1.216013,0.6349785
-0.2,-0.1,1.2999999999999998,0.5235987755982988,-0.5235987755982988,0,-0.21834688,0.3078292,1.0756372,0.5160112,0.22324957,0.33931985,-0.32913265,-0.48674646,1.2746258,0.09055616,-0.08331608,0.38693762,1.2248355,-0.1794917
-0.2,-0.1,1.2999999999999998,0.5235987755982988,-0.5235987755982988,0,-0.21939632,0.3087272,1.0766,0.5154607,0.24019353,0.3410799,-0.33947936,0.77442056,1.4968575,-0.2269949,-0.09043969,-0.12454936,1.1251733,0.29085222
-0.2,-0.1,1.2999999999999998,0.5235987755982988,-0.5235987755982988,0,-0.21918868,0.3085265,1.0757707,0.5153724,0.23956344,0.34010908,-0.34455138,-0.35780144,1.2024492,0.09649606,0.033906892,-0.19292375,1.327058,0.8901614
-0.2,-0.1,1.2999999999999998,0.5235987755982988,-0.5235987755982988,0,-0.2193641,0.30596974,1.0765089,0.5165636,0.2236374,0.33967513,-0.33003387,0.7221924,1.3895019,0.0411189,-0.030997364,0.2627774,1.1190723,0.5624529
-0.2,-0.1,1.2999999999999998,0.5235987755982988,-0.5235987755982988,0,-0.21731055,0.3051001,1.0759101,0.516557,0.22481978,0.33889955,-0.34466138,0.2902884,1.1312696,0.42701223,-0.04557818,-0.283219,1.2742186,0.013829193
-0.2,-0.1,1.2999999999999998,0.5235987755982988,-0.5235987755982988,0,-0.22057682,0.3092297,1.0775023,0.51718795,0.22025105,0.338746,-0.33193797,-0.16521506,1.4430764,-0.08639351,-0.0873621,-0.3127606,1.2620016,0.19791535
-0.2,-0.1,1.2999999999999998,0.5235987755982988,-0.5235987755982988,0,-0.21832566,0.30722067,1.0754322,0.51596487,0.23396958,0.34009817,-0.3356391,0.18814959,1.4104918,-0.23591624,-0.04506689,-0.2726324,1.2656218,0.6431458
-0.2,-0.1,1.2999999999999998,0.5235987755982988,-0.5235987755982988,0,-0.21927205,0.30678537,1.0786752,0.5166576,0.22696741,0.33894327,-0.3248777,0.80048263,1.389751,-0.29045212,-0.081786275,0.30232763,1.218145,0.36954787
-0.2,-0.1,1.2999999999999998,0.5235987755982988,-0.5235987755982988,0,-0.2192509,0.30819583,1.0760539,0.5164273,0.22955811,0.3396244,-0.33374298,0.60030985,1.4108791,-0.24411598,-0.03242242,-0.20175615,1.3594791,0.8531163
-0.2,-0.1,1.2999999999999998,0.5235987755982988,-0.5235987755982988,0,-0.2194051,0.3093709,1.0757358,0.51722467,0.23637709,0.33883324,-0.3326081,0.8222972,1.3575394,0.16996427,-0.038633324,-0.171156,1.1076162,1.1493399
-0.2,-0.1,1.2999999999999998,0.5235987755982988,-0.5235987755982988,0,-0.2193379,0.3068159,1.0766203,0.51743585,0.22872062,0.33929628,-0.3329242,-0.07471967,1.3924644,0.024124274,-0.1117404,0.45381057,1.2847991,0.73133695
-0.2,-0.1,1.2999999999999998,0.5235987755982988,-0.5235987755982988,0,-0.21906891,0.30637118,1.0753798,0.5174361,0.22801842,0.33850965,-0.34636816,0.6244681,1.2326131,-0.2832728,-0.18055251,-0.22230908,1.2335008,0.27476025
-0.2,-0.1,1.2999999999999998,0.5235987755982988,-0.5235987755982988,0,-0.21827152,0.30624554,1.0762141,0.51646996,0.22660884,0.33886477,-0.33929262,0.0006413071,1.3790911,-0.4148601,-0.01960819,0.27727252,1.2260092,0.25947976
-0.2,-0.1,1.2999999999999998,0.5235987755982988,-0.5235987755982988,0,-0.21981433,0.306059,1.0760145,0.51715595,0.22148043,0.3381498,-0.3444882,1.1190164,1.2559772,0.13947456,-0.0839479,0.18657331,1.3853048,0.5336519
-0.2,-0.1,1.2999999999999998,0.5235987755982988,-0.5235987755982988,0,-0.21890199,0.30633655,1.0772439,0.5171703,0.23138832,0.33940047,-0.32840204,0.1682066,1.4473084,-0.20604302,-0.09874221,-0.2582094,1.209804,0.25663114
-0.2,-0.1,1.2999999999999998,0.5235987755982988,-0.5235987755982988,0,-0.21833771,0.30519375,1.0768229,0.51686853,0.21722038,0.33909467,-0.33803222,-0.11203071,1.408463,-0.29984683,-0.07110226,-0.06738534,1.3272347,0.96546906
-0.2,-0.1,1.2999999999999998,0.5235987755982988,-0.5235987755982988,0,-0.22012949,0.30635363,1.0789121,0.5160996,0.22817491,0.3392629,-0.3445387,0.28153154,1.347267,0.34460244,-0.1562272,0.26166818,1.1361103,0.6394598
-0.2,-0.1,1.2999999999999998,0.5235987755982988,-0.5235987755982988,0,-0.21951449,0.3064227,1.0787373,0.516812,0.23028262,0.33856505,-0.35470554,0.3011471,1.3546139,-0.2655364,-0.04709759,0.0058677164,1.3842623,0.3396353
-0.2,-0.1,1.2999999999999998,0.5235987755982988,-0.5235987755982988,0,-0.21807052,0.30486,1.0763698,0.51690334,0.2308673,0.34102985,-0.33303756,1.0036409,1.3226204,-0.07561808,-0.03113748,-0.2705059,1.2895007,0.75565344
-0.2,-0.1,1.2999999999999998,0.5235987755982988,-0.5235987755982988,0,-0.21831872,0.3046806,1.0744948,0.5176889,0.2343643,0.3392065,-0.35539728,0.27333197,1.3134867,-0.31790388,-0.13037334,-0.4691509,1.1763927,1.0355264
-0.2,-0.1,1.2999999999999998,0.5235987755982988,-0.5235987755982988,0,-0.21880019,0.30754727,1.0756308,0.5168956,0.22289003,0.33897415,-0.314443,-0.45781824,1.365716,0.045942016,-0.07519061,0.052605417,1.2082596,0.9296251
-0.2,-0.1,1.2999999999999998,0.5235987755982988,-0.5235987755982988,0,-0.22101101,0.30855432,1.0778414,0.5160112,0.21369737,0.34001315,-0.30691746,0.7006886,1.4067334,0.30433184,-0.10518566,0.1666742,1.1569157,-0.047763973
-0.2,-0.1,1.2999999999999998,0.5235987755982988,-0.5235987755982988,0,-0.22143438,0.30547366,1.0762438,0.51684237,0.23315921,0.3393843,-0.33314663,0.8049717,1.2036958,-0.2278579,-0.032685842,-0.053758405,1.2504015,0.3918572
-0.2,-0.1,1.2999999999999998,0.5235987755982988,-0.5235987755982988,0,-0.22313397,0.3047097,1.0768015,0.5173843,0.23888062,0.33998948,-0.32260364,-0.21920969,1.2445743,-0.11873265,-0.1294315,0.057514787,1.3671006,0.4044312
-0.2,-0.1,1.2999999999999998,0.5235987755982988,-0.5235987755982988,0,-0.22099558,0.30629376,1.0781718,0.51670784,0.24012549,0.34085122,-0.30895993,0.14393823,1.3326435,-0.0760653,-0.05401713,0.2600662,1.3562725,0.31023887
-0.2,-0.1,1.2999999999999998,0.5235987755982988,-0.5235987755982988,0,-0.2207907,0.30708608,1.0764815,0.5164389,0.22766116,0.3395642,-0.3341459,-0.1896394,1.3953254,-0.060127355,-0.16329533,0.16174598,1.138939,0.32491645
-0.2,-0.1,1.2999999999999998,0.5235987755982988,-0.5235987755982988,0,-0.21893981,0.3042964,1.0738308,0.5164131,0.23114787,0.340878,-0.33506018,0.050582588,1.479888,-0.32008398,-0.15838362,-0.1300448,1.1755021,1.379038
-0.2,-0.1,1.2999999999999998,0.5235987755982988,-0.5235987755982988,0,-0.2187464,0.3077429,1.0766702,0.51727873,0.23548926,0.33699173,-0.34475172,0.07510835,1.3093743,0.08519383,-0.018120373,-0.2330559,1.0371592,0.5803066
