sanky1234/BimanualDexCatch/isaacgymenvs/cem_results/football_pose_0.1_0.0_0.9999999999999999_-0.5235987755982988_0.0_0_2025-05-26.csv
x,y,z,roll,pitch,yaw,robot1/joint1,robot1/joint2,robot1/joint3,robot1/joint4,robot1/joint5,robot1/joint6,robot1/joint7,robot2/joint1,robot2/joint2,robot2/joint3,robot2/joint4,robot2/joint5,robot2/joint6,robot2/joint7
0.1,0.0,0.9999999999999999,-0.5235987755982988,0.0,0,-1.7697412,1.3059497,-0.470135,0.61119944,-0.6881937,1.2431498,-2.2676759,0.9926327,1.1222055,-0.108269714,0.05630515,-0.13847384,1.38597,0.30031857
0.1,0.0,0.9999999999999999,-0.5235987755982988,0.0,0,-1.7684356,1.3068175,-0.47223514,0.6115998,-0.68296844,1.2441658,-2.2243035,1.3161739,1.2172236,-0.031488314,-0.015505039,-0.10684882,1.2074449,-0.8358312
0.1,0.0,0.9999999999999999,-0.5235987755982988,0.0,0,-1.7674712,1.2997155,-0.47221115,0.610674,-0.6735426,1.2408556,-2.2723172,1.3796017,1.4494082,-0.21722156,-0.076341756,0.103742495,1.4441899,-0.058691673
0.1,0.0,0.9999999999999999,-0.5235987755982988,0.0,0,-1.7688897,1.302951,-0.47033152,0.61108184,-0.6925484,1.2448366,-2.2419837,1.0332861,1.3084259,-0.2391768,0.074095465,-0.06783364,1.0935422,-0.24818733
0.1,0.0,0.9999999999999999,-0.5235987755982988,0.0,0,-1.7682337,1.3041047,-0.47311574,0.60961384,-0.6789331,1.2411444,-2.257779,1.0657315,1.1276217,-0.17364895,-0.032421585,0.11414416,1.2242469,-0.19759761
0.1,0.0,0.9999999999999999,-0.5235987755982988,0.0,0,-1.7695336,1.3003024,-0.47084126,0.6092938,-0.68382555,1.2415153,-2.2183096,1.0663924,1.2049351,-0.27835953,-0.16751803,-0.06134081,1.2473954,-0.88567424
0.1,0.0,0.9999999999999999,-0.5235987755982988,0.0,0,-1.7700241,1.3007934,-0.47158048,0.6105575,-0.6797725,1.2404481,-2.2590652,1.1789505,1.3394966,-0.06602843,-0.07347575,-0.045236237,1.2809889,0.020088945
0.1,0.0,0.9999999999999999,-0.5235987755982988,0.0,0,-1.7730302,1.3042581,-0.47209725,0.6088486,-0.6891362,1.243306,-2.2101135,1.2697781,1.2762871,-0.23449259,-0.03818608,0.017683258,1.2094582,0.040253308
0.1,0.0,0.9999999999999999,-0.5235987755982988,0.0,0,-1.7715955,1.2996343,-0.472418,0.6101825,-0.68658483,1.2401541,-2.2299106,1.2887558,1.1426654,-0.09373154,-0.009032184,-0.0784315,1.0971432,1.4126369
0.1,0.0,0.9999999999999999,-0.5235987755982988,0.0,0,-1.7692144,1.3029258,-0.47372767,0.6125318,-0.6830628,1.239315,-2.2897098,1.2492492,0.9962811,-0.10463071,0.05667858,0.1567515,1.2128509,-0.47693124
0.1,0.0,0.9999999999999999,-0.5235987755982988,0.0,0,-1.7696373,1.3042647,-0.4719155,0.609522,-0.68161196,1.2444593,-2.2129374,0.93843734,1.1672122,-0.1103923,0.030903114,0.076345064,1.0823419,-0.5862529
0.1,0.0,0.9999999999999999,-0.5235987755982988,0.0,0,-1.7708485,1.303402,-0.4730936,0.60930634,-0.69312596,1.2411072,-2.2607412,1.3115758,1.2112571,-0.072528206,-0.05060035,-0.06961697,1.4164299,-0.282648
0.1,0.0,0.9999999999999999,-0.5235987755982988,0.0,0,-1.7688183,1.3012428,-0.4704138,0.6114874,-0.6813532,1.2418922,-2.22173,1.2165935,1.1580523,-0.059070148,0.006338806,-0.11597841,1.0731875,-2.0255766
0.1,0.0,0.9999999999999999,-0.5235987755982988,0.0,0,-1.7706374,1.3050276,-0.47244045,0.6104641,-0.68461823,1.242429,-2.278767,1.1156281,1.4711752,0.031532522,0.020517124,-0.026664741,1.257849,-0.33642474
0.1,0.0,0.9999999999999999,-0.5235987755982988,0.0,0,-1.7694821,1.2997005,-0.47151762,0.60970676,-0.68901,1.2451077,-2.2316434,1.2587487,1.1225249,-0.0327337,-0.121039696,-0.13757454,1.0108578,1.1126615
0.1,0.0,0.9999999999999999,-0.5235987755982988,0.0,0,-1.7711936,1.3024299,-0.4720277,0.61416173,-0.6919313,1.2402436,-2.2044482,1.1366804,1.2280723,-0.12789993,-0.006381675,-0.19528645,1.1600168,-0.06839099
0.1,0.0,0.9999999999999999,-0.5235987755982988,0.0,0,-1.7687895,1.3026608,-0.47240636,0.6102289,-0.6749332,1.2418203,-2.251041,1.1571282,1.4375998,0.1418059,0.02632451,0.02821982,1.31712,-0.43856636
0.1,0.0,0.9999999999999999,-0.5235987755982988,0.0,0,-1.7690194,1.3032185,-0.4726974,0.6111183,-0.6779673,1.241572,-2.2573109,1.207686,1.2920047,-0.0130145475,-0.026000004,0.09519405,1.1934847,-0.36480868
0.1,0.0,0.9999999999999999,-0.5235987755982988,0.0,0,-1.7671121,1.2994395,-0.46902364,0.6117963,-0.7020568,1.241519,-2.2485828,1.1648914,1.1634177,-0.10781675,-0.012055657,-0.0075433343,1.2637831,0.14709412
0.1,0.0,0.9999999999999999,-0.5235987755982988,0.0,0,-1.7690398,1.3017484,-0.4702456,0.6100874,-0.6941119,1.2433137,-2.2218816,1.0322647,1.3049453,-0.0972813,-0.045558117,-0.08432403,1.4040886,-0.0751096
0.1,0.0,0.9999999999999999,-0.5235987755982988,0.0,0,-1.7710165,1.299676,-0.47034785,0.61352366,-0.6684798,1.2428879,-2.2096899,1.2579081,1.3289907,0.10159309,0.013188284,0.16183634,1.0531584,-0.58774436
0.1,0.0,0.9999999999999999,-0.5235987755982988,0.0,0,-1.7707133,1.304965,-0.4730438,0.61098117,-0.68736875,1.2426919,-2.2285948,1.1938885,1.2688719,0.15647966,0.036247976,0.0949726,1.3508813,0.30601287
0.1,0.0,0.9999999999999999,-0.5235987755982988,0.0,0,-1.7687591,1.303139,-0.4737467,0.60888064,-0.6799948,1.2416604,-2.218146,1.2424245,1.2838432,-0.06636653,-0.008280425,-0.1276847,1.2994845,0.1837253
0.1,0.0,0.9999999999999999,-0.5235987755982988,0.0,0,-1.7714334,1.304446,-0.4722964,0.6106647,-0.6893481,1.2429224,-2.2364147,1.0994867,1.2197351,0.14583854,0.047296915,-0.06452033,1.1781253,-0.23328584
0.1,0.0,0.9999999999999999,-0.5235987755982988,0.0,0,-1.7720182,1.3044355,-0.47405306,0.6099285,-0.69069195,1.2415383,-2.2591105,1.254184,1.249312,0.16219433,0.031662498,0.06783012,1.2710472,0.8070316
0.1,0.0,0.9999999999999999,-0.5235987755982988,0.0,0,-1.7702752,1.3064842,-0.46996868,0.6092674,-0.6775069,1.2454436,-2.2785764,0.9049793,1.2541606,0.021632131,-0.07722852,-0.050497103,1.3131706,-0.12779017
0.1,0.0,0.9999999999999999,-0.5235987755982988,0.0,0,-1.7692589,1.301496,-0.47164074,0.6105472,-0.68906224,1.242178,-2.2298315,1.0824355,1.047617,-0.28885183,-0.021130512,-0.042845353,1.2164942,0.6302918
0.1,0.0,0.9999999999999999,-0.5235987755982988,0.0,0,-1.7697392,1.30219,-0.47073838,0.60812616,-0.6840781,1.2444742,-2.20346,1.4933052,1.3875607,0.0831659,-0.12772997,0.053822245,1.144062,-0.8803577
0.1,0.0,0.9999999999999999,-0.5235987755982988,0.0,0,-1.771381,1.3015753,-0.469748,0.6116371,-0.68647176,1.2420588,-2.245616,0.98303056,1.3608791,-0.12758857,-0.066116676,-0.009154895,1.1258204,0.15221423
0.1,0.0,0.9999999999999999,-0.5235987755982988,0.0,0,-1.7704386,1.3027366,-0.4714911,0.60981077,-0.69031525,1.2417834,-2.2442477,0.8623662,1.3279676,0.1244393,0.03687237,0.10598079,1.2373139,-0.048608404
0.1,0.0,0.9999999999999999,-0.5235987755982988,0.0,0,-1.7689366,1.3047464,-0.4690921,0.6106344,-0.69138104,1.244576,-2.1926584,1.3083171,1.1848385,0.10761493,-0.033669453,-0.004653429,1.1981351,-1.1232339
0.1,0.0,0.9999999999999999,-0.5235987755982988,0.0,0,-1.7705029,1.3045162,-0.47161064,0.6090733,-0.69069624,1.2469398,-2.221827,1.3257073,1.1654023,-0.35633385,0.06463024,0.07297171,1.08466,0.5074998
0.1,0.0,0.9999999999999999,-0.5235987755982988,0.0,0,-1.7701024,1.300507,-0.46963996,0.6110832,-0.6821075,1.2421422,-2.2561502,0.9589939,1.2608441,-0.022836978,-0.034316976,-0.098526895,1.0028393,-1.0157354
0.1,0.0,0.9999999999999999,-0.5235987755982988,0.0,0,-1.7714242,1.3016615,-0.4718196,0.6109701,-0.6956277,1.2418898,-2.2013702,1.2276859,1.28715,-0.16922657,0.001167531,-0.18739176,1.2413406,0.21144013
0.1,0.0,0.9999999999999999,-0.5235987755982988,0.0,0,-1.7701747,1.301377,-0.47211632,0.6116585,-0.68133235,1.2401394,-2.254396,1.0296023,1.2949754,-0.2149479,-0.0788316,0.011975496,1.094652,-0.04057731
0.1,0.0,0.9999999999999999,-0.5235987755982988,0.0,0,-1.7694632,1.3004235,-0.4731465,0.6097498,-0.6889606,1.2413734,-2.2162366,1.7518934,1.2935348,0.09576809,-0.063119285,-0.06065726,1.1647694,-0.9700231
0.1,0.0,0.9999999999999999,-0.5235987755982988,0.0,0,-1.7680006,1.3017261,-0.47192037,0.6127069,-0.6811854,1.2387466,-2.2321277,1.0453503,1.2775258,0.020855876,-0.036761083,-0.033958413,1.2739114,0.59148586
0.1,0.0,0.9999999999999999,-0.5235987755982988,0.0,0,-1.7686826,1.3008555,-0.47159213,0.6105311,-0.6906397,1.2424183,-2.2498825,1.0838351,1.343926,-0.07014071,-0.04972402,-0.17034817,1.1898842,-1.1863585
0.1,0.0,0.9999999999999999,-0.5235987755982988,0.0,0,-1.7683384,1.3037001,-0.47242475,0.6099105,-0.69531554,1.2419033,-2.2215767,1.2795346,1.2723938,-0.046716403,-0.07122495,0.07260964,1.1654246,1.0902714
0.1,0.0,0.9999999999999999,-0.5235987755982988,0.0,0,-1.7695403,1.3046832,-0.47079954,0.6097911,-0.6856172,1.2445289,-2.2297614,1.0532359,1.4087785,0.26807204,-0.042377915,-0.0716499,1.3419787,-0.90313494
0.1,0.0,0.9999999999999999,-0.5235987755982988,0.0,0,-1.7705258,1.3030934,-0.47081092,0.61080587,-0.6873755,1.2436241,-2.2688003,1.2033807,1.4662693,-0.047740426,0.06252573,-0.10621665,1.3737627,0.01945389
0.1,0.0,0.9999999999999999,-0.5235987755982988,0.0,0,-1.7691346,1.3020469,-0.47384974,0.610701,-0.69900745,1.2450907,-2.2152247,1.1294197,1.1066418,0.43287033,-0.12301681,0.14859948,1.0290267,-0.34385282
0.1,0.0,0.9999999999999999,-0.5235987755982988,0.0,0,-1.7663983,1.3045633,-0.4722164,0.6128986,-0.68463016,1.241672,-2.205502,0.7572965,1.3177079,-0.1813316,-0.029158687,-0.09997808,1.0303637,-0.9203792
0.1,0.0,0.9999999999999999,-0.5235987755982988,0.0,0,-1.7699038,1.3021641,-0.47341534,0.61170465,-0.6859325,1.24072,-2.2501545,1.1970121,1.3503071,-0.36543748,-0.013927436,0.09798693,1.3212677,0.98238397
0.1,0.0,0.9999999999999999,-0.5235987755982988,0.0,0,-1.7684458,1.3019469,-0.4735186,0.60963047,-0.6849442,1.2414136,-2.204715,0.8596141,1.2681129,0.049207047,-0.060240354,-0.2604378,1.2769947,0.1513886
0.1,0.0,0.9999999999999999,-0.5235987755982988,0.0,0,-1.7683188,1.3027433,-0.47180513,0.61093783,-0.69472075,1.2436814,-2.2311103,1.3988624,1.3209974,0.20339891,-0.094957866,0.08496355,1.2471688,0.4768329
0.1,0.0,0.9999999999999999,-0.5235987755982988,0.0,0,-1.7717478,1.302374,-0.46882844,0.6125936,-0.69707847,1.2426918,-2.2583365,1.2171646,1.2623765,-0.035908036,-0.073667146,-0.05095492,1.1638966,0.14538929
0.1,0.0,0.9999999999999999,-0.5235987755982988,0.0,0,-1.7699891,1.3033974,-0.47364795,0.61139613,-0.70270777,1.2421331,-2.19695,1.2671825,1.2311473,-0.21759558,-0.10238245,0.07002848,1.2294496,-0.40487328
0.1,0.0,0.9999999999999999,-0.5235987755982988,0.0,0,-1.7686431,1.3056657,-0.47001714,0.6115193,-0.6899388,1.2444865,-2.2303436,1.5688704,1.2839121,0.31171855,-0.011247645,-0.09772972,1.0354884,-1.037814
0.1,0.0,0.9999999999999999,-0.5235987755982988,0.0,0,-1.7715251,1.3014011,-0.47206616,0.61033934,-0.69875854,1.2427509,-2.2054622,1.2863524,1.4147776,-0.014313414,-0.04856526,-0.053196307,1.2267479,-0.6944883
0.1,0.0,0.9999999999999999,-0.5235987755982988,0.0,0,-1.7687956,1.3023442,-0.47123075,0.6098995,-0.6832597,1.2430947,-2.2395735,1.1945411,1.1996685,0.16610649,-0.06531194,-0.1389131,1.342071,0.18986166
0.1,0.0,0.9999999999999999,-0.5235987755982988,0.0,0,-1.7716055,1.303834,-0.47192547,0.6099569,-0.6833442,1.2439591,-2.2523694,1.1561646,1.1649886,-0.114219114,-0.03418196,-0.032567337,1.2805021,0.32596928
0.1,0.0,0.9999999999999999,-0.5235987755982988,0.0,0,-1.7695161,1.3027239,-0.47180805,0.6092094,-0.67852473,1.24412,-2.2300625,1.052841,1.3515587,-0.43511212,-0.038672984,0.035533357,1.0518823,-0.19509555
0.1,0.0,0.9999999999999999,-0.5235987755982988,0.0,0,-1.7701106,1.3032879,-0.4710087,0.61194706,-0.68649817,1.2420101,-2.2469034,1.0264064,1.318121,0.36383376,-0.009282221,0.2070961,1.196899,-0.8116771
0.1,0.0,0.9999999999999999,-0.5235987755982988,0.0,0,-1.7713544,1.3000722,-0.47398528,0.61098945,-0.6899882,1.2392809,-2.2460072,1.6028221,1.0735252,-0.012933127,-0.057670247,-0.11901288,1.3205808,-0.52706
0.1,0.0,0.9999999999999999,-0.5235987755982988,0.0,0,-1.7696522,1.3032691,-0.47056502,0.6087958,-0.67626435,1.2446736,-2.2348695,1.2336681,1.3639891,0.045962412,-0.04670157,-0.032893535,1.3208416,0.18221158
0.1,0.0,0.9999999999999999,-0.5235987755982988,0.0,0,-1.7697271,1.3020909,-0.47050056,0.6102429,-0.6815101,1.24399,-2.2106981,0.99238485,1.3912988,0.14396721,-0.015127332,-0.03972985,1.211435,0.8132909
0.1,0.0,0.9999999999999999,-0.5235987755982988,0.0,0,-1.768701,1.3077843,-0.47441483,0.6119285,-0.68682814,1.2441909,-2.2357428,1.0176581,1.5119482,0.069374524,-0.0016233554,-0.08779082,1.3323561,0.40861717
0.1,0.0,0.9999999999999999,-0.5235987755982988,0.0,0,-1.7694541,1.3047104,-0.4725259,0.6092614,-0.69326687,1.244015,-2.2374358,1.0241114,1.4943365,-0.36412024,-0.022593495,0.0870557,1.0937272,-1.03568
0.1,0.0,0.9999999999999999,-0.5235987755982988,0.0,0,-1.7694316,1.3039821,-0.4703276,0.61110705,-0.6807098,1.2459105,-2.2127995,1.1292926,1.1465849,0.05358162,0.025703095,-0.11347119,1.148023,1.5443028
0.1,0.0,0.9999999999999999,-0.5235987755982988,0.0,0,-1.7696236,1.3033793,-0.47058332,0.61016625,-0.6802794,1.2444353,-2.2196589,1.0115608,1.3137914,-0.11348082,-0.0060034823,-0.047311403,1.1878005,-0.16950634
0.1,0.0,0.9999999999999999,-0.5235987755982988,0.0,0,-1.7703025,1.3025,-0.46847418,0.61120474,-0.6862397,1.2466195,-2.2490106,1.4008301,1.039311,0.17156583,0.023294412,0.083745554,1.2172704,0.22223507
0.1,0.0,0.9999999999999999,-0.5235987755982988,0.0,0,-1.7707605,1.2995986,-0.4710773,0.61162657,-0.6851574,1.2409346,-2.2538633,1.0337694,1.2930163,-0.06478815,0.016221927,-0.028262377,1.1327536,0.21252918
0.1,0.0,0.9999999999999999,-0.5235987755982988,0.0,0,-1.769055,1.3041301,-0.47186,0.61174357,-0.68770593,1.2422935,-2.2288415,1.2150266,1.3058856,-0.08858729,-0.053985164,-0.05006689,1.1433156,1.2033982
0.1,0.0,0.9999999999999999,-0.5235987755982988,0.0,0,-1.7712245,1.305225,-0.47209305,0.6102181,-0.684721,1.2445089,-2.250067,0.8354005,1.2249588,-0.11022688,-0.03464423,0.044254113,1.2170961,-1.7575319
0.1,0.0,0.9999999999999999,-0.5235987755982988,0.0,0,-1.7706715,1.3040243,-0.47335783,0.6110973,-0.6938913,1.2443122,-2.2029052,1.0809823,1.2740972,0.2019824,0.037095565,-0.0611558,1.2112817,-0.24468382
0.1,0.0,0.9999999999999999,-0.5235987755982988,0.0,0,-1.7700973,1.300429,-0.4703014,0.61157984,-0.69096035,1.2438074,-2.251028,1.0834392,1.294261,-0.14697362,0.061152335,-0.0544718,1.057057,0.82967275
0.1,0.0,0.9999999999999999,-0.5235987755982988,0.0,0,-1.7703805,1.3007107,-0.47030267,0.612786,-0.69692725,1.2423297,-2.2296622,1.6752613,1.570123,0.0131484,-0.08389418,0.05394785,1.2556478,-0.31805712
0.1,0.0,0.9999999999999999,-0.5235987755982988,0.0,0,-1.7674804,1.3007455,-0.47322568,0.6092263,-0.6784707,1.2424148,-2.250024,1.2425576,1.1950268,-0.08453133,-0.008086495,-0.07310984,1.3803394,-0.81641304
0.1,0.0,0.9999999999999999,-0.5235987755982988,0.0,0,-1.7682683,1.2975473,-0.47227645,0.6090779,-0.6949526,1.241937,-2.2454824,1.2144439,1.2227597,0.20137094,-0.027008897,0.018091405,1.1087711,-0.20055702
0.1,0.0,0.9999999999999999,-0.5235987755982988,0.0,0,-1.7687701,1.3009815,-0.47389337,0.6107218,-0.6880653,1.2433636,-2.2416165,1.4775586,1.2498,-0.5129292,0.016415467,-0.15699972,1.3188223,-0.61080354
0.1,0.0,0.9999999999999999,-0.5235987755982988,0.0,0,-1.7703642,1.3020663,-0.46992105,0.6118505,-0.68440855,1.2437049,-2.2303991,1.3917097,1.2885767,0.06175174,-0.09692692,-0.039505213,1.1985499,0.019158442
0.1,0.0,0.9999999999999999,-0.5235987755982988,0.0,0,-1.7686952,1.301163,-0.47246954,0.610539,-0.6858193,1.2425692,-2.230848,0.9399415,1.2153075,0.23065971,-0.053035617,-0.12238365,1.1185168,-0.35664192
0.1,0.0,0.9999999999999999,-0.5235987755982988,0.0,0,-1.769475,1.3016398,-0.47214362,0.61064756,-0.67504823,1.2429631,-2.2697494,1.1489621,1.0900768,0.14257915,-0.016381761,0.01963292,1.1116041,-0.07938148
0.1,0.0,0.9999999999999999,-0.5235987755982988,0.0,0,-1.7680278,1.3054113,-0.47180554,0.6107421,-0.68574053,1.244037,-2.238914,1.3503771,1.4053423,-0.050692677,-0.026783267,-0.10785985,1.3472297,-0.36676264
0.1,0.0,0.9999999999999999,-0.5235987755982988,0.0,0,-1.7704062,1.3002119,-0.47176287,0.61235255,-0.68362236,1.2424399,-2.2202861,1.3704661,1.3511279,-0.08554469,-0.019737296,-0.20866138,1.2821956,0.27046877
0.1,0.0,0.9999999999999999,-0.5235987755982988,0.0,0,-1.7718174,1.3021945,-0.47129992,0.6119076,-0.6835198,1.244098,-2.217948,1.3728318,1.1420066,-0.09786517,0.015431427,-0.02138818,1.4047965,-0.16397461
0.1,0.0,0.9999999999999999,-0.5235987755982988,0.0,0,-1.7704029,1.3043851,-0.47346482,0.6119736,-0.70343864,1.2425917,-2.2327893,1.4149628,1.2758522,-0.1339955,-0.017260896,-0.05156047,1.191522,-0.74275476
0.1,0.0,0.9999999999999999,-0.5235987755982988,0.0,0,-1.7698284,1.3028316,-0.4729279,0.610325,-0.68114805,1.2428538,-2.2244406,1.2392967,1.3593525,0.13567352,-0.10711391,0.096228056,1.2846569,-1.5557908
0.1,0.0,0.9999999999999999,-0.5235987755982988,0.0,0,-1.7688398,1.3030419,-0.47121835,0.611491,-0.6720948,1.2440556,-2.2419574,1.1998744,1.1488199,0.13979687,-0.10637121,0.04406556,1.253038,0.13284874
0.1,0.0,0.9999999999999999,-0.5235987755982988,0.0,0,-1.767391,1.3032954,-0.4690832,0.60938907,-0.68901694,1.2453967,-2.1707315,0.9199648,1.2092217,-0.07915064,-0.023706462,0.14590669,1.3460709,0.2579132
0.1,0.0,0.9999999999999999,-0.5235987755982988,0.0,0,-1.7712907,1.2986739,-0.4705507,0.61155754,-0.69475025,1.2415601,-2.2508392,1.5292487,1.2840444,0.065869056,-0.21949074,-0.06727028,1.2001666,-0.92909724
0.1,0.0,0.9999999999999999,-0.5235987755982988,0.0,0,-1.7696263,1.3024809,-0.47218174,0.60871553,-0.6976566,1.2443942,-2.228571,1.2102408,1.3207389,0.12203141,0.05517692,-0.05005426,1.3002697,0.6719805
0.1,0.0,0.9999999999999999,-0.5235987755982988,0.0,0,-1.7691339,1.304968,-0.4718297,0.61004394,-0.69259006,1.2440896,-2.240973,1.3451554,1.1710798,-0.1115685,-0.10812923,-0.191908,1.2778623,0.83876425
0.1,0.0,0.9999999999999999,-0.5235987755982988,0.0,0,-1.7681215,1.3046144,-0.47099385,0.61220163,-0.6748402,1.2454549,-2.2668676,1.4418515,1.4454026,0.12472666,-0.07780266,-0.033500616,0.9207889,-0.4991607
0.1,0.0,0.9999999999999999,-0.5235987755982988,0.0,0,-1.770817,1.3029784,-0.4738016,0.6117893,-0.68446875,1.2436754,-2.2312105,1.2624791,1.1646806,0.51626956,-0.10593695,-0.0011076641,1.285528,-0.5525968
0.1,0.0,0.9999999999999999,-0.5235987755982988,0.0,0,-1.767239,1.3025703,-0.47365433,0.6107158,-0.6846745,1.2430402,-2.1996636,0.81370056,1.2389034,-0.115636475,-0.030458247,-0.01118928,1.1420715,0.43630248
0.1,0.0,0.9999999999999999,-0.5235987755982988,0.0,0,-1.7707324,1.3030086,-0.47023234,0.6117534,-0.68668544,1.2454109,-2.2390752,1.0266327,1.2896956,0.20149845,-0.007849268,0.15111966,1.1214807,0.093291596
0.1,0.0,0.9999999999999999,-0.5235987755982988,0.0,0,-1.7697755,1.302012,-0.47085604,0.6113141,-0.6884692,1.2430106,-2.2547226,1.0003066,1.1610008,0.0445333,0.00959493,-0.08338544,1.2577902,0.19732758
0.1,0.0,0.9999999999999999,-0.5235987755982988,0.0,0,-1.7701691,1.3024824,-0.47152066,0.6121055,-0.69006133,1.241451,-2.2700844,1.2378845,1.2590741,0.18372853,-0.09485055,-0.103116214,1.3130214,0.46157163
0.1,0.0,0.9999999999999999,-0.5235987755982988,0.0,0,-1.7688872,1.3064194,-0.47087097,0.60997415,-0.6901776,1.2466646,-2.2283049,0.90815663,1.1542882,0.14462094,-0.032971136,0.04244295,1.3035468,-0.5257722
0.1,0.0,0.9999999999999999,-0.5235987755982988,0.0,0,-1.7694936,1.3016421,-0.4702657,0.6124278,-0.68683755,1.2421882,-2.2579043,0.9214528,1.4793537,-0.29492682,-0.10545713,-0.07768053,1.2404273,0.3154383
0.1,0.0,0.9999999999999999,-0.5235987755982988,0.0,0,-1.7692201,1.3045305,-0.472578,0.61110866,-0.69149435,1.2443762,-2.1940656,1.7026484,1.2693988,-0.002024187,-0.04583856,-0.0096179135,1.3516991,1.591746
0.1,0.0,0.9999999999999999,-0.5235987755982988,0.0,0,-1.7699193,1.3033026,-0.47503918,0.60970587,-0.68458426,1.242633,-2.247218,1.1834714,1.3529174,-0.15607819,-0.02890916,0.011342593,1.3508515,0.7471096
0.1,0.0,0.9999999999999999,-0.5235987755982988,0.0,0,-1.768148,1.3021129,-0.4743964,0.6104356,-0.6858455,1.2433681,-2.2243886,1.4030367,1.1764618,-0.12484619,-0.08503576,-0.031867553,1.5183978,-0.30773547
0.1,0.0,0.9999999999999999,-0.5235987755982988,0.0,0,-1.7689207,1.301745,-0.4711496,0.61196804,-0.6837017,1.243177,-2.2386348,0.91991866,1.1210462,-0.12859765,-0.030420676,0.007896919,1.3373845,0.9041717
0.1,0.0,0.9999999999999999,-0.5235987755982988,0.0,0,-1.770209,1.3007804,-0.47201112,0.6108539,-0.6879034,1.2440165,-2.2665417,1.0903568,1.1807524,-0.022281649,-0.0041467156,0.011415516,1.1261556,0.6447428
0.1,0.0,0.9999999999999999,-0.5235987755982988,0.0,0,-1.7705411,1.3046567,-0.47105986,0.6129837,-0.6868367,1.2453332,-2.2411766,1.3515836,1.3941878,-0.026266603,-0.098595776,-0.1779401,1.1849355,-0.46865338
0.1,0.0,0.9999999999999999,-0.5235987755982988,0.0,0,-1.770242,1.3015922,-0.46897712,0.611789,-0.6867468,1.24676,-2.1910715,1.5517797,1.3398627,-0.15809098,-0.114298075,-0.10123024,1.051214,-1.8191031
0.1,0.0,0.9999999999999999,-0.5235987755982988,0.0,0,-1.7695556,1.302516,-0.47026616,0.6128026,-0.6976051,1.2419538,-2.251188,1.1059152,1.3266416,-0.15447414,-0.09030952,-0.055284873,1.271002,-0.9052828
0.1,0.0,0.9999999999999999,-0.5235987755982988,0.0,0,-1.7713895,1.302246,-0.47243258,0.6105563,-0.68256,1.2445886,-2.2541988,0.70286137,1.2343026,-0.3457781,-0.14795859,-0.13488299,1.2578295,-0.4396764
0.1,0.0,0.9999999999999999,-0.5235987755982988,0.0,0,-1.769408,1.3038766,-0.47291145,0.61301965,-0.6944412,1.2439497,-2.2021692,1.1193002,1.1717464,0.098440185,-0.12399628,0.022154644,1.1855136,-0.57441694
0.1,0.0,0.9999999999999999,-0.5235987755982988,0.0,0,-1.7722176,1.3015283,-0.469701,0.6096201,-0.6966214,1.2453359,-2.2572885,1.1831375,1.1864053,0.26327455,-0.04702006,0.1240837,1.1746652,1.2334971
0.1,0.0,0.9999999999999999,-0.5235987755982988,0.0,0,-1.771059,1.3022718,-0.47338206,0.61249185,-0.688014,1.2420284,-2.2581377,0.8104231,1.1970816,-0.06788112,-0.10215674,0.020737374,1.4636159,0.08414255
0.1,0.0,0.9999999999999999,-0.5235987755982988,0.0,0,-1.7708788,1.298204,-0.47130606,0.61301976,-0.69332194,1.2412097,-2.226029,1.2679255,1.370454,0.093757235,-0.029042045,0.064035304,1.1105406,0.10627471
0.1,0.0,0.9999999999999999,-0.5235987755982988,0.0,0,-1.7677137,1.3012416,-0.47168428,0.61247635,-0.68404937,1.2428458,-2.243799,1.1438483,1.0647874,-0.15755178,0.023109958,0.16392754,1.3356236,-0.2854723
0.1,0.0,0.9999999999999999,-0.5235987755982988,0.0,0,-1.7690107,1.3027568,-0.47241127,0.6110962,-0.6850541,1.2436416,-2.229943,1.3074453,1.240139,-0.018884514,-0.053499296,-0.23953436,1.2946944,0.3312368
0.1,0.0,0.9999999999999999,-0.5235987755982988,0.0,0,-1.7688171,1.3005664,-0.47386456,0.61043686,-0.6864226,1.2438891,-2.2629888,1.0887978,1.3146744,-0.19863938,-0.08280221,-0.0056590918,1.1738821,-0.40989128
0.1,0.0,0.9999999999999999,-0.5235987755982988,0.0,0,-1.769793,1.3009063,-0.47223592,0.6111336,-0.6851676,1.2429652,-2.2447658,1.1769406,1.1559812,-0.070376754,-0.05177301,-0.17135264,1.2745205,-0.227002
0.1,0.0,0.9999999999999999,-0.5235987755982988,0.0,0,-1.7715319,1.3004476,-0.47239694,0.61180604,-0.68800545,1.2439277,-2.2198796,1.2023509,1.3728621,-0.11492429,-0.101025745,0.082104735,1.0558778,-0.2800449
0.1,0.0,0.9999999999999999,-0.5235987755982988,0.0,0,-1.7692977,1.3037798,-0.47193724,0.61127186,-0.6748932,1.2463782,-2.2283916,1.3971515,1.2893063,-0.3172002,-0.0621996,-0.17857611,1.3702585,-0.33822897
0.1,0.0,0.9999999999999999,-0.5235987755982988,0.0,0,-1.7692033,1.3045012,-0.47240517,0.61089253,-0.68879026,1.2467331,-2.2879834,1.1317029,1.2560998,-0.23871292,0.017540779,-0.053990297,1.0935193,0.39989334
0.1,0.0,0.9999999999999999,-0.5235987755982988,0.0,0,-1.7699627,1.3049967,-0.47092208,0.61011505,-0.68661827,1.2469139,-2.2472105,1.3601731,1.3224833,-0.17167234,-0.040805332,-0.12650819,1.1788583,-0.8257398
0.1,0.0,0.9999999999999999,-0.5235987755982988,0.0,0,-1.7691429,1.3020458,-0.47163203,0.6101322,-0.6936402,1.2448925,-2.2959518,1.0949785,1.2367511,-0.010820852,-0.10111141,0.0112700565,1.3128281,0.98927045
0.1,0.0,0.9999999999999999,-0.5235987755982988,0.0,0,-1.7686163,1.3031238,-0.47186467,0.6125238,-0.6842758,1.243633,-2.234233,1.0322719,1.3845448,0.008733695,-0.05858748,0.07590956,1.2568566,-0.88720834
0.1,0.0,0.9999999999999999,-0.5235987755982988,0.0,0,-1.7696564,1.3043529,-0.47136915,0.6129614,-0.68859637,1.2436535,-2.2794645,1.0069312,1.3542658,0.0928146,-0.08194659,-0.09552144,1.2426468,-0.5052644
0.1,0.0,0.9999999999999999,-0.5235987755982988,0.0,0,-1.7675468,1.304098,-0.47204345,0.6113801,-0.6751208,1.2469666,-2.2126324,1.3421036,1.3557435,-0.2072844,-0.074934416,-0.076134466,1.1500083,0.293916
0.1,0.0,0.9999999999999999,-0.5235987755982988,0.0,0,-1.7705953,1.3028718,-0.47051534,0.6111901,-0.6804906,1.2455208,-2.2730012,1.2169545,1.1845189,-0.055365883,-0.046648335,-0.076076835,1.3287894,-0.06401913
0.1,0.0,0.9999999999999999,-0.5235987755982988,0.0,0,-1.7681657,1.2986904,-0.47335064,0.61007696,-0.6928633,1.2459186,-2.2191436,1.5602686,1.2171485,-0.33953983,0.023776926,-0.16261221,1.1419559,-1.0744057
0.1,0.0,0.9999999999999999,-0.5235987755982988,0.0,0,-1.7697296,1.3023676,-0.47284117,0.6117963,-0.67761314,1.2437674,-2.2577455,1.153962,1.3068378,-0.03357791,-0.043334156,-0.12156533,1.3056047,0.037791464
0.1,0.0,0.9999999999999999,-0.5235987755982988,0.0,0,-1.769722,1.3029124,-0.47207126,0.61213136,-0.69621146,1.2450299,-2.2425332,1.4765481,1.5050924,-0.022138257,-0.08234323,0.05156174,1.1500744,0.97191405
0.1,0.0,0.9999999999999999,-0.5235987755982988,0.0,0,-1.7724224,1.3012152,-0.47060838,0.6129453,-0.68458754,1.2454443,-2.2702012,1.0275079,1.2996325,-0.4725642,0.013079908,0.07553448,1.1897606,-0.12252953
0.1,0.0,0.9999999999999999,-0.5235987755982988,0.0,0,-1.7700235,1.3028911,-0.4733196,0.61114216,-0.6885835,1.244518,-2.2419538,1.1626822,1.3737975,-0.21464357,-0.022951338,-0.118914925,1.3244683,-1.5014846
0.1,0.0,0.9999999999999999,-0.5235987755982988,0.0,0,-1.7713864,1.2991562,-0.47201312,0.6110381,-0.6827772,1.2452326,-2.220805,0.9402893,1.2073625,-0.4739848,-0.10750866,-0.10933363,1.3556789,0.77782947
0.1,0.0,0.9999999999999999,-0.5235987755982988,0.0,0,-1.769645,1.3050071,-0.47347254,0.6096852,-0.68810993,1.2471745,-2.2498546,1.4366043,1.1695935,0.0022287073,-0.03734315,-0.11429363,1.2020962,0.7084848
0.1,0.0,0.9999999999999999,-0.5235987755982988,0.0,0,-1.7686536,1.2998487,-0.4719419,0.61035913,-0.6819423,1.2451015,-2.196101,0.95131445,1.2284541,0.3427051,-0.024394082,-0.2066929,1.1782513,-1.1952677
0.1,0.0,0.9999999999999999,-0.5235987755982988,0.0,0,-1.767488,1.3005464,-0.47236085,0.6130507,-0.68586487,1.2429284,-2.241942,1.2893643,1.1891807,0.05658797,-0.008757471,0.08218759,1.2109191,0.113146015
0.1,0.0,0.9999999999999999,-0.5235987755982988,0.0,0,-1.767597,1.2996438,-0.47260052,0.6115664,-0.68044627,1.2440801,-2.2555969,1.6324872,1.3391036,0.2562679,0.0070872796,-0.12725294,1.2074783,-0.26198968
0.1,0.0,0.9999999999999999,-0.5235987755982988,0.0,0,-1.769099,1.2982758,-0.47191662,0.6115691,-0.6819111,1.244763,-2.2216463,1.7684529,1.3229681,-0.22967628,-0.005316796,-0.084281474,1.1362745,0.48074603
0.1,0.0,0.9999999999999999,-0.5235987755982988,0.0,0,-1.770192,1.2995415,-0.47263452,0.61326045,-0.67962074,1.2414166,-2.2816734,1.00826,1.3111764,-0.28826723,-0.10903192,-0.12930027,1.1032697,-0.4966567
0.1,0.0,0.9999999999999999,-0.5235987755982988,0.0,0,-1.7694817,1.3014742,-0.47468492,0.612532,-0.67670834,1.2422694,-2.2386174,1.3074576,1.2330511,-0.5240323,0.03718925,0.0322551,1.0924793,0.18132024
0.1,0.0,0.9999999999999999,-0.5235987755982988,0.0,0,-1.7702428,1.3004198,-0.47307235,0.61249936,-0.6842583,1.2433816,-2.2515557,1.1742784,1.3234532,-0.037577827,-0.052440263,0.17669767,1.1590496,0.3775206
0.1,0.0,0.9999999999999999,-0.5235987755982988,0.0,0,-1.7666197,1.3091041,-0.4710401,0.6082757,-0.67957443,1.2440312,-2.2296329,1.3356568,1.1453425,-0.13234562,-0.045984585,0.0845459,1.2907497,0.7564031
0.1,0.0,0.9999999999999999,-0.5235987755982988,0.0,0,-1.7666324,1.3028113,-0.47034833,0.6122425,-0.68521744,1.2431877,-2.2441113,1.0827336,1.1074558,-0.3203863,0.023399264,-0.08026284,1.0135949,-0.99286896
0.1,0.0,0.9999999999999999,-0.5235987755982988,0.0,0,-1.7670673,1.3026896,-0.4711037,0.6095625,-0.68497574,1.2431586,-2.2418942,1.1085258,1.3148626,-0.10148441,-0.068808965,0.03892376,1.3633953,1.0335089
0.1,0.0,0.9999999999999999,-0.5235987755982988,0.0,0,-1.7688811,1.3041621,-0.47067535,0.6086267,-0.68245965,1.2441572,-2.2293952,0.8409464,1.2266008,-0.07674545,0.084179565,-0.22484358,1.1997478,1.8040463
0.1,0.0,0.9999999999999999,-0.5235987755982988,0.0,0,-1.7682472,1.3028799,-0.4718319,0.6108383,-0.67861944,1.2450826,-2.238696,0.9500352,1.2229143,-0.22684772,-0.050997082,-0.12023486,1.0925989,0.6465764
0.1,0.0,0.9999999999999999,-0.5235987755982988,0.0,0,-1.7675437,1.3057529,-0.47275686,0.6122197,-0.69500726,1.241478,-2.2220283,1.0569094,1.2526462,-0.048057232,0.02497724,-0.20506749,1.1917243,0.7144224
0.1,0.0,0.9999999999999999,-0.5235987755982988,0.0,0,-1.7691857,1.3041704,-0.47346625,0.61129665,-0.6826854,1.241736,-2.2323475,1.2850388,1.0902058,-0.14004046,-0.10863816,-0.0896216,1.2776626,-0.22869116
0.1,0.0,0.9999999999999999,-0.5235987755982988,0.0,0,-1.7692447,1.3038757,-0.47295052,0.6118298,-0.6949609,1.2409272,-2.2277446,1.2232145,1.18928,-0.23982431,-0.103655584,-0.020693714,1.2523589,-1.5230665
0.1,0.0,0.9999999999999999,-0.5235987755982988,0.0,0,-1.766638,1.300804,-0.47271156,0.6107765,-0.70280373,1.2436211,-2.2336912,1.3051139,1.3220612,-0.1126377,-0.0491326,-0.15325287,1.305477,-0.114126444
0.1,0.0,0.9999999999999999,-0.5235987755982988,0.0,0,-1.768099,1.3025272,-0.46841156,0.6098249,-0.6659052,1.2444981,-2.2422693,1.0648307,1.0473944,0.022123637,-0.15249729,0.117555924,1.268161,-0.48832506
0.1,0.0,0.9999999999999999,-0.5235987755982988,0.0,0,-1.7699275,1.3043636,-0.47197768,0.6139546,-0.6891667,1.2458137,-2.2128468,0.96779346,1.16632,-0.12765718,-0.047682315,-0.10407826,1.1381696,1.0547329
0.1,0.0,0.9999999999999999,-0.5235987755982988,0.0,0,-1.7692038,1.3022887,-0.47394365,0.60977185,-0.6842027,1.2415448,-2.2268724,1.6135602,1.2365843,0.077537335,0.10343932,-0.10345881,1.3882471,-0.6468758
0.1,0.0,0.9999999999999999,-0.5235987755982988,0.0,0,-1.7708693,1.306985,-0.472134,0.6111584,-0.68639785,1.2455583,-2.1855388,1.1655974,1.2403972,0.30615592,-0.1699395,0.015381441,1.3647254,0.64109933
0.1,0.0,0.9999999999999999,-0.5235987755982988,0.0,0,-1.7699713,1.3027695,-0.46971944,0.6115349,-0.6860164,1.2423903,-2.2377973,1.5669377,1.3795164,-0.21768232,-0.0065909377,-0.079825506,1.189473,0.31361812
0.1,0.0,0.9999999999999999,-0.5235987755982988,0.0,0,-1.7723988,1.3034233,-0.47282273,0.6101678,-0.6806902,1.2406214,-2.2521684,1.2353475,1.3389721,-0.14331433,-0.103022225,-0.024367686,1.1743586,-0.56413263
0.1,0.0,0.9999999999999999,-0.5235987755982988,0.0,0,-1.7705282,1.3024232,-0.47223926,0.61141026,-0.6794762,1.2389731,-2.3021288,1.2356309,1.3258343,0.0007429671,0.044677373,0.0955565,1.2827313,-1.243696
0.1,0.0,0.9999999999999999,-0.5235987755982988,0.0,0,-1.7708946,1.3041912,-0.47086284,0.6105211,-0.6857925,1.2444514,-2.2175038,1.5157198,1.251554,-0.038573887,0.005097031,0.07655263,1.1925691,0.6405016
0.1,0.0,0.9999999999999999,-0.5235987755982988,0.0,0,-1.7693043,1.3021563,-0.46964544,0.60981685,-0.6817888,1.2396675,-2.1498704,1.0587808,1.2461325,-0.19636357,0.0005729832,-0.15627079,1.4516255,-0.03350353
0.1,0.0,0.9999999999999999,-0.5235987755982988,0.0,0,-1.7679071,1.306458,-0.465832,0.61036074,-0.67652595,1.2424982,-2.1628668,1.3395877,1.269594,-0.16117026,-0.011112213,-0.06336868,1.241938,-0.7128922
0.1,0.0,0.9999999999999999,-0.5235987755982988,0.0,0,-1.7672634,1.3095179,-0.4696515,0.6093574,-0.6860282,1.2433347,-2.1951182,0.7452939,1.2231066,-0.20997745,-0.079486534,-0.0768816,1.170467,-1.6088903
0.1,0.0,0.9999999999999999,-0.5235987755982988,0.0,0,-1.7725984,1.3025311,-0.47129586,0.61037505,-0.67774284,1.240901,-2.2103832,1.256711,1.1319373,-0.44334817,0.01193649,-0.08443803,1.1249858,-0.123508014
0.1,0.0,0.9999999999999999,-0.5235987755982988,0.0,0,-1.7697482,1.3038367,-0.46922258,0.6116491,-0.68328995,1.2392539,-2.260575,1.597691,1.2819092,-0.09575107,-0.01061359,-0.1521352,1.017994,-0.20492719
0.1,0.0,0.9999999999999999,-0.5235987755982988,0.0,0,-1.7693942,1.3047386,-0.47268918,0.6098955,-0.69309396,1.2383752,-2.2177615,1.2418061,1.2399231,-0.30689463,0.008669466,-0.2378025,1.4306307,-0.0020164216
0.1,0.0,0.9999999999999999,-0.5235987755982988,0.0,0,-1.7675844,1.3061684,-0.47123677,0.6115844,-0.68440515,1.2434976,-2.1877046,0.93187416,1.2613941,0.14946471,-0.07465684,0.13048574,1.3343369,0.2227451
0.1,0.0,0.9999999999999999,-0.5235987755982988,0.0,0,-1.7718469,1.3040799,-0.4734245,0.6096012,-0.6784412,1.2406505,-2.234551,1.0122849,1.373414,0.011354329,0.020754231,-0.10312533,1.1678517,0.04455232
0.1,0.0,0.9999999999999999,-0.5235987755982988,0.0,0,-1.7696198,1.3047361,-0.47137615,0.61137986,-0.69152594,1.238743,-2.2413838,1.4146671,1.3253651,-0.115249224,-0.09660236,-0.074220575,1.3518846,-0.87331647
0.1,0.0,0.9999999999999999,-0.5235987755982988,0.0,0,-1.7688748,1.3057314,-0.47095886,0.60721207,-0.6819882,1.2464515,-2.1892276,1.2055423,1.3165104,0.24160695,-0.06490417,-0.07547198,1.0985799,-1.1321522
0.1,0.0,0.9999999999999999,-0.5235987755982988,0.0,0,-1.7690763,1.3019351,-0.47292936,0.6068033,-0.6865458,1.2403799,-2.2502115,1.062185,1.3907233,-0.224527,-0.17911752,-0.107635066,1.1740634,0.051375557
0.1,0.0,0.9999999999999999,-0.5235987755982988,0.0,0,-1.7699065,1.3029205,-0.47035924,0.61117834,-0.6767806,1.2381474,-2.2961848,1.0914838,1.1746796,-0.1532289,-0.02245664,-0.19079527,1.2832823,0.24677129
0.1,0.0,0.9999999999999999,-0.5235987755982988,0.0,0,-1.7700325,1.303263,-0.46843195,0.6103635,-0.6854303,1.2418573,-2.2066934,1.2599624,1.2328016,0.009125257,-0.08699809,-0.2021284,1.1911434,0.57629544
0.1,0.0,0.9999999999999999,-0.5235987755982988,0.0,0,-1.7689011,1.304723,-0.470102,0.6127216,-0.70835733,1.2420259,-2.1839967,0.9028732,1.249055,-0.108674705,-0.017357662,0.035636567,1.0327886,-0.14966387
0.1,0.0,0.9999999999999999,-0.5235987755982988,0.0,0,-1.7696079,1.3024819,-0.47266018,0.60836446,-0.69134307,1.2412323,-2.1766565,1.2808535,1.2992195,-0.37775737,-0.057909995,-0.007912097,1.328273,-1.7358718
0.1,0.0,0.9999999999999999,-0.5235987755982988,0.0,0,-1.771865,1.3036164,-0.47004494,0.6106603,-0.6880371,1.2423402,-2.202636,1.5449147,1.2860291,-0.17253937,-0.11944617,-0.08072875,1.1809496,-1.2681589
0.1,0.0,0.9999999999999999,-0.5235987755982988,0.0,0,-1.7712833,1.3025591,-0.47225234,0.60892206,-0.69051766,1.2405723,-2.233787,1.4679954,1.2459745,0.14227232,-0.036098883,-0.032851364,1.11588,-0.6134658
0.1,0.0,0.9999999999999999,-0.5235987755982988,0.0,0,-1.7690879,1.3056002,-0.47209105,0.6104357,-0.67255163,1.242608,-2.2601228,1.6796737,1.1748372,-0.105204836,-0.026445067,-0.022764359,1.1543409,-0.42474815
0.1,0.0,0.9999999999999999,-0.5235987755982988,0.0,0,-1.7698312,1.2998418,-0.46928847,0.6072665,-0.67965585,1.2406048,-2.222087,1.1826566,1.3717937,-0.013185079,-0.084457755,-0.03355882,1.2236413,0.9462496
0.1,0.0,0.9999999999999999,-0.5235987755982988,0.0,0,-1.7685701,1.3001596,-0.4693068,0.61026293,-0.6873458,1.2400453,-2.2280385,1.273616,1.3764015,-0.06837127,-0.00043417374,-0.15722041,1.2927295,0.85231334
0.1,0.0,0.9999999999999999,-0.5235987755982988,0.0,0,-1.7683977,1.3035433,-0.47103706,0.6102764,-0.6849958,1.2434875,-2.1996946,1.3714236,1.1142856,0.1620796,-0.12525615,-0.17141642,1.2914705,-1.355876
0.1,0.0,0.9999999999999999,-0.5235987755982988,0.0,0,-1.7688836,1.3032826,-0.47149652,0.60960686,-0.6887616,1.2415661,-2.2140818,1.3155137,1.2609308,-0.04314038,-0.08378444,0.03591792,1.0120023,0.32268134
0.1,0.0,0.9999999999999999,-0.5235987755982988,0.0,0,-1.7661847,1.2999805,-0.4716039,0.60937905,-0.67242575,1.2414417,-2.1840854,1.460391,1.1461873,-0.15344608,-0.019072685,0.12366905,1.1808381,-0.66491246
0.1,0.0,0.9999999999999999,-0.5235987755982988,0.0,0,-1.7716656,1.3039416,-0.46970853,0.61204314,-0.6950574,1.2417219,-2.2329412,1.1131525,1.2324488,0.23310599,-0.042784996,-0.15349741,1.3339771,-0.20288664
0.1,0.0,0.9999999999999999,-0.5235987755982988,0.0,0,-1.769396,1.3013377,-0.47130385,0.6099918,-0.6767111,1.2434331,-2.1787732,1.3268001,1.2272388,0.030499289,-0.023388727,-0.046785213,1.2837006,0.9022116
0.1,0.0,0.9999999999999999,-0.5235987755982988,0.0,0,-1.7669597,1.3049477,-0.47000954,0.6095484,-0.6892624,1.242054,-2.1975944,1.1814799,1.3472064,-0.27496448,-0.050271768,-0.0705438,1.319003,-0.6337498
0.1,0.0,0.9999999999999999,-0.5235987755982988,0.0,0,-1.7696526,1.3061805,-0.46923566,0.6087464,-0.6882284,1.2445412,-2.243289,1.1044447,1.2925556,0.11040713,-0.07722471,-0.19487037,1.3414385,-0.928831
0.1,0.0,0.9999999999999999,-0.5235987755982988,0.0,0,-1.7701064,1.3009543,-0.46932802,0.60946125,-0.6974927,1.2444909,-2.2249203,1.4015244,1.1429536,-0.37551275,-0.06133589,0.056018,1.1067479,-0.19172859
0.1,0.0,0.9999999999999999,-0.5235987755982988,0.0,0,-1.7709382,1.3006169,-0.4703584,0.6098174,-0.68012625,1.2419515,-2.2278311,1.3873502,1.352405,0.19934414,0.015764065,-0.11985018,1.2571802,-0.6319663
0.1,0.0,0.9999999999999999,-0.5235987755982988,0.0,0,-1.7701532,1.3046112,-0.47141093,0.6105171,-0.67854804,1.2436352,-2.2564065,1.0415503,1.1802547,-0.40052637,-0.08368059,-0.22565581,1.177125,-0.95467407
0.1,0.0,0.9999999999999999,-0.5235987755982988,0.0,0,-1.7724158,1.302549,-0.47037885,0.610695,-0.6917635,1.2422028,-2.264564,1.4276739,1.1702006,-0.2625002,-0.12138137,-0.04097391,1.0902381,0.07198834
0.1,0.0,0.9999999999999999,-0.5235987755982988,0.0,0,-1.7716471,1.303656,-0.47066435,0.6113562,-0.68281394,1.2418764,-2.263461,1.3365138,1.0687882,-0.11247788,-0.046898793,0.017209116,1.2828763,-0.3331244
0.1,0.0,0.9999999999999999,-0.5235987755982988,0.0,0,-1.7712584,1.3066816,-0.4731063,0.6108602,-0.6886623,1.2410599,-2.2164178,1.104735,1.3388073,-0.19115232,-0.087290645,-0.025056366,1.3680152,-0.67084795
0.1,0.0,0.9999999999999999,-0.5235987755982988,0.0,0,-1.7705836,1.2998112,-0.47265726,0.611204,-0.68645763,1.2413878,-2.1829522,1.487428,1.5022616,-0.056249693,0.014133018,-0.0714237,1.3608968,0.10119202
0.1,0.0,0.9999999999999999,-0.5235987755982988,0.0,0,-1.7709405,1.3024204,-0.47286198,0.6104374,-0.6797137,1.2418935,-2.2362843,1.2336506,1.3264312,-0.07116366,0.047958933,0.020542804,1.0231615,-0.9180008
0.1,0.0,0.9999999999999999,-0.5235987755982988,0.0,0,-1.769064,1.3023051,-0.47224233,0.61140496,-0.68148917,1.2404925,-2.2829926,0.9356098,1.4657413,-0.22063893,0.075921744,-0.10452502,1.3197436,1.0158799
0.1,0.0,0.9999999999999999,-0.5235987755982988,0.0,0,-1.7709987,1.301521,-0.4712285,0.61229855,-0.69150126,1.2403358,-2.2766068,1.3872322,1.3932439,-0.08847273,-0.08361574,-0.020216927,1.4917159,-0.42627814
0.1,0.0,0.9999999999999999,-0.5235987755982988,0.0,0,-1.7697172,1.3031684,-0.47091728,0.6107246,-0.68157583,1.2439947,-2.2253497,1.4411174,1.0964007,-0.20723851,-0.048112765,-0.041589018,1.0242236,0.03147532
0.1,0.0,0.9999999999999999,-0.5235987755982988,0.0,0,-1.769723,1.3028053,-0.47025472,0.61226857,-0.68867475,1.2407774,-2.2569408,1.0359395,1.0845845,-0.12478628,-0.037007533,-0.12607498,1.2855998,-0.5859784
0.1,0.0,0.9999999999999999,-0.5235987755982988,0.0,0,-1.767632,1.3046728,-0.47235385,0.61006737,-0.67666256,1.2422664,-2.244365,0.8442254,1.2366416,-0.47017598,-0.0131024765,-0.056034148,1.146677,0.039709397
0.1,0.0,0.9999999999999999,-0.5235987755982988,0.0,0,-1.7702426,1.3003908,-0.4706722,0.61209,-0.68615735,1.2412155,-2.192415,1.2274818,1.1827796,0.039423525,-0.026275435,0.05453432,1.3155142,-1.2665778
0.1,0.0,0.9999999999999999,-0.5235987755982988,0.0,0,-1.769905,1.3016305,-0.4699441,0.61069846,-0.69161177,1.2430061,-2.2226133,1.116046,1.1752977,-0.19516347,0.039554387,0.1184058,1.409506,-2.1974492
0.1,0.0,0.9999999999999999,-0.5235987755982988,0.0,0,-1.7706281,1.3029013,-0.4720402,0.6093938,-0.70373917,1.2422965,-2.2241783,1.181278,1.2228221,-0.09440116,-0.03699632,-0.03972086,1.2670497,0.42163545
0.1,0.0,0.9999999999999999,-0.5235987755982988,0.0,0,-1.7697835,1.3018445,-0.47326794,0.61004347,-0.67098945,1.2460076,-2.1790981,1.3263037,1.1694702,0.024154253,-0.07845637,-0.11849809,1.1607802,1.2043025
0.1,0.0,0.9999999999999999,-0.5235987755982988,0.0,0,-1.7691089,1.3020293,-0.47117236,0.60994065,-0.69059736,1.2442927,-2.2368853,0.928379,1.1725582,-0.05048514,-0.060055733,-0.14281912,1.1723735,-0.334604
0.1,0.0,0.9999999999999999,-0.5235987755982988,0.0,0,-1.769505,1.3035342,-0.47178796,0.61032987,-0.6925321,1.242976,-2.20228,1.3140961,1.2584184,0.29417568,-0.059257194,-0.13238923,1.319104,0.23323672
0.1,0.0,0.9999999999999999,-0.5235987755982988,0.0,0,-1.7695307,1.3040732,-0.47035187,0.61122227,-0.6876772,1.2428267,-2.2599175,1.2441685,1.1040739,-0.19400743,-0.020817583,0.17491375,1.3705015,0.19568953
0.1,0.0,0.9999999999999999,-0.5235987755982988,0.0,0,-1.7713491,1.3009073,-0.47030205,0.611552,-0.6866826,1.2440251,-2.2057726,1.5348989,1.2268829,0.21538842,-0.13064878,-0.12576418,1.089972,0.43762594
0.1,0.0,0.9999999999999999,-0.5235987755982988,0.0,0,-1.7695373,1.302372,-0.4729486,0.60915864,-0.67772514,1.2435552,-2.213116,1.3340604,1.4905725,0.28005478,-0.037692808,0.11828772,1.2686589,-0.3208005
0.1,0.0,0.9999999999999999,-0.5235987755982988,0.0,0,-1.768062,1.304143,-0.46978608,0.610546,-0.68991977,1.2447377,-2.186954,1.4096189,1.2779641,-0.113045245,-0.0034578852,-0.02536816,1.1676213,0.6502998
0.1,0.0,0.9999999999999999,-0.5235987755982988,0.0,0,-1.7682346,1.3009688,-0.47384462,0.61066866,-0.68936753,1.2414391,-2.2034976,1.3232479,1.2592001,-0.3167411,0.02268105,0.16168123,1.0684241,0.76631624
0.1,0.0,0.9999999999999999,-0.5235987755982988,0.0,0,-1.770755,1.305503,-0.47078586,0.6102603,-0.691381,1.2440774,-2.2557359,1.3203892,1.3721443,-0.115325995,-0.054945722,-0.050407976,1.3904662,0.5931094
0.1,0.0,0.9999999999999999,-0.5235987755982988,0.0,0,-1.7694182,1.3013014,-0.47004384,0.61036825,-0.6816845,1.2436683,-2.2249289,1.1244121,1.2943544,0.4390424,-0.043536272,0.04735236,1.1317323,-0.87952083
0.1,0.0,0.9999999999999999,-0.5235987755982988,0.0,0,-1.7714071,1.3011888,-0.47020942,0.6122346,-0.6828885,1.2436233,-2.2040007,0.8355803,1.2751979,0.062150624,0.0048576393,-0.087976694,1.0983773,0.5166601
0.1,0.0,0.9999999999999999,-0.5235987755982988,0.0,0,-1.7702612,1.2999828,-0.47110358,0.6121534,-0.68127745,1.2413573,-2.2379684,1.723962,1.3037564,0.083810255,-0.033362217,-0.0046849204,1.3841953,0.4879156
0.1,0.0,0.9999999999999999,-0.5235987755982988,0.0,0,-1.7679975,1.3038595,-0.47178304,0.6098937,-0.6880352,1.2430916,-2.2409585,1.5071226,1.1419115,-0.08140388,-0.016273081,-0.15135832,1.2786363,-0.59189224
0.1,0.0,0.9999999999999999,-0.5235987755982988,0.0,0,-1.7701849,1.302812,-0.47127807,0.61071885,-0.6870741,1.2429206,-2.2712681,1.6010774,1.1329378,0.17562784,0.029373562,0.10101494,1.2972499,-0.5663533
0.1,0.0,0.9999999999999999,-0.5235987755982988,0.0,0,-1.7697037,1.3026587,-0.4726455,0.61097455,-0.6883945,1.2427917,-2.2245188,1.5036986,1.2187978,-0.18630728,-0.0141799,0.049422577,1.3430327,-0.9248756
0.1,0.0,0.9999999999999999,-0.5235987755982988,0.0,0,-1.7696187,1.3007417,-0.4710268,0.6112066,-0.6901505,1.2415545,-2.2347808,1.3785425,1.3993267,0.004455099,-0.0596105,-0.0024298537,1.2364664,-0.9698214
0.1,0.0,0.9999999999999999,-0.5235987755982988,0.0,0,-1.771063,1.2966529,-0.47035277,0.6127009,-0.6739934,1.2403085,-2.2146854,1.5065855,1.220237,0.14256568,-0.06471378,-0.029178452,1.343497,-1.172158
0.1,0.0,0.9999999999999999,-0.5235987755982988,0.0,0,-1.7719481,1.3019482,-0.47159967,0.61118126,-0.68763524,1.2433141,-2.2715673,1.158173,1.2036557,0.27295986,-0.0093912585,0.006093686,1.149391,-0.59176284
0.1,0.0,0.9999999999999999,-0.5235987755982988,0.0,0,-1.7700181,1.3005238,-0.47024575,0.61045516,-0.6906152,1.2426813,-2.2340288,1.1024219,1.3860191,-0.095141105,0.012912634,0.21808948,1.1587139,-0.19954592
0.1,0.0,0.9999999999999999,-0.5235987755982988,0.0,0,-1.7688309,1.3017371,-0.47170714,0.6107204,-0.6841554,1.2429459,-2.3145103,1.4400927,1.3042374,0.024764571,-0.00044398053,-0.16400892,1.1304245,-0.9338456
0.1,0.0,0.9999999999999999,-0.5235987755982988,0.0,0,-1.7682426,1.3032807,-0.47353822,0.611732,-0.6852288,1.2423272,-2.2156527,1.2613572,1.2828213,0.027210753,-0.035296284,0.08389146,1.1957265,-0.026156534
0.1,0.0,0.9999999999999999,-0.5235987755982988,0.0,0,-1.7696464,1.3018277,-0.47275338,0.6107928,-0.6895159,1.2449384,-2.238079,1.2356501,1.5817612,-0.16848226,-0.04848707,-0.2708299,1.2232934,-0.034737878
0.1,0.0,0.9999999999999999,-0.5235987755982988,0.0,0,-1.7703395,1.3044348,-0.47067502,0.61138445,-0.689976,1.2463008,-2.21783,1.3304933,1.2087743,-0.22750969,-0.105758935,0.05409163,1.2746811,-0.3534935
0.1,0.0,0.9999999999999999,-0.5235987755982988,0.0,0,-1.7693772,1.3020661,-0.47198197,0.611899,-0.6840437,1.2426908,-2.240096,1.2014052,1.2377592,-0.083677694,-0.064209685,0.12221692,1.3131125,0.74089664
0.1,0.0,0.9999999999999999,-0.5235987755982988,0.0,0,-1.7703819,1.301814,-0.47318786,0.6094767,-0.681996,1.2464471,-2.2258801,1.2736,1.2569941,0.060289606,-0.02311778,0.08444742,1.0957949,-0.45563433
0.1,0.0,0.9999999999999999,-0.5235987755982988,0.0,0,-1.7706664,1.304878,-0.47452423,0.612527,-0.6744703,1.2439463,-2.2510965,1.0047623,1.2028015,-0.3062878,-0.116693,0.10485772,1.4484313,0.5239647
0.1,0.0,0.9999999999999999,-0.5235987755982988,0.0,0,-1.7693939,1.302927,-0.47477478,0.6107617,-0.68647945,1.2427969,-2.256314,1.2964221,1.1699842,0.12982218,-0.06890104,-0.018583065,1.3527792,-0.5030319
0.1,0.0,0.9999999999999999,-0.5235987755982988,0.0,0,-1.7711371,1.3005452,-0.4720965,0.6128851,-0.6768487,1.2449651,-2.2310834,1.1450434,1.2526667,-0.2536024,-0.11353291,0.05215928,1.0750471,-0.24969396
0.1,0.0,0.9999999999999999,-0.5235987755982988,0.0,0,-1.7681664,1.3021358,-0.47266468,0.61193466,-0.68502206,1.2454399,-2.2347763,0.596408,1.2024769,0.021312632,-0.037112366,-0.019255426,1.3483934,-0.46157387
0.1,0.0,0.9999999999999999,-0.5235987755982988,0.0,0,-1.7699467,1.3004537,-0.47197923,0.6114917,-0.68390524,1.2474923,-2.2128184,1.161031,1.2437636,-0.08110154,0.041113183,-0.13675706,1.3274097,0.74338186
0.1,0.0,0.9999999999999999,-0.5235987755982988,0.0,0,-1.7711622,1.3020145,-0.47264668,0.6110472,-0.6864568,1.2463084,-2.2928247,1.1418473,1.4031049,0.10988711,-0.06979327,-0.05431153,1.1065794,0.9342682
0.1,0.0,0.9999999999999999,-0.5235987755982988,0.0,0,-1.7707691,1.303659,-0.47338888,0.6126046,-0.6958359,1.245143,-2.277097,1.3200918,1.1833885,-0.08429453,0.0017141775,-0.01835939,1.097334,-0.13357425
0.1,0.0,0.9999999999999999,-0.5235987755982988,0.0,0,-1.7668755,1.3013848,-0.47548497,0.61164325,-0.69463164,1.2433429,-2.2760382,1.02145,1.2759979,0.13538896,-0.045666013,0.1828401,1.3491907,0.007223112
0.1,0.0,0.9999999999999999,-0.5235987755982988,0.0,0,-1.7690994,1.3003894,-0.4714388,0.6117427,-0.6942859,1.2471362,-2.2594252,1.4976839,1.2698661,-0.0637084,-0.021877276,-0.16249198,1.158229,-0.27531624
0.1,0.0,0.9999999999999999,-0.5235987755982988,0.0,0,-1.7718964,1.3041066,-0.4709479,0.60992384,-0.6846033,1.2407564,-2.21305,1.3739976,1.1358875,-0.21154684,-0.018472329,-0.026062751,0.9851253,-1.5555061
0.1,0.0,0.9999999999999999,-0.5235987755982988,0.0,0,-1.7711571,1.3047605,-0.4734724,0.6106702,-0.69138235,1.2445747,-2.1973724,1.2606971,1.1383337,0.07939241,-0.041861806,-0.10945595,1.0069307,0.4765264
0.1,0.0,0.9999999999999999,-0.5235987755982988,0.0,0,-1.7677429,1.303302,-0.47495425,0.6121231,-0.6869581,1.2409562,-2.1976671,1.0596699,1.2852597,0.0094009545,-0.059517156,-0.13440701,1.1273218,1.0418679
0.1,0.0,0.9999999999999999,-0.5235987755982988,0.0,0,-1.7683744,1.3017,-0.47270527,0.61280894,-0.6949971,1.2442702,-2.2272139,1.3201251,1.3166639,0.028745735,-0.082423,0.0037005441,1.2068559,0.3307922
0.1,0.0,0.9999999999999999,-0.5235987755982988,0.0,0,-1.7708266,1.3051833,-0.47208446,0.6131456,-0.6856897,1.2406763,-2.2017107,1.1118414,1.305588,0.16622439,-0.05950863,0.015806094,1.06886,0.082557075
0.1,0.0,0.9999999999999999,-0.5235987755982988,0.0,0,-1.7711397,1.305024,-0.4702984,0.61168694,-0.6779447,1.2436018,-2.1915762,1.3477303,1.2753183,-0.14352572,-0.06509403,0.12498827,1.3208237,1.3837374
0.1,0.0,0.9999999999999999,-0.5235987755982988,0.0,0,-1.7703255,1.3043064,-0.46997872,0.610569,-0.6965132,1.2422135,-2.2041821,1.296681,1.4397893,0.19046134,-0.15143023,0.09545662,1.2363601,-0.9555213
0.1,0.0,0.9999999999999999,-0.5235987755982988,0.0,0,-1.7712212,1.3001034,-0.47089863,0.61128557,-0.67978334,1.2405267,-2.252927,1.2745059,1.2767969,-0.022514904,0.07317913,-0.044845928,0.9716718,-0.6114687
0.1,0.0,0.9999999999999999,-0.5235987755982988,0.0,0,-1.7674803,1.3026496,-0.4715254,0.6091566,-0.68005157,1.2406436,-2.2089422,1.2585658,1.3225294,-0.0729996,-0.055552937,-0.020993393,1.3975168,0.011761555
0.1,0.0,0.9999999999999999,-0.5235987755982988,0.0,0,-1.7671043,1.3041997,-0.47405627,0.6104342,-0.6810322,1.2385504,-2.2274895,1.1515694,1.2966802,-0.21087399,-0.055685114,-0.04727573,1.2803491,1.1517236
0.1,0.0,0.9999999999999999,-0.5235987755982988,0.0,0,-1.7699103,1.3010882,-0.47064173,0.6110544,-0.679461,1.2422105,-2.2095964,1.3002,1.3472394,0.07820403,-0.09738208,-0.27274066,1.2223792,-0.15034144
0.1,0.0,0.9999999999999999,-0.5235987755982988,0.0,0,-1.7710944,1.3022668,-0.4735126,0.6093317,-0.6770674,1.2422732,-2.2267501,1.2050614,1.3680549,0.090447895,-0.09737539,0.07777448,1.1953884,-0.89432704
0.1,0.0,0.9999999999999999,-0.5235987755982988,0.0,0,-1.770662,1.3053128,-0.4721645,0.60850036,-0.6904966,1.246557,-2.215829,1.047259,1.1709843,-0.067799866,-0.00042812177,-0.0898396,1.3103483,0.80093575
0.1,0.0,0.9999999999999999,-0.5235987755982988,0.0,0,-1.7692854,1.3000755,-0.4721344,0.6115794,-0.6822715,1.2442262,-2.1743662,1.0160626,1.2314827,-0.019222723,0.014816905,-0.11256507,1.3173271,0.97534645
0.1,0.0,0.9999999999999999,-0.5235987755982988,0.0,0,-1.7695037,1.3014709,-0.47312814,0.6125126,-0.6828025,1.243598,-2.196658,1.2904494,1.1889435,0.3126706,-0.052454825,0.0215212,1.1621174,-1.1246107
0.1,0.0,0.9999999999999999,-0.5235987755982988,0.0,0,-1.7687349,1.3014727,-0.46955916,0.6125748,-0.68453777,1.2452304,-2.220131,1.3222115,1.196865,-0.2475228,-0.022761567,-0.005840338,1.2262992,-1.2868198
0.1,0.0,0.9999999999999999,-0.5235987755982988,0.0,0,-1.7711672,1.3016857,-0.4728227,0.60879767,-0.69507587,1.2463973,-2.2365837,1.2968392,1.4871385,-0.1696873,-0.1099547,0.13337547,1.2885017,0.3710895
0.1,0.0,0.9999999999999999,-0.5235987755982988,0.0,0,-1.7714547,1.3029592,-0.47357762,0.6109836,-0.68500614,1.243283,-2.300245,1.0334302,1.351334,-0.07617202,0.020642923,-0.120703846,1.1200957,-0.4480115
0.1,0.0,0.9999999999999999,-0.5235987755982988,0.0,0,-1.7699245,1.3036656,-0.470716,0.61298275,-0.69484794,1.2437556,-2.234585,1.5927625,1.360592,-0.058548044,-0.07771417,-0.1973995,1.3465006,-0.96522737
0.1,0.0,0.9999999999999999,-0.5235987755982988,0.0,0,-1.7684848,1.3042862,-0.47098,0.61250544,-0.6996298,1.2456648,-2.2586405,1.0283978,1.2815714,-0.49744552,-0.09830981,-0.0745298,1.2479213,-0.9131152
0.1,0.0,0.9999999999999999,-0.5235987755982988,0.0,0,-1.769226,1.304087,-0.46947116,0.61059844,-0.68200344,1.2422501,-2.1894019,1.2932421,1.355052,-0.24333203,-0.041392528,-0.12062385,1.1070393,-0.35574564
0.1,0.0,0.9999999999999999,-0.5235987755982988,0.0,0,-1.7716861,1.3028499,-0.47308964,0.60834473,-0.68166935,1.2405419,-2.243345,1.154557,1.2765331,-0.2766328,-0.011582371,0.052273136,1.182707,0.37063822
0.1,0.0,0.9999999999999999,-0.5235987755982988,0.0,0,-1.7692288,1.3004987,-0.46997446,0.6108197,-0.68095446,1.2413064,-2.235459,1.432336,1.4181263,-0.32833213,-0.0094222,0.09580972,1.4414865,-0.32684872
0.1,0.0,0.9999999999999999,-0.5235987755982988,0.0,0,-1.7682176,1.3023893,-0.47162014,0.6101104,-0.6874897,1.2457837,-2.2099547,1.1842961,1.1633947,0.048690885,-0.0043277377,-0.33094507,1.1680077,0.2014849
0.1,0.0,0.9999999999999999,-0.5235987755982988,0.0,0,-1.7691575,1.3051115,-0.47575402,0.61100423,-0.6864011,1.243791,-2.1990082,1.220288,1.1554357,-0.08640487,-0.002180484,0.054619867,1.1317399,0.53807825
0.1,0.0,0.9999999999999999,-0.5235987755982988,0.0,0,-1.7690294,1.302739,-0.47199777,0.6119466,-0.6925334,1.2414161,-2.2830417,0.87742656,1.2716585,-0.08425583,-0.04434716,0.0398671,1.1768014,-1.3889834
0.1,0.0,0.9999999999999999,-0.5235987755982988,0.0,0,-1.7691675,1.3042653,-0.47199008,0.61085075,-0.6934302,1.244638,-2.2352014,1.1818255,1.3197681,-0.07222482,-0.08548962,0.088189796,1.0920205,-1.0528729
0.1,0.0,0.9999999999999999,-0.5235987755982988,0.0,0,-1.7707115,1.3008537,-0.4726527,0.6119372,-0.6891729,1.2426987,-2.201248,0.9713305,1.2443019,-0.20550705,-0.14418791,-0.048242178,1.2798561,-0.31117275
0.1,0.0,0.9999999999999999,-0.5235987755982988,0.0,0,-1.7688024,1.3021836,-0.47197837,0.61038053,-0.68457973,1.2398707,-2.2346754,1.2552625,1.1342587,-0.25972384,-0.08693968,-0.029774532,1.1368234,1.2297325
0.1,0.0,0.9999999999999999,-0.5235987755982988,0.0,0,-1.7684851,1.2998132,-0.46780542,0.612155,-0.68168443,1.2428365,-2.1978235,1.1645397,1.3717611,-0.04052746,-0.062219474,-0.001893559,1.0897671,-0.38815507
