sanky1234/BimanualDexCatch/isaacgymenvs/cem_results/football_pose_-0.2_0.0_0.6_0.5235987755982988_0.0_0_2025-05-24.csv
x,y,z,roll,pitch,yaw,robot1/joint1,robot1/joint2,robot1/joint3,robot1/joint4,robot1/joint5,robot1/joint6,robot1/joint7,robot2/joint1,robot2/joint2,robot2/joint3,robot2/joint4,robot2/joint5,robot2/joint6,robot2/joint7
-0.2,0.0,0.6,0.5235987755982988,0.0,0,0.5839634,1.9762003,0.03823646,-0.79730415,0.47122994,1.3985734,-0.86848974,-0.6924671,1.3997337,0.19262542,-0.30823123,-0.35114548,1.1799793,0.21272156
-0.2,0.0,0.6,0.5235987755982988,0.0,0,0.582883,1.9767492,0.04560079,-0.8275647,0.48354897,1.428092,-0.9936469,-0.6819636,1.397253,0.20492835,-0.29260787,-0.3894797,1.187041,0.12552501
-0.2,0.0,0.6,0.5235987755982988,0.0,0,0.5778498,1.9817399,0.063297875,-0.8158644,0.47035614,1.4204127,-0.9064832,-0.69239426,1.4039899,0.18483904,-0.31721935,-0.38561586,1.168799,0.1661053
-0.2,0.0,0.6,0.5235987755982988,0.0,0,0.5847902,1.9833113,0.03132596,-0.8103396,0.46534377,1.4191693,-0.87641346,-0.678345,1.395522,0.20442255,-0.29598144,-0.3436333,1.179016,0.30275598
-0.2,0.0,0.6,0.5235987755982988,0.0,0,0.5905532,1.9794828,0.045325603,-0.8079891,0.47767255,1.3967552,-0.9280995,-0.6923354,1.3968637,0.21204863,-0.2970164,-0.41460598,1.186433,0.20924611
-0.2,0.0,0.6,0.5235987755982988,0.0,0,0.5959308,1.9803756,0.018240951,-0.804545,0.48192543,1.4043704,-0.8380943,-0.7004725,1.3975961,0.20631059,-0.30391678,-0.37574527,1.1837527,0.29444787
-0.2,0.0,0.6,0.5235987755982988,0.0,0,0.5899548,1.9795741,0.047441814,-0.8236022,0.46070725,1.4229102,-0.9814794,-0.6794436,1.3996292,0.21633853,-0.28164458,-0.41118664,1.1813861,0.18559708
-0.2,0.0,0.6,0.5235987755982988,0.0,0,0.58580357,1.9847109,0.011667617,-0.7963402,0.4763031,1.3965994,-0.8697959,-0.6877889,1.3931756,0.21364689,-0.28773165,-0.41902274,1.1908458,0.12987703
-0.2,0.0,0.6,0.5235987755982988,0.0,0,0.57057166,1.9828752,0.020488854,-0.79155195,0.479196,1.4057523,-0.87502235,-0.6890513,1.4001971,0.20111494,-0.29932255,-0.39532188,1.1846074,0.12660302
-0.2,0.0,0.6,0.5235987755982988,0.0,0,0.5814599,1.9813257,0.04485369,-0.80375373,0.43614453,1.3963753,-0.7915086,-0.69537354,1.4077759,0.20530492,-0.2974964,-0.38037705,1.1767589,0.14929815
-0.2,0.0,0.6,0.5235987755982988,0.0,0,0.598315,1.9892181,0.02826196,-0.80151546,0.45150363,1.389514,-0.9645627,-0.6693141,1.406345,0.21221948,-0.2671063,-0.35405257,1.1761134,0.08292355
-0.2,0.0,0.6,0.5235987755982988,0.0,0,0.5819154,1.9840152,0.05098291,-0.806534,0.46835953,1.397007,-0.8312859,-0.6863429,1.3901728,0.19849162,-0.30019385,-0.3922168,1.1811072,0.15095615
-0.2,0.0,0.6,0.5235987755982988,0.0,0,0.5878999,1.9790847,0.026011908,-0.80517346,0.46891674,1.4078475,-0.82908523,-0.70323783,1.4005239,0.20775428,-0.30295965,-0.40798756,1.179115,0.11066876
-0.2,0.0,0.6,0.5235987755982988,0.0,0,0.58609587,1.9844812,0.029003987,-0.8157628,0.47963572,1.416851,-0.85919,-0.69932884,1.3974,0.22577661,-0.28385127,-0.39234003,1.1868402,0.21051219
-0.2,0.0,0.6,0.5235987755982988,0.0,0,0.57001823,1.9823397,0.046554305,-0.79684067,0.47756156,1.4209008,-0.82374936,-0.6801979,1.4093702,0.2004832,-0.3045848,-0.39401275,1.188349,0.016757935
-0.2,0.0,0.6,0.5235987755982988,0.0,0,0.57814693,1.985796,0.031454783,-0.8165903,0.48465687,1.4211005,-0.9024917,-0.6954122,1.4043155,0.21408014,-0.29800376,-0.40091872,1.1804149,0.096394874
-0.2,0.0,0.6,0.5235987755982988,0.0,0,0.5679164,1.9794341,0.040165726,-0.80317587,0.47276577,1.4214643,-0.8699597,-0.69987434,1.390322,0.19426014,-0.30426952,-0.34925622,1.190645,0.12348896
-0.2,0.0,0.6,0.5235987755982988,0.0,0,0.5891148,1.9789809,0.022888668,-0.79524523,0.46609193,1.39776,-0.8545799,-0.6934689,1.3962185,0.18888056,-0.31507984,-0.41531843,1.1801542,0.26216277
-0.2,0.0,0.6,0.5235987755982988,0.0,0,0.5864843,1.9923996,0.018977603,-0.79955345,0.49142045,1.4051603,-0.9460807,-0.6936195,1.396224,0.21293075,-0.28466767,-0.35123497,1.181267,0.30790398
-0.2,0.0,0.6,0.5235987755982988,0.0,0,0.5601342,1.9796255,0.08121804,-0.8038664,0.4664014,1.3907295,-0.91139984,-0.70076627,1.3989536,0.19697033,-0.3003955,-0.3723516,1.1695341,0.1975012
-0.2,0.0,0.6,0.5235987755982988,0.0,0,0.5808828,1.9844277,0.0408039,-0.8037428,0.48614806,1.4079062,-0.86496496,-0.6897648,1.4025317,0.21980555,-0.29166493,-0.38280934,1.187933,0.24468279
-0.2,0.0,0.6,0.5235987755982988,0.0,0,0.58312726,1.985835,0.019829929,-0.8048578,0.4800211,1.4085227,-0.8465351,-0.6882416,1.396551,0.19764633,-0.29117295,-0.40275335,1.1750546,0.13114639
-0.2,0.0,0.6,0.5235987755982988,0.0,0,0.5943404,1.9843721,0.023730598,-0.8108393,0.4978633,1.4149731,-0.904724,-0.71364975,1.3991978,0.22671205,-0.3043572,-0.40522853,1.1818472,0.22105479
-0.2,0.0,0.6,0.5235987755982988,0.0,0,0.5863504,1.9834456,0.059637148,-0.8037437,0.45847815,1.3996685,-0.8819637,-0.6916689,1.4010396,0.18880075,-0.33169746,-0.39414883,1.1780353,0.22840607
-0.2,0.0,0.6,0.5235987755982988,0.0,0,0.5775252,1.9854695,0.019208463,-0.7949743,0.44787505,1.4240437,-0.90022,-0.6930173,1.4061594,0.20568632,-0.3000949,-0.37355384,1.1744146,0.3295831
-0.2,0.0,0.6,0.5235987755982988,0.0,0,0.59110206,1.9861622,0.04822513,-0.80322343,0.4647287,1.3782555,-0.83906513,-0.6907145,1.4020294,0.18853553,-0.298555,-0.36816463,1.1736294,0.1884739
-0.2,0.0,0.6,0.5235987755982988,0.0,0,0.5851403,1.982234,0.032582894,-0.7951769,0.46810487,1.3983575,-0.9854264,-0.68124425,1.3939939,0.18661247,-0.29709136,-0.3636761,1.1681333,0.2957286
-0.2,0.0,0.6,0.5235987755982988,0.0,0,0.5588091,1.9805571,0.050407615,-0.79663396,0.48571458,1.4122493,-0.9443844,-0.7131552,1.3922879,0.21670212,-0.28907943,-0.3863518,1.1778475,0.17998292
-0.2,0.0,0.6,0.5235987755982988,0.0,0,0.5812536,1.9866768,0.04654896,-0.80048126,0.43948546,1.4177349,-0.9959547,-0.6785034,1.3994831,0.20103729,-0.28534287,-0.36135012,1.1756907,0.1833944
-0.2,0.0,0.6,0.5235987755982988,0.0,0,0.5845329,1.9802103,0.027661154,-0.79481155,0.4864498,1.3951586,-0.8876589,-0.69424903,1.402471,0.20675685,-0.29570767,-0.37220362,1.1808013,0.24000685
-0.2,0.0,0.6,0.5235987755982988,0.0,0,0.59274644,1.98082,0.034649402,-0.7969999,0.46636227,1.4294032,-0.9820547,-0.70704406,1.3974009,0.21313664,-0.29770043,-0.39048618,1.1597899,0.12677832
-0.2,0.0,0.6,0.5235987755982988,0.0,0,0.5688105,1.9773555,0.05149394,-0.79459965,0.47586027,1.4032629,-0.8712628,-0.7157338,1.3978646,0.19556357,-0.31654733,-0.40562525,1.1692064,0.11662046
-0.2,0.0,0.6,0.5235987755982988,0.0,0,0.59268767,1.9729611,0.034477282,-0.8111833,0.46256173,1.4214158,-0.9179369,-0.69354224,1.3966781,0.20453586,-0.3007291,-0.40537107,1.1813335,0.15232767
-0.2,0.0,0.6,0.5235987755982988,0.0,0,0.5758875,1.985849,0.04476506,-0.7842704,0.4382568,1.4089081,-0.9429239,-0.71376646,1.3960601,0.20176177,-0.32179245,-0.40645567,1.1794031,0.15808928
-0.2,0.0,0.6,0.5235987755982988,0.0,0,0.56427383,1.9838331,0.022378359,-0.80836993,0.48449686,1.4382795,-0.88310903,-0.6811267,1.3977427,0.22559717,-0.27498585,-0.39215982,1.2011353,0.22022767
-0.2,0.0,0.6,0.5235987755982988,0.0,0,0.57820684,1.9848453,0.022376437,-0.7986856,0.457551,1.4165528,-0.82121843,-0.70717394,1.3938982,0.21393828,-0.29040295,-0.37036633,1.1853387,0.14075245
-0.2,0.0,0.6,0.5235987755982988,0.0,0,0.5877502,1.9776571,0.040767465,-0.7999464,0.4660106,1.3913815,-0.86549604,-0.68974507,1.3967032,0.18056594,-0.3145848,-0.39724576,1.1740751,0.113438286
-0.2,0.0,0.6,0.5235987755982988,0.0,0,0.5839444,1.9780437,0.04008291,-0.8047541,0.47109953,1.3993056,-0.7518366,-0.6853518,1.4003996,0.21125583,-0.28275746,-0.40587652,1.1785066,0.18603405
-0.2,0.0,0.6,0.5235987755982988,0.0,0,0.56987417,1.986793,0.042698216,-0.7882353,0.466791,1.3718019,-0.79709005,-0.6979904,1.3968815,0.20800687,-0.29738882,-0.39635184,1.1798646,0.09269901
-0.2,0.0,0.6,0.5235987755982988,0.0,0,0.57757944,1.9805257,0.044568226,-0.804731,0.47007546,1.4149295,-0.8517879,-0.67858857,1.4095283,0.19984825,-0.29657418,-0.3779704,1.1832125,0.19634274
-0.2,0.0,0.6,0.5235987755982988,0.0,0,0.5710474,1.9795544,0.07250381,-0.797248,0.47289532,1.3824564,-0.95869994,-0.68715143,1.3861293,0.1979572,-0.28612688,-0.36409748,1.1745394,0.16888584
-0.2,0.0,0.6,0.5235987755982988,0.0,0,0.5824836,1.9814284,0.052124348,-0.79094815,0.4587028,1.3970402,-0.87940055,-0.70837885,1.4039401,0.17825559,-0.34354895,-0.39123887,1.1727797,0.20224687
-0.2,0.0,0.6,0.5235987755982988,0.0,0,0.5740876,1.9835696,0.045813426,-0.7911702,0.44160646,1.3959134,-0.99826604,-0.7115611,1.391416,0.21608545,-0.28985086,-0.40635115,1.1757652,0.19846493
-0.2,0.0,0.6,0.5235987755982988,0.0,0,0.57606155,1.9772776,0.042714506,-0.79675204,0.48704672,1.4029776,-0.8689002,-0.69552857,1.3895274,0.23116955,-0.29195574,-0.38755807,1.194726,0.14424686
-0.2,0.0,0.6,0.5235987755982988,0.0,0,0.5941397,1.9871224,0.055383075,-0.8223166,0.44742092,1.4025749,-0.84329474,-0.6870862,1.4055619,0.17956325,-0.31951904,-0.37020716,1.1778306,0.12250813
-0.2,0.0,0.6,0.5235987755982988,0.0,0,0.5936594,1.9823902,0.03221525,-0.8049144,0.48670995,1.4280051,-0.94752246,-0.68156123,1.4007559,0.21030675,-0.29518557,-0.39004558,1.1702355,0.16473629
-0.2,0.0,0.6,0.5235987755982988,0.0,0,0.5844937,1.9853061,0.045124125,-0.8170401,0.4883168,1.4024776,-0.852468,-0.6852897,1.393293,0.20527679,-0.28329057,-0.3911317,1.1725103,0.16146278
-0.2,0.0,0.6,0.5235987755982988,0.0,0,0.5952722,1.9797587,0.01996744,-0.80528355,0.46090007,1.4115363,-0.9215985,-0.6862549,1.4005322,0.19898193,-0.289643,-0.39583957,1.1720943,0.10375723
-0.2,0.0,0.6,0.5235987755982988,0.0,0,0.59871346,1.9848948,0.025456037,-0.8090578,0.4695131,1.4101422,-0.91637534,-0.69099694,1.3984264,0.22066347,-0.2889515,-0.38797593,1.1983387,0.14795804
-0.2,0.0,0.6,0.5235987755982988,0.0,0,0.5685447,1.9866798,0.0339776,-0.79342175,0.45145437,1.4093323,-0.93408966,-0.6761018,1.4027869,0.19303575,-0.30338082,-0.3807233,1.187363,0.20476975
-0.2,0.0,0.6,0.5235987755982988,0.0,0,0.59823763,1.9792024,0.039484914,-0.81120634,0.45049116,1.3976613,-0.82751715,-0.6940531,1.3896191,0.19583037,-0.3012046,-0.3883496,1.1791298,0.10638918
-0.2,0.0,0.6,0.5235987755982988,0.0,0,0.5852308,1.9870783,0.04114822,-0.7920389,0.4830909,1.4145703,-1.0197281,-0.69254214,1.3997096,0.19554223,-0.2958996,-0.3766881,1.1630256,0.10404663
-0.2,0.0,0.6,0.5235987755982988,0.0,0,0.5614337,1.9866259,0.071997955,-0.8069948,0.47170812,1.3940132,-0.9417557,-0.6969643,1.4015627,0.2306434,-0.27772573,-0.3923483,1.1726542,0.32746786
-0.2,0.0,0.6,0.5235987755982988,0.0,0,0.54954964,1.9752722,0.038210727,-0.7858049,0.4921139,1.4094589,-0.9193823,-0.69509596,1.4076394,0.21393473,-0.2870216,-0.36208656,1.1844752,0.14711046
-0.2,0.0,0.6,0.5235987755982988,0.0,0,0.59681857,1.9763772,0.02787585,-0.80404395,0.4926554,1.4021417,-0.8993836,-0.6822349,1.4011023,0.22122584,-0.26916748,-0.385806,1.165461,0.2667824
-0.2,0.0,0.6,0.5235987755982988,0.0,0,0.592067,1.9811196,0.04579011,-0.7972047,0.43846342,1.3736746,-0.95173484,-0.7018338,1.4011037,0.21087609,-0.2954359,-0.37610397,1.1843028,0.034565296
-0.2,0.0,0.6,0.5235987755982988,0.0,0,0.58458257,1.9839971,0.033070073,-0.805646,0.47679988,1.3964761,-0.83381194,-0.6904825,1.4017069,0.21313432,-0.28544566,-0.39603335,1.1785141,0.10144493
-0.2,0.0,0.6,0.5235987755982988,0.0,0,0.5701951,1.9814012,0.030825926,-0.794743,0.45345736,1.4149487,-0.87332803,-0.70619273,1.4003226,0.20323382,-0.30127668,-0.36016232,1.1741503,0.18260673
-0.2,0.0,0.6,0.5235987755982988,0.0,0,0.58434606,1.9897256,0.046428215,-0.8125988,0.47015715,1.4074504,-1.045097,-0.695872,1.4084073,0.21844263,-0.298305,-0.42543724,1.1741234,0.08692568
-0.2,0.0,0.6,0.5235987755982988,0.0,0,0.56896424,1.9787664,0.055067863,-0.79738367,0.4706626,1.4014958,-0.88467866,-0.69249445,1.3987124,0.18360251,-0.3132658,-0.3772341,1.1706302,0.17774072
-0.2,0.0,0.6,0.5235987755982988,0.0,0,0.59266233,1.9914055,0.046867013,-0.8115466,0.48561522,1.4053901,-0.9134822,-0.6743184,1.4009067,0.19794562,-0.29494053,-0.40761593,1.1600211,0.2077238
-0.2,0.0,0.6,0.5235987755982988,0.0,0,0.58899045,1.9839754,0.042819697,-0.8094526,0.49555403,1.4088168,-0.9701051,-0.70404255,1.4073807,0.20195878,-0.30869466,-0.3830594,1.1764205,0.15752971
-0.2,0.0,0.6,0.5235987755982988,0.0,0,0.5716543,1.9747677,0.035224497,-0.795597,0.49321264,1.4123784,-0.93099874,-0.7000497,1.3959596,0.19743177,-0.2909382,-0.38414273,1.1575801,0.14884508
-0.2,0.0,0.6,0.5235987755982988,0.0,0,0.58863854,1.9792007,0.047275897,-0.81820804,0.47813898,1.4111261,-0.93157536,-0.6940047,1.4073725,0.21192439,-0.3101501,-0.41258517,1.1883649,0.1956373
-0.2,0.0,0.6,0.5235987755982988,0.0,0,0.5744919,1.9804631,0.027943231,-0.8002002,0.47149828,1.425046,-0.84885067,-0.67499423,1.4031258,0.1955011,-0.30324775,-0.40440732,1.1839375,0.15330802
-0.2,0.0,0.6,0.5235987755982988,0.0,0,0.585118,1.9858724,0.035230823,-0.8039687,0.45558357,1.4141653,-0.89594316,-0.69946665,1.3987851,0.22244698,-0.28366596,-0.3862246,1.1711662,0.17245768
-0.2,0.0,0.6,0.5235987755982988,0.0,0,0.5654509,1.9840802,0.040786356,-0.7954076,0.47605038,1.4076903,-0.9632875,-0.7016593,1.3952557,0.20953725,-0.30560917,-0.4219091,1.1862545,0.18179733
-0.2,0.0,0.6,0.5235987755982988,0.0,0,0.5667299,1.99192,0.04723404,-0.8054124,0.47358388,1.401968,-0.7743076,-0.70225567,1.400357,0.21761987,-0.2860687,-0.4127583,1.1587093,0.14335927
-0.2,0.0,0.6,0.5235987755982988,0.0,0,0.58904064,1.9898795,0.02953123,-0.80153936,0.47144982,1.4032239,-0.8294222,-0.6806922,1.3955032,0.18928492,-0.30144933,-0.38755938,1.1766456,0.1372428
-0.2,0.0,0.6,0.5235987755982988,0.0,0,0.56433856,1.9827662,0.057285387,-0.8031791,0.46678793,1.4162704,-0.8551692,-0.694605,1.3928034,0.21117643,-0.306256,-0.4216833,1.1901869,0.19086412
-0.2,0.0,0.6,0.5235987755982988,0.0,0,0.58310723,1.9787339,0.056946058,-0.81275487,0.46414557,1.4072546,-0.8759495,-0.6739576,1.3995626,0.19050764,-0.29671785,-0.37397334,1.182894,0.15874982
-0.2,0.0,0.6,0.5235987755982988,0.0,0,0.5791101,1.9807302,0.04559929,-0.8054044,0.46899375,1.3995794,-0.79929775,-0.68277687,1.3956212,0.20147385,-0.29314056,-0.37699512,1.1894128,0.12519237
-0.2,0.0,0.6,0.5235987755982988,0.0,0,0.5855586,1.9752403,0.0566281,-0.8147598,0.46724576,1.4054239,-0.93941534,-0.685398,1.4017776,0.19366929,-0.30265555,-0.4062197,1.173989,0.14889044
-0.2,0.0,0.6,0.5235987755982988,0.0,0,0.57289636,1.9855107,0.019588683,-0.79359174,0.48266774,1.4117678,-0.9427745,-0.6999529,1.4032716,0.20929518,-0.28100255,-0.4053983,1.1596062,0.13144344
-0.2,0.0,0.6,0.5235987755982988,0.0,0,0.58476526,1.9868227,0.032642122,-0.8047477,0.47453332,1.4033818,-0.82898486,-0.6898495,1.4087646,0.21599036,-0.29012766,-0.3562064,1.1797101,0.16875805
-0.2,0.0,0.6,0.5235987755982988,0.0,0,0.57952213,1.9782519,0.044800892,-0.81458676,0.4899217,1.4163334,-0.8832285,-0.69487095,1.4025295,0.21988042,-0.28713667,-0.41650042,1.1747246,0.16629498
-0.2,0.0,0.6,0.5235987755982988,0.0,0,0.5744769,1.9847445,0.031945404,-0.7930196,0.4450181,1.4073497,-0.8129569,-0.7091841,1.4039698,0.21105652,-0.29990977,-0.3910619,1.1754391,0.10313855
-0.2,0.0,0.6,0.5235987755982988,0.0,0,0.58628213,1.9816326,0.04899099,-0.8015283,0.49307528,1.4208686,-0.89469224,-0.66326195,1.3926361,0.2019064,-0.26770023,-0.37418574,1.1907225,0.24061893
-0.2,0.0,0.6,0.5235987755982988,0.0,0,0.5581762,1.9946231,0.022094278,-0.7902489,0.49389952,1.408518,-0.8735958,-0.6849452,1.4000319,0.21191628,-0.28957373,-0.40808257,1.1864552,0.124849446
-0.2,0.0,0.6,0.5235987755982988,0.0,0,0.5882811,1.9818696,0.057019163,-0.8153672,0.48253873,1.4020841,-0.8437554,-0.6847884,1.4027109,0.19941092,-0.30096015,-0.40267685,1.1863135,0.116467096
-0.2,0.0,0.6,0.5235987755982988,0.0,0,0.58252656,1.9857343,0.046117254,-0.8036928,0.48081416,1.41764,-0.8338931,-0.6826156,1.3973918,0.19269757,-0.32738605,-0.38914016,1.1820793,0.23120399
-0.2,0.0,0.6,0.5235987755982988,0.0,0,0.5989172,1.987787,0.028135343,-0.81688446,0.47864383,1.4063555,-0.8902193,-0.7013423,1.3971294,0.20528364,-0.3071677,-0.42206633,1.1690048,0.20870154
-0.2,0.0,0.6,0.5235987755982988,0.0,0,0.5788832,1.9873554,0.06642677,-0.8007808,0.49472734,1.386178,-0.92693686,-0.6589987,1.4012173,0.18017188,-0.32383353,-0.40676212,1.1845949,0.052901316
-0.2,0.0,0.6,0.5235987755982988,0.0,0,0.58065176,1.9821044,0.03857553,-0.7977548,0.4533849,1.4160157,-1.0382096,-0.6814971,1.4006697,0.19418357,-0.2996897,-0.3752875,1.1824874,0.20200548
-0.2,0.0,0.6,0.5235987755982988,0.0,0,0.60463655,1.9800595,0.013881235,-0.80504686,0.4812378,1.4119064,-0.94830024,-0.70193654,1.3984177,0.2038943,-0.29648623,-0.40999174,1.164466,0.14078735
-0.2,0.0,0.6,0.5235987755982988,0.0,0,0.57724994,1.9815953,0.04591729,-0.8139286,0.47974575,1.4149228,-0.86764026,-0.6944064,1.3936975,0.1967346,-0.29886484,-0.4045687,1.1762693,0.067491174
-0.2,0.0,0.6,0.5235987755982988,0.0,0,0.56399953,1.986913,0.017228188,-0.80047303,0.5065873,1.4212338,-0.86903983,-0.7106079,1.3939245,0.19696763,-0.3067331,-0.37837178,1.174441,0.1428913
-0.2,0.0,0.6,0.5235987755982988,0.0,0,0.5826921,1.9776639,0.027969461,-0.8064157,0.46657908,1.4182788,-0.9007617,-0.698716,1.3921676,0.2001497,-0.29712477,-0.3770747,1.1729234,0.27896073
-0.2,0.0,0.6,0.5235987755982988,0.0,0,0.5786103,1.9878428,0.038145687,-0.79263264,0.48677334,1.4059511,-0.90598506,-0.6763707,1.4009935,0.18769574,-0.29913363,-0.40765435,1.1728591,0.06842708
-0.2,0.0,0.6,0.5235987755982988,0.0,0,0.5858695,1.9882699,0.041580368,-0.81440365,0.47698358,1.4060916,-0.8803514,-0.69217056,1.3915913,0.21556853,-0.26624504,-0.36413786,1.1742537,0.14136864
-0.2,0.0,0.6,0.5235987755982988,0.0,0,0.58371,1.9794079,0.05507848,-0.7889951,0.45358622,1.3891207,-0.9499477,-0.68587726,1.4000422,0.20049381,-0.31056878,-0.4080674,1.1795162,0.17995016
-0.2,0.0,0.6,0.5235987755982988,0.0,0,0.5743697,1.987081,0.040203284,-0.7947427,0.48031783,1.4000571,-0.7770092,-0.68456954,1.3914064,0.20340297,-0.29674268,-0.38864154,1.1897273,0.042899545
-0.2,0.0,0.6,0.5235987755982988,0.0,0,0.56448615,1.9825499,0.06790832,-0.80976164,0.46372783,1.4152446,-0.7790781,-0.6893026,1.3942684,0.19462807,-0.31064856,-0.36471963,1.1824739,0.2744278
-0.2,0.0,0.6,0.5235987755982988,0.0,0,0.6004157,1.9790257,0.03197715,-0.79663324,0.49263126,1.3957531,-0.8879611,-0.69789344,1.3992063,0.22405913,-0.29560822,-0.377566,1.1755369,0.2663805
-0.2,0.0,0.6,0.5235987755982988,0.0,0,0.59245574,1.9820102,0.011899384,-0.7917928,0.4812156,1.4182118,-0.9216557,-0.665583,1.3993945,0.20368932,-0.28687495,-0.38914973,1.1872722,0.27675235
-0.2,0.0,0.6,0.5235987755982988,0.0,0,0.5868412,1.9846663,0.019242521,-0.7996664,0.45491496,1.4242339,-0.85490435,-0.6760984,1.3935258,0.193258,-0.29289636,-0.38551176,1.1897495,0.10142354
-0.2,0.0,0.6,0.5235987755982988,0.0,0,0.57139343,1.9830796,0.08545847,-0.80693275,0.46623245,1.4104904,-0.9000694,-0.6902539,1.3983749,0.19540745,-0.29169816,-0.3864326,1.1663355,0.06222519
-0.2,0.0,0.6,0.5235987755982988,0.0,0,0.5837872,1.988136,0.033875372,-0.79900825,0.4814306,1.4012879,-0.8969812,-0.68799174,1.4004271,0.20347767,-0.28811097,-0.36705887,1.167022,0.17092144
-0.2,0.0,0.6,0.5235987755982988,0.0,0,0.583582,1.9787388,0.03833188,-0.79353327,0.48216102,1.3912914,-0.86275655,-0.70507354,1.389525,0.1946273,-0.29938942,-0.36136287,1.1649806,0.16708814
-0.2,0.0,0.6,0.5235987755982988,0.0,0,0.59164864,1.9830866,0.04918951,-0.7949357,0.44155586,1.3954098,-0.9399758,-0.70831364,1.3941802,0.17530252,-0.35567722,-0.39886004,1.1946933,0.18777275
-0.2,0.0,0.6,0.5235987755982988,0.0,0,0.5701551,1.9903203,0.04705444,-0.807054,0.47229287,1.4110037,-0.84701896,-0.7013134,1.3975021,0.20668754,-0.29820594,-0.37816033,1.1884139,0.035708804
-0.2,0.0,0.6,0.5235987755982988,0.0,0,0.5739795,1.9888403,0.02990524,-0.79985714,0.49050263,1.4204577,-0.9039463,-0.7038007,1.3913752,0.20788474,-0.30228847,-0.4004881,1.1810021,0.31277445
-0.2,0.0,0.6,0.5235987755982988,0.0,0,0.55578595,1.9796966,0.04720149,-0.79296744,0.472899,1.4170402,-0.8665783,-0.7209625,1.3951658,0.20676847,-0.3187679,-0.407991,1.1822262,0.04936487
-0.2,0.0,0.6,0.5235987755982988,0.0,0,0.5961943,1.9835706,0.036433112,-0.8084314,0.46577883,1.4031882,-0.87653613,-0.71088475,1.4010385,0.23412564,-0.29504943,-0.3871544,1.176378,0.256599
-0.2,0.0,0.6,0.5235987755982988,0.0,0,0.5725124,1.9814061,0.052301586,-0.80121803,0.4860287,1.4047685,-0.9537091,-0.7023483,1.3888282,0.19378206,-0.29984048,-0.34831235,1.1897064,0.06933667
-0.2,0.0,0.6,0.5235987755982988,0.0,0,0.5884924,1.9856522,0.05026396,-0.81419605,0.47377002,1.398704,-0.83207875,-0.6885658,1.394799,0.2159037,-0.26971298,-0.37743682,1.1822864,0.064163536
-0.2,0.0,0.6,0.5235987755982988,0.0,0,0.59149563,1.9803592,0.04648293,-0.81492096,0.48500952,1.4120934,-0.9225202,-0.6923752,1.3977613,0.19258115,-0.30549714,-0.35403168,1.168251,0.22294626
-0.2,0.0,0.6,0.5235987755982988,0.0,0,0.5624767,1.9777099,0.04747572,-0.80297315,0.47857234,1.4181862,-0.8677095,-0.67537576,1.3916428,0.18934661,-0.27415687,-0.37491,1.1641132,0.0890846
-0.2,0.0,0.6,0.5235987755982988,0.0,0,0.5927554,1.9782223,0.035636693,-0.8083359,0.45939353,1.4126253,-0.84125555,-0.70039904,1.3973472,0.22931443,-0.28366062,-0.4158078,1.1704117,0.21546704
-0.2,0.0,0.6,0.5235987755982988,0.0,0,0.5687844,1.9782376,0.04434222,-0.7897463,0.46011332,1.408674,-0.92695755,-0.6916884,1.3951862,0.2026318,-0.30752856,-0.41078386,1.1889592,0.3137625
-0.2,0.0,0.6,0.5235987755982988,0.0,0,0.58496314,1.9813842,0.04886879,-0.7914553,0.44732606,1.4131056,-0.91724837,-0.6979167,1.3965353,0.20985463,-0.2938198,-0.38239715,1.1693646,0.15311594
-0.2,0.0,0.6,0.5235987755982988,0.0,0,0.59499496,1.9793876,0.042965494,-0.8017457,0.46206516,1.4075096,-0.9888999,-0.68464386,1.4080807,0.1951976,-0.3053284,-0.377682,1.1779479,0.12878402
-0.2,0.0,0.6,0.5235987755982988,0.0,0,0.6024076,1.9804412,0.043590363,-0.8089112,0.45275867,1.3992275,-0.86557823,-0.7149363,1.393661,0.20987248,-0.29469597,-0.37518063,1.1646773,0.15743342
-0.2,0.0,0.6,0.5235987755982988,0.0,0,0.5928259,1.9885739,0.044747043,-0.8114845,0.44665837,1.4196362,-0.8942691,-0.67990744,1.4041975,0.18643719,-0.3124735,-0.37607068,1.1868011,0.20517595
-0.2,0.0,0.6,0.5235987755982988,0.0,0,0.5840765,1.9805931,0.042492904,-0.8128997,0.4411716,1.4257041,-0.9736042,-0.70481104,1.398713,0.21688066,-0.29489356,-0.4213454,1.1787009,0.1636575
-0.2,0.0,0.6,0.5235987755982988,0.0,0,0.5905708,1.9889971,0.024703229,-0.79674244,0.4844627,1.4012566,-0.9193278,-0.7044115,1.3944608,0.22478212,-0.2757527,-0.36645254,1.1907176,0.077537216
-0.2,0.0,0.6,0.5235987755982988,0.0,0,0.57452416,1.9851713,0.073040664,-0.8421271,0.5005977,1.4252169,-0.85548306,-0.68871236,1.4061109,0.1952944,-0.33058262,-0.37170067,1.1814709,0.11725033
-0.2,0.0,0.6,0.5235987755982988,0.0,0,0.58730006,1.9765626,0.05024616,-0.8162904,0.48246142,1.4115322,-0.9216017,-0.6765865,1.4009808,0.18960232,-0.29275286,-0.38937938,1.1632209,0.18947119
-0.2,0.0,0.6,0.5235987755982988,0.0,0,0.5858486,1.9864521,0.04028873,-0.8022337,0.45733917,1.4182596,-0.99641895,-0.7132414,1.3958696,0.22046128,-0.30640236,-0.380904,1.1912141,0.14935808
-0.2,0.0,0.6,0.5235987755982988,0.0,0,0.5719351,1.9839858,0.054618113,-0.7849191,0.45455447,1.3971796,-0.90335006,-0.65887785,1.4126331,0.2047011,-0.3062879,-0.38094625,1.184528,0.12589693
-0.2,0.0,0.6,0.5235987755982988,0.0,0,0.5828532,1.9869725,0.027090184,-0.7901721,0.45921108,1.4001776,-0.91607904,-0.6715204,1.405203,0.19511206,-0.28461918,-0.40394017,1.1680392,0.08109582
-0.2,0.0,0.6,0.5235987755982988,0.0,0,0.5703091,1.9802142,0.04443868,-0.80125725,0.48982522,1.4167613,-0.9972726,-0.68074703,1.3994476,0.1962946,-0.2879259,-0.37296125,1.1691169,0.21013027
-0.2,0.0,0.6,0.5235987755982988,0.0,0,0.59073484,1.9763113,0.03129612,-0.8025465,0.4596101,1.4212822,-0.91451824,-0.69958323,1.3892171,0.2008343,-0.28407493,-0.3847319,1.1654693,0.17226258
-0.2,0.0,0.6,0.5235987755982988,0.0,0,0.5946146,1.9845905,0.0603402,-0.8140259,0.4935945,1.3994212,-0.8617416,-0.67269874,1.3993132,0.1907005,-0.29487196,-0.38596722,1.1737049,0.1742735
-0.2,0.0,0.6,0.5235987755982988,0.0,0,0.57831436,1.9855419,0.040234376,-0.81436384,0.4755581,1.4208806,-0.90600127,-0.7010896,1.3963592,0.20357968,-0.29313868,-0.3768515,1.1651034,0.19429778
-0.2,0.0,0.6,0.5235987755982988,0.0,0,0.5802752,1.9843758,0.014754956,-0.79405147,0.51480913,1.4134457,-0.89358133,-0.6972925,1.4018574,0.21244057,-0.31225994,-0.3924851,1.1918256,0.23952475
-0.2,0.0,0.6,0.5235987755982988,0.0,0,0.56415904,1.9846678,0.05267649,-0.8000892,0.5006318,1.402821,-0.9102429,-0.67801285,1.3976411,0.1803106,-0.2947727,-0.35813594,1.1713784,0.09049844
-0.2,0.0,0.6,0.5235987755982988,0.0,0,0.5847863,1.9837753,0.039196715,-0.8027358,0.49111617,1.4016513,-0.88315755,-0.67808175,1.3975836,0.19748843,-0.29378447,-0.40055704,1.1818675,0.16807765
-0.2,0.0,0.6,0.5235987755982988,0.0,0,0.57028294,1.9864469,0.04431963,-0.7994899,0.44819203,1.4186119,-0.9191494,-0.70262295,1.3937987,0.20017938,-0.3213681,-0.4043313,1.176086,0.1920297
-0.2,0.0,0.6,0.5235987755982988,0.0,0,0.5816022,1.9808737,0.024446083,-0.8019529,0.4641959,1.4316509,-0.87509525,-0.7064953,1.3962656,0.19800794,-0.3161553,-0.38351998,1.1812183,0.027286276
-0.2,0.0,0.6,0.5235987755982988,0.0,0,0.58723795,1.9803584,0.056394022,-0.792007,0.48236567,1.4025779,-0.95065206,-0.6895858,1.40004,0.19940367,-0.30697766,-0.39462474,1.1694571,0.13820212
-0.2,0.0,0.6,0.5235987755982988,0.0,0,0.59847623,1.9826605,0.0651057,-0.8225876,0.46397153,1.4091203,-0.92276144,-0.7047984,1.4077864,0.19151284,-0.30801615,-0.38740695,1.1624486,0.13949476
-0.2,0.0,0.6,0.5235987755982988,0.0,0,0.5959195,1.9853941,0.056432456,-0.8129897,0.45807877,1.4042305,-0.9214426,-0.6691889,1.4019599,0.18864268,-0.32075065,-0.41381794,1.1734139,0.19895081
-0.2,0.0,0.6,0.5235987755982988,0.0,0,0.60320926,1.97792,0.038878962,-0.79789674,0.47052705,1.4005536,-0.96043235,-0.70572084,1.3950039,0.18749678,-0.3163836,-0.36905736,1.17453,0.21551017
-0.2,0.0,0.6,0.5235987755982988,0.0,0,0.5943808,1.978184,0.052088916,-0.81425405,0.4867569,1.4020573,-0.9013544,-0.71022165,1.4059972,0.18234664,-0.34005585,-0.3835381,1.1724528,0.18367006
-0.2,0.0,0.6,0.5235987755982988,0.0,0,0.5975398,1.9784316,0.06429355,-0.8111967,0.45689562,1.3973651,-0.9145907,-0.68805397,1.3909386,0.2018651,-0.2786828,-0.36322528,1.1797334,0.106222354
-0.2,0.0,0.6,0.5235987755982988,0.0,0,0.5898348,1.97965,0.06433165,-0.79567665,0.47926733,1.3806026,-0.9812359,-0.6745742,1.4046884,0.20055689,-0.32727975,-0.40878284,1.188175,0.17350443
-0.2,0.0,0.6,0.5235987755982988,0.0,0,0.5542644,1.9818853,0.055284712,-0.7936409,0.4787365,1.403631,-0.76612973,-0.670907,1.3948958,0.19541931,-0.28489113,-0.42156288,1.1723607,0.059025265
-0.2,0.0,0.6,0.5235987755982988,0.0,0,0.56579953,1.9860945,0.04619568,-0.79342586,0.44660738,1.4169698,-0.96251833,-0.66544884,1.4019886,0.20159335,-0.2791802,-0.37901178,1.1808043,0.15088838
-0.2,0.0,0.6,0.5235987755982988,0.0,0,0.5879066,1.9871993,0.04284258,-0.7948588,0.46998656,1.4040065,-0.8346077,-0.66887105,1.3884279,0.17106523,-0.32007432,-0.36943644,1.1703253,0.24874194
-0.2,0.0,0.6,0.5235987755982988,0.0,0,0.5636298,1.9818385,0.048304312,-0.7945635,0.4594069,1.4115026,-0.8116197,-0.70696187,1.3959163,0.21437441,-0.28038344,-0.3941139,1.1611669,0.071099736
-0.2,0.0,0.6,0.5235987755982988,0.0,0,0.59346145,1.9848995,0.009233948,-0.79062474,0.50253254,1.4016317,-0.833357,-0.6915565,1.3958867,0.20050246,-0.28609166,-0.37645036,1.1676865,0.041698795
-0.2,0.0,0.6,0.5235987755982988,0.0,0,0.5695696,1.9837327,0.054727577,-0.80355376,0.47741902,1.4108475,-0.78374314,-0.7038469,1.3981884,0.20526023,-0.310255,-0.4107023,1.1723198,0.19173451
-0.2,0.0,0.6,0.5235987755982988,0.0,0,0.57625,1.982557,0.05372873,-0.80669,0.44655776,1.4170092,-0.9112031,-0.69713575,1.4064882,0.19803642,-0.29398233,-0.36729315,1.1689184,0.07628535
-0.2,0.0,0.6,0.5235987755982988,0.0,0,0.5786338,1.9784088,0.025727207,-0.793572,0.47200358,1.4222572,-0.8701348,-0.6707147,1.3993264,0.20598598,-0.27753237,-0.41829008,1.1689222,0.11962787
-0.2,0.0,0.6,0.5235987755982988,0.0,0,0.6042012,1.9870814,0.04649238,-0.81471133,0.47708377,1.4085245,-0.98829675,-0.68389964,1.4120529,0.19904082,-0.30304387,-0.37489566,1.1760343,0.15761282
-0.2,0.0,0.6,0.5235987755982988,0.0,0,0.5936249,1.9802829,0.044063244,-0.8093514,0.46023503,1.4173095,-1.0024691,-0.6976376,1.3983308,0.20304637,-0.2982526,-0.37242264,1.1832907,0.12511465
-0.2,0.0,0.6,0.5235987755982988,0.0,0,0.5854095,1.9864473,0.064610824,-0.81832206,0.44860008,1.4047116,-0.902759,-0.64364064,1.399771,0.1919904,-0.29219925,-0.38951617,1.1849858,0.19285315
-0.2,0.0,0.6,0.5235987755982988,0.0,0,0.5963019,1.9828895,0.050586484,-0.82793576,0.46245682,1.4160719,-0.96023685,-0.70797044,1.4001043,0.23526503,-0.2846126,-0.42988998,1.172821,0.08444431
-0.2,0.0,0.6,0.5235987755982988,0.0,0,0.6021483,1.9788585,0.032456122,-0.79059327,0.5007719,1.3946404,-0.90242857,-0.6654461,1.3842729,0.18222764,-0.30863994,-0.36607918,1.1900127,0.17212817
-0.2,0.0,0.6,0.5235987755982988,0.0,0,0.5802345,1.9857693,0.047182087,-0.8026706,0.44858932,1.4156213,-0.93821305,-0.6868718,1.3990804,0.18755671,-0.29493198,-0.38534704,1.1632779,0.07531634
-0.2,0.0,0.6,0.5235987755982988,0.0,0,0.55838937,1.9881467,0.056984194,-0.79638755,0.4805305,1.409949,-0.8232405,-0.6850321,1.4072058,0.20236424,-0.28863928,-0.36915258,1.1714681,0.18908249
-0.2,0.0,0.6,0.5235987755982988,0.0,0,0.5786607,1.9913311,0.022123646,-0.7811473,0.44918272,1.3876436,-0.86266,-0.71815753,1.3999497,0.21521804,-0.3068041,-0.37495923,1.1861925,0.14421494
-0.2,0.0,0.6,0.5235987755982988,0.0,0,0.6004225,1.9824378,0.039841853,-0.79993033,0.47541574,1.4074454,-0.96295565,-0.63379717,1.4060367,0.18483378,-0.31750575,-0.4106365,1.1926205,0.18537417
-0.2,0.0,0.6,0.5235987755982988,0.0,0,0.58311045,1.9798119,0.07304625,-0.80936563,0.45021418,1.4058343,-0.9738505,-0.70830625,1.396635,0.20552906,-0.30501422,-0.3384804,1.1922724,0.054859035
-0.2,0.0,0.6,0.5235987755982988,0.0,0,0.58236814,1.9838464,0.050382048,-0.793932,0.47111848,1.4022195,-0.7982835,-0.6891572,1.4057437,0.2032608,-0.31672564,-0.38640118,1.1729969,0.040535547
-0.2,0.0,0.6,0.5235987755982988,0.0,0,0.57854027,1.9814932,0.03975772,-0.79749274,0.48555338,1.3972303,-0.7827875,-0.6746543,1.3944219,0.19753109,-0.27752995,-0.37977058,1.1673318,0.15801847
-0.2,0.0,0.6,0.5235987755982988,0.0,0,0.5970632,1.9843339,0.03977128,-0.80008304,0.47007462,1.4155998,-0.96059436,-0.7078185,1.4018009,0.20112233,-0.31802875,-0.38541517,1.1855536,0.12949754
-0.2,0.0,0.6,0.5235987755982988,0.0,0,0.56660306,1.9821416,0.032504886,-0.8076076,0.4841705,1.4177271,-0.8333793,-0.670409,1.397043,0.18144973,-0.29229867,-0.39047143,1.1800537,0.035904404
-0.2,0.0,0.6,0.5235987755982988,0.0,0,0.5820768,1.9848566,0.04009588,-0.7935964,0.50659615,1.3913467,-0.8899752,-0.70452416,1.4059972,0.20086275,-0.31598085,-0.39429018,1.1783242,0.1548698
-0.2,0.0,0.6,0.5235987755982988,0.0,0,0.58394444,1.9850204,0.03419024,-0.8077282,0.5166926,1.414911,-0.84731644,-0.68529487,1.4008386,0.19293782,-0.30906376,-0.37348214,1.1773986,0.30771664
-0.2,0.0,0.6,0.5235987755982988,0.0,0,0.57271665,1.988351,0.025140094,-0.7967448,0.47359636,1.4256512,-0.83082753,-0.6951665,1.3921598,0.19718902,-0.3033405,-0.37937376,1.1793582,0.1688651
-0.2,0.0,0.6,0.5235987755982988,0.0,0,0.579609,1.9851608,0.04004287,-0.8004435,0.47483656,1.4129014,-0.78872186,-0.6847067,1.3915538,0.19913295,-0.2961904,-0.4172168,1.1768162,0.16302644
-0.2,0.0,0.6,0.5235987755982988,0.0,0,0.5829488,1.9924129,0.028978545,-0.8014373,0.43822065,1.4174871,-0.8204258,-0.700692,1.3962089,0.20040898,-0.30137435,-0.35271624,1.1898866,0.06016293
-0.2,0.0,0.6,0.5235987755982988,0.0,0,0.6059502,1.9752145,0.054543592,-0.8270565,0.45582575,1.4142867,-0.9443873,-0.65516996,1.4028839,0.22144832,-0.28462097,-0.41301292,1.1911584,0.15982366
-0.2,0.0,0.6,0.5235987755982988,0.0,0,0.57206476,1.9818321,0.035982173,-0.79275036,0.47852492,1.4178139,-0.9216792,-0.69804615,1.3986917,0.22266768,-0.28330228,-0.40870324,1.1861995,0.09543521
-0.2,0.0,0.6,0.5235987755982988,0.0,0,0.56912655,1.9816325,0.050739642,-0.80112624,0.46527964,1.4100871,-0.8137923,-0.67807317,1.4024758,0.18784688,-0.3018965,-0.3890274,1.1736877,0.16761406
-0.2,0.0,0.6,0.5235987755982988,0.0,0,0.57417595,1.9878383,0.069337346,-0.80969167,0.48379084,1.3978131,-0.8513654,-0.6604927,1.4088448,0.1915961,-0.3191858,-0.41144428,1.1792889,0.080948725
-0.2,0.0,0.6,0.5235987755982988,0.0,0,0.5755471,1.9813688,0.057444967,-0.82201385,0.49069655,1.41636,-0.92659014,-0.67135406,1.4011465,0.18995094,-0.28628358,-0.35460636,1.1838034,0.07291552
-0.2,0.0,0.6,0.5235987755982988,0.0,0,0.5946884,1.9824747,0.06186573,-0.8055836,0.50009966,1.3820089,-0.8189328,-0.70477015,1.3974462,0.21536978,-0.31461373,-0.40985385,1.16867,0.20991255
-0.2,0.0,0.6,0.5235987755982988,0.0,0,0.6055063,1.9849429,0.024504827,-0.8159144,0.49547404,1.4209408,-0.9092815,-0.6884068,1.4041563,0.19370618,-0.32246318,-0.37435544,1.1858509,0.20312968
-0.2,0.0,0.6,0.5235987755982988,0.0,0,0.5925902,1.9837203,0.04651434,-0.80907154,0.45415595,1.4049969,-0.9273011,-0.69026613,1.3945812,0.21627153,-0.27376878,-0.39631307,1.183919,0.3149798
-0.2,0.0,0.6,0.5235987755982988,0.0,0,0.5755354,1.9802713,0.0519506,-0.7998515,0.43849728,1.4185667,-0.9318071,-0.68869823,1.3947016,0.19937755,-0.2839975,-0.35890347,1.1703404,0.16583791
-0.2,0.0,0.6,0.5235987755982988,0.0,0,0.577684,1.980156,0.041597422,-0.7929458,0.48622236,1.3996676,-0.9412176,-0.69418544,1.3927047,0.1901345,-0.2883676,-0.3583678,1.1656796,0.105860405
-0.2,0.0,0.6,0.5235987755982988,0.0,0,0.5831151,1.982685,0.05781153,-0.8049581,0.4545645,1.4066305,-0.8390016,-0.68634844,1.4012818,0.199598,-0.3347631,-0.42460418,1.1878817,0.18299405
-0.2,0.0,0.6,0.5235987755982988,0.0,0,0.5839379,1.979325,0.056313407,-0.8025999,0.48381948,1.3954499,-0.82523775,-0.6966493,1.397279,0.21383908,-0.28141156,-0.34917277,1.1786911,0.07930078
-0.2,0.0,0.6,0.5235987755982988,0.0,0,0.5899322,1.9821239,0.032535046,-0.80523807,0.47649297,1.420962,-0.89246213,-0.70125705,1.3968205,0.20207573,-0.30491546,-0.39073172,1.1667982,0.21400899
-0.2,0.0,0.6,0.5235987755982988,0.0,0,0.5891524,1.9902728,0.03505466,-0.79484516,0.44846475,1.3966098,-0.9077305,-0.71172786,1.4096586,0.20569155,-0.3136532,-0.40601423,1.1607921,0.119780876
-0.2,0.0,0.6,0.5235987755982988,0.0,0,0.58477306,1.9821959,0.046465795,-0.7944815,0.48272055,1.3936657,-0.8983309,-0.6978699,1.3967667,0.20898566,-0.2722575,-0.38951904,1.1671691,0.15579003
-0.2,0.0,0.6,0.5235987755982988,0.0,0,0.5714561,1.9867337,0.047956765,-0.80088586,0.49122974,1.4016864,-0.8511805,-0.70678335,1.3955517,0.20365688,-0.3105433,-0.38114506,1.1873584,0.1822119
-0.2,0.0,0.6,0.5235987755982988,0.0,0,0.5709622,1.9802822,0.042665266,-0.79043114,0.46714383,1.4077611,-0.8874877,-0.679573,1.3946708,0.19305696,-0.295033,-0.37986612,1.1843414,0.049403086
-0.2,0.0,0.6,0.5235987755982988,0.0,0,0.5887055,1.9800315,0.059321135,-0.80222064,0.48741168,1.3999023,-1.021545,-0.7040032,1.3986698,0.19534452,-0.31728792,-0.40142792,1.1820561,0.14164674
-0.2,0.0,0.6,0.5235987755982988,0.0,0,0.59095776,1.9830726,0.04287121,-0.8309481,0.47693956,1.4262891,-0.8033183,-0.6941256,1.3861504,0.20361161,-0.2924809,-0.3475558,1.1785495,0.07121079
-0.2,0.0,0.6,0.5235987755982988,0.0,0,0.5718635,1.9845357,0.051918328,-0.7914515,0.48137954,1.4017061,-0.8945182,-0.66542745,1.4006379,0.20084655,-0.30674386,-0.42275858,1.1734148,0.2556723
-0.2,0.0,0.6,0.5235987755982988,0.0,0,0.59404224,1.9860009,0.053091336,-0.80379754,0.45201343,1.4054102,-0.92350775,-0.68612224,1.38535,0.20457383,-0.27925864,-0.40783414,1.1778957,0.11538607
-0.2,0.0,0.6,0.5235987755982988,0.0,0,0.59649795,1.9882051,0.029017003,-0.7997414,0.4838535,1.3895608,-0.8163222,-0.6750757,1.3969461,0.19998886,-0.29241562,-0.39755476,1.1822681,0.059488688
-0.2,0.0,0.6,0.5235987755982988,0.0,0,0.5805765,1.9874524,0.0334462,-0.788616,0.4723951,1.4155914,-0.9250041,-0.6894019,1.3999907,0.20959719,-0.31700256,-0.41502154,1.1819149,0.27377707
-0.2,0.0,0.6,0.5235987755982988,0.0,0,0.5803852,1.9827805,0.033212814,-0.7879237,0.45430496,1.400835,-0.790698,-0.6985959,1.4001257,0.21673325,-0.29422897,-0.41241392,1.1870886,0.1238284
-0.2,0.0,0.6,0.5235987755982988,0.0,0,0.5885882,1.976829,0.057661444,-0.8048475,0.43873808,1.407278,-0.86285603,-0.71628463,1.4024781,0.20986602,-0.30177227,-0.38772795,1.1697317,0.015969962
-0.2,0.0,0.6,0.5235987755982988,0.0,0,0.5877201,1.9858208,0.057768993,-0.79915285,0.48632166,1.400709,-1.0076133,-0.69724154,1.4057524,0.19580527,-0.33340886,-0.40289038,1.1803797,0.084136024
-0.2,0.0,0.6,0.5235987755982988,0.0,0,0.5916724,1.9810023,0.047378805,-0.7949634,0.49812642,1.4000554,-0.90226966,-0.6877289,1.4014413,0.20034866,-0.31030822,-0.43816662,1.1778047,0.18415657
-0.2,0.0,0.6,0.5235987755982988,0.0,0,0.60657567,1.9834443,0.036968987,-0.78579134,0.46907482,1.3981557,-0.90149486,-0.63153714,1.4030559,0.18228982,-0.312929,-0.39917022,1.1911362,0.0994086
-0.2,0.0,0.6,0.5235987755982988,0.0,0,0.59178096,1.9796742,0.03585045,-0.8036285,0.46791822,1.415716,-0.91191435,-0.7152044,1.388589,0.21485218,-0.29124606,-0.39212418,1.1777495,0.06404236
-0.2,0.0,0.6,0.5235987755982988,0.0,0,0.5798196,1.9882936,0.06306762,-0.7934554,0.45966133,1.3941429,-0.8765362,-0.6840255,1.4032494,0.1994749,-0.33116475,-0.41730264,1.1907437,0.018147128
-0.2,0.0,0.6,0.5235987755982988,0.0,0,0.59157604,1.9896247,0.020999277,-0.79011613,0.44691926,1.4001461,-0.8542137,-0.6959811,1.3961235,0.21164791,-0.28345296,-0.3865935,1.1745739,0.08120721
-0.2,0.0,0.6,0.5235987755982988,0.0,0,0.57314456,1.9809351,0.06771392,-0.7967786,0.4582782,1.402793,-1.0506966,-0.72301465,1.4071306,0.22517718,-0.29874915,-0.36923394,1.1813858,0.14018479
-0.2,0.0,0.6,0.5235987755982988,0.0,0,0.5828713,1.9813693,0.05268799,-0.7932346,0.46400923,1.411373,-0.91784245,-0.69789153,1.4004511,0.19177282,-0.31283835,-0.39333528,1.1654919,0.25578424
-0.2,0.0,0.6,0.5235987755982988,0.0,0,0.57949597,1.9792196,0.055332337,-0.7897988,0.47149417,1.4031113,-0.9949956,-0.66911304,1.4046191,0.18914957,-0.31987235,-0.3630455,1.183222,0.30337968
-0.2,0.0,0.6,0.5235987755982988,0.0,0,0.5989558,1.9799243,0.04678453,-0.81226575,0.4732194,1.4107774,-0.8700641,-0.670574,1.3967732,0.20691453,-0.29589045,-0.4061766,1.1785038,0.15748236
-0.2,0.0,0.6,0.5235987755982988,0.0,0,0.5828071,1.9876795,0.0424289,-0.7896172,0.49672824,1.408047,-0.85285157,-0.6839423,1.4022726,0.20427011,-0.31128544,-0.4075655,1.1808758,0.2447943
-0.2,0.0,0.6,0.5235987755982988,0.0,0,0.5891402,1.9853727,0.031372894,-0.78518283,0.4945994,1.3997349,-0.971143,-0.6917699,1.3965092,0.19193983,-0.30028623,-0.38366315,1.1740322,0.16473673
-0.2,0.0,0.6,0.5235987755982988,0.0,0,0.5950031,1.9762527,0.03625781,-0.8101365,0.47509432,1.4194381,-0.7856573,-0.7046729,1.3909816,0.20779467,-0.28281245,-0.3525924,1.1743284,0.1493487
-0.2,0.0,0.6,0.5235987755982988,0.0,0,0.5714197,1.9817673,0.04146753,-0.7909564,0.47821406,1.4160638,-0.77207696,-0.6851741,1.3999029,0.2034537,-0.28836882,-0.39450532,1.1638823,0.2716414
-0.2,0.0,0.6,0.5235987755982988,0.0,0,0.6007818,1.9858863,0.037788898,-0.80883074,0.46998975,1.4190264,-0.9205458,-0.72857606,1.3893704,0.19401187,-0.32896745,-0.41689816,1.1700996,0.14876355
-0.2,0.0,0.6,0.5235987755982988,0.0,0,0.570064,1.9786514,0.045522492,-0.7991037,0.47476375,1.4228864,-0.7532492,-0.6897275,1.4021897,0.21953176,-0.27952838,-0.4469089,1.167519,0.04386664
-0.2,0.0,0.6,0.5235987755982988,0.0,0,0.59394044,1.9915739,0.06309183,-0.8158108,0.46764448,1.4016681,-0.8379122,-0.71700525,1.4036441,0.21295881,-0.33117577,-0.38886762,1.1850568,0.19290827
-0.2,0.0,0.6,0.5235987755982988,0.0,0,0.5912326,1.9812597,0.03450139,-0.80814445,0.4821264,1.4185392,-0.8278902,-0.6788886,1.4010664,0.19486757,-0.28914118,-0.39026514,1.1642667,0.15713423
-0.2,0.0,0.6,0.5235987755982988,0.0,0,0.5936345,1.9826422,0.051436678,-0.80495685,0.47309223,1.4105917,-0.7525117,-0.68626446,1.4042804,0.18650176,-0.29663634,-0.36078,1.1732303,0.105972454
-0.2,0.0,0.6,0.5235987755982988,0.0,0,0.58795816,1.9893584,0.0642229,-0.7980115,0.47096598,1.3932949,-0.8756336,-0.7155827,1.4020933,0.22322991,-0.30811507,-0.3854059,1.1731366,0.19666271
-0.2,0.0,0.6,0.5235987755982988,0.0,0,0.5994733,1.990268,0.03699739,-0.8032534,0.47337076,1.3915795,-0.95748067,-0.6722619,1.4056599,0.19530703,-0.30805802,-0.40923113,1.168886,0.11546938
-0.2,0.0,0.6,0.5235987755982988,0.0,0,0.580014,1.9821681,0.07108175,-0.8034801,0.475789,1.3854418,-0.79947746,-0.67764086,1.3895885,0.20566386,-0.28281835,-0.41953024,1.1766977,0.09304982
-0.2,0.0,0.6,0.5235987755982988,0.0,0,0.62150764,1.984043,0.008867291,-0.80050427,0.49138635,1.4163622,-0.9697038,-0.6862263,1.3984019,0.19955786,-0.2981779,-0.3995385,1.1775169,0.16526379
-0.2,0.0,0.6,0.5235987755982988,0.0,0,0.56969404,1.9829712,0.044900227,-0.7894744,0.48784512,1.4096556,-0.8062981,-0.7263134,1.4004502,0.23418438,-0.29666704,-0.39705026,1.1836964,0.101315536
-0.2,0.0,0.6,0.5235987755982988,0.0,0,0.5936458,1.9865618,0.03722707,-0.7981229,0.4901198,1.41325,-0.9130101,-0.7063874,1.3979279,0.21045074,-0.29809842,-0.38870874,1.1766528,0.09235243
-0.2,0.0,0.6,0.5235987755982988,0.0,0,0.57872367,1.9861157,0.06259474,-0.7973848,0.4710903,1.4100237,-0.86169964,-0.6912425,1.3998188,0.20584324,-0.30607295,-0.38129085,1.1958742,0.17457035
-0.2,0.0,0.6,0.5235987755982988,0.0,0,0.59683347,1.9791934,0.043435365,-0.80639946,0.47473902,1.4038526,-0.8394807,-0.6908257,1.4040333,0.1959113,-0.29399002,-0.37306425,1.1633162,0.20093603
-0.2,0.0,0.6,0.5235987755982988,0.0,0,0.6004594,1.9870645,0.04783436,-0.83242255,0.48637974,1.4234663,-0.9848166,-0.6616778,1.4039128,0.18995118,-0.30553606,-0.3570883,1.18784,0.1320317
-0.2,0.0,0.6,0.5235987755982988,0.0,0,0.59146935,1.9835864,0.0591437,-0.805437,0.4876799,1.4077787,-0.8914729,-0.6799223,1.3996061,0.21196882,-0.2892624,-0.40334243,1.1832584,0.24383543
-0.2,0.0,0.6,0.5235987755982988,0.0,0,0.5948818,1.9832479,0.050777536,-0.8010777,0.45824623,1.412852,-0.9108191,-0.6902863,1.4012126,0.2098996,-0.2879126,-0.3739594,1.1713166,0.23164839
-0.2,0.0,0.6,0.5235987755982988,0.0,0,0.5986543,1.9812142,0.027502999,-0.80568564,0.4916339,1.4049325,-0.92021674,-0.69805,1.4037869,0.22067587,-0.27920187,-0.37496397,1.1734517,0.1301276
-0.2,0.0,0.6,0.5235987755982988,0.0,0,0.59558046,1.9853561,0.05569167,-0.80199265,0.4659277,1.4104817,-0.85744643,-0.71458554,1.3990762,0.19856384,-0.33260018,-0.40343466,1.1877913,0.23968832
-0.2,0.0,0.6,0.5235987755982988,0.0,0,0.59592307,1.9780318,0.05698963,-0.8025001,0.45799106,1.4061714,-0.8552828,-0.6768254,1.3874358,0.1814594,-0.3250673,-0.36862025,1.194543,0.25713265
-0.2,0.0,0.6,0.5235987755982988,0.0,0,0.589478,1.9845845,0.036890943,-0.799244,0.4867142,1.4263456,-0.8340136,-0.70565933,1.397181,0.21583039,-0.30225715,-0.38666707,1.1886677,0.18943785
-0.2,0.0,0.6,0.5235987755982988,0.0,0,0.5889243,1.9820293,0.064413734,-0.800608,0.44882432,1.4044847,-0.9035338,-0.68932706,1.3974897,0.18633012,-0.31923202,-0.37689668,1.163102,0.18415307
-0.2,0.0,0.6,0.5235987755982988,0.0,0,0.5849573,1.978206,0.04889376,-0.80107415,0.45642933,1.4155495,-0.78683114,-0.689452,1.3928492,0.17656016,-0.31782556,-0.38299018,1.17123,0.2206364
-0.2,0.0,0.6,0.5235987755982988,0.0,0,0.5947308,1.983111,0.05221121,-0.7983612,0.4491652,1.4119084,-0.96225214,-0.70156795,1.4008772,0.19941533,-0.3084006,-0.40767038,1.1823225,0.13987888
-0.2,0.0,0.6,0.5235987755982988,0.0,0,0.5980309,1.9888889,0.029932203,-0.8034317,0.46448296,1.4297417,-0.9283576,-0.6884502,1.410908,0.19163635,-0.30782458,-0.38062602,1.1858575,0.1583539
-0.2,0.0,0.6,0.5235987755982988,0.0,0,0.6138916,1.9769278,0.042517487,-0.80730873,0.47013316,1.4071593,-0.9247114,-0.7031032,1.4020967,0.20695211,-0.29751408,-0.36554822,1.1660618,0.33380926
-0.2,0.0,0.6,0.5235987755982988,0.0,0,0.61448723,1.9799787,0.035963643,-0.80446416,0.4874907,1.4019519,-0.89143497,-0.67869455,1.3942994,0.18848829,-0.32011354,-0.3954478,1.1811517,0.14010105
-0.2,0.0,0.6,0.5235987755982988,0.0,0,0.5923509,1.9826386,0.045727454,-0.8161269,0.46423152,1.4208928,-0.7902835,-0.6797519,1.4094003,0.20779261,-0.29719523,-0.3971616,1.1889893,0.13037412
-0.2,0.0,0.6,0.5235987755982988,0.0,0,0.57662404,1.9940276,0.051458772,-0.80348897,0.49004763,1.4193579,-0.8980032,-0.68345845,1.4161953,0.21449418,-0.28995275,-0.36122286,1.1919091,0.22007756
-0.2,0.0,0.6,0.5235987755982988,0.0,0,0.5953086,1.9798036,0.04975935,-0.79263544,0.47507858,1.4031754,-0.8484073,-0.6969335,1.3933687,0.20076858,-0.30706352,-0.39362484,1.1894575,0.2271268
-0.2,0.0,0.6,0.5235987755982988,0.0,0,0.5907551,1.9809849,0.03302205,-0.80104834,0.48429832,1.4151598,-1.0017871,-0.67860836,1.4004092,0.1943002,-0.3119506,-0.34238276,1.1836748,0.12846863
-0.2,0.0,0.6,0.5235987755982988,0.0,0,0.59251857,1.9915694,0.037164196,-0.80291104,0.4566474,1.4241729,-0.94749516,-0.70035714,1.3977505,0.21276593,-0.2887638,-0.39990586,1.1819726,0.030084746
-0.2,0.0,0.6,0.5235987755982988,0.0,0,0.58962846,1.9911507,0.074759886,-0.82168883,0.46293244,1.4016161,-0.8830041,-0.6988726,1.4037589,0.21156378,-0.28974608,-0.39200053,1.1810638,0.1807055
-0.2,0.0,0.6,0.5235987755982988,0.0,0,0.59207916,1.9894438,0.05911345,-0.7997126,0.447084,1.3946234,-0.8110839,-0.7008727,1.3970379,0.19685589,-0.29614502,-0.38448462,1.1618394,0.111879446
-0.2,0.0,0.6,0.5235987755982988,0.0,0,0.5810111,1.9807181,0.06331717,-0.80860996,0.50081253,1.4004164,-0.92942315,-0.7053254,1.4012603,0.2208279,-0.29474965,-0.40341678,1.1580002,0.12096664
-0.2,0.0,0.6,0.5235987755982988,0.0,0,0.5895066,1.9816394,0.03882841,-0.7950368,0.47181857,1.4062304,-0.93011063,-0.7039792,1.3976189,0.21039729,-0.29801053,-0.40041074,1.1796204,0.13681287
-0.2,0.0,0.6,0.5235987755982988,0.0,0,0.5875911,1.9775099,0.041272968,-0.7884403,0.4728591,1.4038209,-0.82969385,-0.700309,1.3990325,0.20203628,-0.28470084,-0.3821397,1.1644462,0.032499652
-0.2,0.0,0.6,0.5235987755982988,0.0,0,0.59673834,1.9813663,0.03738205,-0.8045164,0.48807946,1.4091718,-0.8453011,-0.68698335,1.3958175,0.18780774,-0.30143824,-0.38337907,1.1763583,0.08130581
-0.2,0.0,0.6,0.5235987755982988,0.0,0,0.5948149,1.9890708,0.037932977,-0.8078401,0.46893403,1.4291307,-0.8629078,-0.6943785,1.3985453,0.21084544,-0.27529907,-0.3765493,1.1739922,0.0932565
-0.2,0.0,0.6,0.5235987755982988,0.0,0,0.57703316,1.987792,0.04232573,-0.78624654,0.4841581,1.4129158,-0.85065573,-0.6911471,1.3931018,0.21758632,-0.29502192,-0.38522005,1.1920595,0.10592263
-0.2,0.0,0.6,0.5235987755982988,0.0,0,0.5780365,1.9864887,0.07009908,-0.7948825,0.48179296,1.3989929,-0.91422963,-0.6930347,1.3912096,0.19010723,-0.30720398,-0.39815998,1.1893951,0.036752462
-0.2,0.0,0.6,0.5235987755982988,0.0,0,0.6011288,1.9843891,0.052879613,-0.8178834,0.47551465,1.4158921,-0.92118496,-0.7215026,1.403439,0.24896131,-0.29054362,-0.40709513,1.1829976,0.1250606
-0.2,0.0,0.6,0.5235987755982988,0.0,0,0.5859192,1.9798942,0.048414398,-0.78746825,0.48874703,1.3989208,-0.8880224,-0.70190305,1.3999534,0.19810694,-0.3074011,-0.40631032,1.1812484,0.18264453
-0.2,0.0,0.6,0.5235987755982988,0.0,0,0.5935276,1.9892503,0.04657645,-0.78919077,0.46315172,1.4137206,-0.97671187,-0.68775195,1.3917471,0.189762,-0.29990476,-0.38606805,1.17267,0.18454896
-0.2,0.0,0.6,0.5235987755982988,0.0,0,0.5860398,1.9779752,0.06463439,-0.8073568,0.48165452,1.4068466,-0.8995015,-0.6977841,1.3950423,0.20137052,-0.30373973,-0.38555294,1.1834841,0.17147672
-0.2,0.0,0.6,0.5235987755982988,0.0,0,0.5831332,1.980935,0.063155174,-0.7976268,0.5106021,1.3908668,-0.826421,-0.6671394,1.3917384,0.20084004,-0.2857232,-0.36907908,1.183945,0.096249826
-0.2,0.0,0.6,0.5235987755982988,0.0,0,0.5949417,1.9872102,0.062386163,-0.8050023,0.4699852,1.4040612,-0.86650133,-0.68505955,1.4061124,0.19469766,-0.306609,-0.38944152,1.1836052,0.090977915
-0.2,0.0,0.6,0.5235987755982988,0.0,0,0.5387896,1.9830521,0.049959067,-0.8097138,0.44913414,1.4239422,-0.88314915,-0.6928788,1.4000067,0.20512101,-0.29786015,-0.3696443,1.1742196,0.24709119
-0.2,0.0,0.6,0.5235987755982988,0.0,0,0.5690258,1.9754195,0.020376222,-0.8064714,0.47046778,1.3920535,-0.85964173,-0.70946467,1.3955092,0.20756124,-0.30055848,-0.395769,1.1726531,0.08378337
-0.2,0.0,0.6,0.5235987755982988,0.0,0,0.5848701,1.9823295,0.035048008,-0.81399834,0.46183676,1.4014589,-0.91394323,-0.7032371,1.4019865,0.2062659,-0.30146617,-0.38636887,1.1779381,0.14624292
-0.2,0.0,0.6,0.5235987755982988,0.0,0,0.56277674,1.9814991,0.03592527,-0.79080147,0.49514794,1.4028933,-0.84799534,-0.6897809,1.3986204,0.20164956,-0.29289,-0.40373373,1.164872,0.12041887
-0.2,0.0,0.6,0.5235987755982988,0.0,0,0.56388795,1.9850323,0.06258587,-0.81965894,0.509416,1.4051619,-0.92346513,-0.6881559,1.4026572,0.20164156,-0.30778483,-0.3872652,1.1866583,0.25048342
-0.2,0.0,0.6,0.5235987755982988,0.0,0,0.5802053,1.9801428,0.0662523,-0.8094617,0.46259087,1.4180338,-0.962704,-0.6665922,1.4009628,0.19450566,-0.29927418,-0.39723057,1.1824833,0.028310616
-0.2,0.0,0.6,0.5235987755982988,0.0,0,0.5948805,1.9838649,0.037404705,-0.7885143,0.4884861,1.406151,-0.92685974,-0.69618756,1.3925141,0.20073844,-0.31589133,-0.36817142,1.1858177,0.19604877
