sanky1234/BimanualDexCatch/isaacgymenvs/cem_results/football_pose_-0.2_-0.1_1.2999999999999998_0.0_0.0_0_2025-05-24.csv
x,y,z,roll,pitch,yaw,robot1/joint1,robot1/joint2,robot1/joint3,robot1/joint4,robot1/joint5,robot1/joint6,robot1/joint7,robot2/joint1,robot2/joint2,robot2/joint3,robot2/joint4,robot2/joint5,robot2/joint6,robot2/joint7
-0.2,-0.1,1.2999999999999998,0.0,0.0,0,-0.179023,0.2885183,0.98761904,0.45170763,0.5128652,0.53283703,0.11247227,-0.9859051,0.9683271,0.14666893,-0.115519464,-0.7310554,-1.3783536,-0.74223214
-0.2,-0.1,1.2999999999999998,0.0,0.0,0,-0.1765368,0.28593972,0.98975694,0.4500806,0.5065273,0.5319332,0.11992416,-0.98846525,0.8944308,-0.031973984,-0.059292197,-0.5710571,-1.3808951,-0.04162233
-0.2,-0.1,1.2999999999999998,0.0,0.0,0,-0.17935623,0.2902126,0.98981607,0.4512791,0.5060637,0.53181267,0.11936005,-0.9857276,0.9107677,-0.026061561,-0.04514643,0.6968198,-1.4600276,0.8201154
-0.2,-0.1,1.2999999999999998,0.0,0.0,0,-0.17866112,0.28961226,0.98612297,0.4505873,0.5110283,0.53440887,0.119546525,-0.98688555,0.9528355,0.16928178,-0.022251775,-1.7642986,-1.459215,1.2842358
-0.2,-0.1,1.2999999999999998,0.0,0.0,0,-0.1794145,0.28910175,0.98786604,0.45239446,0.5046756,0.5290033,0.12901016,-0.9876782,0.8676558,0.080040075,-0.065381475,1.8582875,-1.3414322,-1.2210897
-0.2,-0.1,1.2999999999999998,0.0,0.0,0,-0.17953993,0.2851045,0.98837197,0.45201248,0.5119522,0.5331238,0.11756837,-0.98772216,0.9822799,0.07314474,-0.107870206,0.9288418,-1.40817,0.7077832
-0.2,-0.1,1.2999999999999998,0.0,0.0,0,-0.1781726,0.29126948,0.98841953,0.4497229,0.51446104,0.5322725,0.11849047,-0.98562926,0.9005647,0.10629172,0.06589526,0.20102908,-1.4734861,-0.34382856
-0.2,-0.1,1.2999999999999998,0.0,0.0,0,-0.17781349,0.28744242,0.9865265,0.45031422,0.5069203,0.53495044,0.12620495,-0.9853297,0.9521235,0.17939351,-0.0639757,0.0079565495,-1.5362307,-0.25877184
-0.2,-0.1,1.2999999999999998,0.0,0.0,0,-0.17787218,0.29085442,0.98840326,0.45060277,0.5136671,0.5321536,0.11221193,-0.9888108,0.85613364,-0.00413165,-0.05383669,-0.100893416,-1.4673563,0.37469596
-0.2,-0.1,1.2999999999999998,0.0,0.0,0,-0.1800768,0.28911385,0.98809296,0.45197818,0.5121008,0.53196406,0.12084615,-0.9865091,0.9434189,0.055894885,-0.062335417,1.5770628,-1.4047818,-0.71109855
-0.2,-0.1,1.2999999999999998,0.0,0.0,0,-0.17856243,0.29618853,0.988745,0.45045146,0.5083639,0.53405404,0.12276065,-0.9889761,0.92312664,0.15765165,-0.052886184,-0.30240494,-1.394874,0.17589496
-0.2,-0.1,1.2999999999999998,0.0,0.0,0,-0.17987846,0.29141963,0.9925652,0.44897464,0.50618684,0.5312585,0.12839407,-0.9904015,0.9468079,-0.088099696,-0.04710407,1.4678524,-1.3963313,0.5915686
-0.2,-0.1,1.2999999999999998,0.0,0.0,0,-0.18128397,0.29110736,0.98943347,0.45158342,0.50656575,0.5338975,0.12191051,-0.98639834,0.96763074,0.030169765,-0.08934204,-0.34546515,-1.4154685,-0.41952848
-0.2,-0.1,1.2999999999999998,0.0,0.0,0,-0.17989856,0.28913942,0.9886589,0.44948244,0.50820476,0.53492844,0.12304121,-0.98728,0.96015036,-0.004333296,-0.062455487,2.0259476,-1.3810532,-0.13469082
-0.2,-0.1,1.2999999999999998,0.0,0.0,0,-0.18018627,0.2969165,0.98937744,0.45223457,0.50877947,0.53178823,0.122027926,-0.9875559,1.0000943,0.12113424,-0.028058419,1.8650469,-1.4860953,-1.369223
-0.2,-0.1,1.2999999999999998,0.0,0.0,0,-0.18081385,0.2920187,0.9898792,0.45223162,0.51125836,0.53276056,0.11208681,-0.9853712,0.91525745,0.07358127,-0.07514698,0.3212617,-1.4697968,-1.4051852
-0.2,-0.1,1.2999999999999998,0.0,0.0,0,-0.1805391,0.29408866,0.9875073,0.4514944,0.5150565,0.5322805,0.12125505,-0.9890851,0.92360175,0.15989062,-0.043689273,0.035134926,-1.4347835,0.5389872
-0.2,-0.1,1.2999999999999998,0.0,0.0,0,-0.1808503,0.2913576,0.9881296,0.45210585,0.5188391,0.532274,0.1151449,-0.9883666,0.9051618,-0.08180445,-0.022396492,-0.16462152,-1.446417,-1.3956989
-0.2,-0.1,1.2999999999999998,0.0,0.0,0,-0.17766838,0.2859734,0.988741,0.45103347,0.51009995,0.53306377,0.11278254,-0.9852936,1.0180032,-0.07228427,-0.06713298,0.8863592,-1.4112519,0.5230487
-0.2,-0.1,1.2999999999999998,0.0,0.0,0,-0.1790202,0.29719377,0.98865545,0.44995922,0.5164411,0.5342128,0.11895348,-0.9858719,0.94382465,-0.043448433,-0.022974372,1.179258,-1.5004559,-1.1557109
-0.2,-0.1,1.2999999999999998,0.0,0.0,0,-0.18136281,0.2954525,0.9874386,0.45083797,0.5136175,0.53300154,0.121501274,-0.9913891,0.92216516,0.049813583,0.023642365,1.6515714,-1.5093235,-0.9591098
-0.2,-0.1,1.2999999999999998,0.0,0.0,0,-0.17867786,0.29630253,0.98755085,0.4511066,0.5106168,0.5347614,0.11660669,-0.9871114,0.9788584,0.05849904,0.00502526,1.3002468,-1.4600089,-0.37454313
-0.2,-0.1,1.2999999999999998,0.0,0.0,0,-0.1791126,0.28285328,0.98869044,0.45017686,0.5127539,0.5343043,0.12256443,-0.9907145,0.9628963,0.05347066,-0.08937227,-0.32827142,-1.4719174,-0.28190514
-0.2,-0.1,1.2999999999999998,0.0,0.0,0,-0.17791334,0.2865261,0.9859044,0.4509652,0.5093243,0.53592616,0.11739055,-0.98755294,0.9445752,0.13492167,0.007343477,-0.9376726,-1.5104027,-1.4935163
-0.2,-0.1,1.2999999999999998,0.0,0.0,0,-0.18120137,0.28636202,0.9903247,0.45154977,0.51044667,0.53282195,0.11662409,-0.9843167,0.87161386,-0.01857726,-0.04429223,0.19052057,-1.459484,-1.0854254
-0.2,-0.1,1.2999999999999998,0.0,0.0,0,-0.18136403,0.2910319,0.9899621,0.45004582,0.5085645,0.5372603,0.115249164,-0.9842921,0.9589757,-0.03236149,0.0061389734,-0.35402918,-1.3540887,0.2043748
-0.2,-0.1,1.2999999999999998,0.0,0.0,0,-0.18132944,0.29569814,0.99201435,0.45016116,0.5205782,0.5298178,0.118850686,-0.9880724,0.9346693,-0.21944547,-0.005852677,0.35721397,-1.5067539,0.59066635
-0.2,-0.1,1.2999999999999998,0.0,0.0,0,-0.17974134,0.28781453,0.98686016,0.45293573,0.5106304,0.5329881,0.12234954,-0.98778635,1.0250698,-0.021033188,-0.011887164,1.2977887,-1.3496166,-0.8487098
-0.2,-0.1,1.2999999999999998,0.0,0.0,0,-0.17967343,0.29201797,0.98810273,0.45173886,0.5185016,0.5306371,0.11461707,-0.9888593,0.8988767,-0.027720999,-0.03559533,1.4754136,-1.4720917,0.4227356
-0.2,-0.1,1.2999999999999998,0.0,0.0,0,-0.17850044,0.29023764,0.98899347,0.45099023,0.5089057,0.5338462,0.11556258,-0.9850763,0.88599664,-0.033489794,-0.0753773,1.0367508,-1.3823098,-0.3521722
-0.2,-0.1,1.2999999999999998,0.0,0.0,0,-0.17945401,0.29528674,0.98968995,0.45052332,0.51025355,0.5352754,0.113214575,-0.9865583,0.8752428,0.049674254,-0.016741065,1.4236758,-1.5199187,-0.69958824
-0.2,-0.1,1.2999999999999998,0.0,0.0,0,-0.18019864,0.28473124,0.9895085,0.4515961,0.51901245,0.5307343,0.12452864,-0.98735493,0.95524853,0.054984517,-0.038324747,-0.37856302,-1.4410584,-0.49888396
-0.2,-0.1,1.2999999999999998,0.0,0.0,0,-0.17922203,0.29192832,0.98704195,0.45291063,0.5048243,0.5306317,0.12692489,-0.9855183,0.9613991,0.042345267,-0.012823011,-0.49210724,-1.4883252,0.2897235
-0.2,-0.1,1.2999999999999998,0.0,0.0,0,-0.18100928,0.28816685,0.9881049,0.45200798,0.5124179,0.53420407,0.117663555,-0.98972136,0.9636372,0.019631375,-0.07937781,-0.07971009,-1.4870318,-0.6600201
-0.2,-0.1,1.2999999999999998,0.0,0.0,0,-0.17919968,0.28142917,0.9888533,0.4511398,0.51152235,0.53220016,0.123403095,-0.98708665,0.9297627,0.12570803,0.02265727,0.5664063,-1.4404156,-1.1378427
-0.2,-0.1,1.2999999999999998,0.0,0.0,0,-0.17803572,0.28520608,0.9871505,0.45253482,0.5142926,0.53300416,0.10922557,-0.99052054,0.9521335,0.017808896,-0.009014348,1.6421794,-1.4432492,-0.14797497
-0.2,-0.1,1.2999999999999998,0.0,0.0,0,-0.17930259,0.29139286,0.9876385,0.452211,0.5096348,0.53147715,0.12038826,-0.9891026,0.8924337,0.18306297,-0.03973507,1.5303991,-1.5338296,-0.32863063
-0.2,-0.1,1.2999999999999998,0.0,0.0,0,-0.17872337,0.2901634,0.9865159,0.4512357,0.5128145,0.5316499,0.12476664,-0.987012,0.8627537,0.027401645,-0.09673138,0.6180956,-1.47694,0.37375557
-0.2,-0.1,1.2999999999999998,0.0,0.0,0,-0.17902532,0.28740624,0.98681426,0.45232323,0.5095329,0.5316372,0.12486016,-0.98596644,0.9015577,-0.071812496,-0.09943611,2.0661488,-1.4891976,-0.32408708
-0.2,-0.1,1.2999999999999998,0.0,0.0,0,-0.18003894,0.28787264,0.98849475,0.4513778,0.5093293,0.53424263,0.123949766,-0.98828435,0.9567804,0.06730263,-0.03928852,-1.0515152,-1.3644273,0.07449332
-0.2,-0.1,1.2999999999999998,0.0,0.0,0,-0.17927405,0.28889757,0.9904645,0.45114776,0.5041222,0.53277624,0.12220176,-0.98736537,0.9443289,0.0862927,-0.1342008,-0.42629975,-1.4869068,-0.52626514
-0.2,-0.1,1.2999999999999998,0.0,0.0,0,-0.18155277,0.28867683,0.9887444,0.45068094,0.5179476,0.534574,0.11352567,-0.9913833,0.92880845,0.038821615,-0.018861117,2.2488453,-1.515684,-0.44555345
-0.2,-0.1,1.2999999999999998,0.0,0.0,0,-0.1799793,0.29360026,0.98713326,0.45208645,0.5103458,0.53233147,0.12108263,-0.98889405,0.8905788,0.039997246,-0.05538518,1.82549,-1.5572386,-0.8273595
-0.2,-0.1,1.2999999999999998,0.0,0.0,0,-0.17788404,0.29577926,0.9863789,0.45157686,0.50616246,0.53032184,0.12646255,-0.9907467,0.9229201,0.17856883,-0.024480648,0.25986505,-1.4975325,-1.359058
-0.2,-0.1,1.2999999999999998,0.0,0.0,0,-0.17885125,0.29590484,0.9891609,0.4498982,0.5091534,0.5348856,0.11853894,-0.9889657,0.9454843,0.06483265,-0.06788332,1.0516073,-1.3539778,0.08919902
-0.2,-0.1,1.2999999999999998,0.0,0.0,0,-0.17789268,0.28952146,0.9845225,0.4518837,0.50757664,0.5330767,0.12374444,-0.9866048,0.98810583,0.13690352,-0.002813317,2.0419416,-1.4221352,-0.21858537
-0.2,-0.1,1.2999999999999998,0.0,0.0,0,-0.17951843,0.28940535,0.9892635,0.44953012,0.51660943,0.5355163,0.1165118,-0.98750055,0.92425877,0.15562887,0.018001935,0.19446954,-1.5351695,-0.8469358
-0.2,-0.1,1.2999999999999998,0.0,0.0,0,-0.18017405,0.2919686,0.9865671,0.45274672,0.50601923,0.53300196,0.12224696,-0.9886548,0.8311968,-0.04896687,-0.03359706,1.3103007,-1.4291224,-0.2454711
-0.2,-0.1,1.2999999999999998,0.0,0.0,0,-0.17932788,0.29905713,0.99054134,0.45043322,0.5083327,0.53234553,0.121018566,-0.98895824,0.9693995,0.051374853,0.018757612,0.18326803,-1.4050454,0.43358913
-0.2,-0.1,1.2999999999999998,0.0,0.0,0,-0.17790836,0.29001364,0.9908229,0.4505052,0.5092908,0.53136134,0.118080795,-0.98634964,0.90461147,0.09347861,-0.01652609,0.7250972,-1.4146348,-0.07481328
-0.2,-0.1,1.2999999999999998,0.0,0.0,0,-0.17936365,0.2955527,0.98684955,0.45077026,0.50949234,0.5353735,0.116909996,-0.9906096,0.956536,-0.0074184574,-0.10672452,1.8509142,-1.5306937,-0.5373196
-0.2,-0.1,1.2999999999999998,0.0,0.0,0,-0.17772005,0.29404742,0.9894475,0.45042083,0.5082805,0.5327979,0.119282484,-0.9885136,0.8872367,0.031319503,-0.036732934,0.614617,-1.3907851,-0.43861374
-0.2,-0.1,1.2999999999999998,0.0,0.0,0,-0.17945728,0.295643,0.9869571,0.45163032,0.514173,0.5319346,0.121535845,-0.9882611,0.929927,0.07267026,-0.055413447,1.3674103,-1.4353994,0.24173684
-0.2,-0.1,1.2999999999999998,0.0,0.0,0,-0.17854312,0.28658682,0.9837973,0.45282185,0.51434505,0.5339814,0.12000113,-0.9857787,0.84839314,0.07493192,-0.0036564572,1.203284,-1.4642495,-0.37233248
-0.2,-0.1,1.2999999999999998,0.0,0.0,0,-0.18039107,0.2876065,0.9871052,0.45051676,0.51697105,0.53071237,0.12283442,-0.9810877,0.8919938,0.008315252,-0.057698976,1.2360891,-1.4260744,-0.48961
-0.2,-0.1,1.2999999999999998,0.0,0.0,0,-0.17785168,0.2937473,0.9886194,0.45026493,0.509537,0.5314677,0.13000627,-0.9886482,0.97894466,0.11337719,-0.05459072,0.45459604,-1.4604629,-1.6002636
-0.2,-0.1,1.2999999999999998,0.0,0.0,0,-0.17981008,0.2956921,0.9895315,0.45106852,0.5158713,0.5309254,0.11662013,-0.9865747,0.92291385,0.12508884,0.00824433,0.37340665,-1.4348154,-0.1784218
-0.2,-0.1,1.2999999999999998,0.0,0.0,0,-0.17602684,0.28947973,0.9887758,0.44968513,0.5164644,0.5307015,0.12132338,-0.98329866,0.89605623,-0.020861672,-0.093005165,0.93882495,-1.4782484,-0.4445915
-0.2,-0.1,1.2999999999999998,0.0,0.0,0,-0.18231295,0.28845003,0.9848362,0.4493058,0.51310575,0.5321524,0.1179857,-0.9872873,0.9849202,0.084113814,0.07813822,-0.22996837,-1.4929839,0.03475486
-0.2,-0.1,1.2999999999999998,0.0,0.0,0,-0.17963724,0.28654006,0.98629546,0.4485168,0.5082718,0.5331703,0.11677455,-0.9895866,0.8902529,0.18698621,0.027004771,-0.7614084,-1.4675834,-0.4268624
-0.2,-0.1,1.2999999999999998,0.0,0.0,0,-0.17986585,0.2920575,0.9863137,0.4477294,0.5129867,0.5325958,0.10928114,-0.99039507,1.0115317,0.081635304,0.067433245,0.62768936,-1.4457734,0.18873401
-0.2,-0.1,1.2999999999999998,0.0,0.0,0,-0.1797823,0.2841604,0.9869339,0.44985986,0.51077527,0.53159505,0.11633177,-0.98930603,0.8392563,0.06412755,-0.0061083823,0.9507906,-1.3890691,-1.1906683
-0.2,-0.1,1.2999999999999998,0.0,0.0,0,-0.18029058,0.28584978,0.9855186,0.4494052,0.5052784,0.53108525,0.12665659,-0.98833585,0.95786095,0.07674844,0.013363606,0.9074911,-1.4162785,0.47111854
-0.2,-0.1,1.2999999999999998,0.0,0.0,0,-0.1805817,0.29060307,0.98634773,0.44941038,0.5180773,0.53240925,0.109403715,-0.9902918,0.953814,0.13939916,0.08062035,0.4304083,-1.4099476,0.26029798
-0.2,-0.1,1.2999999999999998,0.0,0.0,0,-0.17980298,0.28506318,0.9864556,0.45066908,0.51162606,0.52934444,0.12492943,-0.98745424,0.9054992,0.0042547295,-0.037519664,0.17378396,-1.4099348,0.110026784
-0.2,-0.1,1.2999999999999998,0.0,0.0,0,-0.18020858,0.2837948,0.98386276,0.4492381,0.5149301,0.5339608,0.11797458,-0.99053985,0.97533494,0.089415975,-0.022480851,0.8088711,-1.4517419,-0.051976953
-0.2,-0.1,1.2999999999999998,0.0,0.0,0,-0.17899786,0.281855,0.98607767,0.45068568,0.50555694,0.5322031,0.124311134,-0.9872786,0.9013005,-0.04817848,-0.10469181,-0.1500013,-1.4296613,-0.78957564
-0.2,-0.1,1.2999999999999998,0.0,0.0,0,-0.17894714,0.28643888,0.9863471,0.44968942,0.51122624,0.53412664,0.10737306,-0.98996,0.9011434,0.14517534,-0.05930982,2.2318227,-1.5700413,-0.9494707
-0.2,-0.1,1.2999999999999998,0.0,0.0,0,-0.18167996,0.2907474,0.9866426,0.4498264,0.50578755,0.5354162,0.11015633,-0.98745966,0.9683084,0.17838001,-0.015628075,0.06367483,-1.3963279,-0.02676137
-0.2,-0.1,1.2999999999999998,0.0,0.0,0,-0.17819215,0.2819013,0.98722243,0.4500269,0.5057797,0.5335617,0.121385194,-0.9857786,0.887886,0.016111674,0.021064699,0.17951663,-1.404033,0.022309065
-0.2,-0.1,1.2999999999999998,0.0,0.0,0,-0.1793431,0.29241544,0.9861032,0.4506841,0.5056165,0.5329817,0.11284644,-0.9845654,0.9067854,-0.031925537,-0.008500435,-0.16915627,-1.406102,0.48045588
-0.2,-0.1,1.2999999999999998,0.0,0.0,0,-0.17921855,0.28305322,0.9874484,0.4498685,0.50355935,0.53484154,0.12620541,-0.98758477,0.872185,0.13125852,0.030904496,0.4216381,-1.4279778,-0.67740357
-0.2,-0.1,1.2999999999999998,0.0,0.0,0,-0.1795657,0.28559476,0.9868037,0.44948807,0.50581217,0.53383213,0.1150236,-0.9865895,0.9725461,0.05998172,-0.027361779,0.50157946,-1.3449451,-1.4560146
-0.2,-0.1,1.2999999999999998,0.0,0.0,0,-0.17998394,0.28801444,0.9908556,0.4481465,0.5108319,0.5310756,0.116695136,-0.9924942,0.94884884,0.17440778,-0.09431495,-1.0789311,-1.4492831,-0.25270548
-0.2,-0.1,1.2999999999999998,0.0,0.0,0,-0.17938502,0.2897539,0.98832154,0.4510904,0.50019544,0.5315183,0.11198249,-0.98017544,0.9579433,0.049711995,-0.05206481,-0.6241996,-1.474185,-1.1377335
-0.2,-0.1,1.2999999999999998,0.0,0.0,0,-0.18176234,0.2914255,0.98565483,0.45162797,0.50700533,0.5317793,0.114220396,-0.98522097,0.96211594,0.022483647,-0.09969804,0.34763548,-1.3161263,0.039305996
-0.2,-0.1,1.2999999999999998,0.0,0.0,0,-0.18181808,0.2946605,0.98891556,0.4492496,0.50688285,0.5292128,0.13319574,-0.98862666,0.91218793,0.28752175,-0.06337154,0.6890858,-1.4906397,-0.3259187
-0.2,-0.1,1.2999999999999998,0.0,0.0,0,-0.18095528,0.2905417,0.98708725,0.452508,0.50712925,0.5294357,0.12122999,-0.9933616,0.97224504,0.23790549,0.05451961,1.748871,-1.4855422,-1.2564911
-0.2,-0.1,1.2999999999999998,0.0,0.0,0,-0.1798677,0.2849836,0.9868986,0.45081276,0.5095335,0.5338124,0.122739926,-0.99383146,0.94305193,0.12921728,0.046559256,0.18993925,-1.4649111,-0.2410623
-0.2,-0.1,1.2999999999999998,0.0,0.0,0,-0.18080479,0.2855107,0.9887251,0.45097095,0.5134993,0.53002584,0.121177815,-0.98700273,0.9180981,-0.19089077,-0.045890737,0.20543689,-1.3650315,-0.10162807
-0.2,-0.1,1.2999999999999998,0.0,0.0,0,-0.18152672,0.28633103,0.98758984,0.4507183,0.5023828,0.5324712,0.11540987,-0.9879402,0.9695917,0.09265867,-0.0649331,1.4586508,-1.3119755,-0.103183635
-0.2,-0.1,1.2999999999999998,0.0,0.0,0,-0.17928427,0.29096776,0.98594046,0.45223922,0.509866,0.53123355,0.11107581,-0.9862256,0.9565436,0.21924599,0.045920104,0.91460717,-1.4154447,0.09068455
-0.2,-0.1,1.2999999999999998,0.0,0.0,0,-0.17935961,0.28499854,0.9874362,0.4519194,0.5005445,0.53134483,0.10929813,-0.9936689,0.8840535,-0.014621647,0.0002737257,1.0213383,-1.4547592,-0.9107428
-0.2,-0.1,1.2999999999999998,0.0,0.0,0,-0.18041028,0.2828398,0.9886739,0.45135778,0.50854355,0.534833,0.11552288,-0.9915009,0.9435791,-0.15951629,0.041826777,1.5199494,-1.3346354,0.2681622
-0.2,-0.1,1.2999999999999998,0.0,0.0,0,-0.18028308,0.2854805,0.9873613,0.45004815,0.5151035,0.5296295,0.1231258,-0.9893971,0.9550167,0.0989108,-0.09232941,0.80710226,-1.4336957,-0.12416083
-0.2,-0.1,1.2999999999999998,0.0,0.0,0,-0.18015955,0.28191105,0.9875271,0.45038623,0.51733524,0.53351456,0.11836128,-0.99197656,0.88268626,0.10846304,0.08742457,1.2419682,-1.3338679,-0.07125106
-0.2,-0.1,1.2999999999999998,0.0,0.0,0,-0.17874783,0.28262353,0.98920995,0.4509723,0.5017506,0.5325825,0.12043191,-0.9899999,0.8680374,0.092046134,0.044395663,1.8168867,-1.4965429,0.5273265
-0.2,-0.1,1.2999999999999998,0.0,0.0,0,-0.18034102,0.29263455,0.98986816,0.448873,0.50346446,0.5317719,0.12290778,-0.9918524,0.88630754,-0.0689152,-0.045691602,-0.02936371,-1.4585708,0.010843127
-0.2,-0.1,1.2999999999999998,0.0,0.0,0,-0.17935596,0.29300487,0.99029356,0.44997337,0.51192784,0.5303426,0.11442262,-0.98631763,0.95396537,0.115520746,-0.072596185,0.12775078,-1.4491298,-1.6268874
-0.2,-0.1,1.2999999999999998,0.0,0.0,0,-0.17804061,0.2829255,0.98753756,0.45020157,0.51263,0.53106064,0.11270655,-0.9817388,0.9140524,0.0453951,-0.044338223,1.620802,-1.4559646,0.19498967
-0.2,-0.1,1.2999999999999998,0.0,0.0,0,-0.1771882,0.28688478,0.98635364,0.45082548,0.50974673,0.53171164,0.118124336,-0.98741555,0.91455036,0.068500645,-0.015415075,-0.29348943,-1.4702982,-0.8037027
-0.2,-0.1,1.2999999999999998,0.0,0.0,0,-0.18370274,0.29452386,0.98868567,0.45145315,0.50929916,0.53376925,0.12695321,-0.9864756,0.8405633,0.028356988,-0.05606324,1.7260478,-1.4560817,0.26897344
-0.2,-0.1,1.2999999999999998,0.0,0.0,0,-0.179176,0.28717875,0.9862001,0.45158276,0.5105687,0.5317781,0.124583855,-0.9874556,0.94892216,0.1132042,-0.017744357,0.14246842,-1.3623145,-0.40032905
-0.2,-0.1,1.2999999999999998,0.0,0.0,0,-0.18065003,0.29601243,0.9839408,0.45102206,0.511291,0.5361836,0.12872517,-0.9887246,0.92208636,-0.0030827972,0.014887235,-0.015773052,-1.3863591,0.3887503
-0.2,-0.1,1.2999999999999998,0.0,0.0,0,-0.17936707,0.28578553,0.98965406,0.45133618,0.5066203,0.5308984,0.11860159,-0.98648715,0.8939308,0.13157709,-0.025559451,0.22873503,-1.4925135,-0.62230104
-0.2,-0.1,1.2999999999999998,0.0,0.0,0,-0.17879872,0.28420782,0.98829025,0.450057,0.50779134,0.5326484,0.1200177,-0.98517555,0.9450804,0.026506955,-0.10133797,0.5892556,-1.5569651,-0.020502223
-0.2,-0.1,1.2999999999999998,0.0,0.0,0,-0.18013594,0.28824583,0.9866272,0.45070794,0.5118355,0.5320541,0.12691528,-0.9881337,0.9841173,-0.007230267,-0.06884763,1.0880705,-1.4859827,-0.24533598
-0.2,-0.1,1.2999999999999998,0.0,0.0,0,-0.1811166,0.28598112,0.9868059,0.45135605,0.5069473,0.52958006,0.13749501,-0.988204,1.0114194,0.0045784325,-0.011217907,1.1208993,-1.4678757,0.30551285
-0.2,-0.1,1.2999999999999998,0.0,0.0,0,-0.17976008,0.286898,0.98871547,0.45154366,0.5133554,0.5299047,0.12118874,-0.98348594,0.9113253,0.084852226,-0.04407159,2.1083462,-1.3955778,-0.78398246
-0.2,-0.1,1.2999999999999998,0.0,0.0,0,-0.18236649,0.28136855,0.9866702,0.4516299,0.50866216,0.53463316,0.11585429,-0.98417586,0.89371246,0.026979094,-0.020050509,0.31736264,-1.4433331,0.6809087
-0.2,-0.1,1.2999999999999998,0.0,0.0,0,-0.18037575,0.2919832,0.9875905,0.45015576,0.50952387,0.530967,0.12513907,-0.9946068,0.98808765,0.30288178,-0.076724514,-1.3998976,-1.4522157,-0.9821849
-0.2,-0.1,1.2999999999999998,0.0,0.0,0,-0.1807897,0.29212117,0.9841366,0.45186377,0.5112273,0.5335905,0.11676178,-0.99383485,0.9394748,0.076761715,-0.025617683,-0.29151964,-1.409631,-0.26549095
-0.2,-0.1,1.2999999999999998,0.0,0.0,0,-0.1785948,0.28139555,0.9902663,0.45111522,0.50564605,0.5311918,0.118389145,-0.99301046,0.861861,0.012275724,-0.09841572,0.8176327,-1.4520402,-0.11070326
-0.2,-0.1,1.2999999999999998,0.0,0.0,0,-0.17801566,0.2948367,0.98384345,0.45058924,0.5067584,0.53381425,0.124724865,-0.9895194,0.91316193,0.19791308,0.021360928,0.604989,-1.3807669,-1.427848
-0.2,-0.1,1.2999999999999998,0.0,0.0,0,-0.17826748,0.2904461,0.9893308,0.45098507,0.510863,0.53099924,0.108626306,-0.98534817,0.8619619,-0.06137888,-0.09884597,1.1315424,-1.4467416,-0.31147376
-0.2,-0.1,1.2999999999999998,0.0,0.0,0,-0.18054485,0.2855389,0.98648435,0.4537653,0.5131319,0.5330005,0.118285626,-0.9900506,0.95889837,0.021991303,-0.014754232,0.5668236,-1.4068662,-0.75893676
-0.2,-0.1,1.2999999999999998,0.0,0.0,0,-0.17994301,0.29786536,0.98994356,0.44966763,0.50406957,0.53562975,0.11740481,-0.98413044,0.94793844,0.15083343,-0.05671506,1.0768619,-1.4136379,-0.5773951
-0.2,-0.1,1.2999999999999998,0.0,0.0,0,-0.18077676,0.27785906,0.9908806,0.45206597,0.5046285,0.53214794,0.1236006,-0.9863271,1.032564,-0.037435506,-0.059739534,0.5019317,-1.372504,0.32332316
-0.2,-0.1,1.2999999999999998,0.0,0.0,0,-0.18098225,0.2990692,0.98963916,0.4500504,0.5066233,0.53280854,0.13025141,-0.98305416,0.9781637,0.20652989,0.036128514,0.82952553,-1.374211,-0.26738676
-0.2,-0.1,1.2999999999999998,0.0,0.0,0,-0.17818871,0.2851577,0.98753095,0.45046794,0.5131927,0.5295473,0.12921076,-0.99012464,0.9120298,0.07258653,0.029620605,1.6796008,-1.4635605,-0.039951157
-0.2,-0.1,1.2999999999999998,0.0,0.0,0,-0.1768527,0.2954092,0.9878098,0.44912845,0.5081499,0.53194296,0.12112532,-0.9877933,0.90180564,0.08236334,-0.019565422,-0.7142345,-1.4924833,-0.4068201
-0.2,-0.1,1.2999999999999998,0.0,0.0,0,-0.18174368,0.29312274,0.9876487,0.44934505,0.50770956,0.53258955,0.11893744,-0.98725975,0.9108053,0.16902584,-0.03068051,0.8020176,-1.4606799,0.31969514
-0.2,-0.1,1.2999999999999998,0.0,0.0,0,-0.1792338,0.2925812,0.98616207,0.45092103,0.5137617,0.532657,0.122480676,-0.99293196,0.9518396,0.037436422,-0.04674763,-0.45134833,-1.4115158,0.16415435
-0.2,-0.1,1.2999999999999998,0.0,0.0,0,-0.17982976,0.29127523,0.9888039,0.45049062,0.50724566,0.5325071,0.12344258,-0.98883265,0.9720779,0.122012,-0.047298044,1.6364671,-1.3259958,0.47242993
-0.2,-0.1,1.2999999999999998,0.0,0.0,0,-0.18085323,0.28654373,0.988211,0.45181036,0.5129314,0.5337897,0.11225671,-0.9883559,0.99173653,-0.0027099592,0.01954671,0.1260714,-1.4783611,0.27383965
-0.2,-0.1,1.2999999999999998,0.0,0.0,0,-0.18169084,0.29643035,0.98794955,0.4494015,0.51124614,0.53260344,0.11263913,-0.99214125,0.9047287,0.04746933,-0.11213749,-0.23779412,-1.4827373,-0.23694229
-0.2,-0.1,1.2999999999999998,0.0,0.0,0,-0.17685452,0.2817271,0.98873633,0.45099634,0.5133294,0.5338626,0.118087545,-0.9878139,0.8936568,0.048640106,0.045538902,0.22374701,-1.4533443,-1.122099
-0.2,-0.1,1.2999999999999998,0.0,0.0,0,-0.17749433,0.29524058,0.98744375,0.452179,0.50499964,0.5314429,0.124222085,-0.98832166,0.9427589,0.08004694,0.022367354,1.0652187,-1.3569934,-0.33726853
-0.2,-0.1,1.2999999999999998,0.0,0.0,0,-0.17748062,0.28809467,0.98946357,0.44987813,0.51440585,0.531193,0.11847747,-0.9890247,0.95016986,-0.024765609,-0.09289849,-0.5894194,-1.4391301,0.7057909
-0.2,-0.1,1.2999999999999998,0.0,0.0,0,-0.17990364,0.2949194,0.9872047,0.45170602,0.5113777,0.53459424,0.10787429,-0.9866344,0.99152577,0.07929795,0.031825673,0.72054255,-1.403037,-0.28707835
-0.2,-0.1,1.2999999999999998,0.0,0.0,0,-0.17918682,0.2926437,0.98884344,0.44996926,0.5101404,0.5359139,0.11695348,-0.9937954,0.9405119,0.06851572,-0.04182812,1.1998554,-1.4921342,-0.7440229
-0.2,-0.1,1.2999999999999998,0.0,0.0,0,-0.17956169,0.28535545,0.9890375,0.45166093,0.50086135,0.5343119,0.11183827,-0.98934627,0.92139363,0.13846737,-0.05780065,0.3926714,-1.4040169,-0.85829103
-0.2,-0.1,1.2999999999999998,0.0,0.0,0,-0.17932878,0.28747237,0.9890452,0.45194623,0.50630844,0.5343625,0.119218916,-0.9858965,0.9490498,0.18033046,-0.028530957,0.53552955,-1.4534311,0.2677816
-0.2,-0.1,1.2999999999999998,0.0,0.0,0,-0.17902398,0.28935432,0.9905745,0.4489808,0.5112944,0.5311526,0.1299073,-0.9896922,0.97879905,0.050804727,0.008331393,0.2682377,-1.4898391,0.13053757
-0.2,-0.1,1.2999999999999998,0.0,0.0,0,-0.17981522,0.28858128,0.9885126,0.45038432,0.50364596,0.5348901,0.12549555,-0.99054044,0.95056045,-0.008992576,0.02006505,0.031106085,-1.4716982,-0.35634586
-0.2,-0.1,1.2999999999999998,0.0,0.0,0,-0.17705303,0.28248286,0.9855446,0.45323944,0.51052266,0.53021467,0.120409094,-0.990632,1.0145289,0.041855294,0.016484378,1.023932,-1.4903836,0.29051903
-0.2,-0.1,1.2999999999999998,0.0,0.0,0,-0.17940177,0.27688015,0.9868756,0.4519036,0.51072294,0.533756,0.12145104,-0.9898433,0.8604769,0.15939176,-0.0651881,0.7993704,-1.5038763,-0.8396661
-0.2,-0.1,1.2999999999999998,0.0,0.0,0,-0.1784432,0.28402662,0.9869467,0.4510072,0.5112227,0.5290952,0.13201676,-0.9895206,0.965406,0.013055235,-0.07404794,0.52081966,-1.5097402,-0.4251444
-0.2,-0.1,1.2999999999999998,0.0,0.0,0,-0.180135,0.29387555,0.98682827,0.451876,0.51644236,0.53287256,0.122367725,-0.98803914,0.8987545,-0.0001092001,-0.046537146,0.07795788,-1.3945677,-0.24351183
-0.2,-0.1,1.2999999999999998,0.0,0.0,0,-0.17833796,0.28733915,0.9898641,0.45089585,0.5088232,0.5316657,0.12077562,-0.9893543,0.83945715,0.055469055,-0.06523121,-0.46673968,-1.5495225,-0.8111515
-0.2,-0.1,1.2999999999999998,0.0,0.0,0,-0.17971224,0.29165038,0.9858669,0.45062697,0.5138717,0.5304364,0.12034535,-0.98551285,0.9219218,0.023842843,-0.0465755,-0.9301367,-1.4740367,0.56070274
-0.2,-0.1,1.2999999999999998,0.0,0.0,0,-0.17845957,0.28781193,0.9890573,0.4518816,0.5135961,0.5320935,0.121913806,-0.98849684,0.899751,0.04962765,0.032654036,0.8922607,-1.3541393,-1.2680078
-0.2,-0.1,1.2999999999999998,0.0,0.0,0,-0.17846234,0.29143637,0.9848836,0.45157573,0.513285,0.53265524,0.1251618,-0.99205816,1.0053008,0.30176726,-0.0467473,1.0770235,-1.4307933,-0.09958418
-0.2,-0.1,1.2999999999999998,0.0,0.0,0,-0.1779338,0.28991458,0.986644,0.45224732,0.5122004,0.5308009,0.11904823,-0.98775214,0.93732035,0.051329404,-0.02495536,0.84722954,-1.4709103,-0.89192635
-0.2,-0.1,1.2999999999999998,0.0,0.0,0,-0.180688,0.29458615,0.9885366,0.44937342,0.50783366,0.5323731,0.1244482,-0.98768973,0.9702857,-0.11853884,-0.0747822,0.9537349,-1.4250405,0.29800016
-0.2,-0.1,1.2999999999999998,0.0,0.0,0,-0.1780335,0.29142845,0.98828936,0.45035723,0.5036744,0.53278023,0.11989991,-0.989634,0.9836776,0.11448241,-0.021156175,-0.5685626,-1.4819815,-0.79625213
-0.2,-0.1,1.2999999999999998,0.0,0.0,0,-0.17916961,0.28943714,0.9890919,0.4516678,0.5099538,0.5307119,0.13072278,-0.98867387,1.0088568,0.0026199487,-0.06469665,0.91135174,-1.4045918,-0.0676723
-0.2,-0.1,1.2999999999999998,0.0,0.0,0,-0.17968181,0.28368643,0.98778516,0.4513587,0.51264584,0.53557426,0.11749908,-0.9856158,0.99852043,0.08771386,-0.017829532,2.208064,-1.5199258,-0.98654217
-0.2,-0.1,1.2999999999999998,0.0,0.0,0,-0.18273768,0.29687423,0.98701817,0.44950753,0.50746346,0.53047425,0.1139417,-0.9945452,0.94099444,-0.054902367,-0.023262078,1.185651,-1.4820347,-0.7642365
-0.2,-0.1,1.2999999999999998,0.0,0.0,0,-0.1803595,0.28588098,0.9882158,0.45117363,0.5072766,0.53373677,0.12195893,-0.9830221,0.9830002,0.09701879,-0.035067834,0.5500793,-1.4533228,-0.12909643
-0.2,-0.1,1.2999999999999998,0.0,0.0,0,-0.17879272,0.2823129,0.9878795,0.45122567,0.5064755,0.5359641,0.12664376,-0.9919609,0.9295405,0.095736556,-0.06914896,1.1855376,-1.416445,-1.1268765
-0.2,-0.1,1.2999999999999998,0.0,0.0,0,-0.17996828,0.29170313,0.98765516,0.45275632,0.5057806,0.53001755,0.12521161,-0.9822807,0.99885714,0.06863443,-0.06802728,0.26050547,-1.4156866,-0.61765844
-0.2,-0.1,1.2999999999999998,0.0,0.0,0,-0.17813118,0.2903556,0.9859215,0.45362324,0.50597763,0.53224105,0.12818414,-0.9949374,0.9287179,-0.09300835,-0.066014454,2.6211958,-1.3386661,0.1341074
-0.2,-0.1,1.2999999999999998,0.0,0.0,0,-0.17783788,0.28646725,0.9877338,0.45185053,0.5139193,0.5314194,0.12275964,-0.9897953,0.9504366,0.11899683,-0.07630321,0.48384082,-1.5151317,0.22213294
-0.2,-0.1,1.2999999999999998,0.0,0.0,0,-0.179364,0.29357266,0.9887451,0.45181766,0.5063527,0.53153175,0.116536744,-0.98522097,0.8792246,0.032598406,-0.0805178,0.4975011,-1.4620075,-1.2016944
-0.2,-0.1,1.2999999999999998,0.0,0.0,0,-0.18034999,0.29396567,0.9892687,0.45350388,0.5090329,0.5364313,0.11368096,-0.989851,0.98362094,-0.008623329,0.025724707,0.31633335,-1.4281944,-0.71632606
-0.2,-0.1,1.2999999999999998,0.0,0.0,0,-0.17962931,0.29592583,0.9871402,0.45236233,0.50663745,0.5301705,0.12189203,-0.9911657,0.93081015,-0.003972537,-0.04525544,0.31555808,-1.4359866,-1.0514276
-0.2,-0.1,1.2999999999999998,0.0,0.0,0,-0.18043488,0.29105166,0.98640335,0.45056412,0.5132993,0.5331524,0.12326891,-0.988396,0.90611887,0.030451605,-0.030352877,-0.31670532,-1.4758801,-1.3576169
-0.2,-0.1,1.2999999999999998,0.0,0.0,0,-0.18149927,0.28505814,0.9854833,0.45299062,0.50883317,0.532492,0.11991322,-0.9835292,0.96683204,-0.024396507,-0.0004391682,-0.43081668,-1.3537632,-0.7270237
-0.2,-0.1,1.2999999999999998,0.0,0.0,0,-0.17861871,0.291355,0.9879903,0.4512371,0.50804716,0.53448814,0.13272822,-0.98693264,0.9376974,0.09268655,-0.104341276,0.9085627,-1.4258057,0.55247855
-0.2,-0.1,1.2999999999999998,0.0,0.0,0,-0.17849778,0.30019227,0.98673546,0.4507661,0.51005393,0.52941453,0.1268365,-0.990907,0.8770427,0.14628711,-0.010488245,0.044369686,-1.5260326,-0.95752984
-0.2,-0.1,1.2999999999999998,0.0,0.0,0,-0.17967992,0.28217542,0.986126,0.45389006,0.5084145,0.53307486,0.116580024,-0.9868375,0.9720557,-0.017850392,-0.11385487,1.1064662,-1.4739739,0.08340459
-0.2,-0.1,1.2999999999999998,0.0,0.0,0,-0.1792736,0.28894082,0.9865987,0.4499813,0.5046543,0.53468186,0.12564047,-0.98601705,0.9527943,0.039001323,-0.03764316,0.23620293,-1.5290585,0.4012548
-0.2,-0.1,1.2999999999999998,0.0,0.0,0,-0.17893705,0.30454972,0.9866774,0.4495149,0.51232004,0.5329176,0.120858066,-0.99058586,0.88007253,0.014411973,0.06266727,-0.87432486,-1.4612025,-1.2806519
-0.2,-0.1,1.2999999999999998,0.0,0.0,0,-0.17815195,0.29645535,0.9860216,0.45185387,0.5092626,0.53215027,0.12536475,-0.99009705,0.87457895,0.12199152,-0.088839106,0.9085867,-1.3742244,-0.96274537
-0.2,-0.1,1.2999999999999998,0.0,0.0,0,-0.17885813,0.29014325,0.9879086,0.4524823,0.50054955,0.533281,0.12146875,-0.9901808,0.88143086,0.024056045,-0.085463956,0.22724813,-1.4717084,-0.6799893
-0.2,-0.1,1.2999999999999998,0.0,0.0,0,-0.18007801,0.2947834,0.9886087,0.45135164,0.5041853,0.5341921,0.12182819,-0.9876512,0.9073377,0.15063058,-0.07141019,0.29029888,-1.4292324,0.15434048
-0.2,-0.1,1.2999999999999998,0.0,0.0,0,-0.1811558,0.29637045,0.9867697,0.44903705,0.5066257,0.5318238,0.12450942,-0.9923173,0.96459687,0.25944334,-0.03642766,0.4000451,-1.4945793,-0.5312288
-0.2,-0.1,1.2999999999999998,0.0,0.0,0,-0.17895721,0.2879029,0.9871127,0.45074248,0.50926864,0.53271276,0.11066336,-0.98473334,0.8650043,0.13599987,-0.018171232,1.5636337,-1.4520884,0.10642035
-0.2,-0.1,1.2999999999999998,0.0,0.0,0,-0.17986782,0.2890654,0.98726356,0.45254055,0.5125287,0.5331219,0.11402666,-0.9911237,0.98429054,0.0617958,-0.010897133,0.3979733,-1.4748487,-1.764084
-0.2,-0.1,1.2999999999999998,0.0,0.0,0,-0.1775795,0.29018852,0.9843911,0.4513259,0.510812,0.53747255,0.11835062,-0.9900297,0.88620985,0.1734904,-0.04104011,0.82353646,-1.3976587,-0.8244524
-0.2,-0.1,1.2999999999999998,0.0,0.0,0,-0.18211532,0.28944498,0.98984206,0.45287028,0.51119655,0.5321566,0.124554306,-0.992109,0.9202899,-0.08749264,-0.102142975,0.5438325,-1.4692186,-0.51223564
-0.2,-0.1,1.2999999999999998,0.0,0.0,0,-0.17885827,0.29992208,0.9883793,0.45287573,0.50736237,0.5333064,0.12740389,-0.9913107,0.8888505,-0.21498436,-0.12768917,0.41455045,-1.4493217,0.07633515
-0.2,-0.1,1.2999999999999998,0.0,0.0,0,-0.17805125,0.28937086,0.9872325,0.45123336,0.51659316,0.53343594,0.116351165,-0.99204576,0.95217216,0.21066287,-0.076708496,-0.3565819,-1.508208,-0.75925666
-0.2,-0.1,1.2999999999999998,0.0,0.0,0,-0.1787905,0.29456633,0.99015933,0.4527395,0.5102625,0.5295601,0.120321475,-0.9949052,0.9284181,0.056875885,-0.049661476,0.7785121,-1.5355364,-0.91683173
-0.2,-0.1,1.2999999999999998,0.0,0.0,0,-0.18176012,0.2969809,0.98584145,0.45055738,0.50653076,0.53297144,0.12335427,-0.99080426,0.8087727,0.036756963,-0.007053892,-0.023812277,-1.4533224,-0.24929705
-0.2,-0.1,1.2999999999999998,0.0,0.0,0,-0.18085088,0.29671207,0.9874885,0.4507052,0.5101947,0.53065693,0.11549043,-0.9878255,0.91665405,0.2576862,-0.020487646,0.506267,-1.4498146,0.023342423
-0.2,-0.1,1.2999999999999998,0.0,0.0,0,-0.18137462,0.2878482,0.98570234,0.4523,0.50946945,0.53274035,0.12792447,-0.9933703,0.906878,-0.010663213,-0.020264966,1.0110677,-1.410351,-0.21913904
-0.2,-0.1,1.2999999999999998,0.0,0.0,0,-0.18208493,0.28765446,0.9883011,0.4521646,0.51415646,0.528133,0.11768236,-0.9916915,0.8839979,0.12419049,0.034805056,-0.45136493,-1.4293784,-1.00789
-0.2,-0.1,1.2999999999999998,0.0,0.0,0,-0.18049194,0.27690512,0.9865079,0.4520975,0.51080024,0.5315636,0.11631692,-0.9874374,0.94421726,0.030461153,0.050652232,-0.261499,-1.3775867,-0.21575576
-0.2,-0.1,1.2999999999999998,0.0,0.0,0,-0.17758898,0.29354167,0.98693556,0.44973755,0.50648725,0.53171945,0.11879286,-0.9843037,0.87553275,0.072187275,0.070819795,0.3007524,-1.5307107,-0.13841687
-0.2,-0.1,1.2999999999999998,0.0,0.0,0,-0.17636763,0.27844125,0.9862936,0.44940022,0.51157343,0.5313123,0.11696241,-0.98950243,0.9649603,0.11626284,-0.050361432,-0.20530102,-1.4825158,-1.247956
-0.2,-0.1,1.2999999999999998,0.0,0.0,0,-0.18189824,0.2976947,0.9868836,0.45183444,0.51486695,0.5329189,0.12347829,-0.9866594,0.90216804,0.003999091,0.009967654,1.0335939,-1.3694688,-1.4078541
-0.2,-0.1,1.2999999999999998,0.0,0.0,0,-0.17921789,0.30108398,0.98950356,0.45054066,0.5112225,0.5369314,0.11895763,-0.9927641,0.9340174,0.019718785,-0.06409116,1.625374,-1.4411782,-0.687084
-0.2,-0.1,1.2999999999999998,0.0,0.0,0,-0.17955412,0.2907981,0.98524386,0.45063442,0.5095507,0.5304427,0.114271455,-0.9938871,1.0679368,0.10457518,-0.052766822,0.5309202,-1.5096358,0.6155786
-0.2,-0.1,1.2999999999999998,0.0,0.0,0,-0.18088791,0.2843336,0.98800594,0.44965187,0.5123597,0.53409916,0.12393893,-0.98571306,0.87636197,-0.021502052,-0.020929143,0.6540413,-1.4392955,-0.08256038
-0.2,-0.1,1.2999999999999998,0.0,0.0,0,-0.18107283,0.29376614,0.98656523,0.45083427,0.51142865,0.53088963,0.119493574,-0.9882327,0.97880816,0.10968432,-0.031800594,1.4568975,-1.3905714,-1.3290936
-0.2,-0.1,1.2999999999999998,0.0,0.0,0,-0.17856899,0.2965869,0.9889029,0.4514132,0.5130668,0.5280264,0.1223597,-0.98887634,0.9904443,0.07401753,0.003115588,-0.23079753,-1.4512619,-0.08316245
-0.2,-0.1,1.2999999999999998,0.0,0.0,0,-0.17988907,0.28974947,0.98747826,0.45115542,0.5034096,0.5303541,0.12744583,-0.98804814,0.9489438,0.1500274,-0.003640545,-0.6343658,-1.377463,-0.24860555
-0.2,-0.1,1.2999999999999998,0.0,0.0,0,-0.18057029,0.2910071,0.98857516,0.45063493,0.5063563,0.5315184,0.1259961,-0.9887742,0.93782383,0.15756494,0.018839538,0.35696253,-1.3111508,0.0034097575
-0.2,-0.1,1.2999999999999998,0.0,0.0,0,-0.17985024,0.28931135,0.9870647,0.4511841,0.5175578,0.53111625,0.106771775,-0.99043393,0.9266321,0.14731091,-0.029157456,1.0094379,-1.4703864,0.902404
-0.2,-0.1,1.2999999999999998,0.0,0.0,0,-0.17897874,0.28151122,0.98615545,0.45125192,0.5080074,0.53316224,0.11947366,-0.9882217,0.9633206,-0.12620969,-0.019168366,1.2637268,-1.5047344,-0.5765161
-0.2,-0.1,1.2999999999999998,0.0,0.0,0,-0.17932227,0.27980483,0.9863322,0.45085296,0.5157682,0.5317696,0.12037103,-0.9873732,0.9877675,0.014231666,-0.097063474,0.41085687,-1.4821188,-0.6726571
-0.2,-0.1,1.2999999999999998,0.0,0.0,0,-0.17934853,0.2907867,0.9888101,0.45044068,0.5101352,0.5328851,0.11638487,-0.9879665,0.9304366,0.15491156,-0.019517856,0.10384389,-1.3240098,-0.8640909
-0.2,-0.1,1.2999999999999998,0.0,0.0,0,-0.17965803,0.2986868,0.98982006,0.45094773,0.5125467,0.53257996,0.11726431,-0.9887612,0.9268388,0.13632138,-0.06943408,0.54532623,-1.4052124,0.36885297
-0.2,-0.1,1.2999999999999998,0.0,0.0,0,-0.17912802,0.28842402,0.9882378,0.45158768,0.51461196,0.5303303,0.11313876,-0.9881755,0.9282398,0.057620477,-0.063780874,-0.12171555,-1.4615046,0.42610207
-0.2,-0.1,1.2999999999999998,0.0,0.0,0,-0.17822318,0.29696146,0.9869176,0.45202273,0.50935066,0.5287362,0.12179129,-0.98832065,0.9244105,0.042698096,0.07646843,-0.21980967,-1.3623043,-0.543297
-0.2,-0.1,1.2999999999999998,0.0,0.0,0,-0.17849508,0.29108852,0.9880355,0.453217,0.5126765,0.53653395,0.12603226,-0.991667,0.9897947,0.12351587,-0.008098355,-0.7004905,-1.4820445,-0.5175009
-0.2,-0.1,1.2999999999999998,0.0,0.0,0,-0.17550728,0.2833264,0.9863031,0.4501219,0.51038116,0.53326184,0.12011547,-0.9901762,0.94184786,0.103620954,-0.08486161,0.9504675,-1.4817238,-0.8278519
-0.2,-0.1,1.2999999999999998,0.0,0.0,0,-0.17923108,0.28482902,0.9864018,0.45263857,0.5074697,0.53486747,0.12264605,-0.9878181,0.8634799,0.13897768,-0.09211946,0.51430416,-1.43881,-0.30665147
-0.2,-0.1,1.2999999999999998,0.0,0.0,0,-0.17954123,0.29054633,0.9874596,0.45072404,0.51140404,0.5334964,0.13258952,-0.9883626,0.9195285,-0.078660056,-0.046056747,0.21677615,-1.3558303,0.7501406
-0.2,-0.1,1.2999999999999998,0.0,0.0,0,-0.180136,0.2874338,0.9896626,0.45060837,0.51206976,0.5296354,0.114917874,-0.9911874,0.8823242,0.044781372,0.028118785,-0.30593494,-1.4004611,-0.7602236
-0.2,-0.1,1.2999999999999998,0.0,0.0,0,-0.177868,0.28913343,0.988521,0.45134398,0.5068933,0.534152,0.1243076,-0.9884727,0.9450801,-0.015748266,-0.033564944,0.3062784,-1.3469187,-0.5346741
-0.2,-0.1,1.2999999999999998,0.0,0.0,0,-0.17806521,0.28725526,0.9860226,0.45139316,0.5080593,0.5320529,0.12455169,-0.9859504,0.9358076,0.06144166,-0.0064171464,0.22415838,-1.449729,-0.26965103
-0.2,-0.1,1.2999999999999998,0.0,0.0,0,-0.18045962,0.27585578,0.9866457,0.45057863,0.5133374,0.5357467,0.117421456,-0.9904486,0.9409297,-0.1440412,-0.056230802,0.4627894,-1.4617108,-1.091295
-0.2,-0.1,1.2999999999999998,0.0,0.0,0,-0.17999394,0.28156728,0.9869385,0.44933665,0.50938094,0.5299531,0.12176852,-0.99072915,0.84452045,0.11416819,-0.0006678318,1.6454887,-1.4383211,-0.33492637
-0.2,-0.1,1.2999999999999998,0.0,0.0,0,-0.18069002,0.28490067,0.9883461,0.45092976,0.51320434,0.5326419,0.11844348,-0.9914737,1.0419647,-0.0020378788,-0.08615711,0.18620615,-1.3944241,0.74392337
-0.2,-0.1,1.2999999999999998,0.0,0.0,0,-0.18047488,0.29632396,0.9876855,0.45322475,0.51291734,0.5336938,0.11452971,-0.99094266,0.90693617,0.2073442,0.017475326,0.4580631,-1.4666464,0.11762887
-0.2,-0.1,1.2999999999999998,0.0,0.0,0,-0.18012805,0.29030412,0.98744845,0.45204094,0.5192928,0.53176165,0.11943336,-0.99224454,0.9678952,0.048944555,-0.11222927,-0.4234108,-1.5095655,-0.58912605
-0.2,-0.1,1.2999999999999998,0.0,0.0,0,-0.18135759,0.29714972,0.9889735,0.45044494,0.5209747,0.5333579,0.119139,-0.984098,0.8837005,0.06080006,-0.03597356,0.39459106,-1.5102443,0.14238214
-0.2,-0.1,1.2999999999999998,0.0,0.0,0,-0.17929925,0.28566095,0.98882043,0.45347202,0.5097986,0.5312107,0.12428235,-0.98701346,1.0280896,-0.16251665,-0.15607716,0.89264584,-1.4697025,0.3491679
-0.2,-0.1,1.2999999999999998,0.0,0.0,0,-0.17882662,0.3011398,0.99034745,0.45012498,0.5119994,0.5294746,0.111361034,-0.983742,0.9541685,0.0044945884,0.031143162,1.7396806,-1.4637856,-0.2741274
-0.2,-0.1,1.2999999999999998,0.0,0.0,0,-0.17998098,0.29051465,0.98833007,0.45248362,0.513615,0.5299847,0.130375,-0.98075193,0.94478935,0.06892692,-0.11575513,0.26942122,-1.3772154,-0.07094259
-0.2,-0.1,1.2999999999999998,0.0,0.0,0,-0.18055475,0.29180735,0.9863612,0.45028946,0.5181406,0.5328804,0.122806445,-0.9857317,0.9772757,0.054938115,-0.09896751,1.5399632,-1.4832939,-1.8114358
-0.2,-0.1,1.2999999999999998,0.0,0.0,0,-0.18026122,0.2971495,0.9891752,0.4497401,0.51206946,0.52828175,0.12795097,-0.9876696,0.96734875,-0.06266358,-0.017176205,1.191419,-1.4578129,-1.0414001
-0.2,-0.1,1.2999999999999998,0.0,0.0,0,-0.18025102,0.29272357,0.9892451,0.45267957,0.5045634,0.5327865,0.12159971,-0.9852766,0.98661107,0.11759768,-0.091640554,0.057808407,-1.463629,-0.8783085
-0.2,-0.1,1.2999999999999998,0.0,0.0,0,-0.17894289,0.29463238,0.98820466,0.4507622,0.5093247,0.5304671,0.11869215,-0.99247986,0.84297603,-0.06996167,-0.060307305,0.6784841,-1.4450638,-0.39658305
-0.2,-0.1,1.2999999999999998,0.0,0.0,0,-0.17886306,0.28952718,0.9846768,0.45063218,0.5158909,0.5294032,0.1244904,-0.9884385,0.9342352,0.091835886,0.03887675,0.40693706,-1.4742618,-0.07592212
-0.2,-0.1,1.2999999999999998,0.0,0.0,0,-0.18002534,0.28215152,0.99099594,0.4522255,0.51341516,0.53077084,0.12311038,-0.99007183,0.89224046,-0.05095519,0.04037534,0.14160769,-1.438198,0.27496612
-0.2,-0.1,1.2999999999999998,0.0,0.0,0,-0.17998187,0.2913556,0.9841336,0.45140898,0.5098308,0.53064334,0.10950278,-0.9905979,0.9592265,0.07815051,-0.058572393,1.0069274,-1.4528594,0.5423413
-0.2,-0.1,1.2999999999999998,0.0,0.0,0,-0.17883402,0.2944295,0.98629946,0.44859922,0.50751746,0.5295437,0.12730335,-0.9857881,0.9635708,-0.004684779,0.021502493,1.222995,-1.5011237,0.62462616
-0.2,-0.1,1.2999999999999998,0.0,0.0,0,-0.18061823,0.28649712,0.9872578,0.45103082,0.50740343,0.53167295,0.11363258,-0.9897989,0.927658,-0.033519182,-0.045646217,0.7062108,-1.3822546,-1.1353182
-0.2,-0.1,1.2999999999999998,0.0,0.0,0,-0.18115179,0.2888528,0.9861611,0.45110038,0.5058751,0.5310084,0.12478671,-0.98905724,0.9428707,-0.0145358285,0.017595632,-0.19710852,-1.3449368,-0.047744837
-0.2,-0.1,1.2999999999999998,0.0,0.0,0,-0.18238865,0.2843331,0.9886386,0.45119533,0.51448023,0.52972615,0.122142464,-0.9905361,0.95456487,0.20658958,-0.029291967,0.2244173,-1.3205789,0.18687928
-0.2,-0.1,1.2999999999999998,0.0,0.0,0,-0.17958528,0.28539214,0.98858833,0.44897196,0.50968283,0.5315663,0.12182579,-0.9888092,0.97549933,0.035930812,0.017419774,0.45003265,-1.3709326,0.11576992
-0.2,-0.1,1.2999999999999998,0.0,0.0,0,-0.17891368,0.28812075,0.9856924,0.4499523,0.51211095,0.5303609,0.11855488,-0.9890483,0.9403563,0.11351366,-0.057185225,-0.6169972,-1.4437106,-0.24662878
-0.2,-0.1,1.2999999999999998,0.0,0.0,0,-0.18059777,0.28438276,0.98655444,0.4512398,0.51361257,0.53217757,0.115273215,-0.98559546,0.9009772,0.19135079,-0.032299593,1.0839479,-1.3336573,0.32805434
-0.2,-0.1,1.2999999999999998,0.0,0.0,0,-0.18067245,0.28644702,0.9863984,0.45078602,0.51483834,0.5331492,0.1120655,-0.9817411,1.0165194,0.0949321,-0.06303656,-0.091242574,-1.3341163,-0.42695215
-0.2,-0.1,1.2999999999999998,0.0,0.0,0,-0.17993423,0.28375226,0.985529,0.44945732,0.5074314,0.5336622,0.12326626,-0.98583156,0.9142621,0.2392208,0.052670766,0.7787847,-1.5267594,0.41475224
-0.2,-0.1,1.2999999999999998,0.0,0.0,0,-0.17931318,0.284406,0.9859582,0.4502752,0.5129434,0.53060925,0.11969274,-0.9872067,0.9046753,0.17118944,-0.03690875,1.8219808,-1.4465449,-0.25210336
-0.2,-0.1,1.2999999999999998,0.0,0.0,0,-0.17971887,0.29797292,0.98737425,0.4489214,0.50937253,0.53144157,0.11930831,-0.9862215,0.9351725,-0.10473848,-0.022937907,0.23836945,-1.4797864,0.20040835
-0.2,-0.1,1.2999999999999998,0.0,0.0,0,-0.18160215,0.29426557,0.9879678,0.45082435,0.50484544,0.5311866,0.12074238,-0.98940605,0.8884818,-0.090814926,-0.04775621,0.20921476,-1.4874312,0.38429704
-0.2,-0.1,1.2999999999999998,0.0,0.0,0,-0.18015328,0.2877747,0.9862395,0.45199364,0.5080652,0.5318715,0.120454155,-0.9903713,0.8962259,0.03171754,-0.04419105,0.114160985,-1.4039013,-0.2443576
-0.2,-0.1,1.2999999999999998,0.0,0.0,0,-0.17942463,0.2923386,0.98327285,0.44988513,0.51231617,0.53278565,0.1204015,-0.99231035,0.8964967,-0.07682183,-0.029844688,1.0930978,-1.4783299,-1.1116914
-0.2,-0.1,1.2999999999999998,0.0,0.0,0,-0.17981336,0.2781527,0.9865782,0.4512687,0.51355493,0.5297821,0.12838385,-0.98954314,0.9538059,0.12550075,0.022652447,0.5031981,-1.4556085,-0.20484821
-0.2,-0.1,1.2999999999999998,0.0,0.0,0,-0.17901714,0.277861,0.9862656,0.45276618,0.50340647,0.532839,0.12547001,-0.9901168,0.9600692,0.1109701,0.040680163,1.2412131,-1.408632,-0.177478
-0.2,-0.1,1.2999999999999998,0.0,0.0,0,-0.17930722,0.28048378,0.9868259,0.45046467,0.5125649,0.5330712,0.12658359,-0.9870514,0.9050419,0.13728896,-0.053740457,0.8386719,-1.41829,0.14491048
-0.2,-0.1,1.2999999999999998,0.0,0.0,0,-0.17973375,0.28413406,0.98681617,0.45331448,0.51670444,0.5296541,0.11755687,-0.98986095,0.9348568,0.06068456,-0.0033178779,0.7026677,-1.3948007,-0.6803011
-0.2,-0.1,1.2999999999999998,0.0,0.0,0,-0.17673784,0.28999147,0.98995656,0.45077974,0.51573044,0.5304516,0.11523358,-0.98431146,0.93638873,0.110070705,-0.04693581,1.7539293,-1.4665956,-0.35664767
-0.2,-0.1,1.2999999999999998,0.0,0.0,0,-0.17871597,0.2867797,0.98789537,0.45189366,0.5125275,0.5328383,0.11058272,-0.9850544,0.9168117,-0.0658045,-0.12834471,0.31636724,-1.385141,-1.0879133
-0.2,-0.1,1.2999999999999998,0.0,0.0,0,-0.17869155,0.2830931,0.9876301,0.45175546,0.5102033,0.53217226,0.12296324,-0.98730326,0.959012,0.05547159,-0.028747758,0.2714945,-1.4355645,0.24276322
-0.2,-0.1,1.2999999999999998,0.0,0.0,0,-0.17992924,0.2817657,0.9879996,0.45138818,0.50980914,0.53281087,0.1206876,-0.9866155,0.9507897,0.1577457,-0.08134302,-0.20557448,-1.470665,-0.3555623
-0.2,-0.1,1.2999999999999998,0.0,0.0,0,-0.18005541,0.2875147,0.98809886,0.45172572,0.50948244,0.53313464,0.11699862,-0.9904943,0.8731223,-0.08328574,0.00029591878,0.86275464,-1.430667,-1.2015089
-0.2,-0.1,1.2999999999999998,0.0,0.0,0,-0.17837837,0.28654453,0.9848071,0.44940725,0.5070356,0.5330048,0.12892461,-0.9876396,0.87003565,0.19070792,-0.049733885,0.120659776,-1.3595456,-1.2488742
-0.2,-0.1,1.2999999999999998,0.0,0.0,0,-0.18129325,0.29065585,0.9849971,0.45182323,0.508824,0.5348844,0.11087163,-0.9842357,0.89335984,0.089755006,-0.017751925,0.84183425,-1.4941691,-0.5975777
-0.2,-0.1,1.2999999999999998,0.0,0.0,0,-0.17837867,0.29562348,0.9856246,0.45030046,0.50680006,0.532735,0.11172306,-0.98751515,0.9025565,0.13008195,-0.06738432,-0.4492308,-1.4629265,-0.5200684
-0.2,-0.1,1.2999999999999998,0.0,0.0,0,-0.18048769,0.28782964,0.98741084,0.44951215,0.5088419,0.5325178,0.13030536,-0.98260623,0.9457942,0.10075794,0.013417784,-0.40382162,-1.5192777,-0.6980377
-0.2,-0.1,1.2999999999999998,0.0,0.0,0,-0.17799161,0.2939069,0.9874123,0.4530775,0.5056147,0.529227,0.12314977,-0.9855226,1.0080111,-0.0378393,-0.08499258,-0.13575257,-1.3925132,1.1157043
-0.2,-0.1,1.2999999999999998,0.0,0.0,0,-0.17939098,0.28381252,0.9890443,0.44993234,0.5101396,0.53207076,0.1201934,-0.9918251,0.89704937,-0.014426156,-0.013098715,0.5296413,-1.5492787,-0.454144
-0.2,-0.1,1.2999999999999998,0.0,0.0,0,-0.1796811,0.30021432,0.98399514,0.4504816,0.51302284,0.53297013,0.122177884,-0.9920565,0.96034116,-0.008790208,-0.0917821,-0.12335213,-1.4843575,0.68149906
-0.2,-0.1,1.2999999999999998,0.0,0.0,0,-0.17758639,0.28590822,0.9866258,0.45283338,0.5147691,0.5359299,0.1206284,-0.98601824,0.96696866,0.13562573,-0.046070658,0.4073849,-1.3257111,-0.775166
-0.2,-0.1,1.2999999999999998,0.0,0.0,0,-0.17958419,0.2902472,0.9875365,0.4521358,0.50878114,0.5295684,0.12521508,-0.987081,0.93829435,0.039864294,-0.03242841,1.2196685,-1.3752364,-1.1282469
-0.2,-0.1,1.2999999999999998,0.0,0.0,0,-0.17983435,0.29502818,0.9899081,0.45235592,0.50161195,0.5301893,0.12157077,-0.98628926,0.91717666,0.19231896,-0.02917068,2.0163367,-1.3481495,-1.3199036
-0.2,-0.1,1.2999999999999998,0.0,0.0,0,-0.18028937,0.29164574,0.9899713,0.4514521,0.50423956,0.5334505,0.12202526,-0.98642755,0.91800386,0.1674319,-0.057570897,1.6459167,-1.521433,0.74306005
-0.2,-0.1,1.2999999999999998,0.0,0.0,0,-0.17871948,0.29073185,0.9867672,0.4513872,0.5109562,0.52894217,0.120659046,-0.99468017,0.9742433,0.09302772,-0.1298761,0.79239386,-1.5034055,-0.25784445
-0.2,-0.1,1.2999999999999998,0.0,0.0,0,-0.17811757,0.27180007,0.9862646,0.44958052,0.51058066,0.5343683,0.12851381,-0.98233247,0.93445545,0.06684438,-0.021595137,1.0855178,-1.4105479,-1.3033291
-0.2,-0.1,1.2999999999999998,0.0,0.0,0,-0.18137401,0.29833823,0.98816204,0.4492779,0.5118748,0.52956456,0.12322995,-0.98905337,0.9322039,0.14464329,-0.051072318,-0.7192305,-1.3288821,0.43376696
-0.2,-0.1,1.2999999999999998,0.0,0.0,0,-0.17842783,0.28589234,0.98691326,0.450271,0.5048896,0.5321684,0.117415585,-0.9852681,0.91447955,0.05855057,0.034458905,-0.41485158,-1.355912,-2.5696914
-0.2,-0.1,1.2999999999999998,0.0,0.0,0,-0.1806861,0.29327315,0.98737013,0.45097354,0.508583,0.5338641,0.1223062,-0.9893485,0.89521533,0.053226728,0.014763875,0.07211048,-1.3390512,-0.46050915
-0.2,-0.1,1.2999999999999998,0.0,0.0,0,-0.17953235,0.28651,0.9861796,0.45061097,0.513802,0.53209347,0.11732359,-0.99017584,0.84237146,-0.03736849,-0.0597495,1.2097328,-1.352323,0.037142657
-0.2,-0.1,1.2999999999999998,0.0,0.0,0,-0.18051866,0.2926683,0.98521173,0.4506581,0.51391447,0.5332592,0.11856153,-0.98994917,0.923265,-0.16728663,0.009432896,1.1486336,-1.4064648,-0.87144077
-0.2,-0.1,1.2999999999999998,0.0,0.0,0,-0.17811204,0.29710835,0.9884285,0.4514571,0.50648314,0.5332164,0.11587504,-0.98516387,0.86069083,0.14881289,-0.015820324,2.3345006,-1.4618158,-0.516184
-0.2,-0.1,1.2999999999999998,0.0,0.0,0,-0.17952032,0.30176038,0.98602325,0.45172057,0.5129262,0.5348483,0.12510712,-0.9854768,0.9542306,-0.024050642,-0.027946707,1.2521164,-1.399766,-1.1544689
-0.2,-0.1,1.2999999999999998,0.0,0.0,0,-0.1783599,0.2823817,0.9845214,0.4505238,0.5100961,0.53242105,0.1278543,-0.9897197,0.88633496,-0.03426086,-0.011449474,1.1294458,-1.4617448,0.5257466
-0.2,-0.1,1.2999999999999998,0.0,0.0,0,-0.18071072,0.2906025,0.9873668,0.44983113,0.50972766,0.52925,0.1276602,-0.9914685,0.97255886,0.073687375,0.011475945,0.7436784,-1.4303463,0.34286556
-0.2,-0.1,1.2999999999999998,0.0,0.0,0,-0.17964345,0.28945833,0.9881507,0.45103616,0.51224434,0.53368896,0.12341672,-0.99013025,0.86831605,0.12367236,-0.04715437,0.11073299,-1.4697033,0.08673891
