sanky1234/BimanualDexCatch/isaacgymenvs/cem_results/football_pose_-0.1_0.0_0.7999999999999999_0.0_0.0_0_2025-05-25.csv
x,y,z,roll,pitch,yaw,robot1/joint1,robot1/joint2,robot1/joint3,robot1/joint4,robot1/joint5,robot1/joint6,robot1/joint7,robot2/joint1,robot2/joint2,robot2/joint3,robot2/joint4,robot2/joint5,robot2/joint6,robot2/joint7
-0.1,0.0,0.7999999999999999,0.0,0.0,0,2.005108,0.96130407,0.81799465,-0.10945259,-0.17399922,1.4981462,-0.019160667,-0.22229746,-1.2026522,-2.1850832,-0.13043132,0.0069787703,1.3865122,-1.9161057
-0.1,0.0,0.7999999999999999,0.0,0.0,0,1.9181546,0.9725461,0.8271313,-0.15175879,-0.18337356,1.5392932,-0.12920135,-0.2988004,-1.229819,-2.1077328,-0.17160441,0.081745945,1.4243034,-2.2108984
-0.1,0.0,0.7999999999999999,0.0,0.0,0,1.932799,0.9405927,0.83610743,-0.1483296,-0.108429775,1.5319777,-0.12603353,-0.17071748,-1.1683906,-2.194876,-0.16595343,0.053816576,1.4858007,-1.802208
-0.1,0.0,0.7999999999999999,0.0,0.0,0,2.0208786,0.94509864,0.826666,-0.15311866,-0.061696,1.5156463,-0.028215857,-0.23045813,-1.2676231,-2.2337332,-0.14479493,-0.0045677605,1.4677225,-1.381378
-0.1,0.0,0.7999999999999999,0.0,0.0,0,1.9715272,0.92283684,0.8234005,-0.1422031,-0.11285051,1.4970556,-0.09907329,-0.18862547,-1.0642462,-2.1801658,-0.3830367,0.008665476,1.4454453,-1.6038151
-0.1,0.0,0.7999999999999999,0.0,0.0,0,1.8448766,0.91568816,0.829602,-0.10879008,-0.097452074,1.4790195,-0.06712156,-0.23982936,-1.2063229,-2.1941857,-0.12471124,0.11437006,1.4734787,-1.186201
-0.1,0.0,0.7999999999999999,0.0,0.0,0,2.01228,0.97497714,0.85754687,-0.116666704,-0.057444368,1.4892923,0.07663998,-0.2685533,-1.2061703,-2.1852086,-0.20556726,0.076592274,1.457347,-1.9618025
-0.1,0.0,0.7999999999999999,0.0,0.0,0,1.9838016,0.9252425,0.80218345,-0.08764361,-0.12955803,1.5525161,0.014056796,-0.26921257,-1.1327746,-2.066558,-0.38333002,0.15453753,1.4547371,-1.8725294
-0.1,0.0,0.7999999999999999,0.0,0.0,0,1.9651756,0.96286964,0.86055124,-0.14160362,-0.09999413,1.480748,-0.07178902,-0.25916302,-1.2442709,-2.2046459,-0.1820767,0.08071941,1.5367569,-1.6398108
-0.1,0.0,0.7999999999999999,0.0,0.0,0,1.8577023,0.97795504,0.8507974,-0.150332,-0.16003697,1.5267203,0.033023834,-0.22515683,-1.2787964,-2.140619,-0.19404338,0.08790126,1.5079384,-2.0355265
-0.1,0.0,0.7999999999999999,0.0,0.0,0,1.8934582,1.0149648,0.832591,-0.13074878,-0.066714175,1.4997871,-0.011920072,-0.22921029,-1.2393198,-2.1889637,-0.10524559,0.13699582,1.4438907,-2.1206412
-0.1,0.0,0.7999999999999999,0.0,0.0,0,1.9406017,1.0028187,0.8611134,-0.14608543,-0.13351561,1.4787583,-0.022963537,-0.21143848,-1.1272254,-2.1686487,-0.05287998,0.089480326,1.387715,-1.3725888
-0.1,0.0,0.7999999999999999,0.0,0.0,0,1.9492614,0.90933645,0.82726246,-0.13202141,-0.12538022,1.5244659,-0.06805126,-0.22639994,-1.2270993,-2.1895146,-0.07620952,0.019089123,1.4694574,-2.145003
-0.1,0.0,0.7999999999999999,0.0,0.0,0,2.0605276,0.9485691,0.84871984,-0.17365743,-0.16591392,1.4797287,-0.16423264,-0.32225493,-1.3077863,-2.2582898,-0.24775721,-0.013340944,1.4393921,-1.6758406
-0.1,0.0,0.7999999999999999,0.0,0.0,0,1.9708853,0.95788246,0.8715325,-0.11574398,-0.11506647,1.5399688,-0.11001509,-0.239949,-1.1620593,-2.2715933,-0.09886537,0.04241068,1.4778838,-2.2272844
-0.1,0.0,0.7999999999999999,0.0,0.0,0,1.8596958,0.95395875,0.83192563,-0.16090326,-0.18307857,1.5258415,0.096163765,-0.25394106,-1.2352864,-2.1794465,-0.13524874,0.15104413,1.4670594,-1.0264089
-0.1,0.0,0.7999999999999999,0.0,0.0,0,1.9019064,0.9489418,0.8314961,-0.14423414,-0.050776437,1.4797974,-0.113572985,-0.18866608,-1.0831585,-2.1213667,-0.068898045,0.08919117,1.3465648,-1.1716453
-0.1,0.0,0.7999999999999999,0.0,0.0,0,1.9902961,0.98568624,0.8386863,-0.14546534,-0.11792124,1.5076743,-0.0741174,-0.18654747,-1.1780884,-2.114202,-0.19020744,0.086487055,1.43845,-2.1035628
-0.1,0.0,0.7999999999999999,0.0,0.0,0,1.967067,0.95472217,0.8648336,-0.14445828,-0.1891347,1.4915975,-0.09733242,-0.26768607,-1.1611872,-2.2173834,-0.14316694,0.11746818,1.5141245,-2.0881329
-0.1,0.0,0.7999999999999999,0.0,0.0,0,1.9437176,0.9748755,0.8399758,-0.17523962,-0.14888713,1.4956714,-0.13690136,-0.2579679,-1.2237364,-2.2038724,-0.06930319,0.114435576,1.4643619,-2.3344395
-0.1,0.0,0.7999999999999999,0.0,0.0,0,2.00277,0.91604376,0.80792737,-0.12434945,-0.11449323,1.4949644,-0.2251269,-0.28483394,-1.1834656,-2.217485,-0.1977821,0.12413073,1.4356796,-1.886478
-0.1,0.0,0.7999999999999999,0.0,0.0,0,1.966679,0.9364532,0.7934883,-0.12672704,-0.17222607,1.5105096,-0.13012908,-0.2111697,-1.1475798,-2.0343797,-0.18572639,0.093638726,1.4510151,-2.111442
-0.1,0.0,0.7999999999999999,0.0,0.0,0,1.9377158,0.9566065,0.83225024,-0.10754267,-0.16962479,1.5288458,0.059556443,-0.24272957,-1.1362326,-2.034819,-0.12811327,0.087144874,1.4407943,-1.9386848
-0.1,0.0,0.7999999999999999,0.0,0.0,0,1.931617,0.9445153,0.8391012,-0.07305387,-0.21533023,1.5116016,-0.049282216,-0.2721458,-1.2357888,-2.0814335,-0.15504637,0.0711377,1.4829084,-1.3346581
-0.1,0.0,0.7999999999999999,0.0,0.0,0,1.9666115,0.9333252,0.81535244,-0.08032378,-0.12923598,1.5138909,-0.08209809,-0.25366038,-1.1822994,-2.0668933,-0.23203848,0.07005311,1.4741714,-2.3673005
-0.1,0.0,0.7999999999999999,0.0,0.0,0,1.9489657,0.9718013,0.8235388,-0.1239752,-0.12529907,1.4994932,0.0023623474,-0.23490962,-1.2555215,-2.2871552,-0.1365537,0.025404336,1.4615419,-1.6245621
-0.1,0.0,0.7999999999999999,0.0,0.0,0,1.9403129,0.940959,0.8457561,-0.13955195,-0.16393141,1.5329722,-0.03345717,-0.16120769,-1.1768923,-2.0984747,-0.18301749,0.14874032,1.4704729,-2.2551546
-0.1,0.0,0.7999999999999999,0.0,0.0,0,1.8895698,0.9630294,0.80802363,-0.1317265,-0.12290326,1.5098462,-0.030362595,-0.20170815,-1.1356384,-2.0692005,-0.15534097,0.11521798,1.4188299,-2.1420314
-0.1,0.0,0.7999999999999999,0.0,0.0,0,1.9404035,0.95762396,0.8618085,-0.112488255,-0.10136515,1.5252383,-0.115819894,-0.2840869,-1.1980538,-2.1384728,-0.14890504,-0.022602396,1.4746243,-1.8530356
-0.1,0.0,0.7999999999999999,0.0,0.0,0,2.0134954,0.9434053,0.811874,-0.13902344,-0.11867606,1.5405504,-0.24120544,-0.21364617,-1.1982241,-2.038858,-0.14523715,0.15879494,1.4357188,-1.1926888
-0.1,0.0,0.7999999999999999,0.0,0.0,0,1.9551408,0.9333016,0.81799364,-0.117556885,-0.101459876,1.4839897,-0.02405755,-0.2355665,-1.2670386,-2.2732043,-0.12868235,0.205891,1.5065367,-1.5523893
-0.1,0.0,0.7999999999999999,0.0,0.0,0,1.8929101,0.98027384,0.8127714,-0.16127792,-0.11352893,1.5230886,0.032038387,-0.26009613,-1.1503607,-2.2708652,-0.14261472,0.060144138,1.4462217,-1.4945664
-0.1,0.0,0.7999999999999999,0.0,0.0,0,2.0072837,0.9399606,0.813429,-0.15564124,-0.17127255,1.4999948,-0.07671512,-0.18270262,-1.1496716,-2.183154,-0.14336172,0.13046868,1.4182858,-2.339291
-0.1,0.0,0.7999999999999999,0.0,0.0,0,1.9575294,0.89743704,0.8567621,-0.13694322,-0.13080266,1.5078876,-0.17446265,-0.2280415,-1.1834123,-2.2089367,-0.12575178,0.12507513,1.4578663,-1.5387285
-0.1,0.0,0.7999999999999999,0.0,0.0,0,1.8973335,0.9670869,0.823013,-0.13503487,-0.12488342,1.5063487,0.01421508,-0.22494559,-1.154213,-2.327068,-0.16155516,0.03241522,1.4491981,-1.4103689
-0.1,0.0,0.7999999999999999,0.0,0.0,0,1.9445776,0.92698026,0.83269584,-0.1348838,-0.123611994,1.5658715,-0.0526134,-0.23759943,-1.1785913,-2.2073834,-0.12134818,-0.032686405,1.4431204,-1.4051285
-0.1,0.0,0.7999999999999999,0.0,0.0,0,1.9350098,0.9463466,0.841194,-0.12207885,-0.14506039,1.5222139,0.0020730651,-0.24234274,-1.2775686,-2.159856,-0.1137651,0.16042647,1.4246012,-0.7818535
-0.1,0.0,0.7999999999999999,0.0,0.0,0,1.9275216,0.9378951,0.84734106,-0.13535284,-0.20072687,1.5348833,0.073502794,-0.21418133,-1.2015716,-2.3139808,-0.20022346,0.11465825,1.4330319,-1.7683804
-0.1,0.0,0.7999999999999999,0.0,0.0,0,2.0068893,0.9616885,0.8347088,-0.15218884,-0.13898993,1.5377316,-0.116344176,-0.211608,-1.1504923,-2.086535,-0.12042528,0.05960716,1.4211386,-2.147327
-0.1,0.0,0.7999999999999999,0.0,0.0,0,1.9721315,0.94202685,0.81607515,-0.13047485,-0.17906103,1.4916677,-0.07324855,-0.24619403,-1.1436327,-2.1403775,-0.1470156,0.004963975,1.4260163,-1.8532634
-0.1,0.0,0.7999999999999999,0.0,0.0,0,1.8847817,0.9432272,0.8490415,-0.15079327,-0.15299472,1.5268099,-0.020754786,-0.31876525,-1.1866395,-2.1968067,-0.13132802,0.12889574,1.422835,-1.8129065
-0.1,0.0,0.7999999999999999,0.0,0.0,0,1.8559526,0.8849303,0.82131845,-0.114505135,-0.12222918,1.4875857,-0.044907086,-0.2164006,-1.2773846,-2.2604227,-0.18577497,0.0014013754,1.4607499,-1.7834095
-0.1,0.0,0.7999999999999999,0.0,0.0,0,1.9479458,0.9632601,0.85946995,-0.108048916,-0.12471754,1.5160927,-0.020146374,-0.2137918,-1.2211113,-2.1499517,-0.16419026,0.06693467,1.3940446,-2.0234354
-0.1,0.0,0.7999999999999999,0.0,0.0,0,1.99085,0.9522152,0.8497823,-0.1050235,-0.12400009,1.5118932,-0.019512437,-0.2404499,-1.1150037,-2.1918309,-0.1577916,0.0009958004,1.4914294,-1.7347865
-0.1,0.0,0.7999999999999999,0.0,0.0,0,1.962056,0.9530862,0.83923537,-0.13498804,-0.07297802,1.498521,-0.02316301,-0.24220859,-1.1328561,-2.0798976,-0.21699993,0.029146062,1.5079459,-1.8396846
-0.1,0.0,0.7999999999999999,0.0,0.0,0,1.8464478,0.93021196,0.81193584,-0.0729236,-0.08181793,1.4581977,-0.039931845,-0.22221865,-1.1426356,-2.1890748,-0.07170623,0.0528399,1.3630311,-1.8788009
-0.1,0.0,0.7999999999999999,0.0,0.0,0,1.9502455,0.90299684,0.81869745,-0.13178797,-0.05361576,1.5241272,-0.11740968,-0.23754457,-1.2669202,-2.1985984,-0.13876206,0.066139914,1.4670902,-1.9578998
-0.1,0.0,0.7999999999999999,0.0,0.0,0,1.9357923,0.94251704,0.78290385,-0.14779998,-0.100952156,1.5410875,-0.16574083,-0.22289898,-1.3367877,-2.0950103,-0.11923038,0.024630344,1.458213,-1.4596953
-0.1,0.0,0.7999999999999999,0.0,0.0,0,1.9747243,0.95097905,0.80680954,-0.112955965,-0.11478619,1.4980984,-0.010482365,-0.30423847,-1.2001716,-2.1315966,-0.095655486,0.17965516,1.4805788,-1.9798647
-0.1,0.0,0.7999999999999999,0.0,0.0,0,1.9141564,0.90934706,0.8611924,-0.122847006,-0.15386972,1.480265,-0.1271053,-0.27139997,-1.0784985,-2.1264253,-0.09953861,0.06974102,1.4567199,-1.7435426
-0.1,0.0,0.7999999999999999,0.0,0.0,0,1.9110936,0.98399246,0.8448166,-0.11876964,-0.15254635,1.518172,-0.07005577,-0.25005087,-1.144101,-2.225936,-0.1818448,-0.025775999,1.494881,-2.160631
-0.1,0.0,0.7999999999999999,0.0,0.0,0,1.9820924,0.90875965,0.85189253,-0.14410043,-0.102752104,1.5221739,-0.07280664,-0.15795681,-1.3162409,-2.194357,-0.16556026,0.02397955,1.5103902,-1.9753456
-0.1,0.0,0.7999999999999999,0.0,0.0,0,1.9953419,0.9170577,0.8206113,-0.14105704,-0.23241113,1.5287861,0.07436942,-0.18100226,-1.2228949,-2.1152532,-0.073349945,-0.118980385,1.3855712,-1.7759881
-0.1,0.0,0.7999999999999999,0.0,0.0,0,1.9322532,0.97688895,0.8240393,-0.12963274,-0.15860716,1.5152718,-0.014992282,-0.25340122,-1.2384299,-2.193148,-0.07999944,0.05148003,1.4413601,-1.5288359
-0.1,0.0,0.7999999999999999,0.0,0.0,0,1.8939309,0.9599232,0.8331874,-0.097868696,-0.15003273,1.4654614,-0.11330251,-0.24722151,-1.2774732,-2.0064356,-0.180985,0.13330208,1.4588071,-1.5035498
-0.1,0.0,0.7999999999999999,0.0,0.0,0,1.9023699,0.9374458,0.8351913,-0.16872193,-0.13135159,1.4668072,-0.0791947,-0.23355986,-1.1760702,-2.2686002,-0.15600301,0.08614877,1.4715985,-2.3109863
-0.1,0.0,0.7999999999999999,0.0,0.0,0,1.8954312,0.9797254,0.8319194,-0.13752879,-0.1522361,1.515535,-0.0048185345,-0.20269245,-1.2630761,-2.095526,-0.1301341,0.181415,1.3975532,-2.3819468
-0.1,0.0,0.7999999999999999,0.0,0.0,0,2.022013,0.93623394,0.83311146,-0.106922284,-0.16319066,1.4804113,0.12566085,-0.28356025,-1.2035675,-2.1135404,-0.18052801,-0.026580501,1.4739733,-0.76854074
-0.1,0.0,0.7999999999999999,0.0,0.0,0,1.9942466,0.9393834,0.8599112,-0.10242508,-0.12766577,1.4884005,-0.043692924,-0.2720214,-1.2191279,-2.1946821,-0.16469218,0.05365186,1.4549475,-1.8792506
-0.1,0.0,0.7999999999999999,0.0,0.0,0,2.012463,0.9302623,0.817901,-0.12587449,-0.13394521,1.4947112,-0.07497278,-0.26195484,-1.112537,-2.1839573,-0.011166566,0.16172555,1.3943307,-2.273005
-0.1,0.0,0.7999999999999999,0.0,0.0,0,1.9132574,0.89891714,0.82230365,-0.15813132,-0.07362411,1.5237098,-0.003501802,-0.29379538,-1.1862415,-2.0574684,-0.19912806,0.045810323,1.4921238,-1.3563819
-0.1,0.0,0.7999999999999999,0.0,0.0,0,1.8951907,0.9531046,0.8328982,-0.13507609,-0.124292344,1.517521,0.048145898,-0.27666393,-1.3223871,-2.1067293,-0.14776558,0.1775709,1.4617512,-1.5541811
-0.1,0.0,0.7999999999999999,0.0,0.0,0,1.8813066,0.93708724,0.8406077,-0.12356828,-0.14684533,1.4999044,-0.14096749,-0.31673208,-1.1662933,-2.2820446,-0.26287568,0.07464993,1.4385623,-1.7413279
-0.1,0.0,0.7999999999999999,0.0,0.0,0,1.9646231,0.95720816,0.88048786,-0.12515259,-0.13552678,1.5103269,0.064501844,-0.23807974,-1.2008172,-2.1652129,-0.11745092,0.2035175,1.4299552,-1.4043479
-0.1,0.0,0.7999999999999999,0.0,0.0,0,1.9211708,0.87994057,0.8313672,-0.15521026,-0.076904334,1.5062242,-0.08148296,-0.24279971,-1.1847479,-2.163232,-0.15091267,0.007859201,1.5022117,-1.6431918
-0.1,0.0,0.7999999999999999,0.0,0.0,0,1.9727651,0.8985792,0.822509,-0.14931351,-0.083993964,1.4767056,-0.17762925,-0.24616306,-1.2632865,-2.0852098,-0.09146847,0.13255979,1.4083353,-0.8823331
-0.1,0.0,0.7999999999999999,0.0,0.0,0,1.9423196,0.9391624,0.8268435,-0.17390275,-0.15169059,1.5324713,-0.16227263,-0.205696,-1.1983902,-2.0838387,-0.19064258,0.13122378,1.4519511,-1.0790572
-0.1,0.0,0.7999999999999999,0.0,0.0,0,1.9901041,0.9966138,0.83267504,-0.11903424,-0.1539208,1.5504556,-0.039769106,-0.20025343,-1.1998034,-2.1131463,-0.15503794,0.18900384,1.4394614,-1.001964
-0.1,0.0,0.7999999999999999,0.0,0.0,0,1.9805858,0.94172436,0.82659614,-0.110866,-0.21328083,1.503245,0.10387593,-0.15373372,-1.1891898,-2.292204,-0.17943102,0.19278882,1.4362369,-1.9260442
-0.1,0.0,0.7999999999999999,0.0,0.0,0,1.8743596,0.9076803,0.8458162,-0.16091645,-0.12802961,1.5432374,-0.11243201,-0.20737743,-1.2176172,-2.10151,-0.13535896,0.0701248,1.436176,-2.2275538
-0.1,0.0,0.7999999999999999,0.0,0.0,0,1.9412616,0.9413078,0.85682416,-0.13806203,-0.12557334,1.5128293,-0.04203457,-0.2608544,-1.3105496,-2.2002294,-0.13976935,0.035823762,1.5087713,-1.2440184
-0.1,0.0,0.7999999999999999,0.0,0.0,0,1.9363078,0.93482304,0.8143738,-0.17381933,-0.12136469,1.5356296,0.039847746,-0.2137971,-1.1883574,-2.0080378,-0.18007986,0.029131617,1.4447393,-1.2637583
-0.1,0.0,0.7999999999999999,0.0,0.0,0,1.9605228,0.9600312,0.8593017,-0.17334467,-0.15860246,1.5178702,0.039757002,-0.28188145,-1.1309296,-2.2190094,-0.1365448,0.0359052,1.484067,-1.85221
-0.1,0.0,0.7999999999999999,0.0,0.0,0,1.9821197,0.9809899,0.8204387,-0.08042502,-0.16396354,1.5433577,-0.04617174,-0.28148282,-1.0624877,-2.2083662,-0.117911026,0.21105385,1.4444329,-1.1220081
-0.1,0.0,0.7999999999999999,0.0,0.0,0,1.8791047,0.9866504,0.88007325,-0.16099514,-0.1726026,1.507702,-0.18055058,-0.26617116,-1.2243522,-2.128246,-0.11373909,0.014541714,1.4295169,-1.9774485
-0.1,0.0,0.7999999999999999,0.0,0.0,0,1.9590192,0.9280748,0.8151432,-0.16857529,-0.16779952,1.5212587,-0.12601905,-0.18446867,-1.0903783,-2.2155273,-0.14047924,-0.010832531,1.4922806,-1.3853722
-0.1,0.0,0.7999999999999999,0.0,0.0,0,1.9732325,0.9543145,0.8357007,-0.12305833,-0.123037204,1.5297999,0.033250358,-0.21883886,-1.1492722,-2.0931585,-0.09152726,0.052298233,1.3765683,-1.1389037
-0.1,0.0,0.7999999999999999,0.0,0.0,0,1.9907995,0.9730006,0.8740407,-0.111977175,-0.10227681,1.4817892,-0.018562283,-0.22668773,-1.2325319,-2.221898,-0.10473082,0.037099846,1.4278541,-1.8355938
-0.1,0.0,0.7999999999999999,0.0,0.0,0,1.8685101,0.94568646,0.8013412,-0.14795965,-0.09133949,1.5218105,-0.077245325,-0.28046605,-1.1249471,-2.0731108,-0.18682432,0.07029236,1.4953396,-1.3708951
-0.1,0.0,0.7999999999999999,0.0,0.0,0,1.8537487,0.9386373,0.8500005,-0.12321806,-0.22798854,1.5296317,-0.039469626,-0.27356404,-1.1503237,-2.1885142,-0.19436201,0.19543639,1.4428025,-1.7989655
-0.1,0.0,0.7999999999999999,0.0,0.0,0,1.9322342,0.91959894,0.84129953,-0.11103836,-0.19303104,1.5413646,-0.13334346,-0.20449474,-1.2208128,-2.1301136,-0.13599113,0.08384836,1.4216442,-1.2620139
-0.1,0.0,0.7999999999999999,0.0,0.0,0,1.8666918,0.9740089,0.8270091,-0.124908015,-0.16402407,1.5164413,-0.077434584,-0.1854891,-1.1246117,-2.2177937,-0.12714787,0.16437823,1.4588974,-1.0596639
-0.1,0.0,0.7999999999999999,0.0,0.0,0,1.9022893,0.95026976,0.8546588,-0.13808516,-0.068626426,1.5526472,-0.07702927,-0.1938234,-1.131316,-2.0954487,-0.18141472,0.051994607,1.4547747,-1.3461055
-0.1,0.0,0.7999999999999999,0.0,0.0,0,1.9469991,0.9358477,0.83918387,-0.0763669,-0.09065647,1.4923208,-0.06563838,-0.27863497,-1.1660872,-2.1829052,-0.09959006,0.113556355,1.4141948,-1.5056459
-0.1,0.0,0.7999999999999999,0.0,0.0,0,1.862884,0.9300356,0.8568795,-0.1351379,-0.17903464,1.5004411,0.043335155,-0.2121169,-1.1356165,-2.2607348,-0.17047475,0.004277934,1.4289973,-1.7416964
-0.1,0.0,0.7999999999999999,0.0,0.0,0,1.9513341,0.95931685,0.84699196,-0.124640144,-0.15724894,1.4694953,-0.15672624,-0.29127738,-1.1777121,-2.2441213,-0.16490057,0.030326094,1.3961037,-1.8679016
-0.1,0.0,0.7999999999999999,0.0,0.0,0,2.0187988,0.9453599,0.82629037,-0.15990424,-0.15770975,1.4586879,0.00691347,-0.21216847,-1.2784101,-2.1694505,-0.06866014,0.12423954,1.4014453,-1.9421979
-0.1,0.0,0.7999999999999999,0.0,0.0,0,1.9200865,0.9621675,0.8372795,-0.12939154,-0.1788661,1.4994447,-0.06332461,-0.28833532,-1.1120061,-2.1372745,-0.26450822,0.081267126,1.4718533,-1.7529823
-0.1,0.0,0.7999999999999999,0.0,0.0,0,1.9069208,0.97022974,0.83656186,-0.13165817,-0.16739208,1.5375291,-0.15684798,-0.20926645,-1.1608384,-2.1570663,-0.07322471,-0.045259606,1.4889137,-2.1576984
-0.1,0.0,0.7999999999999999,0.0,0.0,0,1.8526552,0.9372847,0.86237574,-0.10578672,-0.17983924,1.5374024,-0.14376593,-0.21193418,-1.182713,-2.1695023,-0.119231954,-0.016379647,1.4637829,-1.4900683
-0.1,0.0,0.7999999999999999,0.0,0.0,0,1.9707692,0.9869255,0.86054313,-0.14998765,-0.12100223,1.4799672,0.017340664,-0.23787239,-1.1545986,-2.257307,-0.16931696,0.062536724,1.3965461,-1.7932291
-0.1,0.0,0.7999999999999999,0.0,0.0,0,1.971677,0.88762003,0.8334726,-0.12415496,-0.15978168,1.4909937,0.012804846,-0.22664952,-1.1063644,-2.2262619,-0.14352418,-0.03576768,1.427686,-1.2796795
-0.1,0.0,0.7999999999999999,0.0,0.0,0,1.9114681,0.94968766,0.8479161,-0.13035333,-0.17960158,1.5380819,-0.075498745,-0.25122082,-1.1329722,-2.1822803,-0.0978134,0.17805873,1.4356709,-1.8032087
-0.1,0.0,0.7999999999999999,0.0,0.0,0,1.9354624,0.8814021,0.8034407,-0.1572836,-0.049347054,1.4825058,-0.18737857,-0.26762515,-1.1068801,-2.2673125,-0.09582294,0.19309409,1.4558679,-1.928311
-0.1,0.0,0.7999999999999999,0.0,0.0,0,1.9240412,0.9134281,0.8243887,-0.15136845,-0.1419539,1.4787741,0.19514069,-0.23234704,-1.2366054,-2.1028068,-0.1693647,0.08907398,1.4075495,-1.6776621
-0.1,0.0,0.7999999999999999,0.0,0.0,0,2.0080478,0.9308539,0.8400491,-0.116101116,-0.06381431,1.4841819,0.07164157,-0.2595394,-1.2795994,-2.1248782,-0.18111314,0.030952878,1.4618958,-1.7433087
-0.1,0.0,0.7999999999999999,0.0,0.0,0,1.9866375,0.95926154,0.85065126,-0.14543582,-0.16165158,1.5385133,-0.08345894,-0.2830601,-1.1494905,-2.1199741,-0.13645557,0.017466733,1.4810883,-1.7655845
-0.1,0.0,0.7999999999999999,0.0,0.0,0,1.8397421,0.95027715,0.81587785,-0.17635185,-0.17017937,1.5624708,0.058844693,-0.229576,-1.1291797,-2.1799598,-0.2046123,0.10291947,1.4969496,-1.2681533
-0.1,0.0,0.7999999999999999,0.0,0.0,0,1.9092747,0.9241114,0.833702,-0.0969955,-0.15080975,1.5041722,-0.13567065,-0.17011383,-1.1686833,-2.007148,-0.211018,0.05566288,1.5147389,-1.7753029
-0.1,0.0,0.7999999999999999,0.0,0.0,0,1.8929865,0.92925364,0.8645096,-0.15937443,-0.1533241,1.5139816,-0.038576093,-0.24088804,-1.1595563,-2.1960647,-0.13870119,0.021618523,1.4806695,-1.2793254
-0.1,0.0,0.7999999999999999,0.0,0.0,0,1.9899743,0.9471886,0.86410236,-0.13722774,-0.11775817,1.5546335,-0.019876214,-0.26259345,-1.1734288,-2.171086,-0.19413306,0.15158789,1.4701662,-1.0085936
-0.1,0.0,0.7999999999999999,0.0,0.0,0,1.9728193,0.9221496,0.87899464,-0.09533064,-0.122382,1.5407062,-0.19985491,-0.26857615,-1.2194043,-2.148324,-0.06927412,0.04475302,1.4411395,-2.017693
-0.1,0.0,0.7999999999999999,0.0,0.0,0,1.8911865,0.9603613,0.8226261,-0.12165157,-0.14446974,1.4760123,-0.08284271,-0.24033335,-1.1733409,-2.1031818,-0.0992533,-0.057873785,1.4628468,-1.5861423
-0.1,0.0,0.7999999999999999,0.0,0.0,0,1.9905075,0.8785247,0.82260466,-0.14425333,-0.12308064,1.4948372,-0.18641843,-0.24978852,-1.266485,-2.226922,-0.18554866,0.07683977,1.4868485,-1.0441282
-0.1,0.0,0.7999999999999999,0.0,0.0,0,1.9176575,0.9151983,0.8190556,-0.11894542,-0.14462604,1.5155342,0.09304794,-0.22396721,-1.1357937,-2.0952103,-0.12949356,0.0544552,1.4505723,-1.8952186
-0.1,0.0,0.7999999999999999,0.0,0.0,0,2.0220494,0.93501025,0.8475526,-0.16897012,-0.14990126,1.5177064,0.0046001254,-0.19039208,-1.2334735,-2.0392916,-0.17720847,0.10377833,1.4724915,-1.2738922
-0.1,0.0,0.7999999999999999,0.0,0.0,0,1.9495072,0.93946505,0.8601933,-0.12151799,-0.12446791,1.5473212,-0.25145385,-0.24320164,-1.1634051,-2.3090978,-0.090767965,0.049411885,1.4733629,-1.3259242
-0.1,0.0,0.7999999999999999,0.0,0.0,0,1.9439772,0.9281875,0.7933191,-0.14691664,-0.12828808,1.4762429,-0.16611882,-0.20675413,-1.215527,-2.2976942,-0.0894489,0.065699756,1.4174241,-1.8467911
-0.1,0.0,0.7999999999999999,0.0,0.0,0,1.9175014,0.997933,0.84842426,-0.15127473,-0.1254993,1.5395718,-0.11583424,-0.290573,-1.1792985,-2.1607728,-0.13858436,-0.056740955,1.4446003,-1.260507
-0.1,0.0,0.7999999999999999,0.0,0.0,0,1.9675789,0.88198495,0.86576986,-0.10868889,-0.10613527,1.5018234,-0.069147624,-0.31858715,-1.2421936,-2.2850013,-0.18291293,0.07813519,1.4577667,-1.6270071
-0.1,0.0,0.7999999999999999,0.0,0.0,0,1.993299,0.91819096,0.8127151,-0.1674369,-0.12368418,1.5216342,-0.005362842,-0.30954388,-1.1283228,-2.1577597,-0.29603696,0.11147831,1.502659,-1.6763574
-0.1,0.0,0.7999999999999999,0.0,0.0,0,1.9495065,0.9358123,0.8241472,-0.16518593,-0.15695284,1.4762096,-0.096386194,-0.3058645,-1.1330618,-2.1195288,-0.22421622,0.06169865,1.4382427,-1.2854782
-0.1,0.0,0.7999999999999999,0.0,0.0,0,1.9725513,0.90024054,0.8400384,-0.11141513,-0.09559732,1.542397,-0.20892213,-0.2398152,-1.2331305,-1.9857007,-0.365598,0.07892812,1.4587775,-1.8569474
-0.1,0.0,0.7999999999999999,0.0,0.0,0,1.9142523,0.9564379,0.8462837,-0.16160032,-0.10739832,1.4924403,-0.08799535,-0.2635761,-1.1782354,-2.0944178,-0.108807504,0.036710043,1.4431822,-1.599811
-0.1,0.0,0.7999999999999999,0.0,0.0,0,1.9308281,0.88198096,0.8170699,-0.14751263,-0.13695997,1.4666637,0.03478952,-0.26934364,-1.1504589,-2.2304592,-0.0989465,0.133281,1.4709206,-1.6921756
-0.1,0.0,0.7999999999999999,0.0,0.0,0,1.9182091,0.96005535,0.88363135,-0.14380118,-0.144867,1.5647403,-0.09635822,-0.2206483,-1.2216964,-2.1398754,-0.16783118,0.11849366,1.4795953,-1.4848604
-0.1,0.0,0.7999999999999999,0.0,0.0,0,2.035034,0.9511179,0.84714544,-0.13129714,-0.14129625,1.5103735,-0.18958397,-0.18396327,-1.2541872,-2.0476415,-0.13027172,0.031240527,1.4446038,-1.9107703
-0.1,0.0,0.7999999999999999,0.0,0.0,0,1.9597938,0.9425367,0.8841388,-0.120038316,-0.15530728,1.5128644,-0.07846342,-0.32851976,-1.1959299,-2.3057735,-0.35514396,0.15362509,1.4513688,-1.5094984
-0.1,0.0,0.7999999999999999,0.0,0.0,0,2.0004735,0.95338064,0.84510183,-0.12064685,-0.1297614,1.4832343,-0.12706223,-0.24526782,-1.2040372,-2.065043,-0.17345053,0.038395893,1.4935097,-1.6246828
-0.1,0.0,0.7999999999999999,0.0,0.0,0,1.9435976,0.93356407,0.84474134,-0.1494924,-0.12693143,1.4970263,-0.18205355,-0.19451274,-1.1473256,-2.131308,-0.076238416,0.052048564,1.4180679,-1.7636158
-0.1,0.0,0.7999999999999999,0.0,0.0,0,1.9566933,0.97105396,0.81963176,-0.100888245,-0.12703668,1.5202042,-0.053692993,-0.26266968,-1.1768794,-2.2311525,-0.1815812,0.048376836,1.4659361,-2.2625155
-0.1,0.0,0.7999999999999999,0.0,0.0,0,1.9926709,0.9006635,0.8173669,-0.10804136,-0.12185308,1.5209043,0.062551945,-0.14946672,-1.142621,-2.1977003,-0.15164219,-0.032678284,1.4673913,-1.4773154
-0.1,0.0,0.7999999999999999,0.0,0.0,0,1.9668453,0.9127462,0.83521706,-0.122078896,-0.17552407,1.4852651,-0.14766192,-0.24873234,-1.2451646,-2.1028922,-0.077274665,0.21178548,1.4565408,-2.4845614
-0.1,0.0,0.7999999999999999,0.0,0.0,0,1.9084109,0.93577176,0.8259194,-0.16023915,-0.17050421,1.4949685,0.17824872,-0.27328286,-1.256193,-2.2951443,-0.19425902,0.022205979,1.461027,-1.5428752
-0.1,0.0,0.7999999999999999,0.0,0.0,0,1.9637307,0.9479828,0.88061005,-0.124197446,-0.14772336,1.501667,0.016822947,-0.25123045,-1.1786243,-2.1755025,-0.17139076,-0.025664145,1.5032593,-1.8598915
-0.1,0.0,0.7999999999999999,0.0,0.0,0,1.9111942,0.915383,0.82235396,-0.13905895,-0.19045188,1.5085531,-0.04013607,-0.26718205,-1.1563021,-2.0753422,-0.17810397,-0.059482682,1.3871619,-1.591001
-0.1,0.0,0.7999999999999999,0.0,0.0,0,1.9621745,0.97558093,0.87250626,-0.10937734,-0.16337644,1.5306636,0.015442451,-0.22104616,-1.1955296,-2.027767,-0.12321826,0.0093909595,1.3987725,-1.3651505
-0.1,0.0,0.7999999999999999,0.0,0.0,0,1.8403502,0.9846464,0.84088707,-0.12458232,-0.09191816,1.486044,-0.10006748,-0.21638352,-1.3135912,-2.1250954,-0.19275042,0.26680598,1.4770904,-1.4734762
-0.1,0.0,0.7999999999999999,0.0,0.0,0,1.9514874,0.95818084,0.8319504,-0.12864237,-0.06688407,1.5531514,-0.059695803,-0.24618113,-1.1889656,-2.1376674,-0.128734,-0.03629286,1.472697,-1.7173828
-0.1,0.0,0.7999999999999999,0.0,0.0,0,1.9384205,0.9195721,0.84083164,-0.11337423,-0.14015912,1.4949775,-0.001388786,-0.2842778,-1.1420105,-2.1724112,-0.27508834,0.026053531,1.4718125,-1.6434245
-0.1,0.0,0.7999999999999999,0.0,0.0,0,1.857271,0.96773404,0.8716662,-0.10503387,-0.13554756,1.4701588,-0.05582283,-0.29732597,-1.2110801,-2.1194348,-0.43008557,0.067066565,1.5083976,-1.4688047
-0.1,0.0,0.7999999999999999,0.0,0.0,0,1.9686968,0.9983173,0.8306995,-0.1579985,-0.12764686,1.4905081,-0.13553444,-0.25454456,-1.1784945,-2.0583813,-0.102391884,-0.0020495118,1.4204177,-1.5537865
-0.1,0.0,0.7999999999999999,0.0,0.0,0,1.9843853,0.98686826,0.8386118,-0.13772057,-0.12240792,1.5264268,-0.11582097,-0.28256416,-1.0482922,-2.2227674,-0.15684387,0.10481374,1.4773133,-1.8302795
-0.1,0.0,0.7999999999999999,0.0,0.0,0,1.9323205,0.9629666,0.85274196,-0.094457455,-0.17489636,1.5383197,-0.19137993,-0.22972094,-1.2383106,-2.1676295,-0.15002626,0.021380655,1.4800034,-1.1780974
-0.1,0.0,0.7999999999999999,0.0,0.0,0,1.872617,0.96074206,0.83680034,-0.0820202,-0.14418687,1.4879955,-0.099501856,-0.23861024,-1.1908432,-2.1568334,-0.101812564,0.002939153,1.429787,-1.6399251
-0.1,0.0,0.7999999999999999,0.0,0.0,0,1.9537368,0.95300853,0.7881631,-0.15727836,-0.07998281,1.5477657,-0.13117129,-0.20883155,-1.1414808,-2.287062,-0.12813891,0.08645113,1.4409072,-1.8129205
-0.1,0.0,0.7999999999999999,0.0,0.0,0,1.9090006,0.9450053,0.85174423,-0.124443464,-0.12355812,1.4896493,0.032903347,-0.22188672,-1.1938852,-2.1522198,-0.1317918,0.060819574,1.4411314,-1.4961048
-0.1,0.0,0.7999999999999999,0.0,0.0,0,1.9147298,0.9580273,0.8341749,-0.10396659,-0.12828737,1.4962854,-0.05638926,-0.24561717,-1.2373435,-2.1921296,-0.061424173,0.0067157936,1.4403776,-1.4790118
-0.1,0.0,0.7999999999999999,0.0,0.0,0,1.9338404,0.9198357,0.8234956,-0.0798187,-0.07485679,1.5243033,-0.15766113,-0.27945828,-1.063022,-2.0443134,-0.1595491,-0.04329559,1.4171554,-2.2306411
-0.1,0.0,0.7999999999999999,0.0,0.0,0,1.925289,0.9085776,0.79667985,-0.10830823,-0.1023916,1.5164819,-0.18665864,-0.26797435,-1.3023796,-2.2403684,-0.17759217,0.13699876,1.4659351,-1.3431163
-0.1,0.0,0.7999999999999999,0.0,0.0,0,1.910821,0.93974227,0.830262,-0.111915626,-0.13870218,1.515514,-0.10734261,-0.16644372,-1.2789059,-2.1842244,-0.15366188,0.19749022,1.4670428,-1.4834796
-0.1,0.0,0.7999999999999999,0.0,0.0,0,1.9718893,0.9304997,0.8888156,-0.13225175,-0.09651206,1.5262253,-0.05617718,-0.23979859,-1.2256573,-2.3055286,-0.14108421,0.088949606,1.4671693,-1.3766539
-0.1,0.0,0.7999999999999999,0.0,0.0,0,1.971468,0.9533911,0.85419166,-0.1219252,-0.121645465,1.4960088,0.10058341,-0.22822283,-1.2409338,-2.1508834,-0.059384614,0.12701608,1.5542264,-1.7482961
-0.1,0.0,0.7999999999999999,0.0,0.0,0,1.9980632,0.9657045,0.83809537,-0.117796175,-0.12304531,1.4960282,0.017884023,-0.28563148,-1.2735431,-2.0728025,-0.21048701,0.0909217,1.5117962,-1.3274492
-0.1,0.0,0.7999999999999999,0.0,0.0,0,1.9428316,0.96816325,0.84803444,-0.17735045,-0.10696887,1.5137707,-0.056100573,-0.24643768,-1.0540501,-2.1456907,-0.3827143,-0.025229199,1.4854028,-1.4656225
-0.1,0.0,0.7999999999999999,0.0,0.0,0,1.9485501,0.89318323,0.85971653,-0.14650574,-0.10874849,1.5023029,-0.011865304,-0.2531871,-1.197439,-2.1002626,-0.14860271,0.051202994,1.4180361,-1.9201639
-0.1,0.0,0.7999999999999999,0.0,0.0,0,1.9987104,0.91551006,0.80754554,-0.12902825,-0.090969756,1.5105528,-0.06985307,-0.2512226,-1.1817507,-2.2105107,-0.10265604,0.19504552,1.4571252,-1.8099248
-0.1,0.0,0.7999999999999999,0.0,0.0,0,1.8951609,0.95587784,0.7755518,-0.12666655,-0.14463198,1.5157012,-0.17808178,-0.18351984,-1.2144692,-2.1995146,-0.1681404,0.111340314,1.4404742,-1.8215187
-0.1,0.0,0.7999999999999999,0.0,0.0,0,2.0249853,0.9791416,0.8356546,-0.14076786,-0.17272839,1.4989042,-0.12768619,-0.23192969,-1.2269135,-2.11881,-0.17991768,0.009589479,1.4633877,-1.8509265
-0.1,0.0,0.7999999999999999,0.0,0.0,0,1.9335572,0.9493591,0.86138964,-0.15301608,-0.106160395,1.5154867,-0.1703917,-0.2678896,-1.2422929,-2.0831895,-0.10196592,0.03693598,1.4041635,-1.6463166
-0.1,0.0,0.7999999999999999,0.0,0.0,0,1.9667648,0.9287381,0.81312406,-0.16739939,-0.116391584,1.5239533,-0.068497084,-0.21742934,-1.1319859,-2.061427,-0.13604362,0.051597625,1.4704983,-1.8132213
-0.1,0.0,0.7999999999999999,0.0,0.0,0,1.8570313,0.9442478,0.83246315,-0.12777346,-0.1565211,1.4955288,-0.13338788,-0.23742826,-1.1762294,-2.0972028,-0.15599772,0.10654374,1.4899727,-1.9548087
-0.1,0.0,0.7999999999999999,0.0,0.0,0,1.9435252,0.94073206,0.83925587,-0.118905425,-0.108629026,1.5357147,-0.0909217,-0.26776338,-1.2386652,-2.1948543,-0.15355326,0.04419853,1.4994905,-1.2120991
-0.1,0.0,0.7999999999999999,0.0,0.0,0,1.9110186,0.9121298,0.8274686,-0.14915591,-0.16335243,1.4880109,-0.11953416,-0.2100973,-1.2036288,-2.0946932,-0.122285455,0.056415852,1.4309133,-1.4816571
-0.1,0.0,0.7999999999999999,0.0,0.0,0,1.8512638,0.91970134,0.88961834,-0.12286147,-0.15020666,1.5263758,-0.054709207,-0.2459945,-1.0963987,-2.1485941,-0.061843567,0.04166055,1.4033238,-1.9748296
-0.1,0.0,0.7999999999999999,0.0,0.0,0,1.9477255,0.92043304,0.8586318,-0.12951854,-0.16421205,1.5103922,-0.1080942,-0.2722855,-1.1683244,-2.2024064,-0.13668194,0.14677323,1.439208,-1.7364951
-0.1,0.0,0.7999999999999999,0.0,0.0,0,1.9475448,0.9189696,0.8270596,-0.14075877,-0.096881226,1.5336989,-0.043936227,-0.23382697,-1.2389553,-2.0533051,-0.18726695,0.070244744,1.4523987,-1.3415972
-0.1,0.0,0.7999999999999999,0.0,0.0,0,2.0334485,0.9628112,0.84211475,-0.13006257,-0.11047483,1.5226357,-0.10044159,-0.20728667,-1.1757419,-2.1674006,-0.17514922,0.0983701,1.4454904,-1.5186282
-0.1,0.0,0.7999999999999999,0.0,0.0,0,1.9245454,0.94966465,0.8265995,-0.13157655,-0.17838897,1.5254475,-0.14967526,-0.24624747,-1.2138929,-2.1439946,-0.39265344,0.02163703,1.5546135,-1.3569605
-0.1,0.0,0.7999999999999999,0.0,0.0,0,1.9971321,0.9280908,0.8483652,-0.1167311,-0.17284115,1.5040318,0.01022615,-0.2179901,-1.1584197,-2.0978456,-0.1527818,-0.02283,1.4894012,-1.7344046
-0.1,0.0,0.7999999999999999,0.0,0.0,0,1.9933901,0.9071879,0.81141055,-0.14356907,-0.15473016,1.5386431,-0.011895104,-0.30971566,-1.2319144,-2.2315705,-0.16398458,0.09009302,1.4031442,-2.2486186
-0.1,0.0,0.7999999999999999,0.0,0.0,0,2.0065548,0.95260376,0.79738027,-0.12902671,-0.13751729,1.5494256,-0.08210452,-0.17587827,-1.1951016,-2.148918,-0.20006041,0.12959528,1.4971519,-1.4911314
-0.1,0.0,0.7999999999999999,0.0,0.0,0,1.9427923,0.9490527,0.8195513,-0.17113347,-0.16102885,1.5463928,-0.08074181,-0.21593486,-1.1326725,-2.1194677,-0.1402773,0.09580539,1.4621007,-1.8986161
-0.1,0.0,0.7999999999999999,0.0,0.0,0,1.9504824,0.950051,0.8576193,-0.12898417,-0.10979319,1.5451343,-0.13801205,-0.20126072,-1.1002777,-2.167169,-0.16623887,0.05072811,1.4587849,-2.4864607
-0.1,0.0,0.7999999999999999,0.0,0.0,0,1.900102,0.898647,0.7935962,-0.18649882,-0.09686762,1.531293,-0.01665653,-0.22917856,-1.2220383,-2.233794,-0.16972457,0.046826266,1.4383987,-1.6818612
-0.1,0.0,0.7999999999999999,0.0,0.0,0,1.9221851,0.9483462,0.8206699,-0.12741229,-0.13929656,1.5283091,0.031870365,-0.30238366,-1.1806693,-2.0629346,-0.1086446,0.022107208,1.4524767,-1.9946278
-0.1,0.0,0.7999999999999999,0.0,0.0,0,1.9446368,0.9065816,0.8504955,-0.10941169,-0.100506514,1.517094,-0.08416735,-0.23045179,-1.2656958,-2.066909,-0.17440817,0.103866875,1.4700761,-1.9289864
-0.1,0.0,0.7999999999999999,0.0,0.0,0,1.8970329,0.93677956,0.8159034,-0.14966659,-0.12834597,1.5213782,-0.120906636,-0.22430235,-1.1294092,-2.1390078,-0.15582368,0.08900593,1.4637651,-1.9460497
-0.1,0.0,0.7999999999999999,0.0,0.0,0,1.97817,0.9179653,0.8107507,-0.15446493,-0.13933057,1.4902557,-0.15917446,-0.26476958,-1.1343918,-2.1656625,-0.0688784,0.08962006,1.4176936,-1.9075466
-0.1,0.0,0.7999999999999999,0.0,0.0,0,1.979926,0.96213025,0.8328258,-0.14181937,-0.11020879,1.5180339,-0.10281003,-0.26900044,-1.1814857,-2.1029496,-0.1182158,0.09934849,1.4492184,-1.6493517
-0.1,0.0,0.7999999999999999,0.0,0.0,0,1.9448389,1.0097649,0.8706743,-0.13400747,-0.098166466,1.5066406,0.030339902,-0.19903585,-1.1884189,-2.1729655,-0.21777585,-0.041941565,1.4443194,-1.4215999
-0.1,0.0,0.7999999999999999,0.0,0.0,0,1.9146771,0.98417896,0.8295422,-0.142956,-0.19419572,1.5078356,-0.17293756,-0.220836,-1.1966107,-2.1085076,-0.10835609,0.03999289,1.4589939,-1.9289895
-0.1,0.0,0.7999999999999999,0.0,0.0,0,2.0033686,0.9494714,0.81930685,-0.11092045,-0.12732296,1.534327,-0.023139149,-0.23519252,-1.3037834,-2.0740893,-0.20057839,0.03621509,1.4859035,-1.2220296
-0.1,0.0,0.7999999999999999,0.0,0.0,0,1.8963469,0.9305607,0.8217135,-0.13731517,-0.13350868,1.4708025,-0.12313929,-0.2238696,-1.2592748,-2.0456378,-0.16681105,0.1199126,1.5143467,-2.0575812
-0.1,0.0,0.7999999999999999,0.0,0.0,0,1.9488833,0.9641272,0.8439255,-0.15347764,-0.14385155,1.4930228,-0.2418915,-0.19860487,-1.2411865,-2.1552742,-0.13322926,0.11893371,1.4920626,-1.8278127
-0.1,0.0,0.7999999999999999,0.0,0.0,0,1.8302722,0.9707668,0.7548836,-0.13747853,-0.10953852,1.5010076,-0.019186854,-0.27300182,-1.2078593,-2.0509305,-0.118964516,0.04051917,1.4500566,-1.5703388
-0.1,0.0,0.7999999999999999,0.0,0.0,0,1.9239129,0.99830467,0.8333911,-0.13579533,-0.09952123,1.4819347,-0.026059818,-0.26696062,-1.2418369,-2.1122825,-0.14580125,-0.068609186,1.396982,-1.6783619
-0.1,0.0,0.7999999999999999,0.0,0.0,0,1.9666286,0.97575706,0.84252834,-0.16056342,-0.19862743,1.5150995,-0.07921423,-0.24458769,-1.089179,-2.118488,-0.11696189,0.091493435,1.462818,-1.4399029
-0.1,0.0,0.7999999999999999,0.0,0.0,0,1.9412766,0.95575553,0.8099875,-0.16992871,-0.14526549,1.4791443,-0.12978657,-0.24506062,-1.159163,-2.1478584,-0.13984573,0.036949504,1.4887034,-1.36695
-0.1,0.0,0.7999999999999999,0.0,0.0,0,1.9936377,0.9281377,0.8384264,-0.1403191,-0.16067821,1.51966,-0.07950147,-0.24943765,-1.1494353,-2.1169343,-0.108339466,0.034122474,1.4565507,-1.7458605
-0.1,0.0,0.7999999999999999,0.0,0.0,0,2.0180557,0.91300327,0.82113636,-0.13574882,-0.123458534,1.5093806,-0.066896565,-0.26545826,-1.0986778,-2.1563883,-0.22816433,0.00095475215,1.4489397,-1.7149609
-0.1,0.0,0.7999999999999999,0.0,0.0,0,1.9993324,0.9273227,0.8119324,-0.16015027,-0.082404956,1.4958563,-0.17804939,-0.19719003,-1.1272895,-2.146535,-0.14595972,0.01749356,1.4550511,-1.6011853
-0.1,0.0,0.7999999999999999,0.0,0.0,0,1.9219724,0.9440098,0.88614744,-0.16122411,-0.044942446,1.5357238,-0.07964605,-0.27841607,-1.2380496,-2.1532867,-0.08120927,0.18926565,1.4069754,-2.0118284
-0.1,0.0,0.7999999999999999,0.0,0.0,0,2.03848,0.98899513,0.86198694,-0.14057411,-0.120797776,1.5027944,-0.08477242,-0.24426126,-1.1548951,-2.3066077,-0.1373057,-0.10838476,1.4884055,-1.4465456
-0.1,0.0,0.7999999999999999,0.0,0.0,0,1.9536245,0.9702493,0.83155054,-0.11558296,-0.11271296,1.5522155,0.06127089,-0.24310736,-1.0986304,-2.066649,-0.0628028,0.064653546,1.3714485,-1.7841728
-0.1,0.0,0.7999999999999999,0.0,0.0,0,1.9741415,0.9757948,0.8349017,-0.086513564,-0.18099838,1.4809823,-0.077981874,-0.19450745,-1.2430286,-2.0304587,-0.13741535,0.17990923,1.4413303,-1.592955
-0.1,0.0,0.7999999999999999,0.0,0.0,0,1.9888476,0.9228899,0.7874174,-0.13590316,-0.1573159,1.5305884,-0.0023176926,-0.26867437,-1.2560678,-2.2350097,-0.18369117,0.027616115,1.4132249,-1.4856974
-0.1,0.0,0.7999999999999999,0.0,0.0,0,1.9430152,0.9830745,0.89058137,-0.13014013,-0.19724816,1.4888899,-0.025213374,-0.18964106,-1.0853359,-2.1973038,-0.23952946,-0.15734619,1.5160344,-1.4831964
-0.1,0.0,0.7999999999999999,0.0,0.0,0,1.9846915,0.99300164,0.8678929,-0.120967336,-0.15981276,1.5103469,-0.22643241,-0.19134405,-1.1665602,-2.3418036,-0.115726724,0.025581779,1.3956425,-1.9703519
-0.1,0.0,0.7999999999999999,0.0,0.0,0,1.8834455,0.9461722,0.8446263,-0.16512682,-0.10143284,1.5364678,-0.23204781,-0.26591846,-1.1490083,-2.2505152,-0.079384506,0.092618555,1.4347485,-1.7524322
-0.1,0.0,0.7999999999999999,0.0,0.0,0,1.9865959,0.92967886,0.8542707,-0.14401554,-0.16155535,1.5246668,-0.11771207,-0.25887403,-1.2771263,-2.1808326,-0.08344594,0.18830168,1.4206655,-1.5807831
-0.1,0.0,0.7999999999999999,0.0,0.0,0,1.9176012,0.95678407,0.84784335,-0.12927839,-0.15049885,1.4992377,-0.08536359,-0.22379012,-1.1706554,-2.2614784,-0.14624913,0.10863088,1.457038,-1.2236394
-0.1,0.0,0.7999999999999999,0.0,0.0,0,1.8925173,0.9722249,0.8442389,-0.08914954,-0.14320257,1.5484849,-0.23871668,-0.2929798,-1.1116889,-2.1433315,-0.4019944,0.1349446,1.4543092,-1.6230805
-0.1,0.0,0.7999999999999999,0.0,0.0,0,1.8862731,0.93609554,0.81803894,-0.13857457,-0.24961242,1.5101825,-0.19320272,-0.23996215,-1.1632864,-2.1519988,-0.11477373,0.095956795,1.4554974,-1.8044636
-0.1,0.0,0.7999999999999999,0.0,0.0,0,1.9910113,0.9501045,0.82574487,-0.15024097,-0.20979084,1.4977546,-0.074181564,-0.25497735,-1.1245576,-2.154049,-0.08836106,-0.10630486,1.4694694,-1.5610448
-0.1,0.0,0.7999999999999999,0.0,0.0,0,1.9140791,0.9276029,0.8702545,-0.15335386,-0.18365231,1.5124115,-0.08091964,-0.2502341,-1.122919,-2.1882765,-0.30559203,-0.00068126014,1.5041258,-1.6215672
-0.1,0.0,0.7999999999999999,0.0,0.0,0,1.9094963,0.97048414,0.7981268,-0.15841837,-0.16663416,1.4639478,-0.15384316,-0.22936155,-1.2600882,-2.1885872,-0.14891535,0.044530522,1.404167,-1.590474
-0.1,0.0,0.7999999999999999,0.0,0.0,0,1.8847653,0.9382415,0.82156163,-0.1262342,-0.15670237,1.5298731,-0.032506067,-0.23066899,-1.1705172,-2.182548,-0.15087906,0.02140272,1.4990145,-1.9159697
-0.1,0.0,0.7999999999999999,0.0,0.0,0,1.9200042,0.9423216,0.83943534,-0.1458512,-0.15689602,1.4938537,-0.06725173,-0.22936887,-1.204537,-2.2512524,-0.18630831,0.0731436,1.4663742,-1.5438988
-0.1,0.0,0.7999999999999999,0.0,0.0,0,1.9625502,0.9497046,0.86669165,-0.15362409,-0.14550473,1.5193298,-0.16330934,-0.2896324,-1.1835881,-2.1210017,-0.11089841,0.047388487,1.4020947,-1.5970547
-0.1,0.0,0.7999999999999999,0.0,0.0,0,1.9414229,0.9301668,0.8459208,-0.09393317,-0.117197864,1.5178739,-0.20350415,-0.2981819,-1.0925516,-2.2106638,-0.07961371,-0.0048685814,1.4204845,-1.5349808
-0.1,0.0,0.7999999999999999,0.0,0.0,0,1.9488952,0.98037624,0.8453498,-0.12771945,-0.121206775,1.5077589,-0.07871561,-0.2044043,-1.2375594,-2.0981145,-0.21175747,0.055828992,1.4585705,-1.9521596
-0.1,0.0,0.7999999999999999,0.0,0.0,0,1.8822577,0.9326272,0.85363734,-0.1543908,-0.18741542,1.546967,-0.16816461,-0.24098536,-1.2155987,-2.1931374,-0.108014174,0.057430163,1.4794532,-1.6908981
-0.1,0.0,0.7999999999999999,0.0,0.0,0,1.9888183,0.9617465,0.8054247,-0.17023344,-0.10621432,1.47733,0.041078042,-0.25994027,-1.1655599,-2.1073873,-0.1470871,0.00060997944,1.4395286,-1.6699373
-0.1,0.0,0.7999999999999999,0.0,0.0,0,2.0151427,0.9798449,0.855396,-0.10585757,-0.17368515,1.5271336,0.0119141,-0.24806318,-1.1780801,-2.0637472,-0.10861575,0.21585196,1.4609921,-1.9319595
-0.1,0.0,0.7999999999999999,0.0,0.0,0,1.9552286,0.9499839,0.86146533,-0.16456729,-0.09630324,1.4888358,-0.10242756,-0.27410692,-1.1763774,-2.1513655,-0.32597384,0.15897101,1.4469113,-1.749399
-0.1,0.0,0.7999999999999999,0.0,0.0,0,1.9443084,0.98788315,0.83434504,-0.13662328,-0.110299945,1.5333189,-0.08461914,-0.2732761,-1.2468182,-2.0817547,-0.1255959,0.0066245426,1.4165363,-1.512042
-0.1,0.0,0.7999999999999999,0.0,0.0,0,1.9285375,0.9620697,0.87253714,-0.17499961,-0.118452035,1.5065109,0.043823373,-0.2950813,-1.1730042,-2.140403,-0.055780146,0.10135395,1.4011226,-1.7585967
-0.1,0.0,0.7999999999999999,0.0,0.0,0,1.955315,0.96709037,0.8432594,-0.13347417,-0.17917629,1.5341789,-0.13412826,-0.23556536,-1.1637669,-2.1274323,-0.18641444,0.09873664,1.4423035,-1.8339368
-0.1,0.0,0.7999999999999999,0.0,0.0,0,1.9934403,0.95311475,0.8217936,-0.19446808,-0.09260271,1.5306896,-0.012116437,-0.21938826,-1.2612993,-2.1685443,-0.17372432,-0.002962373,1.3737684,-1.6037319
-0.1,0.0,0.7999999999999999,0.0,0.0,0,1.9953178,0.95061725,0.829893,-0.11242972,-0.15825345,1.4699628,-0.09646139,-0.23075849,-1.2136512,-2.163724,-0.14653644,0.05375922,1.4940286,-1.827051
-0.1,0.0,0.7999999999999999,0.0,0.0,0,1.9986548,0.9451562,0.8521566,-0.17139366,-0.13974246,1.509906,-0.12490624,-0.22255094,-1.220698,-2.1547391,-0.08684867,0.118738666,1.4443246,-1.8181815
-0.1,0.0,0.7999999999999999,0.0,0.0,0,2.0353634,0.9289267,0.83857936,-0.13287747,-0.12600072,1.5491885,-0.070128284,-0.21874277,-1.1562488,-2.2145357,-0.14222866,-0.011136399,1.4507579,-1.5132211
-0.1,0.0,0.7999999999999999,0.0,0.0,0,1.9398897,0.9700395,0.7931278,-0.11151679,-0.10120635,1.5082487,-0.20656064,-0.25330442,-1.11147,-2.093206,-0.05502821,0.13013083,1.4234535,-2.075221
-0.1,0.0,0.7999999999999999,0.0,0.0,0,1.9896753,0.9856276,0.8631543,-0.16728348,-0.10368902,1.498097,-0.035214737,-0.2576862,-1.1908356,-2.0064974,-0.37685418,-0.037749715,1.4731876,-1.509093
-0.1,0.0,0.7999999999999999,0.0,0.0,0,1.8881983,0.9881179,0.85715437,-0.19002731,-0.10597342,1.5052856,-0.084302336,-0.25003812,-1.1406543,-2.0355747,-0.15993796,0.11037899,1.4348276,-1.8891958
-0.1,0.0,0.7999999999999999,0.0,0.0,0,1.9808041,0.9480054,0.7827858,-0.13176101,-0.15511756,1.4609941,-0.28673252,-0.19773553,-1.1385986,-2.1027188,-0.32561144,0.11156114,1.457509,-1.787108
-0.1,0.0,0.7999999999999999,0.0,0.0,0,1.9640611,0.9583533,0.83759767,-0.16378783,-0.092211425,1.5308872,-0.16754198,-0.25135502,-1.2389446,-2.147942,-0.124473885,0.097749874,1.410011,-1.6222856
-0.1,0.0,0.7999999999999999,0.0,0.0,0,1.9170772,0.9531483,0.8602215,-0.12421859,-0.14833547,1.5111421,-0.106796876,-0.29636353,-1.1885792,-2.0881822,-0.11154482,0.10325018,1.403246,-1.6415364
-0.1,0.0,0.7999999999999999,0.0,0.0,0,1.9234331,0.9765073,0.83571696,-0.17768161,-0.093914315,1.5108585,-0.008820917,-0.18053317,-1.1874021,-2.154641,-0.21677688,0.07917534,1.4355996,-1.5247254
-0.1,0.0,0.7999999999999999,0.0,0.0,0,1.9038737,0.9610838,0.8076685,-0.081886694,-0.11741325,1.5014781,-0.08035559,-0.21751618,-1.2215827,-2.160695,-0.14716418,0.1247284,1.4793873,-1.7332447
-0.1,0.0,0.7999999999999999,0.0,0.0,0,1.9819587,0.9296078,0.81779754,-0.13224751,-0.19331382,1.4942586,-0.024952894,-0.28568137,-1.359413,-2.1411817,-0.06528366,-0.016679576,1.4372325,-0.7398275
-0.1,0.0,0.7999999999999999,0.0,0.0,0,1.9281994,0.9864139,0.8209503,-0.1563489,-0.18240036,1.4831809,0.0059624305,-0.28344727,-1.1130233,-2.2186706,-0.31334862,0.13389987,1.4466673,-1.649151
-0.1,0.0,0.7999999999999999,0.0,0.0,0,1.9710761,0.95446944,0.8352063,-0.12756225,-0.14914185,1.5143836,-0.0618502,-0.18449469,-1.2022706,-2.2186654,-0.13949625,0.005051206,1.4305712,-1.1374569
-0.1,0.0,0.7999999999999999,0.0,0.0,0,1.9516143,0.9637813,0.79907,-0.16331524,-0.15788935,1.5555569,-0.13593547,-0.20665482,-1.290051,-1.992585,-0.19289635,0.036367327,1.4983822,-1.7160428
-0.1,0.0,0.7999999999999999,0.0,0.0,0,1.8758878,0.9704105,0.81426215,-0.12467012,-0.06574895,1.5078646,-0.034526996,-0.1624817,-1.1728914,-2.1991372,-0.16687003,0.04436071,1.4490793,-1.4743067
-0.1,0.0,0.7999999999999999,0.0,0.0,0,1.9378436,0.96476436,0.8419235,-0.10377174,-0.13093312,1.4683172,-0.16605583,-0.1972868,-1.2225888,-2.0751834,-0.14090097,0.012949673,1.4636066,-1.7348281
-0.1,0.0,0.7999999999999999,0.0,0.0,0,1.874173,0.9404625,0.85111636,-0.09521537,-0.13939613,1.488868,-0.13063633,-0.25285527,-1.2256248,-2.0087624,-0.19720593,0.024820374,1.4257147,-1.8053877
-0.1,0.0,0.7999999999999999,0.0,0.0,0,2.0105712,0.95583546,0.84486467,-0.08223516,-0.08583789,1.5179011,-0.027816512,-0.28782806,-1.3139404,-2.1373742,-0.13972528,0.10090256,1.4614463,-1.3651147
-0.1,0.0,0.7999999999999999,0.0,0.0,0,2.043889,0.9556072,0.8671735,-0.10878557,-0.1291093,1.4997622,-0.20947553,-0.26671392,-1.093451,-2.2133024,-0.19352779,0.19424067,1.4648664,-2.0113645
-0.1,0.0,0.7999999999999999,0.0,0.0,0,1.9768198,0.9515886,0.86809325,-0.10632849,-0.14325984,1.4728616,-0.13316521,-0.24625576,-1.1873564,-2.0907707,-0.11419992,0.0505024,1.4418427,-1.3197937
-0.1,0.0,0.7999999999999999,0.0,0.0,0,1.9700459,0.94107443,0.8290233,-0.12312643,-0.03746041,1.5177552,-0.06204116,-0.2036825,-1.1965005,-2.0914633,-0.20134741,0.14622518,1.4257548,-1.8344765
-0.1,0.0,0.7999999999999999,0.0,0.0,0,1.8920896,0.9180216,0.88967866,-0.124522254,-0.09387342,1.4888577,-0.1987997,-0.21639879,-1.1195061,-2.1473572,-0.087671414,0.07863266,1.4309262,-1.7963778
-0.1,0.0,0.7999999999999999,0.0,0.0,0,1.9649276,0.9644775,0.81593263,-0.17492454,-0.19647053,1.5315651,-0.103058636,-0.18053018,-1.2032458,-2.148334,-0.18788421,0.00032230522,1.4382331,-1.6016618
-0.1,0.0,0.7999999999999999,0.0,0.0,0,1.9482195,0.9147338,0.84746516,-0.15186574,-0.0986567,1.5276328,-0.048961684,-0.2426454,-1.2021519,-2.095753,-0.1461646,-0.04038489,1.4140805,-1.595477
-0.1,0.0,0.7999999999999999,0.0,0.0,0,1.907521,0.9321312,0.79749733,-0.10446101,-0.14214452,1.4813043,-0.07006308,-0.21468075,-1.1934614,-2.1298604,-0.1722502,-0.025950622,1.4154226,-1.3468641
-0.1,0.0,0.7999999999999999,0.0,0.0,0,1.910292,0.94162774,0.86177546,-0.14908777,-0.17984289,1.4702108,-0.14609538,-0.21803744,-1.1553019,-2.0901484,-0.11894743,0.08887132,1.4683573,-1.7118107
-0.1,0.0,0.7999999999999999,0.0,0.0,0,1.9495273,0.9383842,0.84283596,-0.07412817,-0.18544818,1.4938817,-0.00071469514,-0.2629184,-1.2024473,-2.1264424,-0.19557783,0.0755849,1.4614472,-1.6538101
-0.1,0.0,0.7999999999999999,0.0,0.0,0,1.9748679,0.966527,0.8134337,-0.12272542,-0.1671977,1.5157098,-0.08149182,-0.24027026,-1.1833974,-1.9758697,-0.07050055,0.07378552,1.3865921,-2.1148438
-0.1,0.0,0.7999999999999999,0.0,0.0,0,1.9118414,0.89668745,0.83789384,-0.14205964,-0.12979527,1.4972363,-0.120478086,-0.31888857,-1.1880946,-2.1022305,-0.08547633,-0.04269894,1.4601291,-1.6389325
-0.1,0.0,0.7999999999999999,0.0,0.0,0,1.9647752,0.9389,0.8626771,-0.1207003,-0.17420457,1.5543184,-0.027479013,-0.1727472,-1.1411874,-2.2500277,-0.1615241,0.05186168,1.3593277,-1.4666961
-0.1,0.0,0.7999999999999999,0.0,0.0,0,1.9072727,0.9943713,0.82302123,-0.14694366,-0.17805244,1.4874078,-0.15504862,-0.21286894,-1.2318662,-2.0993075,-0.13202086,0.12276948,1.4725229,-1.4690939
-0.1,0.0,0.7999999999999999,0.0,0.0,0,1.8611196,0.932038,0.8333445,-0.12302918,-0.07916632,1.5456306,-0.14661276,-0.22209297,-1.2500383,-2.237037,-0.25640297,-0.08071164,1.4436008,-2.0220287
-0.1,0.0,0.7999999999999999,0.0,0.0,0,1.9889694,0.9741559,0.8623381,-0.14285317,-0.12840924,1.4631038,-0.10614124,-0.26389518,-1.1439509,-2.0521438,-0.1153635,0.09081525,1.475512,-1.7362689
-0.1,0.0,0.7999999999999999,0.0,0.0,0,1.9537992,0.8879899,0.8452207,-0.129712,-0.12455929,1.5075321,0.043440145,-0.23788892,-1.2493391,-2.0761666,-0.23921184,0.12551959,1.4715987,-1.6863737
-0.1,0.0,0.7999999999999999,0.0,0.0,0,1.9654677,0.9246189,0.87532157,-0.1433407,-0.15029491,1.5298226,-0.13832083,-0.21680768,-1.1944155,-2.0069895,-0.16720448,0.028150203,1.3858207,-1.5341291
-0.1,0.0,0.7999999999999999,0.0,0.0,0,1.9792813,0.9238662,0.8530287,-0.12238571,-0.10658418,1.4897463,0.072335914,-0.24023417,-1.2318681,-2.0638843,-0.13523126,0.16282478,1.4641032,-1.8557315
-0.1,0.0,0.7999999999999999,0.0,0.0,0,1.8329676,1.002807,0.87403286,-0.13517193,-0.122588314,1.4495867,-0.03776062,-0.25619435,-1.1413227,-2.1454818,-0.36850056,0.038273253,1.4597356,-1.448863
-0.1,0.0,0.7999999999999999,0.0,0.0,0,1.8802844,0.93213975,0.8435838,-0.13223656,-0.12393479,1.5161253,-0.22059484,-0.2831434,-1.1540047,-2.1146443,-0.4403465,0.13218267,1.4910384,-1.6470424
-0.1,0.0,0.7999999999999999,0.0,0.0,0,1.9415721,0.95621616,0.8514302,-0.114128016,-0.18980047,1.5499096,-0.055260856,-0.19774602,-1.1154567,-2.2299733,-0.4628527,0.005963327,1.5254263,-1.4824531
-0.1,0.0,0.7999999999999999,0.0,0.0,0,1.9815397,0.95308185,0.80316746,-0.11094293,-0.11919871,1.5354627,-0.012135228,-0.24627239,-1.1706153,-2.1591978,-0.43579236,0.16172966,1.4880623,-1.632221
-0.1,0.0,0.7999999999999999,0.0,0.0,0,1.949237,0.92752934,0.8361953,-0.15687084,-0.12949863,1.5326483,0.015167746,-0.20680971,-1.1961533,-1.970303,-0.07945887,0.025839398,1.44585,-1.8794847
-0.1,0.0,0.7999999999999999,0.0,0.0,0,2.0345182,1.078282,0.83000195,-0.105026305,-0.20225067,1.4544047,-0.08951735,-0.17518105,-1.2278444,-2.1911511,-0.33864206,0.22993132,1.5030411,-1.654558
-0.1,0.0,0.7999999999999999,0.0,0.0,0,1.9272999,0.944197,0.8559505,-0.10456672,-0.10125877,1.5461845,0.023588717,-0.21955493,-1.0663608,-2.0688329,-0.18367983,0.11722275,1.4524499,-1.1117281
-0.1,0.0,0.7999999999999999,0.0,0.0,0,1.9210309,0.92670804,0.8430582,-0.12009446,-0.15243183,1.5449033,-0.09435199,-0.2226603,-1.2222409,-1.979032,-0.14514948,0.1890008,1.4283339,-1.5128675
-0.1,0.0,0.7999999999999999,0.0,0.0,0,1.9720335,0.96732813,0.8643329,-0.15929194,-0.12419108,1.5110244,-0.048243314,-0.31796947,-1.0827296,-2.2010932,-0.09568825,0.20541313,1.3690467,-2.1685922
