sanky1234/BimanualDexCatch/isaacgymenvs/cem_results/football_pose_0.0_0.1_0.9999999999999999_-0.5235987755982988_-0.5235987755982988_0_2025-05-26.csv
x,y,z,roll,pitch,yaw,robot1/joint1,robot1/joint2,robot1/joint3,robot1/joint4,robot1/joint5,robot1/joint6,robot1/joint7,robot2/joint1,robot2/joint2,robot2/joint3,robot2/joint4,robot2/joint5,robot2/joint6,robot2/joint7
0.0,0.1,0.9999999999999999,-0.5235987755982988,-0.5235987755982988,0,-0.0036183493,-0.79950863,2.2662923,0.10402695,-0.22033644,1.2900124,0.81519014,-0.3159627,-1.1958599,1.1085616,-0.02862771,-0.0048338575,1.0903983,-0.8329788
0.0,0.1,0.9999999999999999,-0.5235987755982988,-0.5235987755982988,0,-0.002829629,-0.7992917,2.2600675,0.08514804,-0.37411347,1.3042578,-0.866699,-0.317715,-1.1953629,1.1052922,-0.032316238,-0.04249162,1.1873006,0.30393937
0.0,0.1,0.9999999999999999,-0.5235987755982988,-0.5235987755982988,0,-0.0038071093,-0.80176985,2.2533722,0.09782891,-0.1715048,1.3133358,-0.068401136,-0.31689844,-1.1966712,1.0971808,0.021969588,-0.18102975,1.1897212,-1.2796472
0.0,0.1,0.9999999999999999,-0.5235987755982988,-0.5235987755982988,0,-0.004416454,-0.7997149,2.2516007,0.11169482,-0.32975873,1.3195561,0.29561132,-0.31647038,-1.195599,1.0884821,-0.07403895,-0.12444839,1.1254997,-1.5319517
0.0,0.1,0.9999999999999999,-0.5235987755982988,-0.5235987755982988,0,-0.005439215,-0.8024856,2.254956,0.110167705,-0.07531686,1.2899991,-0.0029043886,-0.3138608,-1.1958952,1.0895957,-0.056637347,-0.026437785,1.0536785,-0.5333762
0.0,0.1,0.9999999999999999,-0.5235987755982988,-0.5235987755982988,0,-0.0037595986,-0.79924935,2.2494953,0.094519496,-0.18404725,1.285293,-0.3759484,-0.31431752,-1.193351,1.0976498,-0.038865186,-0.18002953,1.1955113,-0.24672681
0.0,0.1,0.9999999999999999,-0.5235987755982988,-0.5235987755982988,0,-0.0035607244,-0.79897183,2.258962,0.092593625,0.10411368,1.287426,0.6025275,-0.31523177,-1.1958721,1.0874895,-0.017504001,-0.2166957,1.097927,0.017277077
0.0,0.1,0.9999999999999999,-0.5235987755982988,-0.5235987755982988,0,-0.0051605934,-0.79926336,2.2558472,0.12383584,-0.14450432,1.2554196,-0.18342075,-0.31344458,-1.1942257,1.1087823,-0.052615803,-0.1552764,1.1410352,-0.02317792
0.0,0.1,0.9999999999999999,-0.5235987755982988,-0.5235987755982988,0,-0.004028122,-0.80135137,2.2611904,0.09001187,-0.28409082,1.2733986,-1.2086757,-0.31543037,-1.1956543,1.101134,-0.026645806,-0.016461598,1.1238356,-1.1046493
0.0,0.1,0.9999999999999999,-0.5235987755982988,-0.5235987755982988,0,-0.004340214,-0.801381,2.2584128,0.095058836,-0.07383425,1.3728147,-0.8325685,-0.31215343,-1.1951177,1.0895437,0.0003066733,-0.027960751,1.1104611,-1.2554314
0.0,0.1,0.9999999999999999,-0.5235987755982988,-0.5235987755982988,0,-0.0032788648,-0.799571,2.2594633,0.123327956,0.26806945,1.3334322,-0.4098337,-0.31489387,-1.1980568,1.0948257,0.0097641805,-0.07682843,1.1346836,0.14817013
0.0,0.1,0.9999999999999999,-0.5235987755982988,-0.5235987755982988,0,-0.003212406,-0.79937994,2.257515,0.122528054,-0.17084895,1.3023341,-0.12926094,-0.3104779,-1.1955067,1.0950456,-0.04479039,0.0911973,1.0885594,-0.23638093
0.0,0.1,0.9999999999999999,-0.5235987755982988,-0.5235987755982988,0,-0.0041648694,-0.8002536,2.268742,0.10853602,-0.27211332,1.2896641,0.45716253,-0.3118898,-1.1963261,1.0943663,-0.029744972,0.037780855,1.1028861,-0.87061787
0.0,0.1,0.9999999999999999,-0.5235987755982988,-0.5235987755982988,0,-0.0044452236,-0.80005926,2.2594383,0.11270393,-0.12897809,1.3380896,-0.29299363,-0.31595644,-1.1952825,1.1089698,-0.0821263,-0.049338594,1.1628968,-0.26531732
0.0,0.1,0.9999999999999999,-0.5235987755982988,-0.5235987755982988,0,-0.0040438226,-0.80003554,2.2645411,0.09116033,-0.09541669,1.2800565,0.5021625,-0.31420994,-1.1971464,1.0845613,-0.02141866,-0.15106015,0.9641245,-0.4792713
0.0,0.1,0.9999999999999999,-0.5235987755982988,-0.5235987755982988,0,-0.005145521,-0.80186576,2.262643,0.103844,-0.016671762,1.2805712,0.48455533,-0.31327525,-1.1963271,1.0923539,-0.03376303,-0.0557659,1.1397104,0.1862648
0.0,0.1,0.9999999999999999,-0.5235987755982988,-0.5235987755982988,0,-0.0053665657,-0.800991,2.2536812,0.112165205,0.09196968,1.2910353,0.87436295,-0.3185983,-1.1975509,1.0962849,0.03638346,-0.06989741,1.0642964,-0.4462368
0.0,0.1,0.9999999999999999,-0.5235987755982988,-0.5235987755982988,0,-0.002877491,-0.8008852,2.2580597,0.09997849,-0.17638424,1.3328725,0.85787785,-0.31739473,-1.1979433,1.1001822,0.022832483,-0.15813111,1.1164107,-0.4813155
0.0,0.1,0.9999999999999999,-0.5235987755982988,-0.5235987755982988,0,-0.0037355493,-0.79839975,2.2669415,0.10183492,0.09858254,1.2578863,-0.21568373,-0.31547615,-1.1977605,1.0898378,0.013537344,0.008713507,1.0581758,-0.38844848
0.0,0.1,0.9999999999999999,-0.5235987755982988,-0.5235987755982988,0,-0.0066009928,-0.800682,2.2483406,0.12792742,-0.36133903,1.2749314,-0.50546974,-0.3166702,-1.1957529,1.0931796,-0.04891613,-0.0069630155,1.2612928,-1.3202851
0.0,0.1,0.9999999999999999,-0.5235987755982988,-0.5235987755982988,0,-0.0061757825,-0.80146766,2.2529087,0.11640799,-0.052691206,1.2730969,-0.54485863,-0.31530845,-1.1959555,1.0934491,-0.0076568224,-0.027223477,1.1475148,-0.5837184
0.0,0.1,0.9999999999999999,-0.5235987755982988,-0.5235987755982988,0,-0.0016472812,-0.8013577,2.2553573,0.08139733,-0.11671118,1.3542597,-0.36805063,-0.31507334,-1.1963009,1.107439,0.004937451,-0.023662455,1.1099539,-0.4258062
0.0,0.1,0.9999999999999999,-0.5235987755982988,-0.5235987755982988,0,-0.002527404,-0.8000527,2.2532673,0.101046845,-0.36223736,1.2919213,0.41007313,-0.30762878,-1.1951171,1.0826195,-0.030772142,-0.14965126,1.1414263,-1.208397
0.0,0.1,0.9999999999999999,-0.5235987755982988,-0.5235987755982988,0,-0.0047194296,-0.800925,2.2637105,0.119298264,-0.042641178,1.3060758,0.51975554,-0.3148638,-1.1979493,1.0988449,0.021717267,-0.010310797,1.0741768,0.068741135
0.0,0.1,0.9999999999999999,-0.5235987755982988,-0.5235987755982988,0,-0.0038903763,-0.8007546,2.2601995,0.1102394,0.039646015,1.3637686,0.993232,-0.31492537,-1.1962104,1.1166246,0.025788974,0.0940636,1.1438353,-0.51402104
0.0,0.1,0.9999999999999999,-0.5235987755982988,-0.5235987755982988,0,-0.0045830277,-0.8004207,2.2554746,0.11239613,-0.01292708,1.2524406,0.3988025,-0.31847322,-1.1973664,1.097872,-0.029818367,-0.0997449,1.157133,0.29289615
0.0,0.1,0.9999999999999999,-0.5235987755982988,-0.5235987755982988,0,-0.003718642,-0.80009866,2.251595,0.08221861,-0.06396799,1.3273277,-1.0782983,-0.31550285,-1.1957957,1.0799026,-0.0131317945,0.03402991,1.1013469,0.49896175
0.0,0.1,0.9999999999999999,-0.5235987755982988,-0.5235987755982988,0,-0.0033508155,-0.8001578,2.2551131,0.10781997,-0.02258475,1.3220857,1.1765664,-0.31558853,-1.1958491,1.1076994,-0.016703352,0.010610086,1.128516,-0.35232046
0.0,0.1,0.9999999999999999,-0.5235987755982988,-0.5235987755982988,0,-0.003744241,-0.8011873,2.2577467,0.09833799,-0.3347635,1.2993145,-0.54956275,-0.31239957,-1.1958361,1.0993532,0.017046958,-0.13778575,1.1203766,-0.29125825
0.0,0.1,0.9999999999999999,-0.5235987755982988,-0.5235987755982988,0,-0.0033714348,-0.80016166,2.250032,0.111314945,-0.057744205,1.322589,0.73286474,-0.31695232,-1.1958089,1.1095133,-0.022287147,-0.054317195,1.1161828,-0.11975405
0.0,0.1,0.9999999999999999,-0.5235987755982988,-0.5235987755982988,0,-0.004119855,-0.8015639,2.2552326,0.09904944,0.034615505,1.302559,-0.29111448,-0.31427333,-1.195485,1.1039561,-0.054326035,0.035665527,1.0690672,0.4394205
0.0,0.1,0.9999999999999999,-0.5235987755982988,-0.5235987755982988,0,-0.0026137251,-0.7986041,2.2515059,0.109123476,-0.09908521,1.282947,0.3171434,-0.31700757,-1.198577,1.078715,-0.07799896,-0.20101258,1.3135947,-1.6484159
0.0,0.1,0.9999999999999999,-0.5235987755982988,-0.5235987755982988,0,-0.005257712,-0.8020134,2.2535074,0.1322822,-0.24239221,1.3266253,0.09469758,-0.31297743,-1.1970993,1.0921907,-0.0995599,-0.16715421,1.0515939,-1.5256606
0.0,0.1,0.9999999999999999,-0.5235987755982988,-0.5235987755982988,0,-0.0036925734,-0.8008686,2.2606194,0.09285991,-0.24982907,1.2943585,0.6814222,-0.3105794,-1.1951913,1.0906514,-0.03449734,-0.013731738,1.1454866,-0.5104526
0.0,0.1,0.9999999999999999,-0.5235987755982988,-0.5235987755982988,0,-0.0023532056,-0.7988196,2.255538,0.09098465,-0.21275021,1.3015127,1.3716459,-0.312463,-1.1949892,1.0996838,-0.018274065,-0.25896937,1.1630362,-0.91888034
0.0,0.1,0.9999999999999999,-0.5235987755982988,-0.5235987755982988,0,-0.0035417129,-0.7994524,2.2544396,0.10356493,-0.11070948,1.2804083,-0.23456587,-0.31241816,-1.1943914,1.1074481,-0.054808572,-0.049279045,1.0247608,-1.237612
0.0,0.1,0.9999999999999999,-0.5235987755982988,-0.5235987755982988,0,-0.0044222204,-0.79976034,2.2653463,0.088557824,-0.13842577,1.3327324,0.72740614,-0.31682834,-1.1958683,1.1022074,-0.009302247,-0.11265859,1.1692394,-1.287367
0.0,0.1,0.9999999999999999,-0.5235987755982988,-0.5235987755982988,0,-0.0044058864,-0.80025434,2.258911,0.112415746,-0.18769997,1.346321,0.9446058,-0.31781796,-1.1980013,1.0980057,-0.05609434,0.038995806,1.0063195,-0.14258626
0.0,0.1,0.9999999999999999,-0.5235987755982988,-0.5235987755982988,0,-0.0022017183,-0.79989547,2.2557757,0.11796281,-0.10451809,1.3103385,0.21433972,-0.31494996,-1.1973611,1.1095535,-0.050898686,0.078233294,1.1916243,-0.897764
0.0,0.1,0.9999999999999999,-0.5235987755982988,-0.5235987755982988,0,-0.0052198274,-0.8011665,2.25363,0.11498079,-0.2020706,1.3105464,1.4980147,-0.31631956,-1.1959785,1.104826,-0.015151566,-0.10195318,1.1423527,-0.91888
0.0,0.1,0.9999999999999999,-0.5235987755982988,-0.5235987755982988,0,-0.0035345268,-0.7983077,2.264453,0.098818295,-0.28831804,1.2989115,0.5275903,-0.31509376,-1.1976764,1.0868819,0.011859237,0.08021561,1.0111233,-0.45887902
0.0,0.1,0.9999999999999999,-0.5235987755982988,-0.5235987755982988,0,-0.0024311286,-0.7998392,2.248149,0.12115092,-0.08321705,1.304279,-0.12451634,-0.3131343,-1.1963973,1.1047112,0.012842737,-0.014817843,1.1019554,0.10544756
0.0,0.1,0.9999999999999999,-0.5235987755982988,-0.5235987755982988,0,-0.0044886274,-0.80093586,2.2584612,0.08646695,-0.30423632,1.373625,0.72946733,-0.31269336,-1.1955407,1.0804992,-0.060662493,-0.059033427,1.084538,-1.2923789
0.0,0.1,0.9999999999999999,-0.5235987755982988,-0.5235987755982988,0,-0.005692993,-0.79970205,2.255349,0.08189088,-0.21677685,1.2670884,-0.447998,-0.31670842,-1.1951182,1.0865673,-0.04923652,-0.13934213,1.0494757,-0.8311489
0.0,0.1,0.9999999999999999,-0.5235987755982988,-0.5235987755982988,0,-0.005565185,-0.79936975,2.2519872,0.11787299,0.03570697,1.3147532,-0.22846702,-0.3156535,-1.1957998,1.1026436,0.03853368,-0.08369428,1.0468978,-0.09066026
0.0,0.1,0.9999999999999999,-0.5235987755982988,-0.5235987755982988,0,-0.0041181836,-0.79961884,2.26057,0.11404942,0.09704399,1.3005431,-0.03846503,-0.316323,-1.198773,1.082467,-0.028926454,-0.054174077,1.0882804,-0.7653876
0.0,0.1,0.9999999999999999,-0.5235987755982988,-0.5235987755982988,0,-0.0033610596,-0.80199885,2.255688,0.13035928,-0.19539295,1.2640476,-0.054804016,-0.31059268,-1.1979467,1.0989702,-0.04852706,-0.15513815,1.0769901,0.543055
0.0,0.1,0.9999999999999999,-0.5235987755982988,-0.5235987755982988,0,-0.0036918807,-0.8000757,2.2487936,0.13841122,-0.114167504,1.2578036,0.66438144,-0.31524882,-1.197786,1.0987269,-0.022503193,-0.08438255,1.107915,-0.3515823
0.0,0.1,0.9999999999999999,-0.5235987755982988,-0.5235987755982988,0,-0.0037719645,-0.8001256,2.2545803,0.1151349,-0.19530845,1.2949964,1.886793,-0.3146444,-1.1969022,1.0977266,-0.07150279,-0.18789177,1.1044492,-1.0808791
0.0,0.1,0.9999999999999999,-0.5235987755982988,-0.5235987755982988,0,-0.0038521,-0.80040663,2.2653465,0.115466364,-0.28665924,1.3305725,0.67931986,-0.31256035,-1.1979908,1.093057,-0.033804,-0.0059793773,1.2599043,-0.29332522
0.0,0.1,0.9999999999999999,-0.5235987755982988,-0.5235987755982988,0,-0.004370415,-0.8008538,2.2527044,0.10789008,-0.23483661,1.2832024,-0.23309046,-0.31150886,-1.1958442,1.092815,-0.01921104,-0.16380973,1.1838336,-0.7421203
0.0,0.1,0.9999999999999999,-0.5235987755982988,-0.5235987755982988,0,-0.0040579154,-0.7993071,2.256196,0.1345466,-0.19931607,1.2975781,0.9306057,-0.31329238,-1.197437,1.1037292,0.04218832,0.10536373,1.1368077,-0.20508528
0.0,0.1,0.9999999999999999,-0.5235987755982988,-0.5235987755982988,0,-0.00391775,-0.8001582,2.2549381,0.10853996,-0.253395,1.3239231,0.34774363,-0.31567895,-1.1965787,1.1053461,-0.073713645,-0.08697087,1.0193133,0.521847
0.0,0.1,0.9999999999999999,-0.5235987755982988,-0.5235987755982988,0,-0.0048388313,-0.7992198,2.2603574,0.14707854,-0.24235106,1.3208785,0.8973599,-0.31338716,-1.1974385,1.0999193,0.01419513,-0.030530956,1.1298889,-0.25436273
0.0,0.1,0.9999999999999999,-0.5235987755982988,-0.5235987755982988,0,-0.0063967775,-0.800845,2.2587173,0.11706861,-0.10950509,1.2859901,0.0031134076,-0.31369674,-1.1963177,1.1028663,0.039619975,0.1094029,1.2247494,-0.38271922
0.0,0.1,0.9999999999999999,-0.5235987755982988,-0.5235987755982988,0,-0.0026229285,-0.8019674,2.258031,0.09732654,0.08838708,1.2967691,-0.7398074,-0.3124731,-1.1951271,1.0982562,-0.021879131,-0.039660253,1.0406322,0.084176816
0.0,0.1,0.9999999999999999,-0.5235987755982988,-0.5235987755982988,0,-0.004251779,-0.79906136,2.263237,0.107134305,-0.26277152,1.2941476,0.676576,-0.31282267,-1.1966008,1.0944344,-0.049610667,-0.12509696,1.0381573,-1.3523167
0.0,0.1,0.9999999999999999,-0.5235987755982988,-0.5235987755982988,0,-0.002652287,-0.7993079,2.256859,0.10639755,-0.34940913,1.2941611,1.0973207,-0.314169,-1.1965339,1.1072488,-0.042118438,-0.020389074,1.2834783,0.077291384
0.0,0.1,0.9999999999999999,-0.5235987755982988,-0.5235987755982988,0,-0.0020584802,-0.79860556,2.2525523,0.08693685,-0.22466782,1.2995021,0.03742984,-0.31519413,-1.1975298,1.0710337,-0.08758461,0.060776774,1.1105717,-1.0254494
0.0,0.1,0.9999999999999999,-0.5235987755982988,-0.5235987755982988,0,-0.005085894,-0.799898,2.2616696,0.106810875,-0.08713015,1.2963431,1.0640293,-0.31452292,-1.1974525,1.0882223,0.007387042,-0.1557774,1.0406774,0.22649108
0.0,0.1,0.9999999999999999,-0.5235987755982988,-0.5235987755982988,0,-0.0043263533,-0.80167204,2.2510252,0.10277254,-0.19944705,1.3222175,0.2015771,-0.31358185,-1.1950305,1.1108499,-0.02253263,-0.066169195,1.2145052,-0.90316033
0.0,0.1,0.9999999999999999,-0.5235987755982988,-0.5235987755982988,0,-0.004587907,-0.8007617,2.2665374,0.086893536,-0.2877963,1.2981651,-1.4914047,-0.31725496,-1.196614,1.1178772,-0.0040426753,-0.2164144,1.0241005,-0.41417482
0.0,0.1,0.9999999999999999,-0.5235987755982988,-0.5235987755982988,0,-0.0033483875,-0.80180997,2.2543662,0.12809658,-0.06798212,1.2731388,-0.51861566,-0.3075835,-1.1966871,1.0992891,-0.036002878,0.020072129,1.1747185,-0.78607047
0.0,0.1,0.9999999999999999,-0.5235987755982988,-0.5235987755982988,0,-0.0043179933,-0.7994318,2.2695758,0.111136556,-0.29055765,1.3386699,1.1869888,-0.31137654,-1.1974968,1.087806,-0.100596376,0.027766777,1.1042339,-1.0888199
0.0,0.1,0.9999999999999999,-0.5235987755982988,-0.5235987755982988,0,-0.006219117,-0.80073047,2.266785,0.07772567,-0.08171749,1.3115246,0.5401791,-0.3146013,-1.1959755,1.0882533,-0.031090157,-0.15566206,1.0390414,-0.56971246
0.0,0.1,0.9999999999999999,-0.5235987755982988,-0.5235987755982988,0,-0.0045262375,-0.80096394,2.2599945,0.1166753,-0.18439475,1.2714669,-0.1596235,-0.3160786,-1.1974585,1.1149259,-0.040951952,-0.14047347,1.0981992,-0.6473147
0.0,0.1,0.9999999999999999,-0.5235987755982988,-0.5235987755982988,0,-0.0048630266,-0.79921013,2.2612045,0.105900675,-0.08670903,1.2987922,0.8697458,-0.31210566,-1.1959177,1.1007982,0.011871736,-0.019842232,0.982581,-0.97287875
0.0,0.1,0.9999999999999999,-0.5235987755982988,-0.5235987755982988,0,-0.0026991104,-0.80159605,2.2452838,0.08600227,0.12250235,1.3272203,1.3413826,-0.31091586,-1.1949307,1.0937768,-0.03603284,0.10694109,1.1206363,-0.3870481
0.0,0.1,0.9999999999999999,-0.5235987755982988,-0.5235987755982988,0,-0.0052837655,-0.8018364,2.2675285,0.10754165,-0.28671885,1.3334376,1.0359664,-0.31448382,-1.1983678,1.0977346,-0.012381969,-0.06215275,1.0472201,0.098781504
0.0,0.1,0.9999999999999999,-0.5235987755982988,-0.5235987755982988,0,-0.0036179973,-0.8016407,2.255249,0.10710018,-0.13300933,1.2738879,0.069652885,-0.31370538,-1.1985751,1.0944288,-0.07829569,-0.2069102,1.0367442,-0.68372303
0.0,0.1,0.9999999999999999,-0.5235987755982988,-0.5235987755982988,0,-0.0030441764,-0.8001789,2.2571104,0.071725234,-0.35687765,1.25811,0.68574905,-0.3140236,-1.196068,1.0979303,-0.051456098,-0.039014403,1.1104406,-0.27484533
0.0,0.1,0.9999999999999999,-0.5235987755982988,-0.5235987755982988,0,-0.003674971,-0.80086386,2.2514594,0.12153286,-0.3713663,1.3249363,-1.4271905,-0.31161433,-1.1976415,1.0911872,-0.05416633,-0.24700248,1.1515505,0.70490783
0.0,0.1,0.9999999999999999,-0.5235987755982988,-0.5235987755982988,0,-0.0044549718,-0.80070144,2.2596028,0.11549473,-0.09816183,1.3206048,-0.17831236,-0.31066045,-1.1964664,1.1018916,-0.005293528,0.090117574,1.0533298,-0.81753635
0.0,0.1,0.9999999999999999,-0.5235987755982988,-0.5235987755982988,0,-0.005322809,-0.79978836,2.25727,0.102344014,-0.15033492,1.2714282,-0.16788578,-0.31681666,-1.1962394,1.1036319,-0.044063848,-0.048462037,1.0822718,0.92084354
0.0,0.1,0.9999999999999999,-0.5235987755982988,-0.5235987755982988,0,-0.005685874,-0.7994408,2.2636688,0.09257073,-0.09981547,1.2930225,-0.14494465,-0.31518748,-1.1963888,1.0959284,-0.042692553,-0.013172925,0.99575615,-0.13421854
0.0,0.1,0.9999999999999999,-0.5235987755982988,-0.5235987755982988,0,-0.0020416598,-0.79882985,2.259523,0.089312315,0.0063182255,1.2846805,-0.6389131,-0.31406087,-1.19834,1.0835326,-0.040390555,0.04829809,1.1354536,-0.35225603
0.0,0.1,0.9999999999999999,-0.5235987755982988,-0.5235987755982988,0,-0.0056273215,-0.79952765,2.2575946,0.085345514,-0.13169987,1.3426645,-0.4112729,-0.31487423,-1.1953626,1.0903522,-0.013222803,-0.13277987,1.1619873,-0.24239032
0.0,0.1,0.9999999999999999,-0.5235987755982988,-0.5235987755982988,0,-0.0028155383,-0.7994839,2.2640042,0.07993205,0.036629885,1.2601458,1.4104208,-0.30924937,-1.1945975,1.1094544,-0.05181159,0.012834602,1.1810567,-1.1690983
0.0,0.1,0.9999999999999999,-0.5235987755982988,-0.5235987755982988,0,-0.0051428424,-0.79916734,2.2572913,0.12416219,0.08546273,1.2943588,0.8978011,-0.31098557,-1.1969541,1.086824,-0.042945802,-0.10778793,1.242978,-1.2878994
0.0,0.1,0.9999999999999999,-0.5235987755982988,-0.5235987755982988,0,-0.005508692,-0.80026925,2.2564547,0.13043351,0.06258025,1.3023684,-0.23756115,-0.3143538,-1.1967992,1.1160456,-0.09731344,-0.09423482,1.017685,-0.8933528
0.0,0.1,0.9999999999999999,-0.5235987755982988,-0.5235987755982988,0,-0.0028373278,-0.7986984,2.2550333,0.11322852,-0.107638255,1.3373191,-0.5154939,-0.31834006,-1.1993684,1.0959886,-0.054325048,-0.16509695,1.0880339,-0.4871625
0.0,0.1,0.9999999999999999,-0.5235987755982988,-0.5235987755982988,0,-0.0039622756,-0.8001652,2.2582896,0.10680399,0.09045514,1.320276,1.0677639,-0.31157315,-1.1975398,1.0878348,-0.05369365,-0.030457068,1.0334713,-0.6242296
0.0,0.1,0.9999999999999999,-0.5235987755982988,-0.5235987755982988,0,-0.004243657,-0.80142057,2.2572548,0.11391106,-0.04095446,1.3160813,0.072416216,-0.3135852,-1.1977737,1.0986261,-0.027345888,-0.0363361,1.1301516,-0.007994745
0.0,0.1,0.9999999999999999,-0.5235987755982988,-0.5235987755982988,0,-0.0025501503,-0.80062985,2.2490842,0.0818386,0.035516508,1.3303549,0.5043643,-0.32027724,-1.1978394,1.109153,0.011156143,-0.108466215,1.1300478,-0.5165384
0.0,0.1,0.9999999999999999,-0.5235987755982988,-0.5235987755982988,0,-0.0040405956,-0.8006927,2.253256,0.11743773,-0.26197448,1.3237432,-0.100474335,-0.31366664,-1.1979082,1.0921289,-0.06274067,-0.069797285,1.0631742,0.40120122
0.0,0.1,0.9999999999999999,-0.5235987755982988,-0.5235987755982988,0,-0.0038774896,-0.80187756,2.2636733,0.091459855,-0.32713783,1.278421,0.566818,-0.31478572,-1.1968285,1.1138315,-0.038194362,0.001072687,1.1145281,-0.018728754
0.0,0.1,0.9999999999999999,-0.5235987755982988,-0.5235987755982988,0,-0.0048521417,-0.79894155,2.2621422,0.11554074,-0.16504358,1.2572368,1.0404283,-0.3138466,-1.1971965,1.0992062,-0.04516919,-0.22901528,1.2181836,-0.58746755
0.0,0.1,0.9999999999999999,-0.5235987755982988,-0.5235987755982988,0,-0.005559305,-0.7998837,2.2633133,0.09165629,-0.086134754,1.3035972,0.95115423,-0.31479505,-1.1957126,1.1008523,-0.040030636,-0.15769571,1.0817004,0.15006945
0.0,0.1,0.9999999999999999,-0.5235987755982988,-0.5235987755982988,0,-0.0029239166,-0.80039084,2.2600894,0.09950015,-0.28766277,1.2499791,0.39308223,-0.31359395,-1.198089,1.0995804,-0.059921123,-0.108391665,1.0715345,-1.3618063
0.0,0.1,0.9999999999999999,-0.5235987755982988,-0.5235987755982988,0,-0.0030570356,-0.80012995,2.2616477,0.10430449,-0.33033013,1.3039447,0.40865538,-0.31745526,-1.1990311,1.1060673,-0.051654417,0.029113,1.0773193,-0.0305427
0.0,0.1,0.9999999999999999,-0.5235987755982988,-0.5235987755982988,0,-0.002694043,-0.80128956,2.2555044,0.092407286,0.12019462,1.3110381,1.0263025,-0.30575156,-1.1951932,1.1027462,0.052475553,-0.034052193,1.16087,-0.7899772
0.0,0.1,0.9999999999999999,-0.5235987755982988,-0.5235987755982988,0,-0.0056522465,-0.80056626,2.2637787,0.123455815,0.09439511,1.3374376,0.09613802,-0.31231922,-1.1972923,1.0987673,-0.05614464,0.031051137,1.1084169,-0.9181142
0.0,0.1,0.9999999999999999,-0.5235987755982988,-0.5235987755982988,0,-0.0046434407,-0.7992761,2.257521,0.07603495,-0.2958409,1.2637519,1.6266018,-0.3168745,-1.1971394,1.0954652,-0.014826875,-0.1332193,0.9724532,-0.0861351
0.0,0.1,0.9999999999999999,-0.5235987755982988,-0.5235987755982988,0,-0.0040988093,-0.8000314,2.2625642,0.120384395,-0.15900826,1.2987856,-0.8419452,-0.31092814,-1.1969029,1.1067898,-0.091049574,-0.043171685,1.1474767,-1.014467
0.0,0.1,0.9999999999999999,-0.5235987755982988,-0.5235987755982988,0,-0.005256809,-0.8006937,2.254723,0.11158425,-0.15024622,1.3317928,0.32400727,-0.31143963,-1.1968596,1.0912334,0.0045106593,-0.23417962,1.162454,-0.76495177
0.0,0.1,0.9999999999999999,-0.5235987755982988,-0.5235987755982988,0,-0.004615368,-0.8008627,2.262604,0.07925861,-0.20050699,1.2580745,-0.062894806,-0.31478313,-1.1969913,1.0946375,-0.009122739,0.0035117352,1.0827783,-0.7641447
0.0,0.1,0.9999999999999999,-0.5235987755982988,-0.5235987755982988,0,-0.0025585564,-0.80058694,2.2515907,0.10027556,-0.16981503,1.3069284,-0.1854821,-0.3095607,-1.1961614,1.0977565,-0.003910469,-0.094128445,1.106953,0.4776147
0.0,0.1,0.9999999999999999,-0.5235987755982988,-0.5235987755982988,0,-0.0050016386,-0.8014266,2.2519493,0.09713331,-0.22548035,1.3400633,0.27982625,-0.31806487,-1.196942,1.1078323,-0.052190915,-0.06945724,1.0299605,-0.47480196
0.0,0.1,0.9999999999999999,-0.5235987755982988,-0.5235987755982988,0,-0.0032427607,-0.7987074,2.2568183,0.08664852,-0.30000904,1.3428833,0.48509663,-0.31377387,-1.19705,1.0820333,-0.024727987,-0.07694268,1.0665028,-0.9548506
0.0,0.1,0.9999999999999999,-0.5235987755982988,-0.5235987755982988,0,-0.003420531,-0.7980984,2.2565954,0.108936645,-0.05235875,1.2818055,-0.76064545,-0.313364,-1.1981953,1.0792706,-0.058762398,-0.20704262,1.1426871,-0.5092565
0.0,0.1,0.9999999999999999,-0.5235987755982988,-0.5235987755982988,0,-0.004012316,-0.80003536,2.25888,0.090928234,-0.04620701,1.2430061,-0.36206052,-0.31006578,-1.1962146,1.0941335,-0.035825383,-0.08775164,0.9908638,-0.023684863
0.0,0.1,0.9999999999999999,-0.5235987755982988,-0.5235987755982988,0,-0.0023466314,-0.80011094,2.2565203,0.10035192,-0.33923036,1.3053758,0.68135124,-0.3137407,-1.197958,1.1104479,-0.0030859753,-0.10467613,0.99260193,0.47600022
0.0,0.1,0.9999999999999999,-0.5235987755982988,-0.5235987755982988,0,-0.003848352,-0.8007233,2.2561262,0.08948805,-0.3039164,1.2902774,-0.26288214,-0.31086752,-1.1971921,1.0795243,-0.0075158407,-0.0020564497,1.0925033,-0.37163562
0.0,0.1,0.9999999999999999,-0.5235987755982988,-0.5235987755982988,0,-0.004793607,-0.8014759,2.2511468,0.111723565,-0.036016073,1.279872,0.41831747,-0.31428832,-1.1977082,1.1034586,0.019811833,-0.03759649,1.0112491,-0.61857295
0.0,0.1,0.9999999999999999,-0.5235987755982988,-0.5235987755982988,0,-0.005003155,-0.800018,2.257885,0.09597455,-0.13305338,1.3009459,0.74466676,-0.31578225,-1.1969563,1.0935769,-0.036282144,0.0197523,1.1404755,-0.5846384
0.0,0.1,0.9999999999999999,-0.5235987755982988,-0.5235987755982988,0,-0.00502078,-0.8003813,2.2605076,0.09451565,-0.26463014,1.3088207,-0.54592294,-0.31476486,-1.1970134,1.1012751,0.017439634,0.010694009,1.2057459,-0.23349857
0.0,0.1,0.9999999999999999,-0.5235987755982988,-0.5235987755982988,0,-0.0048940303,-0.80094355,2.2542934,0.12119092,-0.27028474,1.3121837,1.490051,-0.3108957,-1.1961929,1.1139266,0.031285092,-0.10365771,1.0227128,-1.1268603
0.0,0.1,0.9999999999999999,-0.5235987755982988,-0.5235987755982988,0,-0.0036598463,-0.79873514,2.2568028,0.12424998,-0.034231126,1.2885336,-0.28019944,-0.31449443,-1.19805,1.1070915,-0.005029635,-0.015042835,1.1665822,0.26151997
0.0,0.1,0.9999999999999999,-0.5235987755982988,-0.5235987755982988,0,-0.005758811,-0.7975857,2.2527282,0.11665119,-0.16908482,1.2781268,-0.62605166,-0.31535923,-1.1957221,1.0970901,-0.09523191,0.0305756,1.0611348,-1.6911302
0.0,0.1,0.9999999999999999,-0.5235987755982988,-0.5235987755982988,0,-0.004034505,-0.80096537,2.2578864,0.10628358,-0.3317961,1.3353667,0.25679332,-0.30914998,-1.1966627,1.0932283,-0.06542048,-0.01575918,1.1984473,-0.93789697
0.0,0.1,0.9999999999999999,-0.5235987755982988,-0.5235987755982988,0,-0.0058882628,-0.8009143,2.2491846,0.12002846,0.016330985,1.3329648,-0.25830278,-0.31489006,-1.1964445,1.1024146,-0.047955174,-0.13491371,1.1230632,0.099556796
0.0,0.1,0.9999999999999999,-0.5235987755982988,-0.5235987755982988,0,-0.004553352,-0.79974186,2.2505784,0.091900386,-0.03684177,1.3164331,-0.30409074,-0.3211849,-1.197817,1.0979695,-0.03915275,-0.008364465,1.2188065,0.033705186
0.0,0.1,0.9999999999999999,-0.5235987755982988,-0.5235987755982988,0,-0.0033239152,-0.7989851,2.2560303,0.10024428,-0.21848702,1.3053994,0.5764618,-0.3129394,-1.1968776,1.0948101,-0.018676853,-0.04057337,1.088747,-1.4224741
0.0,0.1,0.9999999999999999,-0.5235987755982988,-0.5235987755982988,0,-0.0034692502,-0.7989079,2.2598498,0.10513243,-0.38996798,1.2767333,0.7837464,-0.31579623,-1.1975131,1.1156851,-0.039156053,-0.014165234,0.990888,-0.7174957
0.0,0.1,0.9999999999999999,-0.5235987755982988,-0.5235987755982988,0,-0.0057849367,-0.8005562,2.2558215,0.1049997,-0.17453584,1.3097095,-0.3805092,-0.3121552,-1.1966879,1.0903487,-0.0297774,-0.1590059,1.1229935,-2.2905717
0.0,0.1,0.9999999999999999,-0.5235987755982988,-0.5235987755982988,0,-0.0044111027,-0.798301,2.2617068,0.07775544,-0.27093077,1.3218184,0.36845413,-0.30933535,-1.1956826,1.0816888,-0.05703712,-0.057497386,0.9698638,0.20201981
0.0,0.1,0.9999999999999999,-0.5235987755982988,-0.5235987755982988,0,-0.005876226,-0.7990024,2.2618313,0.10515159,-0.0886345,1.323438,-0.89785486,-0.31241313,-1.1962861,1.1015975,0.042276327,-0.08567069,1.1009991,-0.70072263
0.0,0.1,0.9999999999999999,-0.5235987755982988,-0.5235987755982988,0,-0.0040532597,-0.799144,2.2546883,0.08978313,-0.38805738,1.2991072,0.29278302,-0.31406498,-1.1951565,1.1157733,0.012027005,-0.054664608,1.069851,0.14230685
0.0,0.1,0.9999999999999999,-0.5235987755982988,-0.5235987755982988,0,-0.0039246827,-0.80057263,2.2487335,0.12152832,0.12949093,1.299854,-0.37456656,-0.3111784,-1.1958717,1.1230209,-0.073282756,-0.2484249,1.1083884,0.2818871
0.0,0.1,0.9999999999999999,-0.5235987755982988,-0.5235987755982988,0,-0.003668219,-0.7999237,2.2574277,0.108641796,-0.38745525,1.2983891,-0.8651255,-0.31422496,-1.198161,1.1062073,-0.017803855,-0.09801343,1.1397057,-0.6135089
0.0,0.1,0.9999999999999999,-0.5235987755982988,-0.5235987755982988,0,-0.004187905,-0.8012603,2.248854,0.11263078,0.110339545,1.2885872,1.1165612,-0.31765497,-1.1979077,1.1167456,-0.08169634,-0.09232097,1.2134091,0.037510127
0.0,0.1,0.9999999999999999,-0.5235987755982988,-0.5235987755982988,0,-0.004479282,-0.80047613,2.2544565,0.09830457,-0.10480044,1.2819661,0.26384324,-0.3167843,-1.1964147,1.1178786,-0.039155547,-0.04230419,1.2108626,-0.36224094
0.0,0.1,0.9999999999999999,-0.5235987755982988,-0.5235987755982988,0,-0.006528762,-0.79941744,2.2517185,0.1038351,-0.10367361,1.3256043,-0.45863837,-0.31587902,-1.1949359,1.1061546,-0.031864744,-0.0373954,1.0952978,-0.10655017
0.0,0.1,0.9999999999999999,-0.5235987755982988,-0.5235987755982988,0,-0.00562649,-0.8008334,2.2548845,0.12165405,-0.33553866,1.3268131,-0.1105156,-0.3079985,-1.1959219,1.101175,0.015099134,-0.064181395,1.1005553,-1.0032111
0.0,0.1,0.9999999999999999,-0.5235987755982988,-0.5235987755982988,0,-0.0037324764,-0.8033454,2.2604005,0.08467831,-0.0070040165,1.3214719,-0.42587212,-0.31068328,-1.19881,1.0914928,-0.038817294,-0.113367274,1.0687983,-0.329957
0.0,0.1,0.9999999999999999,-0.5235987755982988,-0.5235987755982988,0,-0.002924907,-0.8005423,2.2489119,0.10801391,-0.15286691,1.2997135,0.09732813,-0.31658065,-1.19913,1.1039371,-0.004822778,-0.015884899,1.1343509,-1.5381366
0.0,0.1,0.9999999999999999,-0.5235987755982988,-0.5235987755982988,0,-0.0032386428,-0.7995641,2.2482145,0.14094515,-0.1579491,1.3077507,0.88517094,-0.31116107,-1.1987972,1.0931628,-0.023613855,-0.04820123,1.133413,-1.1061194
0.0,0.1,0.9999999999999999,-0.5235987755982988,-0.5235987755982988,0,-0.0044049607,-0.79940677,2.2563815,0.102908,-0.17733985,1.2804468,0.44761074,-0.31151944,-1.19754,1.0846152,-0.07749194,-0.07831047,1.093273,-0.41489148
0.0,0.1,0.9999999999999999,-0.5235987755982988,-0.5235987755982988,0,-0.005439396,-0.8022597,2.251526,0.09354762,-0.15297358,1.3417782,-0.056660112,-0.31242,-1.1958609,1.0997733,-0.046828497,-0.023312157,1.1044776,-0.19652909
0.0,0.1,0.9999999999999999,-0.5235987755982988,-0.5235987755982988,0,-0.004788766,-0.8023558,2.2550893,0.10572251,0.07549431,1.2477773,1.0033101,-0.30985674,-1.1963149,1.1169803,-0.016019864,0.021192787,1.058098,-0.27319807
0.0,0.1,0.9999999999999999,-0.5235987755982988,-0.5235987755982988,0,-0.0039482275,-0.80080277,2.2575493,0.0838417,-0.093423896,1.3355923,1.427383,-0.3109128,-1.1959591,1.1011744,-0.025465535,0.016697755,1.140834,-0.7275984
0.0,0.1,0.9999999999999999,-0.5235987755982988,-0.5235987755982988,0,-0.0048228246,-0.80208766,2.2584748,0.111931324,-0.13181023,1.3585211,0.51482695,-0.3097852,-1.1970978,1.1058434,-0.0328207,-0.09946013,1.089601,-0.58964056
0.0,0.1,0.9999999999999999,-0.5235987755982988,-0.5235987755982988,0,-0.005411054,-0.8006723,2.2634654,0.07750848,-0.1808398,1.3099349,-0.29547313,-0.31215444,-1.1956574,1.1106627,0.0056243087,-0.1178018,1.2182382,-0.89175576
0.0,0.1,0.9999999999999999,-0.5235987755982988,-0.5235987755982988,0,-0.003994148,-0.79815364,2.2569475,0.081215985,-0.35320553,1.3043616,0.45121077,-0.31387484,-1.1971642,1.0931159,-0.003821984,-0.12736423,1.0030099,-1.0081911
0.0,0.1,0.9999999999999999,-0.5235987755982988,-0.5235987755982988,0,-0.003805923,-0.8003293,2.2568676,0.0945521,-0.285029,1.2810255,-0.5650415,-0.3077219,-1.1969564,1.0864085,-0.09665377,0.06291632,1.1180865,-0.1433877
0.0,0.1,0.9999999999999999,-0.5235987755982988,-0.5235987755982988,0,-0.0044760266,-0.7998703,2.2570815,0.101964995,-0.082341276,1.2828,0.6687515,-0.31362766,-1.1979249,1.1051514,0.028738301,-0.07613937,1.0686179,-0.6494805
0.0,0.1,0.9999999999999999,-0.5235987755982988,-0.5235987755982988,0,-0.0041385936,-0.7996876,2.2651317,0.09928363,-0.25956017,1.3160069,0.4279812,-0.31056407,-1.1987854,1.085485,-0.086065724,-0.035808336,1.0811707,-0.48183438
0.0,0.1,0.9999999999999999,-0.5235987755982988,-0.5235987755982988,0,-0.005302651,-0.7989103,2.2516353,0.115462005,-0.16717981,1.2995086,0.65500236,-0.31465822,-1.1979665,1.0999312,0.002354703,0.029213574,1.2341015,-0.9146032
0.0,0.1,0.9999999999999999,-0.5235987755982988,-0.5235987755982988,0,-0.0032358859,-0.8004488,2.247063,0.104354896,-0.23672669,1.3105849,-0.5164183,-0.31838185,-1.1991123,1.1103519,-0.006433106,-0.06919441,1.1261314,-0.19983101
0.0,0.1,0.9999999999999999,-0.5235987755982988,-0.5235987755982988,0,-0.0058131968,-0.7997659,2.2542017,0.09488515,-0.46023548,1.2880876,-0.39777935,-0.3165605,-1.197201,1.0994262,-0.06466554,-0.048480753,1.1830397,-0.36888936
0.0,0.1,0.9999999999999999,-0.5235987755982988,-0.5235987755982988,0,-0.0068651717,-0.7994161,2.251349,0.11351041,-0.20270473,1.2648625,0.6296055,-0.31418785,-1.1970776,1.0958143,-0.039399426,-0.15207013,1.0773925,0.32986864
0.0,0.1,0.9999999999999999,-0.5235987755982988,-0.5235987755982988,0,-0.0044202064,-0.8000937,2.2461226,0.09992851,-0.115995355,1.2984382,0.732963,-0.31466255,-1.198091,1.0884787,-0.045019455,-0.1343926,1.1491197,-0.69481593
0.0,0.1,0.9999999999999999,-0.5235987755982988,-0.5235987755982988,0,-0.0043883403,-0.79785454,2.266282,0.10059351,-0.25956488,1.3375412,-0.45620754,-0.3136186,-1.1975819,1.106925,-0.047975056,0.12871669,1.1262536,-0.46105722
0.0,0.1,0.9999999999999999,-0.5235987755982988,-0.5235987755982988,0,-0.0018201101,-0.7997436,2.2541895,0.102186695,0.07315615,1.33573,0.38094097,-0.3110487,-1.1991001,1.1022877,-0.0073878234,0.061095428,1.1011744,-0.78721845
0.0,0.1,0.9999999999999999,-0.5235987755982988,-0.5235987755982988,0,-0.0038392048,-0.79979426,2.2549863,0.107418194,-0.31833398,1.3266743,0.91418535,-0.31287554,-1.1974711,1.1157758,-0.012851016,-0.070599005,1.124118,-0.55324495
0.0,0.1,0.9999999999999999,-0.5235987755982988,-0.5235987755982988,0,-0.004998624,-0.80026865,2.2473137,0.07835559,-0.15570055,1.2902828,0.03305498,-0.31344002,-1.1952759,1.108807,0.006860898,-0.05235069,1.0673234,-0.87871397
0.0,0.1,0.9999999999999999,-0.5235987755982988,-0.5235987755982988,0,-0.007381688,-0.8011983,2.2534435,0.096538655,-0.3256992,1.318138,-0.9265387,-0.31264052,-1.1957164,1.0988718,-0.029253297,-0.13074547,1.1553771,0.14874305
0.0,0.1,0.9999999999999999,-0.5235987755982988,-0.5235987755982988,0,-0.003062318,-0.79928845,2.2562146,0.08502757,-0.2981293,1.3028643,-0.19961168,-0.3112872,-1.1967571,1.1043497,-0.028075632,-0.06166454,1.1114666,-0.7261884
0.0,0.1,0.9999999999999999,-0.5235987755982988,-0.5235987755982988,0,-0.0042914716,-0.8011841,2.2584634,0.1023857,-0.3214271,1.302952,0.8998835,-0.31171456,-1.198175,1.1051193,-0.031714246,-0.09014961,1.1031134,-0.5432515
0.0,0.1,0.9999999999999999,-0.5235987755982988,-0.5235987755982988,0,-0.0039563878,-0.7992574,2.2618442,0.1109274,-0.34667125,1.3106254,-0.418748,-0.31189018,-1.1987938,1.1011195,-0.05045662,0.029762737,1.1739203,-0.18919988
0.0,0.1,0.9999999999999999,-0.5235987755982988,-0.5235987755982988,0,-0.005406027,-0.8016593,2.2546525,0.1046596,0.08568277,1.2620077,1.3747547,-0.31279945,-1.198782,1.098276,-0.024833394,-0.05596386,1.0712398,-0.64610577
0.0,0.1,0.9999999999999999,-0.5235987755982988,-0.5235987755982988,0,-0.005218599,-0.79971546,2.2622008,0.10901524,-0.2384704,1.3287598,1.4803317,-0.31295994,-1.1981256,1.1068754,-0.025345372,0.002555155,1.1393226,-0.016601445
0.0,0.1,0.9999999999999999,-0.5235987755982988,-0.5235987755982988,0,-0.0048124995,-0.79932463,2.24563,0.101510234,-0.15653105,1.3451376,-0.51805604,-0.3133329,-1.1962262,1.1000212,-0.014247596,-0.06285233,1.1737949,-0.11244723
0.0,0.1,0.9999999999999999,-0.5235987755982988,-0.5235987755982988,0,-0.0039904234,-0.8012977,2.253338,0.08495775,-0.034872577,1.2798162,0.4661652,-0.31178904,-1.1968333,1.1072007,-0.02818245,-0.023954533,1.0837575,-1.0501202
0.0,0.1,0.9999999999999999,-0.5235987755982988,-0.5235987755982988,0,-0.0061963038,-0.79735255,2.2584274,0.10813134,-0.3282629,1.332234,1.5720365,-0.31135818,-1.1953659,1.1019719,-0.07540417,-0.123573735,1.1195866,0.0071399985
0.0,0.1,0.9999999999999999,-0.5235987755982988,-0.5235987755982988,0,-0.004521143,-0.7980117,2.26426,0.0858653,-0.015920755,1.3075321,1.4344275,-0.31230718,-1.1987784,1.0825087,-0.02843071,0.07325509,1.0352958,-0.6659105
0.0,0.1,0.9999999999999999,-0.5235987755982988,-0.5235987755982988,0,-0.005269186,-0.8004466,2.2541924,0.110525616,-0.14320856,1.299649,-0.5522288,-0.3169158,-1.1990516,1.1116167,-0.03333294,-0.08691554,1.1260765,0.15567167
0.0,0.1,0.9999999999999999,-0.5235987755982988,-0.5235987755982988,0,-0.00583827,-0.79941666,2.2545795,0.097150154,-0.3655707,1.2953948,-0.91188353,-0.31128183,-1.1970515,1.0913862,-0.04641603,0.08322942,1.0956552,-1.2289649
0.0,0.1,0.9999999999999999,-0.5235987755982988,-0.5235987755982988,0,-0.0056337155,-0.80223304,2.2519176,0.10779711,-0.18044616,1.2978132,-0.24974704,-0.31218112,-1.1990945,1.0977948,-0.023766018,-0.19010402,1.1802195,-0.22498395
0.0,0.1,0.9999999999999999,-0.5235987755982988,-0.5235987755982988,0,-0.005347093,-0.8006342,2.2501483,0.08180596,-0.13323879,1.307734,0.6312274,-0.31537563,-1.1973348,1.0964574,-0.084127404,-0.06207005,1.0730281,-0.3933832
0.0,0.1,0.9999999999999999,-0.5235987755982988,-0.5235987755982988,0,-0.005248846,-0.79983354,2.2602599,0.13526955,-0.24506092,1.3240862,1.6666744,-0.31229034,-1.1997058,1.1141781,0.028506137,0.00679468,1.1086668,-0.5668567
0.0,0.1,0.9999999999999999,-0.5235987755982988,-0.5235987755982988,0,-0.0011198191,-0.79769766,2.242645,0.09468591,-0.15076478,1.3161756,-0.53041655,-0.3182724,-1.1999553,1.1039405,0.013759531,-0.06379789,1.130599,0.3288843
0.0,0.1,0.9999999999999999,-0.5235987755982988,-0.5235987755982988,0,-0.0031770738,-0.800685,2.2554748,0.11292695,-0.10004087,1.298222,1.2884612,-0.31389955,-1.2002947,1.1152875,-0.014722165,-0.03687133,1.107418,-1.0352371
0.0,0.1,0.9999999999999999,-0.5235987755982988,-0.5235987755982988,0,-0.0066019096,-0.7993923,2.2571807,0.08076781,-0.19103302,1.2882949,0.19328319,-0.316333,-1.1974528,1.0992932,0.0038049177,-0.074114084,1.1223538,-0.34153748
0.0,0.1,0.9999999999999999,-0.5235987755982988,-0.5235987755982988,0,-0.0050670165,-0.8002921,2.2634773,0.092132084,-0.08526884,1.3550245,1.0170836,-0.3114574,-1.1981314,1.1068848,0.0010746262,0.0017599817,1.1629375,0.2730123
0.0,0.1,0.9999999999999999,-0.5235987755982988,-0.5235987755982988,0,-0.0030092483,-0.8009047,2.2451491,0.0796165,-0.24808992,1.2709186,0.80040485,-0.30840012,-1.1966739,1.099814,-0.02883721,0.06986559,1.0961677,-0.5540364
0.0,0.1,0.9999999999999999,-0.5235987755982988,-0.5235987755982988,0,-0.0037383041,-0.7983653,2.2557049,0.08303923,-0.14235988,1.3360134,0.9226328,-0.31020913,-1.1973355,1.0979518,-0.02549343,0.083496146,1.056517,-0.4619436
0.0,0.1,0.9999999999999999,-0.5235987755982988,-0.5235987755982988,0,-0.005246455,-0.7995865,2.2570744,0.07622177,0.10175285,1.2822461,-0.16159497,-0.313311,-1.1988137,1.0959173,0.0048441514,-0.076460406,1.1381594,-0.6884537
0.0,0.1,0.9999999999999999,-0.5235987755982988,-0.5235987755982988,0,-0.0042025945,-0.800254,2.2547266,0.09287526,-0.25000182,1.3089424,1.1208236,-0.31330726,-1.1984916,1.1103776,-0.0331055,-0.11332562,1.1911703,-0.8061109
0.0,0.1,0.9999999999999999,-0.5235987755982988,-0.5235987755982988,0,-0.005532191,-0.79917526,2.2542331,0.11379947,-0.11779288,1.2626628,0.018093728,-0.3109679,-1.1984113,1.1001657,-0.07760039,-0.06463533,1.1766734,-0.5746971
0.0,0.1,0.9999999999999999,-0.5235987755982988,-0.5235987755982988,0,-0.0055707963,-0.7995638,2.2540598,0.09270609,-0.3822134,1.3343389,-0.10178227,-0.31360826,-1.1967746,1.116163,-0.04890406,0.042658057,1.1357011,-1.0534549
0.0,0.1,0.9999999999999999,-0.5235987755982988,-0.5235987755982988,0,-0.0056510274,-0.8008026,2.2570171,0.13602437,-0.033576988,1.3190072,2.0812986,-0.31369072,-1.2024555,1.0986189,-0.01581618,0.03252755,1.1863543,-0.6008352
0.0,0.1,0.9999999999999999,-0.5235987755982988,-0.5235987755982988,0,-0.005413692,-0.79983497,2.2549222,0.08965623,-0.19288582,1.3041923,0.60143834,-0.3167477,-1.1996429,1.1065658,-0.013104111,0.08316075,1.0617557,-0.3702686
0.0,0.1,0.9999999999999999,-0.5235987755982988,-0.5235987755982988,0,-0.004265254,-0.8001261,2.2519345,0.08939093,0.2003175,1.2820132,0.9039377,-0.3102452,-1.1990649,1.0946791,-0.06175678,-0.019069552,1.0805348,-1.271214
0.0,0.1,0.9999999999999999,-0.5235987755982988,-0.5235987755982988,0,-0.0048295716,-0.7983691,2.2576008,0.0979374,-0.15612729,1.3425965,0.024111407,-0.31073672,-1.1993933,1.0975105,-0.05833611,-0.09154967,1.0813735,0.30118445
0.0,0.1,0.9999999999999999,-0.5235987755982988,-0.5235987755982988,0,-0.00453319,-0.8016523,2.2576094,0.077740505,-0.07793743,1.3316996,1.0617342,-0.31005013,-1.1979172,1.1159121,-0.03161852,-0.10572118,1.1140004,0.14255142
0.0,0.1,0.9999999999999999,-0.5235987755982988,-0.5235987755982988,0,-0.005369713,-0.8001501,2.2527554,0.14733717,0.08997474,1.2769877,0.4033015,-0.3097456,-1.1964452,1.0953989,-0.079963416,-0.15692542,1.0112166,-0.59711486
0.0,0.1,0.9999999999999999,-0.5235987755982988,-0.5235987755982988,0,-0.0036916425,-0.79955786,2.2573907,0.11610796,0.08263734,1.3204279,0.42169586,-0.31062406,-1.1922375,1.0797719,-0.0073171104,-0.21184088,1.1365926,-0.58921397
0.0,0.1,0.9999999999999999,-0.5235987755982988,-0.5235987755982988,0,-0.0038147536,-0.80123824,2.2684875,0.09201693,-0.3973226,1.325168,-0.20908946,-0.31401008,-1.1946514,1.0942184,-0.029572558,-0.1260467,1.2239156,-0.88208926
0.0,0.1,0.9999999999999999,-0.5235987755982988,-0.5235987755982988,0,-0.0028486277,-0.8018374,2.2569375,0.118231826,-0.04573908,1.3129194,0.8487061,-0.31258634,-1.1951549,1.1138028,0.045973096,-0.22538127,1.1318092,-1.1365967
0.0,0.1,0.9999999999999999,-0.5235987755982988,-0.5235987755982988,0,-0.0027772936,-0.8001646,2.26161,0.0895844,-0.009780991,1.2983456,0.057248536,-0.31416103,-1.194609,1.0957962,-0.019002922,-0.1931528,1.0766996,0.5396484
0.0,0.1,0.9999999999999999,-0.5235987755982988,-0.5235987755982988,0,-0.004036234,-0.8009253,2.2483284,0.11369933,-0.5815016,1.2745152,-0.08297932,-0.3178004,-1.1943781,1.1141654,-0.055081163,-0.06904341,1.0695859,0.46848613
0.0,0.1,0.9999999999999999,-0.5235987755982988,-0.5235987755982988,0,-0.002923425,-0.80230296,2.258904,0.09342882,-0.1829399,1.2983443,-0.39374208,-0.3109976,-1.1950531,1.0894299,-0.038385734,-0.23950168,1.1853681,-0.24520463
0.0,0.1,0.9999999999999999,-0.5235987755982988,-0.5235987755982988,0,-0.002887009,-0.7994131,2.2525415,0.11742922,-0.119839616,1.3238358,0.66399586,-0.31481424,-1.1957927,1.0885023,-0.016624663,-0.06464261,1.0438384,0.090406395
0.0,0.1,0.9999999999999999,-0.5235987755982988,-0.5235987755982988,0,-0.0016147228,-0.80119765,2.2579143,0.098399565,-0.32347792,1.2798921,-0.828162,-0.31725988,-1.1979961,1.0868932,-0.04004438,-0.04464556,1.1300362,-0.46687603
0.0,0.1,0.9999999999999999,-0.5235987755982988,-0.5235987755982988,0,-0.0037982455,-0.8008234,2.2590058,0.10783573,-0.07526593,1.2847773,0.51208234,-0.31573382,-1.1961265,1.1012281,-0.06769805,-0.1900162,0.9889311,-0.1717903
0.0,0.1,0.9999999999999999,-0.5235987755982988,-0.5235987755982988,0,-0.005017596,-0.8024725,2.2609763,0.105071805,-0.5417398,1.3283458,0.125508,-0.31742078,-1.1957918,1.1100385,-0.007148974,-0.027857456,1.216843,-1.3465965
0.0,0.1,0.9999999999999999,-0.5235987755982988,-0.5235987755982988,0,-0.0033221417,-0.7993162,2.2642496,0.11659301,-0.091899954,1.2774882,-0.21922912,-0.3145513,-1.1967174,1.0951453,-0.021985456,-0.016367277,1.0715952,0.010520805
0.0,0.1,0.9999999999999999,-0.5235987755982988,-0.5235987755982988,0,-0.0034059759,-0.80018514,2.2590241,0.09573265,-0.1744767,1.2868139,-0.028615527,-0.31815428,-1.1956252,1.1057521,-0.020209366,-0.03714527,1.0969138,-1.2163705
0.0,0.1,0.9999999999999999,-0.5235987755982988,-0.5235987755982988,0,-0.0056788176,-0.8008452,2.2556143,0.085146494,-0.14316097,1.2555178,0.91081786,-0.31975728,-1.1947353,1.0939169,-0.04387548,-0.09370392,1.0300561,-0.6621711
0.0,0.1,0.9999999999999999,-0.5235987755982988,-0.5235987755982988,0,-0.0036422585,-0.8019155,2.253316,0.10785648,-0.2845204,1.2582525,-0.37414354,-0.31291845,-1.1959445,1.0975941,-0.00084074587,-0.11862665,1.1063164,-0.13684575
0.0,0.1,0.9999999999999999,-0.5235987755982988,-0.5235987755982988,0,-0.0030631684,-0.79948926,2.2518876,0.10516729,-0.24523461,1.3194784,-0.18284369,-0.31545272,-1.1956266,1.0934442,-0.023848657,-0.11762126,1.0424974,-0.4291007
0.0,0.1,0.9999999999999999,-0.5235987755982988,-0.5235987755982988,0,-0.0026518314,-0.80172527,2.2652438,0.122128434,-0.25976318,1.3474442,-0.47261524,-0.312514,-1.1977457,1.1095107,-0.029019304,-0.111764655,1.0881618,-0.81954306
0.0,0.1,0.9999999999999999,-0.5235987755982988,-0.5235987755982988,0,-0.0033936952,-0.8007889,2.2579207,0.09415463,-0.000101015336,1.280117,0.61976784,-0.31242916,-1.1961097,1.0939134,0.024383038,-0.1965585,1.0830461,-0.40428516
0.0,0.1,0.9999999999999999,-0.5235987755982988,-0.5235987755982988,0,-0.003985334,-0.7995038,2.2651126,0.11181413,-0.36286727,1.2776166,-0.06808268,-0.31328967,-1.1976191,1.0936574,-0.019861646,-0.113051675,0.97581345,0.097529255
0.0,0.1,0.9999999999999999,-0.5235987755982988,-0.5235987755982988,0,-0.004893133,-0.802477,2.2629306,0.10692064,0.026608577,1.306273,0.8525208,-0.311448,-1.1961272,1.0955365,-0.04853209,0.029974064,1.1734557,-1.0330328
0.0,0.1,0.9999999999999999,-0.5235987755982988,-0.5235987755982988,0,-0.0032096452,-0.8011448,2.250457,0.0952455,0.042990882,1.2980442,0.27655557,-0.31011885,-1.1938708,1.0992652,-0.07946226,-0.013755661,1.059206,-0.37769875
0.0,0.1,0.9999999999999999,-0.5235987755982988,-0.5235987755982988,0,-0.004633146,-0.799872,2.2578936,0.11727735,-0.18182378,1.3043485,1.0197152,-0.31229967,-1.1949748,1.1118792,0.003811489,-0.1597366,1.0141203,-1.0830587
0.0,0.1,0.9999999999999999,-0.5235987755982988,-0.5235987755982988,0,-0.00387817,-0.7997784,2.2600007,0.10853703,-0.5654447,1.2957907,-0.91763777,-0.314258,-1.1978607,1.08651,-0.0051584714,-0.1289113,1.1154649,0.040593624
0.0,0.1,0.9999999999999999,-0.5235987755982988,-0.5235987755982988,0,-0.0031670483,-0.7995688,2.2617624,0.101235114,-0.28369826,1.290356,-0.8184114,-0.3116764,-1.1956174,1.0978535,-0.052921254,0.0019733964,1.0868292,-0.10185511
0.0,0.1,0.9999999999999999,-0.5235987755982988,-0.5235987755982988,0,-0.004820331,-0.80045325,2.262594,0.1010527,-0.24517933,1.3385668,-0.60096604,-0.3115191,-1.1952523,1.0942209,-0.0080860695,-0.09362738,1.1629192,-0.13015327
0.0,0.1,0.9999999999999999,-0.5235987755982988,-0.5235987755982988,0,-0.0040023057,-0.80029887,2.2625813,0.113197275,-0.016527103,1.3267365,0.47328347,-0.30757993,-1.1958723,1.0894265,-0.003814711,-0.0071407347,1.0495955,0.47834244
0.0,0.1,0.9999999999999999,-0.5235987755982988,-0.5235987755982988,0,-0.0040547834,-0.80079275,2.2582684,0.12048647,-0.30552676,1.3061008,-0.29530844,-0.31197342,-1.1975129,1.0935256,0.018908942,-0.09472677,1.0805967,-0.75517225
0.0,0.1,0.9999999999999999,-0.5235987755982988,-0.5235987755982988,0,-0.0022512365,-0.79981637,2.2595217,0.10917922,-0.28591928,1.236023,-0.11312333,-0.31641272,-1.1976684,1.114241,-0.03378509,0.014440907,1.1913838,-0.37918237
0.0,0.1,0.9999999999999999,-0.5235987755982988,-0.5235987755982988,0,-0.0038668804,-0.79951936,2.2607305,0.10085004,-0.16957414,1.3320494,-0.6622775,-0.3135609,-1.1961871,1.0880954,-0.08718421,-0.04486071,1.1176349,-0.4794137
0.0,0.1,0.9999999999999999,-0.5235987755982988,-0.5235987755982988,0,-0.0051580337,-0.79983693,2.2495391,0.108806975,-0.14649245,1.2964777,0.068777725,-0.31468275,-1.1950258,1.0954558,-0.001398238,-0.0117967045,1.0927328,0.422045
0.0,0.1,0.9999999999999999,-0.5235987755982988,-0.5235987755982988,0,-0.003763468,-0.7979505,2.2630901,0.11688604,-0.4094631,1.309505,0.2766612,-0.31423134,-1.1972777,1.0933859,-0.059376508,-0.1527852,1.1008319,-0.4352591
0.0,0.1,0.9999999999999999,-0.5235987755982988,-0.5235987755982988,0,-0.00484626,-0.80200464,2.2572472,0.10671468,-0.23206472,1.297401,0.29217008,-0.31391323,-1.1974118,1.0891845,-0.05191662,-0.03049638,1.1413819,-0.7684377
0.0,0.1,0.9999999999999999,-0.5235987755982988,-0.5235987755982988,0,-0.004658105,-0.79984385,2.2644434,0.11912781,0.13827105,1.3219521,0.40544766,-0.31403622,-1.196443,1.1145793,-0.06994359,-0.11934249,1.1134787,0.44443718
0.0,0.1,0.9999999999999999,-0.5235987755982988,-0.5235987755982988,0,-0.003076172,-0.8000503,2.2547271,0.12316297,-0.22787806,1.2988836,0.20862398,-0.31078616,-1.1966748,1.1030575,-0.042825498,-0.0091492925,1.0485069,0.20231499
0.0,0.1,0.9999999999999999,-0.5235987755982988,-0.5235987755982988,0,-0.0056492756,-0.80098784,2.25617,0.11374498,-0.3094978,1.3206806,-0.29522142,-0.31275985,-1.1970428,1.0912184,0.008690198,-0.21114066,1.0831418,-1.5864143
0.0,0.1,0.9999999999999999,-0.5235987755982988,-0.5235987755982988,0,-0.0032946258,-0.8007922,2.2503529,0.090355925,0.025955573,1.2827117,-0.5053826,-0.31415656,-1.195855,1.0993227,-0.02787742,0.040205684,1.0956081,-0.46631938
0.0,0.1,0.9999999999999999,-0.5235987755982988,-0.5235987755982988,0,-0.001892339,-0.7982228,2.2466512,0.09505563,-0.11064964,1.3142289,0.17693618,-0.3162478,-1.1972015,1.0824829,-0.036238454,0.101349,1.1331129,-0.075811125
0.0,0.1,0.9999999999999999,-0.5235987755982988,-0.5235987755982988,0,-0.0059907245,-0.8001837,2.2622151,0.12001385,0.028639201,1.322365,-0.17437238,-0.31197584,-1.1957608,1.108099,-0.0033331309,-0.08080379,1.0552188,0.32042864
0.0,0.1,0.9999999999999999,-0.5235987755982988,-0.5235987755982988,0,-0.0042721545,-0.7995881,2.2483084,0.12119214,0.114987776,1.3179878,1.3733144,-0.311049,-1.19644,1.0874082,-0.0148590375,0.01898358,1.0453982,-0.31699723
0.0,0.1,0.9999999999999999,-0.5235987755982988,-0.5235987755982988,0,-0.0033205864,-0.7989191,2.2576578,0.10441234,0.072390616,1.2954464,0.18978173,-0.31453544,-1.1968338,1.1094233,0.038837414,-0.05301058,1.1814173,-1.0518097
0.0,0.1,0.9999999999999999,-0.5235987755982988,-0.5235987755982988,0,-0.0016565226,-0.80032355,2.2551332,0.07771334,0.024421107,1.3239692,-0.22200514,-0.3150902,-1.1978585,1.0962303,-0.047882814,-0.07431104,1.0531343,-0.6931249
0.0,0.1,0.9999999999999999,-0.5235987755982988,-0.5235987755982988,0,-0.0029425928,-0.79946524,2.2566245,0.11383096,-0.09935826,1.3418334,-0.34689718,-0.310946,-1.1968622,1.0975733,-0.02685938,-0.118280925,1.1441331,-0.83187264
0.0,0.1,0.9999999999999999,-0.5235987755982988,-0.5235987755982988,0,-0.005421943,-0.80182374,2.2558024,0.09998099,-0.20864575,1.3101933,-1.0486304,-0.31293076,-1.1958677,1.0993187,-0.003059725,-0.052414317,1.126416,-0.4163572
0.0,0.1,0.9999999999999999,-0.5235987755982988,-0.5235987755982988,0,-0.004685048,-0.80189025,2.256402,0.10435453,0.017749399,1.3223565,0.07600071,-0.31518203,-1.1973089,1.0996879,-0.029339183,0.03996794,1.1153629,-0.53157824
0.0,0.1,0.9999999999999999,-0.5235987755982988,-0.5235987755982988,0,-0.0039093206,-0.80102164,2.2630584,0.09041049,-0.2001598,1.3144829,-0.6854909,-0.3125782,-1.1966852,1.1054642,0.051011287,-0.07632509,1.1084621,-0.20639019
0.0,0.1,0.9999999999999999,-0.5235987755982988,-0.5235987755982988,0,-0.005674984,-0.80162686,2.2515502,0.056646504,-0.22357984,1.3470018,-0.24005237,-0.31250158,-1.1948175,1.0854584,-0.007120042,-0.117816955,1.0320443,-0.56765586
0.0,0.1,0.9999999999999999,-0.5235987755982988,-0.5235987755982988,0,-0.004806895,-0.8009335,2.24974,0.095966585,-0.09824008,1.2603709,0.017755741,-0.30846924,-1.194877,1.0817516,-0.06592522,-0.061333388,1.1665878,-0.8117997
0.0,0.1,0.9999999999999999,-0.5235987755982988,-0.5235987755982988,0,-0.005924437,-0.80173445,2.2563744,0.10501858,-0.20895723,1.2823342,0.066879615,-0.31388307,-1.1964483,1.1018971,-0.05855743,-0.014659656,1.0871551,-0.30274525
0.0,0.1,0.9999999999999999,-0.5235987755982988,-0.5235987755982988,0,-0.004785487,-0.79913765,2.2510343,0.122672096,0.0012470649,1.320453,0.6075553,-0.3144695,-1.1985615,1.0892408,0.02942482,-0.0614325,1.2335811,-0.2938672
0.0,0.1,0.9999999999999999,-0.5235987755982988,-0.5235987755982988,0,-0.0036034025,-0.79935527,2.2587712,0.10191603,-0.1855247,1.30493,0.23377766,-0.31790894,-1.1992551,1.0939623,-0.006016856,-0.10598326,1.1129708,-0.49658746
0.0,0.1,0.9999999999999999,-0.5235987755982988,-0.5235987755982988,0,-0.0037664808,-0.8000892,2.2531176,0.10168256,-0.27630913,1.2774668,0.86054534,-0.3150307,-1.1961185,1.1150315,-0.04902681,-0.05422765,1.1262536,-0.73418415
0.0,0.1,0.9999999999999999,-0.5235987755982988,-0.5235987755982988,0,-0.0023976036,-0.80008745,2.257832,0.11009758,-0.2591786,1.2924124,-0.020669453,-0.30955446,-1.1982955,1.0970318,0.0011828744,-0.09678328,1.0815558,-0.78142506
0.0,0.1,0.9999999999999999,-0.5235987755982988,-0.5235987755982988,0,-0.0036423346,-0.80214053,2.2517045,0.09059302,-0.11945025,1.2935736,0.40172595,-0.3138919,-1.1970834,1.1073983,0.019646103,-0.003942704,1.0731745,0.14565502
0.0,0.1,0.9999999999999999,-0.5235987755982988,-0.5235987755982988,0,-0.0051890453,-0.79913455,2.2530408,0.10801875,-0.18103017,1.2643356,-0.49999633,-0.3102032,-1.194786,1.1015656,-0.01281848,0.071441054,1.1606028,-0.68183327
0.0,0.1,0.9999999999999999,-0.5235987755982988,-0.5235987755982988,0,-0.0041105202,-0.79978013,2.25167,0.088166095,-0.085285366,1.2993878,0.10582185,-0.31363285,-1.1968249,1.0875971,-0.092305884,0.08575359,1.0164837,-0.66334814
0.0,0.1,0.9999999999999999,-0.5235987755982988,-0.5235987755982988,0,-0.0038583276,-0.7987652,2.2676744,0.087556444,0.0141145345,1.2951996,0.73030025,-0.30890715,-1.1965269,1.0904267,-0.076359324,-0.17260207,1.1159043,-0.3394742
0.0,0.1,0.9999999999999999,-0.5235987755982988,-0.5235987755982988,0,-0.0041810228,-0.8017859,2.254443,0.10033217,0.025013609,1.3262825,-0.45528808,-0.3132541,-1.19718,1.1111143,-0.062427394,-0.022024281,1.0149986,-0.766243
0.0,0.1,0.9999999999999999,-0.5235987755982988,-0.5235987755982988,0,-0.0043176613,-0.7999102,2.2537167,0.108964846,-0.20146826,1.2551355,0.54309,-0.30999961,-1.1969419,1.1010408,0.052201603,0.024860429,1.069036,-0.20802373
0.0,0.1,0.9999999999999999,-0.5235987755982988,-0.5235987755982988,0,-0.0050812038,-0.80050975,2.2555382,0.08853989,-0.2706929,1.2985938,0.506284,-0.3124208,-1.1965516,1.0853119,-0.078886144,0.023998715,1.0875344,-0.2683706
0.0,0.1,0.9999999999999999,-0.5235987755982988,-0.5235987755982988,0,-0.0052696774,-0.79930705,2.2631602,0.108038895,-0.04389287,1.2881142,-0.7787835,-0.31224614,-1.1972125,1.1012208,-0.07452086,-0.301133,1.1256843,-0.8520493
0.0,0.1,0.9999999999999999,-0.5235987755982988,-0.5235987755982988,0,-0.0058880793,-0.80073744,2.2591617,0.061408974,-0.062704,1.3207281,0.09880217,-0.31325817,-1.1970301,1.0815855,0.008326123,-0.11223754,1.0228337,-0.35910812
0.0,0.1,0.9999999999999999,-0.5235987755982988,-0.5235987755982988,0,-0.004454957,-0.8011272,2.2580626,0.11406263,-0.25139877,1.3317443,-0.011160656,-0.31360227,-1.1984761,1.1035888,-0.060462285,-0.0048947283,1.0874615,-0.812244
0.0,0.1,0.9999999999999999,-0.5235987755982988,-0.5235987755982988,0,-0.004915669,-0.8007218,2.2618487,0.09841674,-0.27276403,1.2910933,0.9851925,-0.3158683,-1.1988016,1.097427,-0.018632278,-0.13608293,1.2073216,-0.27903888
0.0,0.1,0.9999999999999999,-0.5235987755982988,-0.5235987755982988,0,-0.005965744,-0.79910123,2.259836,0.11444518,-0.041885477,1.3020037,-0.25348687,-0.3146537,-1.1974759,1.097668,-0.06258213,-0.018516637,1.1155539,-0.22898799
0.0,0.1,0.9999999999999999,-0.5235987755982988,-0.5235987755982988,0,-0.005051509,-0.7989573,2.2544942,0.110830486,-0.26885957,1.3172951,-0.41108537,-0.3178212,-1.1987436,1.1031364,0.02305369,-0.15795939,1.1875215,-0.5555088
0.0,0.1,0.9999999999999999,-0.5235987755982988,-0.5235987755982988,0,-0.003189542,-0.80046254,2.2563274,0.10307996,-0.3106178,1.2971181,0.50767416,-0.3163092,-1.1981362,1.0875237,-0.04186018,-0.1317682,1.1859591,-0.2938788
0.0,0.1,0.9999999999999999,-0.5235987755982988,-0.5235987755982988,0,-0.0055725,-0.7991207,2.2552927,0.09570381,-0.011209782,1.3211738,-0.84875107,-0.3114288,-1.1960621,1.092689,-0.039021995,-0.13542539,1.1251893,-0.10904321
0.0,0.1,0.9999999999999999,-0.5235987755982988,-0.5235987755982988,0,-0.007138804,-0.7999939,2.2526886,0.11361836,0.034810223,1.2991208,0.15880628,-0.31185663,-1.1960082,1.0942811,-0.061641574,-0.083590254,1.1563721,-2.7146466
0.0,0.1,0.9999999999999999,-0.5235987755982988,-0.5235987755982988,0,-0.0044249296,-0.79932255,2.2544923,0.096702985,-0.3422312,1.3260813,1.2235476,-0.31263226,-1.1976527,1.0921744,-0.018436205,-0.07040525,1.035293,-0.44954976
0.0,0.1,0.9999999999999999,-0.5235987755982988,-0.5235987755982988,0,-0.005707195,-0.7996976,2.2534623,0.12071804,-0.07018241,1.3039806,0.114556454,-0.31132907,-1.1982895,1.0908438,-0.04766727,-0.10951924,1.0423174,-0.9491982
0.0,0.1,0.9999999999999999,-0.5235987755982988,-0.5235987755982988,0,-0.004802057,-0.8010837,2.2443342,0.08838081,-0.07131546,1.310533,0.35641629,-0.31365553,-1.1970031,1.1079478,-0.061637,-0.08550462,1.0866266,-1.5490646
0.0,0.1,0.9999999999999999,-0.5235987755982988,-0.5235987755982988,0,-0.005196575,-0.7992006,2.258082,0.08646248,-0.26094016,1.3075815,0.7943763,-0.31056648,-1.199037,1.0858953,-0.05244908,-0.111599505,1.1451432,-0.06262288
0.0,0.1,0.9999999999999999,-0.5235987755982988,-0.5235987755982988,0,-0.0036308086,-0.79980826,2.2553346,0.09463322,-0.19357415,1.3266652,1.2156236,-0.31567073,-1.1997888,1.097865,-0.006753039,-0.10932392,1.0572096,-0.47919396
0.0,0.1,0.9999999999999999,-0.5235987755982988,-0.5235987755982988,0,-0.0032649178,-0.8016491,2.2585087,0.09900984,-0.32670975,1.3324901,-0.34093928,-0.3175163,-1.1967133,1.0898972,-0.06659327,-0.13751264,1.1742187,-0.20531324
0.0,0.1,0.9999999999999999,-0.5235987755982988,-0.5235987755982988,0,-0.0033891238,-0.7991781,2.2628632,0.1022559,-0.088613875,1.3195835,0.39361188,-0.3125765,-1.1958454,1.0902029,-0.03888306,-0.03312694,1.0939773,-0.58873194
0.0,0.1,0.9999999999999999,-0.5235987755982988,-0.5235987755982988,0,-0.0045114737,-0.80226356,2.2564533,0.1050627,-0.0034596038,1.30529,-0.15161073,-0.31225425,-1.1957992,1.0998727,-0.082097955,-0.09606757,1.2377036,-0.28826693
0.0,0.1,0.9999999999999999,-0.5235987755982988,-0.5235987755982988,0,-0.005145304,-0.7999705,2.252495,0.07988445,-0.24782063,1.2772083,-0.2657329,-0.31518894,-1.1967394,1.0941943,-0.052460607,-0.12687016,1.1198306,-0.86749786
0.0,0.1,0.9999999999999999,-0.5235987755982988,-0.5235987755982988,0,-0.005957038,-0.8007962,2.2538753,0.093135044,0.13082923,1.3268269,0.104275085,-0.31411815,-1.1975865,1.0929071,-0.016054265,-0.03510942,1.0291053,-0.40808415
0.0,0.1,0.9999999999999999,-0.5235987755982988,-0.5235987755982988,0,-0.0035565482,-0.80017006,2.2542574,0.08361431,-0.22322837,1.3287953,1.5274024,-0.31588712,-1.1988883,1.0968097,0.021257278,-0.014597142,1.0464684,-0.68272704
0.0,0.1,0.9999999999999999,-0.5235987755982988,-0.5235987755982988,0,-0.0046889763,-0.8012432,2.2586212,0.11148966,-0.055865236,1.253988,1.2751787,-0.30837384,-1.1998154,1.096614,-0.05059824,-0.15100187,1.0518705,-1.3931036
