sanky1234/BimanualDexCatch/isaacgymenvs/cem_results/football_pose_-0.2_-0.2_1.1999999999999997_0.5235987755982988_0.0_0_2025-05-24.csv
x,y,z,roll,pitch,yaw,robot1/joint1,robot1/joint2,robot1/joint3,robot1/joint4,robot1/joint5,robot1/joint6,robot1/joint7,robot2/joint1,robot2/joint2,robot2/joint3,robot2/joint4,robot2/joint5,robot2/joint6,robot2/joint7
-0.2,-0.2,1.1999999999999997,0.5235987755982988,0.0,0,0.24766564,-1.7765796,-0.27736682,-0.11473775,-0.29601434,1.2422665,-0.58767956,-0.21062645,0.30274582,-1.3133972,0.29579335,-0.7421066,0.5042289,0.26609212
-0.2,-0.2,1.1999999999999997,0.5235987755982988,0.0,0,-0.66946006,-1.8679597,-0.005909816,-0.060947563,-0.3184912,1.1682806,-1.0758736,-0.21096525,0.30316812,-1.313307,0.2960604,-0.7431108,0.5046519,0.2676754
-0.2,-0.2,1.1999999999999997,0.5235987755982988,0.0,0,-0.74858344,-1.8145837,-0.17134964,-0.11357705,-0.02917835,1.1726899,0.15520813,-0.21066712,0.30296943,-1.314997,0.29623532,-0.7492856,0.50397676,0.26798323
-0.2,-0.2,1.1999999999999997,0.5235987755982988,0.0,0,-1.2502245,-1.7683353,0.121322736,-0.13868624,-0.05905734,1.1595135,0.038152546,-0.21049485,0.30363426,-1.3151002,0.29589295,-0.7480149,0.5051715,0.26767102
-0.2,-0.2,1.1999999999999997,0.5235987755982988,0.0,0,-1.0915595,-1.7498947,-0.39121622,-0.11476801,0.056991436,1.1998345,0.7007342,-0.21065734,0.30358517,-1.3141841,0.2954337,-0.7526753,0.5048624,0.26545757
-0.2,-0.2,1.1999999999999997,0.5235987755982988,0.0,0,-0.12663947,-1.8397912,-0.17808807,-0.069365196,-0.42060107,1.2592001,0.336405,-0.21072099,0.30242682,-1.3136758,0.2963684,-0.75164765,0.5038073,0.2641983
-0.2,-0.2,1.1999999999999997,0.5235987755982988,0.0,0,-0.22401558,-1.8299024,0.40313676,-0.03587826,0.24839638,1.2166952,-1.2239525,-0.21031128,0.3018474,-1.3142402,0.29546174,-0.74281836,0.50432706,0.26639274
-0.2,-0.2,1.1999999999999997,0.5235987755982988,0.0,0,-0.6714356,-1.8688805,0.40679446,-0.11306403,-0.040135924,1.3168591,-0.16779493,-0.21062802,0.30378225,-1.312542,0.29573154,-0.75054324,0.5046193,0.26486534
-0.2,-0.2,1.1999999999999997,0.5235987755982988,0.0,0,-0.26621917,-1.7870393,0.24338931,-0.05123984,0.1597373,1.2855139,-0.7383211,-0.21019876,0.30312747,-1.3146799,0.29615366,-0.7475367,0.5046882,0.2631256
-0.2,-0.2,1.1999999999999997,0.5235987755982988,0.0,0,-0.42131242,-1.7237418,-0.05977467,-0.2058846,-0.12762931,1.2893796,-0.03182897,-0.21083166,0.3038259,-1.3154151,0.29613164,-0.7474797,0.50518143,0.26573643
-0.2,-0.2,1.1999999999999997,0.5235987755982988,0.0,0,-0.39159518,-1.8046466,0.095530644,-0.043589056,-0.115195215,1.2672671,-0.9739938,-0.210483,0.30370352,-1.3141965,0.29564667,-0.75051016,0.50443536,0.26727358
-0.2,-0.2,1.1999999999999997,0.5235987755982988,0.0,0,-0.14183347,-1.8724754,-0.02649038,-0.018598912,-0.054264333,1.2421422,1.1217102,-0.20947433,0.30348197,-1.3142933,0.29588616,-0.7536022,0.5045106,0.26658678
-0.2,-0.2,1.1999999999999997,0.5235987755982988,0.0,0,0.018894872,-1.8169584,-0.35224152,-0.10446401,0.011418477,1.1597813,-0.14995535,-0.21025445,0.3031627,-1.3141471,0.29571265,-0.74588484,0.5046591,0.2649048
-0.2,-0.2,1.1999999999999997,0.5235987755982988,0.0,0,-0.97618777,-1.693396,-0.46960095,-0.020804822,0.09206843,1.2127076,-0.44301426,-0.20945102,0.30182117,-1.3147742,0.29613915,-0.7482557,0.5050093,0.26603475
-0.2,-0.2,1.1999999999999997,0.5235987755982988,0.0,0,-0.5723243,-1.7532111,0.47623894,-0.0717185,0.020163327,1.170402,-1.4072343,-0.21087362,0.30253968,-1.3142719,0.29614568,-0.74793446,0.5043356,0.26839888
-0.2,-0.2,1.1999999999999997,0.5235987755982988,0.0,0,-0.08385026,-1.7415446,-0.025942152,-0.082693726,-0.003805893,1.2187274,0.21964881,-0.21073546,0.3035214,-1.313807,0.29568052,-0.7490573,0.5047711,0.263525
-0.2,-0.2,1.1999999999999997,0.5235987755982988,0.0,0,-0.44201228,-1.8795733,-0.10249569,-0.030678857,0.12294129,1.1922814,-0.4395664,-0.20968102,0.30266976,-1.3142432,0.2953985,-0.74197125,0.50409615,0.26441956
-0.2,-0.2,1.1999999999999997,0.5235987755982988,0.0,0,-0.21689872,-1.751253,0.61147475,-0.10639092,0.061901882,1.1432042,-0.08945099,-0.21072818,0.30262807,-1.3152415,0.29603738,-0.75035864,0.5031072,0.26670405
-0.2,-0.2,1.1999999999999997,0.5235987755982988,0.0,0,-0.859966,-1.8122456,-0.3340316,-0.14235188,-0.009918715,1.2767209,0.30861345,-0.21061766,0.30315158,-1.3145485,0.29657173,-0.74152166,0.5047219,0.2654602
-0.2,-0.2,1.1999999999999997,0.5235987755982988,0.0,0,-0.46314505,-1.7937852,-0.38380513,-0.079204366,0.0041077277,1.2434099,0.20858291,-0.20966524,0.30292356,-1.3146005,0.29568273,-0.7485545,0.5048841,0.26428166
-0.2,-0.2,1.1999999999999997,0.5235987755982988,0.0,0,-0.21767995,-1.8187081,0.1755014,-0.04449708,-0.15148914,1.2803607,0.6043217,-0.21043372,0.3031297,-1.3144687,0.2956346,-0.7508606,0.5039863,0.2664984
-0.2,-0.2,1.1999999999999997,0.5235987755982988,0.0,0,-0.7266304,-1.7381401,-0.30075938,-0.10364267,-0.21415912,1.1955515,0.27314058,-0.21074198,0.30387112,-1.313692,0.29586586,-0.7458705,0.5033843,0.26769745
-0.2,-0.2,1.1999999999999997,0.5235987755982988,0.0,0,-0.82544017,-1.7969837,-0.018512536,-0.10853664,-0.01750443,1.200679,0.39825758,-0.20992352,0.3026686,-1.3135464,0.295926,-0.7520489,0.5048783,0.26725662
-0.2,-0.2,1.1999999999999997,0.5235987755982988,0.0,0,-1.1084719,-1.7671748,-0.019117102,-0.07312099,-0.034040138,1.2195815,1.0469948,-0.21027182,0.303294,-1.3146085,0.29583034,-0.74578655,0.50444096,0.2652961
-0.2,-0.2,1.1999999999999997,0.5235987755982988,0.0,0,0.04961428,-1.8497881,0.32252607,-0.04868482,-0.036634643,1.2570553,-0.5205865,-0.21000497,0.3035941,-1.3135071,0.29603633,-0.744755,0.50407267,0.26527897
-0.2,-0.2,1.1999999999999997,0.5235987755982988,0.0,0,-1.0704978,-1.8079228,0.19916277,-0.06349356,-0.13531232,1.2876742,1.2187616,-0.21032618,0.30398002,-1.3137965,0.2956858,-0.75104815,0.5051335,0.26637444
-0.2,-0.2,1.1999999999999997,0.5235987755982988,0.0,0,0.2136153,-1.7290745,-0.08168637,-0.0749671,-0.0016931323,1.263273,-0.22193874,-0.20985797,0.3016749,-1.3128719,0.29665068,-0.75349134,0.50502604,0.26777413
-0.2,-0.2,1.1999999999999997,0.5235987755982988,0.0,0,-0.9113967,-1.8611481,0.29377142,-0.10115311,0.016178614,1.2257587,0.14415187,-0.21057576,0.30261692,-1.3140242,0.29570594,-0.747439,0.5052321,0.26648295
-0.2,-0.2,1.1999999999999997,0.5235987755982988,0.0,0,-0.32233626,-1.6861631,0.00608041,-0.029538916,-0.32974106,1.2415041,-0.7218524,-0.21050555,0.3015634,-1.3144692,0.29587436,-0.743003,0.50514024,0.2660008
-0.2,-0.2,1.1999999999999997,0.5235987755982988,0.0,0,-0.2528683,-1.7735928,-0.107166596,-0.08032118,-0.05995177,1.1351892,0.44423708,-0.21096455,0.30285075,-1.3144346,0.29567152,-0.7488961,0.50424576,0.2651553
-0.2,-0.2,1.1999999999999997,0.5235987755982988,0.0,0,-0.21850793,-1.9223979,-0.19573925,-0.03333165,0.006917113,1.189056,0.79893255,-0.21078934,0.3035288,-1.3143322,0.29579994,-0.7488432,0.50432736,0.26453927
-0.2,-0.2,1.1999999999999997,0.5235987755982988,0.0,0,-0.88550436,-1.740176,0.27817932,-0.08724667,-0.08003291,1.1546632,-1.3438426,-0.21033852,0.30238184,-1.3136511,0.29587156,-0.74734986,0.5034,0.26409462
-0.2,-0.2,1.1999999999999997,0.5235987755982988,0.0,0,0.33041173,-1.7849141,-0.29457217,-0.0808705,-0.05038956,1.1621833,-1.2104739,-0.21011052,0.30266434,-1.3145312,0.29585543,-0.7517922,0.5037587,0.26548198
-0.2,-0.2,1.1999999999999997,0.5235987755982988,0.0,0,0.051829383,-1.7353867,0.15867537,-0.07877657,-0.20142686,1.2086687,-0.31533632,-0.2098595,0.3015899,-1.313714,0.29598692,-0.7408385,0.5036657,0.26626882
-0.2,-0.2,1.1999999999999997,0.5235987755982988,0.0,0,-0.7374293,-1.7675073,-0.30470794,-0.109765254,0.14847708,1.1604079,0.45607597,-0.20970467,0.30281422,-1.3138164,0.2957292,-0.74861157,0.50450844,0.26490876
-0.2,-0.2,1.1999999999999997,0.5235987755982988,0.0,0,-0.044751246,-1.7708431,-0.0026824262,-0.10218141,-0.042832,1.2270008,0.09272529,-0.21068789,0.30326754,-1.3143226,0.2957621,-0.75168496,0.50315994,0.26494226
-0.2,-0.2,1.1999999999999997,0.5235987755982988,0.0,0,-0.19444753,-1.7306137,-0.32713443,-0.052792102,-0.21937788,1.2186278,0.18535796,-0.20992383,0.3023032,-1.3141592,0.29612967,-0.74595684,0.50501746,0.26687598
-0.2,-0.2,1.1999999999999997,0.5235987755982988,0.0,0,0.085799664,-1.7397166,-0.28351626,-0.061405074,-0.024553802,1.214259,0.7859804,-0.21087302,0.30228573,-1.3138508,0.2959615,-0.7448578,0.50306064,0.26761463
-0.2,-0.2,1.1999999999999997,0.5235987755982988,0.0,0,-0.16260172,-1.8853103,0.6963799,-0.11018185,-0.08358147,1.2401155,-1.2283926,-0.21024841,0.30326948,-1.3144567,0.29606792,-0.74105227,0.50446796,0.2644698
-0.2,-0.2,1.1999999999999997,0.5235987755982988,0.0,0,-0.5977315,-1.8337145,0.39658907,-0.09833838,-0.006630425,1.2133983,0.7245389,-0.21072564,0.30146897,-1.312568,0.29606882,-0.74960315,0.5054419,0.26429114
-0.2,-0.2,1.1999999999999997,0.5235987755982988,0.0,0,-0.5041076,-1.7526817,-0.21176827,-0.069347344,-0.20329064,1.2839472,-0.13709721,-0.21016666,0.3035597,-1.3137133,0.29553893,-0.745719,0.50457287,0.2664404
-0.2,-0.2,1.1999999999999997,0.5235987755982988,0.0,0,-0.7210757,-1.7102568,0.07114299,-0.10080546,-0.08457217,1.1622914,0.6233521,-0.20997518,0.30274126,-1.3128994,0.29554513,-0.7450388,0.50455374,0.2670252
-0.2,-0.2,1.1999999999999997,0.5235987755982988,0.0,0,-0.20402364,-1.7442236,-0.36119944,-0.093105845,-0.06383269,1.1949909,-1.479922,-0.20990694,0.3033742,-1.3137361,0.29626969,-0.7479627,0.50449556,0.2692567
-0.2,-0.2,1.1999999999999997,0.5235987755982988,0.0,0,-0.7137999,-1.8897178,-0.07946418,-0.12122594,0.027674507,1.1817143,-0.06869302,-0.21045198,0.30331013,-1.314136,0.2959536,-0.74924076,0.504469,0.2651781
-0.2,-0.2,1.1999999999999997,0.5235987755982988,0.0,0,-0.33751336,-1.8467377,-0.1410249,-0.108153254,0.032580815,1.2447132,0.30812937,-0.21029334,0.3037478,-1.3135765,0.29598278,-0.75175124,0.5046407,0.2637405
-0.2,-0.2,1.1999999999999997,0.5235987755982988,0.0,0,-0.9005354,-1.7830447,0.39836305,-0.091294505,0.010121167,1.2277755,-0.011643282,-0.2105025,0.30282083,-1.3136966,0.29597455,-0.7465816,0.50526476,0.2664372
-0.2,-0.2,1.1999999999999997,0.5235987755982988,0.0,0,-0.4292283,-1.7232126,0.020178663,0.0057545295,-0.16843484,1.2062262,0.58864117,-0.21044369,0.30303589,-1.3142833,0.29592812,-0.74282044,0.5044344,0.26592276
-0.2,-0.2,1.1999999999999997,0.5235987755982988,0.0,0,-0.72078687,-1.7884767,-0.09644063,-0.038681243,-0.019957535,1.1913646,0.36119133,-0.20994484,0.30202416,-1.3144175,0.296186,-0.7466851,0.5045726,0.26559824
-0.2,-0.2,1.1999999999999997,0.5235987755982988,0.0,0,-0.037712775,-1.8664035,-0.04341557,-0.11481627,-0.2078312,1.2524264,-0.2272265,-0.2103874,0.30315787,-1.3140323,0.2956116,-0.7429843,0.5037707,0.2627116
-0.2,-0.2,1.1999999999999997,0.5235987755982988,0.0,0,-0.2018286,-1.7489021,-0.15375607,-0.041605342,-0.20256121,1.2409707,-0.8384164,-0.21058674,0.302031,-1.3142921,0.29622513,-0.7473018,0.5045756,0.26685423
-0.2,-0.2,1.1999999999999997,0.5235987755982988,0.0,0,-1.0069143,-1.7927041,-0.46991608,-0.07502802,-0.10122286,1.2098696,1.4362373,-0.21088962,0.3046564,-1.314526,0.29621133,-0.74174315,0.50423765,0.26482528
-0.2,-0.2,1.1999999999999997,0.5235987755982988,0.0,0,-0.13741629,-1.6791283,0.19647025,-0.06926109,-0.15559761,1.2388431,0.06344039,-0.21051292,0.30379257,-1.3151473,0.29559004,-0.7485209,0.5048163,0.26717153
-0.2,-0.2,1.1999999999999997,0.5235987755982988,0.0,0,-0.29945174,-1.7113733,0.2015382,-0.09401862,0.09265237,1.3233322,0.6905129,-0.21017674,0.30286893,-1.3138273,0.29569787,-0.7444816,0.5042654,0.26484072
-0.2,-0.2,1.1999999999999997,0.5235987755982988,0.0,0,-0.8333966,-1.7822067,-0.14798734,-0.10371603,-0.1052624,1.1757108,0.8441351,-0.2100491,0.30294597,-1.3139272,0.29598883,-0.7462411,0.5048641,0.26717162
-0.2,-0.2,1.1999999999999997,0.5235987755982988,0.0,0,-0.2693784,-1.7517204,0.2958415,-0.12603205,-0.009961514,1.244512,0.49169222,-0.21057017,0.30339244,-1.3139598,0.29497832,-0.7438309,0.504567,0.26578653
-0.2,-0.2,1.1999999999999997,0.5235987755982988,0.0,0,-0.9757915,-1.8503932,-0.01220045,-0.11986243,0.31612164,1.3009626,-0.74005604,-0.21011123,0.30345124,-1.3134282,0.29605773,-0.75020254,0.50497437,0.264323
-0.2,-0.2,1.1999999999999997,0.5235987755982988,0.0,0,-1.1137247,-1.8423519,0.02791695,-0.07577781,-0.12832302,1.279259,0.85675836,-0.2110892,0.3023911,-1.313039,0.2958934,-0.75027573,0.5045324,0.2640697
-0.2,-0.2,1.1999999999999997,0.5235987755982988,0.0,0,-0.22200005,-1.8085912,-0.23699142,-0.033501606,-0.09358993,1.2699243,1.2667274,-0.21045402,0.30427414,-1.3150474,0.29571703,-0.7458155,0.5043574,0.26703393
-0.2,-0.2,1.1999999999999997,0.5235987755982988,0.0,0,-0.41504472,-1.7007898,-0.0202016,-0.010664507,0.09078197,1.2457205,-0.45822728,-0.21005681,0.3026503,-1.3138294,0.2961294,-0.74895644,0.5049537,0.26484445
-0.2,-0.2,1.1999999999999997,0.5235987755982988,0.0,0,0.12357277,-1.8817271,-0.18299176,-0.06655048,0.10594066,1.273117,0.62491655,-0.21049884,0.302099,-1.3144761,0.29550487,-0.74961644,0.50393397,0.2657965
-0.2,-0.2,1.1999999999999997,0.5235987755982988,0.0,0,0.07125414,-1.7167387,0.08599374,-0.13807431,-0.04082875,1.199118,0.115009256,-0.2101371,0.3022803,-1.3145059,0.29598927,-0.7508629,0.503883,0.26506326
-0.2,-0.2,1.1999999999999997,0.5235987755982988,0.0,0,-1.245696,-1.841283,-0.112066485,-0.08475202,0.0026554132,1.1968974,1.7713042,-0.21030603,0.3029503,-1.3145275,0.2955856,-0.75078094,0.504061,0.26536697
-0.2,-0.2,1.1999999999999997,0.5235987755982988,0.0,0,-0.69673944,-1.8633521,-0.07266319,-0.10983381,-0.15799554,1.2242491,-1.5447206,-0.21058394,0.30380964,-1.3147138,0.29570082,-0.74597305,0.5053796,0.26571107
-0.2,-0.2,1.1999999999999997,0.5235987755982988,0.0,0,-0.32594475,-1.7840781,-0.10360626,-0.10841298,0.07109285,1.1948314,0.0049864184,-0.21012047,0.30277994,-1.3135109,0.29620108,-0.7439233,0.5046769,0.2674502
-0.2,-0.2,1.1999999999999997,0.5235987755982988,0.0,0,-0.6032665,-1.7505481,0.2635767,-0.09896467,-0.03180183,1.268603,0.46508962,-0.21061875,0.30239293,-1.3149453,0.29600757,-0.7490311,0.5039922,0.26446822
-0.2,-0.2,1.1999999999999997,0.5235987755982988,0.0,0,-1.0157248,-1.8331563,-0.032771353,-0.057567157,-0.11978129,1.2968392,-1.5620582,-0.21077149,0.3029272,-1.3146751,0.2958939,-0.74967957,0.5039263,0.26534918
-0.2,-0.2,1.1999999999999997,0.5235987755982988,0.0,0,-0.59272176,-1.8322076,0.06415608,-0.0877568,-0.052917242,1.2125605,-0.0005180443,-0.21002516,0.30155966,-1.313943,0.29624096,-0.7525937,0.50530356,0.2682207
-0.2,-0.2,1.1999999999999997,0.5235987755982988,0.0,0,-0.59766424,-1.8024865,0.21119553,-0.08976291,0.09876297,1.2463901,-0.13494475,-0.2107487,0.30383116,-1.3142222,0.29524112,-0.74820817,0.50443596,0.26332152
-0.2,-0.2,1.1999999999999997,0.5235987755982988,0.0,0,-0.9893911,-1.8959643,-0.107305355,0.022718329,0.08365536,1.2267958,-0.4944409,-0.21084464,0.30332625,-1.314403,0.29606664,-0.7451971,0.504647,0.26677826
-0.2,-0.2,1.1999999999999997,0.5235987755982988,0.0,0,-0.71355927,-1.793043,0.14375502,-0.07235794,-0.21339564,1.171209,-0.298314,-0.20992933,0.30279502,-1.3149767,0.29588306,-0.74594533,0.50538754,0.26612312
-0.2,-0.2,1.1999999999999997,0.5235987755982988,0.0,0,-0.47033122,-1.7047666,-0.3026833,-0.09215328,-0.026402803,1.2487572,0.49978366,-0.21064678,0.303027,-1.3140485,0.29515132,-0.74085534,0.5046254,0.26453257
-0.2,-0.2,1.1999999999999997,0.5235987755982988,0.0,0,0.016694985,-1.6836854,0.022847312,-0.05370063,-0.29131252,1.1973599,0.19621776,-0.20959406,0.30305818,-1.3142469,0.29616195,-0.7443907,0.5041357,0.26717147
-0.2,-0.2,1.1999999999999997,0.5235987755982988,0.0,0,-0.81752235,-1.8896458,0.109651014,-0.047795407,0.044095635,1.1801895,-0.0579038,-0.21053144,0.30345288,-1.3153386,0.29561004,-0.75232726,0.50491035,0.27002522
-0.2,-0.2,1.1999999999999997,0.5235987755982988,0.0,0,-1.5162956,-1.8237902,0.3651199,-0.043461904,-0.19033968,1.2732592,1.3997775,-0.21063758,0.30322808,-1.3141078,0.29575694,-0.7489328,0.50522715,0.26376793
-0.2,-0.2,1.1999999999999997,0.5235987755982988,0.0,0,-0.22640888,-1.6635159,0.2518156,-0.05852874,-0.05403498,1.1925474,-1.2305396,-0.21023506,0.30312684,-1.3142325,0.29565856,-0.7417405,0.504782,0.2657289
-0.2,-0.2,1.1999999999999997,0.5235987755982988,0.0,0,-0.49739358,-1.8729029,0.35325313,-0.021052612,-0.1551634,1.1756424,0.45677343,-0.21002355,0.30371532,-1.3143721,0.29627135,-0.7464821,0.5035953,0.26729974
-0.2,-0.2,1.1999999999999997,0.5235987755982988,0.0,0,0.05407527,-1.7651992,-0.05562644,-0.112086274,-0.050596476,1.2321932,1.2182162,-0.20957054,0.30301964,-1.3131341,0.2960475,-0.7515546,0.5048314,0.26829132
-0.2,-0.2,1.1999999999999997,0.5235987755982988,0.0,0,-0.51203674,-1.7626152,-0.081896506,-0.07011908,-0.12265891,1.2484348,0.579669,-0.21013357,0.30345005,-1.3140725,0.2958909,-0.7450597,0.5043026,0.26520255
-0.2,-0.2,1.1999999999999997,0.5235987755982988,0.0,0,-0.7615711,-1.7132931,0.027324177,-0.07251288,-0.13734634,1.1424367,-0.26341206,-0.21066783,0.30302566,-1.312808,0.29616892,-0.75038487,0.5049711,0.2649096
-0.2,-0.2,1.1999999999999997,0.5235987755982988,0.0,0,-0.031925082,-1.7984241,0.34201372,-0.056444723,0.110763855,1.2683094,-0.109999456,-0.21135604,0.30320004,-1.3143448,0.295852,-0.7460671,0.50453657,0.2662135
-0.2,-0.2,1.1999999999999997,0.5235987755982988,0.0,0,-0.7467392,-1.75869,0.6647118,-0.11858157,-0.061496075,1.1622534,-0.45625097,-0.20988743,0.30417526,-1.3135879,0.2956609,-0.7489465,0.5054036,0.26205453
-0.2,-0.2,1.1999999999999997,0.5235987755982988,0.0,0,-0.4115465,-1.699448,-0.20086516,-0.0710599,-0.11231278,1.2412058,-0.52363163,-0.21137644,0.30396682,-1.3140311,0.29567927,-0.7509096,0.5040601,0.26560646
-0.2,-0.2,1.1999999999999997,0.5235987755982988,0.0,0,-0.6602463,-1.7695065,0.039764114,-0.08627143,0.06750201,1.1955019,-0.5342664,-0.2106078,0.30234,-1.3137507,0.29564884,-0.75042665,0.5049439,0.26364645
-0.2,-0.2,1.1999999999999997,0.5235987755982988,0.0,0,0.028155385,-1.8523334,0.18278894,-0.10316068,-0.25380877,1.3003246,-0.035539277,-0.20936869,0.30169317,-1.3146073,0.29600304,-0.7433001,0.50399846,0.26643354
-0.2,-0.2,1.1999999999999997,0.5235987755982988,0.0,0,-0.27794698,-1.8557467,0.2740571,-0.05537916,-0.1219817,1.2798374,0.37678578,-0.21051967,0.30192694,-1.3143764,0.29627,-0.75219905,0.50384444,0.26480716
-0.2,-0.2,1.1999999999999997,0.5235987755982988,0.0,0,-0.114112094,-1.8136797,-0.043386705,-0.10012796,0.007671713,1.2255365,0.23021585,-0.21001168,0.30206358,-1.3139452,0.2955256,-0.744701,0.50418323,0.26595137
-0.2,-0.2,1.1999999999999997,0.5235987755982988,0.0,0,-0.26598567,-1.7544894,0.25907263,-0.06114866,0.22545189,1.2354335,-0.56121844,-0.21034445,0.30302897,-1.313954,0.29632363,-0.75423384,0.5043972,0.26846623
-0.2,-0.2,1.1999999999999997,0.5235987755982988,0.0,0,-0.64993125,-1.8796974,0.28001064,-0.11455765,-0.057202037,1.2305427,-0.40251222,-0.21003468,0.30192378,-1.3152182,0.29605064,-0.74800146,0.5034587,0.2633055
-0.2,-0.2,1.1999999999999997,0.5235987755982988,0.0,0,-0.8449347,-1.7397833,-0.7433869,-0.055759348,-0.08416977,1.1820416,0.84803593,-0.21022037,0.30349472,-1.3142668,0.2957545,-0.74491125,0.50461346,0.26869002
-0.2,-0.2,1.1999999999999997,0.5235987755982988,0.0,0,-0.41069922,-1.8080988,-0.006578012,-0.13903444,-0.11497684,1.1561933,-0.07412959,-0.21017323,0.3033866,-1.3146334,0.2955514,-0.74081063,0.5044125,0.26590014
-0.2,-0.2,1.1999999999999997,0.5235987755982988,0.0,0,-0.16140838,-1.7426394,0.102195114,-0.080373965,0.030842928,1.2133334,0.09519171,-0.2108789,0.3040219,-1.3139975,0.29627588,-0.75118136,0.50513357,0.26690358
-0.2,-0.2,1.1999999999999997,0.5235987755982988,0.0,0,-0.61061627,-1.9152739,0.01834434,-0.107756704,-0.049905967,1.2203356,-0.38150722,-0.21024765,0.30259866,-1.3137532,0.29641294,-0.7425648,0.5049094,0.26579523
-0.2,-0.2,1.1999999999999997,0.5235987755982988,0.0,0,-0.42212707,-1.7208825,-0.444403,-0.09848653,0.04871334,1.2387882,-0.2624553,-0.21074966,0.3019991,-1.3128486,0.29629788,-0.74446064,0.5051982,0.2664092
-0.2,-0.2,1.1999999999999997,0.5235987755982988,0.0,0,-1.0506765,-1.8674312,0.13589603,-0.084296405,0.13384469,1.2312762,-0.3967296,-0.21045716,0.302357,-1.3146305,0.29556942,-0.7412428,0.5043756,0.26752564
-0.2,-0.2,1.1999999999999997,0.5235987755982988,0.0,0,-0.9586187,-1.6922091,-0.17473044,-0.045007292,-0.097999126,1.2456006,2.2361684,-0.21058796,0.3042275,-1.3138584,0.29593012,-0.74625194,0.5043708,0.26852655
-0.2,-0.2,1.1999999999999997,0.5235987755982988,0.0,0,-0.32967597,-1.7710718,0.29759568,-0.014573094,-0.13518219,1.3051952,-0.057726566,-0.21000798,0.30468097,-1.3145475,0.296117,-0.7511608,0.5038956,0.2671758
-0.2,-0.2,1.1999999999999997,0.5235987755982988,0.0,0,0.04759605,-1.8059322,0.39248973,-0.0727566,0.106533825,1.2352563,-0.042388503,-0.21000227,0.30271602,-1.3148235,0.29587868,-0.75069296,0.5041282,0.26677012
-0.2,-0.2,1.1999999999999997,0.5235987755982988,0.0,0,-0.10671895,-1.8210945,-0.16452006,-0.07973986,0.06152112,1.2522252,-0.66385156,-0.21078776,0.30188847,-1.313758,0.2958342,-0.74893194,0.5046062,0.26410133
-0.2,-0.2,1.1999999999999997,0.5235987755982988,0.0,0,-0.8799149,-1.7436061,-0.12442291,-0.10903721,-0.059806406,1.2477015,-0.555528,-0.21008563,0.30354482,-1.3149595,0.29586697,-0.74779385,0.50430226,0.26383528
-0.2,-0.2,1.1999999999999997,0.5235987755982988,0.0,0,0.030231865,-1.8274344,0.08133428,-0.029408788,-0.248277,1.2589387,0.25798762,-0.21021117,0.30293593,-1.3154812,0.29585722,-0.7495397,0.5039789,0.26461515
-0.2,-0.2,1.1999999999999997,0.5235987755982988,0.0,0,0.5689078,-1.7790729,0.24577019,-0.086867824,-0.10040923,1.2804806,0.2547597,-0.21047445,0.3028449,-1.3150657,0.29549444,-0.7438497,0.5035767,0.26691794
-0.2,-0.2,1.1999999999999997,0.5235987755982988,0.0,0,-0.25699925,-1.7639542,0.10302018,-0.12010663,0.0017807642,1.2329009,-0.9138291,-0.21062234,0.3023554,-1.3151891,0.29547447,-0.7556783,0.5049686,0.26593474
-0.2,-0.2,1.1999999999999997,0.5235987755982988,0.0,0,-0.2759318,-1.7862048,-0.3054479,-0.051849555,-0.01657943,1.2732661,1.1933491,-0.21005554,0.30175054,-1.3148437,0.29637292,-0.7502212,0.5039383,0.26659456
-0.2,-0.2,1.1999999999999997,0.5235987755982988,0.0,0,-0.8605276,-1.7152851,-0.028069392,-0.09826341,-0.04685967,1.2474473,-0.24284488,-0.21014012,0.3023418,-1.3152913,0.296006,-0.74856,0.50451994,0.26595154
-0.2,-0.2,1.1999999999999997,0.5235987755982988,0.0,0,-0.26591513,-1.786801,-0.14336772,-0.105073735,0.01041592,1.2545439,0.25751364,-0.20998538,0.3031761,-1.3150465,0.2961994,-0.7414116,0.5038691,0.26525965
-0.2,-0.2,1.1999999999999997,0.5235987755982988,0.0,0,-0.037889607,-1.8260267,-0.3031139,-0.10032944,-0.21286434,1.2820172,-0.2035778,-0.21061046,0.3019731,-1.3147244,0.2956812,-0.75097305,0.50427264,0.26414272
-0.2,-0.2,1.1999999999999997,0.5235987755982988,0.0,0,-0.6138491,-1.8195745,-0.15316346,-0.075593464,0.020489166,1.2786314,0.2997136,-0.21060005,0.302267,-1.3146869,0.29606628,-0.7483631,0.50434864,0.2657557
-0.2,-0.2,1.1999999999999997,0.5235987755982988,0.0,0,-0.18307267,-1.7707002,0.071771584,-0.09372182,-0.20475233,1.2777579,-0.905349,-0.21044281,0.3025048,-1.3153646,0.29540718,-0.74953085,0.50464857,0.2652044
-0.2,-0.2,1.1999999999999997,0.5235987755982988,0.0,0,-0.47983688,-1.7082559,-0.15500855,-0.07282859,0.102918305,1.1698183,0.55824804,-0.21081194,0.3031517,-1.3139471,0.2959079,-0.74621314,0.50359493,0.2658049
-0.2,-0.2,1.1999999999999997,0.5235987755982988,0.0,0,-1.5686435,-1.9279249,0.116312824,-0.091889665,0.005838681,1.2408555,1.3893735,-0.21064687,0.30273384,-1.3151,0.2955938,-0.75013614,0.5041659,0.2653213
-0.2,-0.2,1.1999999999999997,0.5235987755982988,0.0,0,-0.6656003,-1.782051,-0.122090064,-0.10160662,-0.098557994,1.2608086,0.48220378,-0.20998596,0.30353674,-1.3143286,0.29598892,-0.745402,0.5046379,0.2651057
-0.2,-0.2,1.1999999999999997,0.5235987755982988,0.0,0,-0.41991112,-1.7877547,0.15456633,-0.086828984,0.050022412,1.1979506,-0.14927237,-0.20965883,0.30353063,-1.314666,0.29603496,-0.74944174,0.5040525,0.2632382
-0.2,-0.2,1.1999999999999997,0.5235987755982988,0.0,0,-0.9883952,-1.726069,0.29866287,-0.019681213,-0.0010619806,1.1697124,0.15412399,-0.21088995,0.30305964,-1.3141358,0.2957522,-0.7434481,0.50311995,0.26852214
-0.2,-0.2,1.1999999999999997,0.5235987755982988,0.0,0,-1.0078782,-1.8377978,0.17756316,-0.05927909,0.11415743,1.1807448,0.6325033,-0.21043156,0.30347136,-1.3154193,0.29570127,-0.75269926,0.50446796,0.26694947
-0.2,-0.2,1.1999999999999997,0.5235987755982988,0.0,0,-0.63140106,-1.8191577,-0.12454209,-0.0725871,0.06933045,1.1896405,-0.9986561,-0.21119273,0.30190697,-1.3153102,0.29566318,-0.75137997,0.5037034,0.26731285
-0.2,-0.2,1.1999999999999997,0.5235987755982988,0.0,0,-1.0059707,-1.7518182,0.09183276,-0.06823264,-0.15004086,1.196161,-0.068457,-0.21066539,0.30430466,-1.3152361,0.29614985,-0.7425906,0.50445545,0.2661128
-0.2,-0.2,1.1999999999999997,0.5235987755982988,0.0,0,-0.9612762,-1.802101,0.52895665,-0.11451526,-0.12111095,1.2322227,0.18142168,-0.20967145,0.30249906,-1.3144822,0.2963306,-0.74467003,0.50408673,0.26844114
-0.2,-0.2,1.1999999999999997,0.5235987755982988,0.0,0,-0.29927003,-1.8265905,-0.19260082,-0.14048687,0.117105894,1.2720819,-0.16611469,-0.21013197,0.30354175,-1.3145775,0.29599872,-0.74472356,0.50427276,0.26607093
-0.2,-0.2,1.1999999999999997,0.5235987755982988,0.0,0,-0.28082478,-1.7586374,0.1397107,-0.09825027,-0.053360224,1.2916111,0.3204062,-0.21098194,0.302827,-1.3150337,0.2958822,-0.7511491,0.50339234,0.26616904
-0.2,-0.2,1.1999999999999997,0.5235987755982988,0.0,0,-1.0097128,-1.7574257,-0.19614127,-0.12057902,0.16940297,1.2659261,1.4473903,-0.21104032,0.30301046,-1.3158303,0.29632497,-0.7546663,0.5032718,0.26755014
-0.2,-0.2,1.1999999999999997,0.5235987755982988,0.0,0,-0.6962987,-1.7406737,0.2296353,-0.1087156,-0.02228697,1.1858606,-0.062286142,-0.21016814,0.30175903,-1.3132052,0.295813,-0.74731046,0.50448626,0.26700136
-0.2,-0.2,1.1999999999999997,0.5235987755982988,0.0,0,-0.22322737,-1.8105949,-0.225198,-0.039295614,-0.18877806,1.2484897,-0.40284106,-0.20979308,0.30145118,-1.3145889,0.29595137,-0.7489075,0.5047544,0.2663044
-0.2,-0.2,1.1999999999999997,0.5235987755982988,0.0,0,-0.44147575,-1.8088982,0.04703633,-0.07767301,0.0236438,1.1771572,0.4321131,-0.21002701,0.30184796,-1.3151217,0.2956775,-0.74997926,0.50471026,0.26539674
-0.2,-0.2,1.1999999999999997,0.5235987755982988,0.0,0,-1.5904787,-1.7714866,-0.17059138,-0.08060984,-0.02087162,1.1605474,0.6463462,-0.21027087,0.3028645,-1.3133829,0.29591575,-0.7488927,0.50370884,0.26425976
-0.2,-0.2,1.1999999999999997,0.5235987755982988,0.0,0,-0.68257976,-1.6971556,0.062102333,-0.04858134,0.0108455345,1.2176056,-0.2831746,-0.20981492,0.30317363,-1.316528,0.29543144,-0.74656963,0.5045463,0.26727974
-0.2,-0.2,1.1999999999999997,0.5235987755982988,0.0,0,-0.31878528,-1.8124293,-0.31155914,-0.07578488,0.18747382,1.3080788,-0.6755202,-0.21051565,0.3025446,-1.3148613,0.295707,-0.74448735,0.5049465,0.27012148
-0.2,-0.2,1.1999999999999997,0.5235987755982988,0.0,0,-0.52965236,-1.8078076,0.21968356,-0.009062917,0.01359642,1.221167,0.21854486,-0.21064416,0.3030788,-1.3143182,0.296279,-0.75052327,0.5050551,0.26647073
-0.2,-0.2,1.1999999999999997,0.5235987755982988,0.0,0,-0.77442,-1.844311,0.18756348,-0.09830547,-0.23317789,1.1749835,0.8826304,-0.21047819,0.30177686,-1.314316,0.29586026,-0.742658,0.503164,0.26623514
-0.2,-0.2,1.1999999999999997,0.5235987755982988,0.0,0,-0.33654296,-1.7997813,-0.0008248256,-0.072331935,0.09031598,1.2280631,-0.5915427,-0.21023281,0.30199477,-1.315214,0.29558587,-0.748898,0.50426275,0.26391557
-0.2,-0.2,1.1999999999999997,0.5235987755982988,0.0,0,-0.23157251,-1.7047614,-0.20757559,-0.1254165,0.018181652,1.1912323,0.55778503,-0.21043213,0.30233774,-1.3142902,0.2957795,-0.7440189,0.5046432,0.2676092
-0.2,-0.2,1.1999999999999997,0.5235987755982988,0.0,0,-0.08242601,-1.7077092,0.19644536,-0.05164548,-0.07724262,1.1708149,0.28085753,-0.21130067,0.30338717,-1.3134867,0.29549623,-0.7472182,0.5050534,0.2664268
-0.2,-0.2,1.1999999999999997,0.5235987755982988,0.0,0,-0.13124113,-1.7956322,-0.07627532,-0.109739795,-0.20156382,1.216683,0.3067951,-0.20990376,0.30415177,-1.3151294,0.2956955,-0.74085975,0.5035528,0.26393723
-0.2,-0.2,1.1999999999999997,0.5235987755982988,0.0,0,-0.34367228,-1.7392313,0.097058244,-0.05295542,-0.0066976324,1.2768118,0.28498068,-0.21031892,0.30291852,-1.3144752,0.2962615,-0.74947655,0.5046957,0.2650038
-0.2,-0.2,1.1999999999999997,0.5235987755982988,0.0,0,-0.99587107,-1.6868052,0.13255876,-0.07426859,0.044353146,1.2492754,-0.18155444,-0.21077332,0.3036136,-1.3160537,0.2956974,-0.74264103,0.50313795,0.26621068
-0.2,-0.2,1.1999999999999997,0.5235987755982988,0.0,0,-0.61309963,-1.7470121,-0.42013937,-0.07506762,-0.09127015,1.1752179,-0.41257516,-0.21022661,0.30406937,-1.316044,0.2953658,-0.7513823,0.50477487,0.26616907
-0.2,-0.2,1.1999999999999997,0.5235987755982988,0.0,0,-0.7026154,-1.8778582,0.26227868,-0.1040937,0.016054133,1.2681136,-0.019953057,-0.21065734,0.3028627,-1.3138812,0.2957031,-0.7445292,0.5041062,0.2690215
-0.2,-0.2,1.1999999999999997,0.5235987755982988,0.0,0,0.018277744,-1.7642276,0.16826473,-0.111983456,-0.14137162,1.200748,1.4414018,-0.2105252,0.30270156,-1.3147997,0.29593873,-0.74742943,0.50420016,0.26725274
-0.2,-0.2,1.1999999999999997,0.5235987755982988,0.0,0,-0.21446852,-1.914483,0.5451378,-0.028001484,0.067927,1.2545519,-0.20600143,-0.21065778,0.30320796,-1.3154684,0.29610834,-0.752584,0.50366837,0.26658896
-0.2,-0.2,1.1999999999999997,0.5235987755982988,0.0,0,-0.5137246,-1.8176879,0.117078476,-0.12313513,-0.07438548,1.1428227,-0.17196776,-0.21005653,0.30293354,-1.3141106,0.2959193,-0.7479955,0.50411457,0.26593804
-0.2,-0.2,1.1999999999999997,0.5235987755982988,0.0,0,-0.55851454,-1.8345547,0.16969623,-0.01413118,-0.1163483,1.2626381,-1.2147651,-0.21002966,0.3024338,-1.3153555,0.29575703,-0.7505102,0.5051942,0.2661226
-0.2,-0.2,1.1999999999999997,0.5235987755982988,0.0,0,-0.59931755,-1.7573754,0.32327318,-0.08588126,0.1967134,1.2406259,-0.61578155,-0.2096727,0.30328563,-1.3147832,0.29576895,-0.7432375,0.5048933,0.26658973
-0.2,-0.2,1.1999999999999997,0.5235987755982988,0.0,0,-0.9454717,-1.7472941,-0.02919409,-0.0755739,0.054167774,1.2416594,0.47582874,-0.2098383,0.303315,-1.3139694,0.2958061,-0.74858725,0.5044161,0.2657455
-0.2,-0.2,1.1999999999999997,0.5235987755982988,0.0,0,-0.75791883,-1.7460519,-0.08594897,-0.09439597,-0.02361951,1.274151,0.17365779,-0.2101789,0.3023318,-1.31607,0.29554477,-0.745184,0.50453573,0.26922566
-0.2,-0.2,1.1999999999999997,0.5235987755982988,0.0,0,-0.19317538,-1.7728478,-0.09956152,-0.07417502,0.02599011,1.2884241,0.2368335,-0.21076341,0.3027323,-1.3146791,0.29555282,-0.7434865,0.50484014,0.26809973
-0.2,-0.2,1.1999999999999997,0.5235987755982988,0.0,0,0.013450938,-1.7429115,0.26253775,-0.06838436,-0.06776886,1.2620733,-1.0563003,-0.21063432,0.3041026,-1.3155526,0.2953382,-0.74969596,0.50488114,0.26527104
-0.2,-0.2,1.1999999999999997,0.5235987755982988,0.0,0,-0.35062984,-1.7302794,0.19098532,-0.13243185,-0.112140745,1.202002,-0.078731745,-0.2110176,0.30255023,-1.3138694,0.296342,-0.7429509,0.5039472,0.26727167
-0.2,-0.2,1.1999999999999997,0.5235987755982988,0.0,0,-0.3453494,-1.7719309,-0.21002539,-0.07776728,-0.22153595,1.2759281,1.8057928,-0.2107159,0.30202258,-1.3151286,0.29619905,-0.7515876,0.50367373,0.2647545
-0.2,-0.2,1.1999999999999997,0.5235987755982988,0.0,0,-0.12800962,-1.8400666,-0.039622173,-0.1045524,0.043948404,1.1104685,-0.14587888,-0.21013129,0.30244547,-1.3143529,0.29607072,-0.75184494,0.5051584,0.26419622
-0.2,-0.2,1.1999999999999997,0.5235987755982988,0.0,0,0.02705734,-1.7164067,-0.18906072,-0.023347666,-0.3279684,1.1846945,-1.3267547,-0.21047972,0.30245924,-1.3151425,0.29584855,-0.74200493,0.504586,0.26636738
-0.2,-0.2,1.1999999999999997,0.5235987755982988,0.0,0,-0.17337558,-1.7883208,-0.012724742,-0.11338078,-0.044774674,1.1990709,-1.2649379,-0.21021578,0.30231458,-1.3153912,0.29602626,-0.74623007,0.50383145,0.2625725
-0.2,-0.2,1.1999999999999997,0.5235987755982988,0.0,0,-0.90245694,-1.8251562,0.13214569,-0.071840264,-0.10995715,1.0831162,0.9437825,-0.21048121,0.30291042,-1.3149946,0.2964391,-0.7467102,0.5045792,0.26606992
-0.2,-0.2,1.1999999999999997,0.5235987755982988,0.0,0,0.4749988,-1.8026104,0.057296716,-0.080780625,0.08339462,1.2380862,-0.09797822,-0.20993243,0.30425224,-1.3148834,0.2956903,-0.75132084,0.504661,0.2663456
-0.2,-0.2,1.1999999999999997,0.5235987755982988,0.0,0,-0.58754385,-1.824727,-0.2358164,-0.043276064,0.036079925,1.1517651,1.0054384,-0.21000984,0.30117163,-1.3152981,0.2958009,-0.74560434,0.5044656,0.26938128
-0.2,-0.2,1.1999999999999997,0.5235987755982988,0.0,0,-0.50239736,-1.87937,-0.030311259,-0.08640137,0.19635563,1.2594539,-0.30710506,-0.21029924,0.30316904,-1.3157535,0.2958961,-0.75317293,0.5041335,0.26479736
-0.2,-0.2,1.1999999999999997,0.5235987755982988,0.0,0,-0.8757292,-1.829901,-0.35747427,0.026110496,-0.1808463,1.210053,-0.6234292,-0.21019657,0.30272067,-1.3154178,0.2959755,-0.7403204,0.5045473,0.2661337
-0.2,-0.2,1.1999999999999997,0.5235987755982988,0.0,0,-1.3455987,-1.7825481,0.0679473,-0.01850482,-0.41012707,1.1957257,0.46029595,-0.21088934,0.30276072,-1.3126178,0.2957778,-0.74605006,0.50487936,0.26764598
-0.2,-0.2,1.1999999999999997,0.5235987755982988,0.0,0,-0.80658597,-1.8087023,-0.29400498,-0.069365546,-0.21640478,1.1931647,0.76538384,-0.20979127,0.30269736,-1.3152202,0.2958228,-0.74410343,0.5038002,0.26406
-0.2,-0.2,1.1999999999999997,0.5235987755982988,0.0,0,0.13499142,-1.7920837,-0.24695581,-0.093401305,0.0158684,1.2082794,0.8170779,-0.21053149,0.30318984,-1.3144908,0.29600424,-0.74245393,0.5043849,0.26520813
-0.2,-0.2,1.1999999999999997,0.5235987755982988,0.0,0,-0.510322,-1.8056196,0.2767219,-0.08075269,-0.16686276,1.2212708,-0.10392341,-0.21041194,0.30329382,-1.3141307,0.2958594,-0.7384351,0.5047705,0.2643479
-0.2,-0.2,1.1999999999999997,0.5235987755982988,0.0,0,-0.92821777,-1.7419603,-0.09316033,-0.0956096,-0.10766339,1.2135776,0.54059345,-0.21100552,0.30236012,-1.3141531,0.29587308,-0.7515474,0.5047057,0.2653781
-0.2,-0.2,1.1999999999999997,0.5235987755982988,0.0,0,-0.18782721,-1.6584145,0.14797273,-0.035565596,0.053656165,1.2033478,-0.20615853,-0.20998032,0.30427688,-1.3152236,0.2957476,-0.7437103,0.5046868,0.26596108
-0.2,-0.2,1.1999999999999997,0.5235987755982988,0.0,0,-1.0074958,-1.772337,0.23152979,-0.034495797,-0.26706553,1.1808819,0.39235657,-0.20993033,0.30211627,-1.3160576,0.29567045,-0.7477099,0.5047106,0.26530772
-0.2,-0.2,1.1999999999999997,0.5235987755982988,0.0,0,0.49613413,-1.711357,-0.09559758,-0.10271699,0.03655932,1.2609621,0.1326188,-0.21036117,0.30162764,-1.3154496,0.2963594,-0.74932575,0.5033853,0.26543856
-0.2,-0.2,1.1999999999999997,0.5235987755982988,0.0,0,0.123651125,-1.8794162,-0.29391825,-0.08071237,0.066744186,1.2127324,-0.9344046,-0.20981492,0.30258855,-1.3158317,0.29612944,-0.74319434,0.5035154,0.26818183
-0.2,-0.2,1.1999999999999997,0.5235987755982988,0.0,0,-0.61615473,-1.8045168,-0.12275005,-0.08577534,-0.28550577,1.2514343,0.5595053,-0.2105544,0.3028706,-1.3142041,0.29594225,-0.74851626,0.5044823,0.26353016
-0.2,-0.2,1.1999999999999997,0.5235987755982988,0.0,0,-0.63454866,-1.7604604,0.46812055,-0.10570278,-0.18272574,1.211457,-0.8395434,-0.21015783,0.30304924,-1.3144158,0.29535434,-0.7440983,0.50488836,0.2640913
-0.2,-0.2,1.1999999999999997,0.5235987755982988,0.0,0,-0.68580514,-1.699764,-0.22289985,-0.11724644,-0.26526666,1.2570549,0.17452475,-0.21034463,0.3036477,-1.3151244,0.2960417,-0.74575055,0.5042253,0.26616073
-0.2,-0.2,1.1999999999999997,0.5235987755982988,0.0,0,-0.8309284,-1.7402904,-0.15032223,-0.06600798,0.06668078,1.2580501,-0.13073537,-0.21017122,0.3027779,-1.3151025,0.29608527,-0.7427899,0.50368696,0.26665905
-0.2,-0.2,1.1999999999999997,0.5235987755982988,0.0,0,-0.7365665,-1.7557304,-0.34062296,-0.103092425,-0.054974046,1.2039768,0.892776,-0.21009631,0.30298746,-1.3146174,0.2967365,-0.74538374,0.50438994,0.26837376
-0.2,-0.2,1.1999999999999997,0.5235987755982988,0.0,0,-0.5644952,-1.8024141,0.14372154,-0.0717228,0.13524517,1.2249161,0.14802457,-0.20957272,0.30229613,-1.3145077,0.29617795,-0.74423575,0.5049495,0.26504844
-0.2,-0.2,1.1999999999999997,0.5235987755982988,0.0,0,-0.42253244,-1.7290553,0.4707757,-0.1276802,-0.046070345,1.2825663,-0.82423115,-0.21052368,0.30321825,-1.314106,0.29601535,-0.74711716,0.5049452,0.26755843
-0.2,-0.2,1.1999999999999997,0.5235987755982988,0.0,0,-0.45531008,-1.7539257,0.21327308,-0.1070531,-0.09853095,1.1854178,0.17402525,-0.21098606,0.30453408,-1.3141633,0.2959403,-0.7449119,0.5038339,0.26521403
-0.2,-0.2,1.1999999999999997,0.5235987755982988,0.0,0,-0.5587579,-1.8348098,-0.3594992,-0.10549775,-0.04018959,1.2706525,0.75318277,-0.21140032,0.30281752,-1.3146932,0.29593128,-0.7510042,0.50462765,0.26597232
-0.2,-0.2,1.1999999999999997,0.5235987755982988,0.0,0,-0.201733,-1.7554156,0.2743926,-0.09477531,0.068422444,1.1244794,-0.04306183,-0.21032065,0.30257583,-1.3148781,0.29602978,-0.7474326,0.50410706,0.26717025
-0.2,-0.2,1.1999999999999997,0.5235987755982988,0.0,0,-0.23986255,-1.818432,-0.09739338,-0.074457124,0.0749814,1.229124,-0.7483292,-0.21023244,0.30391514,-1.3142419,0.29585633,-0.7454333,0.50427103,0.26667976
-0.2,-0.2,1.1999999999999997,0.5235987755982988,0.0,0,-0.9260676,-1.875792,0.35167736,-0.07886065,-0.12223447,1.2799761,0.061232943,-0.20946859,0.30199957,-1.3146967,0.29632765,-0.7439677,0.50419647,0.2658619
-0.2,-0.2,1.1999999999999997,0.5235987755982988,0.0,0,-1.4877096,-1.7153853,0.06505327,-0.065022685,0.11381803,1.2608954,0.0938351,-0.21075876,0.30288208,-1.3140624,0.29627606,-0.7534653,0.50417185,0.266846
-0.2,-0.2,1.1999999999999997,0.5235987755982988,0.0,0,0.2377623,-1.7806123,0.24156582,-0.050914284,-0.15054849,1.169804,0.47664395,-0.21120587,0.30231625,-1.3143088,0.29613328,-0.7490157,0.504541,0.2666223
-0.2,-0.2,1.1999999999999997,0.5235987755982988,0.0,0,-0.34727898,-1.7866876,0.17561655,-0.09367595,-0.051561493,1.265878,0.34363306,-0.210686,0.30268252,-1.3149452,0.29566845,-0.7429048,0.50412923,0.26355514
-0.2,-0.2,1.1999999999999997,0.5235987755982988,0.0,0,-0.31862298,-1.788103,0.100349635,-0.07917998,-0.03144018,1.110818,0.9869041,-0.21037807,0.30089152,-1.3146334,0.29597998,-0.7428759,0.50410426,0.26738945
-0.2,-0.2,1.1999999999999997,0.5235987755982988,0.0,0,0.049843937,-1.7976521,0.4062044,-0.062414903,-0.014967059,1.2353085,-0.6192273,-0.21071385,0.30312574,-1.3135158,0.29611364,-0.7465505,0.5045091,0.26736557
-0.2,-0.2,1.1999999999999997,0.5235987755982988,0.0,0,-0.7742586,-1.8163689,-0.19253066,-0.08254241,-0.024085019,1.2882694,0.41429356,-0.2102467,0.3032687,-1.315261,0.29598987,-0.75086546,0.5046601,0.26708964
-0.2,-0.2,1.1999999999999997,0.5235987755982988,0.0,0,-0.76986694,-1.7894397,0.23781936,-0.11779134,-0.043481957,1.2241842,-0.93491036,-0.21018772,0.30295247,-1.31486,0.29593822,-0.74212104,0.50406843,0.2643163
-0.2,-0.2,1.1999999999999997,0.5235987755982988,0.0,0,-0.079252794,-1.8821797,-0.019208143,-0.08306694,-0.22385435,1.2181998,-0.2421785,-0.21043096,0.30365628,-1.3150222,0.29652417,-0.7437628,0.50467646,0.26626557
-0.2,-0.2,1.1999999999999997,0.5235987755982988,0.0,0,-1.0507293,-1.819727,0.25583896,-0.023958407,-0.19728304,1.2689427,0.6261655,-0.21069118,0.30236325,-1.3151091,0.29580942,-0.74631506,0.5041369,0.2664716
-0.2,-0.2,1.1999999999999997,0.5235987755982988,0.0,0,0.3149866,-1.7806994,0.13017897,-0.047585532,-0.3603553,1.2369388,-0.06727843,-0.21043628,0.30299085,-1.3160865,0.2960033,-0.7472188,0.504133,0.26581022
-0.2,-0.2,1.1999999999999997,0.5235987755982988,0.0,0,-0.6454176,-1.7086589,0.020210778,-0.07719118,0.17451687,1.2011758,-1.1764413,-0.20983623,0.3044269,-1.3151882,0.2961496,-0.74564254,0.5039758,0.26589477
-0.2,-0.2,1.1999999999999997,0.5235987755982988,0.0,0,-0.062406857,-1.8660666,-0.012844079,-0.080123104,0.08229412,1.2096614,0.12561564,-0.21014771,0.3033852,-1.3136965,0.29547992,-0.7439814,0.50442797,0.2651058
-0.2,-0.2,1.1999999999999997,0.5235987755982988,0.0,0,-1.0407549,-1.7781883,0.3117086,-0.06926128,0.12495533,1.2762932,0.30704695,-0.20992212,0.30165276,-1.3155289,0.29567438,-0.7497101,0.50548536,0.2625753
-0.2,-0.2,1.1999999999999997,0.5235987755982988,0.0,0,0.050499678,-1.7305356,0.40045974,-0.10597174,0.027269052,1.273257,0.54313815,-0.21077946,0.30319092,-1.31408,0.29577956,-0.7436682,0.50446105,0.266157
-0.2,-0.2,1.1999999999999997,0.5235987755982988,0.0,0,0.08615007,-1.7145184,-0.13843025,-0.072249874,-0.080104634,1.2427263,0.55498844,-0.21041763,0.30294573,-1.314248,0.2955362,-0.7443315,0.5053488,0.26685464
-0.2,-0.2,1.1999999999999997,0.5235987755982988,0.0,0,-0.30392516,-1.8092734,-0.5682401,-0.08533514,-0.0014417215,1.2373829,0.9344119,-0.21099912,0.30274627,-1.3132583,0.29641864,-0.7495055,0.5041376,0.26513395
-0.2,-0.2,1.1999999999999997,0.5235987755982988,0.0,0,-0.5042539,-1.7366971,-0.19463402,-0.06331647,-0.121715926,1.2365206,-0.49180737,-0.21029827,0.3040111,-1.3151819,0.296273,-0.7462664,0.5050277,0.26919866
-0.2,-0.2,1.1999999999999997,0.5235987755982988,0.0,0,0.059840254,-1.7747445,0.019459931,-0.0843492,-0.100979686,1.267763,0.0051400736,-0.21058884,0.30305642,-1.3146352,0.29587093,-0.7428259,0.50476396,0.2664605
-0.2,-0.2,1.1999999999999997,0.5235987755982988,0.0,0,-0.8081842,-1.801337,-0.06954449,-0.093560874,0.054186214,1.2097013,-0.78656447,-0.21030839,0.30179802,-1.3157386,0.29593638,-0.7488054,0.50450116,0.26405823
-0.2,-0.2,1.1999999999999997,0.5235987755982988,0.0,0,-1.2173275,-1.6979268,0.10022309,-0.10701729,-0.087865934,1.3061135,1.0236425,-0.21085753,0.30195132,-1.3141875,0.2956688,-0.7417936,0.50497204,0.26566836
-0.2,-0.2,1.1999999999999997,0.5235987755982988,0.0,0,-0.29504463,-1.7814906,0.00496721,-0.066203974,-0.18597303,1.2507254,1.1722007,-0.21004926,0.3035595,-1.3154262,0.2955138,-0.74063766,0.50335777,0.2642923
-0.2,-0.2,1.1999999999999997,0.5235987755982988,0.0,0,-1.0756226,-1.8075325,-0.08787177,-0.046054926,-0.037013736,1.1874522,-0.44274867,-0.20983534,0.3026321,-1.3142836,0.2959408,-0.74591506,0.5056493,0.2665481
-0.2,-0.2,1.1999999999999997,0.5235987755982988,0.0,0,-0.7278465,-1.8458352,0.28121895,-0.0882469,-0.08915902,1.1303809,-0.18442173,-0.2103382,0.30375648,-1.3148161,0.2959661,-0.74617946,0.5050815,0.26885784
-0.2,-0.2,1.1999999999999997,0.5235987755982988,0.0,0,-1.2606404,-1.7621081,0.1879145,-0.10574666,0.012457672,1.2365775,0.26068503,-0.21028024,0.30290243,-1.3153082,0.29620126,-0.7528346,0.504817,0.26622346
-0.2,-0.2,1.1999999999999997,0.5235987755982988,0.0,0,-0.8436597,-1.7811208,0.16302302,-0.036999412,-0.020213867,1.2818092,0.13947773,-0.21055546,0.30265683,-1.3149918,0.2959963,-0.7471474,0.5046577,0.26574144
-0.2,-0.2,1.1999999999999997,0.5235987755982988,0.0,0,-1.0536305,-1.8366523,0.010349314,-0.03188301,-0.10369539,1.1958168,0.9539866,-0.21085374,0.30266544,-1.3141046,0.29601994,-0.744504,0.50424737,0.2691738
-0.2,-0.2,1.1999999999999997,0.5235987755982988,0.0,0,-0.7533715,-1.8349028,0.3517781,-0.06885753,-0.08318052,1.223252,-0.2100801,-0.21080515,0.30232188,-1.3157477,0.29585063,-0.7439069,0.50476235,0.26583552
-0.2,-0.2,1.1999999999999997,0.5235987755982988,0.0,0,-0.8312292,-1.678813,-0.09706125,-0.10345084,-0.029914781,1.246122,0.5303554,-0.21057269,0.3023388,-1.3138771,0.29640564,-0.7486133,0.5047929,0.2659752
-0.2,-0.2,1.1999999999999997,0.5235987755982988,0.0,0,-0.22129318,-1.7486765,0.040428627,-0.0969667,-0.047210578,1.1749957,-0.31248665,-0.21032326,0.3018834,-1.3144974,0.29632008,-0.7430747,0.5049033,0.26609644
-0.2,-0.2,1.1999999999999997,0.5235987755982988,0.0,0,-0.5627434,-1.7467177,0.02128169,-0.084124535,-0.0066341804,1.2186825,0.050689816,-0.21039528,0.30142513,-1.3155161,0.2958469,-0.744068,0.5049178,0.2655421
-0.2,-0.2,1.1999999999999997,0.5235987755982988,0.0,0,0.4191578,-1.7551444,0.124661684,-0.022545142,0.015445591,1.2837058,-0.26657042,-0.21030243,0.30206934,-1.3142473,0.2961344,-0.7414726,0.5040733,0.26253423
-0.2,-0.2,1.1999999999999997,0.5235987755982988,0.0,0,-0.4877821,-1.8637214,0.21781844,-0.097640365,0.00702771,1.3188952,0.81532073,-0.21025142,0.3025077,-1.3151014,0.29593256,-0.74584895,0.50416225,0.26918426
-0.2,-0.2,1.1999999999999997,0.5235987755982988,0.0,0,-0.16882645,-1.8208789,-0.14046577,-0.049183857,0.013321786,1.248034,0.5864975,-0.21106523,0.3027391,-1.3148264,0.29636097,-0.7418486,0.50380045,0.2667748
-0.2,-0.2,1.1999999999999997,0.5235987755982988,0.0,0,-0.9928135,-1.8216748,-0.20169005,-0.024491008,0.014206315,1.1849799,-1.0160972,-0.21014166,0.30322328,-1.3148049,0.2958725,-0.75221646,0.50484926,0.26529294
-0.2,-0.2,1.1999999999999997,0.5235987755982988,0.0,0,0.03431205,-1.8633558,0.10746883,-0.081505224,0.21129224,1.1813171,-0.32279557,-0.21013542,0.3023783,-1.3153467,0.2959823,-0.7492028,0.50566196,0.26808757
-0.2,-0.2,1.1999999999999997,0.5235987755982988,0.0,0,-1.04931,-1.7736639,0.4462243,-0.025922546,-0.29828385,1.227933,0.20926066,-0.20969729,0.30203718,-1.3151392,0.2957529,-0.74413395,0.5055847,0.26600984
-0.2,-0.2,1.1999999999999997,0.5235987755982988,0.0,0,-0.71149933,-1.8604386,0.55182225,-0.04266135,-0.07770206,1.226621,0.057663202,-0.21075626,0.30304563,-1.3146373,0.29642734,-0.7477796,0.5042818,0.2678224
-0.2,-0.2,1.1999999999999997,0.5235987755982988,0.0,0,-0.23832017,-1.7885938,0.09545007,-0.048198834,-0.22688231,1.2259009,0.1573006,-0.21055081,0.30140147,-1.3153378,0.2964751,-0.7522257,0.50557244,0.26820242
-0.2,-0.2,1.1999999999999997,0.5235987755982988,0.0,0,-0.2246002,-1.7594216,0.2016187,-0.092121415,0.013451513,1.2254891,-0.3208918,-0.21023484,0.30336055,-1.3143258,0.29656953,-0.7453273,0.5048322,0.26604477
-0.2,-0.2,1.1999999999999997,0.5235987755982988,0.0,0,0.28719217,-1.7366898,-0.10735527,-0.04292228,-0.030392488,1.1670167,-0.51210296,-0.21100232,0.30378035,-1.3161207,0.29632682,-0.746242,0.50372005,0.2675341
-0.2,-0.2,1.1999999999999997,0.5235987755982988,0.0,0,-0.2500458,-1.77878,0.26903927,-0.099237695,0.17901844,1.1345155,-1.2325726,-0.21105613,0.30287808,-1.3144615,0.2964039,-0.7474056,0.50554526,0.2674095
-0.2,-0.2,1.1999999999999997,0.5235987755982988,0.0,0,-0.25734952,-1.8996457,-0.4238577,-0.05409907,0.069664255,1.2155423,-1.0925121,-0.21074785,0.3042776,-1.3156499,0.29593575,-0.7514654,0.5048749,0.26460898
-0.2,-0.2,1.1999999999999997,0.5235987755982988,0.0,0,0.04214506,-1.7598035,0.19417739,-0.0589341,0.212168,1.2026889,-0.70968133,-0.21075492,0.30233282,-1.3147302,0.29628378,-0.74943554,0.5048508,0.26339737
-0.2,-0.2,1.1999999999999997,0.5235987755982988,0.0,0,-0.015331174,-1.7122684,0.07168566,-0.059225623,-0.31278276,1.2904708,0.5021689,-0.21027516,0.30343163,-1.315045,0.29610398,-0.7552157,0.50485826,0.2670715
-0.2,-0.2,1.1999999999999997,0.5235987755982988,0.0,0,-0.6122372,-1.8276428,0.16797563,-0.13003878,-0.2833308,1.3254542,0.25393593,-0.20919685,0.30298135,-1.3137654,0.29542133,-0.7506169,0.5036013,0.2634187
-0.2,-0.2,1.1999999999999997,0.5235987755982988,0.0,0,-2.0127633,-1.7681464,-0.3549311,-0.07711793,0.15876694,1.2221622,0.7008671,-0.21013738,0.3025251,-1.31376,0.29560113,-0.749849,0.50461805,0.2637555
-0.2,-0.2,1.1999999999999997,0.5235987755982988,0.0,0,-0.3438658,-1.8280159,0.21988255,-0.048381,0.03574858,1.1321123,1.0042351,-0.20999204,0.30299702,-1.3148949,0.2961391,-0.7525792,0.50562775,0.26733166
-0.2,-0.2,1.1999999999999997,0.5235987755982988,0.0,0,-0.8783318,-1.8343565,-0.10785962,-0.011960728,0.009230502,1.1711738,0.5560235,-0.2102221,0.3026559,-1.3147068,0.29622775,-0.7482841,0.5036371,0.26691526
-0.2,-0.2,1.1999999999999997,0.5235987755982988,0.0,0,-0.23174895,-1.8074249,0.24766669,-0.08908352,0.049817044,1.2264899,0.27645883,-0.20957042,0.30283618,-1.3155993,0.29569265,-0.74292153,0.50399417,0.26778996
-0.2,-0.2,1.1999999999999997,0.5235987755982988,0.0,0,-0.7751957,-1.8266293,-0.07380475,-0.039900973,0.13367978,1.1838037,0.91967845,-0.21018893,0.30333483,-1.3153402,0.29591182,-0.7411535,0.50403136,0.2634886
-0.2,-0.2,1.1999999999999997,0.5235987755982988,0.0,0,-0.3734252,-1.828748,0.39089707,-0.039424766,0.06605176,1.1547301,1.4343822,-0.20945063,0.30175722,-1.3150592,0.29558438,-0.74956864,0.50427717,0.2644881
-0.2,-0.2,1.1999999999999997,0.5235987755982988,0.0,0,-0.89795375,-1.8322763,-0.06904626,-0.03848079,0.005009056,1.2695364,-0.60301626,-0.20993534,0.3028787,-1.314162,0.29577163,-0.745675,0.5040447,0.2650495
-0.2,-0.2,1.1999999999999997,0.5235987755982988,0.0,0,-1.23602,-1.8053374,0.14208438,-0.10085279,0.116354816,1.1536347,0.13298416,-0.21083622,0.3026698,-1.3145143,0.29614192,-0.745004,0.504533,0.2638045
-0.2,-0.2,1.1999999999999997,0.5235987755982988,0.0,0,-0.48602864,-1.6487292,-0.12555026,-0.08286266,-0.10746586,1.1237224,0.40552655,-0.21039331,0.3030093,-1.3151324,0.29565072,-0.7419904,0.5045951,0.2662604
-0.2,-0.2,1.1999999999999997,0.5235987755982988,0.0,0,-0.6813723,-1.7773657,0.33267367,-0.10319216,0.012988195,1.2364002,-0.49607468,-0.21039802,0.30202746,-1.3138599,0.29582044,-0.74964046,0.5041669,0.26693046
-0.2,-0.2,1.1999999999999997,0.5235987755982988,0.0,0,-0.26922563,-1.8502789,-0.31902152,-0.087873645,-0.2026581,1.2040666,0.7177865,-0.21002448,0.30342847,-1.3149266,0.2957421,-0.7467542,0.50359714,0.26538914
-0.2,-0.2,1.1999999999999997,0.5235987755982988,0.0,0,-0.6058506,-1.7754418,-0.044134215,-0.042471744,0.082014665,1.2004569,-0.4474651,-0.21053027,0.30263755,-1.3143021,0.29512727,-0.7481838,0.50522554,0.26627234
-0.2,-0.2,1.1999999999999997,0.5235987755982988,0.0,0,-0.24936132,-1.7533901,-0.09904164,0.006314108,-0.2983932,1.1777382,-0.93151116,-0.2107847,0.30227646,-1.314828,0.29569864,-0.7460669,0.50395495,0.26367688
-0.2,-0.2,1.1999999999999997,0.5235987755982988,0.0,0,-0.14789408,-1.8129655,0.2341932,-0.02859987,0.084285185,1.1896416,-0.6112297,-0.2101452,0.3027231,-1.3134043,0.2961919,-0.74372643,0.50465614,0.26613453
-0.2,-0.2,1.1999999999999997,0.5235987755982988,0.0,0,0.20646136,-1.8422407,-0.04735661,-0.07969753,-0.10688184,1.2628331,-0.39963785,-0.20964581,0.30204314,-1.3141202,0.29598743,-0.74488896,0.5040063,0.26527897
-0.2,-0.2,1.1999999999999997,0.5235987755982988,0.0,0,0.1591959,-1.8155149,-0.31016272,-0.08389148,-0.13572036,1.2587305,0.71146035,-0.21007086,0.30303666,-1.3133792,0.29589182,-0.7501485,0.5044424,0.26526916
-0.2,-0.2,1.1999999999999997,0.5235987755982988,0.0,0,-1.0327675,-1.8127437,0.30596557,-0.08536348,-0.061719514,1.2909702,1.255652,-0.21100363,0.3032365,-1.3133041,0.29611382,-0.7445272,0.5041241,0.26685473
-0.2,-0.2,1.1999999999999997,0.5235987755982988,0.0,0,-0.9083683,-1.7287978,-0.12592728,-0.067613535,-0.07103235,1.1556096,-0.030822987,-0.2103527,0.30155107,-1.3145266,0.2961231,-0.751394,0.5042728,0.2672692
-0.2,-0.2,1.1999999999999997,0.5235987755982988,0.0,0,-0.10695069,-1.7501998,0.016664585,-0.10170238,-0.14624725,1.2131611,0.33993632,-0.20966668,0.30238554,-1.313521,0.29598215,-0.74838203,0.5033108,0.26540655
-0.2,-0.2,1.1999999999999997,0.5235987755982988,0.0,0,-0.769886,-1.801366,-0.07513362,-0.062451262,0.22838773,1.180668,-0.02055841,-0.21020398,0.3021684,-1.3145523,0.29590932,-0.7445549,0.5040268,0.26658407
-0.2,-0.2,1.1999999999999997,0.5235987755982988,0.0,0,-0.6434729,-1.7429044,-0.05241095,-0.080595694,-0.30975586,1.2670469,0.3835058,-0.2107102,0.30249086,-1.3138491,0.29618597,-0.7526559,0.5050939,0.26726654
-0.2,-0.2,1.1999999999999997,0.5235987755982988,0.0,0,-1.0155333,-1.7672516,0.066849545,-0.081573546,0.15508895,1.2504407,0.38409036,-0.21076506,0.30190626,-1.3151494,0.29606602,-0.74815786,0.5032031,0.26761475
-0.2,-0.2,1.1999999999999997,0.5235987755982988,0.0,0,-1.0337363,-1.8735837,0.20749372,-0.025746185,-0.034754902,1.25636,0.10573245,-0.21045765,0.30272597,-1.3154428,0.2962815,-0.7375498,0.50426984,0.2672152
-0.2,-0.2,1.1999999999999997,0.5235987755982988,0.0,0,-0.8322679,-1.8410672,-0.15547119,-0.12807533,-0.21993516,1.2172458,0.59609663,-0.21053116,0.30380997,-1.3146032,0.29616356,-0.74945927,0.50477314,0.26505044
-0.2,-0.2,1.1999999999999997,0.5235987755982988,0.0,0,-0.3010214,-1.7348465,0.117928565,-0.0747164,0.10059442,1.178532,0.70029193,-0.21011278,0.30310094,-1.3146238,0.29615128,-0.74532825,0.50476646,0.26683614
-0.2,-0.2,1.1999999999999997,0.5235987755982988,0.0,0,0.13705328,-1.7621496,-0.23909461,-0.107134834,0.16497159,1.2305027,-0.31472936,-0.21013857,0.3047575,-1.3156091,0.29589826,-0.74313706,0.50460935,0.26371163
-0.2,-0.2,1.1999999999999997,0.5235987755982988,0.0,0,-0.31707475,-1.6644678,-0.015805583,-0.019202236,-0.04936787,1.204739,-0.17636499,-0.2097343,0.30181113,-1.3144982,0.2963928,-0.74698645,0.5045281,0.26772708
-0.2,-0.2,1.1999999999999997,0.5235987755982988,0.0,0,-0.437424,-1.7125436,-0.18849202,-0.12328745,0.1529405,1.211125,0.36442918,-0.21008216,0.30285075,-1.3137978,0.29587302,-0.7491434,0.50465214,0.26473323
-0.2,-0.2,1.1999999999999997,0.5235987755982988,0.0,0,-0.23935173,-1.8913946,-0.11172251,-0.0658116,-0.19009048,1.2103596,-0.17602205,-0.21059811,0.30368274,-1.314403,0.2955814,-0.74450284,0.5049628,0.266768
-0.2,-0.2,1.1999999999999997,0.5235987755982988,0.0,0,-0.13520242,-1.7137353,-0.12292043,-0.06899567,0.09112989,1.2663975,0.31063333,-0.21027836,0.303134,-1.3139977,0.296239,-0.74651825,0.50466144,0.2658784
-0.2,-0.2,1.1999999999999997,0.5235987755982988,0.0,0,-0.44729623,-1.7382125,0.44596648,-0.034898143,-0.041207638,1.2762891,-0.67460036,-0.21040028,0.30291986,-1.3140222,0.29585382,-0.75020856,0.50460863,0.26721853
-0.2,-0.2,1.1999999999999997,0.5235987755982988,0.0,0,-0.6329082,-1.8119911,0.47093782,-0.15027048,0.10731312,1.1918718,-0.28263894,-0.2105034,0.30221352,-1.314405,0.29551014,-0.7493586,0.5047394,0.26302686
-0.2,-0.2,1.1999999999999997,0.5235987755982988,0.0,0,0.012026505,-1.8126746,0.21485794,-0.07858373,-0.14207856,1.2168819,-0.53806007,-0.2100614,0.30246437,-1.3147346,0.29568923,-0.74928945,0.50420743,0.26531273
-0.2,-0.2,1.1999999999999997,0.5235987755982988,0.0,0,-0.6126526,-1.8392589,0.2108638,-0.03963791,0.16936696,1.2068893,0.26865134,-0.2099749,0.30342472,-1.3147793,0.29602733,-0.7471737,0.50477624,0.26531392
-0.2,-0.2,1.1999999999999997,0.5235987755982988,0.0,0,-0.0053255702,-1.7800663,0.36551467,-0.03700093,-0.24106257,1.2997131,0.43123242,-0.21016325,0.30109748,-1.3140173,0.29578212,-0.74715406,0.50585186,0.26514828
