sanky1234/BimanualDexCatch/isaacgymenvs/cem_results/football_pose_-0.1_-0.2_0.7_-0.5235987755982988_0.5235987755982988_0_2025-05-25.csv
x,y,z,roll,pitch,yaw,robot1/joint1,robot1/joint2,robot1/joint3,robot1/joint4,robot1/joint5,robot1/joint6,robot1/joint7,robot2/joint1,robot2/joint2,robot2/joint3,robot2/joint4,robot2/joint5,robot2/joint6,robot2/joint7
-0.1,-0.2,0.7,-0.5235987755982988,0.5235987755982988,0,-1.1443571,1.10334,0.31301543,-0.15014556,0.3325426,-1.0096602,-0.9184341,0.15911397,1.4846514,-0.86504817,0.04177939,-0.1891766,1.199465,-1.2489895
-0.1,-0.2,0.7,-0.5235987755982988,0.5235987755982988,0,-1.9200482,1.3977904,-0.05527351,0.16786082,-0.5436077,-1.0854247,-0.5555711,0.19371806,1.4819353,-0.87069374,0.048188824,-0.23669192,1.0537524,-1.0918795
-0.1,-0.2,0.7,-0.5235987755982988,0.5235987755982988,0,-0.21274324,1.0703375,0.018469872,-0.06088598,0.32671466,-1.2222065,1.0095272,0.17752767,1.4871595,-0.8964911,0.050948918,-0.27349767,1.1695015,-1.7140822
-0.1,-0.2,0.7,-0.5235987755982988,0.5235987755982988,0,0.23533414,1.0012255,0.12799776,0.03693986,0.2903303,-1.1504668,-0.79728633,0.17863336,1.4955416,-0.86093247,0.05677914,-0.1667842,1.2178562,-1.2154878
-0.1,-0.2,0.7,-0.5235987755982988,0.5235987755982988,0,-0.61635596,1.4560884,0.23912407,-0.2010123,0.6349668,-1.409335,-0.45254314,0.15642323,1.5007006,-0.9056904,0.025803553,-0.15742457,1.2406808,-1.1631546
-0.1,-0.2,0.7,-0.5235987755982988,0.5235987755982988,0,-0.47663525,1.3400921,-0.5895334,-0.090463415,0.03654771,-1.1203634,-0.27707657,0.17952183,1.4893781,-0.863415,0.055140886,-0.07510518,1.3483986,-1.372172
-0.1,-0.2,0.7,-0.5235987755982988,0.5235987755982988,0,-0.5789225,0.37364495,-0.2882777,-0.4050563,0.94614315,-0.9421197,1.0601133,0.17485695,1.4963793,-0.8896528,0.012611001,-0.10453096,1.4532349,-1.7888612
-0.1,-0.2,0.7,-0.5235987755982988,0.5235987755982988,0,0.26971292,0.8475397,0.04166777,-0.1999348,-0.00025252686,-1.3108009,1.0688212,0.16718444,1.4910667,-0.8656913,-0.005730832,-0.15331051,1.4204975,-1.9639134
-0.1,-0.2,0.7,-0.5235987755982988,0.5235987755982988,0,-1.1791229,0.62203884,-0.6414129,-0.30463058,-0.26049277,-1.1997187,-1.9313263,0.1733898,1.4935411,-0.86559445,0.06507407,-0.053730667,1.5598438,-1.632095
-0.1,-0.2,0.7,-0.5235987755982988,0.5235987755982988,0,-1.1197131,0.9211796,-0.20712408,-0.11854396,-1.3625647,-0.76919204,-0.630568,0.16885161,1.477451,-0.88708436,0.07518526,-0.18476707,1.4416848,-1.4689723
-0.1,-0.2,0.7,-0.5235987755982988,0.5235987755982988,0,-0.5783958,1.6058505,-0.12466975,-0.17081359,1.5526347,-1.0610734,-0.36406177,0.19284444,1.4943225,-0.8931929,0.030393824,-0.23062076,1.5084378,-1.520675
-0.1,-0.2,0.7,-0.5235987755982988,0.5235987755982988,0,-1.9808966,0.64946645,0.022761634,-0.05561543,-1.1185788,-0.83063763,-0.6635487,0.21721932,1.4883978,-0.8391981,0.0073558134,-0.21283461,1.2645805,-1.0602323
-0.1,-0.2,0.7,-0.5235987755982988,0.5235987755982988,0,-1.2618394,0.7401196,-0.21752739,0.12528478,0.36810988,-0.9994197,0.31016058,0.19298029,1.4807806,-0.86634433,0.06021681,-0.31447724,1.5374701,-1.4643036
-0.1,-0.2,0.7,-0.5235987755982988,0.5235987755982988,0,-1.8842083,0.53484434,-0.45003688,0.082099825,-0.6257219,-0.9871434,-1.6803418,0.15866992,1.4810245,-0.8946852,0.0025956593,-0.28757882,1.4677624,-1.5462455
-0.1,-0.2,0.7,-0.5235987755982988,0.5235987755982988,0,-0.33754054,0.7570865,-0.7172995,-0.35082892,-0.91242987,-1.1024617,-1.6075032,0.16633053,1.4997845,-0.8566024,-0.06187043,-0.17345385,1.534039,-1.1700543
-0.1,-0.2,0.7,-0.5235987755982988,0.5235987755982988,0,-0.9399999,1.3085376,0.070288345,-0.10228005,-0.5642951,-1.0078688,-0.5345561,0.14233962,1.4768049,-0.8662196,0.024736188,-0.051395513,1.4726593,-2.090942
-0.1,-0.2,0.7,-0.5235987755982988,0.5235987755982988,0,-0.7431937,1.0312206,0.29165843,-0.03483713,0.7944225,-0.8720525,-1.5761851,0.21387853,1.4781595,-0.8735986,0.056427673,0.115226105,1.4014931,-1.6234657
-0.1,-0.2,0.7,-0.5235987755982988,0.5235987755982988,0,0.05514472,1.4334207,0.35438856,-0.56558365,0.6956175,-0.764815,-0.1439942,0.21085368,1.4708692,-0.8707479,0.028970394,-0.17884628,1.4590487,-1.5751057
-0.1,-0.2,0.7,-0.5235987755982988,0.5235987755982988,0,-1.4240049,0.5659874,0.26529738,-0.34956893,-0.55272377,-0.7748014,-1.2006208,0.185463,1.4840262,-0.8421013,0.06890806,-0.16533321,1.4410037,-2.131411
-0.1,-0.2,0.7,-0.5235987755982988,0.5235987755982988,0,-1.5889595,0.671904,0.045322694,-0.21695559,-0.037953034,-0.85130066,-1.1495973,0.19063441,1.4865135,-0.8524268,0.04622504,-0.15344143,1.4580384,-1.5179884
-0.1,-0.2,0.7,-0.5235987755982988,0.5235987755982988,0,-0.4801904,0.5049934,0.13214096,-0.08171483,-0.8254863,-1.1205889,-0.8712891,0.14020184,1.4953785,-0.84412456,0.05235629,-0.17037265,1.4954538,-1.1969274
-0.1,-0.2,0.7,-0.5235987755982988,0.5235987755982988,0,-0.82482326,0.9104744,-0.29547778,-0.26091543,-0.5095887,-1.2180861,0.15724044,0.10266596,1.4744174,-0.86981946,-0.06281988,-0.18714221,1.1559839,-1.5304639
-0.1,-0.2,0.7,-0.5235987755982988,0.5235987755982988,0,-0.36892465,1.6515198,0.4810504,-0.2389594,0.22457114,-0.9239167,-0.6660205,0.1980016,1.4867127,-0.883221,0.048715666,-0.34843954,1.3738947,-1.5254248
-0.1,-0.2,0.7,-0.5235987755982988,0.5235987755982988,0,-0.12629785,0.5675441,-0.09031719,-0.10099024,0.112294845,-0.881106,-0.04790089,0.20180964,1.481613,-0.84035426,0.01892532,-0.19016801,1.4154923,-1.9195007
-0.1,-0.2,0.7,-0.5235987755982988,0.5235987755982988,0,-1.0761682,0.77012295,0.09537535,-0.36999914,-0.8634197,-1.1703666,-0.5317153,0.113956824,1.4802396,-0.8770466,0.035015613,-0.09082785,1.4779102,-1.8180352
-0.1,-0.2,0.7,-0.5235987755982988,0.5235987755982988,0,-1.2998606,0.794016,-0.20433258,-0.09170898,-0.5689323,-0.9660217,-1.7127116,0.21147224,1.4863065,-0.84825176,0.009594582,-0.21621543,1.4708093,-1.4076093
-0.1,-0.2,0.7,-0.5235987755982988,0.5235987755982988,0,-0.37695518,1.1879506,-0.8288213,0.42072865,-0.18010738,-0.9542759,-0.853363,0.1425409,1.4987042,-0.8841164,-0.037422664,-0.16658396,1.5600754,-0.6586531
-0.1,-0.2,0.7,-0.5235987755982988,0.5235987755982988,0,-0.6115354,0.85313874,-0.15356015,-0.06887793,-0.23166892,-0.7232855,-1.7131131,0.17993958,1.4827069,-0.86378604,0.066448525,-0.11280874,1.3821565,-1.7094145
-0.1,-0.2,0.7,-0.5235987755982988,0.5235987755982988,0,-1.1058605,1.0830584,0.439775,-0.12849465,-1.013769,-0.99033624,0.06066822,0.18272926,1.485949,-0.890005,0.044442277,-0.0031196722,1.3937871,-1.7717206
-0.1,-0.2,0.7,-0.5235987755982988,0.5235987755982988,0,-0.39087257,1.5329585,-0.0419204,-0.20387901,-1.7068235,-0.97607166,-0.4299968,0.15849477,1.478781,-0.8888175,-0.008230356,-0.24259984,1.456627,-1.3959813
-0.1,-0.2,0.7,-0.5235987755982988,0.5235987755982988,0,-0.98136485,1.1737096,0.01109749,0.33096728,0.5060454,-1.2798276,0.5119831,0.12290184,1.475877,-0.85473084,0.060937583,-0.13800141,1.4523072,-1.535902
-0.1,-0.2,0.7,-0.5235987755982988,0.5235987755982988,0,-2.1954765,1.203996,0.034581743,-0.14800492,0.019516645,-1.0494862,-0.27349406,0.16356482,1.4907045,-0.86687183,-0.02818025,-0.15766661,1.504126,-1.2902881
-0.1,-0.2,0.7,-0.5235987755982988,0.5235987755982988,0,-0.8430686,1.0961075,0.15423675,0.09518339,-0.45865053,-1.1824932,0.5743142,0.1581338,1.4897093,-0.8302438,-0.022672027,-0.08130595,1.4552206,-1.7662302
-0.1,-0.2,0.7,-0.5235987755982988,0.5235987755982988,0,-0.9489647,1.3876202,0.3350734,0.19564088,0.78339916,-0.7038414,1.0373307,0.21085332,1.4864639,-0.8963797,0.02825071,-0.2728471,1.4018534,-1.6467052
-0.1,-0.2,0.7,-0.5235987755982988,0.5235987755982988,0,-1.0918196,1.3059291,0.4399253,-0.24975184,-0.81790286,-1.2326652,-0.35809255,0.19818021,1.484989,-0.90118325,0.0075156554,-0.1888313,1.2743603,-1.361284
-0.1,-0.2,0.7,-0.5235987755982988,0.5235987755982988,0,-0.4754299,0.8308598,0.33144918,0.069591165,-0.0045667826,-1.0241295,0.20713788,0.14400142,1.4800811,-0.8580461,-0.020787336,-0.28060594,1.3452727,-1.0252801
-0.1,-0.2,0.7,-0.5235987755982988,0.5235987755982988,0,-0.7958519,1.0457299,0.116687514,-0.29998893,0.17538528,-1.4015819,0.32183385,0.1649853,1.4760792,-0.8909406,0.00037519264,-0.25178286,1.2571691,-1.4713941
-0.1,-0.2,0.7,-0.5235987755982988,0.5235987755982988,0,-0.052266464,1.9228522,0.024445854,-0.08552513,0.1136161,-1.0297258,-0.28285792,0.16113207,1.4945927,-0.86487013,-0.0096931495,-0.13142692,1.401098,-1.2842165
-0.1,-0.2,0.7,-0.5235987755982988,0.5235987755982988,0,0.10515857,0.8562108,-0.28144842,-0.44630945,-0.20611593,-0.9478937,-0.4992451,0.17637634,1.4931197,-0.8706226,-0.07979001,-0.15890689,1.5698671,-0.8639146
-0.1,-0.2,0.7,-0.5235987755982988,0.5235987755982988,0,-0.87000835,1.174387,-0.44994608,-0.12983432,1.3574387,-1.2469554,-0.22421667,0.1465679,1.483208,-0.8758136,-0.010315577,-0.1974126,1.3268377,-2.0344443
-0.1,-0.2,0.7,-0.5235987755982988,0.5235987755982988,0,0.43433762,1.3942997,0.1929902,-0.0022922466,-0.57005507,-0.92326707,-1.1758665,0.20961961,1.4959334,-0.8771616,0.02912522,-0.353631,1.3714567,-1.3031322
-0.1,-0.2,0.7,-0.5235987755982988,0.5235987755982988,0,-0.43188703,1.1908385,-0.10175222,-0.07043261,-0.048923794,-0.7668058,-1.7493769,0.17236258,1.494482,-0.8691652,-0.011985165,0.010873261,1.4684108,-2.2716546
-0.1,-0.2,0.7,-0.5235987755982988,0.5235987755982988,0,-1.4902207,1.1311735,0.16109352,-0.12467013,-1.3605304,-0.92118144,0.5736741,0.17343543,1.4880968,-0.8908533,0.034536652,-0.06418041,1.2888659,-1.507829
-0.1,-0.2,0.7,-0.5235987755982988,0.5235987755982988,0,-2.0659008,1.508075,0.14752181,-0.07601076,-0.010307933,-0.91551113,-0.8626725,0.16632101,1.4901557,-0.8760523,0.0029310908,-0.18046632,1.1963164,-1.3826442
-0.1,-0.2,0.7,-0.5235987755982988,0.5235987755982988,0,-1.1510158,1.5080489,0.03181439,-0.19793625,-0.5359045,-0.86394113,-1.3400023,0.12796958,1.483178,-0.92226267,0.016868096,-0.2176669,1.378157,-1.6122372
-0.1,-0.2,0.7,-0.5235987755982988,0.5235987755982988,0,-1.0704504,1.1708244,0.25572878,0.08021741,-0.48303092,-0.6617647,-1.3008442,0.18996517,1.4863769,-0.9086369,0.105953306,-0.13468213,1.3331909,-1.9352251
-0.1,-0.2,0.7,-0.5235987755982988,0.5235987755982988,0,-0.3960196,0.5667457,0.10447373,-0.2322403,-0.5402895,-1.215669,0.8108292,0.20841183,1.4762701,-0.8629909,0.009710732,-0.20745662,1.2177231,-1.479756
-0.1,-0.2,0.7,-0.5235987755982988,0.5235987755982988,0,-0.7337734,0.60336065,0.34334502,-0.30111113,-0.5846323,-0.7477298,0.9382392,0.1356527,1.4878552,-0.84738505,-0.030203091,-0.11442477,1.3441249,-1.2320253
-0.1,-0.2,0.7,-0.5235987755982988,0.5235987755982988,0,-1.7376095,1.2898122,0.12016675,0.026004912,-0.33459362,-1.0664539,-0.32984743,0.19705375,1.4863443,-0.8981818,0.02477516,-0.30117193,1.4790617,-1.0090635
-0.1,-0.2,0.7,-0.5235987755982988,0.5235987755982988,0,-0.6801009,1.1099938,0.12887,-0.08871473,-0.8616782,-1.0899159,-0.5059911,0.09711756,1.5055953,-0.89814025,-0.06763122,-0.1310368,1.473183,-1.5827552
-0.1,-0.2,0.7,-0.5235987755982988,0.5235987755982988,0,-1.2704996,0.6679129,-0.034055818,0.23039338,-0.46598288,-1.2160629,-1.640114,0.20874682,1.4831113,-0.8806115,0.0028587235,-0.20649032,1.3404388,-1.427836
-0.1,-0.2,0.7,-0.5235987755982988,0.5235987755982988,0,-0.19815868,1.141921,-0.032369725,-0.05745112,0.0542151,-0.8053781,-0.7194179,0.18724468,1.4871333,-0.8835944,-0.009024697,-0.057216294,1.5509921,-1.0071445
-0.1,-0.2,0.7,-0.5235987755982988,0.5235987755982988,0,-0.41951525,1.0768842,-0.040417425,0.13069277,0.88423675,-0.9499855,0.44518107,0.20156072,1.4880221,-0.8882543,0.009833844,-0.044668186,1.3206058,-1.3637258
-0.1,-0.2,0.7,-0.5235987755982988,0.5235987755982988,0,-0.5576596,0.79036427,-0.49643925,-0.17883003,-0.44648883,-1.0555514,-1.8337436,0.16646615,1.4780785,-0.8655235,0.030020392,-0.40003327,0.8719148,-1.4851332
-0.1,-0.2,0.7,-0.5235987755982988,0.5235987755982988,0,0.081879474,0.7297426,-0.058942985,-0.16814846,-1.1397753,-0.93085396,-1.9758819,0.18750122,1.4913187,-0.88536215,-0.010352789,-0.18682264,1.2388655,-1.4816275
-0.1,-0.2,0.7,-0.5235987755982988,0.5235987755982988,0,0.12715797,0.9758737,0.19486754,-0.23093183,0.74064016,-1.0242927,-1.1926327,0.15384173,1.4833052,-0.8246678,0.056532435,-0.19323298,1.5255331,-0.91475636
-0.1,-0.2,0.7,-0.5235987755982988,0.5235987755982988,0,0.03359047,1.6152912,0.14978217,-0.42040613,-0.03115503,-0.9946399,-0.19713394,0.16528413,1.4903432,-0.8679324,0.02819083,-0.2124799,1.0620023,-1.3970999
-0.1,-0.2,0.7,-0.5235987755982988,0.5235987755982988,0,-1.0875515,0.5420676,1.0648462,-0.16205889,-0.20976332,-1.0695536,-0.4377932,0.15270025,1.4946328,-0.88665175,0.012782406,-0.18274343,1.3787144,-1.5738509
-0.1,-0.2,0.7,-0.5235987755982988,0.5235987755982988,0,0.28648484,1.0248065,-0.2891345,-0.084602304,-0.30882597,-0.74729455,-0.32972977,0.2006264,1.4921631,-0.85128474,-0.0026201345,-0.19318654,1.3432277,-1.5171834
-0.1,-0.2,0.7,-0.5235987755982988,0.5235987755982988,0,-0.4871738,1.6496558,0.16841671,0.46036652,-0.24662323,-1.1943411,0.24851552,0.19143298,1.4811432,-0.85596395,-0.012846827,-0.11252504,1.3792562,-1.5526454
-0.1,-0.2,0.7,-0.5235987755982988,0.5235987755982988,0,-0.6869789,1.0026748,0.21441917,-0.2556602,-0.7001527,-1.0185952,-1.2124726,0.17152332,1.4816979,-0.8758512,0.040804368,-0.08261228,1.0118804,-1.6106443
-0.1,-0.2,0.7,-0.5235987755982988,0.5235987755982988,0,-1.0675606,1.0001601,0.34222683,-0.07150134,-0.5802397,-0.7684885,-1.2515322,0.13868362,1.4854192,-0.8877656,0.014477961,-0.1994452,1.3753297,-0.8413973
-0.1,-0.2,0.7,-0.5235987755982988,0.5235987755982988,0,-2.500567,0.80561215,0.09299791,0.115791574,-0.5083276,-1.2055194,0.42810503,0.17355888,1.4828038,-0.8724478,0.036356267,-0.009254186,1.0430356,-1.1971893
-0.1,-0.2,0.7,-0.5235987755982988,0.5235987755982988,0,-1.0217814,1.2091635,-0.042839788,-0.16843653,-0.27767214,-1.0865287,-0.5928095,0.15188321,1.4850402,-0.89140815,0.015994757,-0.0075909477,0.9237662,-0.7450467
-0.1,-0.2,0.7,-0.5235987755982988,0.5235987755982988,0,-0.6205662,1.5263017,0.36258677,-0.14937875,0.019604253,-0.8951926,1.2611984,0.1616724,1.4765455,-0.8875738,0.048283238,-0.29431304,1.3440558,-1.5691763
-0.1,-0.2,0.7,-0.5235987755982988,0.5235987755982988,0,-1.1496834,0.5771313,0.24881323,0.061264195,-0.2858323,-1.2011606,-0.4703948,0.15822282,1.483009,-0.87993866,0.04621936,-0.19912446,1.4089191,-1.9516487
-0.1,-0.2,0.7,-0.5235987755982988,0.5235987755982988,0,-0.22576593,0.69396347,-0.81024104,0.051774107,-0.60084885,-0.9464079,0.51848453,0.182225,1.495594,-0.8592632,0.04217195,-0.2752755,0.99273354,-0.99705887
-0.1,-0.2,0.7,-0.5235987755982988,0.5235987755982988,0,-0.63895184,0.80463964,-0.22328173,-0.16489835,0.00854771,-0.8808769,-1.0694506,0.24101903,1.4862466,-0.8869393,0.11818602,-0.22038725,1.2329422,-1.4047148
-0.1,-0.2,0.7,-0.5235987755982988,0.5235987755982988,0,-1.5858341,0.89730036,0.025630787,-0.21162444,-1.1768174,-0.6711099,-0.38070437,0.17707013,1.4852979,-0.9139042,0.045004353,-0.18973209,0.7399801,-1.4131424
-0.1,-0.2,0.7,-0.5235987755982988,0.5235987755982988,0,-0.040517006,1.1851363,-0.6803733,0.17242694,-0.0063769887,-0.8636749,-0.72476745,0.14076184,1.491656,-0.88179004,0.025881961,-0.285222,1.1928517,-1.3353527
-0.1,-0.2,0.7,-0.5235987755982988,0.5235987755982988,0,-1.0856977,1.4319206,-0.19076471,-0.7355553,-1.0471175,-1.2480612,-0.6776052,0.14176439,1.4893037,-0.88894194,-0.010673522,0.05325812,1.5327059,-1.305008
-0.1,-0.2,0.7,-0.5235987755982988,0.5235987755982988,0,0.23728712,0.9761805,0.33084357,0.30058354,-0.07587062,-0.95275176,-0.75819385,0.18159844,1.5032219,-0.89780253,0.029413102,-0.09978555,1.3522098,-1.8340904
-0.1,-0.2,0.7,-0.5235987755982988,0.5235987755982988,0,-0.106282145,1.5471928,-0.3335598,-0.18380506,-0.05719888,-0.57754034,-1.1682595,0.18607976,1.4850866,-0.86705303,0.006213557,-0.25614378,1.3614057,-1.758533
-0.1,-0.2,0.7,-0.5235987755982988,0.5235987755982988,0,-0.8705622,1.0868183,-0.326746,0.057916444,0.34092554,-0.8897908,0.17154664,0.1571908,1.4991959,-0.91827244,0.023987986,-0.08519389,1.0407308,-1.3433361
-0.1,-0.2,0.7,-0.5235987755982988,0.5235987755982988,0,-0.5569698,1.4561559,0.33890232,0.36040214,0.1810742,-1.3543131,0.058460653,0.16741699,1.482009,-0.8735828,0.014514226,-0.23069775,1.2374474,-1.3960001
-0.1,-0.2,0.7,-0.5235987755982988,0.5235987755982988,0,-0.9044391,1.1614543,0.000398591,-0.48866582,0.6911776,-1.2521583,0.23848526,0.16490197,1.488673,-0.859487,-0.010568112,-0.36960357,1.4255629,-1.8205894
-0.1,-0.2,0.7,-0.5235987755982988,0.5235987755982988,0,-0.61809033,1.346088,-0.37846315,0.26165685,0.1515373,-1.0548912,-1.1876987,0.11651115,1.4750644,-0.8299264,0.016786234,0.076858856,1.289853,-0.48409876
-0.1,-0.2,0.7,-0.5235987755982988,0.5235987755982988,0,-1.5308719,0.8593621,0.2390375,0.117513664,0.5501522,-1.006731,-0.057968482,0.20533833,1.4869742,-0.87132424,0.09872253,-0.13610882,1.2990195,-1.655877
-0.1,-0.2,0.7,-0.5235987755982988,0.5235987755982988,0,-0.97967243,1.2630663,-0.29011863,0.02778424,-0.14014755,-1.1242269,-0.31324515,0.18577963,1.47711,-0.8440379,0.07712249,-0.2951084,1.3076191,-0.9391027
-0.1,-0.2,0.7,-0.5235987755982988,0.5235987755982988,0,-1.2083334,0.48278525,0.21594043,-0.41042846,-0.43610224,-0.94759154,-1.4330624,0.15375073,1.4877874,-0.8515957,0.031538863,-0.1123204,1.2483159,-0.20001087
-0.1,-0.2,0.7,-0.5235987755982988,0.5235987755982988,0,-0.8635541,1.7102491,0.019904533,-0.17642164,0.5865634,-1.0412133,0.5443132,0.21719335,1.4789852,-0.9042,0.010651659,-0.27220064,1.4653214,-1.4662238
-0.1,-0.2,0.7,-0.5235987755982988,0.5235987755982988,0,-1.5887972,0.7363648,0.42535025,-0.17049962,-0.34384984,-0.8132314,-0.8768916,0.1809666,1.4858376,-0.9193598,0.058012113,-0.05860228,1.016832,-0.6684312
-0.1,-0.2,0.7,-0.5235987755982988,0.5235987755982988,0,-1.4922189,0.87659025,0.015538341,-0.17562371,-0.1568027,-1.4579686,0.17855106,0.22196902,1.481624,-0.87450254,0.095177636,-0.215644,1.248712,-2.0326273
-0.1,-0.2,0.7,-0.5235987755982988,0.5235987755982988,0,-1.0407388,1.4370027,0.16583866,-0.3106343,-0.1637386,-0.81890976,0.64314485,0.20438507,1.4926445,-0.84842503,0.053422574,-0.15736304,1.3221147,-1.6098818
-0.1,-0.2,0.7,-0.5235987755982988,0.5235987755982988,0,-1.6072788,0.9382734,-0.16497222,-0.11721869,-0.31517756,-0.94434154,-1.8912692,0.17986324,1.479805,-0.8542606,0.04064008,-0.070341006,1.2954576,-2.007959
-0.1,-0.2,0.7,-0.5235987755982988,0.5235987755982988,0,-0.53622276,1.4679826,-0.55816615,0.41218448,-1.1698843,-0.8287478,-2.0140083,0.16405982,1.4871368,-0.8698171,0.013493763,-0.07245973,1.4899653,-1.2912934
-0.1,-0.2,0.7,-0.5235987755982988,0.5235987755982988,0,-1.3906673,1.0358384,-0.028447434,-0.6188735,0.1912655,-1.0631627,-0.9566234,0.15083727,1.4985166,-0.85867935,0.00799493,-0.13552342,1.1793011,-1.5142599
-0.1,-0.2,0.7,-0.5235987755982988,0.5235987755982988,0,-0.6515047,0.88956684,-0.58192104,-0.23903388,-0.8596325,-0.7737872,-1.0648096,0.11672437,1.4861141,-0.87475985,-0.013025241,-0.19110765,1.1382471,-1.7584517
-0.1,-0.2,0.7,-0.5235987755982988,0.5235987755982988,0,-1.5878644,0.5787977,0.43262315,-0.018192936,-0.11196958,-1.1529442,0.018671535,0.13630778,1.4824892,-0.83826727,0.023979712,-0.10429819,0.74413365,-1.0243082
-0.1,-0.2,0.7,-0.5235987755982988,0.5235987755982988,0,-0.6085956,1.4531943,-0.39019814,-0.10744865,-0.56312174,-0.71482337,-0.48603263,0.1504934,1.4795862,-0.9148718,0.041783486,-0.08269331,1.1457062,-1.1817547
-0.1,-0.2,0.7,-0.5235987755982988,0.5235987755982988,0,-0.8532503,0.84763515,0.37982917,-0.11139627,-0.68479687,-0.7091419,-2.741348,0.22483292,1.4971386,-0.86441123,0.1431528,-0.279733,1.0641448,-1.6434942
-0.1,-0.2,0.7,-0.5235987755982988,0.5235987755982988,0,-0.90595096,-0.111529596,-0.403169,0.28818494,-0.19410053,-0.9873989,0.051072586,0.14157397,1.485668,-0.8776405,0.013378258,-0.17617594,1.2297137,-1.6541353
-0.1,-0.2,0.7,-0.5235987755982988,0.5235987755982988,0,-0.77595735,0.67358667,0.5297592,0.09563632,-0.8990876,-1.0977709,-0.9052788,0.16929351,1.4914743,-0.88371193,0.042610206,-0.016566606,1.0462434,-0.6898523
-0.1,-0.2,0.7,-0.5235987755982988,0.5235987755982988,0,-1.0327114,0.9401613,0.2377364,-0.4782706,-0.57216686,-0.901839,-1.3475022,0.10588666,1.4843308,-0.8675927,-0.014265929,-0.13781807,1.3660476,-1.4986067
-0.1,-0.2,0.7,-0.5235987755982988,0.5235987755982988,0,-1.2637508,1.0593928,-0.3002959,-0.40798092,0.05463132,-0.7495119,-0.09168341,0.17153986,1.4780557,-0.8734386,0.056653507,-0.2046904,1.2117649,-1.9142008
-0.1,-0.2,0.7,-0.5235987755982988,0.5235987755982988,0,0.034624718,1.2378068,0.11858014,0.04562281,1.1428441,-0.6918075,1.4680483,0.1369218,1.4848922,-0.87582076,0.006376383,-0.1067221,1.2590153,-1.0881486
-0.1,-0.2,0.7,-0.5235987755982988,0.5235987755982988,0,-1.4947144,1.0104742,0.13134187,0.14180234,-0.49759153,-0.6232639,-1.0217505,0.201425,1.4864702,-0.85035753,0.07476176,-0.27606693,1.1983681,-1.4323223
-0.1,-0.2,0.7,-0.5235987755982988,0.5235987755982988,0,-1.2229052,0.8796259,0.20579578,-0.2981774,-0.50173765,-0.59239,-0.84184194,0.15370688,1.4995891,-0.8919112,0.022729099,-0.16268574,1.2421217,-1.1860639
-0.1,-0.2,0.7,-0.5235987755982988,0.5235987755982988,0,-1.5639371,0.52222914,-0.088028766,0.074453205,0.3845034,-1.0090137,0.36347714,0.18363273,1.4693059,-0.84740853,0.03997336,-0.20040777,1.2742224,-1.5199058
-0.1,-0.2,0.7,-0.5235987755982988,0.5235987755982988,0,-1.5425184,0.6297338,-0.10261806,-0.093283735,-0.8839887,-0.893225,-0.30566922,0.14683104,1.4891174,-0.86863124,0.011825398,-0.17782064,1.3850738,-0.71876574
-0.1,-0.2,0.7,-0.5235987755982988,0.5235987755982988,0,0.0027354013,0.6568508,-0.19616465,-0.12217592,-0.08467926,-1.0201253,-0.14216809,0.15692878,1.4845692,-0.8608193,0.044804193,0.01681714,1.4885724,-0.8480681
-0.1,-0.2,0.7,-0.5235987755982988,0.5235987755982988,0,-0.06262496,0.963755,-0.028973421,-0.22051534,-0.5611618,-0.99274224,-2.417697,0.15133485,1.4954934,-0.8560917,0.010324024,-0.19398692,1.0256803,-0.9338621
-0.1,-0.2,0.7,-0.5235987755982988,0.5235987755982988,0,-1.2447376,1.3527575,0.39129433,-0.46224084,0.12020326,-0.910525,-1.0987302,0.14814647,1.4874778,-0.8726224,0.020515965,-0.12254773,1.2279251,-0.6658847
-0.1,-0.2,0.7,-0.5235987755982988,0.5235987755982988,0,-0.54564977,1.3113807,-0.33206832,0.11438691,-0.002979671,-1.0691047,0.6057775,0.18210132,1.4891596,-0.869747,0.0383999,-0.09728048,1.3047414,-1.8007592
-0.1,-0.2,0.7,-0.5235987755982988,0.5235987755982988,0,0.4702105,0.73482037,-0.62935406,-0.16984554,-0.59644794,-1.0005438,-0.5760444,0.122301474,1.4781055,-0.87677604,-0.0073676803,-0.14047518,1.1590377,-1.4798123
-0.1,-0.2,0.7,-0.5235987755982988,0.5235987755982988,0,-0.6107706,1.0923204,0.26674592,-0.12372717,-0.6268292,-1.0715208,-1.5857359,0.13232413,1.4970295,-0.89180166,0.00016822122,-0.072756276,1.2947445,-1.5378084
-0.1,-0.2,0.7,-0.5235987755982988,0.5235987755982988,0,-1.1413485,1.3304399,-0.10393595,0.016635032,-0.019147715,-0.6710402,-0.30182886,0.13520893,1.4951912,-0.86162794,0.0060641225,-0.06921329,0.9251024,-1.4509705
-0.1,-0.2,0.7,-0.5235987755982988,0.5235987755982988,0,-1.1809839,0.10478731,-0.5893964,0.26523572,-0.5947435,-1.1108239,-0.23080212,0.17363653,1.4871216,-0.84877294,0.051409062,-0.22980718,1.0445819,-0.666803
-0.1,-0.2,0.7,-0.5235987755982988,0.5235987755982988,0,-0.5029676,0.109903134,-0.3234855,-0.07612336,-0.18320277,-0.9825451,-1.1039057,0.1595473,1.4799131,-0.84203285,0.0420196,-0.027256569,1.3417919,-0.34015733
-0.1,-0.2,0.7,-0.5235987755982988,0.5235987755982988,0,-0.4464428,0.8666563,0.18475147,-0.1926117,-0.17823315,-0.9629841,-1.1785336,0.1609865,1.5008032,-0.8857409,0.019925198,-0.2998955,1.2447851,-1.405853
-0.1,-0.2,0.7,-0.5235987755982988,0.5235987755982988,0,-0.59375626,0.48262304,0.010888938,-0.28695646,0.019616576,-1.2640868,0.14881879,0.1630073,1.4809878,-0.88912636,0.013181184,-0.32967705,1.4253026,-1.2414117
-0.1,-0.2,0.7,-0.5235987755982988,0.5235987755982988,0,0.1936763,1.3359023,0.56942666,0.25071397,-0.5533555,-0.9087183,-0.3259132,0.14998476,1.4896812,-0.863548,0.014832791,-0.275274,1.0962725,-1.3554249
-0.1,-0.2,0.7,-0.5235987755982988,0.5235987755982988,0,-0.99779075,1.5128103,0.20393988,-0.05605736,-0.42310995,-0.9137306,-1.9686414,0.2079465,1.4943906,-0.84580487,0.0770066,-0.036997527,1.1246446,-1.9196341
-0.1,-0.2,0.7,-0.5235987755982988,0.5235987755982988,0,-0.5715948,0.45172226,-0.47483277,0.014684471,-0.36675894,-1.2008482,0.4456596,0.13763139,1.4835509,-0.9018276,0.012864025,-0.29353547,0.97253233,-1.7707012
-0.1,-0.2,0.7,-0.5235987755982988,0.5235987755982988,0,-1.5367513,0.9064304,0.18310134,0.14255194,-0.4915612,-1.0867507,-1.2385103,0.13604686,1.4969007,-0.8690141,-0.0050790263,-0.194856,1.2915809,-1.1802983
-0.1,-0.2,0.7,-0.5235987755982988,0.5235987755982988,0,0.18922043,1.2866231,0.04662948,0.2904663,0.8104935,-1.1392196,-0.29568097,0.15586752,1.475879,-0.8442325,0.047514282,-0.2119333,1.0638419,-0.9705124
-0.1,-0.2,0.7,-0.5235987755982988,0.5235987755982988,0,-0.32381406,1.8129101,0.17009464,-0.30158848,0.0749705,-1.0903486,-0.7907264,0.1617547,1.4829056,-0.8668742,0.035223156,-0.22217216,1.2029194,-1.9342604
-0.1,-0.2,0.7,-0.5235987755982988,0.5235987755982988,0,-1.0557281,0.84772825,-0.7564283,-0.2613226,-0.8124582,-0.99158967,-0.20149907,0.18820731,1.4893528,-0.9018535,0.059895292,-0.073082566,1.2069966,-0.74591416
-0.1,-0.2,0.7,-0.5235987755982988,0.5235987755982988,0,-1.2304431,1.0265969,-0.3662819,0.114371404,-0.23344119,-0.9521309,-0.40009043,0.14979306,1.4935937,-0.8742101,0.008652403,-0.32001078,1.1767133,-2.1364295
-0.1,-0.2,0.7,-0.5235987755982988,0.5235987755982988,0,-1.4163212,0.2832063,-0.67259943,0.28618643,0.010406314,-1.1048509,0.5842162,0.11270575,1.4855546,-0.86345863,-0.013832266,-0.21323317,1.5519121,-2.2807627
-0.1,-0.2,0.7,-0.5235987755982988,0.5235987755982988,0,-0.7317898,0.8517967,-0.057586145,-0.1915748,0.46960294,-0.7548299,-0.22540984,0.17965566,1.4857153,-0.8609552,0.054263737,-0.18776156,1.31147,-1.3753506
-0.1,-0.2,0.7,-0.5235987755982988,0.5235987755982988,0,-0.29616606,1.3400488,-0.6124599,0.03317846,-0.74265397,-0.82691693,0.2055413,0.18047337,1.487767,-0.9076725,0.05873276,-0.23763514,1.3843555,-1.8804601
-0.1,-0.2,0.7,-0.5235987755982988,0.5235987755982988,0,-0.36886305,1.340638,-0.2620449,-0.028959021,-0.2794559,-1.427639,-0.23484729,0.17043245,1.4808158,-0.8584859,0.04333253,-0.49975985,1.2818112,-1.5984532
-0.1,-0.2,0.7,-0.5235987755982988,0.5235987755982988,0,-0.54684246,0.9085373,0.3402028,-0.1680299,-0.6178695,-0.86371946,-0.4605529,0.13252279,1.4830807,-0.8749633,0.019574946,-0.09703861,1.007783,-2.2914505
-0.1,-0.2,0.7,-0.5235987755982988,0.5235987755982988,0,-0.23588127,1.2892154,0.015699264,-0.14224495,-0.0791037,-0.9200015,-1.8766989,0.16447733,1.4881617,-0.8682546,0.032731593,-0.21856868,0.8650652,-1.0139171
-0.1,-0.2,0.7,-0.5235987755982988,0.5235987755982988,0,-0.2028588,1.2807431,0.7077435,-0.060015544,-0.38706762,-1.0700116,-0.06580635,0.15491603,1.484719,-0.8750153,0.017589506,-0.2611942,1.1421908,-1.2586303
-0.1,-0.2,0.7,-0.5235987755982988,0.5235987755982988,0,-0.034286533,0.5339549,0.29096928,0.023220316,0.24409084,-0.9498328,0.28439295,0.1674469,1.503202,-0.85627353,0.02927043,-0.078000486,1.0282171,-1.8763324
-0.1,-0.2,0.7,-0.5235987755982988,0.5235987755982988,0,-1.5670005,1.3701524,0.03969239,0.13788484,-0.7444632,-1.1349138,-0.42336372,0.1406804,1.4842618,-0.8622425,0.006400753,-0.18145007,1.0705755,-0.75651526
-0.1,-0.2,0.7,-0.5235987755982988,0.5235987755982988,0,-0.71048105,1.04467,0.2115066,-0.36296433,-0.194983,-1.1328564,-1.2083422,0.15437004,1.4852848,-0.8296709,0.023149382,-0.3511665,1.0765376,-1.776461
-0.1,-0.2,0.7,-0.5235987755982988,0.5235987755982988,0,-0.96421003,0.8308075,0.42242065,-0.15616895,0.72445434,-1.1251626,-1.5467569,0.14720136,1.4925088,-0.8822981,0.009461857,-0.028739814,1.1457843,-0.98404586
-0.1,-0.2,0.7,-0.5235987755982988,0.5235987755982988,0,-1.351728,1.2931055,0.35429612,0.04933459,0.056505207,-1.0931947,-0.38227087,0.14249817,1.4734045,-0.892841,0.00991893,0.049182598,1.4130765,-1.3526177
-0.1,-0.2,0.7,-0.5235987755982988,0.5235987755982988,0,-1.5792404,1.2688113,0.55143446,0.23784049,-0.3916144,-1.2167374,-0.4774219,0.18162496,1.485648,-0.8914352,0.059159145,-0.11126885,1.0389862,-1.3095697
-0.1,-0.2,0.7,-0.5235987755982988,0.5235987755982988,0,-0.7637795,1.5735624,0.25302503,-0.19735567,0.039886728,-0.8756986,-1.6947345,0.18995361,1.4857564,-0.88975936,0.067469284,-0.30698353,1.0518904,-1.310426
-0.1,-0.2,0.7,-0.5235987755982988,0.5235987755982988,0,-0.87615204,1.5739532,-0.1350318,0.20739497,0.55123556,-1.1095471,-0.8357785,0.15476055,1.4897397,-0.88913816,0.024478775,-0.14288855,1.2257265,-0.59835804
-0.1,-0.2,0.7,-0.5235987755982988,0.5235987755982988,0,-0.5362157,0.40591693,0.6785503,0.33181494,-0.75697625,-1.255106,0.0027374923,0.1348003,1.4849265,-0.8858785,0.0049916054,-0.16001321,1.3214573,-1.3865063
-0.1,-0.2,0.7,-0.5235987755982988,0.5235987755982988,0,-0.46641892,1.4512233,0.4342986,-0.18187268,-0.66092366,-1.0036294,0.03499353,0.13844982,1.4888778,-0.8285624,0.018950399,-0.22364254,1.424927,-2.1385648
-0.1,-0.2,0.7,-0.5235987755982988,0.5235987755982988,0,-1.2055509,0.7469739,0.053258747,-0.30009195,-0.26711586,-1.0833875,0.9180108,0.14757481,1.4804713,-0.90307593,0.021042706,-0.3492674,1.136871,-1.2313584
-0.1,-0.2,0.7,-0.5235987755982988,0.5235987755982988,0,-0.7939719,1.1360152,-0.29050446,-0.034540474,-0.47719225,-0.8409757,-0.5505381,0.15738772,1.4884573,-0.8760216,0.024084216,-0.18957028,1.2449068,-1.448516
-0.1,-0.2,0.7,-0.5235987755982988,0.5235987755982988,0,-0.8309406,1.1327468,0.011328739,-0.23189844,-0.43973932,-0.8538459,-0.89067966,0.12810054,1.4856652,-0.8604521,-0.003309579,-0.21649224,1.3403208,-1.34678
-0.1,-0.2,0.7,-0.5235987755982988,0.5235987755982988,0,-1.568553,0.8661064,0.33650956,-0.27028054,0.3737994,-0.89757866,1.2585335,0.17698005,1.4829828,-0.9276158,0.005317911,-0.20693351,1.5400522,-2.0736527
-0.1,-0.2,0.7,-0.5235987755982988,0.5235987755982988,0,-0.37582853,0.73348945,-0.55405074,-0.3379101,-0.17445347,-0.9734179,-0.775234,0.19549713,1.4812542,-0.867232,0.07682797,-0.09557304,1.1852775,-1.1805389
-0.1,-0.2,0.7,-0.5235987755982988,0.5235987755982988,0,-0.88778967,0.58630925,0.36015147,-0.33437037,-0.008910636,-1.17101,-0.71668494,0.14590348,1.4913955,-0.8692171,-0.008410574,-0.17653087,1.4927884,-1.4805306
-0.1,-0.2,0.7,-0.5235987755982988,0.5235987755982988,0,0.15961301,1.0026485,-0.5109454,0.07230386,-0.35971165,-0.89901996,1.1729027,0.13650048,1.4968182,-0.8909581,0.009846979,-0.20079385,1.2619194,-1.1425158
-0.1,-0.2,0.7,-0.5235987755982988,0.5235987755982988,0,-0.22656271,0.70850116,0.20211352,-0.0043309266,0.10341156,-1.1691738,-1.2748504,0.20705122,1.5012065,-0.86583304,0.06764596,-0.24035552,1.0838547,-0.9303679
-0.1,-0.2,0.7,-0.5235987755982988,0.5235987755982988,0,-0.85931873,0.8381937,-0.6045127,-0.3673176,0.52560663,-1.0500335,-0.09318985,0.15771227,1.490082,-0.8925602,0.032551024,-0.27358627,1.1637908,-1.316641
-0.1,-0.2,0.7,-0.5235987755982988,0.5235987755982988,0,-1.2228366,1.3890941,-0.1562493,-0.3518413,0.42064008,-1.1733961,-0.3219887,0.15622309,1.4947338,-0.8827957,0.01537873,-0.16810152,1.2435931,-2.0827434
-0.1,-0.2,0.7,-0.5235987755982988,0.5235987755982988,0,1.301855,0.6305811,-0.57186264,-0.061375897,0.2475073,-1.0403261,-0.7137732,0.18268114,1.4808247,-0.8853213,0.062042076,-0.100845106,1.1255605,-2.1245625
-0.1,-0.2,0.7,-0.5235987755982988,0.5235987755982988,0,-1.592193,1.4799615,-0.11017561,0.059123386,0.5187057,-1.0595872,-2.4478195,0.14178874,1.4797009,-0.8839384,0.018445434,-0.13190246,1.0396723,-0.9023588
-0.1,-0.2,0.7,-0.5235987755982988,0.5235987755982988,0,-0.111536756,1.3695846,-0.4779533,-0.17250957,-0.3232387,-0.97228235,-0.49288782,0.1777339,1.497344,-0.8625609,0.04348506,-0.23294921,1.2867742,-1.110534
-0.1,-0.2,0.7,-0.5235987755982988,0.5235987755982988,0,-1.3591895,1.5389132,0.017822267,-0.29752746,-0.9269435,-1.0474042,-0.50091094,0.16149674,1.4933486,-0.8811362,0.02547042,-0.082592554,1.2769935,-1.7972443
-0.1,-0.2,0.7,-0.5235987755982988,0.5235987755982988,0,-1.1764462,0.9989966,0.5816697,0.12510075,0.015888892,-1.1442868,0.25944254,0.13065676,1.4854016,-0.8431059,6.0195358e-05,-0.15591322,1.137934,-1.6793213
-0.1,-0.2,0.7,-0.5235987755982988,0.5235987755982988,0,0.10668188,0.6758261,-0.36178315,-0.36160028,-1.5971785,-1.1135575,-0.17744526,0.17811385,1.4864131,-0.8825204,0.05544863,-0.2335542,0.707894,-1.6246171
-0.1,-0.2,0.7,-0.5235987755982988,0.5235987755982988,0,-0.15158144,1.0210301,-0.20650697,-0.14182767,0.9629967,-1.0784048,0.14971605,0.1509977,1.490217,-0.83983636,0.0132653685,-0.25444874,1.2537633,-1.6366712
-0.1,-0.2,0.7,-0.5235987755982988,0.5235987755982988,0,-0.792528,0.139131,-0.2132949,0.12212473,-0.16070198,-1.0955133,-1.0742851,0.17460454,1.480697,-0.8937381,-0.013344393,-0.2054115,1.5644075,-2.0118334
-0.1,-0.2,0.7,-0.5235987755982988,0.5235987755982988,0,-0.9874947,0.64525855,0.53385144,-0.027289532,-0.7996488,-1.1570439,-1.7868407,0.1662669,1.4994339,-0.861381,0.031690717,-0.104236476,1.1190995,-1.3831626
-0.1,-0.2,0.7,-0.5235987755982988,0.5235987755982988,0,-0.8150421,1.1992236,-0.5058837,-0.1810891,0.22931701,-1.1300774,-1.7910564,0.1620321,1.4801154,-0.90240055,0.04227282,-0.27708527,1.2072517,-1.3370808
-0.1,-0.2,0.7,-0.5235987755982988,0.5235987755982988,0,-0.21521735,1.5372725,-0.69276935,-0.15521945,-0.23557363,-0.8270516,-1.2603327,0.15719089,1.487633,-0.8522224,0.038430776,-0.0112928925,0.9696751,-1.6950824
-0.1,-0.2,0.7,-0.5235987755982988,0.5235987755982988,0,-0.95046264,0.95666784,0.47233766,0.013845015,0.5423218,-1.3433269,0.84176016,0.17110565,1.4930098,-0.88774437,0.035344172,-0.31501102,1.0088022,-1.2424413
-0.1,-0.2,0.7,-0.5235987755982988,0.5235987755982988,0,-0.24803306,0.75447804,0.2668738,-0.05834193,0.48122093,-1.1648505,-1.469405,0.15462215,1.484968,-0.8479747,0.03363209,-0.39966542,0.57964706,-1.3191236
-0.1,-0.2,0.7,-0.5235987755982988,0.5235987755982988,0,-1.0382692,1.0431669,-0.4288031,-0.1303513,0.14362875,-1.0475187,-1.2175424,0.16626275,1.4941479,-0.820853,0.033729196,-0.31493303,1.4292309,-2.292264
-0.1,-0.2,0.7,-0.5235987755982988,0.5235987755982988,0,-0.78965855,0.91657704,-0.46634045,-0.35087964,-1.2368677,-1.0880463,-1.4808311,0.17080157,1.4854459,-0.8769946,0.055300914,-0.32395345,0.98631394,-1.6152611
-0.1,-0.2,0.7,-0.5235987755982988,0.5235987755982988,0,0.415223,0.8332787,0.21337809,-0.25716406,-0.49880433,-0.7850765,-1.0827285,0.20425433,1.492428,-0.8753361,0.080852956,0.02386251,1.2155918,-1.8680619
-0.1,-0.2,0.7,-0.5235987755982988,0.5235987755982988,0,0.42720863,1.174517,-0.12662362,0.3441395,-0.6386015,-0.9061232,1.5542738,0.19038853,1.4907055,-0.8772105,0.065056026,-0.19780464,1.0040114,-1.228645
-0.1,-0.2,0.7,-0.5235987755982988,0.5235987755982988,0,-1.2148603,1.6885952,0.45408505,0.1914612,-0.13066478,-0.80378383,1.1229144,0.16152126,1.4887452,-0.9142589,0.029899495,-0.22123009,1.328809,-1.3957562
-0.1,-0.2,0.7,-0.5235987755982988,0.5235987755982988,0,-0.4773886,0.85875404,-0.03560168,0.09151072,-0.05629019,-0.85064715,-0.6361899,0.16045693,1.4899573,-0.88713604,0.025882939,-0.24929687,1.294398,-1.7362889
-0.1,-0.2,0.7,-0.5235987755982988,0.5235987755982988,0,-2.5139022,1.093123,-0.12338716,0.16136049,-0.06381078,-0.7885506,-1.2576491,0.15974908,1.4815027,-0.8908842,0.039943904,-0.18000205,1.1596234,-1.4505041
-0.1,-0.2,0.7,-0.5235987755982988,0.5235987755982988,0,-1.1360204,0.3883285,0.1604882,0.21183613,0.26200244,-1.1301842,0.62043977,0.21365912,1.4868166,-0.8777671,0.10425317,-0.09592184,1.0893455,-1.0725605
-0.1,-0.2,0.7,-0.5235987755982988,0.5235987755982988,0,-1.0386904,1.5016918,-0.7379616,-0.071170114,-0.5233034,-1.0981745,0.37343967,0.18011801,1.4909066,-0.8720818,0.059650462,-0.16908535,1.0589982,-1.6646929
-0.1,-0.2,0.7,-0.5235987755982988,0.5235987755982988,0,-0.32919732,1.2524854,-0.010908259,-0.23284987,0.22474842,-0.78248423,0.14203066,0.18014959,1.4917119,-0.8652258,0.06404109,-0.010826386,1.1346918,-1.2114986
-0.1,-0.2,0.7,-0.5235987755982988,0.5235987755982988,0,-0.5454295,1.0047812,0.49047276,0.047970302,-0.48224232,-1.4356014,-0.33513388,0.18457758,1.4922475,-0.887307,0.059682164,-0.08861831,1.113455,-1.2200526
-0.1,-0.2,0.7,-0.5235987755982988,0.5235987755982988,0,-2.016238,0.85070103,-0.17160134,-0.037464567,-0.055187937,-1.0962781,-0.31512353,0.19768625,1.4780335,-0.8365691,0.08087572,-0.27167475,1.3013073,-1.7780443
-0.1,-0.2,0.7,-0.5235987755982988,0.5235987755982988,0,-0.8637982,0.826699,-0.0055812644,0.29587522,-0.6027147,-1.1136079,0.1282152,0.14703816,1.4713658,-0.88208133,0.02980855,-0.04332946,1.3038214,-1.069728
-0.1,-0.2,0.7,-0.5235987755982988,0.5235987755982988,0,0.045840777,1.6568718,-0.36266547,-0.10482953,-0.49138454,-1.0828817,0.49994487,0.20974123,1.4826648,-0.91602105,0.08712144,-0.11347296,1.1894661,-1.4497443
-0.1,-0.2,0.7,-0.5235987755982988,0.5235987755982988,0,-0.58312476,0.6241935,-0.19800088,-0.41322464,-0.39086905,-1.1482303,0.48005882,0.1999095,1.4920182,-0.8922727,0.0796814,-0.14586128,1.0028306,-0.7324045
-0.1,-0.2,0.7,-0.5235987755982988,0.5235987755982988,0,-0.9662757,0.9917828,-0.14634486,-0.12436081,-0.64068997,-0.9219864,0.2692273,0.16001266,1.4815935,-0.8749789,0.014507873,-0.1625908,1.327233,-1.7315464
-0.1,-0.2,0.7,-0.5235987755982988,0.5235987755982988,0,-1.504414,1.0433198,-0.19199592,-0.18769668,-0.20979844,-1.2593664,-1.0730273,0.13980114,1.4833502,-0.877541,0.010742222,-0.20414262,1.1344703,-0.87366325
-0.1,-0.2,0.7,-0.5235987755982988,0.5235987755982988,0,-0.9603426,1.2604011,0.11614195,0.23868036,0.40017062,-0.84579396,0.42922038,0.15694019,1.4819386,-0.8711871,0.03925861,-0.21297872,1.2261767,-1.9467546
-0.1,-0.2,0.7,-0.5235987755982988,0.5235987755982988,0,-1.2688786,0.6842669,0.008973492,0.06356912,0.42281857,-1.0364633,-0.6477509,0.18457212,1.5006135,-0.8577896,0.056894474,-0.13531998,1.0776163,-1.5538332
-0.1,-0.2,0.7,-0.5235987755982988,0.5235987755982988,0,-0.7086581,1.364448,0.19188339,-0.06222461,0.024511766,-1.0979052,0.24175835,0.15046822,1.4867053,-0.89946574,0.021957329,-0.4657339,1.2799411,-1.4682602
-0.1,-0.2,0.7,-0.5235987755982988,0.5235987755982988,0,-0.35205674,1.2670695,0.08842061,-0.21698453,-0.00540078,-0.8383579,-0.76250756,0.15893811,1.4826387,-0.87071854,0.03563325,-0.22597982,1.3206328,-1.2475247
-0.1,-0.2,0.7,-0.5235987755982988,0.5235987755982988,0,-0.54163057,1.1956943,-0.03422036,-0.077218994,-0.28525707,-1.1974397,0.17216678,0.15027216,1.501317,-0.857243,0.01670298,-0.17451204,1.0003694,-1.455152
-0.1,-0.2,0.7,-0.5235987755982988,0.5235987755982988,0,-0.7041779,1.2103955,-0.5072169,-0.18672948,-0.5654186,-0.93403834,-0.74571127,0.18600072,1.4944638,-0.8628919,0.061176296,-0.17775379,1.2082565,-1.4051718
-0.1,-0.2,0.7,-0.5235987755982988,0.5235987755982988,0,-1.9663088,1.071532,-0.23257013,0.00042977606,0.7378958,-1.1619669,-0.2523733,0.18311156,1.4887774,-0.87877417,0.06386145,-0.13628677,1.1459519,-1.3718619
-0.1,-0.2,0.7,-0.5235987755982988,0.5235987755982988,0,-0.7263024,0.6554863,0.20182721,-0.09614767,0.14450447,-1.0290376,-0.36719006,0.18419077,1.4843204,-0.8578511,0.06274781,-0.17121835,1.0260286,-1.4005258
-0.1,-0.2,0.7,-0.5235987755982988,0.5235987755982988,0,-0.61845994,0.848662,0.40448603,-0.26571313,-0.7409889,-1.2244618,0.049050342,0.14944762,1.4757066,-0.8937983,0.027445393,-0.12064492,1.3555325,-2.1908557
-0.1,-0.2,0.7,-0.5235987755982988,0.5235987755982988,0,-0.6315318,0.6773841,0.0075726192,0.2655286,-0.8533502,-1.1959715,-1.1105344,0.16560842,1.4981071,-0.85048777,0.03385814,-0.02619876,1.3197979,-1.7861531
-0.1,-0.2,0.7,-0.5235987755982988,0.5235987755982988,0,-0.48201257,1.2191298,0.054200727,-0.14294092,-0.22884397,-1.3004253,-0.656507,0.1398043,1.4730392,-0.89373595,0.019986698,-0.1801979,1.1940958,-1.0136225
-0.1,-0.2,0.7,-0.5235987755982988,0.5235987755982988,0,-0.4901595,1.4314476,-0.41341957,0.105000705,-0.23686355,-0.7044768,0.86929756,0.16389088,1.49083,-0.86089194,0.010664974,-0.3126134,1.3952831,-1.4151683
-0.1,-0.2,0.7,-0.5235987755982988,0.5235987755982988,0,-0.86582613,0.4257147,-0.59979326,-0.4887316,-0.7455754,-1.169727,-0.2358939,0.15260302,1.4920758,-0.8875878,0.04112839,-0.1691636,1.3801354,-1.9426214
-0.1,-0.2,0.7,-0.5235987755982988,0.5235987755982988,0,0.21376348,1.3175472,0.07915214,-0.19016996,-0.0146267535,-1.131494,-1.5062605,0.18157482,1.4962083,-0.9110406,0.0498371,-0.2867206,0.97799295,-2.0469677
-0.1,-0.2,0.7,-0.5235987755982988,0.5235987755982988,0,-0.008529869,1.8812973,-0.19318873,-0.42162412,-0.7621319,-1.0795046,-1.252173,0.16857213,1.4915475,-0.8599471,0.053814776,-0.1585371,1.3185859,-1.9210078
-0.1,-0.2,0.7,-0.5235987755982988,0.5235987755982988,0,-1.0462401,1.4754529,0.51182526,0.10504832,-0.71597564,-1.2240038,-0.8914656,0.21562153,1.4869348,-0.88831633,0.093059674,-0.22377445,1.1800524,-1.0314314
-0.1,-0.2,0.7,-0.5235987755982988,0.5235987755982988,0,-0.27310005,0.41341332,-0.15037028,0.38348675,-0.48128298,-1.3048729,-0.73211473,0.15092848,1.4840502,-0.8717246,0.04187928,-0.21358365,1.3835446,-1.6061053
-0.1,-0.2,0.7,-0.5235987755982988,0.5235987755982988,0,-0.43724978,0.9665032,0.19122821,-0.0632208,0.18278892,-1.1248876,0.4811171,0.17444839,1.4686228,-0.8636512,0.043885782,-0.41789538,1.3577652,-1.0109682
-0.1,-0.2,0.7,-0.5235987755982988,0.5235987755982988,0,-0.637702,0.7596744,0.48394772,0.015832497,0.3642523,-0.7798654,-0.15257986,0.16709045,1.4878663,-0.8473217,0.050457988,-0.18843007,1.2826519,-1.4532659
-0.1,-0.2,0.7,-0.5235987755982988,0.5235987755982988,0,-1.2987024,0.42868182,-0.4233127,0.23693997,0.37713343,-1.2221522,-0.027972387,0.21031064,1.4966785,-0.872624,0.08767809,-0.03943361,1.1159307,-0.27634522
-0.1,-0.2,0.7,-0.5235987755982988,0.5235987755982988,0,-0.7750058,1.1262726,0.27929437,0.14223897,0.5677018,-1.0775696,-1.1280481,0.17017737,1.5007427,-0.8905829,0.0450474,-0.08273854,1.2290996,-1.1345209
-0.1,-0.2,0.7,-0.5235987755982988,0.5235987755982988,0,-0.69147843,1.3433218,0.14181365,0.025958598,0.34759742,-0.986904,-0.8188624,0.19621861,1.4953097,-0.86612463,0.06743311,-0.069047704,1.1513708,-1.3916898
-0.1,-0.2,0.7,-0.5235987755982988,0.5235987755982988,0,-0.6511209,0.70015764,-0.27929568,-0.013632939,0.7710298,-1.1619942,-1.8592349,0.18899448,1.4905735,-0.8588479,0.06175428,-0.12339453,1.0494568,-1.1816525
-0.1,-0.2,0.7,-0.5235987755982988,0.5235987755982988,0,-0.8721224,0.9492799,0.17014201,-0.60202587,-0.79399997,-1.2321646,-1.7095698,0.17978534,1.4844837,-0.86163247,0.055225868,-0.16428475,1.0472611,-1.1576912
-0.1,-0.2,0.7,-0.5235987755982988,0.5235987755982988,0,-0.96325904,0.8549014,-0.178239,-0.33361042,-0.45595545,-1.4209076,-1.8587253,0.14424296,1.4847608,-0.8818708,0.022238987,-0.16677782,1.0497955,-1.4675478
-0.1,-0.2,0.7,-0.5235987755982988,0.5235987755982988,0,-2.2522628,0.5060504,0.11605472,-0.29332107,-0.8559477,-1.1531969,-1.6343086,0.21880142,1.5036057,-0.87321955,0.09566434,-0.29376337,1.1172731,-1.8558482
-0.1,-0.2,0.7,-0.5235987755982988,0.5235987755982988,0,-0.62952095,1.0387107,0.061237756,-0.24604467,-0.3137434,-1.037846,0.13317166,0.14261079,1.4674934,-0.92619,0.034540635,-0.15579632,1.098456,-2.2642553
-0.1,-0.2,0.7,-0.5235987755982988,0.5235987755982988,0,-0.80331534,0.50435793,-0.015351738,0.21778673,-0.017590508,-1.3708919,0.1730991,0.16579401,1.4920133,-0.8676125,0.043182783,-0.13309939,1.0140375,-1.3487575
-0.1,-0.2,0.7,-0.5235987755982988,0.5235987755982988,0,0.2560938,1.7051173,0.6774987,-0.23147143,-0.6586384,-1.1917598,-0.061522983,0.19276342,1.4903686,-0.8824713,0.06633212,-0.04287395,1.28745,-1.9972962
-0.1,-0.2,0.7,-0.5235987755982988,0.5235987755982988,0,-2.1190717,1.3052309,0.115619294,-0.10930394,-0.88871175,-1.0784881,-1.0731943,0.17389224,1.4877409,-0.89882207,0.04935764,0.007898984,0.94168425,-1.6558472
-0.1,-0.2,0.7,-0.5235987755982988,0.5235987755982988,0,0.7788983,1.009973,-0.6354919,-0.1706897,-0.71255374,-1.0588073,0.21529834,0.18995672,1.4816604,-0.8975618,0.06851509,-0.1882398,1.0316184,-2.4360356
-0.1,-0.2,0.7,-0.5235987755982988,0.5235987755982988,0,-1.2328768,1.1052188,0.13035737,-0.038150225,0.86563,-0.9455127,-0.99860895,0.20240662,1.4917017,-0.87530285,0.077222675,-0.32072842,1.2403458,-1.0862052
-0.1,-0.2,0.7,-0.5235987755982988,0.5235987755982988,0,-0.5586543,0.72651905,-0.16180573,-0.21706949,0.3787908,-1.0095009,-1.0227952,0.21059725,1.4897689,-0.8595163,0.10205842,-0.38458204,1.3152617,-1.8007203
-0.1,-0.2,0.7,-0.5235987755982988,0.5235987755982988,0,-0.14435257,0.97956574,0.18127935,0.0798367,0.3582226,-1.1896194,0.2694232,0.16287805,1.4857447,-0.88875437,0.03913972,-0.26530483,0.9675982,-1.3466477
-0.1,-0.2,0.7,-0.5235987755982988,0.5235987755982988,0,0.121197,1.0100455,-0.14183639,-0.058368318,0.54870915,-1.0855417,-1.0154828,0.19409846,1.4916601,-0.867418,0.0676672,-0.24215879,0.92425513,-0.8267128
-0.1,-0.2,0.7,-0.5235987755982988,0.5235987755982988,0,-1.2327522,1.2992696,0.05910587,-0.09819822,-0.4025522,-0.8959923,-0.11071483,0.22819832,1.4827812,-0.8591308,0.111444324,-0.34105837,1.1623665,-0.96001315
-0.1,-0.2,0.7,-0.5235987755982988,0.5235987755982988,0,-0.36426866,1.3099248,0.34763244,0.004575572,0.34979376,-0.86980164,-1.4175866,0.2037723,1.4849266,-0.8633503,0.08264704,-0.17478088,1.223032,-0.6811431
-0.1,-0.2,0.7,-0.5235987755982988,0.5235987755982988,0,-0.6939207,1.5078528,0.35232463,-0.3046039,-0.18259247,-1.1719627,0.30518454,0.18563052,1.4888572,-0.86413664,0.00918345,-0.11449482,1.3719548,-2.0393908
-0.1,-0.2,0.7,-0.5235987755982988,0.5235987755982988,0,-0.63054544,1.1270454,0.37010923,-0.11934452,-0.0011706994,-1.278105,-1.4167743,0.18039446,1.4945096,-0.90019876,0.049025558,-0.30653983,1.3225669,-2.34828
-0.1,-0.2,0.7,-0.5235987755982988,0.5235987755982988,0,-0.9598538,1.1737653,-0.026441136,-0.07787052,-0.18845662,-0.851468,-1.4565967,0.20708087,1.4848294,-0.90020186,0.08709429,-0.23559836,1.2097471,-1.3250077
-0.1,-0.2,0.7,-0.5235987755982988,0.5235987755982988,0,-0.57338804,1.0939177,0.26169232,0.09431604,0.12910827,-1.0466787,0.13641831,0.20674811,1.4911678,-0.8927963,0.0813593,-0.2329411,1.0030069,-0.7294867
-0.1,-0.2,0.7,-0.5235987755982988,0.5235987755982988,0,-1.1652648,1.2301335,0.42628682,0.45194212,-0.74995697,-0.9944737,0.19079268,0.18540187,1.4893774,-0.8717738,0.06815811,-0.26356575,1.2873065,-1.4055679
-0.1,-0.2,0.7,-0.5235987755982988,0.5235987755982988,0,-1.2544003,1.2713737,0.26071388,-0.07928297,-0.764752,-1.0774838,-0.097247705,0.16062798,1.4854118,-0.9085097,0.034635115,-0.29053313,1.3458893,-1.1640599
-0.1,-0.2,0.7,-0.5235987755982988,0.5235987755982988,0,-0.7812268,1.1428114,0.34172082,-0.30447328,-0.69593465,-1.2039903,0.5462826,0.1420724,1.4815469,-0.8494983,0.029620513,-0.042623427,1.25876,-1.3353614
-0.1,-0.2,0.7,-0.5235987755982988,0.5235987755982988,0,-1.091465,0.97563183,0.07738232,-0.1273682,0.3339195,-0.95363957,-1.3934747,0.13296047,1.4792475,-0.8799962,-0.00050897524,-0.29567963,1.4000943,-1.3647062
-0.1,-0.2,0.7,-0.5235987755982988,0.5235987755982988,0,0.115092516,1.0152591,0.00900232,-0.08860665,-0.46820706,-1.2027614,0.8687162,0.16901615,1.4829623,-0.8641388,0.011407896,0.004284247,1.522022,-1.4577063
-0.1,-0.2,0.7,-0.5235987755982988,0.5235987755982988,0,0.3262733,1.3835883,-0.5717422,-0.12416169,-0.24704029,-1.1942651,-1.5592703,0.19232309,1.4766512,-0.86953056,0.08158935,-0.30734167,1.2258195,-2.0691457
-0.1,-0.2,0.7,-0.5235987755982988,0.5235987755982988,0,0.5323378,1.0741765,0.4450259,-0.066053346,0.5494383,-1.0916426,-0.15045993,0.14534941,1.478877,-0.89712167,0.023431977,-0.1711464,1.3573388,-1.2385263
-0.1,-0.2,0.7,-0.5235987755982988,0.5235987755982988,0,-0.3457561,1.0353638,-0.5952725,-0.17893727,-0.76180524,-0.7617743,0.23860282,0.16962527,1.4993676,-0.90020055,0.03769752,0.042726394,0.9486068,-1.227122
-0.1,-0.2,0.7,-0.5235987755982988,0.5235987755982988,0,-0.5716369,1.7902255,-0.1993039,-0.27964458,-0.13543239,-0.93235266,0.3491991,0.1665816,1.4911505,-0.929029,0.049427427,-0.28879303,1.3206946,-1.7613531
-0.1,-0.2,0.7,-0.5235987755982988,0.5235987755982988,0,-0.7165179,1.079897,0.14320436,-0.28789216,0.0533747,-0.9767584,-0.11584788,0.14499481,1.4893861,-0.8644032,0.010370209,-0.35495093,1.3916286,-1.2344534
-0.1,-0.2,0.7,-0.5235987755982988,0.5235987755982988,0,-1.0304418,1.0567293,-0.5847262,0.08887837,-0.17487323,-1.2812737,-1.1086819,0.17219633,1.4870499,-0.8552256,0.05264486,-0.30940282,1.3116221,-1.2203306
-0.1,-0.2,0.7,-0.5235987755982988,0.5235987755982988,0,-1.0065719,1.2416031,0.5039456,-0.05075655,-0.4303595,-1.2597526,-0.74732536,0.11769637,1.4860897,-0.88547885,7.075631e-05,-0.32132512,1.3232715,-1.6768533
-0.1,-0.2,0.7,-0.5235987755982988,0.5235987755982988,0,-1.4135923,1.0598164,-0.5372035,-0.19052976,-0.108307496,-1.1728711,-1.681216,0.16077161,1.4916909,-0.89497703,0.031002868,-0.15950015,1.3778106,-1.9433577
-0.1,-0.2,0.7,-0.5235987755982988,0.5235987755982988,0,-0.09639433,1.5715204,0.39826843,0.05719795,-0.06490002,-1.1834097,-1.1759903,0.16246434,1.4906111,-0.8754077,0.022333123,-0.15046768,1.3973888,-1.3831005
-0.1,-0.2,0.7,-0.5235987755982988,0.5235987755982988,0,-1.9284154,1.2960303,0.27327025,0.10730612,-0.42361888,-1.2107639,-1.5768305,0.21763796,1.4949874,-0.8452334,0.09951434,-0.28679132,1.1741098,-2.2278512
-0.1,-0.2,0.7,-0.5235987755982988,0.5235987755982988,0,-0.20919447,1.2068728,0.74926686,-0.05214332,-0.6149233,-1.1243491,0.38459554,0.13893338,1.4933089,-0.8559675,0.017968707,-0.03638116,1.3842045,-1.4015238
-0.1,-0.2,0.7,-0.5235987755982988,0.5235987755982988,0,-0.19055623,1.3109119,-0.58328444,-0.07928343,-0.13219024,-0.8073996,-1.9667891,0.17167537,1.4894106,-0.88223124,0.07323416,-0.22193757,1.3255186,-1.6238159
-0.1,-0.2,0.7,-0.5235987755982988,0.5235987755982988,0,-0.13786864,1.2988592,-0.033853248,-0.20695053,0.08899443,-1.2075374,0.0060812626,0.16177846,1.4880605,-0.871339,0.04225456,-0.031210063,1.3000919,-1.7828343
-0.1,-0.2,0.7,-0.5235987755982988,0.5235987755982988,0,-0.022396551,0.8913605,0.60055494,-0.27948648,-0.5003134,-0.79283416,-0.33462927,0.18526724,1.4824449,-0.85721236,0.079147115,-0.18930717,1.3814428,-2.0474386
-0.1,-0.2,0.7,-0.5235987755982988,0.5235987755982988,0,-0.6758257,0.91602236,0.37141582,0.25521716,-0.5522186,-1.2418526,1.3067513,0.13946459,1.4819213,-0.88374776,0.017350106,-0.2637935,1.4035282,-1.48822
-0.1,-0.2,0.7,-0.5235987755982988,0.5235987755982988,0,-0.4184,1.2985057,0.123228446,-0.46905303,0.18525308,-1.1793501,-0.021132536,0.17280138,1.4979519,-0.8824482,0.03838332,-0.33251143,1.3388685,-0.63637406
-0.1,-0.2,0.7,-0.5235987755982988,0.5235987755982988,0,-1.3033473,0.6780746,0.7063017,0.14612043,0.14690448,-0.89704967,-0.73762053,0.13868433,1.4899662,-0.87629336,0.02015047,-0.4018024,1.337621,-1.4068936
-0.1,-0.2,0.7,-0.5235987755982988,0.5235987755982988,0,0.20471649,1.3388324,-0.5929148,-0.38709986,-0.4951602,-1.1030077,0.42860466,0.14860772,1.488527,-0.8597551,0.03021531,-0.32479265,1.353994,-1.4645427
-0.1,-0.2,0.7,-0.5235987755982988,0.5235987755982988,0,-0.27610222,1.3182778,0.19158763,-0.14346357,-0.31371537,-0.9097581,-1.9124784,0.18868762,1.5005846,-0.8768488,0.058765855,-0.35308447,1.3632507,-1.2207366
-0.1,-0.2,0.7,-0.5235987755982988,0.5235987755982988,0,-0.73064995,1.7330283,-0.056962,-0.29901475,0.54595035,-1.0659487,0.6034151,0.11627359,1.4973307,-0.8833209,-0.015007503,-0.17270996,1.4725602,-1.5607338
-0.1,-0.2,0.7,-0.5235987755982988,0.5235987755982988,0,-0.30996552,1.6414442,-0.505832,0.013282206,-0.67767394,-0.8404563,-2.2806659,0.14515164,1.4878343,-0.89194775,0.019296493,-0.07616499,1.472181,-1.4311798
-0.1,-0.2,0.7,-0.5235987755982988,0.5235987755982988,0,-1.2472069,1.1052554,0.6294942,-0.0074390867,-0.4062092,-1.0996671,0.69305426,0.17211775,1.4984684,-0.8594063,0.037460048,-0.22181824,0.98645145,-1.3547364
-0.1,-0.2,0.7,-0.5235987755982988,0.5235987755982988,0,-0.80348116,1.1528002,-0.16403098,-0.055713344,0.8783014,-0.86994064,0.38821056,0.1653127,1.4927331,-0.88933474,0.049956348,-0.18741702,1.2544585,-0.5900403
-0.1,-0.2,0.7,-0.5235987755982988,0.5235987755982988,0,0.07143196,1.3989979,1.028476,-0.3454927,-0.03019167,-1.0635109,-0.32461858,0.13882932,1.4819298,-0.85938835,0.07075123,-0.30785125,1.425181,-1.9077717
-0.1,-0.2,0.7,-0.5235987755982988,0.5235987755982988,0,-1.3990077,1.1638856,0.44684657,-0.15973768,0.16438226,-1.1659728,-0.96663535,0.18221089,1.4827564,-0.86018074,0.070550114,-0.2977412,1.3209336,-1.2602177
-0.1,-0.2,0.7,-0.5235987755982988,0.5235987755982988,0,-0.917136,0.63863313,0.3146723,-0.40824682,0.8573834,-0.88332325,-1.6655266,0.16586548,1.4818579,-0.88929486,0.026633672,-0.45030284,1.1688678,-1.6636648
-0.1,-0.2,0.7,-0.5235987755982988,0.5235987755982988,0,-2.1853995,0.7916246,-0.36670873,0.22402622,-0.30572,-0.88354295,-1.7713202,0.15394068,1.495744,-0.8587656,-0.0047660586,-0.18211545,1.3510547,-0.5068839
-0.1,-0.2,0.7,-0.5235987755982988,0.5235987755982988,0,-0.8324776,0.13096073,-0.45068648,-0.2324814,0.5022191,-0.97289526,-0.4264278,0.20906435,1.4882852,-0.8766756,0.077330075,-0.0608768,1.3328776,-1.3135029
-0.1,-0.2,0.7,-0.5235987755982988,0.5235987755982988,0,-1.3458204,0.63450533,0.078615114,-0.16594942,-0.4100238,-0.73536867,-0.9982954,0.17985469,1.4846472,-0.8846829,0.066850305,-0.4943919,0.8949591,-0.6009144
-0.1,-0.2,0.7,-0.5235987755982988,0.5235987755982988,0,-0.054183576,1.2694664,-0.2335576,0.04192138,-0.3735572,-0.9466838,-0.0045029456,0.1424188,1.4746172,-0.860755,0.017492099,-0.16129656,1.3169258,-1.8874525
-0.1,-0.2,0.7,-0.5235987755982988,0.5235987755982988,0,-0.4207882,1.0283993,-0.2690434,-0.09062448,0.33238927,-1.0066718,-0.07486267,0.17084672,1.4936558,-0.8883246,0.041632295,-0.41561618,1.1951668,-1.9340088
-0.1,-0.2,0.7,-0.5235987755982988,0.5235987755982988,0,-0.984784,0.62872714,0.50242823,0.19554701,-0.0062427027,-1.0750729,0.16494016,0.17307141,1.4925051,-0.8723986,0.05858019,-0.24065134,1.2992945,-1.1146933
-0.1,-0.2,0.7,-0.5235987755982988,0.5235987755982988,0,-0.18013299,0.6536451,-0.19433351,-0.48519582,0.34612304,-0.7428103,-1.6112827,0.18753414,1.4920583,-0.845287,0.036996096,-0.3351407,1.0660578,-1.5036358
-0.1,-0.2,0.7,-0.5235987755982988,0.5235987755982988,0,-1.1761769,0.660639,0.14586945,-0.49333674,-0.26391566,-1.1728158,-0.07145725,0.16658907,1.4870851,-0.8403481,-0.018227575,-0.12734108,1.3763773,-1.5296892
