sanky1234/BimanualDexCatch/isaacgymenvs/cem_results/football_pose_0.1_-0.1_0.6_-0.5235987755982988_-0.5235987755982988_0_2025-05-26.csv
x,y,z,roll,pitch,yaw,robot1/joint1,robot1/joint2,robot1/joint3,robot1/joint4,robot1/joint5,robot1/joint6,robot1/joint7,robot2/joint1,robot2/joint2,robot2/joint3,robot2/joint4,robot2/joint5,robot2/joint6,robot2/joint7
0.1,-0.1,0.6,-0.5235987755982988,-0.5235987755982988,0,-1.7341655,1.9868318,-0.16137666,-0.72210383,0.08762956,1.3050506,-0.8611464,0.4369188,1.495711,0.015716609,-0.20698307,0.44143435,1.2605405,1.1513647
0.1,-0.1,0.6,-0.5235987755982988,-0.5235987755982988,0,-1.7649533,1.9754174,-0.14104684,-0.7229346,0.08318338,1.3058662,-0.8398536,0.36788335,1.5129501,-0.00096145057,-0.21668272,0.4573998,1.2880722,1.1214999
0.1,-0.1,0.6,-0.5235987755982988,-0.5235987755982988,0,-1.7417401,1.9755677,-0.1159227,-0.71760637,0.06413627,1.3070343,-0.83026636,0.39931816,1.5138009,-0.057317063,-0.20771535,0.4619592,1.2630938,1.2571936
0.1,-0.1,0.6,-0.5235987755982988,-0.5235987755982988,0,-1.7593523,1.9804927,-0.14366499,-0.71829665,0.07966023,1.3084323,-0.7640353,0.36791745,1.5132436,0.050470445,-0.21231152,0.42047623,1.2744719,1.0675865
0.1,-0.1,0.6,-0.5235987755982988,-0.5235987755982988,0,-1.7388353,1.9771011,-0.11420729,-0.7204305,0.051285934,1.3058488,-0.840688,0.39610454,1.5187241,-0.009389409,-0.20606473,0.44337365,1.2693237,1.1643583
0.1,-0.1,0.6,-0.5235987755982988,-0.5235987755982988,0,-1.7481664,1.9797838,-0.15597817,-0.7170917,0.07408343,1.3056312,-0.79773974,0.40614063,1.5102112,-0.01129235,-0.21724986,0.4567171,1.2801003,1.2767043
0.1,-0.1,0.6,-0.5235987755982988,-0.5235987755982988,0,-1.7463057,1.9829081,-0.14914094,-0.7225133,0.07744551,1.31075,-0.81479657,0.37641472,1.5070995,-0.008451977,-0.232615,0.41880608,1.2701215,1.387356
0.1,-0.1,0.6,-0.5235987755982988,-0.5235987755982988,0,-1.7515575,1.9920622,-0.14667279,-0.72196704,0.096393764,1.3051351,-0.79506034,0.3805673,1.5205866,0.02269704,-0.2053111,0.44567984,1.2845474,0.9987211
0.1,-0.1,0.6,-0.5235987755982988,-0.5235987755982988,0,-1.7611061,1.981505,-0.14412083,-0.72580624,0.08186963,1.3103329,-0.84090644,0.3714774,1.5119541,-0.04146056,-0.22300337,0.4059641,1.2772474,1.1324626
0.1,-0.1,0.6,-0.5235987755982988,-0.5235987755982988,0,-1.7534955,1.985366,-0.13750137,-0.7269812,0.07333886,1.3119856,-0.81992334,0.37850496,1.5181534,-0.013609556,-0.21643671,0.42922282,1.2708484,1.0923132
0.1,-0.1,0.6,-0.5235987755982988,-0.5235987755982988,0,-1.7445741,1.9770473,-0.14836542,-0.7253651,0.10559041,1.3078809,-0.8546544,0.35415173,1.503321,0.0010209343,-0.21297868,0.41303918,1.269235,1.0983939
0.1,-0.1,0.6,-0.5235987755982988,-0.5235987755982988,0,-1.7694346,1.9679022,-0.15055701,-0.7187875,0.09587859,1.3096708,-0.80362207,0.36045027,1.5101628,-0.02141868,-0.21834669,0.43176347,1.2775493,0.9675587
0.1,-0.1,0.6,-0.5235987755982988,-0.5235987755982988,0,-1.7592468,1.9866056,-0.14730981,-0.7291316,0.071776785,1.3085271,-0.7965194,0.36560208,1.5070518,0.0040066773,-0.21610953,0.4157462,1.2886243,1.2260901
0.1,-0.1,0.6,-0.5235987755982988,-0.5235987755982988,0,-1.7497346,1.9741805,-0.13155502,-0.72170323,0.05413817,1.3059357,-0.843056,0.36512604,1.51567,-0.026410157,-0.21949694,0.43298274,1.2867385,1.220141
0.1,-0.1,0.6,-0.5235987755982988,-0.5235987755982988,0,-1.7677187,1.9805417,-0.13243005,-0.72411704,0.057178453,1.3043797,-0.8084997,0.3774194,1.5135114,-0.015958445,-0.2162902,0.4233538,1.2856032,1.0625442
0.1,-0.1,0.6,-0.5235987755982988,-0.5235987755982988,0,-1.7323624,1.9813244,-0.132806,-0.71873885,0.027104586,1.3051153,-0.809291,0.40738207,1.5163622,0.028186375,-0.21933195,0.4244636,1.2857779,0.9985928
0.1,-0.1,0.6,-0.5235987755982988,-0.5235987755982988,0,-1.7687272,1.9735397,-0.13608,-0.7229713,0.052868232,1.3069416,-0.79509217,0.37570053,1.5105276,-0.037450537,-0.22494419,0.41611826,1.2891164,1.2534773
0.1,-0.1,0.6,-0.5235987755982988,-0.5235987755982988,0,-1.7423142,1.9784834,-0.13923,-0.7196883,0.10625844,1.3105315,-0.81746566,0.40768006,1.5147538,-0.007286516,-0.20560986,0.4531635,1.2822468,1.3537552
0.1,-0.1,0.6,-0.5235987755982988,-0.5235987755982988,0,-1.7472548,1.983141,-0.13977319,-0.71761787,0.0929289,1.3110906,-0.8321972,0.34552196,1.5116746,0.006812996,-0.22007823,0.4474198,1.2776381,1.1610858
0.1,-0.1,0.6,-0.5235987755982988,-0.5235987755982988,0,-1.7510608,1.9774036,-0.13419826,-0.72109944,0.065139204,1.3064177,-0.84766734,0.36458033,1.5290618,-0.0346577,-0.21824583,0.40617463,1.2735826,1.2729036
0.1,-0.1,0.6,-0.5235987755982988,-0.5235987755982988,0,-1.7757955,1.9865613,-0.15429564,-0.7230928,0.06034342,1.3073785,-0.81066847,0.3247119,1.5132691,0.017266303,-0.21745043,0.40452173,1.2836998,1.2505587
0.1,-0.1,0.6,-0.5235987755982988,-0.5235987755982988,0,-1.734997,1.9846452,-0.1537368,-0.72371113,0.09991382,1.3104997,-0.7705807,0.37709987,1.504512,-0.013514527,-0.21239856,0.40339005,1.2621442,1.117915
0.1,-0.1,0.6,-0.5235987755982988,-0.5235987755982988,0,-1.7533956,1.9883922,-0.1476312,-0.72118056,0.053765304,1.3098353,-0.80951476,0.41501984,1.5215921,-0.01815777,-0.23055084,0.3966757,1.2798102,1.431732
0.1,-0.1,0.6,-0.5235987755982988,-0.5235987755982988,0,-1.7449255,1.9854302,-0.13400936,-0.7215126,0.072541356,1.3078792,-0.83695537,0.41380647,1.5066979,-0.011594752,-0.20973338,0.4294443,1.2794235,1.2839894
0.1,-0.1,0.6,-0.5235987755982988,-0.5235987755982988,0,-1.7371535,1.981567,-0.126899,-0.72096807,0.078650944,1.3089995,-0.7682494,0.41796,1.517488,-0.0034963952,-0.20170067,0.44831145,1.2817475,1.2237678
0.1,-0.1,0.6,-0.5235987755982988,-0.5235987755982988,0,-1.7607837,1.9839327,-0.1472668,-0.72671586,0.06455946,1.308687,-0.8520078,0.3571402,1.5092143,-0.03280513,-0.22186017,0.41574448,1.2790558,1.4683183
0.1,-0.1,0.6,-0.5235987755982988,-0.5235987755982988,0,-1.7284303,1.9808395,-0.14791831,-0.72648454,0.043638308,1.3105358,-0.82570875,0.38752812,1.5138305,-0.010650982,-0.22584505,0.4257351,1.2733271,1.0431198
0.1,-0.1,0.6,-0.5235987755982988,-0.5235987755982988,0,-1.7438948,1.9792352,-0.14764012,-0.7240179,0.06885745,1.3102663,-0.8243941,0.37352303,1.5117319,-0.016274117,-0.20862244,0.41627595,1.2690392,1.426906
0.1,-0.1,0.6,-0.5235987755982988,-0.5235987755982988,0,-1.7404976,1.9841186,-0.14876811,-0.7316498,0.03811369,1.3101331,-0.82830733,0.37868816,1.5105295,-0.049775418,-0.21500261,0.42940232,1.2677397,1.0825921
0.1,-0.1,0.6,-0.5235987755982988,-0.5235987755982988,0,-1.753841,1.978593,-0.13601819,-0.72325224,0.08278732,1.3090572,-0.8295759,0.35449752,1.5144805,0.0057336986,-0.22336195,0.40517828,1.2834476,1.0841293
0.1,-0.1,0.6,-0.5235987755982988,-0.5235987755982988,0,-1.7775068,1.987712,-0.15974756,-0.7208645,0.06718322,1.305129,-0.7885087,0.4024739,1.5085595,-0.06427763,-0.2098329,0.4230847,1.2907332,1.404785
0.1,-0.1,0.6,-0.5235987755982988,-0.5235987755982988,0,-1.7713503,1.9845341,-0.12677006,-0.7250886,0.060538623,1.3033098,-0.8727256,0.4167836,1.5095421,-0.036177333,-0.244044,0.37685537,1.2928482,1.242298
0.1,-0.1,0.6,-0.5235987755982988,-0.5235987755982988,0,-1.7557441,1.9856333,-0.16980197,-0.7221422,0.06530825,1.306793,-0.8305767,0.4184307,1.5144819,-0.021120952,-0.23167169,0.39790773,1.2813165,1.1200972
0.1,-0.1,0.6,-0.5235987755982988,-0.5235987755982988,0,-1.7414382,1.9766828,-0.15713021,-0.7234795,0.08627207,1.3102164,-0.8415759,0.39761356,1.512012,-0.039271466,-0.22698733,0.40163812,1.2844439,1.1157246
0.1,-0.1,0.6,-0.5235987755982988,-0.5235987755982988,0,-1.7531207,1.9764562,-0.12478228,-0.71929765,0.068954304,1.3090844,-0.83486164,0.36135328,1.5001099,-0.02382199,-0.2030774,0.44958273,1.2643594,1.0020667
0.1,-0.1,0.6,-0.5235987755982988,-0.5235987755982988,0,-1.7319608,1.9820381,-0.14816554,-0.7255186,0.04014421,1.3105311,-0.78002536,0.39218587,1.500233,-0.017034842,-0.21243499,0.44066393,1.280006,1.2125171
0.1,-0.1,0.6,-0.5235987755982988,-0.5235987755982988,0,-1.7514138,1.9834955,-0.13223228,-0.7207996,0.068491995,1.310381,-0.7725702,0.42936933,1.5118598,-0.013357119,-0.2092222,0.42751664,1.2814054,1.2537572
0.1,-0.1,0.6,-0.5235987755982988,-0.5235987755982988,0,-1.7511902,1.9778577,-0.1336402,-0.71728516,0.06224266,1.308035,-0.8113536,0.43356678,1.5160279,-0.0531879,-0.22111179,0.41817042,1.2739159,1.225786
0.1,-0.1,0.6,-0.5235987755982988,-0.5235987755982988,0,-1.7413894,1.9847084,-0.12743038,-0.72360694,0.09915784,1.3096402,-0.865532,0.35417014,1.5134305,-0.059568472,-0.22107372,0.4118209,1.2800636,1.0368335
0.1,-0.1,0.6,-0.5235987755982988,-0.5235987755982988,0,-1.7722448,1.9720371,-0.1451287,-0.72866863,0.06701736,1.3111511,-0.8470498,0.35637403,1.5170108,-0.009426893,-0.21182136,0.40083608,1.2685858,1.0367105
0.1,-0.1,0.6,-0.5235987755982988,-0.5235987755982988,0,-1.7164019,1.9682872,-0.16207579,-0.7206734,0.06463391,1.307274,-0.7956764,0.36295876,1.5078351,-0.013138179,-0.21838368,0.40442988,1.2804272,1.1356801
0.1,-0.1,0.6,-0.5235987755982988,-0.5235987755982988,0,-1.7427487,1.9799362,-0.13846779,-0.7236016,0.06288209,1.305655,-0.83978194,0.37622872,1.5157086,-0.02657539,-0.21334693,0.44937348,1.27478,1.1466846
0.1,-0.1,0.6,-0.5235987755982988,-0.5235987755982988,0,-1.7375062,1.9782515,-0.1479174,-0.72038406,0.0652277,1.3101598,-0.8307405,0.38625276,1.5230802,-0.050592627,-0.21638809,0.42109546,1.2620038,1.0829476
0.1,-0.1,0.6,-0.5235987755982988,-0.5235987755982988,0,-1.7667325,1.9774019,-0.12850435,-0.72099775,0.06516779,1.3083743,-0.8272978,0.39629936,1.5203675,-0.032393996,-0.2251396,0.4048907,1.2783077,1.019554
0.1,-0.1,0.6,-0.5235987755982988,-0.5235987755982988,0,-1.7374272,1.970896,-0.15791279,-0.7199206,0.07807246,1.3078431,-0.8500341,0.39796138,1.5177457,-0.030038422,-0.24326053,0.4416591,1.2784266,1.1311681
0.1,-0.1,0.6,-0.5235987755982988,-0.5235987755982988,0,-1.7641495,1.9820423,-0.13334247,-0.72227806,0.10113263,1.3109528,-0.8449389,0.40437102,1.5113741,-0.0035824333,-0.20805524,0.44802892,1.2703644,1.119881
0.1,-0.1,0.6,-0.5235987755982988,-0.5235987755982988,0,-1.7347618,1.9795723,-0.14185436,-0.72101676,0.103580974,1.3082376,-0.8183389,0.3570812,1.5156597,-0.021117363,-0.21640788,0.4571223,1.2913035,1.068599
0.1,-0.1,0.6,-0.5235987755982988,-0.5235987755982988,0,-1.7370068,1.9848771,-0.13927807,-0.71681994,0.06446069,1.306732,-0.8698337,0.4150124,1.5180717,-0.02574561,-0.22550644,0.442041,1.2825843,1.2393329
0.1,-0.1,0.6,-0.5235987755982988,-0.5235987755982988,0,-1.7828089,1.9840631,-0.13353373,-0.7207601,0.06464283,1.3097608,-0.80153793,0.36575237,1.5080464,0.030010121,-0.19773516,0.45639744,1.282663,0.9853069
0.1,-0.1,0.6,-0.5235987755982988,-0.5235987755982988,0,-1.76298,1.986821,-0.13236625,-0.7246878,0.059942134,1.3073981,-0.77944404,0.3612311,1.5074705,-0.016372899,-0.18928976,0.45731595,1.2845539,1.4418185
0.1,-0.1,0.6,-0.5235987755982988,-0.5235987755982988,0,-1.7702304,1.9833877,-0.12395155,-0.71948284,0.109956086,1.3098024,-0.8094633,0.33710018,1.5103579,0.0074608265,-0.23303981,0.40685344,1.2894325,1.2302327
0.1,-0.1,0.6,-0.5235987755982988,-0.5235987755982988,0,-1.7581648,1.9766226,-0.16181895,-0.7223885,0.07604331,1.3074762,-0.79482126,0.40327385,1.5143567,-0.019526714,-0.19982767,0.44740993,1.2797508,1.2759488
0.1,-0.1,0.6,-0.5235987755982988,-0.5235987755982988,0,-1.7566048,1.9768579,-0.14865494,-0.7235161,0.080620155,1.3080478,-0.84758896,0.3822571,1.5053679,-0.007531712,-0.20543028,0.4330622,1.2740825,1.3026273
0.1,-0.1,0.6,-0.5235987755982988,-0.5235987755982988,0,-1.7423077,1.9736811,-0.16247024,-0.7139487,0.09562562,1.3046381,-0.8294842,0.423413,1.5175937,0.03206696,-0.2208875,0.4353066,1.2792687,1.1764778
0.1,-0.1,0.6,-0.5235987755982988,-0.5235987755982988,0,-1.7481965,1.9690777,-0.1456,-0.7170891,0.068038605,1.3100904,-0.7897254,0.40408197,1.5174004,-0.027979964,-0.22217855,0.42537394,1.278604,1.1085523
0.1,-0.1,0.6,-0.5235987755982988,-0.5235987755982988,0,-1.739255,1.973873,-0.14493148,-0.71957034,0.07920983,1.3072333,-0.8713791,0.37910485,1.515969,-0.022894505,-0.22086056,0.4121114,1.2758579,1.2163435
0.1,-0.1,0.6,-0.5235987755982988,-0.5235987755982988,0,-1.7695339,1.9733213,-0.13459371,-0.72319484,0.06932784,1.3106737,-0.848266,0.38248798,1.5061507,-0.017596824,-0.21681009,0.420686,1.2728635,1.2182457
0.1,-0.1,0.6,-0.5235987755982988,-0.5235987755982988,0,-1.737384,1.9692084,-0.15356262,-0.7224616,0.078863084,1.3098912,-0.76750743,0.36783072,1.5126345,0.010956901,-0.2060351,0.41632465,1.2812605,1.3980273
0.1,-0.1,0.6,-0.5235987755982988,-0.5235987755982988,0,-1.7742254,1.9827886,-0.13426194,-0.718756,0.08126076,1.307011,-0.8052689,0.38346776,1.5078512,-0.026558718,-0.21933763,0.4114715,1.2757281,1.0968534
0.1,-0.1,0.6,-0.5235987755982988,-0.5235987755982988,0,-1.7345096,1.9832858,-0.11263971,-0.7203655,0.061105754,1.309055,-0.828184,0.40026566,1.5103536,-0.016239619,-0.21646081,0.4154708,1.2816985,1.2877461
0.1,-0.1,0.6,-0.5235987755982988,-0.5235987755982988,0,-1.7694315,1.9766635,-0.14169644,-0.72768235,0.0743293,1.3142396,-0.8265124,0.40895945,1.5128051,-0.0065233954,-0.20757326,0.44097722,1.2903879,1.4065837
0.1,-0.1,0.6,-0.5235987755982988,-0.5235987755982988,0,-1.729555,1.9727781,-0.124334365,-0.7229428,0.09864708,1.3102818,-0.81054527,0.39466697,1.5071033,-0.013510604,-0.22177295,0.42682952,1.2810233,1.1163181
0.1,-0.1,0.6,-0.5235987755982988,-0.5235987755982988,0,-1.740688,1.9809744,-0.14587897,-0.72335094,0.06438882,1.3088733,-0.7896501,0.40272853,1.5090066,-0.011034214,-0.1992587,0.43977377,1.266772,1.1765589
0.1,-0.1,0.6,-0.5235987755982988,-0.5235987755982988,0,-1.7443018,1.9833658,-0.13436441,-0.71721053,0.07084906,1.3065284,-0.7755508,0.38167527,1.5091087,-0.0020547847,-0.21842735,0.41557834,1.2783502,1.1387572
0.1,-0.1,0.6,-0.5235987755982988,-0.5235987755982988,0,-1.7723088,1.9747665,-0.13520294,-0.7217092,0.078786224,1.3064607,-0.82423294,0.39725956,1.5223773,-0.023122596,-0.21529289,0.42550078,1.2785473,1.2281624
0.1,-0.1,0.6,-0.5235987755982988,-0.5235987755982988,0,-1.746432,1.9793514,-0.14032893,-0.7244242,0.06256276,1.3063551,-0.7987621,0.35065508,1.5078064,-0.031647395,-0.20513871,0.41592446,1.2656353,1.1414641
0.1,-0.1,0.6,-0.5235987755982988,-0.5235987755982988,0,-1.7596606,1.9812,-0.14317943,-0.7265506,0.08666193,1.3108062,-0.7909045,0.3597066,1.4957252,-0.007646321,-0.20059589,0.43529534,1.2810421,1.3935145
0.1,-0.1,0.6,-0.5235987755982988,-0.5235987755982988,0,-1.7512194,1.9748179,-0.12943567,-0.720553,0.093054175,1.3094544,-0.7859474,0.3913457,1.5212853,0.011593968,-0.20382446,0.433276,1.2800179,1.3303313
0.1,-0.1,0.6,-0.5235987755982988,-0.5235987755982988,0,-1.7371321,1.9794143,-0.13010281,-0.72173,0.068630785,1.3077009,-0.8188321,0.39933148,1.5038304,-0.019642603,-0.2115555,0.41129914,1.2659334,1.1501433
0.1,-0.1,0.6,-0.5235987755982988,-0.5235987755982988,0,-1.752773,1.9793253,-0.14076364,-0.72587264,0.061108604,1.3089542,-0.8673681,0.33482385,1.5063529,-0.0077746254,-0.19867755,0.43766463,1.2684324,1.3663722
0.1,-0.1,0.6,-0.5235987755982988,-0.5235987755982988,0,-1.7451051,1.9689858,-0.13090748,-0.7209509,0.0712154,1.3067172,-0.78909075,0.34940603,1.5128744,-0.0072557507,-0.20286153,0.4086438,1.2633191,1.0148555
0.1,-0.1,0.6,-0.5235987755982988,-0.5235987755982988,0,-1.7288849,1.987519,-0.1265567,-0.72209466,0.06627456,1.3069756,-0.8189092,0.35053605,1.4959012,-0.032039914,-0.20363913,0.40775958,1.2690316,1.4117757
0.1,-0.1,0.6,-0.5235987755982988,-0.5235987755982988,0,-1.7433879,1.9789389,-0.12066572,-0.72365344,0.07069724,1.306236,-0.8225696,0.3874672,1.5115511,-0.016413216,-0.2162393,0.43876988,1.2760473,0.9864588
0.1,-0.1,0.6,-0.5235987755982988,-0.5235987755982988,0,-1.7620759,1.9823453,-0.12101424,-0.727087,0.06971192,1.3075162,-0.87530214,0.4005138,1.5216359,-0.009161348,-0.21416894,0.44217813,1.2791736,1.1744878
0.1,-0.1,0.6,-0.5235987755982988,-0.5235987755982988,0,-1.7321981,1.9782556,-0.14198542,-0.7237228,0.07879608,1.3065039,-0.86422634,0.40232998,1.5061976,-0.03983525,-0.20697333,0.42871916,1.273188,1.0347186
0.1,-0.1,0.6,-0.5235987755982988,-0.5235987755982988,0,-1.7798305,1.9887441,-0.14715868,-0.72492856,0.10916764,1.3107108,-0.8416653,0.4143736,1.5082833,-0.037512437,-0.20532955,0.4421761,1.2757528,1.2723027
0.1,-0.1,0.6,-0.5235987755982988,-0.5235987755982988,0,-1.7658503,1.9827598,-0.12967235,-0.7217731,0.07421181,1.3074139,-0.83931357,0.4139104,1.514093,-0.0128363315,-0.21100879,0.429924,1.2774537,1.1890996
0.1,-0.1,0.6,-0.5235987755982988,-0.5235987755982988,0,-1.7487792,1.9843214,-0.13624728,-0.72430974,0.055294912,1.3101106,-0.78950465,0.37526402,1.5138247,-0.015554337,-0.19989745,0.4335225,1.2733538,1.3020389
0.1,-0.1,0.6,-0.5235987755982988,-0.5235987755982988,0,-1.7686875,1.9759364,-0.15630466,-0.7218707,0.07076898,1.3125217,-0.78619325,0.3620749,1.5101684,-0.024440337,-0.22051881,0.41678873,1.2677475,1.3033764
0.1,-0.1,0.6,-0.5235987755982988,-0.5235987755982988,0,-1.7514685,1.9773254,-0.1599429,-0.72679615,0.06471632,1.3098123,-0.7863278,0.33937582,1.5101855,-0.04049138,-0.2080702,0.4272322,1.2717822,1.2546197
0.1,-0.1,0.6,-0.5235987755982988,-0.5235987755982988,0,-1.7530836,1.9811516,-0.12298567,-0.724518,0.052784547,1.3089496,-0.839801,0.42289364,1.5037686,-0.011136541,-0.21126913,0.40933335,1.2712004,1.2386469
0.1,-0.1,0.6,-0.5235987755982988,-0.5235987755982988,0,-1.7527109,1.9830081,-0.1134538,-0.72491294,0.059164517,1.3093898,-0.8721972,0.4184675,1.5149212,-0.023035683,-0.22765824,0.4916733,1.2799457,1.3143971
0.1,-0.1,0.6,-0.5235987755982988,-0.5235987755982988,0,-1.7495712,1.9768394,-0.14423147,-0.7146698,0.07916036,1.3098673,-0.7875721,0.3534909,1.5074993,-0.03292437,-0.22419932,0.4333337,1.2740097,1.2376174
0.1,-0.1,0.6,-0.5235987755982988,-0.5235987755982988,0,-1.7491298,1.9812196,-0.15369478,-0.71823406,0.07469487,1.3080553,-0.8109812,0.3447287,1.5150769,0.031816088,-0.22391182,0.43671837,1.2843374,1.1460607
0.1,-0.1,0.6,-0.5235987755982988,-0.5235987755982988,0,-1.7392906,1.9881803,-0.14278725,-0.7208889,0.10677827,1.3058065,-0.834402,0.3631659,1.5096135,-0.016678628,-0.20560251,0.44535738,1.2728059,1.2502198
0.1,-0.1,0.6,-0.5235987755982988,-0.5235987755982988,0,-1.7650077,1.9778098,-0.15028653,-0.71893066,0.09977512,1.3066454,-0.8029666,0.3641983,1.5116502,-0.0066706967,-0.2071679,0.4247144,1.2772456,1.2826667
0.1,-0.1,0.6,-0.5235987755982988,-0.5235987755982988,0,-1.7271446,1.9789486,-0.1441638,-0.720293,0.053955548,1.3074328,-0.7867854,0.39393267,1.5135016,-0.008347687,-0.2146625,0.40427813,1.272724,1.0862361
0.1,-0.1,0.6,-0.5235987755982988,-0.5235987755982988,0,-1.7502972,1.9829035,-0.11965086,-0.72948706,0.09710549,1.3131517,-0.82244325,0.3776559,1.5063478,-0.024426356,-0.22223176,0.4304992,1.291111,1.1224165
0.1,-0.1,0.6,-0.5235987755982988,-0.5235987755982988,0,-1.7639812,1.9752047,-0.1411723,-0.718216,0.09856958,1.306962,-0.8007327,0.4014384,1.5229765,0.014688034,-0.2066165,0.44736245,1.2857264,1.2751335
0.1,-0.1,0.6,-0.5235987755982988,-0.5235987755982988,0,-1.740339,1.9755727,-0.13657491,-0.7258473,0.06634761,1.3145708,-0.80422986,0.36056703,1.5057409,0.000297435,-0.1978426,0.4218701,1.2730532,1.2895833
0.1,-0.1,0.6,-0.5235987755982988,-0.5235987755982988,0,-1.7331314,1.9786247,-0.13888936,-0.7190622,0.057441276,1.3056198,-0.81796116,0.3942274,1.4990308,0.025382204,-0.20959702,0.41895708,1.2775033,1.2693204
0.1,-0.1,0.6,-0.5235987755982988,-0.5235987755982988,0,-1.754469,1.9849582,-0.15616457,-0.7229842,0.06389943,1.3104335,-0.83301705,0.4157257,1.5047097,-0.01434947,-0.21034536,0.40374035,1.2629734,1.3602214
0.1,-0.1,0.6,-0.5235987755982988,-0.5235987755982988,0,-1.736957,1.9743539,-0.13075757,-0.72175425,0.065172695,1.305324,-0.86987746,0.41038623,1.5192899,-0.018713934,-0.20994061,0.41386375,1.2701637,1.2264247
0.1,-0.1,0.6,-0.5235987755982988,-0.5235987755982988,0,-1.748127,1.975855,-0.13829255,-0.71953803,0.085727766,1.3118335,-0.8046823,0.38179958,1.5159603,-0.025127087,-0.23253301,0.4350189,1.2973926,1.0298989
0.1,-0.1,0.6,-0.5235987755982988,-0.5235987755982988,0,-1.7432528,1.9807965,-0.13033009,-0.72021484,0.06091708,1.3088437,-0.8360654,0.37051457,1.512753,-0.028129248,-0.21312831,0.40374494,1.2621323,1.1246493
0.1,-0.1,0.6,-0.5235987755982988,-0.5235987755982988,0,-1.7482313,1.9821107,-0.14553528,-0.7204159,0.07749054,1.3080783,-0.83493996,0.4168524,1.5049471,-0.0058424333,-0.21918434,0.43945754,1.2703688,1.0532243
0.1,-0.1,0.6,-0.5235987755982988,-0.5235987755982988,0,-1.7435764,1.9844096,-0.17391562,-0.7267604,0.06357228,1.3100625,-0.79059124,0.37010223,1.5168353,-0.032616697,-0.22799315,0.3860617,1.2742238,1.1145704
0.1,-0.1,0.6,-0.5235987755982988,-0.5235987755982988,0,-1.7682021,1.9831984,-0.14739658,-0.7235431,0.066011555,1.3034081,-0.84742606,0.3881957,1.5174826,-0.015260691,-0.21507618,0.4625857,1.2865927,1.0454265
0.1,-0.1,0.6,-0.5235987755982988,-0.5235987755982988,0,-1.7499963,1.9941726,-0.12632468,-0.7304762,0.08055632,1.3089095,-0.8279445,0.36799788,1.5175827,-0.04447099,-0.2110782,0.44386017,1.2763761,1.1550041
0.1,-0.1,0.6,-0.5235987755982988,-0.5235987755982988,0,-1.7468153,1.9769194,-0.15596014,-0.7210632,0.09308924,1.3057668,-0.8055411,0.38905498,1.5160336,-0.02862681,-0.19256932,0.43462858,1.266446,1.3767167
0.1,-0.1,0.6,-0.5235987755982988,-0.5235987755982988,0,-1.7574574,1.9803648,-0.1585985,-0.7263674,0.06589129,1.3101543,-0.84977144,0.4060174,1.5124415,0.01676546,-0.20937935,0.4329016,1.2749172,1.2583678
0.1,-0.1,0.6,-0.5235987755982988,-0.5235987755982988,0,-1.7384596,1.9796495,-0.1323305,-0.7261177,0.062567145,1.3107517,-0.84864926,0.3112423,1.5090699,-0.027560733,-0.20374455,0.41111696,1.2772312,0.8894893
0.1,-0.1,0.6,-0.5235987755982988,-0.5235987755982988,0,-1.7550057,1.9834425,-0.15153548,-0.7239789,0.0654526,1.3106092,-0.7911697,0.40951553,1.5114893,-0.012941086,-0.22846659,0.4303226,1.29278,1.0674347
0.1,-0.1,0.6,-0.5235987755982988,-0.5235987755982988,0,-1.7387308,1.9833822,-0.13849384,-0.72178423,0.05225854,1.3062452,-0.8249297,0.40278727,1.5114756,-0.044344798,-0.20997508,0.44830918,1.2717932,1.1331078
0.1,-0.1,0.6,-0.5235987755982988,-0.5235987755982988,0,-1.7467543,1.9850091,-0.14675799,-0.720676,0.06502379,1.3051646,-0.8316798,0.4230445,1.5139854,-0.03520173,-0.21931481,0.40980175,1.2769951,1.1504344
0.1,-0.1,0.6,-0.5235987755982988,-0.5235987755982988,0,-1.7628908,1.980633,-0.14753534,-0.72226644,0.07625826,1.3133309,-0.81417847,0.42068198,1.523556,-0.026064606,-0.20272642,0.4621173,1.2608222,1.2005793
0.1,-0.1,0.6,-0.5235987755982988,-0.5235987755982988,0,-1.7275527,1.9824256,-0.13712792,-0.72123134,0.08583887,1.3109436,-0.844928,0.41035897,1.5109769,0.0056416662,-0.20997152,0.40822056,1.2718552,1.2047975
0.1,-0.1,0.6,-0.5235987755982988,-0.5235987755982988,0,-1.7446553,1.9772544,-0.14103603,-0.7202824,0.064903505,1.3062967,-0.79582024,0.3957738,1.5118401,-0.046434153,-0.20515704,0.43416318,1.2688608,1.1427038
0.1,-0.1,0.6,-0.5235987755982988,-0.5235987755982988,0,-1.7437392,1.987756,-0.12735938,-0.7242274,0.06437133,1.304544,-0.8316163,0.39941743,1.5191057,-0.03716393,-0.21920058,0.4382345,1.288095,1.0290983
0.1,-0.1,0.6,-0.5235987755982988,-0.5235987755982988,0,-1.7788512,1.9916292,-0.1402518,-0.72228694,0.052703347,1.3120619,-0.85329217,0.39727664,1.5165721,-0.005850364,-0.23679835,0.42904794,1.2729689,1.2008837
0.1,-0.1,0.6,-0.5235987755982988,-0.5235987755982988,0,-1.7599127,1.9782131,-0.1519805,-0.7169133,0.09313787,1.3110462,-0.77753353,0.42293343,1.5168864,-0.01629037,-0.2205196,0.3933238,1.2892401,1.3290552
0.1,-0.1,0.6,-0.5235987755982988,-0.5235987755982988,0,-1.7556956,1.9831487,-0.1519597,-0.7237035,0.04860044,1.3080838,-0.81697506,0.42567486,1.5166614,-0.0103256805,-0.20474824,0.4204343,1.2578139,1.0579364
0.1,-0.1,0.6,-0.5235987755982988,-0.5235987755982988,0,-1.7772064,1.9775136,-0.13155614,-0.7262854,0.037473302,1.3080453,-0.80635136,0.36404806,1.5164437,0.023547255,-0.2110512,0.41063207,1.2724109,1.2085375
0.1,-0.1,0.6,-0.5235987755982988,-0.5235987755982988,0,-1.7658789,1.987528,-0.15277946,-0.7256548,0.089769356,1.3112586,-0.84106654,0.3364121,1.5185612,-0.01674897,-0.23720497,0.3974991,1.2811792,1.150939
0.1,-0.1,0.6,-0.5235987755982988,-0.5235987755982988,0,-1.7480977,1.9846432,-0.12535676,-0.72198045,0.081379026,1.3095038,-0.81602824,0.36211053,1.5040914,0.010769097,-0.21163781,0.421652,1.2714378,1.235252
0.1,-0.1,0.6,-0.5235987755982988,-0.5235987755982988,0,-1.7394487,1.9834433,-0.148244,-0.7234275,0.07632069,1.3086878,-0.7958583,0.36319518,1.5064814,0.027247101,-0.20869185,0.42327225,1.278319,1.2129607
0.1,-0.1,0.6,-0.5235987755982988,-0.5235987755982988,0,-1.737558,1.980741,-0.17119232,-0.72427195,0.07089911,1.309295,-0.8495703,0.36944652,1.5202419,-0.028402306,-0.21032274,0.4650384,1.2704277,1.2331787
0.1,-0.1,0.6,-0.5235987755982988,-0.5235987755982988,0,-1.7358693,1.9809273,-0.14908019,-0.7372265,0.03898606,1.3097106,-0.87518585,0.36087546,1.511801,-0.037015855,-0.20764527,0.42861962,1.2714074,1.2603387
0.1,-0.1,0.6,-0.5235987755982988,-0.5235987755982988,0,-1.739662,1.9854541,-0.14449948,-0.729788,0.084751874,1.3117113,-0.8050808,0.39794677,1.5119171,-0.023513502,-0.21190718,0.41209057,1.272781,1.1661912
0.1,-0.1,0.6,-0.5235987755982988,-0.5235987755982988,0,-1.763,1.9764102,-0.14025702,-0.7204765,0.06407257,1.3106848,-0.77870256,0.36018834,1.500244,0.02144177,-0.2010391,0.45352092,1.2838176,1.3214542
0.1,-0.1,0.6,-0.5235987755982988,-0.5235987755982988,0,-1.7666879,1.9813417,-0.1227017,-0.7210199,0.10330561,1.3074303,-0.82788306,0.3726304,1.5123887,-0.012417595,-0.21040496,0.42559892,1.2647691,1.1175736
0.1,-0.1,0.6,-0.5235987755982988,-0.5235987755982988,0,-1.7450234,1.9788897,-0.15656409,-0.7348546,0.05164593,1.3113459,-0.84155035,0.3924462,1.5062411,-0.043526907,-0.2150341,0.42040882,1.2706449,1.127595
0.1,-0.1,0.6,-0.5235987755982988,-0.5235987755982988,0,-1.7121142,1.9747976,-0.16230822,-0.72628367,0.05495025,1.3110896,-0.7700422,0.36340997,1.506183,-0.022669721,-0.21620648,0.4100684,1.2812771,1.2451838
0.1,-0.1,0.6,-0.5235987755982988,-0.5235987755982988,0,-1.7540492,1.9763958,-0.14931427,-0.7199553,0.086874805,1.3126874,-0.7869964,0.36787644,1.5202087,0.012040108,-0.21269631,0.43853268,1.2789017,1.1933099
0.1,-0.1,0.6,-0.5235987755982988,-0.5235987755982988,0,-1.7233886,1.9804723,-0.15576085,-0.7279718,0.063259274,1.3092872,-0.83928025,0.39348122,1.5226606,-0.03767893,-0.19445829,0.47040758,1.269773,1.11808
0.1,-0.1,0.6,-0.5235987755982988,-0.5235987755982988,0,-1.7533479,1.9828031,-0.12427702,-0.7226008,0.060289748,1.307333,-0.84869033,0.42375362,1.5118521,-0.010235498,-0.2106836,0.4013401,1.2747408,1.2265912
0.1,-0.1,0.6,-0.5235987755982988,-0.5235987755982988,0,-1.762398,1.9820926,-0.122089215,-0.7237208,0.06535879,1.3081255,-0.89332503,0.339334,1.5109318,-0.018322406,-0.22901638,0.43291402,1.2776787,0.99258184
0.1,-0.1,0.6,-0.5235987755982988,-0.5235987755982988,0,-1.7673833,1.9776261,-0.12685236,-0.7133666,0.082249455,1.3108823,-0.78028727,0.38770786,1.5177271,-0.064707145,-0.21790963,0.42304778,1.2699636,1.1316152
0.1,-0.1,0.6,-0.5235987755982988,-0.5235987755982988,0,-1.7519424,1.9782842,-0.1440114,-0.72720486,0.10704777,1.3076965,-0.85589546,0.3848138,1.5164096,-0.02302033,-0.20464365,0.41637784,1.2665244,1.2600523
0.1,-0.1,0.6,-0.5235987755982988,-0.5235987755982988,0,-1.7349911,1.9827148,-0.12662409,-0.7295256,0.07330944,1.312088,-0.87645626,0.3800627,1.5069689,-0.00283877,-0.2085483,0.44662276,1.2823993,1.1892976
0.1,-0.1,0.6,-0.5235987755982988,-0.5235987755982988,0,-1.7645633,1.9669966,-0.14388989,-0.7185724,0.079751246,1.3062404,-0.7957291,0.35203987,1.5132746,-0.045034286,-0.20455196,0.434793,1.2712363,1.255011
0.1,-0.1,0.6,-0.5235987755982988,-0.5235987755982988,0,-1.7611698,1.9867074,-0.13478062,-0.72724694,0.056132447,1.3098596,-0.8660244,0.3638441,1.5158875,-0.008760205,-0.22730088,0.42448464,1.282528,1.1249475
0.1,-0.1,0.6,-0.5235987755982988,-0.5235987755982988,0,-1.7564611,1.9802262,-0.16150276,-0.719972,0.08906901,1.3053439,-0.8141846,0.35573003,1.514605,-0.013606786,-0.21467693,0.3905879,1.2734216,1.3354462
0.1,-0.1,0.6,-0.5235987755982988,-0.5235987755982988,0,-1.7455577,1.9768485,-0.12795064,-0.72156125,0.06314678,1.3108909,-0.8145722,0.35971144,1.5095713,-0.034367144,-0.20639801,0.4640649,1.2720822,1.0336826
0.1,-0.1,0.6,-0.5235987755982988,-0.5235987755982988,0,-1.7487743,1.9843271,-0.14491881,-0.72205174,0.057344697,1.3043067,-0.831095,0.32984522,1.514074,-0.026680643,-0.2205882,0.42559096,1.2786604,1.0579327
0.1,-0.1,0.6,-0.5235987755982988,-0.5235987755982988,0,-1.744587,1.9796174,-0.13156448,-0.7203316,0.09581867,1.309393,-0.78558505,0.39734632,1.5135669,-0.00407139,-0.19820349,0.42338014,1.2796915,1.4042372
0.1,-0.1,0.6,-0.5235987755982988,-0.5235987755982988,0,-1.7299343,1.9740888,-0.14484616,-0.72035253,0.06145992,1.3070989,-0.87182134,0.3647109,1.5090615,-0.03655181,-0.21586297,0.45256066,1.274366,0.9771
0.1,-0.1,0.6,-0.5235987755982988,-0.5235987755982988,0,-1.7506841,1.980659,-0.12844114,-0.7197561,0.07670854,1.3089201,-0.80350566,0.3909475,1.5229928,-0.014549421,-0.20566474,0.44750836,1.2822217,1.2590951
0.1,-0.1,0.6,-0.5235987755982988,-0.5235987755982988,0,-1.7826147,1.9808584,-0.13517572,-0.7301783,0.05207821,1.3064929,-0.8553695,0.3950298,1.5117521,-0.04234475,-0.20353644,0.38628566,1.2701612,1.5140103
0.1,-0.1,0.6,-0.5235987755982988,-0.5235987755982988,0,-1.7656521,1.9848561,-0.124900475,-0.7231296,0.10227316,1.3071556,-0.83303195,0.43214393,1.5093526,0.0063605774,-0.20996559,0.41011477,1.2787416,1.1179634
0.1,-0.1,0.6,-0.5235987755982988,-0.5235987755982988,0,-1.7392653,1.9767371,-0.14524336,-0.7293499,0.076468125,1.3119967,-0.8210569,0.42111802,1.5132715,0.013950888,-0.19567712,0.4421729,1.2734613,1.268986
0.1,-0.1,0.6,-0.5235987755982988,-0.5235987755982988,0,-1.7635834,1.9669532,-0.13609608,-0.72496057,0.09289393,1.3112826,-0.8102985,0.35060698,1.5078002,-0.033290748,-0.19974159,0.44107038,1.263789,1.1829841
0.1,-0.1,0.6,-0.5235987755982988,-0.5235987755982988,0,-1.7759895,1.9814885,-0.1300015,-0.7268287,0.06906111,1.310103,-0.8265599,0.4127085,1.5259801,-0.01116802,-0.2128624,0.43974453,1.2820164,1.1712623
0.1,-0.1,0.6,-0.5235987755982988,-0.5235987755982988,0,-1.757104,1.9718268,-0.1382727,-0.72223336,0.0555245,1.3084472,-0.850392,0.35938352,1.5144482,-0.022285018,-0.22009438,0.41174325,1.2782364,0.986724
0.1,-0.1,0.6,-0.5235987755982988,-0.5235987755982988,0,-1.7501009,1.9722033,-0.14770566,-0.7194444,0.08133533,1.3129449,-0.79490864,0.39616603,1.5068208,-0.043724097,-0.22135411,0.43162435,1.274768,1.0594627
0.1,-0.1,0.6,-0.5235987755982988,-0.5235987755982988,0,-1.7806352,1.9836767,-0.14551356,-0.7220731,0.07041804,1.3057845,-0.809086,0.32724866,1.5009419,0.00557921,-0.20897332,0.44296932,1.2886354,1.3175807
0.1,-0.1,0.6,-0.5235987755982988,-0.5235987755982988,0,-1.7382696,1.9828415,-0.11586986,-0.7203965,0.07391402,1.3118724,-0.77185524,0.36949298,1.5039912,-0.026029877,-0.22610661,0.41587344,1.2823895,1.1468989
0.1,-0.1,0.6,-0.5235987755982988,-0.5235987755982988,0,-1.7613201,1.9805318,-0.11445023,-0.7195795,0.08337472,1.3121622,-0.8137741,0.41709214,1.5174726,-0.013961913,-0.2293313,0.38950366,1.284292,1.0796152
0.1,-0.1,0.6,-0.5235987755982988,-0.5235987755982988,0,-1.7352849,1.9902287,-0.14557743,-0.7195175,0.11850994,1.308037,-0.8173618,0.37197402,1.5121326,-0.02627846,-0.19923349,0.46673262,1.2711791,1.1703247
0.1,-0.1,0.6,-0.5235987755982988,-0.5235987755982988,0,-1.7378622,1.9802476,-0.15453023,-0.7257093,0.04327618,1.3078438,-0.84185463,0.42742038,1.5117459,0.016833475,-0.20452559,0.41661575,1.2780195,1.310639
0.1,-0.1,0.6,-0.5235987755982988,-0.5235987755982988,0,-1.7489543,1.9747968,-0.14028259,-0.7206613,0.077044606,1.3126514,-0.7924826,0.39107612,1.5080246,0.0069963913,-0.22408973,0.40132025,1.2861246,1.1619816
0.1,-0.1,0.6,-0.5235987755982988,-0.5235987755982988,0,-1.7471598,1.9774957,-0.13495043,-0.7202934,0.03929359,1.3053576,-0.79805684,0.38749698,1.5142572,-0.03825548,-0.20008975,0.44733635,1.2824135,1.3145972
0.1,-0.1,0.6,-0.5235987755982988,-0.5235987755982988,0,-1.7441638,1.9804188,-0.16547595,-0.7211724,0.08511065,1.3060765,-0.89494544,0.3407536,1.5215862,0.017757166,-0.21141778,0.4460971,1.2791055,1.1853843
0.1,-0.1,0.6,-0.5235987755982988,-0.5235987755982988,0,-1.73207,1.9829804,-0.15310718,-0.7218414,0.07250597,1.3120012,-0.8116071,0.36058164,1.5202407,0.022171402,-0.20811549,0.3938543,1.2797935,1.2890438
0.1,-0.1,0.6,-0.5235987755982988,-0.5235987755982988,0,-1.7313066,1.9814364,-0.14877766,-0.7193343,0.07188391,1.308799,-0.8279797,0.3905197,1.5101366,-0.00057559076,-0.19871663,0.42264605,1.2578155,1.1832548
0.1,-0.1,0.6,-0.5235987755982988,-0.5235987755982988,0,-1.7604368,1.9839197,-0.12490066,-0.72338694,0.08411441,1.3088833,-0.8110341,0.34207582,1.5051459,-0.024772014,-0.20366764,0.4208981,1.271258,1.277864
0.1,-0.1,0.6,-0.5235987755982988,-0.5235987755982988,0,-1.772894,1.9829375,-0.1311396,-0.7211921,0.05042268,1.307824,-0.82424164,0.38009018,1.4999751,0.0008484625,-0.21497582,0.412884,1.2840377,0.95247585
0.1,-0.1,0.6,-0.5235987755982988,-0.5235987755982988,0,-1.7512046,1.9808627,-0.1377575,-0.72196186,0.0615934,1.3051243,-0.80733824,0.37931225,1.5066724,-0.005060078,-0.21911223,0.41518885,1.2847687,0.9623781
0.1,-0.1,0.6,-0.5235987755982988,-0.5235987755982988,0,-1.7691761,1.9771209,-0.1396256,-0.7196854,0.05718385,1.3126322,-0.80128074,0.40989706,1.5033754,0.0135429725,-0.21289517,0.41972047,1.2743528,1.0611426
0.1,-0.1,0.6,-0.5235987755982988,-0.5235987755982988,0,-1.7790762,1.9789952,-0.11868547,-0.7238643,0.052691475,1.3096259,-0.83996123,0.4073898,1.501343,0.00979982,-0.20208767,0.42787,1.268856,1.2163001
0.1,-0.1,0.6,-0.5235987755982988,-0.5235987755982988,0,-1.7418905,1.9746015,-0.123058245,-0.72562295,0.07577285,1.30808,-0.78590894,0.3702657,1.5195557,-0.05105378,-0.23025756,0.40065902,1.2930704,1.1904114
0.1,-0.1,0.6,-0.5235987755982988,-0.5235987755982988,0,-1.7424247,1.9817518,-0.11837686,-0.72162724,0.06468916,1.309326,-0.8123735,0.29541188,1.5197768,-0.019124461,-0.220208,0.41386807,1.2802,1.2938228
0.1,-0.1,0.6,-0.5235987755982988,-0.5235987755982988,0,-1.7493349,1.9688516,-0.115876265,-0.7211936,0.07687771,1.3098804,-0.84107924,0.36129597,1.5074035,-0.015419557,-0.1986055,0.46522814,1.2790238,1.2559719
0.1,-0.1,0.6,-0.5235987755982988,-0.5235987755982988,0,-1.7548239,1.9778463,-0.14558205,-0.71188194,0.07296381,1.3097494,-0.76037925,0.34085977,1.5106702,-0.012222652,-0.20753098,0.42364663,1.2662936,1.2096103
0.1,-0.1,0.6,-0.5235987755982988,-0.5235987755982988,0,-1.7741514,1.9757968,-0.12189931,-0.7277319,0.07211755,1.3103626,-0.83508134,0.40428394,1.5232908,-0.012335156,-0.2138252,0.4314631,1.2910467,1.2179546
0.1,-0.1,0.6,-0.5235987755982988,-0.5235987755982988,0,-1.7832592,1.9765096,-0.13398267,-0.72264934,0.07507835,1.3106098,-0.84339845,0.40255135,1.5104903,0.020797048,-0.22389479,0.4495929,1.2842605,1.0149993
0.1,-0.1,0.6,-0.5235987755982988,-0.5235987755982988,0,-1.7375104,1.9857627,-0.12882026,-0.7246638,0.086784296,1.3073093,-0.8805214,0.4228261,1.5186961,0.013818037,-0.20163442,0.43260846,1.2758414,1.3221881
0.1,-0.1,0.6,-0.5235987755982988,-0.5235987755982988,0,-1.7450982,1.9804798,-0.12525274,-0.7241449,0.10651327,1.3087763,-0.8523958,0.41755852,1.5126001,-0.02168379,-0.20820862,0.44742048,1.279007,1.0769672
0.1,-0.1,0.6,-0.5235987755982988,-0.5235987755982988,0,-1.7440366,1.9816263,-0.14683813,-0.72633743,0.071740426,1.3116122,-0.8191832,0.35431576,1.5041498,-0.047706272,-0.19601937,0.42535195,1.2700027,1.4107188
0.1,-0.1,0.6,-0.5235987755982988,-0.5235987755982988,0,-1.7530326,1.9858763,-0.15507081,-0.722553,0.064862646,1.3093628,-0.8031149,0.352817,1.5082109,-0.029104976,-0.20900808,0.43874776,1.2717892,1.184314
0.1,-0.1,0.6,-0.5235987755982988,-0.5235987755982988,0,-1.756287,1.9733083,-0.15502992,-0.7225394,0.08573452,1.3059248,-0.87496054,0.37763724,1.5169362,-0.025583655,-0.22359677,0.4210375,1.2775288,1.119823
0.1,-0.1,0.6,-0.5235987755982988,-0.5235987755982988,0,-1.7388757,1.9767292,-0.1447868,-0.7149798,0.085513994,1.3083606,-0.7892781,0.39773422,1.526002,-0.021913333,-0.19977118,0.46054628,1.2928212,0.99059474
0.1,-0.1,0.6,-0.5235987755982988,-0.5235987755982988,0,-1.71541,1.9941065,-0.15249993,-0.7237517,0.076072246,1.3092922,-0.84082586,0.3638615,1.5163156,0.0049478896,-0.20936398,0.42898908,1.277446,1.1909044
0.1,-0.1,0.6,-0.5235987755982988,-0.5235987755982988,0,-1.7433816,1.983538,-0.13636993,-0.7314,0.060034852,1.3102977,-0.8647728,0.37633213,1.5116152,-0.0085203,-0.19738735,0.44376165,1.2789533,1.3270152
0.1,-0.1,0.6,-0.5235987755982988,-0.5235987755982988,0,-1.7461424,1.9776748,-0.15578167,-0.7242573,0.05586368,1.3117144,-0.8158425,0.3198784,1.516614,-0.020677282,-0.21140574,0.4274302,1.2784675,1.2778758
0.1,-0.1,0.6,-0.5235987755982988,-0.5235987755982988,0,-1.7691182,1.9873061,-0.14377709,-0.7242187,0.09153102,1.3051357,-0.8667684,0.41132653,1.5228499,-0.018185973,-0.20923744,0.42182353,1.2812409,1.1915776
0.1,-0.1,0.6,-0.5235987755982988,-0.5235987755982988,0,-1.7613438,1.9829024,-0.1532253,-0.7177563,0.08334554,1.3056899,-0.8293031,0.38998073,1.5058705,-0.04769766,-0.20950355,0.41607365,1.2665278,1.2186947
0.1,-0.1,0.6,-0.5235987755982988,-0.5235987755982988,0,-1.7492584,1.9810276,-0.12294406,-0.7235214,0.064483546,1.3130095,-0.7965083,0.37686202,1.5249473,-0.038582876,-0.2050031,0.44700113,1.2718805,1.1333008
0.1,-0.1,0.6,-0.5235987755982988,-0.5235987755982988,0,-1.7522966,1.9840189,-0.1519105,-0.7225565,0.087983936,1.3067222,-0.81835634,0.37006143,1.5098668,-0.06334369,-0.21002269,0.45084062,1.2844502,1.2275025
0.1,-0.1,0.6,-0.5235987755982988,-0.5235987755982988,0,-1.7754488,1.9922404,-0.14213996,-0.71853703,0.07932191,1.3085399,-0.76840085,0.40901646,1.5176338,-0.025023283,-0.22165337,0.4295476,1.2947992,1.1911246
0.1,-0.1,0.6,-0.5235987755982988,-0.5235987755982988,0,-1.7691047,1.9843636,-0.1307894,-0.7224145,0.061237074,1.31054,-0.79397154,0.34041685,1.5258135,0.015615858,-0.21379532,0.4314532,1.2751763,1.0972488
0.1,-0.1,0.6,-0.5235987755982988,-0.5235987755982988,0,-1.7482318,1.9753506,-0.15268232,-0.7165574,0.07747655,1.3088591,-0.8187858,0.34235743,1.5109898,-0.03935392,-0.19233887,0.4503273,1.261044,1.4985452
0.1,-0.1,0.6,-0.5235987755982988,-0.5235987755982988,0,-1.7509052,1.9820167,-0.14263457,-0.7214429,0.07978675,1.3107339,-0.8414319,0.39087832,1.5216982,-0.008468445,-0.2203236,0.42067134,1.2850677,1.2094948
0.1,-0.1,0.6,-0.5235987755982988,-0.5235987755982988,0,-1.7261459,1.9793772,-0.15813471,-0.7254704,0.06590758,1.3072783,-0.8325762,0.36757588,1.5170599,0.012833169,-0.20922913,0.43221456,1.282306,1.1708053
0.1,-0.1,0.6,-0.5235987755982988,-0.5235987755982988,0,-1.7535073,1.9768662,-0.12994781,-0.71515,0.07597075,1.3077949,-0.8105211,0.37166253,1.507772,-0.0047714016,-0.21141343,0.41529262,1.2663734,1.2545733
0.1,-0.1,0.6,-0.5235987755982988,-0.5235987755982988,0,-1.7249919,1.9774667,-0.15359761,-0.717807,0.057138376,1.303636,-0.8479381,0.34446064,1.5139432,-0.036194175,-0.21761113,0.43028277,1.2768756,1.0920489
0.1,-0.1,0.6,-0.5235987755982988,-0.5235987755982988,0,-1.7382796,1.9846233,-0.1268877,-0.7179558,0.06771743,1.3067782,-0.80670106,0.3573734,1.5197152,-0.02593621,-0.21406002,0.41599393,1.2737892,1.0830395
0.1,-0.1,0.6,-0.5235987755982988,-0.5235987755982988,0,-1.739791,1.980294,-0.15271395,-0.71614724,0.06833652,1.3053877,-0.8017375,0.37707046,1.5066887,-0.013741867,-0.21349964,0.43767336,1.2767227,1.2144169
0.1,-0.1,0.6,-0.5235987755982988,-0.5235987755982988,0,-1.769732,1.9825474,-0.11995424,-0.7161638,0.06238596,1.3070865,-0.7931512,0.36987588,1.5010818,-0.005329937,-0.2081202,0.451996,1.2772316,1.1126649
0.1,-0.1,0.6,-0.5235987755982988,-0.5235987755982988,0,-1.7534412,1.9732949,-0.14126568,-0.717992,0.080003664,1.310482,-0.8004414,0.40221873,1.5093932,0.010592262,-0.20905915,0.40295306,1.2796216,1.2377409
0.1,-0.1,0.6,-0.5235987755982988,-0.5235987755982988,0,-1.745171,1.9785584,-0.1430017,-0.71423256,0.102782294,1.3087989,-0.7641676,0.39153832,1.5053196,0.0050307107,-0.2126521,0.3986326,1.2730224,1.1303924
0.1,-0.1,0.6,-0.5235987755982988,-0.5235987755982988,0,-1.743998,1.9776932,-0.15325981,-0.7173578,0.042142883,1.3090777,-0.77949816,0.35318094,1.5093269,0.013199016,-0.22573501,0.41879156,1.2896068,1.2568575
0.1,-0.1,0.6,-0.5235987755982988,-0.5235987755982988,0,-1.7354012,1.9914938,-0.13081147,-0.7247233,0.08272644,1.3093392,-0.82470554,0.3745643,1.5159894,-0.01960561,-0.21385878,0.4084983,1.271465,1.0991334
0.1,-0.1,0.6,-0.5235987755982988,-0.5235987755982988,0,-1.7844039,1.9719144,-0.14101216,-0.72331387,0.07285798,1.3092133,-0.8271993,0.44412297,1.5122322,-0.011503704,-0.20721616,0.40303597,1.268521,1.0907912
0.1,-0.1,0.6,-0.5235987755982988,-0.5235987755982988,0,-1.7699609,1.989832,-0.14331485,-0.72074544,0.08164761,1.3091915,-0.8259165,0.41492328,1.5139143,-0.0016308211,-0.19014296,0.44928503,1.2701874,1.3569006
0.1,-0.1,0.6,-0.5235987755982988,-0.5235987755982988,0,-1.7822129,1.9668894,-0.13128631,-0.71312135,0.10119521,1.306823,-0.7823658,0.3641749,1.5163702,-0.013005907,-0.21435001,0.42439222,1.2793045,1.1483047
0.1,-0.1,0.6,-0.5235987755982988,-0.5235987755982988,0,-1.7638495,1.9813615,-0.13298921,-0.7165519,0.086572796,1.3089322,-0.8308941,0.36080736,1.503893,-0.037488893,-0.21139172,0.43354926,1.2695932,1.0344509
0.1,-0.1,0.6,-0.5235987755982988,-0.5235987755982988,0,-1.7596176,1.9796437,-0.13143964,-0.7176244,0.068561204,1.3068892,-0.82108885,0.32013535,1.5128133,-0.009669176,-0.21663891,0.4091528,1.2753497,1.0907321
0.1,-0.1,0.6,-0.5235987755982988,-0.5235987755982988,0,-1.7666839,1.9859071,-0.12807788,-0.7161176,0.071799025,1.3072685,-0.8490611,0.37306806,1.5121619,-0.052642345,-0.21846174,0.42969644,1.2801361,1.2361324
0.1,-0.1,0.6,-0.5235987755982988,-0.5235987755982988,0,-1.7551532,1.975803,-0.15598859,-0.723736,0.08220253,1.309265,-0.87782985,0.3719701,1.5163985,0.004695228,-0.22690435,0.41915837,1.2876307,1.0512245
0.1,-0.1,0.6,-0.5235987755982988,-0.5235987755982988,0,-1.7512797,1.9883119,-0.1469455,-0.7170021,0.051388066,1.3081027,-0.79873174,0.3747269,1.5089219,-0.004647377,-0.20846319,0.41805044,1.273344,1.2298054
0.1,-0.1,0.6,-0.5235987755982988,-0.5235987755982988,0,-1.7400885,1.9875051,-0.13729335,-0.7210904,0.06406321,1.3065296,-0.83831865,0.38218108,1.5062102,-0.048083864,-0.21022901,0.45011976,1.2781672,1.1891085
0.1,-0.1,0.6,-0.5235987755982988,-0.5235987755982988,0,-1.7366483,1.9892327,-0.13661675,-0.7221214,0.06765199,1.3106374,-0.8273614,0.3888877,1.5081842,-0.03070825,-0.20035203,0.45243725,1.2706589,1.191741
0.1,-0.1,0.6,-0.5235987755982988,-0.5235987755982988,0,-1.7350341,1.9791236,-0.16987757,-0.72255343,0.08192855,1.3070544,-0.82334423,0.38541016,1.5125107,-0.033967383,-0.21318035,0.4637515,1.2930231,1.1692207
0.1,-0.1,0.6,-0.5235987755982988,-0.5235987755982988,0,-1.7506878,1.9845058,-0.14146996,-0.72240496,0.06255938,1.3114384,-0.83708453,0.3592897,1.5094,-0.0065993257,-0.21850745,0.43707842,1.2784402,1.0722556
0.1,-0.1,0.6,-0.5235987755982988,-0.5235987755982988,0,-1.7380697,1.9775732,-0.15429585,-0.7268602,0.0668934,1.3107198,-0.8450758,0.41427472,1.5044562,-0.017307533,-0.21992265,0.38425994,1.2760136,1.2143652
0.1,-0.1,0.6,-0.5235987755982988,-0.5235987755982988,0,-1.7663002,1.9780085,-0.13075075,-0.7240761,0.05701491,1.3101526,-0.8206314,0.36198145,1.5063173,-0.027779412,-0.22035877,0.4193685,1.2800931,1.136522
0.1,-0.1,0.6,-0.5235987755982988,-0.5235987755982988,0,-1.7430011,1.9777907,-0.15066132,-0.7158812,0.057651684,1.3064442,-0.8133822,0.38523746,1.5156411,-0.009813425,-0.2078526,0.45338735,1.2705319,1.2359921
0.1,-0.1,0.6,-0.5235987755982988,-0.5235987755982988,0,-1.7527847,1.9900041,-0.13640557,-0.7226156,0.050404407,1.3112729,-0.8354652,0.37662473,1.5077144,-0.05248804,-0.20005825,0.41393206,1.261198,1.3600953
0.1,-0.1,0.6,-0.5235987755982988,-0.5235987755982988,0,-1.7740501,1.9787215,-0.15035556,-0.72313154,0.08898206,1.3112661,-0.86521477,0.35431817,1.5010865,0.008480538,-0.19612724,0.44173193,1.2883043,1.4752753
0.1,-0.1,0.6,-0.5235987755982988,-0.5235987755982988,0,-1.7392946,1.9828347,-0.13182485,-0.71671224,0.06479068,1.3079396,-0.82669497,0.4025227,1.5114247,0.018170288,-0.17899647,0.44355962,1.2705096,1.0270438
0.1,-0.1,0.6,-0.5235987755982988,-0.5235987755982988,0,-1.7581118,1.9854778,-0.1469123,-0.7153147,0.07677086,1.3075142,-0.7958276,0.39998072,1.5048525,-0.047174092,-0.2165572,0.4310873,1.2885277,1.2864647
0.1,-0.1,0.6,-0.5235987755982988,-0.5235987755982988,0,-1.7382853,1.984622,-0.13949288,-0.72611225,0.08189898,1.3092571,-0.88042974,0.37013963,1.5086541,-0.0056345537,-0.20861143,0.40014586,1.2675605,1.1591883
0.1,-0.1,0.6,-0.5235987755982988,-0.5235987755982988,0,-1.7300031,1.981829,-0.15082298,-0.72123367,0.054187007,1.3085054,-0.82342166,0.38787875,1.515604,0.007809939,-0.21443984,0.43007866,1.2891513,1.2064288
0.1,-0.1,0.6,-0.5235987755982988,-0.5235987755982988,0,-1.7564905,1.9759443,-0.14208291,-0.7190823,0.049973786,1.3091369,-0.8182038,0.39667556,1.5125403,0.014404274,-0.21462467,0.4372466,1.2868259,1.1975266
0.1,-0.1,0.6,-0.5235987755982988,-0.5235987755982988,0,-1.7326372,1.9737784,-0.14843404,-0.71731436,0.0841245,1.3056322,-0.8561538,0.3974163,1.5031701,-0.030526873,-0.21291623,0.41060802,1.2707899,1.0032629
0.1,-0.1,0.6,-0.5235987755982988,-0.5235987755982988,0,-1.7512194,1.9668776,-0.12755112,-0.7201371,0.081967875,1.3130331,-0.8385127,0.41154948,1.5072412,-0.03735161,-0.1955918,0.4437303,1.2799063,1.4606605
0.1,-0.1,0.6,-0.5235987755982988,-0.5235987755982988,0,-1.7738342,1.9702195,-0.14995556,-0.7193421,0.08098865,1.3092903,-0.83987254,0.3822741,1.5024339,-0.02038802,-0.21471569,0.4414619,1.279678,1.2015858
0.1,-0.1,0.6,-0.5235987755982988,-0.5235987755982988,0,-1.7583805,1.9783654,-0.15194796,-0.7227933,0.06685334,1.3113956,-0.8151976,0.3232455,1.5218794,-0.029554619,-0.20677781,0.4135825,1.2641219,1.2064371
0.1,-0.1,0.6,-0.5235987755982988,-0.5235987755982988,0,-1.7500304,1.9884984,-0.113119476,-0.7200555,0.06486245,1.3083608,-0.7991683,0.38689077,1.5115708,-0.026931653,-0.18538849,0.47544044,1.2751514,1.337424
0.1,-0.1,0.6,-0.5235987755982988,-0.5235987755982988,0,-1.7424511,1.9791071,-0.14623019,-0.7213809,0.05333023,1.3031341,-0.86305237,0.38382447,1.5131226,0.0042299367,-0.21609534,0.45550042,1.2860773,1.0579318
0.1,-0.1,0.6,-0.5235987755982988,-0.5235987755982988,0,-1.7389537,1.9733461,-0.14112113,-0.7136995,0.066813156,1.3093287,-0.81312835,0.40138823,1.5212309,-0.0064201457,-0.22920635,0.40807283,1.2849617,1.1566753
0.1,-0.1,0.6,-0.5235987755982988,-0.5235987755982988,0,-1.7534913,1.9724995,-0.13995475,-0.72047806,0.058319714,1.3104725,-0.8591172,0.37691072,1.5161707,-0.04535485,-0.21455537,0.40476137,1.2821159,0.9069033
0.1,-0.1,0.6,-0.5235987755982988,-0.5235987755982988,0,-1.7329102,1.9887086,-0.17290482,-0.7223898,0.062889464,1.3124394,-0.8336297,0.35535765,1.5089307,-0.06099576,-0.20666365,0.44565976,1.2721109,1.2337146
0.1,-0.1,0.6,-0.5235987755982988,-0.5235987755982988,0,-1.7734102,1.9759774,-0.15598652,-0.71987766,0.07293802,1.3083177,-0.79668796,0.37108326,1.5222945,-0.025470776,-0.21728359,0.4329642,1.2888842,1.2776284
0.1,-0.1,0.6,-0.5235987755982988,-0.5235987755982988,0,-1.74885,1.9894344,-0.13163032,-0.71752137,0.09118428,1.3059437,-0.84254205,0.3835478,1.5109152,-0.0061777546,-0.21115682,0.41151017,1.2754169,1.2107487
0.1,-0.1,0.6,-0.5235987755982988,-0.5235987755982988,0,-1.7747307,1.9751974,-0.11817424,-0.7225252,0.07934725,1.3119941,-0.8089233,0.37661538,1.5085433,-0.01846714,-0.1990338,0.4482692,1.2852565,1.3441653
0.1,-0.1,0.6,-0.5235987755982988,-0.5235987755982988,0,-1.7809645,1.9845008,-0.14333521,-0.71752155,0.06699097,1.3082191,-0.8198469,0.31954256,1.5082343,-0.028821297,-0.21319425,0.44948795,1.2715628,1.035526
0.1,-0.1,0.6,-0.5235987755982988,-0.5235987755982988,0,-1.7618694,1.9863178,-0.13735323,-0.72340554,0.06987363,1.3077284,-0.8614293,0.36623803,1.5198292,0.017897466,-0.21829645,0.38775465,1.2737969,1.1929517
0.1,-0.1,0.6,-0.5235987755982988,-0.5235987755982988,0,-1.6971513,1.9757873,-0.15269254,-0.7187799,0.08222001,1.3119936,-0.7997873,0.3983096,1.5155888,-0.025498644,-0.18995976,0.48385042,1.276054,1.2522069
0.1,-0.1,0.6,-0.5235987755982988,-0.5235987755982988,0,-1.7351294,1.9899298,-0.124964096,-0.72473323,0.06640127,1.312333,-0.84039265,0.3667489,1.5138693,-0.025097262,-0.20206188,0.4422237,1.2662311,1.1115313
0.1,-0.1,0.6,-0.5235987755982988,-0.5235987755982988,0,-1.7555543,1.9850386,-0.14616115,-0.71741414,0.086596556,1.3070233,-0.8495982,0.41431814,1.5011381,-0.014782473,-0.20547152,0.42303354,1.2754408,1.1673017
0.1,-0.1,0.6,-0.5235987755982988,-0.5235987755982988,0,-1.7319224,1.9874239,-0.12174173,-0.7249991,0.0711738,1.308665,-0.86832196,0.3591766,1.5105066,-0.045710646,-0.20695458,0.46051982,1.2802335,1.1572088
0.1,-0.1,0.6,-0.5235987755982988,-0.5235987755982988,0,-1.7547388,1.9820951,-0.14506282,-0.7192885,0.08827737,1.3062181,-0.8648973,0.35331383,1.5115607,-0.020200111,-0.21238823,0.4284416,1.273356,1.1190592
0.1,-0.1,0.6,-0.5235987755982988,-0.5235987755982988,0,-1.7501454,1.9830859,-0.13592833,-0.721556,0.07851279,1.3079325,-0.85706335,0.42182902,1.5077999,-0.00927593,-0.20664033,0.4323451,1.279199,1.1088446
0.1,-0.1,0.6,-0.5235987755982988,-0.5235987755982988,0,-1.753725,1.9837456,-0.12845097,-0.72426665,0.081206,1.3102216,-0.8752157,0.3730247,1.5118668,-0.024422374,-0.20769815,0.43615627,1.2750134,1.1032575
0.1,-0.1,0.6,-0.5235987755982988,-0.5235987755982988,0,-1.7489401,1.9824256,-0.1498117,-0.71025205,0.05657254,1.305819,-0.82842743,0.3711868,1.5167282,-0.011969045,-0.22595008,0.43915668,1.2872878,1.0391291
0.1,-0.1,0.6,-0.5235987755982988,-0.5235987755982988,0,-1.7736197,1.974152,-0.13510643,-0.7181688,0.075868234,1.3097386,-0.8614218,0.39713198,1.5081173,-0.057091914,-0.20560667,0.42885464,1.2752432,1.2906115
0.1,-0.1,0.6,-0.5235987755982988,-0.5235987755982988,0,-1.7344824,1.9805524,-0.1553431,-0.7186897,0.047594372,1.3118291,-0.83486885,0.42293903,1.5174739,-0.03475927,-0.21189696,0.43370235,1.2803001,1.2835346
0.1,-0.1,0.6,-0.5235987755982988,-0.5235987755982988,0,-1.7283568,1.9772798,-0.122432195,-0.71750045,0.08619298,1.3100429,-0.8518034,0.4077489,1.5012206,-0.04275249,-0.19097118,0.46081716,1.2750207,1.2452142
0.1,-0.1,0.6,-0.5235987755982988,-0.5235987755982988,0,-1.7350595,1.9781399,-0.13357762,-0.71793735,0.053579547,1.3111795,-0.8707759,0.38138697,1.5113796,-0.0215184,-0.20715636,0.419136,1.2850785,1.3656014
0.1,-0.1,0.6,-0.5235987755982988,-0.5235987755982988,0,-1.7244608,1.980637,-0.14111751,-0.7166075,0.07136382,1.3099711,-0.84449583,0.37306497,1.5072832,-0.048797607,-0.317508,0.422676,1.2643627,1.1700677
0.1,-0.1,0.6,-0.5235987755982988,-0.5235987755982988,0,-1.75349,1.9735377,-0.13520338,-0.71888846,0.096143946,1.3053917,-0.8018826,0.32671103,1.5131925,0.0013978012,-0.32231432,0.42508546,1.279289,1.289541
0.1,-0.1,0.6,-0.5235987755982988,-0.5235987755982988,0,-1.7482369,1.9807167,-0.13802178,-0.72251505,0.08101551,1.3031483,-0.7346331,0.40772477,1.5021063,-0.028976358,-0.20023417,0.46748218,1.2722495,1.2287465
0.1,-0.1,0.6,-0.5235987755982988,-0.5235987755982988,0,-1.7594535,1.982722,-0.15079968,-0.7227463,0.07598836,1.3042783,-0.77896893,0.36935052,1.5139353,0.0072106407,-0.22900672,0.40101793,1.2800053,1.1322075
0.1,-0.1,0.6,-0.5235987755982988,-0.5235987755982988,0,-1.734252,1.9862511,-0.12346999,-0.72429895,0.06937757,1.306429,-0.7927215,0.4038408,1.5095104,-0.004593331,-0.2253094,0.42680958,1.2791054,1.2563992
0.1,-0.1,0.6,-0.5235987755982988,-0.5235987755982988,0,-1.7499489,1.9839461,-0.14270519,-0.7253398,0.0663602,1.3073766,-0.804799,0.3611354,1.5024768,0.006281935,-0.22669743,0.45081872,1.2663847,1.2622937
0.1,-0.1,0.6,-0.5235987755982988,-0.5235987755982988,0,-1.7217273,1.9850324,-0.15934035,-0.7241849,0.06831678,1.3062797,-0.82007015,0.3890774,1.5127972,-0.030632822,-0.22744277,0.435218,1.2842296,1.1993805
0.1,-0.1,0.6,-0.5235987755982988,-0.5235987755982988,0,-1.7472717,1.9811378,-0.12289915,-0.7248768,0.08431981,1.307627,-0.89627784,0.3897993,1.5140216,-0.055509772,-0.20973359,0.42760357,1.2673988,0.9874624
0.1,-0.1,0.6,-0.5235987755982988,-0.5235987755982988,0,-1.75439,1.9815403,-0.13737828,-0.72142315,0.07335887,1.3091402,-0.8250912,0.3654935,1.5145929,0.011257881,-0.22907528,0.3974031,1.2808989,1.1405648
0.1,-0.1,0.6,-0.5235987755982988,-0.5235987755982988,0,-1.7606171,1.9814053,-0.14515123,-0.7183955,0.118731305,1.3107251,-0.847987,0.3737691,1.503458,-0.049847115,-0.22726989,0.4121118,1.2796148,1.1276844
0.1,-0.1,0.6,-0.5235987755982988,-0.5235987755982988,0,-1.749721,1.9807885,-0.14835744,-0.7219128,0.10150673,1.3096201,-0.8053996,0.44455475,1.519152,-0.017411955,-0.20624708,0.45981067,1.2849345,1.2477205
0.1,-0.1,0.6,-0.5235987755982988,-0.5235987755982988,0,-1.7555356,1.9856882,-0.13433479,-0.72068536,0.10630067,1.3073711,-0.82713604,0.37445763,1.5053246,-0.026285306,-0.20378302,0.42548218,1.2757398,1.3214749
0.1,-0.1,0.6,-0.5235987755982988,-0.5235987755982988,0,-1.7759901,1.977375,-0.13793942,-0.7221424,0.06468865,1.3095064,-0.81633574,0.36381537,1.5099761,-0.029839832,-0.20934972,0.43881157,1.2672812,1.0934645
0.1,-0.1,0.6,-0.5235987755982988,-0.5235987755982988,0,-1.7523081,1.992841,-0.14107831,-0.72789764,0.08000642,1.3092892,-0.85707444,0.37222803,1.5162711,0.003444835,-0.2251661,0.3957113,1.2629945,1.1089664
0.1,-0.1,0.6,-0.5235987755982988,-0.5235987755982988,0,-1.7701705,1.9822454,-0.13445126,-0.72538036,0.06966128,1.3080626,-0.81909555,0.36542666,1.511612,-0.06175181,-0.22338215,0.42462972,1.2756011,1.0306717
