sanky1234/BimanualDexCatch/isaacgymenvs/cem_results/football_pose_0.1_0.0_0.6_-0.5235987755982988_0.0_0_2025-05-26.csv
x,y,z,roll,pitch,yaw,robot1/joint1,robot1/joint2,robot1/joint3,robot1/joint4,robot1/joint5,robot1/joint6,robot1/joint7,robot2/joint1,robot2/joint2,robot2/joint3,robot2/joint4,robot2/joint5,robot2/joint6,robot2/joint7
0.1,0.0,0.6,-0.5235987755982988,0.0,0,-0.5798173,1.8575886,-0.18820387,-0.6124931,-0.17964062,1.4045422,-0.82576835,0.58016175,1.484216,0.05838325,-0.29500946,-0.015140372,1.2120692,0.48947105
0.1,0.0,0.6,-0.5235987755982988,0.0,0,-0.5748449,1.8550376,-0.18794318,-0.60852605,-0.18775,1.4044343,-0.8511548,0.57542706,1.4763944,0.040921636,-0.28435922,-0.0064255986,1.2098043,0.49203476
0.1,0.0,0.6,-0.5235987755982988,0.0,0,-0.58220714,1.8590032,-0.18089454,-0.60685855,-0.1835097,1.3954102,-0.8834706,0.58267844,1.4660118,0.051989492,-0.29364306,-0.0030248938,1.215017,0.46648997
0.1,0.0,0.6,-0.5235987755982988,0.0,0,-0.56684375,1.8528283,-0.1895774,-0.60970837,-0.1932714,1.4096099,-0.906239,0.5777864,1.483007,0.044157866,-0.29470307,-0.012936089,1.224809,0.5187814
0.1,0.0,0.6,-0.5235987755982988,0.0,0,-0.5672562,1.8547355,-0.19112961,-0.60602576,-0.17656997,1.3930653,-0.8530555,0.58584654,1.4700067,0.04193614,-0.27980423,-0.022944221,1.2191386,0.56221086
0.1,0.0,0.6,-0.5235987755982988,0.0,0,-0.5782978,1.8597587,-0.19626665,-0.61382025,-0.18431571,1.4012027,-0.86166596,0.56244564,1.4758836,0.048217032,-0.28595078,0.00032472526,1.2084002,0.4936782
0.1,0.0,0.6,-0.5235987755982988,0.0,0,-0.5785639,1.8566856,-0.1916506,-0.61353135,-0.16723329,1.4005146,-0.8780794,0.575124,1.4724269,0.042388678,-0.2834341,-0.004245109,1.2189021,0.6559151
0.1,0.0,0.6,-0.5235987755982988,0.0,0,-0.56566703,1.8598262,-0.19694427,-0.61259675,-0.17360736,1.3981616,-0.9367335,0.5872929,1.4755417,0.05135211,-0.28319898,-0.019515293,1.2044052,0.636978
0.1,0.0,0.6,-0.5235987755982988,0.0,0,-0.5631661,1.8579607,-0.19131023,-0.61573714,-0.19049983,1.4063758,-0.8347298,0.56756675,1.4737723,0.057095088,-0.29696652,-0.00015895735,1.2229558,0.50916386
0.1,0.0,0.6,-0.5235987755982988,0.0,0,-0.5738217,1.8525054,-0.18879585,-0.6036123,-0.17982565,1.3948821,-0.85482347,0.588274,1.4771695,0.04391791,-0.29204974,0.00042306082,1.2169513,0.4690573
0.1,0.0,0.6,-0.5235987755982988,0.0,0,-0.57968473,1.8545656,-0.19461349,-0.6146259,-0.16740961,1.3961755,-0.8463504,0.5942224,1.4770635,0.056320596,-0.28672862,-0.02902512,1.2111913,0.5645701
0.1,0.0,0.6,-0.5235987755982988,0.0,0,-0.5864917,1.8579748,-0.19787054,-0.6165023,-0.17870267,1.4073457,-0.84102035,0.5544815,1.4933604,0.052567862,-0.28401512,-0.027856998,1.2191539,0.56624585
0.1,0.0,0.6,-0.5235987755982988,0.0,0,-0.5842019,1.8599544,-0.19031364,-0.6102493,-0.19203362,1.4010489,-0.91144633,0.5874525,1.4705178,0.050420575,-0.29136816,-0.01325445,1.215115,0.60275424
0.1,0.0,0.6,-0.5235987755982988,0.0,0,-0.56238073,1.8509771,-0.19910003,-0.609473,-0.19144219,1.4043518,-0.86063373,0.5883081,1.4854754,0.046041355,-0.2947503,-0.0074744765,1.2244031,0.4412305
0.1,0.0,0.6,-0.5235987755982988,0.0,0,-0.5611559,1.8624508,-0.18417412,-0.6086474,-0.18088484,1.3964399,-0.82051265,0.5857717,1.4692531,0.05628154,-0.28830397,-1.6744954e-05,1.2073984,0.4870827
0.1,0.0,0.6,-0.5235987755982988,0.0,0,-0.56542224,1.8549914,-0.19300449,-0.61130595,-0.17004195,1.3971121,-0.79480815,0.57228076,1.4741397,0.06557746,-0.2909876,-0.00802111,1.2160419,0.53999597
0.1,0.0,0.6,-0.5235987755982988,0.0,0,-0.5700275,1.8578769,-0.19091053,-0.6133387,-0.17395155,1.4067777,-0.8628833,0.58015627,1.4764026,0.04979904,-0.3017918,0.0061762086,1.219227,0.6206977
0.1,0.0,0.6,-0.5235987755982988,0.0,0,-0.5673827,1.8555769,-0.18313941,-0.61495465,-0.19465569,1.3990777,-0.78206253,0.5763128,1.4741969,0.041090906,-0.30124024,-0.008277378,1.220843,0.24789105
0.1,0.0,0.6,-0.5235987755982988,0.0,0,-0.57938385,1.8542048,-0.19296645,-0.6158169,-0.18275459,1.4041619,-0.93524253,0.591419,1.4797522,0.04499158,-0.28675276,-0.013010217,1.2118552,0.44663432
0.1,0.0,0.6,-0.5235987755982988,0.0,0,-0.5737735,1.8525182,-0.19449665,-0.6100782,-0.1827787,1.4064181,-0.79775524,0.5899616,1.4793997,0.04728763,-0.2888221,-0.014341048,1.2204627,0.6370417
0.1,0.0,0.6,-0.5235987755982988,0.0,0,-0.5634163,1.8560008,-0.19005078,-0.6117753,-0.18706582,1.4066297,-0.8297466,0.58138,1.4734353,0.055389002,-0.29256177,-0.020156628,1.2151524,0.50492656
0.1,0.0,0.6,-0.5235987755982988,0.0,0,-0.56467146,1.8580807,-0.1858685,-0.6101539,-0.17879198,1.3967004,-0.8162658,0.5969225,1.4907103,0.046712168,-0.29532316,-0.009758608,1.2208928,0.47094366
0.1,0.0,0.6,-0.5235987755982988,0.0,0,-0.5707365,1.8581322,-0.19094911,-0.6064056,-0.18724991,1.3961431,-0.8519611,0.58283985,1.4711188,0.050455783,-0.29566488,0.00027689757,1.218724,0.46453658
0.1,0.0,0.6,-0.5235987755982988,0.0,0,-0.56365764,1.8568316,-0.19210325,-0.60971886,-0.20050107,1.4031258,-0.85048866,0.5973779,1.4789826,0.04817558,-0.2845259,-0.009896202,1.206525,0.42133427
0.1,0.0,0.6,-0.5235987755982988,0.0,0,-0.577081,1.8568668,-0.19245256,-0.6165821,-0.17192094,1.4069792,-0.86790293,0.59155494,1.4615241,0.050010446,-0.29308742,-0.0053840056,1.217112,0.3763855
0.1,0.0,0.6,-0.5235987755982988,0.0,0,-0.5640008,1.8571485,-0.19442901,-0.60848874,-0.17623812,1.4073721,-0.86191386,0.57088923,1.460389,0.051849477,-0.28906947,0.009202881,1.2179383,0.49367043
0.1,0.0,0.6,-0.5235987755982988,0.0,0,-0.57303953,1.8571734,-0.19648571,-0.60774994,-0.19622973,1.3971611,-0.81785774,0.57998973,1.471489,0.054393522,-0.28827658,-0.016282804,1.2189796,0.5468304
0.1,0.0,0.6,-0.5235987755982988,0.0,0,-0.5618179,1.8583813,-0.18400793,-0.60860246,-0.17635119,1.3952539,-0.6951154,0.58427626,1.4803541,0.046989143,-0.28972477,-0.0031970958,1.2176621,0.3973288
0.1,0.0,0.6,-0.5235987755982988,0.0,0,-0.5862599,1.8597974,-0.18616481,-0.6140409,-0.17917845,1.3988603,-0.83877647,0.58603823,1.471874,0.055411227,-0.29449248,-0.0034488074,1.2165695,0.64283377
0.1,0.0,0.6,-0.5235987755982988,0.0,0,-0.55944467,1.8618206,-0.19264182,-0.6163596,-0.19778028,1.39926,-0.82729006,0.5820525,1.4751705,0.049249403,-0.28932178,-0.0007719124,1.2194883,0.5280805
0.1,0.0,0.6,-0.5235987755982988,0.0,0,-0.58472073,1.8580747,-0.19337857,-0.61385524,-0.18348154,1.4025915,-0.8338655,0.575215,1.4612361,0.053698912,-0.29435247,0.003147495,1.2207121,0.59303564
0.1,0.0,0.6,-0.5235987755982988,0.0,0,-0.5702968,1.8544968,-0.19437201,-0.6138143,-0.18056606,1.4090849,-0.8206912,0.58153594,1.475007,0.0529884,-0.29794633,0.0066914214,1.2146795,0.57452184
0.1,0.0,0.6,-0.5235987755982988,0.0,0,-0.5786909,1.8613887,-0.19461949,-0.6105707,-0.19355753,1.3954761,-0.9340108,0.5738906,1.4854194,0.050262183,-0.2783704,-0.034764953,1.2056836,0.5536876
0.1,0.0,0.6,-0.5235987755982988,0.0,0,-0.5798586,1.8600135,-0.20474009,-0.6155257,-0.16709383,1.407466,-0.79438376,0.5738388,1.4749752,0.050120093,-0.29311943,0.0054357448,1.2238079,0.48454338
0.1,0.0,0.6,-0.5235987755982988,0.0,0,-0.5668799,1.8553569,-0.19163206,-0.6090905,-0.18076684,1.3966163,-0.84248996,0.5747237,1.4799854,0.05470184,-0.2935139,0.02230978,1.2063521,0.534089
0.1,0.0,0.6,-0.5235987755982988,0.0,0,-0.57285166,1.8588731,-0.19578448,-0.61020446,-0.1941553,1.3964518,-0.79054785,0.5853065,1.4754132,0.053796235,-0.29767266,0.002135895,1.2198561,0.62409085
0.1,0.0,0.6,-0.5235987755982988,0.0,0,-0.5724004,1.851823,-0.20026335,-0.60993934,-0.18010831,1.3965088,-0.85836554,0.5815583,1.4843125,0.0469295,-0.28396267,0.00039967842,1.2114552,0.5791432
0.1,0.0,0.6,-0.5235987755982988,0.0,0,-0.56057435,1.8584142,-0.19328433,-0.6072358,-0.17926317,1.4089699,-0.93290406,0.573678,1.4743366,0.05442982,-0.29329765,-0.018774178,1.2212931,0.8220831
0.1,0.0,0.6,-0.5235987755982988,0.0,0,-0.58360726,1.8568256,-0.20078866,-0.61615044,-0.17139271,1.4048525,-0.85673517,0.57021874,1.4661498,0.055733774,-0.31111684,-0.015580794,1.2158877,0.8994611
0.1,0.0,0.6,-0.5235987755982988,0.0,0,-0.5801322,1.8574648,-0.18272714,-0.60831606,-0.17985965,1.398575,-0.89202404,0.5803467,1.4748893,0.05122942,-0.2918709,0.0056404728,1.2141938,0.65391064
0.1,0.0,0.6,-0.5235987755982988,0.0,0,-0.562224,1.8606431,-0.19544064,-0.6164882,-0.17320414,1.4150949,-0.8383592,0.5812041,1.4841348,0.049686287,-0.2923527,3.986709e-06,1.2184252,0.6339392
0.1,0.0,0.6,-0.5235987755982988,0.0,0,-0.58925456,1.8540169,-0.19850697,-0.613995,-0.19512765,1.4065543,-0.841643,0.58409035,1.4806644,0.049783338,-0.2952804,-0.0014454148,1.2131397,0.6397893
0.1,0.0,0.6,-0.5235987755982988,0.0,0,-0.567298,1.8557905,-0.18078686,-0.6124391,-0.18509333,1.4008887,-0.8410561,0.57554483,1.4839784,0.047913678,-0.29132846,0.0021341022,1.2220243,0.5847765
0.1,0.0,0.6,-0.5235987755982988,0.0,0,-0.5768757,1.8562374,-0.19413048,-0.61208636,-0.18480955,1.3993733,-0.8504392,0.5805934,1.4774648,0.052169565,-0.29141223,-0.009237075,1.2117412,0.5685553
0.1,0.0,0.6,-0.5235987755982988,0.0,0,-0.5873638,1.8578959,-0.19019917,-0.6104819,-0.18577129,1.4016144,-0.82471865,0.58420426,1.4718866,0.05061974,-0.28893867,-0.022064796,1.2132498,0.45338053
0.1,0.0,0.6,-0.5235987755982988,0.0,0,-0.56900585,1.857811,-0.18662448,-0.61757606,-0.17966005,1.4040437,-0.7888573,0.5908213,1.4771793,0.053446185,-0.29746,-0.0012306116,1.2168683,0.38831055
0.1,0.0,0.6,-0.5235987755982988,0.0,0,-0.56630856,1.8546754,-0.19089359,-0.60743237,-0.19109145,1.4045202,-0.8364445,0.57335263,1.4605237,0.055047654,-0.2873664,-0.01869057,1.2189226,0.5851777
0.1,0.0,0.6,-0.5235987755982988,0.0,0,-0.5661411,1.8623381,-0.18898226,-0.61217463,-0.18679984,1.393053,-0.92386276,0.5976681,1.4747651,0.05263857,-0.2875124,0.002282364,1.2150931,0.6389
0.1,0.0,0.6,-0.5235987755982988,0.0,0,-0.5699847,1.8544276,-0.19242036,-0.61124265,-0.19731538,1.4040129,-0.81062037,0.5774982,1.4867619,0.04866283,-0.29216745,-0.010639553,1.2223,0.41698548
0.1,0.0,0.6,-0.5235987755982988,0.0,0,-0.58769053,1.8559297,-0.18545118,-0.6112633,-0.17777887,1.3997927,-0.8344012,0.58182436,1.4745508,0.047719907,-0.2869056,-0.023826897,1.2241145,0.5327642
0.1,0.0,0.6,-0.5235987755982988,0.0,0,-0.55145854,1.8574002,-0.18634932,-0.610005,-0.19726932,1.4024096,-0.85395604,0.5864926,1.477839,0.052492224,-0.28481764,-0.01030245,1.215418,0.4432675
0.1,0.0,0.6,-0.5235987755982988,0.0,0,-0.5594147,1.8559945,-0.1891228,-0.6137162,-0.17465009,1.3982333,-0.86424845,0.5760675,1.4828669,0.053626943,-0.2881392,-0.0057799546,1.2174438,0.590075
0.1,0.0,0.6,-0.5235987755982988,0.0,0,-0.5666783,1.8614162,-0.19235606,-0.61128753,-0.16108267,1.3975172,-0.8503443,0.59669805,1.4703182,0.05250792,-0.28911912,-0.028357213,1.2210345,0.4085168
0.1,0.0,0.6,-0.5235987755982988,0.0,0,-0.5757563,1.8577448,-0.18940385,-0.61179817,-0.17882164,1.3979669,-0.79346544,0.57080424,1.478964,0.04795868,-0.29219043,0.00631076,1.222717,0.5805101
0.1,0.0,0.6,-0.5235987755982988,0.0,0,-0.57631034,1.8544981,-0.1829224,-0.61384445,-0.17744619,1.3947831,-0.8323095,0.5896437,1.4771839,0.047210455,-0.27564418,-0.018763673,1.206683,0.6235354
0.1,0.0,0.6,-0.5235987755982988,0.0,0,-0.5789557,1.8562315,-0.1845048,-0.6138992,-0.187922,1.4051963,-0.8647105,0.5943777,1.4721738,0.055201758,-0.28936195,-0.023332564,1.2096906,0.5843582
0.1,0.0,0.6,-0.5235987755982988,0.0,0,-0.5663684,1.8475122,-0.18973418,-0.60307837,-0.16080795,1.4028357,-0.92691547,0.5691789,1.4857254,0.055615153,-0.29125455,0.015213586,1.2119457,0.54314727
0.1,0.0,0.6,-0.5235987755982988,0.0,0,-0.5833341,1.8558601,-0.18851115,-0.6140126,-0.19144273,1.4020069,-0.86817944,0.59210324,1.4898268,0.05077019,-0.3016394,-0.013461989,1.2264333,0.43709373
0.1,0.0,0.6,-0.5235987755982988,0.0,0,-0.59073716,1.8593919,-0.18765992,-0.612856,-0.20084561,1.4030371,-0.8369272,0.58683306,1.4732336,0.048499286,-0.28993687,-0.008050091,1.209125,0.661084
0.1,0.0,0.6,-0.5235987755982988,0.0,0,-0.58007944,1.8575633,-0.1917893,-0.6088182,-0.1866989,1.3997898,-0.8122927,0.57159317,1.476042,0.055415172,-0.29498857,-0.016346674,1.2289605,0.47139722
0.1,0.0,0.6,-0.5235987755982988,0.0,0,-0.55903053,1.8538971,-0.18044801,-0.61215794,-0.1782307,1.4012651,-0.8451874,0.582095,1.4779786,0.056188986,-0.28867325,0.0048846034,1.2058471,0.3562165
0.1,0.0,0.6,-0.5235987755982988,0.0,0,-0.572208,1.8576585,-0.19198044,-0.61424273,-0.18333775,1.4032962,-0.84387994,0.5832021,1.4749552,0.040781584,-0.28405002,-0.0041628345,1.21131,0.51752335
0.1,0.0,0.6,-0.5235987755982988,0.0,0,-0.57311696,1.8579848,-0.19003053,-0.606365,-0.18933535,1.395629,-0.8317348,0.5997401,1.4854515,0.05080525,-0.29707867,-0.01840388,1.2148522,0.4270956
0.1,0.0,0.6,-0.5235987755982988,0.0,0,-0.59382385,1.8517075,-0.1890956,-0.61021006,-0.19125314,1.4038179,-0.8288007,0.57645917,1.4730618,0.06263993,-0.28955722,-0.0037357097,1.2099017,0.4148565
0.1,0.0,0.6,-0.5235987755982988,0.0,0,-0.57780874,1.8574402,-0.18892834,-0.606785,-0.18519545,1.3949507,-0.88089025,0.5853662,1.4778042,0.060271677,-0.29139096,-0.035192057,1.2203323,0.6591611
0.1,0.0,0.6,-0.5235987755982988,0.0,0,-0.5542635,1.8603677,-0.19019477,-0.61349535,-0.19195724,1.4054942,-0.88020736,0.5861707,1.4759061,0.05146153,-0.28287375,-0.034808118,1.2160177,0.4039517
0.1,0.0,0.6,-0.5235987755982988,0.0,0,-0.59346986,1.8550776,-0.18257639,-0.6121347,-0.19190623,1.4019958,-0.8605692,0.60301876,1.4700673,0.04299088,-0.28836668,-0.011213671,1.2175871,0.5563431
0.1,0.0,0.6,-0.5235987755982988,0.0,0,-0.57856375,1.8586316,-0.20460592,-0.612529,-0.18454204,1.4030833,-0.7670469,0.57543075,1.4772766,0.050317615,-0.28875053,-0.014905631,1.2064273,0.5734069
0.1,0.0,0.6,-0.5235987755982988,0.0,0,-0.5797639,1.8589745,-0.19293351,-0.60982174,-0.17415334,1.3998178,-0.8475438,0.58215415,1.4713326,0.049139928,-0.28421623,-0.015378581,1.2120743,0.43491238
0.1,0.0,0.6,-0.5235987755982988,0.0,0,-0.57091886,1.8529129,-0.19202273,-0.61264485,-0.18212733,1.4020233,-0.8345313,0.57304025,1.4789197,0.04465717,-0.29566547,-0.006915808,1.2128624,0.34605107
0.1,0.0,0.6,-0.5235987755982988,0.0,0,-0.5916928,1.863697,-0.18694596,-0.61225504,-0.196802,1.3991599,-0.8716737,0.56845886,1.4768937,0.056014106,-0.29488647,-0.0035339594,1.219191,0.49185482
0.1,0.0,0.6,-0.5235987755982988,0.0,0,-0.60051614,1.855368,-0.17792346,-0.60795695,-0.20003961,1.3949826,-0.6965937,0.5930459,1.4719023,0.0535039,-0.29530394,-0.018799562,1.2224789,0.67547345
0.1,0.0,0.6,-0.5235987755982988,0.0,0,-0.56232005,1.8596557,-0.19029903,-0.6093609,-0.19451827,1.3950653,-0.8271238,0.5778074,1.4769057,0.048654705,-0.29273608,0.0012142954,1.2309593,0.4771085
0.1,0.0,0.6,-0.5235987755982988,0.0,0,-0.5940831,1.8598394,-0.18879053,-0.6176073,-0.20865928,1.4116125,-0.7943465,0.57524234,1.4766686,0.05052504,-0.28401944,-0.005862128,1.2095045,0.67037123
0.1,0.0,0.6,-0.5235987755982988,0.0,0,-0.573088,1.8608495,-0.19473642,-0.6100557,-0.18273649,1.3946639,-0.87307584,0.56106085,1.4849242,0.052024126,-0.284813,0.0020459816,1.2178023,0.39184824
0.1,0.0,0.6,-0.5235987755982988,0.0,0,-0.5663572,1.8589753,-0.19060624,-0.6107162,-0.20062874,1.4070846,-0.7825568,0.5812278,1.4773948,0.045700476,-0.2875307,-0.012645247,1.2202861,0.41662073
0.1,0.0,0.6,-0.5235987755982988,0.0,0,-0.584859,1.8584465,-0.19628054,-0.6115217,-0.19197612,1.3944837,-0.8528871,0.5847127,1.4771495,0.048244115,-0.28015134,-0.01252679,1.2077903,0.38214955
0.1,0.0,0.6,-0.5235987755982988,0.0,0,-0.57825184,1.8573422,-0.19646564,-0.61377484,-0.18957564,1.4014609,-0.88410586,0.5815284,1.4865617,0.049084082,-0.2938866,0.008818302,1.2138064,0.5435592
0.1,0.0,0.6,-0.5235987755982988,0.0,0,-0.59279245,1.8526316,-0.19245063,-0.60830384,-0.18961817,1.395315,-0.8824303,0.5812321,1.4744083,0.052842345,-0.28788096,-0.021843717,1.2191038,0.6071737
0.1,0.0,0.6,-0.5235987755982988,0.0,0,-0.5674761,1.8590126,-0.18279812,-0.6221316,-0.174854,1.4112738,-0.9068678,0.5795193,1.4754236,0.05201773,-0.290798,0.0009837702,1.2206038,0.5134561
0.1,0.0,0.6,-0.5235987755982988,0.0,0,-0.5827001,1.856464,-0.20519957,-0.6181994,-0.16710208,1.405647,-0.80431676,0.59077054,1.4829661,0.045716994,-0.28690594,0.0012054832,1.2110916,0.57706547
0.1,0.0,0.6,-0.5235987755982988,0.0,0,-0.5750298,1.8613839,-0.19755566,-0.6097089,-0.19160806,1.4004207,-0.85829157,0.568385,1.4750677,0.0551721,-0.28734317,-0.028221512,1.2247934,0.51297355
0.1,0.0,0.6,-0.5235987755982988,0.0,0,-0.56733876,1.8571864,-0.2003079,-0.6107181,-0.17657803,1.3999178,-0.8275722,0.581932,1.4747839,0.047927212,-0.28717735,-0.0009079711,1.2044297,0.62485415
0.1,0.0,0.6,-0.5235987755982988,0.0,0,-0.5757549,1.8574728,-0.20156701,-0.6131328,-0.19496109,1.3981144,-0.9053699,0.5664799,1.4721472,0.058608837,-0.2885559,0.0046463497,1.2219433,0.40860713
0.1,0.0,0.6,-0.5235987755982988,0.0,0,-0.57117766,1.8611926,-0.18911454,-0.61754674,-0.19661409,1.4067537,-0.8181584,0.5883583,1.4845412,0.050341,-0.28041065,-0.019534457,1.2135925,0.65948164
0.1,0.0,0.6,-0.5235987755982988,0.0,0,-0.5753086,1.8565341,-0.19417626,-0.6129871,-0.16319767,1.4051974,-0.8904873,0.5831723,1.4764197,0.048728645,-0.29349926,-0.00736804,1.2243706,0.54687726
0.1,0.0,0.6,-0.5235987755982988,0.0,0,-0.5652715,1.8539741,-0.18567483,-0.6129435,-0.1899371,1.4008737,-0.8514753,0.57226694,1.4823326,0.05815225,-0.2942572,0.022410369,1.207624,0.52256644
0.1,0.0,0.6,-0.5235987755982988,0.0,0,-0.584351,1.857957,-0.19213459,-0.6121889,-0.18246989,1.4006004,-0.8202722,0.58389884,1.4790424,0.042457096,-0.29147777,0.019665228,1.2115355,0.5756515
0.1,0.0,0.6,-0.5235987755982988,0.0,0,-0.5811129,1.862263,-0.18510413,-0.6170772,-0.19686867,1.4057772,-0.9038801,0.57840383,1.4760585,0.052055642,-0.28347653,-0.011022594,1.2248985,0.5882088
0.1,0.0,0.6,-0.5235987755982988,0.0,0,-0.57226986,1.8579057,-0.1868371,-0.6130093,-0.1854587,1.4036522,-0.84161985,0.5554639,1.4695764,0.055360496,-0.28712782,-0.009223009,1.218679,0.3318327
0.1,0.0,0.6,-0.5235987755982988,0.0,0,-0.5887819,1.8577254,-0.1852638,-0.6101678,-0.18382746,1.4050469,-0.88318366,0.57487184,1.48126,0.05526115,-0.28536373,-0.03303579,1.216157,0.5158954
0.1,0.0,0.6,-0.5235987755982988,0.0,0,-0.5735536,1.8558445,-0.20173056,-0.6093532,-0.1735067,1.4025269,-0.96250206,0.57285243,1.4736683,0.05126747,-0.2838615,-0.010452482,1.222905,0.44129306
0.1,0.0,0.6,-0.5235987755982988,0.0,0,-0.5821589,1.8521104,-0.19929707,-0.6076499,-0.1954639,1.4008344,-0.76676875,0.57991713,1.474285,0.05581818,-0.28643826,-0.037104085,1.2183887,0.5283715
0.1,0.0,0.6,-0.5235987755982988,0.0,0,-0.57538223,1.8553854,-0.18785499,-0.6140814,-0.19311592,1.395815,-0.8837308,0.5671591,1.4751998,0.05682487,-0.2889623,0.0015780835,1.2201862,0.356889
0.1,0.0,0.6,-0.5235987755982988,0.0,0,-0.5705623,1.8517364,-0.18987687,-0.6115966,-0.17718068,1.4090621,-0.82348675,0.57695407,1.4734685,0.0528392,-0.28433946,-0.00923726,1.2136642,0.47648436
0.1,0.0,0.6,-0.5235987755982988,0.0,0,-0.5862447,1.8552588,-0.19299318,-0.6167071,-0.18262424,1.4017342,-0.8698788,0.60553443,1.4747382,0.051935095,-0.2915221,-0.010004051,1.2143586,0.39585558
0.1,0.0,0.6,-0.5235987755982988,0.0,0,-0.5833843,1.855065,-0.18726015,-0.60985637,-0.16459177,1.4013453,-0.8589192,0.59781706,1.4838406,0.051756974,-0.29730064,-0.015530541,1.2208129,0.42855942
0.1,0.0,0.6,-0.5235987755982988,0.0,0,-0.57230544,1.8589772,-0.19095871,-0.61006695,-0.19197355,1.4063708,-0.83857614,0.5993696,1.4783069,0.046689074,-0.29094517,-0.010412283,1.2136842,0.47507253
0.1,0.0,0.6,-0.5235987755982988,0.0,0,-0.58068323,1.8567135,-0.18960549,-0.60637575,-0.18093513,1.3980331,-0.6991943,0.5831901,1.4735986,0.04958412,-0.28602466,-0.01983025,1.214921,0.4282438
0.1,0.0,0.6,-0.5235987755982988,0.0,0,-0.5690577,1.8585298,-0.1963049,-0.6147352,-0.19188881,1.3993565,-0.9355139,0.5819918,1.485592,0.051925443,-0.28837985,-0.0034561153,1.2160882,0.5911544
0.1,0.0,0.6,-0.5235987755982988,0.0,0,-0.5818005,1.8595917,-0.18897797,-0.6113082,-0.17945252,1.4012882,-0.8588353,0.5881841,1.4729702,0.054997783,-0.29284203,-0.013745599,1.2257074,0.44820228
0.1,0.0,0.6,-0.5235987755982988,0.0,0,-0.5798383,1.8547107,-0.19128752,-0.6120983,-0.18436696,1.4025548,-0.9150459,0.5725845,1.4754447,0.055669,-0.28724456,0.009210268,1.2147827,0.4430104
0.1,0.0,0.6,-0.5235987755982988,0.0,0,-0.56958145,1.8581634,-0.19429854,-0.60786074,-0.18001923,1.4028574,-0.85546523,0.59126586,1.4747876,0.05592571,-0.2937036,-0.016661832,1.2130915,0.48359776
0.1,0.0,0.6,-0.5235987755982988,0.0,0,-0.57511103,1.855477,-0.19317083,-0.6119941,-0.1987554,1.409942,-0.78800005,0.5824339,1.4736166,0.051892437,-0.28093174,-0.016406454,1.211377,0.4974501
0.1,0.0,0.6,-0.5235987755982988,0.0,0,-0.57492286,1.8595992,-0.19513232,-0.6086885,-0.17176011,1.4041717,-0.83687395,0.58242404,1.4753513,0.05673782,-0.2884779,-0.0012778438,1.2078053,0.6886417
0.1,0.0,0.6,-0.5235987755982988,0.0,0,-0.57053864,1.8584284,-0.1852979,-0.60685986,-0.19543365,1.4014826,-0.9212036,0.5762238,1.4700576,0.05562877,-0.28371474,0.007182255,1.2190193,0.49097314
0.1,0.0,0.6,-0.5235987755982988,0.0,0,-0.58304673,1.8516599,-0.19354363,-0.6049531,-0.17107205,1.400069,-0.7904482,0.5682668,1.4611434,0.04610551,-0.28807187,0.003075014,1.2157029,0.5689204
0.1,0.0,0.6,-0.5235987755982988,0.0,0,-0.5591792,1.8581886,-0.18421486,-0.6086816,-0.18858008,1.4021274,-0.9057254,0.5947322,1.4831488,0.054257188,-0.28845137,-0.028662346,1.2110949,0.59896564
0.1,0.0,0.6,-0.5235987755982988,0.0,0,-0.58225036,1.8571727,-0.18661025,-0.61791605,-0.18332906,1.403102,-0.84599155,0.5711085,1.4739251,0.051079545,-0.30005097,-0.028663302,1.2237014,0.23757255
0.1,0.0,0.6,-0.5235987755982988,0.0,0,-0.57808787,1.8604052,-0.19707847,-0.6077254,-0.17454968,1.4048942,-0.83761936,0.5600537,1.4679753,0.05749321,-0.28980327,0.0015846486,1.2212975,0.4322916
0.1,0.0,0.6,-0.5235987755982988,0.0,0,-0.5749634,1.856133,-0.19196644,-0.6082873,-0.1807613,1.3962758,-0.8393784,0.5843178,1.4763157,0.04859405,-0.29632044,0.008362813,1.213539,0.52795756
0.1,0.0,0.6,-0.5235987755982988,0.0,0,-0.55665946,1.8548561,-0.18968056,-0.6119316,-0.17523079,1.4011706,-0.81998926,0.5801413,1.4865868,0.047012046,-0.29614922,-0.015299581,1.2081543,0.322783
0.1,0.0,0.6,-0.5235987755982988,0.0,0,-0.5727056,1.863804,-0.197517,-0.6139422,-0.16333266,1.3998812,-0.8510551,0.58662814,1.4866533,0.045139965,-0.29307547,0.009281009,1.212705,0.53501505
0.1,0.0,0.6,-0.5235987755982988,0.0,0,-0.5728245,1.8561455,-0.196075,-0.60790884,-0.1921624,1.402511,-0.8184125,0.584481,1.4749002,0.049549807,-0.29221052,-0.029811429,1.2287686,0.6091722
0.1,0.0,0.6,-0.5235987755982988,0.0,0,-0.56082547,1.8598566,-0.18506435,-0.608486,-0.18322222,1.4030259,-0.770009,0.5955597,1.480404,0.04095121,-0.28903803,-0.010758506,1.2184203,0.39784744
0.1,0.0,0.6,-0.5235987755982988,0.0,0,-0.5944881,1.8519242,-0.19436567,-0.6060803,-0.19532372,1.4010621,-0.8196273,0.5757416,1.4639238,0.051897243,-0.28831956,0.0002770023,1.2128451,0.47212696
0.1,0.0,0.6,-0.5235987755982988,0.0,0,-0.570946,1.8564266,-0.1984111,-0.60929215,-0.18398151,1.4065281,-0.8741403,0.5893151,1.4749485,0.044986498,-0.28914517,-0.0051107015,1.2078243,0.38665396
0.1,0.0,0.6,-0.5235987755982988,0.0,0,-0.5871122,1.858433,-0.20538758,-0.6122514,-0.16826797,1.4037448,-0.86418825,0.5823979,1.4830817,0.043218154,-0.2911027,0.0043446524,1.207226,0.49373114
0.1,0.0,0.6,-0.5235987755982988,0.0,0,-0.5646739,1.858473,-0.19034666,-0.6104827,-0.17663063,1.4060963,-0.87755895,0.578051,1.4705154,0.05046972,-0.28702998,-0.0026861783,1.2202555,0.53953916
0.1,0.0,0.6,-0.5235987755982988,0.0,0,-0.5701655,1.858011,-0.18215562,-0.6096847,-0.17540082,1.4004486,-0.742483,0.5757815,1.4831151,0.049048364,-0.27814177,-0.0144877415,1.217191,0.6464751
0.1,0.0,0.6,-0.5235987755982988,0.0,0,-0.5713169,1.8572452,-0.18913263,-0.6059737,-0.19847627,1.4023852,-0.92010236,0.5765144,1.4666703,0.04512077,-0.27958727,-0.014072642,1.2144567,0.6332995
0.1,0.0,0.6,-0.5235987755982988,0.0,0,-0.5567984,1.8578781,-0.19433852,-0.6163676,-0.16528554,1.3990949,-0.8842102,0.5830175,1.486191,0.04429637,-0.28779685,0.0063245688,1.2147601,0.5542793
0.1,0.0,0.6,-0.5235987755982988,0.0,0,-0.5769349,1.8551975,-0.1877439,-0.60972154,-0.18132636,1.400854,-0.8389007,0.5755399,1.485333,0.047543038,-0.29187977,0.006964067,1.2212316,0.51800376
0.1,0.0,0.6,-0.5235987755982988,0.0,0,-0.571501,1.8542218,-0.19193678,-0.60808,-0.19014001,1.4031618,-0.88640815,0.5900074,1.4713683,0.053552274,-0.28552958,-0.007685721,1.2172714,0.58561426
0.1,0.0,0.6,-0.5235987755982988,0.0,0,-0.5811651,1.856483,-0.19987673,-0.6156457,-0.17658444,1.4021764,-0.84068,0.5951345,1.4792001,0.060904834,-0.28570083,-0.022930484,1.2132069,0.5576796
0.1,0.0,0.6,-0.5235987755982988,0.0,0,-0.56362873,1.8590593,-0.19373147,-0.6121013,-0.1820991,1.4001219,-0.89747864,0.5712392,1.4613527,0.055707615,-0.2778374,-0.015690127,1.2136983,0.35938066
0.1,0.0,0.6,-0.5235987755982988,0.0,0,-0.5800728,1.8548244,-0.19196753,-0.60592633,-0.18343459,1.3950425,-0.85653186,0.5857507,1.4755416,0.055908374,-0.29241422,-0.008491494,1.2112949,0.54010856
0.1,0.0,0.6,-0.5235987755982988,0.0,0,-0.5717414,1.8602964,-0.18582687,-0.61448,-0.1828744,1.4071805,-0.8685616,0.58098817,1.4782784,0.06139574,-0.29660812,-0.0061426773,1.211842,0.582168
0.1,0.0,0.6,-0.5235987755982988,0.0,0,-0.57552314,1.8561364,-0.18730584,-0.61258644,-0.17962046,1.4037473,-0.9371689,0.6086229,1.4764174,0.053763125,-0.28830335,-0.0007852727,1.207169,0.6230002
0.1,0.0,0.6,-0.5235987755982988,0.0,0,-0.5755676,1.8558925,-0.19348165,-0.61014634,-0.18505527,1.3967968,-0.8964646,0.58068585,1.471779,0.05412224,-0.27845696,-0.0138214715,1.2124186,0.54998624
0.1,0.0,0.6,-0.5235987755982988,0.0,0,-0.571973,1.8546143,-0.18874969,-0.6172165,-0.17785446,1.4080667,-0.8439614,0.56414944,1.4842505,0.061642513,-0.28925923,-0.017397692,1.2234422,0.41175798
0.1,0.0,0.6,-0.5235987755982988,0.0,0,-0.58276916,1.8564575,-0.19650356,-0.60437673,-0.18475455,1.4043638,-0.75460666,0.5642441,1.4717932,0.050042346,-0.285624,0.00928755,1.214411,0.5058604
0.1,0.0,0.6,-0.5235987755982988,0.0,0,-0.56812316,1.8559022,-0.19863872,-0.6125457,-0.18368064,1.4083695,-0.8275965,0.5766609,1.4723245,0.048921376,-0.2839985,-0.020911966,1.2293472,0.5193275
0.1,0.0,0.6,-0.5235987755982988,0.0,0,-0.59507585,1.8543024,-0.19560732,-0.6185117,-0.16932589,1.3991307,-0.81585306,0.5849077,1.4681792,0.05001587,-0.28925535,-0.009328097,1.2137761,0.3089334
0.1,0.0,0.6,-0.5235987755982988,0.0,0,-0.578564,1.8529918,-0.18935336,-0.60829085,-0.18529776,1.4052296,-0.87921906,0.5886441,1.4680942,0.05410276,-0.28596655,-0.006285088,1.2070432,0.40182805
0.1,0.0,0.6,-0.5235987755982988,0.0,0,-0.57990235,1.8577915,-0.19115032,-0.6141208,-0.18090719,1.4078872,-0.8677634,0.58748955,1.4763186,0.051946882,-0.2815319,-0.004142771,1.2087276,0.4158783
0.1,0.0,0.6,-0.5235987755982988,0.0,0,-0.57546705,1.8557001,-0.19294584,-0.60883754,-0.19041425,1.3995553,-0.8789566,0.5759516,1.4760114,0.044204894,-0.28393105,-0.009875444,1.2286804,0.5160866
0.1,0.0,0.6,-0.5235987755982988,0.0,0,-0.59903246,1.8553914,-0.19370073,-0.60903,-0.16701189,1.3995359,-0.87183857,0.58842033,1.4761918,0.050398517,-0.294112,0.0027089242,1.2177782,0.61627424
0.1,0.0,0.6,-0.5235987755982988,0.0,0,-0.577623,1.8562119,-0.19056405,-0.611695,-0.18077907,1.4074116,-0.8650721,0.5835743,1.4796612,0.049496368,-0.29657584,0.017501358,1.2224163,0.40580228
0.1,0.0,0.6,-0.5235987755982988,0.0,0,-0.58185756,1.8570714,-0.19770162,-0.6131063,-0.18546073,1.401076,-0.87578535,0.5799867,1.4798238,0.060304016,-0.2769669,-0.002957581,1.2093223,0.5815921
0.1,0.0,0.6,-0.5235987755982988,0.0,0,-0.57201344,1.8576046,-0.18645935,-0.61263657,-0.17590892,1.3990741,-0.8953963,0.5701774,1.4713881,0.040728524,-0.29081896,-0.024812765,1.217921,0.23892511
0.1,0.0,0.6,-0.5235987755982988,0.0,0,-0.5906904,1.8574047,-0.18887404,-0.610588,-0.2000179,1.4042531,-0.8926252,0.575014,1.4793271,0.052754402,-0.29471847,-0.0029877212,1.2259048,0.40870965
0.1,0.0,0.6,-0.5235987755982988,0.0,0,-0.565702,1.8525239,-0.1955503,-0.6067481,-0.18101333,1.3996809,-0.8391863,0.5747147,1.476084,0.04705281,-0.2828145,-0.0021365155,1.2151549,0.5114977
0.1,0.0,0.6,-0.5235987755982988,0.0,0,-0.56083316,1.8554617,-0.18427923,-0.6079413,-0.17863691,1.3984551,-0.9464511,0.5715966,1.4800966,0.05271674,-0.29113603,-0.0071133766,1.227539,0.57888377
0.1,0.0,0.6,-0.5235987755982988,0.0,0,-0.5778303,1.8575064,-0.19214024,-0.6069907,-0.18461856,1.3976808,-0.8895546,0.5735491,1.4788722,0.04613565,-0.29226598,0.006359402,1.2185297,0.49365714
0.1,0.0,0.6,-0.5235987755982988,0.0,0,-0.5672438,1.851943,-0.18192296,-0.6116809,-0.18450136,1.4084928,-0.9085992,0.58380634,1.4817039,0.052638713,-0.28828725,-0.013119237,1.2218542,0.67250353
0.1,0.0,0.6,-0.5235987755982988,0.0,0,-0.5703732,1.859239,-0.18303114,-0.6163445,-0.1774151,1.4063042,-0.8176804,0.57214075,1.4896139,0.04629873,-0.3014346,-0.01589413,1.2200851,0.2805691
0.1,0.0,0.6,-0.5235987755982988,0.0,0,-0.5607211,1.8628355,-0.18964471,-0.60603493,-0.17563444,1.4009408,-0.7713677,0.5746509,1.4791046,0.05329514,-0.28400207,0.016777484,1.209917,0.69717646
0.1,0.0,0.6,-0.5235987755982988,0.0,0,-0.57516074,1.8600671,-0.19881828,-0.611262,-0.17493632,1.3987122,-0.85647047,0.58138937,1.4879842,0.05909154,-0.29452726,0.0012938714,1.2227843,0.51905274
0.1,0.0,0.6,-0.5235987755982988,0.0,0,-0.56586516,1.8548387,-0.18637204,-0.61478573,-0.17866655,1.4061748,-0.93002754,0.586872,1.4720623,0.059465434,-0.2888195,-0.0025406915,1.2083071,0.34097862
0.1,0.0,0.6,-0.5235987755982988,0.0,0,-0.5690351,1.864175,-0.18557751,-0.6143453,-0.18035613,1.3990272,-0.88759536,0.57050973,1.4709351,0.064559884,-0.2909336,-0.00942931,1.2245145,0.31801745
0.1,0.0,0.6,-0.5235987755982988,0.0,0,-0.5660147,1.8563156,-0.19711278,-0.6112695,-0.18252543,1.3985542,-0.84537035,0.58158284,1.4785409,0.059614297,-0.2932119,-0.023651984,1.2097367,0.31928885
0.1,0.0,0.6,-0.5235987755982988,0.0,0,-0.58279896,1.8561814,-0.1920616,-0.611328,-0.17377481,1.402778,-0.85815257,0.5948048,1.4861532,0.05130206,-0.28500825,-0.0051172776,1.2081,0.5704249
0.1,0.0,0.6,-0.5235987755982988,0.0,0,-0.5761547,1.8608868,-0.18245064,-0.6161639,-0.17566696,1.4005511,-0.76614887,0.5787783,1.4913322,0.053730056,-0.28690845,-0.010994593,1.2150409,0.33460793
0.1,0.0,0.6,-0.5235987755982988,0.0,0,-0.5661301,1.8573414,-0.18944426,-0.6104784,-0.17962852,1.4076842,-0.9169335,0.5886194,1.483801,0.04957637,-0.29033878,0.0015694648,1.2174191,0.65806276
0.1,0.0,0.6,-0.5235987755982988,0.0,0,-0.5702733,1.8612901,-0.1974981,-0.6086932,-0.19737554,1.3993728,-0.9252109,0.60026866,1.4754367,0.045348912,-0.28049958,-0.016795643,1.2146236,0.55316913
0.1,0.0,0.6,-0.5235987755982988,0.0,0,-0.56268203,1.8535169,-0.19452672,-0.6070156,-0.18132469,1.399966,-0.8741154,0.57917154,1.4793656,0.05292061,-0.28867936,0.016151547,1.2194022,0.5697519
0.1,0.0,0.6,-0.5235987755982988,0.0,0,-0.56343913,1.8596363,-0.19692841,-0.61297303,-0.1575475,1.3964142,-0.8467769,0.57824236,1.4865735,0.05335841,-0.28769404,0.01037929,1.2111856,0.5182482
0.1,0.0,0.6,-0.5235987755982988,0.0,0,-0.567887,1.8572868,-0.18784375,-0.6140896,-0.19075185,1.4053242,-0.9357365,0.5652896,1.4818797,0.050598517,-0.28530547,-0.019598639,1.235533,0.6724528
0.1,0.0,0.6,-0.5235987755982988,0.0,0,-0.579839,1.8544649,-0.18843473,-0.60707414,-0.20112018,1.4052584,-0.8610326,0.5845653,1.4805309,0.053072095,-0.29355943,-0.010133209,1.2221107,0.58577925
0.1,0.0,0.6,-0.5235987755982988,0.0,0,-0.5774372,1.8578088,-0.193873,-0.6083498,-0.18408105,1.3991541,-0.92537826,0.5929296,1.4758132,0.047492232,-0.2883614,0.004896503,1.2221766,0.5483868
0.1,0.0,0.6,-0.5235987755982988,0.0,0,-0.55670893,1.8568289,-0.19064637,-0.6131329,-0.17552961,1.4055215,-0.90238863,0.5950501,1.4750328,0.045765873,-0.2899929,-0.01601287,1.2222855,0.3593311
0.1,0.0,0.6,-0.5235987755982988,0.0,0,-0.5875269,1.8590487,-0.18550718,-0.60820764,-0.18028623,1.4002426,-0.8518392,0.57367855,1.4815677,0.049764257,-0.29230818,0.008034358,1.2128378,0.37830198
0.1,0.0,0.6,-0.5235987755982988,0.0,0,-0.5859928,1.857627,-0.19125955,-0.61125726,-0.16616362,1.4051865,-0.8039135,0.57923466,1.4780397,0.05028421,-0.28892896,-0.00825576,1.2181122,0.5096771
0.1,0.0,0.6,-0.5235987755982988,0.0,0,-0.5766867,1.8584597,-0.19366762,-0.60908824,-0.16687252,1.3943721,-0.92028207,0.58049744,1.4681854,0.063845225,-0.28701445,0.0028342432,1.2108433,0.37766427
0.1,0.0,0.6,-0.5235987755982988,0.0,0,-0.5814175,1.8531405,-0.18882345,-0.6119644,-0.19102043,1.40014,-0.9059421,0.5839461,1.4777423,0.050639637,-0.29102373,-0.019073196,1.2155657,0.3117579
0.1,0.0,0.6,-0.5235987755982988,0.0,0,-0.5707432,1.8553457,-0.1895944,-0.60703903,-0.16211869,1.4035139,-0.8286942,0.58301,1.4649818,0.048903786,-0.29322883,0.015343039,1.211095,0.35127893
0.1,0.0,0.6,-0.5235987755982988,0.0,0,-0.5706979,1.8595932,-0.19839895,-0.6128253,-0.18659358,1.4075296,-0.8708765,0.58110166,1.4805675,0.050093547,-0.2922364,-0.0017950425,1.2228725,0.5827421
0.1,0.0,0.6,-0.5235987755982988,0.0,0,-0.572797,1.8569067,-0.19582759,-0.6083979,-0.17506121,1.4012231,-0.82216287,0.5754386,1.4981014,0.04636457,-0.29059246,-0.01011675,1.2180934,0.3759762
0.1,0.0,0.6,-0.5235987755982988,0.0,0,-0.582971,1.8573316,-0.20140083,-0.614639,-0.18960421,1.404704,-0.86033857,0.58742255,1.4762431,0.054030314,-0.28611806,0.012590147,1.2138851,0.5208203
0.1,0.0,0.6,-0.5235987755982988,0.0,0,-0.56523246,1.8624189,-0.18555893,-0.6068614,-0.17774035,1.4047272,-0.8967952,0.5724521,1.4751056,0.056311682,-0.29341376,0.007878797,1.2142053,0.42091575
0.1,0.0,0.6,-0.5235987755982988,0.0,0,-0.56395096,1.8562224,-0.19336575,-0.6137439,-0.18477006,1.4045396,-0.8300665,0.57530683,1.4841892,0.04967171,-0.28814197,0.0074370266,1.2197948,0.56352574
0.1,0.0,0.6,-0.5235987755982988,0.0,0,-0.5718827,1.8559287,-0.191845,-0.6109358,-0.18065198,1.4030496,-0.93098235,0.561253,1.4770584,0.0581074,-0.2872766,-0.011206418,1.2222674,0.28662494
0.1,0.0,0.6,-0.5235987755982988,0.0,0,-0.5743343,1.8601786,-0.19632453,-0.60802746,-0.1798938,1.4023255,-0.8796712,0.5824889,1.4792547,0.05395518,-0.27860916,-0.015547117,1.2057577,0.64015794
0.1,0.0,0.6,-0.5235987755982988,0.0,0,-0.5713194,1.8551295,-0.18441248,-0.60549664,-0.19485173,1.4013013,-0.85685325,0.5849229,1.4732733,0.052900124,-0.29176882,-0.013929074,1.2273189,0.4150385
0.1,0.0,0.6,-0.5235987755982988,0.0,0,-0.58604753,1.8591027,-0.19913717,-0.6078334,-0.18827085,1.4100455,-0.83757365,0.5878068,1.4712396,0.052152373,-0.2972007,-0.0016671979,1.2164576,0.3481852
0.1,0.0,0.6,-0.5235987755982988,0.0,0,-0.5758788,1.8609097,-0.19379382,-0.6103674,-0.19990139,1.4002008,-0.91438353,0.57003146,1.4900689,0.058689907,-0.29140413,0.019593542,1.2091323,0.35847938
0.1,0.0,0.6,-0.5235987755982988,0.0,0,-0.5779089,1.8634627,-0.18593033,-0.61151266,-0.16676682,1.4040842,-0.8296149,0.5886234,1.4648248,0.04623457,-0.29064682,-0.013056136,1.2220575,0.34036872
0.1,0.0,0.6,-0.5235987755982988,0.0,0,-0.5758972,1.8587872,-0.18799111,-0.6116685,-0.16970497,1.4071877,-0.89805835,0.5883754,1.4739475,0.052182525,-0.28688094,-0.0023416907,1.2219397,0.57126987
0.1,0.0,0.6,-0.5235987755982988,0.0,0,-0.57967836,1.8575815,-0.19135061,-0.61864126,-0.18490596,1.4054949,-0.8385932,0.59198666,1.4769417,0.047893524,-0.28185016,-0.013806067,1.2172418,0.54207414
0.1,0.0,0.6,-0.5235987755982988,0.0,0,-0.56797916,1.8553497,-0.19198069,-0.6086607,-0.18121739,1.4001846,-0.8908398,0.5813028,1.4868487,0.045855176,-0.2772087,0.0010427815,1.2042544,0.502464
0.1,0.0,0.6,-0.5235987755982988,0.0,0,-0.5778944,1.8509717,-0.1897187,-0.61554235,-0.1762746,1.4102017,-0.9493118,0.59086496,1.4714302,0.048608117,-0.28079385,-0.011300454,1.2092971,0.38568154
0.1,0.0,0.6,-0.5235987755982988,0.0,0,-0.57852143,1.8553581,-0.18703881,-0.6139013,-0.18566895,1.4046496,-0.83400923,0.57603306,1.4807901,0.058796283,-0.2921208,-0.004835186,1.2239122,0.5438736
0.1,0.0,0.6,-0.5235987755982988,0.0,0,-0.5766576,1.8585176,-0.20720936,-0.60667247,-0.1834388,1.4020219,-0.85225576,0.5759966,1.4779153,0.05054889,-0.28814414,-0.0023772505,1.2239767,0.56957644
0.1,0.0,0.6,-0.5235987755982988,0.0,0,-0.5856543,1.8546344,-0.18951555,-0.60369384,-0.18727493,1.3988467,-0.8808983,0.5997158,1.4698048,0.04836163,-0.29019088,-0.0100200735,1.2238055,0.42088792
0.1,0.0,0.6,-0.5235987755982988,0.0,0,-0.5828405,1.860558,-0.19303602,-0.61271274,-0.19717027,1.4057785,-0.8169384,0.5704671,1.4793806,0.058055483,-0.28664863,0.009288362,1.2145469,0.5180035
0.1,0.0,0.6,-0.5235987755982988,0.0,0,-0.56849736,1.8630179,-0.19864304,-0.61119837,-0.18089253,1.408957,-0.90278983,0.57952225,1.4804629,0.05615212,-0.291919,0.0009819845,1.2130274,0.41076177
0.1,0.0,0.6,-0.5235987755982988,0.0,0,-0.57115805,1.8589512,-0.18532786,-0.60865265,-0.18468814,1.4062802,-0.8295547,0.5931359,1.4734378,0.0445466,-0.28169402,-0.015019932,1.2181331,0.36608395
0.1,0.0,0.6,-0.5235987755982988,0.0,0,-0.58068955,1.8590499,-0.19981815,-0.6147064,-0.18528627,1.3993887,-0.8867124,0.588843,1.484609,0.043590695,-0.2895514,-0.005153017,1.208872,0.24888833
0.1,0.0,0.6,-0.5235987755982988,0.0,0,-0.5705241,1.8571488,-0.19229224,-0.6099704,-0.19822763,1.3993752,-0.80089134,0.5844154,1.4761462,0.04507542,-0.27901444,0.007939884,1.212638,0.24810068
0.1,0.0,0.6,-0.5235987755982988,0.0,0,-0.5636208,1.8587012,-0.18419269,-0.6095738,-0.19812286,1.4021153,-0.8330927,0.5884764,1.4777405,0.052356128,-0.28355452,0.001631078,1.2176185,0.54288715
0.1,0.0,0.6,-0.5235987755982988,0.0,0,-0.59807473,1.8567665,-0.18512137,-0.60798943,-0.17950656,1.396131,-0.8138394,0.59247357,1.4771364,0.050117638,-0.2899335,0.004371693,1.2130363,0.3577639
0.1,0.0,0.6,-0.5235987755982988,0.0,0,-0.57245076,1.8573647,-0.19117035,-0.61271757,-0.17991203,1.4055681,-0.80514735,0.5900857,1.4829327,0.059136394,-0.29435757,-0.0009791608,1.218056,0.324987
0.1,0.0,0.6,-0.5235987755982988,0.0,0,-0.57121223,1.857119,-0.19364412,-0.6085131,-0.1790648,1.3982207,-0.8042166,0.5985331,1.488526,0.044736713,-0.29292408,0.003317971,1.2180945,0.31566453
0.1,0.0,0.6,-0.5235987755982988,0.0,0,-0.5634662,1.8557738,-0.18711086,-0.6122988,-0.19502704,1.4053882,-0.91241115,0.6013753,1.4872347,0.04833078,-0.29681578,-0.0019236492,1.2272347,0.5528288
0.1,0.0,0.6,-0.5235987755982988,0.0,0,-0.59506464,1.8602327,-0.19568442,-0.60820127,-0.18047215,1.4023654,-0.86620355,0.58853644,1.4645109,0.04459011,-0.28444064,0.005592741,1.2140915,0.53670555
0.1,0.0,0.6,-0.5235987755982988,0.0,0,-0.5815355,1.855601,-0.20123072,-0.61145777,-0.17681971,1.4000202,-0.792275,0.57193756,1.4675932,0.04152863,-0.29253206,-0.0066527375,1.2272708,0.25469613
0.1,0.0,0.6,-0.5235987755982988,0.0,0,-0.56254196,1.8571546,-0.19406818,-0.60798436,-0.16629754,1.4080104,-0.83547354,0.5890345,1.4901234,0.04353257,-0.2894373,-0.009218969,1.2110858,0.35598528
0.1,0.0,0.6,-0.5235987755982988,0.0,0,-0.57998884,1.8578254,-0.19423686,-0.61317396,-0.18053915,1.4137982,-0.8329973,0.5888466,1.4707723,0.050798494,-0.28393567,0.0067272317,1.2227963,0.53206444
0.1,0.0,0.6,-0.5235987755982988,0.0,0,-0.5780047,1.8591813,-0.19540112,-0.6110477,-0.20667222,1.402938,-0.80291677,0.5867758,1.4809098,0.04957816,-0.28361338,-0.021591537,1.2265017,0.3248221
0.1,0.0,0.6,-0.5235987755982988,0.0,0,-0.5705122,1.854389,-0.18824838,-0.6093036,-0.17917415,1.4116672,-0.89790636,0.5889552,1.4756422,0.058184255,-0.2847266,-0.003783644,1.2128328,0.3458513
0.1,0.0,0.6,-0.5235987755982988,0.0,0,-0.5925746,1.8542582,-0.19011705,-0.60890317,-0.16987474,1.3943813,-0.8672863,0.56371593,1.479973,0.043090124,-0.29385865,-0.014626031,1.217091,0.30297166
0.1,0.0,0.6,-0.5235987755982988,0.0,0,-0.5661801,1.857819,-0.19490616,-0.630815,-0.16777234,1.4093283,-0.7470365,0.5691126,1.4662031,0.0450394,-0.3012314,-0.022939028,1.2234244,0.6854146
0.1,0.0,0.6,-0.5235987755982988,0.0,0,-0.5884042,1.8566761,-0.19714023,-0.6051141,-0.17982936,1.3996263,-0.8382048,0.5833871,1.4734311,0.059322022,-0.3014239,-0.010259796,1.2175428,0.45485806
0.1,0.0,0.6,-0.5235987755982988,0.0,0,-0.5632979,1.8621585,-0.18415968,-0.60174656,-0.19558196,1.4035614,-0.88185894,0.5724624,1.4769353,0.05268722,-0.2875228,-0.028780023,1.2214986,0.5594648
0.1,0.0,0.6,-0.5235987755982988,0.0,0,-0.5878525,1.8546532,-0.19654228,-0.6098596,-0.18739434,1.3983432,-0.90906274,0.5645794,1.4870276,0.056903496,-0.29279655,0.013805741,1.2198743,0.3701075
0.1,0.0,0.6,-0.5235987755982988,0.0,0,-0.5703137,1.8526343,-0.1859478,-0.6121388,-0.1713023,1.396307,-0.77228165,0.5642665,1.4809537,0.057211027,-0.2949623,-0.013858314,1.2096149,0.78323764
0.1,0.0,0.6,-0.5235987755982988,0.0,0,-0.56866837,1.8567122,-0.19455314,-0.6202538,-0.18346742,1.4032708,-0.8752092,0.57421756,1.4718791,0.039133843,-0.29229018,-0.017808387,1.2207677,0.7862603
0.1,0.0,0.6,-0.5235987755982988,0.0,0,-0.5679888,1.8543102,-0.1939005,-0.6146462,-0.1817488,1.4005225,-0.7173447,0.56516427,1.4700269,0.04666852,-0.284284,-0.015522171,1.2071282,0.7327682
0.1,0.0,0.6,-0.5235987755982988,0.0,0,-0.57473433,1.851733,-0.18374583,-0.61722755,-0.18556733,1.3984208,-0.81663895,0.581407,1.4783741,0.04083281,-0.29572296,-0.011171028,1.2164882,0.699561
0.1,0.0,0.6,-0.5235987755982988,0.0,0,-0.57098496,1.853178,-0.18604015,-0.616242,-0.1762657,1.3991811,-0.8330304,0.57070476,1.4635121,0.039292526,-0.29211816,0.0006716787,1.2182016,0.5275073
0.1,0.0,0.6,-0.5235987755982988,0.0,0,-0.56291294,1.8568993,-0.18040192,-0.6124642,-0.17660134,1.3961539,-0.71341807,0.57746106,1.469975,0.057505667,-0.29270133,-0.0065778024,1.2071705,0.76870054
0.1,0.0,0.6,-0.5235987755982988,0.0,0,-0.5712298,1.8550087,-0.18466198,-0.6137776,-0.1833898,1.4003133,-0.8953047,0.5908489,1.4608856,0.046383236,-0.2931773,-0.0058333995,1.2282301,0.5753028
0.1,0.0,0.6,-0.5235987755982988,0.0,0,-0.5714286,1.8515911,-0.2011816,-0.61408985,-0.17907432,1.4006163,-0.818132,0.5670834,1.4734507,0.047337435,-0.29081297,-0.011939021,1.2072618,0.4755885
0.1,0.0,0.6,-0.5235987755982988,0.0,0,-0.56312263,1.8549894,-0.18913074,-0.61378026,-0.18851306,1.3967341,-0.8633218,0.5675766,1.4670713,0.045172505,-0.2844485,-0.014931031,1.2188202,0.7015147
0.1,0.0,0.6,-0.5235987755982988,0.0,0,-0.56412977,1.8534539,-0.19293019,-0.61418426,-0.19324255,1.3995711,-0.84023595,0.5956975,1.4752706,0.05097718,-0.29313788,-0.0026101824,1.2066021,0.6876563
0.1,0.0,0.6,-0.5235987755982988,0.0,0,-0.57595205,1.8538371,-0.1875039,-0.61043036,-0.17100672,1.3921953,-0.78507584,0.5990586,1.474515,0.04900085,-0.30136198,-0.021801474,1.2228991,0.7362253
0.1,0.0,0.6,-0.5235987755982988,0.0,0,-0.56235266,1.8566954,-0.19443314,-0.60915446,-0.17972207,1.3890773,-0.7760633,0.5822023,1.4674728,0.05605197,-0.3030399,-0.006603581,1.222976,0.73082155
0.1,0.0,0.6,-0.5235987755982988,0.0,0,-0.5762437,1.8547597,-0.19536087,-0.6138481,-0.19973332,1.3912483,-0.8565159,0.56070095,1.4720023,0.05932649,-0.29234883,0.012252713,1.206622,0.6827868
0.1,0.0,0.6,-0.5235987755982988,0.0,0,-0.5705976,1.8571682,-0.1955992,-0.61030185,-0.1785928,1.3930305,-0.8595761,0.574639,1.4672652,0.050513566,-0.29492655,0.010069925,1.2142544,0.7654878
0.1,0.0,0.6,-0.5235987755982988,0.0,0,-0.5628579,1.8555543,-0.20554425,-0.6116646,-0.19840094,1.394724,-0.8435653,0.6030388,1.4648204,0.048990976,-0.30030343,-0.008929886,1.2175102,0.6762374
0.1,0.0,0.6,-0.5235987755982988,0.0,0,-0.5641772,1.8597676,-0.20421432,-0.6140983,-0.19270855,1.3998847,-0.7955115,0.5720928,1.4704386,0.052983683,-0.29267827,-0.007181035,1.2098278,0.7463953
0.1,0.0,0.6,-0.5235987755982988,0.0,0,-0.5735523,1.8562647,-0.19009124,-0.613921,-0.18923637,1.3943422,-0.8569698,0.56930023,1.4671154,0.054184433,-0.2924337,0.0034090423,1.2169316,0.7157308
0.1,0.0,0.6,-0.5235987755982988,0.0,0,-0.56971323,1.8528314,-0.19882417,-0.6117046,-0.18973431,1.3986089,-0.84194523,0.57343,1.4768054,0.04070096,-0.2830874,0.001557314,1.2103301,0.7235573
0.1,0.0,0.6,-0.5235987755982988,0.0,0,-0.5719109,1.8525603,-0.19688174,-0.61023194,-0.19722825,1.4019278,-0.807868,0.59074134,1.460322,0.05173306,-0.29946804,-0.014753614,1.2203605,0.68604594
0.1,0.0,0.6,-0.5235987755982988,0.0,0,-0.57325715,1.8520101,-0.19336833,-0.61901134,-0.18150403,1.3950677,-0.84952086,0.58853775,1.4771003,0.046374567,-0.29454547,-0.0038861951,1.2158523,0.7181311
0.1,0.0,0.6,-0.5235987755982988,0.0,0,-0.5585875,1.8549496,-0.18368582,-0.6086815,-0.17539239,1.3975701,-0.97285616,0.56121165,1.473387,0.053208865,-0.2877049,0.0005955764,1.2176596,0.72396123
0.1,0.0,0.6,-0.5235987755982988,0.0,0,-0.56445104,1.8537917,-0.19971757,-0.62012863,-0.19275753,1.4068469,-0.9317476,0.5779066,1.4687922,0.046175376,-0.28741428,0.0018318996,1.2178553,0.6672993
0.1,0.0,0.6,-0.5235987755982988,0.0,0,-0.5849294,1.8609864,-0.19351171,-0.6176225,-0.1817892,1.4027051,-0.93298835,0.58503044,1.4696683,0.04876954,-0.29484442,-0.010658663,1.213526,0.74917567
0.1,0.0,0.6,-0.5235987755982988,0.0,0,-0.5775081,1.8580416,-0.18501404,-0.61919564,-0.17630602,1.4100078,-0.835455,0.5722945,1.4728165,0.044611633,-0.28830877,-0.0077873804,1.2148212,0.6926818
0.1,0.0,0.6,-0.5235987755982988,0.0,0,-0.5860373,1.8507049,-0.19177155,-0.6130448,-0.17362694,1.4033631,-0.8066447,0.574294,1.4699872,0.058369998,-0.3012307,-0.010450383,1.219273,0.71592563
0.1,0.0,0.6,-0.5235987755982988,0.0,0,-0.580299,1.8583308,-0.19318509,-0.61355996,-0.1910048,1.4044609,-0.92874354,0.5756118,1.4789301,0.060256552,-0.30007195,-0.012157496,1.2296579,0.709042
0.1,0.0,0.6,-0.5235987755982988,0.0,0,-0.569293,1.8619293,-0.18716711,-0.61192405,-0.19210228,1.401592,-0.86437243,0.58661824,1.4688189,0.04063694,-0.2814606,-0.012359009,1.21624,0.72879875
0.1,0.0,0.6,-0.5235987755982988,0.0,0,-0.560889,1.857445,-0.19055231,-0.61738396,-0.17922719,1.4065375,-0.8775626,0.5931723,1.4539447,0.0434348,-0.29186523,-0.0030460088,1.2231264,0.6317187
0.1,0.0,0.6,-0.5235987755982988,0.0,0,-0.57006776,1.8564256,-0.19325028,-0.6113527,-0.18960433,1.4058168,-0.9172505,0.58066565,1.4780964,0.045566022,-0.29137456,-0.006859036,1.2242435,0.69970834
0.1,0.0,0.6,-0.5235987755982988,0.0,0,-0.56348157,1.8574467,-0.20092756,-0.6101992,-0.18239602,1.3986444,-0.8432046,0.5674188,1.4726305,0.057513736,-0.28752196,-0.00987255,1.2143323,0.67210525
0.1,0.0,0.6,-0.5235987755982988,0.0,0,-0.57108015,1.855223,-0.19530886,-0.61579156,-0.20170365,1.402847,-0.8166092,0.5831441,1.469399,0.058659237,-0.2897378,-0.0031461546,1.2118317,0.6884129
0.1,0.0,0.6,-0.5235987755982988,0.0,0,-0.58581054,1.8545104,-0.19398905,-0.6187469,-0.18722968,1.3949918,-0.76822126,0.5894314,1.477087,0.047670957,-0.30732593,-0.01980561,1.2171586,0.85971427
0.1,0.0,0.6,-0.5235987755982988,0.0,0,-0.56943077,1.858823,-0.18964998,-0.6106771,-0.1811443,1.3995739,-0.7954256,0.5995198,1.4622768,0.056717463,-0.29211903,-0.005285168,1.2096171,0.6971055
0.1,0.0,0.6,-0.5235987755982988,0.0,0,-0.5700368,1.8590343,-0.19475088,-0.6064473,-0.19713797,1.3949186,-0.8157881,0.5628944,1.4651707,0.056039266,-0.28134573,-0.01289187,1.203707,0.37554646
0.1,0.0,0.6,-0.5235987755982988,0.0,0,-0.55452245,1.8566792,-0.19914272,-0.6050689,-0.18086891,1.3977138,-0.9057594,0.5760125,1.4733844,0.045143455,-0.2880216,-0.0022282335,1.2197481,0.5843037
0.1,0.0,0.6,-0.5235987755982988,0.0,0,-0.57753485,1.8559253,-0.19973876,-0.61350805,-0.1802578,1.4071833,-0.90583915,0.57423127,1.4758974,0.049009744,-0.29001868,0.010067377,1.2207404,0.6152554
0.1,0.0,0.6,-0.5235987755982988,0.0,0,-0.58988726,1.8612033,-0.18386781,-0.61262757,-0.17476386,1.4029443,-0.9131638,0.57904834,1.4605985,0.049696535,-0.28583097,0.010976996,1.2128679,0.6160382
0.1,0.0,0.6,-0.5235987755982988,0.0,0,-0.5768083,1.8569386,-0.18901592,-0.6062841,-0.18696545,1.4034837,-0.8611868,0.59412247,1.4718635,0.046225473,-0.29677704,0.0052790456,1.2322625,0.60971874
0.1,0.0,0.6,-0.5235987755982988,0.0,0,-0.58503044,1.8618959,-0.1944997,-0.61488956,-0.17250519,1.4073378,-0.84825486,0.580351,1.4601994,0.05075689,-0.2853217,-0.007934232,1.214821,0.6643141
0.1,0.0,0.6,-0.5235987755982988,0.0,0,-0.56908417,1.855759,-0.18854403,-0.6117048,-0.17691046,1.4094939,-0.8790634,0.58249307,1.4724599,0.058652394,-0.29052955,0.0055910037,1.2132883,0.508875
0.1,0.0,0.6,-0.5235987755982988,0.0,0,-0.5706093,1.8637315,-0.18404137,-0.61057615,-0.19166803,1.4074177,-0.880624,0.5704369,1.4782237,0.055151027,-0.2909364,-0.016192136,1.2121482,0.35782906
0.1,0.0,0.6,-0.5235987755982988,0.0,0,-0.58765775,1.8580043,-0.18823922,-0.63522506,-0.18058181,1.4057728,-0.9360264,0.5736761,1.4633634,0.05190504,-0.3009021,0.011588299,1.2129258,0.7016206
0.1,0.0,0.6,-0.5235987755982988,0.0,0,-0.5536669,1.857849,-0.18808292,-0.6117545,-0.17463905,1.391178,-0.8368821,0.5700613,1.4675841,0.05175463,-0.2948103,-0.015578153,1.2197074,0.82246387
0.1,0.0,0.6,-0.5235987755982988,0.0,0,-0.5807558,1.8590646,-0.1896604,-0.62773126,-0.18104808,1.4043499,-0.79401994,0.5931851,1.4693707,0.058972828,-0.2940289,-0.027154872,1.2097143,0.7658893
0.1,0.0,0.6,-0.5235987755982988,0.0,0,-0.57299215,1.8527862,-0.18556114,-0.6162305,-0.16154376,1.399972,-0.8980855,0.5805329,1.4691269,0.05302374,-0.29355493,-0.0058342814,1.215274,0.6673333
0.1,0.0,0.6,-0.5235987755982988,0.0,0,-0.5834028,1.8576726,-0.19300543,-0.6149615,-0.18122655,1.3999574,-0.84836644,0.5898307,1.4610418,0.053058766,-0.28707126,-0.016042424,1.2223233,0.6084253
0.1,0.0,0.6,-0.5235987755982988,0.0,0,-0.58318996,1.8542837,-0.18980193,-0.6168628,-0.16871558,1.4041926,-0.7943284,0.5854374,1.4653487,0.056476396,-0.29223493,-0.04665084,1.2139974,0.7908688
0.1,0.0,0.6,-0.5235987755982988,0.0,0,-0.57237434,1.8559414,-0.18595205,-0.6164204,-0.19436958,1.4036732,-0.7869366,0.5696407,1.4664718,0.046892572,-0.28721958,0.014490885,1.2137825,0.73736703
0.1,0.0,0.6,-0.5235987755982988,0.0,0,-0.58501905,1.8525621,-0.18234074,-0.622947,-0.18319638,1.3948061,-0.80038166,0.5830963,1.4677684,0.038960434,-0.29424047,-0.011464325,1.2177807,0.8285198
0.1,0.0,0.6,-0.5235987755982988,0.0,0,-0.5812367,1.8578523,-0.19608682,-0.61649954,-0.17433745,1.4101279,-0.82489693,0.5885491,1.4731927,0.047122486,-0.29642352,-0.0020870003,1.2243967,0.6918829
