sanky1234/BimanualDexCatch/isaacgymenvs/cem_results/football_pose_-0.2_-0.1_1.2999999999999998_0.0_0.5235987755982988_0_2025-05-24.csv
x,y,z,roll,pitch,yaw,robot1/joint1,robot1/joint2,robot1/joint3,robot1/joint4,robot1/joint5,robot1/joint6,robot1/joint7,robot2/joint1,robot2/joint2,robot2/joint3,robot2/joint4,robot2/joint5,robot2/joint6,robot2/joint7
-0.2,-0.1,1.2999999999999998,0.0,0.5235987755982988,0,0.029360764,0.4581719,0.5627972,0.39527208,0.76028454,0.734465,-0.034285102,1.065456,1.3209407,0.17905556,-0.18930613,-0.17350301,1.4185135,0.7238524
-0.2,-0.1,1.2999999999999998,0.0,0.5235987755982988,0,0.031182455,0.45770293,0.5624312,0.39352977,0.76192456,0.7364571,-0.04702842,0.8704872,1.2443615,-0.59502083,-0.1576428,-0.3851101,1.1990849,0.8674169
-0.2,-0.1,1.2999999999999998,0.0,0.5235987755982988,0,0.029119728,0.45712733,0.5632257,0.39440328,0.75984013,0.73779845,-0.058209807,1.103896,1.2874846,-0.5982669,-0.07054658,-0.02688421,1.1660666,0.53092796
-0.2,-0.1,1.2999999999999998,0.0,0.5235987755982988,0,0.03141785,0.45680854,0.56183845,0.39440855,0.76036924,0.7358533,-0.03798768,0.91704935,1.4594785,0.06075015,-0.2723122,-0.4019548,1.1607624,-0.09170461
-0.2,-0.1,1.2999999999999998,0.0,0.5235987755982988,0,0.03020163,0.45608073,0.5625957,0.39385292,0.7625338,0.7351616,-0.041084114,0.73330253,1.3634667,0.72342616,-0.07869393,0.045895442,1.1285855,1.4254318
-0.2,-0.1,1.2999999999999998,0.0,0.5235987755982988,0,0.030161984,0.45665473,0.5615901,0.39320287,0.75996023,0.73153555,-0.011950156,1.1155076,1.3837819,0.4065363,-0.10154581,-0.072859935,1.1506481,0.43529284
-0.2,-0.1,1.2999999999999998,0.0,0.5235987755982988,0,0.03086503,0.45599204,0.5626859,0.39482343,0.7595144,0.73806643,-0.06589615,0.8366587,1.5015204,-0.22437078,-0.086302176,-0.21435118,1.4078405,0.94263303
-0.2,-0.1,1.2999999999999998,0.0,0.5235987755982988,0,0.030284818,0.4565986,0.56180125,0.39361522,0.76182765,0.7298778,-0.006544603,0.9530648,1.3699563,-0.6264882,-0.05796859,-0.010834475,1.122023,-0.25568745
-0.2,-0.1,1.2999999999999998,0.0,0.5235987755982988,0,0.030888021,0.45707527,0.5631052,0.3936954,0.7595404,0.73701113,-0.057240818,1.0268941,1.3896276,0.18025862,-0.0006423711,-0.0800418,1.201013,-0.9538381
-0.2,-0.1,1.2999999999999998,0.0,0.5235987755982988,0,0.029403072,0.45357418,0.562829,0.39391452,0.7557713,0.7347488,-0.041732833,0.8459723,1.2150269,0.35649097,-0.11472726,-0.25398597,1.1870936,-0.27237198
-0.2,-0.1,1.2999999999999998,0.0,0.5235987755982988,0,0.029695716,0.45597488,0.5636955,0.393364,0.7625033,0.73660797,-0.05223317,1.0915792,1.3945249,0.41939715,-0.026911635,-0.13519497,1.3203192,0.47130144
-0.2,-0.1,1.2999999999999998,0.0,0.5235987755982988,0,0.02981311,0.45738265,0.5616136,0.3940009,0.76036894,0.7376516,-0.03488876,1.0048577,1.4553131,-0.11536632,0.056835167,-0.19380566,1.1218592,0.15411985
-0.2,-0.1,1.2999999999999998,0.0,0.5235987755982988,0,0.03011022,0.45930055,0.56201327,0.39288557,0.7592767,0.7357673,-0.024050001,0.9977154,1.337735,-0.24502623,0.11573056,-0.119943865,1.121705,-0.23235393
-0.2,-0.1,1.2999999999999998,0.0,0.5235987755982988,0,0.029567923,0.45922303,0.5628034,0.3943485,0.7609501,0.7326242,-0.006443818,1.0418866,1.4137182,0.48428333,-0.089483075,-0.25824395,1.3259422,0.7733228
-0.2,-0.1,1.2999999999999998,0.0,0.5235987755982988,0,0.03046578,0.45646957,0.5616323,0.39467737,0.76040125,0.73522776,-0.034534946,0.9488151,1.4423298,-0.4562999,-0.1036096,0.17120923,1.1680714,0.38029015
-0.2,-0.1,1.2999999999999998,0.0,0.5235987755982988,0,0.029782755,0.45722812,0.56313545,0.3936298,0.7629693,0.7368443,-0.041974846,0.77216053,1.3559844,0.90781575,-0.014585563,-0.25855964,1.2713975,0.2709992
-0.2,-0.1,1.2999999999999998,0.0,0.5235987755982988,0,0.02934855,0.4582778,0.56537807,0.39349177,0.7578947,0.7335328,-0.008847122,1.0504397,1.2762656,-0.87330246,0.044203002,-0.4708633,1.1118994,-0.30447656
-0.2,-0.1,1.2999999999999998,0.0,0.5235987755982988,0,0.029261764,0.45609432,0.56292963,0.3938112,0.7576986,0.7332302,-0.02061956,1.17425,1.3509326,0.41250065,-0.16953975,-0.06161061,1.0831566,-0.011629789
-0.2,-0.1,1.2999999999999998,0.0,0.5235987755982988,0,0.031893402,0.4569898,0.56305194,0.3940982,0.75996,0.73806375,-0.07461646,1.2350692,1.1499509,-0.03708809,-0.104011856,-0.19256617,1.3414716,0.98457825
-0.2,-0.1,1.2999999999999998,0.0,0.5235987755982988,0,0.029550105,0.45360738,0.56109446,0.39386594,0.7645393,0.7388626,-0.0600616,0.6613068,1.2505772,0.60368806,0.03738058,-0.27044848,1.3134885,-0.7021098
-0.2,-0.1,1.2999999999999998,0.0,0.5235987755982988,0,0.030056665,0.45867723,0.5601468,0.39339238,0.7645345,0.7321327,0.0019020458,0.820819,1.2541165,-0.36841223,-0.07607435,-0.44776502,1.2050246,0.7237461
-0.2,-0.1,1.2999999999999998,0.0,0.5235987755982988,0,0.029599918,0.45826703,0.5625816,0.3932924,0.76046944,0.7366224,-0.024120387,0.8554605,1.4562846,-0.43540365,0.04141283,0.029646607,1.2838593,2.4921029
-0.2,-0.1,1.2999999999999998,0.0,0.5235987755982988,0,0.030160282,0.45969716,0.5605049,0.39287376,0.7607986,0.736244,-0.017967824,1.3031464,1.3202862,-0.128717,0.033869185,-0.21074158,1.0326412,-0.9964358
-0.2,-0.1,1.2999999999999998,0.0,0.5235987755982988,0,0.028779848,0.45665923,0.5629466,0.39382154,0.7608135,0.73781013,-0.022125708,1.1786791,1.1970326,-0.39715186,-0.20020704,-0.21808286,0.996817,0.32635322
-0.2,-0.1,1.2999999999999998,0.0,0.5235987755982988,0,0.029753197,0.4538575,0.5591171,0.39442685,0.76369053,0.7357787,-0.015381234,0.6243588,1.3090429,-0.35260087,0.08598808,-0.26669896,0.99035317,-0.1984234
-0.2,-0.1,1.2999999999999998,0.0,0.5235987755982988,0,0.030218977,0.45279393,0.5611593,0.39453068,0.76492923,0.735371,-0.04197068,0.923438,1.2910477,-0.78842044,-0.10021339,-0.49813455,1.1236677,0.061531626
-0.2,-0.1,1.2999999999999998,0.0,0.5235987755982988,0,0.030229235,0.4559218,0.5620402,0.3942994,0.76338714,0.73442197,-0.027634028,1.2526759,1.3464284,-0.1872714,-0.053630386,-0.29397243,1.260965,-0.7165024
-0.2,-0.1,1.2999999999999998,0.0,0.5235987755982988,0,0.028736493,0.45773572,0.563375,0.39494154,0.7616249,0.73398703,-0.008383656,1.0446702,1.2972467,0.4546343,0.09351926,-0.32180163,1.1758215,-0.20582949
-0.2,-0.1,1.2999999999999998,0.0,0.5235987755982988,0,0.030173356,0.4578359,0.56345314,0.39354688,0.7608944,0.73465073,-0.020316765,1.1653256,1.3193088,0.35882044,0.092316724,-0.10752306,1.2162765,0.8280769
-0.2,-0.1,1.2999999999999998,0.0,0.5235987755982988,0,0.029671397,0.45698714,0.5627618,0.39313555,0.7618241,0.7339495,-0.026077583,1.0522532,1.34284,0.20503378,0.009101074,-0.16352944,1.1040304,1.3134924
-0.2,-0.1,1.2999999999999998,0.0,0.5235987755982988,0,0.029682636,0.45615357,0.5630297,0.39307234,0.7662625,0.73554146,-0.017927345,0.9572828,1.38538,-0.1497672,0.16253616,-0.2531974,1.1598716,1.367463
-0.2,-0.1,1.2999999999999998,0.0,0.5235987755982988,0,0.029529937,0.4548421,0.5615707,0.39489534,0.76428896,0.73368686,-0.032205522,1.0325105,1.2215457,-0.20636685,-0.14079458,-0.29285678,1.2601384,1.2274512
-0.2,-0.1,1.2999999999999998,0.0,0.5235987755982988,0,0.029710604,0.45854864,0.562273,0.39409137,0.76559496,0.7386725,-0.03361362,0.61043596,1.4847047,-0.36280033,0.09606137,-0.47152492,1.3473015,0.092939325
-0.2,-0.1,1.2999999999999998,0.0,0.5235987755982988,0,0.030095192,0.45349896,0.55986434,0.39446396,0.7586828,0.7349418,-0.01148759,1.0890499,1.3652554,0.70540863,-0.09527711,-0.3817491,1.1268444,0.5934762
-0.2,-0.1,1.2999999999999998,0.0,0.5235987755982988,0,0.029075522,0.4576175,0.5649272,0.39329892,0.76207834,0.7400388,-0.04478595,0.82015306,1.2146324,-0.52865916,0.0960058,0.017800005,0.9318161,0.33544618
-0.2,-0.1,1.2999999999999998,0.0,0.5235987755982988,0,0.029751012,0.45671192,0.5616307,0.3953563,0.7611654,0.7365467,-0.011469024,1.3166754,1.3066483,0.9184091,-0.038562175,-0.30859488,1.0177554,0.30907434
-0.2,-0.1,1.2999999999999998,0.0,0.5235987755982988,0,0.029804682,0.45432144,0.562947,0.39456022,0.76424843,0.7384698,-0.05947659,0.8575205,1.3849068,-0.25670308,-0.038258657,0.090190575,1.1839181,0.5102308
-0.2,-0.1,1.2999999999999998,0.0,0.5235987755982988,0,0.029836059,0.45445716,0.56204027,0.39367133,0.75968164,0.73470604,-0.019941311,0.478853,1.3045058,-0.48568782,-0.13591528,-0.03334879,0.9952854,0.31030002
-0.2,-0.1,1.2999999999999998,0.0,0.5235987755982988,0,0.02919395,0.45697516,0.5643723,0.39399928,0.7620865,0.73763025,-0.03744541,0.77486384,1.269254,0.08359873,-0.13638104,-0.3408696,1.070343,-0.7003681
-0.2,-0.1,1.2999999999999998,0.0,0.5235987755982988,0,0.031058658,0.4585642,0.5637955,0.39412448,0.76059055,0.73779863,-0.05055315,0.6958185,1.3007795,-0.34451535,-0.12866409,-0.13980058,1.2256713,0.012119703
-0.2,-0.1,1.2999999999999998,0.0,0.5235987755982988,0,0.02892804,0.4585531,0.56253403,0.39437276,0.7547125,0.7342327,0.0066133854,1.2394074,1.2755129,-0.689399,0.078622706,-0.09084937,1.3030038,1.6295074
-0.2,-0.1,1.2999999999999998,0.0,0.5235987755982988,0,0.029707963,0.45573202,0.56249064,0.39274248,0.7592561,0.7344892,-0.01363314,0.7475635,1.3440104,-0.43032867,-0.13245748,-0.17002307,1.2128966,0.6711464
-0.2,-0.1,1.2999999999999998,0.0,0.5235987755982988,0,0.029024938,0.45462972,0.5628357,0.39516547,0.75894725,0.73314494,-0.008246742,1.1336113,1.2145116,0.07074735,0.102173895,-0.3382903,1.1569707,0.59110445
-0.2,-0.1,1.2999999999999998,0.0,0.5235987755982988,0,0.030729055,0.4579643,0.56089294,0.39285597,0.75873977,0.7362662,-0.01588407,0.81536394,1.2390653,-0.54283905,-0.07873413,0.14982148,1.2421472,-1.0004828
-0.2,-0.1,1.2999999999999998,0.0,0.5235987755982988,0,0.030641228,0.45485073,0.56242126,0.39460802,0.76714534,0.73371106,-0.005924218,1.1062572,1.2997496,0.16531095,0.18697357,-0.2819224,1.147874,1.7219846
-0.2,-0.1,1.2999999999999998,0.0,0.5235987755982988,0,0.029444976,0.45349115,0.5618785,0.39574572,0.76233685,0.7374303,-0.0284411,1.2277788,1.3350096,-0.79900056,-0.031345144,-0.27027914,1.0345081,-0.30904055
-0.2,-0.1,1.2999999999999998,0.0,0.5235987755982988,0,0.031383026,0.455676,0.56278825,0.39401668,0.7581097,0.73773366,-0.039355382,0.86954236,1.3430665,-0.005557765,0.052083455,-0.23166136,1.1985686,1.365285
-0.2,-0.1,1.2999999999999998,0.0,0.5235987755982988,0,0.030613335,0.45585555,0.5626339,0.39365003,0.7591232,0.73699343,-0.02106994,0.9143591,1.2054756,-0.32620978,0.05975103,-0.2133292,1.22342,1.3321886
-0.2,-0.1,1.2999999999999998,0.0,0.5235987755982988,0,0.030081624,0.45712936,0.56222945,0.3943736,0.7617707,0.7433048,-0.06708607,0.8696109,1.3375788,-0.040234882,-0.043857757,-0.07169811,0.989381,1.3178084
-0.2,-0.1,1.2999999999999998,0.0,0.5235987755982988,0,0.028752571,0.4571798,0.5611983,0.3951685,0.75972587,0.73285747,0.015480082,0.9329361,1.2909601,-0.70369303,-0.18783437,-0.08979421,1.2923905,0.15783396
-0.2,-0.1,1.2999999999999998,0.0,0.5235987755982988,0,0.030312967,0.456819,0.562129,0.39219192,0.76002365,0.73699844,-0.016649084,0.8971094,1.1703639,-0.49514744,0.04392105,-0.040321134,1.2545296,0.37678733
-0.2,-0.1,1.2999999999999998,0.0,0.5235987755982988,0,0.029782426,0.45575288,0.5638449,0.39413443,0.75858074,0.73604536,-0.013099513,1.1225611,1.3218756,-1.0338186,0.006282849,-0.041140355,1.221791,0.16054101
-0.2,-0.1,1.2999999999999998,0.0,0.5235987755982988,0,0.029111933,0.45471576,0.56358784,0.39298648,0.76095253,0.738057,-0.028499262,1.2972891,1.4346659,-0.23258595,-0.053357173,-0.34733054,1.2384193,0.40419075
-0.2,-0.1,1.2999999999999998,0.0,0.5235987755982988,0,0.029790675,0.45694968,0.5637783,0.39387482,0.7596576,0.73605615,-0.0054204213,0.9310781,1.2101041,-0.6175095,0.03897336,-0.24260695,1.2217379,0.49577686
-0.2,-0.1,1.2999999999999998,0.0,0.5235987755982988,0,0.031973112,0.45832857,0.5630375,0.39426097,0.76125425,0.73554695,-0.022360018,1.1587882,1.433269,-0.4051527,-0.053067304,0.003734974,1.3231255,1.1268163
-0.2,-0.1,1.2999999999999998,0.0,0.5235987755982988,0,0.02971426,0.4580333,0.5612362,0.3935497,0.7600155,0.736111,0.0035548918,0.69404095,1.3156244,-0.5598981,0.054526508,-0.31926805,1.3003942,0.8482392
-0.2,-0.1,1.2999999999999998,0.0,0.5235987755982988,0,0.030694114,0.4554228,0.5617235,0.39366695,0.7563892,0.7364005,0.004084784,1.1042161,1.3146938,0.53596723,-0.0744555,-0.26724446,1.062652,0.57508236
-0.2,-0.1,1.2999999999999998,0.0,0.5235987755982988,0,0.029018156,0.4556545,0.5623704,0.3934425,0.75916916,0.7393263,-0.011429388,1.0199671,1.2890962,-0.005364238,-0.2207809,-0.3792005,0.8957059,0.4643626
-0.2,-0.1,1.2999999999999998,0.0,0.5235987755982988,0,0.030145451,0.45582572,0.5627675,0.39525476,0.76084405,0.7363085,-0.013685548,1.2736816,1.3266286,0.36497104,-0.032191545,-0.43829006,1.0764742,-0.9271902
-0.2,-0.1,1.2999999999999998,0.0,0.5235987755982988,0,0.03173598,0.45600465,0.561933,0.39514804,0.757215,0.7375159,-0.016532145,1.287296,1.4113503,1.0777711,0.083768986,-0.008607702,1.0021018,0.13719322
-0.2,-0.1,1.2999999999999998,0.0,0.5235987755982988,0,0.031851843,0.45576835,0.5613775,0.39334828,0.76256424,0.73776597,-0.022259999,1.1208241,1.3870659,-0.05123323,0.034931406,-0.10089307,1.2044994,-0.066320874
-0.2,-0.1,1.2999999999999998,0.0,0.5235987755982988,0,0.029698133,0.4569368,0.56292754,0.39355704,0.75984687,0.73978263,-0.022592422,0.6995766,1.3050663,-0.1129093,0.09741814,-0.16882247,1.206981,-0.4418127
-0.2,-0.1,1.2999999999999998,0.0,0.5235987755982988,0,0.029253853,0.45601523,0.56405085,0.39435348,0.761298,0.7386445,-0.03334655,0.8531141,1.3388544,0.39017716,-0.030640237,-0.3537046,1.1560988,-0.16076279
-0.2,-0.1,1.2999999999999998,0.0,0.5235987755982988,0,0.028633751,0.45574158,0.562032,0.39417624,0.76414347,0.73543334,-0.0061463495,1.0060699,1.366179,-0.22911435,-0.11426157,-0.27176043,1.1985581,0.61393976
-0.2,-0.1,1.2999999999999998,0.0,0.5235987755982988,0,0.028745173,0.45736063,0.5606526,0.3935417,0.76508,0.73738146,0.003312508,0.5792477,1.3973022,-0.20329976,0.023107972,-0.19102478,1.1493982,0.10197123
-0.2,-0.1,1.2999999999999998,0.0,0.5235987755982988,0,0.029698046,0.45331797,0.56403714,0.3943136,0.7601671,0.7386921,-0.030876702,0.6155858,1.3028264,-0.25455764,-0.0030623963,-0.13114083,1.1181345,-0.16184245
-0.2,-0.1,1.2999999999999998,0.0,0.5235987755982988,0,0.03007282,0.457105,0.5638828,0.3938115,0.75896585,0.7390575,-0.015811384,0.8405242,1.3093184,-0.34595507,-0.024061702,-0.054585554,1.0752729,-1.1896515
-0.2,-0.1,1.2999999999999998,0.0,0.5235987755982988,0,0.029646073,0.4575525,0.56338364,0.3929747,0.75887537,0.7413467,-0.016488807,1.0587518,1.3422394,-0.28817353,-0.1382299,-0.49294263,1.130243,-1.0517025
-0.2,-0.1,1.2999999999999998,0.0,0.5235987755982988,0,0.031185823,0.45566046,0.5621656,0.39459154,0.7616606,0.73563284,0.0034105864,1.0286968,1.3706818,0.3123316,-0.054159056,-0.13615364,1.2519879,1.255726
-0.2,-0.1,1.2999999999999998,0.0,0.5235987755982988,0,0.030671367,0.45485315,0.5634026,0.3941432,0.76376146,0.73491067,0.013558631,0.58639026,1.3940587,-0.12579738,-0.012067383,-0.18374339,1.2796646,0.07034912
-0.2,-0.1,1.2999999999999998,0.0,0.5235987755982988,0,0.029215518,0.4535922,0.5628187,0.39293435,0.7613869,0.73969674,0.010724878,1.1922064,1.3016838,0.53513813,0.106244914,-0.09823768,1.2974724,1.4950734
-0.2,-0.1,1.2999999999999998,0.0,0.5235987755982988,0,0.032576013,0.45556435,0.56338,0.3940225,0.7587272,0.74049556,-0.010042543,0.7625879,1.3216356,0.05290219,-0.15862638,-0.5334103,1.2380828,1.4108362
-0.2,-0.1,1.2999999999999998,0.0,0.5235987755982988,0,0.027973317,0.4570403,0.56151825,0.39333382,0.76258636,0.73354554,-0.10791976,0.9669017,1.3287951,0.3196488,0.100239076,0.103943676,1.1244501,-0.5014007
-0.2,-0.1,1.2999999999999998,0.0,0.5235987755982988,0,0.031484455,0.4556563,0.56034684,0.39392295,0.76537824,0.7334754,-0.08799227,0.9248236,1.2468958,0.22458327,0.280804,-0.25536957,1.4070741,0.7544882
-0.2,-0.1,1.2999999999999998,0.0,0.5235987755982988,0,0.029644495,0.4569217,0.56217456,0.39278498,0.7614155,0.72935563,-0.054965407,0.7116693,1.3496288,-0.6331145,0.12851094,-0.30635205,1.1553999,-0.19594176
-0.2,-0.1,1.2999999999999998,0.0,0.5235987755982988,0,0.02882575,0.4552545,0.5619435,0.39366734,0.7630298,0.73528516,-0.08522104,0.92360026,1.259644,0.39329815,0.20826393,-0.40174794,1.0426393,2.0083735
-0.2,-0.1,1.2999999999999998,0.0,0.5235987755982988,0,0.02995981,0.45664534,0.56358856,0.39410564,0.76018447,0.73196924,-0.09093833,1.0201601,1.3432719,-0.071377754,-0.041492812,-0.14869007,1.2766838,0.52037454
-0.2,-0.1,1.2999999999999998,0.0,0.5235987755982988,0,0.02970775,0.45676517,0.5637278,0.39438927,0.7593432,0.7342285,-0.094755,0.94216067,1.3142184,-0.5250337,0.07800367,-0.37174696,1.2344315,-0.15690671
-0.2,-0.1,1.2999999999999998,0.0,0.5235987755982988,0,0.030127415,0.45437196,0.56218517,0.39302117,0.75981176,0.73332465,-0.09681199,0.970925,1.3373908,-0.00952956,-0.10611895,0.028460262,1.3045983,0.53529143
-0.2,-0.1,1.2999999999999998,0.0,0.5235987755982988,0,0.029224247,0.45601934,0.56126946,0.39504507,0.7653026,0.73147637,-0.08118173,0.8302157,1.2688963,-0.5574756,-0.0658598,-0.34708533,1.2540336,0.5206612
-0.2,-0.1,1.2999999999999998,0.0,0.5235987755982988,0,0.030304622,0.45711356,0.56288254,0.39498296,0.7621537,0.7332003,-0.073763356,0.9852852,1.3025649,-0.1893693,-0.31577456,-0.5067889,1.1308544,1.143934
-0.2,-0.1,1.2999999999999998,0.0,0.5235987755982988,0,0.030537449,0.45605677,0.56147945,0.391769,0.76370496,0.72815627,-0.043183833,0.9377453,1.4076364,0.38845596,-0.014316891,0.09495344,1.2973963,0.22472763
-0.2,-0.1,1.2999999999999998,0.0,0.5235987755982988,0,0.030537464,0.4565491,0.56247103,0.39334646,0.76351565,0.7324669,-0.076674156,0.84708905,1.3732911,-0.26484516,-0.027709475,-0.3399934,1.2335374,-1.5501661
-0.2,-0.1,1.2999999999999998,0.0,0.5235987755982988,0,0.0302872,0.4576966,0.5599212,0.3919691,0.75924844,0.73884064,-0.09755263,0.88326657,1.3238163,0.017451676,-0.04758548,0.20709969,1.1300615,0.52100164
-0.2,-0.1,1.2999999999999998,0.0,0.5235987755982988,0,0.03108758,0.45595133,0.5620862,0.39216524,0.7600993,0.7364859,-0.07710703,1.1553518,1.2666513,0.6830286,0.13179727,-0.39018664,1.2142932,1.4287434
-0.2,-0.1,1.2999999999999998,0.0,0.5235987755982988,0,0.03015393,0.4560992,0.56048906,0.39385718,0.76187986,0.73290634,-0.06527298,1.0565016,1.3412321,0.048378658,0.069098726,-0.31443185,1.0741304,0.7455688
-0.2,-0.1,1.2999999999999998,0.0,0.5235987755982988,0,0.028584866,0.45574224,0.5627835,0.39301804,0.7587198,0.7323394,-0.061903536,0.9717934,1.3311146,-1.0164888,-0.09813984,-0.19221576,1.1556838,-0.020099793
-0.2,-0.1,1.2999999999999998,0.0,0.5235987755982988,0,0.027584534,0.45819828,0.5610723,0.3925693,0.7646297,0.73103344,-0.032450788,1.558356,1.2805704,0.20763424,-0.016144471,0.015087843,1.1187513,0.547307
-0.2,-0.1,1.2999999999999998,0.0,0.5235987755982988,0,0.029865399,0.45624846,0.5612648,0.3935518,0.7607701,0.73543733,-0.08540286,1.3409249,1.3361439,0.22561845,0.03269918,-0.31807342,1.0903332,0.52755696
-0.2,-0.1,1.2999999999999998,0.0,0.5235987755982988,0,0.028780257,0.45513144,0.56182337,0.39324713,0.7607432,0.73087,-0.049991183,0.8464726,1.2748326,0.11251866,-0.13538705,-0.2596189,1.0829284,-1.0953913
-0.2,-0.1,1.2999999999999998,0.0,0.5235987755982988,0,0.029792322,0.45706952,0.56123674,0.39371815,0.7610773,0.7308621,-0.055770822,1.2274293,1.3953533,0.5009237,-0.00077827275,-0.03201559,1.2208688,-0.20511056
-0.2,-0.1,1.2999999999999998,0.0,0.5235987755982988,0,0.030396959,0.4572195,0.5609145,0.3933987,0.76109385,0.73262495,-0.06373446,1.085916,1.3724566,0.16612035,-0.0075998874,-0.23972286,1.1358268,0.48307282
-0.2,-0.1,1.2999999999999998,0.0,0.5235987755982988,0,0.0313468,0.45438904,0.56056166,0.39562407,0.7604514,0.72751176,-0.044266425,1.1862475,1.2142683,-0.13758521,0.076072395,-0.27737784,1.0681237,-0.10480474
-0.2,-0.1,1.2999999999999998,0.0,0.5235987755982988,0,0.029052887,0.45558912,0.5625839,0.39361066,0.76336396,0.7321378,-0.06116987,0.86756486,1.1950256,-0.5802252,0.10609301,-0.30846164,1.3126551,1.1620619
-0.2,-0.1,1.2999999999999998,0.0,0.5235987755982988,0,0.030252546,0.4549961,0.5631047,0.39460635,0.76154673,0.73321533,-0.07621572,0.92702234,1.3696356,-0.38178715,0.01575973,-0.24190706,1.097513,0.64707845
-0.2,-0.1,1.2999999999999998,0.0,0.5235987755982988,0,0.029331997,0.4560989,0.56241417,0.39283043,0.7624039,0.73532236,-0.08183217,0.7667718,1.4339011,-0.052232303,-0.18928894,-0.12674816,1.1673805,-0.2790368
-0.2,-0.1,1.2999999999999998,0.0,0.5235987755982988,0,0.028427327,0.45783144,0.5626639,0.3942306,0.7621582,0.7317682,-0.054863587,1.1537122,1.2176734,-0.77152365,-0.089655176,-0.17851657,1.2556348,-0.26712254
-0.2,-0.1,1.2999999999999998,0.0,0.5235987755982988,0,0.02943937,0.45550287,0.5631653,0.39365444,0.76405287,0.73134464,-0.069494,1.0800508,1.3912735,0.67990875,-0.025400886,-0.29315844,1.3356506,0.970678
-0.2,-0.1,1.2999999999999998,0.0,0.5235987755982988,0,0.028765492,0.45626432,0.5616942,0.39298075,0.76519847,0.73366785,-0.062482305,0.91207945,1.3799726,0.09026052,-0.015824981,0.051238604,1.3134227,1.2408915
-0.2,-0.1,1.2999999999999998,0.0,0.5235987755982988,0,0.029241,0.45491087,0.55933005,0.39402863,0.7621992,0.73743814,-0.065907106,1.0625004,1.1457037,0.84480697,-0.043223564,-0.324484,1.128717,0.31575942
-0.2,-0.1,1.2999999999999998,0.0,0.5235987755982988,0,0.03029282,0.4574544,0.5608851,0.39271033,0.76568145,0.73617566,-0.07740201,0.7318001,1.3463753,-0.70734245,0.046064667,-0.33032966,1.1889693,1.3403125
-0.2,-0.1,1.2999999999999998,0.0,0.5235987755982988,0,0.03042573,0.45812467,0.56275856,0.39256653,0.7586588,0.73246956,-0.0573651,1.1814028,1.3608602,-0.17550512,0.053746194,0.1794412,1.0453496,-0.073335
-0.2,-0.1,1.2999999999999998,0.0,0.5235987755982988,0,0.0287589,0.45688403,0.56123126,0.3949436,0.7593667,0.736215,-0.07756044,1.0182829,1.425779,-0.62997144,-0.09173811,-0.24609226,1.087414,0.4154285
-0.2,-0.1,1.2999999999999998,0.0,0.5235987755982988,0,0.029991059,0.45614314,0.5625868,0.3948003,0.7577827,0.7344255,-0.05962575,0.84187233,1.1602217,-0.28964648,-0.15540984,-0.19329627,1.0340885,0.23032363
-0.2,-0.1,1.2999999999999998,0.0,0.5235987755982988,0,0.030268265,0.45729068,0.5584547,0.39338723,0.76463324,0.73657453,-0.053363726,1.0626417,1.304042,-0.9187351,0.102774836,-0.30155653,1.2942191,0.9348134
-0.2,-0.1,1.2999999999999998,0.0,0.5235987755982988,0,0.02941685,0.45392433,0.56111395,0.39495555,0.7607309,0.73176694,-0.05149152,1.1540817,1.2955768,-0.0012902403,-0.20590405,-0.17330444,1.0418832,-0.68854165
-0.2,-0.1,1.2999999999999998,0.0,0.5235987755982988,0,0.027998207,0.4549514,0.5614553,0.39517155,0.7631675,0.7342307,-0.062646024,1.1380143,1.3486023,0.62023073,0.036153216,-0.6594209,1.2883998,0.56495124
-0.2,-0.1,1.2999999999999998,0.0,0.5235987755982988,0,0.027906207,0.4559053,0.5599362,0.39484307,0.7574134,0.73342574,-0.032473296,0.66083014,1.2598293,-0.54605997,-0.024413342,-0.50194895,1.4594704,-0.06457884
-0.2,-0.1,1.2999999999999998,0.0,0.5235987755982988,0,0.029274639,0.4580028,0.5608482,0.39311808,0.76094174,0.7333913,-0.031086426,1.0296112,1.2805401,-1.0407139,0.121891126,0.057557605,1.1812181,-0.11666427
-0.2,-0.1,1.2999999999999998,0.0,0.5235987755982988,0,0.029612388,0.45656425,0.56067455,0.3935393,0.75880915,0.73362744,-0.03851692,1.0141464,1.2099022,-0.49746183,0.11284426,-0.19770618,1.1277865,0.48893294
-0.2,-0.1,1.2999999999999998,0.0,0.5235987755982988,0,0.029301757,0.45395842,0.562917,0.3938181,0.7592692,0.73211485,-0.05368599,1.1802956,1.2176293,-0.3631485,-0.11224866,-0.14049882,1.0163769,1.312399
-0.2,-0.1,1.2999999999999998,0.0,0.5235987755982988,0,0.028837351,0.45574692,0.5623692,0.39426735,0.7623571,0.7350596,-0.073664196,0.9564968,1.1667923,0.45940378,-0.11942564,-0.12846906,1.2154275,0.5606684
-0.2,-0.1,1.2999999999999998,0.0,0.5235987755982988,0,0.028944267,0.4546248,0.56075144,0.39382765,0.7636281,0.73339146,-0.055053633,0.91485196,1.3965917,0.38419494,-0.036026213,-0.1678512,1.1934713,0.21587017
-0.2,-0.1,1.2999999999999998,0.0,0.5235987755982988,0,0.029890507,0.45626283,0.5622385,0.39471158,0.7595603,0.73414963,-0.061095443,1.1531053,1.2651014,0.20854269,0.019760018,-0.19858848,1.1072819,1.5106153
-0.2,-0.1,1.2999999999999998,0.0,0.5235987755982988,0,0.029204449,0.45427415,0.5605327,0.392722,0.76315856,0.7381564,-0.06604563,0.79953146,1.3475498,-0.35262492,0.059194233,-0.7120953,1.2714486,-0.5038113
-0.2,-0.1,1.2999999999999998,0.0,0.5235987755982988,0,0.027064372,0.45658267,0.56305057,0.39462054,0.7609191,0.73655325,-0.06699559,0.7454068,1.3635869,-0.61340237,-0.056250285,-0.25895083,0.9939235,-0.4507144
-0.2,-0.1,1.2999999999999998,0.0,0.5235987755982988,0,0.029720807,0.4566414,0.5629782,0.3934486,0.75857735,0.7298414,-0.026703328,0.94298047,1.3298101,0.32088393,-0.114406,-0.08075781,1.0035045,-0.335769
-0.2,-0.1,1.2999999999999998,0.0,0.5235987755982988,0,0.0289365,0.4572302,0.5611037,0.39462176,0.7604898,0.7333807,-0.039439723,0.6630306,1.4026992,-0.47156394,-0.16441321,-0.0264678,1.2156174,-0.40577826
-0.2,-0.1,1.2999999999999998,0.0,0.5235987755982988,0,0.030692697,0.4559913,0.56257415,0.39404947,0.7604576,0.73629683,-0.061250683,1.42109,1.2500575,0.34954065,-0.14275175,0.22247286,0.9490408,0.06824361
-0.2,-0.1,1.2999999999999998,0.0,0.5235987755982988,0,0.029590722,0.45457655,0.5609882,0.39521763,0.76394063,0.7349406,-0.0677577,0.8236481,1.191875,-0.5077193,-0.15433434,-0.14868876,1.2894129,0.08084454
-0.2,-0.1,1.2999999999999998,0.0,0.5235987755982988,0,0.029235015,0.4562977,0.5632719,0.39417455,0.7666121,0.7359401,-0.06914393,1.0871965,1.2332573,0.34552526,-0.050488014,-0.20915624,1.195203,0.12557663
-0.2,-0.1,1.2999999999999998,0.0,0.5235987755982988,0,0.029077198,0.45724788,0.55897677,0.39363486,0.7610927,0.7319405,-0.004199937,0.8763215,1.3556156,-0.45473275,-0.1473043,-0.2140392,1.3040859,-0.44711465
-0.2,-0.1,1.2999999999999998,0.0,0.5235987755982988,0,0.027466523,0.45571458,0.56191313,0.39335722,0.75995296,0.7358514,-0.04742115,0.66205555,1.219272,-0.19467202,-0.029885063,-0.16893345,1.3106035,1.0860436
-0.2,-0.1,1.2999999999999998,0.0,0.5235987755982988,0,0.029469525,0.45572662,0.5611366,0.39464164,0.75946134,0.73035306,-0.021772014,0.62130713,1.3184761,0.15985104,-0.14591545,0.19608542,1.1690974,0.98602027
-0.2,-0.1,1.2999999999999998,0.0,0.5235987755982988,0,0.030821102,0.4563914,0.56390035,0.39323273,0.7565813,0.73317283,-0.035564058,1.2196374,1.2133994,-0.7916705,0.036913667,0.10581093,1.2622671,-0.3490276
-0.2,-0.1,1.2999999999999998,0.0,0.5235987755982988,0,0.028875338,0.454796,0.5630093,0.39493597,0.758261,0.7325611,-0.048519492,0.7894966,1.3474035,-0.0649009,0.07587689,-0.3280284,1.1613418,0.21212
-0.2,-0.1,1.2999999999999998,0.0,0.5235987755982988,0,0.029326987,0.45567012,0.5624834,0.39271656,0.7602933,0.73181313,-0.030179385,0.7376356,1.2153852,-0.06928908,-0.18040852,-0.24494146,1.2594448,0.29592162
-0.2,-0.1,1.2999999999999998,0.0,0.5235987755982988,0,0.030591715,0.45808566,0.5600213,0.39407215,0.761061,0.73307,-0.03458512,1.4215415,1.2304369,-0.0005254032,-0.031154603,-0.10906594,1.1742328,-0.08020139
-0.2,-0.1,1.2999999999999998,0.0,0.5235987755982988,0,0.030130813,0.4578219,0.562378,0.39383298,0.7631421,0.73519266,-0.036761172,1.1154253,1.3535303,0.7539429,-0.22068647,-0.09929173,0.97178704,0.3751445
-0.2,-0.1,1.2999999999999998,0.0,0.5235987755982988,0,0.03024393,0.4548548,0.5633988,0.39427984,0.7606249,0.7348312,-0.060367383,1.1546532,1.2437749,0.0059201834,0.045679785,-0.11077257,1.0808424,-0.448816
-0.2,-0.1,1.2999999999999998,0.0,0.5235987755982988,0,0.029619092,0.4576363,0.56302506,0.3939647,0.76854384,0.7352777,-0.05049536,0.91034067,1.3380822,-0.2672069,0.07945565,-0.4146377,1.1062487,1.2083107
-0.2,-0.1,1.2999999999999998,0.0,0.5235987755982988,0,0.028931823,0.4570081,0.5622737,0.3947312,0.75996864,0.73467875,-0.058626384,1.0581703,1.2192161,0.04319426,-0.11295581,-0.25489384,1.26008,0.45664006
-0.2,-0.1,1.2999999999999998,0.0,0.5235987755982988,0,0.029260006,0.45572904,0.56370944,0.39364013,0.7612009,0.7397851,-0.07590625,1.0395334,1.2450761,-0.94799554,-0.108886056,-0.30542526,1.0501442,0.59092605
-0.2,-0.1,1.2999999999999998,0.0,0.5235987755982988,0,0.029939866,0.45690128,0.5611602,0.3945211,0.76061827,0.7378333,-0.05051551,1.0636832,1.2727871,-1.0623634,-0.0010406337,-0.44473717,1.1893649,-0.060983077
-0.2,-0.1,1.2999999999999998,0.0,0.5235987755982988,0,0.02877552,0.4585883,0.5614282,0.3934852,0.76353526,0.73469144,-0.039398007,1.185052,1.2898606,0.26620218,0.019744923,0.07817469,1.0532455,-0.39118814
-0.2,-0.1,1.2999999999999998,0.0,0.5235987755982988,0,0.029825548,0.45486638,0.5623371,0.394389,0.75716615,0.7342575,-0.05198103,0.9345739,1.1685606,-0.103249624,0.08437545,-0.14751135,1.1200002,-0.46602857
-0.2,-0.1,1.2999999999999998,0.0,0.5235987755982988,0,0.030739028,0.4564268,0.5625674,0.39254832,0.7613012,0.7332084,-0.019033358,0.8394302,1.2541195,-0.061957143,-0.17012796,-0.061322372,0.77076167,0.95071924
-0.2,-0.1,1.2999999999999998,0.0,0.5235987755982988,0,0.030696716,0.45818722,0.56217927,0.39379215,0.7651769,0.7364948,-0.06262409,1.3429912,1.3465266,-0.5596747,-0.13926859,-0.16074361,1.1583223,0.069940545
-0.2,-0.1,1.2999999999999998,0.0,0.5235987755982988,0,0.028728813,0.45625183,0.5617643,0.39404318,0.75911903,0.73585755,-0.038394727,0.6393823,1.3698847,0.17581627,0.13191117,-0.15411101,1.3522263,0.113759644
-0.2,-0.1,1.2999999999999998,0.0,0.5235987755982988,0,0.029944396,0.4562108,0.5607642,0.39441466,0.7652682,0.73721457,-0.05143903,1.1630372,1.208616,0.34805787,-0.15679127,-0.47320527,1.1529115,-0.67739755
-0.2,-0.1,1.2999999999999998,0.0,0.5235987755982988,0,0.028814599,0.45466134,0.56236637,0.39342168,0.75769347,0.7366461,-0.055853765,0.5703584,1.2806959,-0.23873794,-0.10131743,-0.53980446,1.4064162,0.26409435
-0.2,-0.1,1.2999999999999998,0.0,0.5235987755982988,0,0.028903782,0.4552173,0.56276304,0.3948838,0.7605187,0.73293746,-0.03108523,1.2318693,1.405978,1.2427442,0.09657302,0.03281154,1.1068891,0.19939278
-0.2,-0.1,1.2999999999999998,0.0,0.5235987755982988,0,0.029508974,0.45360488,0.56122094,0.39376715,0.75703835,0.73902994,-0.066116974,0.66201633,1.3164093,0.86058545,-0.0143817095,-0.21803978,1.1235365,0.77470523
-0.2,-0.1,1.2999999999999998,0.0,0.5235987755982988,0,0.030473046,0.4538563,0.56210995,0.39343837,0.7614209,0.7332586,-0.029512282,0.644222,1.4574598,-0.111947894,0.022172997,-0.32986563,0.79297614,-0.013488892
-0.2,-0.1,1.2999999999999998,0.0,0.5235987755982988,0,0.031073237,0.45571145,0.5607023,0.39391595,0.75913906,0.7313848,-0.011880822,1.0985105,1.3170553,-0.8622168,0.0330273,-0.31462866,1.1789528,-0.618938
-0.2,-0.1,1.2999999999999998,0.0,0.5235987755982988,0,0.028616974,0.4567044,0.56289697,0.39279738,0.76201683,0.73609555,-0.049973797,1.2786536,1.3792404,-0.2469397,-0.024213046,-0.20966342,1.0884981,-0.8726771
-0.2,-0.1,1.2999999999999998,0.0,0.5235987755982988,0,0.030177958,0.45247793,0.5616047,0.39520386,0.7648586,0.7338853,-0.05032372,0.9881622,1.3464527,0.3338477,-0.008273084,-0.17978545,1.1659319,-0.523934
-0.2,-0.1,1.2999999999999998,0.0,0.5235987755982988,0,0.030019294,0.4588032,0.5605281,0.39434764,0.76436836,0.73617685,-0.038604382,0.9023516,1.2842243,-0.0592329,-0.1675185,0.0049705487,1.2313143,1.1569041
-0.2,-0.1,1.2999999999999998,0.0,0.5235987755982988,0,0.03182888,0.45398706,0.56068295,0.39270604,0.76094645,0.73546666,-0.049218595,1.1384684,1.4303557,0.25150388,0.07164123,-0.111572385,1.2016102,0.014698708
-0.2,-0.1,1.2999999999999998,0.0,0.5235987755982988,0,0.027668826,0.4569448,0.5637953,0.39240614,0.762107,0.7357915,-0.03804116,0.76605755,1.282376,0.3253676,0.013592791,-0.098896496,1.0805315,0.036160436
-0.2,-0.1,1.2999999999999998,0.0,0.5235987755982988,0,0.028557085,0.45364872,0.56069237,0.3946827,0.7605055,0.73687893,-0.044560824,1.0646514,1.3928797,0.25878426,-0.008109432,-0.3000563,1.4315128,-0.29445076
-0.2,-0.1,1.2999999999999998,0.0,0.5235987755982988,0,0.029180402,0.45663634,0.5624249,0.39412174,0.75931793,0.7345333,-0.032397736,1.0858479,1.436645,-0.034419857,0.055990007,-0.31431913,1.0223438,1.8974193
-0.2,-0.1,1.2999999999999998,0.0,0.5235987755982988,0,0.029284095,0.45412606,0.56222254,0.3934408,0.7636498,0.7351606,-0.03559476,1.1565504,1.3422183,-0.30465943,0.031087415,-0.2862246,0.9383338,0.5104237
-0.2,-0.1,1.2999999999999998,0.0,0.5235987755982988,0,0.028650759,0.45732298,0.5610412,0.39432672,0.7600101,0.73106647,0.0027048264,0.6614319,1.2544978,-0.07640031,-0.064714245,-0.073426984,1.2577766,0.8491485
-0.2,-0.1,1.2999999999999998,0.0,0.5235987755982988,0,0.03044535,0.45733047,0.56115854,0.39407954,0.7596117,0.7336951,-0.010550464,1.0448866,1.4169599,0.14699063,0.16557401,-0.12733905,1.2434831,0.18648335
-0.2,-0.1,1.2999999999999998,0.0,0.5235987755982988,0,0.02970302,0.45691815,0.562765,0.39286947,0.76136667,0.7353012,-0.03295345,0.91499305,1.1530865,-0.051726352,0.08409317,-0.50265354,1.2174762,-1.5485532
-0.2,-0.1,1.2999999999999998,0.0,0.5235987755982988,0,0.029026914,0.45665658,0.56258386,0.39388436,0.75924,0.733951,-0.027906505,0.9281719,1.3906245,0.28223115,-0.07591745,-0.09814459,1.3123469,1.5155312
-0.2,-0.1,1.2999999999999998,0.0,0.5235987755982988,0,0.027980298,0.45722273,0.5613622,0.39346725,0.76239234,0.73827267,-0.03644814,1.1267086,1.2734097,-0.29105666,0.0938799,-0.25623512,1.3897682,0.13953213
-0.2,-0.1,1.2999999999999998,0.0,0.5235987755982988,0,0.03185132,0.4589538,0.56233364,0.3921529,0.76248384,0.7391824,-0.04189459,1.026897,1.0955966,-0.578236,0.0134653,-0.21672776,1.0479392,-0.004838468
-0.2,-0.1,1.2999999999999998,0.0,0.5235987755982988,0,0.0292556,0.4551806,0.5619766,0.39371654,0.7597892,0.7348759,-0.032194268,1.1288037,1.3088697,0.41194886,-0.05835537,0.10206436,1.4079407,1.6426386
-0.2,-0.1,1.2999999999999998,0.0,0.5235987755982988,0,0.02981385,0.45654067,0.56273705,0.39347392,0.7644399,0.73392206,-0.039933674,1.0376428,1.4229196,0.08217292,0.019663293,0.013360622,1.0989219,0.7861804
-0.2,-0.1,1.2999999999999998,0.0,0.5235987755982988,0,0.031148033,0.45556659,0.5616393,0.3936509,0.7632075,0.7366557,-0.036465313,1.0576175,1.4767854,0.14808013,0.039640073,-0.4871089,1.1554148,0.31425208
-0.2,-0.1,1.2999999999999998,0.0,0.5235987755982988,0,0.03041039,0.45473835,0.564365,0.3941256,0.7589377,0.73436016,-0.043921836,1.1141045,1.2573617,0.38113713,-0.08783122,-0.20808664,1.1529039,-0.66879654
-0.2,-0.1,1.2999999999999998,0.0,0.5235987755982988,0,0.03129068,0.45519313,0.5619812,0.39449307,0.7589507,0.7364794,-0.046354286,0.9190899,1.3218439,-0.47250932,0.059015933,0.019287543,1.1671516,-1.3625412
-0.2,-0.1,1.2999999999999998,0.0,0.5235987755982988,0,0.029606126,0.45353132,0.56300193,0.39498892,0.76114064,0.7362436,-0.04048229,1.4071527,1.3289857,-0.5465867,-0.116591856,-0.4858846,1.0344741,1.3579191
-0.2,-0.1,1.2999999999999998,0.0,0.5235987755982988,0,0.029767254,0.4582975,0.56271565,0.39531916,0.7596683,0.73696864,-0.041599087,1.1417269,1.1916957,-0.22002612,-0.044966254,-0.2817622,1.2146454,0.8233744
-0.2,-0.1,1.2999999999999998,0.0,0.5235987755982988,0,0.029189585,0.4542258,0.56304044,0.39430514,0.75938207,0.73589474,-0.0316042,0.93816745,1.2856649,0.12796009,0.10278702,-0.24425587,1.192062,1.5001189
-0.2,-0.1,1.2999999999999998,0.0,0.5235987755982988,0,0.029788297,0.45590767,0.563048,0.39349055,0.7612476,0.7341459,-0.02489877,0.8487326,1.3965445,0.82480705,0.107345924,-0.28378806,1.1621747,0.7737291
-0.2,-0.1,1.2999999999999998,0.0,0.5235987755982988,0,0.029343128,0.4538645,0.56162757,0.39292312,0.7630001,0.73359185,-0.018774336,1.0332006,1.388735,0.5309672,-0.010995864,-0.48278078,1.2069973,0.32140818
-0.2,-0.1,1.2999999999999998,0.0,0.5235987755982988,0,0.029073758,0.4558691,0.5641868,0.39549395,0.759619,0.7361675,-0.048336487,0.8266816,1.3571403,0.099261515,-0.05500833,-0.32332683,1.1080956,2.286206
-0.2,-0.1,1.2999999999999998,0.0,0.5235987755982988,0,0.031794127,0.4557312,0.5616723,0.39348495,0.7629704,0.7392082,-0.044836048,0.7481801,1.3915522,-0.6593239,-0.23434794,-0.69473344,1.1241525,0.010300938
-0.2,-0.1,1.2999999999999998,0.0,0.5235987755982988,0,0.031262897,0.45663154,0.562688,0.3946787,0.76087314,0.7376699,-0.063216515,0.8468768,1.2710881,0.42337558,-0.0683004,0.010520359,1.1010566,-0.5155148
-0.2,-0.1,1.2999999999999998,0.0,0.5235987755982988,0,0.03125551,0.45451057,0.5612589,0.39390498,0.76045644,0.7370385,-0.040471014,0.7418254,1.2868115,-0.19618832,-0.08811706,0.054826654,1.0738859,0.35919505
-0.2,-0.1,1.2999999999999998,0.0,0.5235987755982988,0,0.030451935,0.45642418,0.5625356,0.392959,0.7615865,0.73712796,-0.039196983,1.0065285,1.3484925,0.2703835,-0.035668533,-0.22593422,1.0763814,1.7058231
-0.2,-0.1,1.2999999999999998,0.0,0.5235987755982988,0,0.029093927,0.45520386,0.56126636,0.39357424,0.76657045,0.7389781,-0.045653462,1.0302387,1.2728578,-0.82295626,-0.08538314,-0.49330893,1.2253737,0.7676655
-0.2,-0.1,1.2999999999999998,0.0,0.5235987755982988,0,0.03080106,0.45480487,0.5615379,0.3934574,0.7635366,0.7348598,-0.021396782,0.7857701,1.451482,-0.26279512,0.02580309,0.18058701,1.2829318,0.47299212
-0.2,-0.1,1.2999999999999998,0.0,0.5235987755982988,0,0.029483136,0.45566857,0.5616029,0.39357764,0.7648264,0.73411965,-0.006404076,0.98544616,1.3842129,-0.49879193,0.1509937,0.04401036,1.0821905,0.66504544
-0.2,-0.1,1.2999999999999998,0.0,0.5235987755982988,0,0.02917177,0.45530957,0.56203395,0.39348906,0.7626261,0.73636234,-0.022195376,1.3317659,1.3057992,-0.25662184,0.15231293,-0.006738791,1.1293008,0.27393004
-0.2,-0.1,1.2999999999999998,0.0,0.5235987755982988,0,0.030747468,0.4556344,0.56259114,0.39531472,0.7601112,0.7352691,-0.029000873,1.3539435,1.3061916,0.28144705,0.006412321,-0.7206067,1.3301696,-1.804076
-0.2,-0.1,1.2999999999999998,0.0,0.5235987755982988,0,0.031669416,0.45634916,0.56226367,0.39412737,0.7562808,0.7337103,-0.00821836,1.1844552,1.4354289,-0.045135144,-0.039492246,-0.04493751,1.4885484,-1.1986178
-0.2,-0.1,1.2999999999999998,0.0,0.5235987755982988,0,0.029455518,0.45442393,0.56156194,0.39423963,0.76093507,0.73699504,-0.04229847,1.3672209,1.3538958,-0.0023977917,-0.10648834,-0.108779736,1.424027,0.08963759
-0.2,-0.1,1.2999999999999998,0.0,0.5235987755982988,0,0.028645204,0.4581015,0.56055295,0.39407337,0.7612501,0.7336056,0.013155029,1.3298888,1.3170867,-0.0148968585,-0.009965793,-0.5337833,1.2701677,0.18397571
-0.2,-0.1,1.2999999999999998,0.0,0.5235987755982988,0,0.030889563,0.45540825,0.5625418,0.39462498,0.76033825,0.7364187,-0.03647524,1.3174113,1.3030872,0.7725965,-0.18580386,-0.0050246553,1.1723425,-0.26530477
-0.2,-0.1,1.2999999999999998,0.0,0.5235987755982988,0,0.029579135,0.45778385,0.5628456,0.39296845,0.7649966,0.73597795,-0.031557176,1.2058995,1.3943363,0.44292685,-0.024109032,-0.24945928,1.1405525,-0.40309447
-0.2,-0.1,1.2999999999999998,0.0,0.5235987755982988,0,0.030212529,0.45829263,0.56021553,0.39342454,0.7637439,0.73738766,-0.021463495,0.9146811,1.2663369,-0.6997896,-0.024425002,-0.42531154,1.2729198,0.458966
-0.2,-0.1,1.2999999999999998,0.0,0.5235987755982988,0,0.029169772,0.45467776,0.56234294,0.39333022,0.76287425,0.734838,-0.017577281,1.2585187,1.2853401,0.77893025,0.0004812471,0.026623953,1.1888745,1.6111231
-0.2,-0.1,1.2999999999999998,0.0,0.5235987755982988,0,0.031061528,0.45561916,0.5623983,0.39379382,0.7610419,0.7308647,-0.0074064718,1.0854343,1.2151624,0.14188612,-0.08062804,-0.26467445,1.196931,0.8675441
-0.2,-0.1,1.2999999999999998,0.0,0.5235987755982988,0,0.029000146,0.45878413,0.562924,0.39229923,0.7607711,0.7383898,-0.032482266,1.0551541,1.3179586,-0.11805805,-0.015171808,-0.36612296,1.3000035,0.9737429
-0.2,-0.1,1.2999999999999998,0.0,0.5235987755982988,0,0.03017269,0.45690885,0.56177884,0.3942221,0.76261526,0.73373115,0.0018436881,0.8718896,1.2577804,0.08288871,0.010439347,-0.24668837,1.0671881,0.55821174
-0.2,-0.1,1.2999999999999998,0.0,0.5235987755982988,0,0.028988717,0.4558149,0.5606743,0.39306813,0.76363516,0.73708004,-0.016264444,1.0156735,1.3671188,0.5159023,-0.17599578,-0.026922394,1.239542,1.5983253
-0.2,-0.1,1.2999999999999998,0.0,0.5235987755982988,0,0.030367088,0.45319584,0.5612681,0.39476493,0.76282984,0.7352841,-0.029996008,1.2032708,1.2850703,-0.39353198,-0.11637498,-0.34882072,1.5096978,1.2051848
-0.2,-0.1,1.2999999999999998,0.0,0.5235987755982988,0,0.03008564,0.45649728,0.56184316,0.39310268,0.76188177,0.7361754,-0.028603947,1.6565651,1.3800414,0.4218372,-0.078455314,-0.20863256,1.3390248,-0.33317932
-0.2,-0.1,1.2999999999999998,0.0,0.5235987755982988,0,0.030182566,0.45604312,0.5626754,0.39385265,0.76249516,0.7370308,-0.006599089,0.96566796,1.2718099,-0.7180843,-0.28747356,0.053229198,1.0276265,1.510096
-0.2,-0.1,1.2999999999999998,0.0,0.5235987755982988,0,0.029760929,0.4550072,0.5605146,0.3939575,0.7606047,0.73996085,-0.036901735,0.8476759,1.1639223,-0.57976776,0.07725148,0.033334084,1.2267486,0.0032800988
-0.2,-0.1,1.2999999999999998,0.0,0.5235987755982988,0,0.030180898,0.45590523,0.56176805,0.39334193,0.7580111,0.73561156,0.008221146,1.0352595,1.2223055,-1.2619256,0.015007461,-0.3339718,1.1542082,0.62790495
-0.2,-0.1,1.2999999999999998,0.0,0.5235987755982988,0,0.028000215,0.45450342,0.56197125,0.39325178,0.76426697,0.73696685,-0.006545412,0.926298,1.3111866,1.0087574,-0.017114218,0.044418965,1.0710664,0.42871377
-0.2,-0.1,1.2999999999999998,0.0,0.5235987755982988,0,0.030169157,0.45636094,0.5637159,0.3952441,0.75862074,0.7329757,0.004581767,0.9852355,1.3324467,-0.9888305,-0.15603605,-0.20774299,1.2374774,-0.55620843
-0.2,-0.1,1.2999999999999998,0.0,0.5235987755982988,0,0.028958494,0.45737338,0.56294477,0.39331424,0.7595606,0.7389062,-0.014375033,1.1102984,1.3207266,0.58093745,-0.06949341,0.19998342,1.1692566,0.11462942
-0.2,-0.1,1.2999999999999998,0.0,0.5235987755982988,0,0.030400295,0.45572564,0.5630342,0.39257047,0.7638632,0.73811346,-0.021132192,0.9088688,1.2233719,0.10981923,-0.2528786,0.09733134,1.1404713,0.1148473
-0.2,-0.1,1.2999999999999998,0.0,0.5235987755982988,0,0.030231122,0.4569711,0.56254274,0.39542088,0.76342493,0.74014086,-0.032821335,1.2449002,1.2327086,0.62124187,0.067365654,-0.49341983,0.9884949,1.1778725
-0.2,-0.1,1.2999999999999998,0.0,0.5235987755982988,0,0.031559207,0.45438176,0.5634535,0.3943166,0.76160485,0.7349604,-0.025285337,0.97550285,1.1786479,-0.07246399,0.018464407,-0.30299547,1.3627665,1.158479
-0.2,-0.1,1.2999999999999998,0.0,0.5235987755982988,0,0.029122625,0.4587402,0.56077373,0.39369294,0.7615896,0.7364375,0.009661551,1.1143314,1.271422,-0.5240739,-0.10605358,-0.23953451,1.0802257,1.5933741
-0.2,-0.1,1.2999999999999998,0.0,0.5235987755982988,0,0.02929086,0.45632234,0.5631391,0.39400095,0.7597637,0.7418251,-0.035083313,0.83105606,1.2125623,-0.10216541,-0.0007613837,-0.5277007,1.0688123,-0.41805014
-0.2,-0.1,1.2999999999999998,0.0,0.5235987755982988,0,0.030353539,0.45624363,0.56114197,0.3940735,0.766168,0.7377192,-0.0057123005,1.2737054,1.3255149,0.5413454,-0.017395355,-0.56773937,1.0997792,0.9607291
-0.2,-0.1,1.2999999999999998,0.0,0.5235987755982988,0,0.02991439,0.4537954,0.5618676,0.3940645,0.76148176,0.7339597,0.001990129,1.0058831,1.267375,-0.8516184,0.0036175305,-0.09003672,1.2226446,0.45992175
-0.2,-0.1,1.2999999999999998,0.0,0.5235987755982988,0,0.029060649,0.45890027,0.56360394,0.39387485,0.76277965,0.735673,0.0015895283,1.176838,1.257826,-0.104966655,-0.008284992,-0.15252782,1.3548454,-1.269265
-0.2,-0.1,1.2999999999999998,0.0,0.5235987755982988,0,0.03027485,0.45766664,0.5626017,0.39398733,0.7590104,0.7372741,-0.004673549,1.1111134,1.4686669,-0.27462545,-0.02734123,-0.2834368,1.152588,1.353139
-0.2,-0.1,1.2999999999999998,0.0,0.5235987755982988,0,0.031369302,0.45549005,0.5607652,0.39381203,0.7589466,0.73443425,0.011204654,0.95975614,1.1989075,-0.44917107,0.07514641,-0.39171755,1.310303,0.4561187
-0.2,-0.1,1.2999999999999998,0.0,0.5235987755982988,0,0.03074528,0.45539704,0.5611061,0.39494005,0.75960755,0.74163127,-0.03294557,1.159217,1.3298739,-0.62070495,0.08514194,-0.22447269,1.2779893,0.8459021
-0.2,-0.1,1.2999999999999998,0.0,0.5235987755982988,0,0.03013043,0.4552542,0.5613742,0.3932894,0.7627907,0.73654866,-0.00519268,1.1967286,1.3810894,-0.3924131,-0.06599729,-0.47610548,1.2155929,0.87375176
-0.2,-0.1,1.2999999999999998,0.0,0.5235987755982988,0,0.031535175,0.4555882,0.56325364,0.3935481,0.7609047,0.73609567,-0.0113679115,1.1056777,1.3418503,-0.07556357,0.000888871,-0.22542432,1.1969101,-0.0007284652
-0.2,-0.1,1.2999999999999998,0.0,0.5235987755982988,0,0.02844685,0.45867065,0.56338567,0.39435622,0.7639233,0.7372916,-2.4682064e-05,0.97138053,1.3767503,0.27387235,-0.16761559,-0.2286683,1.214913,0.012486873
-0.2,-0.1,1.2999999999999998,0.0,0.5235987755982988,0,0.027572267,0.45613945,0.5653258,0.39301595,0.7630968,0.7357505,0.019535204,0.74427676,1.2307878,-0.6664823,-0.00989559,-0.10109915,1.2299464,0.34679174
-0.2,-0.1,1.2999999999999998,0.0,0.5235987755982988,0,0.028023873,0.45663986,0.5616583,0.394722,0.7609795,0.7365469,-0.058749296,0.9025383,1.3496234,-0.5433366,-0.01365997,-0.021745972,1.3289242,0.2742638
-0.2,-0.1,1.2999999999999998,0.0,0.5235987755982988,0,0.029559571,0.45458806,0.561057,0.39331564,0.75834215,0.733877,-0.08778457,1.161114,1.4215535,-0.2058062,0.17832817,-0.0315883,1.3209449,0.9925122
-0.2,-0.1,1.2999999999999998,0.0,0.5235987755982988,0,0.032083727,0.4579025,0.5596404,0.39403224,0.7601502,0.7353114,-0.103837624,1.0463581,1.355754,-0.34573227,0.013511567,-0.2296943,1.2556295,0.96679354
-0.2,-0.1,1.2999999999999998,0.0,0.5235987755982988,0,0.030128282,0.45576257,0.5638244,0.39519674,0.75930655,0.7319286,-0.11625187,0.7644863,1.2971528,0.7384442,-0.13193046,-0.050495338,1.1870588,0.9439219
-0.2,-0.1,1.2999999999999998,0.0,0.5235987755982988,0,0.030696977,0.45780033,0.56187207,0.39434305,0.75980836,0.73479104,-0.07804323,0.62833804,1.36743,-0.5730775,0.03440208,0.3908422,1.1293758,-0.07546747
-0.2,-0.1,1.2999999999999998,0.0,0.5235987755982988,0,0.029708052,0.4569034,0.5605916,0.3947041,0.7624059,0.7355085,-0.08498102,1.2151412,1.3299216,-0.37414744,-0.0826898,-0.636116,1.22663,0.93573046
-0.2,-0.1,1.2999999999999998,0.0,0.5235987755982988,0,0.028941168,0.45787892,0.5609123,0.39252865,0.76519865,0.73003566,-0.033661414,0.8541365,1.4256433,0.030501118,-0.087340355,-0.2273148,1.3360267,-0.17470984
-0.2,-0.1,1.2999999999999998,0.0,0.5235987755982988,0,0.030648446,0.45571953,0.5610613,0.39333412,0.76230836,0.73501337,-0.080137625,0.6732273,1.2956071,0.86313164,-0.0031181828,-0.13865803,1.092256,0.7265385
-0.2,-0.1,1.2999999999999998,0.0,0.5235987755982988,0,0.031071005,0.454393,0.5615598,0.39376342,0.76040184,0.73733467,-0.11120791,0.746759,1.3034029,0.08599831,0.01544401,-0.37635225,1.0210143,-0.83679646
-0.2,-0.1,1.2999999999999998,0.0,0.5235987755982988,0,0.029457686,0.45460865,0.56073505,0.39478347,0.7630737,0.7363234,-0.091028005,0.9603319,1.3061049,0.01656042,-0.0863061,-0.40055567,1.1031032,-0.075513944
-0.2,-0.1,1.2999999999999998,0.0,0.5235987755982988,0,0.029358702,0.4557154,0.5626537,0.39372972,0.7600212,0.734628,-0.081993215,0.9693012,1.2740057,0.046127155,-0.10880713,-0.2625276,1.1459895,-0.83957547
-0.2,-0.1,1.2999999999999998,0.0,0.5235987755982988,0,0.029144708,0.45568877,0.5606089,0.3938575,0.7603997,0.7348023,-0.062137127,0.89127606,1.2053926,-0.34196723,-0.04703801,-0.14590792,1.2936612,0.37346193
-0.2,-0.1,1.2999999999999998,0.0,0.5235987755982988,0,0.028868807,0.45763704,0.5619474,0.39366508,0.763474,0.73236644,-0.028660268,1.2808797,1.2349648,-0.3369568,0.14705871,-0.21349058,1.3217968,0.33688235
-0.2,-0.1,1.2999999999999998,0.0,0.5235987755982988,0,0.029634766,0.45660907,0.5619493,0.39407283,0.7632348,0.7336337,-0.055295333,1.0676473,1.2272669,0.723454,-0.0066056303,-0.13555941,1.2281569,0.6770043
-0.2,-0.1,1.2999999999999998,0.0,0.5235987755982988,0,0.02936368,0.4563188,0.5644693,0.39424625,0.76117444,0.7381793,-0.11532934,0.8788677,1.2604824,-0.34448957,-0.118212245,-0.2878369,1.1340535,-1.3979073
-0.2,-0.1,1.2999999999999998,0.0,0.5235987755982988,0,0.02988581,0.45559883,0.56155723,0.393374,0.7606428,0.7343807,-0.042302925,0.87309784,1.3867632,0.46840698,0.10661978,-0.37832654,0.99490076,0.56737083
-0.2,-0.1,1.2999999999999998,0.0,0.5235987755982988,0,0.02944872,0.45668176,0.56210005,0.3933407,0.7602076,0.7382358,-0.0603937,1.6052816,1.1502367,0.07317905,0.029509023,-0.60534054,1.1556545,0.6236074
-0.2,-0.1,1.2999999999999998,0.0,0.5235987755982988,0,0.02995288,0.45520502,0.5622716,0.39342934,0.7618243,0.7393259,-0.08208998,1.0233306,1.4324809,0.06701109,-0.0903891,-0.2866278,1.1687282,0.9195197
-0.2,-0.1,1.2999999999999998,0.0,0.5235987755982988,0,0.029028164,0.45708624,0.5608572,0.39381284,0.76362133,0.7332487,-0.022884486,1.0086896,1.4256295,-1.3303657,-0.017355602,-0.26825738,1.316232,-0.4294162
-0.2,-0.1,1.2999999999999998,0.0,0.5235987755982988,0,0.030263986,0.4578715,0.5621361,0.39124689,0.76573837,0.74070984,-0.07193486,1.0378196,1.402916,-0.3927639,0.051535565,-0.13839535,1.3404719,-0.25572664
-0.2,-0.1,1.2999999999999998,0.0,0.5235987755982988,0,0.02766666,0.45704415,0.56192744,0.393012,0.7621935,0.73592687,-0.044563446,1.2141893,1.3512151,-0.032268766,-0.015918046,-0.019652057,1.2125905,0.16735955
-0.2,-0.1,1.2999999999999998,0.0,0.5235987755982988,0,0.032097742,0.45477167,0.56548053,0.3948895,0.7547691,0.7356185,-0.08179334,1.1469004,1.221087,0.8600348,-0.043457992,0.03562458,1.1538327,0.4494242
-0.2,-0.1,1.2999999999999998,0.0,0.5235987755982988,0,0.030729258,0.4540379,0.5622492,0.39514235,0.7631594,0.7345737,-0.051164456,1.0512437,1.2806425,-0.12660821,0.03534984,-0.5186605,1.2916131,0.25336474
-0.2,-0.1,1.2999999999999998,0.0,0.5235987755982988,0,0.029504197,0.45539346,0.5618024,0.39424184,0.76353604,0.7349232,-0.021380864,0.95145357,1.3532366,0.533105,0.2291382,-0.3350882,1.0639565,0.62162995
-0.2,-0.1,1.2999999999999998,0.0,0.5235987755982988,0,0.028667264,0.45728543,0.5621076,0.39300698,0.76030624,0.7370697,-0.029345302,0.8061678,1.2599752,-0.46467578,0.05201263,-0.53097314,1.1756963,0.2677154
-0.2,-0.1,1.2999999999999998,0.0,0.5235987755982988,0,0.029728899,0.4535797,0.5627143,0.39476818,0.7603988,0.735194,-0.037156414,1.3940312,1.2573842,-0.102211975,0.01112218,-0.03766328,1.1256934,2.5951824
-0.2,-0.1,1.2999999999999998,0.0,0.5235987755982988,0,0.0311819,0.45713186,0.56235117,0.39281476,0.7593442,0.7382124,-0.0389934,1.2356086,1.3772864,-0.5080839,-0.04132171,-0.40447542,1.0000674,-0.31849784
-0.2,-0.1,1.2999999999999998,0.0,0.5235987755982988,0,0.03044767,0.45351496,0.5623897,0.39489013,0.7628666,0.73447746,-0.026636397,1.283801,1.305626,-0.7373115,0.04112278,-0.13638237,1.0172005,0.120275855
-0.2,-0.1,1.2999999999999998,0.0,0.5235987755982988,0,0.030402536,0.4574619,0.5634797,0.3929603,0.7631309,0.7378341,-0.038267367,1.0583618,1.2545348,-0.024258181,-0.07913046,-0.21555308,0.88644826,0.034276552
-0.2,-0.1,1.2999999999999998,0.0,0.5235987755982988,0,0.029858045,0.4571963,0.5622159,0.39463925,0.7639387,0.732154,-0.0006843887,0.69493085,1.3770516,-0.006236978,-0.15044045,0.16115576,1.2244173,-1.3641111
-0.2,-0.1,1.2999999999999998,0.0,0.5235987755982988,0,0.030719593,0.45705822,0.5630955,0.39339682,0.7600913,0.73314524,0.0048360224,0.7225929,1.2036693,-0.15383133,0.022197861,-0.08306222,1.2428797,2.130652
-0.2,-0.1,1.2999999999999998,0.0,0.5235987755982988,0,0.03034152,0.4549208,0.5609976,0.39404473,0.76349974,0.7353576,-0.020612558,0.84350467,1.3819621,0.1595052,-0.16460925,-0.16267805,1.2294399,1.2334577
-0.2,-0.1,1.2999999999999998,0.0,0.5235987755982988,0,0.030518694,0.45462674,0.5622839,0.39344594,0.7597698,0.73767406,-0.021157794,0.7432049,1.1550618,-0.41222513,-0.19281907,-0.4085658,1.3727143,1.0093232
-0.2,-0.1,1.2999999999999998,0.0,0.5235987755982988,0,0.030165652,0.45496723,0.56259435,0.3937582,0.7629578,0.739195,-0.010440836,0.8251288,1.3758414,0.486924,-0.07013924,-0.057539523,1.256259,0.46417934
-0.2,-0.1,1.2999999999999998,0.0,0.5235987755982988,0,0.030435555,0.4542385,0.5610857,0.39510426,0.7645464,0.73044676,-0.09495742,0.7304445,1.2500294,0.69246036,-0.0069154412,-0.34039745,1.0519427,0.20070967
-0.2,-0.1,1.2999999999999998,0.0,0.5235987755982988,0,0.030308517,0.4545498,0.5631706,0.39374745,0.75872076,0.7342493,-0.102847666,1.078821,1.3111036,1.0632977,-0.0012835426,-0.30797005,1.1200777,-0.2900357
-0.2,-0.1,1.2999999999999998,0.0,0.5235987755982988,0,0.029349586,0.4569151,0.5629949,0.39285403,0.7618419,0.7374232,-0.09734869,1.1324793,1.3313205,-0.20301561,-0.022429353,-0.046466257,1.2956858,0.2903397
-0.2,-0.1,1.2999999999999998,0.0,0.5235987755982988,0,0.027769921,0.45675167,0.5635136,0.39451087,0.76104444,0.7303352,-0.037114516,0.97234213,1.2175989,-0.25156698,-0.12010888,0.03252222,1.2281339,0.91277856
-0.2,-0.1,1.2999999999999998,0.0,0.5235987755982988,0,0.02905149,0.45683762,0.56375057,0.39462915,0.7649124,0.73438925,-0.059282515,0.92968845,1.3075304,0.06274794,0.017871246,-0.73750615,1.1482445,-0.16343646
-0.2,-0.1,1.2999999999999998,0.0,0.5235987755982988,0,0.029887188,0.45818615,0.56323534,0.3930088,0.7595777,0.73694754,-0.061892945,0.67392755,1.3961132,-1.0824065,-0.12987536,-0.09921183,1.1185656,1.0938358
-0.2,-0.1,1.2999999999999998,0.0,0.5235987755982988,0,0.030338667,0.45888573,0.56388813,0.39416093,0.76016915,0.73770267,-0.050009035,0.82759243,1.1960192,-0.3982228,0.06134846,-0.12649594,1.2257386,-1.2737622
-0.2,-0.1,1.2999999999999998,0.0,0.5235987755982988,0,0.029383231,0.45687443,0.56611544,0.39346915,0.76385915,0.7392534,-0.032505114,0.77004313,1.3285153,-0.86989355,0.003315059,-0.30227768,1.1022869,0.32715082
-0.2,-0.1,1.2999999999999998,0.0,0.5235987755982988,0,0.030460523,0.4555118,0.5611341,0.39255896,0.7600909,0.73413825,-0.08139637,1.146644,1.2560712,-0.59040695,-0.0772937,-0.18073735,1.1458349,-0.05069337
