sanky1234/BimanualDexCatch/isaacgymenvs/cem_results/football_pose_0.1_0.0_0.7999999999999999_0.0_0.0_0_2025-05-26.csv
x,y,z,roll,pitch,yaw,robot1/joint1,robot1/joint2,robot1/joint3,robot1/joint4,robot1/joint5,robot1/joint6,robot1/joint7,robot2/joint1,robot2/joint2,robot2/joint3,robot2/joint4,robot2/joint5,robot2/joint6,robot2/joint7
0.1,0.0,0.7999999999999999,0.0,0.0,0,-1.1967559,1.456779,-0.44976568,0.22270997,-0.016030043,1.4427884,2.136655,-1.0317727,-1.12293,2.5667427,1.1348771,1.3092468,0.8366343,0.095775284
0.1,0.0,0.7999999999999999,0.0,0.0,0,-1.2444686,1.4078488,-0.5127721,0.11955499,-0.033707745,1.5081031,2.1657593,-1.0511733,-1.0807046,2.5786593,1.1609473,0.91832393,0.50716263,0.2160587
0.1,0.0,0.7999999999999999,0.0,0.0,0,-1.3140073,1.4674804,-0.49050668,0.17621711,-0.057442497,1.4631596,2.070941,-0.98235255,-1.0576216,2.544643,1.0982373,0.38729373,0.5915765,0.63447803
0.1,0.0,0.7999999999999999,0.0,0.0,0,-1.3121572,1.4681777,-0.5197202,0.14600872,-0.040048692,1.467814,2.2674909,-1.0457559,-1.1497308,2.5541742,1.0311325,0.12814441,0.6244295,0.30550915
0.1,0.0,0.7999999999999999,0.0,0.0,0,-1.2816414,1.4922312,-0.46901864,0.005835117,-0.08941713,1.4257696,2.0996122,-0.9983586,-1.042412,2.5695913,1.1306907,0.98712605,0.052119482,0.310871
0.1,0.0,0.7999999999999999,0.0,0.0,0,-1.3583056,1.4551178,-0.42257413,0.086013034,-0.0768012,1.4566743,2.1719785,-1.0579752,-1.1523945,2.5753677,1.0283427,0.27330542,0.29244187,0.17650056
0.1,0.0,0.7999999999999999,0.0,0.0,0,-1.2583646,1.4828357,-0.53115517,-0.0020635426,-0.056127638,1.532953,2.1808949,-1.0165886,-1.0945594,2.5627599,1.1116495,2.3467047,0.102872446,0.22384727
0.1,0.0,0.7999999999999999,0.0,0.0,0,-1.2738125,1.4868649,-0.47972852,0.21140067,-0.054115195,1.4089582,2.1868358,-0.9996895,-1.136493,2.4787939,1.1252326,1.1381397,0.74743056,0.02811518
0.1,0.0,0.7999999999999999,0.0,0.0,0,-1.3253243,1.4439434,-0.5120576,0.106278405,-0.06347408,1.4734505,2.1433012,-1.0262117,-1.134227,2.5385623,1.1223286,0.87378186,0.72488284,0.4806717
0.1,0.0,0.7999999999999999,0.0,0.0,0,-1.3388362,1.4667928,-0.38345283,0.11205703,-0.05728717,1.4744114,2.131087,-1.0011588,-1.144157,2.4683936,1.2234831,0.73384243,0.009657581,0.4149921
0.1,0.0,0.7999999999999999,0.0,0.0,0,-1.3074303,1.4338127,-0.4618962,0.03818402,-0.07278173,1.5154722,2.1303222,-0.98667693,-1.0625093,2.5251753,1.1082033,1.1025622,0.1064154,0.002341344
0.1,0.0,0.7999999999999999,0.0,0.0,0,-1.2997472,1.4528608,-0.46357137,-0.019497724,-0.013294862,1.4837586,2.2939327,-0.9826968,-1.0893338,2.5451238,1.0642105,0.13624068,0.87474793,0.010397416
0.1,0.0,0.7999999999999999,0.0,0.0,0,-1.2798861,1.491837,-0.45033908,0.1841436,-0.030806616,1.5168043,2.132378,-1.0631024,-1.1003277,2.5758824,1.0410389,1.3959584,0.2543551,-0.0034102325
0.1,0.0,0.7999999999999999,0.0,0.0,0,-1.344043,1.508255,-0.50458515,-0.010534851,-0.031647794,1.4457828,2.1578014,-1.0842183,-1.1383587,2.5748072,1.1174171,-0.25451246,0.8268213,0.32030162
0.1,0.0,0.7999999999999999,0.0,0.0,0,-1.2905086,1.448294,-0.44998416,0.09914642,-0.062757604,1.5333543,2.0940366,-1.0408009,-1.1454239,2.584971,1.0972383,-0.49169576,0.4776495,0.24966867
0.1,0.0,0.7999999999999999,0.0,0.0,0,-1.3704984,1.4622983,-0.47267854,0.045196008,-0.0710132,1.4680128,2.1271727,-0.9724089,-1.1126434,2.4716935,1.1242344,1.9094925,0.5097483,0.19150385
0.1,0.0,0.7999999999999999,0.0,0.0,0,-1.3764144,1.4615808,-0.48347417,0.084842935,-0.0674424,1.4842628,2.169153,-1.105006,-1.098194,2.602018,1.1242495,0.7477741,0.39280608,0.024307307
0.1,0.0,0.7999999999999999,0.0,0.0,0,-1.3467134,1.4654648,-0.4225971,0.08531073,-0.07043976,1.4755992,2.1662805,-1.0049014,-1.1028674,2.5926437,1.1297446,-0.119091906,0.63002396,0.60977924
0.1,0.0,0.7999999999999999,0.0,0.0,0,-1.2703567,1.4186513,-0.45988905,0.049984097,-0.076055564,1.4546521,2.314877,-0.97919136,-1.0490725,2.5219479,1.1153123,1.7370802,0.28418112,0.7050782
0.1,0.0,0.7999999999999999,0.0,0.0,0,-1.2982955,1.4846575,-0.46282762,0.14713748,-0.054314736,1.4341447,2.2179308,-0.9508739,-1.0784428,2.5360925,1.1391281,0.51693475,0.62425166,-0.28541216
0.1,0.0,0.7999999999999999,0.0,0.0,0,-1.3328855,1.4746113,-0.47583112,0.10525803,-0.07000582,1.5446995,2.100448,-1.0093043,-1.0918477,2.5053039,1.1416043,-0.6787267,0.8967508,0.3073079
0.1,0.0,0.7999999999999999,0.0,0.0,0,-1.2525876,1.412589,-0.4753401,0.15402721,-0.036462504,1.4686682,2.157859,-1.0156902,-1.1136286,2.567586,1.0899973,0.623724,0.6496862,0.48742497
0.1,0.0,0.7999999999999999,0.0,0.0,0,-1.306129,1.52288,-0.5076935,0.08454939,-0.040072765,1.4748533,2.1136713,-1.0385166,-1.0479478,2.609208,1.1547837,-0.90595645,0.59854555,0.089633726
0.1,0.0,0.7999999999999999,0.0,0.0,0,-1.3253647,1.4683238,-0.47504866,0.020163272,-0.108765855,1.476105,2.1338704,-0.9746157,-1.0632491,2.5537424,1.1441156,0.19512343,0.67832446,0.43326107
0.1,0.0,0.7999999999999999,0.0,0.0,0,-1.3460655,1.5047549,-0.48829892,0.08182338,-0.07989814,1.4693649,2.1329625,-1.0722669,-1.0853128,2.565112,1.0859234,0.76482475,0.22098377,0.0808536
0.1,0.0,0.7999999999999999,0.0,0.0,0,-1.3214002,1.4683362,-0.42227712,0.10314077,-0.06771035,1.4533287,2.1590714,-0.98826253,-1.0881315,2.5619743,1.0777518,0.9222685,0.4129425,0.12255066
0.1,0.0,0.7999999999999999,0.0,0.0,0,-1.3152282,1.4252155,-0.5075908,0.08387386,-0.058128122,1.5068728,2.1014717,-1.0606283,-1.116119,2.5888388,1.1420288,0.20442694,0.10535972,0.35967183
0.1,0.0,0.7999999999999999,0.0,0.0,0,-1.2445282,1.4527977,-0.44959182,0.1350287,-0.03338246,1.4528509,2.1225517,-1.0362524,-1.1287197,2.521897,1.0601436,0.56465733,0.64253604,0.60740834
0.1,0.0,0.7999999999999999,0.0,0.0,0,-1.323549,1.4533513,-0.45948344,0.057641406,-0.10379283,1.473335,2.2080033,-0.9901395,-1.0724711,2.5572133,1.0895714,0.6842754,0.64423853,0.46155772
0.1,0.0,0.7999999999999999,0.0,0.0,0,-1.3226637,1.4661194,-0.5002402,0.102311864,-0.050285142,1.4453701,2.1624625,-0.9678649,-1.0420917,2.559573,1.1436664,-0.6522981,0.84215426,0.42684135
0.1,0.0,0.7999999999999999,0.0,0.0,0,-1.2399378,1.4606131,-0.46812165,0.1802428,-0.0732958,1.4325016,2.1927993,-1.0254741,-1.0971903,2.5549169,1.0780567,1.6582023,0.66668284,0.46635047
0.1,0.0,0.7999999999999999,0.0,0.0,0,-1.3489109,1.4459844,-0.5018816,0.082690395,-0.060313277,1.4726801,2.2226417,-1.0587941,-1.1028847,2.5345433,1.1944524,0.90925854,0.50689095,0.13533343
0.1,0.0,0.7999999999999999,0.0,0.0,0,-1.3157235,1.4406626,-0.4870381,0.13892932,-0.0787827,1.4406534,2.2368138,-1.040979,-1.1337285,2.5339544,1.032566,0.44514915,0.86049557,0.462834
0.1,0.0,0.7999999999999999,0.0,0.0,0,-1.3427056,1.4587954,-0.47456774,-0.04060101,-0.0452839,1.5093819,2.170852,-1.0521843,-1.0670627,2.5750244,1.1293736,0.98511404,0.70916265,-0.09492408
0.1,0.0,0.7999999999999999,0.0,0.0,0,-1.3230487,1.4295031,-0.42281795,0.12530969,0.033971045,1.4845049,2.209676,-1.067425,-1.1353371,2.620837,1.1636006,0.93704355,0.18504056,0.4100001
0.1,0.0,0.7999999999999999,0.0,0.0,0,-1.3292459,1.4522586,-0.4474391,0.13484263,-0.052562434,1.5203944,2.081623,-1.0375679,-1.1196392,2.541437,0.9991688,0.83393085,0.24998723,1.1875802
0.1,0.0,0.7999999999999999,0.0,0.0,0,-1.2963074,1.5026739,-0.46650675,0.10581998,-0.019435199,1.4900258,2.1594586,-1.0114018,-1.0773481,2.5488818,1.131772,0.93416226,0.49948466,-0.23951843
0.1,0.0,0.7999999999999999,0.0,0.0,0,-1.2849878,1.4613619,-0.45937753,0.025714329,-0.04608683,1.4826568,2.080101,-1.0856398,-1.1709199,2.5173798,1.1645604,0.9539699,0.33253875,0.07111916
0.1,0.0,0.7999999999999999,0.0,0.0,0,-1.2779514,1.4752135,-0.4416664,0.17915285,-0.051061913,1.4818877,2.2581012,-0.90524673,-1.0690781,2.5572917,1.1636544,0.8787357,0.24930654,0.45534307
0.1,0.0,0.7999999999999999,0.0,0.0,0,-1.3468604,1.4967114,-0.5166289,0.11153788,-0.031790506,1.4897896,2.2120168,-1.1106608,-1.1131247,2.6462252,1.1956137,0.5732478,0.5813301,0.1659303
0.1,0.0,0.7999999999999999,0.0,0.0,0,-1.1599473,1.447871,-0.49399322,0.02920926,-0.060658,1.4836516,2.1796675,-0.9680944,-1.0882195,2.6078093,1.186816,1.3929608,0.46518573,0.7702413
0.1,0.0,0.7999999999999999,0.0,0.0,0,-1.2141922,1.4591339,-0.48906308,0.13694714,-0.06484459,1.522514,2.1476233,-0.95397186,-1.0956827,2.594373,1.2095325,-0.11255497,0.5895435,-0.0654157
0.1,0.0,0.7999999999999999,0.0,0.0,0,-1.2892934,1.4483083,-0.46171853,0.07601358,-0.044238035,1.4922794,2.114395,-0.95159996,-1.0807103,2.4920142,1.0922649,0.24603249,0.84640455,1.1892447
0.1,0.0,0.7999999999999999,0.0,0.0,0,-1.3128543,1.4723443,-0.48749834,0.11949397,-0.061924487,1.4743422,2.176461,-0.98894304,-1.094012,2.5321991,1.1409456,0.53470176,0.18766238,0.3113626
0.1,0.0,0.7999999999999999,0.0,0.0,0,-1.2504429,1.4366964,-0.44411668,0.2424381,-0.0657172,1.4821252,2.2355943,-0.96230733,-1.0965189,2.4546049,1.0989839,-0.8406257,0.1946165,-0.059496656
0.1,0.0,0.7999999999999999,0.0,0.0,0,-1.2712153,1.4535003,-0.4917093,0.06343286,-0.083297096,1.4999453,2.14693,-0.9392522,-1.076369,2.5239143,1.1067867,1.462656,0.19960167,-0.06794094
0.1,0.0,0.7999999999999999,0.0,0.0,0,-1.2464194,1.4622132,-0.4138897,0.15004465,-0.08825386,1.4851538,2.0925004,-1.0258037,-1.1080099,2.5340376,1.0544548,1.4851745,0.338941,-0.14295241
0.1,0.0,0.7999999999999999,0.0,0.0,0,-1.2132783,1.450683,-0.483877,0.17062308,-0.07442244,1.5166724,2.1688929,-1.0060511,-1.145074,2.5605123,1.0513734,-0.58334255,0.7249014,0.07643229
0.1,0.0,0.7999999999999999,0.0,0.0,0,-1.2406533,1.4570174,-0.5414106,0.094665945,-0.08309133,1.4658414,2.1286356,-0.9852119,-1.1072811,2.5946798,1.1179827,0.6124895,0.9015687,-0.3357048
0.1,0.0,0.7999999999999999,0.0,0.0,0,-1.203737,1.465034,-0.45009124,0.07177185,-0.050873563,1.4628156,2.2244005,-1.0126624,-1.1250707,2.5879219,1.1384169,1.0680202,0.7111852,0.12538485
0.1,0.0,0.7999999999999999,0.0,0.0,0,-1.2273189,1.4471525,-0.49546015,0.12932599,-0.060801376,1.4428463,2.1639912,-1.03522,-1.1264234,2.5279908,1.1123147,-0.044579163,1.0794142,-0.03941505
0.1,0.0,0.7999999999999999,0.0,0.0,0,-1.2806067,1.4473431,-0.51571816,0.11236818,-0.05116553,1.463197,2.1622944,-1.0128636,-1.0789317,2.5613236,1.1630522,0.08050362,0.48749205,0.80695736
0.1,0.0,0.7999999999999999,0.0,0.0,0,-1.1929517,1.4505513,-0.48207244,0.03646128,-0.09127309,1.4038618,2.212738,-1.0310477,-1.1137699,2.6099918,1.1053553,0.2715081,0.65851873,0.0797067
0.1,0.0,0.7999999999999999,0.0,0.0,0,-1.372586,1.4745433,-0.43079442,0.080140844,-0.042633295,1.4567583,2.1950614,-0.96938825,-1.1615462,2.5444853,1.0522466,1.6144108,0.9686151,-0.07333695
0.1,0.0,0.7999999999999999,0.0,0.0,0,-1.3094338,1.4895074,-0.4899085,0.26552606,-0.044048138,1.4978207,2.1522298,-1.0155172,-1.1433059,2.5930426,1.1004237,0.25860092,0.880721,0.5131658
0.1,0.0,0.7999999999999999,0.0,0.0,0,-1.2644827,1.4666346,-0.47196814,0.09866648,-0.04705787,1.5017291,2.1105092,-0.9718805,-1.0524794,2.620454,1.1129644,1.1762333,0.503971,-0.16698591
0.1,0.0,0.7999999999999999,0.0,0.0,0,-1.3225267,1.4644626,-0.51235074,0.20484285,-0.0602967,1.5088879,2.1747024,-0.96412337,-1.1298944,2.5263727,1.0690482,1.7645339,0.1682936,0.55580527
0.1,0.0,0.7999999999999999,0.0,0.0,0,-1.2564037,1.4527285,-0.46027783,0.29497436,-0.02974327,1.4879409,2.2272375,-0.97392434,-1.0879378,2.571196,1.1461304,0.59448963,0.5689477,0.17830291
0.1,0.0,0.7999999999999999,0.0,0.0,0,-1.3421589,1.4594158,-0.4813639,0.1620733,-0.056259677,1.505465,2.1119533,-1.0046775,-1.082204,2.6193562,1.1099588,0.16838787,0.6060689,0.4239856
0.1,0.0,0.7999999999999999,0.0,0.0,0,-1.2351663,1.4476702,-0.46142563,0.12544669,-0.0593349,1.4770747,2.1282551,-0.9731667,-1.0858144,2.5730848,1.1184521,1.1392686,0.73859286,0.19570221
0.1,0.0,0.7999999999999999,0.0,0.0,0,-1.3285373,1.4569381,-0.50339365,0.22164531,-0.060499426,1.5067428,2.1791072,-0.9501641,-1.1180428,2.4820662,1.074421,0.57050365,0.4948264,0.025296493
0.1,0.0,0.7999999999999999,0.0,0.0,0,-1.3161474,1.4574474,-0.45629197,0.09610552,-0.060431186,1.4806281,2.1986058,-0.9390916,-1.0791175,2.5365195,1.1112286,0.7293897,0.6065981,0.7152672
0.1,0.0,0.7999999999999999,0.0,0.0,0,-1.3204614,1.4527878,-0.5132623,0.21169882,-0.09269903,1.4969145,2.0859885,-0.98428607,-1.1117347,2.5990903,1.1991427,0.53843814,0.39973268,0.23935786
0.1,0.0,0.7999999999999999,0.0,0.0,0,-1.3176152,1.4638015,-0.44758686,0.19929005,-0.06372645,1.5524148,2.1414685,-0.9836508,-1.077737,2.5249145,1.2666609,0.9066136,0.3522145,0.41496533
0.1,0.0,0.7999999999999999,0.0,0.0,0,-1.3839425,1.4172049,-0.4753895,0.1819494,-0.060941964,1.4539142,2.085773,-1.0281484,-1.0991654,2.5946522,1.0975375,0.48408833,0.7871054,0.43935567
0.1,0.0,0.7999999999999999,0.0,0.0,0,-1.3320485,1.4339322,-0.47916627,0.12067637,-0.08508533,1.5062866,2.1227968,-1.0248584,-1.0144919,2.555196,1.1174368,1.3958303,0.43710285,0.6112292
0.1,0.0,0.7999999999999999,0.0,0.0,0,-1.285473,1.4631066,-0.51677644,0.1518336,-0.06432824,1.4590396,2.1458993,-1.017959,-1.1199628,2.5628386,1.1024314,0.9720024,0.8331387,0.5330143
0.1,0.0,0.7999999999999999,0.0,0.0,0,-1.2958262,1.4715867,-0.4744919,0.21356934,-0.027167445,1.515259,2.1146839,-1.0291862,-1.0822989,2.5645318,1.0770773,1.5007006,0.3853557,0.22901124
0.1,0.0,0.7999999999999999,0.0,0.0,0,-1.3643427,1.4120601,-0.5083465,0.08176789,-0.065120734,1.4633136,2.1565058,-0.96136314,-1.1488843,2.5650203,1.1652086,1.5191414,1.0374495,0.28074202
0.1,0.0,0.7999999999999999,0.0,0.0,0,-1.2642366,1.5036759,-0.51134264,0.14887659,-0.046224203,1.45722,2.1884713,-1.0533487,-1.0740254,2.641212,1.1474724,1.1769046,0.31808907,0.3459693
0.1,0.0,0.7999999999999999,0.0,0.0,0,-1.3057479,1.4890395,-0.44985938,0.20114142,-0.06452193,1.510659,2.1865268,-0.9731159,-1.0554876,2.511764,1.1728843,2.0557852,0.38309705,0.04166914
0.1,0.0,0.7999999999999999,0.0,0.0,0,-1.3295512,1.4531876,-0.49461925,0.18276003,-0.06369803,1.5352266,2.1817443,-0.9918882,-1.0277452,2.6007032,1.1697339,1.1757607,0.7054616,1.0723366
0.1,0.0,0.7999999999999999,0.0,0.0,0,-1.2613715,1.462239,-0.44985795,0.029335784,-0.054333072,1.4729353,2.1437712,-1.0457981,-1.0698826,2.6002128,1.1331972,1.4808239,0.6880815,0.32223982
0.1,0.0,0.7999999999999999,0.0,0.0,0,-1.3279592,1.4564235,-0.42499775,0.18767238,-0.08258471,1.4602435,2.1690543,-0.9731697,-1.1077625,2.556733,1.1129639,0.3459471,0.9851386,0.12767115
0.1,0.0,0.7999999999999999,0.0,0.0,0,-1.2931275,1.4511683,-0.48117003,0.15236805,-0.07022081,1.5125475,2.2962413,-1.0192462,-1.1039773,2.6003232,1.1453629,-0.42216474,0.6439777,0.6404904
0.1,0.0,0.7999999999999999,0.0,0.0,0,-1.3093846,1.4941391,-0.49699053,0.12242144,-0.049923483,1.5121794,2.1057124,-1.0694982,-1.1187118,2.6124933,1.1136209,0.8615692,0.643325,0.3953699
0.1,0.0,0.7999999999999999,0.0,0.0,0,-1.291508,1.4527203,-0.48378393,0.20833068,-0.030705206,1.4831247,2.1151288,-0.9780451,-1.0746787,2.5648553,1.2038008,1.1942321,0.5596481,0.0833891
0.1,0.0,0.7999999999999999,0.0,0.0,0,-1.252533,1.4339268,-0.5028061,0.002313662,-0.056512557,1.4749998,2.1522071,-1.0275649,-1.0629163,2.5758986,1.0336444,0.23423338,0.6128648,0.019102428
0.1,0.0,0.7999999999999999,0.0,0.0,0,-1.236477,1.4787337,-0.50681835,0.16776949,-0.08380584,1.5399085,2.2007244,-0.9289366,-1.0405036,2.5273993,1.1331241,0.9342109,0.47607893,0.39793703
0.1,0.0,0.7999999999999999,0.0,0.0,0,-1.3080834,1.5036905,-0.52198344,0.06792657,-0.06550189,1.4723506,2.1326392,-0.98891485,-1.1415558,2.5468793,1.0962082,0.46555334,0.3367794,-0.11027309
0.1,0.0,0.7999999999999999,0.0,0.0,0,-1.2838718,1.4944832,-0.4230415,0.17434248,-0.02174858,1.4904748,2.2055573,-1.0162188,-1.077492,2.6051943,1.1530421,1.7186564,0.14428516,0.38882247
0.1,0.0,0.7999999999999999,0.0,0.0,0,-1.2958415,1.4494483,-0.45341533,0.21887344,-0.034813028,1.4816238,2.2304437,-1.0034099,-1.0902326,2.5612402,1.2255931,0.5794385,0.31442294,-0.13671078
0.1,0.0,0.7999999999999999,0.0,0.0,0,-1.2939852,1.4609051,-0.4967168,0.07902031,-0.037527297,1.4915341,2.1162534,-1.0093715,-1.1130209,2.520809,1.065275,1.0562192,0.78986245,0.6904495
0.1,0.0,0.7999999999999999,0.0,0.0,0,-1.2440836,1.4376401,-0.4531733,0.1902675,-0.068803646,1.5475874,2.2280939,-0.98494995,-1.1569304,2.5642986,0.96026474,0.9199652,0.05206729,-0.005087546
0.1,0.0,0.7999999999999999,0.0,0.0,0,-1.2493567,1.4790639,-0.47946656,0.22109535,-0.11797923,1.4434892,2.154295,-1.0440819,-1.1248591,2.6043932,1.0980078,1.5223691,0.5811341,-0.045402016
0.1,0.0,0.7999999999999999,0.0,0.0,0,-1.2147894,1.4599577,-0.5125818,0.11284509,-0.010256836,1.5241328,2.187092,-0.92801225,-1.0667958,2.60678,1.069941,0.20676886,0.4546999,0.37153202
0.1,0.0,0.7999999999999999,0.0,0.0,0,-1.2485144,1.4870383,-0.44182417,0.10051022,-0.097214855,1.5255537,2.1061718,-1.0025933,-1.1131886,2.593043,1.1734052,0.15491492,0.54435253,0.21964583
0.1,0.0,0.7999999999999999,0.0,0.0,0,-1.3572286,1.4510379,-0.47179353,0.115305856,-0.028372029,1.5264405,2.1716752,-0.9942728,-1.12766,2.5419502,1.0993915,0.024379732,0.587968,0.4114091
0.1,0.0,0.7999999999999999,0.0,0.0,0,-1.3571013,1.448858,-0.43798175,0.1124514,-0.0648997,1.4703724,2.1206973,-1.0122678,-1.1472038,2.536092,1.0479753,1.7333345,0.8215663,-0.20942307
0.1,0.0,0.7999999999999999,0.0,0.0,0,-1.2834231,1.4599347,-0.4536457,0.20428322,-0.0143130785,1.421714,2.2049727,-1.0013621,-1.1080507,2.5513728,1.1718221,1.7609836,0.6558097,0.37876925
0.1,0.0,0.7999999999999999,0.0,0.0,0,-1.3146644,1.4294558,-0.507042,0.17897424,-0.027198628,1.4730568,2.186699,-1.0086107,-1.0884596,2.5779312,1.1747752,0.91356987,0.9234558,0.20721686
0.1,0.0,0.7999999999999999,0.0,0.0,0,-1.2873536,1.4678165,-0.4700994,0.14579773,-0.060067832,1.5346141,2.1167097,-0.9981611,-1.1408355,2.5630329,1.1453177,0.38228586,0.028848695,0.52068895
0.1,0.0,0.7999999999999999,0.0,0.0,0,-1.2677842,1.4371133,-0.53869504,-0.0072805514,-0.09084704,1.4927822,2.1348372,-0.97488135,-1.1007531,2.523979,1.168947,1.2294989,0.66955876,0.41360086
0.1,0.0,0.7999999999999999,0.0,0.0,0,-1.3038672,1.487195,-0.4753305,0.20558348,-0.03735711,1.4523163,2.1371157,-0.9575148,-1.0706111,2.4933846,1.1694554,-0.3290864,0.3111668,0.60915774
0.1,0.0,0.7999999999999999,0.0,0.0,0,-1.3328903,1.4680045,-0.48647875,0.106718995,-0.055064425,1.4779174,2.1085372,-1.0521553,-1.1205263,2.5335135,1.1166332,0.9509598,0.5634663,0.6965265
0.1,0.0,0.7999999999999999,0.0,0.0,0,-1.3100622,1.4279398,-0.48322135,0.13101515,-0.06661243,1.4613326,2.1251538,-0.9060445,-1.1286898,2.4648676,1.0842807,2.0534065,0.75326806,0.0693743
0.1,0.0,0.7999999999999999,0.0,0.0,0,-1.3012241,1.4591994,-0.45934677,0.16832276,-0.048563067,1.4483798,2.148586,-0.96148,-1.121102,2.4869628,1.0567664,0.9957724,0.561182,0.6878173
0.1,0.0,0.7999999999999999,0.0,0.0,0,-1.3405198,1.4674735,-0.47971183,0.22928888,-0.020997122,1.4735655,2.2884989,-1.0119138,-1.0846473,2.5660088,1.0463206,0.7714268,0.47657284,0.55705625
0.1,0.0,0.7999999999999999,0.0,0.0,0,-1.4070942,1.429987,-0.4999414,0.038936567,-0.09516147,1.473754,2.2125382,-1.0464519,-1.1143152,2.5505342,1.1469319,1.2379727,0.90749556,1.0218077
0.1,0.0,0.7999999999999999,0.0,0.0,0,-1.274735,1.478249,-0.4122137,0.17902416,-0.09600874,1.5130032,2.2224386,-1.0004236,-1.058936,2.583533,1.1443318,0.94176066,0.44308144,1.051077
0.1,0.0,0.7999999999999999,0.0,0.0,0,-1.3207474,1.4289125,-0.48218507,0.0728905,-0.087612964,1.4575763,2.2101843,-1.0632408,-1.0978084,2.559634,1.0612776,1.6990589,0.72553277,0.5183186
0.1,0.0,0.7999999999999999,0.0,0.0,0,-1.291538,1.4234966,-0.50657016,0.1876976,-0.048106764,1.4484626,2.1497,-0.9603595,-1.0780208,2.5439405,1.112293,2.0049174,0.858096,0.043544613
0.1,0.0,0.7999999999999999,0.0,0.0,0,-1.3487252,1.499809,-0.46291924,0.17663069,-0.043360572,1.4914283,2.204776,-0.9706861,-1.0861268,2.5656207,1.0429839,0.43613988,0.50611776,-0.060438287
0.1,0.0,0.7999999999999999,0.0,0.0,0,-1.3207072,1.4338096,-0.45788804,0.11352289,-0.081858605,1.5047859,2.2206612,-0.99731433,-1.1243677,2.5027058,1.158222,0.85362154,0.86108637,0.55908376
0.1,0.0,0.7999999999999999,0.0,0.0,0,-1.3335694,1.4298847,-0.4649129,0.1310388,-0.073567085,1.4747037,2.1681392,-0.9566839,-1.0621216,2.565608,1.1755364,0.4768989,0.9669862,0.44078022
0.1,0.0,0.7999999999999999,0.0,0.0,0,-1.2502706,1.5199686,-0.49579343,0.111578725,-0.018533004,1.4904611,2.185448,-1.0142059,-1.1300398,2.568674,1.1852518,1.8251911,0.7349822,0.7471192
0.1,0.0,0.7999999999999999,0.0,0.0,0,-1.2730942,1.4987735,-0.5410021,0.132999,-0.037734624,1.4434441,2.1025794,-1.059255,-1.1408828,2.5189974,1.0944394,1.6408659,0.7178732,0.7567081
0.1,0.0,0.7999999999999999,0.0,0.0,0,-1.3171493,1.420079,-0.4918743,0.12618548,-0.00664417,1.5009235,2.2639549,-1.0585047,-1.0906284,2.5605812,1.0959073,1.0421714,0.71630144,-0.01846495
0.1,0.0,0.7999999999999999,0.0,0.0,0,-1.2937189,1.4314222,-0.44456902,0.029613743,-0.04472304,1.4583175,2.216649,-1.022713,-1.1411165,2.5977366,1.0043539,0.8101848,0.5413204,-0.54109794
0.1,0.0,0.7999999999999999,0.0,0.0,0,-1.1846564,1.452263,-0.47307384,0.17324968,-0.039456267,1.5129542,2.1495037,-0.95886993,-1.0982999,2.5731494,1.0304989,2.233999,0.4940603,0.7896941
0.1,0.0,0.7999999999999999,0.0,0.0,0,-1.1915168,1.4953942,-0.5063917,0.09731596,-0.06558579,1.5111319,2.1296756,-1.0118644,-1.0933206,2.62935,1.0975984,-1.1373954,0.14444414,0.474716
0.1,0.0,0.7999999999999999,0.0,0.0,0,-1.348045,1.4502612,-0.43419352,0.118416436,-0.07027887,1.4695102,2.1792574,-1.0327406,-1.1083088,2.5575495,1.1356655,1.3666676,0.22343011,0.7663181
0.1,0.0,0.7999999999999999,0.0,0.0,0,-1.1812419,1.4485286,-0.45928255,0.30572987,-0.061595988,1.5141255,2.0902631,-0.998401,-1.0973274,2.5785038,1.0540317,1.3716295,0.6696156,0.5555258
0.1,0.0,0.7999999999999999,0.0,0.0,0,-1.2769691,1.4606906,-0.4629527,0.13159192,-0.03836704,1.4642245,2.0822735,-0.97892755,-1.0813828,2.555617,1.163584,0.8618617,0.43556535,0.54379225
0.1,0.0,0.7999999999999999,0.0,0.0,0,-1.2197423,1.4913101,-0.44581357,0.12743016,-0.06126971,1.423223,2.1277819,-0.947454,-1.0970592,2.5432687,1.0982747,0.006880845,0.7286979,0.40882695
0.1,0.0,0.7999999999999999,0.0,0.0,0,-1.2651093,1.4454968,-0.5148375,0.064255156,-0.066747814,1.4682851,2.130435,-1.017016,-1.0705785,2.587427,1.139838,1.1128902,0.3554952,0.53528744
0.1,0.0,0.7999999999999999,0.0,0.0,0,-1.2693743,1.4387769,-0.4731412,0.12383195,-0.052585203,1.4889117,2.1527839,-1.0508755,-1.1179485,2.5635135,1.1280248,-0.072357714,1.0258259,0.42940235
0.1,0.0,0.7999999999999999,0.0,0.0,0,-1.3039925,1.4299836,-0.48553944,0.021673221,-0.09039596,1.4661767,2.2200534,-0.9453245,-1.0562414,2.5382314,1.1046387,0.21942617,0.42439675,0.24564117
0.1,0.0,0.7999999999999999,0.0,0.0,0,-1.2261149,1.4251287,-0.43184233,0.110844366,-0.05778185,1.4523698,2.1135137,-0.9347925,-1.0316944,2.4734676,1.210499,1.9355228,0.35318547,0.42064118
0.1,0.0,0.7999999999999999,0.0,0.0,0,-1.2383826,1.5102463,-0.45956802,0.08615501,-0.063210726,1.4746631,2.160513,-0.99347866,-1.0637267,2.533145,1.087089,0.17162591,0.8748215,0.37220755
0.1,0.0,0.7999999999999999,0.0,0.0,0,-1.2693062,1.4410363,-0.451828,0.19013059,-0.13104981,1.4681134,2.1111324,-0.87979823,-1.061362,2.5591905,1.1103992,0.8142339,0.43141112,0.61653733
0.1,0.0,0.7999999999999999,0.0,0.0,0,-1.3035685,1.4703635,-0.53739786,0.1713023,-0.065757796,1.5011947,2.173161,-0.9201101,-1.075254,2.587034,0.9697746,2.1270776,0.40964854,0.047051854
0.1,0.0,0.7999999999999999,0.0,0.0,0,-1.3517971,1.4726824,-0.51219934,0.22307876,-0.019069325,1.440812,2.1229954,-0.9686508,-1.0816922,2.6112323,1.1484014,1.3893487,0.17582686,1.1311356
0.1,0.0,0.7999999999999999,0.0,0.0,0,-1.3333697,1.4517856,-0.5145272,0.23414914,-0.045095835,1.4481539,2.1269624,-0.9754444,-1.0639964,2.6075647,1.1409357,0.61611646,0.29687163,0.9051983
0.1,0.0,0.7999999999999999,0.0,0.0,0,-1.4151261,1.4949945,-0.43211433,-0.07292421,-0.045653492,1.5446843,2.1572556,-0.9904113,-1.0848031,2.6247916,1.0991328,0.1163287,0.46339658,0.92064303
0.1,0.0,0.7999999999999999,0.0,0.0,0,-1.3770711,1.495282,-0.45298803,0.22971487,-0.061211284,1.5137641,2.1277149,-0.95575744,-1.0556217,2.5178163,1.1225494,1.6087054,0.4397885,0.62851185
0.1,0.0,0.7999999999999999,0.0,0.0,0,-1.3874179,1.4481362,-0.50060594,0.24265091,-0.051878303,1.4485239,2.227855,-1.0619218,-1.1168216,2.6127913,1.111188,0.4713525,0.37168327,0.53641856
0.1,0.0,0.7999999999999999,0.0,0.0,0,-1.2539518,1.4622569,-0.50957435,0.17349535,-0.063062586,1.4916129,2.197079,-0.9531631,-1.1023315,2.5682156,1.1595198,1.7284265,0.33675972,0.67651445
0.1,0.0,0.7999999999999999,0.0,0.0,0,-1.2766012,1.4880579,-0.5008838,0.21522275,-0.036379423,1.4798303,2.1491675,-0.96224004,-1.1185317,2.5431228,1.108318,0.85161847,0.60528684,-0.12853676
0.1,0.0,0.7999999999999999,0.0,0.0,0,-1.3674634,1.4794698,-0.49507156,0.23940748,-0.041555546,1.5281273,2.1229033,-0.9822274,-1.043092,2.5724702,1.037921,1.0952836,0.5484862,0.9869725
0.1,0.0,0.7999999999999999,0.0,0.0,0,-1.3203815,1.4611142,-0.5154655,0.2323814,-0.03969021,1.4520315,2.154007,-0.9580134,-1.1157038,2.5888531,1.1193357,-0.34346148,1.267567,0.4661666
0.1,0.0,0.7999999999999999,0.0,0.0,0,-1.2149773,1.4442658,-0.45268652,0.1931872,-0.08359609,1.473262,2.1246798,-0.9216696,-1.1277181,2.5830376,1.0919914,0.7704358,0.8801178,0.038923435
0.1,0.0,0.7999999999999999,0.0,0.0,0,-1.3009006,1.4041214,-0.49394473,0.25687596,-0.07137553,1.5033867,2.183387,-1.0186654,-1.0658015,2.6642008,1.1806862,0.547626,0.42493904,0.9835046
0.1,0.0,0.7999999999999999,0.0,0.0,0,-1.4041415,1.4670768,-0.45814198,0.17927086,-0.0474667,1.5245703,2.179666,-1.0170691,-1.0905819,2.5636034,1.1366692,-0.002334826,0.5187126,-0.104689255
0.1,0.0,0.7999999999999999,0.0,0.0,0,-1.3128462,1.4769433,-0.49538144,0.15056783,-0.054568153,1.5139381,2.1096644,-1.0144703,-1.1764586,2.6012323,1.1202337,0.48505944,0.7583881,-0.17408092
0.1,0.0,0.7999999999999999,0.0,0.0,0,-1.2969471,1.4265174,-0.42044905,0.11297793,-0.04042661,1.521161,2.221019,-0.9079182,-1.1224045,2.5149076,1.187002,1.7821479,0.95588887,0.3413584
0.1,0.0,0.7999999999999999,0.0,0.0,0,-1.2807616,1.4438995,-0.4810802,0.1312766,-0.06072578,1.4690573,2.2522063,-0.98845035,-1.0933361,2.5594964,1.0522584,0.56766593,0.8349807,0.91531295
0.1,0.0,0.7999999999999999,0.0,0.0,0,-1.3197666,1.4492092,-0.42020527,0.16903411,-0.089472525,1.4885806,2.0678074,-0.95901996,-1.0676061,2.530414,1.0997318,0.6351069,0.47410855,0.2772912
0.1,0.0,0.7999999999999999,0.0,0.0,0,-1.3241612,1.456404,-0.43922952,0.23354936,-0.01612089,1.4705417,2.2169926,-0.96555704,-1.0897532,2.5470817,1.1312662,1.7270181,0.32548106,0.008699356
0.1,0.0,0.7999999999999999,0.0,0.0,0,-1.2435591,1.4365675,-0.5342478,0.19015269,-0.043073487,1.5036148,2.1688685,-1.0225935,-1.1226778,2.5608592,1.0887223,-0.6696546,0.2797477,0.51857746
0.1,0.0,0.7999999999999999,0.0,0.0,0,-1.3116549,1.4807329,-0.44931728,0.2102258,-0.04448374,1.4758813,2.1271644,-0.9856149,-1.0534294,2.572115,1.1407826,1.1780286,0.65425223,0.40823752
0.1,0.0,0.7999999999999999,0.0,0.0,0,-1.2827526,1.525458,-0.46957085,0.06592304,-0.032961775,1.5241467,2.2129965,-0.9887432,-1.1284574,2.503776,1.2394588,0.49470446,0.30874738,0.35733655
0.1,0.0,0.7999999999999999,0.0,0.0,0,-1.2858818,1.4822593,-0.48731452,0.122604474,-0.061564267,1.4774479,2.147121,-1.0279057,-1.0358886,2.6165752,1.139096,0.9762984,1.0291862,-0.2320917
0.1,0.0,0.7999999999999999,0.0,0.0,0,-1.3177519,1.4728371,-0.4646067,0.22571854,-0.04756153,1.5019006,2.1725426,-1.0026109,-1.0743357,2.5766098,1.1341362,0.3014067,0.73132443,-0.023208683
0.1,0.0,0.7999999999999999,0.0,0.0,0,-1.2910007,1.491532,-0.51983285,0.15689254,-0.051692873,1.4487325,2.136408,-1.038538,-1.1144696,2.5975196,1.0941552,-0.114275634,0.3220358,-0.45611995
0.1,0.0,0.7999999999999999,0.0,0.0,0,-1.2610782,1.4907892,-0.47232896,0.20155406,-0.06817893,1.4747366,2.1563857,-0.99999446,-1.1308202,2.5189826,1.1303416,1.9548851,0.57753617,0.2003341
0.1,0.0,0.7999999999999999,0.0,0.0,0,-1.3315357,1.4806983,-0.5216665,0.1409225,-0.070426255,1.456041,2.2758954,-0.9802171,-1.0897841,2.5714698,1.2319155,0.44096568,0.51695853,-0.42519948
0.1,0.0,0.7999999999999999,0.0,0.0,0,-1.3913676,1.4173247,-0.40010783,0.10233856,-0.06718481,1.447246,2.1493418,-1.0107079,-1.1302971,2.5411892,1.1475357,1.0736486,0.99573654,0.89643556
0.1,0.0,0.7999999999999999,0.0,0.0,0,-1.2950562,1.48092,-0.40796512,0.20949194,-0.029308511,1.4764898,2.1254683,-1.0117005,-1.1027788,2.5623631,1.1734843,0.31695896,0.975702,-0.21302378
0.1,0.0,0.7999999999999999,0.0,0.0,0,-1.3911492,1.483234,-0.4433296,0.008531575,-0.07646319,1.4506394,2.1865468,-1.0361438,-1.0979903,2.5528755,1.0908494,1.0835218,0.8344805,0.43577433
0.1,0.0,0.7999999999999999,0.0,0.0,0,-1.2763249,1.4556066,-0.44922295,0.13308533,-0.026390947,1.4936528,2.183911,-0.96654564,-1.0922664,2.5510905,0.97296435,0.6962138,0.3454172,0.2787661
0.1,0.0,0.7999999999999999,0.0,0.0,0,-1.2826817,1.4811583,-0.46354228,0.2709977,-0.050713688,1.5133377,2.2346656,-1.0627347,-1.066353,2.650482,1.0520068,1.4400443,0.5250836,0.027697397
0.1,0.0,0.7999999999999999,0.0,0.0,0,-1.3285562,1.4538609,-0.3997404,0.16921899,-0.043207187,1.4983063,2.1854303,-0.95238954,-1.0188646,2.4963775,1.0843273,0.06642446,0.9770216,-0.03542722
0.1,0.0,0.7999999999999999,0.0,0.0,0,-1.3073305,1.4830652,-0.4910081,0.05893427,-0.011282585,1.483495,2.199601,-0.99599326,-1.0749328,2.5139735,1.1672593,0.7018038,1.1607887,0.394921
0.1,0.0,0.7999999999999999,0.0,0.0,0,-1.261067,1.4511769,-0.48363945,0.317169,-0.035506256,1.3913451,2.2050734,-0.95326567,-1.0546197,2.51395,1.0612477,-0.10935446,0.8942418,-0.31862146
0.1,0.0,0.7999999999999999,0.0,0.0,0,-1.2735902,1.471525,-0.52675426,0.16970685,-0.06443538,1.4495834,2.168136,-0.9955294,-1.0920267,2.5410724,1.0451071,-0.12110855,0.8626315,0.47038606
0.1,0.0,0.7999999999999999,0.0,0.0,0,-1.2954383,1.4947443,-0.49226084,-0.00082606496,-0.03812243,1.4211603,2.133125,-0.9880277,-1.0606964,2.5668995,1.0441352,0.18897836,0.98040485,0.57570213
0.1,0.0,0.7999999999999999,0.0,0.0,0,-1.3008709,1.4388216,-0.48244062,0.041837223,-0.06175537,1.4676731,2.1687078,-0.9880956,-1.0996451,2.5310092,1.1573449,0.46167728,0.73372126,-0.06403505
0.1,0.0,0.7999999999999999,0.0,0.0,0,-1.3174474,1.439328,-0.5012108,0.15420747,-0.04231302,1.4508114,2.1494627,-1.0544544,-1.0607451,2.56449,1.1643174,1.790569,0.5026976,0.3939372
0.1,0.0,0.7999999999999999,0.0,0.0,0,-1.259151,1.4824797,-0.42203677,0.21468717,-0.07807653,1.540164,2.2197328,-0.9544843,-1.1598442,2.566094,0.9990207,0.19493423,0.8180156,0.6172793
0.1,0.0,0.7999999999999999,0.0,0.0,0,-1.2759422,1.4454403,-0.49688798,0.26266178,-0.041165214,1.4542856,2.1229284,-0.9384171,-1.075534,2.5744765,1.0825932,1.9166477,0.34626687,0.7012098
0.1,0.0,0.7999999999999999,0.0,0.0,0,-1.2117995,1.5027832,-0.44632956,0.2697815,-0.029905038,1.4539887,2.1588907,-0.93895286,-1.0865724,2.5834012,1.1566067,0.28877482,0.8276988,0.15043259
0.1,0.0,0.7999999999999999,0.0,0.0,0,-1.3158519,1.4684732,-0.48809782,0.122521386,-0.029530093,1.4703778,2.1655748,-0.96283686,-1.074926,2.5847125,1.1398832,1.8178409,0.7269066,0.16719753
0.1,0.0,0.7999999999999999,0.0,0.0,0,-1.3138864,1.4477497,-0.45091802,0.112955615,-0.04698753,1.4970074,2.1472213,-0.96312934,-1.1120977,2.5723317,1.0667099,0.45586127,1.3046149,0.6832534
0.1,0.0,0.7999999999999999,0.0,0.0,0,-1.3262099,1.4721214,-0.48178676,0.16565396,-0.0804953,1.4592171,2.1669083,-0.96471536,-1.0331719,2.551298,1.2026749,1.3393391,0.8910113,0.52836466
0.1,0.0,0.7999999999999999,0.0,0.0,0,-1.3620476,1.4316069,-0.46488386,0.23342867,-0.048483055,1.4939406,2.1392303,-1.0254068,-1.1142561,2.543048,1.0621796,0.9569314,1.0182735,-0.60313416
0.1,0.0,0.7999999999999999,0.0,0.0,0,-1.2969525,1.4539368,-0.43113035,0.19046973,-0.04738454,1.437649,2.242527,-0.9689011,-1.0783677,2.5871453,1.1132587,0.7171286,0.8046917,-0.054894138
0.1,0.0,0.7999999999999999,0.0,0.0,0,-1.3682063,1.4581525,-0.43867972,0.11287067,-0.045644626,1.5074314,2.2308114,-0.9315724,-1.1050814,2.5457532,1.1222153,2.2150183,1.3833346,0.30623266
0.1,0.0,0.7999999999999999,0.0,0.0,0,-1.3023534,1.4771197,-0.37492937,0.21265903,-0.02292732,1.4659095,2.1768434,-1.0206546,-1.1509787,2.5504146,1.1021883,0.57700926,0.53117836,-0.10643098
0.1,0.0,0.7999999999999999,0.0,0.0,0,-1.2542313,1.4622545,-0.49452302,0.07652182,-0.055916835,1.4461013,2.1928027,-1.0099319,-1.0872273,2.5547054,1.0715518,0.93251324,0.78052473,0.38475755
0.1,0.0,0.7999999999999999,0.0,0.0,0,-1.2880155,1.4465729,-0.5009449,0.1299516,-0.07447019,1.4529667,2.0923498,-1.0022203,-1.1442137,2.5618067,1.0841961,1.310489,0.73043287,0.48184153
0.1,0.0,0.7999999999999999,0.0,0.0,0,-1.267564,1.4189535,-0.4978378,0.066984974,-0.094409645,1.4874704,2.239151,-0.97535706,-1.1283603,2.5032592,1.1487186,2.3878245,0.8834895,-0.10199719
0.1,0.0,0.7999999999999999,0.0,0.0,0,-1.3137813,1.4465762,-0.5172337,0.14072658,-0.08611393,1.4885033,2.2228355,-1.0566177,-1.1277053,2.5720453,1.1514118,1.2457385,1.2253479,-0.1517259
0.1,0.0,0.7999999999999999,0.0,0.0,0,-1.3446792,1.4341724,-0.49108806,0.024685489,-0.04161606,1.533629,2.1722147,-1.0116452,-1.152639,2.5278752,1.1012491,1.8379045,1.0536088,0.17944905
0.1,0.0,0.7999999999999999,0.0,0.0,0,-1.3116622,1.4703414,-0.45548955,0.09803432,-0.05774348,1.4946319,2.152715,-1.0748825,-1.1282684,2.619874,1.1110317,2.0647733,0.9861588,0.39422923
0.1,0.0,0.7999999999999999,0.0,0.0,0,-1.3043749,1.4626969,-0.44833606,0.2065713,-0.076941974,1.429934,2.1188397,-0.95320725,-1.1274061,2.549561,1.0416547,1.2862,1.2119884,0.6911844
0.1,0.0,0.7999999999999999,0.0,0.0,0,-1.256073,1.489003,-0.422709,0.22867987,-0.04930412,1.4932811,2.137227,-1.0611358,-1.0734447,2.5970404,1.1835558,0.11277997,0.91139543,0.21443619
0.1,0.0,0.7999999999999999,0.0,0.0,0,-1.3982937,1.4403818,-0.44705513,0.07198553,-0.06640259,1.4689705,2.1623843,-0.9852533,-1.058079,2.5288038,1.1433203,1.2085,0.95545703,0.7652508
0.1,0.0,0.7999999999999999,0.0,0.0,0,-1.3394884,1.4738849,-0.47112745,0.14353654,-0.042113546,1.4905319,2.1445277,-1.0084127,-1.1046408,2.5555425,1.0756626,1.2855481,0.9040908,0.63737017
0.1,0.0,0.7999999999999999,0.0,0.0,0,-1.3624927,1.4372306,-0.5126436,0.07593298,-0.04491026,1.4610866,2.1509597,-0.9525939,-1.0442075,2.5639439,1.0384579,1.294639,0.6413912,0.9588214
0.1,0.0,0.7999999999999999,0.0,0.0,0,-1.3415709,1.446172,-0.523859,0.035637926,-0.079597324,1.5127724,2.060812,-0.9452363,-1.089697,2.4994047,1.1578075,1.2919515,0.82394934,-0.055706214
0.1,0.0,0.7999999999999999,0.0,0.0,0,-1.2455307,1.4619672,-0.45983556,0.17712443,-0.058496866,1.5248163,2.1860993,-1.0034206,-1.1113745,2.5211344,1.1061511,0.8936558,0.96541655,0.6070368
0.1,0.0,0.7999999999999999,0.0,0.0,0,-1.3391597,1.4454027,-0.43928865,0.1117137,-0.04673835,1.4638624,2.0456467,-0.9816488,-1.0949223,2.5006886,1.1076441,0.74076194,1.0491579,0.3691451
0.1,0.0,0.7999999999999999,0.0,0.0,0,-1.3381206,1.4671122,-0.48961362,0.1742073,-0.06538827,1.4861903,2.1875634,-0.94906527,-1.0303037,2.5662167,1.139305,2.0227978,0.25009742,0.2655996
0.1,0.0,0.7999999999999999,0.0,0.0,0,-1.2951353,1.4536526,-0.54027516,0.16329205,-0.03429952,1.451053,2.184247,-0.9651036,-1.0725228,2.5132275,1.1268413,0.6757544,0.9175108,0.11885711
0.1,0.0,0.7999999999999999,0.0,0.0,0,-1.3437902,1.4811245,-0.52407,0.11279871,-0.061246224,1.5184169,2.189249,-0.98869723,-1.0998423,2.4793794,1.1138463,1.2421167,1.1119502,-0.22780754
0.1,0.0,0.7999999999999999,0.0,0.0,0,-1.3408092,1.464878,-0.4500813,0.105225444,-0.07252291,1.496058,2.1104372,-0.9925017,-1.0617224,2.5884368,1.0918918,1.8337847,0.62093663,0.56452626
0.1,0.0,0.7999999999999999,0.0,0.0,0,-1.2714299,1.4501494,-0.4554555,0.20657435,-0.079369515,1.4601905,2.1759696,-1.0513148,-1.1112405,2.5420306,1.1063142,1.5137758,0.97059065,0.4275637
0.1,0.0,0.7999999999999999,0.0,0.0,0,-1.2463562,1.4360969,-0.49269408,0.037896432,-0.078603946,1.4752135,2.1467667,-0.9308503,-1.0307637,2.5622916,1.1026748,1.2133546,0.6510986,0.2599842
0.1,0.0,0.7999999999999999,0.0,0.0,0,-1.3058466,1.5016553,-0.4795916,0.13245963,-0.04613701,1.521268,2.196193,-0.9899167,-1.0956246,2.54966,1.1470158,2.028364,0.8496291,1.2021928
0.1,0.0,0.7999999999999999,0.0,0.0,0,-1.3377479,1.4900512,-0.4640178,0.08162736,-0.08060253,1.4276568,2.1588109,-1.0636643,-1.1013,2.5500627,1.0838476,0.59583235,0.9248922,0.4160577
0.1,0.0,0.7999999999999999,0.0,0.0,0,-1.1929871,1.4701049,-0.4642013,0.07323033,-0.009631538,1.4364043,2.1629636,-0.9195414,-1.0967882,2.514127,1.1118602,1.1944127,1.0466357,-0.563244
0.1,0.0,0.7999999999999999,0.0,0.0,0,-1.3451135,1.4202615,-0.4899587,0.0478748,-0.06487978,1.4074733,2.1382852,-0.9499935,-1.064902,2.542951,1.1314908,1.0961484,0.94243336,0.41016886
0.1,0.0,0.7999999999999999,0.0,0.0,0,-1.2651311,1.4559427,-0.4500465,0.15290654,-0.06629612,1.4800271,2.2289717,-1.0192807,-1.0961661,2.5817366,1.1721975,1.0724971,1.0258923,0.29725352
0.1,0.0,0.7999999999999999,0.0,0.0,0,-1.3282789,1.4688843,-0.4483602,0.09971602,-0.0153136,1.5329187,2.1985862,-1.0546486,-1.0580381,2.6295478,1.1843619,1.3141186,0.65076125,0.5210976
0.1,0.0,0.7999999999999999,0.0,0.0,0,-1.3450841,1.4987212,-0.50769585,0.050660327,-0.08299577,1.5283524,2.1772046,-1.0398238,-1.094418,2.5313644,1.11145,1.2325994,0.7612492,0.20105045
0.1,0.0,0.7999999999999999,0.0,0.0,0,-1.2519183,1.4613725,-0.51340175,0.16838461,-0.042183757,1.4977357,2.1892743,-0.92778116,-1.0231577,2.5595899,1.1312534,1.6238682,0.5951675,0.5288581
0.1,0.0,0.7999999999999999,0.0,0.0,0,-1.3358421,1.4671946,-0.44546175,0.1420643,-0.046566717,1.5198723,2.1183703,-1.0274081,-1.071513,2.5840533,1.1219692,1.8971679,0.5776789,0.22846451
0.1,0.0,0.7999999999999999,0.0,0.0,0,-1.3036573,1.4807631,-0.5591451,0.011057312,-0.123765126,1.5070841,2.1506214,-1.0364932,-1.0837891,2.5908782,1.0646137,1.1511384,0.5606863,0.034185514
0.1,0.0,0.7999999999999999,0.0,0.0,0,-1.2543504,1.4520639,-0.4652552,0.0527508,-0.016054435,1.4625086,2.184617,-0.9136402,-1.0977949,2.5363486,1.0714555,0.79164433,0.3720986,1.0367193
0.1,0.0,0.7999999999999999,0.0,0.0,0,-1.2803899,1.4487288,-0.48387775,0.09247333,-0.088101365,1.4756081,2.2565563,-1.0130857,-1.1163423,2.5676901,1.1190675,1.2118437,0.858726,0.11408444
0.1,0.0,0.7999999999999999,0.0,0.0,0,-1.2725934,1.4682575,-0.43755388,0.18766001,-0.05349902,1.484103,2.3056808,-1.0548842,-1.1383111,2.6401777,1.0959883,0.6815869,0.52931464,0.12409199
0.1,0.0,0.7999999999999999,0.0,0.0,0,-1.2700056,1.4670653,-0.42354533,0.1619178,-0.056822147,1.5047091,2.2295637,-0.94060767,-1.1003064,2.5482292,1.0878303,0.07268275,1.3194206,0.1698548
0.1,0.0,0.7999999999999999,0.0,0.0,0,-1.2746795,1.4691094,-0.53529274,0.10991933,-0.070664905,1.4643703,2.2536142,-0.94328123,-1.088867,2.535416,1.140966,1.6405222,1.001388,0.7793406
0.1,0.0,0.7999999999999999,0.0,0.0,0,-1.293944,1.456816,-0.4569721,0.051968116,-0.060020592,1.4547975,2.1950946,-1.010502,-1.1336917,2.6113427,1.0483456,1.4157983,0.58241904,0.51365125
0.1,0.0,0.7999999999999999,0.0,0.0,0,-1.2138623,1.4594346,-0.48123989,0.14375758,-0.030775316,1.5220426,2.1782784,-0.9951691,-1.1084956,2.5503924,1.0392005,1.1747482,0.67100203,0.76137066
0.1,0.0,0.7999999999999999,0.0,0.0,0,-1.2954013,1.4425687,-0.51798964,0.13639884,-0.02224459,1.474419,2.2758424,-1.019492,-1.0600206,2.5731103,1.110492,1.5111915,0.9793298,-0.38281918
0.1,0.0,0.7999999999999999,0.0,0.0,0,-1.2465218,1.4115978,-0.47387514,0.056779288,-0.05738904,1.4933068,2.2162044,-0.93240464,-1.1250199,2.5090027,1.1033471,0.9343964,1.1439277,-0.1585344
0.1,0.0,0.7999999999999999,0.0,0.0,0,-1.3630118,1.4409208,-0.41051537,0.053387906,-0.036174987,1.5040816,2.1930773,-1.0716401,-1.0991707,2.624759,1.0556247,1.0956507,0.52939194,0.43218136
0.1,0.0,0.7999999999999999,0.0,0.0,0,-1.2808053,1.4943688,-0.50489616,0.0053174216,-0.0745175,1.5035739,2.109499,-1.0154382,-1.0724236,2.5887735,1.015347,1.6350756,0.8183745,0.55939233
0.1,0.0,0.7999999999999999,0.0,0.0,0,-1.2343796,1.4781024,-0.4768316,0.107971154,-0.064991936,1.4714788,2.1814444,-0.98004705,-1.0550745,2.5779848,1.0440904,1.1655753,0.87464017,0.31676373
0.1,0.0,0.7999999999999999,0.0,0.0,0,-1.2617124,1.4375724,-0.46330273,0.07437377,-0.06469216,1.4511123,2.196677,-1.0352387,-1.0808598,2.590535,1.1254661,1.45524,0.749704,0.14576015
0.1,0.0,0.7999999999999999,0.0,0.0,0,-1.253991,1.4300572,-0.47306767,0.10932249,-0.062168628,1.4852964,2.2335746,-0.9780007,-1.1244897,2.5424402,1.0835357,2.2568445,1.0569605,0.71570826
0.1,0.0,0.7999999999999999,0.0,0.0,0,-1.2332389,1.5206686,-0.4644321,0.044546973,-0.06378887,1.4813884,2.1819947,-1.0031996,-1.0847415,2.579726,1.0730795,1.1082647,0.55084485,-0.20409371
0.1,0.0,0.7999999999999999,0.0,0.0,0,-1.3272994,1.4831936,-0.481727,-0.020364026,-0.045161434,1.4908043,2.1670089,-0.9393809,-1.1010624,2.4968388,1.1459092,1.327313,0.528547,0.49635828
0.1,0.0,0.7999999999999999,0.0,0.0,0,-1.231865,1.5006051,-0.4923789,0.12211161,-0.065756194,1.4531823,2.0680583,-0.9276645,-1.1043619,2.499734,1.0867614,0.034741808,0.70860004,0.13892978
0.1,0.0,0.7999999999999999,0.0,0.0,0,-1.2824092,1.4421216,-0.44948572,0.052141055,-0.04441239,1.491379,2.1471152,-1.0025512,-1.1320145,2.5555053,0.9950944,0.6581288,0.39697447,-0.031903375
0.1,0.0,0.7999999999999999,0.0,0.0,0,-1.2568573,1.4591146,-0.47093096,0.09297406,-0.03383574,1.4610878,2.2483501,-1.0970938,-1.0910733,2.5781546,1.1641455,1.1780977,0.8347854,1.0256522
0.1,0.0,0.7999999999999999,0.0,0.0,0,-1.1990955,1.5011663,-0.43348363,0.22384997,-0.078371674,1.5061184,2.1469004,-1.0395787,-1.097694,2.5198214,1.115647,1.4809191,0.7738884,0.3496364
0.1,0.0,0.7999999999999999,0.0,0.0,0,-1.3023026,1.4514638,-0.44502452,0.13753857,-0.07439709,1.5081999,2.1617377,-1.0040088,-1.0784695,2.535597,1.0259848,0.4441236,0.88225263,0.5571493
0.1,0.0,0.7999999999999999,0.0,0.0,0,-1.2996799,1.4785925,-0.45450833,0.09559135,-0.047836985,1.5159003,2.0733166,-1.0323033,-1.0893512,2.5531354,1.1109434,1.6001009,0.898122,0.08266726
0.1,0.0,0.7999999999999999,0.0,0.0,0,-1.349459,1.4528866,-0.4533937,0.3588403,-0.07167332,1.4431101,2.114926,-0.95896775,-1.0739374,2.5430186,1.1216744,1.4254332,0.5005943,0.4127688
0.1,0.0,0.7999999999999999,0.0,0.0,0,-1.3920816,1.500986,-0.5061864,0.22849125,-0.060455464,1.4722348,2.1931696,-1.0328596,-1.1655816,2.6352608,1.0882983,-0.36393398,0.44792762,1.0481334
0.1,0.0,0.7999999999999999,0.0,0.0,0,-1.3818825,1.478544,-0.4674532,0.14466935,-0.08489906,1.464249,2.1656554,-1.0452466,-1.0937159,2.5224366,1.1057833,1.1886694,0.72011465,-0.60507506
0.1,0.0,0.7999999999999999,0.0,0.0,0,-1.2929192,1.4487286,-0.44449347,0.1290447,-0.05414014,1.4647862,2.1349204,-0.91434056,-1.0601025,2.5574923,1.1107318,1.4288521,0.742138,0.23168895
0.1,0.0,0.7999999999999999,0.0,0.0,0,-1.3297584,1.4392824,-0.5008329,0.19782858,-0.061461948,1.4924228,2.1495423,-0.9488004,-1.0737,2.6089847,1.0701967,0.2915197,0.6608626,0.23720726
0.1,0.0,0.7999999999999999,0.0,0.0,0,-1.3177555,1.4429731,-0.5094724,0.14777431,-0.04298131,1.4693394,2.059769,-0.96368814,-1.0758724,2.5657926,1.0509007,1.084667,0.8521689,0.500214
0.1,0.0,0.7999999999999999,0.0,0.0,0,-1.2546877,1.4833933,-0.42263806,0.15716965,-0.061656497,1.4427489,2.2006454,-0.98407173,-1.1116846,2.5313375,1.1136781,1.4557524,0.8372017,-0.32038325
0.1,0.0,0.7999999999999999,0.0,0.0,0,-1.2729248,1.4632119,-0.50383836,0.13811648,-0.01747096,1.5161195,2.2360702,-0.98236525,-1.0548254,2.5889242,1.0608219,1.5966682,0.5028015,0.17324848
0.1,0.0,0.7999999999999999,0.0,0.0,0,-1.2575921,1.4272543,-0.46252266,0.13092156,-0.031807773,1.5274726,2.1799088,-0.9684822,-1.0276787,2.632354,1.0378921,1.5060396,0.4033762,0.5783238
0.1,0.0,0.7999999999999999,0.0,0.0,0,-1.2607541,1.4566786,-0.52501696,0.06941318,-0.07482108,1.4949176,2.2253623,-0.96126735,-1.0370451,2.5555778,0.99296147,1.18436,0.2807222,0.4941392
0.1,0.0,0.7999999999999999,0.0,0.0,0,-1.2968041,1.4366789,-0.5072183,0.07577083,-0.09824447,1.5202358,2.2086499,-0.98521024,-1.0948844,2.5961487,1.1869758,1.19767,0.58255017,0.61203235
0.1,0.0,0.7999999999999999,0.0,0.0,0,-1.1789582,1.459824,-0.4436632,0.11235275,-0.052020866,1.4846337,2.157247,-0.91773057,-1.138729,2.544648,1.1016438,1.6178923,0.87313056,0.30783394
0.1,0.0,0.7999999999999999,0.0,0.0,0,-1.2058486,1.3861837,-0.48998687,0.16917239,-0.04541251,1.4342486,2.1750803,-0.97664857,-1.1246657,2.5649698,1.1002334,1.5485781,0.6418182,0.009578034
0.1,0.0,0.7999999999999999,0.0,0.0,0,-1.2723025,1.4593753,-0.43202466,0.13786733,-0.05712724,1.5445155,2.1979847,-1.0549854,-1.0722022,2.642877,1.1267538,1.3443893,0.5529979,0.30090997
0.1,0.0,0.7999999999999999,0.0,0.0,0,-1.2507149,1.4404689,-0.4660986,0.13756217,-0.03212005,1.4786034,2.2289796,-0.9375144,-1.0403132,2.574063,1.1613904,1.6628491,0.32046145,0.2184556
0.1,0.0,0.7999999999999999,0.0,0.0,0,-1.3086855,1.4448214,-0.50161636,0.112881705,-0.05528801,1.4884404,2.1456306,-1.0534176,-1.1193979,2.5845814,1.075185,1.5104958,0.61455035,-0.04196708
0.1,0.0,0.7999999999999999,0.0,0.0,0,-1.2644051,1.4428921,-0.4719573,0.12754667,0.0012557622,1.5072379,2.1624444,-0.9378762,-1.1125859,2.5405588,1.1699113,1.6078458,0.45744747,0.6348042
0.1,0.0,0.7999999999999999,0.0,0.0,0,-1.2570078,1.4148158,-0.47486502,0.061974656,-0.05233927,1.4894013,2.1335604,-0.9642295,-1.088599,2.571893,1.079956,1.3734157,0.4009838,-0.18555214
0.1,0.0,0.7999999999999999,0.0,0.0,0,-1.194521,1.4560363,-0.49540526,0.07136316,-0.05704613,1.4782925,2.1443067,-0.9803726,-1.0631199,2.553905,1.1734446,0.7856614,0.9170034,-0.20452005
0.1,0.0,0.7999999999999999,0.0,0.0,0,-1.3013074,1.5152987,-0.46770743,-0.028218534,-0.055322763,1.5092703,2.1884432,-1.0309411,-1.0990047,2.5348759,1.1296856,1.7901318,0.89766836,0.5593138
0.1,0.0,0.7999999999999999,0.0,0.0,0,-1.4087348,1.4526633,-0.51012385,0.09181519,-0.05615901,1.5291343,2.2173378,-0.95817393,-1.0733954,2.5512044,1.1075902,1.2981688,0.92377794,-0.2611698
0.1,0.0,0.7999999999999999,0.0,0.0,0,-1.341392,1.4333928,-0.45792285,0.27358428,-0.040452205,1.4670243,2.2210193,-0.95300347,-1.1139381,2.5734677,1.0512191,0.9874752,0.8602479,1.0177644
0.1,0.0,0.7999999999999999,0.0,0.0,0,-1.4211466,1.4683398,-0.43908155,0.15397447,-0.03163122,1.445434,2.1381266,-0.9948977,-1.1077645,2.5719543,1.0609492,1.3256226,1.2783569,0.09643546
0.1,0.0,0.7999999999999999,0.0,0.0,0,-1.3211277,1.4644295,-0.498966,0.1741122,-0.08897883,1.4542797,2.2259614,-0.97982377,-1.0630895,2.5703042,1.1292038,0.79217815,1.0123945,0.6638304
0.1,0.0,0.7999999999999999,0.0,0.0,0,-1.2322471,1.4313483,-0.46616378,0.1538301,-0.048439752,1.4445202,2.1636949,-0.9582076,-1.0946957,2.5998077,1.0780476,1.2030003,0.95555747,0.9789138
0.1,0.0,0.7999999999999999,0.0,0.0,0,-1.280476,1.4494661,-0.43030483,0.311448,-0.0604659,1.5450485,2.1830394,-0.95731324,-1.0605235,2.5410707,1.1106339,1.5472869,0.7133446,0.35860246
0.1,0.0,0.7999999999999999,0.0,0.0,0,-1.3023202,1.4794581,-0.43468353,0.24550857,-0.07165695,1.5164878,2.1517525,-1.0579079,-1.1031895,2.534717,1.0596865,0.9699684,0.8500482,0.6316352
0.1,0.0,0.7999999999999999,0.0,0.0,0,-1.2783501,1.4837284,-0.505118,0.18413669,-0.049441278,1.5047971,2.1307845,-0.9892204,-1.0588001,2.5562003,1.1456777,1.4704802,0.7094626,0.8429087
0.1,0.0,0.7999999999999999,0.0,0.0,0,-1.3639232,1.4704887,-0.43026716,0.21419685,-0.07428747,1.5014014,2.1769936,-0.974898,-1.0889089,2.528719,1.1700499,1.4257255,0.92172414,0.047711924
0.1,0.0,0.7999999999999999,0.0,0.0,0,-1.3624793,1.5063424,-0.46942624,0.100844644,-0.06416854,1.5007752,2.1173015,-0.96928704,-1.0598396,2.5411625,1.1048465,1.8068027,0.8599702,0.35428336
0.1,0.0,0.7999999999999999,0.0,0.0,0,-1.3190916,1.4357138,-0.442183,0.11246001,-0.060914736,1.5427641,2.06014,-0.99978626,-1.0976496,2.6045644,1.0612221,0.734909,0.76688766,0.59479266
0.1,0.0,0.7999999999999999,0.0,0.0,0,-1.2833389,1.4859182,-0.43044722,0.17582218,-0.04618809,1.5071031,2.0871036,-0.9883875,-1.0999662,2.5630155,1.0572468,1.8484513,0.92859554,-0.20179966
0.1,0.0,0.7999999999999999,0.0,0.0,0,-1.2867949,1.4813737,-0.4679082,0.077696346,-0.057265848,1.4923228,2.129131,-0.9773647,-1.1165718,2.5076382,1.0912573,1.2445488,0.6878828,-0.04473975
0.1,0.0,0.7999999999999999,0.0,0.0,0,-1.2613509,1.4938666,-0.48941997,0.03502964,-0.068451986,1.5144243,2.1747005,-0.93922687,-1.1529565,2.5353765,1.1570504,0.64376193,1.0617712,-0.11549757
0.1,0.0,0.7999999999999999,0.0,0.0,0,-1.3147438,1.4548945,-0.44169846,0.16056146,-0.012280937,1.5048165,2.105942,-1.0300645,-1.054646,2.6080413,1.1298151,0.96177036,0.8229185,0.41698992
