sanky1234/BimanualDexCatch/isaacgymenvs/cem_results/football_pose_0.0_-0.1_1.0999999999999999_0.5235987755982988_0.0_0_2025-05-26.csv
x,y,z,roll,pitch,yaw,robot1/joint1,robot1/joint2,robot1/joint3,robot1/joint4,robot1/joint5,robot1/joint6,robot1/joint7,robot2/joint1,robot2/joint2,robot2/joint3,robot2/joint4,robot2/joint5,robot2/joint6,robot2/joint7
0.0,-0.1,1.0999999999999999,0.5235987755982988,0.0,0,0.06795671,-1.399671,0.03999379,-0.14099123,0.16406958,1.0386722,0.08635648,-0.6476333,1.3293991,-0.45576772,0.033927035,0.29273638,1.1914816,0.2198523
0.0,-0.1,1.0999999999999999,0.5235987755982988,0.0,0,0.05895676,-1.3980929,0.04318339,-0.18387665,-0.12927666,1.1804745,-1.558309,-0.6516969,1.339631,-0.051555037,-0.075756304,-0.18499309,1.1288007,0.43290696
0.0,-0.1,1.0999999999999999,0.5235987755982988,0.0,0,0.061887767,-1.3984637,0.037619356,-0.17122029,-0.038574647,1.1696275,-0.56575745,-0.6520347,1.3201334,0.06174434,-0.13720654,-0.015076931,1.0320038,0.8785219
0.0,-0.1,1.0999999999999999,0.5235987755982988,0.0,0,0.06924529,-1.3983439,0.04349563,-0.134996,-0.20692256,1.0645418,-1.8242538,-0.6508225,1.3407214,-0.0067289714,-0.0027150444,0.055416938,1.2928859,0.58624345
0.0,-0.1,1.0999999999999999,0.5235987755982988,0.0,0,0.057471927,-1.3985132,0.037844256,-0.16696307,-0.018311655,0.9773602,-0.072396316,-0.65036565,1.3311851,-0.09123876,-0.0031255959,0.33308685,1.045987,1.1135181
0.0,-0.1,1.0999999999999999,0.5235987755982988,0.0,0,0.06264634,-1.3983068,0.03984645,-0.18987301,0.0020529255,1.1369724,-1.6654617,-0.6516187,1.3587922,0.4313606,-0.10088308,0.11237473,1.1311364,1.0891804
0.0,-0.1,1.0999999999999999,0.5235987755982988,0.0,0,0.06536476,-1.3991147,0.044229522,-0.1328102,-0.21267751,1.0180945,-0.6828306,-0.64898443,1.336831,0.36737415,-0.054964293,0.090841554,1.0635934,1.7111548
0.0,-0.1,1.0999999999999999,0.5235987755982988,0.0,0,0.056747016,-1.3991361,0.038589794,-0.1971543,0.043523714,1.0846746,-0.05839698,-0.6519123,1.3216324,0.04271073,-0.15551631,0.21046078,1.1960578,1.343088
0.0,-0.1,1.0999999999999999,0.5235987755982988,0.0,0,0.06952446,-1.3987501,0.03998251,-0.20247358,0.0740715,0.9439767,-0.19423665,-0.65328413,1.321227,-0.23621753,0.06943871,-0.05250338,1.2807494,2.5581875
0.0,-0.1,1.0999999999999999,0.5235987755982988,0.0,0,0.057787705,-1.3980054,0.03536355,-0.24631672,0.0027062462,0.9776044,-1.1386298,-0.65325403,1.4043492,0.68196386,-0.06339177,-0.3348999,1.0543542,0.799061
0.0,-0.1,1.0999999999999999,0.5235987755982988,0.0,0,0.061322976,-1.398669,0.04361885,-0.19584651,-0.11221886,1.0123959,-0.34395036,-0.6513396,1.3261406,0.16053584,0.020743322,0.29403636,1.1483645,2.2575452
0.0,-0.1,1.0999999999999999,0.5235987755982988,0.0,0,0.06290238,-1.3984311,0.036366314,-0.23361903,0.010152573,1.1921108,0.19537711,-0.6539025,1.3456814,0.023512002,-0.08290055,0.438179,1.0666147,-0.49009538
0.0,-0.1,1.0999999999999999,0.5235987755982988,0.0,0,0.053172085,-1.3987378,0.03954146,-0.15764795,-0.0689451,1.1223432,-2.5813084,-0.6506713,1.3464203,-0.2832657,-0.014144749,-0.059065387,1.0811841,0.81515026
0.0,-0.1,1.0999999999999999,0.5235987755982988,0.0,0,0.06479481,-1.3989182,0.03779528,-0.22771223,0.30889523,1.0832475,-0.43323553,-0.65248364,1.3468971,0.34657714,0.017334552,0.020063728,1.093728,1.5473071
0.0,-0.1,1.0999999999999999,0.5235987755982988,0.0,0,0.060817454,-1.3990333,0.04151542,-0.18373689,-0.0061229696,1.1452072,-0.37335578,-0.6512671,1.3216244,-0.12022039,-0.13626584,0.10971404,1.0197066,-0.33177447
0.0,-0.1,1.0999999999999999,0.5235987755982988,0.0,0,0.060138535,-1.3987215,0.038097695,-0.17708285,-0.077914126,1.0134832,-0.56670225,-0.6526395,1.3131357,-0.020831812,-0.18944575,0.066181146,1.1880366,1.4111077
0.0,-0.1,1.0999999999999999,0.5235987755982988,0.0,0,0.061668154,-1.3994089,0.040491555,-0.199176,-0.08597668,1.0397699,0.94494253,-0.6515532,1.3599607,0.26901418,0.018017538,0.28161666,0.9991296,0.52736765
0.0,-0.1,1.0999999999999999,0.5235987755982988,0.0,0,0.0642085,-1.3990077,0.04216361,-0.19627005,-0.09473752,0.92228603,-0.0339518,-0.6527828,1.3067144,-0.19114558,-0.19681218,0.19246843,1.0833627,2.2255874
0.0,-0.1,1.0999999999999999,0.5235987755982988,0.0,0,0.05806334,-1.399501,0.040500812,-0.24256957,-0.11537164,1.1765674,-1.611842,-0.6504211,1.3662059,0.37910762,-0.05809673,0.06973326,1.1290088,1.57822
0.0,-0.1,1.0999999999999999,0.5235987755982988,0.0,0,0.05864392,-1.3984097,0.040930685,-0.14748017,0.0071969093,1.0581547,-0.41986275,-0.65144503,1.3529608,0.00074286945,0.02654563,-0.12942937,1.1460721,1.6826842
0.0,-0.1,1.0999999999999999,0.5235987755982988,0.0,0,0.06312034,-1.3989495,0.042605154,-0.16914037,0.016849147,0.9575835,1.1828027,-0.651441,1.3102177,0.27194,-0.049052674,0.2593234,1.0658013,0.9450391
0.0,-0.1,1.0999999999999999,0.5235987755982988,0.0,0,0.057098914,-1.3982736,0.03951458,-0.139231,0.124505945,1.0414159,0.055270508,-0.6524126,1.3748323,-0.1214416,-0.0076135835,0.11169067,0.98690766,0.9163282
0.0,-0.1,1.0999999999999999,0.5235987755982988,0.0,0,0.053348836,-1.3990685,0.0377528,-0.12511773,0.18620032,1.112597,-2.0649173,-0.65113765,1.3331089,0.37645367,-0.14115402,0.68306285,0.9767988,1.295608
0.0,-0.1,1.0999999999999999,0.5235987755982988,0.0,0,0.0637172,-1.398375,0.03829576,-0.24254888,-0.039069463,1.0956131,-1.1256983,-0.65374523,1.3108524,0.3512138,0.11519608,-0.12021584,1.2775112,0.9257833
0.0,-0.1,1.0999999999999999,0.5235987755982988,0.0,0,0.064521275,-1.3992429,0.039685495,-0.13446245,0.06275187,1.034865,-0.9144604,-0.6532601,1.3389037,0.016608845,-0.076571435,0.49830332,1.1384913,0.72443974
0.0,-0.1,1.0999999999999999,0.5235987755982988,0.0,0,0.065382384,-1.3990343,0.036542885,-0.18171561,-0.09775922,1.045266,0.8558785,-0.6535063,1.3188925,-0.44474643,-0.08093091,0.257783,1.0422883,0.54459053
0.0,-0.1,1.0999999999999999,0.5235987755982988,0.0,0,0.06168249,-1.3979021,0.03981486,-0.19620086,0.04517726,0.9543866,0.5144616,-0.6542754,1.3274139,-0.34826177,-0.08786321,0.040682513,1.0390579,0.25742742
0.0,-0.1,1.0999999999999999,0.5235987755982988,0.0,0,0.05709944,-1.399148,0.039176077,-0.20557682,-0.05633201,1.0439512,-0.55571747,-0.650893,1.3292075,0.7410841,0.034628194,-0.11353515,1.1244817,0.87098294
0.0,-0.1,1.0999999999999999,0.5235987755982988,0.0,0,0.061269447,-1.3991251,0.038741127,-0.22816183,0.1166979,1.1815166,1.100254,-0.65147656,1.3718445,0.5049087,0.028229032,-0.09490454,1.1676509,0.69193125
0.0,-0.1,1.0999999999999999,0.5235987755982988,0.0,0,0.06005761,-1.3983579,0.042928256,-0.21298654,-0.0056344466,0.8784539,-0.31767255,-0.65336,1.341575,-0.12725341,-0.15065926,-0.06744041,1.173192,-0.61904186
0.0,-0.1,1.0999999999999999,0.5235987755982988,0.0,0,0.05605693,-1.3984199,0.039983742,-0.11449807,0.041651506,1.0722158,-0.20324619,-0.65119255,1.3151436,0.07990378,-0.031950697,-0.21643654,1.0836991,-0.20901658
0.0,-0.1,1.0999999999999999,0.5235987755982988,0.0,0,0.056963995,-1.3991612,0.038554993,-0.117591515,-0.18894418,1.23914,-0.75949216,-0.6506033,1.3251039,0.067368716,0.081976324,-0.021267507,1.0509312,-0.12454276
0.0,-0.1,1.0999999999999999,0.5235987755982988,0.0,0,0.060349714,-1.3983781,0.039011948,-0.16177335,0.099658325,1.1309808,0.28822443,-0.6514021,1.3378772,0.8524225,-0.029554559,0.02119163,1.3010552,0.61327296
0.0,-0.1,1.0999999999999999,0.5235987755982988,0.0,0,0.059134543,-1.3985453,0.038979005,-0.1435393,-0.17131686,1.1327758,0.2532422,-0.6517002,1.3473186,0.26035425,-0.12170433,0.21723539,1.0318182,1.7527958
0.0,-0.1,1.0999999999999999,0.5235987755982988,0.0,0,0.06288266,-1.3992195,0.039572604,-0.16796474,0.16860253,1.1565785,-1.3788344,-0.65247273,1.330712,0.4805279,0.15606962,0.28822738,1.0601825,0.30924186
0.0,-0.1,1.0999999999999999,0.5235987755982988,0.0,0,0.05992495,-1.3991356,0.037394796,-0.1546239,0.13322824,1.2425082,-0.07496162,-0.6504739,1.3077632,0.0723536,-0.0042627584,0.4708448,1.20592,0.8583209
0.0,-0.1,1.0999999999999999,0.5235987755982988,0.0,0,0.06420069,-1.3986597,0.04162147,-0.22069803,0.040325996,1.1383955,1.3344995,-0.6530669,1.2919855,-0.0044150474,-0.0029650438,0.62888265,1.1659524,-0.122696355
0.0,-0.1,1.0999999999999999,0.5235987755982988,0.0,0,0.05524258,-1.3985385,0.04145313,-0.1664986,-0.07655255,1.0891949,-1.4596074,-0.65279084,1.3490007,-0.0684519,0.10618285,-0.053783476,1.0223299,1.7789425
0.0,-0.1,1.0999999999999999,0.5235987755982988,0.0,0,0.057803676,-1.3993459,0.03653159,-0.2224003,-0.18574327,1.0037953,-0.17119728,-0.650897,1.338265,-0.28965765,-0.0076503498,-0.22615498,1.2233088,2.1326752
0.0,-0.1,1.0999999999999999,0.5235987755982988,0.0,0,0.059250552,-1.3994008,0.040240135,-0.21902579,-0.015908198,1.0242963,-2.8201473,-0.65139055,1.3426943,0.049748026,-0.02249908,0.121120304,1.1538978,0.51251596
0.0,-0.1,1.0999999999999999,0.5235987755982988,0.0,0,0.062091146,-1.3995152,0.041119628,-0.098012835,0.14930624,1.0107366,-0.6483381,-0.6520446,1.3390715,-0.20310941,-0.0006136546,0.37246805,1.0742354,-0.03351831
0.0,-0.1,1.0999999999999999,0.5235987755982988,0.0,0,0.05992734,-1.3992282,0.039854795,-0.14829576,-0.020327454,1.134854,0.33943895,-0.65050334,1.3513128,0.001906531,-0.042622574,-0.0608438,1.190217,0.2784311
0.0,-0.1,1.0999999999999999,0.5235987755982988,0.0,0,0.06389331,-1.398967,0.04035292,-0.17522918,0.010514735,0.96121335,-0.73881704,-0.65306705,1.3293006,0.03629647,-0.03652762,-0.08849203,1.0639982,0.587353
0.0,-0.1,1.0999999999999999,0.5235987755982988,0.0,0,0.059224974,-1.3987931,0.03858531,-0.20009218,0.027914906,1.0014458,-0.5790663,-0.65205574,1.3609501,0.14845656,0.0311491,0.050689254,1.076821,0.379795
0.0,-0.1,1.0999999999999999,0.5235987755982988,0.0,0,0.060631152,-1.39812,0.03924214,-0.12727907,-0.22395532,0.9891896,-0.22428244,-0.65334207,1.3352815,0.8604598,-0.050385427,0.121544994,1.1422466,1.6474448
0.0,-0.1,1.0999999999999999,0.5235987755982988,0.0,0,0.059055895,-1.3983291,0.044476558,-0.18971263,-0.01692462,1.0632726,0.26096866,-0.6532108,1.3422071,-0.255534,0.047589365,0.41012928,1.2634884,-0.09751152
0.0,-0.1,1.0999999999999999,0.5235987755982988,0.0,0,0.058464892,-1.3983434,0.03966251,-0.23744743,0.15403143,0.9119245,-0.32744443,-0.6544848,1.3133632,0.89195824,0.015217891,0.015688168,1.2200058,0.0041870987
0.0,-0.1,1.0999999999999999,0.5235987755982988,0.0,0,0.053516682,-1.3982813,0.04189017,-0.1271685,-0.17588653,1.1507897,0.09153343,-0.6519977,1.3321061,-0.36222196,0.014495783,-0.3061428,0.90942794,1.49308
0.0,-0.1,1.0999999999999999,0.5235987755982988,0.0,0,0.060991023,-1.3988702,0.042322997,-0.2637377,0.17588463,0.95968306,-0.81756264,-0.65429616,1.3043761,0.3806693,-0.03273402,0.47628438,1.1565711,1.087485
0.0,-0.1,1.0999999999999999,0.5235987755982988,0.0,0,0.05938937,-1.398649,0.043759592,-0.2640578,0.052115235,1.1254056,-0.4619693,-0.6532355,1.31128,0.46664262,-0.11894634,0.28591868,1.2348979,-0.8409481
0.0,-0.1,1.0999999999999999,0.5235987755982988,0.0,0,0.05077432,-1.3986359,0.04119245,-0.11559516,0.13854344,0.9392147,1.4662501,-0.6511283,1.3410434,-0.19715203,-0.19491206,-0.24598221,1.1760399,1.1575767
0.0,-0.1,1.0999999999999999,0.5235987755982988,0.0,0,0.06121846,-1.39906,0.041104477,-0.10530597,-0.10014579,1.0982188,-0.10497806,-0.65249616,1.3177909,0.05028758,-0.058187183,-0.3321557,1.0883161,0.5309134
0.0,-0.1,1.0999999999999999,0.5235987755982988,0.0,0,0.06279213,-1.3995308,0.03964626,-0.22450723,-0.06352419,1.1095195,0.72159785,-0.652624,1.3470476,-0.2851937,-0.017186267,-0.30934626,1.0757589,0.39649504
0.0,-0.1,1.0999999999999999,0.5235987755982988,0.0,0,0.060147773,-1.398694,0.04038758,-0.19245046,0.12246427,1.1050191,0.043230046,-0.65301293,1.3604766,-0.060053345,-0.17540246,0.12282894,1.1127455,-0.8714789
0.0,-0.1,1.0999999999999999,0.5235987755982988,0.0,0,0.060434215,-1.3990104,0.040525213,-0.20706691,-0.14343698,1.2469114,0.18961734,-0.65251344,1.3422135,0.15216237,0.015690062,0.07352027,1.1848874,-0.58092755
0.0,-0.1,1.0999999999999999,0.5235987755982988,0.0,0,0.056785975,-1.3990631,0.03993458,-0.2346137,-0.17423636,1.0002558,0.26717052,-0.652989,1.3390824,-0.43209755,-0.13664429,0.07080611,1.1600183,1.1428448
0.0,-0.1,1.0999999999999999,0.5235987755982988,0.0,0,0.06088091,-1.3981477,0.03755706,-0.19768679,0.10957965,1.0723894,-0.3271805,-0.6535869,1.312984,-0.48937726,0.0027159406,0.0018459384,1.1258497,1.2167559
0.0,-0.1,1.0999999999999999,0.5235987755982988,0.0,0,0.05424461,-1.3983963,0.041870028,-0.15126745,-0.057647124,1.1004233,-1.5330683,-0.6524666,1.3145999,-0.70953894,-0.024703054,-0.015372366,1.1257994,-1.0947282
0.0,-0.1,1.0999999999999999,0.5235987755982988,0.0,0,0.057978224,-1.3990835,0.041181024,-0.13997339,0.04834282,1.1131207,-0.48057657,-0.6513486,1.3402563,-0.3943768,-0.0054293238,0.41405067,1.1721439,0.4070677
0.0,-0.1,1.0999999999999999,0.5235987755982988,0.0,0,0.06257194,-1.3986726,0.03603264,-0.15827495,-0.12095974,1.0332371,0.15110248,-0.65307474,1.3668151,0.15872584,-0.01560383,0.18480927,1.0575157,0.74594516
0.0,-0.1,1.0999999999999999,0.5235987755982988,0.0,0,0.06584668,-1.3992836,0.03980102,-0.1779592,-0.031956304,1.1195779,0.56373173,-0.65257454,1.2985137,0.13804922,-0.070322886,0.079965234,1.1651238,0.5149783
0.0,-0.1,1.0999999999999999,0.5235987755982988,0.0,0,0.048713364,-1.3994993,0.045652114,-0.14237517,-0.015152516,1.154099,-2.2431083,-0.65019625,1.3722315,0.18923591,-0.10426761,-0.005394622,1.196941,0.7192487
0.0,-0.1,1.0999999999999999,0.5235987755982988,0.0,0,0.05589771,-1.3995373,0.03518061,-0.1890622,-0.18411462,1.1802688,-0.7170117,-0.6511543,1.3432367,-0.35411966,-0.039140504,-0.072978914,1.2668175,0.9035274
0.0,-0.1,1.0999999999999999,0.5235987755982988,0.0,0,0.05750518,-1.398579,0.04266182,-0.155308,-0.12797152,1.1442249,-2.0629232,-0.6528359,1.3879359,0.3145489,-0.16235961,0.036420792,1.1536397,0.98846984
0.0,-0.1,1.0999999999999999,0.5235987755982988,0.0,0,0.059533115,-1.3991561,0.038404748,-0.17218539,0.017684352,1.3028331,1.6462497,-0.65218085,1.3591295,0.6605187,-0.06241588,0.005339098,1.0891057,1.0037699
0.0,-0.1,1.0999999999999999,0.5235987755982988,0.0,0,0.058611486,-1.3989264,0.03832023,-0.19006613,0.13025996,1.0249705,-1.2592169,-0.6509141,1.3346697,-0.5610196,-0.1461167,-0.5966815,1.1424304,0.4203708
0.0,-0.1,1.0999999999999999,0.5235987755982988,0.0,0,0.05478894,-1.3983804,0.03832516,-0.16209866,0.06483842,1.1212848,-0.72687733,-0.65254617,1.3330221,-0.03739643,0.09147634,-0.07736244,1.1101973,-0.5898482
0.0,-0.1,1.0999999999999999,0.5235987755982988,0.0,0,0.06132147,-1.3983195,0.04203966,-0.12845178,0.097150914,0.9032136,0.13285404,-0.6539512,1.3415617,0.3656013,-0.065246575,-0.32677096,1.0522101,0.8589712
0.0,-0.1,1.0999999999999999,0.5235987755982988,0.0,0,0.058091372,-1.399171,0.04377921,-0.18206309,-0.18239553,1.0738363,0.30921438,-0.6522108,1.3221827,0.23533922,-0.10118086,0.25296503,1.1932687,1.9996917
0.0,-0.1,1.0999999999999999,0.5235987755982988,0.0,0,0.058200065,-1.3988593,0.04254779,-0.26318556,0.10104477,1.1334211,0.36672926,-0.6534311,1.34126,0.6766433,0.03367897,0.07138579,1.1775904,0.55480635
0.0,-0.1,1.0999999999999999,0.5235987755982988,0.0,0,0.05188058,-1.3980377,0.041162122,-0.14616302,-0.06947286,1.1516665,1.1331697,-0.6521423,1.3472368,0.4155504,-0.13307677,-0.4220891,0.98427504,1.5024282
0.0,-0.1,1.0999999999999999,0.5235987755982988,0.0,0,0.060840856,-1.3993219,0.040380497,-0.1668549,0.09365552,1.0861408,-0.89679885,-0.65235984,1.3581051,0.3525537,-0.06816136,0.14206433,0.9911516,0.34727377
0.0,-0.1,1.0999999999999999,0.5235987755982988,0.0,0,0.05864931,-1.3981137,0.041617077,-0.1381439,-0.0088315755,1.1701883,1.219573,-0.6523906,1.3426712,0.1316952,-0.031104995,-0.1303701,1.2517521,0.4864704
0.0,-0.1,1.0999999999999999,0.5235987755982988,0.0,0,0.05869278,-1.3987055,0.039698314,-0.14669804,-0.0054038516,1.0739151,-2.088336,-0.65320885,1.328293,0.1857222,-0.10766963,-0.055350963,0.9849718,0.088946745
0.0,-0.1,1.0999999999999999,0.5235987755982988,0.0,0,0.05727927,-1.3986354,0.037767228,-0.21597059,0.14474183,1.0774745,0.5882476,-0.6515401,1.3512605,0.08809784,-0.046000764,0.20338681,1.1882544,-0.13411522
0.0,-0.1,1.0999999999999999,0.5235987755982988,0.0,0,0.054273862,-1.3983312,0.035288367,-0.116330564,-0.099895686,1.1446097,-0.01101877,-0.65000445,1.3504862,-0.376037,0.061792698,0.103892855,1.1107446,0.8178185
0.0,-0.1,1.0999999999999999,0.5235987755982988,0.0,0,0.058445413,-1.3993793,0.044391736,-0.17421219,-0.09990446,1.0219101,0.45377797,-0.65202874,1.3211792,-0.22809802,-0.03533708,-0.3090917,1.1732879,0.7355009
0.0,-0.1,1.0999999999999999,0.5235987755982988,0.0,0,0.05940719,-1.3988414,0.04384102,-0.22939467,-0.061242532,1.1079977,-1.3372309,-0.65411687,1.3254213,0.37650824,-0.10641778,0.060276527,1.0754945,0.3887028
0.0,-0.1,1.0999999999999999,0.5235987755982988,0.0,0,0.06579379,-1.3995337,0.039952904,-0.12424389,-0.026998678,1.0405362,0.29911476,-0.65289766,1.3559167,0.9133897,-0.014243763,0.045694854,1.1502209,1.278656
0.0,-0.1,1.0999999999999999,0.5235987755982988,0.0,0,0.062189694,-1.3981589,0.03912043,-0.19580564,-0.090527035,1.2623341,-0.20624977,-0.6546043,1.3401595,0.47931054,-0.112682104,-0.027157553,1.2493243,-1.077655
0.0,-0.1,1.0999999999999999,0.5235987755982988,0.0,0,0.058053687,-1.3982904,0.04016272,-0.16400176,0.09449086,1.1110597,-1.8520142,-0.65268713,1.3325856,-0.07880144,-0.11461424,0.12644106,1.1958985,1.0596056
0.0,-0.1,1.0999999999999999,0.5235987755982988,0.0,0,0.062714875,-1.3980366,0.042883053,-0.1280775,-0.05813958,1.1418694,-0.39763772,-0.6555438,1.3364654,0.09105694,-0.1400302,0.13665827,1.186459,0.77895385
0.0,-0.1,1.0999999999999999,0.5235987755982988,0.0,0,0.061368592,-1.3990965,0.03724475,-0.15774603,0.007702001,1.0119094,-0.61432785,-0.6532067,1.3687818,-0.053065974,-0.10898061,0.13850473,1.2329472,-0.5888466
0.0,-0.1,1.0999999999999999,0.5235987755982988,0.0,0,0.063315876,-1.3991282,0.03666878,-0.20374198,-0.051820613,0.9480572,-0.02082967,-0.65417135,1.3166271,0.016216682,-0.024780411,-0.07861985,1.2821485,-0.052288935
0.0,-0.1,1.0999999999999999,0.5235987755982988,0.0,0,0.05827477,-1.3994733,0.039267715,-0.24467371,-0.0930641,0.9719398,-1.3151972,-0.6543648,1.3265903,0.5651688,-0.15696488,0.22801302,0.9549136,0.90447325
0.0,-0.1,1.0999999999999999,0.5235987755982988,0.0,0,0.05122496,-1.3991197,0.036387574,-0.1475881,-0.024457851,1.0912825,0.57174194,-0.64787096,1.3209791,0.5750956,-0.10014241,0.06859415,1.2433465,-0.60637456
0.0,-0.1,1.0999999999999999,0.5235987755982988,0.0,0,0.059294943,-1.3989973,0.036200345,-0.14227436,-0.1882588,1.0269215,-1.4840106,-0.65332186,1.3601354,0.7407936,-0.04183266,0.23744902,0.8596529,2.2795942
0.0,-0.1,1.0999999999999999,0.5235987755982988,0.0,0,0.061938286,-1.3986269,0.04143955,-0.07231972,0.042046368,1.0921019,-0.4336779,-0.6535583,1.3518662,0.21463864,-0.09799526,0.05894774,0.9961075,-0.10698431
0.0,-0.1,1.0999999999999999,0.5235987755982988,0.0,0,0.05808451,-1.3986416,0.041648194,-0.17475064,0.07044656,1.0266885,0.4466072,-0.652991,1.3381968,0.27888152,0.047052845,0.018475905,1.1669806,-0.1988621
0.0,-0.1,1.0999999999999999,0.5235987755982988,0.0,0,0.062345684,-1.3994205,0.04025432,-0.12726714,0.025252273,1.0253997,-1.7181193,-0.65213066,1.3341103,-0.34073132,0.022142138,-0.21510354,1.2122052,1.4497164
0.0,-0.1,1.0999999999999999,0.5235987755982988,0.0,0,0.058177143,-1.3981452,0.03802646,-0.2844713,0.0755171,1.1046398,0.4063773,-0.65222377,1.3747351,-0.39570835,-0.047567666,0.28679198,1.2368689,1.3492302
0.0,-0.1,1.0999999999999999,0.5235987755982988,0.0,0,0.0485146,-1.3987867,0.037686203,-0.16253431,-0.1200428,1.0376425,0.324803,-0.6473985,1.3411801,-0.31434983,-0.050195917,-0.005216971,1.2173786,0.5210863
0.0,-0.1,1.0999999999999999,0.5235987755982988,0.0,0,0.060353108,-1.3986812,0.037207816,-0.17520382,-0.08380257,1.2374269,-1.6056318,-0.6528732,1.3422278,-0.036623728,-0.08615927,-0.37900805,1.2733322,1.1471198
0.0,-0.1,1.0999999999999999,0.5235987755982988,0.0,0,0.057787947,-1.3987837,0.03777637,-0.20125172,0.011923733,1.0155295,0.3173743,-0.65187925,1.3155081,0.022837099,-0.12422213,-0.073406294,0.9919623,-0.24635354
0.0,-0.1,1.0999999999999999,0.5235987755982988,0.0,0,0.057536963,-1.3989917,0.03633355,-0.20453183,0.09667774,1.1729066,-0.30294058,-0.65085244,1.3181708,-0.45365754,0.058021665,0.273046,0.9683354,-0.4954356
0.0,-0.1,1.0999999999999999,0.5235987755982988,0.0,0,0.055012472,-1.3987954,0.036290158,-0.14016871,-0.2153738,1.2207978,1.220026,-0.6524486,1.3439486,0.5324687,-0.045346938,-0.4076062,0.96834487,1.4843309
0.0,-0.1,1.0999999999999999,0.5235987755982988,0.0,0,0.06267601,-1.4000099,0.04320032,-0.22673838,-0.03520394,1.2374307,-0.3170663,-0.65360934,1.3124654,-0.36467364,-0.11099596,-0.28944305,1.2988906,0.48783502
0.0,-0.1,1.0999999999999999,0.5235987755982988,0.0,0,0.058137655,-1.3993565,0.04153344,-0.17522083,0.059139315,1.0123138,-1.8851624,-0.6541548,1.3362557,0.49098942,0.025615588,-0.4050047,1.2054963,1.0308788
0.0,-0.1,1.0999999999999999,0.5235987755982988,0.0,0,0.063554935,-1.3979989,0.04025137,-0.15297043,0.09466184,1.1879151,0.4576174,-0.65602773,1.3195459,-0.66114056,-0.11876042,-0.08833427,1.2913139,1.2627562
0.0,-0.1,1.0999999999999999,0.5235987755982988,0.0,0,0.05774864,-1.3984323,0.039404523,-0.22307721,0.011731309,1.1683162,-1.157813,-0.6548115,1.3455874,0.035352785,-0.029436847,0.035446722,1.0945766,1.8921762
0.0,-0.1,1.0999999999999999,0.5235987755982988,0.0,0,0.061585866,-1.3982959,0.03811681,-0.12612985,0.0782098,1.1203911,-2.22435,-0.6536013,1.3753392,0.58248466,0.010229201,-0.044214863,1.2124642,0.5280708
0.0,-0.1,1.0999999999999999,0.5235987755982988,0.0,0,0.058535986,-1.3981689,0.0406669,-0.18893416,0.08505082,1.0105817,-0.6559776,-0.65237796,1.3800074,-0.41012827,-0.09102728,0.08229233,0.97084165,2.5853488
0.0,-0.1,1.0999999999999999,0.5235987755982988,0.0,0,0.051266238,-1.3985841,0.037877787,-0.1074134,-0.07606434,1.0525312,1.1615803,-0.6505544,1.3705031,0.60305595,-0.011307327,-0.26654422,1.0917011,0.76521546
0.0,-0.1,1.0999999999999999,0.5235987755982988,0.0,0,0.046178475,-1.3991082,0.04041223,-0.15659805,0.0009503787,0.95831835,0.43967322,-0.652109,1.3232145,0.25952622,0.026653878,0.51261026,1.0984436,0.3530189
0.0,-0.1,1.0999999999999999,0.5235987755982988,0.0,0,0.056700166,-1.3983185,0.037896976,-0.21896471,0.002779668,1.0249985,1.865747,-0.65288687,1.3659607,0.10530921,-0.09480575,-0.3640128,1.0920799,1.0484338
0.0,-0.1,1.0999999999999999,0.5235987755982988,0.0,0,0.059518076,-1.3994417,0.044090904,-0.11481351,0.014247818,1.061069,-0.17205957,-0.6525803,1.3402163,0.18947355,-0.003718831,0.41226074,1.3190404,1.5842043
0.0,-0.1,1.0999999999999999,0.5235987755982988,0.0,0,0.060354013,-1.3994083,0.04087555,-0.17015357,0.018188262,1.1610957,0.32537243,-0.6542608,1.3414415,-0.116212316,-0.020017467,-0.13297068,1.0131699,0.6727488
0.0,-0.1,1.0999999999999999,0.5235987755982988,0.0,0,0.0572531,-1.3984921,0.03764158,-0.1472318,-0.038281064,1.1084037,-0.6089342,-0.65245104,1.3781039,0.09637162,-0.15101029,0.15154232,1.0659719,-0.6878987
0.0,-0.1,1.0999999999999999,0.5235987755982988,0.0,0,0.060615364,-1.398205,0.041929565,-0.077287115,0.08310029,1.0997056,-0.64480406,-0.6536719,1.3527982,0.13851605,0.035339914,-0.03164368,1.2015035,1.060198
0.0,-0.1,1.0999999999999999,0.5235987755982988,0.0,0,0.05425272,-1.3983558,0.036211863,-0.114478536,-0.11550591,1.1536851,0.6659859,-0.651639,1.3356832,0.2945923,-0.22498855,-0.08524241,1.2959548,0.8645301
0.0,-0.1,1.0999999999999999,0.5235987755982988,0.0,0,0.05753619,-1.3984203,0.04121223,-0.18691695,-0.007301418,1.1998495,0.034987617,-0.65389955,1.327817,0.5661538,-0.11562303,0.21583615,1.0002463,0.6433353
0.0,-0.1,1.0999999999999999,0.5235987755982988,0.0,0,0.06046683,-1.3990072,0.03952166,-0.20380694,-0.0911082,1.2695339,0.38766214,-0.65569866,1.3611139,0.10995134,-0.09014874,0.44702688,1.1393858,-0.19092979
0.0,-0.1,1.0999999999999999,0.5235987755982988,0.0,0,0.06062385,-1.3993856,0.042467378,-0.09934047,-0.07871381,0.96474636,0.35552105,-0.6550749,1.3312508,-0.76298267,0.073614374,-0.1349162,1.1112201,0.27214038
0.0,-0.1,1.0999999999999999,0.5235987755982988,0.0,0,0.054379705,-1.3985859,0.042294838,-0.21618675,0.037742853,1.0726485,-0.6343133,-0.6547641,1.293835,0.71536165,-0.10253023,0.28189316,1.0122942,1.6940856
0.0,-0.1,1.0999999999999999,0.5235987755982988,0.0,0,0.056407485,-1.3990692,0.036779243,-0.13815524,-0.013839978,0.9716504,-0.22218443,-0.65237755,1.3379109,0.3214617,-0.005410265,-0.3944947,1.1367364,1.4495115
0.0,-0.1,1.0999999999999999,0.5235987755982988,0.0,0,0.054654587,-1.3989496,0.040365696,-0.09898081,0.04167693,0.92138827,-0.39759615,-0.6524933,1.3606548,0.11420828,-0.14065507,-0.027328594,1.1977767,1.0302211
0.0,-0.1,1.0999999999999999,0.5235987755982988,0.0,0,0.05823495,-1.3990389,0.038748868,-0.23422658,0.049157932,0.93195516,-1.2097696,-0.6564716,1.3646713,0.28415957,0.069104806,-0.1948134,1.020387,0.51696193
0.0,-0.1,1.0999999999999999,0.5235987755982988,0.0,0,0.05907458,-1.3983963,0.041290537,-0.16609558,0.06459968,0.99081856,0.50421965,-0.6561431,1.3491304,-0.28489584,0.096519336,0.15088633,1.1759347,0.40306738
0.0,-0.1,1.0999999999999999,0.5235987755982988,0.0,0,0.058054615,-1.3985628,0.040149868,-0.11967065,0.061096977,1.1980938,-0.1291354,-0.65384907,1.3321221,0.6693586,-0.05598981,0.22275174,1.0901892,-0.036983375
0.0,-0.1,1.0999999999999999,0.5235987755982988,0.0,0,0.053961895,-1.398501,0.039515086,-0.21418592,-0.016512517,1.0273385,0.2852491,-0.65401953,1.3267792,0.27588317,-0.11679434,0.2359039,1.2873014,0.53527147
0.0,-0.1,1.0999999999999999,0.5235987755982988,0.0,0,0.058574036,-1.3979286,0.040845826,-0.21620545,0.008944589,1.0037138,0.93385875,-0.6558416,1.3176408,0.511134,-0.0430302,0.21212952,1.204455,1.5798081
0.0,-0.1,1.0999999999999999,0.5235987755982988,0.0,0,0.054126978,-1.3982589,0.03828117,-0.23029555,0.021947768,1.1699897,-0.7527655,-0.6556702,1.3577172,0.3046678,-0.15754619,0.42159322,1.1868348,0.4422924
0.0,-0.1,1.0999999999999999,0.5235987755982988,0.0,0,0.05603073,-1.3986095,0.04037672,-0.1007501,-0.08324494,0.9468048,-0.6246136,-0.65870124,1.3491039,-0.24342008,-0.2502414,-0.16809367,1.1298716,0.30836874
0.0,-0.1,1.0999999999999999,0.5235987755982988,0.0,0,0.056558196,-1.3989196,0.038681272,-0.19506489,-0.06904358,1.092459,-0.45267004,-0.65644383,1.3390758,-0.11454956,-0.021376781,0.1376338,0.9853112,1.1731837
0.0,-0.1,1.0999999999999999,0.5235987755982988,0.0,0,0.05803043,-1.399414,0.039409053,-0.18194334,-0.0037971085,1.1149105,1.3632338,-0.65491974,1.3549532,-0.10293837,-0.019763712,-0.008305125,1.014046,1.4502692
0.0,-0.1,1.0999999999999999,0.5235987755982988,0.0,0,0.060924567,-1.3991745,0.038180746,-0.10598805,-0.01673718,1.1298044,0.50768226,-0.6540134,1.3518498,0.30668017,-0.27398893,0.061399885,1.2081001,1.3075198
0.0,-0.1,1.0999999999999999,0.5235987755982988,0.0,0,0.058608387,-1.3982105,0.039151564,-0.19866693,0.09769562,1.1729511,0.22212858,-0.65468955,1.3503836,0.33345377,-0.038958874,-0.051407933,1.1928219,1.4334928
0.0,-0.1,1.0999999999999999,0.5235987755982988,0.0,0,0.063526064,-1.3990113,0.040845163,-0.18610267,0.088291615,1.1024077,-0.020229993,-0.657219,1.3277841,0.118634544,-0.100823335,0.0024953838,1.2055978,0.9062428
0.0,-0.1,1.0999999999999999,0.5235987755982988,0.0,0,0.06279996,-1.3980864,0.039008453,-0.11912309,0.19470827,0.91031885,0.7858196,-0.6571521,1.327882,0.004789395,-0.026118744,-0.18248126,1.1503376,1.254438
0.0,-0.1,1.0999999999999999,0.5235987755982988,0.0,0,0.06089828,-1.3984481,0.038072526,-0.109306715,-0.088612996,1.0637039,0.38835973,-0.65526223,1.3644453,0.09928067,-0.06413079,-0.20876087,1.1335363,1.6381484
0.0,-0.1,1.0999999999999999,0.5235987755982988,0.0,0,0.06169716,-1.3997415,0.03745398,-0.15850356,-0.17536214,1.0570906,-0.56394845,-0.65495515,1.3560035,0.3081502,-0.06326805,0.19292429,1.0735109,0.6210015
0.0,-0.1,1.0999999999999999,0.5235987755982988,0.0,0,0.063935004,-1.3978411,0.035125796,-0.09915951,-0.09244326,1.1747378,-0.14708169,-0.65178144,1.2934242,-0.2502548,0.06035603,0.42040473,1.1003865,-0.108953044
0.0,-0.1,1.0999999999999999,0.5235987755982988,0.0,0,0.059230164,-1.3976821,0.040252157,-0.23244902,0.0949383,0.8623337,0.40947795,-0.6484665,1.3021202,-0.17698194,0.12707819,0.014103378,1.0548568,-0.74169487
0.0,-0.1,1.0999999999999999,0.5235987755982988,0.0,0,0.054300494,-1.3980763,0.04178848,-0.20982188,0.078053236,1.0928888,-0.4343825,-0.6485411,1.3389575,0.007833826,0.12652485,0.45256445,1.1829625,0.7738456
0.0,-0.1,1.0999999999999999,0.5235987755982988,0.0,0,0.068405166,-1.3980393,0.04193582,-0.21373789,0.0379764,1.1621294,0.1718001,-0.655375,1.3107947,0.39548925,-0.31986848,-0.67404234,1.0973197,1.7830704
0.0,-0.1,1.0999999999999999,0.5235987755982988,0.0,0,0.06704234,-1.3988328,0.03850482,-0.20927575,-0.05294082,0.8291708,-0.49141344,-0.64776003,1.3303916,0.21110867,-0.11900678,0.18390772,1.0438588,1.350719
0.0,-0.1,1.0999999999999999,0.5235987755982988,0.0,0,0.05956738,-1.3984952,0.04125535,-0.21198618,-0.08128862,1.0553898,-0.26849934,-0.64848334,1.3017033,0.71331674,0.0669063,0.21096937,1.0657835,-0.4524929
0.0,-0.1,1.0999999999999999,0.5235987755982988,0.0,0,0.06558366,-1.3985721,0.03633421,-0.18151668,0.012571999,0.98601705,-0.5495547,-0.6497201,1.3476105,-0.8016302,-0.28685144,-0.19876331,1.0089145,1.3130078
0.0,-0.1,1.0999999999999999,0.5235987755982988,0.0,0,0.048063777,-1.398393,0.039753187,-0.20059831,0.054654215,0.95411885,0.27965522,-0.6493975,1.3518616,-0.009440558,-0.0585206,-0.027194176,1.0805068,-0.35123342
0.0,-0.1,1.0999999999999999,0.5235987755982988,0.0,0,0.061432533,-1.3986562,0.040918864,-0.21908747,0.11688842,0.95439756,-0.23186566,-0.6476207,1.3433868,0.3156491,-0.06812907,0.690296,1.0493464,1.2345942
0.0,-0.1,1.0999999999999999,0.5235987755982988,0.0,0,0.05734996,-1.3990922,0.038763847,-0.21809924,0.052259363,1.0636427,1.2605928,-0.64849883,1.3785703,0.024303831,-0.09214101,-0.2175985,1.1011392,2.4446313
0.0,-0.1,1.0999999999999999,0.5235987755982988,0.0,0,0.06591212,-1.398396,0.042283356,-0.23912084,-0.006144201,1.0156612,-1.5176681,-0.6481486,1.348425,0.04195432,-0.11844479,-0.045875534,1.3871082,-0.2869687
0.0,-0.1,1.0999999999999999,0.5235987755982988,0.0,0,0.063609116,-1.39855,0.040067997,-0.18630387,0.025030248,0.90730786,-0.670959,-0.64923924,1.3361464,0.449717,-0.009261565,0.46925002,1.3413693,0.8735231
0.0,-0.1,1.0999999999999999,0.5235987755982988,0.0,0,0.059564274,-1.3982395,0.03745221,-0.17760852,-0.02402171,1.0999084,0.017054653,-0.6522311,1.3241794,0.12068426,-0.106578454,-0.40930596,1.044449,-2.0899224
0.0,-0.1,1.0999999999999999,0.5235987755982988,0.0,0,0.06282787,-1.3982104,0.037490524,-0.179224,-0.14045978,1.0713705,1.2512034,-0.65260667,1.3022864,0.0062235934,0.13206668,0.0986928,0.93631095,0.2565161
0.0,-0.1,1.0999999999999999,0.5235987755982988,0.0,0,0.056938376,-1.3986425,0.039494913,-0.13586995,0.10781582,1.0507315,0.3116158,-0.65009606,1.3601626,-0.18669565,-0.19145906,-0.10234769,1.0280057,-0.5206214
0.0,-0.1,1.0999999999999999,0.5235987755982988,0.0,0,0.06066361,-1.3981504,0.040527772,-0.23264496,0.1111182,1.1349475,-0.04684546,-0.6509348,1.3171337,-0.05569313,-0.10401567,0.082863435,1.1631981,-1.4229351
0.0,-0.1,1.0999999999999999,0.5235987755982988,0.0,0,0.06549542,-1.3987659,0.03925732,-0.2166928,-0.17719916,1.0896368,1.423665,-0.65240055,1.3429335,0.40040562,0.22453186,0.1493485,1.1239613,2.0178282
0.0,-0.1,1.0999999999999999,0.5235987755982988,0.0,0,0.059681036,-1.3988743,0.038584054,-0.23409247,0.02197098,1.1668683,0.34492725,-0.6503356,1.3446522,0.2521892,-0.13644841,0.008694153,0.96632934,0.5875069
0.0,-0.1,1.0999999999999999,0.5235987755982988,0.0,0,0.05975893,-1.3986428,0.04197434,-0.27892494,0.031565532,1.0015787,0.21813715,-0.65133893,1.3574138,0.61651784,0.0074025923,-0.029447807,1.2720598,1.7658546
0.0,-0.1,1.0999999999999999,0.5235987755982988,0.0,0,0.057486743,-1.3991683,0.039617967,-0.3198423,0.010210957,1.0382001,0.78572714,-0.6510251,1.3440309,-0.08535351,-0.16188408,-0.17826857,1.2159945,1.140154
0.0,-0.1,1.0999999999999999,0.5235987755982988,0.0,0,0.05676048,-1.3993697,0.040105302,-0.18365413,-0.065990984,1.0882643,-0.21387586,-0.6496465,1.3345973,0.13315853,-0.07306664,0.45018077,1.0125844,1.3347299
0.0,-0.1,1.0999999999999999,0.5235987755982988,0.0,0,0.058411986,-1.3988303,0.04114397,-0.2085519,0.04717845,1.060402,1.1030886,-0.6495646,1.3265561,-0.3564078,0.016735459,0.019475166,1.2223887,1.0365528
0.0,-0.1,1.0999999999999999,0.5235987755982988,0.0,0,0.06384727,-1.3981097,0.039723933,-0.17613044,-0.06401036,0.9805565,-0.41553742,-0.6516414,1.3797281,0.33714098,0.00021912715,-0.058355562,1.1298555,-0.12384423
0.0,-0.1,1.0999999999999999,0.5235987755982988,0.0,0,0.061278004,-1.3986584,0.04114197,-0.1846758,0.025362153,1.064059,-0.5035148,-0.64973354,1.3445023,0.23839736,-0.02508908,-0.17809738,1.1171509,1.0910435
0.0,-0.1,1.0999999999999999,0.5235987755982988,0.0,0,0.06129807,-1.3986497,0.039636597,-0.20284387,0.050990738,1.1366372,-1.1695563,-0.65152043,1.3492949,0.19602248,-0.01372459,-0.10029147,1.0716379,-0.30492294
0.0,-0.1,1.0999999999999999,0.5235987755982988,0.0,0,0.06526603,-1.3985,0.039005548,-0.12345462,0.08127597,1.0272795,1.4269663,-0.6503901,1.3184476,0.3908504,-0.029250974,0.37753597,1.1847111,0.56054384
0.0,-0.1,1.0999999999999999,0.5235987755982988,0.0,0,0.06376,-1.3979138,0.039871585,-0.1538502,0.02136169,0.9774933,-0.034533594,-0.65247625,1.3519505,-0.3913442,-0.27014828,0.12215279,1.265825,1.4052033
0.0,-0.1,1.0999999999999999,0.5235987755982988,0.0,0,0.06332005,-1.398501,0.04252743,-0.24549547,-0.26568958,1.0188936,-0.012776542,-0.653477,1.3399609,-0.03225381,-0.15047622,0.09727134,1.1974138,1.8555286
0.0,-0.1,1.0999999999999999,0.5235987755982988,0.0,0,0.06640547,-1.398707,0.040629823,-0.25708762,0.01879896,1.00233,-0.9102637,-0.6526458,1.3211381,-0.20437396,0.1041901,0.09998358,1.099459,0.12915558
0.0,-0.1,1.0999999999999999,0.5235987755982988,0.0,0,0.06272956,-1.3982873,0.041217413,-0.16308346,-0.041102722,0.99918133,0.11055585,-0.6515844,1.336851,0.5276744,0.013791515,-0.005024167,0.9780833,-0.10953391
0.0,-0.1,1.0999999999999999,0.5235987755982988,0.0,0,0.060629323,-1.3989263,0.040121194,-0.23202033,-0.03347598,1.0971693,0.045920517,-0.6520592,1.3121938,-0.13490827,-0.046054646,-0.04798152,1.0071931,1.3475611
0.0,-0.1,1.0999999999999999,0.5235987755982988,0.0,0,0.060689703,-1.398953,0.040984377,-0.16807199,0.06153411,1.036343,-1.0418367,-0.65122145,1.3451543,-0.43313166,0.18440093,-0.09672111,1.0654418,1.156148
0.0,-0.1,1.0999999999999999,0.5235987755982988,0.0,0,0.05409531,-1.3990655,0.04154931,-0.16170703,0.12752566,1.1123468,0.3708336,-0.64928144,1.3295904,0.06457353,-0.12417361,-0.014203568,1.1179335,1.3967487
0.0,-0.1,1.0999999999999999,0.5235987755982988,0.0,0,0.060583662,-1.3979378,0.03746313,-0.1949043,-0.09094927,1.079374,-0.5267724,-0.6513322,1.327221,0.20844457,-0.043513224,0.33902526,1.0018994,1.7013651
0.0,-0.1,1.0999999999999999,0.5235987755982988,0.0,0,0.058824588,-1.3982465,0.039351348,-0.17928036,-0.1899977,0.98472756,0.54222655,-0.65031356,1.3531365,-0.40289283,-0.0789683,-0.49232984,0.91610557,1.4155498
0.0,-0.1,1.0999999999999999,0.5235987755982988,0.0,0,0.063379705,-1.3979257,0.039302185,-0.15742524,-0.0476706,0.9689313,0.8452414,-0.653241,1.3168763,1.0469214,-0.031395167,-0.4370365,1.0354098,-0.73187304
0.0,-0.1,1.0999999999999999,0.5235987755982988,0.0,0,0.06242043,-1.3975836,0.043054275,-0.11403466,-0.078354076,1.026798,0.70754856,-0.65317416,1.3587173,-0.35505322,-0.08919381,-0.29631597,1.1491835,1.3700538
0.0,-0.1,1.0999999999999999,0.5235987755982988,0.0,0,0.064180836,-1.3984131,0.040999684,-0.2160655,0.11465685,1.0651195,0.17117621,-0.6523428,1.3242347,-0.8113351,-0.015493579,0.056682117,1.2318405,1.0494112
0.0,-0.1,1.0999999999999999,0.5235987755982988,0.0,0,0.062822215,-1.3978859,0.03942355,-0.12490152,-0.05659938,1.1369859,1.0835352,-0.65262926,1.3363491,0.24447261,-0.0032812804,-0.12386861,0.9887156,0.70804054
0.0,-0.1,1.0999999999999999,0.5235987755982988,0.0,0,0.060141485,-1.3990629,0.039903004,-0.15789914,-0.11007694,1.1058813,0.29813933,-0.6508199,1.3630954,0.3306387,0.026552798,0.16410615,1.0266156,0.023194497
0.0,-0.1,1.0999999999999999,0.5235987755982988,0.0,0,0.0635226,-1.3984886,0.042181145,-0.18665242,-0.083086066,1.0780509,0.08935227,-0.65309423,1.3260732,-0.45799905,-0.117565796,-0.12646186,1.1882168,-1.8912284
0.0,-0.1,1.0999999999999999,0.5235987755982988,0.0,0,0.058357608,-1.3989823,0.041820116,-0.22667687,-0.18483971,1.1467121,0.40210065,-0.65234655,1.3317193,-0.06799861,-0.027661525,0.24615523,1.189407,-0.36793572
0.0,-0.1,1.0999999999999999,0.5235987755982988,0.0,0,0.057261735,-1.3987622,0.038136996,-0.10291477,-0.13347086,1.1264522,-0.24934599,-0.6494249,1.3657874,0.60595006,-0.11923679,0.12009395,1.0171548,-0.15240379
0.0,-0.1,1.0999999999999999,0.5235987755982988,0.0,0,0.062462624,-1.3985426,0.0444977,-0.20248538,-0.018318785,1.0842543,-1.03767,-0.65260375,1.3432854,0.03247243,-0.09764437,0.2764833,1.1359445,1.1575841
0.0,-0.1,1.0999999999999999,0.5235987755982988,0.0,0,0.061600663,-1.3983086,0.04056103,-0.09823987,-0.10865726,0.9370693,-0.11221345,-0.65337276,1.3536726,0.24536057,-0.09087024,0.29770583,1.2468778,2.3970885
0.0,-0.1,1.0999999999999999,0.5235987755982988,0.0,0,0.061076395,-1.3982538,0.036945682,-0.22260326,-0.026419986,1.0681849,-2.6349974,-0.65282303,1.3605129,0.67314297,-0.07488553,-0.21106331,1.0230745,0.5354473
0.0,-0.1,1.0999999999999999,0.5235987755982988,0.0,0,0.06467417,-1.3993324,0.041594896,-0.14335193,-0.104750246,1.0910871,0.3029205,-0.65296286,1.3587219,0.30298448,0.120687366,0.13742001,0.9682744,0.79602164
0.0,-0.1,1.0999999999999999,0.5235987755982988,0.0,0,0.063325524,-1.398817,0.03724132,-0.21112786,0.09515995,1.2212845,0.48514393,-0.6526303,1.3715191,0.38739026,-0.02882896,-0.22024256,1.2066771,0.40259132
0.0,-0.1,1.0999999999999999,0.5235987755982988,0.0,0,0.06418111,-1.3987769,0.041767165,-0.1660282,0.20347376,1.179463,0.101074986,-0.6523573,1.3406925,0.052748237,0.11634357,-0.036530793,1.2030201,1.6366837
0.0,-0.1,1.0999999999999999,0.5235987755982988,0.0,0,0.056902822,-1.3988734,0.03670804,-0.10030854,-0.0794871,1.20904,-0.094979584,-0.6501897,1.3573861,-0.73705584,0.05232261,0.0098896455,0.9462415,0.5153836
0.0,-0.1,1.0999999999999999,0.5235987755982988,0.0,0,0.057835948,-1.3985269,0.04155833,-0.16959807,-0.0009673399,1.1486328,1.1337472,-0.6522451,1.3318119,-0.43744963,0.09971715,-0.062246103,1.0240482,-0.16727553
0.0,-0.1,1.0999999999999999,0.5235987755982988,0.0,0,0.05809708,-1.3989276,0.036420733,-0.16445969,-0.21488084,0.91615087,-2.4919796,-0.65099144,1.3447669,-0.077413246,-0.13651758,0.1404476,1.0514873,-0.15497676
0.0,-0.1,1.0999999999999999,0.5235987755982988,0.0,0,0.053646937,-1.3984464,0.03845474,-0.14849891,0.017618634,1.0789628,1.0637301,-0.6507983,1.3387289,0.6517327,-0.03134734,0.21258594,1.020996,1.792918
0.0,-0.1,1.0999999999999999,0.5235987755982988,0.0,0,0.057783697,-1.3985218,0.041542,-0.121016786,0.09179048,1.0863334,-0.52606964,-0.65165937,1.3099399,0.015619416,0.10863466,-0.34660226,1.2277279,0.69936115
0.0,-0.1,1.0999999999999999,0.5235987755982988,0.0,0,0.06281468,-1.3986346,0.044072054,-0.1563137,0.02395532,0.9786678,-0.6920283,-0.6532709,1.3929019,0.3134375,0.056749947,-0.00942977,1.0549368,0.71655977
0.0,-0.1,1.0999999999999999,0.5235987755982988,0.0,0,0.058137517,-1.3979586,0.04002373,-0.19894998,-0.112822816,1.1558284,0.0195987,-0.654202,1.3559713,0.14800608,-0.1750844,0.010808,1.1083233,-0.592786
0.0,-0.1,1.0999999999999999,0.5235987755982988,0.0,0,0.058126062,-1.3990471,0.041188337,-0.101354204,0.13650592,0.99279696,-0.6116534,-0.65088105,1.3377799,0.2747962,0.07945381,0.2612165,1.1798853,-0.51593184
0.0,-0.1,1.0999999999999999,0.5235987755982988,0.0,0,0.062202945,-1.399059,0.041073576,-0.1606139,0.06041761,1.0574821,-1.5563381,-0.6522614,1.3851335,1.0359904,-0.18721703,0.21631841,1.0409385,0.34093156
0.0,-0.1,1.0999999999999999,0.5235987755982988,0.0,0,0.05811459,-1.398708,0.04278318,-0.10878494,-0.0156343,1.1907469,0.40846205,-0.6510779,1.3252681,0.10307533,-0.028715894,0.13120346,1.1188205,0.7920343
0.0,-0.1,1.0999999999999999,0.5235987755982988,0.0,0,0.06641568,-1.3984814,0.039851032,-0.13935801,0.1695748,1.0142391,0.522623,-0.6541915,1.3669654,0.09655903,-0.0007396202,0.1729405,0.974471,1.5468814
0.0,-0.1,1.0999999999999999,0.5235987755982988,0.0,0,0.06039403,-1.398057,0.040669564,-0.15248352,0.018917006,1.0615367,-0.71820754,-0.6542034,1.324232,-0.4207986,-0.061116114,-0.28878352,0.9808862,0.8418657
0.0,-0.1,1.0999999999999999,0.5235987755982988,0.0,0,0.059859842,-1.3984694,0.041799277,-0.21262877,0.08030976,0.96696734,0.11124643,-0.6539116,1.3708862,0.79687995,-0.075294,-0.54113203,1.1854775,0.8284677
0.0,-0.1,1.0999999999999999,0.5235987755982988,0.0,0,0.06168965,-1.3988199,0.042117372,-0.21271053,-0.12924622,1.0631115,1.763805,-0.65438545,1.3342665,-0.23715356,0.07922467,-0.11390183,1.0256636,-0.5643433
0.0,-0.1,1.0999999999999999,0.5235987755982988,0.0,0,0.052344393,-1.3987279,0.039828185,-0.20269814,0.09836864,1.0569446,-0.9924538,-0.65104634,1.3405896,0.35791427,-0.02104251,0.048448756,1.2321912,-0.20199049
0.0,-0.1,1.0999999999999999,0.5235987755982988,0.0,0,0.073207505,-1.3996531,0.037276518,-0.2704963,0.06787673,1.100309,-1.3413422,-0.6521316,1.3678169,0.5751292,-0.03312611,-0.11500749,1.132305,1.4114857
0.0,-0.1,1.0999999999999999,0.5235987755982988,0.0,0,0.057560846,-1.3986043,0.040682256,-0.123024225,-0.07651649,1.1736786,2.3728983,-0.6519023,1.3638021,0.30552036,-0.1372337,0.30687237,1.1476355,1.5619655
0.0,-0.1,1.0999999999999999,0.5235987755982988,0.0,0,0.053143628,-1.3983151,0.03603114,-0.19992298,0.25248313,1.0750445,0.6220952,-0.6512664,1.3545649,-0.3165304,-0.035039116,0.5309801,1.199504,1.0619316
0.0,-0.1,1.0999999999999999,0.5235987755982988,0.0,0,0.05682055,-1.398191,0.041290507,-0.14188777,-0.027224502,1.1210773,-1.6740092,-0.65330416,1.3773022,-0.69567406,-0.052806243,0.12785865,0.9012052,0.28297368
0.0,-0.1,1.0999999999999999,0.5235987755982988,0.0,0,0.05745765,-1.3989335,0.0400302,-0.1751959,-0.030887064,1.130064,-0.2601383,-0.65300494,1.3505048,-0.08366439,-0.05286212,0.17868628,1.332968,0.27488643
0.0,-0.1,1.0999999999999999,0.5235987755982988,0.0,0,0.060435124,-1.3986843,0.040711217,-0.2168335,-0.12602602,1.0808936,0.565576,-0.6551872,1.367047,-0.3239978,-0.11542238,-0.21944097,1.0691555,0.14664942
0.0,-0.1,1.0999999999999999,0.5235987755982988,0.0,0,0.058968484,-1.3986489,0.043353986,-0.13501367,-0.104610495,0.99962234,0.24569097,-0.6534286,1.3298019,-0.62334937,0.002844671,0.056823198,1.1218292,0.73791945
0.0,-0.1,1.0999999999999999,0.5235987755982988,0.0,0,0.055593804,-1.398263,0.043700572,-0.22613627,0.106072314,1.177925,-0.6650295,-0.6544118,1.3667427,0.019282177,-0.032739058,-0.28936636,1.11972,0.018308159
0.0,-0.1,1.0999999999999999,0.5235987755982988,0.0,0,0.06239612,-1.3991885,0.042916413,-0.14558196,-0.025791422,0.9841861,-0.13977304,-0.6526724,1.3560699,0.6327962,0.008797339,0.10385578,1.0491761,0.40516388
0.0,-0.1,1.0999999999999999,0.5235987755982988,0.0,0,0.0639885,-1.3988127,0.04295695,-0.19361548,0.035511363,1.18826,0.5022399,-0.6553774,1.3924909,0.39617267,-0.1195578,0.2014628,1.0367838,1.4400344
0.0,-0.1,1.0999999999999999,0.5235987755982988,0.0,0,0.059605047,-1.3984993,0.04041014,-0.18543205,0.09534578,1.0098163,0.3909059,-0.65311295,1.3314883,0.7436727,-0.14451313,-0.23599079,1.2525034,0.9615528
0.0,-0.1,1.0999999999999999,0.5235987755982988,0.0,0,0.056893807,-1.3984567,0.03800247,-0.08461254,0.08131298,0.90588856,1.764217,-0.6525437,1.3143634,-1.0406119,0.046794794,-0.16128394,1.1235064,0.99500245
0.0,-0.1,1.0999999999999999,0.5235987755982988,0.0,0,0.062035047,-1.398216,0.040335596,-0.108585514,-0.03935187,1.1204739,0.6456941,-0.653705,1.3287681,0.13848817,0.039938625,0.057353124,1.0419801,1.27813
0.0,-0.1,1.0999999999999999,0.5235987755982988,0.0,0,0.052848276,-1.3986924,0.038940147,-0.25133508,0.09843193,1.0933025,0.49852,-0.651363,1.3360621,0.54542404,-0.08627627,-0.053963732,1.1674788,0.53922284
0.0,-0.1,1.0999999999999999,0.5235987755982988,0.0,0,0.052080076,-1.3987302,0.044849157,-0.20826297,-0.19409242,0.99998456,-0.34189725,-0.6540295,1.323163,0.026356937,-0.16046585,0.015015965,1.0156629,-0.8839034
0.0,-0.1,1.0999999999999999,0.5235987755982988,0.0,0,0.06065924,-1.399198,0.039274815,-0.11174477,0.18884595,1.0990483,0.70049596,-0.65271896,1.3463504,0.6247499,-0.15801275,0.27195415,1.2014415,-0.5173046
0.0,-0.1,1.0999999999999999,0.5235987755982988,0.0,0,0.057832927,-1.3988757,0.038974863,-0.12123389,-0.017503189,1.0634954,0.16138989,-0.65297383,1.3689228,-0.589895,0.046019882,0.11129773,1.0953689,-0.95748055
0.0,-0.1,1.0999999999999999,0.5235987755982988,0.0,0,0.053560026,-1.3988124,0.039231427,-0.1308378,-0.019437615,1.0873972,2.6942735,-0.65366757,1.3524103,0.43394655,-0.011920846,-0.24472001,1.0162231,-0.103623554
0.0,-0.1,1.0999999999999999,0.5235987755982988,0.0,0,0.05786233,-1.3990277,0.03946842,-0.13422692,-0.025065051,1.1929128,0.30023694,-0.6550776,1.338562,0.3440374,-0.10554843,-0.010003992,1.0841677,-0.11124754
0.0,-0.1,1.0999999999999999,0.5235987755982988,0.0,0,0.05715815,-1.3986303,0.03850506,-0.13205157,-0.122125156,1.0274947,-1.0818471,-0.6546108,1.3490198,-0.03658894,-0.086853355,0.31543416,1.1600924,-0.46930522
0.0,-0.1,1.0999999999999999,0.5235987755982988,0.0,0,0.057876475,-1.3975644,0.03895727,-0.16743232,-0.019957738,0.9863763,1.6597615,-0.65022254,1.3347315,-0.62323916,0.10788119,0.5114073,1.2042128,0.39306262
0.0,-0.1,1.0999999999999999,0.5235987755982988,0.0,0,0.06044184,-1.3990446,0.037806474,-0.17453331,-0.079080924,1.1297413,0.79715043,-0.6488217,1.319407,0.052552518,-0.05408619,0.013259027,1.0653816,0.18863556
0.0,-0.1,1.0999999999999999,0.5235987755982988,0.0,0,0.062790826,-1.3979596,0.041514993,-0.16454001,0.0830556,1.1131835,0.6022809,-0.64822614,1.3924954,0.41804844,-0.11540686,0.33228022,1.054349,0.4176786
0.0,-0.1,1.0999999999999999,0.5235987755982988,0.0,0,0.06377152,-1.398378,0.039728645,-0.12557973,-0.18290354,0.96996295,-0.052527405,-0.64973193,1.3408327,0.4127681,-0.019152187,0.31966302,1.0432358,0.9639349
0.0,-0.1,1.0999999999999999,0.5235987755982988,0.0,0,0.06873592,-1.3983979,0.04164756,-0.26575908,-0.056376707,1.0087367,0.5642529,-0.64849824,1.3129342,0.16363917,-0.14391187,-0.059216816,1.0790313,1.953106
0.0,-0.1,1.0999999999999999,0.5235987755982988,0.0,0,0.061060842,-1.3979324,0.039313514,-0.11735982,-0.09204001,1.2429012,-0.82590854,-0.65082115,1.323538,0.37700382,-0.13454923,-0.05158803,1.1351581,0.4651917
0.0,-0.1,1.0999999999999999,0.5235987755982988,0.0,0,0.061807867,-1.398129,0.03929598,-0.14902125,-0.04261796,1.1560955,0.93176055,-0.65058076,1.3318437,-0.29314834,-0.10232857,0.108154885,1.176337,1.9085461
0.0,-0.1,1.0999999999999999,0.5235987755982988,0.0,0,0.061733574,-1.3984028,0.036619272,-0.23104182,-0.070754096,1.092715,0.7455628,-0.6517507,1.365905,0.3452523,-0.035811644,0.05843779,1.0432675,1.3044832
0.0,-0.1,1.0999999999999999,0.5235987755982988,0.0,0,0.06380093,-1.3983548,0.042484082,-0.21554017,-0.011096866,0.95812845,1.5452249,-0.651147,1.3111297,0.15761335,-0.058769193,0.13026632,1.1304433,0.87004036
0.0,-0.1,1.0999999999999999,0.5235987755982988,0.0,0,0.063461885,-1.3977549,0.040703006,-0.19455957,0.05345532,1.1447577,-1.0347804,-0.6530154,1.3492136,-0.12033512,0.00044215453,-0.04541033,1.0536834,0.204747
0.0,-0.1,1.0999999999999999,0.5235987755982988,0.0,0,0.060593676,-1.3988347,0.034300588,-0.15474571,0.003364023,0.9447342,-0.5816559,-0.65088767,1.3341566,-0.26737243,-0.05953836,0.12596534,1.113895,0.2365395
0.0,-0.1,1.0999999999999999,0.5235987755982988,0.0,0,0.06382357,-1.3984071,0.044018473,-0.1902926,-0.119236045,1.0988811,0.37500292,-0.65166074,1.3292363,0.1931305,0.02516489,-0.24939282,1.0900369,0.2359916
0.0,-0.1,1.0999999999999999,0.5235987755982988,0.0,0,0.06422128,-1.3989192,0.041007217,-0.215842,-0.130562,1.1232294,-0.717044,-0.65162975,1.3369539,0.38867152,0.06973318,-0.33295172,1.1219857,0.1247882
0.0,-0.1,1.0999999999999999,0.5235987755982988,0.0,0,0.058169343,-1.3985826,0.038255427,-0.09822736,-0.0935871,1.2291495,0.83806217,-0.6505439,1.3504639,0.25532025,-0.057928648,-0.10536729,0.8920051,0.6083671
0.0,-0.1,1.0999999999999999,0.5235987755982988,0.0,0,0.066036254,-1.3990693,0.042701904,-0.10921268,-0.05737399,1.1380659,-0.453391,-0.6492914,1.3285799,0.17293991,0.066437535,-0.09722452,1.0666096,-0.73641306
0.0,-0.1,1.0999999999999999,0.5235987755982988,0.0,0,0.062952615,-1.3984839,0.041051775,-0.19724701,0.07332247,1.063417,1.8829533,-0.6543577,1.3129734,-0.4047335,0.20739083,0.3262002,1.0141435,0.36157808
0.0,-0.1,1.0999999999999999,0.5235987755982988,0.0,0,0.060213093,-1.3983501,0.046122883,-0.23520501,0.014244874,1.0444634,-0.54738533,-0.6516572,1.3480117,0.5182947,-0.12848258,0.12819867,1.2434293,-0.73413795
0.0,-0.1,1.0999999999999999,0.5235987755982988,0.0,0,0.06435586,-1.3984281,0.039645944,-0.12552907,0.030216333,1.1127136,-1.8686984,-0.65176266,1.3292261,0.57127535,-0.03171696,0.18620282,1.2154055,-0.6268955
0.0,-0.1,1.0999999999999999,0.5235987755982988,0.0,0,0.06375963,-1.3992597,0.04070508,-0.17184593,0.12062226,0.9353881,-1.1821973,-0.6514487,1.3590572,0.35111865,0.026342897,-0.009333404,0.9597871,-1.9032656
0.0,-0.1,1.0999999999999999,0.5235987755982988,0.0,0,0.058886874,-1.3989316,0.03901413,-0.18276328,0.0257518,1.2020679,0.3631661,-0.6515599,1.3479081,-0.33374587,-0.17786945,0.14817509,1.0146841,1.6322765
0.0,-0.1,1.0999999999999999,0.5235987755982988,0.0,0,0.055085465,-1.3982506,0.041933566,-0.23533833,0.12060531,1.0432919,-1.4528387,-0.65290356,1.369089,0.5713168,0.069752984,-0.17671503,1.1266736,0.14156514
0.0,-0.1,1.0999999999999999,0.5235987755982988,0.0,0,0.061036497,-1.3985842,0.03973063,-0.12209833,-0.14045452,1.1117613,-2.4867928,-0.65137994,1.3586805,0.011689698,0.0069647166,0.36647412,1.1568968,-1.640737
0.0,-0.1,1.0999999999999999,0.5235987755982988,0.0,0,0.06363536,-1.3988318,0.037968013,-0.14832996,0.07002871,1.110561,0.41643098,-0.6523952,1.3618559,0.25329444,0.0022074801,0.0661855,0.984891,1.6893195
0.0,-0.1,1.0999999999999999,0.5235987755982988,0.0,0,0.061711106,-1.3986905,0.04068004,-0.09253823,-0.102194786,1.0739312,-2.5101888,-0.65125144,1.3263241,-0.14147528,-0.03194987,0.03693624,1.0165266,1.9571594
0.0,-0.1,1.0999999999999999,0.5235987755982988,0.0,0,0.060537454,-1.3989232,0.03942501,-0.16457316,0.09846739,0.9940001,-0.49454597,-0.6523651,1.3512393,-0.14455342,-0.089451596,-0.027375026,0.88838094,-0.903777
0.0,-0.1,1.0999999999999999,0.5235987755982988,0.0,0,0.059934624,-1.3985322,0.0416511,-0.20890439,-0.09449187,1.0719899,-0.6282072,-0.6539152,1.3532872,0.015243314,-0.09574758,0.33547223,0.9872406,-0.0411897
0.0,-0.1,1.0999999999999999,0.5235987755982988,0.0,0,0.06509021,-1.3994144,0.037525512,-0.12968823,0.06269963,0.99649155,-0.97770494,-0.6515622,1.3160796,0.29109967,-0.021142896,-0.43423694,1.3046167,2.0163536
0.0,-0.1,1.0999999999999999,0.5235987755982988,0.0,0,0.06508123,-1.3982768,0.041886088,-0.14313395,0.09951941,1.1087166,-0.76573944,-0.65299547,1.3403764,0.5354775,-0.032554228,0.2617545,1.0774796,-0.29341042
0.0,-0.1,1.0999999999999999,0.5235987755982988,0.0,0,0.0558619,-1.398192,0.037637006,-0.17131786,-0.11245642,1.0431888,-0.18732163,-0.65335953,1.3449457,0.18493137,0.07140917,0.09841042,1.2214816,0.81088597
0.0,-0.1,1.0999999999999999,0.5235987755982988,0.0,0,0.05887319,-1.398637,0.034902763,-0.11849189,0.13748303,1.1967517,-0.51247114,-0.6521846,1.3189615,0.4380846,0.0568606,0.15340634,1.1461188,-0.14073257
0.0,-0.1,1.0999999999999999,0.5235987755982988,0.0,0,0.059358146,-1.3983821,0.045062568,-0.175761,-0.006880764,0.9237635,0.2529738,-0.65530086,1.3541737,-0.02824331,0.08881565,0.15831701,1.1913352,-0.553635
0.0,-0.1,1.0999999999999999,0.5235987755982988,0.0,0,0.061805077,-1.3981463,0.03850112,-0.050314575,0.0021894947,1.2503817,0.83259076,-0.6532472,1.3685819,0.3419308,-0.073896796,0.43368906,1.1804265,1.4893208
0.0,-0.1,1.0999999999999999,0.5235987755982988,0.0,0,0.06141939,-1.3978039,0.03745962,-0.1642929,-0.020771692,1.1275048,-0.35683733,-0.65143865,1.3261498,-0.28115278,-0.106562294,-0.17175792,1.172173,0.43812966
0.0,-0.1,1.0999999999999999,0.5235987755982988,0.0,0,0.052967608,-1.3990881,0.039337378,-0.16083483,-0.05066487,1.0834367,0.8510465,-0.6532541,1.3399072,-0.050227918,0.034222476,0.183435,0.9402557,0.004113591
0.0,-0.1,1.0999999999999999,0.5235987755982988,0.0,0,0.05428448,-1.398984,0.0390313,-0.13700248,-0.10825788,0.9884256,0.7185903,-0.6530938,1.3430495,-0.063489705,-0.16064651,-0.006224869,1.0330026,-0.6900015
0.0,-0.1,1.0999999999999999,0.5235987755982988,0.0,0,0.06440637,-1.3985653,0.03941863,-0.1942537,-0.11813827,0.961038,0.9391803,-0.6523529,1.3446581,0.18496227,-0.20453231,0.07105717,1.1678823,0.90372735
0.0,-0.1,1.0999999999999999,0.5235987755982988,0.0,0,0.06125949,-1.3981845,0.04142879,-0.1536144,0.029712629,1.155058,0.051011823,-0.6528804,1.3235393,0.16251913,-0.08035763,-0.040669434,0.95389897,-0.82101715
0.0,-0.1,1.0999999999999999,0.5235987755982988,0.0,0,0.058678895,-1.3984817,0.037911993,-0.0849304,-0.108992465,0.83107066,1.946716,-0.6518667,1.3644536,-0.3188012,-0.035787024,-0.10454635,0.87227297,1.2583113
0.0,-0.1,1.0999999999999999,0.5235987755982988,0.0,0,0.057798017,-1.3987845,0.039107885,-0.15465061,0.07791581,1.2203203,-0.47703302,-0.6508697,1.3643501,-0.25274524,0.037585005,-0.27769333,1.2450347,1.099291
0.0,-0.1,1.0999999999999999,0.5235987755982988,0.0,0,0.057734776,-1.3988994,0.039290253,-0.21680836,0.014471415,1.1304789,-0.8553328,-0.65281856,1.3810756,0.2642308,-0.100401066,-0.24143533,1.1781752,1.2047247
0.0,-0.1,1.0999999999999999,0.5235987755982988,0.0,0,0.05975866,-1.3982234,0.039342348,-0.23546773,0.13798204,1.0878059,-0.035413414,-0.65414083,1.3218045,-0.24717598,-0.06759168,0.118433125,1.2675147,0.6907181
