sanky1234/BimanualDexCatch/isaacgymenvs/cem_results/football_pose_-0.2_-0.2_1.1999999999999997_0.0_0.5235987755982988_0_2025-05-24.csv
x,y,z,roll,pitch,yaw,robot1/joint1,robot1/joint2,robot1/joint3,robot1/joint4,robot1/joint5,robot1/joint6,robot1/joint7,robot2/joint1,robot2/joint2,robot2/joint3,robot2/joint4,robot2/joint5,robot2/joint6,robot2/joint7
-0.2,-0.2,1.1999999999999997,0.0,0.5235987755982988,0,0.026351035,1.3407394,-0.3199971,-0.098197676,-0.12150935,1.3004699,-0.86391294,-1.4223295,0.52459085,-0.86351645,0.21811713,-0.17480452,0.57129794,0.33698726
-0.2,-0.2,1.1999999999999997,0.0,0.5235987755982988,0,0.7765235,1.3764763,0.34036347,-0.09598216,0.029870542,1.0937002,-2.1217299,-1.421377,0.51988643,-0.8647131,0.22412102,-0.1617519,0.58152175,0.35914394
-0.2,-0.2,1.1999999999999997,0.0,0.5235987755982988,0,-0.30252677,0.8515234,-0.9196201,-0.02169742,-0.22423418,1.0838319,-0.90510476,-1.4218578,0.5245864,-0.8634596,0.21993482,-0.18083586,0.5615691,0.32086328
-0.2,-0.2,1.1999999999999997,0.0,0.5235987755982988,0,-0.14141579,1.227654,-0.74888355,0.12889664,0.012078076,1.2692329,-0.30827716,-1.4215702,0.5214372,-0.865402,0.22451971,-0.17886114,0.5711799,0.2713724
-0.2,-0.2,1.1999999999999997,0.0,0.5235987755982988,0,0.75705445,1.4002572,-0.38338637,-0.2522807,-0.21202324,1.2035272,-0.81546474,-1.4223131,0.52243686,-0.8631895,0.22429901,-0.17935735,0.57056564,0.34262305
-0.2,-0.2,1.1999999999999997,0.0,0.5235987755982988,0,0.51133174,1.3090005,-0.49577054,0.038530447,0.061126333,1.1060274,-0.9540449,-1.4228207,0.52014947,-0.8629332,0.22458194,-0.18440618,0.5797619,0.37547025
-0.2,-0.2,1.1999999999999997,0.0,0.5235987755982988,0,-0.49028462,1.1390537,-0.99729013,-0.009023048,-0.35105017,1.0344753,-1.551931,-1.4239826,0.51911783,-0.8653184,0.22290401,-0.18277039,0.5675959,0.31385735
-0.2,-0.2,1.1999999999999997,0.0,0.5235987755982988,0,-1.0479794,0.92282915,-0.17747617,-0.030023992,-0.30832267,1.2427644,0.29460827,-1.4223944,0.51922566,-0.8654236,0.22288422,-0.17793924,0.56869507,0.38415855
-0.2,-0.2,1.1999999999999997,0.0,0.5235987755982988,0,-0.098670356,1.3762946,-0.53982985,-0.07221124,0.0010231597,1.2256842,-0.5862086,-1.4247952,0.52354175,-0.86383325,0.22477737,-0.17692685,0.5670556,0.37440717
-0.2,-0.2,1.1999999999999997,0.0,0.5235987755982988,0,0.02695672,1.0850017,-0.5125641,-0.18597063,-0.52509683,1.2113475,-2.1350021,-1.4215986,0.5218582,-0.8661533,0.22279786,-0.17508921,0.5683686,0.3095905
-0.2,-0.2,1.1999999999999997,0.0,0.5235987755982988,0,0.5897322,1.3929131,-0.10521545,-0.102432206,-0.17858455,1.0443395,-0.7199758,-1.4224372,0.51403224,-0.8636804,0.22009714,-0.2000497,0.5679401,0.35941622
-0.2,-0.2,1.1999999999999997,0.0,0.5235987755982988,0,0.20421958,1.1674827,-0.51080096,0.0751777,0.17902507,1.1732848,-1.9908608,-1.4231199,0.5179271,-0.86290365,0.22271764,-0.17144644,0.56488043,0.33157507
-0.2,-0.2,1.1999999999999997,0.0,0.5235987755982988,0,0.16626465,1.6282042,-0.6368439,-0.102542,0.08128521,1.0697311,0.43624792,-1.4237417,0.52255607,-0.86629385,0.22465971,-0.17458217,0.5719339,0.32641038
-0.2,-0.2,1.1999999999999997,0.0,0.5235987755982988,0,0.6556538,1.42538,0.04907224,-0.05684319,-0.24837583,0.9735719,-1.257367,-1.4220729,0.5193152,-0.8633021,0.22236349,-0.16945563,0.5754826,0.35568753
-0.2,-0.2,1.1999999999999997,0.0,0.5235987755982988,0,0.4790631,1.5301642,0.25183037,-0.13431333,-0.24536572,1.0420452,-1.5889386,-1.4240493,0.5173482,-0.8616448,0.2222897,-0.18055508,0.56910324,0.34006873
-0.2,-0.2,1.1999999999999997,0.0,0.5235987755982988,0,0.824815,1.1374726,-0.07183628,0.088073745,-0.788344,1.273149,-1.69538,-1.4230738,0.520033,-0.8649948,0.22169212,-0.18896177,0.5650239,0.33740473
-0.2,-0.2,1.1999999999999997,0.0,0.5235987755982988,0,0.34235674,1.373203,0.23445463,0.12022877,0.011853493,1.2415162,-1.7940154,-1.4222257,0.51945907,-0.8645409,0.22140363,-0.16284986,0.5781371,0.34199116
-0.2,-0.2,1.1999999999999997,0.0,0.5235987755982988,0,0.19751021,1.2504224,-0.34300658,-0.21936035,-0.03295267,0.95953447,-2.0956142,-1.4230598,0.5231393,-0.8637485,0.22587211,-0.16904736,0.577905,0.34896597
-0.2,-0.2,1.1999999999999997,0.0,0.5235987755982988,0,0.85145444,0.96987575,0.009435424,-0.13387074,0.15436755,1.1311888,-0.6403993,-1.4234686,0.52268636,-0.86558676,0.21997283,-0.17850907,0.570498,0.3329203
-0.2,-0.2,1.1999999999999997,0.0,0.5235987755982988,0,0.4144017,1.2123429,-0.59945565,0.061020732,0.06289943,1.1055523,-0.9118266,-1.4229692,0.51648474,-0.86396945,0.22561713,-0.19996516,0.5687269,0.31616423
-0.2,-0.2,1.1999999999999997,0.0,0.5235987755982988,0,0.17675395,1.306315,-0.033428866,-0.0014869524,-0.21542083,1.1494938,0.123750165,-1.4216123,0.52178365,-0.863912,0.22388412,-0.1702037,0.5641827,0.341351
-0.2,-0.2,1.1999999999999997,0.0,0.5235987755982988,0,0.6012088,1.3039911,-0.13524786,-0.14752646,0.26294795,1.1664871,-0.48986095,-1.4230591,0.5198162,-0.8643647,0.22074386,-0.1799324,0.57578635,0.32323146
-0.2,-0.2,1.1999999999999997,0.0,0.5235987755982988,0,0.39677292,1.216692,-0.54816914,-0.06816145,-0.026123332,1.0755981,-1.1175312,-1.4251078,0.5209096,-0.86441296,0.22488679,-0.18455218,0.5666555,0.32617658
-0.2,-0.2,1.1999999999999997,0.0,0.5235987755982988,0,0.2205428,1.2878652,-0.41610712,-0.030663392,0.026542062,1.0294954,-1.6046815,-1.4231684,0.5204092,-0.8642133,0.22089417,-0.18503718,0.5655612,0.29553884
-0.2,-0.2,1.1999999999999997,0.0,0.5235987755982988,0,0.95754397,1.4397323,-0.039005578,0.022505675,0.18579811,0.89434105,-0.80324864,-1.4201975,0.5223508,-0.865474,0.22190703,-0.19084507,0.5728866,0.3529709
-0.2,-0.2,1.1999999999999997,0.0,0.5235987755982988,0,-0.26425967,1.1232414,-0.34651187,-0.13340433,-0.03773609,1.1867007,-1.0786991,-1.4245274,0.52517605,-0.8627916,0.22581656,-0.18493241,0.55620426,0.351344
-0.2,-0.2,1.1999999999999997,0.0,0.5235987755982988,0,0.23370609,1.3827763,-0.6198531,-0.120914645,-0.25266618,1.247251,-0.36950067,-1.4223486,0.5171612,-0.86408263,0.22471267,-0.17088623,0.5772195,0.3707508
-0.2,-0.2,1.1999999999999997,0.0,0.5235987755982988,0,0.44571427,1.3568058,-0.8536651,-0.17766035,0.017754907,1.0666571,-0.7874886,-1.4213991,0.51620924,-0.8644506,0.22420886,-0.15621713,0.5666077,0.34814814
-0.2,-0.2,1.1999999999999997,0.0,0.5235987755982988,0,0.43607742,1.186477,-0.38685882,-0.0055684624,-0.13792554,1.2185094,-1.7388942,-1.4234424,0.5204266,-0.86438215,0.22390334,-0.18579525,0.5736005,0.34720084
-0.2,-0.2,1.1999999999999997,0.0,0.5235987755982988,0,0.5147347,1.2435503,-0.36664176,-0.091230646,-0.16720748,1.140315,-1.1557535,-1.4240332,0.5242654,-0.8625241,0.21943535,-0.16703777,0.5718015,0.29937813
-0.2,-0.2,1.1999999999999997,0.0,0.5235987755982988,0,1.2231799,1.168948,-0.3397222,-0.07282256,-0.09112482,1.2247068,-1.1466023,-1.423622,0.52169466,-0.8627345,0.22253029,-0.17299047,0.56685287,0.31473148
-0.2,-0.2,1.1999999999999997,0.0,0.5235987755982988,0,-1.197952,1.0048527,-0.6902449,-0.1640031,-0.18635328,1.041095,-1.2203596,-1.4235213,0.5207941,-0.8645185,0.22178589,-0.17533933,0.5753529,0.34756163
-0.2,-0.2,1.1999999999999997,0.0,0.5235987755982988,0,0.29748842,1.3609881,-0.33771706,-0.07334809,-0.21914607,1.1444354,-1.9787605,-1.4249288,0.5204165,-0.8640065,0.22493625,-0.17010243,0.5672219,0.32171583
-0.2,-0.2,1.1999999999999997,0.0,0.5235987755982988,0,-0.83269066,1.240066,-0.06804243,-0.1516786,0.012808784,0.90496045,-0.44302455,-1.421607,0.52237064,-0.86448497,0.22369234,-0.17142834,0.56721693,0.32808268
-0.2,-0.2,1.1999999999999997,0.0,0.5235987755982988,0,0.051959176,1.2607191,-0.3701884,-0.055281118,-0.20069806,1.0542934,-0.1707821,-1.4235218,0.52312833,-0.8623762,0.22103633,-0.18843025,0.5613272,0.34390777
-0.2,-0.2,1.1999999999999997,0.0,0.5235987755982988,0,-0.28590763,1.1001395,-0.3439561,-0.1842595,-0.44905126,0.96621454,-0.8429997,-1.4240079,0.5197548,-0.86528844,0.22424124,-0.16226456,0.56293523,0.32645857
-0.2,-0.2,1.1999999999999997,0.0,0.5235987755982988,0,0.032928944,1.3453188,-0.1313468,-0.13421229,0.40682554,1.1845036,-0.83584154,-1.4204408,0.5221186,-0.8658276,0.22154935,-0.18401948,0.5774444,0.32499352
-0.2,-0.2,1.1999999999999997,0.0,0.5235987755982988,0,-0.5545163,1.2414322,-0.34848273,-0.09583197,-0.27401218,1.373286,-0.791719,-1.4222467,0.5175787,-0.8649237,0.2216579,-0.18457241,0.5723219,0.36855274
-0.2,-0.2,1.1999999999999997,0.0,0.5235987755982988,0,0.5863089,1.2626704,-0.18147525,-0.321136,-0.29976687,1.3668989,-1.2361584,-1.4205239,0.5198113,-0.86444753,0.21918423,-0.17732093,0.5686181,0.34096023
-0.2,-0.2,1.1999999999999997,0.0,0.5235987755982988,0,0.7921295,1.2194594,-0.1938835,0.262797,-0.6383034,1.1409014,-0.9670988,-1.4217311,0.5221542,-0.8634815,0.22215642,-0.18280055,0.5661116,0.24387123
-0.2,-0.2,1.1999999999999997,0.0,0.5235987755982988,0,0.035592813,1.3697883,-0.13542241,-0.11251975,-0.50438976,1.0440242,-0.042873062,-1.4225222,0.52113026,-0.8645969,0.22450776,-0.16826606,0.5593759,0.26558125
-0.2,-0.2,1.1999999999999997,0.0,0.5235987755982988,0,0.7483608,1.2741369,-0.4235813,-0.24055475,-0.046502944,0.8679563,-0.85758483,-1.4231133,0.52083135,-0.8642562,0.22663273,-0.16400193,0.5646463,0.36005908
-0.2,-0.2,1.1999999999999997,0.0,0.5235987755982988,0,-0.11673156,1.3083354,-0.2917901,-0.08800722,-0.61915344,1.1915678,-1.0355551,-1.4220845,0.5225387,-0.86314034,0.22337557,-0.15666804,0.5664085,0.37404388
-0.2,-0.2,1.1999999999999997,0.0,0.5235987755982988,0,0.29466766,1.2721214,-0.27204978,-0.062215533,-0.3994451,1.2048504,-1.5719995,-1.4245516,0.5234323,-0.86542195,0.22389033,-0.17097391,0.5657462,0.33583513
-0.2,-0.2,1.1999999999999997,0.0,0.5235987755982988,0,0.23197109,1.170045,0.0087054465,0.005848759,0.3891932,1.3545867,-1.3594565,-1.4225223,0.51884073,-0.865311,0.22377098,-0.14976652,0.5680759,0.337559
-0.2,-0.2,1.1999999999999997,0.0,0.5235987755982988,0,-0.31291133,0.93981093,-0.51626235,-0.3182381,-0.4781684,1.0809647,-1.2489673,-1.4216146,0.5203639,-0.86362106,0.22508644,-0.14146474,0.57099265,0.35025787
-0.2,-0.2,1.1999999999999997,0.0,0.5235987755982988,0,0.7282076,1.4017525,-0.4741641,-0.29680496,-0.31133902,1.0379413,0.2234745,-1.4207903,0.5220548,-0.865039,0.22601657,-0.19407174,0.5712757,0.30335206
-0.2,-0.2,1.1999999999999997,0.0,0.5235987755982988,0,0.1689574,1.4034365,0.042606335,-0.0055603306,0.12693158,1.1673002,-1.2055862,-1.4247341,0.5232072,-0.864056,0.22314504,-0.18196854,0.57389313,0.33551046
-0.2,-0.2,1.1999999999999997,0.0,0.5235987755982988,0,0.6702841,1.3120599,0.41016635,-0.11953284,0.13387218,1.3017313,-0.67334956,-1.4228733,0.51505893,-0.8641095,0.22426237,-0.19400112,0.57306635,0.36295563
-0.2,-0.2,1.1999999999999997,0.0,0.5235987755982988,0,0.7272579,1.053206,-0.37994838,0.006057645,0.20551202,1.1810218,-1.4868021,-1.424223,0.52207816,-0.8637527,0.22381869,-0.16535199,0.5796638,0.32904813
-0.2,-0.2,1.1999999999999997,0.0,0.5235987755982988,0,0.8383132,1.4738688,-0.42407715,0.02476785,-0.006821001,1.1001908,-1.6709976,-1.4213746,0.52090746,-0.86362606,0.22040571,-0.16157222,0.56450564,0.31624678
-0.2,-0.2,1.1999999999999997,0.0,0.5235987755982988,0,-0.105381876,1.3368078,-0.9869883,-0.007838671,0.19879612,1.0014119,-1.7952229,-1.4231523,0.52016854,-0.8653187,0.22139548,-0.1634573,0.5730528,0.3246322
-0.2,-0.2,1.1999999999999997,0.0,0.5235987755982988,0,0.7947344,1.3225054,-0.63977945,-0.12824422,0.07954058,1.0222839,-2.7315674,-1.4236369,0.5215352,-0.8648648,0.22429356,-0.18595475,0.56532204,0.34958842
-0.2,-0.2,1.1999999999999997,0.0,0.5235987755982988,0,1.1064758,1.2525933,-0.14423926,-0.2034043,0.04679667,1.1246659,-0.47144946,-1.4229702,0.5159668,-0.8643,0.22229291,-0.18769956,0.58171594,0.34650448
-0.2,-0.2,1.1999999999999997,0.0,0.5235987755982988,0,-0.004685406,1.3860679,0.36301118,-0.03666081,0.17109491,1.0211966,-0.23626477,-1.4249958,0.5198605,-0.8626168,0.22273013,-0.20019229,0.56334186,0.34791517
-0.2,-0.2,1.1999999999999997,0.0,0.5235987755982988,0,0.66493267,1.4461912,-0.1646504,0.016152516,-0.14736454,0.82586616,-1.093498,-1.4230492,0.5206457,-0.8636981,0.224346,-0.17755282,0.5631482,0.27364546
-0.2,-0.2,1.1999999999999997,0.0,0.5235987755982988,0,-0.26246557,1.1719537,0.058994755,-0.31114367,-0.28695726,1.0442921,-0.28970584,-1.4248422,0.52286065,-0.8626009,0.22365746,-0.19055162,0.57160145,0.32525972
-0.2,-0.2,1.1999999999999997,0.0,0.5235987755982988,0,0.8691724,1.3627069,-0.41355848,-0.14633998,-0.22405967,0.89754546,-1.6954383,-1.42138,0.52612746,-0.8643615,0.22132543,-0.15518793,0.56712466,0.34779316
-0.2,-0.2,1.1999999999999997,0.0,0.5235987755982988,0,0.36858845,1.3283904,-0.228205,-0.059203506,0.3114425,1.0419371,-1.5576093,-1.4202187,0.51919013,-0.86472386,0.22060494,-0.1901108,0.56407565,0.3318273
-0.2,-0.2,1.1999999999999997,0.0,0.5235987755982988,0,-0.36973983,1.0824126,-0.41132173,-0.22914842,-0.501973,1.074503,-1.73626,-1.422371,0.521983,-0.86262405,0.22011684,-0.14647312,0.56251675,0.34858927
-0.2,-0.2,1.1999999999999997,0.0,0.5235987755982988,0,-0.40068033,1.1445847,-0.27749917,0.095007725,-0.10160734,0.9063097,-0.64806265,-1.4229064,0.5196633,-0.8640354,0.22633381,-0.1935499,0.5747013,0.33546478
-0.2,-0.2,1.1999999999999997,0.0,0.5235987755982988,0,-0.23590696,1.3927416,-0.71461153,-0.14098284,-0.043759998,1.114562,-0.7627697,-1.425012,0.52060044,-0.8634205,0.225212,-0.18145034,0.5602651,0.3018688
-0.2,-0.2,1.1999999999999997,0.0,0.5235987755982988,0,-0.41355455,1.1567514,-0.76765937,0.086511925,0.3766283,1.2835131,-0.03908153,-1.4217507,0.51828,-0.86427236,0.21915896,-0.20231722,0.56608117,0.35666817
-0.2,-0.2,1.1999999999999997,0.0,0.5235987755982988,0,0.98648584,1.1191043,-0.4241651,-0.084894545,-0.5721806,0.963743,-1.6744597,-1.4218194,0.5218684,-0.8640492,0.22306958,-0.17240204,0.57089263,0.3345643
-0.2,-0.2,1.1999999999999997,0.0,0.5235987755982988,0,0.24278875,1.0773607,-0.6715144,0.15025997,0.09400613,1.0555651,-0.8363378,-1.4244626,0.5233308,-0.86603194,0.22102436,-0.17962457,0.5684951,0.39313674
-0.2,-0.2,1.1999999999999997,0.0,0.5235987755982988,0,0.15480417,1.0543835,-0.8457343,-0.13148074,-0.19008532,1.1933917,-2.3619955,-1.4225556,0.51489896,-0.86412954,0.22347689,-0.16603154,0.5670334,0.32058418
-0.2,-0.2,1.1999999999999997,0.0,0.5235987755982988,0,-0.22716384,1.2644492,-0.168564,-0.054210287,-0.021025132,1.1717691,-0.6709193,-1.4221059,0.5238645,-0.8638146,0.22415121,-0.19649816,0.56517184,0.40943572
-0.2,-0.2,1.1999999999999997,0.0,0.5235987755982988,0,-0.6068102,1.2157546,-1.0385484,-0.16586244,0.032856368,1.1126316,-1.8017124,-1.423718,0.51493347,-0.8633977,0.22254406,-0.18523715,0.56919795,0.26005518
-0.2,-0.2,1.1999999999999997,0.0,0.5235987755982988,0,0.23608072,1.432517,-0.58859366,-0.30731723,-0.22732447,1.2813238,-0.38488477,-1.4219952,0.51471126,-0.86380994,0.22441596,-0.18177122,0.57160825,0.3527239
-0.2,-0.2,1.1999999999999997,0.0,0.5235987755982988,0,1.034353,1.5013958,-0.23173183,-0.14140719,-0.12623133,1.1273844,-1.2962848,-1.4227275,0.5225515,-0.86522365,0.2231175,-0.16532111,0.5699469,0.35979626
-0.2,-0.2,1.1999999999999997,0.0,0.5235987755982988,0,0.6642255,1.3748885,-0.45635483,0.016917849,-0.20496407,1.1257013,-0.82280385,-1.4214922,0.5244546,-0.86496824,0.22568665,-0.1526202,0.56928873,0.33892953
-0.2,-0.2,1.1999999999999997,0.0,0.5235987755982988,0,0.3985009,1.0332211,-0.046019964,-0.01663234,-0.14633718,1.1198281,-1.8026288,-1.4244524,0.5227287,-0.86524594,0.22400782,-0.21306449,0.5751644,0.31514034
-0.2,-0.2,1.1999999999999997,0.0,0.5235987755982988,0,0.1675282,1.1241173,-0.34903592,0.07794174,0.06284345,1.0847033,-1.3801199,-1.4226725,0.5200273,-0.86227083,0.22093071,-0.17321458,0.5694897,0.3279041
-0.2,-0.2,1.1999999999999997,0.0,0.5235987755982988,0,-0.18516663,1.5823116,0.025446588,-0.051046416,-0.100796185,1.148782,-0.6407451,-1.4239634,0.52594054,-0.86284107,0.2238232,-0.18096258,0.5664129,0.29575866
-0.2,-0.2,1.1999999999999997,0.0,0.5235987755982988,0,-0.224134,1.031621,-0.06665634,-0.23085202,-0.04647901,0.955887,-1.9308497,-1.4227711,0.5233876,-0.8644344,0.22220358,-0.19657089,0.57115364,0.34374982
-0.2,-0.2,1.1999999999999997,0.0,0.5235987755982988,0,-0.094917126,0.8737361,0.03961614,-0.081527516,0.33284733,1.2885958,-1.8504834,-1.4237458,0.52093804,-0.8651731,0.22375225,-0.1725135,0.5682235,0.3744127
-0.2,-0.2,1.1999999999999997,0.0,0.5235987755982988,0,0.4532899,1.3164667,-0.4808987,-0.17933176,-0.1751718,1.2253911,-0.5347559,-1.4236349,0.5211858,-0.8623125,0.21940356,-0.16797216,0.57224935,0.3357408
-0.2,-0.2,1.1999999999999997,0.0,0.5235987755982988,0,0.5035933,1.124392,-0.13385157,-0.18570547,-0.009267847,1.1892898,-1.4100227,-1.4235698,0.51854557,-0.8635136,0.2215014,-0.18847431,0.5754724,0.3556509
-0.2,-0.2,1.1999999999999997,0.0,0.5235987755982988,0,-0.28552416,1.5646799,0.18413308,-0.07513871,-0.21727285,1.2388022,-0.08890606,-1.4216703,0.52255464,-0.86546254,0.2277423,-0.18992816,0.5665283,0.34004146
-0.2,-0.2,1.1999999999999997,0.0,0.5235987755982988,0,0.69931203,1.5124114,-0.3032229,0.02144008,-0.33421636,1.0792334,-1.5647745,-1.4228765,0.5226396,-0.86256677,0.22211985,-0.16951776,0.5691458,0.3291927
-0.2,-0.2,1.1999999999999997,0.0,0.5235987755982988,0,0.62922996,1.4204412,-0.124747,-0.10768619,-0.43763074,1.0739081,-1.4915558,-1.4238012,0.51843405,-0.8644065,0.22275564,-0.16603985,0.5658764,0.3570082
-0.2,-0.2,1.1999999999999997,0.0,0.5235987755982988,0,0.7461946,1.2807192,-0.28114566,0.10378521,0.12970412,1.1021816,-1.0492138,-1.4234287,0.51772475,-0.8655582,0.21987434,-0.18844071,0.56923604,0.36171997
-0.2,-0.2,1.1999999999999997,0.0,0.5235987755982988,0,0.7744651,1.5862925,0.51640874,-0.1262443,0.314468,0.99075145,-1.380663,-1.4257646,0.52535707,-0.8640791,0.22539194,-0.17710027,0.5674742,0.3240073
-0.2,-0.2,1.1999999999999997,0.0,0.5235987755982988,0,0.19867851,1.4365195,-0.20384733,-0.3668882,0.038132273,1.1528965,-0.7617484,-1.4223404,0.5208945,-0.8644585,0.22152023,-0.15715039,0.56264406,0.32005212
-0.2,-0.2,1.1999999999999997,0.0,0.5235987755982988,0,0.25630972,1.1894329,-0.46857378,-0.13103136,-0.27729693,1.1287999,-1.7277335,-1.425296,0.5195202,-0.865833,0.22280645,-0.1864067,0.5711233,0.35383394
-0.2,-0.2,1.1999999999999997,0.0,0.5235987755982988,0,-0.018975299,1.5239553,-0.9267726,-0.13565204,0.110882886,0.943074,-1.8511665,-1.4237756,0.5208485,-0.865953,0.22109526,-0.17651224,0.56791914,0.35518488
-0.2,-0.2,1.1999999999999997,0.0,0.5235987755982988,0,0.04571454,1.5266347,-0.3444117,-0.13688938,-0.100778565,1.2237254,-1.351137,-1.4251729,0.5163199,-0.86232626,0.22135885,-0.1567264,0.5643183,0.32699373
-0.2,-0.2,1.1999999999999997,0.0,0.5235987755982988,0,0.41538665,1.1839806,-0.10277342,0.017909214,-0.17599653,1.1258957,-1.5133274,-1.4202415,0.5185229,-0.86480683,0.22229956,-0.17022459,0.58356506,0.3541021
-0.2,-0.2,1.1999999999999997,0.0,0.5235987755982988,0,0.11217075,1.2982973,0.12338978,-0.15274653,-0.29882336,0.9513493,-1.1022599,-1.4222894,0.5254441,-0.864423,0.22397476,-0.17205204,0.5700271,0.3477016
-0.2,-0.2,1.1999999999999997,0.0,0.5235987755982988,0,0.1635579,0.7356523,-0.046770036,-0.08363589,0.41614446,1.1883014,-1.3502741,-1.4259459,0.5171789,-0.86341065,0.2240907,-0.15517613,0.56110847,0.34525242
-0.2,-0.2,1.1999999999999997,0.0,0.5235987755982988,0,-0.112711586,1.1314089,-0.729485,-0.131264,0.1883377,1.155074,-1.1000055,-1.4228294,0.5164895,-0.8637968,0.22579388,-0.18294464,0.57177293,0.34783491
-0.2,-0.2,1.1999999999999997,0.0,0.5235987755982988,0,0.37629148,1.266998,0.008060529,0.112639405,-0.13559471,1.0909957,-0.440061,-1.4213437,0.51909125,-0.8635642,0.22274914,-0.1774756,0.57128686,0.3740995
-0.2,-0.2,1.1999999999999997,0.0,0.5235987755982988,0,1.090264,1.5330327,-0.66607857,-0.23499635,0.15260044,1.1208692,-0.87836105,-1.4231443,0.5182365,-0.8638479,0.2201034,-0.18847887,0.56631875,0.28847414
-0.2,-0.2,1.1999999999999997,0.0,0.5235987755982988,0,0.2470871,1.4653845,0.26746202,-0.030560771,-0.2270714,1.0342587,-1.4433646,-1.424985,0.51980466,-0.8640878,0.22541001,-0.15315323,0.5597083,0.30914757
-0.2,-0.2,1.1999999999999997,0.0,0.5235987755982988,0,0.51112485,1.2851208,0.23521224,-0.16836002,0.21316656,1.0623039,-1.944774,-1.4239357,0.51612234,-0.8648248,0.2200177,-0.15669788,0.56200314,0.36585227
-0.2,-0.2,1.1999999999999997,0.0,0.5235987755982988,0,0.25581738,1.3420223,-0.115692824,-0.012515087,-0.0054278104,1.013869,-0.58407813,-1.4223197,0.51852715,-0.8647073,0.22622067,-0.16927843,0.5636258,0.309867
-0.2,-0.2,1.1999999999999997,0.0,0.5235987755982988,0,0.44708666,1.3239833,0.012855943,0.07864226,-0.08001592,1.1846606,-0.7576035,-1.4232959,0.5184414,-0.8634987,0.2263606,-0.17607288,0.56934017,0.31166962
-0.2,-0.2,1.1999999999999997,0.0,0.5235987755982988,0,-0.0773548,1.3749284,-0.021460496,0.12539905,-0.32787877,1.078969,-1.2171955,-1.4247705,0.51925755,-0.86368936,0.22219314,-0.17779101,0.57441944,0.36739492
-0.2,-0.2,1.1999999999999997,0.0,0.5235987755982988,0,0.60080785,1.6713157,-0.35615438,-0.25298443,0.019633513,1.0063845,-0.80898976,-1.4234192,0.51865506,-0.8632371,0.22218524,-0.18265599,0.5639727,0.34741336
-0.2,-0.2,1.1999999999999997,0.0,0.5235987755982988,0,-0.6976503,1.4322243,-0.48028344,-0.27517223,0.18881801,1.0565287,-1.5385096,-1.424026,0.52071023,-0.8629072,0.22618884,-0.1928438,0.5683288,0.34905547
-0.2,-0.2,1.1999999999999997,0.0,0.5235987755982988,0,0.30675212,0.89009345,-0.5600593,-0.16017431,0.10808298,1.0280392,-0.30218223,-1.423943,0.5187122,-0.8648297,0.22294946,-0.16249225,0.57018703,0.34727815
-0.2,-0.2,1.1999999999999997,0.0,0.5235987755982988,0,0.5795449,1.0156595,-0.15483534,-0.23902775,-0.155641,1.1450819,-0.9586438,-1.4236624,0.5190685,-0.8637964,0.22214177,-0.20198883,0.5630025,0.34963349
-0.2,-0.2,1.1999999999999997,0.0,0.5235987755982988,0,0.25393912,1.1309239,-0.18310003,-0.038017668,-0.019108824,1.1475025,-1.0023438,-1.4227606,0.52054906,-0.86528903,0.22025348,-0.20819876,0.5596671,0.33397824
-0.2,-0.2,1.1999999999999997,0.0,0.5235987755982988,0,-0.15505122,1.1107783,-0.01730675,-0.04611198,-0.2974788,0.95240796,-1.6718682,-1.4217454,0.5185825,-0.8631191,0.21763985,-0.15494369,0.569763,0.35156694
-0.2,-0.2,1.1999999999999997,0.0,0.5235987755982988,0,0.6318948,1.6842946,-0.84685206,-0.16032404,0.048457604,1.2670519,-0.3474883,-1.4248601,0.52437,-0.86494726,0.22250663,-0.1971972,0.5636542,0.35663146
-0.2,-0.2,1.1999999999999997,0.0,0.5235987755982988,0,-0.06627441,1.4112235,-0.17346466,-0.0019122466,0.054930165,1.0347995,-1.5745388,-1.4230832,0.5213317,-0.86427116,0.22636466,-0.18364216,0.566252,0.34066615
-0.2,-0.2,1.1999999999999997,0.0,0.5235987755982988,0,1.0486277,1.8617152,-0.43788734,-0.024874758,0.012146752,1.0997596,-1.82234,-1.4207215,0.520543,-0.8654651,0.22288315,-0.17021804,0.5658378,0.35650155
-0.2,-0.2,1.1999999999999997,0.0,0.5235987755982988,0,-0.363398,1.2103128,-0.14661546,-0.033808026,-0.34125793,0.96540797,-0.8558586,-1.4237688,0.5173452,-0.8626699,0.22072771,-0.16454127,0.55676425,0.3488072
-0.2,-0.2,1.1999999999999997,0.0,0.5235987755982988,0,0.39310005,1.2852614,0.17404838,-0.08116256,-0.034519818,1.2419411,-0.5392995,-1.4221799,0.520038,-0.8658861,0.22389485,-0.20197597,0.5737908,0.34988838
-0.2,-0.2,1.1999999999999997,0.0,0.5235987755982988,0,0.9433558,1.1383013,-0.9443181,-0.11827151,-0.0024745124,1.1982185,-1.3930527,-1.4233015,0.5193245,-0.8661795,0.22220378,-0.16582613,0.5674749,0.3289216
-0.2,-0.2,1.1999999999999997,0.0,0.5235987755982988,0,-0.23378605,1.1926234,-0.9278997,-0.008474514,-0.42093417,1.2067934,-0.8924759,-1.4211348,0.5222701,-0.8655287,0.2222039,-0.15576684,0.5681793,0.31461796
-0.2,-0.2,1.1999999999999997,0.0,0.5235987755982988,0,0.3444341,0.89564234,-0.23697977,-0.08179853,-0.055821892,1.0213058,-1.1791431,-1.4224288,0.5166792,-0.863377,0.22492234,-0.17523484,0.5710184,0.3343085
-0.2,-0.2,1.1999999999999997,0.0,0.5235987755982988,0,-0.34397772,1.2846049,-0.76486796,-0.22500466,-0.17979264,1.1200395,-0.346098,-1.420575,0.5204906,-0.8640067,0.22069597,-0.18263476,0.56454355,0.35681966
-0.2,-0.2,1.1999999999999997,0.0,0.5235987755982988,0,-0.29645377,1.3143274,-0.15091483,-0.12324512,0.2981161,1.3012286,-1.9251863,-1.423588,0.5262826,-0.86364967,0.21902023,-0.18941678,0.56081754,0.36286265
-0.2,-0.2,1.1999999999999997,0.0,0.5235987755982988,0,-0.10025251,1.0787787,-0.6638441,-0.04859023,-0.09022176,1.218332,-0.054271273,-1.4243841,0.51838404,-0.86484426,0.22370477,-0.16911282,0.56477094,0.33359402
-0.2,-0.2,1.1999999999999997,0.0,0.5235987755982988,0,0.17451784,1.3893021,-0.2703626,-0.14383622,-0.6154678,1.1537993,-0.7348966,-1.4243537,0.5212003,-0.8639829,0.22333506,-0.17257792,0.5636255,0.33383623
-0.2,-0.2,1.1999999999999997,0.0,0.5235987755982988,0,0.48097125,1.1296569,-0.7455661,-0.037116557,-0.15145129,1.0242863,-1.290037,-1.422361,0.5235159,-0.86314696,0.22182721,-0.17195569,0.5651493,0.33751822
-0.2,-0.2,1.1999999999999997,0.0,0.5235987755982988,0,-0.4883961,1.4625642,0.1297616,-0.14663506,-0.067979105,1.1341467,0.03472064,-1.4273763,0.5200587,-0.86305594,0.22062697,-0.17169572,0.56377965,0.32882538
-0.2,-0.2,1.1999999999999997,0.0,0.5235987755982988,0,0.08748451,1.24575,-0.34591192,-0.028240846,-0.28921425,1.2272213,-1.7242035,-1.4237767,0.52403355,-0.86436945,0.22379793,-0.1685809,0.569676,0.27171287
-0.2,-0.2,1.1999999999999997,0.0,0.5235987755982988,0,0.42559466,1.3084866,-0.70528764,-0.12476028,0.07498266,1.0438077,-0.7608695,-1.4224725,0.5249733,-0.86328757,0.21922275,-0.17708834,0.5668286,0.3311936
-0.2,-0.2,1.1999999999999997,0.0,0.5235987755982988,0,0.16936658,1.1573998,-0.56209683,-0.19456829,-0.14081728,1.1966192,-1.147617,-1.4235722,0.5210506,-0.863002,0.2229034,-0.15768398,0.56653684,0.33513346
-0.2,-0.2,1.1999999999999997,0.0,0.5235987755982988,0,-0.19441947,1.391824,-0.57370836,-0.23226053,0.70440364,0.8738586,-0.25490883,-1.4244697,0.5175804,-0.8628578,0.2245872,-0.18404679,0.577829,0.36213636
-0.2,-0.2,1.1999999999999997,0.0,0.5235987755982988,0,0.37803426,1.2175505,-0.027407343,0.090226516,-0.48837712,1.0215642,-0.56868553,-1.4234394,0.5221497,-0.8637882,0.22396196,-0.18993892,0.5559149,0.33520278
-0.2,-0.2,1.1999999999999997,0.0,0.5235987755982988,0,-0.46724677,1.2200787,-0.66599095,0.23539148,-0.092635676,1.1100093,-1.9368868,-1.423847,0.52155423,-0.86480486,0.22314909,-0.16953595,0.56118786,0.36568105
-0.2,-0.2,1.1999999999999997,0.0,0.5235987755982988,0,0.3417176,1.2277731,-0.42321935,0.0051116804,-0.29335538,0.94526964,-1.8104266,-1.4231696,0.5179358,-0.8653499,0.2261169,-0.15787539,0.5662436,0.34017202
-0.2,-0.2,1.1999999999999997,0.0,0.5235987755982988,0,0.40189174,1.2320902,-0.5072266,-0.06010119,-0.21766506,1.1028159,-1.2677976,-1.4250531,0.5185431,-0.86428946,0.2217863,-0.17062542,0.57473624,0.31132415
-0.2,-0.2,1.1999999999999997,0.0,0.5235987755982988,0,0.48917174,1.1096369,-0.33002368,-0.122081906,0.091841936,1.2044284,-0.810579,-1.4219621,0.5252639,-0.86341876,0.22318588,-0.13980888,0.5734458,0.34631285
-0.2,-0.2,1.1999999999999997,0.0,0.5235987755982988,0,0.8568979,1.2060641,-0.6368615,-0.034042858,0.15497237,1.0759518,-0.7158708,-1.4248374,0.5217356,-0.863401,0.22415933,-0.17870481,0.57523024,0.30477798
-0.2,-0.2,1.1999999999999997,0.0,0.5235987755982988,0,0.25129887,1.1607041,-0.45950392,-0.12918025,0.25864342,1.0790408,-0.62553096,-1.4222714,0.5183597,-0.8646255,0.22318216,-0.18038116,0.5670633,0.32646465
-0.2,-0.2,1.1999999999999997,0.0,0.5235987755982988,0,-0.3299245,1.1500914,-0.4031685,-0.044070326,0.10472465,1.1400747,-0.72116804,-1.4229614,0.5232848,-0.86565757,0.22158733,-0.20657678,0.5745577,0.3449357
-0.2,-0.2,1.1999999999999997,0.0,0.5235987755982988,0,0.099619225,1.2262422,-0.11556277,-0.17422506,-0.056403786,0.99897873,-0.7511937,-1.4233931,0.5213682,-0.8639635,0.22414729,-0.17438479,0.5745181,0.29228148
-0.2,-0.2,1.1999999999999997,0.0,0.5235987755982988,0,-0.6060421,1.1894661,0.08529659,-0.13110134,0.23868842,0.89849496,-0.18260679,-1.4214112,0.5221066,-0.8640034,0.22054136,-0.16709389,0.56994826,0.34598637
-0.2,-0.2,1.1999999999999997,0.0,0.5235987755982988,0,-1.162339,1.2317344,0.14991899,-0.13948034,-0.40751725,0.89933157,-2.0496557,-1.421861,0.5172431,-0.86576176,0.22616884,-0.18370228,0.5611682,0.26623604
-0.2,-0.2,1.1999999999999997,0.0,0.5235987755982988,0,0.08478571,1.2715728,-0.5477145,-0.1363822,-0.47106385,0.99188226,-1.396645,-1.4215456,0.5228269,-0.8626306,0.22035562,-0.19194427,0.56732625,0.31788355
-0.2,-0.2,1.1999999999999997,0.0,0.5235987755982988,0,0.3190556,1.2072321,-0.21484204,-0.17131595,-0.4041156,1.1954589,-1.3737803,-1.4248703,0.51892996,-0.8629707,0.22619997,-0.15050584,0.56736135,0.3354505
-0.2,-0.2,1.1999999999999997,0.0,0.5235987755982988,0,0.07807273,1.048805,-0.58625674,-0.06652473,-0.0826937,1.1927322,-0.37583777,-1.4258868,0.5169092,-0.86336505,0.22366162,-0.18176329,0.566186,0.3644539
-0.2,-0.2,1.1999999999999997,0.0,0.5235987755982988,0,-0.63172185,0.9745814,-0.1810451,-0.09073154,0.015222353,1.3900913,-1.6304307,-1.4234345,0.5246972,-0.8653507,0.22389047,-0.1547884,0.57202566,0.3717144
-0.2,-0.2,1.1999999999999997,0.0,0.5235987755982988,0,0.3476653,1.1361624,-0.23741049,0.12282463,-0.20118819,1.0227064,-0.71638495,-1.4230196,0.52048343,-0.86278915,0.2231605,-0.17609991,0.5725254,0.32739043
-0.2,-0.2,1.1999999999999997,0.0,0.5235987755982988,0,-0.56950474,1.4260157,-0.20558588,-0.086172424,-0.006774314,1.0218738,-1.8779758,-1.4231027,0.51829326,-0.86375153,0.22088975,-0.16940208,0.5748784,0.3154474
-0.2,-0.2,1.1999999999999997,0.0,0.5235987755982988,0,-0.087370746,1.3579354,-0.33133548,-0.14461058,-0.100836046,1.0483999,-1.7163123,-1.4215881,0.5182322,-0.86324435,0.22008666,-0.15639684,0.5746921,0.39287704
-0.2,-0.2,1.1999999999999997,0.0,0.5235987755982988,0,-0.5115223,1.3369569,0.07897316,-0.02963755,0.10393993,1.2252338,-1.135539,-1.4228196,0.52044374,-0.86273736,0.22192244,-0.189473,0.5701905,0.36452195
-0.2,-0.2,1.1999999999999997,0.0,0.5235987755982988,0,-0.11123909,1.0458351,-0.6683621,0.07921671,-0.5336632,0.96921015,-0.711594,-1.4218733,0.5185171,-0.86430556,0.22331002,-0.16135985,0.5687657,0.32406202
-0.2,-0.2,1.1999999999999997,0.0,0.5235987755982988,0,0.2368264,1.2562487,0.019704454,-0.13033402,0.18005934,1.2642365,-0.5469961,-1.4239275,0.5230931,-0.8638728,0.22306374,-0.16972274,0.5607176,0.33857566
-0.2,-0.2,1.1999999999999997,0.0,0.5235987755982988,0,0.11919659,1.4157994,0.020463578,-0.15463942,-0.008719534,1.1137686,-1.6204922,-1.421864,0.52196765,-0.86432284,0.22256893,-0.1860674,0.57663625,0.35053605
-0.2,-0.2,1.1999999999999997,0.0,0.5235987755982988,0,0.9589852,1.1878984,0.17920756,-0.15590101,0.008356318,0.8309094,0.21352184,-1.4236006,0.52264863,-0.8639884,0.22635703,-0.16404422,0.56659794,0.32745215
-0.2,-0.2,1.1999999999999997,0.0,0.5235987755982988,0,-0.15580189,1.0243537,-0.4743618,-0.21344997,-0.5419786,1.304224,-1.2267565,-1.4241956,0.51442057,-0.86385465,0.22421297,-0.16198368,0.5626831,0.34940004
-0.2,-0.2,1.1999999999999997,0.0,0.5235987755982988,0,-0.4463849,1.580299,0.070374295,0.03593063,0.017317876,1.1212939,-0.64030576,-1.4274417,0.51902777,-0.86373097,0.2219743,-0.16016436,0.57365173,0.330888
-0.2,-0.2,1.1999999999999997,0.0,0.5235987755982988,0,0.5573366,1.4000161,-0.29997438,-0.30955142,-0.08323014,0.9807841,-0.44212314,-1.4206221,0.5169441,-0.8647726,0.22436225,-0.20864865,0.5757773,0.36499688
-0.2,-0.2,1.1999999999999997,0.0,0.5235987755982988,0,0.71552485,1.2000068,-0.28199714,-0.030179786,0.17694922,1.0792745,-0.6532318,-1.423624,0.5210557,-0.86271304,0.22456627,-0.17889498,0.57245547,0.34035724
-0.2,-0.2,1.1999999999999997,0.0,0.5235987755982988,0,-0.60460913,1.2794995,0.08186734,-0.25883672,-0.5178153,0.97118795,-0.5472102,-1.4244381,0.5126012,-0.86427027,0.22404645,-0.16533257,0.56715494,0.34357667
-0.2,-0.2,1.1999999999999997,0.0,0.5235987755982988,0,0.3021609,1.0855839,-0.5261188,-0.05009197,-0.12356025,0.86415124,-1.6233916,-1.4220979,0.5218908,-0.8636388,0.2221707,-0.18317561,0.5650418,0.36516976
-0.2,-0.2,1.1999999999999997,0.0,0.5235987755982988,0,0.39906496,1.3281575,-0.26652876,-0.18646812,0.4756858,1.1714334,-1.225799,-1.42224,0.52549297,-0.8648152,0.22385071,-0.15534931,0.5714718,0.3126396
-0.2,-0.2,1.1999999999999997,0.0,0.5235987755982988,0,0.41940027,1.4700352,-0.18648285,0.07314635,0.1652763,1.0128571,-1.5387802,-1.4231102,0.51709545,-0.8635274,0.2230915,-0.19367445,0.57176137,0.32190764
-0.2,-0.2,1.1999999999999997,0.0,0.5235987755982988,0,-0.047385,1.4678476,-0.19884288,0.04698282,0.019098757,1.0114727,-0.4564377,-1.4220687,0.52231663,-0.8635146,0.22079092,-0.16881464,0.5631848,0.33696207
-0.2,-0.2,1.1999999999999997,0.0,0.5235987755982988,0,0.34980333,1.5737637,0.30620256,-0.017734237,-0.367649,0.94498646,-0.95514,-1.4237386,0.5214647,-0.8644468,0.2283453,-0.18661085,0.5612778,0.3449255
-0.2,-0.2,1.1999999999999997,0.0,0.5235987755982988,0,-0.5835461,1.2290576,-0.29313728,-0.102433056,-0.048854146,1.1052781,-0.70040554,-1.4221375,0.5230846,-0.8650637,0.22381558,-0.18539263,0.5719245,0.32584152
-0.2,-0.2,1.1999999999999997,0.0,0.5235987755982988,0,0.62801546,1.230724,-0.33828542,-0.06875852,0.02410234,1.1515887,-0.9790038,-1.4223077,0.5202316,-0.8642729,0.22550452,-0.18451394,0.5733616,0.36130002
-0.2,-0.2,1.1999999999999997,0.0,0.5235987755982988,0,1.2672714,1.1473575,-0.678074,-0.035166066,-0.28507793,1.1551025,-0.6139242,-1.4210682,0.51334906,-0.8643349,0.22314812,-0.18432657,0.5671295,0.34413856
-0.2,-0.2,1.1999999999999997,0.0,0.5235987755982988,0,-0.14447571,1.6188418,-0.12644887,-0.06234944,-0.16710812,0.97038686,-1.1155723,-1.423712,0.52043,-0.86255753,0.22247873,-0.17668487,0.575274,0.3090627
-0.2,-0.2,1.1999999999999997,0.0,0.5235987755982988,0,0.9417477,1.3647647,-0.37071607,-0.245855,-0.2292117,1.2040551,-1.0597324,-1.421316,0.5195032,-0.8648317,0.22282282,-0.1679223,0.57204133,0.31072626
-0.2,-0.2,1.1999999999999997,0.0,0.5235987755982988,0,0.34247535,1.3281764,-0.39928013,-0.03537266,0.31942138,0.8576489,-0.94996095,-1.4226209,0.52345794,-0.862731,0.22266302,-0.15993294,0.57412827,0.33575693
-0.2,-0.2,1.1999999999999997,0.0,0.5235987755982988,0,-0.46716657,1.4708692,0.006649379,-0.014397976,-0.63027817,1.0846589,-1.9091122,-1.4224945,0.5179527,-0.86440283,0.2239576,-0.16927482,0.5746297,0.31652066
-0.2,-0.2,1.1999999999999997,0.0,0.5235987755982988,0,0.9149361,0.9762851,-0.15406062,0.117985144,-0.59949595,1.0869082,-1.1776166,-1.4226282,0.51714915,-0.86613756,0.22065039,-0.16205408,0.5755448,0.34897283
-0.2,-0.2,1.1999999999999997,0.0,0.5235987755982988,0,0.77114403,1.5558048,-0.20600581,-0.052381657,-0.08748033,1.0078014,-1.6401554,-1.4253899,0.5185775,-0.86263883,0.2238348,-0.18400526,0.5644259,0.3146048
-0.2,-0.2,1.1999999999999997,0.0,0.5235987755982988,0,-0.77275515,0.9759677,-0.66592264,-0.032213457,-0.26106465,1.1809791,-0.76358664,-1.4237711,0.52096313,-0.86312175,0.22395183,-0.19282906,0.56410056,0.3341975
-0.2,-0.2,1.1999999999999997,0.0,0.5235987755982988,0,-0.29608196,1.3948452,-0.16753285,0.07441853,-0.34090787,1.1557882,-0.52937484,-1.4226632,0.51639175,-0.86366826,0.22255269,-0.165703,0.56862044,0.3363124
-0.2,-0.2,1.1999999999999997,0.0,0.5235987755982988,0,0.5710078,1.2157081,0.14084384,-0.029903358,-0.4381141,0.9658203,-2.311225,-1.4225955,0.518179,-0.86479306,0.22339961,-0.1524691,0.5800163,0.39186895
-0.2,-0.2,1.1999999999999997,0.0,0.5235987755982988,0,-0.5329313,1.4495386,0.12050002,-0.0023248198,0.3902936,1.2193441,-2.67444,-1.424668,0.5163006,-0.86354107,0.22091247,-0.1952324,0.5685053,0.3359307
-0.2,-0.2,1.1999999999999997,0.0,0.5235987755982988,0,0.89061904,1.2154592,-0.67950314,-0.019082377,-0.24317074,1.0051367,-0.7401125,-1.424607,0.52089447,-0.8645094,0.22363645,-0.18324465,0.5712681,0.34831887
-0.2,-0.2,1.1999999999999997,0.0,0.5235987755982988,0,-0.4240129,1.3799319,-0.50860363,-0.16773681,0.22412297,1.1433774,-1.1746548,-1.4236203,0.5206478,-0.8656725,0.22262064,-0.17170319,0.5629758,0.34455982
-0.2,-0.2,1.1999999999999997,0.0,0.5235987755982988,0,0.26397374,1.2770768,-0.10243798,-0.09271639,-0.4297336,1.1237727,-0.21839535,-1.4243867,0.52110404,-0.8644914,0.22503059,-0.16671701,0.56965446,0.38086662
-0.2,-0.2,1.1999999999999997,0.0,0.5235987755982988,0,0.57553244,1.4686316,-0.48360434,-0.081388876,0.17674848,1.0039119,-1.9813666,-1.4230838,0.5225688,-0.8653427,0.22451322,-0.17080042,0.5663368,0.33682752
-0.2,-0.2,1.1999999999999997,0.0,0.5235987755982988,0,-0.37245718,1.1565125,0.18369626,0.010999737,0.19393882,1.1850088,-1.5640464,-1.4201777,0.52158356,-0.86510503,0.2238163,-0.15549402,0.5668815,0.34280705
-0.2,-0.2,1.1999999999999997,0.0,0.5235987755982988,0,-0.08020343,1.5851152,-0.56493807,-0.2168689,-0.39836124,0.9742564,-1.4580765,-1.4225408,0.5226203,-0.8632009,0.21797803,-0.17239442,0.58267814,0.32347646
-0.2,-0.2,1.1999999999999997,0.0,0.5235987755982988,0,1.2108399,1.2551752,-0.55808634,-0.18228607,0.03006306,1.1730553,-0.3737653,-1.4226503,0.5176745,-0.8647138,0.22366312,-0.16122992,0.56740874,0.3268284
-0.2,-0.2,1.1999999999999997,0.0,0.5235987755982988,0,-0.034268644,1.4413759,-0.69944674,-0.14521165,-0.48365366,0.9975029,-0.05362003,-1.4228307,0.5206318,-0.8639946,0.22171831,-0.20257229,0.5688419,0.36125046
-0.2,-0.2,1.1999999999999997,0.0,0.5235987755982988,0,0.51307434,1.5161108,0.30370542,-0.041375834,0.08244238,1.137701,-0.54189897,-1.4240401,0.5215356,-0.862777,0.22400877,-0.20169577,0.57283515,0.3400034
-0.2,-0.2,1.1999999999999997,0.0,0.5235987755982988,0,0.6443838,1.3627805,-0.23464265,-0.036526855,0.29304528,1.2210854,-1.1804385,-1.4236852,0.52598166,-0.8640422,0.22380255,-0.1807989,0.56850433,0.33547354
-0.2,-0.2,1.1999999999999997,0.0,0.5235987755982988,0,0.0020480168,1.5956289,-0.770599,-0.20240313,-0.29392612,1.0762419,-0.6814709,-1.4225943,0.51874226,-0.86382264,0.22152552,-0.1990073,0.5727383,0.3645165
-0.2,-0.2,1.1999999999999997,0.0,0.5235987755982988,0,-0.21303332,1.1702813,0.37109464,0.04820735,-0.48783556,1.0368736,-0.5860567,-1.422796,0.5213434,-0.8636895,0.22331025,-0.16296855,0.56756103,0.3670243
-0.2,-0.2,1.1999999999999997,0.0,0.5235987755982988,0,0.03215284,1.1519696,-0.43237314,-0.28972623,-0.19547014,0.9342062,-2.4001315,-1.4229074,0.5202927,-0.8643204,0.22294967,-0.17036188,0.57800674,0.35559645
-0.2,-0.2,1.1999999999999997,0.0,0.5235987755982988,0,-0.44111237,1.1857438,-0.23479298,0.23516819,0.18500526,1.1772363,-2.0997205,-1.4226229,0.52319807,-0.86327696,0.21959075,-0.16741088,0.56874853,0.35813555
-0.2,-0.2,1.1999999999999997,0.0,0.5235987755982988,0,-0.060872495,1.389826,-0.023119513,0.032310963,-0.40114385,1.0946503,-0.88888144,-1.4237293,0.52112246,-0.8661225,0.222628,-0.1735176,0.57328665,0.32469046
-0.2,-0.2,1.1999999999999997,0.0,0.5235987755982988,0,0.046879847,0.85415936,-0.19973819,-0.058938134,-0.29183954,1.1442401,0.38193443,-1.422899,0.52483445,-0.8628032,0.2210146,-0.17164211,0.57921654,0.32632077
-0.2,-0.2,1.1999999999999997,0.0,0.5235987755982988,0,0.51433074,1.0984423,-0.2654393,-0.06641112,-0.43415076,0.92476755,-1.0146109,-1.4253273,0.52543145,-0.8642406,0.22323406,-0.17512505,0.5662021,0.34979174
-0.2,-0.2,1.1999999999999997,0.0,0.5235987755982988,0,-0.11978351,1.3999026,-0.19007277,-0.22842275,-0.24752833,0.9098631,-0.20570016,-1.4227699,0.5218787,-0.86403596,0.22137888,-0.16734761,0.5663968,0.30048344
-0.2,-0.2,1.1999999999999997,0.0,0.5235987755982988,0,0.38064313,1.4855202,-0.392015,-0.017951222,0.031054867,1.0010662,-1.6841184,-1.4237655,0.522797,-0.86517614,0.22254166,-0.17031021,0.5713717,0.32598525
-0.2,-0.2,1.1999999999999997,0.0,0.5235987755982988,0,-0.30492,1.1836603,0.11965308,-0.16815972,-0.43772107,1.0717785,-1.7038602,-1.421536,0.52197003,-0.86512786,0.22479022,-0.15902953,0.573137,0.34925458
-0.2,-0.2,1.1999999999999997,0.0,0.5235987755982988,0,0.45232555,1.4513001,-0.74864256,-0.12291641,0.11015692,1.3019847,-1.7021775,-1.4244394,0.52176034,-0.86443067,0.22514535,-0.18184586,0.57777804,0.35122967
-0.2,-0.2,1.1999999999999997,0.0,0.5235987755982988,0,0.90843505,1.3575382,-0.23251016,-0.20809953,-0.08057591,1.2154243,-0.84750056,-1.4217377,0.5232609,-0.8644758,0.22378097,-0.1782179,0.5658057,0.33836073
-0.2,-0.2,1.1999999999999997,0.0,0.5235987755982988,0,0.9563185,1.2552574,-0.34179953,0.099582635,-0.0675655,0.9948452,-1.9748285,-1.4224697,0.52390796,-0.86422473,0.2201755,-0.19364716,0.5613863,0.24866024
-0.2,-0.2,1.1999999999999997,0.0,0.5235987755982988,0,0.11004742,0.9645363,0.12225074,-0.18696111,-0.2742482,1.2489116,-1.9421061,-1.4225377,0.5146138,-0.86450046,0.22527279,-0.17157154,0.56447786,0.36488095
-0.2,-0.2,1.1999999999999997,0.0,0.5235987755982988,0,0.026261859,1.2733784,-0.38045472,-0.029850421,-0.470713,0.9827777,-1.1887509,-1.4223806,0.5175498,-0.86545795,0.22222497,-0.2014389,0.57358545,0.37925664
-0.2,-0.2,1.1999999999999997,0.0,0.5235987755982988,0,-0.032113038,1.1448076,-0.45204777,-0.06020969,0.26630944,1.1500844,-0.34668773,-1.4227369,0.52499944,-0.8647513,0.22139823,-0.16181166,0.56605214,0.35106236
-0.2,-0.2,1.1999999999999997,0.0,0.5235987755982988,0,0.15732369,1.1845299,0.2619506,0.0835476,0.15181911,1.1055478,-2.264695,-1.4248431,0.5173978,-0.8627813,0.2238628,-0.16643791,0.57025504,0.31711113
-0.2,-0.2,1.1999999999999997,0.0,0.5235987755982988,0,-0.46503627,1.2658252,0.031165829,-0.09782048,-0.096754156,0.9844028,-1.5966382,-1.4235088,0.5179536,-0.86404574,0.22412182,-0.16870385,0.5693125,0.33916193
-0.2,-0.2,1.1999999999999997,0.0,0.5235987755982988,0,-0.8360136,1.5561951,-0.43818542,-0.1335487,0.09780999,0.9992361,-1.3560165,-1.4219414,0.52669054,-0.8629896,0.22284444,-0.17313328,0.5656266,0.33415934
-0.2,-0.2,1.1999999999999997,0.0,0.5235987755982988,0,0.5246419,1.5288972,-0.2811136,0.038006976,0.115294985,1.1294162,-0.6192193,-1.423227,0.52054405,-0.8637212,0.2217667,-0.17378475,0.5758509,0.3632703
-0.2,-0.2,1.1999999999999997,0.0,0.5235987755982988,0,1.0895989,1.2116857,-0.4451544,-0.08763056,-0.5011481,1.1487256,-0.8039429,-1.4222822,0.51800364,-0.8666253,0.22262576,-0.17988908,0.5732266,0.36176786
-0.2,-0.2,1.1999999999999997,0.0,0.5235987755982988,0,-0.9953125,1.5094784,-0.2566426,0.011545348,-0.07060691,1.2115086,-0.515346,-1.4233329,0.51765645,-0.86339086,0.22166511,-0.16565624,0.56708163,0.35084778
-0.2,-0.2,1.1999999999999997,0.0,0.5235987755982988,0,-0.39557448,1.0360131,-0.069529615,-0.023154508,-0.008205747,1.0614132,-0.048756987,-1.4218264,0.5154407,-0.8652859,0.22511613,-0.18492854,0.568875,0.31403598
-0.2,-0.2,1.1999999999999997,0.0,0.5235987755982988,0,0.1626624,1.4771498,-0.100313246,0.010602739,-0.30254593,1.1544814,-1.0729729,-1.4230219,0.52359104,-0.8646222,0.221591,-0.18910895,0.57118785,0.264926
-0.2,-0.2,1.1999999999999997,0.0,0.5235987755982988,0,0.51962644,1.1460572,-0.41572663,-0.09862063,-0.11923578,0.94868016,-1.417947,-1.4206499,0.518691,-0.8651698,0.2210915,-0.18048167,0.57377195,0.34440723
-0.2,-0.2,1.1999999999999997,0.0,0.5235987755982988,0,0.3125355,1.2583941,0.05618847,-0.048746593,0.41326725,1.1656177,-0.97941315,-1.423414,0.5151158,-0.86555034,0.22711132,-0.1767863,0.5650444,0.30699635
-0.2,-0.2,1.1999999999999997,0.0,0.5235987755982988,0,-0.39640692,1.5441226,-0.4297727,-0.16831152,0.3028696,1.1219103,-0.78023136,-1.4242923,0.5265136,-0.86364096,0.22356555,-0.18705961,0.5651189,0.31724268
-0.2,-0.2,1.1999999999999997,0.0,0.5235987755982988,0,-1.2759386,1.5186192,-0.49673608,-0.16042608,-0.050122548,1.2194666,-0.34501112,-1.4222038,0.5206072,-0.86484176,0.22384411,-0.15199204,0.57102907,0.31890154
-0.2,-0.2,1.1999999999999997,0.0,0.5235987755982988,0,0.20521714,1.1074781,-0.54035944,-0.30391395,0.105781555,1.2116431,-1.1390526,-1.4242656,0.52049625,-0.86212945,0.22266497,-0.1827535,0.5669076,0.3669949
-0.2,-0.2,1.1999999999999997,0.0,0.5235987755982988,0,0.38432217,1.2824886,-0.092969045,-0.2030948,-0.21043073,1.0993375,-0.71868634,-1.4214387,0.52040374,-0.8642609,0.22309425,-0.18755096,0.5644438,0.3278771
-0.2,-0.2,1.1999999999999997,0.0,0.5235987755982988,0,0.31246907,1.3771007,0.23377945,-0.42786595,-0.4253637,1.1875141,-0.7142098,-1.4238542,0.51950604,-0.8645425,0.22388959,-0.16070546,0.57529855,0.3322209
-0.2,-0.2,1.1999999999999997,0.0,0.5235987755982988,0,0.83105767,1.3765807,-0.285144,-0.09926618,-0.36835757,0.94086987,-1.238402,-1.4210107,0.52274615,-0.8640635,0.22065735,-0.17718989,0.57493573,0.35642657
-0.2,-0.2,1.1999999999999997,0.0,0.5235987755982988,0,-0.017333474,1.5011691,0.64438164,-0.22326988,-0.0815024,1.2155347,-1.5704844,-1.4250144,0.5230291,-0.8646378,0.22366756,-0.18219194,0.5641222,0.32612374
-0.2,-0.2,1.1999999999999997,0.0,0.5235987755982988,0,-0.16180454,1.3403939,-0.067870624,-0.17706014,-0.32248423,1.0319957,-0.9632344,-1.4224079,0.5219329,-0.8642795,0.2244901,-0.16977328,0.5736284,0.34259245
-0.2,-0.2,1.1999999999999997,0.0,0.5235987755982988,0,0.15866509,1.4643301,-0.7616491,-0.11771983,0.10474142,1.0945542,-1.3977376,-1.4214869,0.5185272,-0.8641208,0.22446248,-0.18388575,0.57423,0.35203353
-0.2,-0.2,1.1999999999999997,0.0,0.5235987755982988,0,-0.19328812,1.2778138,0.22036375,-0.0674793,0.3227441,1.0943818,-1.7227019,-1.423654,0.5244213,-0.8623299,0.22085871,-0.18428206,0.5638093,0.39589015
-0.2,-0.2,1.1999999999999997,0.0,0.5235987755982988,0,-0.007525788,1.291183,-0.63977367,-0.11801646,-0.17579496,0.9972046,-1.013368,-1.4226298,0.51736236,-0.86344004,0.22194281,-0.18613672,0.5666587,0.39805505
-0.2,-0.2,1.1999999999999997,0.0,0.5235987755982988,0,0.8422356,1.161076,-0.6631704,-0.11592591,-0.23476653,1.0091065,-1.2714163,-1.4222714,0.5222788,-0.86403775,0.22403976,-0.1716136,0.57248986,0.31174213
-0.2,-0.2,1.1999999999999997,0.0,0.5235987755982988,0,0.83950174,1.572005,-0.77725124,-0.18247522,-0.006311328,1.0221306,-0.95649165,-1.4213407,0.52433443,-0.8640596,0.22324863,-0.18109179,0.57698596,0.33479872
-0.2,-0.2,1.1999999999999997,0.0,0.5235987755982988,0,0.3594174,1.4957861,-0.65321684,-0.07660231,-0.583438,0.9589129,-1.570139,-1.4229716,0.52313966,-0.8656147,0.22415857,-0.1716832,0.56831604,0.3017007
-0.2,-0.2,1.1999999999999997,0.0,0.5235987755982988,0,0.762504,0.9004339,-0.83443713,0.09949238,-0.040838867,1.2479619,-0.29906693,-1.423886,0.5190965,-0.8628066,0.22533661,-0.12990975,0.56459886,0.3639921
-0.2,-0.2,1.1999999999999997,0.0,0.5235987755982988,0,0.6479704,1.259686,-0.13014257,-0.15434322,0.021279372,1.0676396,-0.74725324,-1.424166,0.51931196,-0.8635529,0.22694783,-0.17684104,0.57306606,0.3159475
-0.2,-0.2,1.1999999999999997,0.0,0.5235987755982988,0,-0.31743497,1.0353688,-0.43574107,-0.08330888,-0.20050812,1.1974027,-0.83099616,-1.4216207,0.5270943,-0.8642789,0.22252458,-0.20098376,0.5739166,0.36054844
-0.2,-0.2,1.1999999999999997,0.0,0.5235987755982988,0,-0.34669563,1.347758,-0.21117848,-0.03896027,0.007352732,1.0005704,-1.6724573,-1.4230026,0.5239116,-0.8635655,0.22229335,-0.16236183,0.57211256,0.3177657
-0.2,-0.2,1.1999999999999997,0.0,0.5235987755982988,0,0.5040031,1.2932446,-0.16890019,-0.11741425,-0.06516325,1.0385555,-0.08548994,-1.4230076,0.52118546,-0.8636982,0.22574936,-0.18231261,0.5720614,0.3537866
-0.2,-0.2,1.1999999999999997,0.0,0.5235987755982988,0,-0.36104634,1.2488674,-0.45271775,-0.26320213,0.31376782,0.97411835,-1.025746,-1.422337,0.51966506,-0.86394274,0.22465806,-0.18744159,0.5590908,0.29228315
-0.2,-0.2,1.1999999999999997,0.0,0.5235987755982988,0,0.39482105,1.1704408,-0.240499,-0.24403986,0.18800841,1.1634723,-1.7013574,-1.4216849,0.5211936,-0.865701,0.22310427,-0.18562679,0.57116824,0.32743976
-0.2,-0.2,1.1999999999999997,0.0,0.5235987755982988,0,0.340171,1.5006721,-0.2640603,0.014519236,0.13907692,1.2668858,-1.367668,-1.4234055,0.5173166,-0.8633294,0.22410215,-0.15748292,0.5705358,0.30575484
-0.2,-0.2,1.1999999999999997,0.0,0.5235987755982988,0,0.4872787,0.9755348,-0.41268054,-0.08892792,-0.113079995,1.1846467,-0.3720613,-1.4217877,0.525404,-0.8633445,0.22017759,-0.18437746,0.57127565,0.3461873
-0.2,-0.2,1.1999999999999997,0.0,0.5235987755982988,0,0.65736985,1.5440584,-1.1386936,-0.23390505,-0.043958355,1.1988219,-1.1424762,-1.4221762,0.52492476,-0.8636967,0.22424427,-0.16747631,0.57101256,0.33324715
-0.2,-0.2,1.1999999999999997,0.0,0.5235987755982988,0,0.2561861,1.3898088,0.09995948,-0.042918026,-0.01630373,1.1252794,-1.4719296,-1.4249864,0.5253823,-0.8616134,0.22622913,-0.1680152,0.56811035,0.30563447
-0.2,-0.2,1.1999999999999997,0.0,0.5235987755982988,0,-0.3914536,1.1270118,-0.13355339,-0.1347312,-0.33169925,1.2914863,-0.9261654,-1.4217019,0.52100235,-0.8651881,0.22499341,-0.17882499,0.56939524,0.35867402
-0.2,-0.2,1.1999999999999997,0.0,0.5235987755982988,0,0.53195053,1.0856292,0.3423829,0.09528009,0.0019178145,0.99784833,0.12731864,-1.4221674,0.52295876,-0.8654562,0.22199684,-0.18437506,0.5684903,0.38793394
-0.2,-0.2,1.1999999999999997,0.0,0.5235987755982988,0,0.3842845,1.285702,-0.13599585,-0.13049123,-0.096857496,1.1373523,-0.5032074,-1.4206312,0.52294236,-0.86357415,0.22085677,-0.18017145,0.57232696,0.30682284
-0.2,-0.2,1.1999999999999997,0.0,0.5235987755982988,0,0.1924203,1.2029176,-0.67419326,-0.15435505,0.026895944,1.1858625,-1.0493776,-1.4221371,0.51804084,-0.8635107,0.22384399,-0.15211062,0.57989806,0.315716
-0.2,-0.2,1.1999999999999997,0.0,0.5235987755982988,0,0.3473508,1.3414477,0.32795385,0.10418742,-0.2169216,1.3143654,-1.9889336,-1.4206201,0.5198258,-0.8680012,0.22905764,-0.16231039,0.5717743,0.39510882
-0.2,-0.2,1.1999999999999997,0.0,0.5235987755982988,0,-0.16028397,1.3433331,-0.9196422,-0.03700973,-0.12727156,0.9753427,-2.0479991,-1.4201858,0.52334493,-0.86453766,0.22139585,-0.16142522,0.5691503,0.3204081
-0.2,-0.2,1.1999999999999997,0.0,0.5235987755982988,0,0.3284713,1.2674817,-0.16512746,0.055613246,-0.3871903,0.85246164,-1.0215105,-1.422548,0.5226031,-0.86534387,0.22100611,-0.19354568,0.5683989,0.28210944
-0.2,-0.2,1.1999999999999997,0.0,0.5235987755982988,0,-0.1691862,1.0443655,-0.028866125,-0.2139378,-0.36597836,1.2508281,-1.1370834,-1.4217362,0.5198425,-0.86491305,0.22331192,-0.1739081,0.5702756,0.31173983
-0.2,-0.2,1.1999999999999997,0.0,0.5235987755982988,0,-0.4111625,1.3016062,0.09151295,0.0057991133,0.04585463,1.1402578,-0.48214275,-1.4224209,0.51614994,-0.86525553,0.22520882,-0.19070767,0.56800765,0.3544907
-0.2,-0.2,1.1999999999999997,0.0,0.5235987755982988,0,0.5727759,1.2249198,-0.77755046,-0.030804029,-0.21171556,1.0099066,-1.5024669,-1.4218556,0.518634,-0.86367923,0.22516593,-0.19799395,0.5756559,0.3162239
-0.2,-0.2,1.1999999999999997,0.0,0.5235987755982988,0,0.16138995,1.1246655,-0.36985043,-0.23536517,-0.034000084,1.0373592,-0.9426448,-1.4206043,0.5187662,-0.8649604,0.22495934,-0.17389499,0.5691133,0.33395046
-0.2,-0.2,1.1999999999999997,0.0,0.5235987755982988,0,0.61669743,1.2935811,0.04338834,0.051712815,-0.17420118,1.1358445,-0.08481386,-1.4221253,0.5172908,-0.8616743,0.22393306,-0.17059998,0.5613481,0.3425913
-0.2,-0.2,1.1999999999999997,0.0,0.5235987755982988,0,0.96752137,1.3410128,-0.38707948,-0.1908863,0.23402284,1.1893747,-0.52483535,-1.4235113,0.523656,-0.8643694,0.2253326,-0.18269822,0.5687593,0.26496145
-0.2,-0.2,1.1999999999999997,0.0,0.5235987755982988,0,0.043142863,1.4088702,-0.42491627,-0.27481616,-0.005665566,1.2477556,-1.3565017,-1.4219557,0.52218163,-0.8641339,0.22599687,-0.19422588,0.56490135,0.32399854
-0.2,-0.2,1.1999999999999997,0.0,0.5235987755982988,0,1.1301754,1.5888886,0.11564476,-0.09066229,-0.2193107,1.0620193,-0.91626143,-1.4230152,0.5241092,-0.86477417,0.22601761,-0.15961401,0.5616814,0.34245506
-0.2,-0.2,1.1999999999999997,0.0,0.5235987755982988,0,0.4191386,1.019541,-0.049111083,-0.1263284,-0.32278582,1.1264502,-1.4331869,-1.4228481,0.5219887,-0.86481136,0.22195604,-0.1769632,0.56850076,0.34381852
-0.2,-0.2,1.1999999999999997,0.0,0.5235987755982988,0,0.19983004,1.5917546,-0.3645519,0.103037216,-0.3313062,1.0266924,-0.86214185,-1.4225891,0.52386343,-0.8639373,0.2219313,-0.19648488,0.55939555,0.36856365
-0.2,-0.2,1.1999999999999997,0.0,0.5235987755982988,0,0.5123152,1.3510096,-0.52135795,-0.12989429,0.12771273,0.9516657,0.035788428,-1.4253814,0.5221186,-0.86422175,0.22851275,-0.1758737,0.5735576,0.3064972
-0.2,-0.2,1.1999999999999997,0.0,0.5235987755982988,0,-0.7043316,1.4515061,-0.2306579,-0.053580467,-0.07823285,1.3479536,-1.0616233,-1.4204627,0.519554,-0.8646652,0.22255014,-0.17444146,0.5637443,0.37388805
-0.2,-0.2,1.1999999999999997,0.0,0.5235987755982988,0,0.7214631,1.285886,-0.07182888,-0.15419869,-0.14219856,1.1330112,-0.91323453,-1.420079,0.51934373,-0.8646424,0.22665578,-0.17970753,0.5804105,0.32922727
-0.2,-0.2,1.1999999999999997,0.0,0.5235987755982988,0,-0.16842113,1.334823,-0.49916488,0.12460804,-0.100214124,1.0333107,-1.8325385,-1.4224259,0.5200653,-0.86573505,0.2227007,-0.16097301,0.57117355,0.31549433
-0.2,-0.2,1.1999999999999997,0.0,0.5235987755982988,0,0.30759603,1.0894183,-0.35761765,-0.0061095627,-0.1215495,1.0854787,-0.8924225,-1.4208841,0.52344525,-0.86433077,0.22352077,-0.195227,0.5708251,0.35303748
-0.2,-0.2,1.1999999999999997,0.0,0.5235987755982988,0,-0.0097275935,1.1981269,-0.14336446,-0.36334687,0.24249123,0.9906156,-0.6997757,-1.4225115,0.52142817,-0.86378646,0.22654063,-0.17654382,0.57011896,0.34953198
-0.2,-0.2,1.1999999999999997,0.0,0.5235987755982988,0,0.5079346,1.3908895,-0.45864567,-0.08963167,-0.04016602,0.8512703,-2.2116797,-1.4233766,0.5183622,-0.8659199,0.22245525,-0.17311588,0.5694417,0.3529248
-0.2,-0.2,1.1999999999999997,0.0,0.5235987755982988,0,-0.12721631,1.1449088,0.40593845,-0.14181831,-0.38230604,1.1894832,0.21159464,-1.4256601,0.52180594,-0.86461914,0.2208316,-0.18163204,0.56494784,0.32396477
-0.2,-0.2,1.1999999999999997,0.0,0.5235987755982988,0,1.2213,1.1191335,-0.53121674,-0.12203249,0.023742886,1.1217289,-0.97659266,-1.4238142,0.51971054,-0.86517596,0.2249801,-0.18010005,0.5652694,0.33471504
-0.2,-0.2,1.1999999999999997,0.0,0.5235987755982988,0,-0.45419323,1.2461778,-0.31394374,0.05076303,-0.26635224,1.0316402,-1.8207856,-1.4238344,0.5236625,-0.8647732,0.22230254,-0.17980878,0.57391655,0.3478793
