sanky1234/BimanualDexCatch/isaacgymenvs/cem_results/football_pose_-0.2_-0.2_0.9999999999999999_0.5235987755982988_-0.5235987755982988_0_2025-05-24.csv
x,y,z,roll,pitch,yaw,robot1/joint1,robot1/joint2,robot1/joint3,robot1/joint4,robot1/joint5,robot1/joint6,robot1/joint7,robot2/joint1,robot2/joint2,robot2/joint3,robot2/joint4,robot2/joint5,robot2/joint6,robot2/joint7
-0.2,-0.2,0.9999999999999999,0.5235987755982988,-0.5235987755982988,0,-0.34161502,-1.1990572,1.528407,0.190984,0.116875455,1.2559748,-0.17230947,-0.6527743,0.8634088,-1.145281,0.13880672,-0.847419,1.4489927,-2.009173
-0.2,-0.2,0.9999999999999999,0.5235987755982988,-0.5235987755982988,0,0.11085674,-1.1423947,1.1386138,0.08815283,-0.15851572,0.6296894,0.20945965,-0.65275896,0.8703371,-1.1496451,0.14068414,-0.84935355,1.4500873,-1.9743192
-0.2,-0.2,0.9999999999999999,0.5235987755982988,-0.5235987755982988,0,0.48100317,-1.3803862,1.3286529,0.32846674,-0.13795269,0.4657675,-0.2536664,-0.6498728,0.8771841,-1.1445757,0.14195965,-0.8459958,1.4547051,-1.9840401
-0.2,-0.2,0.9999999999999999,0.5235987755982988,-0.5235987755982988,0,0.30058834,-1.1788491,1.4611828,0.25688067,-0.054022618,0.4150616,0.12191143,-0.65318537,0.8757536,-1.1443498,0.14037533,-0.84656334,1.4565078,-1.9938158
-0.2,-0.2,0.9999999999999999,0.5235987755982988,-0.5235987755982988,0,1.0395285,-1.5925258,0.83377904,0.14482433,-0.0054997276,0.8407189,-0.067963414,-0.6538607,0.8784264,-1.1476135,0.1394078,-0.8485197,1.4540987,-1.9925909
-0.2,-0.2,0.9999999999999999,0.5235987755982988,-0.5235987755982988,0,0.018237205,-1.1058067,0.45743188,0.17123695,-0.13761954,0.9655617,0.042457297,-0.6511759,0.86763734,-1.1419895,0.14110063,-0.848287,1.4522864,-2.0151856
-0.2,-0.2,0.9999999999999999,0.5235987755982988,-0.5235987755982988,0,-0.04176644,-1.2252907,0.26098475,-0.03604898,-0.058007307,0.6127496,-0.16779725,-0.6505912,0.8681858,-1.1460947,0.14103776,-0.8492325,1.4489627,-1.9760461
-0.2,-0.2,0.9999999999999999,0.5235987755982988,-0.5235987755982988,0,0.50029653,-1.4420367,0.9993353,0.3939466,-0.111124806,0.5167098,-0.6089976,-0.65291333,0.8717379,-1.1462641,0.14318158,-0.8487062,1.4532589,-1.9859922
-0.2,-0.2,0.9999999999999999,0.5235987755982988,-0.5235987755982988,0,-0.05903613,-1.1104355,0.93120897,0.16106804,-0.05729717,0.6341092,-0.4393757,-0.6530094,0.87742394,-1.1460456,0.14144886,-0.84663904,1.4505619,-1.9690135
-0.2,-0.2,0.9999999999999999,0.5235987755982988,-0.5235987755982988,0,1.0482184,-1.7188643,0.23255815,0.43342343,-0.25690243,0.7817255,-0.38930902,-0.65478224,0.8820482,-1.1484517,0.14118887,-0.84776926,1.454246,-1.9666041
-0.2,-0.2,0.9999999999999999,0.5235987755982988,-0.5235987755982988,0,0.36008555,-1.3666873,0.2452887,0.30837196,-0.31800997,0.81710833,-0.10942049,-0.65339905,0.87569124,-1.1464636,0.14121766,-0.8492485,1.4479606,-1.9868566
-0.2,-0.2,0.9999999999999999,0.5235987755982988,-0.5235987755982988,0,1.1996472,-1.4858907,0.17709431,0.39213195,0.19283804,0.3334999,-0.7351405,-0.65158486,0.8730991,-1.1445286,0.13662046,-0.8487461,1.4509944,-1.9775999
-0.2,-0.2,0.9999999999999999,0.5235987755982988,-0.5235987755982988,0,-0.20375983,-1.4311606,0.8302237,0.34398162,0.36574247,0.9615211,-0.13665086,-0.6516922,0.8752696,-1.1444209,0.14151248,-0.84957236,1.451162,-1.9697642
-0.2,-0.2,0.9999999999999999,0.5235987755982988,-0.5235987755982988,0,0.19669046,-1.1083263,0.40775082,0.20522499,-0.007998428,0.9733916,-0.7925122,-0.65286154,0.8799134,-1.1447024,0.14272808,-0.84737957,1.4546605,-2.0117724
-0.2,-0.2,0.9999999999999999,0.5235987755982988,-0.5235987755982988,0,1.8716035,-1.5758762,0.4290261,0.18590148,-0.03309558,0.6635619,-0.84385085,-0.6543132,0.86938685,-1.1492488,0.14183094,-0.84624213,1.4548389,-1.9859418
-0.2,-0.2,0.9999999999999999,0.5235987755982988,-0.5235987755982988,0,1.4317535,-1.640388,0.48453563,0.44355586,-0.045758303,0.45692304,-0.5655056,-0.65320724,0.8785012,-1.1465362,0.14227659,-0.847108,1.4503053,-1.9680796
-0.2,-0.2,0.9999999999999999,0.5235987755982988,-0.5235987755982988,0,-0.009453475,-1.2884413,1.2179958,0.0826592,-0.022962531,0.68141776,0.20352826,-0.65202194,0.8760353,-1.1450096,0.13975388,-0.8475926,1.4508672,-2.0011337
-0.2,-0.2,0.9999999999999999,0.5235987755982988,-0.5235987755982988,0,0.49655274,-1.3770221,0.43962312,0.21738006,0.009171437,0.48564187,-0.089606225,-0.6531263,0.869264,-1.1474581,0.14307159,-0.84523344,1.4464847,-2.0018551
-0.2,-0.2,0.9999999999999999,0.5235987755982988,-0.5235987755982988,0,0.71534514,-1.2635759,0.35141423,0.35990396,0.01819969,1.3181976,0.16080476,-0.65386564,0.8727728,-1.1469327,0.14057903,-0.84432393,1.447404,-1.9661164
-0.2,-0.2,0.9999999999999999,0.5235987755982988,-0.5235987755982988,0,0.55896103,-1.3237114,0.69696295,0.25294003,0.18561755,0.70262533,-0.1967018,-0.65379584,0.8699501,-1.1452336,0.14178231,-0.84877527,1.4538835,-1.9625702
-0.2,-0.2,0.9999999999999999,0.5235987755982988,-0.5235987755982988,0,-0.16042182,-1.3526942,1.2554598,0.18590213,-0.17175056,1.4803903,-0.68013644,-0.6538133,0.87008363,-1.1450139,0.143146,-0.8489638,1.4499226,-2.0110207
-0.2,-0.2,0.9999999999999999,0.5235987755982988,-0.5235987755982988,0,0.12630935,-1.3392104,0.4705784,0.26105255,-0.24394943,0.86217463,-0.46761617,-0.6523375,0.86754787,-1.1448656,0.13851711,-0.84794676,1.4524235,-1.981138
-0.2,-0.2,0.9999999999999999,0.5235987755982988,-0.5235987755982988,0,1.1797826,-1.1943071,0.70633245,0.056803264,0.19402343,1.3122879,0.2907092,-0.6506076,0.8772067,-1.1504189,0.14285289,-0.8482494,1.4532864,-2.0048656
-0.2,-0.2,0.9999999999999999,0.5235987755982988,-0.5235987755982988,0,0.3728485,-1.3723853,0.8237937,0.088188805,0.023278885,0.498105,-0.051942736,-0.65133524,0.8683656,-1.1479516,0.14388119,-0.84881616,1.4523011,-1.9660252
-0.2,-0.2,0.9999999999999999,0.5235987755982988,-0.5235987755982988,0,0.41887876,-1.627998,0.5848178,0.2072275,-0.048639406,0.3999373,0.16988553,-0.65344846,0.87290096,-1.1457952,0.14370178,-0.84786284,1.4494377,-1.9823946
-0.2,-0.2,0.9999999999999999,0.5235987755982988,-0.5235987755982988,0,0.37557513,-1.2357372,0.4896201,0.20456582,-0.048650935,0.4638347,-0.5963581,-0.65363324,0.87751806,-1.1439601,0.14191422,-0.8458796,1.4493349,-2.008353
-0.2,-0.2,0.9999999999999999,0.5235987755982988,-0.5235987755982988,0,0.121467836,-1.5810797,0.69413644,0.15896718,-0.13578662,0.5272697,-0.21559688,-0.6564173,0.8680315,-1.1470612,0.14539947,-0.85090065,1.4493461,-2.0107813
-0.2,-0.2,0.9999999999999999,0.5235987755982988,-0.5235987755982988,0,0.381801,-1.4696391,0.9335824,0.1743918,-0.19153537,0.8152589,0.07537075,-0.6543317,0.8653401,-1.148197,0.13872541,-0.84799206,1.449902,-2.0041173
-0.2,-0.2,0.9999999999999999,0.5235987755982988,-0.5235987755982988,0,0.81559664,-1.5188432,0.25041923,0.28489307,-0.12742242,0.46906194,-0.50908864,-0.6534166,0.87707865,-1.1457304,0.1415141,-0.84901875,1.4520105,-1.9782814
-0.2,-0.2,0.9999999999999999,0.5235987755982988,-0.5235987755982988,0,0.30137247,-1.7847298,0.8484827,0.04599829,-0.2397972,0.7538679,0.2563188,-0.6527428,0.87553996,-1.1445056,0.14034854,-0.84957767,1.4466755,-1.9761423
-0.2,-0.2,0.9999999999999999,0.5235987755982988,-0.5235987755982988,0,0.057916492,-1.4401056,0.9938967,0.082201816,0.17469466,0.6709951,-0.10434394,-0.653111,0.8735512,-1.1454684,0.14118442,-0.84997463,1.4515692,-1.9814976
-0.2,-0.2,0.9999999999999999,0.5235987755982988,-0.5235987755982988,0,0.25071314,-1.4809058,0.9867092,0.26010942,-0.011060016,0.6548632,-0.30073673,-0.65707546,0.8744816,-1.1467394,0.14119165,-0.8483532,1.4547445,-1.9855278
-0.2,-0.2,0.9999999999999999,0.5235987755982988,-0.5235987755982988,0,-0.12020689,-1.1451843,0.33563372,0.38831514,-0.22484727,0.76078206,-0.51497686,-0.65292454,0.8744243,-1.1437184,0.14238495,-0.8463652,1.4518591,-1.9716499
-0.2,-0.2,0.9999999999999999,0.5235987755982988,-0.5235987755982988,0,-0.09424388,-1.4932092,1.3236674,0.2630317,-0.1277862,0.673112,-0.2849508,-0.6554856,0.8674634,-1.1454422,0.13960764,-0.84620136,1.4489193,-1.9750313
-0.2,-0.2,0.9999999999999999,0.5235987755982988,-0.5235987755982988,0,-0.07080194,-1.4516523,0.7429983,0.1489363,-0.13611954,0.5443306,-0.2597095,-0.65247613,0.86806613,-1.143339,0.1448836,-0.84406936,1.4501697,-1.9961567
-0.2,-0.2,0.9999999999999999,0.5235987755982988,-0.5235987755982988,0,1.1547556,-1.3029206,0.29347637,-0.0397401,0.008205151,0.6878897,0.061984103,-0.6526573,0.87735206,-1.1481674,0.14335725,-0.85086006,1.4503539,-1.987437
-0.2,-0.2,0.9999999999999999,0.5235987755982988,-0.5235987755982988,0,0.11018873,-1.2919241,1.0033238,0.11709689,-0.1871342,0.47361666,0.02525046,-0.6540311,0.87492794,-1.1478523,0.13991037,-0.8473808,1.4474152,-1.9920757
-0.2,-0.2,0.9999999999999999,0.5235987755982988,-0.5235987755982988,0,1.333658,-1.5612037,1.0705566,0.09680389,-0.124066785,0.3989531,-0.2303943,-0.6513586,0.88268924,-1.1448425,0.14239286,-0.846107,1.4518118,-1.9506992
-0.2,-0.2,0.9999999999999999,0.5235987755982988,-0.5235987755982988,0,0.5225643,-1.3017325,0.9242496,0.3691532,-0.13159452,0.82568663,-0.22408584,-0.65372473,0.87068975,-1.1459285,0.14271927,-0.8518154,1.454953,-1.9919
-0.2,-0.2,0.9999999999999999,0.5235987755982988,-0.5235987755982988,0,1.1327457,-1.3971363,-0.518809,0.35398102,0.12683012,1.2558126,-0.5749829,-0.65257835,0.87516195,-1.1435046,0.14282751,-0.84759057,1.4507653,-1.9923885
-0.2,-0.2,0.9999999999999999,0.5235987755982988,-0.5235987755982988,0,0.392308,-1.2157153,-0.2143505,0.46131003,-0.31005916,0.28824744,0.010133102,-0.6509619,0.8732704,-1.1480079,0.14296913,-0.84739554,1.455366,-1.978013
-0.2,-0.2,0.9999999999999999,0.5235987755982988,-0.5235987755982988,0,-0.6064033,-1.586196,-0.1381329,0.22145565,-0.12743264,0.53846806,-0.036850687,-0.6549631,0.87249017,-1.1442778,0.1435658,-0.84483814,1.4529115,-1.9855034
-0.2,-0.2,0.9999999999999999,0.5235987755982988,-0.5235987755982988,0,1.2611083,-1.6637226,0.20406313,0.16777173,-0.29867697,0.67863256,-0.07582538,-0.6556045,0.8781977,-1.1484579,0.14188376,-0.846392,1.450947,-1.9754503
-0.2,-0.2,0.9999999999999999,0.5235987755982988,-0.5235987755982988,0,0.93565863,-1.258591,1.0714042,0.30799887,-0.2488027,0.78487617,-0.2897552,-0.65470564,0.87744826,-1.1477543,0.13966104,-0.8438334,1.449612,-1.9934231
-0.2,-0.2,0.9999999999999999,0.5235987755982988,-0.5235987755982988,0,-0.7513208,-1.3243763,-0.19398475,0.16463757,-0.06788529,1.040023,0.20834944,-0.6524949,0.8713176,-1.1469011,0.13988194,-0.8482577,1.4528068,-1.9605197
-0.2,-0.2,0.9999999999999999,0.5235987755982988,-0.5235987755982988,0,0.11716802,-1.3445482,1.013422,0.36689878,-0.07061708,0.68380183,-0.55099124,-0.6547526,0.87630516,-1.1469692,0.14024578,-0.8466558,1.447523,-1.998205
-0.2,-0.2,0.9999999999999999,0.5235987755982988,-0.5235987755982988,0,0.3650386,-1.1998378,0.5196619,0.24339414,-0.030538077,1.0941956,-0.78578556,-0.65120554,0.878884,-1.149669,0.1432078,-0.8480682,1.4505949,-1.9951475
-0.2,-0.2,0.9999999999999999,0.5235987755982988,-0.5235987755982988,0,-0.109497875,-1.2760223,0.5314739,0.24939932,-0.195377,1.0614614,0.37336358,-0.65563416,0.88113654,-1.1475205,0.1383838,-0.8506586,1.4529717,-1.9671379
-0.2,-0.2,0.9999999999999999,0.5235987755982988,-0.5235987755982988,0,1.2750038,-1.2531192,0.35058823,0.07285028,-0.005509812,0.6280146,-0.30128032,-0.65137833,0.8735587,-1.1472814,0.13923377,-0.8452359,1.4509673,-1.9947361
-0.2,-0.2,0.9999999999999999,0.5235987755982988,-0.5235987755982988,0,0.36628267,-1.4362972,0.33429992,0.15779485,0.12062544,0.6259312,-0.48639864,-0.6553963,0.87390697,-1.1456351,0.14048004,-0.8479022,1.4535304,-1.9827826
-0.2,-0.2,0.9999999999999999,0.5235987755982988,-0.5235987755982988,0,0.74090576,-1.366231,0.79238206,0.08279604,-0.45189357,0.738912,-0.46246266,-0.6547013,0.8696095,-1.1461018,0.14114211,-0.8451193,1.448857,-1.9847152
-0.2,-0.2,0.9999999999999999,0.5235987755982988,-0.5235987755982988,0,0.25625345,-1.3712802,0.27911252,0.21043415,-0.053590745,0.6595572,0.04062165,-0.65311813,0.8787933,-1.1498963,0.13996515,-0.8467749,1.4504207,-1.9820364
-0.2,-0.2,0.9999999999999999,0.5235987755982988,-0.5235987755982988,0,1.053536,-1.4689503,1.309086,0.27386564,-0.2866401,0.9390641,-0.19172655,-0.6508107,0.8737513,-1.1437635,0.14157978,-0.8517209,1.4512479,-2.000361
-0.2,-0.2,0.9999999999999999,0.5235987755982988,-0.5235987755982988,0,0.5381101,-1.74313,0.558617,0.31514722,-0.15364587,1.0277922,-0.2503079,-0.6507807,0.86854464,-1.1438153,0.14020158,-0.84558654,1.4530727,-1.992817
-0.2,-0.2,0.9999999999999999,0.5235987755982988,-0.5235987755982988,0,0.20764737,-1.2323153,0.6210499,0.26560938,-0.13551253,0.932945,0.2862382,-0.6556945,0.8732708,-1.1482674,0.14419276,-0.8456358,1.4526337,-1.9673773
-0.2,-0.2,0.9999999999999999,0.5235987755982988,-0.5235987755982988,0,0.22021729,-1.4987757,0.5799293,0.24515146,-0.36790058,0.9720544,-0.6080458,-0.6538108,0.869833,-1.1461998,0.14347653,-0.85067207,1.4500138,-2.0056274
-0.2,-0.2,0.9999999999999999,0.5235987755982988,-0.5235987755982988,0,0.1301506,-1.4238209,1.3171697,0.31865403,-0.016525606,1.5359602,-0.64710915,-0.6514614,0.87153214,-1.146583,0.14324088,-0.8454453,1.4527627,-1.9817185
-0.2,-0.2,0.9999999999999999,0.5235987755982988,-0.5235987755982988,0,0.8866448,-1.2784853,0.82954276,0.23054793,-0.33407226,0.756694,-0.08057248,-0.65625405,0.88868874,-1.1480042,0.13630545,-0.84315044,1.4484315,-1.9794697
-0.2,-0.2,0.9999999999999999,0.5235987755982988,-0.5235987755982988,0,-0.3547374,-1.4419247,0.69184315,0.17648749,-0.14499421,0.9385727,0.14597267,-0.6534544,0.8777079,-1.1452501,0.13926132,-0.8517895,1.450442,-1.9550458
-0.2,-0.2,0.9999999999999999,0.5235987755982988,-0.5235987755982988,0,0.64359194,-1.2423327,-0.10847153,0.26248145,0.060019925,0.43653372,-0.09566754,-0.65365005,0.8681147,-1.1482754,0.14298627,-0.84571767,1.4510509,-1.9759003
-0.2,-0.2,0.9999999999999999,0.5235987755982988,-0.5235987755982988,0,-0.043466408,-1.7795423,1.1332388,0.19409354,-0.050508015,0.19964576,-0.112289466,-0.6532835,0.87209487,-1.1444584,0.14188206,-0.8444431,1.4522945,-1.9631842
-0.2,-0.2,0.9999999999999999,0.5235987755982988,-0.5235987755982988,0,1.7191024,-1.4439026,0.9478782,0.06934116,-0.21534058,1.2794473,-0.3550257,-0.6530969,0.8721745,-1.1465336,0.14273821,-0.85033643,1.4504385,-1.9843713
-0.2,-0.2,0.9999999999999999,0.5235987755982988,-0.5235987755982988,0,-0.20891403,-1.3446097,0.65376604,0.2246773,-0.1256802,0.7625896,-0.17793606,-0.65243644,0.8673686,-1.1449698,0.14038725,-0.84899294,1.4523363,-1.9721682
-0.2,-0.2,0.9999999999999999,0.5235987755982988,-0.5235987755982988,0,-0.24964899,-1.35395,-0.06797269,0.217785,0.13071293,1.1931325,0.0072363378,-0.652233,0.8673122,-1.1482662,0.1404694,-0.84678584,1.4535145,-1.961633
-0.2,-0.2,0.9999999999999999,0.5235987755982988,-0.5235987755982988,0,0.9020514,-1.088951,0.42725065,-0.035951912,-0.08799706,0.8429816,-0.1461179,-0.654546,0.86976177,-1.1449676,0.14186074,-0.84795123,1.4525666,-1.9884003
-0.2,-0.2,0.9999999999999999,0.5235987755982988,-0.5235987755982988,0,0.65872204,-1.2799106,1.0166631,0.15072735,-0.078747354,0.76894957,-0.16839814,-0.6505397,0.87177616,-1.1476064,0.13800444,-0.84553367,1.4545221,-1.9950387
-0.2,-0.2,0.9999999999999999,0.5235987755982988,-0.5235987755982988,0,0.36825943,-1.1182823,0.7965129,0.35205954,-0.3444788,0.8306664,-0.81178886,-0.6513426,0.876484,-1.1411849,0.13958651,-0.85192007,1.4551911,-1.9953623
-0.2,-0.2,0.9999999999999999,0.5235987755982988,-0.5235987755982988,0,1.2111133,-1.5401826,0.6342085,0.3780324,-0.2471792,0.9292018,-0.40355456,-0.65327203,0.8783002,-1.1465833,0.1443291,-0.8517826,1.4521394,-1.9907871
-0.2,-0.2,0.9999999999999999,0.5235987755982988,-0.5235987755982988,0,0.49749967,-1.2706776,0.75605714,0.1340303,0.09623288,1.1153929,-0.8908638,-0.6546486,0.8790305,-1.146438,0.13916981,-0.8485225,1.4499929,-1.9940209
-0.2,-0.2,0.9999999999999999,0.5235987755982988,-0.5235987755982988,0,0.4898937,-0.9240861,0.5123477,0.054751124,-0.11292608,1.1011558,0.015050553,-0.6505755,0.8736102,-1.148707,0.14164963,-0.8467198,1.4517006,-1.9689437
-0.2,-0.2,0.9999999999999999,0.5235987755982988,-0.5235987755982988,0,1.1246293,-1.2756803,0.5353756,0.2524104,-0.1685711,0.7002688,0.024390511,-0.6488352,0.86371017,-1.1444778,0.14110407,-0.8463746,1.4528602,-1.9772489
-0.2,-0.2,0.9999999999999999,0.5235987755982988,-0.5235987755982988,0,1.0969615,-1.216829,0.8159553,0.35006234,0.33168066,1.4897441,-0.2935823,-0.6528824,0.8782793,-1.1468177,0.14463466,-0.8495964,1.4506909,-1.9853342
-0.2,-0.2,0.9999999999999999,0.5235987755982988,-0.5235987755982988,0,1.2418265,-1.5101607,0.91152114,0.24687417,-0.05785821,0.77376056,0.097575754,-0.6552198,0.86756337,-1.1434165,0.14056607,-0.8455263,1.4542683,-1.9850513
-0.2,-0.2,0.9999999999999999,0.5235987755982988,-0.5235987755982988,0,0.6131581,-1.2277379,0.39964774,0.081126995,-0.24752983,1.2319988,0.13082182,-0.65048075,0.8719315,-1.1452588,0.14297692,-0.84861267,1.446634,-1.9828664
-0.2,-0.2,0.9999999999999999,0.5235987755982988,-0.5235987755982988,0,0.5579459,-1.1017747,0.40403748,0.2063561,0.111667946,0.65211254,-0.38725603,-0.65223384,0.87438446,-1.1454033,0.1408608,-0.85021716,1.4544427,-1.9813298
-0.2,-0.2,0.9999999999999999,0.5235987755982988,-0.5235987755982988,0,0.5888228,-1.2772279,0.5453968,0.22961599,0.0044746604,1.1507336,-0.32564148,-0.6530545,0.86688787,-1.1481271,0.14064449,-0.8461631,1.4538627,-1.9708904
-0.2,-0.2,0.9999999999999999,0.5235987755982988,-0.5235987755982988,0,-0.08388153,-1.1564033,0.96846575,-0.011546679,0.27565473,0.69944096,-0.39183167,-0.65244555,0.8746066,-1.143109,0.13945371,-0.8496218,1.4529253,-1.9784856
-0.2,-0.2,0.9999999999999999,0.5235987755982988,-0.5235987755982988,0,0.906854,-1.3429236,0.8999121,0.25312254,-0.40105084,0.5496034,-0.28981507,-0.6538606,0.8760572,-1.1487488,0.14018014,-0.8458789,1.4539366,-2.0104926
-0.2,-0.2,0.9999999999999999,0.5235987755982988,-0.5235987755982988,0,0.34719995,-1.4042199,0.73729587,0.16841327,-0.017236382,1.3647699,-0.50795734,-0.6544338,0.8670596,-1.1492735,0.13951053,-0.84580576,1.4502425,-1.9737476
-0.2,-0.2,0.9999999999999999,0.5235987755982988,-0.5235987755982988,0,0.9716855,-1.5426254,1.2280836,0.21915315,-0.0715533,0.7428039,-0.16976975,-0.6534615,0.87689674,-1.1465471,0.14240311,-0.8492698,1.4548404,-1.9732403
-0.2,-0.2,0.9999999999999999,0.5235987755982988,-0.5235987755982988,0,0.94171834,-1.3051622,0.24544035,0.2824017,-0.2427972,0.8852199,0.4376894,-0.65322876,0.8693184,-1.1471196,0.14027174,-0.8444328,1.4538004,-1.9791777
-0.2,-0.2,0.9999999999999999,0.5235987755982988,-0.5235987755982988,0,0.6240554,-1.4652988,1.1361197,0.058027457,0.058155224,0.44161636,-0.5661708,-0.65201986,0.87207603,-1.1450506,0.13892765,-0.84652686,1.4504551,-1.9796389
-0.2,-0.2,0.9999999999999999,0.5235987755982988,-0.5235987755982988,0,0.11890888,-1.583351,0.6459363,0.18609709,0.053578544,0.34509024,-0.6863142,-0.6522036,0.8698861,-1.1463158,0.14174849,-0.85110164,1.4523824,-1.9726622
-0.2,-0.2,0.9999999999999999,0.5235987755982988,-0.5235987755982988,0,0.820844,-1.7445899,0.27521038,-0.07679275,-0.3404924,1.4857867,-0.22021227,-0.6527836,0.8735201,-1.1448112,0.14027117,-0.84866035,1.4519532,-1.9711448
-0.2,-0.2,0.9999999999999999,0.5235987755982988,-0.5235987755982988,0,0.30021194,-1.4791937,0.51559097,0.28289208,0.32504538,0.9624526,-0.030496644,-0.65314674,0.86801195,-1.1476644,0.1424368,-0.84935296,1.4480511,-1.9926721
-0.2,-0.2,0.9999999999999999,0.5235987755982988,-0.5235987755982988,0,0.5205185,-1.6005728,0.6795925,0.10101846,-0.0028795523,1.1505278,-0.1877408,-0.6516933,0.8716261,-1.1471361,0.14174709,-0.84930474,1.4560753,-1.9732658
-0.2,-0.2,0.9999999999999999,0.5235987755982988,-0.5235987755982988,0,1.1444145,-1.3559124,0.48152676,0.16899286,-0.26464877,0.6071401,-0.40685847,-0.65472895,0.8801824,-1.1444823,0.13950506,-0.84672683,1.4513563,-1.971789
-0.2,-0.2,0.9999999999999999,0.5235987755982988,-0.5235987755982988,0,0.5048273,-1.1887687,1.2321485,0.24958417,0.252917,0.9307656,-0.07757213,-0.6548709,0.8677284,-1.1449319,0.14457431,-0.84508085,1.4535102,-1.9549968
-0.2,-0.2,0.9999999999999999,0.5235987755982988,-0.5235987755982988,0,0.555216,-1.4559228,0.41959414,0.01551776,0.13733687,0.8048035,0.3940627,-0.65207744,0.8699574,-1.1434633,0.14036304,-0.8464641,1.450101,-1.9952174
-0.2,-0.2,0.9999999999999999,0.5235987755982988,-0.5235987755982988,0,0.014075757,-1.191315,0.74268806,0.27518067,-0.34879726,1.1714622,-0.00012797852,-0.6562758,0.8747198,-1.1441035,0.14043711,-0.8465099,1.4535502,-1.9784276
-0.2,-0.2,0.9999999999999999,0.5235987755982988,-0.5235987755982988,0,0.24279961,-1.3734632,1.1394345,0.027485305,-0.37778103,0.6798555,-0.30443475,-0.6535321,0.87504125,-1.1468629,0.14118268,-0.8490306,1.4504294,-1.9973704
-0.2,-0.2,0.9999999999999999,0.5235987755982988,-0.5235987755982988,0,-0.30122015,-1.2443876,0.7600089,0.14074928,-0.00025285574,0.6558392,-0.48156056,-0.6496159,0.87699,-1.1463414,0.14156774,-0.84944934,1.4456568,-2.0019052
-0.2,-0.2,0.9999999999999999,0.5235987755982988,-0.5235987755982988,0,0.6147199,-1.3401645,0.34436908,0.16376045,0.024978492,0.52137446,0.2065631,-0.6519068,0.8724823,-1.1477801,0.14197035,-0.84545046,1.4526136,-1.9910623
-0.2,-0.2,0.9999999999999999,0.5235987755982988,-0.5235987755982988,0,0.6191615,-1.1943675,0.31162843,0.116989456,-0.08115869,0.87115514,-0.5462659,-0.6532769,0.8697295,-1.1480641,0.14252311,-0.8478264,1.4503751,-1.9799654
-0.2,-0.2,0.9999999999999999,0.5235987755982988,-0.5235987755982988,0,0.45713428,-1.6907076,0.7027908,0.0832258,-0.17055753,0.32148343,0.32681277,-0.65338755,0.874613,-1.1421139,0.14198421,-0.8438726,1.4535846,-1.9846231
-0.2,-0.2,0.9999999999999999,0.5235987755982988,-0.5235987755982988,0,0.23233658,-1.2107662,0.53587216,0.20606987,0.22998941,1.1531559,-0.025667947,-0.6549021,0.8755554,-1.1459057,0.14006002,-0.84743065,1.450638,-1.9875268
-0.2,-0.2,0.9999999999999999,0.5235987755982988,-0.5235987755982988,0,-0.13965186,-1.3781497,0.3240923,0.05364066,0.10753204,1.082647,-0.8587483,-0.65345246,0.8623349,-1.1478221,0.1413042,-0.84783936,1.4476857,-1.9716702
-0.2,-0.2,0.9999999999999999,0.5235987755982988,-0.5235987755982988,0,0.35730684,-1.22988,0.9174538,-0.020894257,-0.37495354,0.98162645,-0.5582517,-0.65723187,0.87355167,-1.1454593,0.14177667,-0.8475018,1.4533757,-1.9764651
-0.2,-0.2,0.9999999999999999,0.5235987755982988,-0.5235987755982988,0,0.1743025,-1.4436182,1.0085465,0.20455186,-0.05107568,1.4017309,-0.23440355,-0.6520865,0.8764777,-1.149818,0.13970512,-0.84753054,1.4503466,-1.9857495
-0.2,-0.2,0.9999999999999999,0.5235987755982988,-0.5235987755982988,0,1.5336231,-1.110689,0.41334602,0.26096153,0.014799778,1.1967866,-0.21696085,-0.6521936,0.8704104,-1.1467483,0.14201452,-0.847953,1.4535435,-1.9826251
-0.2,-0.2,0.9999999999999999,0.5235987755982988,-0.5235987755982988,0,0.7639178,-1.2117808,0.9890942,0.39331222,0.03967786,1.1270332,-0.37809068,-0.6519511,0.8850682,-1.1469393,0.13952585,-0.8491375,1.4504746,-1.97377
-0.2,-0.2,0.9999999999999999,0.5235987755982988,-0.5235987755982988,0,-0.028212752,-1.5383568,0.66117686,0.085135385,-0.06837548,0.42931703,0.32339308,-0.65135133,0.878241,-1.1474009,0.13978393,-0.8462786,1.4577043,-1.9831586
-0.2,-0.2,0.9999999999999999,0.5235987755982988,-0.5235987755982988,0,0.3833916,-1.6442292,0.5605375,0.122225344,0.13600259,0.5902336,-0.25067332,-0.6548685,0.8678495,-1.1450394,0.13907628,-0.84348583,1.4535674,-1.990105
-0.2,-0.2,0.9999999999999999,0.5235987755982988,-0.5235987755982988,0,1.3442864,-1.5881082,1.0853976,0.17636427,0.07643523,0.73896164,-0.20667441,-0.6520936,0.87124026,-1.1448258,0.13714148,-0.84600484,1.4525764,-2.0024722
-0.2,-0.2,0.9999999999999999,0.5235987755982988,-0.5235987755982988,0,1.2545649,-1.5365249,0.22412902,0.058308117,0.027016332,0.82258946,-1.0024693,-0.65488076,0.8748997,-1.1450915,0.14263487,-0.84939665,1.4556817,-1.990029
-0.2,-0.2,0.9999999999999999,0.5235987755982988,-0.5235987755982988,0,0.2850912,-1.399743,0.7013344,0.16497095,-0.042982526,1.105566,-0.005398774,-0.65489733,0.8677057,-1.1497399,0.1409418,-0.8472113,1.4524487,-2.0040169
-0.2,-0.2,0.9999999999999999,0.5235987755982988,-0.5235987755982988,0,0.8047472,-1.5088447,0.48573247,0.23446271,0.061032686,1.0137253,-0.5996468,-0.6552694,0.8737459,-1.147351,0.14439431,-0.84928393,1.4552346,-2.0033696
-0.2,-0.2,0.9999999999999999,0.5235987755982988,-0.5235987755982988,0,1.5307955,-1.3628205,0.406319,0.093353696,-0.14819597,0.7940219,-0.30403784,-0.6527564,0.86519414,-1.1438146,0.14273223,-0.851663,1.449808,-2.0021682
-0.2,-0.2,0.9999999999999999,0.5235987755982988,-0.5235987755982988,0,0.67984897,-1.4534017,0.19055273,0.22601658,-0.16459183,0.98311406,-0.6924751,-0.65339476,0.8756715,-1.1483994,0.14081746,-0.8454059,1.4497651,-1.986531
-0.2,-0.2,0.9999999999999999,0.5235987755982988,-0.5235987755982988,0,1.072278,-1.1275392,1.4590242,0.29738328,-0.19371021,0.82987857,-0.10296121,-0.65106815,0.8757063,-1.149894,0.13970637,-0.85284704,1.4525248,-1.992059
-0.2,-0.2,0.9999999999999999,0.5235987755982988,-0.5235987755982988,0,0.69570297,-1.4121382,0.6184565,0.4175159,0.25375655,1.2817152,-0.4193669,-0.6506986,0.8755994,-1.1441584,0.1417236,-0.85056543,1.4535861,-1.9825815
-0.2,-0.2,0.9999999999999999,0.5235987755982988,-0.5235987755982988,0,0.83135957,-1.4832042,0.57033134,0.37619573,0.095893264,0.75812733,-0.8468777,-0.6488866,0.8779373,-1.1445378,0.14113288,-0.84269315,1.4494412,-1.9879498
-0.2,-0.2,0.9999999999999999,0.5235987755982988,-0.5235987755982988,0,0.48377463,-1.5330912,0.66850114,0.23724447,-0.048456293,0.8168997,-0.1579127,-0.6520422,0.8732449,-1.1480944,0.13785632,-0.8478269,1.4530308,-1.9650104
-0.2,-0.2,0.9999999999999999,0.5235987755982988,-0.5235987755982988,0,0.49056852,-1.4112192,-0.0042950828,0.13068028,-0.17776662,0.56059295,0.29780212,-0.65186137,0.8750862,-1.1475391,0.14050816,-0.8454982,1.4512825,-1.9773388
-0.2,-0.2,0.9999999999999999,0.5235987755982988,-0.5235987755982988,0,0.44044757,-1.5197818,0.73091143,0.1679529,-0.07789289,1.2970424,0.08367015,-0.65103245,0.8794646,-1.1472775,0.14158325,-0.8477388,1.4516698,-1.9638809
-0.2,-0.2,0.9999999999999999,0.5235987755982988,-0.5235987755982988,0,-0.2740035,-1.3247447,0.2225163,0.30652627,-0.08484153,0.2179849,0.28893232,-0.65154326,0.87520325,-1.1498287,0.1452213,-0.84919035,1.4545169,-1.9905148
-0.2,-0.2,0.9999999999999999,0.5235987755982988,-0.5235987755982988,0,0.38379872,-1.5656533,1.0439712,0.2643146,-0.033092055,0.72314906,-0.025820386,-0.64978254,0.878944,-1.1433231,0.13886368,-0.84810096,1.4482814,-2.009864
-0.2,-0.2,0.9999999999999999,0.5235987755982988,-0.5235987755982988,0,0.39585558,-1.4655502,0.50172997,0.24478999,-0.025398344,0.7158013,0.5664342,-0.6562821,0.875232,-1.1475638,0.141439,-0.8488322,1.4491767,-1.9869934
-0.2,-0.2,0.9999999999999999,0.5235987755982988,-0.5235987755982988,0,1.1650277,-1.396724,0.53659964,0.115826346,-0.36698306,0.6817312,-0.4194373,-0.65392524,0.8692202,-1.1445553,0.14242025,-0.84723586,1.4489661,-1.9949702
-0.2,-0.2,0.9999999999999999,0.5235987755982988,-0.5235987755982988,0,0.42430022,-1.4542835,1.225225,0.08080155,0.020590112,0.79662776,-0.33326742,-0.65496624,0.86945087,-1.1459057,0.14279467,-0.84774214,1.4528329,-1.9779551
-0.2,-0.2,0.9999999999999999,0.5235987755982988,-0.5235987755982988,0,-0.26451907,-1.6329819,0.7791587,0.09352765,0.113018796,1.2360247,-0.6682988,-0.6526157,0.87446004,-1.1474706,0.14154404,-0.844994,1.449958,-1.9881846
-0.2,-0.2,0.9999999999999999,0.5235987755982988,-0.5235987755982988,0,0.26615208,-1.5568324,0.30370757,0.15980811,0.012745446,0.45065945,-0.007727144,-0.652715,0.8766415,-1.1469316,0.13959093,-0.8460737,1.4536237,-2.0071795
-0.2,-0.2,0.9999999999999999,0.5235987755982988,-0.5235987755982988,0,0.89235646,-1.4584267,1.2912714,0.07669803,0.128257,1.1997994,0.22461756,-0.6549754,0.8784183,-1.1430284,0.14247201,-0.8507509,1.4496713,-1.9795439
-0.2,-0.2,0.9999999999999999,0.5235987755982988,-0.5235987755982988,0,0.057987943,-1.1975458,0.94308466,0.20792146,-0.123225495,0.8307425,-0.30511144,-0.65315914,0.8652196,-1.1456089,0.14207877,-0.8446252,1.4538598,-1.9707117
-0.2,-0.2,0.9999999999999999,0.5235987755982988,-0.5235987755982988,0,0.7131149,-1.3453442,1.2550302,0.15719873,0.08492006,0.19815874,0.034121677,-0.6534006,0.8742129,-1.1445096,0.14207701,-0.84889895,1.454117,-1.9745429
-0.2,-0.2,0.9999999999999999,0.5235987755982988,-0.5235987755982988,0,0.77943254,-1.3577883,1.2223735,0.19961575,-0.20322168,0.7778053,-0.60209024,-0.65233713,0.87434673,-1.1452277,0.14145745,-0.84977573,1.4504929,-2.003748
-0.2,-0.2,0.9999999999999999,0.5235987755982988,-0.5235987755982988,0,0.67205155,-1.5247027,0.99634486,0.21960278,0.09073433,0.95776284,-1.2410839,-0.6547393,0.87463087,-1.145752,0.13755266,-0.8451149,1.4505476,-1.9790572
-0.2,-0.2,0.9999999999999999,0.5235987755982988,-0.5235987755982988,0,-0.27837932,-1.5537854,0.74663264,0.35536405,0.34446976,1.0997483,-0.6804224,-0.6554119,0.8741151,-1.1477435,0.142063,-0.8465698,1.4540642,-1.9817001
-0.2,-0.2,0.9999999999999999,0.5235987755982988,-0.5235987755982988,0,-0.48922232,-1.5598963,1.0915505,0.3550587,0.07071906,0.55953985,0.15590475,-0.6537237,0.877029,-1.1450537,0.14214641,-0.8471929,1.4488977,-1.9777634
-0.2,-0.2,0.9999999999999999,0.5235987755982988,-0.5235987755982988,0,0.06541091,-1.2830815,0.57844985,0.23975079,0.13932014,0.9853317,-0.10636983,-0.65488726,0.8635375,-1.1446713,0.14277112,-0.84574157,1.455508,-1.9806237
-0.2,-0.2,0.9999999999999999,0.5235987755982988,-0.5235987755982988,0,0.33988667,-1.3528838,0.5197782,0.3341078,-0.36365515,0.725741,-0.77433455,-0.6524442,0.8748314,-1.1448205,0.14207391,-0.8453918,1.455128,-2.0100763
-0.2,-0.2,0.9999999999999999,0.5235987755982988,-0.5235987755982988,0,1.3947462,-1.2254192,0.32688376,0.19812086,-0.13938998,0.86128426,-0.41697207,-0.6553277,0.8798168,-1.144607,0.14027812,-0.84931844,1.4496623,-1.9520789
-0.2,-0.2,0.9999999999999999,0.5235987755982988,-0.5235987755982988,0,0.2823922,-1.3602719,0.6713868,0.15366326,-0.10131605,0.8289947,-0.7903918,-0.6563614,0.86440516,-1.1452032,0.14087357,-0.85113674,1.4523153,-1.972062
-0.2,-0.2,0.9999999999999999,0.5235987755982988,-0.5235987755982988,0,-0.024210177,-1.4796841,0.5854988,0.11702299,-0.34147644,0.9014048,-0.064548306,-0.6552985,0.875011,-1.1472973,0.14319156,-0.848379,1.4502788,-1.972777
-0.2,-0.2,0.9999999999999999,0.5235987755982988,-0.5235987755982988,0,0.67647296,-1.5403893,0.23486711,0.18119763,-0.2491561,1.2790186,0.14477694,-0.654803,0.8796498,-1.1466544,0.14128721,-0.85051626,1.4469796,-1.9772618
-0.2,-0.2,0.9999999999999999,0.5235987755982988,-0.5235987755982988,0,0.6178821,-1.415272,1.2775575,0.23204991,-0.14019574,0.82494295,0.0036991185,-0.6560359,0.87935543,-1.143137,0.14047474,-0.84533525,1.4502273,-1.992144
-0.2,-0.2,0.9999999999999999,0.5235987755982988,-0.5235987755982988,0,1.2103055,-1.3443438,1.1758832,0.073487334,-0.029763883,1.1379081,-0.25288734,-0.6508538,0.8711349,-1.1455601,0.1446119,-0.8498906,1.4521203,-1.9815764
-0.2,-0.2,0.9999999999999999,0.5235987755982988,-0.5235987755982988,0,0.43140772,-1.2974607,0.82477206,0.33266145,0.09437732,1.3990312,-0.42055112,-0.65395474,0.87567216,-1.1419923,0.14288497,-0.8476594,1.4499792,-1.9923213
-0.2,-0.2,0.9999999999999999,0.5235987755982988,-0.5235987755982988,0,0.7724461,-1.3706464,0.5367156,0.1868553,0.12645052,0.88822716,0.02925808,-0.6451466,0.87815726,-1.1505775,0.14134438,-0.8467957,1.4471549,-1.9780728
-0.2,-0.2,0.9999999999999999,0.5235987755982988,-0.5235987755982988,0,1.0545887,-1.9039584,-0.26947197,0.2686265,-0.13844404,0.83547944,0.019006012,-0.6509529,0.8672536,-1.1444426,0.14314625,-0.8482873,1.4511199,-1.988037
-0.2,-0.2,0.9999999999999999,0.5235987755982988,-0.5235987755982988,0,0.14237384,-1.3630354,0.9835551,0.21203047,-0.08840012,0.8037877,-0.36474717,-0.65507555,0.8690752,-1.1463071,0.14221479,-0.84563154,1.4466398,-1.9834439
-0.2,-0.2,0.9999999999999999,0.5235987755982988,-0.5235987755982988,0,1.1745989,-1.3509208,0.35244903,0.119634196,0.3184256,0.9431682,-0.8048513,-0.65244657,0.8776707,-1.1490754,0.1440475,-0.8463818,1.4493878,-1.9812171
-0.2,-0.2,0.9999999999999999,0.5235987755982988,-0.5235987755982988,0,0.44009873,-1.6173418,0.019338163,-0.0077896784,-0.04472679,0.6297205,-0.51385415,-0.6535461,0.87524015,-1.1448473,0.1426717,-0.8484601,1.4483068,-1.9872212
-0.2,-0.2,0.9999999999999999,0.5235987755982988,-0.5235987755982988,0,0.9296742,-1.709262,0.3522299,0.34937102,-0.02777869,0.80109614,-0.8627014,-0.65254545,0.8737272,-1.1475996,0.14214027,-0.845694,1.4527385,-1.98344
-0.2,-0.2,0.9999999999999999,0.5235987755982988,-0.5235987755982988,0,0.92323166,-1.4236383,1.0671432,0.2893357,-0.3429248,0.7604473,-0.012288561,-0.6508611,0.8771186,-1.1451865,0.13988478,-0.84943604,1.4557942,-1.9886009
-0.2,-0.2,0.9999999999999999,0.5235987755982988,-0.5235987755982988,0,0.5007603,-1.3913711,0.0005837773,0.19231513,-0.015137261,1.0807037,-1.2982669,-0.65283954,0.8759149,-1.1464494,0.1397557,-0.84448117,1.4476801,-2.0215797
-0.2,-0.2,0.9999999999999999,0.5235987755982988,-0.5235987755982988,0,1.0196298,-1.5873241,0.32223973,0.23987164,0.0750338,1.053345,0.1007294,-0.6531402,0.87988436,-1.1462463,0.14173004,-0.84744704,1.4562293,-1.984706
-0.2,-0.2,0.9999999999999999,0.5235987755982988,-0.5235987755982988,0,-0.1153054,-1.3459846,0.47715744,0.11670662,-0.028326008,0.062820934,-0.12285931,-0.6563062,0.8741684,-1.141557,0.14231317,-0.84346646,1.4501811,-1.9869691
-0.2,-0.2,0.9999999999999999,0.5235987755982988,-0.5235987755982988,0,0.61560833,-1.4470565,1.157515,0.14686303,-0.09953784,1.1671476,0.8174953,-0.6512786,0.8684321,-1.1454757,0.14132367,-0.8472882,1.452578,-1.982928
-0.2,-0.2,0.9999999999999999,0.5235987755982988,-0.5235987755982988,0,1.3821719,-1.5652306,0.30796078,0.105825864,0.19871654,0.85724056,-0.20402773,-0.65364474,0.8737192,-1.1446376,0.1430047,-0.8494007,1.4501902,-2.0000522
-0.2,-0.2,0.9999999999999999,0.5235987755982988,-0.5235987755982988,0,0.65766126,-1.613523,0.10139089,0.2476862,-0.08978916,0.95601165,-0.7491304,-0.6491525,0.8767377,-1.1481146,0.13979281,-0.8484154,1.4522392,-1.9933181
-0.2,-0.2,0.9999999999999999,0.5235987755982988,-0.5235987755982988,0,-0.3264743,-1.5503285,1.0804235,0.08283897,-0.22414666,0.630468,-0.2636013,-0.6516428,0.87524766,-1.1439193,0.13961063,-0.84598106,1.4509468,-1.9846371
-0.2,-0.2,0.9999999999999999,0.5235987755982988,-0.5235987755982988,0,0.549622,-1.7210606,-0.068823956,0.12191375,-0.011873868,0.4813782,-0.62624395,-0.65370136,0.8750349,-1.1457105,0.1438021,-0.8472408,1.4462717,-1.9704561
-0.2,-0.2,0.9999999999999999,0.5235987755982988,-0.5235987755982988,0,0.61707056,-1.3030864,0.2797179,0.110195994,-0.16887112,0.8021956,-0.52070385,-0.65339065,0.87825084,-1.1486764,0.14265409,-0.8478382,1.4482484,-1.9726837
-0.2,-0.2,0.9999999999999999,0.5235987755982988,-0.5235987755982988,0,0.5879227,-1.6235564,1.5620911,0.10633258,-0.43863502,1.0608513,-0.40314403,-0.65308195,0.86966693,-1.1471107,0.1406302,-0.8477505,1.4492944,-1.9806756
-0.2,-0.2,0.9999999999999999,0.5235987755982988,-0.5235987755982988,0,0.16929738,-1.402988,0.56888586,-0.01173305,0.054561164,1.1465656,-0.5998909,-0.6504354,0.86739147,-1.1434381,0.1445264,-0.84746003,1.4504734,-1.9792005
-0.2,-0.2,0.9999999999999999,0.5235987755982988,-0.5235987755982988,0,1.2510062,-1.5209445,0.6939049,0.103262514,-0.13533787,0.9761145,-0.11556967,-0.6534833,0.8787329,-1.1466401,0.14026079,-0.8495206,1.4528358,-2.012362
-0.2,-0.2,0.9999999999999999,0.5235987755982988,-0.5235987755982988,0,0.767276,-1.6873723,0.8685537,0.26402757,0.015604311,0.8880783,-0.34573886,-0.65222204,0.86806273,-1.1445669,0.14015646,-0.847048,1.4534923,-1.9919289
-0.2,-0.2,0.9999999999999999,0.5235987755982988,-0.5235987755982988,0,-0.3216552,-1.6090413,0.14989018,0.20727937,0.30454233,0.9657134,0.04423,-0.65309453,0.8705043,-1.1451694,0.14479685,-0.8468586,1.4503533,-1.9981136
-0.2,-0.2,0.9999999999999999,0.5235987755982988,-0.5235987755982988,0,0.8140628,-1.5578969,0.6045453,0.26245788,-0.02524911,0.29937768,-0.14667092,-0.6549463,0.870642,-1.144919,0.14326884,-0.8480481,1.4505236,-2.001901
-0.2,-0.2,0.9999999999999999,0.5235987755982988,-0.5235987755982988,0,2.0077517,-1.5259197,0.37224013,0.23150556,-0.3642184,1.0500395,-0.29511908,-0.6534677,0.87898386,-1.1473688,0.14040263,-0.84582424,1.452053,-1.9863998
-0.2,-0.2,0.9999999999999999,0.5235987755982988,-0.5235987755982988,0,0.3617305,-1.2919279,1.173508,0.269398,-0.16212331,0.39964235,-0.55832833,-0.6547971,0.8719846,-1.1498517,0.14136106,-0.8504496,1.4531691,-1.9694248
-0.2,-0.2,0.9999999999999999,0.5235987755982988,-0.5235987755982988,0,-1.2250123,-1.2648143,0.35876504,0.22279966,-0.03097807,0.49269766,0.08104003,-0.649839,0.8736184,-1.1417297,0.14218268,-0.8489382,1.4507842,-1.9734852
-0.2,-0.2,0.9999999999999999,0.5235987755982988,-0.5235987755982988,0,0.95294434,-1.6618961,0.23200655,0.12454294,0.03254937,0.82171154,-0.10949212,-0.6540721,0.8818758,-1.1445601,0.13971688,-0.84719586,1.4489578,-1.9719565
-0.2,-0.2,0.9999999999999999,0.5235987755982988,-0.5235987755982988,0,0.94363093,-1.6141508,1.1745579,0.06300293,0.21455976,0.60762644,-0.55038136,-0.65134877,0.88152593,-1.1449448,0.14294527,-0.84832835,1.446332,-1.9757314
-0.2,-0.2,0.9999999999999999,0.5235987755982988,-0.5235987755982988,0,0.3906271,-1.301012,0.7155079,0.4767278,0.15056257,0.8879775,-0.08118186,-0.65405,0.8747865,-1.1467873,0.14146352,-0.85077125,1.4491936,-1.9751983
-0.2,-0.2,0.9999999999999999,0.5235987755982988,-0.5235987755982988,0,0.39007336,-1.4891151,0.75412726,0.1131755,0.0012922077,0.87228274,-0.003192012,-0.6503228,0.8745345,-1.1451756,0.14014752,-0.8470567,1.4556185,-1.9568758
-0.2,-0.2,0.9999999999999999,0.5235987755982988,-0.5235987755982988,0,0.74490553,-1.3869491,0.5835004,0.18784942,0.23122093,0.67804956,0.81516415,-0.6565961,0.87667024,-1.1433338,0.13835435,-0.8451407,1.453592,-1.9895527
-0.2,-0.2,0.9999999999999999,0.5235987755982988,-0.5235987755982988,0,1.265957,-1.4217172,0.37818754,0.07505324,-0.17149512,0.99082655,-0.00866954,-0.6553779,0.87030953,-1.1467469,0.14297178,-0.8471313,1.4516749,-2.0118732
-0.2,-0.2,0.9999999999999999,0.5235987755982988,-0.5235987755982988,0,0.70133287,-1.4058121,0.3119625,0.32103047,-0.11322533,0.7148015,-0.50912464,-0.6489569,0.8760881,-1.1467924,0.14223811,-0.8511947,1.4505346,-1.9845334
-0.2,-0.2,0.9999999999999999,0.5235987755982988,-0.5235987755982988,0,-0.032211564,-1.5536141,0.16469713,0.07894317,-0.09670264,0.80680406,0.040347237,-0.65420026,0.8747516,-1.1469209,0.14148799,-0.84236246,1.453354,-1.9789903
-0.2,-0.2,0.9999999999999999,0.5235987755982988,-0.5235987755982988,0,0.78535277,-1.4319602,0.46014428,0.24463381,-0.040784817,1.0581056,-0.49399614,-0.65209705,0.8745088,-1.1497053,0.14351635,-0.8474487,1.4536937,-1.9641807
-0.2,-0.2,0.9999999999999999,0.5235987755982988,-0.5235987755982988,0,-0.29553983,-1.3280932,-0.08417719,0.08757812,-0.20828784,0.65227664,-0.0494404,-0.6557783,0.86978716,-1.1407143,0.14228325,-0.8441238,1.4503999,-1.979283
-0.2,-0.2,0.9999999999999999,0.5235987755982988,-0.5235987755982988,0,-0.07148278,-1.416344,0.51209813,0.24191512,0.038911328,0.69811815,-0.38541952,-0.6541582,0.8704153,-1.1446003,0.14479047,-0.8445508,1.448847,-1.9943231
-0.2,-0.2,0.9999999999999999,0.5235987755982988,-0.5235987755982988,0,-0.54242516,-1.5725477,0.03806835,0.23231003,0.19053195,1.002363,0.13091095,-0.65026134,0.8728211,-1.1449986,0.14316717,-0.84408605,1.4529457,-2.0143285
-0.2,-0.2,0.9999999999999999,0.5235987755982988,-0.5235987755982988,0,1.751827,-1.5048527,1.0693274,0.28114757,0.18181163,0.779531,-0.19417289,-0.65596414,0.87724495,-1.1468471,0.14182791,-0.84602576,1.4562043,-1.9809892
-0.2,-0.2,0.9999999999999999,0.5235987755982988,-0.5235987755982988,0,1.2999637,-1.3267138,0.4984015,0.2324549,-0.20590916,0.81421167,0.34948924,-0.65719336,0.87614715,-1.1480271,0.14079931,-0.84942174,1.4521072,-1.9875424
-0.2,-0.2,0.9999999999999999,0.5235987755982988,-0.5235987755982988,0,0.19733988,-1.4989969,0.8884721,0.15561847,-0.07816802,1.1447904,0.21539639,-0.6542672,0.87363285,-1.1459217,0.13889365,-0.8451159,1.4528341,-1.9942664
-0.2,-0.2,0.9999999999999999,0.5235987755982988,-0.5235987755982988,0,0.15040962,-1.7545937,1.2243677,0.089212865,0.21283452,0.97924846,-0.0070322324,-0.6519476,0.87772936,-1.146232,0.14104992,-0.84458005,1.4507756,-2.0116816
-0.2,-0.2,0.9999999999999999,0.5235987755982988,-0.5235987755982988,0,0.09079122,-1.4594735,-0.032276098,0.114919506,-0.058761273,0.6880921,-0.41006774,-0.6540543,0.8776533,-1.1471244,0.1426331,-0.84401304,1.4524812,-1.9719704
-0.2,-0.2,0.9999999999999999,0.5235987755982988,-0.5235987755982988,0,-0.2729282,-1.5014998,-0.25650147,0.08293786,0.0045307823,1.0186272,-0.23882039,-0.65164757,0.86254174,-1.1466988,0.14219303,-0.84490556,1.4507065,-1.9667889
-0.2,-0.2,0.9999999999999999,0.5235987755982988,-0.5235987755982988,0,0.20578602,-1.8305997,0.52445555,0.1573848,-0.4072319,0.8464918,-0.34990785,-0.6550763,0.8816765,-1.148191,0.14127116,-0.8471686,1.4503632,-2.0031276
-0.2,-0.2,0.9999999999999999,0.5235987755982988,-0.5235987755982988,0,-0.18429084,-1.5059474,0.6314812,0.23519401,-0.1552412,0.95032835,-0.35823128,-0.65029293,0.87115276,-1.144459,0.14410944,-0.8479369,1.4524398,-1.983185
-0.2,-0.2,0.9999999999999999,0.5235987755982988,-0.5235987755982988,0,1.0915959,-1.7365394,1.0346735,0.13727373,-0.047253054,0.62076354,-0.4357407,-0.6495729,0.86833096,-1.1474034,0.14017856,-0.849856,1.4494389,-1.9964577
-0.2,-0.2,0.9999999999999999,0.5235987755982988,-0.5235987755982988,0,0.7085438,-1.3395915,-0.014165879,0.22637731,-0.040412437,0.80299395,-0.14010909,-0.6532042,0.87179786,-1.1481303,0.13904347,-0.8467851,1.4565299,-1.9779838
-0.2,-0.2,0.9999999999999999,0.5235987755982988,-0.5235987755982988,0,1.4120733,-1.6847672,0.25732413,0.1919116,-0.06005211,1.4488943,-0.8137879,-0.6539277,0.87545013,-1.148297,0.14127617,-0.8458826,1.4527211,-1.9758317
-0.2,-0.2,0.9999999999999999,0.5235987755982988,-0.5235987755982988,0,0.3420548,-1.4509156,1.3252205,0.25255474,-0.30278265,0.9831497,-0.047770478,-0.65458864,0.87504786,-1.1456327,0.141192,-0.8493536,1.4500495,-1.99656
-0.2,-0.2,0.9999999999999999,0.5235987755982988,-0.5235987755982988,0,1.4648631,-1.3957366,0.5819707,0.22011054,-0.09313469,0.34813228,-0.21903129,-0.6528835,0.86722183,-1.1461487,0.14385398,-0.8438907,1.4474441,-1.9603549
-0.2,-0.2,0.9999999999999999,0.5235987755982988,-0.5235987755982988,0,0.82036847,-1.2668849,0.48460662,0.037280217,0.06258561,0.43573412,-0.6679101,-0.64915544,0.86860245,-1.1455945,0.14203103,-0.8464812,1.4521174,-1.9975685
-0.2,-0.2,0.9999999999999999,0.5235987755982988,-0.5235987755982988,0,0.80515337,-1.2482722,0.8471769,0.15123579,-0.11674308,0.41998965,-0.20579986,-0.65261436,0.8788558,-1.1466872,0.14062548,-0.84825885,1.452064,-1.9708732
-0.2,-0.2,0.9999999999999999,0.5235987755982988,-0.5235987755982988,0,0.66426796,-1.3955997,1.2802941,0.18169191,-0.12520486,0.7035005,-0.25706747,-0.6512699,0.87221146,-1.1479989,0.14162447,-0.8457021,1.4516925,-2.003626
-0.2,-0.2,0.9999999999999999,0.5235987755982988,-0.5235987755982988,0,0.7181841,-1.4239091,0.63685507,0.18519689,0.15526785,0.8361059,0.1497536,-0.65162665,0.8763468,-1.1453391,0.1425942,-0.84554625,1.4517386,-1.999779
-0.2,-0.2,0.9999999999999999,0.5235987755982988,-0.5235987755982988,0,0.5447237,-1.316778,0.6738866,0.32889444,-0.33998376,0.6080284,-0.7419692,-0.65312815,0.87496203,-1.145394,0.14259148,-0.8534659,1.4529475,-1.9891661
-0.2,-0.2,0.9999999999999999,0.5235987755982988,-0.5235987755982988,0,0.37213057,-1.2872447,0.7893642,0.021372488,-0.08813196,0.22679006,-0.5767326,-0.65220815,0.8756827,-1.149276,0.14622343,-0.8502905,1.4493725,-1.947578
-0.2,-0.2,0.9999999999999999,0.5235987755982988,-0.5235987755982988,0,0.7738873,-1.2392608,0.57732695,0.36670858,-0.45117548,0.7511124,-0.7408229,-0.6503512,0.8714463,-1.1457351,0.14251572,-0.8473734,1.4520522,-1.9748415
-0.2,-0.2,0.9999999999999999,0.5235987755982988,-0.5235987755982988,0,0.6676878,-1.3759912,0.77939034,0.13709655,0.095387265,1.0286,-0.17637055,-0.6537098,0.8690244,-1.1437558,0.14345586,-0.84756076,1.4543111,-1.9704876
-0.2,-0.2,0.9999999999999999,0.5235987755982988,-0.5235987755982988,0,1.0317138,-1.249873,0.3274245,0.1492818,-0.014207456,0.69716066,-0.3020164,-0.65530515,0.8757824,-1.1503886,0.1444016,-0.8470536,1.4543998,-1.9871818
-0.2,-0.2,0.9999999999999999,0.5235987755982988,-0.5235987755982988,0,1.0094336,-1.3004683,0.6562853,0.14998835,-0.020949226,0.39552644,-0.06815912,-0.6544225,0.87115186,-1.1442027,0.13928957,-0.84740686,1.4556762,-2.0085673
-0.2,-0.2,0.9999999999999999,0.5235987755982988,-0.5235987755982988,0,0.20208316,-1.075846,0.44232857,0.3394928,0.26320523,0.69578946,-0.23836449,-0.6539634,0.86855006,-1.1474428,0.14308938,-0.8512887,1.4535288,-1.9817272
-0.2,-0.2,0.9999999999999999,0.5235987755982988,-0.5235987755982988,0,0.9205112,-1.2890295,0.47982675,0.06299227,0.09502755,0.42122278,-0.2550635,-0.65247786,0.8739124,-1.1455321,0.14216809,-0.8425687,1.4532729,-1.9767989
-0.2,-0.2,0.9999999999999999,0.5235987755982988,-0.5235987755982988,0,-0.044001568,-1.238519,0.15753782,0.11141659,0.015332447,0.92404896,-0.7050914,-0.65534645,0.8730872,-1.1466223,0.14236556,-0.8469494,1.4517338,-1.948943
-0.2,-0.2,0.9999999999999999,0.5235987755982988,-0.5235987755982988,0,-0.09783958,-1.2165644,0.64737105,0.11101588,0.09073125,0.84909046,0.01731048,-0.6519428,0.8659682,-1.1482179,0.142504,-0.84494936,1.454351,-1.9875478
-0.2,-0.2,0.9999999999999999,0.5235987755982988,-0.5235987755982988,0,-0.22230276,-1.2516611,-0.32026196,0.26934582,0.030724343,0.8152737,-0.0779878,-0.6522222,0.86628956,-1.1471328,0.14120868,-0.84784997,1.4528389,-1.9623486
-0.2,-0.2,0.9999999999999999,0.5235987755982988,-0.5235987755982988,0,1.3162061,-1.3032576,0.2909018,0.116050296,0.082088836,0.4427528,-0.90657663,-0.65254074,0.86790425,-1.1469179,0.1415455,-0.8457668,1.4548153,-1.9875866
-0.2,-0.2,0.9999999999999999,0.5235987755982988,-0.5235987755982988,0,0.2912846,-1.3374088,0.22145754,0.24802159,-0.027096434,0.44207242,-0.5748968,-0.65202355,0.8746418,-1.1445915,0.14121412,-0.8479964,1.452602,-1.9689155
-0.2,-0.2,0.9999999999999999,0.5235987755982988,-0.5235987755982988,0,0.671,-1.6732186,1.1520569,0.40679362,-0.21200733,1.1312912,-0.56793416,-0.65337086,0.8715134,-1.143587,0.14371741,-0.8460265,1.4494499,-1.9921117
-0.2,-0.2,0.9999999999999999,0.5235987755982988,-0.5235987755982988,0,0.08147807,-1.370138,0.79386806,0.10109886,-0.1561618,0.37761086,0.028847195,-0.6511992,0.875441,-1.1468892,0.14152554,-0.84845215,1.4520493,-1.9938049
-0.2,-0.2,0.9999999999999999,0.5235987755982988,-0.5235987755982988,0,0.98621744,-1.2979016,0.9955209,0.11821887,0.038196698,0.83477074,-0.06987942,-0.65612185,0.87337995,-1.1480935,0.1409565,-0.8514098,1.455905,-1.958617
-0.2,-0.2,0.9999999999999999,0.5235987755982988,-0.5235987755982988,0,0.6598387,-1.6332593,0.22334445,-0.060322754,-0.061973844,0.3242978,0.10457267,-0.65341926,0.8656227,-1.1445401,0.14274378,-0.8496091,1.4544792,-1.9778453
-0.2,-0.2,0.9999999999999999,0.5235987755982988,-0.5235987755982988,0,1.7439349,-1.5102657,1.6752275,0.25485647,-0.23316607,0.46816155,-0.1223434,-0.6517488,0.874393,-1.1451906,0.14218767,-0.84701794,1.451594,-1.9562193
-0.2,-0.2,0.9999999999999999,0.5235987755982988,-0.5235987755982988,0,0.57401496,-1.5831844,0.8554112,0.31349096,0.17750354,0.73071986,0.5218547,-0.65153205,0.8742819,-1.1458611,0.14231794,-0.84791964,1.4506911,-1.9758568
-0.2,-0.2,0.9999999999999999,0.5235987755982988,-0.5235987755982988,0,0.48007557,-1.2750499,0.9012313,0.1920919,-0.2261614,0.4014705,-0.02858119,-0.65181434,0.8747612,-1.1454929,0.14012973,-0.84783506,1.451661,-1.9874827
-0.2,-0.2,0.9999999999999999,0.5235987755982988,-0.5235987755982988,0,0.25010565,-1.4310656,1.3328078,-0.059919816,0.2497668,0.3436867,0.028076215,-0.6536522,0.8695619,-1.1440922,0.143877,-0.85234725,1.4554396,-2.0120485
-0.2,-0.2,0.9999999999999999,0.5235987755982988,-0.5235987755982988,0,0.026303815,-1.2328781,0.59487706,0.21913779,-0.060224753,1.058863,0.081940256,-0.6532442,0.8797689,-1.148207,0.14237979,-0.8482296,1.4541097,-2.008578
-0.2,-0.2,0.9999999999999999,0.5235987755982988,-0.5235987755982988,0,0.6076765,-1.2818192,0.27081695,0.14090194,0.08778179,0.54636294,-0.10600341,-0.65361196,0.8694218,-1.1462824,0.14187357,-0.84804523,1.4530982,-1.9714235
-0.2,-0.2,0.9999999999999999,0.5235987755982988,-0.5235987755982988,0,0.044269446,-1.7521158,0.51245433,0.17615916,-0.12658623,1.1733228,-0.12300899,-0.6528038,0.8663094,-1.1446346,0.13859664,-0.8447807,1.4522474,-2.0167093
-0.2,-0.2,0.9999999999999999,0.5235987755982988,-0.5235987755982988,0,0.7311264,-1.3594313,0.7160081,0.25931814,-0.32403773,1.3917323,0.19381198,-0.6528838,0.8715055,-1.1448375,0.1412666,-0.84555626,1.4527819,-1.9894643
-0.2,-0.2,0.9999999999999999,0.5235987755982988,-0.5235987755982988,0,0.9749455,-1.3644966,0.18768096,0.16964689,-0.089636676,1.0774444,-0.20997584,-0.65426385,0.8663194,-1.1449699,0.14261064,-0.84411323,1.4536649,-1.9943556
-0.2,-0.2,0.9999999999999999,0.5235987755982988,-0.5235987755982988,0,0.7719591,-1.0267087,-0.08503262,0.13606635,-0.059466816,0.886043,-0.19801243,-0.6511073,0.868863,-1.1413517,0.14058232,-0.85053056,1.4526522,-1.964692
-0.2,-0.2,0.9999999999999999,0.5235987755982988,-0.5235987755982988,0,1.0073986,-1.1633979,0.8692958,0.20611182,0.15363918,0.73142457,-0.2081166,-0.6550665,0.88051677,-1.1440678,0.14294857,-0.8480108,1.4513155,-1.9799211
-0.2,-0.2,0.9999999999999999,0.5235987755982988,-0.5235987755982988,0,0.889559,-1.1938119,0.30037796,0.19478106,-0.101229735,1.033827,-0.012379007,-0.6543293,0.87093055,-1.1446201,0.14020237,-0.84576786,1.4502897,-1.9620392
-0.2,-0.2,0.9999999999999999,0.5235987755982988,-0.5235987755982988,0,-0.1402694,-1.344265,1.4266043,0.15296765,-0.27241194,0.5943388,0.06219403,-0.65072954,0.8796415,-1.1476917,0.13920574,-0.85136473,1.454803,-1.9628197
-0.2,-0.2,0.9999999999999999,0.5235987755982988,-0.5235987755982988,0,0.9209094,-0.88930106,0.4335822,0.21092975,0.18984151,0.09854704,-1.0092282,-0.6526552,0.8760523,-1.1468422,0.1388105,-0.8489931,1.449749,-1.9789159
-0.2,-0.2,0.9999999999999999,0.5235987755982988,-0.5235987755982988,0,0.84641784,-1.367147,0.82780933,0.23764887,0.124607235,1.0567777,-0.5954766,-0.65328836,0.8778334,-1.1470952,0.13832864,-0.84722364,1.456599,-1.9871902
-0.2,-0.2,0.9999999999999999,0.5235987755982988,-0.5235987755982988,0,0.6326099,-1.2596805,-0.8071865,0.3338783,0.17871097,0.7505653,0.0800861,-0.65611374,0.87993467,-1.1478076,0.13905431,-0.85252005,1.4521141,-1.9708335
-0.2,-0.2,0.9999999999999999,0.5235987755982988,-0.5235987755982988,0,0.8028497,-1.5525534,0.8795805,0.19877525,0.17930593,1.0249779,-0.12931632,-0.6542282,0.8722808,-1.145179,0.14185564,-0.85067886,1.4558954,-1.9721984
-0.2,-0.2,0.9999999999999999,0.5235987755982988,-0.5235987755982988,0,0.72574526,-1.0207487,0.52661157,0.22603358,0.12904508,1.4184332,0.06647915,-0.6529165,0.8747069,-1.1459113,0.14142896,-0.8472655,1.4538232,-1.9787003
-0.2,-0.2,0.9999999999999999,0.5235987755982988,-0.5235987755982988,0,0.84324193,-1.2950944,0.56438595,0.2040738,-0.4536007,0.7449775,-0.13240993,-0.6562807,0.8746505,-1.1436765,0.14079228,-0.84406036,1.4516155,-2.0135942
-0.2,-0.2,0.9999999999999999,0.5235987755982988,-0.5235987755982988,0,0.59087396,-1.2540226,0.5605026,0.17137466,-0.41998833,0.4781268,0.22782756,-0.6535905,0.87296116,-1.1464343,0.14111376,-0.8471177,1.4505469,-1.9988257
-0.2,-0.2,0.9999999999999999,0.5235987755982988,-0.5235987755982988,0,1.0403392,-1.3342565,0.018063258,0.25574273,-0.022698037,0.55356336,-0.13456552,-0.6558848,0.8724041,-1.1434959,0.14113712,-0.8507224,1.457808,-1.9970878
-0.2,-0.2,0.9999999999999999,0.5235987755982988,-0.5235987755982988,0,1.2730566,-0.9673783,1.2369778,0.23526745,0.20130806,0.4993137,0.28376386,-0.6546186,0.8656123,-1.1480079,0.14205138,-0.84718174,1.4550596,-2.00204
-0.2,-0.2,0.9999999999999999,0.5235987755982988,-0.5235987755982988,0,-0.43017593,-1.2615967,0.06251967,-0.025592783,-0.073750585,0.7700532,-0.3231714,-0.65324813,0.87718314,-1.1454546,0.1413415,-0.84631807,1.4540746,-1.9962989
-0.2,-0.2,0.9999999999999999,0.5235987755982988,-0.5235987755982988,0,-0.50484943,-1.3763283,0.101480275,0.11543238,-0.2765505,1.0746356,-0.42738992,-0.65307945,0.87360597,-1.146344,0.1412496,-0.84491336,1.4522008,-1.9779159
-0.2,-0.2,0.9999999999999999,0.5235987755982988,-0.5235987755982988,0,-0.06890872,-1.1861824,0.69594455,0.20786354,-0.015500771,1.4065945,-0.3547359,-0.6522282,0.8763332,-1.1448843,0.14303896,-0.8450047,1.451383,-1.985821
-0.2,-0.2,0.9999999999999999,0.5235987755982988,-0.5235987755982988,0,0.0015122537,-1.3770646,0.68681794,0.39969876,0.061545733,0.5479504,-0.51838523,-0.65528536,0.8764694,-1.144758,0.14244933,-0.84542966,1.449782,-2.0218818
-0.2,-0.2,0.9999999999999999,0.5235987755982988,-0.5235987755982988,0,0.87221164,-1.0955372,-0.25932112,0.18831831,-0.5253925,0.31430677,0.29411846,-0.6522728,0.87124336,-1.1440083,0.14336097,-0.8467105,1.4543666,-1.9709615
-0.2,-0.2,0.9999999999999999,0.5235987755982988,-0.5235987755982988,0,0.18880765,-1.0731568,1.5469781,0.27541643,0.04612979,0.48821685,-0.263113,-0.6514749,0.86526704,-1.1479391,0.14007728,-0.8472892,1.4519151,-1.9682764
-0.2,-0.2,0.9999999999999999,0.5235987755982988,-0.5235987755982988,0,0.2869386,-1.5899543,1.1457592,0.20729943,-0.10973672,0.87609226,-0.09362121,-0.65322375,0.88042855,-1.1468564,0.14136109,-0.8470298,1.4554114,-1.993601
-0.2,-0.2,0.9999999999999999,0.5235987755982988,-0.5235987755982988,0,0.096414715,-1.3759881,-0.34065977,0.10589161,0.09921436,0.69647557,0.03695378,-0.65520287,0.86560655,-1.1471996,0.14095773,-0.8476268,1.4461087,-1.9944826
-0.2,-0.2,0.9999999999999999,0.5235987755982988,-0.5235987755982988,0,-0.0021650607,-1.258862,0.2502743,0.22498839,-0.10072672,0.25792265,-0.68386924,-0.65408885,0.8721692,-1.149442,0.14008152,-0.84808064,1.4500046,-1.9961003
-0.2,-0.2,0.9999999999999999,0.5235987755982988,-0.5235987755982988,0,1.1254272,-1.5070894,1.5189904,0.21549083,-0.429972,0.3407509,-0.8348408,-0.6548325,0.873993,-1.1500261,0.14117232,-0.84787834,1.4487454,-1.9875623
-0.2,-0.2,0.9999999999999999,0.5235987755982988,-0.5235987755982988,0,0.39700896,-1.4977548,0.3822437,0.15080443,0.38044176,0.6125766,-0.5707047,-0.6530294,0.8741245,-1.1483295,0.1383814,-0.8475193,1.453923,-1.98723
-0.2,-0.2,0.9999999999999999,0.5235987755982988,-0.5235987755982988,0,0.83629483,-1.5985261,1.0465786,0.07517651,-0.21296328,0.7417142,-1.1079121,-0.64998645,0.8800747,-1.1445153,0.14159608,-0.85123,1.4509922,-2.0083146
-0.2,-0.2,0.9999999999999999,0.5235987755982988,-0.5235987755982988,0,-0.6960061,-1.2448255,0.24981065,0.1454606,0.008064798,0.6546606,-0.36480013,-0.65269595,0.8679327,-1.1477978,0.14205001,-0.84970677,1.4496454,-1.9774164
-0.2,-0.2,0.9999999999999999,0.5235987755982988,-0.5235987755982988,0,1.0111759,-1.2093964,1.4552552,0.3290688,-0.03980513,0.79599655,0.25325984,-0.65635276,0.8705745,-1.1466321,0.14291425,-0.84819293,1.4541165,-1.990224
-0.2,-0.2,0.9999999999999999,0.5235987755982988,-0.5235987755982988,0,1.0942035,-1.48759,0.41499317,0.10523933,-0.32670572,0.6155501,-0.4141941,-0.65324986,0.8682197,-1.1436055,0.14319982,-0.8522233,1.4545444,-1.997811
-0.2,-0.2,0.9999999999999999,0.5235987755982988,-0.5235987755982988,0,0.66188467,-1.3852978,-0.048040718,0.09661614,-0.27475077,0.66929734,-0.41599897,-0.65610135,0.87533766,-1.1466249,0.14181094,-0.8486385,1.45278,-1.9860299
-0.2,-0.2,0.9999999999999999,0.5235987755982988,-0.5235987755982988,0,1.7334238,-1.2330492,0.6361441,0.33814135,0.014165119,0.62348676,-0.27098498,-0.6508794,0.8816292,-1.1473885,0.14349651,-0.8489558,1.4523841,-1.9828539
-0.2,-0.2,0.9999999999999999,0.5235987755982988,-0.5235987755982988,0,0.06070217,-1.4643979,0.04701631,0.037886303,-0.102372736,1.1538835,-0.119696096,-0.6559298,0.8722465,-1.1459088,0.13878457,-0.8453646,1.4529887,-1.9768234
-0.2,-0.2,0.9999999999999999,0.5235987755982988,-0.5235987755982988,0,0.51015294,-1.3439212,0.4413063,-0.07639985,0.08578869,0.8525647,0.3325659,-0.6550116,0.87709427,-1.1499847,0.1418725,-0.84828734,1.4504052,-1.9790938
-0.2,-0.2,0.9999999999999999,0.5235987755982988,-0.5235987755982988,0,0.07442381,-1.2171944,-0.20440628,0.1868407,-0.27104914,0.32360202,-0.036650676,-0.65201855,0.8792397,-1.1462637,0.14154907,-0.8489654,1.4503413,-1.9824909
-0.2,-0.2,0.9999999999999999,0.5235987755982988,-0.5235987755982988,0,0.03652026,-1.1740104,1.0934865,0.13552953,-0.2313821,0.62345827,-0.40436354,-0.6546896,0.8774098,-1.1436168,0.14193559,-0.8464728,1.4534712,-1.9958876
-0.2,-0.2,0.9999999999999999,0.5235987755982988,-0.5235987755982988,0,0.51448166,-1.6003051,1.6385156,0.17524613,-0.10773711,0.68531036,-0.25511163,-0.654228,0.87746406,-1.1439116,0.13942546,-0.8472455,1.4547584,-2.011738
-0.2,-0.2,0.9999999999999999,0.5235987755982988,-0.5235987755982988,0,1.4725776,-1.0700933,0.7131016,0.3096109,-0.11459207,0.93671507,-0.35941905,-0.6512503,0.87413186,-1.1443212,0.14206123,-0.84507835,1.4512262,-2.0077777
-0.2,-0.2,0.9999999999999999,0.5235987755982988,-0.5235987755982988,0,0.47560132,-1.4318495,1.2015511,0.10685957,-0.00854561,0.8156675,-0.12005146,-0.65341175,0.86438227,-1.142574,0.1440248,-0.8438514,1.4508421,-1.9911749
-0.2,-0.2,0.9999999999999999,0.5235987755982988,-0.5235987755982988,0,0.6589809,-1.1879905,1.5877064,0.090517044,0.16475275,0.8286357,-0.23792021,-0.65372723,0.8714878,-1.1453269,0.14087237,-0.846463,1.451434,-1.9964367
