sanky1234/BimanualDexCatch/isaacgymenvs/cem_results/football_pose_-0.2_-0.2_0.9999999999999999_-0.5235987755982988_-0.5235987755982988_0_2025-05-24.csv
x,y,z,roll,pitch,yaw,robot1/joint1,robot1/joint2,robot1/joint3,robot1/joint4,robot1/joint5,robot1/joint6,robot1/joint7,robot2/joint1,robot2/joint2,robot2/joint3,robot2/joint4,robot2/joint5,robot2/joint6,robot2/joint7
-0.2,-0.2,0.9999999999999999,-0.5235987755982988,-0.5235987755982988,0,-0.1019516,1.6882298,0.95020765,-0.45330802,-0.23663928,-0.13602935,-0.8529988,-0.90740937,0.6920674,-1.334677,0.13062999,-0.12796561,1.286375,0.24150352
-0.2,-0.2,0.9999999999999999,-0.5235987755982988,-0.5235987755982988,0,1.2017761,-1.4131182,0.31268975,0.054643303,0.41487724,0.055083238,-0.83963716,-0.9113992,0.6981168,-1.3252455,0.12832126,-0.102215014,1.283001,0.19771409
-0.2,-0.2,0.9999999999999999,-0.5235987755982988,-0.5235987755982988,0,1.0626415,1.4317715,0.07836834,-0.4988627,-0.010797451,-0.17426708,-0.8895388,-0.9132433,0.6986788,-1.3300959,0.12715995,-0.14215758,1.2903153,0.20122217
-0.2,-0.2,0.9999999999999999,-0.5235987755982988,-0.5235987755982988,0,0.9058125,-0.051785108,-0.8503761,-0.054986726,0.79721355,-0.067237005,-1.6895859,-0.9143555,0.695369,-1.3279326,0.1268122,-0.16012456,1.284168,0.20241688
-0.2,-0.2,0.9999999999999999,-0.5235987755982988,-0.5235987755982988,0,0.5617193,0.590342,0.078038216,-0.10798349,0.04110264,-0.45634595,-0.73223066,-0.90373796,0.69588053,-1.3325434,0.12527841,-0.1545032,1.2868221,0.18971899
-0.2,-0.2,0.9999999999999999,-0.5235987755982988,-0.5235987755982988,0,-0.05518249,0.6801656,0.73664784,-0.21472374,0.38805246,0.12792581,-1.6363184,-0.90910524,0.69395804,-1.3386294,0.1302946,-0.13089114,1.2860643,0.23781423
-0.2,-0.2,0.9999999999999999,-0.5235987755982988,-0.5235987755982988,0,1.0386376,0.004869965,0.22901525,-0.45002505,-0.42697978,-0.18361281,-0.8794474,-0.9140427,0.7001657,-1.3333178,0.12771821,-0.11855692,1.284563,0.1980757
-0.2,-0.2,0.9999999999999999,-0.5235987755982988,-0.5235987755982988,0,0.025575507,1.2302184,-0.66782683,0.24017732,-0.26144156,0.049084336,-0.23011102,-0.9082424,0.69668967,-1.3405823,0.12941946,-0.12851167,1.2837297,0.1716838
-0.2,-0.2,0.9999999999999999,-0.5235987755982988,-0.5235987755982988,0,0.26034793,0.58094895,-0.2083872,0.02924883,0.22529666,-0.71678567,-0.81559235,-0.9190749,0.69271123,-1.3307348,0.13069151,-0.13901006,1.283768,0.22644201
-0.2,-0.2,0.9999999999999999,-0.5235987755982988,-0.5235987755982988,0,-0.032115966,0.5619284,0.3482864,-0.32163987,0.4362298,0.35733542,0.51601547,-0.91320074,0.6918258,-1.3360243,0.13045411,-0.12925075,1.283963,0.24211039
-0.2,-0.2,0.9999999999999999,-0.5235987755982988,-0.5235987755982988,0,0.53195333,0.764905,-0.12981687,-0.27633092,0.024773834,-0.675613,-0.89891464,-0.90893185,0.69525087,-1.3365084,0.13036895,-0.12775198,1.2897042,0.18852401
-0.2,-0.2,0.9999999999999999,-0.5235987755982988,-0.5235987755982988,0,-0.0594947,-0.2073365,0.23189186,-0.44524387,-0.09039091,0.09267868,-0.6078849,-0.9095309,0.6905522,-1.3274341,0.12881473,-0.12894624,1.2845023,0.22258587
-0.2,-0.2,0.9999999999999999,-0.5235987755982988,-0.5235987755982988,0,0.099084444,-0.38435453,0.25966394,-0.4407156,0.35855246,0.016978804,-0.963987,-0.91375226,0.69196993,-1.3355646,0.12606305,-0.111222245,1.2870337,0.15842147
-0.2,-0.2,0.9999999999999999,-0.5235987755982988,-0.5235987755982988,0,0.6986304,0.18135978,-0.28751528,-0.39869046,-0.3602842,0.40774143,-1.1492839,-0.91561437,0.701165,-1.3307806,0.12638536,-0.14847775,1.2860043,0.20368928
-0.2,-0.2,0.9999999999999999,-0.5235987755982988,-0.5235987755982988,0,0.14657402,-0.1192576,0.53238577,-0.56387746,0.47803825,-0.32891405,-1.3129622,-0.91007143,0.700273,-1.3293318,0.12884682,-0.15308502,1.2872145,0.21864824
-0.2,-0.2,0.9999999999999999,-0.5235987755982988,-0.5235987755982988,0,0.56211597,0.862305,-0.06358648,-0.30049607,-0.24610004,-0.15261239,-0.12781754,-0.90680045,0.6937993,-1.3336813,0.1279319,-0.12733863,1.2881596,0.24092287
-0.2,-0.2,0.9999999999999999,-0.5235987755982988,-0.5235987755982988,0,0.66251767,-0.4174168,-0.10973381,-0.20503794,0.5028514,-0.66752803,-1.5404061,-0.9057997,0.69212836,-1.3362387,0.12746532,-0.14019239,1.2856431,0.23348257
-0.2,-0.2,0.9999999999999999,-0.5235987755982988,-0.5235987755982988,0,1.2904612,-0.18304309,0.68706995,0.33238152,-0.5657764,-0.7635796,-0.67140317,-0.9136111,0.6921085,-1.3330339,0.1287086,-0.123530515,1.2849909,0.17632462
-0.2,-0.2,0.9999999999999999,-0.5235987755982988,-0.5235987755982988,0,-1.0449063,0.97154677,0.28961596,-0.070225075,0.12234139,-1.1567398,-1.4254652,-0.91185534,0.6900069,-1.3351241,0.12818107,-0.12867805,1.2893404,0.17836705
-0.2,-0.2,0.9999999999999999,-0.5235987755982988,-0.5235987755982988,0,0.62144274,-0.6400799,-0.21029982,-0.43811175,-0.12577595,-0.48160508,-1.0273243,-0.91523683,0.69756,-1.3283632,0.12625921,-0.1318655,1.2838678,0.17701991
-0.2,-0.2,0.9999999999999999,-0.5235987755982988,-0.5235987755982988,0,-0.10077167,-0.3423676,0.10493046,-0.034684192,0.15024245,0.06637717,-0.47747198,-0.9168481,0.6973523,-1.3306868,0.12870412,-0.12853475,1.2864602,0.22116804
-0.2,-0.2,0.9999999999999999,-0.5235987755982988,-0.5235987755982988,0,0.108598426,-0.5333925,-0.46268985,-0.73177737,0.21547176,-1.0791645,-0.24362354,-0.91248876,0.69369435,-1.3383933,0.12844488,-0.13963376,1.2835782,0.18759951
-0.2,-0.2,0.9999999999999999,-0.5235987755982988,-0.5235987755982988,0,0.4471044,-0.63293904,0.20435822,-0.16163388,0.06987777,-0.12947768,-0.93093336,-0.9113343,0.6938561,-1.333017,0.12855425,-0.16266806,1.2857783,0.17321056
-0.2,-0.2,0.9999999999999999,-0.5235987755982988,-0.5235987755982988,0,-0.11341376,1.1288397,-0.10786853,0.41432542,-0.051311944,-0.43004262,-0.1450835,-0.9189963,0.69428146,-1.3254286,0.12653485,-0.1160339,1.2872864,0.21011539
-0.2,-0.2,0.9999999999999999,-0.5235987755982988,-0.5235987755982988,0,0.09421378,-0.23028405,0.13110346,-0.010630731,-0.47838196,-0.22835842,-0.5964707,-0.9121899,0.6975134,-1.3386852,0.12724096,-0.135386,1.2858071,0.20928842
-0.2,-0.2,0.9999999999999999,-0.5235987755982988,-0.5235987755982988,0,0.7058625,0.24940743,-0.3815566,-0.024169262,0.08650122,0.60398763,-0.8019549,-0.90735734,0.6971391,-1.3372186,0.12567173,-0.12958635,1.2869015,0.1434588
-0.2,-0.2,0.9999999999999999,-0.5235987755982988,-0.5235987755982988,0,-0.25410774,-0.27035204,-0.50940883,0.21512623,0.066915005,-0.48236373,-0.7279689,-0.92142636,0.70083827,-1.3310828,0.12597334,-0.12614077,1.2882011,0.16342923
-0.2,-0.2,0.9999999999999999,-0.5235987755982988,-0.5235987755982988,0,0.3469671,1.3983101,-0.15181094,0.10517042,-0.7648137,0.027287317,-1.6662673,-0.9114693,0.70021266,-1.3388627,0.12849532,-0.13324013,1.2857565,0.22383615
-0.2,-0.2,0.9999999999999999,-0.5235987755982988,-0.5235987755982988,0,-0.05724043,0.5852339,0.1853237,0.07820182,0.16966057,-0.87779266,-1.0072519,-0.9116323,0.69569016,-1.3369696,0.12777399,-0.13000192,1.2895956,0.20862865
-0.2,-0.2,0.9999999999999999,-0.5235987755982988,-0.5235987755982988,0,0.7721017,0.8484192,-0.38944978,0.82505876,0.008505497,-0.52963096,-2.0953703,-0.9097523,0.69661975,-1.3386873,0.12875637,-0.12190186,1.289246,0.14933668
-0.2,-0.2,0.9999999999999999,-0.5235987755982988,-0.5235987755982988,0,0.555374,0.67105913,0.23144206,-0.9171209,-0.24571277,0.2942071,-1.149506,-0.9070174,0.6885854,-1.3300639,0.13103539,-0.15465105,1.2875979,0.21917766
-0.2,-0.2,0.9999999999999999,-0.5235987755982988,-0.5235987755982988,0,0.47368598,1.0182395,0.07147471,0.1428406,-0.80907166,-0.22911067,-1.8689821,-0.9157703,0.6953827,-1.3364727,0.12824515,-0.13047528,1.2920625,0.21714714
-0.2,-0.2,0.9999999999999999,-0.5235987755982988,-0.5235987755982988,0,-0.20111826,0.2773024,0.05550717,0.2582081,-0.12152735,-0.2599366,0.51657087,-0.9140451,0.6928876,-1.3293188,0.12830628,-0.13747333,1.2749166,0.21129137
-0.2,-0.2,0.9999999999999999,-0.5235987755982988,-0.5235987755982988,0,-0.02703886,-0.42228192,-0.559424,-0.024620444,-0.67211473,-0.67485017,-0.16212904,-0.91009843,0.6996534,-1.3348228,0.12613955,-0.12636021,1.2870028,0.21677794
-0.2,-0.2,0.9999999999999999,-0.5235987755982988,-0.5235987755982988,0,0.18272007,0.3180012,0.5989576,0.048797715,-0.28155997,0.24404596,-0.95396274,-0.90801585,0.6891106,-1.3394285,0.12981728,-0.1287851,1.2881577,0.21478109
-0.2,-0.2,0.9999999999999999,-0.5235987755982988,-0.5235987755982988,0,0.9134053,0.23179545,0.8114528,-0.23729284,-0.13861878,0.101276055,-0.7731286,-0.91180515,0.6986582,-1.3326848,0.13040456,-0.13209553,1.2837942,0.19963291
-0.2,-0.2,0.9999999999999999,-0.5235987755982988,-0.5235987755982988,0,0.1594209,0.0054777637,-0.19536485,0.17061776,0.2625694,0.41140854,-0.4804846,-0.9066911,0.6896463,-1.3395576,0.12958957,-0.12585613,1.2901201,0.19788313
-0.2,-0.2,0.9999999999999999,-0.5235987755982988,-0.5235987755982988,0,0.49796477,0.32259166,0.39082113,0.30493313,-0.60789657,0.11678228,-1.6120827,-0.91152173,0.6989272,-1.3313034,0.13012263,-0.12849805,1.2796279,0.20752443
-0.2,-0.2,0.9999999999999999,-0.5235987755982988,-0.5235987755982988,0,0.6251765,0.8821012,0.4648645,-0.4680303,-0.99158615,0.32925844,-1.3020657,-0.9095178,0.6998156,-1.3292006,0.12712677,-0.15634657,1.2887145,0.2064654
-0.2,-0.2,0.9999999999999999,-0.5235987755982988,-0.5235987755982988,0,-1.1669034,-0.029594285,0.34516907,-0.19755447,-0.42221126,-0.20132942,-0.6597036,-0.9131784,0.6895932,-1.3277364,0.12695494,-0.13973024,1.2916056,0.19597638
-0.2,-0.2,0.9999999999999999,-0.5235987755982988,-0.5235987755982988,0,-0.5627324,0.003697458,0.62567127,0.58525103,0.02285822,-0.7684509,-0.699056,-0.91525143,0.69289565,-1.3297036,0.1277689,-0.122335054,1.2810456,0.20800662
-0.2,-0.2,0.9999999999999999,-0.5235987755982988,-0.5235987755982988,0,-0.160425,-0.45641202,0.15635964,-0.22350366,0.08383441,0.111805476,-1.1117063,-0.91628045,0.69491476,-1.3363374,0.12930207,-0.15318,1.286666,0.21904983
-0.2,-0.2,0.9999999999999999,-0.5235987755982988,-0.5235987755982988,0,-0.34330118,0.5668193,0.29634556,-0.45439208,0.032013804,-0.19138741,-0.824547,-0.9140502,0.6984892,-1.3377055,0.12772654,-0.13628547,1.284804,0.16597186
-0.2,-0.2,0.9999999999999999,-0.5235987755982988,-0.5235987755982988,0,0.5105298,0.916895,0.28353512,-0.0075896666,0.4146916,-0.29686034,-0.7581808,-0.9181232,0.69803506,-1.3330294,0.127337,-0.13471302,1.2840211,0.2216678
-0.2,-0.2,0.9999999999999999,-0.5235987755982988,-0.5235987755982988,0,-0.13706176,1.1699096,0.57879555,0.042082828,-1.0933602,-0.38353932,-0.10352189,-0.91054296,0.69809616,-1.3362088,0.12785478,-0.14725156,1.2868931,0.19622093
-0.2,-0.2,0.9999999999999999,-0.5235987755982988,-0.5235987755982988,0,0.30640763,-0.22836082,0.09664763,-0.23291816,0.49159145,0.53905356,-1.8178939,-0.9139502,0.69836795,-1.3291974,0.1259647,-0.10651738,1.2883385,0.2027837
-0.2,-0.2,0.9999999999999999,-0.5235987755982988,-0.5235987755982988,0,-0.15996253,0.25027862,0.16382825,-0.5360318,-0.33351266,0.48845875,-0.89375937,-0.91244894,0.6961308,-1.3354702,0.12677523,-0.13028193,1.2900087,0.21043414
-0.2,-0.2,0.9999999999999999,-0.5235987755982988,-0.5235987755982988,0,-0.20285662,1.3159283,0.29567042,-0.3834656,0.5469769,0.09979038,-0.7510063,-0.91106194,0.691983,-1.3379477,0.12749787,-0.12664199,1.2860636,0.207226
-0.2,-0.2,0.9999999999999999,-0.5235987755982988,-0.5235987755982988,0,0.025943492,0.7185721,0.34489134,0.004086006,0.244881,0.06023712,-0.945201,-0.9130035,0.69443923,-1.3261794,0.12781827,-0.116180085,1.2855427,0.19867997
-0.2,-0.2,0.9999999999999999,-0.5235987755982988,-0.5235987755982988,0,-0.06390632,-0.00048313342,-0.5385503,-0.73144376,-0.4078183,0.6043541,-0.87613463,-0.9133225,0.69306165,-1.333995,0.12952724,-0.12530382,1.2874353,0.18308377
-0.2,-0.2,0.9999999999999999,-0.5235987755982988,-0.5235987755982988,0,0.4051113,0.862992,-0.43234375,0.37650254,0.016308336,-0.25296205,0.19679514,-0.9186923,0.6924041,-1.3344339,0.1267958,-0.12683132,1.2815146,0.22534832
-0.2,-0.2,0.9999999999999999,-0.5235987755982988,-0.5235987755982988,0,-0.35644174,-0.15155266,0.17249106,-0.8299254,1.0116582,0.69136643,-0.38384044,-0.9088463,0.6951498,-1.3350844,0.12847623,-0.13869661,1.2795322,0.188294
-0.2,-0.2,0.9999999999999999,-0.5235987755982988,-0.5235987755982988,0,-0.010388868,0.6246673,-0.3001766,0.12564552,0.5184282,0.73911154,-1.3092824,-0.9137569,0.69253355,-1.3273654,0.12884352,-0.13878399,1.2868088,0.20006579
-0.2,-0.2,0.9999999999999999,-0.5235987755982988,-0.5235987755982988,0,1.7330141,0.6592468,-0.36552456,-0.10008262,0.9810765,-0.739654,-0.83025175,-0.9068307,0.7006822,-1.3326899,0.12716351,-0.13749179,1.2790769,0.20990789
-0.2,-0.2,0.9999999999999999,-0.5235987755982988,-0.5235987755982988,0,0.41407976,1.2586491,-0.25318944,0.28634727,0.20620438,-0.14734764,-0.9702951,-0.9091678,0.7020498,-1.3363553,0.12864165,-0.14045016,1.2838235,0.19743504
-0.2,-0.2,0.9999999999999999,-0.5235987755982988,-0.5235987755982988,0,0.6452825,-0.46576947,-0.028369237,0.15062022,0.48492786,0.43222874,-0.7084754,-0.9126168,0.6967332,-1.3354042,0.13183065,-0.13125965,1.2829691,0.22582015
-0.2,-0.2,0.9999999999999999,-0.5235987755982988,-0.5235987755982988,0,0.25039256,-0.3903004,0.12153449,-0.11856679,-0.9183344,-0.081083916,-1.2029651,-0.90616095,0.694591,-1.3337079,0.12702973,-0.1319313,1.2872207,0.20810449
-0.2,-0.2,0.9999999999999999,-0.5235987755982988,-0.5235987755982988,0,0.97992337,-0.30998495,-0.12589072,-0.20381327,0.18061884,0.61327857,-1.4495666,-0.913901,0.6980132,-1.3335934,0.1290872,-0.12250395,1.2872673,0.21555485
-0.2,-0.2,0.9999999999999999,-0.5235987755982988,-0.5235987755982988,0,0.046056673,0.95451593,-0.5132031,0.18053687,-0.31799272,-0.25291225,-0.12894064,-0.9153204,0.6901501,-1.3250889,0.13273816,-0.1452182,1.2813071,0.19428995
-0.2,-0.2,0.9999999999999999,-0.5235987755982988,-0.5235987755982988,0,-0.006837437,0.15882723,0.2840625,0.18992549,0.20432116,-0.10379752,-0.4097768,-0.9109653,0.69731134,-1.3300018,0.12505104,-0.11560893,1.2851131,0.18628652
-0.2,-0.2,0.9999999999999999,-0.5235987755982988,-0.5235987755982988,0,0.48462826,0.5317412,0.10924617,-0.28188154,-0.020859294,-0.18346931,-1.2447612,-0.9073175,0.69628567,-1.3352904,0.12770939,-0.11572067,1.2856238,0.2143174
-0.2,-0.2,0.9999999999999999,-0.5235987755982988,-0.5235987755982988,0,0.8683548,0.69264835,1.0951034,-0.32638663,-0.15733494,-0.59524035,-1.7945368,-0.91448313,0.6927646,-1.3307726,0.12842877,-0.12985642,1.2816558,0.17425974
-0.2,-0.2,0.9999999999999999,-0.5235987755982988,-0.5235987755982988,0,-0.42371327,1.0874513,-0.47420406,0.020392438,-0.116777875,-0.12225201,-2.057413,-0.9122746,0.68225616,-1.3372235,0.12528712,-0.13721275,1.2823598,0.23596787
-0.2,-0.2,0.9999999999999999,-0.5235987755982988,-0.5235987755982988,0,0.8198749,1.1177776,-0.40176037,0.09536825,-0.39247864,0.3777507,-1.5881348,-0.9139507,0.6937277,-1.3331048,0.1294536,-0.119152084,1.2853603,0.18919072
-0.2,-0.2,0.9999999999999999,-0.5235987755982988,-0.5235987755982988,0,1.3627563,0.27262446,-0.51293266,0.1691795,-0.7037023,-0.2885037,-1.0643393,-0.91427904,0.70192266,-1.3282051,0.12670542,-0.124218866,1.283978,0.19682147
-0.2,-0.2,0.9999999999999999,-0.5235987755982988,-0.5235987755982988,0,-0.16015983,1.242581,-0.45022437,-0.3387997,-0.35204518,-0.4364388,-1.0195965,-0.916983,0.694494,-1.3344531,0.12820819,-0.14812167,1.2829463,0.23278837
-0.2,-0.2,0.9999999999999999,-0.5235987755982988,-0.5235987755982988,0,0.09388111,-1.297807,-0.26536837,-0.20274194,0.5348002,0.0657013,-0.6968822,-0.9125481,0.69769806,-1.3357062,0.1282937,-0.13918975,1.288679,0.17902002
-0.2,-0.2,0.9999999999999999,-0.5235987755982988,-0.5235987755982988,0,0.34973595,-0.01795052,-0.22266611,-0.14280961,-0.66392136,-0.27248484,-1.6247689,-0.91143256,0.69744295,-1.3369949,0.12824586,-0.13449071,1.2886847,0.20677061
-0.2,-0.2,0.9999999999999999,-0.5235987755982988,-0.5235987755982988,0,0.1970747,1.576704,0.4596803,-0.58639854,-0.21520868,-0.05069814,-0.8725251,-0.91238713,0.6931424,-1.3372266,0.12919618,-0.15762834,1.2835622,0.21152684
-0.2,-0.2,0.9999999999999999,-0.5235987755982988,-0.5235987755982988,0,-0.24412555,0.21793893,0.21912996,-0.5507553,0.855819,0.13183258,-2.0990462,-0.90975046,0.69466364,-1.3317527,0.12805969,-0.13867757,1.2857593,0.22226371
-0.2,-0.2,0.9999999999999999,-0.5235987755982988,-0.5235987755982988,0,-0.2543895,0.8494552,0.49904954,-0.3099951,-0.3419254,-0.3854276,-0.8237943,-0.9056605,0.6956264,-1.3240237,0.12924427,-0.16519432,1.286865,0.23085113
-0.2,-0.2,0.9999999999999999,-0.5235987755982988,-0.5235987755982988,0,-0.19679594,-0.265666,0.2063186,-0.0048224516,0.5412994,0.70376444,-1.195014,-0.90857023,0.69463414,-1.332793,0.12665795,-0.13445276,1.2856945,0.17726305
-0.2,-0.2,0.9999999999999999,-0.5235987755982988,-0.5235987755982988,0,0.8501031,0.78058684,-0.26238787,-0.3798035,0.28048667,1.1184586,-0.474,-0.91884816,0.69436204,-1.3315253,0.1274528,-0.12550959,1.2903543,0.17885557
-0.2,-0.2,0.9999999999999999,-0.5235987755982988,-0.5235987755982988,0,0.15846346,0.17505658,-0.68287414,-0.11562267,-0.39860815,0.04065669,-1.445929,-0.91210556,0.6978847,-1.334484,0.12880859,-0.12654077,1.2862632,0.18644267
-0.2,-0.2,0.9999999999999999,-0.5235987755982988,-0.5235987755982988,0,0.7014125,-1.168385,0.31659454,0.2729084,0.13091038,0.47010127,-0.41989598,-0.91023254,0.6920078,-1.3379152,0.12921514,-0.14089373,1.285316,0.23999667
-0.2,-0.2,0.9999999999999999,-0.5235987755982988,-0.5235987755982988,0,0.5092028,-0.39982882,-0.4872579,0.4513791,0.31937465,-0.12549433,0.6297986,-0.90912944,0.69478774,-1.3347158,0.12791193,-0.14018251,1.2851852,0.21962048
-0.2,-0.2,0.9999999999999999,-0.5235987755982988,-0.5235987755982988,0,-0.33346975,0.34355533,-0.3818117,-0.5015244,0.33501136,0.5356858,-1.7484733,-0.91201025,0.7005564,-1.3332726,0.129699,-0.12048791,1.2811115,0.20889354
-0.2,-0.2,0.9999999999999999,-0.5235987755982988,-0.5235987755982988,0,-0.7167445,0.9146349,0.95967114,0.5646538,0.5698955,-0.4656646,-1.6919694,-0.9126735,0.6966208,-1.3309282,0.12843025,-0.14270104,1.2889664,0.20518467
-0.2,-0.2,0.9999999999999999,-0.5235987755982988,-0.5235987755982988,0,0.37455684,1.5888684,0.41662234,-0.38666588,-0.50419706,-0.22912726,-2.1871867,-0.90858775,0.6977085,-1.3263973,0.12776224,-0.14525287,1.2815242,0.21045306
-0.2,-0.2,0.9999999999999999,-0.5235987755982988,-0.5235987755982988,0,0.40355822,-0.15025759,-0.3077549,-0.324051,-0.5451113,-0.13012014,-0.5246662,-0.9100935,0.6980672,-1.3233863,0.13009784,-0.15671957,1.2803763,0.22129546
-0.2,-0.2,0.9999999999999999,-0.5235987755982988,-0.5235987755982988,0,1.2017943,0.7137987,-0.53343076,-0.1541164,-0.42680782,-0.08219673,-0.92179984,-0.91447145,0.69753754,-1.3295348,0.13057676,-0.13343802,1.2849557,0.22825053
-0.2,-0.2,0.9999999999999999,-0.5235987755982988,-0.5235987755982988,0,-0.24045496,1.7094821,-0.21779154,-0.2912554,-0.3827788,0.3862836,-0.6695428,-0.9105811,0.6960952,-1.3318944,0.12676845,-0.14213467,1.284104,0.21456683
-0.2,-0.2,0.9999999999999999,-0.5235987755982988,-0.5235987755982988,0,-0.04465085,0.69614285,-1.09206,-0.05759311,-0.8040493,0.39588013,-2.668862,-0.91119015,0.6944413,-1.335305,0.12970193,-0.15032522,1.2856282,0.21146163
-0.2,-0.2,0.9999999999999999,-0.5235987755982988,-0.5235987755982988,0,-0.13309094,-0.37224182,-0.28589657,0.2898315,0.4947565,0.9868202,-1.3778503,-0.9094131,0.6972035,-1.332771,0.12967047,-0.12863635,1.2840662,0.17057174
-0.2,-0.2,0.9999999999999999,-0.5235987755982988,-0.5235987755982988,0,-0.2715949,-0.074531294,0.44230202,-0.0711365,0.34738082,0.22902077,-0.2626998,-0.912207,0.703863,-1.3330314,0.13015182,-0.117470026,1.2856634,0.1994414
-0.2,-0.2,0.9999999999999999,-0.5235987755982988,-0.5235987755982988,0,0.3454517,0.9676327,0.43417442,-0.04717702,0.2678182,-0.25583076,-0.73411083,-0.9116801,0.6984337,-1.3299093,0.12745233,-0.12543494,1.2886593,0.21366805
-0.2,-0.2,0.9999999999999999,-0.5235987755982988,-0.5235987755982988,0,-0.1944907,0.8447161,-0.06435284,-0.009421815,-0.46263006,0.029930506,-0.8655936,-0.9141856,0.6980027,-1.3352386,0.12725225,-0.1462331,1.285615,0.2160744
-0.2,-0.2,0.9999999999999999,-0.5235987755982988,-0.5235987755982988,0,0.3381804,-0.64067465,0.17160295,-0.09596605,-0.71654,0.25508365,-2.991926,-0.9090277,0.6953079,-1.3352253,0.12904483,-0.13703306,1.2865914,0.17660296
-0.2,-0.2,0.9999999999999999,-0.5235987755982988,-0.5235987755982988,0,0.0745863,-0.03337483,0.44291416,-0.77639455,-0.16910738,0.3209799,-0.8963774,-0.91332626,0.69507927,-1.3330022,0.12945619,-0.13308688,1.2860388,0.22692434
-0.2,-0.2,0.9999999999999999,-0.5235987755982988,-0.5235987755982988,0,-0.29792342,1.2491564,-0.05320511,0.21616532,-0.47633094,-0.19167359,-1.257152,-0.91740465,0.69977075,-1.3293443,0.12427244,-0.11410268,1.2843895,0.21776845
-0.2,-0.2,0.9999999999999999,-0.5235987755982988,-0.5235987755982988,0,-0.09982777,1.0448685,-0.34590462,-0.053017,0.0983176,1.0039892,-1.60674,-0.91459924,0.69043446,-1.3208803,0.12732717,-0.111705735,1.2845719,0.20882721
-0.2,-0.2,0.9999999999999999,-0.5235987755982988,-0.5235987755982988,0,1.1871634,-0.15145445,-0.34624246,-0.50161904,-0.04017675,0.9701981,-0.3210668,-0.9108895,0.6937334,-1.3271316,0.13110833,-0.12313728,1.2828982,0.24845658
-0.2,-0.2,0.9999999999999999,-0.5235987755982988,-0.5235987755982988,0,0.15036008,-1.6070144,-0.63636625,0.9458747,-0.16118452,0.24356514,-1.4152029,-0.90960383,0.6998077,-1.3310046,0.12734963,-0.12314302,1.2858399,0.19383259
-0.2,-0.2,0.9999999999999999,-0.5235987755982988,-0.5235987755982988,0,1.2697412,0.5326442,-0.20428394,-0.23466034,-0.11153982,0.3979992,-1.5107336,-0.91500807,0.6864467,-1.3359764,0.12983498,-0.13068804,1.2852652,0.19715638
-0.2,-0.2,0.9999999999999999,-0.5235987755982988,-0.5235987755982988,0,0.645269,0.6962122,0.92164594,-0.33899096,0.95025724,-0.49587706,-0.7481638,-0.91054446,0.6944243,-1.3341208,0.12973973,-0.09237602,1.2814196,0.15991092
-0.2,-0.2,0.9999999999999999,-0.5235987755982988,-0.5235987755982988,0,0.06486588,1.2199525,-0.10841775,-0.3166947,0.017017433,-0.31467935,-0.5270036,-0.9139167,0.690262,-1.3238149,0.124424,-0.13463934,1.2895097,0.18841432
-0.2,-0.2,0.9999999999999999,-0.5235987755982988,-0.5235987755982988,0,0.7814056,0.20706536,0.67642534,-0.5200768,0.48244426,0.054217994,-0.9830077,-0.9074803,0.7011061,-1.3281833,0.12672377,-0.107902266,1.2804062,0.19394475
-0.2,-0.2,0.9999999999999999,-0.5235987755982988,-0.5235987755982988,0,0.49138305,-0.47752002,-0.3352027,-0.13181606,-0.087094195,0.18215674,0.15254988,-0.90886956,0.6968981,-1.3285675,0.12762307,-0.14773898,1.2852501,0.235773
-0.2,-0.2,0.9999999999999999,-0.5235987755982988,-0.5235987755982988,0,0.563221,1.1368054,-0.05568685,-0.3098838,-0.339234,-0.1310874,-0.53991336,-0.9101916,0.6918044,-1.3347355,0.12744221,-0.1135775,1.2875625,0.18763547
-0.2,-0.2,0.9999999999999999,-0.5235987755982988,-0.5235987755982988,0,0.327154,1.1180145,-0.47929522,-0.44075808,0.34958422,0.7498864,-0.48609364,-0.9148517,0.69887584,-1.3367187,0.12777641,-0.1443113,1.2938923,0.22486243
-0.2,-0.2,0.9999999999999999,-0.5235987755982988,-0.5235987755982988,0,0.456127,1.2450501,-0.12620503,-0.077350974,0.148353,0.44277084,-0.8571982,-0.91350555,0.69594836,-1.334536,0.12754701,-0.12172234,1.2894901,0.15576288
-0.2,-0.2,0.9999999999999999,-0.5235987755982988,-0.5235987755982988,0,-0.24099973,-0.46499014,0.4828567,-0.3463123,-0.37830922,0.04746358,-1.8216125,-0.9050048,0.6953315,-1.3382636,0.12843132,-0.13707097,1.2858279,0.22205906
-0.2,-0.2,0.9999999999999999,-0.5235987755982988,-0.5235987755982988,0,0.28399646,0.96999574,-0.01626234,-0.24035183,-0.05598538,-0.082476,-1.5467889,-0.9135496,0.69867563,-1.3327199,0.129861,-0.13568132,1.2869589,0.24591212
-0.2,-0.2,0.9999999999999999,-0.5235987755982988,-0.5235987755982988,0,-0.4961306,1.041824,-0.13093041,-0.58577394,-0.14780284,-0.6285615,-1.6341444,-0.90849584,0.70092046,-1.333185,0.12606013,-0.11660927,1.2850512,0.2576257
-0.2,-0.2,0.9999999999999999,-0.5235987755982988,-0.5235987755982988,0,0.6860727,0.15502922,-0.35750207,-0.25546527,-0.43013227,0.19319941,-0.9700666,-0.9160872,0.6991732,-1.3320994,0.12972021,-0.1429919,1.2847031,0.19921243
-0.2,-0.2,0.9999999999999999,-0.5235987755982988,-0.5235987755982988,0,-0.6107408,1.475398,0.48785827,-0.28960696,0.44334215,-0.38636458,-0.95329076,-0.9133643,0.6958479,-1.3340201,0.12864037,-0.10797407,1.2857227,0.21726602
-0.2,-0.2,0.9999999999999999,-0.5235987755982988,-0.5235987755982988,0,0.3375549,0.5537266,0.96149886,0.17524803,-0.3708441,0.077972464,-0.6919199,-0.9150644,0.6977793,-1.3386607,0.13079008,-0.12082022,1.2875998,0.18226786
-0.2,-0.2,0.9999999999999999,-0.5235987755982988,-0.5235987755982988,0,0.45810944,-0.96954167,-1.0298104,-0.2576752,-0.07485481,-0.062441118,-1.0528852,-0.91124874,0.6994473,-1.3330574,0.12939712,-0.14398503,1.290256,0.1776086
-0.2,-0.2,0.9999999999999999,-0.5235987755982988,-0.5235987755982988,0,0.31818599,1.661127,0.49690965,-0.3635066,0.39122865,-0.4930563,-0.31408367,-0.9162402,0.6924551,-1.3283845,0.13030228,-0.12255918,1.2844396,0.22071052
-0.2,-0.2,0.9999999999999999,-0.5235987755982988,-0.5235987755982988,0,-0.43695349,0.26364568,0.007997084,0.44718057,0.31069586,-0.060649086,-0.35837406,-0.9115778,0.6955278,-1.3337348,0.1256983,-0.1617248,1.2883507,0.2407671
-0.2,-0.2,0.9999999999999999,-0.5235987755982988,-0.5235987755982988,0,0.11445875,1.2110468,0.35615426,-0.008965171,-0.19968177,0.2646994,-1.1714598,-0.9099397,0.6974258,-1.3347477,0.12760589,-0.12932241,1.2856134,0.20167054
-0.2,-0.2,0.9999999999999999,-0.5235987755982988,-0.5235987755982988,0,1.0903645,1.1638321,0.6284646,0.11246325,-0.3854617,0.72260755,0.1318638,-0.91369057,0.6937279,-1.3307742,0.12840594,-0.13957085,1.2898992,0.22265147
-0.2,-0.2,0.9999999999999999,-0.5235987755982988,-0.5235987755982988,0,0.56181467,0.6162671,0.30020273,-0.027427683,0.2607795,0.22986473,-0.02109483,-0.90703344,0.7036613,-1.3303527,0.1291528,-0.12499718,1.2814995,0.21727358
-0.2,-0.2,0.9999999999999999,-0.5235987755982988,-0.5235987755982988,0,0.78017867,0.91550046,0.4214333,0.069510736,0.16253337,0.1986607,-0.024352644,-0.91596955,0.69793236,-1.3371104,0.1320011,-0.13354033,1.2806973,0.21779904
-0.2,-0.2,0.9999999999999999,-0.5235987755982988,-0.5235987755982988,0,0.75434196,0.908661,0.6392202,0.35103202,0.8505147,0.2674755,-0.7646901,-0.9077809,0.69289213,-1.3348205,0.12808622,-0.11918303,1.2881247,0.2009222
-0.2,-0.2,0.9999999999999999,-0.5235987755982988,-0.5235987755982988,0,0.5050365,-0.1353112,-0.21784443,-0.14723581,-0.6153324,-0.3485887,-0.5201224,-0.9085345,0.69404954,-1.333953,0.12928331,-0.14559624,1.2847012,0.21459743
-0.2,-0.2,0.9999999999999999,-0.5235987755982988,-0.5235987755982988,0,-0.07662408,0.8337573,1.346275,-0.16085891,0.0104093375,-0.4908635,-0.62584174,-0.9113196,0.6958023,-1.339464,0.1297818,-0.1353481,1.286267,0.20100948
-0.2,-0.2,0.9999999999999999,-0.5235987755982988,-0.5235987755982988,0,0.35140637,0.4320654,0.24461941,-0.43201518,-1.0685849,-1.0836303,-0.12042896,-0.91304326,0.68937045,-1.33024,0.12810515,-0.12410831,1.2881032,0.2218226
-0.2,-0.2,0.9999999999999999,-0.5235987755982988,-0.5235987755982988,0,-0.12698038,0.8185348,0.107071966,-0.5156909,0.34639078,0.48251632,-1.5294384,-0.90985614,0.69758636,-1.329777,0.12997465,-0.12548004,1.2817941,0.18983492
-0.2,-0.2,0.9999999999999999,-0.5235987755982988,-0.5235987755982988,0,-0.4713369,-0.32157347,-0.36202964,0.14394483,0.2365515,-0.34024972,-1.17771,-0.9175804,0.6938344,-1.3306789,0.12805778,-0.14954443,1.2828497,0.18133396
-0.2,-0.2,0.9999999999999999,-0.5235987755982988,-0.5235987755982988,0,-0.6662571,1.9586452,0.14091423,-0.16192706,-0.44953448,0.3105631,-1.4086531,-0.9156491,0.6945768,-1.3298241,0.12724479,-0.10729229,1.2855752,0.16492352
-0.2,-0.2,0.9999999999999999,-0.5235987755982988,-0.5235987755982988,0,0.9268457,1.1716853,-0.14102523,0.25079617,0.12781246,-0.13624437,-1.5373414,-0.90723926,0.6995309,-1.3286394,0.12559451,-0.12878425,1.287944,0.23067741
-0.2,-0.2,0.9999999999999999,-0.5235987755982988,-0.5235987755982988,0,0.17422736,-0.48592103,1.1499381,-0.08074011,-0.28911427,-0.018840408,-1.3631736,-0.9132869,0.6982143,-1.3301611,0.1280552,-0.121113345,1.2824224,0.1971315
-0.2,-0.2,0.9999999999999999,-0.5235987755982988,-0.5235987755982988,0,1.7598283,-1.1624365,-0.49513367,-0.0115263695,-0.19435811,0.32876024,-1.6719114,-0.91502935,0.7001417,-1.3339537,0.12694834,-0.08767863,1.2819442,0.2239218
-0.2,-0.2,0.9999999999999999,-0.5235987755982988,-0.5235987755982988,0,0.57254225,0.37656915,-0.6900004,0.22091487,0.029203542,0.5817442,-1.0257293,-0.9155906,0.69502896,-1.3298132,0.12728606,-0.117597245,1.284313,0.18369351
-0.2,-0.2,0.9999999999999999,-0.5235987755982988,-0.5235987755982988,0,0.92961407,1.1307659,0.10404902,-0.19195282,-0.5260242,-0.21151163,-0.92898256,-0.91415435,0.6996843,-1.332619,0.12670217,-0.14887045,1.2916006,0.20220566
-0.2,-0.2,0.9999999999999999,-0.5235987755982988,-0.5235987755982988,0,1.0548568,0.39739838,-0.5243222,0.1276574,-0.11270285,-0.8670979,-1.0889294,-0.90689874,0.68818164,-1.3260864,0.12737554,-0.16346186,1.2838008,0.21448556
-0.2,-0.2,0.9999999999999999,-0.5235987755982988,-0.5235987755982988,0,0.13630041,0.9952238,-0.013755997,-0.5150839,0.34566694,0.20548409,-0.39295736,-0.90982074,0.69998,-1.3371402,0.12820368,-0.1644961,1.2911805,0.23640542
-0.2,-0.2,0.9999999999999999,-0.5235987755982988,-0.5235987755982988,0,1.3817968,1.0432789,0.8152161,-0.5894727,0.73450875,-0.05497685,-1.0363984,-0.9174156,0.69844687,-1.330223,0.12638502,-0.13263164,1.2842597,0.18620168
-0.2,-0.2,0.9999999999999999,-0.5235987755982988,-0.5235987755982988,0,0.69523865,-0.5318132,1.384604,0.23425548,-0.061214607,0.01954989,0.029564355,-0.91963,0.6940837,-1.3320005,0.1278734,-0.11582382,1.2905821,0.23308396
-0.2,-0.2,0.9999999999999999,-0.5235987755982988,-0.5235987755982988,0,-0.23549727,1.2220852,0.2587452,-0.23905852,-0.14360702,-0.5542916,0.39978224,-0.91172487,0.69288534,-1.3309618,0.12889738,-0.12899628,1.2849821,0.16236854
-0.2,-0.2,0.9999999999999999,-0.5235987755982988,-0.5235987755982988,0,1.296725,-0.4462191,0.5848656,0.36304754,0.39365906,0.3373285,-0.92709243,-0.912471,0.70195603,-1.3259057,0.1278346,-0.1287054,1.283034,0.2591775
-0.2,-0.2,0.9999999999999999,-0.5235987755982988,-0.5235987755982988,0,1.117589,0.66283333,-0.21493538,0.04467242,-0.022771101,-0.5671493,-1.6298761,-0.9098626,0.6957556,-1.3286839,0.1273,-0.11290145,1.2849672,0.19703017
-0.2,-0.2,0.9999999999999999,-0.5235987755982988,-0.5235987755982988,0,-0.18854222,1.037317,0.4791587,-0.35064992,0.35859594,0.10304428,-1.2707769,-0.9124568,0.69974816,-1.3320256,0.13189685,-0.14349267,1.285338,0.21592993
-0.2,-0.2,0.9999999999999999,-0.5235987755982988,-0.5235987755982988,0,-0.3728172,1.4707874,-1.0889187,-0.32644066,0.51342267,-0.91948724,-0.6846768,-0.9131595,0.6979925,-1.3415219,0.12802133,-0.12136559,1.2885484,0.19885789
-0.2,-0.2,0.9999999999999999,-0.5235987755982988,-0.5235987755982988,0,0.039683383,0.53674245,-0.7419744,0.30023348,0.14655411,0.5165357,-1.20103,-0.90629315,0.6914841,-1.334772,0.1294141,-0.12748757,1.2886266,0.23503265
-0.2,-0.2,0.9999999999999999,-0.5235987755982988,-0.5235987755982988,0,0.4932915,0.2781125,0.23439571,-0.058469117,0.17819229,-1.0362217,-1.3854,-0.9108722,0.6992218,-1.3338292,0.12434749,-0.13552609,1.2889597,0.19497511
-0.2,-0.2,0.9999999999999999,-0.5235987755982988,-0.5235987755982988,0,0.43850106,0.7189162,0.38571292,-0.26220334,0.2612569,-0.18745188,-0.22894938,-0.9103553,0.69912225,-1.3345089,0.12812686,-0.13700749,1.2847127,0.2111942
-0.2,-0.2,0.9999999999999999,-0.5235987755982988,-0.5235987755982988,0,0.04923917,0.64287144,0.07002111,-0.48269382,0.14083862,-0.8825543,-0.28333464,-0.91439956,0.6931472,-1.3269243,0.12749682,-0.12069265,1.2869465,0.20754555
-0.2,-0.2,0.9999999999999999,-0.5235987755982988,-0.5235987755982988,0,-0.17599699,0.7669201,-0.5322879,0.18222506,0.33416376,-0.047142968,-1.3164881,-0.90896183,0.69984186,-1.336098,0.12626706,-0.13576412,1.2829994,0.18178397
-0.2,-0.2,0.9999999999999999,-0.5235987755982988,-0.5235987755982988,0,-0.022337964,0.9553137,-0.26849177,-0.035172235,-0.40604156,-0.49080202,-1.397419,-0.91497934,0.6912876,-1.3346473,0.12863055,-0.124355264,1.2906108,0.1953563
-0.2,-0.2,0.9999999999999999,-0.5235987755982988,-0.5235987755982988,0,0.024552705,0.3981969,-0.48161337,-0.13610749,0.26346898,-0.31690305,0.9962922,-0.91523296,0.69372994,-1.3347554,0.12785265,-0.1361166,1.2792443,0.20320141
-0.2,-0.2,0.9999999999999999,-0.5235987755982988,-0.5235987755982988,0,0.48532555,-0.58855504,-0.19705643,0.5061217,-0.83466333,0.013595209,-1.7254821,-0.9114996,0.6962796,-1.327199,0.12647411,-0.13515502,1.2836925,0.16067752
-0.2,-0.2,0.9999999999999999,-0.5235987755982988,-0.5235987755982988,0,0.11010501,0.8723567,0.0885751,-0.25992095,0.6113107,-0.81102043,-1.1080992,-0.9188783,0.69877416,-1.3341866,0.128938,-0.11736454,1.2880013,0.2139441
-0.2,-0.2,0.9999999999999999,-0.5235987755982988,-0.5235987755982988,0,-0.41807085,0.9096389,-0.8843715,-0.37252134,0.44028392,0.17999648,-1.457577,-0.9110715,0.70485973,-1.3335162,0.1271638,-0.12377442,1.2843213,0.21042882
-0.2,-0.2,0.9999999999999999,-0.5235987755982988,-0.5235987755982988,0,0.7389464,0.84568936,-0.2680871,-0.27777368,-0.12116717,0.25961536,-2.384683,-0.9174951,0.69127023,-1.3335956,0.12509902,-0.11382241,1.2934159,0.18093671
-0.2,-0.2,0.9999999999999999,-0.5235987755982988,-0.5235987755982988,0,0.3635032,1.4103091,0.61553746,-0.29889506,-0.12999256,0.68480045,0.59881586,-0.90953743,0.6990462,-1.3308246,0.12773436,-0.12809357,1.2880555,0.2354482
-0.2,-0.2,0.9999999999999999,-0.5235987755982988,-0.5235987755982988,0,0.42372057,-0.049561083,-0.00996106,0.046397246,-0.37187457,0.2238643,-1.3288376,-0.9105513,0.70357037,-1.3379083,0.1315099,-0.124022976,1.2844274,0.18906589
-0.2,-0.2,0.9999999999999999,-0.5235987755982988,-0.5235987755982988,0,0.61309224,1.6386003,0.21107812,0.15603046,0.657477,0.0007020697,-0.39735004,-0.90986,0.69660264,-1.3367157,0.12793444,-0.111422524,1.2875513,0.18551125
-0.2,-0.2,0.9999999999999999,-0.5235987755982988,-0.5235987755982988,0,0.40526566,0.8392425,0.11016029,-0.22209471,0.021871967,0.047864057,-0.5107242,-0.90667486,0.69240093,-1.3327042,0.12518297,-0.116909295,1.2893213,0.23340298
-0.2,-0.2,0.9999999999999999,-0.5235987755982988,-0.5235987755982988,0,1.3768089,0.3291773,0.2756958,-0.17537293,-0.2348462,-0.4412619,-1.193089,-0.9142121,0.6978358,-1.329872,0.12882341,-0.12149764,1.2848144,0.18146297
-0.2,-0.2,0.9999999999999999,-0.5235987755982988,-0.5235987755982988,0,0.75896883,0.9676014,-0.79431736,0.22305743,-0.058755215,0.04135577,-1.890641,-0.9123165,0.68984747,-1.3253784,0.12965639,-0.13466103,1.2847646,0.16050442
-0.2,-0.2,0.9999999999999999,-0.5235987755982988,-0.5235987755982988,0,1.0813845,1.3876508,-0.27052617,0.3243363,-0.005660358,-0.22635858,-0.68943197,-0.9115214,0.69476265,-1.3312751,0.12761359,-0.13889776,1.2851092,0.18609166
-0.2,-0.2,0.9999999999999999,-0.5235987755982988,-0.5235987755982988,0,0.3924825,-0.843909,-0.14952943,0.05394218,0.42300972,-0.58144647,-0.39146543,-0.9175098,0.696801,-1.3348627,0.12965019,-0.14553128,1.2847251,0.19891673
-0.2,-0.2,0.9999999999999999,-0.5235987755982988,-0.5235987755982988,0,0.7764048,0.46722502,0.08991665,-0.61259323,-0.092092134,0.84847224,-1.6367788,-0.9130257,0.6940633,-1.329879,0.12933022,-0.13258308,1.2869478,0.19502705
-0.2,-0.2,0.9999999999999999,-0.5235987755982988,-0.5235987755982988,0,0.6477226,0.8316395,-0.6729728,-0.5672699,0.13980857,0.45432696,-1.7045863,-0.90807307,0.6919585,-1.3306818,0.12861642,-0.116548814,1.2848113,0.20715865
-0.2,-0.2,0.9999999999999999,-0.5235987755982988,-0.5235987755982988,0,0.8312576,-0.2676083,0.20588396,-0.4641145,-0.72221446,0.37249762,-0.76838887,-0.9160932,0.6855954,-1.3326561,0.12731591,-0.1361941,1.2832277,0.17072836
-0.2,-0.2,0.9999999999999999,-0.5235987755982988,-0.5235987755982988,0,0.24821195,0.5579301,0.55259466,-0.03934908,-0.040443838,0.15971667,0.5744047,-0.9078727,0.70181066,-1.3266615,0.12617593,-0.13441545,1.2839316,0.19856131
-0.2,-0.2,0.9999999999999999,-0.5235987755982988,-0.5235987755982988,0,0.6348138,-1.3592418,-0.0032536362,-0.2557237,-0.28544655,-0.71869516,0.20320724,-0.9132484,0.6939424,-1.33326,0.13000694,-0.16047685,1.2860825,0.23430738
-0.2,-0.2,0.9999999999999999,-0.5235987755982988,-0.5235987755982988,0,0.9729148,1.219677,1.0254135,0.18181565,0.32172307,-1.1367725,-1.8690761,-0.9144529,0.68731797,-1.3294096,0.12840502,-0.10027755,1.2823071,0.16015394
-0.2,-0.2,0.9999999999999999,-0.5235987755982988,-0.5235987755982988,0,0.46935335,-0.318126,-0.47083786,-0.38937032,0.46905267,-0.028246494,-0.94083637,-0.9088257,0.6930646,-1.332378,0.12997782,-0.12525249,1.2779906,0.16771893
-0.2,-0.2,0.9999999999999999,-0.5235987755982988,-0.5235987755982988,0,-0.079563156,0.37623167,0.183446,0.0069213468,0.7233608,0.52915037,-1.1663793,-0.9128384,0.6977249,-1.3340303,0.130279,-0.13083644,1.2805364,0.16765256
-0.2,-0.2,0.9999999999999999,-0.5235987755982988,-0.5235987755982988,0,1.0851682,0.7877418,-0.33921254,-0.41420895,0.30537057,0.66718787,-1.6153438,-0.90913993,0.69070584,-1.3347836,0.12747285,-0.124260575,1.2799892,0.16384567
-0.2,-0.2,0.9999999999999999,-0.5235987755982988,-0.5235987755982988,0,0.19504493,1.2812221,0.60670704,-0.2750404,0.32470885,-0.42460218,-1.6601865,-0.90802,0.6938139,-1.3369838,0.12528995,-0.13710271,1.28741,0.20231059
-0.2,-0.2,0.9999999999999999,-0.5235987755982988,-0.5235987755982988,0,0.55429167,0.7825011,0.82796055,-0.32621902,0.19656928,-0.25741434,-0.41060686,-0.9135976,0.6945242,-1.3355057,0.12512156,-0.12242308,1.2880315,0.19720604
-0.2,-0.2,0.9999999999999999,-0.5235987755982988,-0.5235987755982988,0,0.16862883,0.469791,-0.38107696,0.3077106,0.3845694,-0.4318478,-1.5996517,-0.9049386,0.6977882,-1.3281685,0.12971322,-0.12980986,1.2880358,0.1744831
-0.2,-0.2,0.9999999999999999,-0.5235987755982988,-0.5235987755982988,0,-0.9145611,0.74648887,0.13420774,-0.35336182,0.17920017,-0.7340849,-1.3657038,-0.9107731,0.699454,-1.3312677,0.12849121,-0.13696565,1.2824472,0.1738403
-0.2,-0.2,0.9999999999999999,-0.5235987755982988,-0.5235987755982988,0,1.3662801,1.027876,0.84878486,-0.37922457,0.04681572,0.0017125626,-1.0025343,-0.9137385,0.6931554,-1.3282776,0.1279951,-0.15376365,1.2875679,0.23099971
-0.2,-0.2,0.9999999999999999,-0.5235987755982988,-0.5235987755982988,0,1.1994046,0.78145224,0.56582886,0.057887826,-1.2412783,-0.356007,-1.6272151,-0.9143046,0.70051855,-1.3331045,0.12772912,-0.13247624,1.2821697,0.21012817
-0.2,-0.2,0.9999999999999999,-0.5235987755982988,-0.5235987755982988,0,-0.26312464,1.2883252,0.14040989,-0.67622054,-0.29596585,0.270468,-2.3108213,-0.91591513,0.6991311,-1.3394153,0.12754524,-0.12436214,1.2885085,0.21824937
-0.2,-0.2,0.9999999999999999,-0.5235987755982988,-0.5235987755982988,0,1.099289,-0.2739527,-0.24601719,0.13240029,-0.18573365,-0.10447061,-1.9837259,-0.9107845,0.6910958,-1.3269587,0.12744679,-0.121602505,1.2806903,0.1932168
-0.2,-0.2,0.9999999999999999,-0.5235987755982988,-0.5235987755982988,0,0.69034845,0.43936867,-0.06350445,-0.16712038,0.5886905,0.51035255,-0.11628794,-0.91305447,0.69096786,-1.343715,0.12796827,-0.13746873,1.2858852,0.19168125
-0.2,-0.2,0.9999999999999999,-0.5235987755982988,-0.5235987755982988,0,-0.17321467,-0.09321114,-0.0062337285,-0.47923183,-0.7005419,0.03722788,0.09504931,-0.91577893,0.69801813,-1.3333783,0.12789261,-0.13706365,1.2909983,0.20380092
-0.2,-0.2,0.9999999999999999,-0.5235987755982988,-0.5235987755982988,0,0.22912255,0.6214315,-0.37743375,0.011371511,0.14365211,-0.71688074,-0.6925985,-0.90822035,0.6891997,-1.3307661,0.12773006,-0.13124044,1.279828,0.2072928
-0.2,-0.2,0.9999999999999999,-0.5235987755982988,-0.5235987755982988,0,0.37988546,-0.12374623,0.6032655,-0.18731432,0.074602075,0.21130802,-1.1200467,-0.9136585,0.6957743,-1.3358176,0.12818062,-0.14026098,1.2883843,0.20388325
-0.2,-0.2,0.9999999999999999,-0.5235987755982988,-0.5235987755982988,0,0.61200416,0.5460957,0.824639,-0.2014343,0.43275246,-0.6994803,-0.45592508,-0.91279763,0.6999787,-1.3362508,0.12839557,-0.13541268,1.2825706,0.21522619
-0.2,-0.2,0.9999999999999999,-0.5235987755982988,-0.5235987755982988,0,-0.51242864,-0.2899394,-0.9585965,0.10632065,0.13257685,0.33518633,-1.8382918,-0.9154644,0.6937818,-1.3384755,0.12912083,-0.1498589,1.2884905,0.2702872
-0.2,-0.2,0.9999999999999999,-0.5235987755982988,-0.5235987755982988,0,1.0536407,1.709208,-0.021533584,0.054739676,0.06264218,-0.53662544,-1.7272421,-0.9105677,0.6967387,-1.32876,0.1290566,-0.14272344,1.2825072,0.22047156
-0.2,-0.2,0.9999999999999999,-0.5235987755982988,-0.5235987755982988,0,-0.16395122,1.2304761,0.8410233,-0.26877406,-0.13632624,-0.62867475,-1.8966203,-0.91332775,0.6940981,-1.3425839,0.12729803,-0.1337199,1.2851597,0.18513183
-0.2,-0.2,0.9999999999999999,-0.5235987755982988,-0.5235987755982988,0,-0.3403871,0.26099575,-0.39827293,-0.47927073,-0.38150343,-0.65623397,-0.39269468,-0.91820544,0.6997102,-1.3340117,0.12931925,-0.14672278,1.2864587,0.15086052
-0.2,-0.2,0.9999999999999999,-0.5235987755982988,-0.5235987755982988,0,0.6462721,0.21529458,0.6052038,-0.14131102,0.14695913,-0.1517952,-0.23992932,-0.9113984,0.6972133,-1.336493,0.1285647,-0.10508626,1.2845126,0.22669403
-0.2,-0.2,0.9999999999999999,-0.5235987755982988,-0.5235987755982988,0,0.21379246,-0.35147765,-0.22008249,-0.22918446,-0.03401327,-0.25366914,-2.241105,-0.91603154,0.69391125,-1.3356876,0.12689586,-0.13754745,1.2844975,0.24434476
-0.2,-0.2,0.9999999999999999,-0.5235987755982988,-0.5235987755982988,0,0.45287886,0.22901012,-0.25163338,-0.5221523,0.08938516,0.7866327,0.75609636,-0.90961736,0.6958076,-1.3306366,0.12793763,-0.13922851,1.2868315,0.2129285
-0.2,-0.2,0.9999999999999999,-0.5235987755982988,-0.5235987755982988,0,1.9995935,0.90330535,-0.27889064,-0.39835885,1.2270796,0.08764308,-1.3720961,-0.9117663,0.69547266,-1.3294644,0.12804912,-0.1500049,1.2818865,0.22674817
-0.2,-0.2,0.9999999999999999,-0.5235987755982988,-0.5235987755982988,0,0.0024817311,-1.0298605,-0.19460933,0.1270788,0.56514823,-0.20066069,-1.0051101,-0.9080998,0.7020508,-1.3388294,0.12994125,-0.12074799,1.2876935,0.17978741
-0.2,-0.2,0.9999999999999999,-0.5235987755982988,-0.5235987755982988,0,-0.41762757,0.8472354,0.11385335,-0.10133867,0.16396601,0.4025723,-1.1181139,-0.91758525,0.6935163,-1.3358735,0.12693815,-0.12860304,1.2849883,0.2519227
-0.2,-0.2,0.9999999999999999,-0.5235987755982988,-0.5235987755982988,0,-0.55255973,-0.2962093,0.9439636,-0.09334685,-0.26259986,-0.18277106,-1.895252,-0.9117926,0.6995565,-1.327572,0.12970562,-0.13393348,1.2826545,0.15297201
-0.2,-0.2,0.9999999999999999,-0.5235987755982988,-0.5235987755982988,0,0.5539695,0.7926899,0.15457782,-0.3751774,-0.06358038,-0.084169425,-1.231163,-0.9128755,0.6952312,-1.3377913,0.12816517,-0.12885514,1.282335,0.19216935
-0.2,-0.2,0.9999999999999999,-0.5235987755982988,-0.5235987755982988,0,1.5202072,0.85409176,-0.1906849,-0.06527973,-0.22920576,-0.053746626,-2.7355042,-0.91285765,0.6986391,-1.3361411,0.12940322,-0.096985415,1.2773954,0.23755099
-0.2,-0.2,0.9999999999999999,-0.5235987755982988,-0.5235987755982988,0,-0.0795031,1.0681869,-1.4652113,-0.65629876,0.14925049,0.49992546,-0.49682188,-0.91827506,0.7032397,-1.3252243,0.1288434,-0.13194045,1.2811058,0.21062553
-0.2,-0.2,0.9999999999999999,-0.5235987755982988,-0.5235987755982988,0,0.1574769,0.9892164,-0.17791578,-0.11276135,-0.15105434,-0.9362967,-0.88839054,-0.9122512,0.69953835,-1.3306072,0.13270451,-0.14643529,1.2821331,0.17899111
-0.2,-0.2,0.9999999999999999,-0.5235987755982988,-0.5235987755982988,0,0.8999123,1.3222042,0.11401278,0.069613814,-0.39975986,-0.50370705,-1.2480452,-0.9185052,0.7008566,-1.336117,0.12821035,-0.11727464,1.2818387,0.22760613
-0.2,-0.2,0.9999999999999999,-0.5235987755982988,-0.5235987755982988,0,0.6530556,0.5877893,-0.47025827,-0.1295194,0.3257559,-0.28976163,-1.3747137,-0.9105922,0.69002515,-1.329797,0.12881114,-0.12508784,1.2817034,0.23098549
-0.2,-0.2,0.9999999999999999,-0.5235987755982988,-0.5235987755982988,0,0.19129702,0.0017970816,-0.4893248,-0.5257341,0.32388183,-1.5248352,0.7566083,-0.9112136,0.69320375,-1.3311048,0.12802137,-0.13034536,1.2843229,0.2088616
-0.2,-0.2,0.9999999999999999,-0.5235987755982988,-0.5235987755982988,0,-0.024808025,1.823239,-0.023733733,-0.027485667,0.15156022,0.09857396,-0.3037562,-0.914842,0.69573087,-1.3369204,0.12563436,-0.14615577,1.2841363,0.20954747
-0.2,-0.2,0.9999999999999999,-0.5235987755982988,-0.5235987755982988,0,-0.29969084,0.35063547,-0.544425,0.032399256,0.3919625,0.45207712,-0.789264,-0.9091373,0.6990184,-1.3381634,0.1293912,-0.1258006,1.2824038,0.2397269
-0.2,-0.2,0.9999999999999999,-0.5235987755982988,-0.5235987755982988,0,0.42992017,1.6285249,0.69336355,-0.3109707,0.09260832,0.059898514,0.18053833,-0.90941286,0.69775116,-1.3346481,0.12915389,-0.125406,1.282795,0.20083512
-0.2,-0.2,0.9999999999999999,-0.5235987755982988,-0.5235987755982988,0,-0.22234169,-0.30808666,-0.4689087,0.054538798,0.43091562,0.39702004,-1.1008576,-0.9121438,0.70060825,-1.3364711,0.12496744,-0.14135699,1.2878101,0.20832796
-0.2,-0.2,0.9999999999999999,-0.5235987755982988,-0.5235987755982988,0,0.98214716,0.70624834,0.11641589,0.0070241424,0.010361718,-0.4383522,-1.3237561,-0.9088126,0.70107424,-1.3372899,0.12867633,-0.1348094,1.284033,0.2278794
-0.2,-0.2,0.9999999999999999,-0.5235987755982988,-0.5235987755982988,0,0.63593346,0.7005905,0.3872748,-0.19723643,0.3446346,-0.6755248,0.12209672,-0.9129123,0.6987761,-1.333532,0.1267193,-0.12148992,1.2814777,0.20489986
-0.2,-0.2,0.9999999999999999,-0.5235987755982988,-0.5235987755982988,0,0.04150925,-0.19208777,0.13823633,-0.46473572,0.12325056,-0.6232183,-1.0168514,-0.90388095,0.6976576,-1.32762,0.13193399,-0.1394395,1.2825737,0.17019795
-0.2,-0.2,0.9999999999999999,-0.5235987755982988,-0.5235987755982988,0,0.6633665,-1.1822826,0.3078868,-0.20181587,-0.40740842,0.7254829,-0.7368242,-0.90667707,0.69621116,-1.3321867,0.1255098,-0.11123664,1.2843884,0.20811899
-0.2,-0.2,0.9999999999999999,-0.5235987755982988,-0.5235987755982988,0,0.010999219,-1.6963078,0.68345386,-0.08843002,-0.12916258,-0.20874824,0.06882565,-0.9083985,0.6948254,-1.3380079,0.12670913,-0.12155708,1.2910844,0.16471314
-0.2,-0.2,0.9999999999999999,-0.5235987755982988,-0.5235987755982988,0,0.57737005,0.9639692,-0.40515092,-0.068673566,-0.08950941,0.34250942,-0.5673862,-0.9142988,0.6952726,-1.3334237,0.1308297,-0.15322314,1.2843223,0.22987519
-0.2,-0.2,0.9999999999999999,-0.5235987755982988,-0.5235987755982988,0,-0.08986101,0.14291942,-0.15959255,-0.40314904,0.36098263,-0.55171806,-1.7702415,-0.90996623,0.6954415,-1.3411969,0.12779406,-0.12323721,1.2849607,0.20924427
-0.2,-0.2,0.9999999999999999,-0.5235987755982988,-0.5235987755982988,0,-0.66290236,0.0069346433,0.07598556,0.08237183,-0.15777242,-0.34499967,-0.09393325,-0.9101694,0.6992354,-1.329095,0.13019636,-0.10834676,1.2875074,0.23623712
-0.2,-0.2,0.9999999999999999,-0.5235987755982988,-0.5235987755982988,0,0.5511313,1.7595848,1.4074275,0.10001247,0.1947554,0.4017043,-0.57109666,-0.91722524,0.69634134,-1.3343313,0.12651843,-0.12463012,1.2845255,0.22817057
-0.2,-0.2,0.9999999999999999,-0.5235987755982988,-0.5235987755982988,0,1.1099695,-0.7003575,-1.0202333,-0.019372864,0.21474433,-0.10163191,-0.77540755,-0.9164972,0.69305646,-1.3311502,0.12765168,-0.14438011,1.2775688,0.19765106
-0.2,-0.2,0.9999999999999999,-0.5235987755982988,-0.5235987755982988,0,-0.013732966,0.7991103,0.13092454,-0.5048896,-0.18511586,-0.9942239,-1.1472106,-0.912926,0.69494957,-1.3334519,0.12799506,-0.11016539,1.2842621,0.24106368
-0.2,-0.2,0.9999999999999999,-0.5235987755982988,-0.5235987755982988,0,0.40892398,0.55183774,-0.088429615,0.3129165,-0.34190336,0.048386194,-0.9514496,-0.91282946,0.6988674,-1.335981,0.12765491,-0.11736863,1.2866577,0.2125588
-0.2,-0.2,0.9999999999999999,-0.5235987755982988,-0.5235987755982988,0,-0.282544,1.8658887,0.2329319,-0.3069039,-0.6443924,-1.2063301,-0.41696888,-0.9107581,0.69774175,-1.3413568,0.12791629,-0.13771412,1.2833797,0.22725427
-0.2,-0.2,0.9999999999999999,-0.5235987755982988,-0.5235987755982988,0,0.01966829,0.22238508,-0.40120146,0.26153758,-0.23614392,-0.8432078,-0.8305912,-0.92075354,0.6868784,-1.337522,0.1324133,-0.12726316,1.2828091,0.22023001
-0.2,-0.2,0.9999999999999999,-0.5235987755982988,-0.5235987755982988,0,1.095795,1.2230732,-0.065041564,-0.26463693,-0.06812021,-0.8222465,-0.7462251,-0.91205686,0.69361705,-1.3406906,0.12592773,-0.09564199,1.2838492,0.24873862
-0.2,-0.2,0.9999999999999999,-0.5235987755982988,-0.5235987755982988,0,0.24564283,0.7673465,0.6814046,0.31990388,-0.35877755,-0.1279151,-0.8731984,-0.9117211,0.6989051,-1.3299869,0.1276121,-0.13439149,1.283953,0.23689736
-0.2,-0.2,0.9999999999999999,-0.5235987755982988,-0.5235987755982988,0,0.23716275,1.2190608,0.39525107,-0.018614035,0.6515068,-0.8790976,-0.8074211,-0.91676813,0.7026687,-1.3340962,0.12671372,-0.11048982,1.2860059,0.20212685
-0.2,-0.2,0.9999999999999999,-0.5235987755982988,-0.5235987755982988,0,-0.20654316,-0.42679304,0.08085936,-0.1682837,0.5138651,-1.438355,-1.3577883,-0.91256124,0.69646865,-1.3392158,0.12944427,-0.12166437,1.2840186,0.18542081
-0.2,-0.2,0.9999999999999999,-0.5235987755982988,-0.5235987755982988,0,1.4350052,0.14883675,0.2855957,-0.11481839,0.13919587,-0.107837185,-0.8656282,-0.918399,0.6911299,-1.3290354,0.12968168,-0.11767673,1.2830054,0.17210108
-0.2,-0.2,0.9999999999999999,-0.5235987755982988,-0.5235987755982988,0,0.30731794,0.90135324,0.6128913,0.03416535,-0.093350716,-0.28371432,-0.5734277,-0.9161373,0.702374,-1.3341175,0.12515512,-0.13979636,1.2830858,0.17846832
-0.2,-0.2,0.9999999999999999,-0.5235987755982988,-0.5235987755982988,0,-0.20294951,-1.0777014,-0.07738436,0.0118237445,0.27288032,-0.63847536,-1.1102436,-0.9069088,0.69025517,-1.3304685,0.1305623,-0.13490616,1.2811502,0.2025984
-0.2,-0.2,0.9999999999999999,-0.5235987755982988,-0.5235987755982988,0,-0.44248143,1.2318823,0.09904568,-0.075024776,0.28151312,-0.42986012,-0.5829502,-0.9105266,0.6980255,-1.3338485,0.12835431,-0.12849927,1.2813598,0.2133562
-0.2,-0.2,0.9999999999999999,-0.5235987755982988,-0.5235987755982988,0,0.8384436,-0.027536156,0.013341628,0.4175086,-0.19447441,-0.82572854,-0.98011404,-0.90990984,0.69743246,-1.3394878,0.12761378,-0.119864024,1.2848132,0.22966205
-0.2,-0.2,0.9999999999999999,-0.5235987755982988,-0.5235987755982988,0,1.2381201,0.6319394,0.09259512,0.4061143,-0.15638559,0.40163752,-1.6300313,-0.91426265,0.69687253,-1.3317974,0.12570429,-0.13987213,1.2806593,0.20451547
-0.2,-0.2,0.9999999999999999,-0.5235987755982988,-0.5235987755982988,0,0.234964,0.9002394,0.18058863,-0.8135167,-0.17715517,-0.9057937,-1.5328265,-0.91472197,0.6986142,-1.3342984,0.1293143,-0.1367325,1.2848471,0.16213867
-0.2,-0.2,0.9999999999999999,-0.5235987755982988,-0.5235987755982988,0,0.2961708,0.1123524,0.021697266,0.34993154,0.25828996,0.05758521,-1.3534696,-0.9155022,0.6973854,-1.3352698,0.12825483,-0.12081953,1.2889024,0.18004873
-0.2,-0.2,0.9999999999999999,-0.5235987755982988,-0.5235987755982988,0,1.6591321,-1.9650768,0.9948098,0.2860063,-0.7206992,0.2868697,-0.10123417,-0.9124505,0.70044196,-1.3310158,0.12867084,-0.14407353,1.2807342,0.19597559
-0.2,-0.2,0.9999999999999999,-0.5235987755982988,-0.5235987755982988,0,-0.551212,-1.3627821,-0.73918265,-0.18633455,-0.7636015,0.17005771,-1.5159603,-0.912038,0.693031,-1.3294377,0.12845698,-0.12702109,1.2864558,0.19170916
-0.2,-0.2,0.9999999999999999,-0.5235987755982988,-0.5235987755982988,0,-0.03892669,0.5685414,0.120458424,0.23708908,0.23956284,0.35245922,-0.66548043,-0.9117641,0.6963878,-1.3333429,0.12994872,-0.14986587,1.278219,0.23777363
-0.2,-0.2,0.9999999999999999,-0.5235987755982988,-0.5235987755982988,0,0.06307382,0.9300161,-0.25417078,-0.3255388,-0.5651793,-0.4962842,-0.5511577,-0.9157846,0.70077497,-1.3370221,0.1270207,-0.119678676,1.2852551,0.20656602
-0.2,-0.2,0.9999999999999999,-0.5235987755982988,-0.5235987755982988,0,0.24241102,0.43020672,0.17540649,-0.16544664,0.33116633,-0.25767875,-1.0101588,-0.9144869,0.6981918,-1.3278,0.12722205,-0.14118873,1.2866117,0.178929
-0.2,-0.2,0.9999999999999999,-0.5235987755982988,-0.5235987755982988,0,0.16841918,1.0913904,-0.31505716,0.17428584,-0.13164891,0.45358282,-0.634692,-0.9143634,0.69617635,-1.3357481,0.12953468,-0.13636312,1.2810427,0.22642274
-0.2,-0.2,0.9999999999999999,-0.5235987755982988,-0.5235987755982988,0,1.1254251,-0.7489554,-0.32635227,-0.5155994,-0.0270272,0.54563475,-0.7788379,-0.91463554,0.6932778,-1.328608,0.12934501,-0.1252265,1.2855746,0.25249138
-0.2,-0.2,0.9999999999999999,-0.5235987755982988,-0.5235987755982988,0,0.14154729,1.3456372,-0.388932,-0.118942946,0.6015671,0.5647113,0.013887041,-0.913292,0.69979805,-1.3381628,0.12876715,-0.10673899,1.2842368,0.20920558
-0.2,-0.2,0.9999999999999999,-0.5235987755982988,-0.5235987755982988,0,0.5330576,1.8805475,-0.037558787,-0.13836035,0.0106920935,0.2096413,-0.48862725,-0.9124814,0.70147276,-1.3333069,0.1270916,-0.14258792,1.2834637,0.21806332
-0.2,-0.2,0.9999999999999999,-0.5235987755982988,-0.5235987755982988,0,0.16494405,-0.7282729,-0.2854242,0.12759158,-0.047080718,0.20370674,-2.5893378,-0.9124532,0.6964741,-1.3395927,0.12687522,-0.11676928,1.2869176,0.22111589
-0.2,-0.2,0.9999999999999999,-0.5235987755982988,-0.5235987755982988,0,1.2167122,0.6506523,-0.034277942,-0.27653527,0.24351616,-0.5999001,-0.6802264,-0.9109137,0.6990549,-1.3343192,0.1295152,-0.120152116,1.286245,0.21895842
-0.2,-0.2,0.9999999999999999,-0.5235987755982988,-0.5235987755982988,0,0.03935342,0.3617525,-1.1413485,-0.12126344,-0.12451153,0.49640834,-0.0683375,-0.91231716,0.7003116,-1.3328891,0.12902845,-0.10651441,1.2863256,0.23397143
-0.2,-0.2,0.9999999999999999,-0.5235987755982988,-0.5235987755982988,0,0.14177035,0.7803041,0.079826675,-0.51302296,0.5396511,0.799335,-0.8643056,-0.914566,0.6965421,-1.3237226,0.1296431,-0.13209727,1.2887558,0.21067746
-0.2,-0.2,0.9999999999999999,-0.5235987755982988,-0.5235987755982988,0,0.700108,-0.9468236,-0.3279932,-0.2045084,0.012625922,-0.30727112,-0.64619106,-0.912717,0.69764274,-1.3319936,0.13053884,-0.12679745,1.2892307,0.22536041
-0.2,-0.2,0.9999999999999999,-0.5235987755982988,-0.5235987755982988,0,0.016265027,0.7234182,-0.38235635,0.13954292,0.42055592,0.54365814,-0.6821652,-0.91344523,0.6996434,-1.3298868,0.12761857,-0.13501304,1.281192,0.16682984
-0.2,-0.2,0.9999999999999999,-0.5235987755982988,-0.5235987755982988,0,0.12727118,0.27094364,0.7895993,-0.28811452,-0.22692566,0.21201734,-1.6859014,-0.91322106,0.70117855,-1.3279513,0.13008064,-0.14644445,1.2863591,0.18764745
-0.2,-0.2,0.9999999999999999,-0.5235987755982988,-0.5235987755982988,0,-0.005381711,0.9755372,-0.4488383,0.10014076,0.09440553,-0.26308897,-0.34955722,-0.91249114,0.7000913,-1.3272619,0.12603158,-0.12641397,1.2852477,0.21740596
-0.2,-0.2,0.9999999999999999,-0.5235987755982988,-0.5235987755982988,0,-0.118431605,1.5490898,0.070857786,0.047965914,0.21639314,0.7038157,0.22222684,-0.91116655,0.702904,-1.3394705,0.12772672,-0.13104053,1.2856793,0.245267
-0.2,-0.2,0.9999999999999999,-0.5235987755982988,-0.5235987755982988,0,0.15958072,0.688234,-0.115160406,-0.32712865,-0.1878493,0.5283961,-1.2865181,-0.9101531,0.70095867,-1.3309008,0.12958561,-0.108691245,1.286685,0.19647945
-0.2,-0.2,0.9999999999999999,-0.5235987755982988,-0.5235987755982988,0,0.8641274,0.50227314,0.74281067,-0.091784045,-0.21696903,0.62772393,-1.2898209,-0.9078067,0.69914776,-1.3328176,0.12784618,-0.13217713,1.2869046,0.188502
-0.2,-0.2,0.9999999999999999,-0.5235987755982988,-0.5235987755982988,0,0.612586,1.2203658,0.10708623,-0.33056614,-0.18547432,0.45027503,-0.9805928,-0.91527516,0.7005925,-1.3351408,0.12609035,-0.112838134,1.2883803,0.18545681
-0.2,-0.2,0.9999999999999999,-0.5235987755982988,-0.5235987755982988,0,-0.072848134,1.4430066,0.20389742,0.042925,-0.07410515,0.9027879,-0.95291,-0.9162646,0.69339013,-1.3359401,0.12894921,-0.13214973,1.2850555,0.21369964
-0.2,-0.2,0.9999999999999999,-0.5235987755982988,-0.5235987755982988,0,0.579832,-1.5826517,-0.2356019,-0.15250814,-0.35890535,0.9989549,-1.9293549,-0.9169908,0.6983081,-1.3343972,0.13050003,-0.14068943,1.2834772,0.14272752
-0.2,-0.2,0.9999999999999999,-0.5235987755982988,-0.5235987755982988,0,0.650188,1.5881562,-0.5303787,0.13537548,0.29033914,0.02928935,-0.85950226,-0.91669905,0.69576836,-1.3358959,0.12889531,-0.1275155,1.2799708,0.18723497
-0.2,-0.2,0.9999999999999999,-0.5235987755982988,-0.5235987755982988,0,0.26184827,0.99515134,0.06554463,-0.5671092,0.7075059,0.6037996,-2.6402252,-0.9138591,0.6974017,-1.3299311,0.1280142,-0.15293597,1.2855924,0.21281204
-0.2,-0.2,0.9999999999999999,-0.5235987755982988,-0.5235987755982988,0,0.34315884,1.7338381,-0.18538591,0.0027789124,0.15446757,-0.5900266,-0.6042136,-0.91312623,0.7029219,-1.3379459,0.12560645,-0.1255278,1.289849,0.17732555
-0.2,-0.2,0.9999999999999999,-0.5235987755982988,-0.5235987755982988,0,-0.6351947,-1.5062994,-0.12115245,-0.3275717,0.10430485,-0.6827187,-0.08443862,-0.9090139,0.69829154,-1.3316863,0.12946105,-0.13844378,1.2832973,0.15665421
-0.2,-0.2,0.9999999999999999,-0.5235987755982988,-0.5235987755982988,0,0.6188752,-0.19551478,0.46096435,-0.09662617,-0.6272016,-0.15049145,-0.68674636,-0.92053115,0.69701934,-1.3318424,0.12890962,-0.11058053,1.2817681,0.23170139
-0.2,-0.2,0.9999999999999999,-0.5235987755982988,-0.5235987755982988,0,0.20165999,0.30803958,-0.5295705,-0.41531143,0.11501969,-0.31702155,-0.63658005,-0.9076027,0.69126093,-1.3368926,0.12919326,-0.11993038,1.2841365,0.15479223
-0.2,-0.2,0.9999999999999999,-0.5235987755982988,-0.5235987755982988,0,0.8649804,1.0013473,-0.20418188,0.024118183,0.21876413,-0.31436053,-1.1556575,-0.9077144,0.6913717,-1.3332868,0.12982726,-0.13611816,1.2889483,0.21376409
-0.2,-0.2,0.9999999999999999,-0.5235987755982988,-0.5235987755982988,0,0.44735387,0.7933604,-0.17788616,-0.4190207,0.28390488,0.16510116,-1.8028132,-0.91337913,0.69984436,-1.3308465,0.12597898,-0.12560636,1.2858888,0.18755402
-0.2,-0.2,0.9999999999999999,-0.5235987755982988,-0.5235987755982988,0,-0.26486695,0.8608768,-0.11092791,-0.3201553,-0.50073975,0.84036285,-1.9311315,-0.9093861,0.68957126,-1.3330841,0.12747909,-0.10490009,1.2827038,0.17312177
