sanky1234/BimanualDexCatch/isaacgymenvs/cem_results/football_pose_-0.1_0.0_1.2999999999999998_0.5235987755982988_0.5235987755982988_0_2025-05-25.csv
x,y,z,roll,pitch,yaw,robot1/joint1,robot1/joint2,robot1/joint3,robot1/joint4,robot1/joint5,robot1/joint6,robot1/joint7,robot2/joint1,robot2/joint2,robot2/joint3,robot2/joint4,robot2/joint5,robot2/joint6,robot2/joint7
-0.1,0.0,1.2999999999999998,0.5235987755982988,0.5235987755982988,0,-0.7011685,-1.2963247,1.0703906,-0.13615672,-0.034750186,1.1218706,0.46402487,1.7293963,1.1024092,-0.4306362,-0.055921093,-0.35486868,1.0392778,0.319736
-0.1,0.0,1.2999999999999998,0.5235987755982988,0.5235987755982988,0,-0.7033731,-1.2955378,1.0843704,-0.06253789,0.089224346,1.0205336,-1.0260563,1.7409815,1.2349603,-0.27074996,-0.024667744,-0.055204585,1.2798474,0.25703055
-0.1,0.0,1.2999999999999998,0.5235987755982988,0.5235987755982988,0,-0.70049804,-1.2929057,1.0742271,-0.102437496,-0.15130305,1.0319759,0.50525254,1.7216582,1.1239258,-0.20405667,-0.023074225,0.2338953,1.1395427,-0.17142265
-0.1,0.0,1.2999999999999998,0.5235987755982988,0.5235987755982988,0,-0.70174855,-1.2935525,1.071058,-0.10591616,0.04945235,1.2321324,-0.4348574,1.7323227,1.1226251,-0.3943439,-0.096750945,0.19025315,1.0430726,0.794892
-0.1,0.0,1.2999999999999998,0.5235987755982988,0.5235987755982988,0,-0.70143116,-1.2939221,1.0872116,-0.08300774,0.022595793,1.2312592,-0.6442557,1.7128224,1.3823131,-0.14886025,-0.013626905,-0.3219212,1.1884319,0.6832857
-0.1,0.0,1.2999999999999998,0.5235987755982988,0.5235987755982988,0,-0.70132005,-1.2949731,1.0921893,-0.102869906,0.07643982,1.3372917,-0.05075945,1.736356,1.1367223,-0.176475,0.047578406,0.2975487,1.2284364,0.36384135
-0.1,0.0,1.2999999999999998,0.5235987755982988,0.5235987755982988,0,-0.7001613,-1.2933007,1.0986938,-0.08558632,-0.10457872,0.8958686,-0.22031052,1.7264104,1.1654075,-0.24542993,-0.11096588,-0.22668436,1.2412419,0.7137519
-0.1,0.0,1.2999999999999998,0.5235987755982988,0.5235987755982988,0,-0.70208085,-1.2956702,1.0725834,-0.12442095,0.03215997,1.1620243,-0.9075622,1.7193422,1.1885885,-0.28425944,0.004432569,-0.05381487,1.1066977,0.099302776
-0.1,0.0,1.2999999999999998,0.5235987755982988,0.5235987755982988,0,-0.70003414,-1.2957087,1.089586,-0.07595808,-0.057526663,1.1331099,-0.36989105,1.718021,1.1677824,-0.46820876,-0.015442423,-0.021604853,1.1073962,-1.031121
-0.1,0.0,1.2999999999999998,0.5235987755982988,0.5235987755982988,0,-0.699345,-1.2947676,1.0832653,-0.109081455,-0.03501693,0.9862401,0.5987164,1.7212436,1.2295214,-0.28869033,-0.09279307,0.29318532,1.0392247,0.31157497
-0.1,0.0,1.2999999999999998,0.5235987755982988,0.5235987755982988,0,-0.7026072,-1.2963518,1.0826985,-0.06332903,0.18682162,0.9800085,-0.2497557,1.7251052,1.345887,-0.037225444,-0.055171106,0.23476511,1.2509242,0.60457367
-0.1,0.0,1.2999999999999998,0.5235987755982988,0.5235987755982988,0,-0.7010353,-1.2948889,1.0933285,-0.06994413,-0.15011592,1.0701141,-0.45605275,1.7233605,1.2346917,-0.30297917,-0.027842013,0.013451569,1.0923567,1.4005444
-0.1,0.0,1.2999999999999998,0.5235987755982988,0.5235987755982988,0,-0.70467746,-1.297308,1.0928531,-0.112114266,0.040878516,1.0462959,-0.60454017,1.7524709,1.2427685,0.09698173,-0.019076286,-0.30813277,1.2885361,0.7572196
-0.1,0.0,1.2999999999999998,0.5235987755982988,0.5235987755982988,0,-0.7009081,-1.2962898,1.0882039,-0.09921979,0.12810457,1.1379416,-1.0049329,1.7366807,1.2361238,-0.18243492,-0.04370932,-0.25164667,1.0965296,0.9406961
-0.1,0.0,1.2999999999999998,0.5235987755982988,0.5235987755982988,0,-0.7017418,-1.2937248,1.0710104,-0.116273575,-0.19650857,1.0780424,-0.42007998,1.7035178,1.2300973,0.0064390698,-0.012613815,-0.2971673,1.1725944,0.94864637
-0.1,0.0,1.2999999999999998,0.5235987755982988,0.5235987755982988,0,-0.7027011,-1.2961155,1.0818375,-0.06986844,-0.3942659,0.9278592,-0.74109983,1.7244611,1.2371202,-0.48027357,-0.028617077,-0.08852436,1.1140306,1.0619549
-0.1,0.0,1.2999999999999998,0.5235987755982988,0.5235987755982988,0,-0.702021,-1.2979436,1.0909603,-0.12379533,-0.02266364,1.1848491,-1.3725075,1.7219478,1.1773094,-0.22656706,-0.018692296,-0.06348108,1.1233985,0.28268418
-0.1,0.0,1.2999999999999998,0.5235987755982988,0.5235987755982988,0,-0.703118,-1.2966031,1.0940993,-0.07400937,-0.11928466,1.003564,-0.02708191,1.7195548,1.2691609,0.18055609,-0.043988362,-0.0825097,1.0521399,-0.7147761
-0.1,0.0,1.2999999999999998,0.5235987755982988,0.5235987755982988,0,-0.7005318,-1.294584,1.0646067,-0.10380887,-0.14771412,1.059052,-0.7381312,1.72341,1.2083973,-0.20426314,-0.0022559343,0.005456895,1.2970754,0.060394883
-0.1,0.0,1.2999999999999998,0.5235987755982988,0.5235987755982988,0,-0.7026018,-1.2955278,1.0719931,-0.075776584,0.05271379,1.2057719,-0.4683126,1.7223808,1.0753703,-0.4820319,-0.038119417,-0.012286953,1.2297997,0.98436546
-0.1,0.0,1.2999999999999998,0.5235987755982988,0.5235987755982988,0,-0.70323557,-1.2955275,1.075179,-0.08913638,-0.27327213,1.0273732,-1.7404262,1.7258605,1.1491854,-0.30883363,-0.11779071,-0.2534745,1.0547458,-0.35569713
-0.1,0.0,1.2999999999999998,0.5235987755982988,0.5235987755982988,0,-0.7017312,-1.2975359,1.0933055,-0.08655047,-0.13637763,1.2885753,-1.5950478,1.7251775,1.2131587,-0.15838788,-0.07178712,0.32545117,1.2465897,0.383189
-0.1,0.0,1.2999999999999998,0.5235987755982988,0.5235987755982988,0,-0.70103186,-1.2947165,1.0827996,-0.09274822,-0.18426138,1.0907705,-0.44124722,1.7168539,1.1383108,-0.5728778,-0.047191627,-0.18359828,1.0379502,-0.59183025
-0.1,0.0,1.2999999999999998,0.5235987755982988,0.5235987755982988,0,-0.70244735,-1.2978283,1.0876639,-0.05823284,-0.36141732,1.055377,-0.67901194,1.7270842,1.3250095,-0.22386837,-0.031487778,-0.1462411,0.99129087,0.5833948
-0.1,0.0,1.2999999999999998,0.5235987755982988,0.5235987755982988,0,-0.7004987,-1.2959594,1.0881265,-0.10956017,-0.28191796,1.0947485,-1.0706251,1.750425,1.1589218,-0.63773817,-0.022536611,-0.00041925887,1.0737938,0.37260064
-0.1,0.0,1.2999999999999998,0.5235987755982988,0.5235987755982988,0,-0.7010358,-1.2963804,1.0848167,-0.090667225,0.1718461,0.8949157,0.37796912,1.7390418,1.2200649,-0.37188828,-0.076926276,-0.45706877,1.1034806,1.004699
-0.1,0.0,1.2999999999999998,0.5235987755982988,0.5235987755982988,0,-0.7022098,-1.2951702,1.0902793,-0.13676055,0.06288485,0.98006153,-0.42112374,1.7556623,1.2974259,-0.38556826,-0.0058915373,0.6643816,1.2300907,0.87465173
-0.1,0.0,1.2999999999999998,0.5235987755982988,0.5235987755982988,0,-0.7017295,-1.2987485,1.0788425,-0.07865161,-0.15418397,1.1592467,-0.35986403,1.7346951,1.1841904,-0.28645185,0.026989747,0.19202638,1.1022139,0.19818628
-0.1,0.0,1.2999999999999998,0.5235987755982988,0.5235987755982988,0,-0.7008517,-1.2931353,1.0719345,-0.080689326,0.17695932,0.9171498,-0.3030382,1.7187202,1.1866798,-0.08269568,-0.09144543,-0.14820156,1.1891835,0.36599314
-0.1,0.0,1.2999999999999998,0.5235987755982988,0.5235987755982988,0,-0.7020333,-1.2945447,1.09156,-0.11335211,0.04326254,0.8525136,-0.07153312,1.7119453,1.2382354,-0.0103358375,-0.03148763,-0.29912764,1.2304972,0.3135199
-0.1,0.0,1.2999999999999998,0.5235987755982988,0.5235987755982988,0,-0.7007389,-1.2956159,1.0853394,-0.07414046,0.21405655,1.1871896,0.1076679,1.6945341,1.2647923,-0.3535957,0.06615213,0.020898825,1.1774253,0.83441687
-0.1,0.0,1.2999999999999998,0.5235987755982988,0.5235987755982988,0,-0.69977903,-1.2953981,1.0794162,-0.122152135,0.043117248,1.0295167,0.6355315,1.74761,1.1491569,-0.13156247,-0.0006129695,-0.1947354,1.1058347,0.057450496
-0.1,0.0,1.2999999999999998,0.5235987755982988,0.5235987755982988,0,-0.7007803,-1.297746,1.0751483,-0.100746885,-0.13827148,1.0084445,-0.6614033,1.7212058,1.1593647,-0.119655326,-0.015247542,0.10239793,1.05629,0.31471124
-0.1,0.0,1.2999999999999998,0.5235987755982988,0.5235987755982988,0,-0.6998702,-1.2941169,1.0880269,-0.10062827,0.03701637,1.1847404,0.21452774,1.726685,1.2672176,-0.14371322,0.040589694,-0.045953512,1.0482898,0.04139501
-0.1,0.0,1.2999999999999998,0.5235987755982988,0.5235987755982988,0,-0.7005395,-1.2942672,1.0760835,-0.09874013,-0.030194955,1.2493901,-0.96123403,1.7323022,1.2760497,0.010099536,0.07720738,-0.6132784,1.2538805,1.2183715
-0.1,0.0,1.2999999999999998,0.5235987755982988,0.5235987755982988,0,-0.70148456,-1.2929286,1.0830759,-0.09506568,-0.30680966,1.155374,-0.94825405,1.7421942,1.3274511,-0.07566045,-0.022191621,0.13114044,1.1797818,0.3767403
-0.1,0.0,1.2999999999999998,0.5235987755982988,0.5235987755982988,0,-0.7011808,-1.2952696,1.0889144,-0.1138747,-0.27142155,1.1304746,0.19020455,1.704957,1.2279657,0.05441222,-0.062456563,-0.39447588,1.2471951,0.90104043
-0.1,0.0,1.2999999999999998,0.5235987755982988,0.5235987755982988,0,-0.6985763,-1.2943575,1.0765634,-0.09577371,0.085455954,1.0033997,-0.2036056,1.7272093,1.2389532,-0.3109665,0.020877738,0.1026785,1.1991682,-0.12023812
-0.1,0.0,1.2999999999999998,0.5235987755982988,0.5235987755982988,0,-0.6979781,-1.2960831,1.0797443,-0.100493796,-0.07290486,1.012688,-0.6574336,1.7217412,1.2084213,-0.33864564,-0.048085365,0.42043108,1.0585358,0.77844
-0.1,0.0,1.2999999999999998,0.5235987755982988,0.5235987755982988,0,-0.6996544,-1.3002578,1.0716774,-0.113666154,0.21959978,1.0179073,-0.8176382,1.7320603,1.1390586,-0.02210323,-0.05329952,-0.08272156,1.0941486,-0.12185342
-0.1,0.0,1.2999999999999998,0.5235987755982988,0.5235987755982988,0,-0.70081204,-1.2967085,1.0961633,-0.05966099,0.004395091,1.1854491,-0.0052519226,1.7154224,1.1743416,0.011340821,-0.044080384,-0.26993403,1.1730705,0.40747404
-0.1,0.0,1.2999999999999998,0.5235987755982988,0.5235987755982988,0,-0.69933385,-1.2941692,1.0951848,-0.10325291,-0.088085055,1.2624831,-0.2922062,1.7573743,1.3655108,-0.16690539,-0.0036278989,-0.20738499,1.1148703,-0.21652053
-0.1,0.0,1.2999999999999998,0.5235987755982988,0.5235987755982988,0,-0.70072865,-1.2963567,1.0727936,-0.12316619,-0.13477133,1.1617298,-0.7991537,1.7508621,1.4833375,-0.49614507,0.026970461,0.11528945,1.1210866,0.75285625
-0.1,0.0,1.2999999999999998,0.5235987755982988,0.5235987755982988,0,-0.70153296,-1.2936963,1.0765386,-0.12069187,0.3401396,1.3245316,-0.8917722,1.7242007,1.1656802,-0.3637049,-0.08743909,-0.0224579,1.3001909,0.8793226
-0.1,0.0,1.2999999999999998,0.5235987755982988,0.5235987755982988,0,-0.7004967,-1.2969217,1.086886,-0.08515228,-0.2585637,0.9945786,-1.7737519,1.7288573,1.2642056,-0.2348662,-0.06668474,0.00036425501,1.194305,1.0758411
-0.1,0.0,1.2999999999999998,0.5235987755982988,0.5235987755982988,0,-0.69919133,-1.2956413,1.090641,-0.104452394,-0.13019067,1.2943424,0.15225537,1.7208982,1.2768904,-0.024873333,-0.10035777,0.27046138,1.1337185,1.2120305
-0.1,0.0,1.2999999999999998,0.5235987755982988,0.5235987755982988,0,-0.7009764,-1.2943579,1.0971401,-0.08552488,0.074659415,1.2437638,0.36497414,1.7308279,1.2604654,-0.3167974,-0.10838914,-0.30567506,1.183415,0.029745486
-0.1,0.0,1.2999999999999998,0.5235987755982988,0.5235987755982988,0,-0.6991909,-1.2941749,1.0732266,-0.06529632,0.040488522,1.0816354,-1.5606978,1.7491525,1.2177801,-0.33218494,-0.10593605,0.25094372,1.3465034,0.39832783
-0.1,0.0,1.2999999999999998,0.5235987755982988,0.5235987755982988,0,-0.7016351,-1.2965488,1.0745388,-0.100080006,0.11141124,1.1220217,-0.45556808,1.714485,1.262069,-0.2580624,-0.07447511,0.1559739,1.0227057,0.80904526
-0.1,0.0,1.2999999999999998,0.5235987755982988,0.5235987755982988,0,-0.69858587,-1.2944268,1.0956084,-0.08989975,0.02672436,0.8839262,-1.1824913,1.7219049,1.3165807,-0.13580078,-0.02088921,-0.10599501,1.2047397,0.85201997
-0.1,0.0,1.2999999999999998,0.5235987755982988,0.5235987755982988,0,-0.699887,-1.2949909,1.0861894,-0.067003585,0.07929756,1.0116788,-0.6553575,1.7478408,1.0986602,0.034913044,0.04969251,-0.16843043,1.2184823,0.8439159
-0.1,0.0,1.2999999999999998,0.5235987755982988,0.5235987755982988,0,-0.7024134,-1.2934889,1.0908237,-0.13728261,0.09039501,0.9318309,0.98992014,1.7168872,1.3311703,-0.50708884,-0.016824812,0.2257947,1.1779324,0.52916807
-0.1,0.0,1.2999999999999998,0.5235987755982988,0.5235987755982988,0,-0.7029801,-1.2949125,1.09441,-0.113455884,0.08741302,1.0913866,-1.3527362,1.732841,1.2881311,-0.3043122,-0.016797746,-0.16859767,1.2307683,-0.23207638
-0.1,0.0,1.2999999999999998,0.5235987755982988,0.5235987755982988,0,-0.7001918,-1.2960012,1.0940876,-0.0761539,0.23248976,1.0587554,0.018565698,1.7315326,1.157375,-0.28514424,-0.10718122,-0.07375817,1.1267608,0.7309063
-0.1,0.0,1.2999999999999998,0.5235987755982988,0.5235987755982988,0,-0.7015038,-1.2974236,1.0815821,-0.118719056,0.058805622,0.8746366,-0.4007291,1.75237,1.2067071,-0.107800804,-0.094622366,-0.054337665,1.3123178,0.79158515
-0.1,0.0,1.2999999999999998,0.5235987755982988,0.5235987755982988,0,-0.698844,-1.2943785,1.0769511,-0.08607059,-0.011626038,0.9409065,-1.9982408,1.7282348,1.127793,0.16142894,-0.065632306,-0.3037464,1.0916609,0.27574995
-0.1,0.0,1.2999999999999998,0.5235987755982988,0.5235987755982988,0,-0.70100415,-1.2988166,1.0745634,-0.12267775,0.012386682,1.0667568,-0.6975105,1.7250473,1.3408333,-0.17032759,-0.038793042,0.21769165,1.2368851,0.90424013
-0.1,0.0,1.2999999999999998,0.5235987755982988,0.5235987755982988,0,-0.6995499,-1.2957187,1.084952,-0.14029467,-0.06317637,0.9880071,0.88729537,1.745274,1.3466771,-0.25660852,-0.057362355,-0.4079567,1.1451241,0.44361958
-0.1,0.0,1.2999999999999998,0.5235987755982988,0.5235987755982988,0,-0.703424,-1.2947315,1.0847863,-0.113856405,0.07676348,1.0605241,-1.7908276,1.7337834,1.2638549,-0.2994235,-0.026014913,-0.1486764,1.1333778,1.0436441
-0.1,0.0,1.2999999999999998,0.5235987755982988,0.5235987755982988,0,-0.7007434,-1.2952756,1.0741454,-0.09471575,-0.09230119,1.1424737,-0.6324644,1.7280531,1.1436205,-0.19076394,-0.11763369,-0.13285328,1.1356049,0.47819737
-0.1,0.0,1.2999999999999998,0.5235987755982988,0.5235987755982988,0,-0.7029498,-1.2944461,1.0897989,-0.106262304,0.31079423,1.2403965,-0.102444276,1.7159413,1.3584315,-0.13692364,-0.025554776,-0.052323423,1.2205487,-0.39146653
-0.1,0.0,1.2999999999999998,0.5235987755982988,0.5235987755982988,0,-0.70123786,-1.2940369,1.0688168,-0.07681014,0.048953366,1.0056667,-0.2573516,1.7466964,1.0822617,-0.351147,0.007657309,-0.026529185,1.1959846,0.09563945
-0.1,0.0,1.2999999999999998,0.5235987755982988,0.5235987755982988,0,-0.7007273,-1.2948059,1.0747266,-0.07065349,0.05374366,1.1716473,-1.0311451,1.7322432,1.2255713,-0.16306175,-0.14699475,-0.23773335,1.016521,0.27461708
-0.1,0.0,1.2999999999999998,0.5235987755982988,0.5235987755982988,0,-0.7009202,-1.2957661,1.085404,-0.06479197,-0.06033383,1.1435522,-0.8677914,1.727249,1.2133418,-0.12782535,0.021953514,-0.037662826,1.2513036,1.512956
-0.1,0.0,1.2999999999999998,0.5235987755982988,0.5235987755982988,0,-0.69966686,-1.2948816,1.0935194,-0.080901794,-0.0497482,1.0621251,-0.29353726,1.7367536,1.1725781,-0.30586496,-0.09705955,-0.13342474,1.168442,0.56407285
-0.1,0.0,1.2999999999999998,0.5235987755982988,0.5235987755982988,0,-0.7005378,-1.2936713,1.0863867,-0.084339306,0.11265752,1.0937912,0.43594286,1.7334223,1.2883599,-0.597344,-0.097132094,-0.031181395,1.1474142,0.33709556
-0.1,0.0,1.2999999999999998,0.5235987755982988,0.5235987755982988,0,-0.700815,-1.2959855,1.0794871,-0.10245642,0.17672065,1.0790306,-0.006447692,1.7133918,1.216758,-0.15993103,-0.06737945,0.21194753,1.1046406,-0.11246191
-0.1,0.0,1.2999999999999998,0.5235987755982988,0.5235987755982988,0,-0.70082754,-1.2964761,1.0903705,-0.07228053,0.019476123,1.1053988,0.53338635,1.7171277,1.210932,-0.29974574,-0.025206998,-0.29196042,1.1578631,0.8469695
-0.1,0.0,1.2999999999999998,0.5235987755982988,0.5235987755982988,0,-0.7022406,-1.2987572,1.0786833,-0.08101323,-0.13902158,0.97588605,0.02905669,1.7317389,1.2997488,-0.5968359,-0.026194893,-0.29312992,1.1031871,-0.11528776
-0.1,0.0,1.2999999999999998,0.5235987755982988,0.5235987755982988,0,-0.70140654,-1.2951034,1.0904073,-0.09801405,-0.029050544,0.9483892,-0.029052926,1.7344316,1.2751235,-0.24901307,-0.08650882,-0.10026507,1.152581,0.76271755
-0.1,0.0,1.2999999999999998,0.5235987755982988,0.5235987755982988,0,-0.7001823,-1.294513,1.0833913,-0.09524707,-0.21032138,1.2129437,-0.10166906,1.7367418,1.1757563,-0.00025505526,0.05217856,-0.11923307,1.1326091,0.70085293
-0.1,0.0,1.2999999999999998,0.5235987755982988,0.5235987755982988,0,-0.7000019,-1.2954305,1.0884824,-0.034056526,-0.098255344,1.1081135,-0.7082831,1.7362208,1.2005357,-0.16720493,-0.13343611,0.25582978,1.2603511,0.2823057
-0.1,0.0,1.2999999999999998,0.5235987755982988,0.5235987755982988,0,-0.7006287,-1.2989341,1.0789083,-0.1423678,-0.10352946,0.9490778,-0.12670825,1.7237614,1.3620532,-0.12233822,0.017990133,0.053680018,1.2227217,0.6013107
-0.1,0.0,1.2999999999999998,0.5235987755982988,0.5235987755982988,0,-0.70094633,-1.2961986,1.0888447,-0.091869056,0.21522696,0.892741,-2.2603724,1.7369931,1.1574088,-0.18700118,-0.10441961,-0.34637603,1.2216053,1.831347
-0.1,0.0,1.2999999999999998,0.5235987755982988,0.5235987755982988,0,-0.70047694,-1.2968478,1.0675476,-0.12483411,0.14123547,1.1959331,0.011956254,1.7220861,1.1870357,-0.2140973,-0.06874941,0.13775648,1.179261,-0.74310654
-0.1,0.0,1.2999999999999998,0.5235987755982988,0.5235987755982988,0,-0.7026277,-1.2996141,1.0948964,-0.07886951,-0.19815804,1.0332228,0.019697497,1.7430888,1.1998123,-0.30200464,0.04613814,-0.3382976,1.217301,0.42027488
-0.1,0.0,1.2999999999999998,0.5235987755982988,0.5235987755982988,0,-0.70261115,-1.2943809,1.078156,-0.105039425,-0.07135489,0.9231039,0.014469656,1.7261984,1.2982864,-0.1823176,-0.013321336,0.07175476,1.1959149,0.31634998
-0.1,0.0,1.2999999999999998,0.5235987755982988,0.5235987755982988,0,-0.7006985,-1.2970082,1.0835798,-0.106942736,0.3375723,1.1964914,-2.3388212,1.7495255,1.248919,-0.30364257,-0.07485295,0.0018422181,1.0692959,0.006709062
-0.1,0.0,1.2999999999999998,0.5235987755982988,0.5235987755982988,0,-0.70205337,-1.2976296,1.0781158,-0.07818906,0.10959017,0.9255613,-0.890828,1.714937,1.3112535,-0.7043961,-0.05929297,-0.06061286,1.2030662,-0.32621992
-0.1,0.0,1.2999999999999998,0.5235987755982988,0.5235987755982988,0,-0.7002374,-1.2960316,1.0913956,-0.09420804,0.008719593,1.2316417,-0.3229649,1.7412417,1.3240148,-0.33054224,-0.0064215185,0.17708835,1.3660828,-0.45360607
-0.1,0.0,1.2999999999999998,0.5235987755982988,0.5235987755982988,0,-0.7022412,-1.2933728,1.0837615,-0.07080581,-0.06995136,1.0798819,-1.1222236,1.743199,1.2370638,-0.17917086,-0.08721799,-0.34870306,1.2753135,-0.33890507
-0.1,0.0,1.2999999999999998,0.5235987755982988,0.5235987755982988,0,-0.69981164,-1.2984177,1.08438,-0.11650294,0.01908908,1.3004905,-0.024676988,1.7502139,1.1231921,-0.52196324,-0.050751265,0.511955,1.1101191,-0.13158964
-0.1,0.0,1.2999999999999998,0.5235987755982988,0.5235987755982988,0,-0.7016887,-1.297009,1.0843034,-0.10471411,-0.13774967,1.1109395,-0.3620762,1.7307594,1.3234191,-0.21917158,-0.02827941,-0.026289335,1.1031301,0.6389802
-0.1,0.0,1.2999999999999998,0.5235987755982988,0.5235987755982988,0,-0.6974742,-1.2946846,1.0880022,-0.11209461,0.18625958,1.1780069,-0.17386973,1.7527353,1.3006858,0.053844996,-0.047893435,0.23171404,1.124452,0.3657511
-0.1,0.0,1.2999999999999998,0.5235987755982988,0.5235987755982988,0,-0.69986254,-1.2959694,1.0827384,-0.10437965,-0.1819071,0.94134855,-1.1997899,1.7029842,1.2080389,-0.10159327,-0.03753604,-0.09518116,1.1205192,0.8284232
-0.1,0.0,1.2999999999999998,0.5235987755982988,0.5235987755982988,0,-0.7005155,-1.2973155,1.0951506,-0.12207375,-0.119610675,0.8602943,0.6799471,1.7141509,1.1428269,0.02058157,-0.042336676,-0.047003765,1.1557794,0.57316685
-0.1,0.0,1.2999999999999998,0.5235987755982988,0.5235987755982988,0,-0.6998139,-1.2978017,1.0849832,-0.07072003,-0.15244302,1.2146597,-0.5131373,1.7316527,1.1604085,-0.12686989,-0.13865675,0.21916401,1.117312,0.3817288
-0.1,0.0,1.2999999999999998,0.5235987755982988,0.5235987755982988,0,-0.7001018,-1.2974939,1.0898789,-0.0704071,0.05841497,1.0157024,-0.54301745,1.7428167,1.0951693,-0.361335,-0.007819427,-0.027166206,1.1567371,1.0167679
-0.1,0.0,1.2999999999999998,0.5235987755982988,0.5235987755982988,0,-0.6996344,-1.2973824,1.0816207,-0.08220023,0.19361834,1.2812887,-0.68609285,1.7276037,1.129954,-0.23441443,-0.08761728,0.21775487,1.1301353,1.0931239
-0.1,0.0,1.2999999999999998,0.5235987755982988,0.5235987755982988,0,-0.70130366,-1.2928389,1.0779243,-0.10561033,0.2079649,1.0069267,-0.7121995,1.745867,1.2320313,-0.013236073,-0.033684142,0.19203755,0.9983846,0.625958
-0.1,0.0,1.2999999999999998,0.5235987755982988,0.5235987755982988,0,-0.69982743,-1.2966689,1.0871665,-0.091143034,0.04017939,0.9542208,0.15635723,1.7332243,1.2371426,-0.35292602,0.03966668,-0.21160766,1.2469906,0.0928149
-0.1,0.0,1.2999999999999998,0.5235987755982988,0.5235987755982988,0,-0.70021504,-1.2953677,1.0787003,-0.10321447,0.18263128,1.0923806,-0.31693894,1.7422428,1.2032998,-0.14307107,0.001245174,0.18873344,1.1578143,0.06532287
-0.1,0.0,1.2999999999999998,0.5235987755982988,0.5235987755982988,0,-0.69902414,-1.2938958,1.0821766,-0.1353847,-0.20404425,0.9734498,-0.68374807,1.7282704,1.4262055,-0.3137973,-0.03664615,0.00028236763,1.0774981,0.17858064
-0.1,0.0,1.2999999999999998,0.5235987755982988,0.5235987755982988,0,-0.7004049,-1.2939422,1.0805674,-0.060403462,-0.19476946,1.3013203,-0.477118,1.7151238,1.2942823,-0.625097,-0.009572435,0.085945345,1.303784,-0.17008178
-0.1,0.0,1.2999999999999998,0.5235987755982988,0.5235987755982988,0,-0.69986916,-1.2958428,1.0815938,-0.09175058,-0.23228912,1.2137779,-0.4513469,1.7373677,1.1617674,-0.0082017025,-0.091132835,0.02479611,1.2736619,0.5531087
-0.1,0.0,1.2999999999999998,0.5235987755982988,0.5235987755982988,0,-0.7015464,-1.2922523,1.0871089,-0.09385489,-0.14461204,1.1921754,-1.2677935,1.7320758,1.2195789,0.056290124,-0.08128805,0.24767146,1.1763803,1.0952349
-0.1,0.0,1.2999999999999998,0.5235987755982988,0.5235987755982988,0,-0.6994566,-1.2964264,1.0888205,-0.1249942,0.023050316,0.94384325,-1.4009932,1.7329859,1.3988675,-0.25782013,-0.058057766,-0.010136633,1.2004583,1.0658815
-0.1,0.0,1.2999999999999998,0.5235987755982988,0.5235987755982988,0,-0.7001694,-1.2979681,1.0931791,-0.14529783,-0.01422789,1.099931,-0.725813,1.7436965,1.3227953,-0.17981462,-0.042522714,0.064102955,1.128534,0.34851396
-0.1,0.0,1.2999999999999998,0.5235987755982988,0.5235987755982988,0,-0.70153016,-1.296046,1.0823648,-0.08971077,0.01572041,1.0204873,-0.515631,1.731355,1.2534575,0.09503045,-0.036682468,0.07538566,1.2064767,0.8813746
-0.1,0.0,1.2999999999999998,0.5235987755982988,0.5235987755982988,0,-0.70149505,-1.2976687,1.0885792,-0.055914212,-0.019449132,1.1976264,0.23853281,1.7567722,1.203596,-0.3787322,-0.026269648,0.24116333,1.1943346,0.46097764
-0.1,0.0,1.2999999999999998,0.5235987755982988,0.5235987755982988,0,-0.70007265,-1.2929703,1.0717316,-0.0810303,-0.013812635,1.2031822,0.13768385,1.7277356,1.1986605,-0.056446593,-0.008706418,-0.2692948,1.1930627,0.7155337
-0.1,0.0,1.2999999999999998,0.5235987755982988,0.5235987755982988,0,-0.7010389,-1.2968062,1.0783035,-0.09771296,0.21243837,1.0668144,-0.638955,1.725286,1.3253275,-0.5558857,-0.024832947,-0.107385784,1.2313131,0.47366026
-0.1,0.0,1.2999999999999998,0.5235987755982988,0.5235987755982988,0,-0.7014797,-1.2913548,1.0834769,-0.09836001,0.08228455,1.3343209,0.806718,1.7222053,1.3168654,-0.11721947,0.024522223,-0.0782228,1.1790667,-0.10631886
-0.1,0.0,1.2999999999999998,0.5235987755982988,0.5235987755982988,0,-0.6994289,-1.2962773,1.0841737,-0.10005302,-0.17691718,1.3042105,0.2219459,1.7401432,1.161065,-0.21114367,-0.09147899,0.20027621,1.1812369,0.3809208
-0.1,0.0,1.2999999999999998,0.5235987755982988,0.5235987755982988,0,-0.6996096,-1.2996755,1.0847158,-0.06356576,-0.06888319,0.9696021,-1.0979656,1.73405,1.2703933,-0.30670977,0.03667196,-0.0042935023,1.1481,-0.255332
-0.1,0.0,1.2999999999999998,0.5235987755982988,0.5235987755982988,0,-0.7012122,-1.2973974,1.0828849,-0.09469979,-0.024687393,1.2681693,-1.2340415,1.7355186,1.2244744,-0.3725843,-0.07389059,0.30389836,1.0668175,0.49507445
-0.1,0.0,1.2999999999999998,0.5235987755982988,0.5235987755982988,0,-0.70102876,-1.2956321,1.0827876,-0.10848169,0.28056452,0.93473035,0.18417285,1.7441767,1.2951219,0.057712726,-0.00032858129,0.13534476,1.1885731,0.88963467
-0.1,0.0,1.2999999999999998,0.5235987755982988,0.5235987755982988,0,-0.70097965,-1.295864,1.0876815,-0.103349365,-0.08047025,0.9817835,-0.392238,1.7499925,1.1611518,0.17066766,-0.04498701,-0.02279295,1.147244,0.5542637
-0.1,0.0,1.2999999999999998,0.5235987755982988,0.5235987755982988,0,-0.7006565,-1.2971935,1.0809777,-0.095167816,-0.17115296,1.0901829,-0.34072685,1.7322334,1.2173238,-0.19145545,-0.035707593,0.016144069,1.1417292,0.7089376
-0.1,0.0,1.2999999999999998,0.5235987755982988,0.5235987755982988,0,-0.70248485,-1.2959622,1.0774496,-0.104087345,0.027467605,1.1691391,-0.89641666,1.7243361,1.1506257,-0.357602,-0.09480532,0.0056620017,1.3985548,0.2263836
-0.1,0.0,1.2999999999999998,0.5235987755982988,0.5235987755982988,0,-0.69986665,-1.2952272,1.0816914,-0.096148394,0.025245946,1.0598483,0.20828615,1.7422925,1.3126233,0.0012526095,-0.0028442338,0.5557976,1.2117484,0.46767804
-0.1,0.0,1.2999999999999998,0.5235987755982988,0.5235987755982988,0,-0.70103747,-1.2947488,1.0768327,-0.118675016,-0.13249716,1.0820795,0.29551962,1.74509,1.3362267,-0.16776894,-0.008763206,0.21104068,1.0873076,-0.23098226
-0.1,0.0,1.2999999999999998,0.5235987755982988,0.5235987755982988,0,-0.6992622,-1.2960675,1.0783486,-0.11590842,0.21743783,1.1216316,-1.0149466,1.7190415,1.1950334,-0.36465552,-0.0704648,-0.19644949,1.1301249,1.1615005
-0.1,0.0,1.2999999999999998,0.5235987755982988,0.5235987755982988,0,-0.6987908,-1.2972516,1.0845735,-0.13989995,0.003052832,1.0491326,-1.0036938,1.7293426,1.3583044,-0.4468118,-0.11895744,-0.12939976,1.1131631,-0.37361974
-0.1,0.0,1.2999999999999998,0.5235987755982988,0.5235987755982988,0,-0.6996163,-1.2970105,1.0823791,-0.12043336,-0.21100318,1.0070772,-1.1355432,1.7353982,1.14314,-0.009446684,-0.051493235,-0.24949552,1.2634894,0.27772927
-0.1,0.0,1.2999999999999998,0.5235987755982988,0.5235987755982988,0,-0.704135,-1.2971518,1.0789734,-0.10086489,-0.048072506,1.2122165,-0.9419613,1.7207294,1.1446128,-0.21351637,0.02596495,0.12077013,1.1701615,-0.052963465
-0.1,0.0,1.2999999999999998,0.5235987755982988,0.5235987755982988,0,-0.7004402,-1.297817,1.0889899,-0.124111205,-0.04646494,1.0703869,-0.7117718,1.7374628,1.2611142,-0.3776019,-0.051444583,-0.23095524,1.1621577,0.07085139
-0.1,0.0,1.2999999999999998,0.5235987755982988,0.5235987755982988,0,-0.70066243,-1.2943398,1.0831702,-0.10977448,-0.22016399,1.0561477,0.20523258,1.7260545,1.3107846,0.16514038,-0.04783104,-0.110749595,1.2385659,-0.1853304
-0.1,0.0,1.2999999999999998,0.5235987755982988,0.5235987755982988,0,-0.6993616,-1.2971131,1.0784198,-0.13285854,-0.16006447,1.1961261,-0.24726388,1.723453,1.2936795,-0.26702526,-0.08231074,-0.19373715,1.1367829,0.19943358
-0.1,0.0,1.2999999999999998,0.5235987755982988,0.5235987755982988,0,-0.7024189,-1.2928714,1.0841813,-0.12384663,-0.024949048,1.0629729,0.43378893,1.7357408,1.2531419,-0.029389953,-0.014237223,-0.090017445,1.155165,0.42662075
-0.1,0.0,1.2999999999999998,0.5235987755982988,0.5235987755982988,0,-0.7021632,-1.2952247,1.0715612,-0.062078584,-0.09902114,1.1114119,0.4732378,1.7461845,1.0517744,-0.13647853,0.058493897,0.025617085,1.2452862,0.50018096
-0.1,0.0,1.2999999999999998,0.5235987755982988,0.5235987755982988,0,-0.7005284,-1.2971759,1.0798565,-0.08482656,0.14801455,1.1203114,-0.35396853,1.7078154,1.1504555,-0.34332567,-0.095465675,-0.108578265,1.1471369,-0.05948953
-0.1,0.0,1.2999999999999998,0.5235987755982988,0.5235987755982988,0,-0.70043707,-1.2937733,1.0840912,-0.08123719,-0.17555241,1.2015915,0.28249916,1.7304211,1.3769201,-0.1890012,-0.0597042,-0.293123,1.1504054,0.62376404
-0.1,0.0,1.2999999999999998,0.5235987755982988,0.5235987755982988,0,-0.69889015,-1.2972504,1.0786644,-0.13068178,0.13659078,1.1946303,-0.9339358,1.7382245,1.2534796,-0.53014296,-0.037318178,-0.095578395,1.1078148,0.29446095
-0.1,0.0,1.2999999999999998,0.5235987755982988,0.5235987755982988,0,-0.70125645,-1.2966124,1.086591,-0.1045187,0.06391683,1.075772,1.0431583,1.7337686,1.2381679,-0.6240666,-0.026170151,-0.011417038,1.1739229,0.09320947
-0.1,0.0,1.2999999999999998,0.5235987755982988,0.5235987755982988,0,-0.7015371,-1.2989523,1.0928352,-0.09520699,-0.10902188,1.2781702,0.21218476,1.7306854,1.331193,-0.45952666,-0.030827716,0.3141059,1.1750355,0.4239775
-0.1,0.0,1.2999999999999998,0.5235987755982988,0.5235987755982988,0,-0.7026803,-1.29553,1.0801294,-0.12990008,-0.021712469,1.0573952,-0.9361351,1.7256216,1.2919842,0.018959876,0.0014597357,-0.10794144,1.029688,-0.08576733
-0.1,0.0,1.2999999999999998,0.5235987755982988,0.5235987755982988,0,-0.7012657,-1.2982953,1.0884278,-0.07718467,0.12090369,1.2599292,-1.6561146,1.7366983,1.2449226,-0.024297768,-0.06777041,-0.54356164,1.1564487,0.052980658
-0.1,0.0,1.2999999999999998,0.5235987755982988,0.5235987755982988,0,-0.70127577,-1.2957511,1.0837592,-0.11002005,-0.03846482,1.1307702,-0.36589086,1.7341298,1.2641479,0.0637972,-0.06584255,-0.22824411,1.0810163,0.18144876
-0.1,0.0,1.2999999999999998,0.5235987755982988,0.5235987755982988,0,-0.70041627,-1.2952393,1.0772343,-0.10866655,0.013422461,1.134807,-0.80714,1.751782,1.2801896,0.15758589,0.0038332832,0.028703185,1.3011862,0.7383131
-0.1,0.0,1.2999999999999998,0.5235987755982988,0.5235987755982988,0,-0.6994031,-1.2972968,1.0786844,-0.057829164,-0.16101791,1.2358291,-0.41500017,1.7279946,1.2598201,-0.23373115,-0.01698678,-0.2801304,0.96902454,0.62075907
-0.1,0.0,1.2999999999999998,0.5235987755982988,0.5235987755982988,0,-0.7000583,-1.2982874,1.0855676,-0.08624552,-0.0689316,1.1388358,0.111081466,1.747605,1.2464267,-0.30962816,0.008661111,-0.26246238,1.221404,0.4502121
-0.1,0.0,1.2999999999999998,0.5235987755982988,0.5235987755982988,0,-0.6996236,-1.2951063,1.0770557,-0.107619934,-0.073204786,1.0790447,-0.7723974,1.7412909,1.1745547,0.13233504,-0.049412824,0.34489653,1.015279,0.8912723
-0.1,0.0,1.2999999999999998,0.5235987755982988,0.5235987755982988,0,-0.7017487,-1.2961154,1.0852585,-0.093902774,0.040288735,1.0875319,-5.1107545e-05,1.737379,1.2334952,-0.2091992,0.011064952,-0.6204414,1.1306254,-0.059062198
-0.1,0.0,1.2999999999999998,0.5235987755982988,0.5235987755982988,0,-0.70152766,-1.2981539,1.0738062,-0.05240301,0.01928279,1.2268623,-1.0854166,1.7364143,1.3392261,-0.28228176,-0.010118691,0.52583414,1.1546481,0.721196
-0.1,0.0,1.2999999999999998,0.5235987755982988,0.5235987755982988,0,-0.70010513,-1.2965883,1.0684993,-0.084080406,0.10884294,1.1868664,-0.15863866,1.7395093,1.185535,-0.058623604,-0.08609477,-0.2680779,1.195485,0.58640945
-0.1,0.0,1.2999999999999998,0.5235987755982988,0.5235987755982988,0,-0.70126283,-1.2976012,1.0824052,-0.09571226,0.02048752,1.1227726,-0.72738457,1.7172374,1.1838522,-0.41190994,-0.015554842,0.23631236,1.1479617,-0.01925939
-0.1,0.0,1.2999999999999998,0.5235987755982988,0.5235987755982988,0,-0.7034128,-1.2952747,1.0840725,-0.0799972,-0.05257013,1.0399736,-0.13797584,1.7158594,1.2772909,-0.31743547,-0.10734379,-0.30091682,1.0882673,0.09195828
-0.1,0.0,1.2999999999999998,0.5235987755982988,0.5235987755982988,0,-0.70143163,-1.2970473,1.0830834,-0.083803914,-0.050284132,1.1693113,-0.036415387,1.7420658,1.2006092,-0.2727563,-0.07350317,0.04631895,1.2542037,1.377119
-0.1,0.0,1.2999999999999998,0.5235987755982988,0.5235987755982988,0,-0.6995633,-1.2952399,1.0850099,-0.10864439,-0.18634012,1.0863703,-0.51473016,1.719704,1.2397536,-0.6902512,-0.030228555,-0.10362946,1.2895881,0.30375373
-0.1,0.0,1.2999999999999998,0.5235987755982988,0.5235987755982988,0,-0.7016907,-1.2969757,1.0834394,-0.08849582,0.027543103,1.2415926,-0.033115506,1.7358446,1.2222197,-0.1500146,0.0004127739,-0.1877384,1.2060151,0.54663265
-0.1,0.0,1.2999999999999998,0.5235987755982988,0.5235987755982988,0,-0.70248747,-1.2951087,1.0893801,-0.09569221,-0.066984504,1.1369301,0.55122215,1.7351031,1.3813277,-0.33127862,-0.00995932,0.15064967,1.1854383,0.1381819
-0.1,0.0,1.2999999999999998,0.5235987755982988,0.5235987755982988,0,-0.70222086,-1.2955301,1.0895631,-0.07674846,0.029243045,1.178893,-0.3834968,1.7221504,1.3179992,-0.10272663,-0.012686373,0.02611964,1.0923828,0.66584456
-0.1,0.0,1.2999999999999998,0.5235987755982988,0.5235987755982988,0,-0.7007021,-1.2963929,1.0937947,-0.10272178,-0.17457236,1.191588,0.68609715,1.7421381,1.3001515,-0.0106860055,-0.032025013,0.009855389,1.2355851,0.07944037
-0.1,0.0,1.2999999999999998,0.5235987755982988,0.5235987755982988,0,-0.7012612,-1.2943201,1.0759151,-0.083590165,0.07112794,1.1273062,-1.2660375,1.7258373,1.1977372,-0.4703533,-0.16266893,-0.6124378,1.282858,-0.19711065
-0.1,0.0,1.2999999999999998,0.5235987755982988,0.5235987755982988,0,-0.7003652,-1.2987062,1.0904516,-0.10172551,-0.048002426,1.041234,-0.7169373,1.7391222,1.346818,-0.4304334,-0.017507138,-0.11399111,1.1144078,-0.24352148
-0.1,0.0,1.2999999999999998,0.5235987755982988,0.5235987755982988,0,-0.70174897,-1.2949344,1.0620487,-0.11665807,0.033245098,1.1232538,-0.7376611,1.7289734,1.1620033,-0.24239427,-0.047304295,-0.06456095,1.1801758,0.6614658
-0.1,0.0,1.2999999999999998,0.5235987755982988,0.5235987755982988,0,-0.7022202,-1.2951336,1.084303,-0.10482586,-0.120184936,1.1842307,0.26062623,1.7350354,1.2350616,-0.1849859,0.027681082,0.12763979,1.2087071,1.0650791
-0.1,0.0,1.2999999999999998,0.5235987755982988,0.5235987755982988,0,-0.70070875,-1.2967458,1.0700948,-0.11092451,0.24446891,1.2226651,-1.1417884,1.7191321,1.2397227,-0.3005097,-0.053811535,-0.117035106,1.226103,0.22866003
-0.1,0.0,1.2999999999999998,0.5235987755982988,0.5235987755982988,0,-0.70039177,-1.2941505,1.0845598,-0.021679234,-0.13518344,1.1420977,-1.0350277,1.7329501,1.2420537,-0.026205845,-0.0758482,-0.07822759,1.1435126,-0.39514217
-0.1,0.0,1.2999999999999998,0.5235987755982988,0.5235987755982988,0,-0.7013934,-1.2976323,1.0823824,-0.09566912,0.1301052,1.1004798,-0.36177686,1.7378075,1.2188401,-0.2521035,0.001710966,-0.42000103,1.1800252,0.74122435
-0.1,0.0,1.2999999999999998,0.5235987755982988,0.5235987755982988,0,-0.7007239,-1.2954506,1.0926851,-0.07158879,-0.047604997,1.3117627,-1.0636806,1.7390652,1.3546281,0.100105464,-0.053132843,0.010028585,1.1887302,0.009025528
-0.1,0.0,1.2999999999999998,0.5235987755982988,0.5235987755982988,0,-0.70045036,-1.2984338,1.0797879,-0.13984159,-0.14845094,1.1235737,-0.5773654,1.7223717,1.1859527,-0.37068835,-0.0154145565,0.20893063,1.1541892,0.30323327
-0.1,0.0,1.2999999999999998,0.5235987755982988,0.5235987755982988,0,-0.70264035,-1.297487,1.0845815,-0.072664544,-0.077349775,1.1651485,-1.4796277,1.7392986,1.2584126,0.07020474,-0.05259058,-0.44660303,1.1343267,-0.13062325
-0.1,0.0,1.2999999999999998,0.5235987755982988,0.5235987755982988,0,-0.7001128,-1.296293,1.0753788,-0.13332352,-0.12746666,1.1398834,-1.098651,1.7265109,1.2908378,-0.038386595,-0.019750535,0.4609459,1.1977012,0.31570953
-0.1,0.0,1.2999999999999998,0.5235987755982988,0.5235987755982988,0,-0.7005041,-1.2955271,1.0754874,-0.09890637,-0.11234795,1.2837658,-0.9838684,1.7281952,1.3624125,-0.31158367,0.036760155,0.060443576,1.061653,-0.0835974
-0.1,0.0,1.2999999999999998,0.5235987755982988,0.5235987755982988,0,-0.7019146,-1.2972682,1.0691625,-0.086559474,0.023251645,1.1447119,0.1467531,1.746654,1.3355099,-0.6318636,0.032860104,-0.1203712,1.0522485,0.8773321
-0.1,0.0,1.2999999999999998,0.5235987755982988,0.5235987755982988,0,-0.7012522,-1.2963482,1.0917007,-0.07515748,0.076645665,1.1181817,-0.686652,1.7333152,1.268952,-0.23699564,-0.047039375,-0.25243765,1.0967889,0.18707673
-0.1,0.0,1.2999999999999998,0.5235987755982988,0.5235987755982988,0,-0.69965124,-1.2949501,1.0758198,-0.10441395,-0.1171817,1.0944297,-0.79102284,1.7206056,1.2467012,-0.13738447,-0.012624295,-0.53591126,1.187307,-0.16431168
-0.1,0.0,1.2999999999999998,0.5235987755982988,0.5235987755982988,0,-0.697986,-1.2961546,1.0805281,-0.09937406,0.00500915,1.000483,-0.12139284,1.7332418,1.2332784,-0.12610772,-0.020251825,-0.4489362,1.2005125,-0.23856866
-0.1,0.0,1.2999999999999998,0.5235987755982988,0.5235987755982988,0,-0.70042187,-1.2948217,1.0890234,-0.11367452,0.041706365,1.1159728,-0.5298156,1.7174418,0.9868568,-0.36973938,0.072322085,-0.054945342,1.125993,0.45788774
-0.1,0.0,1.2999999999999998,0.5235987755982988,0.5235987755982988,0,-0.7024852,-1.2956275,1.0844415,-0.08975584,-0.19689032,1.290665,-0.32737228,1.7355456,1.2219249,0.092850134,-0.10725454,-0.20959929,1.2445633,1.2154068
-0.1,0.0,1.2999999999999998,0.5235987755982988,0.5235987755982988,0,-0.70220417,-1.2953651,1.0784881,-0.11491295,0.21184368,1.1062651,-0.5067079,1.739119,1.2428365,-0.21155497,-0.07511571,-0.20561232,1.1352736,-0.11334757
-0.1,0.0,1.2999999999999998,0.5235987755982988,0.5235987755982988,0,-0.6995851,-1.2962012,1.0834658,-0.12003279,-0.06301042,0.94077665,-1.8921981,1.7277123,1.2840353,0.47152874,0.007150734,0.0015897597,1.1359828,0.31804943
-0.1,0.0,1.2999999999999998,0.5235987755982988,0.5235987755982988,0,-0.6995358,-1.2973963,1.0826685,-0.14239612,-0.17769279,1.1420152,-0.45811078,1.7433902,1.28779,-0.028373154,-0.06639384,0.23937035,1.1769257,0.024791125
-0.1,0.0,1.2999999999999998,0.5235987755982988,0.5235987755982988,0,-0.6991818,-1.2974112,1.0739429,-0.084758826,0.05081147,1.0961815,0.23848166,1.7313348,1.2313066,0.003724675,-0.065047875,-0.3530521,1.2165397,-0.32360446
-0.1,0.0,1.2999999999999998,0.5235987755982988,0.5235987755982988,0,-0.70140576,-1.2946429,1.0875099,-0.09583076,0.05707562,1.1369168,-0.7810076,1.7186341,1.3640106,-0.11948702,-0.105401285,0.17050593,1.0573895,0.13618192
-0.1,0.0,1.2999999999999998,0.5235987755982988,0.5235987755982988,0,-0.7016004,-1.2972275,1.0791162,-0.09456505,-0.0121393325,1.0367155,-0.52232236,1.7305257,1.3029975,-0.31932518,-0.0144713875,-0.23680021,1.1455133,0.15542847
-0.1,0.0,1.2999999999999998,0.5235987755982988,0.5235987755982988,0,-0.7006249,-1.2974172,1.0804526,-0.099130414,-0.014115468,1.0743492,-0.926102,1.7349967,1.2877659,-0.22044602,-0.01678717,0.23975162,1.1419978,0.26487005
-0.1,0.0,1.2999999999999998,0.5235987755982988,0.5235987755982988,0,-0.7020215,-1.2977428,1.0800548,-0.08146194,0.22996563,1.2245975,0.04250481,1.7222288,1.1877325,-0.40804198,-0.0062323962,-0.09512822,1.0802947,0.038654108
-0.1,0.0,1.2999999999999998,0.5235987755982988,0.5235987755982988,0,-0.69995767,-1.2956604,1.0752782,-0.07922879,0.17779288,1.0510247,-0.4650138,1.7214136,1.2084049,-0.2442576,-0.047832154,0.0130788665,1.0634978,-0.0009584598
-0.1,0.0,1.2999999999999998,0.5235987755982988,0.5235987755982988,0,-0.6996865,-1.297013,1.0820067,-0.079917096,0.047667418,1.1045414,-1.1343235,1.7474415,1.2212628,-0.38156223,-0.0125159165,-0.027317356,1.0109925,0.062829964
-0.1,0.0,1.2999999999999998,0.5235987755982988,0.5235987755982988,0,-0.698622,-1.2960249,1.0742105,-0.0922895,-0.24935474,1.091966,0.14674568,1.7384517,1.1850595,-0.20851943,0.015603152,0.02709667,1.2432226,1.1713014
-0.1,0.0,1.2999999999999998,0.5235987755982988,0.5235987755982988,0,-0.7004837,-1.2982192,1.0818892,-0.09620328,0.057912845,1.0469786,-0.14521304,1.7320732,1.252867,-0.2024636,-0.035297863,0.040814366,1.2236334,0.26597542
-0.1,0.0,1.2999999999999998,0.5235987755982988,0.5235987755982988,0,-0.7002608,-1.2961043,1.0686795,-0.112729065,-0.07277232,1.0173215,-0.95998436,1.7516925,1.178754,-0.37449062,-0.009744949,0.25060958,1.1416817,0.25089973
-0.1,0.0,1.2999999999999998,0.5235987755982988,0.5235987755982988,0,-0.70060086,-1.2960318,1.0958318,-0.11468272,-0.122567594,1.3154615,-0.92832476,1.7339315,1.2424173,-0.31023493,0.048312668,0.13129263,1.1203523,0.39269215
-0.1,0.0,1.2999999999999998,0.5235987755982988,0.5235987755982988,0,-0.7024153,-1.2955002,1.0706477,-0.09778053,0.00024654175,1.2208643,-0.17882532,1.7370771,1.2897214,-0.36855248,-0.13097815,-0.16645016,1.184017,0.19115819
-0.1,0.0,1.2999999999999998,0.5235987755982988,0.5235987755982988,0,-0.70431924,-1.2963927,1.0730492,-0.07022728,0.048261713,1.0919696,0.2647197,1.7534515,1.2621534,0.11958405,0.01370929,-0.18616712,1.255132,1.0621976
-0.1,0.0,1.2999999999999998,0.5235987755982988,0.5235987755982988,0,-0.7016918,-1.293434,1.0824915,-0.11170928,-0.064958714,1.0500717,-0.5468631,1.7288563,1.2326467,-0.3101047,-0.011027284,-0.23433091,1.2056981,0.5365628
-0.1,0.0,1.2999999999999998,0.5235987755982988,0.5235987755982988,0,-0.7005699,-1.2977487,1.0759306,-0.07386819,-0.4116823,1.1049873,0.85983753,1.729685,1.3288447,0.012737423,-0.013921228,0.26262224,1.1862025,0.9661755
-0.1,0.0,1.2999999999999998,0.5235987755982988,0.5235987755982988,0,-0.7006238,-1.2971698,1.0793897,-0.06511608,0.026537718,1.1603671,-1.2662804,1.727586,1.2755071,-0.06394298,0.002829348,0.023885168,1.1453223,-0.052562613
-0.1,0.0,1.2999999999999998,0.5235987755982988,0.5235987755982988,0,-0.7012162,-1.2949092,1.0855538,-0.037731256,0.2036368,1.127573,-1.7581751,1.7265983,1.313559,-0.12835628,0.0016884991,0.038442757,1.1094419,0.19556418
-0.1,0.0,1.2999999999999998,0.5235987755982988,0.5235987755982988,0,-0.6991241,-1.2957028,1.0756911,-0.07895523,0.009436672,1.4051138,-1.616623,1.7283175,1.3047777,-0.18484077,-0.01797308,-0.070196204,1.3060925,0.38571277
-0.1,0.0,1.2999999999999998,0.5235987755982988,0.5235987755982988,0,-0.7005683,-1.29533,1.0768086,-0.07178541,-0.16625491,1.0753428,-0.9862459,1.7348838,1.2390077,-0.3466924,-0.035086785,0.02987446,1.1412288,0.4038915
-0.1,0.0,1.2999999999999998,0.5235987755982988,0.5235987755982988,0,-0.6985386,-1.2948288,1.0786977,-0.08739278,-0.035896525,1.0073436,-0.9489219,1.7482271,1.305515,-0.38966608,-0.0354448,0.47694862,1.2556334,-0.65423644
-0.1,0.0,1.2999999999999998,0.5235987755982988,0.5235987755982988,0,-0.69901156,-1.2932043,1.0972347,-0.11988498,-0.13083449,1.0071832,0.2507065,1.7456158,1.2496879,-0.063813314,-0.050170094,0.2496124,1.2610074,0.10052048
-0.1,0.0,1.2999999999999998,0.5235987755982988,0.5235987755982988,0,-0.70182055,-1.2968405,1.0822706,-0.13802674,0.07974077,1.1402667,-0.62395144,1.7161418,1.1838739,-0.27572682,-0.06315134,-0.16819495,1.1958078,0.34390867
-0.1,0.0,1.2999999999999998,0.5235987755982988,0.5235987755982988,0,-0.7004063,-1.2908585,1.0672953,-0.05948221,0.13801546,0.8936913,0.05137513,1.7323134,1.3803943,0.057809345,0.019496571,0.042450745,1.0508941,0.5295733
-0.1,0.0,1.2999999999999998,0.5235987755982988,0.5235987755982988,0,-0.6995309,-1.2947148,1.0833412,-0.1160767,0.031695075,1.211163,-0.32216614,1.7094313,1.2219466,-0.2556217,-0.02135114,-0.08701045,1.2069467,0.4582631
-0.1,0.0,1.2999999999999998,0.5235987755982988,0.5235987755982988,0,-0.7002158,-1.2979115,1.0909859,-0.07681721,-0.05132808,1.0613326,0.21148561,1.7435952,1.2442038,-0.16262475,-0.08938105,-0.12400235,1.1414522,0.45089546
-0.1,0.0,1.2999999999999998,0.5235987755982988,0.5235987755982988,0,-0.70082736,-1.2950209,1.0875263,-0.07580896,-0.13095018,1.1605322,-0.6218465,1.743961,1.1510564,-0.05565144,-0.033215016,0.21087787,1.1716633,0.5781707
-0.1,0.0,1.2999999999999998,0.5235987755982988,0.5235987755982988,0,-0.6994034,-1.2938933,1.0830885,-0.04372299,-0.046671245,1.131966,0.26569068,1.7357833,1.4702227,-0.47873014,0.022120364,0.119522795,1.223455,0.36446965
-0.1,0.0,1.2999999999999998,0.5235987755982988,0.5235987755982988,0,-0.69932264,-1.2976738,1.0865879,-0.098437436,0.16495721,1.0187805,0.021772211,1.740219,1.1873745,-0.51868796,-0.10037828,-0.117000766,1.1322172,0.044992078
-0.1,0.0,1.2999999999999998,0.5235987755982988,0.5235987755982988,0,-0.70062464,-1.293785,1.0717795,-0.10796889,0.11464908,1.0167165,-0.066315845,1.737517,1.0641717,-0.046746258,-0.086575836,0.15309793,1.1768034,0.35888624
-0.1,0.0,1.2999999999999998,0.5235987755982988,0.5235987755982988,0,-0.70090944,-1.2982336,1.0717306,-0.108897746,0.1482999,1.4295424,-0.9563934,1.7281855,1.2177435,-0.25681037,-0.0845369,0.08053484,1.1227493,-0.114479445
-0.1,0.0,1.2999999999999998,0.5235987755982988,0.5235987755982988,0,-0.70054114,-1.2970384,1.0873389,-0.07368333,-0.096468106,1.1299034,0.6757885,1.7426318,1.3683875,-0.33854574,0.00071251206,0.050735135,1.328352,0.6705418
-0.1,0.0,1.2999999999999998,0.5235987755982988,0.5235987755982988,0,-0.7042476,-1.2957833,1.086454,-0.06646198,-0.019534757,1.2289248,-0.69384384,1.7433925,1.1683252,-0.19108029,0.047934208,0.43576738,0.96281284,0.69823635
-0.1,0.0,1.2999999999999998,0.5235987755982988,0.5235987755982988,0,-0.70066375,-1.2985826,1.0886779,-0.11423881,0.029755753,0.9785156,-1.0044141,1.7255471,1.2064131,-0.33410117,0.040816195,-0.2372667,1.1480942,1.0760808
-0.1,0.0,1.2999999999999998,0.5235987755982988,0.5235987755982988,0,-0.69926673,-1.2941805,1.0914012,-0.12227663,0.09487734,1.3071121,-1.141517,1.76202,1.3184026,-0.30590725,-0.028462054,-0.06584386,1.178618,-0.61691165
-0.1,0.0,1.2999999999999998,0.5235987755982988,0.5235987755982988,0,-0.7035706,-1.2946426,1.0779043,-0.12282021,-0.009893909,1.113672,-0.5480959,1.7195481,1.2800559,-0.33865476,-0.0022836297,-0.13714021,1.1950977,1.3787199
-0.1,0.0,1.2999999999999998,0.5235987755982988,0.5235987755982988,0,-0.70211357,-1.2957444,1.0894036,-0.098565556,0.15031141,1.2127361,-0.799111,1.7340136,1.1273928,-0.31026167,-0.07536865,-0.13167438,1.1167552,0.6907462
-0.1,0.0,1.2999999999999998,0.5235987755982988,0.5235987755982988,0,-0.700959,-1.2946906,1.0764478,-0.1078401,-0.10285939,1.1739565,-0.66379637,1.7304397,1.2657928,-0.24511194,0.0029327099,-0.2878232,1.2422186,0.93264294
-0.1,0.0,1.2999999999999998,0.5235987755982988,0.5235987755982988,0,-0.698825,-1.2947699,1.0821842,-0.094572805,0.25939524,1.3161798,-0.9462856,1.7340201,1.1739254,-0.44550663,0.005579335,-0.34965366,1.096515,-0.3473371
-0.1,0.0,1.2999999999999998,0.5235987755982988,0.5235987755982988,0,-0.70171696,-1.2972096,1.0861021,-0.05443856,-0.12234582,0.8086376,-1.8684143,1.7275286,1.2683743,-0.22909708,-0.016650358,0.18848027,1.1879642,-0.010077912
-0.1,0.0,1.2999999999999998,0.5235987755982988,0.5235987755982988,0,-0.69879264,-1.2966379,1.1018937,-0.07119987,0.039561696,0.94093114,-1.2077458,1.7364839,1.2974979,-0.2002103,-0.028511113,0.13171656,1.2448316,0.5763689
-0.1,0.0,1.2999999999999998,0.5235987755982988,0.5235987755982988,0,-0.70077723,-1.2928053,1.0810364,-0.10136585,-0.01184893,1.1580683,-0.13417771,1.7156514,1.1946474,-0.32519072,-0.007360284,-0.34528276,1.1868498,0.88898206
-0.1,0.0,1.2999999999999998,0.5235987755982988,0.5235987755982988,0,-0.7021518,-1.2965924,1.0740918,-0.11584195,0.09490926,1.2530775,-1.7484049,1.7181947,1.2059723,-0.030386537,-0.0033747568,0.15529063,1.140656,1.1297121
-0.1,0.0,1.2999999999999998,0.5235987755982988,0.5235987755982988,0,-0.703428,-1.2973777,1.0706934,-0.11295112,0.22328489,1.1623428,-0.1872535,1.7141123,1.2480847,-0.20943655,0.018031837,0.10883566,1.1601909,0.4201625
-0.1,0.0,1.2999999999999998,0.5235987755982988,0.5235987755982988,0,-0.7003664,-1.300096,1.083271,-0.07376002,0.011800431,1.0901471,-0.5107933,1.7079433,1.191984,-0.5155431,-0.056669597,0.2920729,1.2410537,0.47824103
-0.1,0.0,1.2999999999999998,0.5235987755982988,0.5235987755982988,0,-0.7011275,-1.2973684,1.0823253,-0.13835946,0.13092148,1.1501863,-1.7986948,1.7550843,1.3057526,-0.17982586,-0.074258946,-0.019960808,1.0941576,0.056274414
-0.1,0.0,1.2999999999999998,0.5235987755982988,0.5235987755982988,0,-0.69862497,-1.2961057,1.078913,-0.11863408,0.15918091,1.3634484,0.3858233,1.7301638,1.1820203,-0.25734568,-0.0495565,0.24243337,1.2456254,-0.48475096
-0.1,0.0,1.2999999999999998,0.5235987755982988,0.5235987755982988,0,-0.7016141,-1.2981746,1.0833209,-0.087215975,-0.310709,0.9261987,-0.16424479,1.7147996,1.2420688,-0.48959002,-0.0073489756,-0.02376581,1.1179796,-0.09844365
-0.1,0.0,1.2999999999999998,0.5235987755982988,0.5235987755982988,0,-0.70274734,-1.2967727,1.0766377,-0.07043281,0.25383213,1.1323681,-1.103607,1.7319839,1.2562929,-0.18538094,-0.053680785,-0.09865584,1.2116573,0.66063386
-0.1,0.0,1.2999999999999998,0.5235987755982988,0.5235987755982988,0,-0.7007896,-1.2969894,1.0834361,-0.1269081,-0.12527785,0.9169753,0.30121857,1.7261363,1.2909335,0.27210534,-0.11610356,-0.32863054,0.9881062,-0.32631454
-0.1,0.0,1.2999999999999998,0.5235987755982988,0.5235987755982988,0,-0.70107764,-1.2974422,1.0889387,-0.10263021,0.079878055,0.93106395,-1.299113,1.7265755,1.3014947,0.1271059,-0.099987395,0.118262574,1.1579939,0.3129593
-0.1,0.0,1.2999999999999998,0.5235987755982988,0.5235987755982988,0,-0.7007521,-1.294622,1.0814667,-0.07594591,0.316145,1.1169965,1.1854999,1.7331202,1.1442678,-0.028037107,0.025902696,-0.32994166,1.1550891,0.7805419
-0.1,0.0,1.2999999999999998,0.5235987755982988,0.5235987755982988,0,-0.7025234,-1.2953651,1.0841604,-0.10201004,-0.033565763,1.2394743,-0.56980336,1.720205,1.1649588,-0.24625593,-0.006043201,0.033180423,1.2181631,-0.28277522
-0.1,0.0,1.2999999999999998,0.5235987755982988,0.5235987755982988,0,-0.7012467,-1.2988214,1.0888526,-0.07801407,0.0033056673,1.2158743,-0.16680354,1.7375562,1.1579278,-0.18985324,-0.04017876,-0.09093284,1.2478569,0.36229098
-0.1,0.0,1.2999999999999998,0.5235987755982988,0.5235987755982988,0,-0.69859016,-1.2979563,1.0800136,-0.12028632,-0.10152219,1.1040654,-0.4407894,1.7362788,1.2808385,-0.4781082,-0.059488393,0.54590535,1.1345344,-0.6665803
-0.1,0.0,1.2999999999999998,0.5235987755982988,0.5235987755982988,0,-0.70146,-1.2954594,1.0819405,-0.1056286,-0.016129589,1.0055546,-0.7927723,1.7313098,1.3302732,-0.34280133,-0.06042944,-0.07646581,1.2159957,0.3384227
-0.1,0.0,1.2999999999999998,0.5235987755982988,0.5235987755982988,0,-0.7033647,-1.2976868,1.0835,-0.09883719,-0.22128505,1.1906658,0.20071298,1.7132908,1.3582531,-0.15663265,-0.04737691,0.16946377,1.1053709,-0.1425422
-0.1,0.0,1.2999999999999998,0.5235987755982988,0.5235987755982988,0,-0.7006196,-1.2937605,1.0902243,-0.11803059,0.19880375,1.0313358,-0.21680857,1.7406197,1.2016655,-0.29747352,0.0056674373,0.08447695,1.1418902,0.13051614
-0.1,0.0,1.2999999999999998,0.5235987755982988,0.5235987755982988,0,-0.70151806,-1.2934781,1.0801446,-0.12180195,0.19427589,1.1767963,0.5211566,1.7337574,1.2280905,-0.058105078,-0.04141636,0.08695306,1.0708678,-0.04814782
-0.1,0.0,1.2999999999999998,0.5235987755982988,0.5235987755982988,0,-0.701643,-1.2957226,1.0690289,-0.08202066,-0.12754995,1.0813146,-0.6534724,1.7204447,1.286527,-0.19232744,-0.061334576,-0.05659104,1.1415966,0.0579316
-0.1,0.0,1.2999999999999998,0.5235987755982988,0.5235987755982988,0,-0.69875556,-1.2954143,1.0847313,-0.051494688,-0.047617916,0.9279843,-0.07755661,1.7145612,1.3494484,-0.11857363,0.01912133,-0.29419833,1.2900034,0.81403244
-0.1,0.0,1.2999999999999998,0.5235987755982988,0.5235987755982988,0,-0.70243156,-1.2950236,1.095391,-0.09583768,-0.086569756,1.1767061,-0.16284548,1.706425,1.2683824,-0.15949552,-0.05116406,-0.07464121,1.1334844,1.0888692
-0.1,0.0,1.2999999999999998,0.5235987755982988,0.5235987755982988,0,-0.702007,-1.2983398,1.0838526,-0.057855077,-0.22243448,1.1121571,-1.4638587,1.7126588,1.339264,-0.49605313,-0.087954275,0.16912685,1.1406991,0.3849452
-0.1,0.0,1.2999999999999998,0.5235987755982988,0.5235987755982988,0,-0.7027853,-1.2951044,1.0795873,-0.10581417,-0.060866855,1.0701708,-0.88563603,1.7099657,1.2432818,-0.2240893,-0.031813957,0.21849947,1.2306099,1.101816
-0.1,0.0,1.2999999999999998,0.5235987755982988,0.5235987755982988,0,-0.6999748,-1.295228,1.0924019,-0.082599744,0.1706793,1.0646905,0.06610635,1.7323344,1.2314786,-0.24082199,-0.14053147,0.1687501,1.1552166,0.33886674
-0.1,0.0,1.2999999999999998,0.5235987755982988,0.5235987755982988,0,-0.70105904,-1.3012265,1.0957798,-0.0997673,0.20168622,1.3822497,-0.89991117,1.7235922,1.2515165,-0.1902933,-0.0991701,-0.035855554,1.1344316,0.27609396
-0.1,0.0,1.2999999999999998,0.5235987755982988,0.5235987755982988,0,-0.699884,-1.2936627,1.0839094,-0.10819984,-0.20441152,1.1767361,-1.5185043,1.7331355,1.3276261,-0.22494163,0.012869914,-0.30659166,1.2447782,0.41996628
-0.1,0.0,1.2999999999999998,0.5235987755982988,0.5235987755982988,0,-0.70048136,-1.2973378,1.0908949,-0.13183665,-0.11664482,1.0910045,-0.21608381,1.7122012,1.3739972,-0.27206907,-0.077503964,-0.030699115,1.2088346,0.2048826
-0.1,0.0,1.2999999999999998,0.5235987755982988,0.5235987755982988,0,-0.70130527,-1.2986268,1.0821173,-0.058560092,-0.0058042714,1.0614479,-0.9890366,1.7141703,1.3666826,-0.19269237,-0.07917552,0.33884385,1.0863826,0.8167338
-0.1,0.0,1.2999999999999998,0.5235987755982988,0.5235987755982988,0,-0.70116735,-1.2958384,1.0741911,-0.091592066,-0.059225317,1.2133929,-0.9236274,1.7393965,1.2600086,-0.19669954,-0.07137385,-0.120834336,1.1058906,-0.31852588
-0.1,0.0,1.2999999999999998,0.5235987755982988,0.5235987755982988,0,-0.7023219,-1.2956666,1.0912281,-0.0913964,-0.07089241,1.3223861,-0.29599476,1.7281642,1.143598,0.0107453745,-0.12087566,-0.038938403,1.2213299,-0.11880204
-0.1,0.0,1.2999999999999998,0.5235987755982988,0.5235987755982988,0,-0.7020217,-1.2947645,1.0748905,-0.07149014,0.046694465,1.0182848,-0.014949455,1.73492,1.3424976,-0.21752529,-0.007330044,0.06243785,1.1683064,0.8753138
-0.1,0.0,1.2999999999999998,0.5235987755982988,0.5235987755982988,0,-0.69926095,-1.2993042,1.0681643,-0.117206834,-0.06751868,1.2283142,0.7017352,1.709547,1.2521911,0.066186585,-0.012614686,0.029114576,1.1123421,0.6050105
-0.1,0.0,1.2999999999999998,0.5235987755982988,0.5235987755982988,0,-0.7015459,-1.299977,1.0816092,-0.07345478,-0.033548962,1.0324928,-0.06734888,1.7577232,1.2524573,-0.14505881,-0.08272577,0.022294577,1.1774579,0.69849855
-0.1,0.0,1.2999999999999998,0.5235987755982988,0.5235987755982988,0,-0.70095885,-1.2958862,1.0963548,-0.09504465,-0.05645906,1.0979586,-1.3228152,1.7215306,1.2008084,-0.46205848,-0.0009348706,-0.106744915,1.2106565,0.8393635
-0.1,0.0,1.2999999999999998,0.5235987755982988,0.5235987755982988,0,-0.7002679,-1.300309,1.0887095,-0.07832293,0.082889415,1.1823578,-1.0921886,1.7230016,1.2391077,-0.07856884,-0.08205832,-0.3232804,1.1298459,-0.06584832
-0.1,0.0,1.2999999999999998,0.5235987755982988,0.5235987755982988,0,-0.6985835,-1.2967927,1.0791178,-0.096568175,-0.15508625,1.1444138,-0.2598047,1.717367,1.2427582,-0.26191202,-0.059113324,-0.3994531,1.1654963,0.95583904
-0.1,0.0,1.2999999999999998,0.5235987755982988,0.5235987755982988,0,-0.7011808,-1.2960403,1.0883124,-0.10701029,0.10352623,1.1625651,0.035275742,1.7219237,1.1504157,-0.33482465,-0.073540956,-0.14367062,1.1409303,1.2385831
-0.1,0.0,1.2999999999999998,0.5235987755982988,0.5235987755982988,0,-0.6985881,-1.2966002,1.0810096,-0.056149423,-0.033142503,1.1361718,0.04668893,1.713666,1.0956018,-0.32747158,-0.03785843,0.06579394,1.1253289,1.0818863
-0.1,0.0,1.2999999999999998,0.5235987755982988,0.5235987755982988,0,-0.70154357,-1.2978226,1.0743421,-0.0817321,-0.12628074,1.1718469,0.48978865,1.7293357,1.1085992,-0.27457854,-0.012056522,0.17054129,1.2197628,-0.086873494
-0.1,0.0,1.2999999999999998,0.5235987755982988,0.5235987755982988,0,-0.6992301,-1.2952569,1.0926486,-0.09750142,-0.05416159,1.2505777,0.46301582,1.7206109,1.2487541,-0.6977443,-0.074113876,0.23101537,1.1260363,0.5123698
-0.1,0.0,1.2999999999999998,0.5235987755982988,0.5235987755982988,0,-0.70260966,-1.2952937,1.0885161,-0.1408274,-0.119079135,0.9342533,-0.05838276,1.734093,1.1084158,-0.27392384,0.026783166,-0.24611317,1.1096072,1.57052
-0.1,0.0,1.2999999999999998,0.5235987755982988,0.5235987755982988,0,-0.70074135,-1.2972,1.0849873,-0.105724454,0.3486513,1.1462836,0.49025682,1.7287081,1.2489917,-0.20570658,-0.087034345,-0.17614459,1.1877266,0.09703413
-0.1,0.0,1.2999999999999998,0.5235987755982988,0.5235987755982988,0,-0.7004174,-1.2931975,1.0837828,-0.13558283,-0.19589144,1.2176462,-1.3610688,1.7342,1.2721837,-0.081537366,-0.05331659,0.26347646,1.1895728,0.24136142
-0.1,0.0,1.2999999999999998,0.5235987755982988,0.5235987755982988,0,-0.6991675,-1.2941017,1.0804576,-0.09242266,0.07016081,1.234705,-0.3701925,1.7245011,1.3606672,-0.25527957,-0.079578154,0.30944675,1.1555405,0.76118416
-0.1,0.0,1.2999999999999998,0.5235987755982988,0.5235987755982988,0,-0.7004571,-1.2975152,1.0918515,-0.10543797,-0.21256354,1.2100074,1.369308,1.721809,1.2284905,0.1642746,-0.09123818,-0.20692034,1.2331018,-0.07325619
-0.1,0.0,1.2999999999999998,0.5235987755982988,0.5235987755982988,0,-0.7014729,-1.295891,1.0776801,-0.074198015,0.20690693,1.023849,-0.974309,1.7192761,1.259597,-0.3729287,-0.04800627,-0.08031756,1.2938783,-0.15180014
-0.1,0.0,1.2999999999999998,0.5235987755982988,0.5235987755982988,0,-0.70007366,-1.2964752,1.0898523,-0.075405754,0.01406815,1.0849464,-1.3399072,1.7135085,1.2836151,0.12043648,-0.05010045,0.055234056,1.1088277,1.3666161
-0.1,0.0,1.2999999999999998,0.5235987755982988,0.5235987755982988,0,-0.6987202,-1.2978812,1.0847934,-0.09869823,-0.13517886,1.143785,-1.0656576,1.7233496,1.2736301,-0.31672114,0.0033519913,0.097080246,1.2109212,0.7415232
-0.1,0.0,1.2999999999999998,0.5235987755982988,0.5235987755982988,0,-0.70220727,-1.2967218,1.0779992,-0.08963362,-0.29587257,1.014606,-1.3161223,1.7040257,1.3608549,-0.23877236,-0.02475324,-0.007960825,1.1407517,0.44868076
-0.1,0.0,1.2999999999999998,0.5235987755982988,0.5235987755982988,0,-0.7038274,-1.2953503,1.075251,-0.10798224,0.01208152,1.1835719,-0.80493295,1.7409338,1.3030052,-0.20987433,-0.054171216,-0.04952525,1.2266632,-0.5110675
-0.1,0.0,1.2999999999999998,0.5235987755982988,0.5235987755982988,0,-0.700713,-1.2929903,1.0866646,-0.085426256,0.095318034,1.0837457,-0.049625088,1.7156132,1.2459762,-0.1815386,-0.103651114,-0.1612557,1.2636598,0.42582873
