sanky1234/BimanualDexCatch/isaacgymenvs/cem_results/football_pose_0.0_0.1_0.7_0.5235987755982988_0.5235987755982988_0_2025-05-26.csv
x,y,z,roll,pitch,yaw,robot1/joint1,robot1/joint2,robot1/joint3,robot1/joint4,robot1/joint5,robot1/joint6,robot1/joint7,robot2/joint1,robot2/joint2,robot2/joint3,robot2/joint4,robot2/joint5,robot2/joint6,robot2/joint7
0.0,0.1,0.7,0.5235987755982988,0.5235987755982988,0,-0.16441283,1.3671867,-0.050382372,0.032120004,0.65081924,1.5612484,-0.98974335,-1.6574143,1.7261506,-0.028744368,0.162983,0.23526902,0.53509474,-0.32120043
0.0,0.1,0.7,0.5235987755982988,0.5235987755982988,0,-0.17094648,1.3694069,-0.052044075,0.030602835,0.6365627,1.5591265,-0.95893896,-1.6529868,1.7178938,0.005552043,0.17118661,0.20057556,0.5537019,0.0012654344
0.0,0.1,0.7,0.5235987755982988,0.5235987755982988,0,-0.17309342,1.3689407,-0.055821307,0.03055888,0.6476487,1.5468782,-1.0229402,-1.5438265,1.732387,-0.032107044,0.15190507,0.15282325,0.54900444,-0.3580465
0.0,0.1,0.7,0.5235987755982988,0.5235987755982988,0,-0.17114876,1.3686703,-0.056801625,0.031369258,0.6419186,1.5515934,-0.95436496,-1.5225613,1.7211238,-0.019216606,0.16752799,0.2024077,0.5478998,-0.22950485
0.0,0.1,0.7,0.5235987755982988,0.5235987755982988,0,-0.16934665,1.36611,-0.054663893,0.033703413,0.64671427,1.5433401,-1.0291283,-1.6938761,1.7339951,-0.036914703,0.16155346,0.27964833,0.5639736,-0.5295627
0.0,0.1,0.7,0.5235987755982988,0.5235987755982988,0,-0.16179599,1.3704818,-0.04766377,0.029776463,0.64194703,1.557943,-1.0052229,-1.5873848,1.7231356,-0.012654482,0.16385739,0.17169213,0.5582525,-0.3966218
0.0,0.1,0.7,0.5235987755982988,0.5235987755982988,0,-0.17309822,1.3658366,-0.049603887,0.030547872,0.6375361,1.5382497,-1.0381045,-1.3247262,1.7250283,-0.012946513,0.16683102,0.2534653,0.5243468,-0.37498325
0.0,0.1,0.7,0.5235987755982988,0.5235987755982988,0,-0.1729599,1.3670431,-0.055217165,0.033453736,0.65063816,1.5387608,-0.95641625,-1.6184294,1.7287931,-0.014719539,0.16578992,0.21992871,0.53289366,-0.18521704
0.0,0.1,0.7,0.5235987755982988,0.5235987755982988,0,-0.16615547,1.3649261,-0.05204008,0.03402366,0.6347734,1.5531478,-0.9892862,-1.1191779,1.719515,-0.058915604,0.1778369,0.21423912,0.530393,-0.18515708
0.0,0.1,0.7,0.5235987755982988,0.5235987755982988,0,-0.1700552,1.3669659,-0.05797088,0.033814777,0.64274764,1.5564033,-0.98360896,-1.7216452,1.7126827,-0.021701593,0.1508391,0.26043826,0.54022145,-0.32612064
0.0,0.1,0.7,0.5235987755982988,0.5235987755982988,0,-0.16857609,1.3673562,-0.05072604,0.03306799,0.64216983,1.5450311,-1.0441476,-1.6010567,1.7265447,-0.019818475,0.17075005,0.21827161,0.54104394,-0.315713
0.0,0.1,0.7,0.5235987755982988,0.5235987755982988,0,-0.16632794,1.3672456,-0.051415164,0.03476479,0.6338904,1.5426191,-1.0518416,-1.6490061,1.71608,-0.0076685273,0.16669337,0.25814182,0.5357215,-0.4048814
0.0,0.1,0.7,0.5235987755982988,0.5235987755982988,0,-0.16844887,1.3647844,-0.047771085,0.034257002,0.6412224,1.5509453,-1.0005435,-1.6337255,1.7171004,-0.02641053,0.16663758,0.19170617,0.5402582,-0.47771358
0.0,0.1,0.7,0.5235987755982988,0.5235987755982988,0,-0.1699802,1.3672019,-0.048961483,0.030884014,0.6477482,1.5557904,-1.0569704,-1.3097845,1.7153268,-0.05838413,0.16884567,0.23894922,0.54494214,-0.3223856
0.0,0.1,0.7,0.5235987755982988,0.5235987755982988,0,-0.16675049,1.3673905,-0.050808668,0.03340914,0.6357657,1.547706,-1.01447,-1.4044775,1.7066615,-0.030204635,0.1624732,0.1700649,0.53519154,-0.51359004
0.0,0.1,0.7,0.5235987755982988,0.5235987755982988,0,-0.16517468,1.3703053,-0.05054135,0.029679382,0.6401511,1.5570847,-1.0887843,-1.3539653,1.7222252,-0.05599713,0.17226292,0.19641636,0.5616847,-0.45380116
0.0,0.1,0.7,0.5235987755982988,0.5235987755982988,0,-0.17240901,1.3663498,-0.052632846,0.029615724,0.63976085,1.5625476,-0.9687246,-1.3735067,1.7117611,-0.04319798,0.17483433,0.13529544,0.55022454,-0.027309796
0.0,0.1,0.7,0.5235987755982988,0.5235987755982988,0,-0.1686286,1.3646401,-0.048502002,0.034559302,0.64226204,1.5449225,-0.98741215,-1.5871563,1.7195015,-0.022500852,0.17785166,0.17981827,0.54712206,-0.617445
0.0,0.1,0.7,0.5235987755982988,0.5235987755982988,0,-0.1771304,1.3659832,-0.054776106,0.031463616,0.6432636,1.5600086,-1.0272177,-1.362961,1.7104138,0.0131531535,0.17033884,0.19566597,0.55309045,-0.19459596
0.0,0.1,0.7,0.5235987755982988,0.5235987755982988,0,-0.16039556,1.3644092,-0.051511265,0.033418614,0.6461537,1.5359406,-0.9274471,-1.4668012,1.730064,-0.025679955,0.18018933,0.1902168,0.5323068,-0.52414083
0.0,0.1,0.7,0.5235987755982988,0.5235987755982988,0,-0.17088483,1.3690981,-0.050666098,0.030534564,0.6350776,1.558389,-1.009333,-1.5437236,1.715537,-0.05329228,0.1727201,0.17317604,0.5328715,-0.44817808
0.0,0.1,0.7,0.5235987755982988,0.5235987755982988,0,-0.16814943,1.3652188,-0.05342687,0.035051476,0.6429935,1.5316124,-0.964721,-1.7831928,1.702135,-0.033717852,0.167111,0.25617805,0.5396127,-0.19353569
0.0,0.1,0.7,0.5235987755982988,0.5235987755982988,0,-0.17702332,1.3672277,-0.05659047,0.030298743,0.64455,1.5530437,-1.0629163,-1.5826827,1.7183479,-0.018917495,0.15371566,0.13772634,0.5363028,-0.10908402
0.0,0.1,0.7,0.5235987755982988,0.5235987755982988,0,-0.17823128,1.3695133,-0.052833535,0.034537416,0.63971436,1.5421551,-0.94897646,-1.2511678,1.7225325,0.007831458,0.17428239,0.23097204,0.57482976,-0.53813607
0.0,0.1,0.7,0.5235987755982988,0.5235987755982988,0,-0.18156935,1.3677163,-0.056116626,0.034770053,0.6510118,1.5383961,-1.0146393,-1.3611392,1.7094738,-0.033899624,0.1713769,0.21328956,0.5656009,-0.15325709
0.0,0.1,0.7,0.5235987755982988,0.5235987755982988,0,-0.16939616,1.3686686,-0.05204783,0.031742685,0.6357232,1.5563878,-1.0251696,-1.4262172,1.7169373,-0.056682143,0.17770128,0.29908267,0.54745376,-0.19575886
0.0,0.1,0.7,0.5235987755982988,0.5235987755982988,0,-0.17227691,1.3682333,-0.05114638,0.031280976,0.62781644,1.5507823,-0.95406497,-1.6043293,1.7386475,-0.038545314,0.15590273,0.14647405,0.5518291,-0.500428
0.0,0.1,0.7,0.5235987755982988,0.5235987755982988,0,-0.16740161,1.3668926,-0.054386433,0.032758214,0.64703304,1.5531158,-0.98988926,-1.6457205,1.7190719,-0.044068657,0.17707554,0.18297555,0.5274776,-0.44109175
0.0,0.1,0.7,0.5235987755982988,0.5235987755982988,0,-0.16811095,1.3674842,-0.05333675,0.032865085,0.6344948,1.5431582,-1.0964042,-1.6232078,1.7060977,-0.030022092,0.17468536,0.16318867,0.5330854,-0.24289598
0.0,0.1,0.7,0.5235987755982988,0.5235987755982988,0,-0.16766305,1.367099,-0.05177107,0.034295827,0.634435,1.5558637,-1.0148017,-1.5122719,1.7221234,-0.008588868,0.18582292,0.18939531,0.55544317,-0.30034542
0.0,0.1,0.7,0.5235987755982988,0.5235987755982988,0,-0.166795,1.3663605,-0.055430092,0.03482921,0.6374275,1.5500928,-0.9882541,-1.7156218,1.7222002,-0.021678897,0.17560619,0.14897963,0.55068344,-0.5652305
0.0,0.1,0.7,0.5235987755982988,0.5235987755982988,0,-0.17345817,1.369041,-0.051564854,0.032903038,0.62240374,1.5434959,-1.1011099,-1.6226035,1.7115977,-0.019995121,0.19788006,0.26615244,0.5606651,-0.06555066
0.0,0.1,0.7,0.5235987755982988,0.5235987755982988,0,-0.16534233,1.3667358,-0.0495419,0.03359042,0.63573503,1.5608201,-1.0106928,-1.8580748,1.7099227,-0.017532738,0.17409255,0.17733577,0.55235064,-0.46031868
0.0,0.1,0.7,0.5235987755982988,0.5235987755982988,0,-0.1675578,1.3667493,-0.049790815,0.034022015,0.64329875,1.5478859,-1.0202906,-1.7388887,1.7165782,-0.025325408,0.1797661,0.1948981,0.55472463,-0.51463085
0.0,0.1,0.7,0.5235987755982988,0.5235987755982988,0,-0.17494066,1.3679148,-0.054349404,0.033303976,0.63563037,1.5468867,-0.97359115,-1.6230814,1.7217036,-0.013767553,0.1841376,0.22353607,0.5447075,-0.13932255
0.0,0.1,0.7,0.5235987755982988,0.5235987755982988,0,-0.16725565,1.3661876,-0.051028777,0.035415042,0.6459185,1.557232,-1.015964,-1.5643994,1.7222552,-0.033139594,0.17751245,0.24394204,0.5327077,-0.1618602
0.0,0.1,0.7,0.5235987755982988,0.5235987755982988,0,-0.16480282,1.3681756,-0.059333842,0.031182373,0.65455484,1.567023,-1.0173727,-1.5777973,1.7353995,-0.034902215,0.18337578,0.215692,0.53211415,-0.39195356
0.0,0.1,0.7,0.5235987755982988,0.5235987755982988,0,-0.1734938,1.3676391,-0.049672328,0.033368476,0.6377454,1.5546609,-1.0187014,-1.3720951,1.7176559,-0.019119324,0.15809911,0.25887075,0.53954184,-0.49512956
0.0,0.1,0.7,0.5235987755982988,0.5235987755982988,0,-0.16888629,1.3680425,-0.04701634,0.03176271,0.641152,1.5535799,-1.0867788,-1.588325,1.7087178,-0.031786367,0.17053115,0.16950452,0.55043775,-0.08291401
0.0,0.1,0.7,0.5235987755982988,0.5235987755982988,0,-0.1741011,1.3639481,-0.056918465,0.027748328,0.62760913,1.5504354,-1.0499884,-1.7067941,1.7289846,-0.025440607,0.18075177,0.14209723,0.5554814,-0.39488828
0.0,0.1,0.7,0.5235987755982988,0.5235987755982988,0,-0.17378841,1.3668358,-0.05159437,0.031911228,0.6359779,1.5506859,-0.9932922,-1.6094462,1.7157722,-0.042821508,0.17876558,0.2393568,0.53831613,-0.14706962
0.0,0.1,0.7,0.5235987755982988,0.5235987755982988,0,-0.17317681,1.3689885,-0.05276046,0.034282826,0.6377902,1.5571424,-1.0514656,-1.4301594,1.7083217,-0.02857035,0.17406161,0.3270024,0.5423075,-0.7215696
0.0,0.1,0.7,0.5235987755982988,0.5235987755982988,0,-0.17250918,1.3702264,-0.054164678,0.033793926,0.6314086,1.5599931,-0.98244905,-1.7311201,1.7235271,-0.012138656,0.16856219,0.28213245,0.53679377,-0.42333576
0.0,0.1,0.7,0.5235987755982988,0.5235987755982988,0,-0.1703841,1.3665872,-0.053535145,0.03277393,0.63081324,1.5585277,-1.0415374,-1.5240068,1.722372,-0.022494808,0.17407735,0.20721199,0.5238954,-0.30992764
0.0,0.1,0.7,0.5235987755982988,0.5235987755982988,0,-0.16871043,1.3652198,-0.051431585,0.035345808,0.6346154,1.5638661,-1.0881288,-1.4436578,1.7168343,-0.022221252,0.17921911,0.23802023,0.5491985,-0.42449313
0.0,0.1,0.7,0.5235987755982988,0.5235987755982988,0,-0.15952146,1.3680094,-0.05110419,0.03187262,0.6276245,1.5531492,-1.06934,-1.4587679,1.7247958,-0.031707376,0.16598573,0.23765124,0.5408664,-0.5907084
0.0,0.1,0.7,0.5235987755982988,0.5235987755982988,0,-0.17011225,1.3708441,-0.059971675,0.033193074,0.62569475,1.5631815,-1.0229142,-1.4777325,1.7195456,-0.0370013,0.16037191,0.3122282,0.569814,-0.68377393
0.0,0.1,0.7,0.5235987755982988,0.5235987755982988,0,-0.1700707,1.3651873,-0.047964584,0.035114337,0.6297814,1.5642346,-1.0187941,-1.3302542,1.7125211,-0.015751556,0.17227766,0.19232999,0.5448522,-0.3568504
0.0,0.1,0.7,0.5235987755982988,0.5235987755982988,0,-0.17300609,1.3672678,-0.054569986,0.032667477,0.63553154,1.544629,-1.0345362,-1.4541086,1.7103322,-0.030210717,0.17451313,0.25680333,0.56310123,-0.37445524
0.0,0.1,0.7,0.5235987755982988,0.5235987755982988,0,-0.17570625,1.3674104,-0.05541489,0.034264673,0.6409753,1.5481998,-1.0063213,-1.202722,1.7116715,-0.020742308,0.16654438,0.2369573,0.56759185,-0.46732435
0.0,0.1,0.7,0.5235987755982988,0.5235987755982988,0,-0.17682321,1.3713442,-0.05062616,0.033735033,0.643505,1.5485069,-1.0540866,-1.4392451,1.7369684,-0.0007655506,0.18647663,0.28944793,0.51870763,-0.24170624
0.0,0.1,0.7,0.5235987755982988,0.5235987755982988,0,-0.16997832,1.368062,-0.056770116,0.037034076,0.6315798,1.5663375,-1.0244453,-1.4982353,1.738029,-0.0048042824,0.16768257,0.2855384,0.53854954,-0.2752954
0.0,0.1,0.7,0.5235987755982988,0.5235987755982988,0,-0.1712626,1.3699998,-0.05315214,0.035050325,0.6513011,1.5476367,-1.0680778,-1.2866493,1.7059546,-0.05338377,0.17683938,0.3231931,0.5366198,-0.79099524
0.0,0.1,0.7,0.5235987755982988,0.5235987755982988,0,-0.16967005,1.3709795,-0.05778821,0.033984948,0.63984233,1.5623865,-1.0626696,-1.1604921,1.7215728,-0.03473671,0.16817515,0.2915929,0.5383076,-0.47583267
0.0,0.1,0.7,0.5235987755982988,0.5235987755982988,0,-0.16739443,1.3706374,-0.051477302,0.03194518,0.63613015,1.5548542,-1.0405191,-1.5369697,1.7119772,-0.027989617,0.17466144,0.25366297,0.5110777,-0.7704923
0.0,0.1,0.7,0.5235987755982988,0.5235987755982988,0,-0.16453232,1.369146,-0.051590994,0.034137852,0.62768036,1.5620427,-0.95994586,-1.441067,1.7126466,-0.029991146,0.17819802,0.29198048,0.53652006,-0.39552718
0.0,0.1,0.7,0.5235987755982988,0.5235987755982988,0,-0.17489758,1.3658127,-0.053232778,0.038616795,0.63740396,1.556023,-0.8784498,-1.7467521,1.7210834,-0.0030062743,0.16848734,0.25774115,0.5201066,-0.5155122
0.0,0.1,0.7,0.5235987755982988,0.5235987755982988,0,-0.17228708,1.3701274,-0.05197241,0.03302171,0.6427587,1.561815,-1.035422,-1.6591146,1.7156562,-0.0027199143,0.16947745,0.25743705,0.5215982,-0.36653265
0.0,0.1,0.7,0.5235987755982988,0.5235987755982988,0,-0.16806766,1.370214,-0.057346735,0.0350542,0.64915574,1.5523548,-1.0156982,-1.418546,1.7226183,-0.026150573,0.1807705,0.2673891,0.5336056,-0.11821107
0.0,0.1,0.7,0.5235987755982988,0.5235987755982988,0,-0.17359418,1.3690995,-0.056267276,0.035226744,0.64993936,1.5493705,-1.0173272,-1.7459674,1.7172601,-0.0032481821,0.16501617,0.32984272,0.5549756,-0.24836965
0.0,0.1,0.7,0.5235987755982988,0.5235987755982988,0,-0.16908108,1.3683991,-0.052030105,0.036139693,0.6430807,1.5457828,-1.0684905,-1.7171171,1.7319189,-0.023230752,0.16064234,0.25370857,0.5262156,-0.6007725
0.0,0.1,0.7,0.5235987755982988,0.5235987755982988,0,-0.16873883,1.3697215,-0.054386135,0.03384053,0.6589661,1.5652146,-0.9954429,-1.4977366,1.7108791,-0.013167052,0.16666548,0.27095726,0.5333163,-0.31004238
0.0,0.1,0.7,0.5235987755982988,0.5235987755982988,0,-0.16605613,1.3686647,-0.05065042,0.034442805,0.62708116,1.5384518,-1.0516938,-1.5447663,1.7297721,-0.020647457,0.1600372,0.24888682,0.5347514,-0.48033708
0.0,0.1,0.7,0.5235987755982988,0.5235987755982988,0,-0.16673607,1.3700769,-0.057846226,0.036709327,0.6524182,1.5511475,-1.0035633,-1.634345,1.7156057,-0.034999877,0.1609353,0.31529891,0.55428416,-0.27846205
0.0,0.1,0.7,0.5235987755982988,0.5235987755982988,0,-0.16099961,1.3677055,-0.055277016,0.036690548,0.63224155,1.5486213,-1.0407046,-1.3527558,1.7091744,-0.01606069,0.17088918,0.26767114,0.530917,-0.5201919
0.0,0.1,0.7,0.5235987755982988,0.5235987755982988,0,-0.17109717,1.3714684,-0.05446329,0.033736557,0.64012176,1.5533992,-1.0161941,-1.3628176,1.7109134,-0.017433822,0.1741605,0.21820943,0.5135649,-0.60323447
0.0,0.1,0.7,0.5235987755982988,0.5235987755982988,0,-0.17080092,1.3710002,-0.049699225,0.03237299,0.6459845,1.556786,-1.0180572,-1.5378013,1.7233572,-0.004532843,0.15160443,0.2326441,0.5150693,-0.48993608
0.0,0.1,0.7,0.5235987755982988,0.5235987755982988,0,-0.16244644,1.3699908,-0.055700798,0.033334587,0.6421044,1.5512908,-1.0006131,-1.5213916,1.7314695,-0.007395674,0.17073293,0.24489059,0.53228647,-0.29036862
0.0,0.1,0.7,0.5235987755982988,0.5235987755982988,0,-0.17251995,1.3705313,-0.058443435,0.035263624,0.6418039,1.5424888,-1.0697216,-1.5092045,1.7240789,-0.032436576,0.16766235,0.27460122,0.54255086,-0.4676197
0.0,0.1,0.7,0.5235987755982988,0.5235987755982988,0,-0.15978956,1.3709847,-0.056188874,0.033109717,0.6357358,1.5479714,-0.9978337,-1.3553354,1.7293439,-0.0060245134,0.17176142,0.2754003,0.5502783,-0.33219945
0.0,0.1,0.7,0.5235987755982988,0.5235987755982988,0,-0.16935429,1.3696647,-0.056506753,0.035922088,0.6487601,1.5595802,-0.98255426,-1.4633646,1.7266097,-0.03760977,0.15631399,0.28785315,0.55479026,-0.62358177
0.0,0.1,0.7,0.5235987755982988,0.5235987755982988,0,-0.17526674,1.3710078,-0.054368876,0.035100266,0.65119606,1.5584862,-0.9508774,-1.5227258,1.7134739,-0.02153446,0.16417095,0.22751954,0.5209971,-0.40513498
0.0,0.1,0.7,0.5235987755982988,0.5235987755982988,0,-0.17455247,1.3703055,-0.05257495,0.035904456,0.6305164,1.5546285,-0.9673023,-1.4011853,1.7169133,-0.020772453,0.16314903,0.2566766,0.5394904,-0.9387184
0.0,0.1,0.7,0.5235987755982988,0.5235987755982988,0,-0.17516758,1.367681,-0.05358588,0.037124015,0.63538015,1.5489272,-1.0540851,-1.5843732,1.733839,-0.02015779,0.17879692,0.1939923,0.5302137,-0.7507811
0.0,0.1,0.7,0.5235987755982988,0.5235987755982988,0,-0.1780503,1.3706818,-0.054260258,0.03394874,0.64157796,1.5494611,-1.057662,-1.3963505,1.7125409,-0.021955382,0.18253809,0.21056177,0.5308749,-0.12658437
0.0,0.1,0.7,0.5235987755982988,0.5235987755982988,0,-0.17463033,1.3720554,-0.053847883,0.034332655,0.63727397,1.5618128,-1.0465474,-1.5994017,1.7144201,-0.041855223,0.15867786,0.20724067,0.51687825,-0.63053143
0.0,0.1,0.7,0.5235987755982988,0.5235987755982988,0,-0.16527423,1.3700072,-0.04419863,0.036065057,0.6209847,1.5447905,-0.99781567,-1.4315964,1.7155968,-0.019585518,0.1726427,0.25570804,0.5345575,-0.005201925
0.0,0.1,0.7,0.5235987755982988,0.5235987755982988,0,-0.16364662,1.3709654,-0.052062158,0.03582861,0.6350908,1.563886,-1.1024203,-1.3426135,1.7246288,-0.014654374,0.1534637,0.2917385,0.5545607,-0.46367252
0.0,0.1,0.7,0.5235987755982988,0.5235987755982988,0,-0.17263387,1.3696426,-0.05087461,0.034087118,0.6394379,1.5488738,-0.9630816,-1.4781613,1.7230611,-0.029889291,0.15263757,0.240836,0.52555346,-0.42184484
0.0,0.1,0.7,0.5235987755982988,0.5235987755982988,0,-0.17584714,1.3699389,-0.051345557,0.033427365,0.6336245,1.5643367,-1.0126101,-1.6090857,1.7115737,-0.014002421,0.17020886,0.25563654,0.5488226,-0.41384584
0.0,0.1,0.7,0.5235987755982988,0.5235987755982988,0,-0.16303909,1.3697586,-0.052407753,0.034470372,0.64944017,1.5699949,-0.968772,-1.7043662,1.6969962,-0.018419553,0.17567775,0.26951388,0.5537419,-0.31344092
0.0,0.1,0.7,0.5235987755982988,0.5235987755982988,0,-0.17127652,1.3695292,-0.052879382,0.03603671,0.62826055,1.5434484,-0.92348707,-1.383287,1.7217399,-0.02473867,0.15872706,0.21154705,0.5190787,-0.72651947
0.0,0.1,0.7,0.5235987755982988,0.5235987755982988,0,-0.16775128,1.3703294,-0.051123746,0.03273406,0.63046086,1.5563358,-1.0015166,-1.3919826,1.7274042,0.003564306,0.15599388,0.2454856,0.5331677,-0.38376403
0.0,0.1,0.7,0.5235987755982988,0.5235987755982988,0,-0.16994523,1.3688595,-0.054907393,0.03564141,0.6281613,1.5555589,-1.0421636,-1.2741262,1.7186044,-0.040069014,0.15671207,0.26256496,0.54598004,-0.17739661
0.0,0.1,0.7,0.5235987755982988,0.5235987755982988,0,-0.17121676,1.3677574,-0.050516848,0.035925474,0.6423209,1.5488212,-0.9606688,-1.6372848,1.734851,0.007643612,0.17107803,0.21245918,0.5418031,-0.15110399
0.0,0.1,0.7,0.5235987755982988,0.5235987755982988,0,-0.17139085,1.3699845,-0.054997765,0.033508625,0.62932974,1.5486838,-0.97007585,-1.6664145,1.7225274,-0.003537269,0.16183941,0.26508695,0.5483944,-0.5908748
0.0,0.1,0.7,0.5235987755982988,0.5235987755982988,0,-0.17560835,1.3700616,-0.053635348,0.033167023,0.6406975,1.5393492,-1.0242789,-1.5052805,1.7259127,0.015527333,0.18192604,0.18970266,0.5317789,-0.5596271
0.0,0.1,0.7,0.5235987755982988,0.5235987755982988,0,-0.17065126,1.3679687,-0.05635485,0.036322556,0.6386065,1.5602126,-0.99229103,-1.7037321,1.7156191,-0.008689771,0.16361792,0.20614666,0.53204703,-0.53071785
0.0,0.1,0.7,0.5235987755982988,0.5235987755982988,0,-0.16787997,1.3698579,-0.04967572,0.033243302,0.6410133,1.5447307,-1.0617784,-1.3144599,1.7158413,-0.011202878,0.15583585,0.2459909,0.5329967,-0.7047964
0.0,0.1,0.7,0.5235987755982988,0.5235987755982988,0,-0.16842343,1.369561,-0.05829062,0.034286026,0.62861377,1.5536317,-1.0280632,-1.4852785,1.7164305,-0.0038167739,0.17495088,0.206094,0.53940165,-0.41592816
0.0,0.1,0.7,0.5235987755982988,0.5235987755982988,0,-0.16820034,1.3700385,-0.05303688,0.034471333,0.62816197,1.5559462,-0.97894245,-1.3585722,1.7297508,-0.02127613,0.1660538,0.21202129,0.54569405,-0.534658
0.0,0.1,0.7,0.5235987755982988,0.5235987755982988,0,-0.17698534,1.3715441,-0.04942977,0.033563923,0.6496704,1.5390184,-0.9965535,-1.2763897,1.7105416,0.00013613973,0.1728043,0.24525352,0.54537,-0.59273124
0.0,0.1,0.7,0.5235987755982988,0.5235987755982988,0,-0.16608468,1.3690627,-0.056765407,0.03504567,0.6379023,1.5517604,-1.12842,-1.4209188,1.7113707,-0.025136005,0.16391575,0.22921428,0.5379606,-0.383723
0.0,0.1,0.7,0.5235987755982988,0.5235987755982988,0,-0.16950326,1.3703713,-0.04900886,0.033555243,0.6294784,1.5618291,-0.95673645,-1.4544446,1.7182542,-0.016411759,0.15854162,0.22252099,0.5383234,-0.48561502
0.0,0.1,0.7,0.5235987755982988,0.5235987755982988,0,-0.16583835,1.3686701,-0.059502702,0.038119074,0.63305825,1.5556895,-0.9937928,-1.6191543,1.7030035,-0.02969926,0.15356877,0.24285424,0.53640807,-0.8146004
0.0,0.1,0.7,0.5235987755982988,0.5235987755982988,0,-0.17970628,1.3702618,-0.055505913,0.03532206,0.6391441,1.555276,-0.99905926,-1.3649731,1.7082115,-0.015589648,0.16671011,0.1622693,0.5285383,-0.6997623
0.0,0.1,0.7,0.5235987755982988,0.5235987755982988,0,-0.16888976,1.3716536,-0.048525244,0.033710998,0.62917346,1.5464245,-1.0448378,-1.3435686,1.7328614,-6.1374325e-05,0.16960864,0.2669174,0.5753155,-0.3454546
0.0,0.1,0.7,0.5235987755982988,0.5235987755982988,0,-0.1673353,1.3684714,-0.05100336,0.03647149,0.6425038,1.5492886,-1.0325462,-1.4906467,1.7135463,-0.013920999,0.17301849,0.21756855,0.54535735,-0.5624021
0.0,0.1,0.7,0.5235987755982988,0.5235987755982988,0,-0.16916348,1.3686024,-0.049406543,0.033425007,0.63570833,1.5653477,-1.0430965,-1.6596096,1.7179483,-0.008253434,0.17540576,0.15991016,0.5388979,-0.39054942
0.0,0.1,0.7,0.5235987755982988,0.5235987755982988,0,-0.17359713,1.3702512,-0.053030793,0.034431037,0.6300738,1.5582008,-1.0675377,-1.5448418,1.7258372,-0.031133685,0.15060556,0.23361115,0.55333555,-0.44330794
0.0,0.1,0.7,0.5235987755982988,0.5235987755982988,0,-0.16351698,1.3690692,-0.052469578,0.034050874,0.6346038,1.5380131,-1.0788105,-1.272173,1.7199655,-0.034210015,0.1703311,0.21721749,0.5359717,-0.6769155
0.0,0.1,0.7,0.5235987755982988,0.5235987755982988,0,-0.16931163,1.3696609,-0.054707993,0.033612598,0.6279693,1.5396602,-1.0206878,-1.4491692,1.7127173,-0.028609695,0.1643023,0.24573474,0.5497022,-0.5152214
0.0,0.1,0.7,0.5235987755982988,0.5235987755982988,0,-0.17550096,1.369355,-0.046870414,0.034446716,0.6453623,1.5457422,-1.065178,-1.3871868,1.7308853,-0.02403752,0.16488026,0.2376072,0.56480277,-0.51862293
0.0,0.1,0.7,0.5235987755982988,0.5235987755982988,0,-0.170259,1.3689898,-0.049989443,0.034989916,0.6261723,1.5509709,-0.9517378,-1.3063165,1.7168851,-0.016818788,0.16384256,0.26298684,0.56625605,-0.28444654
0.0,0.1,0.7,0.5235987755982988,0.5235987755982988,0,-0.16952455,1.3702263,-0.05149556,0.034117285,0.6326779,1.5482737,-1.0074735,-1.5791206,1.7119086,-0.02018861,0.1653685,0.18334582,0.52826935,-0.45502794
0.0,0.1,0.7,0.5235987755982988,0.5235987755982988,0,-0.18111028,1.3701253,-0.054059565,0.033804543,0.64043534,1.5333307,-0.96860194,-1.3325158,1.7252204,-0.011147294,0.17112748,0.21727894,0.5579609,-0.27742597
0.0,0.1,0.7,0.5235987755982988,0.5235987755982988,0,-0.16527653,1.3673209,-0.05225914,0.03616605,0.64732826,1.5549799,-1.0405724,-1.4546481,1.7132022,-0.034671534,0.16182533,0.20136535,0.5577375,-0.6618187
0.0,0.1,0.7,0.5235987755982988,0.5235987755982988,0,-0.16221662,1.369968,-0.051169306,0.034542415,0.63317037,1.5542738,-1.0858376,-1.4565426,1.7341741,0.0001192172,0.16064805,0.21002564,0.5501484,-0.20413102
0.0,0.1,0.7,0.5235987755982988,0.5235987755982988,0,-0.17456314,1.3706626,-0.05486305,0.032470603,0.6366397,1.5546473,-1.0745951,-1.4029374,1.7152785,-0.007842593,0.16970067,0.17557901,0.54193765,-0.7369472
0.0,0.1,0.7,0.5235987755982988,0.5235987755982988,0,-0.16639878,1.3689095,-0.057434052,0.033802595,0.62794286,1.5481722,-1.0687513,-1.3855661,1.725335,-0.041557677,0.17049772,0.24504727,0.5300971,-0.35923573
0.0,0.1,0.7,0.5235987755982988,0.5235987755982988,0,-0.17162628,1.3676445,-0.046210308,0.036398817,0.65268034,1.5605985,-1.0627851,-1.4860756,1.7157192,-0.008861373,0.15943825,0.1590076,0.53599036,-0.2677879
0.0,0.1,0.7,0.5235987755982988,0.5235987755982988,0,-0.17606087,1.3713328,-0.056173626,0.03259339,0.63204664,1.5517842,-0.9866886,-1.5945934,1.7172483,-0.0056778966,0.17291221,0.16159119,0.5521627,-0.6955551
0.0,0.1,0.7,0.5235987755982988,0.5235987755982988,0,-0.17446351,1.3663423,-0.056378376,0.036875505,0.6384341,1.5539863,-1.0860988,-1.4934254,1.7262344,-0.024817612,0.17908499,0.095594525,0.52773184,-0.58863413
0.0,0.1,0.7,0.5235987755982988,0.5235987755982988,0,-0.17013282,1.3700148,-0.05296191,0.033251893,0.64967,1.5529008,-0.9968167,-1.4373432,1.7127663,0.012983015,0.16959108,0.18071379,0.5615408,-0.52801377
0.0,0.1,0.7,0.5235987755982988,0.5235987755982988,0,-0.1694376,1.3689594,-0.049427908,0.03544016,0.6387458,1.5498446,-1.055444,-1.3877382,1.7278323,-0.03131167,0.15135673,0.19379206,0.5633555,-0.7857893
0.0,0.1,0.7,0.5235987755982988,0.5235987755982988,0,-0.17003848,1.3685989,-0.056150515,0.03620424,0.63903123,1.5377895,-0.96397096,-1.8166589,1.7178506,0.0014026378,0.16877563,0.15523754,0.5533332,-0.8410727
0.0,0.1,0.7,0.5235987755982988,0.5235987755982988,0,-0.1714402,1.3693206,-0.05205155,0.03390021,0.6313964,1.5694593,-1.0303928,-1.3442144,1.7228905,-0.028189039,0.17992091,0.1479429,0.5206195,-0.3864242
0.0,0.1,0.7,0.5235987755982988,0.5235987755982988,0,-0.17202163,1.3672327,-0.04653441,0.037136875,0.6237582,1.5651599,-1.073728,-1.4027079,1.7278353,-0.03608536,0.17228349,0.23445626,0.54472363,-0.20405705
0.0,0.1,0.7,0.5235987755982988,0.5235987755982988,0,-0.17074311,1.3689097,-0.05013409,0.037770152,0.6187419,1.5427183,-1.0083152,-1.2934065,1.72389,-0.034019686,0.17236914,0.20187978,0.55516815,-0.32339826
0.0,0.1,0.7,0.5235987755982988,0.5235987755982988,0,-0.17245705,1.3659043,-0.049301203,0.031850472,0.6404125,1.5461953,-0.99574184,-1.5915152,1.7249187,-0.004677289,0.16745389,0.14758639,0.543323,-0.282385
0.0,0.1,0.7,0.5235987755982988,0.5235987755982988,0,-0.16905394,1.3700112,-0.050567195,0.032736577,0.64111185,1.5441414,-0.9914403,-1.267572,1.7171775,-0.037220377,0.16350953,0.27208215,0.5155783,-0.18498553
0.0,0.1,0.7,0.5235987755982988,0.5235987755982988,0,-0.16686149,1.3689204,-0.05649485,0.03482658,0.6306724,1.559126,-1.0515053,-1.6429682,1.7292709,-0.019489331,0.15484825,0.27950037,0.5735194,-0.5279138
0.0,0.1,0.7,0.5235987755982988,0.5235987755982988,0,-0.1708586,1.3706974,-0.054009866,0.032713708,0.6355406,1.5697013,-0.9943432,-1.4185091,1.7037325,-0.016121404,0.18676798,0.22131126,0.5136506,-0.4129451
0.0,0.1,0.7,0.5235987755982988,0.5235987755982988,0,-0.16500945,1.3698303,-0.05546403,0.03559364,0.6411673,1.5519931,-0.9817503,-1.2622114,1.7211002,-0.026452957,0.19329342,0.20988494,0.55233127,-0.47739118
0.0,0.1,0.7,0.5235987755982988,0.5235987755982988,0,-0.16770393,1.3699754,-0.050245337,0.03405271,0.63695794,1.5667075,-1.0415559,-1.4012327,1.734714,-0.009053983,0.1742411,0.2136514,0.5343366,-0.13133135
0.0,0.1,0.7,0.5235987755982988,0.5235987755982988,0,-0.1681336,1.3697879,-0.05115215,0.035665233,0.63019234,1.5517623,-0.94206166,-1.1407125,1.7215968,-0.02017661,0.15584315,0.28576082,0.52500755,-0.50682515
0.0,0.1,0.7,0.5235987755982988,0.5235987755982988,0,-0.16761725,1.3713521,-0.05220274,0.03534789,0.63577,1.5542068,-0.95139945,-1.4505244,1.7080358,-0.05087612,0.1717064,0.186333,0.5187553,-0.1641126
0.0,0.1,0.7,0.5235987755982988,0.5235987755982988,0,-0.16851102,1.367064,-0.057378612,0.035092436,0.6299353,1.5599253,-0.94106245,-1.6131867,1.7266245,-0.002804268,0.1771781,0.2525284,0.52228135,-0.59149736
0.0,0.1,0.7,0.5235987755982988,0.5235987755982988,0,-0.1648707,1.3688891,-0.053965256,0.03633237,0.6390848,1.5545865,-1.0015355,-1.5639505,1.7301589,-0.022476343,0.15636395,0.27688736,0.5642565,-0.2736771
0.0,0.1,0.7,0.5235987755982988,0.5235987755982988,0,-0.16639654,1.3687881,-0.062366124,0.035005134,0.6323537,1.5530913,-0.9267987,-1.5071701,1.7275715,-0.026856,0.17385317,0.16180965,0.5136922,-0.5283123
0.0,0.1,0.7,0.5235987755982988,0.5235987755982988,0,-0.1725797,1.3710623,-0.05416223,0.02847814,0.6321083,1.5520093,-1.0143522,-1.4407154,1.7299323,0.021087578,0.19051331,0.19503142,0.55269986,-0.107427746
0.0,0.1,0.7,0.5235987755982988,0.5235987755982988,0,-0.15929177,1.3641065,-0.049071074,0.035561804,0.6237945,1.5527191,-0.9874564,-1.5474931,1.7284967,-0.0005945556,0.15723023,0.17796785,0.532439,-0.15990539
0.0,0.1,0.7,0.5235987755982988,0.5235987755982988,0,-0.17416756,1.3697085,-0.056706086,0.038405906,0.6503305,1.5426867,-1.1043543,-1.19564,1.7095417,-0.026190868,0.16648795,0.2524957,0.5401639,-0.69395083
0.0,0.1,0.7,0.5235987755982988,0.5235987755982988,0,-0.17200004,1.3694339,-0.052119594,0.03058418,0.64647114,1.5469154,-1.0788045,-1.4061291,1.7253008,-0.016701393,0.16474083,0.25680473,0.55688286,-0.5488788
0.0,0.1,0.7,0.5235987755982988,0.5235987755982988,0,-0.16646604,1.3675582,-0.05520629,0.03519044,0.6424824,1.563776,-1.1000183,-1.4975175,1.7153801,-0.02633381,0.14855094,0.15584247,0.5452343,-0.2558084
0.0,0.1,0.7,0.5235987755982988,0.5235987755982988,0,-0.17365305,1.347474,-0.05458074,0.0353031,0.6545419,1.5423945,-0.98514074,-1.3643906,1.7328634,-0.020147111,0.18502344,0.22392735,0.5492065,-0.2210168
0.0,0.1,0.7,0.5235987755982988,0.5235987755982988,0,-0.16830938,1.3665177,-0.05523426,0.03423697,0.6282002,1.5415183,-0.98386496,-1.6908034,1.7340838,-0.020946108,0.18987417,0.2710227,0.541803,-0.6056665
0.0,0.1,0.7,0.5235987755982988,0.5235987755982988,0,-0.16942456,1.3688028,-0.056680508,0.03320389,0.64824396,1.5561817,-1.0140117,-1.6548812,1.7226477,-0.01811265,0.15648009,0.10546248,0.52362806,-0.47192428
0.0,0.1,0.7,0.5235987755982988,0.5235987755982988,0,-0.16919516,1.368939,-0.05650868,0.03266304,0.6367907,1.5471702,-1.036107,-1.3846014,1.7138264,-0.02734877,0.17992087,0.18547955,0.54868525,-0.41438642
0.0,0.1,0.7,0.5235987755982988,0.5235987755982988,0,-0.17284742,1.3687563,-0.04635328,0.035119236,0.64148813,1.5434587,-0.9942746,-1.5316879,1.7259765,-0.034145907,0.1736745,0.2228743,0.54823375,-0.3306784
0.0,0.1,0.7,0.5235987755982988,0.5235987755982988,0,-0.16852051,1.3661675,-0.051237013,0.033659924,0.64937407,1.5618118,-1.0139351,-1.5559812,1.71122,-0.047785193,0.16910905,0.20197226,0.5391647,-0.24899518
0.0,0.1,0.7,0.5235987755982988,0.5235987755982988,0,-0.17806669,1.3647075,-0.056771945,0.02943361,0.63916546,1.5466264,-1.0591232,-1.3093169,1.7143227,-0.02414112,0.16690353,0.23079468,0.52796334,-0.52207357
0.0,0.1,0.7,0.5235987755982988,0.5235987755982988,0,-0.16608967,1.3667196,-0.052198887,0.03222168,0.63963926,1.562898,-1.0364813,-1.4762772,1.7234051,-0.041608512,0.17423522,0.15135503,0.52341896,-0.4722231
0.0,0.1,0.7,0.5235987755982988,0.5235987755982988,0,-0.17881751,1.3662372,-0.054806523,0.03656282,0.6381703,1.551331,-1.0708728,-1.6591151,1.7152095,-0.035295606,0.17332263,0.21157955,0.5359734,-0.34475186
0.0,0.1,0.7,0.5235987755982988,0.5235987755982988,0,-0.17293178,1.3680761,-0.05369206,0.028284933,0.6539419,1.5600778,-0.9994434,-1.5711056,1.7179172,-0.024567202,0.17441255,0.18511128,0.54157054,-0.14823112
0.0,0.1,0.7,0.5235987755982988,0.5235987755982988,0,-0.17324077,1.3646246,-0.05359731,0.031329725,0.6310605,1.5467111,-1.0108591,-1.2551498,1.7247026,-0.002658297,0.15490133,0.24652193,0.5659427,-0.5935913
0.0,0.1,0.7,0.5235987755982988,0.5235987755982988,0,-0.17524466,1.3686659,-0.056056898,0.03141028,0.63888717,1.565725,-0.9719023,-1.4462013,1.7052984,0.008064427,0.18893282,0.31718406,0.54622835,-0.45228854
0.0,0.1,0.7,0.5235987755982988,0.5235987755982988,0,-0.17466919,1.3667878,-0.049638778,0.03410057,0.6391213,1.5598902,-1.0460249,-1.3954548,1.7097745,-0.010537858,0.16349737,0.2691849,0.55000395,-0.70355403
0.0,0.1,0.7,0.5235987755982988,0.5235987755982988,0,-0.170838,1.3691233,-0.056492314,0.030373387,0.6285217,1.554285,-1.0038944,-1.1450365,1.713067,-0.03248841,0.17297648,0.25523075,0.5247849,-0.44522822
0.0,0.1,0.7,0.5235987755982988,0.5235987755982988,0,-0.16514985,1.367437,-0.057618186,0.03336721,0.62414205,1.5580214,-0.927321,-1.4479053,1.6937722,-0.012932927,0.16566873,0.27364448,0.55820876,-0.7363252
0.0,0.1,0.7,0.5235987755982988,0.5235987755982988,0,-0.16650221,1.3660166,-0.055728734,0.0335267,0.62321913,1.5590482,-1.0784763,-1.3972404,1.7059823,-0.0085709505,0.17283292,0.22651894,0.5631206,-0.6957556
0.0,0.1,0.7,0.5235987755982988,0.5235987755982988,0,-0.1729281,1.3667657,-0.049555946,0.033056654,0.6353253,1.5508374,-0.9786249,-1.393117,1.7207067,0.014286656,0.17512561,0.18842922,0.53974843,-0.39790985
0.0,0.1,0.7,0.5235987755982988,0.5235987755982988,0,-0.17039545,1.367232,-0.051722597,0.03192752,0.6351235,1.5644323,-1.0032359,-1.3197585,1.7166939,-0.009040853,0.17853047,0.2349745,0.53083503,-0.43213066
0.0,0.1,0.7,0.5235987755982988,0.5235987755982988,0,-0.16469735,1.3669256,-0.059559766,0.030448815,0.6265738,1.5469592,-1.0112728,-1.331053,1.7089313,-0.012444906,0.16815092,0.25246754,0.5232234,-0.45040572
0.0,0.1,0.7,0.5235987755982988,0.5235987755982988,0,-0.16673711,1.3677735,-0.053742744,0.033265844,0.6442,1.5571519,-0.9531753,-1.2272302,1.7258514,-0.0257647,0.17942742,0.2723456,0.5450987,-0.6034817
0.0,0.1,0.7,0.5235987755982988,0.5235987755982988,0,-0.168793,1.3674568,-0.050474655,0.033401668,0.6257417,1.5561434,-1.0104803,-1.4348564,1.7282525,-0.024576351,0.17970261,0.294311,0.5166384,-0.7467669
0.0,0.1,0.7,0.5235987755982988,0.5235987755982988,0,-0.17152147,1.3656985,-0.04723036,0.03445581,0.62069094,1.5497468,-1.0106912,-1.4406906,1.7198294,-0.018971361,0.15999722,0.27557665,0.52253574,-0.5759996
0.0,0.1,0.7,0.5235987755982988,0.5235987755982988,0,-0.17345373,1.3686428,-0.049407564,0.030826032,0.6335541,1.5611434,-0.9915178,-1.4493045,1.7184426,0.007364396,0.16535856,0.23256393,0.56863844,-0.44881794
0.0,0.1,0.7,0.5235987755982988,0.5235987755982988,0,-0.17286824,1.3674548,-0.049665403,0.033325594,0.6488622,1.5564784,-1.002308,-1.4071796,1.7363185,0.0004851915,0.16555196,0.18785729,0.5123721,-0.3135323
0.0,0.1,0.7,0.5235987755982988,0.5235987755982988,0,-0.16553621,1.3692452,-0.051803146,0.033128165,0.6316956,1.5471613,-0.9876207,-1.4031961,1.7188487,-0.013965878,0.1748433,0.22459534,0.54051375,-0.39843342
0.0,0.1,0.7,0.5235987755982988,0.5235987755982988,0,-0.1676851,1.3674705,-0.047721196,0.035509355,0.6360971,1.5542967,-0.9746232,-1.4950981,1.7222294,-0.021861881,0.1585395,0.23563132,0.533658,-0.28701755
0.0,0.1,0.7,0.5235987755982988,0.5235987755982988,0,-0.17252883,1.3704607,-0.055354692,0.031769164,0.6403802,1.5508689,-0.9759175,-1.3913378,1.7191186,-0.019547623,0.17044011,0.21370496,0.53723997,-0.33459255
0.0,0.1,0.7,0.5235987755982988,0.5235987755982988,0,-0.16748407,1.3701493,-0.049505778,0.032420773,0.63579744,1.5389636,-0.8876341,-1.4229921,1.7131816,-0.0195297,0.17567495,0.2684217,0.5456071,-0.4615678
0.0,0.1,0.7,0.5235987755982988,0.5235987755982988,0,-0.17016327,1.3677204,-0.05335827,0.032814767,0.65543073,1.5487404,-0.95363545,-1.258203,1.7269341,-0.03621448,0.16122438,0.24514654,0.53539217,-0.47833705
0.0,0.1,0.7,0.5235987755982988,0.5235987755982988,0,-0.16855519,1.3670809,-0.054646835,0.030788833,0.642819,1.5583467,-1.0231812,-1.3485376,1.7201796,0.0040592067,0.17467725,0.29286548,0.57984304,-0.44295767
0.0,0.1,0.7,0.5235987755982988,0.5235987755982988,0,-0.16752528,1.3685215,-0.050958708,0.034013364,0.64842457,1.560837,-0.9708816,-1.5847055,1.7127956,-0.020509435,0.16547988,0.26102722,0.5530842,-0.57593185
0.0,0.1,0.7,0.5235987755982988,0.5235987755982988,0,-0.17137083,1.3684391,-0.053908892,0.034216087,0.6404957,1.5491017,-1.0862228,-1.5807074,1.7239611,-0.029132225,0.16389886,0.22202577,0.52375215,-0.3944694
0.0,0.1,0.7,0.5235987755982988,0.5235987755982988,0,-0.16379848,1.3666934,-0.059541766,0.036651105,0.63807124,1.548265,-0.9281511,-1.5116332,1.7230024,-0.01173614,0.18064745,0.25053197,0.527465,-0.53202224
0.0,0.1,0.7,0.5235987755982988,0.5235987755982988,0,-0.1694285,1.367257,-0.04979211,0.032857258,0.6537462,1.5449193,-1.0412474,-1.3495994,1.7205027,-0.020317066,0.17119515,0.17728871,0.5582299,-0.43556696
0.0,0.1,0.7,0.5235987755982988,0.5235987755982988,0,-0.16562554,1.369038,-0.050883554,0.03351569,0.63149977,1.5666486,-1.0154805,-1.3163927,1.7346036,0.010947147,0.17935218,0.20138347,0.52927536,-0.4235789
0.0,0.1,0.7,0.5235987755982988,0.5235987755982988,0,-0.16301815,1.369807,-0.053174336,0.032614462,0.63227147,1.5380822,-0.8539608,-1.1913031,1.7128359,-0.0025693257,0.16511527,0.23172061,0.5456856,-0.548985
0.0,0.1,0.7,0.5235987755982988,0.5235987755982988,0,-0.16780686,1.368164,-0.05550913,0.034946557,0.63349676,1.5453843,-0.99663454,-1.626921,1.7122282,-0.019715056,0.1709308,0.21133307,0.55182636,-0.6012493
0.0,0.1,0.7,0.5235987755982988,0.5235987755982988,0,-0.16635498,1.3682312,-0.050770093,0.032856975,0.636291,1.556934,-0.9268446,-1.3460093,1.7210606,-0.046950914,0.16622035,0.20950153,0.54614055,-0.38199708
0.0,0.1,0.7,0.5235987755982988,0.5235987755982988,0,-0.17307262,1.3695506,-0.052495085,0.03264738,0.63079166,1.5480555,-1.0250403,-1.5295577,1.7103857,0.0019315202,0.17317519,0.23131771,0.5290938,-0.029920986
0.0,0.1,0.7,0.5235987755982988,0.5235987755982988,0,-0.17426908,1.3684314,-0.05230401,0.033974078,0.6359224,1.55276,-1.0118996,-1.5984482,1.7292472,-0.0066478876,0.1767385,0.22362952,0.52229947,-0.47741807
0.0,0.1,0.7,0.5235987755982988,0.5235987755982988,0,-0.17382362,1.3689492,-0.048536208,0.033299852,0.6355718,1.5408677,-0.9754036,-1.5555047,1.7163974,-0.013297004,0.17640372,0.27327585,0.54652387,-0.3798091
0.0,0.1,0.7,0.5235987755982988,0.5235987755982988,0,-0.17234142,1.3686192,-0.05616022,0.0337908,0.6483874,1.5597475,-1.0051482,-1.4363371,1.7167681,-0.018508708,0.16768837,0.27487043,0.5399541,-0.14876176
0.0,0.1,0.7,0.5235987755982988,0.5235987755982988,0,-0.16621284,1.3674546,-0.054075014,0.035636295,0.6448148,1.5534997,-1.0072883,-1.5867707,1.7165931,-0.0103721395,0.1610224,0.23503935,0.5276528,-0.6621958
0.0,0.1,0.7,0.5235987755982988,0.5235987755982988,0,-0.16058332,1.3673927,-0.053593922,0.035812143,0.64005923,1.5496538,-1.000027,-1.4219178,1.7225733,-0.015954658,0.16162312,0.22585529,0.52744186,-0.24113774
0.0,0.1,0.7,0.5235987755982988,0.5235987755982988,0,-0.16884615,1.3691918,-0.052413046,0.033369627,0.6429744,1.5468119,-0.9218666,-1.4787982,1.729814,-0.0019673337,0.14758587,0.25669053,0.5574394,-0.25052765
0.0,0.1,0.7,0.5235987755982988,0.5235987755982988,0,-0.16843289,1.3687167,-0.056731533,0.032412257,0.64106184,1.5422674,-1.0423076,-1.3750391,1.7198924,-0.010937473,0.17245205,0.16381764,0.5409303,-0.3338059
0.0,0.1,0.7,0.5235987755982988,0.5235987755982988,0,-0.1656807,1.3686002,-0.05357405,0.033822425,0.62973845,1.5471959,-1.0536891,-1.417525,1.7260946,-0.016164362,0.16649762,0.15826422,0.50941753,-0.39527178
0.0,0.1,0.7,0.5235987755982988,0.5235987755982988,0,-0.17189509,1.3698981,-0.05766844,0.03271468,0.6669548,1.5426373,-1.0099555,-1.4491572,1.7188195,0.010095233,0.16827354,0.32428265,0.56241864,-0.6030875
0.0,0.1,0.7,0.5235987755982988,0.5235987755982988,0,-0.16692701,1.3679816,-0.05357082,0.034167673,0.6284669,1.5468733,-1.0026001,-1.5981741,1.7173411,-0.02701456,0.16665469,0.2442504,0.54938155,-0.3645154
0.0,0.1,0.7,0.5235987755982988,0.5235987755982988,0,-0.16376294,1.3668034,-0.05549966,0.033927727,0.6438766,1.5554478,-1.0261477,-1.3963273,1.7215973,-0.012935742,0.1727726,0.18913525,0.548507,-0.33573297
0.0,0.1,0.7,0.5235987755982988,0.5235987755982988,0,-0.1688232,1.3669668,-0.05305243,0.035687182,0.6475134,1.5507064,-1.0330458,-1.355608,1.7144839,-0.02286259,0.17270942,0.2307524,0.5464467,-0.28658357
0.0,0.1,0.7,0.5235987755982988,0.5235987755982988,0,-0.16806021,1.3655763,-0.049928464,0.03806586,0.63720953,1.5444125,-0.9777569,-1.5451908,1.7294698,-0.011261237,0.17536151,0.2333373,0.54207814,-0.7975521
0.0,0.1,0.7,0.5235987755982988,0.5235987755982988,0,-0.17016798,1.3670404,-0.047787853,0.030917991,0.63097006,1.5589265,-1.0433785,-1.4226794,1.727972,-0.01672792,0.15542337,0.10386555,0.54876095,-0.49619755
0.0,0.1,0.7,0.5235987755982988,0.5235987755982988,0,-0.17113972,1.3670055,-0.058127586,0.03576619,0.6371506,1.55367,-1.1343135,-1.5559474,1.7265522,-0.025129901,0.15675448,0.21137337,0.55826,-0.4664193
0.0,0.1,0.7,0.5235987755982988,0.5235987755982988,0,-0.16673306,1.3679129,-0.050638963,0.03409014,0.64339495,1.5560906,-1.0010481,-1.6555741,1.7123396,-0.0121320905,0.16833933,0.20719628,0.5548534,-0.34566608
0.0,0.1,0.7,0.5235987755982988,0.5235987755982988,0,-0.16752999,1.3671899,-0.052912936,0.03329473,0.63148284,1.5655432,-1.0382216,-1.5174674,1.715198,-0.015457818,0.16082442,0.11972237,0.5405617,-0.40369043
0.0,0.1,0.7,0.5235987755982988,0.5235987755982988,0,-0.16939767,1.3687019,-0.058081973,0.0315706,0.6221695,1.549093,-1.0047395,-1.3902439,1.708908,-0.02508444,0.16261144,0.1901626,0.54785156,-0.27205366
0.0,0.1,0.7,0.5235987755982988,0.5235987755982988,0,-0.1722792,1.3674128,-0.054059945,0.035918668,0.650757,1.5426259,-0.9265451,-1.3255386,1.7204194,-0.023570646,0.16955823,0.22316997,0.5396908,-0.44714662
0.0,0.1,0.7,0.5235987755982988,0.5235987755982988,0,-0.16726927,1.3669724,-0.054698996,0.036083523,0.62446404,1.5548463,-0.9596565,-1.3268402,1.7056478,-0.018101575,0.15296413,0.20110944,0.5399492,-0.43773055
0.0,0.1,0.7,0.5235987755982988,0.5235987755982988,0,-0.16875358,1.3680253,-0.057577346,0.034578655,0.6517964,1.5534911,-1.0213716,-1.1060823,1.7134193,-0.022764519,0.17232554,0.29677328,0.54577744,-0.71601206
0.0,0.1,0.7,0.5235987755982988,0.5235987755982988,0,-0.16781192,1.3674135,-0.05629419,0.031247552,0.6475806,1.5688668,-1.0486982,-1.3021178,1.706085,-0.029387401,0.17109707,0.29693595,0.5378487,-0.5601566
0.0,0.1,0.7,0.5235987755982988,0.5235987755982988,0,-0.17504176,1.3674734,-0.057094935,0.03528127,0.6257416,1.5622673,-0.99490964,-1.5851275,1.7131644,-0.015168011,0.18278752,0.23181802,0.545345,-0.54729724
0.0,0.1,0.7,0.5235987755982988,0.5235987755982988,0,-0.17036924,1.3685324,-0.044977747,0.033499908,0.63092554,1.5497694,-0.9546935,-1.2947297,1.7202035,-0.0257237,0.17822774,0.22254443,0.5377761,-0.5262361
0.0,0.1,0.7,0.5235987755982988,0.5235987755982988,0,-0.16651729,1.3701032,-0.05798141,0.030402454,0.6548602,1.555811,-1.0119684,-1.2611133,1.7167424,-0.020742645,0.18040992,0.20800793,0.5353773,-0.4576638
0.0,0.1,0.7,0.5235987755982988,0.5235987755982988,0,-0.16719434,1.3681092,-0.049601138,0.03436938,0.6392816,1.5569631,-1.0346632,-1.351716,1.7103608,0.009756519,0.1645934,0.21364565,0.541043,-0.3246359
0.0,0.1,0.7,0.5235987755982988,0.5235987755982988,0,-0.16647486,1.3691342,-0.053202577,0.03366953,0.6473177,1.549373,-1.0177269,-1.1571335,1.7270011,-0.039846275,0.17217317,0.2610268,0.53896236,-0.56726664
0.0,0.1,0.7,0.5235987755982988,0.5235987755982988,0,-0.16821207,1.3668376,-0.053237688,0.032408275,0.64605886,1.5412933,-0.9538911,-1.5182565,1.7198106,-0.021087956,0.1734113,0.20662488,0.52859503,-0.5242206
0.0,0.1,0.7,0.5235987755982988,0.5235987755982988,0,-0.16648553,1.3696648,-0.053803515,0.03223157,0.6231941,1.5624096,-1.0596515,-1.4148365,1.7150489,-0.017911842,0.15633112,0.20026313,0.5308564,-0.51931864
0.0,0.1,0.7,0.5235987755982988,0.5235987755982988,0,-0.15951942,1.366121,-0.054367494,0.0326613,0.63920903,1.5397466,-1.0666844,-1.4198871,1.7109598,-0.017529093,0.16986093,0.14623857,0.56311566,-0.5077801
0.0,0.1,0.7,0.5235987755982988,0.5235987755982988,0,-0.17174909,1.3676858,-0.055497196,0.034944117,0.6390162,1.5534768,-0.85765576,-1.17153,1.7165309,-0.013969542,0.18132137,0.2777482,0.53991127,-0.4232747
0.0,0.1,0.7,0.5235987755982988,0.5235987755982988,0,-0.17221154,1.3687981,-0.05649219,0.03258813,0.65574545,1.5638217,-0.98665595,-1.2737365,1.7194493,-0.019256528,0.17459409,0.14885932,0.5469328,-0.65598243
0.0,0.1,0.7,0.5235987755982988,0.5235987755982988,0,-0.15854272,1.36869,-0.04917041,0.033496834,0.64997053,1.5624834,-1.0021378,-1.4161927,1.7024131,-0.010870991,0.16041957,0.34393004,0.5424337,-0.2800685
0.0,0.1,0.7,0.5235987755982988,0.5235987755982988,0,-0.17116092,1.3682451,-0.05459145,0.03233005,0.62806076,1.5499598,-1.0127977,-1.2205732,1.7095008,-0.031860787,0.17327043,0.2096668,0.53531855,-0.34159288
0.0,0.1,0.7,0.5235987755982988,0.5235987755982988,0,-0.17657915,1.3683851,-0.049421985,0.033886723,0.6451221,1.5579017,-1.0642526,-1.5328071,1.7229346,-0.0010983227,0.1641455,0.27005446,0.5342275,-0.39276037
0.0,0.1,0.7,0.5235987755982988,0.5235987755982988,0,-0.16917197,1.3660097,-0.049806435,0.034067053,0.6433029,1.5373456,-1.0532163,-1.2819835,1.7248037,-0.024107095,0.15375717,0.20347263,0.55648834,-0.30330652
0.0,0.1,0.7,0.5235987755982988,0.5235987755982988,0,-0.16950844,1.3677794,-0.048978068,0.03205197,0.63831955,1.5566219,-1.0503154,-1.0434616,1.7287372,-0.02372936,0.17767808,0.26019916,0.5192212,-0.30960706
0.0,0.1,0.7,0.5235987755982988,0.5235987755982988,0,-0.16572244,1.3663181,-0.04945559,0.034313314,0.6287497,1.5533104,-1.0208852,-1.5289383,1.7151691,-0.018387545,0.14533007,0.19290793,0.5396393,-0.3648123
0.0,0.1,0.7,0.5235987755982988,0.5235987755982988,0,-0.1643478,1.3688848,-0.048908908,0.03298531,0.64184356,1.5500139,-0.9692236,-1.5570823,1.7171971,-0.021244122,0.17104946,0.23263425,0.53670627,-0.6061026
0.0,0.1,0.7,0.5235987755982988,0.5235987755982988,0,-0.17292356,1.3653669,-0.04550785,0.034589462,0.6367032,1.5639254,-0.95571035,-1.3584604,1.7178682,-0.030936755,0.17487215,0.20818712,0.55571574,-0.28149566
0.0,0.1,0.7,0.5235987755982988,0.5235987755982988,0,-0.17142741,1.3673526,-0.05305093,0.035247326,0.63896185,1.5603447,-1.0231775,-1.3931847,1.7219715,-0.00485807,0.1690898,0.2305375,0.5409974,-0.2531116
0.0,0.1,0.7,0.5235987755982988,0.5235987755982988,0,-0.17904337,1.368118,-0.047232147,0.031574756,0.6362342,1.5551928,-1.0113314,-1.3619787,1.7185317,-0.031354293,0.17768289,0.18733771,0.5516803,-0.37545428
0.0,0.1,0.7,0.5235987755982988,0.5235987755982988,0,-0.16883855,1.3690075,-0.051110074,0.03302445,0.6320121,1.5554465,-0.9993113,-1.3913751,1.7151958,-0.0013654804,0.18929726,0.26137117,0.5336053,-0.53350663
0.0,0.1,0.7,0.5235987755982988,0.5235987755982988,0,-0.17401582,1.3679745,-0.054697182,0.035253562,0.6410664,1.5622162,-0.9724063,-1.3616034,1.7252123,-0.015948456,0.1669044,0.23429865,0.5279566,-0.4393109
0.0,0.1,0.7,0.5235987755982988,0.5235987755982988,0,-0.1675297,1.3680316,-0.047524054,0.03431199,0.6318997,1.5632385,-1.0304334,-1.4522942,1.7280397,-0.033393666,0.16997097,0.26545215,0.5226443,-0.7432736
0.0,0.1,0.7,0.5235987755982988,0.5235987755982988,0,-0.16972208,1.3678936,-0.057365935,0.03547375,0.6360024,1.5491563,-0.9721366,-1.2268409,1.7251241,-0.03760158,0.17545162,0.25732818,0.5433679,-0.7660376
0.0,0.1,0.7,0.5235987755982988,0.5235987755982988,0,-0.16369396,1.3679291,-0.05567418,0.034417737,0.64306235,1.5523617,-0.95289457,-1.5323846,1.7091331,-0.011761734,0.16934067,0.24995567,0.532553,-0.26256132
0.0,0.1,0.7,0.5235987755982988,0.5235987755982988,0,-0.16879249,1.369917,-0.05545569,0.03285826,0.6403538,1.5514269,-0.9530686,-1.1710578,1.7094454,-0.019748684,0.16819125,0.24017261,0.5607615,-0.31673083
0.0,0.1,0.7,0.5235987755982988,0.5235987755982988,0,-0.17228131,1.3657261,-0.052090712,0.03407851,0.6427492,1.5509017,-1.1130334,-1.3332525,1.7146777,-0.045255333,0.17025341,0.23457739,0.554115,-0.45899376
0.0,0.1,0.7,0.5235987755982988,0.5235987755982988,0,-0.176375,1.3687769,-0.052816257,0.03313704,0.61415523,1.549518,-0.8469203,-1.4816422,1.7089963,-0.013160715,0.17384627,0.17890595,0.5623973,-0.32862958
0.0,0.1,0.7,0.5235987755982988,0.5235987755982988,0,-0.16460134,1.3682091,-0.04719961,0.03372977,0.62875783,1.540908,-0.9549561,-1.7086356,1.7147015,-8.897117e-05,0.16553219,0.27222177,0.546904,-0.73390985
0.0,0.1,0.7,0.5235987755982988,0.5235987755982988,0,-0.16460553,1.3674694,-0.04894343,0.034231648,0.6312282,1.5362704,-0.9967929,-1.5079844,1.7168198,-0.01817705,0.17611481,0.3301223,0.52943337,-0.7336378
0.0,0.1,0.7,0.5235987755982988,0.5235987755982988,0,-0.17299783,1.3696507,-0.055847984,0.033225905,0.6390398,1.5496304,-1.0275136,-1.4178523,1.7212334,-0.018389111,0.16721235,0.26113793,0.52430147,-0.54942995
0.0,0.1,0.7,0.5235987755982988,0.5235987755982988,0,-0.16965222,1.3685461,-0.05704143,0.03369853,0.62468493,1.5630677,-0.96371335,-1.4743714,1.7158003,0.005191861,0.15916047,0.23370466,0.5337182,-0.3983591
0.0,0.1,0.7,0.5235987755982988,0.5235987755982988,0,-0.1749808,1.3674439,-0.051215567,0.03138926,0.6391919,1.5468951,-1.033385,-1.5238633,1.726981,-0.012658798,0.16229375,0.20517112,0.5334964,-0.395001
0.0,0.1,0.7,0.5235987755982988,0.5235987755982988,0,-0.17464387,1.3659682,-0.04941531,0.033712894,0.6279858,1.5610987,-1.0294713,-1.1535844,1.7283144,-0.0383444,0.16483395,0.17784862,0.53968173,-0.32347894
0.0,0.1,0.7,0.5235987755982988,0.5235987755982988,0,-0.17179118,1.3679031,-0.04966183,0.0341237,0.6320007,1.5551238,-1.059279,-1.6808552,1.7162881,-0.026302246,0.15547542,0.2592701,0.5371639,-0.6059904
0.0,0.1,0.7,0.5235987755982988,0.5235987755982988,0,-0.1704946,1.3670112,-0.050319113,0.034036472,0.6481617,1.537573,-1.0111692,-1.4633883,1.7048657,-0.008732147,0.16784382,0.20249729,0.5347487,-0.34635928
0.0,0.1,0.7,0.5235987755982988,0.5235987755982988,0,-0.17149138,1.3671172,-0.054177523,0.035129253,0.6264958,1.5448165,-1.015012,-1.4471927,1.7367818,-0.014276507,0.16670464,0.268066,0.53971916,-0.3244318
0.0,0.1,0.7,0.5235987755982988,0.5235987755982988,0,-0.16973116,1.3674179,-0.054019745,0.033215728,0.6424208,1.5486342,-0.9925636,-1.8033054,1.7148206,0.004308704,0.17362554,0.25567958,0.5245306,-0.20349826
0.0,0.1,0.7,0.5235987755982988,0.5235987755982988,0,-0.16483572,1.3675582,-0.047985535,0.035818715,0.63886297,1.5455426,-0.9817744,-1.5229435,1.7135341,-0.017145615,0.17655538,0.2587038,0.538251,-0.5847701
0.0,0.1,0.7,0.5235987755982988,0.5235987755982988,0,-0.16870846,1.3670732,-0.054652758,0.03610611,0.6645497,1.5540389,-1.0995808,-1.7008108,1.714564,-0.032866705,0.1895959,0.32997838,0.5697671,-0.6301444
0.0,0.1,0.7,0.5235987755982988,0.5235987755982988,0,-0.17538834,1.3701655,-0.052218784,0.031017903,0.6404399,1.5473287,-0.9670122,-1.7473037,1.7305508,-0.0034198223,0.16410418,0.2606571,0.53433615,-0.4247388
0.0,0.1,0.7,0.5235987755982988,0.5235987755982988,0,-0.16947004,1.3662318,-0.048561025,0.033072725,0.64074135,1.5500352,-0.9582901,-1.3054216,1.7307607,-0.016085275,0.17261134,0.2363427,0.55575913,-0.38225874
0.0,0.1,0.7,0.5235987755982988,0.5235987755982988,0,-0.17583318,1.3684752,-0.052629102,0.034777038,0.63837117,1.5587655,-0.93437254,-1.5853393,1.7233241,-0.02475724,0.16948912,0.283999,0.5377665,-0.5063642
0.0,0.1,0.7,0.5235987755982988,0.5235987755982988,0,-0.17501618,1.3655008,-0.049374167,0.031226326,0.63254225,1.5569267,-0.98665464,-1.5695909,1.7190771,-0.022264168,0.17362107,0.13648482,0.5154417,-0.45842633
0.0,0.1,0.7,0.5235987755982988,0.5235987755982988,0,-0.16838549,1.3651632,-0.050626256,0.032720525,0.6585042,1.5440414,-0.9934122,-1.335353,1.7192086,-0.008062118,0.17589569,0.24326803,0.54441285,-0.3188178
0.0,0.1,0.7,0.5235987755982988,0.5235987755982988,0,-0.1649459,1.3664817,-0.043850973,0.037122127,0.62939316,1.5612195,-0.951627,-1.5173475,1.7099066,0.0066725,0.15546016,0.18834619,0.5510463,-0.31076396
0.0,0.1,0.7,0.5235987755982988,0.5235987755982988,0,-0.17037866,1.3672845,-0.053932216,0.032402877,0.65902853,1.5484108,-0.983804,-1.4050574,1.7143148,-0.018485852,0.15531115,0.2944327,0.5316683,-0.36139208
0.0,0.1,0.7,0.5235987755982988,0.5235987755982988,0,-0.16800278,1.3702772,-0.05231912,0.028906759,0.62991154,1.5519876,-0.9313648,-1.4650058,1.72388,-0.034058142,0.17542212,0.24386859,0.5657565,-0.3837625
0.0,0.1,0.7,0.5235987755982988,0.5235987755982988,0,-0.16026853,1.3688087,-0.05489294,0.03289635,0.6504434,1.5459696,-0.9844719,-1.5514547,1.7353911,-0.041430723,0.16123341,0.32317784,0.55933964,-0.31752664
0.0,0.1,0.7,0.5235987755982988,0.5235987755982988,0,-0.16584857,1.3656623,-0.054673404,0.032464374,0.6385316,1.554277,-0.98785865,-1.3529751,1.7173005,-0.04319175,0.18530378,0.35468954,0.52163446,-0.49727505
0.0,0.1,0.7,0.5235987755982988,0.5235987755982988,0,-0.17781244,1.3683192,-0.052202772,0.033301182,0.6489759,1.5539982,-1.042248,-1.3309969,1.7145733,-0.03629799,0.17625572,0.2289897,0.5457139,-0.002239561
0.0,0.1,0.7,0.5235987755982988,0.5235987755982988,0,-0.17008625,1.3652054,-0.05517275,0.032920133,0.6384192,1.5507787,-1.0884823,-1.5753199,1.7178859,-0.034292553,0.16706903,0.241374,0.5439539,-0.33733952
0.0,0.1,0.7,0.5235987755982988,0.5235987755982988,0,-0.16362746,1.3644755,-0.056654688,0.033464443,0.62653077,1.5583854,-0.9951766,-1.4661578,1.7079793,-0.027976494,0.17083932,0.25901955,0.54164773,-0.59353656
0.0,0.1,0.7,0.5235987755982988,0.5235987755982988,0,-0.17478955,1.3652744,-0.050497632,0.032498337,0.64403,1.5562718,-0.9413225,-1.3047231,1.7271107,-0.00892489,0.17019589,0.21567157,0.5219514,-0.26277512
0.0,0.1,0.7,0.5235987755982988,0.5235987755982988,0,-0.16917765,1.3709803,-0.050453056,0.033297405,0.6509017,1.5436544,-1.0973659,-1.5877324,1.7233438,-0.035493758,0.19422409,0.32152244,0.54916435,-0.5480687
0.0,0.1,0.7,0.5235987755982988,0.5235987755982988,0,-0.17379923,1.3671769,-0.05863869,0.03596081,0.63172835,1.5650182,-1.0194366,-1.2493051,1.7280005,-0.03168299,0.16847736,0.2084621,0.5307804,-0.422084
0.0,0.1,0.7,0.5235987755982988,0.5235987755982988,0,-0.16892047,1.36936,-0.055476576,0.034869846,0.6421668,1.554974,-0.95182323,-1.2980239,1.7158959,0.0030871138,0.16687694,0.2084395,0.5491801,-0.31388217
0.0,0.1,0.7,0.5235987755982988,0.5235987755982988,0,-0.1671453,1.3635831,-0.056874685,0.03185399,0.64048576,1.5538249,-0.98301506,-1.2583737,1.7157199,-0.026444398,0.17129998,0.21418406,0.5562538,-0.096948914
0.0,0.1,0.7,0.5235987755982988,0.5235987755982988,0,-0.16435234,1.3683144,-0.054119498,0.030731682,0.6313941,1.5540282,-0.9402509,-1.5452183,1.7067082,-0.028824523,0.1825399,0.31195098,0.52262384,-0.11294757
0.0,0.1,0.7,0.5235987755982988,0.5235987755982988,0,-0.17608039,1.3669775,-0.055779953,0.033308774,0.6239985,1.5586715,-1.0479828,-1.4787256,1.7149396,0.023360249,0.16196579,0.16700405,0.5353754,-0.5987261
