sanky1234/BimanualDexCatch/isaacgymenvs/cem_results/football_pose_-0.1_0.1_1.0999999999999999_-0.5235987755982988_0.5235987755982988_0_2025-05-26.csv
x,y,z,roll,pitch,yaw,robot1/joint1,robot1/joint2,robot1/joint3,robot1/joint4,robot1/joint5,robot1/joint6,robot1/joint7,robot2/joint1,robot2/joint2,robot2/joint3,robot2/joint4,robot2/joint5,robot2/joint6,robot2/joint7
-0.1,0.1,1.0999999999999999,-0.5235987755982988,0.5235987755982988,0,0.3885259,-0.20375013,1.4580232,0.8298888,1.1927798,0.30409476,-0.02333207,0.4040321,-1.4395083,-0.20386781,-0.02244078,0.011325209,0.983898,0.8257804
-0.1,0.1,1.0999999999999999,-0.5235987755982988,0.5235987755982988,0,0.38960722,-0.20179342,1.4581153,0.828768,0.9011832,0.49601284,0.2972179,0.40652886,-1.4416822,-0.2650497,-0.036021102,0.11446203,1.03201,1.2332863
-0.1,0.1,1.0999999999999999,-0.5235987755982988,0.5235987755982988,0,0.38626188,-0.20315517,1.458208,0.8286026,0.9715314,0.28017914,-0.9166379,0.406624,-1.4394274,-0.19387415,-0.018185757,0.037845362,1.212702,0.40624562
-0.1,0.1,1.0999999999999999,-0.5235987755982988,0.5235987755982988,0,0.3883101,-0.2024067,1.459912,0.8341091,1.1789386,0.13493177,-0.58685064,0.4047853,-1.4407741,-0.22539283,-0.029981269,0.34420145,1.2036512,0.85653764
-0.1,0.1,1.0999999999999999,-0.5235987755982988,0.5235987755982988,0,0.3862283,-0.2022915,1.4591196,0.8464191,0.79880196,0.23351744,-0.25536448,0.40496323,-1.4399868,-0.20086426,-0.019894684,0.078762524,0.8610402,0.67896575
-0.1,0.1,1.0999999999999999,-0.5235987755982988,0.5235987755982988,0,0.38987723,-0.20319852,1.4589309,0.8367712,0.9095956,0.2724974,-0.97257453,0.4048298,-1.4408561,-0.22242081,-0.0018656397,-0.06961338,1.1858809,1.0679944
-0.1,0.1,1.0999999999999999,-0.5235987755982988,0.5235987755982988,0,0.3883798,-0.2034611,1.456011,0.8276787,0.63625157,0.1394722,-0.25555807,0.40442544,-1.4380031,-0.20877248,-0.040033158,-0.028836945,0.87687993,0.48961237
-0.1,0.1,1.0999999999999999,-0.5235987755982988,0.5235987755982988,0,0.38825357,-0.2042951,1.4593091,0.8315661,0.8027453,0.18356676,-0.8721372,0.4059423,-1.4414078,-0.19325912,-0.03363346,0.20040317,1.1175184,0.45045474
-0.1,0.1,1.0999999999999999,-0.5235987755982988,0.5235987755982988,0,0.38990808,-0.2009381,1.4599147,0.831867,0.47180384,0.17866574,-0.19653226,0.40663275,-1.4425976,-0.1931235,-0.049194362,0.057122696,0.98109865,0.4896504
-0.1,0.1,1.0999999999999999,-0.5235987755982988,0.5235987755982988,0,0.38704932,-0.20407048,1.4592464,0.82615715,0.65135837,0.12619597,-0.14539583,0.40593648,-1.4378783,-0.2395686,-0.034636836,0.22164054,1.1853346,0.2356863
-0.1,0.1,1.0999999999999999,-0.5235987755982988,0.5235987755982988,0,0.385576,-0.2029549,1.4570534,0.8278188,0.9738217,0.35266787,-0.6985531,0.40774462,-1.4422315,-0.23150146,-0.031852406,0.109702036,0.9815969,1.5161675
-0.1,0.1,1.0999999999999999,-0.5235987755982988,0.5235987755982988,0,0.3865115,-0.20487915,1.458832,0.82584035,1.2958608,0.29448572,0.389228,0.40598422,-1.439947,-0.23102571,-0.022324868,0.04243279,0.8912519,0.5350844
-0.1,0.1,1.0999999999999999,-0.5235987755982988,0.5235987755982988,0,0.38934144,-0.20242272,1.456595,0.8263458,1.1598654,0.20478417,-0.6612219,0.40649396,-1.439994,-0.18962176,-0.03513048,-0.0026083044,1.2161275,0.6257364
-0.1,0.1,1.0999999999999999,-0.5235987755982988,0.5235987755982988,0,0.3864161,-0.20042557,1.4602824,0.83422744,0.9118478,0.414588,-0.5196691,0.40423653,-1.4398944,-0.21168873,-0.0018358865,-0.06983525,0.77787656,-0.41701353
-0.1,0.1,1.0999999999999999,-0.5235987755982988,0.5235987755982988,0,0.38863808,-0.20446943,1.4569585,0.8400211,0.92237186,0.38648638,0.34732753,0.40792668,-1.439862,-0.23795776,-0.045685872,0.182648,1.2098874,1.0423207
-0.1,0.1,1.0999999999999999,-0.5235987755982988,0.5235987755982988,0,0.3901167,-0.2020103,1.4583057,0.82877475,0.60916936,0.23370568,0.43200412,0.4064198,-1.4422337,-0.24108371,-0.05383207,0.02501591,0.8280162,0.5014834
-0.1,0.1,1.0999999999999999,-0.5235987755982988,0.5235987755982988,0,0.39155304,-0.2030194,1.4575318,0.8418853,1.3091011,0.40503442,-0.53627056,0.4058786,-1.4399549,-0.28355026,-0.02913464,0.013510472,1.0657194,0.73374015
-0.1,0.1,1.0999999999999999,-0.5235987755982988,0.5235987755982988,0,0.39036748,-0.2055012,1.4573268,0.84168386,1.1468138,0.3179244,-0.6135374,0.40615872,-1.4400887,-0.2809279,-0.014016692,0.20364885,0.96494716,1.0768671
-0.1,0.1,1.0999999999999999,-0.5235987755982988,0.5235987755982988,0,0.39045,-0.20269476,1.4583197,0.83015573,0.66719705,0.018479068,0.07976477,0.40480852,-1.441057,-0.1978039,-0.037321273,0.21895333,1.318121,0.67461735
-0.1,0.1,1.0999999999999999,-0.5235987755982988,0.5235987755982988,0,0.3912788,-0.20296213,1.4583071,0.8416077,1.1001575,0.20846166,-0.3490027,0.40484738,-1.4408084,-0.20101278,-0.0600061,0.16233231,1.0989221,0.8402811
-0.1,0.1,1.0999999999999999,-0.5235987755982988,0.5235987755982988,0,0.3876631,-0.2007692,1.4571034,0.81933004,1.0324168,0.58305305,-0.7459503,0.40607092,-1.4388074,-0.22249788,0.006915864,0.18101783,1.0955681,1.4782882
-0.1,0.1,1.0999999999999999,-0.5235987755982988,0.5235987755982988,0,0.38996264,-0.20488082,1.459742,0.83543265,0.9405698,0.22835669,-1.3434538,0.40543264,-1.4406312,-0.2323208,-0.023233565,-0.042938605,1.1629453,0.32731825
-0.1,0.1,1.0999999999999999,-0.5235987755982988,0.5235987755982988,0,0.38839915,-0.20307812,1.4585757,0.8247759,0.87494653,0.35855514,-0.15625268,0.40662557,-1.4405165,-0.20166244,-0.05860594,0.18634792,1.113695,0.9648201
-0.1,0.1,1.0999999999999999,-0.5235987755982988,0.5235987755982988,0,0.39199454,-0.20493978,1.4583625,0.8360863,0.9392064,0.3582421,-0.7286912,0.4048028,-1.4403579,-0.22726202,-0.02597306,0.082414314,1.0175663,1.7269444
-0.1,0.1,1.0999999999999999,-0.5235987755982988,0.5235987755982988,0,0.38738146,-0.20398678,1.4557602,0.8294783,1.2367454,0.0945405,-0.6623568,0.4060796,-1.4394606,-0.20985386,-0.08646977,-0.084103584,0.9180127,0.92859817
-0.1,0.1,1.0999999999999999,-0.5235987755982988,0.5235987755982988,0,0.38769743,-0.2027671,1.4552876,0.82662493,0.88049513,0.38951418,-0.47497714,0.40521905,-1.4399005,-0.21519867,-0.036997035,0.11785947,0.9287336,1.1632811
-0.1,0.1,1.0999999999999999,-0.5235987755982988,0.5235987755982988,0,0.3911693,-0.20137113,1.4547713,0.8369263,1.4410275,0.24490486,-0.82960004,0.4057072,-1.439824,-0.18630067,0.016948825,0.13718818,1.327878,0.96199614
-0.1,0.1,1.0999999999999999,-0.5235987755982988,0.5235987755982988,0,0.38647482,-0.20336033,1.4563389,0.8288842,0.98898363,0.35065463,-1.0787141,0.40493414,-1.4396765,-0.2089314,0.017040037,0.26481056,1.0444357,0.42810386
-0.1,0.1,1.0999999999999999,-0.5235987755982988,0.5235987755982988,0,0.38719395,-0.20029084,1.4580997,0.84199905,0.9045107,0.24883258,-0.3045134,0.4061555,-1.4402323,-0.177664,-0.012268999,0.099177785,0.95885605,0.7510646
-0.1,0.1,1.0999999999999999,-0.5235987755982988,0.5235987755982988,0,0.38499925,-0.20126975,1.455599,0.8451371,0.8789079,0.27683428,-0.32228154,0.40593752,-1.4405358,-0.22482985,-0.08788859,0.084508084,1.1465693,1.0711313
-0.1,0.1,1.0999999999999999,-0.5235987755982988,0.5235987755982988,0,0.38603354,-0.2031439,1.458787,0.8324569,0.6000964,0.14505906,-0.9632182,0.40580902,-1.44136,-0.2156706,-0.032381564,0.06890361,0.9677397,0.9150915
-0.1,0.1,1.0999999999999999,-0.5235987755982988,0.5235987755982988,0,0.39011863,-0.19970292,1.456444,0.83708084,0.87819445,0.171666,-0.44209537,0.4076211,-1.4395404,-0.22402568,-0.061293848,0.07254417,0.89860594,0.9109233
-0.1,0.1,1.0999999999999999,-0.5235987755982988,0.5235987755982988,0,0.3894435,-0.2024892,1.4567496,0.8264426,1.068863,0.25158274,-0.6009496,0.40594396,-1.4391563,-0.20845278,-0.059581406,0.27298445,1.0041397,1.1329927
-0.1,0.1,1.0999999999999999,-0.5235987755982988,0.5235987755982988,0,0.38741094,-0.20467997,1.4566462,0.82573646,0.99551636,0.111953855,-0.6526237,0.40675467,-1.441114,-0.15605465,-0.064840846,0.17906483,1.2810925,1.2754617
-0.1,0.1,1.0999999999999999,-0.5235987755982988,0.5235987755982988,0,0.3881691,-0.20500013,1.4552234,0.8287255,0.97572154,0.28629142,-0.42692542,0.40483436,-1.4394237,-0.19850609,-0.024685832,0.1548232,0.9278631,0.8880234
-0.1,0.1,1.0999999999999999,-0.5235987755982988,0.5235987755982988,0,0.3899447,-0.20217438,1.4556326,0.8282052,1.3187885,0.20092565,-0.3114941,0.40425608,-1.4396284,-0.19923197,-0.032495614,0.28641543,1.2939477,0.015672157
-0.1,0.1,1.0999999999999999,-0.5235987755982988,0.5235987755982988,0,0.38716966,-0.20248239,1.4562104,0.8482801,1.2227545,0.36731988,-0.38333616,0.4077514,-1.438575,-0.24281353,-0.04243445,-0.14620493,1.223994,0.6222918
-0.1,0.1,1.0999999999999999,-0.5235987755982988,0.5235987755982988,0,0.38792658,-0.20563973,1.4573438,0.8306436,0.8361401,0.19046544,-0.52423376,0.4080996,-1.4403701,-0.17166926,-0.02256632,0.1275873,1.1868343,1.0028864
-0.1,0.1,1.0999999999999999,-0.5235987755982988,0.5235987755982988,0,0.38791287,-0.20111878,1.4579985,0.8326155,1.0231758,0.48027784,-0.59433323,0.40714455,-1.439437,-0.22843413,-0.0778673,0.08314614,1.2806052,0.84202766
-0.1,0.1,1.0999999999999999,-0.5235987755982988,0.5235987755982988,0,0.38709897,-0.20469548,1.4570976,0.8238593,1.1780463,0.15159652,-0.047767967,0.4038938,-1.4389887,-0.20657206,-0.036689308,0.026449196,0.95555735,0.650868
-0.1,0.1,1.0999999999999999,-0.5235987755982988,0.5235987755982988,0,0.38763845,-0.20247662,1.4564879,0.8331596,0.958279,0.11576225,-0.7489371,0.40637216,-1.4403663,-0.21230997,-0.022517588,-0.19582403,1.1259555,1.227974
-0.1,0.1,1.0999999999999999,-0.5235987755982988,0.5235987755982988,0,0.38860488,-0.20311297,1.4564291,0.82300484,1.1041065,0.3556346,-0.42948803,0.4061708,-1.4394152,-0.23531683,-0.08763126,0.32302216,1.082858,0.6683367
-0.1,0.1,1.0999999999999999,-0.5235987755982988,0.5235987755982988,0,0.38755286,-0.20266625,1.4590696,0.8300047,0.8079545,0.17853115,0.2433433,0.40727305,-1.4405053,-0.2041913,-0.024213074,0.09546757,1.0621511,1.1437895
-0.1,0.1,1.0999999999999999,-0.5235987755982988,0.5235987755982988,0,0.3881352,-0.20303841,1.4580457,0.82171756,0.83392525,0.13364238,-0.74306875,0.40500823,-1.4398229,-0.19696666,0.021140832,0.2812503,1.0021574,0.2820944
-0.1,0.1,1.0999999999999999,-0.5235987755982988,0.5235987755982988,0,0.38543382,-0.20322958,1.4576845,0.8277003,0.9343239,0.6660718,-0.6929447,0.40818578,-1.4401501,-0.24398334,-0.06028414,0.04419076,0.9305621,0.6959149
-0.1,0.1,1.0999999999999999,-0.5235987755982988,0.5235987755982988,0,0.38647354,-0.20245953,1.4575518,0.82805383,1.0077374,0.51850307,-1.0758556,0.40334865,-1.4411554,-0.1812446,-0.06651252,-0.12460613,1.2389323,1.6662748
-0.1,0.1,1.0999999999999999,-0.5235987755982988,0.5235987755982988,0,0.388267,-0.20280221,1.4572239,0.83777446,0.85265285,0.15562725,-0.14012448,0.40357104,-1.4379554,-0.22296017,-0.034121454,0.16587824,1.1141751,0.4846282
-0.1,0.1,1.0999999999999999,-0.5235987755982988,0.5235987755982988,0,0.38934964,-0.20342922,1.4547662,0.8300494,0.68250555,0.31601235,-1.5242143,0.40624127,-1.4400928,-0.25382474,-0.0030241716,0.088432774,0.6519065,1.0860146
-0.1,0.1,1.0999999999999999,-0.5235987755982988,0.5235987755982988,0,0.388477,-0.2038953,1.4577783,0.8307621,0.84038156,0.3065469,-1.1160421,0.40459186,-1.44036,-0.17649548,-0.030906953,0.072390445,1.0097872,0.17765032
-0.1,0.1,1.0999999999999999,-0.5235987755982988,0.5235987755982988,0,0.38991764,-0.2031636,1.4568515,0.8311015,0.7363163,0.33317164,-0.6319389,0.4048098,-1.4388102,-0.2030579,-0.083405115,0.022532118,0.954519,1.4032451
-0.1,0.1,1.0999999999999999,-0.5235987755982988,0.5235987755982988,0,0.38681743,-0.2050832,1.4573702,0.83316296,0.6602625,0.24569725,-0.9208438,0.40604845,-1.4397471,-0.2302368,-0.024395267,0.069346786,1.4058986,1.4210535
-0.1,0.1,1.0999999999999999,-0.5235987755982988,0.5235987755982988,0,0.39266968,-0.20231669,1.4563161,0.82639843,0.88860506,0.21860513,0.004839286,0.40526748,-1.4387509,-0.24111733,-0.060517643,-0.09436628,0.7881916,1.3428401
-0.1,0.1,1.0999999999999999,-0.5235987755982988,0.5235987755982988,0,0.3866639,-0.20179886,1.4587407,0.8419454,0.34282878,0.39569238,-0.47609097,0.4051246,-1.4401501,-0.18221655,-0.022285035,0.09284679,1.1234308,0.72449565
-0.1,0.1,1.0999999999999999,-0.5235987755982988,0.5235987755982988,0,0.38932928,-0.20240475,1.4562317,0.83886385,1.030855,0.33962882,-0.19990943,0.40577862,-1.4401718,-0.23710383,-0.015230317,-0.028081317,0.75845283,0.90009415
-0.1,0.1,1.0999999999999999,-0.5235987755982988,0.5235987755982988,0,0.38690993,-0.20569754,1.4572061,0.82412076,0.84918684,0.21823658,-0.020906556,0.40517676,-1.4396868,-0.21302071,-0.01650947,0.28988838,1.1778303,1.4353426
-0.1,0.1,1.0999999999999999,-0.5235987755982988,0.5235987755982988,0,0.3899292,-0.20328975,1.457444,0.8274944,0.5769431,0.38094267,-0.5125356,0.40401676,-1.4395258,-0.17970006,-0.025490362,0.12947491,0.98228025,0.58440906
-0.1,0.1,1.0999999999999999,-0.5235987755982988,0.5235987755982988,0,0.38885364,-0.20262411,1.4601748,0.8283515,0.79176575,0.27917358,-0.1000445,0.40701115,-1.4389884,-0.21710527,-0.019831434,0.084767446,1.0308725,1.3345482
-0.1,0.1,1.0999999999999999,-0.5235987755982988,0.5235987755982988,0,0.3877555,-0.20054783,1.4568319,0.8423332,0.68092996,0.011590753,-0.14938004,0.4052995,-1.439973,-0.23897247,-0.03816852,0.039081052,1.4112164,0.739134
-0.1,0.1,1.0999999999999999,-0.5235987755982988,0.5235987755982988,0,0.3889068,-0.20303227,1.4553819,0.8181859,0.94042665,0.23102552,-0.48913792,0.40449458,-1.4407403,-0.26272878,-0.058458097,0.2223373,0.8518687,0.854628
-0.1,0.1,1.0999999999999999,-0.5235987755982988,0.5235987755982988,0,0.38437673,-0.20322162,1.4591724,0.83225834,0.90711886,0.15291972,0.27654853,0.40488178,-1.4404379,-0.20047116,-0.020279331,0.20451283,1.1754454,1.5956435
-0.1,0.1,1.0999999999999999,-0.5235987755982988,0.5235987755982988,0,0.3883806,-0.20347637,1.4575081,0.842927,0.85064346,0.25749633,-0.19285959,0.40535736,-1.4400053,-0.2034148,-0.01528784,0.21488692,0.938326,1.0843003
-0.1,0.1,1.0999999999999999,-0.5235987755982988,0.5235987755982988,0,0.38883936,-0.2030988,1.4592036,0.8267515,0.9249303,0.26366588,0.019475808,0.40644726,-1.4394337,-0.21840511,-0.053937215,0.078745954,1.107366,0.5775182
-0.1,0.1,1.0999999999999999,-0.5235987755982988,0.5235987755982988,0,0.38811198,-0.20230593,1.4564296,0.8470375,0.7542211,0.2083478,-0.61943465,0.40543342,-1.4395052,-0.28502804,-0.0014627088,0.22623183,0.65214705,0.22360678
-0.1,0.1,1.0999999999999999,-0.5235987755982988,0.5235987755982988,0,0.3884799,-0.20214792,1.4588112,0.83728606,1.3638241,0.36468533,-0.44028574,0.40690315,-1.4389848,-0.2605035,-0.057719965,0.03598631,0.8949789,0.9259187
-0.1,0.1,1.0999999999999999,-0.5235987755982988,0.5235987755982988,0,0.38586068,-0.20109761,1.4601711,0.85119647,0.9241908,0.23867664,-0.48782948,0.40444693,-1.4397886,-0.20224522,-0.038954835,0.076012686,0.9370998,0.64154696
-0.1,0.1,1.0999999999999999,-0.5235987755982988,0.5235987755982988,0,0.3890169,-0.20341356,1.4572469,0.8378861,0.8397151,0.35623363,0.2736834,0.40531638,-1.4392991,-0.2321551,-0.05574137,-0.0038106462,1.0139804,0.85441816
-0.1,0.1,1.0999999999999999,-0.5235987755982988,0.5235987755982988,0,0.38795114,-0.20295362,1.4571786,0.8305524,1.0615015,0.32880345,-0.3675456,0.40594885,-1.4407789,-0.2001168,-0.04446061,0.039635643,0.94156116,0.9468595
-0.1,0.1,1.0999999999999999,-0.5235987755982988,0.5235987755982988,0,0.387748,-0.20386124,1.4580774,0.81917506,1.2603213,-0.011489538,0.29705894,0.4053885,-1.4405259,-0.21662655,-0.033412315,0.011964431,1.2075367,1.1386495
-0.1,0.1,1.0999999999999999,-0.5235987755982988,0.5235987755982988,0,0.3911429,-0.20206419,1.4582608,0.82874626,0.7097779,0.3238073,-0.56575304,0.40601873,-1.4403402,-0.18609114,-0.010170159,0.23628904,1.3565435,0.8665807
-0.1,0.1,1.0999999999999999,-0.5235987755982988,0.5235987755982988,0,0.38783935,-0.20409988,1.4587297,0.8319311,0.7564806,0.16012174,-0.30156872,0.4059583,-1.4390482,-0.19438176,0.039463975,0.20372832,1.3799411,0.43506846
-0.1,0.1,1.0999999999999999,-0.5235987755982988,0.5235987755982988,0,0.3889274,-0.20251407,1.4612012,0.8340378,0.92982036,0.27295995,-0.9008944,0.40685892,-1.4389988,-0.20231408,-0.0015127267,0.30321205,0.99702394,1.586788
-0.1,0.1,1.0999999999999999,-0.5235987755982988,0.5235987755982988,0,0.39072096,-0.20268786,1.4573084,0.8331014,0.60217,-0.049759794,0.29557157,0.4041377,-1.4389701,-0.17854825,-0.022755267,-0.08352342,1.0356209,1.0810596
-0.1,0.1,1.0999999999999999,-0.5235987755982988,0.5235987755982988,0,0.3872463,-0.20218119,1.4576766,0.8418635,0.96888876,0.39907596,-1.2416652,0.4034058,-1.4393246,-0.22248097,0.012083703,-0.0049727424,0.86406934,-0.041461647
-0.1,0.1,1.0999999999999999,-0.5235987755982988,0.5235987755982988,0,0.38939372,-0.20069812,1.4602281,0.8267328,0.94774157,0.14926326,-1.2010869,0.40566817,-1.4411207,-0.18934274,-0.0144763505,-0.08565074,1.1123358,0.7184308
-0.1,0.1,1.0999999999999999,-0.5235987755982988,0.5235987755982988,0,0.3871574,-0.20313337,1.4569004,0.8350448,0.47009507,0.24007112,-0.2378238,0.40588954,-1.4407552,-0.21920007,0.008876996,0.2527336,0.9975371,0.6109141
-0.1,0.1,1.0999999999999999,-0.5235987755982988,0.5235987755982988,0,0.38819045,-0.20096691,1.4563122,0.85123974,0.5050474,0.34011704,0.8444174,0.40571138,-1.4394135,-0.2705446,-0.014421808,-0.117972575,1.0661564,0.7319104
-0.1,0.1,1.0999999999999999,-0.5235987755982988,0.5235987755982988,0,0.38762352,-0.20158131,1.4582607,0.8354279,0.84333014,0.4665709,-0.7225069,0.40361866,-1.4404205,-0.18550128,0.0010376197,-0.031567868,1.031834,0.93230695
-0.1,0.1,1.0999999999999999,-0.5235987755982988,0.5235987755982988,0,0.388129,-0.20355302,1.4553134,0.8373886,0.87598264,0.15088306,-1.0104461,0.4058768,-1.4399774,-0.24024756,-0.024934668,0.041358527,0.90995973,2.013803
-0.1,0.1,1.0999999999999999,-0.5235987755982988,0.5235987755982988,0,0.3904259,-0.2013385,1.4556285,0.8367379,1.1494019,0.3959902,-0.8614472,0.40683246,-1.440074,-0.23171993,0.02722378,0.17360541,1.259791,0.30070767
-0.1,0.1,1.0999999999999999,-0.5235987755982988,0.5235987755982988,0,0.3873376,-0.20214786,1.4572787,0.82627016,0.87372565,0.40504187,-0.6078599,0.40541697,-1.4411266,-0.25539967,-0.021520251,-0.016629083,1.0491588,0.7850897
-0.1,0.1,1.0999999999999999,-0.5235987755982988,0.5235987755982988,0,0.39026543,-0.20457572,1.4574177,0.8254051,0.85870343,0.21051764,0.18287517,0.40694636,-1.4399675,-0.20536822,-0.021758836,0.15210149,1.1678399,0.81130624
-0.1,0.1,1.0999999999999999,-0.5235987755982988,0.5235987755982988,0,0.38943493,-0.20409203,1.4591115,0.8224625,0.9495285,0.21351108,-1.0047188,0.40561098,-1.4402946,-0.18887112,-0.024106745,-0.08373231,1.2582885,0.87650144
-0.1,0.1,1.0999999999999999,-0.5235987755982988,0.5235987755982988,0,0.38911793,-0.2042638,1.4556664,0.83703196,1.2726461,0.24203227,-0.6565093,0.4047103,-1.441644,-0.20430556,-0.06928362,0.2640272,1.0593137,0.6319127
-0.1,0.1,1.0999999999999999,-0.5235987755982988,0.5235987755982988,0,0.3897105,-0.2027209,1.4576393,0.82669526,1.2185436,0.08246612,-0.36176962,0.40734518,-1.4392596,-0.23905113,-0.09019416,0.021109914,1.031903,1.0823938
-0.1,0.1,1.0999999999999999,-0.5235987755982988,0.5235987755982988,0,0.38836458,-0.20220034,1.4584689,0.8264615,1.0976458,0.025671799,-1.1428479,0.40475422,-1.4395002,-0.23062699,-0.040023252,0.0699359,0.99168134,0.682258
-0.1,0.1,1.0999999999999999,-0.5235987755982988,0.5235987755982988,0,0.38988033,-0.20029178,1.4575657,0.83257836,0.81025565,0.17730579,-0.11321848,0.40584156,-1.4395354,-0.24165137,0.014808328,0.12979653,1.1119977,0.7933847
-0.1,0.1,1.0999999999999999,-0.5235987755982988,0.5235987755982988,0,0.38924718,-0.20326288,1.4577014,0.8266231,0.62329227,0.46429938,-1.005502,0.4053782,-1.4406784,-0.19841087,-0.057581812,0.3121844,1.1973472,1.7762902
-0.1,0.1,1.0999999999999999,-0.5235987755982988,0.5235987755982988,0,0.38605034,-0.2027098,1.4570044,0.83794355,0.566047,0.15849274,-1.4551344,0.406689,-1.4404298,-0.24925177,0.052483235,0.055992484,1.1379384,0.65027046
-0.1,0.1,1.0999999999999999,-0.5235987755982988,0.5235987755982988,0,0.3876167,-0.2019954,1.4573526,0.8309669,0.7026582,0.3451402,-0.44598186,0.4064693,-1.4402863,-0.2871341,0.0032951278,0.23108856,1.1509615,0.40373775
-0.1,0.1,1.0999999999999999,-0.5235987755982988,0.5235987755982988,0,0.38818872,-0.203772,1.4568003,0.8386388,0.67132753,0.22153069,-0.5770939,0.40420225,-1.4400321,-0.23751198,-0.026381936,0.15979448,0.89291996,-0.12508938
-0.1,0.1,1.0999999999999999,-0.5235987755982988,0.5235987755982988,0,0.3861521,-0.20289856,1.4572324,0.83198285,1.0063937,0.09273161,-0.84059143,0.40582436,-1.4414591,-0.23388492,-0.025877154,0.14946678,1.2569578,1.0519776
-0.1,0.1,1.0999999999999999,-0.5235987755982988,0.5235987755982988,0,0.39141458,-0.20108385,1.456061,0.828875,0.8668102,-0.19611862,-1.0307435,0.4045911,-1.4397479,-0.21896231,-0.057964653,0.233936,1.0534143,0.54090005
-0.1,0.1,1.0999999999999999,-0.5235987755982988,0.5235987755982988,0,0.38726768,-0.2041241,1.458444,0.84139323,0.75718105,0.24943024,-1.5587018,0.40615854,-1.4397403,-0.22612035,-0.03612578,0.0056425678,1.1621535,1.4431877
-0.1,0.1,1.0999999999999999,-0.5235987755982988,0.5235987755982988,0,0.38879237,-0.2042835,1.455019,0.8363526,1.0182171,0.26714274,-1.1219978,0.40708837,-1.4418412,-0.21964423,-0.0011661839,0.13496141,1.1246728,0.39965752
-0.1,0.1,1.0999999999999999,-0.5235987755982988,0.5235987755982988,0,0.3909332,-0.2025479,1.4586567,0.8379898,1.2672516,0.18769701,-0.631402,0.4064121,-1.4391794,-0.2229484,0.014153488,-0.08736207,1.1454234,1.0850186
-0.1,0.1,1.0999999999999999,-0.5235987755982988,0.5235987755982988,0,0.38999572,-0.20090412,1.4590067,0.835759,1.107589,0.29861894,-1.0116277,0.4049012,-1.4400021,-0.24605516,0.05437407,0.14966165,0.9605443,0.6329353
-0.1,0.1,1.0999999999999999,-0.5235987755982988,0.5235987755982988,0,0.3869331,-0.20310672,1.459978,0.8413616,0.9070973,0.16125035,-0.39353898,0.40704086,-1.4408566,-0.18429409,0.015010397,-0.02310423,0.8619095,1.2562076
-0.1,0.1,1.0999999999999999,-0.5235987755982988,0.5235987755982988,0,0.38995996,-0.20280312,1.460947,0.8230323,1.3611282,0.103462294,-0.8988143,0.40398607,-1.4383236,-0.24083245,0.0014179469,0.2266466,1.0742493,1.3992202
-0.1,0.1,1.0999999999999999,-0.5235987755982988,0.5235987755982988,0,0.39013714,-0.20255572,1.4579222,0.8365382,0.832269,0.37700838,-0.18505743,0.4059776,-1.4395763,-0.23473029,-0.03764488,0.00475024,1.1390364,0.4157034
-0.1,0.1,1.0999999999999999,-0.5235987755982988,0.5235987755982988,0,0.38811192,-0.20150365,1.4574319,0.8302492,1.1105167,0.4085102,-0.69374377,0.40503955,-1.4405973,-0.22982824,-0.03274954,-0.13761881,1.2331201,0.6164646
-0.1,0.1,1.0999999999999999,-0.5235987755982988,0.5235987755982988,0,0.38664663,-0.20289437,1.4588557,0.842054,0.8428126,0.21611044,0.43779218,0.40447983,-1.4396213,-0.25717974,-0.028206062,0.0145374965,1.0255662,0.89024115
-0.1,0.1,1.0999999999999999,-0.5235987755982988,0.5235987755982988,0,0.38815832,-0.2013406,1.459286,0.82135147,0.97614217,0.17704186,0.07273523,0.40513945,-1.4404783,-0.28332928,-0.020852847,0.3242107,0.88701195,0.7452669
-0.1,0.1,1.0999999999999999,-0.5235987755982988,0.5235987755982988,0,0.38790667,-0.20333329,1.4555951,0.84049153,0.77280504,0.13666461,-0.33133078,0.40586123,-1.4421058,-0.18992409,-0.04624783,-0.008912614,1.0755004,1.2468413
-0.1,0.1,1.0999999999999999,-0.5235987755982988,0.5235987755982988,0,0.3880653,-0.20389019,1.4563714,0.8359374,0.86741996,0.22665386,-1.1197196,0.4071019,-1.4396908,-0.24793707,-0.047139943,0.09349026,1.0266036,1.3806075
-0.1,0.1,1.0999999999999999,-0.5235987755982988,0.5235987755982988,0,0.3898047,-0.20380268,1.4553001,0.8324309,1.0268663,0.22592373,-0.30593526,0.40455607,-1.4406981,-0.2416594,-0.07371563,0.006979557,1.0515703,1.396046
-0.1,0.1,1.0999999999999999,-0.5235987755982988,0.5235987755982988,0,0.38974297,-0.20331764,1.4586792,0.8240172,1.0060252,0.15774225,-1.4436283,0.40675488,-1.4411038,-0.21462579,-0.007503094,0.090949565,0.90123713,0.7353622
-0.1,0.1,1.0999999999999999,-0.5235987755982988,0.5235987755982988,0,0.38879168,-0.20167458,1.4566725,0.84568924,1.2733413,0.15108193,0.16151851,0.4044935,-1.4402311,-0.2603772,0.023199752,0.003341271,1.1951216,0.769621
-0.1,0.1,1.0999999999999999,-0.5235987755982988,0.5235987755982988,0,0.386044,-0.2006687,1.457958,0.8367796,0.7964702,0.07971628,-0.19436662,0.40536582,-1.4405541,-0.28002888,-0.01275802,0.12110995,1.2556174,0.8826413
-0.1,0.1,1.0999999999999999,-0.5235987755982988,0.5235987755982988,0,0.38800398,-0.20562126,1.4557372,0.8345773,0.3734007,0.4483025,-0.27263662,0.40625072,-1.4421942,-0.21686567,0.01336397,-0.13774225,0.8905145,0.8681853
-0.1,0.1,1.0999999999999999,-0.5235987755982988,0.5235987755982988,0,0.3891371,-0.20470324,1.4592308,0.82748264,1.1029992,0.3044219,-0.9181412,0.4038274,-1.4388157,-0.23852293,-0.005843176,-0.01886803,1.2309841,0.88523185
-0.1,0.1,1.0999999999999999,-0.5235987755982988,0.5235987755982988,0,0.38990265,-0.20113747,1.4588181,0.82223934,0.7639755,0.24594893,0.09650538,0.4067496,-1.4415864,-0.25907403,-0.040647026,0.04543137,0.76168275,-0.30384877
-0.1,0.1,1.0999999999999999,-0.5235987755982988,0.5235987755982988,0,0.38981134,-0.20285231,1.4583718,0.83637744,0.7915586,0.32220742,-0.57530063,0.40596774,-1.4404601,-0.2148095,-0.053084284,0.107996725,1.1145135,0.25825524
-0.1,0.1,1.0999999999999999,-0.5235987755982988,0.5235987755982988,0,0.39113262,-0.2036634,1.456485,0.8305103,0.9283951,0.35383934,-0.41419202,0.40636548,-1.440396,-0.23448536,-0.017036436,0.19080094,1.0471226,0.9964692
-0.1,0.1,1.0999999999999999,-0.5235987755982988,0.5235987755982988,0,0.38906372,-0.20317493,1.4608635,0.82742625,1.0667114,0.17117906,0.057516523,0.40406302,-1.4394766,-0.2176186,-0.022493875,0.33102918,1.1130599,1.10884
-0.1,0.1,1.0999999999999999,-0.5235987755982988,0.5235987755982988,0,0.3898632,-0.20290115,1.4578015,0.8261835,0.9500579,0.40882388,0.2613886,0.4041907,-1.4393218,-0.27024707,-0.029471159,0.013158507,0.915105,0.85152465
-0.1,0.1,1.0999999999999999,-0.5235987755982988,0.5235987755982988,0,0.38917065,-0.20383143,1.4550052,0.8412765,1.2237004,0.55149215,-0.13018787,0.40513897,-1.4397656,-0.22394845,0.020369027,-0.18489552,1.0610989,1.2688241
-0.1,0.1,1.0999999999999999,-0.5235987755982988,0.5235987755982988,0,0.39110503,-0.20218426,1.4574417,0.835551,0.9836824,0.1551687,-1.105693,0.40628198,-1.4404726,-0.22745341,-0.071090735,0.1451722,0.9431502,0.15621331
-0.1,0.1,1.0999999999999999,-0.5235987755982988,0.5235987755982988,0,0.3895451,-0.20107648,1.4585598,0.8416752,0.91474736,0.39500567,-1.2755574,0.4047618,-1.4405397,-0.23600855,-0.026618438,-0.02628155,1.1918367,0.97073275
-0.1,0.1,1.0999999999999999,-0.5235987755982988,0.5235987755982988,0,0.38903004,-0.20242469,1.4568315,0.84047645,1.0031545,0.38513222,-0.34237826,0.4048152,-1.4410695,-0.24395813,-0.043534685,0.23795535,1.286284,1.220436
-0.1,0.1,1.0999999999999999,-0.5235987755982988,0.5235987755982988,0,0.39485323,-0.2019631,1.4562712,0.83348083,1.0578856,0.25312686,-0.7251597,0.40491897,-1.4401854,-0.204998,-0.04564761,0.06532398,1.0668384,1.0129738
-0.1,0.1,1.0999999999999999,-0.5235987755982988,0.5235987755982988,0,0.3901986,-0.20334472,1.4599437,0.83320576,0.67094773,0.0864183,-0.68838245,0.4064716,-1.4381772,-0.26084447,-0.008431047,0.20579699,0.8464017,1.386324
-0.1,0.1,1.0999999999999999,-0.5235987755982988,0.5235987755982988,0,0.38918638,-0.20424272,1.4587625,0.8272287,0.7653178,0.5211443,-0.21266837,0.40661898,-1.4397434,-0.2539962,0.02959456,0.080239944,0.9809408,0.92266405
-0.1,0.1,1.0999999999999999,-0.5235987755982988,0.5235987755982988,0,0.38985032,-0.20285748,1.4598308,0.8280305,0.75827897,0.33055648,-0.88838917,0.40341902,-1.4393431,-0.16264343,-0.0075736777,0.03298093,1.0719447,1.3109152
-0.1,0.1,1.0999999999999999,-0.5235987755982988,0.5235987755982988,0,0.3901111,-0.20318747,1.4599973,0.831839,1.0226308,0.09577881,0.36341038,0.4042854,-1.4394337,-0.21415058,-0.064180166,-0.07698456,1.0437152,0.9738367
-0.1,0.1,1.0999999999999999,-0.5235987755982988,0.5235987755982988,0,0.3885006,-0.20339347,1.4599023,0.83079994,1.2765309,0.16423061,-0.27729455,0.40711418,-1.4407011,-0.26729774,-0.019293662,0.17195785,0.8434216,1.1433513
-0.1,0.1,1.0999999999999999,-0.5235987755982988,0.5235987755982988,0,0.392086,-0.20276739,1.4562093,0.836805,1.0057405,0.124138445,-0.2112604,0.40685236,-1.4403491,-0.25560114,-0.02547645,0.17715824,1.159394,0.7761092
-0.1,0.1,1.0999999999999999,-0.5235987755982988,0.5235987755982988,0,0.38893104,-0.20313507,1.4569117,0.83472854,0.7237378,0.4795583,-0.2937366,0.4061581,-1.4413985,-0.25679827,-0.074464776,0.21108072,1.1184745,0.7035219
-0.1,0.1,1.0999999999999999,-0.5235987755982988,0.5235987755982988,0,0.3927689,-0.20257936,1.4599572,0.8367805,0.79830563,0.2741374,0.2527107,0.40696004,-1.4388578,-0.2125367,-0.06612763,0.20044208,1.2172363,0.62817335
-0.1,0.1,1.0999999999999999,-0.5235987755982988,0.5235987755982988,0,0.39047283,-0.20362434,1.4601445,0.83760226,0.9123667,0.4117605,-0.24946985,0.40678272,-1.4413269,-0.1811724,-0.009154869,0.30716163,1.0739673,0.4987135
-0.1,0.1,1.0999999999999999,-0.5235987755982988,0.5235987755982988,0,0.38799188,-0.20167126,1.4586275,0.8367244,1.1050004,0.45815128,0.033903226,0.4038508,-1.4408702,-0.27808055,-0.055374403,0.017360047,0.79347765,0.7050411
-0.1,0.1,1.0999999999999999,-0.5235987755982988,0.5235987755982988,0,0.39086813,-0.2065028,1.4601403,0.8307188,0.47969106,0.3152379,-0.97897345,0.40447006,-1.4384288,-0.19354402,-0.014580302,0.02864912,1.1062902,0.7555848
-0.1,0.1,1.0999999999999999,-0.5235987755982988,0.5235987755982988,0,0.3873993,-0.20439877,1.459518,0.837776,0.93881845,0.5086401,-0.61652046,0.4079419,-1.441108,-0.22881714,-0.01724793,0.049916033,1.1721996,0.64577836
-0.1,0.1,1.0999999999999999,-0.5235987755982988,0.5235987755982988,0,0.38950762,-0.20321563,1.4588965,0.82641095,0.76587987,0.37994394,-0.65229243,0.40511146,-1.4410564,-0.25200695,-0.052580617,0.08749558,1.1778128,0.559454
-0.1,0.1,1.0999999999999999,-0.5235987755982988,0.5235987755982988,0,0.38935515,-0.20527498,1.4587641,0.8347189,1.1329399,0.16983844,-0.54135424,0.4052197,-1.4402529,-0.24800743,-0.011121093,-0.037763078,0.9228153,0.7517444
-0.1,0.1,1.0999999999999999,-0.5235987755982988,0.5235987755982988,0,0.38808176,-0.2057092,1.4586009,0.83588654,1.0059462,0.46165597,-0.48928908,0.40389466,-1.4411279,-0.22493252,-0.02414864,-0.15692192,0.8825007,0.47969586
-0.1,0.1,1.0999999999999999,-0.5235987755982988,0.5235987755982988,0,0.38907942,-0.20360488,1.4599234,0.83977234,0.9257932,0.07422613,-0.04608794,0.40646088,-1.4404844,-0.23858668,-0.020512246,0.34855983,1.0001111,1.1529351
-0.1,0.1,1.0999999999999999,-0.5235987755982988,0.5235987755982988,0,0.39331868,-0.20235719,1.4570104,0.85060686,0.8566235,0.44663322,-0.14923318,0.40622005,-1.4397552,-0.24891624,-0.03763327,0.36672592,0.9908902,0.7101774
-0.1,0.1,1.0999999999999999,-0.5235987755982988,0.5235987755982988,0,0.38779113,-0.20476796,1.4600062,0.83409655,1.0678544,0.15576124,-0.3843341,0.40507525,-1.440718,-0.24335209,-0.037944086,0.12056895,1.2140378,-0.11999705
-0.1,0.1,1.0999999999999999,-0.5235987755982988,0.5235987755982988,0,0.38989943,-0.20347492,1.4617916,0.8373299,0.867241,0.22575295,-1.1418252,0.4061875,-1.4395579,-0.22605847,-0.058288313,0.29919907,1.100389,1.0166197
-0.1,0.1,1.0999999999999999,-0.5235987755982988,0.5235987755982988,0,0.39043823,-0.20500445,1.457418,0.8368179,0.767336,0.31551984,-0.86532974,0.40748912,-1.441679,-0.22243749,-0.015057336,0.026938489,0.95939314,0.7567589
-0.1,0.1,1.0999999999999999,-0.5235987755982988,0.5235987755982988,0,0.3905765,-0.20364088,1.4572251,0.83607197,0.6120158,0.11470291,0.618939,0.4063824,-1.4415528,-0.23343001,-0.03703089,0.12601262,1.0078822,0.83583593
-0.1,0.1,1.0999999999999999,-0.5235987755982988,0.5235987755982988,0,0.3917462,-0.20325205,1.4602585,0.82700473,1.3013148,0.3796964,-0.93605185,0.4048349,-1.4407879,-0.23406297,-0.05978794,0.17818393,0.8646155,1.1275927
-0.1,0.1,1.0999999999999999,-0.5235987755982988,0.5235987755982988,0,0.3904805,-0.20420077,1.4600532,0.83347076,0.58581096,0.113474526,-1.0271751,0.40587637,-1.4401103,-0.21498282,-0.07902445,-0.019908382,1.1297375,0.68199885
-0.1,0.1,1.0999999999999999,-0.5235987755982988,0.5235987755982988,0,0.390943,-0.20626196,1.4592365,0.8392024,0.8744977,0.40759727,-0.04440935,0.40618584,-1.4399194,-0.24257085,-0.07059868,0.07572297,1.0555768,1.1090533
-0.1,0.1,1.0999999999999999,-0.5235987755982988,0.5235987755982988,0,0.3921106,-0.2059894,1.4582015,0.83781976,0.68332094,0.14480008,-0.031699315,0.40472597,-1.4398623,-0.26954782,-0.062077817,0.061433755,1.1686502,1.1368613
-0.1,0.1,1.0999999999999999,-0.5235987755982988,0.5235987755982988,0,0.3873289,-0.20235185,1.4546437,0.8348311,0.36279342,0.15365365,0.049442973,0.40421158,-1.4393845,-0.20546876,-0.010622448,0.11581338,0.85789484,0.9287562
-0.1,0.1,1.0999999999999999,-0.5235987755982988,0.5235987755982988,0,0.3898994,-0.20486979,1.4553981,0.8274718,0.92484,0.19041464,-0.1946954,0.40754777,-1.4405175,-0.21018635,-0.038654964,0.03402274,1.2397795,1.2176597
-0.1,0.1,1.0999999999999999,-0.5235987755982988,0.5235987755982988,0,0.3883477,-0.2029829,1.4585617,0.82344973,0.5574117,0.13012749,-0.8987602,0.40227726,-1.4398329,-0.21049897,-0.014841325,0.25621486,0.9739457,-0.011828794
-0.1,0.1,1.0999999999999999,-0.5235987755982988,0.5235987755982988,0,0.38958442,-0.20219658,1.4563496,0.84652627,0.8145139,0.5879933,-0.56990844,0.40608987,-1.4385748,-0.19895002,-0.05677447,0.17085303,1.302124,1.4436337
-0.1,0.1,1.0999999999999999,-0.5235987755982988,0.5235987755982988,0,0.38921666,-0.20088333,1.4621487,0.8410737,1.0947847,0.41316107,0.89553136,0.40639076,-1.4402474,-0.28655162,-0.056674454,0.075178094,1.1411474,1.0375423
-0.1,0.1,1.0999999999999999,-0.5235987755982988,0.5235987755982988,0,0.38743207,-0.20277062,1.4562246,0.83616734,0.9164264,0.24824771,-0.37273473,0.40594366,-1.4380934,-0.19076411,-0.034559377,0.086068556,1.0987562,0.83199424
-0.1,0.1,1.0999999999999999,-0.5235987755982988,0.5235987755982988,0,0.3894817,-0.20310608,1.454942,0.8359996,1.3138767,0.22424997,-0.06063427,0.40497017,-1.4383231,-0.18564369,-0.01421237,0.011117666,1.1392444,0.9771409
-0.1,0.1,1.0999999999999999,-0.5235987755982988,0.5235987755982988,0,0.38538742,-0.20130725,1.4552437,0.8362548,1.1026058,0.32473144,-0.60612124,0.40494296,-1.4399352,-0.21966118,0.030999687,-0.07203317,1.1304437,0.51716346
-0.1,0.1,1.0999999999999999,-0.5235987755982988,0.5235987755982988,0,0.3887097,-0.20438217,1.4591396,0.82604593,0.97991484,0.15119834,-1.1577519,0.4067939,-1.4386811,-0.1978705,-0.02709486,-0.049050145,0.90726465,0.98476255
-0.1,0.1,1.0999999999999999,-0.5235987755982988,0.5235987755982988,0,0.38846487,-0.20431969,1.4587147,0.8012219,0.97327656,0.29926726,-0.21238627,0.40597695,-1.4397292,-0.20635734,-0.0677986,0.40509933,0.74614364,0.35926306
-0.1,0.1,1.0999999999999999,-0.5235987755982988,0.5235987755982988,0,0.3889907,-0.20270064,1.4558614,0.83621466,0.49792987,0.18815564,-0.54884624,0.40607944,-1.4392768,-0.20667027,-0.0065330854,0.19631565,1.1336161,1.3399673
-0.1,0.1,1.0999999999999999,-0.5235987755982988,0.5235987755982988,0,0.3870623,-0.20265849,1.4584038,0.8257813,0.9870861,0.30534947,-0.34609228,0.40633053,-1.4395157,-0.22613908,0.0057349345,-0.12541273,1.370314,1.3036672
-0.1,0.1,1.0999999999999999,-0.5235987755982988,0.5235987755982988,0,0.38854787,-0.2023912,1.4569446,0.8315496,0.5761096,0.2761479,-1.1617728,0.404272,-1.439184,-0.21414667,0.004422726,-0.2462729,0.98110145,0.50329816
-0.1,0.1,1.0999999999999999,-0.5235987755982988,0.5235987755982988,0,0.38737983,-0.20120542,1.4587553,0.8428345,0.71731853,0.30075875,-0.07034897,0.40252605,-1.4372694,-0.21996976,-0.026006559,0.0016037525,1.21226,0.38117394
-0.1,0.1,1.0999999999999999,-0.5235987755982988,0.5235987755982988,0,0.38547727,-0.20292427,1.4593554,0.84063816,0.62062705,0.5194811,0.37213567,0.40379652,-1.4386972,-0.21517427,-0.055554453,-0.1631049,0.8358499,1.0183781
-0.1,0.1,1.0999999999999999,-0.5235987755982988,0.5235987755982988,0,0.38933313,-0.20219813,1.4586135,0.8356674,0.9787842,0.27294907,-0.38202327,0.40685397,-1.4397846,-0.20853397,-0.038997468,0.17523223,0.99035037,1.0567731
-0.1,0.1,1.0999999999999999,-0.5235987755982988,0.5235987755982988,0,0.3859557,-0.2043629,1.4589518,0.8184125,0.63580465,0.17745015,-0.40759933,0.40407914,-1.4400402,-0.2047596,-0.055874236,0.08331851,1.2838522,0.7900588
-0.1,0.1,1.0999999999999999,-0.5235987755982988,0.5235987755982988,0,0.3868445,-0.20289594,1.4602759,0.8290837,1.3427755,0.18159541,0.14838324,0.4061664,-1.4396207,-0.2065414,-0.03905297,-0.1638066,1.112241,1.167584
-0.1,0.1,1.0999999999999999,-0.5235987755982988,0.5235987755982988,0,0.3883155,-0.20161971,1.4604601,0.83261645,0.9027554,0.43988624,-0.7195328,0.40676934,-1.4384028,-0.21197753,-0.05599426,0.08240339,0.95046324,0.990371
-0.1,0.1,1.0999999999999999,-0.5235987755982988,0.5235987755982988,0,0.38973382,-0.20194793,1.4549727,0.8334478,0.82835555,0.283192,0.7023883,0.40491268,-1.4384347,-0.28248647,-0.008514602,-0.06552293,0.85423076,0.47091225
-0.1,0.1,1.0999999999999999,-0.5235987755982988,0.5235987755982988,0,0.38798258,-0.20294768,1.455928,0.8354218,0.62630993,0.37832755,-0.30192417,0.40481454,-1.4405324,-0.23784025,-0.030033471,0.026744358,0.948086,0.47954512
-0.1,0.1,1.0999999999999999,-0.5235987755982988,0.5235987755982988,0,0.39005646,-0.20224084,1.4558159,0.81879973,0.71496034,0.25792596,-0.33009997,0.40734047,-1.4401346,-0.25158018,-0.007901221,0.054120775,0.8986456,0.7294808
-0.1,0.1,1.0999999999999999,-0.5235987755982988,0.5235987755982988,0,0.3894524,-0.20168999,1.4598795,0.8425821,0.41985372,0.024881365,-0.823705,0.40330654,-1.4389274,-0.18351136,-0.011127681,0.26455358,0.8591779,0.5854446
-0.1,0.1,1.0999999999999999,-0.5235987755982988,0.5235987755982988,0,0.38753444,-0.20281433,1.457666,0.8436506,1.1180044,0.26099622,0.42567268,0.4081994,-1.4403347,-0.23381734,-0.037074804,0.004444147,1.0388818,0.18867354
-0.1,0.1,1.0999999999999999,-0.5235987755982988,0.5235987755982988,0,0.38609564,-0.20271876,1.4571798,0.82902694,0.9277206,0.33980456,-0.8200446,0.40440553,-1.440724,-0.23592985,0.044620734,0.12799613,1.3839716,0.9685767
-0.1,0.1,1.0999999999999999,-0.5235987755982988,0.5235987755982988,0,0.38759208,-0.20289546,1.457693,0.82482797,1.110743,0.20272508,-0.27901348,0.40627602,-1.4405967,-0.22997034,-0.047098126,-0.03808666,0.89085555,0.5694281
-0.1,0.1,1.0999999999999999,-0.5235987755982988,0.5235987755982988,0,0.3886581,-0.20127435,1.4576218,0.8369726,1.1923652,0.34630308,-0.24722077,0.40704644,-1.4405258,-0.22581692,-0.031962764,0.029885873,1.481741,1.1721194
-0.1,0.1,1.0999999999999999,-0.5235987755982988,0.5235987755982988,0,0.38898766,-0.20153368,1.4584559,0.84162533,1.1250285,0.0440502,-0.3767422,0.40662432,-1.4400421,-0.19041015,-0.038708065,0.21662512,1.2300158,0.9529005
-0.1,0.1,1.0999999999999999,-0.5235987755982988,0.5235987755982988,0,0.38937646,-0.20401664,1.4570004,0.83637106,1.2398396,0.14055686,-0.26378244,0.40648052,-1.4401546,-0.17936859,-0.0040961877,0.025346348,1.3603554,1.0773134
-0.1,0.1,1.0999999999999999,-0.5235987755982988,0.5235987755982988,0,0.3911831,-0.20379075,1.4573193,0.83622235,0.8199074,0.28527215,-0.068036765,0.40643963,-1.4392031,-0.21654002,-0.014367477,0.42071036,0.8726414,1.4463012
-0.1,0.1,1.0999999999999999,-0.5235987755982988,0.5235987755982988,0,0.38774174,-0.20341149,1.457919,0.83471644,1.0964,0.22086279,-0.7906508,0.405041,-1.440277,-0.2249681,-0.0097024115,0.078455485,1.0659757,0.8667199
-0.1,0.1,1.0999999999999999,-0.5235987755982988,0.5235987755982988,0,0.3881912,-0.20083292,1.4579225,0.8326351,0.8822253,0.22082415,-1.2699043,0.40568674,-1.4406372,-0.22301914,-0.010869024,0.019140165,0.92171013,1.2123231
-0.1,0.1,1.0999999999999999,-0.5235987755982988,0.5235987755982988,0,0.38884255,-0.20400712,1.4578183,0.8305621,0.48329958,0.25851154,-0.0056191594,0.4065935,-1.4403737,-0.19751562,-0.022879137,-0.29540852,1.0316297,0.39056358
-0.1,0.1,1.0999999999999999,-0.5235987755982988,0.5235987755982988,0,0.3894374,-0.2013355,1.456083,0.8297948,0.6420889,0.26505002,-0.97072333,0.40558702,-1.4409022,-0.2063139,0.020143382,-0.015800428,1.1610276,1.0242395
-0.1,0.1,1.0999999999999999,-0.5235987755982988,0.5235987755982988,0,0.3868466,-0.20396113,1.4580046,0.82569635,0.8059897,0.1955194,-0.613727,0.40620723,-1.4407256,-0.20180362,0.011956056,-0.015991619,1.0672463,1.1493361
-0.1,0.1,1.0999999999999999,-0.5235987755982988,0.5235987755982988,0,0.3876668,-0.20033912,1.4576232,0.8385324,0.67858946,0.036371917,-0.59861934,0.4046283,-1.4407488,-0.22505449,-0.029019337,0.15144472,0.97805595,0.80641687
-0.1,0.1,1.0999999999999999,-0.5235987755982988,0.5235987755982988,0,0.38795578,-0.20361336,1.4563012,0.837108,1.0782326,0.08855637,-0.30488056,0.40542752,-1.4400074,-0.22745238,-0.026599431,0.15148364,1.1901656,1.4145262
-0.1,0.1,1.0999999999999999,-0.5235987755982988,0.5235987755982988,0,0.38795272,-0.20296735,1.4592619,0.83145183,1.0453293,0.37819684,-0.13372524,0.40732646,-1.4386492,-0.24633166,-0.028663164,-0.048504613,1.1760528,0.24521166
-0.1,0.1,1.0999999999999999,-0.5235987755982988,0.5235987755982988,0,0.38847753,-0.20291822,1.4586856,0.83804023,1.1488693,0.24289873,-1.2785959,0.40657106,-1.440198,-0.21990825,0.017222907,0.13201994,1.1677166,1.1085644
-0.1,0.1,1.0999999999999999,-0.5235987755982988,0.5235987755982988,0,0.38852197,-0.20167252,1.4601405,0.8291357,1.0218108,0.20290612,-0.47397998,0.40630645,-1.4392062,-0.27155605,-0.0708984,0.14743935,0.86235285,1.1442475
-0.1,0.1,1.0999999999999999,-0.5235987755982988,0.5235987755982988,0,0.38854504,-0.20169355,1.4581513,0.8440422,1.2629427,0.39211345,-1.0089686,0.40566957,-1.438683,-0.23128632,-0.046124183,0.070998676,1.2364306,1.1216267
-0.1,0.1,1.0999999999999999,-0.5235987755982988,0.5235987755982988,0,0.38955325,-0.20182349,1.456919,0.8275786,1.064768,0.4390089,-0.39985457,0.4056443,-1.4406811,-0.22848812,-0.027778711,0.015257062,0.95817864,0.52867275
-0.1,0.1,1.0999999999999999,-0.5235987755982988,0.5235987755982988,0,0.3903392,-0.20296538,1.4582447,0.83258796,0.81907225,0.36149976,-1.9007266,0.40498194,-1.4396166,-0.22473176,-0.012766372,-0.07754627,0.89427555,1.2651637
-0.1,0.1,1.0999999999999999,-0.5235987755982988,0.5235987755982988,0,0.38864616,-0.20338598,1.4599419,0.83030987,0.98674554,0.305377,-0.5558231,0.40491253,-1.4397913,-0.2116027,0.002321927,0.055300094,1.3821149,1.2864486
-0.1,0.1,1.0999999999999999,-0.5235987755982988,0.5235987755982988,0,0.38867316,-0.20339757,1.4574356,0.8383464,1.2919763,0.3775702,-0.48303142,0.40417367,-1.4404192,-0.22008723,-0.02741829,-0.06579114,0.95675045,0.5430769
-0.1,0.1,1.0999999999999999,-0.5235987755982988,0.5235987755982988,0,0.38829005,-0.20175493,1.4604878,0.8370164,1.3750072,0.2984593,-0.4210351,0.40526167,-1.4404128,-0.22171746,-0.046504468,0.19901043,0.90830845,0.72199655
-0.1,0.1,1.0999999999999999,-0.5235987755982988,0.5235987755982988,0,0.39044726,-0.20336492,1.4566076,0.8398296,0.8932902,0.3913821,-0.33800015,0.406293,-1.4392834,-0.23525473,0.015497219,0.039858043,1.1708152,1.8032721
-0.1,0.1,1.0999999999999999,-0.5235987755982988,0.5235987755982988,0,0.38725162,-0.20398715,1.4591434,0.8362141,0.4143407,0.20827481,-0.43764994,0.4078638,-1.4405203,-0.19975449,-0.07392196,0.12271524,1.1869607,1.1981676
-0.1,0.1,1.0999999999999999,-0.5235987755982988,0.5235987755982988,0,0.39092875,-0.20071888,1.4575883,0.82239354,1.0798329,-0.04116683,-0.49163187,0.405011,-1.4417807,-0.21788922,-0.09557591,0.1275313,1.1578436,1.2465361
-0.1,0.1,1.0999999999999999,-0.5235987755982988,0.5235987755982988,0,0.39091086,-0.20252264,1.4574803,0.84513634,1.0423335,0.101934105,-0.053984553,0.4066976,-1.4395002,-0.23750438,-0.06538863,0.387317,0.89113533,0.69092405
-0.1,0.1,1.0999999999999999,-0.5235987755982988,0.5235987755982988,0,0.3927319,-0.20295607,1.4601452,0.82733285,0.9080608,0.20858525,-0.5449383,0.4078371,-1.4377499,-0.21097961,-0.08021524,-0.04800445,1.2654771,0.5661986
-0.1,0.1,1.0999999999999999,-0.5235987755982988,0.5235987755982988,0,0.38962013,-0.20151265,1.4578477,0.83213633,0.9203043,0.17957067,-0.9877139,0.40482458,-1.4403704,-0.22296868,-0.0652401,0.29283953,1.0374643,0.6494401
-0.1,0.1,1.0999999999999999,-0.5235987755982988,0.5235987755982988,0,0.38912004,-0.20261188,1.4592775,0.82746434,1.2185017,0.4060144,-0.4534047,0.40554538,-1.4405135,-0.22137551,-0.035607453,0.0051215375,1.1015478,0.9898416
-0.1,0.1,1.0999999999999999,-0.5235987755982988,0.5235987755982988,0,0.38891947,-0.20246978,1.4566917,0.84516716,0.96894884,0.115074046,-1.2489702,0.40712208,-1.4410448,-0.24413168,-0.076651655,-0.084221825,0.85972667,1.4386528
-0.1,0.1,1.0999999999999999,-0.5235987755982988,0.5235987755982988,0,0.3881403,-0.20153554,1.459504,0.83675486,0.9032436,0.23967235,-0.42031026,0.4050106,-1.440956,-0.23019752,0.010923837,0.038021818,1.1577107,0.97573334
-0.1,0.1,1.0999999999999999,-0.5235987755982988,0.5235987755982988,0,0.39006504,-0.20252712,1.4588851,0.8333004,0.6449511,0.1927625,0.3904008,0.40674755,-1.4392259,-0.2521892,-0.07142819,0.10261636,0.9370333,0.96433055
-0.1,0.1,1.0999999999999999,-0.5235987755982988,0.5235987755982988,0,0.39154458,-0.20416914,1.4588743,0.8240757,0.82143915,0.31670353,-0.382823,0.40295592,-1.4387087,-0.21102703,-0.030836144,-0.019444175,1.098687,0.48394462
-0.1,0.1,1.0999999999999999,-0.5235987755982988,0.5235987755982988,0,0.39131165,-0.20270233,1.4577986,0.84487814,0.48594958,0.14752917,-1.6294533,0.40712377,-1.4393783,-0.20554827,-0.018374765,0.09720694,0.90314025,0.95073986
-0.1,0.1,1.0999999999999999,-0.5235987755982988,0.5235987755982988,0,0.38790715,-0.20013702,1.4568261,0.8367048,0.6303598,0.21173796,0.22347616,0.4047715,-1.4402726,-0.26936296,-0.003456159,-0.004542901,1.0858957,-0.13965432
-0.1,0.1,1.0999999999999999,-0.5235987755982988,0.5235987755982988,0,0.38900566,-0.2031796,1.4574105,0.8301743,0.99057436,0.48169163,-0.67695814,0.4055559,-1.4411663,-0.22619596,0.002583014,0.05595382,0.9934693,1.1526396
-0.1,0.1,1.0999999999999999,-0.5235987755982988,0.5235987755982988,0,0.39005172,-0.20378865,1.457534,0.83766365,1.2233865,0.41641763,0.25608686,0.40478083,-1.4392848,-0.24505839,-0.022975566,0.057138145,0.86625093,0.7538797
-0.1,0.1,1.0999999999999999,-0.5235987755982988,0.5235987755982988,0,0.38959888,-0.20407856,1.4572898,0.8335619,0.43560147,0.27994257,-0.95298254,0.4047735,-1.4403219,-0.22355032,-0.007568366,0.029696366,1.0281509,0.44352946
-0.1,0.1,1.0999999999999999,-0.5235987755982988,0.5235987755982988,0,0.38981363,-0.20286885,1.4588238,0.83760947,1.0368534,0.36005136,-0.5903467,0.4033303,-1.4397545,-0.21387555,-0.02592419,-0.082473785,1.193151,1.0369768
-0.1,0.1,1.0999999999999999,-0.5235987755982988,0.5235987755982988,0,0.38968208,-0.20406815,1.4566664,0.84249955,0.70073473,0.4351554,0.636297,0.40276018,-1.4403923,-0.20984168,-0.094403885,0.14214085,0.9279316,0.20802961
-0.1,0.1,1.0999999999999999,-0.5235987755982988,0.5235987755982988,0,0.38648564,-0.204551,1.4586568,0.85080117,0.8887751,0.09946886,-0.7923238,0.4036146,-1.439967,-0.20594239,-0.032564644,0.145586,0.9630841,1.016794
-0.1,0.1,1.0999999999999999,-0.5235987755982988,0.5235987755982988,0,0.39054447,-0.20343444,1.4585433,0.8314554,0.46963438,0.32606933,-0.58488077,0.4054367,-1.4407624,-0.19480273,-0.036507234,0.17797485,1.0338436,0.798894
-0.1,0.1,1.0999999999999999,-0.5235987755982988,0.5235987755982988,0,0.3878664,-0.20319512,1.4588394,0.8261045,0.98531467,0.4805738,-1.400426,0.40560374,-1.4415406,-0.24284498,-0.048672087,0.16441162,0.78002113,0.55687577
-0.1,0.1,1.0999999999999999,-0.5235987755982988,0.5235987755982988,0,0.3906721,-0.20272173,1.4587346,0.82784486,0.80296534,0.14183053,-0.25314552,0.40503088,-1.4398081,-0.22956504,-0.06991426,0.070441,1.0992329,0.9949479
-0.1,0.1,1.0999999999999999,-0.5235987755982988,0.5235987755982988,0,0.38840643,-0.20462182,1.4588137,0.84321326,0.7851746,0.23186721,-0.35141855,0.40497172,-1.4393313,-0.22548322,-0.033707257,-0.06975332,1.1236503,1.4346052
-0.1,0.1,1.0999999999999999,-0.5235987755982988,0.5235987755982988,0,0.38769194,-0.20543903,1.4566628,0.8272461,0.879764,0.24533267,-0.11284235,0.4058065,-1.4413044,-0.258278,-0.010162007,-0.042828582,1.171392,0.14925048
-0.1,0.1,1.0999999999999999,-0.5235987755982988,0.5235987755982988,0,0.38672608,-0.20454754,1.4595978,0.8309051,0.696486,0.5427167,-0.5487556,0.4060564,-1.4403028,-0.25070527,-0.07190633,0.13940147,1.0649687,1.0138118
-0.1,0.1,1.0999999999999999,-0.5235987755982988,0.5235987755982988,0,0.38975227,-0.20411445,1.4599457,0.82167506,0.83530366,0.18972556,0.102017336,0.40384814,-1.4404562,-0.20779127,0.021710698,0.16094583,1.1223037,1.1508899
-0.1,0.1,1.0999999999999999,-0.5235987755982988,0.5235987755982988,0,0.3870857,-0.20390613,1.4601645,0.83206004,1.169825,0.23092395,-0.58514583,0.4054892,-1.4410589,-0.24271525,-0.059236843,0.09911385,1.2364024,1.2774234
-0.1,0.1,1.0999999999999999,-0.5235987755982988,0.5235987755982988,0,0.39176625,-0.20433256,1.4565096,0.8370197,0.601641,0.33336243,0.27234402,0.40425834,-1.4403764,-0.22511554,0.005835711,0.15527642,1.1806731,0.9093745
-0.1,0.1,1.0999999999999999,-0.5235987755982988,0.5235987755982988,0,0.3917595,-0.20367245,1.4579163,0.83370847,0.97224754,0.5233514,-0.6562829,0.40655488,-1.4395798,-0.2341566,0.0032413714,0.124351025,1.3158877,0.33843657
-0.1,0.1,1.0999999999999999,-0.5235987755982988,0.5235987755982988,0,0.38961586,-0.206004,1.4596316,0.8469207,0.86433643,0.27761388,-0.41150382,0.40631607,-1.4391028,-0.21412154,-0.053835694,0.09076891,0.8413956,0.6320572
-0.1,0.1,1.0999999999999999,-0.5235987755982988,0.5235987755982988,0,0.39024678,-0.2043869,1.4585807,0.84490716,0.94169986,0.21100791,-0.6310075,0.40574428,-1.4400235,-0.22086234,-0.04424062,0.1783719,0.95677775,1.234562
-0.1,0.1,1.0999999999999999,-0.5235987755982988,0.5235987755982988,0,0.3913142,-0.20064345,1.459559,0.8373998,1.1892492,0.4707134,-0.69767207,0.40469512,-1.4399555,-0.24638821,-0.04314099,0.12451671,1.1245127,1.0623502
-0.1,0.1,1.0999999999999999,-0.5235987755982988,0.5235987755982988,0,0.39033195,-0.20422803,1.4598846,0.8473999,0.719654,0.14262708,-0.052477606,0.40509468,-1.4392406,-0.22057554,-0.01877233,0.12006831,1.0517912,1.1692476
-0.1,0.1,1.0999999999999999,-0.5235987755982988,0.5235987755982988,0,0.38885114,-0.2041415,1.4571575,0.83937734,0.7790796,0.58049536,-0.37662748,0.4065812,-1.4422452,-0.24019629,-0.04907969,0.2686426,1.1476021,1.0689139
-0.1,0.1,1.0999999999999999,-0.5235987755982988,0.5235987755982988,0,0.39171776,-0.20359951,1.4577984,0.8411291,0.6700941,0.19818343,-0.792042,0.4082376,-1.440378,-0.2586502,-0.051824924,-0.06669507,1.1803141,0.6762458
-0.1,0.1,1.0999999999999999,-0.5235987755982988,0.5235987755982988,0,0.3892367,-0.20314112,1.4565517,0.8428903,0.98504823,0.24027584,0.07102124,0.40650904,-1.4396415,-0.15067418,-0.012007159,0.18720669,1.2857825,0.7595703
-0.1,0.1,1.0999999999999999,-0.5235987755982988,0.5235987755982988,0,0.38778934,-0.20175718,1.4566984,0.84312415,1.0106581,0.1035202,0.21666242,0.40534124,-1.4409462,-0.16275537,-0.029005574,0.084459655,1.156613,0.48687145
-0.1,0.1,1.0999999999999999,-0.5235987755982988,0.5235987755982988,0,0.38811868,-0.20281637,1.4591119,0.83345336,1.186825,0.23692404,-0.57732725,0.40571865,-1.4395807,-0.19643149,-0.048173767,0.19505319,0.76460785,0.8613004
-0.1,0.1,1.0999999999999999,-0.5235987755982988,0.5235987755982988,0,0.38712785,-0.20314343,1.457178,0.8231687,0.59753686,0.37849882,-0.05546567,0.40714568,-1.4398377,-0.2464812,-0.06004142,0.21056832,1.2240739,1.2316376
-0.1,0.1,1.0999999999999999,-0.5235987755982988,0.5235987755982988,0,0.3873812,-0.20348924,1.4580531,0.8278732,0.69320166,0.4652546,-0.8697863,0.40591633,-1.4403838,-0.21028894,-0.033544354,0.08777112,0.94036245,0.69068813
-0.1,0.1,1.0999999999999999,-0.5235987755982988,0.5235987755982988,0,0.38741747,-0.20281337,1.4580675,0.8322792,0.55221915,0.20336361,-0.7984612,0.40443227,-1.4395444,-0.17993832,-0.03672577,0.041387375,1.0041538,0.7521598
-0.1,0.1,1.0999999999999999,-0.5235987755982988,0.5235987755982988,0,0.3867104,-0.20466605,1.4552292,0.83380246,0.8590201,0.2593724,-1.0223722,0.40657035,-1.4394424,-0.24283178,-0.020305391,0.3931435,1.1109523,0.56773674
-0.1,0.1,1.0999999999999999,-0.5235987755982988,0.5235987755982988,0,0.38797763,-0.20246887,1.4563878,0.82732564,0.8440311,0.53862435,-0.065467425,0.4061847,-1.4394231,-0.25403786,-0.028700348,-0.10447034,1.4385806,0.39312625
-0.1,0.1,1.0999999999999999,-0.5235987755982988,0.5235987755982988,0,0.38596094,-0.20477395,1.4574016,0.8307935,0.6297362,0.39451712,-0.249855,0.40663907,-1.4395553,-0.21580938,-0.0230771,0.12549396,1.0116113,0.1975758
-0.1,0.1,1.0999999999999999,-0.5235987755982988,0.5235987755982988,0,0.3911575,-0.203145,1.4570663,0.8277766,0.77619773,0.32542327,-0.34376407,0.4040769,-1.4382263,-0.22637099,-0.041779768,-0.023862401,0.93178165,0.6588049
-0.1,0.1,1.0999999999999999,-0.5235987755982988,0.5235987755982988,0,0.3904522,-0.20214535,1.4552993,0.84733015,0.80140764,0.28084183,-0.17971669,0.4069865,-1.440204,-0.23455808,-0.026269862,0.19925475,0.97223234,0.7445709
-0.1,0.1,1.0999999999999999,-0.5235987755982988,0.5235987755982988,0,0.3839178,-0.20301498,1.4608755,0.84302175,0.90489686,0.16075489,-0.9519993,0.40674505,-1.4392592,-0.22431043,-0.008132151,-0.1507267,1.0089847,0.8306009
-0.1,0.1,1.0999999999999999,-0.5235987755982988,0.5235987755982988,0,0.38904622,-0.20234336,1.4568696,0.81976736,0.9854628,0.337954,-0.1028055,0.40495172,-1.4398255,-0.2430781,0.008013631,0.07677942,0.9264943,1.2229396
-0.1,0.1,1.0999999999999999,-0.5235987755982988,0.5235987755982988,0,0.38663024,-0.20228872,1.4594246,0.8392865,0.751951,0.33679295,-0.35990867,0.40508115,-1.4402257,-0.22343168,-0.034571473,0.073942505,1.1917655,1.188236
-0.1,0.1,1.0999999999999999,-0.5235987755982988,0.5235987755982988,0,0.38822827,-0.20241337,1.4571413,0.8355116,0.9609311,0.2422925,-0.6281392,0.40457743,-1.4402515,-0.22393657,-0.0010557122,0.33949056,1.1163085,1.2837756
-0.1,0.1,1.0999999999999999,-0.5235987755982988,0.5235987755982988,0,0.39047018,-0.20262513,1.4587615,0.8347486,1.0956708,0.26652044,0.101535514,0.40615425,-1.4397887,-0.20414537,-0.053685114,0.18089125,0.97747856,0.67879134
-0.1,0.1,1.0999999999999999,-0.5235987755982988,0.5235987755982988,0,0.3883592,-0.20322454,1.4579909,0.82968724,0.76379347,0.051954612,-0.8024623,0.40569207,-1.439993,-0.20718513,-0.023453392,0.08699854,1.105882,0.09327246
-0.1,0.1,1.0999999999999999,-0.5235987755982988,0.5235987755982988,0,0.3888767,-0.20368484,1.4572631,0.8284781,0.83311504,0.24560495,-0.3937713,0.40398517,-1.4402074,-0.23352848,-0.039332636,0.0014643464,1.2686384,1.308088
-0.1,0.1,1.0999999999999999,-0.5235987755982988,0.5235987755982988,0,0.39224103,-0.2018229,1.4592242,0.820222,0.59763175,0.11104941,-1.0546727,0.40617865,-1.4396826,-0.20746014,-0.015614948,0.039947852,1.0572287,1.0107564
-0.1,0.1,1.0999999999999999,-0.5235987755982988,0.5235987755982988,0,0.38945198,-0.20323955,1.4584947,0.8446903,1.1193306,0.4050696,-0.4314391,0.40495035,-1.4399958,-0.21164389,0.0009381624,0.43248722,1.0753386,0.7503321
-0.1,0.1,1.0999999999999999,-0.5235987755982988,0.5235987755982988,0,0.3875829,-0.2033623,1.4599141,0.84136087,1.1205834,0.33838975,-1.0494553,0.40624642,-1.4399726,-0.23303424,-0.051209267,-0.015932223,1.1730012,0.323551
-0.1,0.1,1.0999999999999999,-0.5235987755982988,0.5235987755982988,0,0.39041752,-0.20348954,1.4573518,0.83590996,1.0405205,0.42181936,0.3810318,0.4071079,-1.4399244,-0.24452609,-0.03218715,0.1320635,1.2534113,1.397589
-0.1,0.1,1.0999999999999999,-0.5235987755982988,0.5235987755982988,0,0.3917527,-0.20354925,1.4580975,0.8358773,0.90869427,0.25763622,-0.9819755,0.40527207,-1.4400711,-0.21208054,0.008514559,0.14446996,1.3583311,0.8656236
-0.1,0.1,1.0999999999999999,-0.5235987755982988,0.5235987755982988,0,0.38818908,-0.20466697,1.4596423,0.8404386,1.3313719,0.28602588,-0.4907395,0.40516815,-1.4404927,-0.21961297,-0.0060423873,0.20832925,1.0198724,0.31039765
-0.1,0.1,1.0999999999999999,-0.5235987755982988,0.5235987755982988,0,0.39239344,-0.20418625,1.4607664,0.83628744,1.118738,-0.03931881,-0.328771,0.405651,-1.4402083,-0.21524547,-0.0004147648,-0.10476552,1.1521025,1.0087789
-0.1,0.1,1.0999999999999999,-0.5235987755982988,0.5235987755982988,0,0.38675517,-0.20433089,1.4560139,0.84207875,0.8074976,0.45481426,-0.6660094,0.4053492,-1.4393954,-0.18341087,-0.020439494,0.1528208,1.1522965,1.1184216
-0.1,0.1,1.0999999999999999,-0.5235987755982988,0.5235987755982988,0,0.38862708,-0.20183258,1.4577024,0.8343512,0.9531999,0.26241726,-0.8321342,0.40657583,-1.4395208,-0.21141598,-0.0055345474,0.14304131,1.0355661,0.628977
-0.1,0.1,1.0999999999999999,-0.5235987755982988,0.5235987755982988,0,0.38627264,-0.20416127,1.4573963,0.84159476,1.2440919,0.35981625,-1.0635962,0.40242317,-1.4392161,-0.19290054,-0.048151754,0.0018715007,1.3129193,1.5194982
-0.1,0.1,1.0999999999999999,-0.5235987755982988,0.5235987755982988,0,0.38810426,-0.20202124,1.458655,0.842124,1.4178736,0.40363544,-0.6355855,0.4063392,-1.4411309,-0.24133304,-0.019130323,0.08538749,0.991977,0.7471785
-0.1,0.1,1.0999999999999999,-0.5235987755982988,0.5235987755982988,0,0.39198336,-0.2045988,1.457186,0.83768916,0.7584491,0.21957625,0.43877438,0.40464073,-1.4394869,-0.21626168,-0.034999147,-0.1789284,0.9733143,0.7473118
