sanky1234/BimanualDexCatch/isaacgymenvs/cem_results/football_pose_0.0_0.0_1.1999999999999997_-0.5235987755982988_0.0_0_2025-05-26.csv
x,y,z,roll,pitch,yaw,robot1/joint1,robot1/joint2,robot1/joint3,robot1/joint4,robot1/joint5,robot1/joint6,robot1/joint7,robot2/joint1,robot2/joint2,robot2/joint3,robot2/joint4,robot2/joint5,robot2/joint6,robot2/joint7
0.0,0.0,1.1999999999999997,-0.5235987755982988,0.0,0,0.36748582,-1.1487451,-0.4903034,-0.13487394,0.2621039,1.2131094,0.07720608,-1.9998918,1.3183936,-0.17917232,-0.0517202,-0.23963332,1.1884662,0.45017835
0.0,0.0,1.1999999999999997,-0.5235987755982988,0.0,0,0.36747473,-1.1484078,-0.49043107,-0.11591178,0.18977849,1.1183681,-0.12847777,-2.0062706,1.3379872,-0.06667043,-0.006922745,-0.18371889,1.1292162,0.33458942
0.0,0.0,1.1999999999999997,-0.5235987755982988,0.0,0,0.3677696,-1.1491091,-0.49243495,-0.083280124,0.4813638,1.040565,-1.1802028,-2.0040123,1.3377991,-0.014393154,-0.09759305,-0.08942832,1.0617639,0.5880624
0.0,0.0,1.1999999999999997,-0.5235987755982988,0.0,0,0.36718336,-1.1475154,-0.4898548,-0.08671847,-0.23839276,1.0755211,0.118059486,-2.0063484,1.3249569,-0.040708553,-0.06743193,-0.10259543,1.3126528,1.0270284
0.0,0.0,1.1999999999999997,-0.5235987755982988,0.0,0,0.36750525,-1.148197,-0.4874725,-0.13355228,-0.019174783,1.0703067,-0.08239576,-2.0028515,1.3253473,-0.053281587,-0.088057816,-0.30854842,1.09837,2.2747414
0.0,0.0,1.1999999999999997,-0.5235987755982988,0.0,0,0.36816618,-1.147986,-0.48832446,-0.0771736,0.09915621,1.0738307,0.6228598,-2.0076096,1.3239385,-0.024491863,-0.058340523,-0.16683753,1.1799177,1.0546736
0.0,0.0,1.1999999999999997,-0.5235987755982988,0.0,0,0.36735958,-1.1478322,-0.48905054,-0.06297332,-0.020198597,1.1716663,-0.08212801,-2.0048163,1.3481159,-0.102905504,-0.05196818,-0.069443054,1.2682925,-0.2399181
0.0,0.0,1.1999999999999997,-0.5235987755982988,0.0,0,0.3680014,-1.1488491,-0.4874203,-0.061778877,0.3095554,1.147361,-0.7709698,-2.0019867,1.3119826,-0.039249327,-0.09138032,-0.052774675,1.158323,0.47319397
0.0,0.0,1.1999999999999997,-0.5235987755982988,0.0,0,0.36763307,-1.1479812,-0.49079832,-0.09502156,-0.22907497,1.1543211,-0.045493007,-2.008656,1.3374203,-0.0720555,-0.08804074,-0.10054708,1.2836853,-0.97079295
0.0,0.0,1.1999999999999997,-0.5235987755982988,0.0,0,0.3680505,-1.1492635,-0.48948234,-0.0645004,0.32163233,1.2631984,0.051517565,-2.006432,1.3315725,-0.066664636,-0.0078371065,-0.26037747,1.0778185,1.225639
0.0,0.0,1.1999999999999997,-0.5235987755982988,0.0,0,0.36721542,-1.1488739,-0.48914543,-0.10970815,-0.05196524,1.2446805,-0.15549105,-2.0024776,1.3251499,-0.078113385,-0.036771223,-0.27702397,1.1970508,2.1837487
0.0,0.0,1.1999999999999997,-0.5235987755982988,0.0,0,0.3675472,-1.1484103,-0.48598954,-0.12179642,0.019976964,1.1141574,0.18858255,-1.9991792,1.3256462,-0.04692477,-0.060769107,-0.11206422,1.1976683,0.28436702
0.0,0.0,1.1999999999999997,-0.5235987755982988,0.0,0,0.36749533,-1.1492563,-0.48674887,-0.099404536,0.07947753,1.0646013,-0.40704438,-2.0038135,1.3290178,-0.14068231,-0.034877405,-0.34461692,1.0197971,2.0060806
0.0,0.0,1.1999999999999997,-0.5235987755982988,0.0,0,0.36790186,-1.1473944,-0.49087185,-0.07749978,0.5012957,1.0635209,-0.29425266,-1.9981292,1.3355647,-0.06769216,-0.087759495,-0.3547623,1.123211,-1.3669202
0.0,0.0,1.1999999999999997,-0.5235987755982988,0.0,0,0.3677947,-1.1491677,-0.48980847,-0.13050875,-0.23261793,1.0931875,0.19624065,-2.0000503,1.3122197,-0.043685135,-0.073351525,-0.117192894,1.0296245,2.395431
0.0,0.0,1.1999999999999997,-0.5235987755982988,0.0,0,0.36787933,-1.1483763,-0.4887775,-0.15630448,-0.1702493,1.1222702,0.16552785,-2.001844,1.334133,-0.02024272,-0.060590703,-0.36234206,1.0763922,-1.2098256
0.0,0.0,1.1999999999999997,-0.5235987755982988,0.0,0,0.36756334,-1.1474864,-0.4873667,-0.06998635,0.43154174,1.1268307,-0.6421555,-1.9996169,1.3412759,-0.1023554,-0.019996945,-0.21252878,1.165377,0.34899926
0.0,0.0,1.1999999999999997,-0.5235987755982988,0.0,0,0.3676863,-1.1488494,-0.49152026,-0.0498273,0.10438107,1.19503,-0.6458801,-2.0010915,1.3364674,-0.03597169,-0.052718177,-0.19878402,1.1345322,0.4649831
0.0,0.0,1.1999999999999997,-0.5235987755982988,0.0,0,0.3671766,-1.1491588,-0.4893292,-0.0787175,-0.038287375,1.1710433,-0.17649181,-2.0012832,1.3096014,-0.03390678,-0.07002536,-0.30543563,1.2924511,0.09494278
0.0,0.0,1.1999999999999997,-0.5235987755982988,0.0,0,0.36749467,-1.1479315,-0.48851812,-0.090101406,0.028126324,1.1867146,-0.0021223002,-1.9981517,1.33129,-0.086142235,-0.104113355,-0.10138365,1.1262485,0.49334693
0.0,0.0,1.1999999999999997,-0.5235987755982988,0.0,0,0.3675137,-1.1481824,-0.49036595,-0.087986395,0.026415773,1.1774874,-0.17963359,-1.9980985,1.3143257,-0.009778203,-0.04288245,-0.12529789,1.2514024,0.031367626
0.0,0.0,1.1999999999999997,-0.5235987755982988,0.0,0,0.36754614,-1.1474917,-0.48623067,-0.13054074,-0.061368007,1.0818232,-0.8786571,-1.998285,1.3259332,-0.17880784,-0.058230918,-0.2373177,0.9492626,-0.09107479
0.0,0.0,1.1999999999999997,-0.5235987755982988,0.0,0,0.36833578,-1.1485348,-0.48915645,-0.14922689,0.48586932,1.1625123,0.16699946,-2.0016859,1.3187922,-0.13640696,-0.12515736,-0.03356219,1.1910263,0.9732122
0.0,0.0,1.1999999999999997,-0.5235987755982988,0.0,0,0.3675004,-1.1492592,-0.4902218,-0.10458201,0.06066948,1.1509967,-0.17183319,-2.0004282,1.31362,-0.04953843,-0.060295653,-0.26301274,1.0771117,0.26628715
0.0,0.0,1.1999999999999997,-0.5235987755982988,0.0,0,0.36735132,-1.1490427,-0.48704505,-0.13604304,0.09498965,1.1889589,-0.59723073,-2.0050738,1.3219534,-0.004581019,-0.07429576,-0.3361989,1.2313606,-0.19988243
0.0,0.0,1.1999999999999997,-0.5235987755982988,0.0,0,0.36813033,-1.1490973,-0.49073762,-0.04281861,0.41243306,1.1100368,0.5291467,-2.0060117,1.3284754,-0.12866813,-0.075087,-0.117252946,1.0316105,1.3913423
0.0,0.0,1.1999999999999997,-0.5235987755982988,0.0,0,0.3673975,-1.1467117,-0.4927077,-0.122168496,0.2622152,1.1692374,-0.3626604,-1.9997184,1.3240935,-0.07404643,-0.06208371,-0.28465903,1.0900574,1.1186203
0.0,0.0,1.1999999999999997,-0.5235987755982988,0.0,0,0.3675389,-1.1477106,-0.48826626,-0.08810818,0.309864,1.1560686,-0.0552792,-1.9985087,1.3197873,-0.084509455,-0.08002261,-0.035288155,1.2047836,1.1201009
0.0,0.0,1.1999999999999997,-0.5235987755982988,0.0,0,0.367912,-1.1495502,-0.48815775,-0.11446768,0.16429377,1.1818657,0.13527556,-2.0029619,1.3295972,-0.07882641,-0.14171347,-0.2541137,1.2389071,0.8585366
0.0,0.0,1.1999999999999997,-0.5235987755982988,0.0,0,0.36776832,-1.148816,-0.48865154,-0.07241606,-0.110484734,1.1888155,-0.6250025,-2.0018528,1.3317074,-0.058555525,-0.06313247,-0.1723339,1.00197,-0.808641
0.0,0.0,1.1999999999999997,-0.5235987755982988,0.0,0,0.36790198,-1.1489735,-0.49090335,-0.09982898,0.24574292,1.1991439,-0.20914137,-2.0016809,1.3167005,-0.03237153,-0.10912068,-0.16267924,1.3671179,0.8646925
0.0,0.0,1.1999999999999997,-0.5235987755982988,0.0,0,0.36804006,-1.1480994,-0.49155563,-0.093637265,0.06686945,1.1180643,0.5320549,-2.0032318,1.3264347,-0.085654095,-0.14094041,-0.3095235,1.3554606,2.5666873
0.0,0.0,1.1999999999999997,-0.5235987755982988,0.0,0,0.36751637,-1.1487006,-0.4889622,-0.061644483,0.02299096,1.1465696,0.59996784,-2.0021536,1.3427417,-0.1278072,-0.05908059,-0.25067556,1.2402864,1.352097
0.0,0.0,1.1999999999999997,-0.5235987755982988,0.0,0,0.36733928,-1.1482719,-0.48549247,-0.09834754,0.065278865,1.1227397,-0.14511938,-2.0039105,1.3279841,-0.08340908,-0.007463694,-0.036462065,1.1893834,-0.60006356
0.0,0.0,1.1999999999999997,-0.5235987755982988,0.0,0,0.367717,-1.1474862,-0.48948398,-0.012096684,0.13097,1.1455262,-0.32336923,-1.9972773,1.3309178,-0.03317353,-0.082526825,-0.12064861,1.0564626,-0.08082268
0.0,0.0,1.1999999999999997,-0.5235987755982988,0.0,0,0.3671998,-1.1486794,-0.48706672,-0.11775892,0.39134145,1.064109,0.35534194,-2.0023475,1.3351456,-0.05559699,-0.053059224,-0.2580646,1.1236619,0.6603804
0.0,0.0,1.1999999999999997,-0.5235987755982988,0.0,0,0.36745885,-1.1479952,-0.4869352,-0.10515759,-0.068862736,1.0901291,-0.09718027,-1.9990597,1.340756,-0.080391444,-0.05679565,-0.14984798,1.2418654,1.4409944
0.0,0.0,1.1999999999999997,-0.5235987755982988,0.0,0,0.36715725,-1.148044,-0.4877234,-0.06549059,-0.15531841,1.1887621,-0.4698853,-2.0017002,1.3239692,-0.073133506,-0.026631357,-0.23426834,0.978557,1.0186883
0.0,0.0,1.1999999999999997,-0.5235987755982988,0.0,0,0.3672264,-1.1490341,-0.490563,-0.079207264,0.1899188,1.0099658,-0.2571556,-1.9997568,1.3316638,-0.03779793,-0.11803688,-0.2601671,1.2112424,0.13998593
0.0,0.0,1.1999999999999997,-0.5235987755982988,0.0,0,0.367922,-1.1482251,-0.49011493,-0.079836756,0.27952853,1.1693071,0.566462,-2.00503,1.3238672,-0.13251676,-0.04058494,-0.2131226,1.1776769,2.1011198
0.0,0.0,1.1999999999999997,-0.5235987755982988,0.0,0,0.3679577,-1.1496267,-0.4882938,-0.113930434,0.12960345,1.1078186,-0.24756254,-2.0047996,1.3234946,-0.056144465,-0.11777585,-0.26821923,1.1574497,0.6968495
0.0,0.0,1.1999999999999997,-0.5235987755982988,0.0,0,0.3682776,-1.1488702,-0.48678613,-0.09874094,0.20912759,1.1067356,-0.08566237,-2.0015867,1.3124429,-0.12322755,-0.09293031,-0.28327218,1.0699861,0.30040762
0.0,0.0,1.1999999999999997,-0.5235987755982988,0.0,0,0.3677949,-1.1487685,-0.49298668,-0.05094806,0.13280848,1.2059169,0.06968951,-2.0063927,1.3282067,-0.024640169,-0.106406085,-0.07775934,1.2349734,-0.69076335
0.0,0.0,1.1999999999999997,-0.5235987755982988,0.0,0,0.3678089,-1.1483743,-0.4917176,-0.08804516,0.5738657,1.0368065,-0.2936297,-2.0012581,1.3294251,-0.021413516,-0.0862401,-0.24728599,1.2741023,0.27278697
0.0,0.0,1.1999999999999997,-0.5235987755982988,0.0,0,0.3668569,-1.1490705,-0.48968798,-0.17268254,0.17769231,1.1319466,0.18493289,-2.0024717,1.3219024,-0.028473783,-0.00994613,-0.25755978,1.2171044,-0.6731367
0.0,0.0,1.1999999999999997,-0.5235987755982988,0.0,0,0.36793563,-1.1476319,-0.4902868,-0.12709075,-0.22045925,1.093314,-0.08815541,-2.003381,1.3271302,-0.12047018,-0.12148775,-0.061825722,1.1521726,1.4678848
0.0,0.0,1.1999999999999997,-0.5235987755982988,0.0,0,0.3672624,-1.1483525,-0.48796225,-0.13536894,0.19567473,1.1339194,0.015994363,-2.0052118,1.3277769,-0.06427804,-0.03706261,-0.3587644,1.0277262,-0.09897095
0.0,0.0,1.1999999999999997,-0.5235987755982988,0.0,0,0.36781505,-1.14845,-0.49247614,-0.06927065,-0.032459255,1.2200395,-0.24058634,-2.003664,1.3313717,-0.08976459,-0.13504663,-0.10560016,1.236501,-0.85392594
0.0,0.0,1.1999999999999997,-0.5235987755982988,0.0,0,0.36797446,-1.1487522,-0.49199808,-0.07226581,0.03244227,1.1317645,-0.26640812,-2.003257,1.3340877,-0.04541995,-0.07459668,-0.28369102,0.98641485,-0.86455584
0.0,0.0,1.1999999999999997,-0.5235987755982988,0.0,0,0.36721897,-1.1480135,-0.49068826,-0.099685155,0.23388542,1.15946,-0.52451545,-2.0002134,1.3441974,-0.09262456,-0.077303365,-0.26274243,1.094732,-0.2558405
0.0,0.0,1.1999999999999997,-0.5235987755982988,0.0,0,0.36723056,-1.1481385,-0.48894915,-0.0980825,0.0922668,1.1413451,-0.4327269,-2.0068028,1.326576,-0.048830427,-0.11312984,-0.14985643,0.9375306,-0.4915999
0.0,0.0,1.1999999999999997,-0.5235987755982988,0.0,0,0.36834422,-1.1481531,-0.49055216,-0.057805274,0.15280528,1.2360569,0.0738537,-2.0024867,1.3164935,-0.044346027,-0.118103325,-0.1183821,1.3214954,-0.20182557
0.0,0.0,1.1999999999999997,-0.5235987755982988,0.0,0,0.36763337,-1.1484499,-0.4941697,-0.13263945,-0.060163114,1.2324117,-1.2954568,-2.0009308,1.3401966,-0.10171906,-0.10465343,-0.27324325,1.1969682,0.42028046
0.0,0.0,1.1999999999999997,-0.5235987755982988,0.0,0,0.36726323,-1.1484429,-0.4874064,-0.074762374,0.0143528115,1.1334125,0.13910718,-2.0019617,1.3273677,-0.13527188,-0.07588765,-0.1416863,1.2978771,-0.59916884
0.0,0.0,1.1999999999999997,-0.5235987755982988,0.0,0,0.36800703,-1.1479988,-0.48970264,-0.0546262,0.16833773,1.1370721,-0.17633252,-2.0008948,1.3186934,-0.06408081,-0.10389063,-0.18389829,1.1056774,1.5987592
0.0,0.0,1.1999999999999997,-0.5235987755982988,0.0,0,0.36801967,-1.149582,-0.4913356,-0.097940676,0.45787364,1.2049015,-0.6556539,-2.0042043,1.3201804,-0.052926257,-0.10889538,-0.20613499,1.1211711,-0.2576191
0.0,0.0,1.1999999999999997,-0.5235987755982988,0.0,0,0.367785,-1.1485171,-0.48762295,-0.12744544,-0.06942513,1.0244846,-0.6599366,-2.0039082,1.3347145,-0.05059564,-0.071118064,-0.23246405,1.185966,2.220945
0.0,0.0,1.1999999999999997,-0.5235987755982988,0.0,0,0.36697453,-1.1493621,-0.49001145,-0.093615316,-0.0010937105,1.146366,0.55231875,-2.0037622,1.3106947,0.014889085,-0.09472336,-0.2375915,1.2143766,0.50811714
0.0,0.0,1.1999999999999997,-0.5235987755982988,0.0,0,0.36780873,-1.147944,-0.48856723,-0.10057007,-0.12670247,1.1249642,-0.047504596,-2.0018637,1.3339341,-0.008272239,-0.087674454,-0.2460962,1.1709739,0.140656
0.0,0.0,1.1999999999999997,-0.5235987755982988,0.0,0,0.36762777,-1.1490394,-0.4889158,-0.10060696,0.09598057,1.1435307,-0.5498337,-2.0059845,1.3324991,-0.0941001,-0.10021212,-0.023494493,0.9874313,-0.009258773
0.0,0.0,1.1999999999999997,-0.5235987755982988,0.0,0,0.36699545,-1.1479607,-0.48613113,-0.1328786,0.1180472,1.1187464,0.1638398,-2.0036821,1.3203896,-0.018915353,-0.07427974,-0.13010351,1.139536,-1.2807244
0.0,0.0,1.1999999999999997,-0.5235987755982988,0.0,0,0.3673143,-1.1482619,-0.4893037,-0.094615,-0.07111614,1.1191651,0.17417492,-1.9994464,1.3231106,0.006454598,-0.10899765,-0.22637828,1.1806918,-0.59983474
0.0,0.0,1.1999999999999997,-0.5235987755982988,0.0,0,0.36755544,-1.1483161,-0.48910382,-0.09686537,-0.3621982,1.0722588,0.5078657,-2.0044553,1.3229755,0.009576557,-0.12811342,-0.24407002,1.0971724,0.1623887
0.0,0.0,1.1999999999999997,-0.5235987755982988,0.0,0,0.36743614,-1.1484668,-0.48871994,-0.13764864,0.5294477,1.1290327,-0.0032269228,-2.0054555,1.3341734,-0.03630483,-0.14319956,-0.067541145,1.2263607,1.0926665
0.0,0.0,1.1999999999999997,-0.5235987755982988,0.0,0,0.36740255,-1.1476272,-0.48922604,-0.10413783,0.40107557,1.1520425,-0.28482637,-2.0026705,1.3381017,-0.1473922,-0.0871534,-0.23269081,1.0935494,-0.17056
0.0,0.0,1.1999999999999997,-0.5235987755982988,0.0,0,0.36795354,-1.1475378,-0.48815244,-0.05249117,-0.09971694,1.1654191,0.30374926,-2.0018802,1.3072057,-0.09510231,-0.08094541,-0.17550771,1.1747286,0.5319936
0.0,0.0,1.1999999999999997,-0.5235987755982988,0.0,0,0.36664262,-1.1481705,-0.49061233,-0.11714656,0.3937505,1.1843629,-0.3895234,-1.9989468,1.3168075,-0.06343539,-0.07705918,-0.25242016,1.274547,0.1149435
0.0,0.0,1.1999999999999997,-0.5235987755982988,0.0,0,0.36746448,-1.1475612,-0.48854095,-0.13008918,0.3267528,1.1485994,-0.46797603,-2.004354,1.3354281,-0.18164816,-0.0956345,-0.18433416,1.138957,3.110386
0.0,0.0,1.1999999999999997,-0.5235987755982988,0.0,0,0.36752343,-1.1474221,-0.491689,-0.047044724,0.0077932337,1.144269,-0.3408005,-2.0016513,1.3143635,-0.055584285,-0.1025289,-0.15606523,1.2282467,-0.35364562
0.0,0.0,1.1999999999999997,-0.5235987755982988,0.0,0,0.36711943,-1.1474239,-0.49091417,-0.06342319,0.32359424,1.2167631,-0.14140163,-2.0049095,1.3289366,0.0074184844,-0.087683335,-0.22033867,1.0684773,0.7606213
0.0,0.0,1.1999999999999997,-0.5235987755982988,0.0,0,0.36756995,-1.1489068,-0.49168578,-0.06519638,0.06401612,1.0634149,-0.79573846,-2.0042388,1.3184979,-0.042965136,-0.06639298,-0.16924886,1.0268835,0.8084914
0.0,0.0,1.1999999999999997,-0.5235987755982988,0.0,0,0.3678809,-1.1481906,-0.49014017,-0.091618314,-0.13041116,1.1187767,0.6684683,-2.0000377,1.3262855,-0.15218304,-0.08305192,-0.0933173,1.2890911,-1.0723919
0.0,0.0,1.1999999999999997,-0.5235987755982988,0.0,0,0.36784145,-1.1490349,-0.49194387,-0.11094155,0.12335325,1.0494897,0.13321584,-2.0037,1.3211184,-0.09564229,-0.04736966,-0.12536064,1.0617497,1.0061669
0.0,0.0,1.1999999999999997,-0.5235987755982988,0.0,0,0.36739835,-1.147246,-0.48974857,-0.061051812,0.6750878,1.0982617,-0.081806704,-2.0046446,1.3350004,-0.11376324,-0.09321747,-0.2564941,1.1660696,0.47378382
0.0,0.0,1.1999999999999997,-0.5235987755982988,0.0,0,0.36679652,-1.1484381,-0.4880826,-0.08252426,0.11179595,1.1217804,-0.7922854,-2.00584,1.3312782,-0.06131569,-0.07742074,-0.17148335,1.2520086,-0.48910448
0.0,0.0,1.1999999999999997,-0.5235987755982988,0.0,0,0.3678875,-1.1492823,-0.4899908,-0.13106284,0.16658485,1.0674356,0.19172098,-2.009771,1.3320125,0.016281692,-0.06743387,-0.21782728,1.064961,1.3233525
0.0,0.0,1.1999999999999997,-0.5235987755982988,0.0,0,0.3668477,-1.148555,-0.48977277,-0.09765178,0.3274711,1.1770079,0.32022932,-2.005221,1.314938,-0.06474734,-0.1231426,-0.2505184,1.2028555,0.27976915
0.0,0.0,1.1999999999999997,-0.5235987755982988,0.0,0,0.36715454,-1.1468663,-0.49050906,-0.14688109,0.1786079,1.0581238,-0.7170858,-2.0013008,1.3260427,-0.057671968,-0.04836627,-0.07605057,1.2163135,-0.07561716
0.0,0.0,1.1999999999999997,-0.5235987755982988,0.0,0,0.36759454,-1.1476562,-0.48907238,-0.12188658,-0.049964245,1.1330063,-0.44447887,-2.0054338,1.329282,0.011132739,-0.07826848,-0.29469192,1.1564113,0.03671551
0.0,0.0,1.1999999999999997,-0.5235987755982988,0.0,0,0.3675648,-1.149538,-0.48967484,-0.121399306,0.072262995,1.0659425,0.27328596,-2.0070448,1.3289657,-0.09116655,-0.09940359,-0.25613448,1.2110026,0.40748405
0.0,0.0,1.1999999999999997,-0.5235987755982988,0.0,0,0.36744103,-1.1489304,-0.4951226,-0.142656,0.21680218,1.1597043,-0.53895974,-1.9998449,1.3257239,-0.052327707,-0.05950153,-0.20905013,1.2248611,0.16345201
0.0,0.0,1.1999999999999997,-0.5235987755982988,0.0,0,0.36758018,-1.1480892,-0.49126148,-0.1316258,0.22342975,1.0749285,0.057295997,-2.005225,1.3377595,-0.11487126,-0.1412277,-0.29231247,1.2402724,0.75954145
0.0,0.0,1.1999999999999997,-0.5235987755982988,0.0,0,0.36740148,-1.1482716,-0.49240413,-0.07725892,0.12810747,1.1140615,-0.069087975,-2.003855,1.3301479,-0.105916835,-0.06924816,-0.28369653,1.1053337,0.8449814
0.0,0.0,1.1999999999999997,-0.5235987755982988,0.0,0,0.367616,-1.1478728,-0.4901396,-0.12515183,0.34841654,1.1292243,-0.66439366,-2.006501,1.331491,-0.090159684,-0.0741977,-0.22660616,1.024661,0.75904924
0.0,0.0,1.1999999999999997,-0.5235987755982988,0.0,0,0.3670796,-1.1477333,-0.48990953,-0.07557348,0.3553924,1.0558194,0.1619667,-2.005595,1.3249234,-0.026385358,-0.053671986,-0.3245966,1.1739887,1.6958457
0.0,0.0,1.1999999999999997,-0.5235987755982988,0.0,0,0.36783424,-1.1471001,-0.49021915,-0.078609735,0.14562774,1.0718516,-0.4519223,-2.003432,1.3328114,-0.042538423,-0.08225483,-0.06586878,1.1957589,0.2986145
0.0,0.0,1.1999999999999997,-0.5235987755982988,0.0,0,0.36751652,-1.1485447,-0.4916292,-0.10143542,0.23178445,1.165111,-0.9397783,-2.0055714,1.3219625,-0.06560145,-0.1307623,-0.22505991,1.2721413,1.544425
0.0,0.0,1.1999999999999997,-0.5235987755982988,0.0,0,0.36706907,-1.148253,-0.4926643,-0.13608424,0.25498027,1.2191346,-0.36634117,-2.0044072,1.3214159,-0.12680055,-0.052133657,-0.057595555,1.268768,1.0905211
0.0,0.0,1.1999999999999997,-0.5235987755982988,0.0,0,0.3671744,-1.147483,-0.48971847,0.005233679,0.06483407,1.0983741,-0.080204435,-2.0033824,1.3202356,-0.01863399,-0.13487037,-0.2331996,1.1776993,-0.016589584
0.0,0.0,1.1999999999999997,-0.5235987755982988,0.0,0,0.3680061,-1.1478136,-0.4894401,-0.09694852,-0.08114908,1.1833698,-0.76181537,-2.006212,1.3193027,-0.110629775,-0.01840459,-0.2010663,1.1124716,0.5999914
0.0,0.0,1.1999999999999997,-0.5235987755982988,0.0,0,0.36768442,-1.1482924,-0.4898118,-0.07929764,-0.01234665,0.9523033,-0.3739532,-2.0064342,1.3320849,-0.037542272,-0.061304346,-0.1643017,1.2933679,-0.32363647
0.0,0.0,1.1999999999999997,-0.5235987755982988,0.0,0,0.36763674,-1.1487018,-0.48931235,-0.049470123,-0.28931946,1.1365175,0.55145514,-2.0086308,1.3175405,-0.060887374,-0.084888466,-0.22207443,1.127029,-0.6200107
0.0,0.0,1.1999999999999997,-0.5235987755982988,0.0,0,0.3674002,-1.1468893,-0.4882907,-0.1256139,0.3011459,1.2126492,-0.73214126,-2.0040972,1.3168019,-0.032932453,-0.013099169,-0.2246516,1.0715994,1.2921802
0.0,0.0,1.1999999999999997,-0.5235987755982988,0.0,0,0.3673635,-1.1497729,-0.4920041,-0.069932155,0.30078152,1.121157,-0.15826124,-2.0074377,1.3314817,-0.049527563,-0.052213967,-0.14569722,1.3722309,0.8938744
0.0,0.0,1.1999999999999997,-0.5235987755982988,0.0,0,0.36794934,-1.1482775,-0.49240488,-0.11715019,-0.02381853,1.0744287,-0.40054265,-2.0042107,1.3236889,-0.11778434,-0.085122116,-0.1513935,1.2278084,1.5525402
0.0,0.0,1.1999999999999997,-0.5235987755982988,0.0,0,0.36712494,-1.1475538,-0.49195373,-0.03471544,0.22470453,1.2715571,-0.23353107,-2.0045147,1.3066328,-0.06928899,-0.10036985,-0.25186378,1.0536015,-0.38202837
0.0,0.0,1.1999999999999997,-0.5235987755982988,0.0,0,0.36782348,-1.1485132,-0.48871613,-0.094762154,0.03139319,1.189789,-0.25909516,-2.0066447,1.3243781,-0.118191235,-0.037598744,-0.111147456,1.1767616,-0.41456798
0.0,0.0,1.1999999999999997,-0.5235987755982988,0.0,0,0.36765495,-1.1481669,-0.490481,-0.102508545,0.15233453,1.1276143,-0.47548276,-2.0060813,1.3301169,-0.08657006,-0.06514524,-0.1519143,1.2729882,2.6417332
0.0,0.0,1.1999999999999997,-0.5235987755982988,0.0,0,0.36755887,-1.1481148,-0.49019718,-0.12388121,0.46419168,1.1950146,0.20847131,-2.00722,1.319437,-0.097095005,-0.109830335,-0.342056,0.9892033,-2.032213
0.0,0.0,1.1999999999999997,-0.5235987755982988,0.0,0,0.36676893,-1.1483421,-0.4911762,-0.119098656,0.22565165,1.1767067,-0.08869838,-2.0077016,1.323546,-0.105633706,-0.0050203186,-0.33063856,1.117017,-0.6040625
0.0,0.0,1.1999999999999997,-0.5235987755982988,0.0,0,0.36776757,-1.1480086,-0.49003392,-0.11108225,0.26267028,1.1757405,-0.17833142,-2.0029454,1.3228958,-0.13093981,-0.09621645,-0.16666168,1.1865814,0.43104166
0.0,0.0,1.1999999999999997,-0.5235987755982988,0.0,0,0.36813742,-1.1476668,-0.48824647,-0.16479109,0.10036221,1.133842,-0.48752075,-2.0060782,1.3236628,-0.12436462,-0.0760928,-0.21930219,1.129556,1.2221112
0.0,0.0,1.1999999999999997,-0.5235987755982988,0.0,0,0.3672026,-1.1479411,-0.4886205,-0.1073307,0.122801274,1.1891974,-0.026726319,-2.0088048,1.3242716,-0.08249111,-0.12177763,-0.19637161,1.1207907,-0.4920885
0.0,0.0,1.1999999999999997,-0.5235987755982988,0.0,0,0.3668702,-1.1487776,-0.49371186,-0.11218075,0.055431418,1.1538957,-0.16739412,-2.007552,1.3230758,-0.12634258,-0.103061885,-0.16584086,1.1930444,0.23442936
0.0,0.0,1.1999999999999997,-0.5235987755982988,0.0,0,0.36775532,-1.147617,-0.4919925,-0.060806695,0.40527192,1.121223,0.4823249,-2.0042005,1.3212838,-0.118347555,-0.098578535,-0.11602944,1.1997244,-0.73255235
0.0,0.0,1.1999999999999997,-0.5235987755982988,0.0,0,0.36705363,-1.1488223,-0.49327698,-0.08402701,0.1415884,1.2540951,-1.0319185,-2.0098636,1.315305,-0.050541542,-0.16319229,-0.21500042,1.164712,0.9107897
0.0,0.0,1.1999999999999997,-0.5235987755982988,0.0,0,0.36746603,-1.147148,-0.49321043,-0.11221256,0.21239722,1.1488225,0.05523755,-2.0059195,1.3312802,-0.011166769,-0.088300586,-0.121809654,1.108052,0.40677887
0.0,0.0,1.1999999999999997,-0.5235987755982988,0.0,0,0.36747864,-1.1486897,-0.49230754,-0.041450217,0.21518686,1.1376386,0.08928409,-2.0082617,1.327033,-0.03617576,-0.0982776,-0.26421916,1.2176417,-0.03832082
0.0,0.0,1.1999999999999997,-0.5235987755982988,0.0,0,0.3677861,-1.1484255,-0.4894179,-0.08043099,0.3332815,1.1235863,-0.84949815,-2.00878,1.3203447,-0.09877483,-0.04195167,-0.30857107,1.1932518,-0.4394091
0.0,0.0,1.1999999999999997,-0.5235987755982988,0.0,0,0.36734727,-1.147535,-0.49157625,-0.11741653,0.10130621,1.1014351,-0.6534948,-2.0075293,1.3153882,-0.087997615,-0.08135492,-0.21379387,1.1816603,-0.9007424
0.0,0.0,1.1999999999999997,-0.5235987755982988,0.0,0,0.36737484,-1.1484655,-0.49285245,-0.14566231,0.11242239,1.1637208,-0.5271257,-2.007771,1.326511,-0.06738847,-0.10751632,-0.23141369,1.2116101,0.08001225
0.0,0.0,1.1999999999999997,-0.5235987755982988,0.0,0,0.36760852,-1.1482816,-0.48967072,-0.112318665,0.2514311,1.1522907,-0.5833526,-2.010406,1.3280579,-0.02184083,-0.0742137,-0.14203343,1.2810731,0.12016453
0.0,0.0,1.1999999999999997,-0.5235987755982988,0.0,0,0.36709908,-1.1475948,-0.49111897,-0.121807866,0.37894103,1.1471256,-0.61694473,-2.0112689,1.3252842,-0.07714084,-0.07307044,-0.18090682,1.2329398,1.6191105
0.0,0.0,1.1999999999999997,-0.5235987755982988,0.0,0,0.36730126,-1.1478947,-0.49144563,-0.09681691,0.08876577,1.1958202,0.32211667,-2.0035548,1.3239076,-0.09394668,-0.10206284,-0.19136986,1.3868694,0.84137225
0.0,0.0,1.1999999999999997,-0.5235987755982988,0.0,0,0.36834383,-1.147755,-0.49063164,-0.097404376,-0.1356004,1.1845561,-0.10459787,-2.008229,1.3315105,-0.08994608,-0.085455924,-0.18431771,1.181302,0.61576796
0.0,0.0,1.1999999999999997,-0.5235987755982988,0.0,0,0.36806384,-1.147208,-0.48726413,-0.11933783,0.25466835,1.3774409,-0.05220855,-2.001044,1.3359454,-0.08464526,-0.066958524,-0.10121379,1.361594,0.49521005
0.0,0.0,1.1999999999999997,-0.5235987755982988,0.0,0,0.36771306,-1.1482829,-0.48974502,-0.074892245,-0.12114139,1.1897125,0.45131066,-2.0079439,1.3224279,-0.08120305,-0.09657269,-0.23375827,1.4250767,-0.28423497
0.0,0.0,1.1999999999999997,-0.5235987755982988,0.0,0,0.3671344,-1.1483228,-0.48575553,-0.092976056,-0.2759974,1.1147983,-0.76201975,-2.0079627,1.3208821,-0.09034563,-0.06999783,-0.17433421,1.2484559,0.12806901
0.0,0.0,1.1999999999999997,-0.5235987755982988,0.0,0,0.36712402,-1.1489179,-0.4893043,-0.056132194,-0.17360082,1.1018319,-0.6290851,-2.003657,1.3196255,-0.12628892,-0.12521566,-0.24823812,1.228194,0.7135272
0.0,0.0,1.1999999999999997,-0.5235987755982988,0.0,0,0.3669771,-1.1497471,-0.48642027,-0.08608273,0.31505543,1.2535596,-0.48856315,-2.0057242,1.3150625,-0.11339548,-0.12276027,-0.2711881,1.2451661,1.7178072
0.0,0.0,1.1999999999999997,-0.5235987755982988,0.0,0,0.36760074,-1.1480697,-0.48885304,-0.08192905,0.1500821,1.072371,-0.19820192,-2.0021937,1.328766,-0.14045219,-0.014311397,-0.22276196,1.1167059,-0.60877234
0.0,0.0,1.1999999999999997,-0.5235987755982988,0.0,0,0.36773083,-1.1485945,-0.49010718,-0.121322446,-0.1765534,1.1393906,-1.2776458,-2.0020313,1.3254707,-0.1599606,-0.04607896,-0.23845759,1.0835195,-0.2556237
0.0,0.0,1.1999999999999997,-0.5235987755982988,0.0,0,0.36703172,-1.1479486,-0.49146038,-0.04236442,-0.1283104,1.0946913,0.22663844,-1.9991692,1.3407195,-0.11450947,-0.07557975,-0.3850177,1.2165936,0.63291883
0.0,0.0,1.1999999999999997,-0.5235987755982988,0.0,0,0.3672706,-1.1478902,-0.4885672,-0.1168791,0.40680552,1.067384,-0.72438616,-2.008131,1.3355364,-0.16024792,-0.11504763,-0.1635338,1.307476,-0.46003276
0.0,0.0,1.1999999999999997,-0.5235987755982988,0.0,0,0.36759478,-1.1484324,-0.488546,-0.09401725,0.039861873,1.146782,-0.22466846,-2.0047152,1.3425741,-0.12663274,-0.05050119,-0.32057795,1.2610048,-0.05517781
0.0,0.0,1.1999999999999997,-0.5235987755982988,0.0,0,0.36783114,-1.147728,-0.48910397,-0.1315617,0.17796135,1.2123599,-0.10495446,-1.9995519,1.3305486,-0.12538342,-0.05441438,-0.40613496,1.3630164,-0.61726123
0.0,0.0,1.1999999999999997,-0.5235987755982988,0.0,0,0.36676458,-1.1489006,-0.4925714,-0.14923534,0.11892073,1.182244,-0.6995692,-1.9986634,1.3193487,-0.0121525675,-0.12660062,-0.21964575,1.1984504,-0.69739
0.0,0.0,1.1999999999999997,-0.5235987755982988,0.0,0,0.3668439,-1.1479034,-0.49229756,-0.052581564,0.24123177,1.1523292,-0.44349214,-2.0015233,1.3111966,-0.054849338,-0.030064246,-0.24919891,1.3382884,-1.1716301
0.0,0.0,1.1999999999999997,-0.5235987755982988,0.0,0,0.36787796,-1.1488343,-0.4918604,-0.12841679,0.33940643,1.0941234,0.24261832,-2.007038,1.3183392,-0.111748554,-0.029284464,-0.066781394,1.2127597,1.2237991
0.0,0.0,1.1999999999999997,-0.5235987755982988,0.0,0,0.3672305,-1.1479023,-0.49023187,-0.076000094,-0.1758689,1.1788568,-0.48214749,-2.0049536,1.3205338,-0.03476803,-0.04748081,-0.18781699,1.1666971,-0.78580564
0.0,0.0,1.1999999999999997,-0.5235987755982988,0.0,0,0.36723638,-1.1485094,-0.49124292,-0.05455344,-0.15040667,1.1382359,0.3234054,-2.008251,1.322131,-0.096709855,0.0014620507,-0.17933017,1.086018,1.9288908
0.0,0.0,1.1999999999999997,-0.5235987755982988,0.0,0,0.36790094,-1.148773,-0.49392444,-0.10087687,-0.09532831,1.2128471,-0.20732762,-2.0005772,1.3272729,-0.06498467,-0.071686335,-0.25588793,1.015429,-0.5029948
0.0,0.0,1.1999999999999997,-0.5235987755982988,0.0,0,0.36817008,-1.1480204,-0.49102077,-0.07536509,-0.1660578,1.2391498,0.47635487,-2.0018396,1.3273206,-0.07269451,-0.07972504,-0.1529001,1.0711725,-0.31889778
0.0,0.0,1.1999999999999997,-0.5235987755982988,0.0,0,0.36741313,-1.1494322,-0.4904664,-0.0506109,0.15510984,1.1729386,-0.3782568,-2.0056098,1.3181621,-0.04423859,-0.0768868,-0.22302927,1.3616872,-1.6135738
0.0,0.0,1.1999999999999997,-0.5235987755982988,0.0,0,0.3673077,-1.147882,-0.48929793,-0.011340962,0.028795911,1.1921836,-0.8035054,-2.0056238,1.3503666,-0.037717935,-0.045655005,-0.24084246,1.1151506,-0.20024574
0.0,0.0,1.1999999999999997,-0.5235987755982988,0.0,0,0.36705762,-1.1477208,-0.4896829,-0.10489933,-0.02795719,1.19983,-0.5997513,-2.0097063,1.3353266,-0.07434662,-0.03487188,-0.17062941,1.0428201,-0.61091924
0.0,0.0,1.1999999999999997,-0.5235987755982988,0.0,0,0.36780843,-1.1487556,-0.49159154,-0.10382381,-0.2682595,1.1221781,-0.3642822,-2.0082219,1.3238995,-0.110445045,-0.10255664,-0.110165276,1.1410742,2.1030686
0.0,0.0,1.1999999999999997,-0.5235987755982988,0.0,0,0.36767814,-1.1477959,-0.49209502,-0.0898833,0.042816397,1.2661763,0.17189384,-2.004374,1.3292613,-0.030144686,-0.07523282,-0.27409858,1.0442193,2.8259053
0.0,0.0,1.1999999999999997,-0.5235987755982988,0.0,0,0.36723843,-1.1478796,-0.4906138,-0.10180496,0.37582108,1.2125298,0.088090345,-2.0072045,1.3318542,-0.07099728,-0.06734854,-0.24597183,1.277035,-0.311944
0.0,0.0,1.1999999999999997,-0.5235987755982988,0.0,0,0.36783594,-1.1481115,-0.49039993,-0.09334925,-0.009553297,1.1144879,-0.0018507176,-2.0069287,1.3193007,-0.06387305,0.0064704833,-0.29875112,1.1440402,0.1018269
0.0,0.0,1.1999999999999997,-0.5235987755982988,0.0,0,0.36720398,-1.1475602,-0.49013263,-0.0766295,0.42900977,1.1340768,-0.6877985,-2.0054924,1.3339531,-0.023549516,-0.023480497,-0.27604368,1.157288,1.883481
0.0,0.0,1.1999999999999997,-0.5235987755982988,0.0,0,0.36833143,-1.1474525,-0.49160415,-0.11045675,-0.42599612,1.1385951,0.09754972,-2.0032578,1.3227077,-0.059611093,-0.075400084,-0.21547297,1.245538,0.7890974
0.0,0.0,1.1999999999999997,-0.5235987755982988,0.0,0,0.36695033,-1.1482472,-0.48865324,-0.12578064,0.109260164,1.1462355,-0.34989306,-2.0058515,1.3257465,-0.04250362,-0.033639517,-0.3417757,1.2137398,0.04114181
0.0,0.0,1.1999999999999997,-0.5235987755982988,0.0,0,0.36825973,-1.1475244,-0.48888,-0.10227302,-0.021156032,1.23988,0.12786855,-1.9981197,1.3250854,-0.0704908,-0.06636987,-0.32433924,1.2273571,-0.2230253
0.0,0.0,1.1999999999999997,-0.5235987755982988,0.0,0,0.36734533,-1.1489983,-0.4924103,-0.08223619,0.6196313,1.2056162,-0.35486364,-2.0047057,1.3478544,-0.12179606,-0.14883234,-0.327628,1.0440298,0.58061427
0.0,0.0,1.1999999999999997,-0.5235987755982988,0.0,0,0.36707717,-1.1476504,-0.4883027,-0.112840734,0.40827852,1.2601894,0.3937293,-1.9977584,1.3366548,-0.10640902,-0.08439309,-0.34736016,1.1978033,1.7604723
0.0,0.0,1.1999999999999997,-0.5235987755982988,0.0,0,0.36737624,-1.1489197,-0.48970667,-0.034526203,-0.0511714,1.1937175,0.63875014,-2.0062253,1.3184712,-0.073962875,-0.09233428,-0.29513866,1.2577914,0.33934826
0.0,0.0,1.1999999999999997,-0.5235987755982988,0.0,0,0.36768198,-1.1480867,-0.48482138,-0.07515836,0.1274159,1.2023044,-0.11395031,-2.0014586,1.3365122,-0.11269434,-0.04086374,-0.24575464,1.0882171,0.5253701
0.0,0.0,1.1999999999999997,-0.5235987755982988,0.0,0,0.36826238,-1.1481754,-0.49160373,-0.06019195,0.10910494,1.1696918,-0.1642301,-2.0006738,1.330277,-0.12418437,-0.030328576,-0.3337358,1.1462129,1.5031977
0.0,0.0,1.1999999999999997,-0.5235987755982988,0.0,0,0.3677822,-1.1482266,-0.49115503,-0.07045057,-0.042012233,1.1674577,0.4296444,-2.0048907,1.3414874,-0.07281656,-0.020616626,-0.15716945,1.1268805,0.7988843
0.0,0.0,1.1999999999999997,-0.5235987755982988,0.0,0,0.36811197,-1.1477045,-0.49214667,-0.0004217372,-0.2770468,1.1420138,-0.22979687,-2.0030482,1.3442104,-0.032606207,-0.12328822,-0.1611215,1.3010131,-0.64156604
0.0,0.0,1.1999999999999997,-0.5235987755982988,0.0,0,0.36688617,-1.1486915,-0.48831892,-0.08681577,-0.08584819,1.1928369,-0.18829475,-2.0042484,1.3239958,-0.11407101,-0.072505824,0.035339363,1.2689193,-1.3339555
0.0,0.0,1.1999999999999997,-0.5235987755982988,0.0,0,0.36739284,-1.1481775,-0.49062386,-0.14067478,0.42931283,1.2504421,-0.36400113,-2.0064929,1.3398256,-0.04537153,-0.090872064,-0.2290692,1.4020303,-1.9139833
0.0,0.0,1.1999999999999997,-0.5235987755982988,0.0,0,0.36794317,-1.1483353,-0.48853388,-0.08453969,-0.1014357,1.2166706,-1.3267413,-2.0002885,1.3290912,-0.04120006,-0.05379513,-0.23533536,1.0835025,2.4936469
0.0,0.0,1.1999999999999997,-0.5235987755982988,0.0,0,0.36737186,-1.1480901,-0.48966435,-0.06436483,-0.027758481,1.0743829,0.24081422,-2.0036864,1.3223283,-0.046275523,-0.041108955,-0.22534716,1.3439877,0.19498992
0.0,0.0,1.1999999999999997,-0.5235987755982988,0.0,0,0.36838332,-1.1489297,-0.4887706,-0.117830195,-0.03901015,1.1163698,-0.08124255,-2.0024247,1.3329057,-0.10789917,-0.056686215,-0.15290721,1.1686559,2.4779928
0.0,0.0,1.1999999999999997,-0.5235987755982988,0.0,0,0.36757082,-1.1481081,-0.49241245,-0.042700317,0.026623279,1.1191714,-0.0492317,-2.0086224,1.3238344,-0.07965562,-0.059119266,-0.21236306,1.2282202,0.4126434
0.0,0.0,1.1999999999999997,-0.5235987755982988,0.0,0,0.36752123,-1.1495699,-0.492366,-0.13292873,0.10192,1.2216778,-0.0096535515,-2.0037498,1.3386081,-0.15672994,-0.062961504,-0.088161856,1.159184,-0.2134484
0.0,0.0,1.1999999999999997,-0.5235987755982988,0.0,0,0.36661288,-1.1474487,-0.4939489,-0.10272244,-0.08319324,1.173528,-0.56394863,-2.0073924,1.3217269,-0.0928059,-0.08975278,-0.21333976,1.2302046,-0.15036678
0.0,0.0,1.1999999999999997,-0.5235987755982988,0.0,0,0.36742333,-1.1482381,-0.4884334,-0.048423823,-0.069886364,1.0642102,0.26337293,-2.006251,1.3264625,-0.15984106,-0.07017534,-0.10345935,1.0912415,0.8605191
0.0,0.0,1.1999999999999997,-0.5235987755982988,0.0,0,0.36731708,-1.1485778,-0.4911983,-0.054964732,0.18134528,1.2504005,-0.3258456,-2.0068817,1.3264726,-0.10117092,-0.06947312,-0.32415488,1.0783582,1.1250789
0.0,0.0,1.1999999999999997,-0.5235987755982988,0.0,0,0.36710107,-1.1481755,-0.48904634,-0.100633815,0.11202431,1.1500779,-0.31593308,-2.003679,1.3277189,-0.13184151,-0.042259064,-0.21563779,1.0774962,-0.40751812
0.0,0.0,1.1999999999999997,-0.5235987755982988,0.0,0,0.3679071,-1.149327,-0.49192333,-0.12917417,0.06400652,1.0797505,0.4624905,-2.0039816,1.3401442,-0.11784964,-0.12879036,-0.26607934,1.2926545,-0.62772816
0.0,0.0,1.1999999999999997,-0.5235987755982988,0.0,0,0.3675616,-1.1476718,-0.4917991,-0.11361455,0.3637044,1.1682105,-0.3677765,-2.003221,1.3337288,-0.15783742,-0.086275734,-0.19967464,1.1628382,0.37536493
0.0,0.0,1.1999999999999997,-0.5235987755982988,0.0,0,0.36761016,-1.1478275,-0.49045807,-0.11919318,-0.026895298,1.225243,-0.45939532,-2.0026135,1.3195403,-0.10311994,-0.08623018,-0.23420726,1.0680107,1.1121337
0.0,0.0,1.1999999999999997,-0.5235987755982988,0.0,0,0.3676549,-1.1486845,-0.49500832,-0.077628545,0.5335506,1.2026204,0.1823999,-1.9982263,1.3363125,-0.122780025,-0.03808651,-0.0578846,1.2043102,1.2761029
0.0,0.0,1.1999999999999997,-0.5235987755982988,0.0,0,0.36755383,-1.1485977,-0.49011028,-0.114545345,0.12780981,1.1852822,0.3087624,-2.0034332,1.321611,-0.06306941,-0.019296458,-0.23642261,1.2479632,1.8717265
0.0,0.0,1.1999999999999997,-0.5235987755982988,0.0,0,0.36732444,-1.1472347,-0.48867175,-0.08053568,-0.15970482,1.1612247,-0.17348078,-2.0059347,1.3344381,-0.044064928,-0.07109931,-0.20096242,1.1416167,-0.7397967
0.0,0.0,1.1999999999999997,-0.5235987755982988,0.0,0,0.36749586,-1.1476653,-0.491864,-0.12463451,-0.107301444,1.0285728,-0.22351329,-2.0115435,1.3203176,-0.019094164,-0.05381703,-0.23800127,1.1443248,0.35212654
0.0,0.0,1.1999999999999997,-0.5235987755982988,0.0,0,0.36748514,-1.1484697,-0.4929426,-0.07219727,0.040069573,1.1214054,-0.022606025,-2.000812,1.3345811,-0.12950218,-0.07770849,-0.13848098,1.1619135,0.29990417
0.0,0.0,1.1999999999999997,-0.5235987755982988,0.0,0,0.36741808,-1.1471775,-0.48910168,-0.07781085,0.12979752,1.0614059,-0.1631088,-2.006237,1.3174598,-0.1021602,-0.11184475,-0.33326074,1.2426629,-0.71348673
0.0,0.0,1.1999999999999997,-0.5235987755982988,0.0,0,0.36860356,-1.1488458,-0.49183756,-0.10812826,0.15680464,1.108643,-0.23314655,-2.0007532,1.3289701,-0.027416192,-0.03990397,-0.11247771,1.1410067,0.395692
0.0,0.0,1.1999999999999997,-0.5235987755982988,0.0,0,0.36770132,-1.1479809,-0.4917514,-0.052425917,0.32718274,1.262195,0.12869062,-2.001761,1.326976,0.016731009,-0.07445374,-0.04511539,1.2264409,-1.221289
0.0,0.0,1.1999999999999997,-0.5235987755982988,0.0,0,0.36691394,-1.1482993,-0.49081254,-0.03267842,0.24185313,1.0323455,-0.20300281,-1.9970367,1.3209803,-0.0982079,-0.079907574,0.037961364,1.2783289,0.3424892
0.0,0.0,1.1999999999999997,-0.5235987755982988,0.0,0,0.36753628,-1.1481527,-0.49552858,-0.106580265,-0.08455653,1.2397538,0.08175336,-2.006701,1.3330905,-0.036566053,0.0011373268,-0.122828886,1.071928,-0.16990148
0.0,0.0,1.1999999999999997,-0.5235987755982988,0.0,0,0.36748433,-1.1479238,-0.49534625,-0.10761384,0.01368243,1.1790042,-1.1653183,-1.9992272,1.3337555,-0.09035627,-0.101951346,-0.27870214,1.2436001,-0.6042422
0.0,0.0,1.1999999999999997,-0.5235987755982988,0.0,0,0.36819223,-1.1477095,-0.48917255,-0.064091,0.18541345,1.0902995,0.008363385,-2.008812,1.323251,-0.081212744,-0.063790716,-0.077839874,1.2270329,-0.023566008
0.0,0.0,1.1999999999999997,-0.5235987755982988,0.0,0,0.3678314,-1.1471924,-0.4881642,-0.060362864,-0.0061670667,1.0623662,0.09394649,-2.0037189,1.3277798,-0.083328746,-0.038013447,-0.2399942,1.2198738,-1.1096486
0.0,0.0,1.1999999999999997,-0.5235987755982988,0.0,0,0.36738423,-1.148737,-0.49142998,-0.058279585,0.0009407437,1.0403383,-0.32056037,-2.0064642,1.3225574,-0.1403946,-0.06359994,-0.14414172,1.0215589,0.9808074
0.0,0.0,1.1999999999999997,-0.5235987755982988,0.0,0,0.36755523,-1.1477118,-0.49087387,-0.09807661,0.34766504,1.2377348,-0.13921031,-2.003128,1.3286349,-0.03290876,-0.08343076,-0.32556248,1.268918,0.71613854
0.0,0.0,1.1999999999999997,-0.5235987755982988,0.0,0,0.36803198,-1.1474588,-0.49407536,-0.09734752,0.32553494,1.289785,-1.5095978,-2.008354,1.3264877,-0.08827255,-0.11537467,-0.22665523,1.0740454,1.0675772
0.0,0.0,1.1999999999999997,-0.5235987755982988,0.0,0,0.36720827,-1.1480381,-0.49208185,-0.15934767,0.11354584,1.1246846,0.019328088,-2.001049,1.3251165,-0.11813228,-0.084730595,-0.25112596,1.259047,-0.6278436
0.0,0.0,1.1999999999999997,-0.5235987755982988,0.0,0,0.36735308,-1.1472418,-0.48676196,-0.075477816,-0.105003975,1.0611017,-0.12964933,-2.0099385,1.3314344,-0.08410035,-0.091819406,-0.31202415,1.171259,0.88813937
0.0,0.0,1.1999999999999997,-0.5235987755982988,0.0,0,0.36759,-1.1493322,-0.4922261,-0.085530356,0.0045957128,1.1982405,-0.09716904,-1.9993312,1.3193623,-0.025971515,-0.05170053,-0.14817043,1.1788638,0.17351833
0.0,0.0,1.1999999999999997,-0.5235987755982988,0.0,0,0.36801654,-1.1481518,-0.48785725,-0.1253109,-0.32778144,1.1158199,-0.045904197,-2.0057456,1.3124648,0.017496489,-0.04300771,-0.11980784,1.1874655,-0.9714505
0.0,0.0,1.1999999999999997,-0.5235987755982988,0.0,0,0.3679391,-1.149051,-0.49068153,-0.0554297,0.05358741,1.1959794,-0.6562731,-2.0029256,1.3371428,-0.06596,-0.03266188,-0.25124338,1.0994549,-0.8989124
0.0,0.0,1.1999999999999997,-0.5235987755982988,0.0,0,0.36760807,-1.1483012,-0.48937228,-0.07314418,-0.011944344,1.2105135,-0.57786274,-1.9994556,1.3361224,-0.09605931,-0.054279506,-0.085607946,1.1189725,0.31894374
0.0,0.0,1.1999999999999997,-0.5235987755982988,0.0,0,0.36778203,-1.1476874,-0.48869586,-0.064133644,0.14828782,1.0866065,-0.029466256,-2.002329,1.330899,-0.034048,-0.0684447,-0.19192739,1.1952016,0.445016
0.0,0.0,1.1999999999999997,-0.5235987755982988,0.0,0,0.36732396,-1.1488541,-0.4883756,-0.1315285,-0.1464034,1.1148202,-0.48578638,-2.0033658,1.3391771,-0.04623173,-0.09017629,-0.20558152,1.1507907,1.932384
0.0,0.0,1.1999999999999997,-0.5235987755982988,0.0,0,0.36760682,-1.1488912,-0.48872513,-0.11468409,0.15978698,1.2118398,-0.22610167,-2.0082767,1.3330983,-0.11446882,-0.06375354,-0.064293995,1.1539294,-0.2528481
0.0,0.0,1.1999999999999997,-0.5235987755982988,0.0,0,0.36742264,-1.1483742,-0.49081132,-0.08300321,0.42700645,1.0293294,0.050092593,-2.006121,1.3366462,-0.04046261,-0.09444421,-0.22637352,1.2379109,1.1034409
0.0,0.0,1.1999999999999997,-0.5235987755982988,0.0,0,0.36823794,-1.1485194,-0.4915932,-0.06673816,0.025470324,1.2193178,-0.15674478,-2.003401,1.3262416,-0.03489282,-0.02519589,-0.22579482,1.1122285,0.13344647
0.0,0.0,1.1999999999999997,-0.5235987755982988,0.0,0,0.36792052,-1.1476673,-0.48760659,-0.056751158,0.06621773,1.2268257,0.59313804,-2.0056138,1.3260247,-0.057261847,-0.060670383,-0.14931756,1.1180627,0.06892141
0.0,0.0,1.1999999999999997,-0.5235987755982988,0.0,0,0.36746705,-1.1478887,-0.4866527,-0.115728445,-0.069800854,1.258497,0.08466624,-2.0087693,1.3386958,-0.099673204,-0.105281144,-0.15892883,1.1798887,0.5302519
0.0,0.0,1.1999999999999997,-0.5235987755982988,0.0,0,0.3670247,-1.1485798,-0.48688456,-0.1266042,0.18759447,1.199328,-0.74021965,-2.0065353,1.3208131,-0.0661829,-0.0815735,-0.21818976,1.3169158,-1.6662083
0.0,0.0,1.1999999999999997,-0.5235987755982988,0.0,0,0.36765993,-1.1482627,-0.49443778,-0.09216261,-0.011746577,1.0258842,-0.21929643,-2.0008898,1.3270819,-0.0557243,-0.08922896,-0.25251374,1.2101239,0.61533767
0.0,0.0,1.1999999999999997,-0.5235987755982988,0.0,0,0.36773103,-1.1481773,-0.48998433,-0.1337835,0.13251731,1.0912894,-0.12673394,-2.0072134,1.3046219,-0.09683131,-0.12348173,-0.123362765,1.2711,-0.61602414
0.0,0.0,1.1999999999999997,-0.5235987755982988,0.0,0,0.3680407,-1.1477689,-0.4897494,-0.0861488,0.03285372,1.1245906,-0.34268638,-2.0120142,1.3145701,-0.13707578,-0.07034617,-0.0530161,1.1560453,-0.14530842
0.0,0.0,1.1999999999999997,-0.5235987755982988,0.0,0,0.36790037,-1.14857,-0.49126557,-0.062941276,0.19859074,1.1646667,-0.24666469,-2.002963,1.3224101,-0.1155078,-0.07773102,-0.18751097,1.0860531,0.2723261
0.0,0.0,1.1999999999999997,-0.5235987755982988,0.0,0,0.36737853,-1.1491283,-0.49261656,-0.11264089,0.22439611,1.1400354,0.1793731,-2.0075605,1.3294846,-0.07232473,-0.12962379,-0.2146088,1.2554122,0.21652989
0.0,0.0,1.1999999999999997,-0.5235987755982988,0.0,0,0.3677723,-1.146973,-0.48623362,-0.057485104,0.4228828,1.1801496,-0.03432834,-1.9995441,1.328204,-0.13248916,-0.07943393,-0.19422257,1.0450356,-0.38082206
0.0,0.0,1.1999999999999997,-0.5235987755982988,0.0,0,0.36728907,-1.1481534,-0.48988873,-0.09426352,0.3752462,1.1220134,0.15165313,-2.0056968,1.3097357,-0.042621788,-0.034892034,-0.16469914,1.0518851,-1.3088928
0.0,0.0,1.1999999999999997,-0.5235987755982988,0.0,0,0.36769068,-1.1474063,-0.49059576,-0.11128042,0.35288146,1.20784,-0.8869195,-2.003226,1.3311228,-0.057290692,-0.072091244,-0.14416529,1.1830105,0.86649066
0.0,0.0,1.1999999999999997,-0.5235987755982988,0.0,0,0.36826664,-1.1495422,-0.48802572,-0.1551432,0.29746202,1.1598724,-0.17814729,-2.0094898,1.3326051,0.030650547,-0.0646005,-0.22817513,1.176272,0.37074578
0.0,0.0,1.1999999999999997,-0.5235987755982988,0.0,0,0.36695337,-1.1486956,-0.4938362,-0.11789114,0.012384309,1.1955636,-0.8469955,-2.0084176,1.3346543,-0.020701064,-0.058593396,-0.1049047,1.0750635,-0.084260166
0.0,0.0,1.1999999999999997,-0.5235987755982988,0.0,0,0.36825708,-1.1491389,-0.48928425,-0.09107464,0.07384566,1.1923907,-0.19724716,-2.0084975,1.3250304,-0.08778454,-0.022317892,-0.16571459,1.097705,1.6773219
0.0,0.0,1.1999999999999997,-0.5235987755982988,0.0,0,0.36719942,-1.148235,-0.49473813,-0.06281413,0.12020952,1.1408201,0.14977288,-2.0042284,1.3266217,-0.060542297,-0.077327855,0.028045459,1.1531935,-0.016413629
0.0,0.0,1.1999999999999997,-0.5235987755982988,0.0,0,0.36742264,-1.1479115,-0.49363494,-0.05829738,-0.012134489,1.0553647,0.11618563,-2.0064704,1.3204536,-0.0521101,-0.07576248,-0.14313205,1.1963584,1.1376908
0.0,0.0,1.1999999999999997,-0.5235987755982988,0.0,0,0.36844775,-1.1468383,-0.49281004,-0.10330369,0.62743676,1.1986674,0.029886102,-2.0011892,1.3237307,-0.07489197,-0.064613886,-0.020146748,1.1421328,-0.789586
0.0,0.0,1.1999999999999997,-0.5235987755982988,0.0,0,0.3676754,-1.1478213,-0.49137542,-0.119865164,-0.21777649,1.1125565,0.24941623,-2.0045755,1.3340987,-0.11747631,-0.10445031,-0.25862703,1.0359944,0.059995618
0.0,0.0,1.1999999999999997,-0.5235987755982988,0.0,0,0.36762744,-1.1480016,-0.48371845,-0.08809106,0.20188697,1.1030422,-0.40527827,-2.0043752,1.3249451,-0.09326842,-0.07725393,-0.15747447,1.2026367,1.5118368
0.0,0.0,1.1999999999999997,-0.5235987755982988,0.0,0,0.36744598,-1.1484853,-0.48848146,-0.077312045,0.14018796,1.17117,-0.87419957,-2.0073702,1.3266623,-0.021403007,-0.09327184,-0.2255905,1.1697327,-1.0761886
0.0,0.0,1.1999999999999997,-0.5235987755982988,0.0,0,0.3674309,-1.1476966,-0.48966083,-0.07375092,0.38342273,1.2315683,-0.32411277,-1.9993159,1.3324717,-0.06603143,-0.06924084,-0.25254077,1.1705661,-1.5897408
0.0,0.0,1.1999999999999997,-0.5235987755982988,0.0,0,0.3670795,-1.1483653,-0.4905676,-0.10935582,-0.026887026,1.148132,0.03038991,-2.0014164,1.3169917,-0.14087011,-0.062107373,-0.13335584,1.0133393,0.36723116
0.0,0.0,1.1999999999999997,-0.5235987755982988,0.0,0,0.36822945,-1.1483244,-0.49049443,-0.10020811,-0.042324353,1.076709,0.1393935,-2.0066254,1.3335162,-0.07505399,-0.09449292,-0.2757478,1.1188781,-0.43900704
0.0,0.0,1.1999999999999997,-0.5235987755982988,0.0,0,0.3678001,-1.1480045,-0.4894134,-0.08425099,0.05490727,1.1655067,0.14537808,-2.0042186,1.3181725,-0.13012506,-0.076721594,-0.18325791,1.1103101,-0.9651527
0.0,0.0,1.1999999999999997,-0.5235987755982988,0.0,0,0.36767668,-1.1475786,-0.4863032,-0.054055005,0.33506966,1.2934651,-0.55828744,-2.0022159,1.3295375,-0.08770874,-0.10660072,-0.21426114,1.0908633,0.38424322
0.0,0.0,1.1999999999999997,-0.5235987755982988,0.0,0,0.36800045,-1.1480885,-0.4926795,-0.10385259,0.22556221,1.0995147,-0.17252454,-2.006744,1.315392,-0.08177696,-0.09798221,-0.2742422,1.0557876,0.35566023
0.0,0.0,1.1999999999999997,-0.5235987755982988,0.0,0,0.366601,-1.1485159,-0.49124956,-0.09826038,-0.16837351,1.0963064,-0.5596621,-2.0094545,1.3347838,-0.06337183,-0.12181936,-0.28253743,1.1448112,-0.345077
0.0,0.0,1.1999999999999997,-0.5235987755982988,0.0,0,0.3677187,-1.1482594,-0.48973012,-0.023528565,-0.19066136,1.1946315,-0.2917003,-2.0033994,1.338553,-0.073634535,-0.084051505,-0.08983321,1.1645586,1.8456447
0.0,0.0,1.1999999999999997,-0.5235987755982988,0.0,0,0.36751863,-1.1482484,-0.4895203,-0.099928,0.16349974,1.166748,-1.0156941,-2.000839,1.3282162,-0.13727237,-0.12971193,-0.16883366,1.0200795,0.94273293
0.0,0.0,1.1999999999999997,-0.5235987755982988,0.0,0,0.36685434,-1.1471913,-0.49093613,-0.10749079,0.031040926,1.0652121,-0.25330213,-2.0015864,1.3284928,-0.07901837,-0.1024642,-0.060087536,1.1558174,1.4592137
0.0,0.0,1.1999999999999997,-0.5235987755982988,0.0,0,0.36808145,-1.1481875,-0.4923772,-0.08967032,0.65492827,1.1583713,0.0885315,-2.0093162,1.319985,-0.066807516,-0.02012853,-0.18660484,1.1235553,-1.2466849
0.0,0.0,1.1999999999999997,-0.5235987755982988,0.0,0,0.3681768,-1.1481571,-0.49115777,-0.10303985,0.13245669,1.2235216,-0.40555784,-2.0043306,1.3407614,-0.01271868,-0.09746685,-0.22371057,1.0510849,0.59266335
0.0,0.0,1.1999999999999997,-0.5235987755982988,0.0,0,0.36731786,-1.1481162,-0.48847288,-0.09712484,0.3490537,1.1837214,-0.28164834,-2.0053463,1.3230171,-0.13056761,-0.1277864,-0.1733078,1.2724485,-0.74663514
0.0,0.0,1.1999999999999997,-0.5235987755982988,0.0,0,0.3669402,-1.1479461,-0.49015066,-0.05513689,-0.11161179,1.0720547,-0.7562229,-2.0023053,1.3205705,-0.095824316,-0.0934997,-0.15858409,1.1522969,0.9141988
0.0,0.0,1.1999999999999997,-0.5235987755982988,0.0,0,0.36792052,-1.1488005,-0.49124023,-0.10360017,0.30636925,1.1451377,-0.0986359,-2.0070646,1.3326648,-0.072770804,-0.066665664,-0.24166778,1.0666667,0.5200423
0.0,0.0,1.1999999999999997,-0.5235987755982988,0.0,0,0.36781263,-1.1494727,-0.493409,-0.09869244,-0.05568454,1.0627365,-0.49722716,-2.006182,1.3283113,-0.017097047,-0.065936014,-0.35782945,1.1063664,-0.62209684
0.0,0.0,1.1999999999999997,-0.5235987755982988,0.0,0,0.3679408,-1.1493775,-0.49236578,-0.09529213,-0.07859653,1.1684266,-0.17644884,-2.0020545,1.3315656,-0.08818007,-0.068502665,-0.23782545,1.044025,-0.15083237
0.0,0.0,1.1999999999999997,-0.5235987755982988,0.0,0,0.3674642,-1.1495825,-0.48785964,-0.064735234,0.23073061,1.123119,-0.57643104,-2.0086465,1.3267096,-0.0972565,-0.09183418,-0.19674061,1.0461243,-0.3869734
0.0,0.0,1.1999999999999997,-0.5235987755982988,0.0,0,0.36790642,-1.1472447,-0.4889958,-0.019036673,0.097312234,1.1610812,-0.28743106,-2.0035367,1.3393174,-0.09866033,-0.08345721,-0.30894434,1.1365018,1.7917277
0.0,0.0,1.1999999999999997,-0.5235987755982988,0.0,0,0.36808234,-1.1476455,-0.4922153,-0.11607961,0.19215876,1.1379269,0.0026346545,-2.0026882,1.3169866,-0.10644057,-0.1355037,-0.35558566,1.0590798,-0.49250585
0.0,0.0,1.1999999999999997,-0.5235987755982988,0.0,0,0.36831367,-1.1471839,-0.4896223,-0.089017,-0.15236945,1.1640962,-0.49186406,-2.0047808,1.3300952,-0.096809745,-0.07153067,-0.15930055,1.0835906,1.8595878
0.0,0.0,1.1999999999999997,-0.5235987755982988,0.0,0,0.36789423,-1.1491985,-0.48697898,-0.09250482,0.24137156,1.2360429,-0.85278696,-2.0079334,1.3374674,-0.00871657,-0.12924045,-0.244873,1.0961931,0.5549142
0.0,0.0,1.1999999999999997,-0.5235987755982988,0.0,0,0.36719823,-1.1493338,-0.4920498,-0.07357928,0.62963754,1.1090018,0.107888475,-2.0069644,1.3338068,-0.0024194128,-0.098044984,-0.15993796,1.0744821,-1.0526018
0.0,0.0,1.1999999999999997,-0.5235987755982988,0.0,0,0.3678028,-1.1490294,-0.48798072,-0.07549621,0.15195565,1.1495492,0.020362746,-2.0047731,1.3307495,-0.019241031,-0.088703685,-0.1921047,1.1503258,0.6143666
0.0,0.0,1.1999999999999997,-0.5235987755982988,0.0,0,0.36752135,-1.1477817,-0.49060196,-0.12164871,0.27753502,1.1160144,0.052908946,-2.0028818,1.3345323,-0.05705962,-0.09735945,-0.06592059,1.0647695,-0.6316222
0.0,0.0,1.1999999999999997,-0.5235987755982988,0.0,0,0.36729604,-1.1475136,-0.4906561,-0.10140321,0.123518325,1.2244141,-0.39696372,-2.0050116,1.3145007,0.01749188,-0.09865689,-0.029997224,1.0797002,0.05798619
0.0,0.0,1.1999999999999997,-0.5235987755982988,0.0,0,0.36794314,-1.1476223,-0.49234644,-0.042992372,0.18458882,1.1517049,-1.0086044,-2.0093853,1.3352876,-0.089919515,-0.10344055,0.0026571413,1.1729497,1.7381667
0.0,0.0,1.1999999999999997,-0.5235987755982988,0.0,0,0.36804807,-1.1492367,-0.48737603,-0.08877024,0.09685023,1.0445232,0.05718634,-1.9989868,1.3381134,-0.009852334,-0.11011436,-0.24129911,0.98110616,-0.3542476
0.0,0.0,1.1999999999999997,-0.5235987755982988,0.0,0,0.36753106,-1.1476619,-0.489344,-0.09468562,0.5123337,1.136212,-0.04520796,-2.0046384,1.3372889,-0.010246304,-0.09996301,-0.16524735,1.0514778,0.6353614
0.0,0.0,1.1999999999999997,-0.5235987755982988,0.0,0,0.36753905,-1.148177,-0.48846573,-0.15523137,0.01665938,1.1734533,-0.060614448,-2.003146,1.3169142,-0.00669855,-0.09302841,-0.35474578,1.2046021,1.7882792
0.0,0.0,1.1999999999999997,-0.5235987755982988,0.0,0,0.3683568,-1.1486036,-0.48810256,-0.083468296,0.101422995,1.1224283,-0.41395563,-2.0048707,1.3344243,0.032755893,-0.099146076,-0.2546593,1.0187584,-0.07978683
0.0,0.0,1.1999999999999997,-0.5235987755982988,0.0,0,0.36746418,-1.1486946,-0.48811907,-0.15459062,0.08425708,1.0589238,-0.60087496,-2.000017,1.3133498,-0.09985654,-0.101381175,-0.2113295,0.9642849,1.2108588
0.0,0.0,1.1999999999999997,-0.5235987755982988,0.0,0,0.36775887,-1.148347,-0.4924637,-0.030908678,0.49028543,1.1599348,-0.9174111,-2.0066803,1.3274758,-0.08018023,-0.16748947,-0.09942109,1.1520635,1.017114
0.0,0.0,1.1999999999999997,-0.5235987755982988,0.0,0,0.36765596,-1.1482638,-0.49251252,-0.107549384,0.48236158,1.1853093,0.2904606,-2.0099394,1.3304708,-0.057384387,-0.07129176,-0.19421238,1.1371984,1.0040814
0.0,0.0,1.1999999999999997,-0.5235987755982988,0.0,0,0.36761314,-1.1473794,-0.49127874,-0.10230591,0.18546923,1.1974542,-0.5795816,-2.0051937,1.3301388,-0.06170825,-0.08412651,-0.16674516,1.0396057,1.026325
0.0,0.0,1.1999999999999997,-0.5235987755982988,0.0,0,0.36798456,-1.1486163,-0.49247906,-0.08573174,-0.012901906,1.2090899,0.5375593,-2.0042653,1.3218447,-0.12092478,-0.039095737,-0.14125267,0.92343384,1.6240988
0.0,0.0,1.1999999999999997,-0.5235987755982988,0.0,0,0.36702704,-1.1486866,-0.49517575,-0.05139746,-0.028062113,1.1279525,-0.17956504,-2.0073786,1.3187242,-0.04937691,-0.13236026,-0.21070103,1.1116858,-0.96459293
0.0,0.0,1.1999999999999997,-0.5235987755982988,0.0,0,0.36825508,-1.1479881,-0.49038437,-0.06044971,-0.056184903,1.1324844,0.24912594,-2.0088644,1.3227562,-0.049096078,-0.083127394,-0.24910824,1.1446306,0.96201366
0.0,0.0,1.1999999999999997,-0.5235987755982988,0.0,0,0.3682605,-1.1481048,-0.49153876,-0.10860957,0.41422847,1.0920281,0.35170612,-2.0059688,1.3240948,-0.05920946,-0.16776016,-0.21479706,1.0469979,0.030024085
0.0,0.0,1.1999999999999997,-0.5235987755982988,0.0,0,0.36730406,-1.1494874,-0.49258953,-0.04607802,-0.11749562,1.1698478,-0.68312454,-2.0044334,1.3368648,-0.049411584,-0.07757292,-0.32638907,1.0745971,1.5471339
0.0,0.0,1.1999999999999997,-0.5235987755982988,0.0,0,0.36700433,-1.1486948,-0.4918739,-0.12591738,0.12080419,1.2549113,0.4778587,-1.9975444,1.318085,-0.13007082,-0.056869343,-0.18559106,1.0433167,0.9243356
0.0,0.0,1.1999999999999997,-0.5235987755982988,0.0,0,0.36792445,-1.1479636,-0.49236104,-0.04899722,0.37265477,1.1387932,0.32492352,-2.0029588,1.3325078,-0.06654382,-0.073735416,-0.3356582,1.0979707,2.2995942
0.0,0.0,1.1999999999999997,-0.5235987755982988,0.0,0,0.3672418,-1.1485263,-0.48765314,-0.099775545,0.1269521,1.2319201,-0.24288742,-2.001229,1.3428358,-0.10390105,-0.12403824,-0.25434148,1.1677831,-1.40231
0.0,0.0,1.1999999999999997,-0.5235987755982988,0.0,0,0.36800438,-1.1486796,-0.48644805,-0.05980143,-0.07262544,1.1332366,-0.19966832,-2.0048041,1.3415779,-0.09174025,-0.116243355,-0.1872913,1.1367655,0.9690093
