sanky1234/BimanualDexCatch/isaacgymenvs/cem_results/football_pose_-0.2_-0.2_0.6_-0.5235987755982988_-0.17453292519943286_0.34906585039886606.csv
x,y,z,roll,pitch,yaw,robot1/joint1,robot1/joint2,robot1/joint3,robot1/joint4,robot1/joint5,robot1/joint6,robot1/joint7,robot2/joint1,robot2/joint2,robot2/joint3,robot2/joint4,robot2/joint5,robot2/joint6,robot2/joint7
-0.2,-0.2,0.6,-0.5235987755982988,-0.17453292519943286,0.34906585039886606,1.9477258,1.4473624,0.10962903,-0.0026766448,0.03292321,1.1766988,0.9066172,-0.5662178,1.4671963,-0.07784891,-0.65122294,-0.13964595,1.4137067,1.4799716
-0.2,-0.2,0.6,-0.5235987755982988,-0.17453292519943286,0.34906585039886606,1.8935947,1.4378406,0.106960855,-0.0114568835,0.03543508,1.1925943,0.8138953,-0.5500095,1.4722866,-0.08358519,-0.6273966,-0.12624057,1.4196014,1.5251604
-0.2,-0.2,0.6,-0.5235987755982988,-0.17453292519943286,0.34906585039886606,1.9676584,1.4339377,0.12549655,-0.008270217,0.04435906,1.1692173,0.8069186,-0.57046676,1.4672579,-0.09361823,-0.6844144,-0.14379549,1.4030226,1.4074184
-0.2,-0.2,0.6,-0.5235987755982988,-0.17453292519943286,0.34906585039886606,1.9271107,1.4394904,0.117277406,-0.004914254,0.03497854,1.1395165,0.7792758,-0.57365173,1.469533,-0.085353695,-0.7439418,-0.10426853,1.4055518,1.4949583
-0.2,-0.2,0.6,-0.5235987755982988,-0.17453292519943286,0.34906585039886606,1.9483484,1.4289627,0.097884804,0.003567822,0.042012308,1.1264888,0.9520914,-0.5967347,1.4727027,-0.08956715,-0.57274926,-0.12827845,1.2848439,1.4453528
-0.2,-0.2,0.6,-0.5235987755982988,-0.17453292519943286,0.34906585039886606,1.9457405,1.4429606,0.10959378,-0.024240969,0.0267137,1.1533206,0.80956185,-0.5811617,1.4689173,-0.09903048,-0.6531846,-0.119012,1.4001902,1.5055665
-0.2,-0.2,0.6,-0.5235987755982988,-0.17453292519943286,0.34906585039886606,1.9684144,1.4194134,0.11218649,-0.018892901,0.050406214,1.1340963,0.9180206,-0.5771197,1.4705787,-0.09459361,-0.6264297,-0.15252224,1.4180377,1.4153819
-0.2,-0.2,0.6,-0.5235987755982988,-0.17453292519943286,0.34906585039886606,1.9228119,1.4318454,0.09854933,0.03433038,0.039341174,1.1591699,0.66799456,-0.5940973,1.4708278,-0.08155102,-0.7280563,-0.13855013,1.4311911,1.5150819
-0.2,-0.2,0.6,-0.5235987755982988,-0.17453292519943286,0.34906585039886606,1.941082,1.4346299,0.111937314,-0.02167726,0.042958323,1.1634039,0.75842935,-0.54664546,1.4603944,-0.076263465,-0.5852847,-0.124023184,1.3916105,1.4024214
-0.2,-0.2,0.6,-0.5235987755982988,-0.17453292519943286,0.34906585039886606,1.9708565,1.4284027,0.11427186,0.0010192707,0.033991005,1.1636643,0.9744325,-0.571682,1.4707386,-0.087405115,-0.64995843,-0.14822473,1.3976882,1.5016309
-0.2,-0.2,0.6,-0.5235987755982988,-0.17453292519943286,0.34906585039886606,1.9291488,1.4515923,0.09840064,-0.0074191187,0.07902315,1.1404629,0.90522987,-0.57627255,1.476137,-0.079597116,-0.6715369,-0.1371984,1.4177499,1.4497608
-0.2,-0.2,0.6,-0.5235987755982988,-0.17453292519943286,0.34906585039886606,1.9378347,1.4302039,0.1208412,0.001284266,0.04419065,1.1509336,0.8440358,-0.57383436,1.4660882,-0.09335749,-0.71245503,-0.12882707,1.4013722,1.4903897
-0.2,-0.2,0.6,-0.5235987755982988,-0.17453292519943286,0.34906585039886606,1.9284129,1.4373742,0.09935377,-0.029995173,0.049725827,1.129065,0.80488855,-0.5682844,1.473737,-0.06792955,-0.7585851,-0.15504669,1.4346597,1.4022484
-0.2,-0.2,0.6,-0.5235987755982988,-0.17453292519943286,0.34906585039886606,1.943913,1.4335243,0.123822585,-0.05430643,0.045548677,1.144366,0.9188873,-0.57816267,1.4746957,-0.07965222,-0.6607118,-0.14382364,1.4058145,1.4407427
-0.2,-0.2,0.6,-0.5235987755982988,-0.17453292519943286,0.34906585039886606,1.9107267,1.4231423,0.10375339,-0.025176927,0.05771979,1.1451254,0.8939108,-0.5754712,1.4697891,-0.0751518,-0.6992875,-0.1234723,1.4392532,1.5181339
-0.2,-0.2,0.6,-0.5235987755982988,-0.17453292519943286,0.34906585039886606,1.903613,1.443446,0.106307246,-0.018558264,0.053033203,1.169028,0.8149335,-0.55797344,1.4718864,-0.10896634,-0.63568693,-0.11599499,1.3945427,1.4471257
-0.2,-0.2,0.6,-0.5235987755982988,-0.17453292519943286,0.34906585039886606,1.9449698,1.4262612,0.10255678,-0.016257174,0.039473593,1.1695065,0.86006474,-0.53745514,1.4700565,-0.09072365,-0.6196774,-0.13417247,1.4349209,1.5836189
-0.2,-0.2,0.6,-0.5235987755982988,-0.17453292519943286,0.34906585039886606,1.9121261,1.4290037,0.10550093,-0.00608488,0.046650972,1.1687043,0.919526,-0.578432,1.472804,-0.04716309,-0.62770224,-0.14892058,1.4437648,1.5350345
-0.2,-0.2,0.6,-0.5235987755982988,-0.17453292519943286,0.34906585039886606,1.9479448,1.4324389,0.11378121,-0.023289304,0.04861455,1.1569407,0.67448914,-0.5582877,1.4687918,-0.07853962,-0.5965571,-0.14563242,1.3874319,1.5001541
-0.2,-0.2,0.6,-0.5235987755982988,-0.17453292519943286,0.34906585039886606,1.9619901,1.4370573,0.12155002,0.015345288,0.056227006,1.1768522,0.68020165,-0.57853657,1.4634101,-0.09050514,-0.64513725,-0.12964281,1.403182,1.4822657
-0.2,-0.2,0.6,-0.5235987755982988,-0.17453292519943286,0.34906585039886606,1.9210719,1.4254224,0.103882514,-0.04543631,0.06325363,1.1583415,0.8435443,-0.5794074,1.4679158,-0.0681855,-0.65704143,-0.1501676,1.4009112,1.5076965
-0.2,-0.2,0.6,-0.5235987755982988,-0.17453292519943286,0.34906585039886606,1.9024004,1.431959,0.10335411,-0.024843454,0.03210017,1.1629623,0.8513756,-0.5782147,1.4760258,-0.075277805,-0.6852827,-0.13337837,1.4289513,1.4761785
-0.2,-0.2,0.6,-0.5235987755982988,-0.17453292519943286,0.34906585039886606,1.9562066,1.4415898,0.09281753,-0.008262147,0.022268608,1.1823748,0.88733673,-0.58415437,1.469757,-0.07027714,-0.65238595,-0.15998137,1.3962023,1.539336
-0.2,-0.2,0.6,-0.5235987755982988,-0.17453292519943286,0.34906585039886606,1.9220669,1.4382083,0.1258012,0.025805188,0.076676615,1.144385,0.88760084,-0.57162845,1.4633605,-0.09350861,-0.6488953,-0.13800852,1.4125122,1.4829559
-0.2,-0.2,0.6,-0.5235987755982988,-0.17453292519943286,0.34906585039886606,1.904831,1.4393271,0.12195921,-0.024927597,0.03236743,1.152186,0.9480306,-0.547326,1.4760538,-0.06650071,-0.61551595,-0.13908447,1.4247174,1.413247
-0.2,-0.2,0.6,-0.5235987755982988,-0.17453292519943286,0.34906585039886606,1.9216931,1.4258187,0.10011995,0.013651137,0.022642184,1.1626756,0.837506,-0.5492295,1.4747306,-0.10410264,-0.63874054,-0.14269821,1.3914512,1.3917967
-0.2,-0.2,0.6,-0.5235987755982988,-0.17453292519943286,0.34906585039886606,1.9158007,1.4388019,0.12455339,-0.0021754538,0.03974768,1.1540334,0.6990712,-0.58657837,1.4720496,-0.08719002,-0.68872994,-0.121654786,1.4149059,1.5586103
-0.2,-0.2,0.6,-0.5235987755982988,-0.17453292519943286,0.34906585039886606,1.931449,1.4357226,0.099300206,-0.01510691,0.025558371,1.1627574,0.9558909,-0.5438001,1.4695387,-0.08983505,-0.61681974,-0.12950185,1.405192,1.5024481
-0.2,-0.2,0.6,-0.5235987755982988,-0.17453292519943286,0.34906585039886606,1.9035524,1.4268653,0.101955004,-0.007184722,0.046666935,1.1790867,0.9613015,-0.5645151,1.463917,-0.09680237,-0.67018825,-0.15373942,1.425732,1.5370563
-0.2,-0.2,0.6,-0.5235987755982988,-0.17453292519943286,0.34906585039886606,1.8882377,1.4290944,0.111918665,-0.02033475,0.054309476,1.1569781,0.93255115,-0.57267076,1.4703779,-0.10295465,-0.72554356,-0.12493938,1.4124087,1.508598
-0.2,-0.2,0.6,-0.5235987755982988,-0.17453292519943286,0.34906585039886606,1.9385637,1.4436005,0.12504978,-0.011039593,0.04804394,1.1721784,0.80592304,-0.5743886,1.4710921,-0.09506709,-0.6407554,-0.14644825,1.4257557,1.5442361
-0.2,-0.2,0.6,-0.5235987755982988,-0.17453292519943286,0.34906585039886606,1.934876,1.4331986,0.09359177,-0.015950141,0.035461217,1.170253,0.93206006,-0.57679194,1.4721421,-0.08406772,-0.6668799,-0.12384761,1.4115516,1.4830711
-0.2,-0.2,0.6,-0.5235987755982988,-0.17453292519943286,0.34906585039886606,1.9173295,1.4411353,0.10201527,-0.036930434,0.060446147,1.1308936,0.90612274,-0.574499,1.4766443,-0.07383118,-0.6434352,-0.13317224,1.3905762,1.5559953
-0.2,-0.2,0.6,-0.5235987755982988,-0.17453292519943286,0.34906585039886606,1.9261464,1.443509,0.103998184,-0.016947368,0.046249453,1.1500098,0.7859301,-0.56421304,1.4702348,-0.09367305,-0.6596308,-0.13395962,1.4159828,1.5218818
-0.2,-0.2,0.6,-0.5235987755982988,-0.17453292519943286,0.34906585039886606,1.9520367,1.432205,0.10560566,0.00806561,0.051669683,1.1700882,0.95274204,-0.5480521,1.4717668,-0.087358184,-0.61067367,-0.124347374,1.4043955,1.4238951
-0.2,-0.2,0.6,-0.5235987755982988,-0.17453292519943286,0.34906585039886606,1.89742,1.4347714,0.12831618,-0.0470674,0.05268246,1.1610417,0.87346804,-0.5769808,1.470336,-0.074449785,-0.6566429,-0.15380707,1.3996509,1.5321239
-0.2,-0.2,0.6,-0.5235987755982988,-0.17453292519943286,0.34906585039886606,1.9582746,1.4381038,0.11571846,-0.018779833,0.04265974,1.1588503,0.96646947,-0.5860318,1.471307,-0.07137668,-0.6598434,-0.12662782,1.4230297,1.4756016
-0.2,-0.2,0.6,-0.5235987755982988,-0.17453292519943286,0.34906585039886606,1.9058188,1.4276648,0.11791933,-0.012331889,0.03524155,1.158815,0.8323207,-0.57427454,1.4719043,-0.09131274,-0.6616531,-0.124323666,1.4071106,1.5597006
-0.2,-0.2,0.6,-0.5235987755982988,-0.17453292519943286,0.34906585039886606,1.9485323,1.422565,0.124479234,-0.0043663974,0.008463274,1.1609521,0.7786362,-0.57766944,1.4672798,-0.08705301,-0.6608701,-0.14633192,1.4166222,1.4754882
-0.2,-0.2,0.6,-0.5235987755982988,-0.17453292519943286,0.34906585039886606,1.9091793,1.4354388,0.11417782,-0.024210384,0.049082402,1.1323135,0.71713233,-0.54954755,1.4681354,-0.06587911,-0.62382954,-0.14428541,1.4230077,1.5244879
-0.2,-0.2,0.6,-0.5235987755982988,-0.17453292519943286,0.34906585039886606,1.9564912,1.4277,0.11509553,0.003175923,0.04286018,1.1636881,0.9739484,-0.58661324,1.4711603,-0.067712605,-0.6110457,-0.15210402,1.4095575,1.4320407
-0.2,-0.2,0.6,-0.5235987755982988,-0.17453292519943286,0.34906585039886606,1.9516283,1.4348148,0.11011596,0.012778849,0.057369158,1.1523715,0.9122254,-0.5748142,1.4712656,-0.099953875,-0.67136705,-0.1429149,1.4184555,1.4752501
-0.2,-0.2,0.6,-0.5235987755982988,-0.17453292519943286,0.34906585039886606,1.948834,1.4325398,0.107464954,-0.026219413,0.05457682,1.1321268,0.8207487,-0.57061034,1.4691877,-0.080460444,-0.6672322,-0.15835819,1.4392617,1.5236287
-0.2,-0.2,0.6,-0.5235987755982988,-0.17453292519943286,0.34906585039886606,1.9215055,1.430799,0.08542716,-0.03562497,0.018226106,1.1753538,0.74075085,-0.5686365,1.4680992,-0.08654469,-0.66460633,-0.15591592,1.3894455,1.5923405
-0.2,-0.2,0.6,-0.5235987755982988,-0.17453292519943286,0.34906585039886606,1.9442272,1.4325819,0.11670763,-0.0039535365,0.046529353,1.1576444,0.80913216,-0.59800595,1.4659591,-0.08725671,-0.695227,-0.16612811,1.4215802,1.5178623
-0.2,-0.2,0.6,-0.5235987755982988,-0.17453292519943286,0.34906585039886606,1.9154047,1.422937,0.11492415,0.0026974094,0.059368316,1.1544856,0.7818091,-0.59515554,1.466593,-0.07410234,-0.6951013,-0.13585469,1.4181172,1.5583782
-0.2,-0.2,0.6,-0.5235987755982988,-0.17453292519943286,0.34906585039886606,1.9143428,1.4324956,0.102712356,-0.017310724,0.06317311,1.1456395,0.79028314,-0.5775657,1.4697572,-0.086568594,-0.6517071,-0.1504887,1.42824,1.4650502
-0.2,-0.2,0.6,-0.5235987755982988,-0.17453292519943286,0.34906585039886606,1.9004202,1.4433403,0.08586664,0.0015799082,0.040516876,1.1613793,0.88457656,-0.54839027,1.4716944,-0.07651638,-0.64489806,-0.1420203,1.4325274,1.4224954
-0.2,-0.2,0.6,-0.5235987755982988,-0.17453292519943286,0.34906585039886606,1.9099164,1.4356616,0.10874618,-0.0007669802,0.06028636,1.1218842,0.863415,-0.58765006,1.4757543,-0.09146755,-0.6322086,-0.15791403,1.3397639,1.4832128
-0.2,-0.2,0.6,-0.5235987755982988,-0.17453292519943286,0.34906585039886606,1.9159325,1.437001,0.103116944,0.0067029186,0.043540496,1.1589371,0.8594905,-0.53855217,1.4701887,-0.09631832,-0.6588145,-0.14061278,1.4316661,1.5057824
-0.2,-0.2,0.6,-0.5235987755982988,-0.17453292519943286,0.34906585039886606,1.9093359,1.4364501,0.109091654,-0.027898645,0.067026794,1.1592607,0.8108922,-0.5551703,1.4629935,-0.05396954,-0.6871643,-0.15132472,1.4061469,1.5383605
-0.2,-0.2,0.6,-0.5235987755982988,-0.17453292519943286,0.34906585039886606,1.9453822,1.4282267,0.102911025,0.0015859725,0.055937838,1.1462979,0.87168044,-0.5758956,1.4676756,-0.08926906,-0.74676734,-0.15138726,1.4259242,1.3968282
-0.2,-0.2,0.6,-0.5235987755982988,-0.17453292519943286,0.34906585039886606,1.9119227,1.4321252,0.11807836,-0.030733975,0.043538544,1.1491821,0.82409734,-0.55474347,1.474226,-0.104949534,-0.6689873,-0.13245402,1.4030287,1.4647498
-0.2,-0.2,0.6,-0.5235987755982988,-0.17453292519943286,0.34906585039886606,1.8882961,1.4342986,0.105481945,0.007224878,0.046745963,1.1765133,0.9400873,-0.5736493,1.4704677,-0.09461515,-0.60078824,-0.1631738,1.4224507,1.482219
-0.2,-0.2,0.6,-0.5235987755982988,-0.17453292519943286,0.34906585039886606,1.942699,1.4305941,0.10152449,-0.012427986,0.046598174,1.1760616,0.75917876,-0.5726456,1.469544,-0.08953446,-0.63048476,-0.13822088,1.4233973,1.5262879
-0.2,-0.2,0.6,-0.5235987755982988,-0.17453292519943286,0.34906585039886606,1.9223355,1.4260511,0.08874671,-0.01757163,0.032955322,1.1542971,0.87523323,-0.56829333,1.470769,-0.09341011,-0.6555988,-0.14309688,1.4109325,1.4827231
-0.2,-0.2,0.6,-0.5235987755982988,-0.17453292519943286,0.34906585039886606,1.9080892,1.4174799,0.10942656,-0.024541335,0.026981711,1.1513163,0.8472709,-0.56292427,1.4724168,-0.084419005,-0.6326443,-0.12516117,1.4037552,1.4621369
-0.2,-0.2,0.6,-0.5235987755982988,-0.17453292519943286,0.34906585039886606,1.9391133,1.4438618,0.11889281,-0.02635272,0.040375803,1.1569664,0.8246206,-0.5659216,1.4685059,-0.08264333,-0.6220788,-0.16087152,1.4074025,1.5279446
-0.2,-0.2,0.6,-0.5235987755982988,-0.17453292519943286,0.34906585039886606,1.9460814,1.440994,0.10753287,-0.0038177778,0.060122233,1.1591178,0.75439805,-0.56786776,1.4662465,-0.080157615,-0.64382386,-0.16007185,1.4219654,1.5192856
-0.2,-0.2,0.6,-0.5235987755982988,-0.17453292519943286,0.34906585039886606,1.9341446,1.4323622,0.10384635,-0.01955496,0.043394655,1.1640592,0.8350942,-0.5627957,1.4723562,-0.06978355,-0.6257945,-0.13931282,1.420843,1.4762566
-0.2,-0.2,0.6,-0.5235987755982988,-0.17453292519943286,0.34906585039886606,1.9527301,1.4317337,0.09421309,-0.011249116,0.0257619,1.1610334,0.7967679,-0.5519101,1.4692467,-0.084928535,-0.6143523,-0.15840353,1.4080608,1.421403
-0.2,-0.2,0.6,-0.5235987755982988,-0.17453292519943286,0.34906585039886606,1.9185194,1.4278786,0.11218579,-0.05028572,0.05984523,1.1362491,0.76778936,-0.5759503,1.4666386,-0.09472785,-0.62543404,-0.10388207,1.3971345,1.4842962
-0.2,-0.2,0.6,-0.5235987755982988,-0.17453292519943286,0.34906585039886606,1.9225608,1.42676,0.111280814,-0.04899986,0.052144483,1.1812177,0.9771381,-0.5665695,1.4686285,-0.08130078,-0.6148903,-0.12404164,1.4162737,1.4604056
-0.2,-0.2,0.6,-0.5235987755982988,-0.17453292519943286,0.34906585039886606,1.9397606,1.4379785,0.11272596,-0.02090633,0.023654882,1.1435038,0.8623498,-0.56507486,1.4671538,-0.101568826,-0.6347244,-0.15330152,1.4286182,1.483607
-0.2,-0.2,0.6,-0.5235987755982988,-0.17453292519943286,0.34906585039886606,1.926518,1.4308031,0.10127676,-0.032104958,0.019824466,1.1641309,0.891804,-0.57919025,1.4610105,-0.07909335,-0.68940026,-0.15113898,1.4297712,1.4858478
-0.2,-0.2,0.6,-0.5235987755982988,-0.17453292519943286,0.34906585039886606,1.938882,1.430932,0.11168517,-0.022946801,0.03754773,1.1836762,0.9126778,-0.58863395,1.4720597,-0.09030204,-0.66612035,-0.1308997,1.4183787,1.4433036
-0.2,-0.2,0.6,-0.5235987755982988,-0.17453292519943286,0.34906585039886606,1.9211116,1.4394741,0.09981043,0.009187269,0.0558946,1.1527947,0.81564814,-0.55417246,1.4698944,-0.064057276,-0.594543,-0.12313954,1.423765,1.4881494
-0.2,-0.2,0.6,-0.5235987755982988,-0.17453292519943286,0.34906585039886606,1.9001461,1.4290874,0.082077816,-0.014714335,0.060641885,1.1354228,0.7690788,-0.54501355,1.4688221,-0.069228545,-0.63555795,-0.13886173,1.4145238,1.5133092
-0.2,-0.2,0.6,-0.5235987755982988,-0.17453292519943286,0.34906585039886606,1.9305396,1.4462116,0.118622065,-0.008988971,0.05184056,1.1692872,0.82276803,-0.5904758,1.4704301,-0.07189224,-0.64647555,-0.14744231,1.4254056,1.4691457
-0.2,-0.2,0.6,-0.5235987755982988,-0.17453292519943286,0.34906585039886606,1.903289,1.4337004,0.13441011,-0.010456682,0.031006712,1.1462959,0.86347914,-0.5963574,1.4718057,-0.0786481,-0.6365565,-0.12403363,1.4277949,1.4907441
-0.2,-0.2,0.6,-0.5235987755982988,-0.17453292519943286,0.34906585039886606,1.9228644,1.440344,0.09962496,-0.017659076,0.04733316,1.1599393,0.8448415,-0.56504035,1.4769305,-0.089990236,-0.6174745,-0.15356529,1.3931192,1.5186656
-0.2,-0.2,0.6,-0.5235987755982988,-0.17453292519943286,0.34906585039886606,1.9347891,1.4431456,0.123035565,0.005062782,0.05866371,1.1357168,0.74225914,-0.5737531,1.4782382,-0.10333018,-0.66324,-0.14452441,1.3912845,1.4079658
-0.2,-0.2,0.6,-0.5235987755982988,-0.17453292519943286,0.34906585039886606,1.9531512,1.451086,0.11090452,-0.0036188278,0.048970066,1.1358228,0.85254073,-0.59307796,1.4749466,-0.062620714,-0.62624663,-0.13610524,1.361479,1.4665041
-0.2,-0.2,0.6,-0.5235987755982988,-0.17453292519943286,0.34906585039886606,1.938609,1.4327053,0.09048855,-0.0014962661,0.04553479,1.1545359,0.787535,-0.5790638,1.4715316,-0.07832082,-0.66397005,-0.13172859,1.4103892,1.5245769
-0.2,-0.2,0.6,-0.5235987755982988,-0.17453292519943286,0.34906585039886606,1.9483155,1.4362943,0.11147342,-0.007764968,0.029055355,1.1573285,0.77481496,-0.5695573,1.4699227,-0.093142435,-0.6585879,-0.14164975,1.4311327,1.5241278
-0.2,-0.2,0.6,-0.5235987755982988,-0.17453292519943286,0.34906585039886606,1.9221599,1.4394194,0.10214543,-0.045742173,0.048966594,1.1525748,0.8474417,-0.56139296,1.4701488,-0.07795956,-0.67136544,-0.14399907,1.4055777,1.5074108
-0.2,-0.2,0.6,-0.5235987755982988,-0.17453292519943286,0.34906585039886606,1.9155807,1.436357,0.10630341,-0.024437232,0.056053776,1.135477,0.7855676,-0.5712716,1.4644387,-0.068116486,-0.7116928,-0.12541448,1.4534551,1.5116438
-0.2,-0.2,0.6,-0.5235987755982988,-0.17453292519943286,0.34906585039886606,1.9229295,1.4441465,0.12790592,-0.010560803,0.031675603,1.1426184,0.8181093,-0.56623006,1.4697953,-0.06884409,-0.6262528,-0.13490717,1.3999286,1.5182209
-0.2,-0.2,0.6,-0.5235987755982988,-0.17453292519943286,0.34906585039886606,1.9079399,1.4392428,0.10860977,-0.011456686,0.056274943,1.1401483,0.8909925,-0.5770287,1.4735451,-0.073699124,-0.65366215,-0.1434499,1.4095271,1.6005173
-0.2,-0.2,0.6,-0.5235987755982988,-0.17453292519943286,0.34906585039886606,1.9547627,1.4395701,0.12182258,-0.0034040886,0.057244875,1.163571,0.79956484,-0.5963646,1.4683571,-0.07919753,-0.72859675,-0.14348052,1.410519,1.447975
-0.2,-0.2,0.6,-0.5235987755982988,-0.17453292519943286,0.34906585039886606,1.933778,1.4485058,0.12614262,-0.0021589545,0.036286768,1.1425017,0.70721954,-0.57612175,1.470855,-0.086345896,-0.6608153,-0.15064265,1.3909718,1.5284569
-0.2,-0.2,0.6,-0.5235987755982988,-0.17453292519943286,0.34906585039886606,1.9120796,1.4507196,0.11014468,-0.008303415,0.041265883,1.1485313,0.70091444,-0.5885964,1.4721584,-0.08311987,-0.69480324,-0.12534976,1.4257406,1.457873
-0.2,-0.2,0.6,-0.5235987755982988,-0.17453292519943286,0.34906585039886606,1.9173782,1.4379131,0.1005314,-0.033346236,0.031555805,1.1688936,0.8043756,-0.5552021,1.4597921,-0.07064699,-0.67055583,-0.13136642,1.4217944,1.5012628
-0.2,-0.2,0.6,-0.5235987755982988,-0.17453292519943286,0.34906585039886606,1.9148228,1.4229743,0.10798944,-0.027801927,0.050641242,1.1502683,0.7746629,-0.56572604,1.4706973,-0.08505143,-0.7915689,-0.14474326,1.4332186,1.4546993
-0.2,-0.2,0.6,-0.5235987755982988,-0.17453292519943286,0.34906585039886606,1.9051367,1.4280605,0.1143043,-0.0019434864,0.049404025,1.1465287,0.9394711,-0.5759101,1.4687706,-0.08619463,-0.7036619,-0.15685397,1.438712,1.5156969
-0.2,-0.2,0.6,-0.5235987755982988,-0.17453292519943286,0.34906585039886606,1.924034,1.4174454,0.10867079,-0.036248185,0.05496631,1.1614516,0.79053,-0.5690973,1.4623252,-0.10009508,-0.641998,-0.14179987,1.4107224,1.4894352
-0.2,-0.2,0.6,-0.5235987755982988,-0.17453292519943286,0.34906585039886606,1.9102345,1.4287804,0.096601024,-0.007886042,0.0394765,1.1592629,0.9263677,-0.5721714,1.4768564,-0.09681571,-0.66406494,-0.13333595,1.4123473,1.4786272
-0.2,-0.2,0.6,-0.5235987755982988,-0.17453292519943286,0.34906585039886606,1.9066015,1.4304186,0.10050137,-0.019882565,0.05157801,1.1535369,0.777918,-0.5917452,1.4657367,-0.068915226,-0.68904716,-0.14728498,1.4160509,1.540649
-0.2,-0.2,0.6,-0.5235987755982988,-0.17453292519943286,0.34906585039886606,1.9528154,1.432441,0.10659061,-0.032289714,0.060978938,1.1579498,0.77973104,-0.5920435,1.471839,-0.08073887,-0.6517801,-0.15135844,1.4316322,1.4036605
-0.2,-0.2,0.6,-0.5235987755982988,-0.17453292519943286,0.34906585039886606,1.9366343,1.4237996,0.11506357,-0.0066922256,0.042747155,1.1453341,0.85150784,-0.58901113,1.4678632,-0.0825545,-0.66435355,-0.1362505,1.4035054,1.4752809
-0.2,-0.2,0.6,-0.5235987755982988,-0.17453292519943286,0.34906585039886606,1.9022799,1.425534,0.09775839,-0.00060853467,0.045146216,1.1461564,0.9526517,-0.5634571,1.4711739,-0.08051862,-0.66991746,-0.13903531,1.4171126,1.4632889
-0.2,-0.2,0.6,-0.5235987755982988,-0.17453292519943286,0.34906585039886606,1.9130479,1.4314449,0.09805449,-0.015715886,0.07054728,1.1555995,0.8284694,-0.5959489,1.4647404,-0.075624,-0.7735403,-0.13036393,1.3946261,1.4089297
-0.2,-0.2,0.6,-0.5235987755982988,-0.17453292519943286,0.34906585039886606,1.9334403,1.4252222,0.100684196,-0.013228088,0.06229119,1.1482078,0.9983575,-0.5878873,1.4736414,-0.02597618,-0.63407856,-0.1377854,1.3997027,1.5686527
-0.2,-0.2,0.6,-0.5235987755982988,-0.17453292519943286,0.34906585039886606,1.9476827,1.4554471,0.106224015,-0.052376226,0.044182315,1.1548051,0.72692746,-0.5850473,1.4678026,-0.07858372,-0.7025192,-0.14178862,1.4207138,1.5698512
-0.2,-0.2,0.6,-0.5235987755982988,-0.17453292519943286,0.34906585039886606,1.926954,1.4392092,0.1028097,-0.032091644,0.057628416,1.1787658,0.8007089,-0.5783935,1.4643835,-0.07301105,-0.6708643,-0.1504716,1.4114646,1.4586573
-0.2,-0.2,0.6,-0.5235987755982988,-0.17453292519943286,0.34906585039886606,1.9119704,1.4459618,0.11239755,-0.009167582,0.07862654,1.1436654,0.7334493,-0.5770314,1.4751685,-0.07851601,-0.6883523,-0.134794,1.4244231,1.4674594
-0.2,-0.2,0.6,-0.5235987755982988,-0.17453292519943286,0.34906585039886606,1.9492884,1.4342604,0.11080103,-0.013684761,0.038501438,1.1764088,0.9087427,-0.55295956,1.4664894,-0.07518958,-0.72176725,-0.1441708,1.4146992,1.4178087
-0.2,-0.2,0.6,-0.5235987755982988,-0.17453292519943286,0.34906585039886606,1.9183911,1.4372919,0.12062852,-0.042765435,0.04488703,1.1753298,0.875015,-0.5656983,1.4672858,-0.101147436,-0.6713966,-0.12418514,1.4139098,1.5633444
-0.2,-0.2,0.6,-0.5235987755982988,-0.17453292519943286,0.34906585039886606,1.9366603,1.4204987,0.13057698,-0.025264842,0.045543082,1.1567464,0.89301527,-0.57714725,1.4769431,-0.08133757,-0.6707568,-0.14771698,1.3974019,1.4067755
-0.2,-0.2,0.6,-0.5235987755982988,-0.17453292519943286,0.34906585039886606,1.943532,1.4466923,0.115342766,-0.013719553,0.04288279,1.1730893,0.7969132,-0.5611134,1.4716495,-0.08742959,-0.6529011,-0.16956699,1.4252688,1.4573171
-0.2,-0.2,0.6,-0.5235987755982988,-0.17453292519943286,0.34906585039886606,1.9513748,1.4306161,0.09606892,-0.0056890347,0.040751852,1.1483442,0.8867564,-0.58548516,1.4758853,-0.07549554,-0.6758713,-0.12626094,1.4206179,1.5289034
-0.2,-0.2,0.6,-0.5235987755982988,-0.17453292519943286,0.34906585039886606,1.9481307,1.4365432,0.10566672,-0.01249478,0.044731036,1.1414577,0.8764478,-0.5958676,1.4689163,-0.08160151,-0.68108964,-0.15867071,1.4053683,1.4868569
-0.2,-0.2,0.6,-0.5235987755982988,-0.17453292519943286,0.34906585039886606,1.8989972,1.439885,0.10120926,-0.016138833,0.072786115,1.1722047,0.8579923,-0.5793053,1.4637095,-0.06293592,-0.6370435,-0.13886109,1.4125015,1.5037382
-0.2,-0.2,0.6,-0.5235987755982988,-0.17453292519943286,0.34906585039886606,1.9139992,1.4324747,0.095803574,-0.011080295,0.02068931,1.1738912,0.82509536,-0.57517636,1.4704101,-0.0822385,-0.7701426,-0.17598861,1.406865,1.5584179
-0.2,-0.2,0.6,-0.5235987755982988,-0.17453292519943286,0.34906585039886606,1.9245121,1.4443327,0.10292725,-0.013310068,0.03163988,1.1806372,0.8999603,-0.56872505,1.4712503,-0.102129444,-0.7098501,-0.15723044,1.4332385,1.5720714
-0.2,-0.2,0.6,-0.5235987755982988,-0.17453292519943286,0.34906585039886606,1.9159839,1.4301767,0.09948494,-0.010020535,0.0593403,1.1708869,0.8850757,-0.5765097,1.4752221,-0.08299363,-0.6718985,-0.14875008,1.4088203,1.5219165
-0.2,-0.2,0.6,-0.5235987755982988,-0.17453292519943286,0.34906585039886606,1.9221009,1.4448661,0.09648431,-0.013052733,0.0577262,1.1592607,0.8099269,-0.56760806,1.4713757,-0.055249944,-0.7343993,-0.1594924,1.4075098,1.4781858
-0.2,-0.2,0.6,-0.5235987755982988,-0.17453292519943286,0.34906585039886606,1.9013513,1.4385608,0.110570945,-0.013134941,0.039897643,1.1686138,0.8379645,-0.55673873,1.4695528,-0.075109504,-0.6068731,-0.13689978,1.3921784,1.4910965
-0.2,-0.2,0.6,-0.5235987755982988,-0.17453292519943286,0.34906585039886606,1.9401267,1.4248513,0.11390549,-0.023396937,0.05752702,1.1669593,0.8874697,-0.59288955,1.4718517,-0.07874111,-0.67899877,-0.14481464,1.3946364,1.5758426
-0.2,-0.2,0.6,-0.5235987755982988,-0.17453292519943286,0.34906585039886606,1.9002012,1.4381914,0.102779135,0.008391561,0.046122033,1.172218,0.91961783,-0.5689933,1.4695026,-0.0671296,-0.7535255,-0.1533104,1.4113483,1.5591798
-0.2,-0.2,0.6,-0.5235987755982988,-0.17453292519943286,0.34906585039886606,1.9071882,1.4290555,0.10811773,-0.012386707,0.03842775,1.145875,1.0792738,-0.5636928,1.4701483,-0.101404764,-0.6327014,-0.14721537,1.3759899,1.4938469
-0.2,-0.2,0.6,-0.5235987755982988,-0.17453292519943286,0.34906585039886606,1.9046035,1.4435176,0.114458404,0.0008768361,0.06392377,1.1539532,0.90788037,-0.562801,1.4674693,-0.08420099,-0.6746024,-0.14801827,1.4187889,1.5261816
-0.2,-0.2,0.6,-0.5235987755982988,-0.17453292519943286,0.34906585039886606,1.8909246,1.4175756,0.09551723,-0.019490337,0.039174058,1.1205764,0.80968153,-0.5819684,1.4699326,-0.099449515,-0.664886,-0.1437437,1.4267896,1.4704077
-0.2,-0.2,0.6,-0.5235987755982988,-0.17453292519943286,0.34906585039886606,1.9089446,1.4488933,0.083183825,-0.009071942,0.06918531,1.1590301,0.8722645,-0.56908923,1.4754049,-0.07410025,-0.6680182,-0.1327753,1.4328029,1.4578327
-0.2,-0.2,0.6,-0.5235987755982988,-0.17453292519943286,0.34906585039886606,1.9415536,1.4299858,0.109769605,-0.033922896,0.03992155,1.1694779,0.9496705,-0.5804714,1.4668871,-0.08555129,-0.6609514,-0.16748947,1.4088854,1.462871
-0.2,-0.2,0.6,-0.5235987755982988,-0.17453292519943286,0.34906585039886606,1.9687676,1.4348638,0.11852095,-0.021912158,0.05241327,1.1302264,0.9362917,-0.58526313,1.4728346,-0.08965042,-0.6933669,-0.12760866,1.4138114,1.473037
-0.2,-0.2,0.6,-0.5235987755982988,-0.17453292519943286,0.34906585039886606,1.887021,1.4364083,0.11451356,-0.006903449,0.05283647,1.1673094,0.84970295,-0.5827958,1.4674894,-0.08683474,-0.72995365,-0.10301924,1.4035021,1.5191278
-0.2,-0.2,0.6,-0.5235987755982988,-0.17453292519943286,0.34906585039886606,1.9605874,1.4359518,0.10419074,-0.008555498,0.051949713,1.1455308,0.89357454,-0.55916154,1.4701318,-0.07069403,-0.73963696,-0.13616154,1.4013882,1.4767646
-0.2,-0.2,0.6,-0.5235987755982988,-0.17453292519943286,0.34906585039886606,1.9100808,1.4307259,0.108908884,-0.012624654,0.04923349,1.1495543,0.73822784,-0.5671032,1.4661645,-0.054761454,-0.70689785,-0.13503572,1.4193221,1.5089566
-0.2,-0.2,0.6,-0.5235987755982988,-0.17453292519943286,0.34906585039886606,1.9171215,1.4290365,0.109479055,-0.013795955,0.057440344,1.1656588,0.8706205,-0.58885556,1.4701333,-0.082528815,-0.7039255,-0.12888446,1.3903774,1.5614635
-0.2,-0.2,0.6,-0.5235987755982988,-0.17453292519943286,0.34906585039886606,1.9111744,1.4304228,0.13187322,0.0050620986,0.062240284,1.1406275,0.8843077,-0.5822646,1.471375,-0.0783431,-0.66944873,-0.15445158,1.4062915,1.511888
-0.2,-0.2,0.6,-0.5235987755982988,-0.17453292519943286,0.34906585039886606,1.9193486,1.4374865,0.12820284,-0.01788382,0.034761082,1.1670678,0.8131872,-0.57451135,1.4657637,-0.10058478,-0.6533198,-0.15193,1.4301723,1.5479339
-0.2,-0.2,0.6,-0.5235987755982988,-0.17453292519943286,0.34906585039886606,1.953029,1.4429541,0.10643601,-0.028652765,0.061539765,1.1538633,0.8604234,-0.57851356,1.4738896,-0.09343188,-0.6653074,-0.15111548,1.4034961,1.5588403
-0.2,-0.2,0.6,-0.5235987755982988,-0.17453292519943286,0.34906585039886606,1.9365634,1.4326785,0.112893716,-0.0034025128,0.03816727,1.1743616,0.7729317,-0.5665351,1.4623725,-0.0916326,-0.6398964,-0.14623137,1.4146146,1.5706555
-0.2,-0.2,0.6,-0.5235987755982988,-0.17453292519943286,0.34906585039886606,1.9066241,1.4244189,0.11767803,-0.029846774,0.04614129,1.1607212,0.7853853,-0.5861124,1.4656698,-0.08191617,-0.6538081,-0.16036466,1.4074879,1.352184
-0.2,-0.2,0.6,-0.5235987755982988,-0.17453292519943286,0.34906585039886606,1.9566387,1.4331356,0.1168175,-0.01593246,0.057699353,1.139218,0.86732674,-0.56934696,1.4723711,-0.081469506,-0.64830667,-0.14031142,1.434647,1.47446
-0.2,-0.2,0.6,-0.5235987755982988,-0.17453292519943286,0.34906585039886606,1.9679668,1.4324094,0.099795744,-0.01966134,0.055368796,1.1950977,0.8154016,-0.6112908,1.4712644,0.03449276,-0.57480323,-0.14367773,1.416606,1.4929522
-0.2,-0.2,0.6,-0.5235987755982988,-0.17453292519943286,0.34906585039886606,1.9274386,1.4441506,0.11465439,-0.0054217423,0.011096522,1.1824986,0.8982016,-0.56614786,1.4667176,-0.0754267,-0.7382247,-0.13842183,1.4110028,1.5399481
-0.2,-0.2,0.6,-0.5235987755982988,-0.17453292519943286,0.34906585039886606,1.9419847,1.4287322,0.11738821,-0.02943661,0.046269406,1.1763684,0.9309947,-0.57620716,1.4709978,-0.076537386,-0.64077574,-0.14848262,1.4004074,1.4906937
-0.2,-0.2,0.6,-0.5235987755982988,-0.17453292519943286,0.34906585039886606,1.8992074,1.423112,0.11990001,-0.020275418,0.057582177,1.1543324,0.8455199,-0.5870938,1.467148,-0.06870134,-0.6688135,-0.16524544,1.4083076,1.4621212
-0.2,-0.2,0.6,-0.5235987755982988,-0.17453292519943286,0.34906585039886606,1.9227941,1.4457678,0.1260522,-0.027091442,0.05920105,1.1463169,0.8636721,-0.5666904,1.4678746,-0.100485,-0.6661003,-0.13138978,1.423281,1.4528334
-0.2,-0.2,0.6,-0.5235987755982988,-0.17453292519943286,0.34906585039886606,1.9546151,1.4345268,0.105076514,-0.01403299,0.024939172,1.1755006,0.82141376,-0.57533073,1.4676967,-0.08326358,-0.66988146,-0.1512655,1.4127014,1.428196
-0.2,-0.2,0.6,-0.5235987755982988,-0.17453292519943286,0.34906585039886606,1.8996179,1.4431003,0.09998581,-0.009010482,0.022015177,1.1775826,0.8448184,-0.5826137,1.4727234,-0.07966187,-0.6611275,-0.14048567,1.4230902,1.5258504
-0.2,-0.2,0.6,-0.5235987755982988,-0.17453292519943286,0.34906585039886606,1.8945733,1.4298913,0.10994136,-0.025754998,0.05551471,1.1522205,0.79795957,-0.5826243,1.4638702,-0.07191003,-0.64412934,-0.14467144,1.4092121,1.432761
-0.2,-0.2,0.6,-0.5235987755982988,-0.17453292519943286,0.34906585039886606,1.8911325,1.4257766,0.114204094,0.006446284,0.026893921,1.1603243,0.806944,-0.5810415,1.4724412,-0.08061226,-0.7472262,-0.16129033,1.3878082,1.5476032
-0.2,-0.2,0.6,-0.5235987755982988,-0.17453292519943286,0.34906585039886606,1.9285773,1.4325712,0.11299305,0.00399281,0.03809182,1.1632267,0.7990441,-0.5824043,1.4672244,-0.069063365,-0.68574315,-0.14418438,1.4207232,1.4548701
-0.2,-0.2,0.6,-0.5235987755982988,-0.17453292519943286,0.34906585039886606,1.9127604,1.4384583,0.11533289,-0.009621369,0.032640465,1.1775248,0.829972,-0.5878352,1.4717145,-0.070262425,-0.7262752,-0.13799219,1.4067814,1.4307646
-0.2,-0.2,0.6,-0.5235987755982988,-0.17453292519943286,0.34906585039886606,1.9448969,1.4324508,0.09328876,0.010061978,0.038819753,1.1530979,0.8382872,-0.5612431,1.4729786,-0.066806555,-0.64370793,-0.12293833,1.3967131,1.5279101
-0.2,-0.2,0.6,-0.5235987755982988,-0.17453292519943286,0.34906585039886606,1.9169384,1.4189454,0.10961873,-0.017882874,0.049994424,1.141308,0.9863816,-0.57292974,1.4675616,-0.10305574,-0.6692219,-0.13826638,1.4053859,1.3592583
-0.2,-0.2,0.6,-0.5235987755982988,-0.17453292519943286,0.34906585039886606,1.9126849,1.434676,0.11453682,-0.035832584,0.030825332,1.1704994,0.89159626,-0.5772144,1.461679,-0.08846843,-0.6562544,-0.13707459,1.3935612,1.4823154
-0.2,-0.2,0.6,-0.5235987755982988,-0.17453292519943286,0.34906585039886606,1.9100227,1.4397731,0.103545316,0.010270303,0.024299832,1.1606026,0.779238,-0.5800072,1.4771866,-0.081939295,-0.6865941,-0.13858822,1.4340608,1.49025
-0.2,-0.2,0.6,-0.5235987755982988,-0.17453292519943286,0.34906585039886606,1.9413091,1.4382886,0.11525704,-0.014289487,0.058999643,1.1269279,0.7917703,-0.5829741,1.4762383,-0.08016187,-0.66365695,-0.13740669,1.4031153,1.4028057
-0.2,-0.2,0.6,-0.5235987755982988,-0.17453292519943286,0.34906585039886606,1.9396567,1.4355145,0.11881764,-0.02082738,0.052287053,1.1618719,0.8281024,-0.57032275,1.4673775,-0.07104489,-0.7411448,-0.12335261,1.4298964,1.5037348
-0.2,-0.2,0.6,-0.5235987755982988,-0.17453292519943286,0.34906585039886606,1.8895562,1.4416007,0.11648738,0.0069452683,0.053695887,1.1013657,0.76198715,-0.5807816,1.4693758,-0.084647715,-0.63718915,-0.145401,1.4138142,1.5056335
-0.2,-0.2,0.6,-0.5235987755982988,-0.17453292519943286,0.34906585039886606,1.9275514,1.4304616,0.10305837,-0.013864522,0.045825705,1.1444072,0.8065796,-0.56516653,1.4709711,-0.07363904,-0.63580513,-0.13914865,1.4269325,1.4771267
-0.2,-0.2,0.6,-0.5235987755982988,-0.17453292519943286,0.34906585039886606,1.9033962,1.4349523,0.1239906,-0.026494682,0.051582526,1.15253,0.83456475,-0.57405704,1.4722326,-0.075566635,-0.64647794,-0.14979845,1.4268111,1.4503089
-0.2,-0.2,0.6,-0.5235987755982988,-0.17453292519943286,0.34906585039886606,1.8733537,1.4298853,0.109936215,-0.015084129,0.041777924,1.156726,0.8702739,-0.5890075,1.47411,-0.10090481,-0.6463033,-0.117122315,1.4165351,1.4689165
-0.2,-0.2,0.6,-0.5235987755982988,-0.17453292519943286,0.34906585039886606,1.9063258,1.4332201,0.114855506,-0.0059708348,0.033860732,1.1233879,0.83372134,-0.57073927,1.471537,-0.10740352,-0.6702849,-0.11268645,1.4273425,1.4724184
-0.2,-0.2,0.6,-0.5235987755982988,-0.17453292519943286,0.34906585039886606,1.937569,1.4548701,0.08532402,-0.008204289,0.048776366,1.1722987,0.9128332,-0.579552,1.4656839,-0.073601216,-0.6663348,-0.1318079,1.4250017,1.5208933
-0.2,-0.2,0.6,-0.5235987755982988,-0.17453292519943286,0.34906585039886606,1.9271536,1.4334478,0.09385422,-0.03342708,0.02758554,1.1569029,0.9610927,-0.577512,1.4671807,-0.069722496,-0.6304455,-0.13923284,1.4010394,1.4736998
-0.2,-0.2,0.6,-0.5235987755982988,-0.17453292519943286,0.34906585039886606,1.913305,1.4409366,0.11969743,-0.0040223575,0.050586224,1.1352478,0.79501057,-0.56417483,1.4729984,-0.09559972,-0.65997887,-0.13998522,1.3943427,1.5546541
-0.2,-0.2,0.6,-0.5235987755982988,-0.17453292519943286,0.34906585039886606,1.9143625,1.4395268,0.11216183,-0.019317789,0.06343028,1.1606313,0.9051455,-0.59046525,1.4672203,-0.07811832,-0.6577181,-0.14005823,1.4010075,1.4885249
-0.2,-0.2,0.6,-0.5235987755982988,-0.17453292519943286,0.34906585039886606,1.9583025,1.4348944,0.116616495,-0.033318143,0.040849984,1.136788,0.873869,-0.57199687,1.4679433,-0.07390477,-0.65501046,-0.15736835,1.4352981,1.4747468
-0.2,-0.2,0.6,-0.5235987755982988,-0.17453292519943286,0.34906585039886606,1.8878663,1.4382101,0.11263124,-0.0057928935,0.07302134,1.1424052,0.8900175,-0.57948244,1.4699504,-0.08177383,-0.68412423,-0.15003344,1.4107629,1.4398317
-0.2,-0.2,0.6,-0.5235987755982988,-0.17453292519943286,0.34906585039886606,1.9495952,1.4215217,0.091677405,-0.013520869,0.05376355,1.1557074,0.8583029,-0.5814383,1.4696548,-0.09927946,-0.6570727,-0.12591954,1.4126081,1.5320121
-0.2,-0.2,0.6,-0.5235987755982988,-0.17453292519943286,0.34906585039886606,1.9347949,1.4401823,0.0970242,-0.024242915,0.061507113,1.1177802,0.91972685,-0.58827555,1.4664189,-0.07525177,-0.74658,-0.14377415,1.4186585,1.438003
-0.2,-0.2,0.6,-0.5235987755982988,-0.17453292519943286,0.34906585039886606,1.9462019,1.4329147,0.11019416,-0.027353538,0.043543726,1.1444684,0.7361054,-0.584715,1.4671214,-0.090548046,-0.6604443,-0.13934079,1.4026778,1.4559925
-0.2,-0.2,0.6,-0.5235987755982988,-0.17453292519943286,0.34906585039886606,1.9213524,1.4364263,0.09783961,-0.016363299,0.05823249,1.173803,0.78731734,-0.5819225,1.4707459,-0.08552295,-0.6789189,-0.11162217,1.4139613,1.4006265
-0.2,-0.2,0.6,-0.5235987755982988,-0.17453292519943286,0.34906585039886606,1.9260027,1.4326085,0.123615116,-0.029374512,0.062269,1.1496222,0.78386104,-0.5778817,1.4728371,-0.0923284,-0.6571576,-0.12937786,1.4322481,1.5818876
-0.2,-0.2,0.6,-0.5235987755982988,-0.17453292519943286,0.34906585039886606,1.9213338,1.4401522,0.114410155,-0.04858067,0.043684762,1.1612792,0.89204615,-0.5748111,1.4685662,-0.0764462,-0.65743816,-0.15538438,1.42346,1.5176376
-0.2,-0.2,0.6,-0.5235987755982988,-0.17453292519943286,0.34906585039886606,1.8662398,1.4403762,0.11995906,-0.0030706236,0.038921755,1.1533917,0.8391784,-0.57976454,1.4701828,-0.089723594,-0.7267465,-0.1373686,1.3928912,1.4566336
-0.2,-0.2,0.6,-0.5235987755982988,-0.17453292519943286,0.34906585039886606,1.9474428,1.4262177,0.10390792,-0.017344752,0.047036733,1.1577348,0.89357716,-0.5620546,1.4609207,-0.08633182,-0.65917766,-0.15243293,1.4090713,1.4109353
-0.2,-0.2,0.6,-0.5235987755982988,-0.17453292519943286,0.34906585039886606,1.888994,1.4330912,0.12872903,-0.015130201,0.040289614,1.1362817,0.8097078,-0.57380944,1.4667051,-0.0873879,-0.6477339,-0.14679609,1.4126108,1.4689772
-0.2,-0.2,0.6,-0.5235987755982988,-0.17453292519943286,0.34906585039886606,1.9049445,1.4408121,0.11665669,-0.019719996,0.060029645,1.1579556,0.92355156,-0.5774694,1.4732889,-0.07681624,-0.6286112,-0.14249241,1.4060358,1.4753553
-0.2,-0.2,0.6,-0.5235987755982988,-0.17453292519943286,0.34906585039886606,1.9000345,1.4302104,0.12465935,-0.01375364,0.03954829,1.1635718,0.9403397,-0.57061917,1.464933,-0.086553045,-0.6350319,-0.14049532,1.4048657,1.4980507
-0.2,-0.2,0.6,-0.5235987755982988,-0.17453292519943286,0.34906585039886606,1.9146024,1.4434241,0.108712025,0.0029778748,0.049376164,1.1222805,0.772646,-0.5761612,1.4685054,-0.08552273,-0.62257224,-0.11794125,1.4140325,1.4890277
-0.2,-0.2,0.6,-0.5235987755982988,-0.17453292519943286,0.34906585039886606,1.9048535,1.4282614,0.12339427,-0.011014534,0.054908615,1.1512746,0.87413484,-0.5704053,1.4715327,-0.07690848,-0.73213553,-0.15371726,1.4275004,1.5042971
-0.2,-0.2,0.6,-0.5235987755982988,-0.17453292519943286,0.34906585039886606,1.9326044,1.4371434,0.102333985,-0.007056287,0.043379515,1.1769221,0.80290437,-0.56291807,1.4688911,-0.079068124,-0.65450394,-0.16459896,1.4140123,1.4706315
-0.2,-0.2,0.6,-0.5235987755982988,-0.17453292519943286,0.34906585039886606,1.9319112,1.4395369,0.122509845,0.0013320813,0.048468497,1.1526574,0.9073713,-0.57448083,1.4696833,-0.0885829,-0.6937466,-0.10743497,1.4072789,1.4819162
-0.2,-0.2,0.6,-0.5235987755982988,-0.17453292519943286,0.34906585039886606,1.9073465,1.4400939,0.11975695,-0.03681939,0.059778403,1.1679112,0.86935496,-0.5566496,1.474339,-0.0743438,-0.6013013,-0.12911454,1.3907261,1.5364945
-0.2,-0.2,0.6,-0.5235987755982988,-0.17453292519943286,0.34906585039886606,1.9226279,1.4404353,0.11380765,0.0040661893,0.0493926,1.1531341,0.8025523,-0.58535916,1.4766498,-0.06796891,-0.6593637,-0.14065471,1.4092022,1.4784454
-0.2,-0.2,0.6,-0.5235987755982988,-0.17453292519943286,0.34906585039886606,1.9207816,1.4397486,0.09444829,-0.0118646305,0.056638073,1.1562545,0.8307436,-0.57715213,1.4682564,-0.028849596,-0.60360867,-0.15893342,1.4140167,1.527744
-0.2,-0.2,0.6,-0.5235987755982988,-0.17453292519943286,0.34906585039886606,1.9171144,1.4347239,0.10854989,-0.0020054355,0.04263854,1.1777395,0.94361675,-0.5860482,1.4755788,-0.08914196,-0.7722138,-0.15348071,1.4286953,1.5011884
-0.2,-0.2,0.6,-0.5235987755982988,-0.17453292519943286,0.34906585039886606,1.9184406,1.4395299,0.10142154,-0.014872039,0.029292697,1.1562749,0.97073776,-0.5729226,1.4671772,-0.07533828,-0.67842335,-0.12345712,1.4132504,1.5864066
-0.2,-0.2,0.6,-0.5235987755982988,-0.17453292519943286,0.34906585039886606,1.951885,1.4418648,0.117655806,-0.008022174,0.06314941,1.1710244,0.875287,-0.5738854,1.4653906,-0.095176116,-0.74211705,-0.14272173,1.4154236,1.4800302
-0.2,-0.2,0.6,-0.5235987755982988,-0.17453292519943286,0.34906585039886606,1.8966628,1.4391791,0.10041033,0.008953863,0.025572257,1.1565976,0.82496965,-0.5765248,1.4694469,-0.080569446,-0.6919171,-0.14942743,1.4279714,1.5238518
-0.2,-0.2,0.6,-0.5235987755982988,-0.17453292519943286,0.34906585039886606,1.9529493,1.4245677,0.131961,-0.020171579,0.056951143,1.1755276,0.70554495,-0.5726923,1.4731907,-0.089853816,-0.64844245,-0.13790217,1.4008365,1.4902774
-0.2,-0.2,0.6,-0.5235987755982988,-0.17453292519943286,0.34906585039886606,1.9306079,1.4397336,0.12807357,-0.018482678,0.034877256,1.1890458,0.8679637,-0.5795969,1.4582992,-0.08058264,-0.6631594,-0.14745262,1.4135664,1.5362487
-0.2,-0.2,0.6,-0.5235987755982988,-0.17453292519943286,0.34906585039886606,1.9365245,1.4314591,0.108425006,-0.014386524,0.052763276,1.1871431,0.88659364,-0.5841001,1.4689554,-0.07756062,-0.63342726,-0.1494932,1.4288538,1.4452157
-0.2,-0.2,0.6,-0.5235987755982988,-0.17453292519943286,0.34906585039886606,1.8568394,1.4269745,0.110241786,0.00063180405,0.032498084,1.1938516,0.8253102,-0.58936316,1.4705615,-0.094583735,-0.6571054,-0.14322826,1.3807654,1.5971181
-0.2,-0.2,0.6,-0.5235987755982988,-0.17453292519943286,0.34906585039886606,1.9571743,1.4260939,0.11542779,-0.021278145,0.04301026,1.164798,0.90416646,-0.5634313,1.4701962,-0.09567258,-0.6420789,-0.12888417,1.4047337,1.5083097
-0.2,-0.2,0.6,-0.5235987755982988,-0.17453292519943286,0.34906585039886606,1.9371493,1.4355832,0.10105643,-0.0055954033,0.06864709,1.1851983,0.9890728,-0.5814988,1.4660953,-0.07238471,-0.72445667,-0.13519932,1.4036798,1.5219195
-0.2,-0.2,0.6,-0.5235987755982988,-0.17453292519943286,0.34906585039886606,1.9331079,1.4424428,0.116272874,-0.008588493,0.04916004,1.1466614,0.78374213,-0.5784969,1.4731616,-0.08712258,-0.74460083,-0.13722298,1.4106995,1.4157705
-0.2,-0.2,0.6,-0.5235987755982988,-0.17453292519943286,0.34906585039886606,1.9042464,1.4239146,0.11126572,-0.0090615535,0.04210751,1.1693825,0.84712124,-0.5910986,1.4710578,-0.09657334,-0.6896975,-0.14154564,1.3934226,1.5266365
-0.2,-0.2,0.6,-0.5235987755982988,-0.17453292519943286,0.34906585039886606,1.9415848,1.4309736,0.10881582,-0.008208516,0.043281972,1.1603713,0.91846573,-0.57376,1.4729013,-0.07515622,-0.6503387,-0.14703107,1.4165496,1.5080365
-0.2,-0.2,0.6,-0.5235987755982988,-0.17453292519943286,0.34906585039886606,1.9212397,1.4343638,0.116926774,-0.018382369,0.07141788,1.120585,0.97836006,-0.58164,1.471377,-0.08756247,-0.6798541,-0.14006495,1.4104295,1.3975577
-0.2,-0.2,0.6,-0.5235987755982988,-0.17453292519943286,0.34906585039886606,1.9155343,1.4358234,0.10189617,-0.00571149,0.042301778,1.174688,0.909119,-0.5533201,1.4729593,-0.079525225,-0.6155047,-0.13851058,1.3994215,1.5062643
-0.2,-0.2,0.6,-0.5235987755982988,-0.17453292519943286,0.34906585039886606,1.9536568,1.4281075,0.12223337,-0.01399448,0.029945016,1.1689667,0.8657447,-0.55704355,1.4745213,-0.081368126,-0.6320155,-0.14465262,1.4039953,1.4291036
-0.2,-0.2,0.6,-0.5235987755982988,-0.17453292519943286,0.34906585039886606,1.9133312,1.4412278,0.11812882,-0.02233558,0.044519477,1.1345274,0.9426453,-0.58405304,1.4718043,-0.07463764,-0.6588588,-0.15915495,1.4114394,1.4851446
-0.2,-0.2,0.6,-0.5235987755982988,-0.17453292519943286,0.34906585039886606,1.940539,1.4373803,0.120597236,-0.012979447,0.05788986,1.1664042,0.84528506,-0.5844138,1.467746,-0.06942188,-0.67148095,-0.13707249,1.421394,1.4916202
-0.2,-0.2,0.6,-0.5235987755982988,-0.17453292519943286,0.34906585039886606,1.9078106,1.4341694,0.1102714,-0.03285133,0.033133987,1.1454364,0.8902534,-0.58145255,1.4740956,-0.08274024,-0.6672085,-0.14017907,1.4341956,1.4420766
-0.2,-0.2,0.6,-0.5235987755982988,-0.17453292519943286,0.34906585039886606,1.9417166,1.4382092,0.1261391,-0.008162552,0.06037052,1.1623881,0.7680085,-0.56715417,1.4698026,-0.08835189,-0.64391166,-0.14037324,1.4089649,1.478724
-0.2,-0.2,0.6,-0.5235987755982988,-0.17453292519943286,0.34906585039886606,1.8993142,1.4310846,0.11177192,-0.009995911,0.044950955,1.1203887,0.77560806,-0.58980876,1.4699628,-0.08619231,-0.6822121,-0.13278869,1.4167876,1.4481745
-0.2,-0.2,0.6,-0.5235987755982988,-0.17453292519943286,0.34906585039886606,1.9008846,1.4406211,0.108857855,-0.0075842943,0.05673774,1.1883084,0.8258083,-0.5771473,1.4659711,-0.10376253,-0.74802154,-0.11946939,1.4044609,1.4966209
-0.2,-0.2,0.6,-0.5235987755982988,-0.17453292519943286,0.34906585039886606,1.9188409,1.4312273,0.10011911,-0.022570882,0.041396365,1.2008284,0.9012063,-0.5828734,1.4685367,-0.073691525,-0.6482971,-0.1359987,1.4137268,1.5275118
-0.2,-0.2,0.6,-0.5235987755982988,-0.17453292519943286,0.34906585039886606,1.9115402,1.4331678,0.11807335,-0.014056191,0.027622495,1.1424587,0.7006218,-0.58923614,1.468502,-0.07917564,-0.67186284,-0.12876506,1.4139813,1.5701855
-0.2,-0.2,0.6,-0.5235987755982988,-0.17453292519943286,0.34906585039886606,1.9131848,1.4358289,0.10463266,-0.020285072,0.043439016,1.1555301,0.8919034,-0.59972763,1.468916,-0.07194703,-0.66361594,-0.1367661,1.423618,1.5189306
-0.2,-0.2,0.6,-0.5235987755982988,-0.17453292519943286,0.34906585039886606,1.9582529,1.4406352,0.10679957,-0.01824314,0.01799319,1.1904682,0.8143206,-0.5825877,1.4622856,-0.07273617,-0.72457534,-0.14455025,1.4228234,1.4715016
-0.2,-0.2,0.6,-0.5235987755982988,-0.17453292519943286,0.34906585039886606,1.907827,1.4287763,0.09808316,-0.006661245,0.020840157,1.1757554,1.0360732,-0.5520297,1.464988,-0.09898913,-0.7383705,-0.10074947,1.4434322,1.486339
-0.2,-0.2,0.6,-0.5235987755982988,-0.17453292519943286,0.34906585039886606,1.9115984,1.4246542,0.10271245,0.0051031616,0.050281484,1.1629667,0.8472526,-0.57698864,1.4710989,-0.065267585,-0.66565686,-0.15903354,1.426125,1.4805716
-0.2,-0.2,0.6,-0.5235987755982988,-0.17453292519943286,0.34906585039886606,1.928482,1.4573785,0.10274814,-0.02366046,0.05422903,1.1669914,0.8825144,-0.5874271,1.4658613,-0.09030359,-0.7517509,-0.14168483,1.4125416,1.5069023
-0.2,-0.2,0.6,-0.5235987755982988,-0.17453292519943286,0.34906585039886606,1.9336811,1.4370991,0.10596494,-0.035607755,0.04729951,1.145816,0.92012334,-0.5766379,1.4716822,-0.028868428,-0.59876555,-0.1440947,1.4094433,1.4260132
-0.2,-0.2,0.6,-0.5235987755982988,-0.17453292519943286,0.34906585039886606,1.9043916,1.4335034,0.09405648,-0.0008938621,0.056665007,1.1791618,0.8668291,-0.57372975,1.4639888,-0.09050171,-0.6642181,-0.13282356,1.4273623,1.415292
-0.2,-0.2,0.6,-0.5235987755982988,-0.17453292519943286,0.34906585039886606,1.9069858,1.4299079,0.13566498,-0.012461438,0.062404923,1.1281033,0.9123415,-0.57524794,1.4667704,-0.07513586,-0.67644155,-0.12857328,1.4408615,1.5090523
-0.2,-0.2,0.6,-0.5235987755982988,-0.17453292519943286,0.34906585039886606,1.907773,1.428934,0.13189648,-0.022634653,0.029995942,1.1443586,0.847219,-0.57968605,1.470878,-0.08565764,-0.682874,-0.12593658,1.4213898,1.4912317
-0.2,-0.2,0.6,-0.5235987755982988,-0.17453292519943286,0.34906585039886606,1.9350358,1.4308969,0.11817657,-0.016462786,0.05369315,1.1809865,0.78520375,-0.5699848,1.4758589,-0.07206259,-0.7300733,-0.15639257,1.4030154,1.5293587
-0.2,-0.2,0.6,-0.5235987755982988,-0.17453292519943286,0.34906585039886606,1.912654,1.445362,0.09963651,-0.02060157,0.03931616,1.1674001,0.8744954,-0.5806169,1.4709543,-0.09641849,-0.6881497,-0.11506319,1.404058,1.5880827
-0.2,-0.2,0.6,-0.5235987755982988,-0.17453292519943286,0.34906585039886606,1.9363542,1.4335928,0.1091156,-0.012080273,0.049044803,1.1293247,0.76055145,-0.5569416,1.4752058,-0.062700614,-0.6318611,-0.12533455,1.4104065,1.4910344
-0.2,-0.2,0.6,-0.5235987755982988,-0.17453292519943286,0.34906585039886606,1.9265909,1.4371704,0.12430536,-0.008712185,0.03527525,1.1604514,0.7837747,-0.5798156,1.470085,-0.08564713,-0.65344244,-0.13176814,1.4046762,1.5332189
-0.2,-0.2,0.6,-0.5235987755982988,-0.17453292519943286,0.34906585039886606,1.9130958,1.4274846,0.10593437,0.009203844,0.032832436,1.1684268,0.83755934,-0.5670852,1.4740465,-0.09549696,-0.64190483,-0.11048938,1.4154929,1.4382482
-0.2,-0.2,0.6,-0.5235987755982988,-0.17453292519943286,0.34906585039886606,1.9209603,1.4388521,0.13010325,-0.03615408,0.036296196,1.1684456,0.8631705,-0.5761434,1.4695868,-0.09602445,-0.74693763,-0.14216068,1.4169703,1.4959375
-0.2,-0.2,0.6,-0.5235987755982988,-0.17453292519943286,0.34906585039886606,1.9021624,1.4185812,0.106824644,-0.014139104,0.010516828,1.1785997,0.82537484,-0.557582,1.4753655,-0.10938891,-0.6324652,-0.14067227,1.4154669,1.4562016
-0.2,-0.2,0.6,-0.5235987755982988,-0.17453292519943286,0.34906585039886606,1.9278173,1.4272726,0.096403174,-0.029554695,0.039028846,1.1771111,0.8833593,-0.58570164,1.4769024,-0.07115464,-0.6794797,-0.14214239,1.4216701,1.4648662
-0.2,-0.2,0.6,-0.5235987755982988,-0.17453292519943286,0.34906585039886606,1.918903,1.4379808,0.11553942,-0.0045995596,0.05822409,1.1509732,0.8494271,-0.5672585,1.4765067,-0.07120348,-0.6513431,-0.13661408,1.4037886,1.4674329
-0.2,-0.2,0.6,-0.5235987755982988,-0.17453292519943286,0.34906585039886606,1.9544696,1.4325672,0.12452552,-0.041416947,0.022078047,1.1350235,0.91807956,-0.5603314,1.4674587,-0.07414859,-0.64166653,-0.12579858,1.4160107,1.4146444
-0.2,-0.2,0.6,-0.5235987755982988,-0.17453292519943286,0.34906585039886606,1.9135758,1.429475,0.114868835,-0.015554341,0.06851488,1.1661564,0.98930335,-0.58661366,1.4674515,-0.082587205,-0.64527196,-0.14028662,1.4058194,1.4838294
-0.2,-0.2,0.6,-0.5235987755982988,-0.17453292519943286,0.34906585039886606,1.9172598,1.43702,0.117788665,-0.018692916,0.050375625,1.1532631,0.8615165,-0.58878183,1.4709072,-0.07145652,-0.73087,-0.13859044,1.4055604,1.5106838
-0.2,-0.2,0.6,-0.5235987755982988,-0.17453292519943286,0.34906585039886606,1.8904141,1.4519445,0.099370785,0.0064352974,0.057972986,1.1427649,0.90790004,-0.5947763,1.4678143,-0.077310346,-0.6666851,-0.12413257,1.4004836,1.4982013
-0.2,-0.2,0.6,-0.5235987755982988,-0.17453292519943286,0.34906585039886606,1.9252217,1.4430821,0.113948874,-0.01421214,0.04061477,1.1517943,0.9688224,-0.57032955,1.4714566,-0.09936784,-0.6570794,-0.13805366,1.4086297,1.5846931
-0.2,-0.2,0.6,-0.5235987755982988,-0.17453292519943286,0.34906585039886606,1.9049492,1.4429811,0.10890138,-0.01529257,0.04946602,1.1674889,0.73381716,-0.56814396,1.4703838,-0.10342552,-0.65099156,-0.13099097,1.4200572,1.4037545
-0.2,-0.2,0.6,-0.5235987755982988,-0.17453292519943286,0.34906585039886606,1.9054257,1.4357007,0.10964362,-0.0063286433,0.052283943,1.1762615,0.83459914,-0.55411637,1.4689791,-0.08834862,-0.60944057,-0.13208449,1.4343464,1.4342407
-0.2,-0.2,0.6,-0.5235987755982988,-0.17453292519943286,0.34906585039886606,1.9260643,1.4370863,0.08665811,-0.014442155,0.0488724,1.1447543,0.8418466,-0.58499265,1.4727693,-0.08619701,-0.6598767,-0.12342713,1.425099,1.5729002
-0.2,-0.2,0.6,-0.5235987755982988,-0.17453292519943286,0.34906585039886606,1.9405725,1.4444137,0.11986899,-0.032409415,0.04668348,1.1713797,0.9005915,-0.5883541,1.4708954,-0.09251702,-0.64581746,-0.12432399,1.4092185,1.5162605
-0.2,-0.2,0.6,-0.5235987755982988,-0.17453292519943286,0.34906585039886606,1.9359255,1.4373826,0.11267608,-0.0050523835,0.038129825,1.1310251,0.9263529,-0.5842663,1.4708439,-0.095816955,-0.66715366,-0.13141789,1.4095318,1.5954113
-0.2,-0.2,0.6,-0.5235987755982988,-0.17453292519943286,0.34906585039886606,1.9447663,1.4304668,0.09542629,-0.013235454,0.063997395,1.1509514,0.89080566,-0.58400273,1.4737667,-0.08447929,-0.65933394,-0.15170026,1.4402654,1.4525695
-0.2,-0.2,0.6,-0.5235987755982988,-0.17453292519943286,0.34906585039886606,1.9478881,1.4329244,0.10006727,-0.01823422,0.05057106,1.172955,0.9570738,-0.56034905,1.4700066,-0.08343896,-0.68239814,-0.123036936,1.4135767,1.5286258
-0.2,-0.2,0.6,-0.5235987755982988,-0.17453292519943286,0.34906585039886606,1.918996,1.4230216,0.091949865,-0.032626785,0.018797228,1.1415102,0.87814015,-0.57938945,1.4714648,-0.083454035,-0.65906733,-0.12855017,1.4042693,1.4474002
-0.2,-0.2,0.6,-0.5235987755982988,-0.17453292519943286,0.34906585039886606,1.9218643,1.4417441,0.09590149,-0.012541146,0.02190471,1.167051,0.8969308,-0.5714324,1.4642943,-0.07983147,-0.6321328,-0.12644732,1.4127325,1.3459184
-0.2,-0.2,0.6,-0.5235987755982988,-0.17453292519943286,0.34906585039886606,1.9374563,1.4276769,0.11608429,0.00065021345,0.056909353,1.1565039,0.8341002,-0.5534871,1.4702451,-0.07903372,-0.7221705,-0.1506772,1.4258522,1.5295795
-0.2,-0.2,0.6,-0.5235987755982988,-0.17453292519943286,0.34906585039886606,1.9335167,1.4262797,0.09055467,-0.0020274646,0.03359483,1.1632698,0.8174859,-0.576508,1.467721,-0.08153769,-0.6437326,-0.13484931,1.4175725,1.5467734
-0.2,-0.2,0.6,-0.5235987755982988,-0.17453292519943286,0.34906585039886606,1.9439557,1.4281714,0.12607922,-0.013441757,0.03584916,1.1566855,0.7605636,-0.57111835,1.4650943,-0.08416061,-0.64617836,-0.13610135,1.4194366,1.4033828
-0.2,-0.2,0.6,-0.5235987755982988,-0.17453292519943286,0.34906585039886606,1.8880628,1.43555,0.1128465,-0.014705287,0.06828002,1.1765224,0.7942034,-0.54735076,1.4701979,-0.08626984,-0.63549846,-0.14976512,1.4044046,1.4593807
-0.2,-0.2,0.6,-0.5235987755982988,-0.17453292519943286,0.34906585039886606,1.9334352,1.4401902,0.111680076,-0.01603083,0.07887795,1.1686256,0.85607034,-0.5880158,1.4703939,-0.08987807,-0.63961214,-0.12782402,1.4040351,1.4104146
-0.2,-0.2,0.6,-0.5235987755982988,-0.17453292519943286,0.34906585039886606,1.9144725,1.4335122,0.12334394,-0.00831781,0.04874301,1.1631186,0.8031511,-0.5859065,1.4701366,-0.069355756,-0.67616826,-0.13738479,1.4278181,1.4290352
-0.2,-0.2,0.6,-0.5235987755982988,-0.17453292519943286,0.34906585039886606,1.9390334,1.4425092,0.09899826,-0.010597013,0.033891115,1.1384091,0.85660625,-0.5819355,1.4656452,-0.08399565,-0.74338937,-0.13759139,1.3824269,1.5779253
-0.2,-0.2,0.6,-0.5235987755982988,-0.17453292519943286,0.34906585039886606,1.9258397,1.4389782,0.10906403,-0.047232337,0.051772457,1.1307057,0.8874035,-0.5540842,1.4778922,-0.0979119,-0.63583624,-0.12579532,1.4096009,1.5502748
-0.2,-0.2,0.6,-0.5235987755982988,-0.17453292519943286,0.34906585039886606,1.9288772,1.4418708,0.107071884,-0.017251331,0.033254735,1.1394447,0.8180595,-0.56704646,1.4765682,-0.0796759,-0.6356021,-0.14357261,1.4040078,1.4929267
-0.2,-0.2,0.6,-0.5235987755982988,-0.17453292519943286,0.34906585039886606,1.9007149,1.4299484,0.11016872,-0.033195514,0.042630456,1.149185,0.8111128,-0.5932629,1.4669617,-0.07616713,-0.7767729,-0.12424686,1.442898,1.4681363
-0.2,-0.2,0.6,-0.5235987755982988,-0.17453292519943286,0.34906585039886606,1.9241459,1.4347302,0.0923315,0.005471353,0.07114084,1.1688397,0.8475759,-0.5573469,1.4740709,-0.075549565,-0.72459126,-0.16266301,1.4162512,1.5606496
-0.2,-0.2,0.6,-0.5235987755982988,-0.17453292519943286,0.34906585039886606,1.9242218,1.4309537,0.087507054,0.013368968,0.054212555,1.1648028,0.99327534,-0.5850934,1.467019,-0.11830746,-0.66066885,-0.12036383,1.4028227,1.4785715
-0.2,-0.2,0.6,-0.5235987755982988,-0.17453292519943286,0.34906585039886606,1.9324785,1.430113,0.10536923,-0.006588023,0.04857252,1.1817555,0.925885,-0.57688063,1.4732064,-0.07822674,-0.6374728,-0.117508255,1.4248235,1.5249642
-0.2,-0.2,0.6,-0.5235987755982988,-0.17453292519943286,0.34906585039886606,1.9305114,1.4403021,0.09480067,-0.013837801,0.064454965,1.1589036,0.8421802,-0.54082185,1.4687874,-0.095378526,-0.60645545,-0.1605392,1.4028484,1.5145848
-0.2,-0.2,0.6,-0.5235987755982988,-0.17453292519943286,0.34906585039886606,1.9417775,1.4427147,0.12520726,-0.05405299,0.04810236,1.152072,0.9542614,-0.5845182,1.4694848,-0.09916884,-0.67551297,-0.1250399,1.4112847,1.4720719
-0.2,-0.2,0.6,-0.5235987755982988,-0.17453292519943286,0.34906585039886606,1.9208341,1.4404128,0.10243885,-0.0124415,0.057207126,1.1426145,0.8980976,-0.5845757,1.471759,-0.07768425,-0.6818015,-0.14059083,1.4355898,1.4293407
-0.2,-0.2,0.6,-0.5235987755982988,-0.17453292519943286,0.34906585039886606,1.9429199,1.4336196,0.10007776,-0.0010891282,0.04041577,1.1438521,1.000421,-0.58140844,1.4656761,-0.07872731,-0.66217893,-0.14043559,1.4224181,1.4450327
-0.2,-0.2,0.6,-0.5235987755982988,-0.17453292519943286,0.34906585039886606,1.9555856,1.4376881,0.1300556,-0.025699958,0.048471447,1.1740521,0.839504,-0.57728803,1.4658684,-0.08700826,-0.63660336,-0.12822358,1.4314371,1.457822
-0.2,-0.2,0.6,-0.5235987755982988,-0.17453292519943286,0.34906585039886606,1.9416617,1.4364429,0.1196375,-0.007748475,0.0678967,1.1700172,0.837244,-0.5690869,1.4644411,-0.098701105,-0.63625723,-0.13645814,1.4158567,1.452785
-0.2,-0.2,0.6,-0.5235987755982988,-0.17453292519943286,0.34906585039886606,1.9376518,1.4539918,0.110143945,-0.020630628,0.04569295,1.1727341,0.8929566,-0.57535934,1.4703366,-0.1006725,-0.6702939,-0.13083562,1.40845,1.5126665
-0.2,-0.2,0.6,-0.5235987755982988,-0.17453292519943286,0.34906585039886606,1.9000133,1.4299502,0.105094105,0.012617368,0.040393345,1.1540596,0.8879072,-0.5750483,1.472528,-0.09847099,-0.65208364,-0.14156927,1.4173932,1.5025221
-0.2,-0.2,0.6,-0.5235987755982988,-0.17453292519943286,0.34906585039886606,1.9230078,1.4268335,0.11753558,-0.010326465,0.053879358,1.1521263,0.80835396,-0.57613254,1.4726725,-0.08073598,-0.6509766,-0.17406756,1.4186959,1.5010684
-0.2,-0.2,0.6,-0.5235987755982988,-0.17453292519943286,0.34906585039886606,1.9518436,1.4244901,0.110367484,0.010459089,0.052213687,1.1391267,0.80959904,-0.6023137,1.4722489,-0.08147158,-0.6696264,-0.15427355,1.4049313,1.5270354
-0.2,-0.2,0.6,-0.5235987755982988,-0.17453292519943286,0.34906585039886606,1.9303458,1.4368243,0.105763614,-0.010387568,0.027129116,1.1459008,0.8812671,-0.5721156,1.4741781,-0.089239806,-0.62662446,-0.16417594,1.4398785,1.5415417
-0.2,-0.2,0.6,-0.5235987755982988,-0.17453292519943286,0.34906585039886606,1.9249152,1.4360523,0.09180117,-0.03554108,0.04059987,1.1660357,0.88036054,-0.5791408,1.4676547,-0.08024016,-0.64958906,-0.15450458,1.4047977,1.5429217
-0.2,-0.2,0.6,-0.5235987755982988,-0.17453292519943286,0.34906585039886606,1.9119005,1.4429427,0.097006954,0.012979318,0.060243778,1.1521333,0.6959205,-0.58193415,1.4664127,-0.08612827,-0.6444006,-0.12907073,1.4232618,1.5087734
-0.2,-0.2,0.6,-0.5235987755982988,-0.17453292519943286,0.34906585039886606,1.9225367,1.4256601,0.113146834,0.002291304,0.04680091,1.1682215,0.8112007,-0.6064806,1.4674017,-0.075927034,-0.63556314,-0.14567539,1.4111948,1.4478506
-0.2,-0.2,0.6,-0.5235987755982988,-0.17453292519943286,0.34906585039886606,1.9333215,1.437467,0.11292726,-0.030025983,0.05303051,1.1472847,0.88228786,-0.5868977,1.4664093,-0.08066065,-0.59389913,-0.15772992,1.4202857,1.567922
-0.2,-0.2,0.6,-0.5235987755982988,-0.17453292519943286,0.34906585039886606,1.8923726,1.440762,0.095918834,-0.022892486,0.05874299,1.149519,0.8275635,-0.5732878,1.4689705,-0.06846538,-0.66920406,-0.15180215,1.4231164,1.4400761
-0.2,-0.2,0.6,-0.5235987755982988,-0.17453292519943286,0.34906585039886606,1.9241319,1.4412065,0.121733725,-0.033868734,0.05117537,1.1776862,0.77281576,-0.5679862,1.4732805,-0.08159209,-0.6424507,-0.13718762,1.4009827,1.5569806
-0.2,-0.2,0.6,-0.5235987755982988,-0.17453292519943286,0.34906585039886606,1.9289722,1.4393923,0.12135046,0.0031005288,0.052517146,1.159732,0.856643,-0.5807216,1.4700594,-0.08911221,-0.68795294,-0.14642324,1.3983299,1.4234797
-0.2,-0.2,0.6,-0.5235987755982988,-0.17453292519943286,0.34906585039886606,1.8771647,1.426412,0.11155194,-0.008729772,0.049443986,1.1670618,0.79158103,-0.57181394,1.4702085,-0.0882683,-0.62254876,-0.13687915,1.3979452,1.5254322
-0.2,-0.2,0.6,-0.5235987755982988,-0.17453292519943286,0.34906585039886606,1.9641054,1.4359027,0.1045921,-0.008190772,0.05385072,1.1906844,0.8945241,-0.58327216,1.4619675,-0.066154815,-0.7489166,-0.15953182,1.4154875,1.4089373
-0.2,-0.2,0.6,-0.5235987755982988,-0.17453292519943286,0.34906585039886606,1.9469334,1.4289255,0.119518206,-0.020223854,0.028157076,1.1782619,0.7436072,-0.5901263,1.4637523,-0.08166943,-0.60300905,-0.15190108,1.40545,1.4492604
-0.2,-0.2,0.6,-0.5235987755982988,-0.17453292519943286,0.34906585039886606,1.9434507,1.4505305,0.10104988,-0.0075239544,0.03579257,1.1528223,0.8522293,-0.58525395,1.4659615,-0.081931055,-0.7576026,-0.15371773,1.4373305,1.4969321
-0.2,-0.2,0.6,-0.5235987755982988,-0.17453292519943286,0.34906585039886606,1.9367247,1.4236902,0.12943937,-0.010405087,0.06491118,1.1760801,0.9431223,-0.5809613,1.4680861,-0.093602166,-0.64900345,-0.1441598,1.4089253,1.4962076
-0.2,-0.2,0.6,-0.5235987755982988,-0.17453292519943286,0.34906585039886606,1.9117038,1.4271775,0.100551836,0.010419323,0.06044916,1.1701883,0.7691536,-0.570069,1.4779959,-0.09061126,-0.6427131,-0.14185874,1.403454,1.5533345
-0.2,-0.2,0.6,-0.5235987755982988,-0.17453292519943286,0.34906585039886606,1.9106196,1.434364,0.111214206,-0.014036568,0.047416404,1.1529288,0.73967016,-0.57276076,1.4723868,-0.06412305,-0.6307568,-0.11873076,1.4150957,1.4559081
-0.2,-0.2,0.6,-0.5235987755982988,-0.17453292519943286,0.34906585039886606,1.9495345,1.4308459,0.1244525,-0.005597662,0.063867785,1.1726949,0.89418364,-0.5741442,1.4703252,-0.06869944,-0.63617265,-0.15030946,1.4177394,1.4335837
-0.2,-0.2,0.6,-0.5235987755982988,-0.17453292519943286,0.34906585039886606,1.9445,1.4393219,0.12867527,-0.013301176,0.03658876,1.1601645,0.6818778,-0.5785846,1.4689689,-0.079151414,-0.6457157,-0.14759353,1.4300745,1.4005613
-0.2,-0.2,0.6,-0.5235987755982988,-0.17453292519943286,0.34906585039886606,1.9154295,1.4407566,0.09797492,-0.031070113,0.06480796,1.1622803,0.92218333,-0.57031316,1.4756396,-0.090532504,-0.63914526,-0.15747148,1.3806058,1.5122886
-0.2,-0.2,0.6,-0.5235987755982988,-0.17453292519943286,0.34906585039886606,1.9089766,1.4355522,0.10661457,-0.002065541,0.040494043,1.1453427,0.92941314,-0.57890034,1.4675167,-0.09343754,-0.6541904,-0.15142305,1.4165741,1.4351844
-0.2,-0.2,0.6,-0.5235987755982988,-0.17453292519943286,0.34906585039886606,1.929889,1.4389014,0.13656451,0.0031405394,0.042377688,1.1593533,0.85750216,-0.5712475,1.4711401,-0.094526894,-0.64877546,-0.15831625,1.4080037,1.5145576
-0.2,-0.2,0.6,-0.5235987755982988,-0.17453292519943286,0.34906585039886606,1.8984829,1.4336053,0.10978095,-0.0046955203,0.036298532,1.1622633,0.8696819,-0.5889947,1.4666355,-0.078884065,-0.66124576,-0.122134246,1.3984957,1.4874549
-0.2,-0.2,0.6,-0.5235987755982988,-0.17453292519943286,0.34906585039886606,1.9365311,1.4371227,0.103840806,-0.029828887,0.06566902,1.1497505,0.74521565,-0.58229536,1.4693105,-0.096427396,-0.63736,-0.13457248,1.4393711,1.5355358
-0.2,-0.2,0.6,-0.5235987755982988,-0.17453292519943286,0.34906585039886606,1.9499736,1.4321314,0.0953404,0.00718862,0.022009749,1.1406285,0.81618536,-0.5824583,1.4686077,-0.08920092,-0.67821705,-0.13776818,1.420483,1.4671053
-0.2,-0.2,0.6,-0.5235987755982988,-0.17453292519943286,0.34906585039886606,1.8997097,1.4512693,0.09676768,-0.01429706,0.033526298,1.1467241,0.8531043,-0.57325786,1.4608749,-0.08265475,-0.662053,-0.15703315,1.3822557,1.4484694
-0.2,-0.2,0.6,-0.5235987755982988,-0.17453292519943286,0.34906585039886606,1.9141543,1.4331579,0.09717827,-0.0047072223,0.033519365,1.1501801,0.8355752,-0.58479595,1.4683063,-0.070666306,-0.6302087,-0.14571455,1.3990862,1.5183051
-0.2,-0.2,0.6,-0.5235987755982988,-0.17453292519943286,0.34906585039886606,1.9004871,1.445032,0.106492475,-0.014787034,0.064333215,1.1501933,0.8579571,-0.583969,1.4695626,-0.07408595,-0.6484417,-0.13631007,1.4055858,1.6444988
-0.2,-0.2,0.6,-0.5235987755982988,-0.17453292519943286,0.34906585039886606,1.9246762,1.4366533,0.10948988,-0.021067511,0.057918772,1.1538225,0.90612924,-0.5668176,1.4605341,-0.10998278,-0.6406312,-0.15174511,1.3950067,1.5676721
-0.2,-0.2,0.6,-0.5235987755982988,-0.17453292519943286,0.34906585039886606,1.9040105,1.4288019,0.12139886,-0.0072787,0.05174064,1.1588504,0.9976777,-0.5826228,1.4724852,-0.09090734,-0.683292,-0.16280897,1.4372494,1.5054396
-0.2,-0.2,0.6,-0.5235987755982988,-0.17453292519943286,0.34906585039886606,1.8806889,1.4488641,0.11592279,-0.0118904775,0.06684077,1.1602341,0.8510562,-0.5767138,1.4647856,-0.07827862,-0.65252006,-0.13198106,1.4176879,1.5114754
-0.2,-0.2,0.6,-0.5235987755982988,-0.17453292519943286,0.34906585039886606,1.9120766,1.4288454,0.118603416,-0.01140824,0.051532116,1.1509876,0.8761033,-0.576657,1.4727399,-0.09152431,-0.6545597,-0.15298696,1.4341359,1.5034937
-0.2,-0.2,0.6,-0.5235987755982988,-0.17453292519943286,0.34906585039886606,1.9031464,1.4376343,0.10765603,-0.008330247,0.049435377,1.1670482,0.90382594,-0.5808294,1.4725399,-0.057115313,-0.67062765,-0.14167805,1.4175249,1.4780397
-0.2,-0.2,0.6,-0.5235987755982988,-0.17453292519943286,0.34906585039886606,1.9021281,1.4347014,0.11706935,0.002496484,0.055824216,1.1814997,0.84839875,-0.59805816,1.4759576,-0.09122415,-0.6702755,-0.13234733,1.4177043,1.5145304
-0.2,-0.2,0.6,-0.5235987755982988,-0.17453292519943286,0.34906585039886606,1.937535,1.4341031,0.118210845,-0.025681274,0.080287494,1.140173,0.7703371,-0.56524104,1.4663161,-0.08966014,-0.6490713,-0.13336474,1.4157164,1.5517457
-0.2,-0.2,0.6,-0.5235987755982988,-0.17453292519943286,0.34906585039886606,1.9161628,1.4341607,0.11283745,-0.028049419,0.069606885,1.1673195,0.7723675,-0.6054136,1.4667217,-0.09125992,-0.7004076,-0.14898238,1.4152552,1.5322074
-0.2,-0.2,0.6,-0.5235987755982988,-0.17453292519943286,0.34906585039886606,1.9700168,1.4419497,0.10337296,-0.013141819,0.046433795,1.1825236,0.8857958,-0.58880335,1.4684801,-0.09505435,-0.60691655,-0.14593682,1.4101769,1.432028
-0.2,-0.2,0.6,-0.5235987755982988,-0.17453292519943286,0.34906585039886606,1.9141474,1.4272134,0.09556895,-0.012381408,0.042901445,1.1469864,0.89916116,-0.592522,1.4705935,-0.095732085,-0.6589209,-0.15319255,1.4128898,1.5798472
-0.2,-0.2,0.6,-0.5235987755982988,-0.17453292519943286,0.34906585039886606,1.9345547,1.4304619,0.12111088,-0.008953804,0.03643713,1.1618783,0.69914675,-0.5785737,1.4663396,-0.083310865,-0.62825555,-0.14497557,1.4054366,1.5027723
-0.2,-0.2,0.6,-0.5235987755982988,-0.17453292519943286,0.34906585039886606,1.9141198,1.4449841,0.12179762,-0.0060133543,0.06840654,1.1119093,0.87767416,-0.56925046,1.4650989,-0.09902604,-0.650089,-0.12694557,1.4035667,1.5126389
-0.2,-0.2,0.6,-0.5235987755982988,-0.17453292519943286,0.34906585039886606,1.9160972,1.4341716,0.11953914,-0.008601063,0.05764078,1.1554344,0.782805,-0.5687126,1.4666007,-0.08304926,-0.6540458,-0.16284822,1.4115171,1.4939747
-0.2,-0.2,0.6,-0.5235987755982988,-0.17453292519943286,0.34906585039886606,1.9317594,1.4284521,0.116140604,-0.01562342,0.058099147,1.1411085,0.80916375,-0.57370263,1.4711337,-0.08389624,-0.6061512,-0.15920222,1.3806926,1.4860457
-0.2,-0.2,0.6,-0.5235987755982988,-0.17453292519943286,0.34906585039886606,1.9533018,1.4369265,0.08204469,-0.017948108,0.04889536,1.1705905,0.9858493,-0.57202744,1.4684063,-0.09608058,-0.6370416,-0.14869992,1.4107733,1.5671979
-0.2,-0.2,0.6,-0.5235987755982988,-0.17453292519943286,0.34906585039886606,1.9664211,1.4339097,0.0936842,-0.02865054,0.028187755,1.1641771,0.8568655,-0.5704646,1.4687146,-0.08792504,-0.60487354,-0.15135133,1.4242337,1.5630909
-0.2,-0.2,0.6,-0.5235987755982988,-0.17453292519943286,0.34906585039886606,1.930217,1.4361725,0.12183467,-0.0056707286,0.020144992,1.1428018,0.85460687,-0.5943776,1.4673774,-0.08644589,-0.654575,-0.13785872,1.4189899,1.4337637
-0.2,-0.2,0.6,-0.5235987755982988,-0.17453292519943286,0.34906585039886606,1.9325737,1.4358261,0.10852709,-0.017780734,0.03983316,1.1521639,0.8546312,-0.5519582,1.4672348,-0.10042282,-0.67122775,-0.14886856,1.417684,1.5077589
-0.2,-0.2,0.6,-0.5235987755982988,-0.17453292519943286,0.34906585039886606,1.9193497,1.4344338,0.108989745,0.0069195596,0.041315947,1.1577569,0.72860026,-0.57856447,1.4718692,-0.092474416,-0.66056913,-0.1649509,1.4153385,1.5340437
-0.2,-0.2,0.6,-0.5235987755982988,-0.17453292519943286,0.34906585039886606,1.934717,1.4240667,0.11426169,0.0007812536,0.03748264,1.1589266,0.7827535,-0.56474143,1.475365,-0.10816587,-0.65516967,-0.14823993,1.4083554,1.5038791
-0.2,-0.2,0.6,-0.5235987755982988,-0.17453292519943286,0.34906585039886606,1.9307262,1.4360152,0.1293632,-0.024427097,0.048445072,1.1539679,0.74428016,-0.5791022,1.4695915,-0.09389485,-0.65099764,-0.1311285,1.4139054,1.5397425
-0.2,-0.2,0.6,-0.5235987755982988,-0.17453292519943286,0.34906585039886606,1.9340788,1.4325895,0.09199557,-0.029309789,0.03925442,1.1635097,0.9227725,-0.58169484,1.4700098,-0.06528475,-0.6197052,-0.13442408,1.4304672,1.5422918
-0.2,-0.2,0.6,-0.5235987755982988,-0.17453292519943286,0.34906585039886606,1.9001086,1.4408737,0.11178122,-0.013582756,0.060859766,1.1766877,0.922868,-0.5651565,1.46153,-0.087214574,-0.62396544,-0.14844006,1.413377,1.4973787
-0.2,-0.2,0.6,-0.5235987755982988,-0.17453292519943286,0.34906585039886606,1.9330418,1.4400218,0.101986416,-0.025476893,0.025131935,1.1533564,0.84742105,-0.5747135,1.4646251,-0.093851246,-0.6800669,-0.14294918,1.4252616,1.480468
-0.2,-0.2,0.6,-0.5235987755982988,-0.17453292519943286,0.34906585039886606,1.9215783,1.4289812,0.13112195,-0.014306765,0.07457516,1.1454496,0.88812935,-0.5642524,1.4660928,-0.07582351,-0.67645156,-0.15340286,1.4132766,1.434086
-0.2,-0.2,0.6,-0.5235987755982988,-0.17453292519943286,0.34906585039886606,1.9389414,1.4404911,0.12599362,-0.050163727,0.05282994,1.1817712,0.85013264,-0.5562462,1.4757636,-0.09055948,-0.6484208,-0.14770988,1.4195455,1.4948637
-0.2,-0.2,0.6,-0.5235987755982988,-0.17453292519943286,0.34906585039886606,1.9266503,1.4361157,0.11210747,-0.01673037,0.04638609,1.1424054,0.8571182,-0.60247767,1.4646788,-0.08592411,-0.61303884,-0.13488933,1.4082321,1.5158365
-0.2,-0.2,0.6,-0.5235987755982988,-0.17453292519943286,0.34906585039886606,1.8719126,1.44571,0.118947506,0.0042671994,0.04856391,1.1549615,0.7122218,-0.60067093,1.4707719,-0.064396486,-0.6480798,-0.13467196,1.4294919,1.5152333
-0.2,-0.2,0.6,-0.5235987755982988,-0.17453292519943286,0.34906585039886606,1.9263972,1.4375609,0.12459947,-0.015390912,0.030998172,1.1857461,0.92535,-0.58341306,1.4628295,-0.09957452,-0.6622406,-0.12037819,1.4127437,1.5161945
-0.2,-0.2,0.6,-0.5235987755982988,-0.17453292519943286,0.34906585039886606,1.9203011,1.4373176,0.11966436,-0.024923349,0.03785753,1.1550558,0.8892178,-0.5802416,1.468564,-0.08741067,-0.65340203,-0.14353965,1.4332304,1.5002453
-0.2,-0.2,0.6,-0.5235987755982988,-0.17453292519943286,0.34906585039886606,1.9513078,1.4533831,0.11406049,-0.011034635,0.05219417,1.1553987,0.7528024,-0.58444923,1.4659122,-0.083730675,-0.6676766,-0.14421092,1.4116124,1.5013348
-0.2,-0.2,0.6,-0.5235987755982988,-0.17453292519943286,0.34906585039886606,1.9386113,1.4363792,0.118619986,-0.019354245,0.048664294,1.1606476,0.9643893,-0.5680159,1.4728885,-0.10279378,-0.6354709,-0.13751464,1.3951002,1.4794471
-0.2,-0.2,0.6,-0.5235987755982988,-0.17453292519943286,0.34906585039886606,1.9264079,1.4388634,0.11141454,-0.024185488,0.046196196,1.138318,0.8705773,-0.5560144,1.4654201,-0.09440335,-0.62495816,-0.12847926,1.4028403,1.5305954
-0.2,-0.2,0.6,-0.5235987755982988,-0.17453292519943286,0.34906585039886606,1.956621,1.431829,0.092276916,-0.006008983,0.033174552,1.155735,0.84023356,-0.58376545,1.467709,-0.06833226,-0.6413341,-0.13243717,1.3986207,1.4464142
-0.2,-0.2,0.6,-0.5235987755982988,-0.17453292519943286,0.34906585039886606,1.9089277,1.4425918,0.110638306,-0.022903617,0.06101895,1.1293077,0.8474573,-0.5702985,1.4700822,-0.09900393,-0.64778435,-0.12872958,1.4106045,1.4770869
-0.2,-0.2,0.6,-0.5235987755982988,-0.17453292519943286,0.34906585039886606,1.9349283,1.4392017,0.13810861,-0.016454892,0.07320186,1.1577382,0.87571055,-0.5628524,1.466801,-0.086401954,-0.6215951,-0.1358625,1.4476435,1.5232191
-0.2,-0.2,0.6,-0.5235987755982988,-0.17453292519943286,0.34906585039886606,1.9122543,1.4424847,0.12481944,-0.03864984,0.03066713,1.1456312,0.8096325,-0.5989233,1.4737799,-0.061984263,-0.68055457,-0.15811472,1.4282076,1.439542
-0.2,-0.2,0.6,-0.5235987755982988,-0.17453292519943286,0.34906585039886606,1.9006171,1.4306732,0.10013175,-0.022914467,0.041136216,1.1621068,0.96494883,-0.5709265,1.4705487,-0.084965065,-0.6499444,-0.14623877,1.4109743,1.5291455
-0.2,-0.2,0.6,-0.5235987755982988,-0.17453292519943286,0.34906585039886606,1.935605,1.4394094,0.10915438,-0.0048596463,0.04034873,1.2021923,0.7184876,-0.6010139,1.4754305,-0.09501052,-0.7087971,-0.17625506,1.4292313,1.4916322
-0.2,-0.2,0.6,-0.5235987755982988,-0.17453292519943286,0.34906585039886606,1.8963593,1.4320626,0.13142815,-0.003064741,0.031050632,1.148819,0.7832144,-0.56383765,1.4668243,-0.083287075,-0.63622653,-0.14427102,1.4143939,1.4793365
-0.2,-0.2,0.6,-0.5235987755982988,-0.17453292519943286,0.34906585039886606,1.9041543,1.4383978,0.12713714,-0.027454471,0.03135766,1.1542104,0.7806995,-0.5748296,1.4700431,-0.08375684,-0.65487105,-0.12394985,1.4203955,1.4997798
-0.2,-0.2,0.6,-0.5235987755982988,-0.17453292519943286,0.34906585039886606,1.9448195,1.4284198,0.11057385,-0.017507434,0.051842123,1.1533799,0.8319001,-0.58476096,1.4686658,-0.07574425,-0.6004038,-0.14121756,1.3797004,1.5407355
-0.2,-0.2,0.6,-0.5235987755982988,-0.17453292519943286,0.34906585039886606,1.9251255,1.4303448,0.12216322,-0.0031565218,0.031706784,1.1519579,0.79751694,-0.5898778,1.4660109,-0.080051884,-0.6640793,-0.13764721,1.3776764,1.5207694
-0.2,-0.2,0.6,-0.5235987755982988,-0.17453292519943286,0.34906585039886606,1.9336128,1.4451188,0.121564105,-0.00253573,0.052724864,1.1794118,0.89613605,-0.5691001,1.4691129,-0.08575017,-0.616787,-0.12008982,1.4143591,1.4491309
-0.2,-0.2,0.6,-0.5235987755982988,-0.17453292519943286,0.34906585039886606,1.8942069,1.4179684,0.09039354,0.0010128827,0.06412739,1.1595254,0.8212781,-0.58770436,1.4688722,-0.07850926,-0.6244064,-0.15432574,1.3895891,1.5182264
-0.2,-0.2,0.6,-0.5235987755982988,-0.17453292519943286,0.34906585039886606,1.9165603,1.4522818,0.10416579,0.008346868,0.05124649,1.1661056,0.8441797,-0.5960116,1.4684937,-0.06810348,-0.64846075,-0.13860431,1.4156258,1.4996023
-0.2,-0.2,0.6,-0.5235987755982988,-0.17453292519943286,0.34906585039886606,1.9200256,1.4433197,0.10657629,0.0047358396,0.048967738,1.1655625,0.86997813,-0.5747034,1.4675238,-0.10471564,-0.6464327,-0.13238947,1.4034259,1.5452182
-0.2,-0.2,0.6,-0.5235987755982988,-0.17453292519943286,0.34906585039886606,1.908126,1.431262,0.09463436,-0.008168932,0.053999953,1.1653453,0.7897862,-0.5687475,1.4730734,-0.076083906,-0.6447637,-0.13233137,1.4119971,1.4712541
-0.2,-0.2,0.6,-0.5235987755982988,-0.17453292519943286,0.34906585039886606,1.952278,1.4471352,0.11037524,-0.026142498,0.03673033,1.1578182,0.9337353,-0.5736717,1.4698113,-0.078755505,-0.6604796,-0.16839741,1.4447215,1.4380497
-0.2,-0.2,0.6,-0.5235987755982988,-0.17453292519943286,0.34906585039886606,1.93756,1.4395194,0.10471943,-0.020743275,0.03786825,1.1568758,0.8957924,-0.5803845,1.4715879,-0.07208157,-0.7483787,-0.13574705,1.4294932,1.5329534
-0.2,-0.2,0.6,-0.5235987755982988,-0.17453292519943286,0.34906585039886606,1.934598,1.4412539,0.12477484,-0.023905786,0.032393392,1.1710601,0.9413254,-0.6039543,1.465139,-0.09299677,-0.64146644,-0.11754911,1.4190896,1.4517517
-0.2,-0.2,0.6,-0.5235987755982988,-0.17453292519943286,0.34906585039886606,1.9235686,1.4367814,0.115447715,-0.03435849,0.03962258,1.1514276,0.88973606,-0.56980246,1.4760274,-0.0832268,-0.6330647,-0.1497637,1.4171786,1.5512228
-0.2,-0.2,0.6,-0.5235987755982988,-0.17453292519943286,0.34906585039886606,1.9370006,1.4414599,0.091389276,-0.008165232,0.05627813,1.1610663,0.8224817,-0.59051186,1.4670837,-0.090712465,-0.67084706,-0.1244816,1.424932,1.4182649
-0.2,-0.2,0.6,-0.5235987755982988,-0.17453292519943286,0.34906585039886606,1.9531593,1.438644,0.10382863,0.013752381,0.034817,1.1778618,0.85628355,-0.5750028,1.4684569,-0.066830255,-0.6103905,-0.15452228,1.3956376,1.5138924
-0.2,-0.2,0.6,-0.5235987755982988,-0.17453292519943286,0.34906585039886606,1.905334,1.4241906,0.10904835,-0.0034146314,0.048672624,1.1671988,0.7841403,-0.58081055,1.4701773,-0.09997123,-0.6622738,-0.15705985,1.4113691,1.4687835
-0.2,-0.2,0.6,-0.5235987755982988,-0.17453292519943286,0.34906585039886606,1.923145,1.4313669,0.11781159,-0.007764605,0.066424385,1.1667466,0.87844807,-0.59717494,1.4738239,-0.092354886,-0.64937073,-0.1157863,1.4007072,1.5201409
-0.2,-0.2,0.6,-0.5235987755982988,-0.17453292519943286,0.34906585039886606,1.9516401,1.4345851,0.114191376,-0.06095882,0.06053417,1.1600912,0.87014335,-0.56170374,1.4619865,-0.091835424,-0.6533492,-0.15113701,1.4331175,1.3965801
-0.2,-0.2,0.6,-0.5235987755982988,-0.17453292519943286,0.34906585039886606,1.9065241,1.4362518,0.102230586,-0.0016525679,0.046852995,1.1506478,0.83927065,-0.56300277,1.472485,-0.06999012,-0.6397505,-0.13247219,1.4216887,1.5185888
-0.2,-0.2,0.6,-0.5235987755982988,-0.17453292519943286,0.34906585039886606,1.9194235,1.4305515,0.1213769,-0.02581453,0.009074653,1.1428137,0.8904109,-0.5919823,1.4650613,-0.077230096,-0.67144763,-0.14792742,1.3997623,1.516997
-0.2,-0.2,0.6,-0.5235987755982988,-0.17453292519943286,0.34906585039886606,1.931764,1.4289567,0.113729864,-0.010635377,0.042268734,1.1633043,0.84986365,-0.5707897,1.4685076,-0.08760694,-0.6631615,-0.13349295,1.3904365,1.4741383
-0.2,-0.2,0.6,-0.5235987755982988,-0.17453292519943286,0.34906585039886606,1.901324,1.4429604,0.12349087,-0.013091452,0.034180075,1.1685095,0.87782836,-0.5652268,1.4734845,-0.07771313,-0.6747414,-0.14865188,1.4114773,1.3415821
-0.2,-0.2,0.6,-0.5235987755982988,-0.17453292519943286,0.34906585039886606,1.939723,1.4303988,0.10048836,-0.000667489,0.055556882,1.1743581,0.85570514,-0.57381123,1.4728475,-0.08731475,-0.64647543,-0.13560112,1.4251511,1.5064268
-0.2,-0.2,0.6,-0.5235987755982988,-0.17453292519943286,0.34906585039886606,1.9286757,1.44378,0.0896723,-0.015813783,0.048007723,1.1681181,0.79524904,-0.58654,1.4685563,-0.10840666,-0.6978133,-0.13480063,1.4317251,1.5091997
-0.2,-0.2,0.6,-0.5235987755982988,-0.17453292519943286,0.34906585039886606,1.9456983,1.4489242,0.11202346,-0.011534866,0.092175305,1.1546581,0.79759926,-0.55933064,1.4710238,-0.08091014,-0.6172968,-0.13809782,1.4221375,1.4438689
-0.2,-0.2,0.6,-0.5235987755982988,-0.17453292519943286,0.34906585039886606,1.8971889,1.4219176,0.1290278,-0.0096827885,0.03150532,1.1844249,0.84582496,-0.59088427,1.4698275,-0.08052244,-0.637386,-0.12982842,1.4068925,1.4701707
-0.2,-0.2,0.6,-0.5235987755982988,-0.17453292519943286,0.34906585039886606,1.9122221,1.4201393,0.09996369,-0.037113022,0.061988834,1.1444079,0.9267189,-0.57504404,1.4741983,-0.09376292,-0.67491025,-0.14698327,1.4422367,1.4476817
-0.2,-0.2,0.6,-0.5235987755982988,-0.17453292519943286,0.34906585039886606,1.907519,1.4478388,0.11001309,-0.009283566,0.052928455,1.1555588,0.8421789,-0.5802896,1.4722204,-0.08457841,-0.6315162,-0.119645365,1.403983,1.4930291
-0.2,-0.2,0.6,-0.5235987755982988,-0.17453292519943286,0.34906585039886606,1.9178895,1.4424152,0.12072114,-0.017381167,0.04385614,1.1617596,0.90776795,-0.58753633,1.4665883,-0.07754226,-0.62683624,-0.14225358,1.4265888,1.4724257
-0.2,-0.2,0.6,-0.5235987755982988,-0.17453292519943286,0.34906585039886606,1.8852704,1.4467717,0.12448769,-0.008095271,0.03710684,1.1511248,0.89530265,-0.5794,1.470373,-0.039477207,-0.6032232,-0.14591387,1.4276308,1.5164245
-0.2,-0.2,0.6,-0.5235987755982988,-0.17453292519943286,0.34906585039886606,1.9356376,1.4298961,0.11176823,-0.020384746,0.054777116,1.1663066,0.8656885,-0.56959313,1.470441,-0.096843325,-0.64742035,-0.15273666,1.4050113,1.5493159
-0.2,-0.2,0.6,-0.5235987755982988,-0.17453292519943286,0.34906585039886606,1.9022278,1.4349238,0.11814216,-0.020888556,0.056802336,1.1462431,0.822863,-0.5957892,1.4628532,-0.06523694,-0.6216593,-0.13492686,1.4084764,1.5314331
-0.2,-0.2,0.6,-0.5235987755982988,-0.17453292519943286,0.34906585039886606,1.9573774,1.4233124,0.10973111,-0.022260714,0.037706885,1.142771,0.8510086,-0.5753892,1.4698638,-0.0899743,-0.67659336,-0.12405396,1.4371846,1.4498614
-0.2,-0.2,0.6,-0.5235987755982988,-0.17453292519943286,0.34906585039886606,1.8975124,1.4361274,0.1038905,-0.0398052,0.05001817,1.1511838,0.88272715,-0.57610166,1.4694108,-0.09451105,-0.654201,-0.12374812,1.4241405,1.4749925
-0.2,-0.2,0.6,-0.5235987755982988,-0.17453292519943286,0.34906585039886606,1.9213874,1.4571896,0.12404538,-0.004010408,0.02706816,1.1653279,0.76538515,-0.56848466,1.4694369,-0.102399565,-0.67149305,-0.13760507,1.4111444,1.4963826
-0.2,-0.2,0.6,-0.5235987755982988,-0.17453292519943286,0.34906585039886606,1.9331913,1.4239308,0.12694831,0.0026652673,0.053700786,1.1728272,0.8173202,-0.57821333,1.4655107,-0.09535628,-0.65039885,-0.13960625,1.4115623,1.408491
-0.2,-0.2,0.6,-0.5235987755982988,-0.17453292519943286,0.34906585039886606,1.9125495,1.4227953,0.10478607,-0.012288007,0.041918986,1.1528908,0.84227204,-0.5769343,1.4642073,-0.09589824,-0.66656756,-0.15709049,1.4059644,1.4909443
-0.2,-0.2,0.6,-0.5235987755982988,-0.17453292519943286,0.34906585039886606,1.9145364,1.448198,0.10379208,0.014033705,0.04011801,1.1655313,0.83371085,-0.5855025,1.4688913,-0.09412319,-0.65703166,-0.16304007,1.3912306,1.5080397
-0.2,-0.2,0.6,-0.5235987755982988,-0.17453292519943286,0.34906585039886606,1.971269,1.4308759,0.1346388,-0.039128773,0.060646236,1.1518661,0.8053329,-0.572563,1.4735289,-0.06685952,-0.65919864,-0.14184201,1.4390316,1.4767894
-0.2,-0.2,0.6,-0.5235987755982988,-0.17453292519943286,0.34906585039886606,1.9192371,1.4467974,0.11626897,-0.017913045,0.06486056,1.1713736,0.8274522,-0.58942646,1.4713945,-0.07027509,-0.62924236,-0.13764139,1.4126979,1.4475777
-0.2,-0.2,0.6,-0.5235987755982988,-0.17453292519943286,0.34906585039886606,1.9529697,1.4276199,0.123828955,-0.019559445,0.056777272,1.1562384,0.85445833,-0.5529016,1.4763939,-0.08458102,-0.6178732,-0.15784651,1.400802,1.397306
-0.2,-0.2,0.6,-0.5235987755982988,-0.17453292519943286,0.34906585039886606,1.903708,1.4436309,0.10895919,0.013403819,0.020960363,1.1582739,0.90744483,-0.5681777,1.472102,-0.08902126,-0.64565057,-0.14815348,1.3963989,1.4578296
-0.2,-0.2,0.6,-0.5235987755982988,-0.17453292519943286,0.34906585039886606,1.8780705,1.4218708,0.105385415,-0.013908525,0.04740134,1.1820662,0.898371,-0.5702657,1.4695523,-0.10620997,-0.62824225,-0.126106,1.396335,1.5015731
-0.2,-0.2,0.6,-0.5235987755982988,-0.17453292519943286,0.34906585039886606,1.9470773,1.4267572,0.101385176,-0.010890204,0.04586066,1.1542515,0.8975998,-0.5723588,1.468388,-0.09456577,-0.65006495,-0.13908887,1.4319105,1.5053333
-0.2,-0.2,0.6,-0.5235987755982988,-0.17453292519943286,0.34906585039886606,1.9275247,1.4325712,0.11853766,0.0058809486,0.044355758,1.1640354,0.960064,-0.61296844,1.4720861,-0.081071846,-0.76412773,-0.15876369,1.4245479,1.4290103
-0.2,-0.2,0.6,-0.5235987755982988,-0.17453292519943286,0.34906585039886606,1.9186777,1.4275216,0.10910152,-0.011565344,0.038271613,1.1561053,0.76526797,-0.5682726,1.474807,-0.09419039,-0.64628375,-0.16381262,1.4196897,1.4873061
-0.2,-0.2,0.6,-0.5235987755982988,-0.17453292519943286,0.34906585039886606,1.8914639,1.4418759,0.103111275,-0.028161023,0.01614843,1.1701937,0.8924742,-0.5526844,1.4647963,-0.087267786,-0.6363677,-0.1669279,1.4189656,1.574658
-0.2,-0.2,0.6,-0.5235987755982988,-0.17453292519943286,0.34906585039886606,1.9339378,1.4312458,0.13325457,0.002461512,0.063644215,1.170183,0.75565857,-0.5787867,1.4683702,-0.09009504,-0.6408289,-0.13489445,1.4081696,1.4260947
-0.2,-0.2,0.6,-0.5235987755982988,-0.17453292519943286,0.34906585039886606,1.9196352,1.441031,0.11843037,-0.004028328,0.04717375,1.1685435,0.7638325,-0.5562839,1.4688674,-0.09647067,-0.62153965,-0.12872913,1.4195385,1.5270315
-0.2,-0.2,0.6,-0.5235987755982988,-0.17453292519943286,0.34906585039886606,1.9251707,1.4359143,0.09971899,-0.034534566,0.051598735,1.1378164,0.91044384,-0.571954,1.4594837,-0.07092301,-0.65385115,-0.14761749,1.4257573,1.5253562
-0.2,-0.2,0.6,-0.5235987755982988,-0.17453292519943286,0.34906585039886606,1.9549323,1.4257482,0.09062569,-0.028226247,0.060870104,1.1789647,0.86105204,-0.57498944,1.4686496,-0.07674597,-0.64410233,-0.16419992,1.4396816,1.4871055
-0.2,-0.2,0.6,-0.5235987755982988,-0.17453292519943286,0.34906585039886606,1.9215956,1.4281725,0.124060445,-0.03717421,0.051967364,1.1626956,0.80721307,-0.6016405,1.4730564,-0.07578987,-0.64131254,-0.14865719,1.4029969,1.4750354
-0.2,-0.2,0.6,-0.5235987755982988,-0.17453292519943286,0.34906585039886606,1.9246438,1.4243708,0.10264755,0.01423629,0.03934484,1.153705,0.91973734,-0.57186276,1.463991,-0.083938904,-0.64140165,-0.14673354,1.4068795,1.4882296
-0.2,-0.2,0.6,-0.5235987755982988,-0.17453292519943286,0.34906585039886606,1.9598718,1.4272331,0.09449203,-0.010101001,0.06862906,1.1394925,0.8716161,-0.55106765,1.4697399,-0.08591541,-0.61885995,-0.14591816,1.4256198,1.4629502
-0.2,-0.2,0.6,-0.5235987755982988,-0.17453292519943286,0.34906585039886606,1.9199529,1.4427612,0.10841533,-0.02433553,0.036277343,1.1525778,0.94690627,-0.56422037,1.4723947,-0.06832508,-0.6293679,-0.16465478,1.4174477,1.519955
-0.2,-0.2,0.6,-0.5235987755982988,-0.17453292519943286,0.34906585039886606,1.9292848,1.4226009,0.09624293,-0.009264956,0.050844003,1.1573544,0.82759213,-0.56453174,1.4637456,-0.07667425,-0.6749485,-0.13995749,1.4641695,1.570944
-0.2,-0.2,0.6,-0.5235987755982988,-0.17453292519943286,0.34906585039886606,1.9108288,1.43604,0.11269948,-0.0030389894,0.044443704,1.1511728,0.95569456,-0.58305997,1.4657365,-0.099312514,-0.6776228,-0.118971765,1.4192033,1.490094
-0.2,-0.2,0.6,-0.5235987755982988,-0.17453292519943286,0.34906585039886606,1.9491352,1.4441028,0.115601115,-0.015686471,0.076207034,1.1770749,0.8459276,-0.58175355,1.4693089,-0.08613606,-0.65197825,-0.14491503,1.4170734,1.4033104
-0.2,-0.2,0.6,-0.5235987755982988,-0.17453292519943286,0.34906585039886606,1.8997852,1.4304025,0.08555205,0.01743032,0.05312215,1.1584036,0.8389932,-0.5761528,1.4716821,-0.08753541,-0.68252766,-0.14503111,1.4305842,1.47248
-0.2,-0.2,0.6,-0.5235987755982988,-0.17453292519943286,0.34906585039886606,1.913014,1.4435773,0.11807113,-0.021043085,0.054721404,1.1461787,0.8369289,-0.57380086,1.474384,-0.08013851,-0.6322532,-0.14918272,1.4259851,1.4548229
-0.2,-0.2,0.6,-0.5235987755982988,-0.17453292519943286,0.34906585039886606,1.9274584,1.4357791,0.112271965,-0.022422967,0.049218446,1.1442547,0.81851894,-0.5594111,1.4694786,-0.106409065,-0.62509555,-0.14043778,1.4170705,1.4348574
-0.2,-0.2,0.6,-0.5235987755982988,-0.17453292519943286,0.34906585039886606,1.9133368,1.4317816,0.10925103,-0.02458705,0.016272081,1.1369812,0.7589415,-0.57501477,1.4691039,-0.0920644,-0.6509562,-0.14316654,1.4213746,1.4141301
-0.2,-0.2,0.6,-0.5235987755982988,-0.17453292519943286,0.34906585039886606,1.8852657,1.4360952,0.12099559,-0.0029949434,0.05411685,1.1547048,0.8915016,-0.57575357,1.4700898,-0.08741627,-0.6280806,-0.123802885,1.4151534,1.5288312
-0.2,-0.2,0.6,-0.5235987755982988,-0.17453292519943286,0.34906585039886606,1.9312006,1.4313822,0.1016677,-0.018906515,0.07000525,1.1485857,0.7493511,-0.581543,1.4723749,-0.07715868,-0.67213345,-0.13072078,1.4273269,1.5021887
-0.2,-0.2,0.6,-0.5235987755982988,-0.17453292519943286,0.34906585039886606,1.8922898,1.4350139,0.10821116,-0.008687686,0.04389492,1.141144,0.8744066,-0.57137865,1.4668456,-0.09022895,-0.6499251,-0.1367949,1.4188621,1.4574256
-0.2,-0.2,0.6,-0.5235987755982988,-0.17453292519943286,0.34906585039886606,1.9329724,1.4238064,0.11886408,0.0004726224,0.06373065,1.1832366,0.9393446,-0.55465466,1.4687545,-0.068013266,-0.62894267,-0.1404189,1.4374813,1.4951624
-0.2,-0.2,0.6,-0.5235987755982988,-0.17453292519943286,0.34906585039886606,1.8789499,1.4395928,0.10928375,-0.018285807,0.03642761,1.1496098,0.98073786,-0.5817698,1.4687957,-0.076756656,-0.6531653,-0.15027675,1.3903348,1.3830724
-0.2,-0.2,0.6,-0.5235987755982988,-0.17453292519943286,0.34906585039886606,1.8966619,1.4294858,0.10722247,-0.014683684,0.037060745,1.1420882,0.82653785,-0.5678786,1.4732908,-0.067957506,-0.6349402,-0.14053518,1.4135791,1.534523
-0.2,-0.2,0.6,-0.5235987755982988,-0.17453292519943286,0.34906585039886606,1.9119889,1.4403787,0.12712157,-0.009329935,0.043521278,1.1632254,0.84841764,-0.58579665,1.4678366,-0.065000206,-0.65332204,-0.17998603,1.4046888,1.5346885
-0.2,-0.2,0.6,-0.5235987755982988,-0.17453292519943286,0.34906585039886606,1.9179353,1.4408127,0.09633107,-0.008761275,0.03845558,1.1461598,0.82052845,-0.5757424,1.4712268,-0.08621726,-0.6538524,-0.13142653,1.4225461,1.5314436
-0.2,-0.2,0.6,-0.5235987755982988,-0.17453292519943286,0.34906585039886606,1.9537355,1.4163516,0.115101404,-0.028150368,0.017536476,1.1540041,0.9338225,-0.57704717,1.4714351,-0.09187896,-0.62478656,-0.15382285,1.4233884,1.5518394
-0.2,-0.2,0.6,-0.5235987755982988,-0.17453292519943286,0.34906585039886606,1.8992931,1.4262029,0.09184567,-0.019865569,0.062271662,1.1793755,0.83946085,-0.5872074,1.4715903,-0.073161766,-0.641102,-0.14845133,1.4173346,1.5295838
-0.2,-0.2,0.6,-0.5235987755982988,-0.17453292519943286,0.34906585039886606,1.9314625,1.4360737,0.12065659,-0.008336412,0.048535563,1.1547693,0.7875998,-0.5779088,1.4706546,-0.05351974,-0.6353252,-0.12125023,1.4169792,1.5589688
-0.2,-0.2,0.6,-0.5235987755982988,-0.17453292519943286,0.34906585039886606,1.9335781,1.426649,0.12284583,-0.021160226,0.055621207,1.1568345,0.8434835,-0.58905584,1.4676055,-0.070470475,-0.6330054,-0.14902654,1.4148395,1.5791721
-0.2,-0.2,0.6,-0.5235987755982988,-0.17453292519943286,0.34906585039886606,1.925231,1.4476681,0.13501295,-0.029888693,0.034868445,1.1555384,0.60460544,-0.58022606,1.4709728,-0.04613919,-0.6553724,-0.14739068,1.4033005,1.4470205
-0.2,-0.2,0.6,-0.5235987755982988,-0.17453292519943286,0.34906585039886606,1.8910671,1.443476,0.10734093,0.0076141288,0.06694943,1.1634824,0.94687134,-0.57453424,1.4611489,-0.09251467,-0.6327647,-0.13579988,1.423195,1.3903031
-0.2,-0.2,0.6,-0.5235987755982988,-0.17453292519943286,0.34906585039886606,1.9471089,1.4344357,0.11561312,-0.016844999,0.04497094,1.1512433,0.7939072,-0.5634687,1.468349,-0.077006124,-0.6140511,-0.13221458,1.4128383,1.4686219
-0.2,-0.2,0.6,-0.5235987755982988,-0.17453292519943286,0.34906585039886606,1.9272603,1.4363147,0.12273637,0.010326524,0.052435298,1.1706209,0.77300745,-0.57343286,1.4689013,-0.08008439,-0.6518472,-0.14095901,1.4143652,1.4653836
-0.2,-0.2,0.6,-0.5235987755982988,-0.17453292519943286,0.34906585039886606,1.9397132,1.4436964,0.11095693,-0.018530292,0.0594688,1.1514941,0.70407003,-0.5681494,1.4665295,-0.06607667,-0.64565986,-0.14983885,1.4073986,1.4475356
-0.2,-0.2,0.6,-0.5235987755982988,-0.17453292519943286,0.34906585039886606,1.9230821,1.4392143,0.108244956,-0.01934035,0.026186379,1.126987,0.80564296,-0.5603427,1.4783597,-0.08648352,-0.68801486,-0.12537429,1.4138423,1.469566
-0.2,-0.2,0.6,-0.5235987755982988,-0.17453292519943286,0.34906585039886606,1.8965786,1.4276195,0.11669731,0.011091907,0.036431577,1.1577681,0.91094196,-0.5705639,1.4736968,-0.08994792,-0.62912303,-0.10399559,1.4196528,1.372464
-0.2,-0.2,0.6,-0.5235987755982988,-0.17453292519943286,0.34906585039886606,1.9354624,1.4333607,0.12379151,-0.030976545,0.042790715,1.1553034,0.71866727,-0.5697653,1.4708097,-0.09790845,-0.64184314,-0.1502847,1.4174796,1.5162464
-0.2,-0.2,0.6,-0.5235987755982988,-0.17453292519943286,0.34906585039886606,1.938443,1.4243628,0.106926516,-0.018077083,0.06112636,1.1681107,0.7508948,-0.5714516,1.4752365,-0.0966458,-0.62926054,-0.14192761,1.4077032,1.5220376
-0.2,-0.2,0.6,-0.5235987755982988,-0.17453292519943286,0.34906585039886606,1.9056334,1.436407,0.10649021,-0.024763523,0.030275347,1.1525093,0.89519465,-0.58492243,1.4695423,-0.06233177,-0.64530987,-0.14587077,1.3987203,1.4606094
-0.2,-0.2,0.6,-0.5235987755982988,-0.17453292519943286,0.34906585039886606,1.8971007,1.4357913,0.116512574,-0.0043589207,0.058244735,1.1442511,0.91214985,-0.58365446,1.469231,-0.07301212,-0.6629719,-0.15164079,1.4090017,1.5022409
-0.2,-0.2,0.6,-0.5235987755982988,-0.17453292519943286,0.34906585039886606,1.9248616,1.4235556,0.118865475,0.00057260226,0.06411238,1.1775562,0.85935664,-0.5655667,1.4596939,-0.083002426,-0.6770722,-0.13419347,1.4498764,1.5784432
-0.2,-0.2,0.6,-0.5235987755982988,-0.17453292519943286,0.34906585039886606,1.9226844,1.4348879,0.107716486,0.002432477,0.056311864,1.167272,0.8971084,-0.59545976,1.4697435,-0.08232489,-0.62997526,-0.14847738,1.4033055,1.4807574
-0.2,-0.2,0.6,-0.5235987755982988,-0.17453292519943286,0.34906585039886606,1.9028606,1.4421334,0.11451057,-0.0022351427,0.021246968,1.1487923,0.9727613,-0.5832749,1.4721872,-0.06821633,-0.6295953,-0.15083645,1.42713,1.4581382
-0.2,-0.2,0.6,-0.5235987755982988,-0.17453292519943286,0.34906585039886606,1.9060016,1.4372481,0.10213303,0.01533803,0.040863972,1.1740271,0.95679003,-0.5781433,1.4697173,-0.08344952,-0.66008574,-0.15619847,1.4254016,1.3988968
-0.2,-0.2,0.6,-0.5235987755982988,-0.17453292519943286,0.34906585039886606,1.915056,1.4415599,0.12392703,-0.029196171,0.050504092,1.1786295,0.78015006,-0.5677303,1.4680964,-0.09350998,-0.6773523,-0.14200363,1.414909,1.5759205
-0.2,-0.2,0.6,-0.5235987755982988,-0.17453292519943286,0.34906585039886606,1.9225047,1.4466007,0.11463844,-0.028147569,0.054964412,1.1470512,0.88363177,-0.5836749,1.4703104,-0.082078755,-0.6509607,-0.1506088,1.4018881,1.5818897
-0.2,-0.2,0.6,-0.5235987755982988,-0.17453292519943286,0.34906585039886606,1.9325917,1.4324871,0.10274418,-0.02413625,0.05094883,1.1584728,0.748385,-0.5761357,1.4629544,-0.08583234,-0.6613605,-0.15495118,1.4076426,1.4727178
-0.2,-0.2,0.6,-0.5235987755982988,-0.17453292519943286,0.34906585039886606,1.8822228,1.4438072,0.11472139,-0.04675137,0.06132556,1.1928566,0.8035423,-0.5691819,1.46338,-0.09739565,-0.64506394,-0.15070194,1.4155596,1.4724574
-0.2,-0.2,0.6,-0.5235987755982988,-0.17453292519943286,0.34906585039886606,1.9147927,1.4308931,0.107630976,-0.008027485,0.08090181,1.1540451,0.8475339,-0.59626055,1.4724272,-0.08227276,-0.6517887,-0.15271896,1.4090296,1.4951016
-0.2,-0.2,0.6,-0.5235987755982988,-0.17453292519943286,0.34906585039886606,1.9209806,1.4403894,0.110942535,0.0011247466,0.03497611,1.1772257,0.8630226,-0.5827993,1.4694235,-0.089217685,-0.6497931,-0.121451266,1.4057873,1.5269653
-0.2,-0.2,0.6,-0.5235987755982988,-0.17453292519943286,0.34906585039886606,1.9353969,1.4376218,0.11609299,-0.019650495,0.042223334,1.1778328,0.834609,-0.58324564,1.4706956,-0.073992625,-0.66436076,-0.15709694,1.423596,1.484449
-0.2,-0.2,0.6,-0.5235987755982988,-0.17453292519943286,0.34906585039886606,1.9219928,1.4298291,0.1097129,0.0016398652,0.030747304,1.1625224,0.8511842,-0.58032817,1.4713289,-0.08431323,-0.6244094,-0.1270636,1.399455,1.4655017
-0.2,-0.2,0.6,-0.5235987755982988,-0.17453292519943286,0.34906585039886606,1.9380382,1.4361157,0.12098213,-0.035333365,0.022883404,1.1533059,0.85090894,-0.58341944,1.4715682,-0.097507305,-0.64862657,-0.15590847,1.387668,1.5091467
-0.2,-0.2,0.6,-0.5235987755982988,-0.17453292519943286,0.34906585039886606,1.9318665,1.4378127,0.10609731,-0.008952694,0.055980947,1.1666976,0.8387323,-0.57783407,1.4682744,-0.091683835,-0.6499499,-0.1312971,1.4192532,1.5519145
-0.2,-0.2,0.6,-0.5235987755982988,-0.17453292519943286,0.34906585039886606,1.9437028,1.4389534,0.11318369,0.014114786,0.055609535,1.1552968,0.7945265,-0.5570768,1.4705873,-0.08798081,-0.6070612,-0.14695956,1.4068927,1.4738455
-0.2,-0.2,0.6,-0.5235987755982988,-0.17453292519943286,0.34906585039886606,1.9399488,1.4169053,0.09958669,-0.007725737,0.041370817,1.1498095,0.96465164,-0.56334823,1.4792929,-0.10019963,-0.6567302,-0.14383999,1.4468141,1.4654636
-0.2,-0.2,0.6,-0.5235987755982988,-0.17453292519943286,0.34906585039886606,1.9466454,1.4229355,0.106008925,-0.0081453305,0.0361806,1.1723654,0.8030839,-0.5670618,1.4696648,-0.08189369,-0.60404384,-0.12254967,1.4159201,1.4296612
-0.2,-0.2,0.6,-0.5235987755982988,-0.17453292519943286,0.34906585039886606,1.9347721,1.439673,0.12313009,-0.020799406,0.039120443,1.160137,0.9148612,-0.5658467,1.4709321,-0.098992616,-0.6238073,-0.15400444,1.4110469,1.4864663
-0.2,-0.2,0.6,-0.5235987755982988,-0.17453292519943286,0.34906585039886606,1.9234259,1.436976,0.11111172,-0.020057688,0.07001204,1.1517569,0.9154135,-0.5730909,1.4695889,-0.09722152,-0.6226085,-0.13299347,1.3908701,1.5189257
-0.2,-0.2,0.6,-0.5235987755982988,-0.17453292519943286,0.34906585039886606,1.911182,1.4309752,0.11287523,-0.004748205,0.055724367,1.1487675,0.89130276,-0.57489663,1.4667298,-0.11308523,-0.6132916,-0.12789561,1.3909222,1.4801495
-0.2,-0.2,0.6,-0.5235987755982988,-0.17453292519943286,0.34906585039886606,1.9446454,1.4418485,0.10767583,-0.047313817,0.047583085,1.1679418,0.8702783,-0.57520556,1.4673797,-0.07333327,-0.6178726,-0.13674511,1.4130745,1.5319649
-0.2,-0.2,0.6,-0.5235987755982988,-0.17453292519943286,0.34906585039886606,1.9162887,1.4403977,0.11406427,0.0091791535,0.043323655,1.1881877,0.9055205,-0.58436733,1.4708264,-0.09348558,-0.65823525,-0.1369528,1.4296391,1.4191115
-0.2,-0.2,0.6,-0.5235987755982988,-0.17453292519943286,0.34906585039886606,1.904023,1.4368228,0.11035417,-0.030661847,0.04844972,1.1642196,0.8502905,-0.58444655,1.4666404,-0.0720714,-0.62033534,-0.14869337,1.4002217,1.527244
-0.2,-0.2,0.6,-0.5235987755982988,-0.17453292519943286,0.34906585039886606,1.9254273,1.4382896,0.1064377,-0.010886489,0.039430704,1.1758977,0.99562407,-0.5809927,1.4681089,-0.08107098,-0.6188559,-0.14008236,1.3983932,1.5235487
-0.2,-0.2,0.6,-0.5235987755982988,-0.17453292519943286,0.34906585039886606,1.9238434,1.4422011,0.09801623,-0.0066315755,0.04843168,1.1371503,0.9501305,-0.6039536,1.476489,-0.07538537,-0.68700933,-0.15530328,1.4166538,1.5208672
-0.2,-0.2,0.6,-0.5235987755982988,-0.17453292519943286,0.34906585039886606,1.9108404,1.4317594,0.110583015,-0.02464188,0.041717034,1.1452469,0.8585871,-0.57442635,1.4704015,-0.091121,-0.63254476,-0.14315754,1.4098655,1.4830807
-0.2,-0.2,0.6,-0.5235987755982988,-0.17453292519943286,0.34906585039886606,1.9061666,1.435622,0.10817802,-0.019824408,0.079449885,1.1748304,0.9006977,-0.5708318,1.4641498,-0.0888024,-0.6459556,-0.12421138,1.4511976,1.4270927
-0.2,-0.2,0.6,-0.5235987755982988,-0.17453292519943286,0.34906585039886606,1.9090842,1.4248505,0.10487766,-0.012425854,0.082140304,1.1624677,0.80579317,-0.572624,1.4725784,-0.07815723,-0.60606587,-0.14377344,1.4127312,1.51834
-0.2,-0.2,0.6,-0.5235987755982988,-0.17453292519943286,0.34906585039886606,1.9297601,1.4250569,0.10495219,-0.016172959,0.027990948,1.15184,0.8644731,-0.58776736,1.4695333,-0.08964269,-0.67679876,-0.13926427,1.4119294,1.4940505
-0.2,-0.2,0.6,-0.5235987755982988,-0.17453292519943286,0.34906585039886606,1.9214151,1.434749,0.09975159,-0.004259654,0.053117786,1.1882162,0.86373156,-0.57721335,1.4689534,-0.099254966,-0.64952385,-0.1312806,1.4130715,1.4766275
-0.2,-0.2,0.6,-0.5235987755982988,-0.17453292519943286,0.34906585039886606,1.911844,1.4284256,0.10936047,-0.024171771,0.019382041,1.168788,0.86637133,-0.58323056,1.4719714,-0.08966172,-0.6548194,-0.13440059,1.4302934,1.4276035
-0.2,-0.2,0.6,-0.5235987755982988,-0.17453292519943286,0.34906585039886606,1.9341419,1.4454043,0.12408831,0.0039839367,0.06318888,1.1600716,0.8574055,-0.5975215,1.4662843,-0.07918101,-0.61970127,-0.12131599,1.3802958,1.3741213
-0.2,-0.2,0.6,-0.5235987755982988,-0.17453292519943286,0.34906585039886606,1.9206005,1.4402838,0.110159226,-0.036142163,0.016229397,1.1749194,0.9217424,-0.5921529,1.469583,-0.0897244,-0.64302534,-0.16589442,1.400138,1.4081411
-0.2,-0.2,0.6,-0.5235987755982988,-0.17453292519943286,0.34906585039886606,1.9035395,1.4284297,0.10265824,-0.034138616,0.042987075,1.1677623,0.8487832,-0.5891223,1.4716595,-0.07308426,-0.6420121,-0.1428936,1.4087018,1.5224843
-0.2,-0.2,0.6,-0.5235987755982988,-0.17453292519943286,0.34906585039886606,1.9342856,1.4397991,0.11619635,-0.024127048,0.047366485,1.1530668,0.84575987,-0.5818767,1.4649059,-0.07025974,-0.63816774,-0.13857193,1.4209356,1.506334
-0.2,-0.2,0.6,-0.5235987755982988,-0.17453292519943286,0.34906585039886606,1.9208356,1.424404,0.116770476,-0.031270448,0.07355987,1.1280464,1.0408332,-0.57522166,1.4758261,-0.07876148,-0.6281392,-0.12845245,1.3900691,1.4241511
-0.2,-0.2,0.6,-0.5235987755982988,-0.17453292519943286,0.34906585039886606,1.901693,1.4316195,0.119883455,-0.02137926,0.06293421,1.1459348,0.7801265,-0.5825438,1.4757421,-0.08811998,-0.6720494,-0.14612485,1.4070134,1.5335014
-0.2,-0.2,0.6,-0.5235987755982988,-0.17453292519943286,0.34906585039886606,1.9084042,1.4286397,0.11727427,0.0042270385,0.07054902,1.1688274,0.78718555,-0.57349646,1.4708173,-0.11645393,-0.64754987,-0.13172424,1.4184216,1.4648192
