sanky1234/BimanualDexCatch/isaacgymenvs/cem_results/football_pose_-0.2_-0.2_0.6_0.5235987755982988_0.0_0_2025-05-24.csv
x,y,z,roll,pitch,yaw,robot1/joint1,robot1/joint2,robot1/joint3,robot1/joint4,robot1/joint5,robot1/joint6,robot1/joint7,robot2/joint1,robot2/joint2,robot2/joint3,robot2/joint4,robot2/joint5,robot2/joint6,robot2/joint7
-0.2,-0.2,0.6,0.5235987755982988,0.0,0,1.3911502,1.4570414,0.29229957,0.31688246,-0.1293407,0.71641856,-0.2601181,-0.07680849,1.2697365,-0.49311092,-0.60119903,-0.32216436,1.2095773,-0.8456457
-0.2,-0.2,0.6,0.5235987755982988,0.0,0,1.3321255,1.5058128,0.2770538,0.31877846,-0.12356564,0.7062072,-0.26605046,-0.0854295,1.2710559,-0.47912163,-0.60116094,-0.31470183,1.2042167,-0.8272866
-0.2,-0.2,0.6,0.5235987755982988,0.0,0,1.355589,1.4667459,0.28199488,0.3139034,-0.12348596,0.707799,-0.25708768,-0.08431043,1.2744544,-0.49343488,-0.6041012,-0.33196464,1.209768,-0.8073085
-0.2,-0.2,0.6,0.5235987755982988,0.0,0,1.3468716,1.4982151,0.27682826,0.3121669,-0.10729625,0.6968071,-0.2511707,-0.084692374,1.2691685,-0.47353628,-0.6011281,-0.32774684,1.212023,-0.8748821
-0.2,-0.2,0.6,0.5235987755982988,0.0,0,1.3855633,1.4743377,0.27828076,0.31798697,-0.13016275,0.7078457,-0.2810417,-0.08754757,1.2705224,-0.49574265,-0.6044902,-0.3094635,1.2049137,-0.8649068
-0.2,-0.2,0.6,0.5235987755982988,0.0,0,1.3302258,1.4907076,0.27589172,0.31310153,-0.09148846,0.71485114,-0.27508694,-0.08799626,1.2665076,-0.48298535,-0.60020924,-0.31555423,1.2092524,-0.8078997
-0.2,-0.2,0.6,0.5235987755982988,0.0,0,1.4106627,1.4930391,0.27233428,0.32242024,-0.121494144,0.70789135,-0.27376556,-0.087560266,1.2717894,-0.4772969,-0.6023952,-0.3237907,1.2081873,-0.8693762
-0.2,-0.2,0.6,0.5235987755982988,0.0,0,1.3603481,1.4544702,0.27871183,0.32024777,-0.123774014,0.69764584,-0.27979082,-0.07911956,1.2643143,-0.4792956,-0.59984016,-0.32403576,1.2014788,-0.80390376
-0.2,-0.2,0.6,0.5235987755982988,0.0,0,1.3892993,1.4746315,0.2695119,0.31282985,-0.12529443,0.71759003,-0.26298824,-0.093990035,1.2684008,-0.47412214,-0.60264814,-0.32558754,1.2103512,-0.86887896
-0.2,-0.2,0.6,0.5235987755982988,0.0,0,1.3749818,1.4906813,0.27478066,0.32127517,-0.13010477,0.69708526,-0.27743915,-0.08492809,1.267329,-0.47856015,-0.59601754,-0.3298962,1.2050312,-0.8693081
-0.2,-0.2,0.6,0.5235987755982988,0.0,0,1.3399714,1.4795455,0.28402072,0.31461626,-0.1184353,0.71046436,-0.26525012,-0.07996646,1.2685189,-0.48661286,-0.6001437,-0.3246163,1.2134542,-0.8277238
-0.2,-0.2,0.6,0.5235987755982988,0.0,0,1.3815281,1.4928898,0.27842373,0.32186732,-0.13848914,0.7032993,-0.26997864,-0.082647674,1.2686969,-0.4940098,-0.5980947,-0.32663304,1.207621,-0.8457072
-0.2,-0.2,0.6,0.5235987755982988,0.0,0,1.3581436,1.4634275,0.28346273,0.3151318,-0.13820584,0.6999302,-0.2601984,-0.09011774,1.2711495,-0.47687644,-0.60680884,-0.32606867,1.2079298,-0.85207057
-0.2,-0.2,0.6,0.5235987755982988,0.0,0,1.3522271,1.4674003,0.28288922,0.3187353,-0.15496099,0.70731604,-0.28484088,-0.07829183,1.2706387,-0.4882716,-0.60266674,-0.32620245,1.2090777,-0.84196794
-0.2,-0.2,0.6,0.5235987755982988,0.0,0,1.3453768,1.4719058,0.2701727,0.31007558,-0.1399741,0.6969272,-0.21066175,-0.08841095,1.268446,-0.47349313,-0.59950304,-0.33033007,1.2107735,-0.82362896
-0.2,-0.2,0.6,0.5235987755982988,0.0,0,1.3597908,1.4742098,0.28065363,0.3134158,-0.12864327,0.704654,-0.2509432,-0.08720983,1.2677853,-0.47791788,-0.6036805,-0.33089122,1.2087204,-0.8180782
-0.2,-0.2,0.6,0.5235987755982988,0.0,0,1.3497784,1.4650332,0.28085846,0.31504297,-0.12626062,0.70148164,-0.27203554,-0.09153119,1.2717597,-0.48307103,-0.6044843,-0.32583445,1.2059817,-0.8363061
-0.2,-0.2,0.6,0.5235987755982988,0.0,0,1.3845462,1.448819,0.2707343,0.3184514,-0.12161805,0.7058785,-0.25764513,-0.08906829,1.2693212,-0.4769311,-0.603583,-0.32301217,1.2116209,-0.851722
-0.2,-0.2,0.6,0.5235987755982988,0.0,0,1.3338224,1.4755782,0.26788792,0.31367674,-0.12961249,0.70479536,-0.25757128,-0.07693001,1.271461,-0.48610073,-0.5995365,-0.33402872,1.2109743,-0.7989539
-0.2,-0.2,0.6,0.5235987755982988,0.0,0,1.3657482,1.459022,0.28525642,0.3263078,-0.13647728,0.7113348,-0.2603479,-0.09296147,1.2698818,-0.48913765,-0.5989573,-0.3164916,1.2091488,-0.8553583
-0.2,-0.2,0.6,0.5235987755982988,0.0,0,1.3613085,1.4756482,0.2690574,0.31580096,-0.11287222,0.6966394,-0.2846118,-0.07514594,1.2699453,-0.47402298,-0.6024633,-0.3296308,1.2112452,-0.83799595
-0.2,-0.2,0.6,0.5235987755982988,0.0,0,1.3714464,1.4769431,0.27666056,0.3180777,-0.14329165,0.70631653,-0.25173876,-0.088501066,1.2670641,-0.48187512,-0.60275775,-0.31681427,1.2077186,-0.8525068
-0.2,-0.2,0.6,0.5235987755982988,0.0,0,1.3606968,1.470186,0.28576595,0.3137798,-0.10954914,0.7127485,-0.28325683,-0.08646706,1.2672796,-0.49659202,-0.60279983,-0.31413817,1.2097125,-0.86867315
-0.2,-0.2,0.6,0.5235987755982988,0.0,0,1.3746551,1.4686884,0.27756616,0.317094,-0.13065013,0.720968,-0.28100663,-0.08582342,1.2683507,-0.47271597,-0.605283,-0.32724717,1.2068933,-0.8029418
-0.2,-0.2,0.6,0.5235987755982988,0.0,0,1.3506843,1.4639045,0.2773001,0.3201115,-0.15021196,0.7094715,-0.24232545,-0.085488155,1.2718651,-0.48016608,-0.6014588,-0.3247823,1.2117311,-0.8243938
-0.2,-0.2,0.6,0.5235987755982988,0.0,0,1.3335745,1.4929606,0.28186792,0.3119948,-0.12495465,0.7021673,-0.28227776,-0.0838657,1.270191,-0.48146853,-0.602607,-0.32350174,1.2048187,-0.8177735
-0.2,-0.2,0.6,0.5235987755982988,0.0,0,1.3968431,1.4732078,0.2733217,0.31517017,-0.13493165,0.69541746,-0.26721904,-0.07653254,1.2685665,-0.4939969,-0.6008041,-0.33090055,1.2075543,-0.8424006
-0.2,-0.2,0.6,0.5235987755982988,0.0,0,1.3604729,1.4795057,0.26441687,0.31520173,-0.15399255,0.71054864,-0.25111926,-0.08424566,1.2686862,-0.4750785,-0.5987616,-0.31864604,1.2123628,-0.8570083
-0.2,-0.2,0.6,0.5235987755982988,0.0,0,1.3978633,1.4831643,0.28395256,0.3227933,-0.12029473,0.6967384,-0.25146797,-0.0821627,1.2705827,-0.47651312,-0.6035729,-0.32702675,1.2095116,-0.84036356
-0.2,-0.2,0.6,0.5235987755982988,0.0,0,1.3838507,1.4618397,0.27567863,0.3070295,-0.124088675,0.7070197,-0.2772746,-0.07159738,1.2745172,-0.4894321,-0.6022645,-0.34061208,1.2087932,-0.84317476
-0.2,-0.2,0.6,0.5235987755982988,0.0,0,1.3817548,1.4872535,0.2757275,0.31630313,-0.14429894,0.7029188,-0.28264734,-0.082551494,1.2644416,-0.4899707,-0.6032764,-0.31614897,1.2082652,-0.80891323
-0.2,-0.2,0.6,0.5235987755982988,0.0,0,1.3781,1.4672651,0.2936574,0.31769022,-0.12786418,0.711776,-0.2928155,-0.09145356,1.2688909,-0.47854567,-0.6068251,-0.32232147,1.2092589,-0.86686593
-0.2,-0.2,0.6,0.5235987755982988,0.0,0,1.3762496,1.4550608,0.2796484,0.31757244,-0.12796251,0.6975527,-0.25936735,-0.086771235,1.2688584,-0.48708892,-0.5992144,-0.3282657,1.2050388,-0.83457977
-0.2,-0.2,0.6,0.5235987755982988,0.0,0,1.3525354,1.4773523,0.2715582,0.31108788,-0.1256031,0.71886164,-0.27836654,-0.08696466,1.2690547,-0.4788139,-0.60226953,-0.32379943,1.2127712,-0.83943844
-0.2,-0.2,0.6,0.5235987755982988,0.0,0,1.3591269,1.4973177,0.2821271,0.3169163,-0.14866379,0.72150236,-0.26884142,-0.077742584,1.2664449,-0.4768319,-0.60090846,-0.3168998,1.2059054,-0.8272098
-0.2,-0.2,0.6,0.5235987755982988,0.0,0,1.3362855,1.464307,0.28034925,0.31542405,-0.13591178,0.7102836,-0.26024932,-0.09462621,1.2707143,-0.47996727,-0.6003368,-0.3308899,1.2096167,-0.8340201
-0.2,-0.2,0.6,0.5235987755982988,0.0,0,1.3968165,1.4672843,0.28116006,0.31298104,-0.12893991,0.70585763,-0.2800816,-0.09143597,1.2650796,-0.46905512,-0.6090146,-0.3302655,1.2082068,-0.8208341
-0.2,-0.2,0.6,0.5235987755982988,0.0,0,1.3452089,1.4785017,0.28851542,0.31462023,-0.15896209,0.7233564,-0.2756332,-0.08449473,1.2704501,-0.4830466,-0.6000124,-0.33109653,1.2077827,-0.8544066
-0.2,-0.2,0.6,0.5235987755982988,0.0,0,1.3457003,1.4847608,0.2766245,0.31287274,-0.12452008,0.70225465,-0.27971944,-0.081510715,1.2713047,-0.48201457,-0.6015808,-0.3277872,1.2093315,-0.84996367
-0.2,-0.2,0.6,0.5235987755982988,0.0,0,1.3892208,1.469002,0.2794262,0.3146665,-0.09866829,0.7050596,-0.28485036,-0.07934904,1.2689276,-0.47887823,-0.60096335,-0.32430547,1.2063693,-0.85655475
-0.2,-0.2,0.6,0.5235987755982988,0.0,0,1.4066213,1.4596213,0.26714683,0.31836513,-0.14849664,0.70412636,-0.25867927,-0.08673114,1.2729067,-0.48585758,-0.605525,-0.32618165,1.2121526,-0.829125
-0.2,-0.2,0.6,0.5235987755982988,0.0,0,1.3490163,1.4730883,0.28856844,0.31481937,-0.13855639,0.71129644,-0.25975263,-0.08716285,1.2703396,-0.4975239,-0.60169846,-0.3085936,1.2077506,-0.85283035
-0.2,-0.2,0.6,0.5235987755982988,0.0,0,1.3778969,1.4925478,0.28029957,0.31447867,-0.12971927,0.70660746,-0.2508575,-0.084222704,1.2704134,-0.4797455,-0.60019106,-0.31337622,1.2028002,-0.8614689
-0.2,-0.2,0.6,0.5235987755982988,0.0,0,1.3580719,1.4874729,0.26745394,0.3135585,-0.15413256,0.707329,-0.26569378,-0.077228904,1.2718576,-0.4761385,-0.6052857,-0.32013184,1.2109905,-0.88186413
-0.2,-0.2,0.6,0.5235987755982988,0.0,0,1.3953203,1.4626123,0.280572,0.32090148,-0.14800481,0.7161125,-0.26880428,-0.08347626,1.2683302,-0.49275446,-0.5992147,-0.3314382,1.2095228,-0.8298811
-0.2,-0.2,0.6,0.5235987755982988,0.0,0,1.385623,1.4859855,0.277804,0.3135549,-0.13566075,0.7103593,-0.2594426,-0.08581989,1.2691809,-0.48768377,-0.6032704,-0.32373714,1.2088473,-0.81658113
-0.2,-0.2,0.6,0.5235987755982988,0.0,0,1.3808131,1.4608668,0.27239355,0.31687146,-0.119744286,0.7081892,-0.27308607,-0.083956234,1.2691242,-0.4911489,-0.5967343,-0.3264367,1.2047577,-0.81553346
-0.2,-0.2,0.6,0.5235987755982988,0.0,0,1.3528143,1.4610952,0.2658318,0.31109142,-0.14314954,0.7055806,-0.28194755,-0.08098788,1.2685109,-0.47766563,-0.6059137,-0.31269896,1.2070824,-0.8031063
-0.2,-0.2,0.6,0.5235987755982988,0.0,0,1.3510228,1.4767734,0.27327085,0.32092622,-0.14734215,0.69689083,-0.27425683,-0.08574273,1.2700069,-0.47951493,-0.6004431,-0.32687226,1.2110504,-0.8669566
-0.2,-0.2,0.6,0.5235987755982988,0.0,0,1.3545619,1.4723341,0.2833544,0.31851515,-0.13815644,0.7100081,-0.25815535,-0.08548814,1.268011,-0.48458934,-0.60188586,-0.33186972,1.2151455,-0.81568694
-0.2,-0.2,0.6,0.5235987755982988,0.0,0,1.3742032,1.468273,0.27117884,0.32090572,-0.11639644,0.7163202,-0.25943905,-0.08697856,1.2672005,-0.47586226,-0.59621906,-0.31720403,1.2131045,-0.85451466
-0.2,-0.2,0.6,0.5235987755982988,0.0,0,1.3485304,1.4687353,0.27880606,0.32019085,-0.17798376,0.7072068,-0.26019332,-0.07572581,1.2737975,-0.4815712,-0.6007512,-0.3248514,1.2093273,-0.8564923
-0.2,-0.2,0.6,0.5235987755982988,0.0,0,1.3830894,1.4619628,0.27827984,0.31753054,-0.122136876,0.7081198,-0.23534882,-0.07883884,1.2722328,-0.47378692,-0.5988088,-0.32079482,1.2070972,-0.8516844
-0.2,-0.2,0.6,0.5235987755982988,0.0,0,1.415659,1.4436154,0.27697894,0.31226557,-0.13096178,0.71026075,-0.25318906,-0.07729724,1.2683401,-0.4735121,-0.6051857,-0.32739764,1.2115998,-0.8542396
-0.2,-0.2,0.6,0.5235987755982988,0.0,0,1.3953301,1.4831372,0.2672287,0.31663376,-0.1366462,0.7121282,-0.2959215,-0.08731281,1.2663907,-0.4992277,-0.605235,-0.32259578,1.2101035,-0.8049975
-0.2,-0.2,0.6,0.5235987755982988,0.0,0,1.3921182,1.4913956,0.26936343,0.3095261,-0.13134018,0.7110666,-0.27242246,-0.08965567,1.2675567,-0.48968273,-0.6046407,-0.32799065,1.2088877,-0.8327408
-0.2,-0.2,0.6,0.5235987755982988,0.0,0,1.3690068,1.4820898,0.28013137,0.31826913,-0.1478082,0.70157725,-0.2573956,-0.085414276,1.2686374,-0.460807,-0.605757,-0.32990015,1.2089849,-0.81656224
-0.2,-0.2,0.6,0.5235987755982988,0.0,0,1.3852649,1.4791341,0.29343802,0.3220945,-0.1390238,0.72066545,-0.27672905,-0.08991058,1.275232,-0.47391778,-0.60076535,-0.3349942,1.2035221,-0.82532865
-0.2,-0.2,0.6,0.5235987755982988,0.0,0,1.3723215,1.469445,0.2742719,0.316004,-0.118316524,0.70590043,-0.296484,-0.08863552,1.2697985,-0.47912192,-0.6031462,-0.3334365,1.2075733,-0.84376043
-0.2,-0.2,0.6,0.5235987755982988,0.0,0,1.3715323,1.4635755,0.28493562,0.32014847,-0.16675301,0.70556235,-0.2852402,-0.09406025,1.2700688,-0.4910344,-0.6014116,-0.33558136,1.204103,-0.84868526
-0.2,-0.2,0.6,0.5235987755982988,0.0,0,1.3852706,1.4710196,0.27294138,0.3210617,-0.122323446,0.69908994,-0.26059663,-0.08437884,1.2687423,-0.49098244,-0.6053839,-0.3169565,1.2149504,-0.8172848
-0.2,-0.2,0.6,0.5235987755982988,0.0,0,1.3565121,1.486517,0.28203017,0.32081223,-0.120054066,0.68894845,-0.25159112,-0.082698226,1.2725358,-0.47932136,-0.60258234,-0.32543096,1.2121773,-0.85496116
-0.2,-0.2,0.6,0.5235987755982988,0.0,0,1.3489373,1.4889865,0.28094023,0.32033303,-0.14178528,0.7010982,-0.28334817,-0.09149027,1.2677113,-0.47422004,-0.6023443,-0.3301182,1.2075434,-0.8415199
-0.2,-0.2,0.6,0.5235987755982988,0.0,0,1.3366406,1.4509746,0.29529652,0.31825078,-0.1262525,0.7167518,-0.28624114,-0.08750436,1.2673296,-0.46507007,-0.60025036,-0.32430688,1.2028753,-0.8393986
-0.2,-0.2,0.6,0.5235987755982988,0.0,0,1.368217,1.4557269,0.27205843,0.32367486,-0.13013998,0.71124715,-0.26280588,-0.08398364,1.2707201,-0.47872254,-0.6027256,-0.31983617,1.2113372,-0.85260487
-0.2,-0.2,0.6,0.5235987755982988,0.0,0,1.3203367,1.4794601,0.28641775,0.3145245,-0.13305284,0.71142316,-0.28654626,-0.082964145,1.2714107,-0.48502868,-0.5978063,-0.32594785,1.2105379,-0.8280364
-0.2,-0.2,0.6,0.5235987755982988,0.0,0,1.384771,1.4708024,0.2823292,0.31999955,-0.12925366,0.7060901,-0.26199046,-0.087843925,1.2702721,-0.4831097,-0.6044633,-0.31962523,1.2099237,-0.83145773
-0.2,-0.2,0.6,0.5235987755982988,0.0,0,1.3633789,1.4923106,0.27883142,0.31113216,-0.11602124,0.70766616,-0.26728243,-0.08362072,1.2701505,-0.48369676,-0.60487205,-0.3214517,1.2064744,-0.80205786
-0.2,-0.2,0.6,0.5235987755982988,0.0,0,1.3984044,1.4759706,0.26713514,0.31968632,-0.13282809,0.7020523,-0.28894472,-0.088612154,1.268886,-0.48128358,-0.6022509,-0.33450964,1.2097266,-0.85661954
-0.2,-0.2,0.6,0.5235987755982988,0.0,0,1.342021,1.476526,0.286549,0.31396744,-0.1666488,0.6996959,-0.26075435,-0.07815694,1.2686416,-0.48700488,-0.60593957,-0.3226824,1.2085485,-0.8092734
-0.2,-0.2,0.6,0.5235987755982988,0.0,0,1.36524,1.4737163,0.2776618,0.3239638,-0.15023662,0.7006341,-0.2668521,-0.083460376,1.269354,-0.4733059,-0.606036,-0.3128717,1.2106502,-0.82953656
-0.2,-0.2,0.6,0.5235987755982988,0.0,0,1.3460007,1.4621693,0.28581208,0.31433743,-0.12871869,0.7070043,-0.25806347,-0.08401908,1.2667109,-0.47890654,-0.59993815,-0.3328555,1.2052455,-0.82805914
-0.2,-0.2,0.6,0.5235987755982988,0.0,0,1.3709573,1.4678879,0.27226505,0.32840383,-0.13890411,0.6992031,-0.2834347,-0.08614914,1.2690375,-0.47300342,-0.6050459,-0.32776013,1.2075692,-0.8340845
-0.2,-0.2,0.6,0.5235987755982988,0.0,0,1.3581972,1.4486593,0.2862132,0.3134972,-0.09203438,0.7181538,-0.25697634,-0.06989231,1.2742126,-0.4823534,-0.5965775,-0.32659918,1.212973,-0.83953774
-0.2,-0.2,0.6,0.5235987755982988,0.0,0,1.3787209,1.4722208,0.28302756,0.3163878,-0.14452045,0.7118042,-0.26773876,-0.09230535,1.2664032,-0.49374422,-0.60143954,-0.3220893,1.2094055,-0.85131794
-0.2,-0.2,0.6,0.5235987755982988,0.0,0,1.3656609,1.4547358,0.29246718,0.32117394,-0.14255014,0.70820516,-0.27330703,-0.09150071,1.2704289,-0.47900707,-0.6044749,-0.32415736,1.2063055,-0.826428
-0.2,-0.2,0.6,0.5235987755982988,0.0,0,1.3445735,1.4788009,0.2760097,0.31862625,-0.11082194,0.701472,-0.2797856,-0.09014893,1.266151,-0.49181384,-0.6026517,-0.3125191,1.2127385,-0.82278866
-0.2,-0.2,0.6,0.5235987755982988,0.0,0,1.3375369,1.4692495,0.28122318,0.32011917,-0.13217624,0.7027462,-0.26189765,-0.08075739,1.2736822,-0.47356063,-0.60204244,-0.32129687,1.2079858,-0.8358349
-0.2,-0.2,0.6,0.5235987755982988,0.0,0,1.3719641,1.470946,0.27920458,0.3133093,-0.12663385,0.70467794,-0.24610572,-0.09276591,1.2665279,-0.48258373,-0.6062228,-0.31802166,1.2097205,-0.85079277
-0.2,-0.2,0.6,0.5235987755982988,0.0,0,1.3288351,1.483759,0.27821714,0.3110475,-0.12745921,0.70964134,-0.25587976,-0.082071826,1.2751946,-0.47882447,-0.60254693,-0.319266,1.2071153,-0.8338718
-0.2,-0.2,0.6,0.5235987755982988,0.0,0,1.3943925,1.4675889,0.2729329,0.32004026,-0.14893554,0.7089661,-0.24365972,-0.09079304,1.2663543,-0.48343274,-0.59877723,-0.32266667,1.207982,-0.83235997
-0.2,-0.2,0.6,0.5235987755982988,0.0,0,1.370337,1.4999049,0.29586446,0.31415263,-0.11291993,0.69408584,-0.28726107,-0.08266644,1.2691519,-0.47920185,-0.60526586,-0.33102655,1.2062825,-0.82278466
-0.2,-0.2,0.6,0.5235987755982988,0.0,0,1.3937157,1.4657229,0.27571386,0.3134896,-0.14755753,0.704904,-0.25939214,-0.084579386,1.2697308,-0.4793567,-0.60353255,-0.32571894,1.2001681,-0.81727
-0.2,-0.2,0.6,0.5235987755982988,0.0,0,1.365759,1.4558122,0.28235346,0.31558186,-0.13591053,0.69979566,-0.27697766,-0.084715806,1.2674434,-0.47834143,-0.60920036,-0.31590933,1.2064608,-0.85686576
-0.2,-0.2,0.6,0.5235987755982988,0.0,0,1.363682,1.4843491,0.28231823,0.31905875,-0.119312316,0.7109366,-0.28984505,-0.08923398,1.2677467,-0.48142093,-0.6013935,-0.32393226,1.2088666,-0.8315353
-0.2,-0.2,0.6,0.5235987755982988,0.0,0,1.3673825,1.4900892,0.2744133,0.31772932,-0.116991796,0.702569,-0.25151184,-0.080877,1.2680733,-0.47881252,-0.604364,-0.3133288,1.2062013,-0.82291704
-0.2,-0.2,0.6,0.5235987755982988,0.0,0,1.3866329,1.4851793,0.27005398,0.3275222,-0.14041701,0.7070727,-0.24031913,-0.087756574,1.2739589,-0.46728164,-0.6036498,-0.32250002,1.2107186,-0.8350386
-0.2,-0.2,0.6,0.5235987755982988,0.0,0,1.3753362,1.4684346,0.2905561,0.31058136,-0.15342656,0.7082444,-0.28584212,-0.07416371,1.2670608,-0.49114025,-0.6075535,-0.31576338,1.2051268,-0.81539357
-0.2,-0.2,0.6,0.5235987755982988,0.0,0,1.3693568,1.4839442,0.28777042,0.30942753,-0.13494621,0.7043742,-0.273824,-0.08022016,1.2678423,-0.48408735,-0.6042774,-0.32622644,1.2070134,-0.8508253
-0.2,-0.2,0.6,0.5235987755982988,0.0,0,1.3659058,1.4639828,0.2624589,0.31595278,-0.121553056,0.69976294,-0.25584197,-0.08091151,1.2754207,-0.47882432,-0.6005131,-0.3219982,1.2089303,-0.80660075
-0.2,-0.2,0.6,0.5235987755982988,0.0,0,1.3797693,1.4477016,0.27386552,0.31944087,-0.16374905,0.72642666,-0.26612943,-0.083844304,1.2701474,-0.47723135,-0.6043055,-0.32179332,1.2104636,-0.8393263
-0.2,-0.2,0.6,0.5235987755982988,0.0,0,1.3467704,1.4832364,0.2768259,0.31825584,-0.11409314,0.70843947,-0.26825133,-0.08512583,1.2690115,-0.47398272,-0.5982723,-0.32516557,1.2091701,-0.8266545
-0.2,-0.2,0.6,0.5235987755982988,0.0,0,1.3851336,1.4663984,0.284937,0.31728154,-0.13140236,0.6969053,-0.2833669,-0.088639066,1.2692683,-0.48454052,-0.60266,-0.33890814,1.2051078,-0.8375212
-0.2,-0.2,0.6,0.5235987755982988,0.0,0,1.3717897,1.4484847,0.28963542,0.31965387,-0.122545026,0.69668907,-0.26762846,-0.079547666,1.2680551,-0.47567934,-0.6049153,-0.3191385,1.2049689,-0.8153538
-0.2,-0.2,0.6,0.5235987755982988,0.0,0,1.3599422,1.4691219,0.27623892,0.31278226,-0.15409376,0.7127781,-0.26580992,-0.07959314,1.2672193,-0.47608376,-0.6050788,-0.32701448,1.2056518,-0.8241379
-0.2,-0.2,0.6,0.5235987755982988,0.0,0,1.3432606,1.4774494,0.28894722,0.30835763,-0.13739276,0.7005837,-0.2865129,-0.09002041,1.2668855,-0.4658953,-0.60246634,-0.3415527,1.2084125,-0.8627013
-0.2,-0.2,0.6,0.5235987755982988,0.0,0,1.3956494,1.4943024,0.280194,0.31629822,-0.14640296,0.70615643,-0.27428123,-0.07634073,1.2658958,-0.4795433,-0.60294896,-0.32530835,1.2079989,-0.83358777
-0.2,-0.2,0.6,0.5235987755982988,0.0,0,1.376741,1.4713514,0.28480026,0.3179618,-0.14495192,0.69573385,-0.27721757,-0.08601582,1.268714,-0.49575812,-0.60467696,-0.31258604,1.2028035,-0.841133
-0.2,-0.2,0.6,0.5235987755982988,0.0,0,1.3538182,1.4748636,0.2684711,0.3119713,-0.10753963,0.7138284,-0.26725635,-0.08462351,1.2721943,-0.4782591,-0.6035512,-0.32456508,1.2128743,-0.82454985
-0.2,-0.2,0.6,0.5235987755982988,0.0,0,1.3571546,1.482059,0.2690328,0.31325853,-0.13975428,0.7116851,-0.25707135,-0.084697016,1.2725183,-0.47330728,-0.60685855,-0.31736937,1.2098706,-0.84428716
-0.2,-0.2,0.6,0.5235987755982988,0.0,0,1.3640611,1.460391,0.28529856,0.31400225,-0.12767817,0.69971323,-0.26424488,-0.08285136,1.2670548,-0.4737132,-0.6036059,-0.32677427,1.2058355,-0.8386114
-0.2,-0.2,0.6,0.5235987755982988,0.0,0,1.3799773,1.4745219,0.2778079,0.31886643,-0.12803534,0.69742846,-0.25794274,-0.088489,1.2699454,-0.48261118,-0.6021361,-0.33326378,1.2099714,-0.8435421
-0.2,-0.2,0.6,0.5235987755982988,0.0,0,1.3512892,1.4855498,0.28560823,0.32013246,-0.13479799,0.69668376,-0.25407043,-0.079386465,1.2721744,-0.4696282,-0.60403043,-0.3276258,1.2125611,-0.8551914
-0.2,-0.2,0.6,0.5235987755982988,0.0,0,1.390654,1.4666408,0.27419373,0.31060538,-0.1360132,0.7131198,-0.24706663,-0.08608221,1.2725685,-0.47257575,-0.6060371,-0.32332397,1.206381,-0.830424
-0.2,-0.2,0.6,0.5235987755982988,0.0,0,1.3704765,1.4672465,0.27232155,0.31863457,-0.16881719,0.70743674,-0.23080705,-0.084166646,1.2664729,-0.48063764,-0.60206884,-0.31346282,1.2115066,-0.83346754
-0.2,-0.2,0.6,0.5235987755982988,0.0,0,1.3636867,1.4639603,0.28588304,0.31948787,-0.14017712,0.713578,-0.26321515,-0.08778585,1.2719558,-0.47705045,-0.6011645,-0.3314192,1.2057781,-0.8476783
-0.2,-0.2,0.6,0.5235987755982988,0.0,0,1.380285,1.4655766,0.2806289,0.32145497,-0.1296963,0.7134892,-0.28066358,-0.08334478,1.2700282,-0.47876,-0.59761107,-0.32595736,1.2061033,-0.8368603
-0.2,-0.2,0.6,0.5235987755982988,0.0,0,1.3710843,1.4631445,0.2827118,0.3192772,-0.12278359,0.70707524,-0.28632885,-0.08915943,1.2700516,-0.48636872,-0.6028263,-0.32248503,1.2079326,-0.82946783
-0.2,-0.2,0.6,0.5235987755982988,0.0,0,1.3797765,1.4725808,0.2785234,0.31713346,-0.15453565,0.7159582,-0.24576513,-0.09024714,1.2629026,-0.47635454,-0.6019357,-0.32205606,1.2099836,-0.80694425
-0.2,-0.2,0.6,0.5235987755982988,0.0,0,1.3378278,1.4863348,0.27451944,0.30995715,-0.105191894,0.6925029,-0.28869182,-0.08096415,1.2682314,-0.48437828,-0.60579234,-0.32770267,1.2117714,-0.81681424
-0.2,-0.2,0.6,0.5235987755982988,0.0,0,1.3711774,1.4895555,0.27376413,0.3154264,-0.12915918,0.7115254,-0.2701108,-0.09019198,1.2721,-0.46644443,-0.6003144,-0.3298427,1.2073623,-0.8538188
-0.2,-0.2,0.6,0.5235987755982988,0.0,0,1.3894659,1.4934618,0.2890393,0.32556492,-0.12743178,0.7044016,-0.27172688,-0.079815924,1.2652074,-0.48077562,-0.6018637,-0.31655967,1.2110773,-0.8305338
-0.2,-0.2,0.6,0.5235987755982988,0.0,0,1.3696406,1.4770361,0.28365016,0.31524643,-0.12920949,0.7123423,-0.27178898,-0.08280505,1.2698848,-0.47770643,-0.6034393,-0.32048693,1.2105116,-0.82240397
-0.2,-0.2,0.6,0.5235987755982988,0.0,0,1.3615836,1.4686911,0.27532202,0.31567785,-0.10178114,0.70539904,-0.27091295,-0.098553054,1.2674787,-0.49312624,-0.5994908,-0.3230895,1.2081382,-0.8168417
-0.2,-0.2,0.6,0.5235987755982988,0.0,0,1.3825243,1.5000588,0.2773382,0.31580085,-0.1427052,0.69920945,-0.2681255,-0.08318928,1.2684718,-0.4866156,-0.60077924,-0.32673606,1.2149725,-0.86796933
-0.2,-0.2,0.6,0.5235987755982988,0.0,0,1.3528961,1.4595164,0.266435,0.31485283,-0.12992969,0.7113251,-0.2779384,-0.08059609,1.2722176,-0.48201865,-0.6023631,-0.31131124,1.209042,-0.85809934
-0.2,-0.2,0.6,0.5235987755982988,0.0,0,1.3829532,1.4714803,0.2744763,0.32233468,-0.14310347,0.7128497,-0.26284605,-0.08343249,1.2719408,-0.48489252,-0.5971093,-0.32481757,1.2125401,-0.8656271
-0.2,-0.2,0.6,0.5235987755982988,0.0,0,1.3648483,1.483722,0.27563718,0.31723726,-0.12629044,0.70125985,-0.28428003,-0.08063534,1.2709591,-0.47863597,-0.6044541,-0.31651837,1.2077768,-0.8458263
-0.2,-0.2,0.6,0.5235987755982988,0.0,0,1.3741317,1.4724104,0.28989184,0.31858072,-0.15112689,0.7061705,-0.28186727,-0.0850737,1.2687864,-0.47134775,-0.6039047,-0.33685887,1.208464,-0.81430984
-0.2,-0.2,0.6,0.5235987755982988,0.0,0,1.3513503,1.4931141,0.27625394,0.3121504,-0.13578005,0.7066718,-0.27732596,-0.074617915,1.2678682,-0.4835763,-0.6030359,-0.31622338,1.2130519,-0.8401684
-0.2,-0.2,0.6,0.5235987755982988,0.0,0,1.3730989,1.4673579,0.26359382,0.31177872,-0.14703178,0.71308947,-0.31359044,-0.08268766,1.2645303,-0.49160597,-0.6052798,-0.318235,1.205578,-0.80948275
-0.2,-0.2,0.6,0.5235987755982988,0.0,0,1.3855585,1.5029761,0.2741808,0.3168047,-0.1455335,0.72086966,-0.2794721,-0.07965201,1.2709686,-0.48194075,-0.6040785,-0.32183188,1.2100223,-0.82206297
-0.2,-0.2,0.6,0.5235987755982988,0.0,0,1.3782053,1.4599853,0.2725187,0.31768912,-0.13573407,0.70145845,-0.27947843,-0.086909525,1.269933,-0.47974902,-0.60436916,-0.32658312,1.207028,-0.82603073
-0.2,-0.2,0.6,0.5235987755982988,0.0,0,1.339253,1.4480451,0.2789908,0.30919996,-0.101536036,0.7043281,-0.2712489,-0.078642204,1.2706413,-0.47194803,-0.6029975,-0.32237995,1.212703,-0.8556071
-0.2,-0.2,0.6,0.5235987755982988,0.0,0,1.3815289,1.4851698,0.2885998,0.3172327,-0.17880419,0.70169306,-0.26403832,-0.07975979,1.2649767,-0.47133687,-0.60397524,-0.3273226,1.2116159,-0.8298781
-0.2,-0.2,0.6,0.5235987755982988,0.0,0,1.3867176,1.4841175,0.2721884,0.3256079,-0.14545824,0.6985999,-0.264731,-0.084316805,1.2715334,-0.4823483,-0.60499334,-0.3130641,1.2128391,-0.83567977
-0.2,-0.2,0.6,0.5235987755982988,0.0,0,1.3897387,1.4723678,0.27567068,0.3215862,-0.14597586,0.7000974,-0.2579291,-0.08579555,1.264082,-0.46759087,-0.5990385,-0.32599646,1.212102,-0.8654006
-0.2,-0.2,0.6,0.5235987755982988,0.0,0,1.3795065,1.4735049,0.2721634,0.31265253,-0.1126356,0.71030533,-0.23637071,-0.08369247,1.2717795,-0.47900116,-0.5998364,-0.32706964,1.2094423,-0.84610236
-0.2,-0.2,0.6,0.5235987755982988,0.0,0,1.3413188,1.4959129,0.28580466,0.3177393,-0.15977944,0.70791996,-0.25347185,-0.089737505,1.2695768,-0.47909522,-0.6017472,-0.33557922,1.2123511,-0.84807676
-0.2,-0.2,0.6,0.5235987755982988,0.0,0,1.3577185,1.4749671,0.2715269,0.3154757,-0.109002315,0.70518005,-0.26912442,-0.08845796,1.2739108,-0.4884697,-0.60148495,-0.32135114,1.2091378,-0.8365998
-0.2,-0.2,0.6,0.5235987755982988,0.0,0,1.3561366,1.4689624,0.28507462,0.31290308,-0.12359604,0.7053884,-0.25061136,-0.07817732,1.2730305,-0.4773495,-0.59901625,-0.3315259,1.2103422,-0.86317647
-0.2,-0.2,0.6,0.5235987755982988,0.0,0,1.4161515,1.4614433,0.2766104,0.31862214,-0.13264838,0.710927,-0.26578438,-0.0834258,1.2691672,-0.48144892,-0.60445124,-0.3143552,1.2067149,-0.807999
-0.2,-0.2,0.6,0.5235987755982988,0.0,0,1.3581641,1.4794421,0.28002968,0.3090834,-0.12718,0.71312046,-0.2740991,-0.08079887,1.2687002,-0.47535717,-0.6046393,-0.32207945,1.2106462,-0.8397959
-0.2,-0.2,0.6,0.5235987755982988,0.0,0,1.3644211,1.4864508,0.27291414,0.31917623,-0.12619953,0.695268,-0.26204097,-0.08600969,1.27314,-0.4796147,-0.602568,-0.3355931,1.2118732,-0.8244198
-0.2,-0.2,0.6,0.5235987755982988,0.0,0,1.3843349,1.4639482,0.28929365,0.3141103,-0.11037456,0.7049048,-0.24221799,-0.08532318,1.2705697,-0.48994514,-0.60374594,-0.3161285,1.20857,-0.8292928
-0.2,-0.2,0.6,0.5235987755982988,0.0,0,1.3611443,1.4977964,0.2772037,0.31590772,-0.12221465,0.71075815,-0.28245082,-0.08740628,1.2743088,-0.4881548,-0.6039277,-0.3184252,1.2081802,-0.8252753
-0.2,-0.2,0.6,0.5235987755982988,0.0,0,1.3704368,1.4605404,0.2883386,0.31894392,-0.15537435,0.7149762,-0.26398563,-0.0855241,1.2679771,-0.48200473,-0.60352457,-0.3258008,1.2100466,-0.8088188
-0.2,-0.2,0.6,0.5235987755982988,0.0,0,1.4219028,1.4823463,0.28842548,0.32165134,-0.10835544,0.69894165,-0.25887266,-0.08560065,1.2719035,-0.4862211,-0.59936935,-0.32603553,1.2020848,-0.8127086
-0.2,-0.2,0.6,0.5235987755982988,0.0,0,1.3442203,1.4552103,0.2933481,0.31779894,-0.16942696,0.7101517,-0.25402293,-0.08989631,1.2711223,-0.48636544,-0.60507804,-0.31909272,1.210042,-0.83684516
-0.2,-0.2,0.6,0.5235987755982988,0.0,0,1.3908997,1.4437593,0.27978605,0.32008326,-0.13616572,0.7077205,-0.2928164,-0.08446784,1.2685848,-0.4874895,-0.60482126,-0.31931084,1.2082732,-0.832144
-0.2,-0.2,0.6,0.5235987755982988,0.0,0,1.3761271,1.4661074,0.27058178,0.3149679,-0.185241,0.6995462,-0.24200134,-0.0818036,1.2677284,-0.48405334,-0.59890914,-0.32757393,1.2055441,-0.8323717
-0.2,-0.2,0.6,0.5235987755982988,0.0,0,1.3553723,1.4808009,0.27478132,0.30946428,-0.12791738,0.7028212,-0.25464645,-0.088879,1.2651918,-0.47671425,-0.6025838,-0.31732237,1.2077925,-0.8365676
-0.2,-0.2,0.6,0.5235987755982988,0.0,0,1.3496989,1.4695239,0.2847247,0.31291246,-0.089283735,0.70398957,-0.28619838,-0.083228566,1.2719126,-0.4768472,-0.6015746,-0.3335647,1.2112727,-0.82283866
-0.2,-0.2,0.6,0.5235987755982988,0.0,0,1.3726933,1.4588754,0.27959976,0.31220868,-0.12148175,0.69667995,-0.27993852,-0.08614412,1.2706324,-0.4836196,-0.6068207,-0.33458486,1.210285,-0.83105654
-0.2,-0.2,0.6,0.5235987755982988,0.0,0,1.3576039,1.4506904,0.28357697,0.3115786,-0.16113809,0.7068551,-0.26202673,-0.08217952,1.2684268,-0.4781231,-0.6030841,-0.3205721,1.2042577,-0.84884435
-0.2,-0.2,0.6,0.5235987755982988,0.0,0,1.353294,1.478464,0.27860177,0.3079089,-0.13283646,0.7030502,-0.25790432,-0.08904149,1.269464,-0.4776081,-0.6046943,-0.32310018,1.2078576,-0.83640146
-0.2,-0.2,0.6,0.5235987755982988,0.0,0,1.4022526,1.4624145,0.2820685,0.31394896,-0.12499416,0.7121806,-0.2711108,-0.08259584,1.2674248,-0.47291702,-0.6012843,-0.3275208,1.2080293,-0.8446047
-0.2,-0.2,0.6,0.5235987755982988,0.0,0,1.380655,1.4556094,0.2845472,0.31446892,-0.13592368,0.70542264,-0.2612164,-0.08588203,1.2718644,-0.4851874,-0.6042266,-0.3294706,1.2071449,-0.82386345
-0.2,-0.2,0.6,0.5235987755982988,0.0,0,1.3901198,1.4606737,0.28426328,0.31991357,-0.15845095,0.70740694,-0.2920135,-0.07806914,1.2668396,-0.4817296,-0.5998788,-0.3327738,1.2082965,-0.86045575
-0.2,-0.2,0.6,0.5235987755982988,0.0,0,1.3919852,1.4776223,0.28878772,0.31868592,-0.13559532,0.70936894,-0.25964227,-0.08300425,1.2710251,-0.47670138,-0.60195947,-0.33090642,1.2096392,-0.8281286
-0.2,-0.2,0.6,0.5235987755982988,0.0,0,1.3879126,1.4782923,0.28530717,0.31651458,-0.12614785,0.71386373,-0.26191464,-0.08319999,1.2657728,-0.4711813,-0.6018292,-0.32390064,1.2130706,-0.8373109
-0.2,-0.2,0.6,0.5235987755982988,0.0,0,1.3714179,1.477168,0.27075836,0.31154174,-0.15244682,0.7043926,-0.256334,-0.08055804,1.2719121,-0.47430488,-0.6014844,-0.3349081,1.2129333,-0.8517471
-0.2,-0.2,0.6,0.5235987755982988,0.0,0,1.3531893,1.4716315,0.28707054,0.31778264,-0.14409462,0.69446474,-0.24705482,-0.08904786,1.2660538,-0.48165062,-0.60224783,-0.31756702,1.2098945,-0.8330993
-0.2,-0.2,0.6,0.5235987755982988,0.0,0,1.346822,1.478973,0.27967474,0.3084124,-0.1496594,0.7059047,-0.2728229,-0.08360529,1.2727745,-0.48099488,-0.5992367,-0.33612117,1.2083824,-0.8511102
-0.2,-0.2,0.6,0.5235987755982988,0.0,0,1.3824449,1.4988703,0.28068075,0.31507847,-0.15704027,0.69417167,-0.27097854,-0.07817528,1.2636007,-0.4761594,-0.6024127,-0.31682262,1.2096108,-0.8549365
-0.2,-0.2,0.6,0.5235987755982988,0.0,0,1.3606387,1.4800738,0.2843534,0.31467444,-0.12463426,0.7105353,-0.27692863,-0.08901166,1.268152,-0.4778638,-0.60112983,-0.33137366,1.2109959,-0.83454967
-0.2,-0.2,0.6,0.5235987755982988,0.0,0,1.3728001,1.4871145,0.29218593,0.31164032,-0.15295044,0.70421934,-0.26010397,-0.08483968,1.266582,-0.48651636,-0.60172814,-0.3212923,1.2071092,-0.8802922
-0.2,-0.2,0.6,0.5235987755982988,0.0,0,1.34492,1.4912192,0.28550687,0.31824243,-0.13684653,0.70820355,-0.28462663,-0.085321024,1.2634289,-0.47796443,-0.59871656,-0.32886818,1.2165284,-0.868064
-0.2,-0.2,0.6,0.5235987755982988,0.0,0,1.3855584,1.4530219,0.28266412,0.31352624,-0.10944671,0.70250934,-0.28013277,-0.081431754,1.267493,-0.4820073,-0.600167,-0.3292423,1.207369,-0.8308744
-0.2,-0.2,0.6,0.5235987755982988,0.0,0,1.3571348,1.4777617,0.26947516,0.31108895,-0.15481007,0.7163322,-0.2325727,-0.081232786,1.2672244,-0.4793052,-0.60176426,-0.31517425,1.2078825,-0.8539269
-0.2,-0.2,0.6,0.5235987755982988,0.0,0,1.3681726,1.4361746,0.27553037,0.3198013,-0.13525903,0.7051802,-0.2820937,-0.085241094,1.2714697,-0.49358523,-0.60763156,-0.32625696,1.2106354,-0.8569199
-0.2,-0.2,0.6,0.5235987755982988,0.0,0,1.3539407,1.4876593,0.27851638,0.31824628,-0.1361369,0.69425935,-0.24849078,-0.08701344,1.2682375,-0.48601806,-0.6069262,-0.32501817,1.2045213,-0.8413436
-0.2,-0.2,0.6,0.5235987755982988,0.0,0,1.3280451,1.4896883,0.269277,0.31666726,-0.13332821,0.7137342,-0.26332435,-0.08090433,1.2696347,-0.47543687,-0.59763193,-0.31851494,1.2061169,-0.825384
-0.2,-0.2,0.6,0.5235987755982988,0.0,0,1.3854455,1.4720098,0.26715246,0.3194518,-0.13509075,0.70425045,-0.26559252,-0.08133009,1.2725044,-0.47647017,-0.6062514,-0.31486183,1.2033412,-0.84398156
-0.2,-0.2,0.6,0.5235987755982988,0.0,0,1.3542976,1.4754714,0.27850062,0.31610662,-0.11872041,0.71316534,-0.26112223,-0.079550125,1.2668531,-0.47941977,-0.6038871,-0.3219077,1.2064586,-0.8068358
-0.2,-0.2,0.6,0.5235987755982988,0.0,0,1.3467051,1.4397084,0.28422832,0.31861907,-0.14719693,0.7112519,-0.2743775,-0.07707476,1.2656125,-0.49087462,-0.60002744,-0.32393372,1.2066848,-0.854637
-0.2,-0.2,0.6,0.5235987755982988,0.0,0,1.388062,1.4850297,0.27699035,0.31334653,-0.12407423,0.6995383,-0.24455996,-0.0776325,1.2678194,-0.48728868,-0.5999692,-0.32357085,1.2034614,-0.85794365
-0.2,-0.2,0.6,0.5235987755982988,0.0,0,1.3744714,1.4663159,0.28538254,0.31960532,-0.16371156,0.7103862,-0.24310412,-0.0902407,1.2704911,-0.4885896,-0.6066768,-0.319368,1.2094779,-0.82407933
-0.2,-0.2,0.6,0.5235987755982988,0.0,0,1.3617252,1.5041064,0.27339807,0.3149241,-0.14810295,0.70085746,-0.27189946,-0.087182336,1.2693383,-0.48268083,-0.60638463,-0.33263317,1.2068715,-0.8353101
-0.2,-0.2,0.6,0.5235987755982988,0.0,0,1.385373,1.4703441,0.2722656,0.31347567,-0.1256167,0.70977384,-0.26275793,-0.08338992,1.2692226,-0.4961603,-0.5999531,-0.32047126,1.2018877,-0.8753233
-0.2,-0.2,0.6,0.5235987755982988,0.0,0,1.4059708,1.5035075,0.27831474,0.31591395,-0.14378461,0.7051057,-0.26739132,-0.08371036,1.2659278,-0.48623964,-0.6031416,-0.32914227,1.205368,-0.8435502
-0.2,-0.2,0.6,0.5235987755982988,0.0,0,1.3483142,1.4841603,0.28276294,0.31775662,-0.15820253,0.7187886,-0.27352002,-0.08802667,1.2656521,-0.48929054,-0.599838,-0.31983766,1.2040457,-0.8150598
-0.2,-0.2,0.6,0.5235987755982988,0.0,0,1.3774483,1.4957922,0.2684509,0.31599346,-0.13081002,0.70551074,-0.27650574,-0.07870325,1.273622,-0.4999221,-0.60383517,-0.3250631,1.210569,-0.86680603
-0.2,-0.2,0.6,0.5235987755982988,0.0,0,1.365986,1.4829859,0.28151396,0.3193917,-0.14159031,0.71218026,-0.24072914,-0.082811974,1.2695553,-0.4834184,-0.6012851,-0.32512572,1.2050091,-0.829264
-0.2,-0.2,0.6,0.5235987755982988,0.0,0,1.3630942,1.4686028,0.2791569,0.31857905,-0.13874784,0.7093909,-0.26875946,-0.08448488,1.2655711,-0.49264044,-0.59887207,-0.33555764,1.2070467,-0.85782784
-0.2,-0.2,0.6,0.5235987755982988,0.0,0,1.3954632,1.4703934,0.2723489,0.3210054,-0.12612832,0.71259,-0.2687438,-0.08614646,1.276825,-0.49118304,-0.6057045,-0.3275194,1.2083477,-0.84057343
-0.2,-0.2,0.6,0.5235987755982988,0.0,0,1.3427638,1.4769138,0.29237697,0.319723,-0.10903491,0.7017435,-0.23599422,-0.08578734,1.2741661,-0.4910614,-0.60404927,-0.3154297,1.2080973,-0.83654666
-0.2,-0.2,0.6,0.5235987755982988,0.0,0,1.3479503,1.4717238,0.27633566,0.31871304,-0.117967196,0.70720184,-0.29076734,-0.08194689,1.2725577,-0.4812598,-0.60339,-0.32864204,1.2059611,-0.8286208
-0.2,-0.2,0.6,0.5235987755982988,0.0,0,1.3477486,1.4752952,0.29008836,0.3216875,-0.13361686,0.7062949,-0.26035538,-0.0880814,1.2722728,-0.49178872,-0.6042334,-0.32956755,1.212597,-0.85818636
-0.2,-0.2,0.6,0.5235987755982988,0.0,0,1.3600023,1.480816,0.26792184,0.31910604,-0.120755546,0.70042455,-0.26184097,-0.08792248,1.2689131,-0.49467027,-0.60154915,-0.31968334,1.2065884,-0.84218085
-0.2,-0.2,0.6,0.5235987755982988,0.0,0,1.3570261,1.4723831,0.2808108,0.31933385,-0.13236673,0.71419704,-0.2847315,-0.08426848,1.2710589,-0.48779067,-0.6061795,-0.32587373,1.2089133,-0.8161553
-0.2,-0.2,0.6,0.5235987755982988,0.0,0,1.3549612,1.4625396,0.28225264,0.32336983,-0.1286405,0.7089751,-0.26282352,-0.09318364,1.2658694,-0.48782766,-0.6044995,-0.3179178,1.2094512,-0.8053994
-0.2,-0.2,0.6,0.5235987755982988,0.0,0,1.3945167,1.4700308,0.2855344,0.320661,-0.13385367,0.70733744,-0.26314762,-0.07613823,1.2631171,-0.48141736,-0.6031533,-0.32982713,1.2117435,-0.85661113
-0.2,-0.2,0.6,0.5235987755982988,0.0,0,1.3240772,1.4522892,0.28351432,0.30623546,-0.13927795,0.71136403,-0.25400946,-0.08465393,1.2719817,-0.4849135,-0.60911834,-0.31581658,1.2097917,-0.8412683
-0.2,-0.2,0.6,0.5235987755982988,0.0,0,1.3454728,1.4557061,0.27399912,0.31681868,-0.17589793,0.7115113,-0.25062016,-0.07956516,1.2670141,-0.47475064,-0.601538,-0.32865676,1.2048341,-0.8289302
-0.2,-0.2,0.6,0.5235987755982988,0.0,0,1.3346565,1.4881295,0.28115517,0.32269394,-0.086254254,0.70527613,-0.2858478,-0.07921153,1.2695477,-0.48820195,-0.5984237,-0.30933422,1.201838,-0.8109234
-0.2,-0.2,0.6,0.5235987755982988,0.0,0,1.4086094,1.4944414,0.2886996,0.32233763,-0.12036264,0.6956703,-0.23889765,-0.08211025,1.2665815,-0.4843803,-0.60088444,-0.3217494,1.2109714,-0.8541676
-0.2,-0.2,0.6,0.5235987755982988,0.0,0,1.3741722,1.4748372,0.26475778,0.32173365,-0.13866407,0.7044071,-0.2671054,-0.082661614,1.2692922,-0.48558018,-0.59954774,-0.3222746,1.2051563,-0.8402479
-0.2,-0.2,0.6,0.5235987755982988,0.0,0,1.3628374,1.4656367,0.27022046,0.31724426,-0.14905599,0.7184146,-0.27164447,-0.0817906,1.2693312,-0.4889514,-0.6027222,-0.3169655,1.2077537,-0.8235291
-0.2,-0.2,0.6,0.5235987755982988,0.0,0,1.3775308,1.4739816,0.27360335,0.31900337,-0.13628258,0.70260024,-0.29213515,-0.083984174,1.265149,-0.4903867,-0.60459185,-0.32217658,1.204385,-0.8547035
-0.2,-0.2,0.6,0.5235987755982988,0.0,0,1.3470513,1.4506292,0.28287354,0.3150612,-0.124172606,0.70468503,-0.2438531,-0.08396161,1.2731146,-0.4891442,-0.6031669,-0.31959412,1.205834,-0.84512216
-0.2,-0.2,0.6,0.5235987755982988,0.0,0,1.3610694,1.4729791,0.28339583,0.3163865,-0.12469935,0.714254,-0.27379295,-0.083059356,1.2677686,-0.48929316,-0.60300887,-0.33740437,1.208306,-0.85657275
-0.2,-0.2,0.6,0.5235987755982988,0.0,0,1.3676096,1.4827259,0.27640098,0.31964147,-0.12174701,0.7031991,-0.2680145,-0.08348976,1.2647604,-0.48512495,-0.6033293,-0.32313132,1.2090317,-0.83048075
-0.2,-0.2,0.6,0.5235987755982988,0.0,0,1.3798937,1.4885975,0.27696243,0.32137665,-0.12834021,0.70574474,-0.27309513,-0.078086235,1.2688748,-0.47826588,-0.60425925,-0.32397225,1.2112052,-0.8694863
-0.2,-0.2,0.6,0.5235987755982988,0.0,0,1.3599094,1.4628018,0.28312913,0.31401348,-0.12791666,0.7053948,-0.24327022,-0.093045354,1.2748955,-0.49600953,-0.5989596,-0.33729607,1.2062379,-0.825498
-0.2,-0.2,0.6,0.5235987755982988,0.0,0,1.3596083,1.4736468,0.27631432,0.31761613,-0.13125063,0.69907594,-0.26010787,-0.085911356,1.2723118,-0.49430028,-0.60419565,-0.32773897,1.206746,-0.86177135
-0.2,-0.2,0.6,0.5235987755982988,0.0,0,1.3461052,1.4620804,0.2790137,0.31880492,-0.15157999,0.7022355,-0.26461902,-0.0876468,1.2686163,-0.48730695,-0.6074189,-0.3221649,1.2067118,-0.8618395
-0.2,-0.2,0.6,0.5235987755982988,0.0,0,1.3590606,1.4831822,0.27855694,0.31386125,-0.13148846,0.7087845,-0.25573757,-0.08662614,1.2709811,-0.48220438,-0.6060625,-0.3358001,1.2060803,-0.82469404
-0.2,-0.2,0.6,0.5235987755982988,0.0,0,1.3547637,1.468499,0.28881562,0.31278253,-0.13347545,0.72435683,-0.2839907,-0.077742964,1.2671818,-0.5031379,-0.59904766,-0.32421127,1.2091558,-0.85132426
-0.2,-0.2,0.6,0.5235987755982988,0.0,0,1.387924,1.469881,0.26973823,0.31619602,-0.1367437,0.6996605,-0.24644104,-0.079887465,1.2669873,-0.47446093,-0.604314,-0.33243406,1.2089411,-0.818269
-0.2,-0.2,0.6,0.5235987755982988,0.0,0,1.3482121,1.5120817,0.2723726,0.31433445,-0.12510824,0.6948237,-0.26556093,-0.08208568,1.2695963,-0.480971,-0.60192,-0.32493377,1.2065346,-0.82404816
-0.2,-0.2,0.6,0.5235987755982988,0.0,0,1.3870254,1.4858545,0.28252232,0.31108582,-0.13962783,0.71266633,-0.2735161,-0.0805897,1.2638711,-0.4903958,-0.60211617,-0.3291912,1.207411,-0.83523244
-0.2,-0.2,0.6,0.5235987755982988,0.0,0,1.3493078,1.4791744,0.27389804,0.31456175,-0.119743496,0.71376806,-0.26655832,-0.0937724,1.2714319,-0.47516105,-0.60356396,-0.32750848,1.2058285,-0.85507244
-0.2,-0.2,0.6,0.5235987755982988,0.0,0,1.3650783,1.4731022,0.280552,0.31434494,-0.14685164,0.7160393,-0.26269665,-0.084435865,1.2669548,-0.48594886,-0.6050996,-0.32052946,1.2089156,-0.8409539
-0.2,-0.2,0.6,0.5235987755982988,0.0,0,1.3544049,1.4679946,0.2721038,0.31769153,-0.13583593,0.69643426,-0.2748241,-0.08446632,1.2657993,-0.47739506,-0.6020459,-0.32659212,1.205896,-0.86281854
-0.2,-0.2,0.6,0.5235987755982988,0.0,0,1.3474128,1.4687736,0.28311703,0.319097,-0.14891109,0.71427536,-0.27639276,-0.0817772,1.2689136,-0.4998802,-0.6025513,-0.32053354,1.2053007,-0.82229286
-0.2,-0.2,0.6,0.5235987755982988,0.0,0,1.3348116,1.4651725,0.27370825,0.31374282,-0.12212682,0.70088184,-0.27355865,-0.079239935,1.2684842,-0.47584912,-0.60486346,-0.31663215,1.2074109,-0.85532796
-0.2,-0.2,0.6,0.5235987755982988,0.0,0,1.3659675,1.4632144,0.2815189,0.32504,-0.14774743,0.7049039,-0.2315972,-0.086503565,1.2635759,-0.47664458,-0.6005557,-0.31854182,1.2128592,-0.8376026
-0.2,-0.2,0.6,0.5235987755982988,0.0,0,1.4262477,1.482464,0.2879242,0.32177225,-0.1856919,0.7125728,-0.28403673,-0.079604685,1.264635,-0.49275765,-0.6054965,-0.32142702,1.2029628,-0.85607487
-0.2,-0.2,0.6,0.5235987755982988,0.0,0,1.3579955,1.4744035,0.28754002,0.31968394,-0.13719234,0.719987,-0.25172615,-0.084893756,1.2722267,-0.48530346,-0.6025725,-0.33036393,1.2108152,-0.8453906
-0.2,-0.2,0.6,0.5235987755982988,0.0,0,1.3559971,1.4749563,0.2726543,0.3133319,-0.10197829,0.71465296,-0.26280227,-0.089040905,1.2671237,-0.47716492,-0.59975964,-0.31472945,1.2053002,-0.86825496
-0.2,-0.2,0.6,0.5235987755982988,0.0,0,1.3947587,1.4732594,0.2797181,0.3173381,-0.1333474,0.71195316,-0.26572612,-0.08078396,1.2706672,-0.48276427,-0.6009706,-0.32073596,1.2040828,-0.824267
-0.2,-0.2,0.6,0.5235987755982988,0.0,0,1.3818882,1.4800764,0.273099,0.31979543,-0.1298442,0.7020812,-0.28670105,-0.080753416,1.2689158,-0.4888762,-0.6041408,-0.33337086,1.2088441,-0.79268456
-0.2,-0.2,0.6,0.5235987755982988,0.0,0,1.358574,1.4635727,0.28823867,0.31701502,-0.124214046,0.69891083,-0.26128322,-0.07928583,1.2665633,-0.49251944,-0.5959402,-0.3348823,1.2029862,-0.84207094
-0.2,-0.2,0.6,0.5235987755982988,0.0,0,1.3606358,1.5019015,0.28869474,0.31600723,-0.09086316,0.6945454,-0.28669432,-0.08809376,1.2627063,-0.48658332,-0.6037508,-0.32002607,1.2102578,-0.837903
-0.2,-0.2,0.6,0.5235987755982988,0.0,0,1.3763334,1.4657274,0.28646982,0.31889188,-0.122447394,0.698553,-0.2565952,-0.09515697,1.2643566,-0.4797601,-0.6045653,-0.3331057,1.2063138,-0.8385461
-0.2,-0.2,0.6,0.5235987755982988,0.0,0,1.4034866,1.4613109,0.27986646,0.31929433,-0.15020233,0.7033553,-0.24123736,-0.08587533,1.2711887,-0.4922223,-0.60485923,-0.32201767,1.2063698,-0.8482178
-0.2,-0.2,0.6,0.5235987755982988,0.0,0,1.3654175,1.4525434,0.28783602,0.31529012,-0.13698387,0.7152109,-0.2753659,-0.075882025,1.2692492,-0.4926213,-0.59961414,-0.32830355,1.2015599,-0.84812313
-0.2,-0.2,0.6,0.5235987755982988,0.0,0,1.3851655,1.4744987,0.28031003,0.31696132,-0.13461538,0.72089016,-0.29139203,-0.09050774,1.2682513,-0.48370025,-0.6079086,-0.31230083,1.2098213,-0.83864754
-0.2,-0.2,0.6,0.5235987755982988,0.0,0,1.358926,1.4894074,0.2860982,0.31312665,-0.14078218,0.71094674,-0.2882393,-0.079391435,1.2626307,-0.47952035,-0.6026527,-0.32559377,1.2071397,-0.85774285
-0.2,-0.2,0.6,0.5235987755982988,0.0,0,1.376123,1.4571244,0.28260186,0.32232773,-0.13278627,0.7031104,-0.27035335,-0.08605459,1.2657031,-0.49187285,-0.603781,-0.33454037,1.2109228,-0.8088366
-0.2,-0.2,0.6,0.5235987755982988,0.0,0,1.3522735,1.4840033,0.2869631,0.3150005,-0.14348528,0.71642405,-0.25481018,-0.08023237,1.2693992,-0.4750483,-0.6017496,-0.33479336,1.2109525,-0.81885606
-0.2,-0.2,0.6,0.5235987755982988,0.0,0,1.3606607,1.471832,0.28035977,0.31730217,-0.11569485,0.70467734,-0.26178107,-0.083667755,1.268242,-0.4891195,-0.60247564,-0.32444924,1.2082103,-0.83231694
-0.2,-0.2,0.6,0.5235987755982988,0.0,0,1.3923469,1.4753554,0.2796179,0.3125183,-0.13367146,0.70541,-0.281216,-0.08097349,1.2669809,-0.4823425,-0.6035789,-0.32258356,1.2040192,-0.86509174
-0.2,-0.2,0.6,0.5235987755982988,0.0,0,1.3927689,1.4913695,0.27374208,0.31329134,-0.1168259,0.7118436,-0.289237,-0.08376241,1.2678119,-0.49120742,-0.61016476,-0.31800044,1.2111682,-0.8430928
-0.2,-0.2,0.6,0.5235987755982988,0.0,0,1.3741939,1.4470358,0.27489075,0.32157314,-0.12957068,0.7028312,-0.25540453,-0.0917668,1.2699116,-0.49574533,-0.6012341,-0.31975377,1.2095245,-0.85190105
-0.2,-0.2,0.6,0.5235987755982988,0.0,0,1.3587935,1.476818,0.27933368,0.31715286,-0.17287049,0.71514875,-0.26451465,-0.08614084,1.2624596,-0.4848012,-0.6018213,-0.32467148,1.2090832,-0.8369417
-0.2,-0.2,0.6,0.5235987755982988,0.0,0,1.402446,1.4573469,0.27900708,0.31590086,-0.14284876,0.7075846,-0.24488273,-0.088836275,1.2659346,-0.48727062,-0.6048192,-0.32499805,1.2056733,-0.833876
-0.2,-0.2,0.6,0.5235987755982988,0.0,0,1.3463304,1.469844,0.2771368,0.31775677,-0.12860459,0.70632035,-0.2467102,-0.08464532,1.2697229,-0.49474728,-0.59739715,-0.31670654,1.2068554,-0.86724424
-0.2,-0.2,0.6,0.5235987755982988,0.0,0,1.3736142,1.4798617,0.28123382,0.31731537,-0.13801628,0.70560414,-0.28113452,-0.0894655,1.2649716,-0.4944986,-0.60583526,-0.32619116,1.2084613,-0.82058823
-0.2,-0.2,0.6,0.5235987755982988,0.0,0,1.3789881,1.4857078,0.28120792,0.31490007,-0.11507672,0.7114263,-0.2742553,-0.085167535,1.2682903,-0.47421315,-0.6065275,-0.31220096,1.2089083,-0.83927506
-0.2,-0.2,0.6,0.5235987755982988,0.0,0,1.3533058,1.4909769,0.27563843,0.32072744,-0.13304871,0.69190943,-0.28219017,-0.08780628,1.2690032,-0.49165007,-0.603611,-0.3226562,1.2036345,-0.8424077
-0.2,-0.2,0.6,0.5235987755982988,0.0,0,1.3542079,1.4919438,0.26904416,0.3146072,-0.114097886,0.6958254,-0.28172415,-0.08242219,1.2698704,-0.47740683,-0.60163045,-0.3296948,1.2054709,-0.84198207
-0.2,-0.2,0.6,0.5235987755982988,0.0,0,1.3471895,1.4755061,0.27824318,0.3187689,-0.1335701,0.70387095,-0.28451937,-0.08362565,1.2722218,-0.49710432,-0.60258996,-0.32438272,1.2068839,-0.84025884
-0.2,-0.2,0.6,0.5235987755982988,0.0,0,1.3709446,1.5082567,0.26494345,0.3191084,-0.12668404,0.6995064,-0.28827736,-0.08927916,1.2695907,-0.48207876,-0.60119545,-0.3159146,1.2096043,-0.839608
-0.2,-0.2,0.6,0.5235987755982988,0.0,0,1.3697646,1.4701092,0.28521833,0.3140717,-0.13963626,0.7002758,-0.25630715,-0.07954097,1.2635856,-0.48133525,-0.60402125,-0.33287558,1.2088625,-0.81730986
-0.2,-0.2,0.6,0.5235987755982988,0.0,0,1.3419429,1.4963667,0.28383622,0.3156226,-0.15660045,0.71446764,-0.27296472,-0.08546379,1.2697773,-0.4933361,-0.59939337,-0.33202052,1.2051514,-0.8643208
-0.2,-0.2,0.6,0.5235987755982988,0.0,0,1.353585,1.4475148,0.27097863,0.31624678,-0.14348644,0.6961316,-0.27117127,-0.08497134,1.2685524,-0.48276913,-0.60019904,-0.3341713,1.2044915,-0.8494285
-0.2,-0.2,0.6,0.5235987755982988,0.0,0,1.3773141,1.4905945,0.2752224,0.31982207,-0.17377813,0.71379966,-0.28643948,-0.08641771,1.2682946,-0.49068826,-0.60417396,-0.32526436,1.2082812,-0.84136635
-0.2,-0.2,0.6,0.5235987755982988,0.0,0,1.3812338,1.4615744,0.27883217,0.31620318,-0.12985882,0.7125188,-0.2784462,-0.08111543,1.2691859,-0.48706272,-0.60146934,-0.33434886,1.208895,-0.862471
-0.2,-0.2,0.6,0.5235987755982988,0.0,0,1.3654016,1.4802183,0.2734395,0.3202289,-0.14635566,0.70060444,-0.27544048,-0.07632599,1.2724603,-0.48187816,-0.6034305,-0.33344653,1.2114637,-0.87059814
-0.2,-0.2,0.6,0.5235987755982988,0.0,0,1.3568326,1.4533434,0.2885952,0.315987,-0.1117527,0.69341826,-0.2675492,-0.0827374,1.2732595,-0.499877,-0.6024878,-0.32277393,1.2037603,-0.85725904
-0.2,-0.2,0.6,0.5235987755982988,0.0,0,1.3128449,1.466914,0.27884403,0.3170936,-0.13347387,0.71048206,-0.30280834,-0.08833331,1.2696218,-0.49327442,-0.59691614,-0.3256602,1.2058865,-0.8441684
-0.2,-0.2,0.6,0.5235987755982988,0.0,0,1.359317,1.4754362,0.26517302,0.31429487,-0.14849313,0.6889851,-0.2594285,-0.084033154,1.2689074,-0.48275352,-0.5989353,-0.32915,1.2048485,-0.86987865
-0.2,-0.2,0.6,0.5235987755982988,0.0,0,1.3651353,1.4855502,0.28131834,0.31428078,-0.13806793,0.7045269,-0.24636823,-0.08839597,1.2685512,-0.49025097,-0.60458064,-0.32526955,1.2190609,-0.88496476
-0.2,-0.2,0.6,0.5235987755982988,0.0,0,1.3572218,1.4637932,0.2874686,0.3125389,-0.16662498,0.70696115,-0.27850106,-0.08305473,1.2716141,-0.49807236,-0.6047076,-0.3314542,1.2060926,-0.84368956
-0.2,-0.2,0.6,0.5235987755982988,0.0,0,1.3657861,1.4623684,0.2809192,0.31783885,-0.13879277,0.70196474,-0.25035822,-0.08164289,1.2689039,-0.48215297,-0.5982578,-0.33202794,1.2065467,-0.8615335
-0.2,-0.2,0.6,0.5235987755982988,0.0,0,1.3489683,1.4683008,0.2912354,0.32002223,-0.14732422,0.7000082,-0.27401343,-0.08200721,1.2674855,-0.4915887,-0.598973,-0.32049677,1.2047622,-0.87106943
-0.2,-0.2,0.6,0.5235987755982988,0.0,0,1.3827927,1.4590862,0.28259805,0.31439084,-0.12482821,0.7076577,-0.244654,-0.085748106,1.2699903,-0.4873076,-0.6041975,-0.33582425,1.2108711,-0.8296077
-0.2,-0.2,0.6,0.5235987755982988,0.0,0,1.3918177,1.4677374,0.283309,0.31838518,-0.10721232,0.7076235,-0.25573468,-0.082773045,1.2711818,-0.4749007,-0.6007637,-0.32793614,1.2051398,-0.849366
-0.2,-0.2,0.6,0.5235987755982988,0.0,0,1.3627983,1.4487236,0.28999013,0.31050834,-0.1537911,0.7098643,-0.25292516,-0.07623294,1.2670016,-0.4989502,-0.59827256,-0.32336235,1.2064638,-0.8572297
-0.2,-0.2,0.6,0.5235987755982988,0.0,0,1.40599,1.4893959,0.2770167,0.31688803,-0.1132065,0.704062,-0.27926624,-0.084261894,1.2706501,-0.48445278,-0.5985375,-0.33799088,1.2091938,-0.8396014
-0.2,-0.2,0.6,0.5235987755982988,0.0,0,1.3434662,1.4524119,0.29687193,0.31449825,-0.13230678,0.7047872,-0.28594485,-0.08323282,1.2731106,-0.49058005,-0.60781664,-0.33264583,1.209054,-0.85799193
-0.2,-0.2,0.6,0.5235987755982988,0.0,0,1.3861912,1.4937893,0.2671494,0.3124323,-0.1444973,0.69869125,-0.25940913,-0.082570344,1.2688277,-0.49297106,-0.60493463,-0.31499487,1.2066277,-0.8361756
-0.2,-0.2,0.6,0.5235987755982988,0.0,0,1.3863233,1.478054,0.26910323,0.31446728,-0.11538777,0.71238005,-0.29735452,-0.08483406,1.2681025,-0.4812103,-0.5999744,-0.328701,1.2066026,-0.8317019
-0.2,-0.2,0.6,0.5235987755982988,0.0,0,1.3334955,1.4804366,0.26687714,0.3094436,-0.13031664,0.70333004,-0.26511407,-0.08171137,1.2697517,-0.48425,-0.59874016,-0.33881477,1.2081326,-0.8658602
