sanky1234/BimanualDexCatch/isaacgymenvs/cem_results/football_pose_-0.2_-0.2_1.2999999999999998_0.0_-0.5235987755982988_0_2025-05-24.csv
x,y,z,roll,pitch,yaw,robot1/joint1,robot1/joint2,robot1/joint3,robot1/joint4,robot1/joint5,robot1/joint6,robot1/joint7,robot2/joint1,robot2/joint2,robot2/joint3,robot2/joint4,robot2/joint5,robot2/joint6,robot2/joint7
-0.2,-0.2,1.2999999999999998,0.0,-0.5235987755982988,0,0.52624214,1.2813307,0.27380374,-0.10352245,-0.08475197,1.3318796,-0.67725104,-1.1440413,0.57009643,-1.1293222,0.33112487,0.20617004,0.42693272,-0.6859932
-0.2,-0.2,1.2999999999999998,0.0,-0.5235987755982988,0,0.8321117,1.2587256,0.16679618,-0.044852898,-0.012241666,1.2972604,0.39336386,-1.1432772,0.57169765,-1.1272366,0.33055362,0.21932314,0.421707,-0.6698694
-0.2,-0.2,1.2999999999999998,0.0,-0.5235987755982988,0,-0.25880298,1.3734754,-0.08487494,-0.083636045,-0.22022025,1.2314367,0.6772674,-1.1445702,0.5693348,-1.1305845,0.330358,0.21085447,0.41946146,-0.6811877
-0.2,-0.2,1.2999999999999998,0.0,-0.5235987755982988,0,0.48238745,1.206393,0.15189102,-0.12914391,-0.16498712,1.1951646,-0.34230912,-1.1435986,0.5707179,-1.1285604,0.3309673,0.21357708,0.4266183,-0.6798313
-0.2,-0.2,1.2999999999999998,0.0,-0.5235987755982988,0,0.2526077,1.1611588,0.01260462,-0.066188894,-0.21167268,1.2100216,0.028359517,-1.1436474,0.5689379,-1.128376,0.32990372,0.21382363,0.42015526,-0.6480074
-0.2,-0.2,1.2999999999999998,0.0,-0.5235987755982988,0,0.11179774,1.367813,0.099706486,-0.12250844,0.01306145,1.2833776,-1.9733132,-1.1437274,0.57141477,-1.1279591,0.33015227,0.21163593,0.42107803,-0.67579865
-0.2,-0.2,1.2999999999999998,0.0,-0.5235987755982988,0,-0.1227516,1.2132409,0.081014924,-0.10423765,-0.2751109,1.1956736,-0.035699487,-1.1435989,0.5715446,-1.128321,0.33018455,0.21152511,0.420823,-0.66658986
-0.2,-0.2,1.2999999999999998,0.0,-0.5235987755982988,0,-0.5014045,1.2995749,0.048483003,-0.06015546,-0.33862966,1.2982045,-0.02686102,-1.1429411,0.5685709,-1.1284782,0.32933617,0.21170601,0.4182198,-0.68298066
-0.2,-0.2,1.2999999999999998,0.0,-0.5235987755982988,0,0.5425044,1.2972888,0.05973759,-0.09364994,-0.11469013,1.249765,0.49731478,-1.1442083,0.56996274,-1.1285659,0.33059657,0.21018505,0.42721218,-0.66619205
-0.2,-0.2,1.2999999999999998,0.0,-0.5235987755982988,0,0.8747642,1.237874,-0.050851554,-0.11033491,-0.26359874,1.281979,0.9751319,-1.1438158,0.5715056,-1.1284553,0.33122724,0.2184779,0.41348618,-0.64952147
-0.2,-0.2,1.2999999999999998,0.0,-0.5235987755982988,0,0.2822047,1.2814691,0.07908093,-0.11638124,-0.1540454,1.2739135,-0.35398352,-1.1446626,0.5684247,-1.1273305,0.32996872,0.206958,0.42887187,-0.65895265
-0.2,-0.2,1.2999999999999998,0.0,-0.5235987755982988,0,0.2279805,1.3975832,0.049248755,-0.1434091,0.029962912,1.2258365,1.3804327,-1.1425631,0.57063985,-1.128216,0.33048335,0.21529001,0.42752302,-0.6712201
-0.2,-0.2,1.2999999999999998,0.0,-0.5235987755982988,0,0.4756897,1.1728244,0.033864286,-0.092805125,-0.24541582,1.2345848,0.547054,-1.142507,0.56978714,-1.1284701,0.33026195,0.21369618,0.41048506,-0.65016276
-0.2,-0.2,1.2999999999999998,0.0,-0.5235987755982988,0,0.27395517,1.2549495,-0.10518459,-0.017729228,0.19574721,1.3388913,-0.53681576,-1.1435935,0.57135254,-1.1277654,0.33121553,0.20704775,0.4242952,-0.6478687
-0.2,-0.2,1.2999999999999998,0.0,-0.5235987755982988,0,0.5657988,1.1193538,0.0829755,-0.12883604,-0.4457999,1.3085802,0.15698506,-1.1435938,0.5726702,-1.1276937,0.33023915,0.21388505,0.42791694,-0.67542094
-0.2,-0.2,1.2999999999999998,0.0,-0.5235987755982988,0,0.47974184,1.1460063,-0.15533757,-0.05936923,-0.032037944,1.2372886,-1.1703802,-1.1441416,0.56968457,-1.1270409,0.33051762,0.2102581,0.41656962,-0.6703231
-0.2,-0.2,1.2999999999999998,0.0,-0.5235987755982988,0,0.63772506,1.167084,-0.032654162,-0.13291225,0.093840756,1.1883982,-0.2330644,-1.1434251,0.5710861,-1.1261712,0.33076665,0.21491747,0.42037657,-0.6547042
-0.2,-0.2,1.2999999999999998,0.0,-0.5235987755982988,0,-0.29356733,1.2048572,-0.15303828,-0.06076834,-0.32515132,1.2257456,-0.48827326,-1.1424524,0.5716655,-1.1275823,0.32984278,0.20566127,0.42522582,-0.69466794
-0.2,-0.2,1.2999999999999998,0.0,-0.5235987755982988,0,0.3770993,1.3479044,0.015638,-0.08290726,0.20179757,1.2608023,-0.7828842,-1.1437587,0.5692187,-1.1289523,0.33076856,0.20826958,0.42929718,-0.6677696
-0.2,-0.2,1.2999999999999998,0.0,-0.5235987755982988,0,0.38550517,1.2131115,-0.048738644,-0.11690462,-0.39709985,1.2744156,-1.4360344,-1.1426481,0.5706716,-1.1274137,0.33034402,0.21442874,0.42458376,-0.6592651
-0.2,-0.2,1.2999999999999998,0.0,-0.5235987755982988,0,0.1507789,1.282033,-0.035063967,-0.060444985,-0.36169493,1.1200168,-1.3106121,-1.143859,0.5667085,-1.1309307,0.33053252,0.20957066,0.42342332,-0.66434455
-0.2,-0.2,1.2999999999999998,0.0,-0.5235987755982988,0,0.40876094,1.3379297,0.06268721,-0.09374113,-0.0415951,1.2049435,0.10631542,-1.1447164,0.5684445,-1.1272656,0.33056358,0.21028426,0.4309886,-0.6929288
-0.2,-0.2,1.2999999999999998,0.0,-0.5235987755982988,0,0.10464055,1.2524137,-0.06782044,-0.068199016,0.030779112,1.2493111,-1.4696385,-1.1428885,0.5721818,-1.127571,0.3317147,0.21127325,0.42749876,-0.6670045
-0.2,-0.2,1.2999999999999998,0.0,-0.5235987755982988,0,-0.3906161,1.3324627,0.0072836406,-0.10471893,-0.45261055,1.2315862,0.43181646,-1.1424243,0.5687555,-1.1281939,0.33117646,0.21256697,0.4204644,-0.6859655
-0.2,-0.2,1.2999999999999998,0.0,-0.5235987755982988,0,-0.015986878,1.2939439,0.110122345,-0.08262685,0.031234894,1.3457483,-0.33320865,-1.1431004,0.5703479,-1.1282701,0.33014864,0.21486641,0.41464803,-0.6769032
-0.2,-0.2,1.2999999999999998,0.0,-0.5235987755982988,0,0.7956481,1.3477857,-0.18730944,-0.012076442,-0.11485995,1.2122843,-0.07238492,-1.1414626,0.5703638,-1.1293544,0.3305952,0.2114292,0.42411023,-0.67483896
-0.2,-0.2,1.2999999999999998,0.0,-0.5235987755982988,0,0.5549722,1.1928387,0.01099949,-0.2181379,0.10528069,1.2514641,-0.5966017,-1.1442736,0.5704659,-1.1295978,0.33095142,0.21789914,0.42988324,-0.6370153
-0.2,-0.2,1.2999999999999998,0.0,-0.5235987755982988,0,0.21092455,1.2027912,-0.06646703,-0.072376594,-0.24142534,1.243228,-0.53823376,-1.1427412,0.5708744,-1.1277341,0.32984254,0.2198396,0.4222976,-0.6761793
-0.2,-0.2,1.2999999999999998,0.0,-0.5235987755982988,0,0.6407667,1.3068051,0.31696355,-0.054464642,-0.24628793,1.2361621,-0.9210906,-1.1430527,0.56924546,-1.1275392,0.3311391,0.21044247,0.41302043,-0.6764171
-0.2,-0.2,1.2999999999999998,0.0,-0.5235987755982988,0,0.9894431,1.1677257,0.23590901,-0.08294932,-0.05634501,1.1710608,-0.08696565,-1.1425804,0.5719815,-1.1291624,0.33034706,0.21514487,0.4233705,-0.6655377
-0.2,-0.2,1.2999999999999998,0.0,-0.5235987755982988,0,0.31295657,1.2712516,0.041978136,-0.060013823,-0.28343174,1.4025288,-1.1293691,-1.1424251,0.5703078,-1.1297686,0.33012885,0.20873663,0.42355314,-0.6820974
-0.2,-0.2,1.2999999999999998,0.0,-0.5235987755982988,0,0.4956936,1.271486,0.13301007,-0.089898646,0.046454854,1.2963513,0.6563058,-1.1441231,0.5719077,-1.1296448,0.33042943,0.21110275,0.42509905,-0.6744064
-0.2,-0.2,1.2999999999999998,0.0,-0.5235987755982988,0,-0.3409063,1.1559403,0.1711971,-0.070183665,-0.27266183,1.1392229,-1.7130392,-1.1428314,0.56931704,-1.1272732,0.32975593,0.21116753,0.42111975,-0.6670532
-0.2,-0.2,1.2999999999999998,0.0,-0.5235987755982988,0,0.77947325,1.3751062,0.020270672,-0.14721325,-0.040861774,1.3044465,-0.036214728,-1.1418759,0.568026,-1.1272131,0.33054602,0.21138708,0.42339656,-0.67441994
-0.2,-0.2,1.2999999999999998,0.0,-0.5235987755982988,0,0.26182738,1.2807677,0.053663936,-0.031732675,0.01820826,1.2668741,-1.9513286,-1.1436305,0.56941724,-1.1281902,0.33043313,0.21581054,0.43104678,-0.66931546
-0.2,-0.2,1.2999999999999998,0.0,-0.5235987755982988,0,-0.3806493,1.4439018,-0.0073652677,-0.10609412,-0.036034543,1.2292094,0.00831697,-1.1430438,0.5704479,-1.1293169,0.331047,0.21381614,0.4256625,-0.6565845
-0.2,-0.2,1.2999999999999998,0.0,-0.5235987755982988,0,0.089234956,1.2376796,-0.16789886,-0.09868725,-0.14239828,1.2953638,-0.9800723,-1.1439523,0.57099336,-1.126148,0.33099905,0.21370657,0.4236736,-0.6830683
-0.2,-0.2,1.2999999999999998,0.0,-0.5235987755982988,0,0.602426,1.2276335,-0.012432008,-0.108288184,0.04136826,1.2223517,0.52062035,-1.1437638,0.5705191,-1.1296016,0.33002532,0.21006538,0.41579512,-0.6835628
-0.2,-0.2,1.2999999999999998,0.0,-0.5235987755982988,0,0.64972377,1.2823094,0.1508839,0.008370848,-0.04600549,1.2932819,0.35197175,-1.1444107,0.56966645,-1.1269828,0.33090836,0.21542001,0.4226625,-0.6646407
-0.2,-0.2,1.2999999999999998,0.0,-0.5235987755982988,0,0.65989333,1.2609267,0.065685526,-0.042114247,-0.13953815,1.0679797,0.7256051,-1.1433296,0.5700136,-1.1274929,0.33017424,0.21362862,0.4217918,-0.6860563
-0.2,-0.2,1.2999999999999998,0.0,-0.5235987755982988,0,0.59185517,1.4187261,0.12012382,-0.06771019,-0.15108831,1.2077982,0.08003138,-1.1435759,0.5689704,-1.1284904,0.33093336,0.2120538,0.41674075,-0.6628778
-0.2,-0.2,1.2999999999999998,0.0,-0.5235987755982988,0,0.62370026,1.3031813,0.27073836,-0.05234972,0.047912963,1.2408233,0.08661218,-1.1427208,0.5698294,-1.1290784,0.32968882,0.20634338,0.42308,-0.69221824
-0.2,-0.2,1.2999999999999998,0.0,-0.5235987755982988,0,0.4673715,1.3409464,0.021505574,-0.039329622,0.020330615,1.1831317,-1.1465863,-1.142688,0.5722435,-1.1280252,0.3303242,0.212634,0.424343,-0.65860516
-0.2,-0.2,1.2999999999999998,0.0,-0.5235987755982988,0,0.24108613,1.223324,0.32162294,-0.12062607,-0.19100066,1.2857635,-0.32635477,-1.1439627,0.57081485,-1.1261793,0.32917815,0.21490104,0.4223403,-0.67816484
-0.2,-0.2,1.2999999999999998,0.0,-0.5235987755982988,0,0.4997139,1.2992187,-0.16422918,-0.09701458,-0.21887301,1.1951112,-0.10903639,-1.1432139,0.5702821,-1.1277585,0.33036423,0.21398978,0.4178681,-0.6593738
-0.2,-0.2,1.2999999999999998,0.0,-0.5235987755982988,0,0.9183473,1.3345214,-0.09504549,-0.14263861,-0.058820494,1.2217352,-1.1211344,-1.1441352,0.57031304,-1.1285325,0.33015117,0.21041818,0.41778475,-0.6771068
-0.2,-0.2,1.2999999999999998,0.0,-0.5235987755982988,0,0.28865013,1.2513256,0.15157539,-0.091258444,-0.055260204,1.3015641,-0.4388325,-1.1435653,0.5713209,-1.1281153,0.3304582,0.21211545,0.42626762,-0.6610834
-0.2,-0.2,1.2999999999999998,0.0,-0.5235987755982988,0,0.49499664,1.1799592,-0.110334225,-0.020339686,-0.07861953,1.251991,-1.2572533,-1.1436797,0.5722187,-1.128119,0.33030364,0.21345294,0.4208437,-0.6606045
-0.2,-0.2,1.2999999999999998,0.0,-0.5235987755982988,0,0.8351273,1.292272,-0.016847055,-0.045785833,-0.099931344,1.2292305,-1.8947271,-1.1444337,0.57078946,-1.1267403,0.33066383,0.21233188,0.42309523,-0.6642022
-0.2,-0.2,1.2999999999999998,0.0,-0.5235987755982988,0,-0.8051638,1.2962416,0.13485302,-0.10939972,0.06320137,1.1696118,-0.41970757,-1.1438458,0.57077414,-1.1274849,0.33064824,0.20796199,0.42357266,-0.6669556
-0.2,-0.2,1.2999999999999998,0.0,-0.5235987755982988,0,-0.21731752,1.1976303,0.023240462,-0.0487749,-0.070059285,1.1771836,-1.0892496,-1.1441022,0.56814367,-1.1265125,0.32978383,0.21852443,0.42302945,-0.7109514
-0.2,-0.2,1.2999999999999998,0.0,-0.5235987755982988,0,0.13428132,1.1276304,-0.29128185,-0.14261188,-0.15197492,1.267025,-0.15421318,-1.1446605,0.5698803,-1.1285123,0.32992864,0.21564078,0.42305124,-0.67104495
-0.2,-0.2,1.2999999999999998,0.0,-0.5235987755982988,0,0.20572111,1.1830274,0.103140354,-0.0011780658,-0.015841821,1.3159574,-0.21185629,-1.1432635,0.5717738,-1.1266948,0.33036223,0.2104932,0.43436357,-0.6666944
-0.2,-0.2,1.2999999999999998,0.0,-0.5235987755982988,0,0.5270463,1.3380675,0.1511122,-0.10523529,0.26855826,1.3141658,-0.5424709,-1.1421103,0.5703099,-1.1277864,0.3313024,0.2144573,0.4112323,-0.6892902
-0.2,-0.2,1.2999999999999998,0.0,-0.5235987755982988,0,0.42211333,1.1543101,-0.13219443,-0.038956057,0.11996595,1.2641501,0.82241696,-1.1424056,0.57196856,-1.1278566,0.33012834,0.2137536,0.4274605,-0.65136135
-0.2,-0.2,1.2999999999999998,0.0,-0.5235987755982988,0,-0.16585498,1.3960481,0.035067514,-0.103386864,-0.10386513,1.2838309,-1.0111244,-1.1434399,0.57007605,-1.1295807,0.3305887,0.2102085,0.41526917,-0.677017
-0.2,-0.2,1.2999999999999998,0.0,-0.5235987755982988,0,0.13467543,1.3699919,-0.041670624,-0.12728882,0.21383253,1.2291017,-0.019578764,-1.1426687,0.5719888,-1.1278397,0.33033752,0.2109913,0.42422906,-0.6682185
-0.2,-0.2,1.2999999999999998,0.0,-0.5235987755982988,0,-0.06816535,1.258245,-0.02698653,-0.09089152,0.0668337,1.3307778,-0.4118655,-1.1431707,0.56931055,-1.12849,0.33067128,0.21747623,0.42244247,-0.65767276
-0.2,-0.2,1.2999999999999998,0.0,-0.5235987755982988,0,-0.2591757,1.2667767,0.07144062,-0.08469018,-0.26345682,1.2889403,-0.093405016,-1.1434405,0.56810766,-1.1270385,0.33116883,0.21529645,0.4263313,-0.66579777
-0.2,-0.2,1.2999999999999998,0.0,-0.5235987755982988,0,0.16341972,1.3697367,-0.25379455,0.0043165064,-0.4080341,1.2499934,-1.3557866,-1.1428971,0.57024217,-1.1273042,0.3302291,0.2106731,0.4238089,-0.66659313
-0.2,-0.2,1.2999999999999998,0.0,-0.5235987755982988,0,0.49670976,1.2628815,-0.049322486,-0.10561506,-0.0040458995,1.27803,-1.420402,-1.1435088,0.5701588,-1.1281056,0.3303424,0.21048263,0.42484888,-0.662107
-0.2,-0.2,1.2999999999999998,0.0,-0.5235987755982988,0,-1.1738971,1.3590839,0.112449564,-0.10707065,-0.020418258,1.3235567,0.21889089,-1.143184,0.57089853,-1.1275145,0.33058825,0.21139227,0.42607096,-0.6693353
-0.2,-0.2,1.2999999999999998,0.0,-0.5235987755982988,0,0.9243156,1.2554722,0.14366515,0.015058376,0.02698062,1.2448131,0.6596977,-1.1436661,0.57013506,-1.1273583,0.33008853,0.21393491,0.43849453,-0.6627913
-0.2,-0.2,1.2999999999999998,0.0,-0.5235987755982988,0,0.27529863,1.2195754,-0.14019705,-0.08267911,-0.10632836,1.1779753,0.38038704,-1.1432018,0.5677785,-1.1294333,0.32936704,0.21488987,0.42559665,-0.6832189
-0.2,-0.2,1.2999999999999998,0.0,-0.5235987755982988,0,0.73180985,1.2285306,0.16520667,-0.17034945,-0.09248851,1.1180878,-1.7293255,-1.1423634,0.570967,-1.1293569,0.33090103,0.20832911,0.41829267,-0.67900974
-0.2,-0.2,1.2999999999999998,0.0,-0.5235987755982988,0,-0.006661579,1.3338928,0.17453915,-0.037662342,-0.3584639,1.2534502,-0.20981447,-1.1424817,0.5676742,-1.1289648,0.3310065,0.21274768,0.41339448,-0.66536313
-0.2,-0.2,1.2999999999999998,0.0,-0.5235987755982988,0,1.3437026,1.2708886,0.2985416,-0.056596488,0.008112935,1.1080495,-1.1575311,-1.1415956,0.5709054,-1.127261,0.3306908,0.21169384,0.4176132,-0.6718073
-0.2,-0.2,1.2999999999999998,0.0,-0.5235987755982988,0,-0.24781856,1.2580377,0.037332784,-0.059292223,-0.16474704,1.3075444,-0.6458379,-1.142908,0.5697794,-1.1291925,0.32944116,0.20882834,0.42375386,-0.6691786
-0.2,-0.2,1.2999999999999998,0.0,-0.5235987755982988,0,0.47943097,1.3174369,-0.021798337,-0.09459354,-0.027339669,1.379495,0.37128687,-1.1438212,0.5706036,-1.1276585,0.33044037,0.21262608,0.4251317,-0.6795176
-0.2,-0.2,1.2999999999999998,0.0,-0.5235987755982988,0,0.3356588,1.3219846,0.038995385,-0.11346796,-0.21889354,1.1987879,-0.5685213,-1.1431968,0.5717736,-1.1274706,0.3295369,0.21246392,0.4184555,-0.6597426
-0.2,-0.2,1.2999999999999998,0.0,-0.5235987755982988,0,0.13784868,1.3835522,0.19454484,-0.15190306,-0.4064674,1.2060392,-0.21574433,-1.1443435,0.5695876,-1.1280274,0.3298023,0.21548249,0.43402413,-0.68386185
-0.2,-0.2,1.2999999999999998,0.0,-0.5235987755982988,0,0.47487664,1.3403207,0.45533654,-0.08703277,-0.22274332,1.1023631,-1.0082875,-1.1437359,0.5706103,-1.127632,0.33050892,0.2189087,0.42013314,-0.67740035
-0.2,-0.2,1.2999999999999998,0.0,-0.5235987755982988,0,0.26184034,1.2404156,0.120638646,-0.08158628,-0.15633474,1.3212483,-0.20601463,-1.1441692,0.5691581,-1.1263433,0.33085415,0.20990838,0.4225247,-0.67637205
-0.2,-0.2,1.2999999999999998,0.0,-0.5235987755982988,0,0.09127464,1.3016444,-0.21483149,-0.10087141,-0.18403177,1.3334931,0.21893296,-1.1423829,0.57165116,-1.1291131,0.3305281,0.21496254,0.42297414,-0.6985177
-0.2,-0.2,1.2999999999999998,0.0,-0.5235987755982988,0,0.8355548,1.2764027,0.107218236,-0.015685244,-0.041473173,1.145186,0.32553375,-1.1444237,0.57025516,-1.1273082,0.33077735,0.21723942,0.4138957,-0.6485436
-0.2,-0.2,1.2999999999999998,0.0,-0.5235987755982988,0,0.2631617,1.2223976,-0.24537334,-0.09870288,-0.08596116,1.2838954,-0.59217393,-1.1447806,0.5695595,-1.1279135,0.33040684,0.21298058,0.4245634,-0.65885156
-0.2,-0.2,1.2999999999999998,0.0,-0.5235987755982988,0,0.6087341,1.2398555,0.14312153,-0.027904436,0.03377531,1.3050543,0.2814166,-1.1433693,0.5700465,-1.127024,0.33032104,0.21320753,0.426206,-0.6905367
-0.2,-0.2,1.2999999999999998,0.0,-0.5235987755982988,0,0.37593597,1.3275176,0.014287794,-0.09968509,-0.21732408,1.1699133,-0.027189124,-1.1444225,0.5684329,-1.1289197,0.33088404,0.21511337,0.4197981,-0.69883925
-0.2,-0.2,1.2999999999999998,0.0,-0.5235987755982988,0,0.18860048,1.2036537,0.22636186,-0.093744814,-0.010252982,1.1787962,-0.21876231,-1.1436663,0.57093984,-1.1301192,0.3302366,0.2116034,0.42612413,-0.66110855
-0.2,-0.2,1.2999999999999998,0.0,-0.5235987755982988,0,0.62916553,1.3657793,0.051579032,-0.10694349,-0.12988354,1.2361934,0.78146964,-1.142981,0.57000583,-1.1257849,0.32978162,0.21294901,0.42116103,-0.66495144
-0.2,-0.2,1.2999999999999998,0.0,-0.5235987755982988,0,0.23072879,1.2674671,0.069538556,-0.042150848,0.11931481,1.1561103,-0.45722917,-1.1439778,0.5690861,-1.1287004,0.33030462,0.21151863,0.42714906,-0.6669964
-0.2,-0.2,1.2999999999999998,0.0,-0.5235987755982988,0,0.39860305,1.170412,-0.07068287,-0.09661965,0.037068386,1.2493608,-0.39105955,-1.1449041,0.5703336,-1.1277027,0.32989177,0.21265228,0.4143535,-0.6869798
-0.2,-0.2,1.2999999999999998,0.0,-0.5235987755982988,0,0.04318096,1.1679168,-0.10102745,-0.050030503,0.026994396,1.2885326,-0.9487043,-1.143907,0.57124907,-1.1275815,0.33017167,0.20985363,0.42334977,-0.65958
-0.2,-0.2,1.2999999999999998,0.0,-0.5235987755982988,0,0.25524116,1.2639366,0.101776645,-0.04858916,-0.013776585,1.3358963,-1.0183749,-1.1421634,0.57161164,-1.1281613,0.33010614,0.21519762,0.42519012,-0.6787767
-0.2,-0.2,1.2999999999999998,0.0,-0.5235987755982988,0,0.5847803,1.3667217,-0.02583395,-0.08760656,0.13853477,1.2891737,-1.4657626,-1.1427217,0.5674865,-1.129043,0.33022654,0.21156818,0.42392978,-0.639837
-0.2,-0.2,1.2999999999999998,0.0,-0.5235987755982988,0,0.1889068,1.237234,-0.18881935,-0.051553495,-0.20526552,1.2699696,-1.281184,-1.1444308,0.5695542,-1.1272326,0.3304401,0.2189819,0.42011723,-0.67405576
-0.2,-0.2,1.2999999999999998,0.0,-0.5235987755982988,0,0.22796017,1.2231528,-0.15876453,0.002167475,-0.2620896,1.1468796,-0.86839914,-1.1428304,0.56876636,-1.1279676,0.33018276,0.21539743,0.42861465,-0.68213296
-0.2,-0.2,1.2999999999999998,0.0,-0.5235987755982988,0,0.11665534,1.26208,0.108273946,-0.13845663,0.012366342,1.2701173,-0.8343455,-1.141675,0.5696779,-1.1283653,0.33047318,0.20913379,0.42044407,-0.68015426
-0.2,-0.2,1.2999999999999998,0.0,-0.5235987755982988,0,0.12348877,1.2909048,0.11118323,-0.06194825,-0.0034538412,1.3194841,-1.7750964,-1.143662,0.5700117,-1.1268852,0.3307687,0.21132138,0.4185504,-0.6930525
-0.2,-0.2,1.2999999999999998,0.0,-0.5235987755982988,0,0.5094246,1.2371078,-0.06396448,-0.055581775,-0.35862124,1.21275,-0.7030934,-1.1440524,0.5706895,-1.127509,0.332274,0.21305914,0.41483808,-0.6841645
-0.2,-0.2,1.2999999999999998,0.0,-0.5235987755982988,0,-0.11015865,1.2830929,0.26013443,-0.14008342,0.11711962,1.1762017,-1.0917784,-1.143786,0.57020026,-1.1273018,0.33040512,0.21228236,0.4154604,-0.6600505
-0.2,-0.2,1.2999999999999998,0.0,-0.5235987755982988,0,-0.07111044,1.259142,0.08141739,-0.14203736,-0.08809155,1.2872077,-0.10265239,-1.1437196,0.5673404,-1.1287154,0.32981378,0.21183966,0.43604252,-0.6545891
-0.2,-0.2,1.2999999999999998,0.0,-0.5235987755982988,0,-0.3753193,1.261335,-0.2822065,-0.13633199,-0.36128342,1.2666131,-0.67499775,-1.14223,0.5712352,-1.1280727,0.33089548,0.2122162,0.42753208,-0.6532887
-0.2,-0.2,1.2999999999999998,0.0,-0.5235987755982988,0,0.38019753,1.3445674,0.28950483,-0.047573365,-0.1893051,1.2746037,0.5596556,-1.1433469,0.57008034,-1.1281401,0.33082408,0.21479404,0.42935532,-0.67191887
-0.2,-0.2,1.2999999999999998,0.0,-0.5235987755982988,0,-0.39596066,1.3168335,0.06869443,-0.035365492,-0.22151373,1.2685962,-0.76156425,-1.1443516,0.57032615,-1.1276683,0.33054826,0.21264058,0.4189752,-0.67453516
-0.2,-0.2,1.2999999999999998,0.0,-0.5235987755982988,0,0.31221187,1.2672766,0.051162288,-0.102660656,-0.18650693,1.2395211,-1.9613451,-1.1441644,0.56976223,-1.1279689,0.33092928,0.2140244,0.4159156,-0.6863888
-0.2,-0.2,1.2999999999999998,0.0,-0.5235987755982988,0,-0.046508886,1.4089577,0.19887511,-0.08428693,-0.05826176,1.1302712,0.5083204,-1.1440308,0.56998885,-1.1286622,0.33067083,0.21344393,0.4175191,-0.6818027
-0.2,-0.2,1.2999999999999998,0.0,-0.5235987755982988,0,0.60036486,1.2636845,-0.14336851,-0.0053734803,0.13412514,1.2520868,-0.2929086,-1.1436461,0.5687682,-1.1263982,0.330988,0.2105169,0.41949585,-0.658378
-0.2,-0.2,1.2999999999999998,0.0,-0.5235987755982988,0,1.0372508,1.1607225,0.08443423,-0.07762343,0.10472521,1.1559685,0.67895365,-1.1445295,0.5635199,-1.1286478,0.33103165,0.21492974,0.417695,-0.6723903
-0.2,-0.2,1.2999999999999998,0.0,-0.5235987755982988,0,0.4120482,1.1890112,-0.20834608,-0.11792523,0.07095737,1.251388,-0.2826068,-1.1432966,0.5726332,-1.1274941,0.33087748,0.21197146,0.4216402,-0.64400375
-0.2,-0.2,1.2999999999999998,0.0,-0.5235987755982988,0,0.54895777,1.3421009,-0.14504395,-0.097203135,-0.10200915,1.2700887,-1.29138,-1.1439017,0.5705048,-1.1284307,0.33083332,0.21340705,0.42292276,-0.6700412
-0.2,-0.2,1.2999999999999998,0.0,-0.5235987755982988,0,0.3044261,1.3124131,0.074529044,-0.06846695,-0.109001234,1.2512915,-0.4467347,-1.1435024,0.56995857,-1.1276165,0.3304006,0.21339534,0.42558998,-0.6719768
-0.2,-0.2,1.2999999999999998,0.0,-0.5235987755982988,0,0.42742774,1.1656297,0.21033682,-0.10854014,0.022731688,1.3134038,-0.6667463,-1.1437753,0.5716905,-1.1283492,0.33029014,0.21376954,0.42184728,-0.64231557
-0.2,-0.2,1.2999999999999998,0.0,-0.5235987755982988,0,0.04160196,1.352175,0.19877025,-0.09198492,-0.28191122,1.1364752,0.15248577,-1.143288,0.5710196,-1.128762,0.33010966,0.21422888,0.4282312,-0.66499114
-0.2,-0.2,1.2999999999999998,0.0,-0.5235987755982988,0,0.6318216,1.3317912,-0.10738835,-0.10407436,-0.32034966,1.2081068,-0.22341606,-1.1441537,0.57055765,-1.1267926,0.33023047,0.21680224,0.42292872,-0.69342786
-0.2,-0.2,1.2999999999999998,0.0,-0.5235987755982988,0,0.04955646,1.2267638,0.050595034,0.01152523,-0.051864523,1.223601,0.05542806,-1.1430277,0.5711551,-1.1275429,0.33080304,0.21524946,0.42793876,-0.6807224
-0.2,-0.2,1.2999999999999998,0.0,-0.5235987755982988,0,0.088291086,1.2383243,0.08280047,-0.062444344,-0.12043663,1.1397166,-0.62185377,-1.1412679,0.56895864,-1.1272981,0.33048227,0.21605526,0.41827807,-0.68242115
-0.2,-0.2,1.2999999999999998,0.0,-0.5235987755982988,0,-0.023553552,1.2515041,0.012846666,-0.14222704,-0.2696933,1.4093419,-0.6865609,-1.1428752,0.5713989,-1.128879,0.33072236,0.21216886,0.42609912,-0.68152595
-0.2,-0.2,1.2999999999999998,0.0,-0.5235987755982988,0,0.7292292,1.2978929,-0.07234776,-0.08897095,-0.03658923,1.2663141,-0.37851194,-1.1435467,0.5681958,-1.1272444,0.3297777,0.20427129,0.4220388,-0.65207636
-0.2,-0.2,1.2999999999999998,0.0,-0.5235987755982988,0,-0.52578175,1.3302573,0.13933529,-0.10951533,-0.07967833,1.2148767,-1.1513238,-1.1421016,0.56965435,-1.1285449,0.32987636,0.21383332,0.43267387,-0.68677425
-0.2,-0.2,1.2999999999999998,0.0,-0.5235987755982988,0,0.15452552,1.2832247,0.11077944,-0.16644913,-0.29077,1.2111833,0.35807076,-1.1428596,0.5695368,-1.1286845,0.33000705,0.21619195,0.42598537,-0.672227
-0.2,-0.2,1.2999999999999998,0.0,-0.5235987755982988,0,-0.30369872,1.3258787,0.09241482,-0.08011343,0.033472046,1.3305918,-1.2295754,-1.1435199,0.5690208,-1.1276412,0.3308373,0.2138283,0.42331567,-0.6671957
-0.2,-0.2,1.2999999999999998,0.0,-0.5235987755982988,0,0.44194674,1.2909029,0.22093137,-0.120805,-0.20954753,1.3634865,0.34000438,-1.1439604,0.5691796,-1.1278298,0.32992393,0.2154399,0.42003822,-0.675685
-0.2,-0.2,1.2999999999999998,0.0,-0.5235987755982988,0,0.66529685,1.3361195,0.09184695,-0.110142425,-0.065650664,1.1858306,-1.0012534,-1.1418097,0.5691335,-1.126965,0.32972872,0.21018218,0.4217394,-0.6903968
-0.2,-0.2,1.2999999999999998,0.0,-0.5235987755982988,0,0.2957034,1.2834797,0.045706727,-0.029676257,-0.10512988,1.2618473,-0.9985119,-1.1432712,0.5717784,-1.128719,0.33068386,0.20874389,0.4211336,-0.6524512
-0.2,-0.2,1.2999999999999998,0.0,-0.5235987755982988,0,0.97473574,1.3162282,-0.006285572,-0.03668766,-0.0530795,1.2229804,-0.32975164,-1.1441538,0.56999975,-1.1273197,0.3308953,0.21485391,0.4277185,-0.65347296
-0.2,-0.2,1.2999999999999998,0.0,-0.5235987755982988,0,0.37289536,1.3500069,0.1682933,-0.05260657,-0.32960942,1.2492217,-0.4263567,-1.1435188,0.5699887,-1.1287929,0.32982334,0.21580699,0.41423035,-0.65574086
-0.2,-0.2,1.2999999999999998,0.0,-0.5235987755982988,0,0.2934202,1.3893816,0.13559027,-0.06117374,-0.037555404,1.2771633,-0.02856799,-1.1440318,0.568923,-1.1279366,0.33069873,0.21063006,0.42373112,-0.6534832
-0.2,-0.2,1.2999999999999998,0.0,-0.5235987755982988,0,0.74665517,1.2231474,0.2327304,-0.038151897,-0.06670607,1.2098877,0.64123046,-1.1413808,0.5683973,-1.1257921,0.33051795,0.21836366,0.4155295,-0.6562433
-0.2,-0.2,1.2999999999999998,0.0,-0.5235987755982988,0,0.56280905,1.2586187,0.12214057,-0.06097302,-0.033536483,1.2401913,-0.4713689,-1.1419653,0.56925786,-1.12784,0.3300419,0.21542433,0.4250052,-0.66307896
-0.2,-0.2,1.2999999999999998,0.0,-0.5235987755982988,0,0.32528946,1.1841592,0.124613024,-0.075169764,0.009913072,1.3069155,-0.04136035,-1.1438959,0.57063943,-1.1282688,0.3299982,0.21040721,0.424562,-0.6506419
-0.2,-0.2,1.2999999999999998,0.0,-0.5235987755982988,0,0.36356914,1.37061,0.11691637,-0.10710056,-0.035333548,1.219342,0.06461662,-1.1435933,0.5719574,-1.1273009,0.33071604,0.20742543,0.42638388,-0.6817462
-0.2,-0.2,1.2999999999999998,0.0,-0.5235987755982988,0,0.1652218,1.3256643,-0.025795655,-0.08149835,-0.16545583,1.2316504,-0.52313524,-1.1429635,0.5677063,-1.1277394,0.33137912,0.21244855,0.4245105,-0.68322515
-0.2,-0.2,1.2999999999999998,0.0,-0.5235987755982988,0,0.48826844,1.1943865,-0.097717755,-0.0737082,0.2846179,1.2160139,-0.10127545,-1.1430352,0.5702226,-1.1274644,0.33071935,0.21365441,0.42905763,-0.64810634
-0.2,-0.2,1.2999999999999998,0.0,-0.5235987755982988,0,0.8145455,1.3650864,0.102467,-0.07492191,-0.09327526,1.2255081,0.3952818,-1.1429447,0.56936723,-1.127742,0.33027127,0.2148374,0.41720998,-0.67162555
-0.2,-0.2,1.2999999999999998,0.0,-0.5235987755982988,0,0.63839114,1.2511405,-0.044267904,-0.044917773,-0.2092708,1.2044352,0.5041803,-1.1419027,0.56984776,-1.1285628,0.33113986,0.21308282,0.42963496,-0.66107494
-0.2,-0.2,1.2999999999999998,0.0,-0.5235987755982988,0,0.3575936,1.2484529,0.0022777205,-0.06261529,-0.1362953,1.2103361,-0.32005814,-1.1413504,0.5722752,-1.1285609,0.33010364,0.2133654,0.43361515,-0.66831875
-0.2,-0.2,1.2999999999999998,0.0,-0.5235987755982988,0,0.029022811,1.189294,-0.0910932,-0.12564652,-0.12531829,1.189078,-0.6866501,-1.1431879,0.56649125,-1.1287923,0.33082703,0.21096294,0.41493896,-0.67288846
-0.2,-0.2,1.2999999999999998,0.0,-0.5235987755982988,0,1.0003142,1.1914037,0.021542553,-0.10306733,0.06184627,1.3843133,-1.0153729,-1.142618,0.57085145,-1.127732,0.3294811,0.21520513,0.42055848,-0.65195996
-0.2,-0.2,1.2999999999999998,0.0,-0.5235987755982988,0,-0.074389815,1.2588406,0.0448138,-0.062105466,-0.14774708,1.2750729,-0.8373094,-1.143008,0.57045245,-1.1281923,0.33092514,0.21370381,0.42226887,-0.69509625
-0.2,-0.2,1.2999999999999998,0.0,-0.5235987755982988,0,0.39676252,1.3192818,0.15974738,-0.08228529,-0.14657241,1.1718237,-0.764921,-1.1426382,0.5688215,-1.1282966,0.33067894,0.21604316,0.41943642,-0.67562956
-0.2,-0.2,1.2999999999999998,0.0,-0.5235987755982988,0,0.7882866,1.2835473,-0.22722352,-0.09098419,-0.07426988,1.1808465,-0.07774906,-1.1435474,0.57021546,-1.1274303,0.3308123,0.21065332,0.41797325,-0.65418667
-0.2,-0.2,1.2999999999999998,0.0,-0.5235987755982988,0,1.1722295,1.1817162,-0.063565664,-0.109889016,-0.117504,1.207454,-0.25298676,-1.1437361,0.5689778,-1.1276349,0.3301832,0.21192479,0.42087662,-0.66629237
-0.2,-0.2,1.2999999999999998,0.0,-0.5235987755982988,0,0.33453822,1.2507209,-0.08690683,-0.08576484,-0.008061418,1.1887112,-0.7839346,-1.1427742,0.5704622,-1.1284546,0.3303404,0.2147011,0.4289496,-0.6463508
-0.2,-0.2,1.2999999999999998,0.0,-0.5235987755982988,0,0.63204736,1.1835151,-0.10399223,-0.10950687,-0.1926555,1.2517992,0.34875086,-1.1439632,0.56876105,-1.1288123,0.3296331,0.21250014,0.42014432,-0.67525256
-0.2,-0.2,1.2999999999999998,0.0,-0.5235987755982988,0,0.47193375,1.1878622,-0.23018582,-0.10979206,-0.25789943,1.2023609,-0.38843963,-1.1428663,0.56942576,-1.1286272,0.3306172,0.2134518,0.42271578,-0.68344754
-0.2,-0.2,1.2999999999999998,0.0,-0.5235987755982988,0,0.4890162,1.1408926,-0.20927827,-0.0067157624,-0.08724226,1.2917889,0.10884109,-1.1434304,0.5715008,-1.1288675,0.33087257,0.21657741,0.4237624,-0.67187595
-0.2,-0.2,1.2999999999999998,0.0,-0.5235987755982988,0,0.24029261,1.2025474,-0.021766763,-0.11625226,-0.025276596,1.1901256,-0.7198875,-1.1443831,0.5720681,-1.1274006,0.3304249,0.2168642,0.42842644,-0.6763795
-0.2,-0.2,1.2999999999999998,0.0,-0.5235987755982988,0,0.77760637,1.273468,-0.03930004,-0.118926,-0.07744253,1.0901191,-0.7343036,-1.1432266,0.57278615,-1.1271821,0.32978046,0.21605624,0.4313793,-0.6904099
-0.2,-0.2,1.2999999999999998,0.0,-0.5235987755982988,0,0.2617182,1.3166528,0.022952726,-0.09744745,-0.16463554,1.1792195,-1.575378,-1.1419744,0.5714357,-1.1279849,0.33039013,0.21180287,0.42130294,-0.6768648
-0.2,-0.2,1.2999999999999998,0.0,-0.5235987755982988,0,1.0019857,1.3944927,-0.0069959285,-0.059326667,-0.122064486,1.1968155,-0.42368406,-1.1435901,0.5704926,-1.1279997,0.33060008,0.21278206,0.42494586,-0.6438061
-0.2,-0.2,1.2999999999999998,0.0,-0.5235987755982988,0,0.67704475,1.3036451,0.061600033,-0.07650297,0.120350815,1.197314,-0.21447027,-1.1435312,0.5699438,-1.1283584,0.3303145,0.21581596,0.42751628,-0.6698221
-0.2,-0.2,1.2999999999999998,0.0,-0.5235987755982988,0,0.49463278,1.4341716,0.10139369,-0.002685332,-0.012683845,1.2906559,-0.50717837,-1.143759,0.5703254,-1.1281896,0.33067757,0.21591203,0.42483982,-0.6462993
-0.2,-0.2,1.2999999999999998,0.0,-0.5235987755982988,0,0.12041414,1.2888364,0.042265363,-0.09764696,-0.038665242,1.2627419,-0.8710165,-1.1434441,0.5720384,-1.1286197,0.33022338,0.20891139,0.42679182,-0.6829067
-0.2,-0.2,1.2999999999999998,0.0,-0.5235987755982988,0,0.06229869,1.0859998,0.036959082,-0.08577879,0.13928182,1.1961663,-0.3207035,-1.1443304,0.5689515,-1.127565,0.3298879,0.21444969,0.4145834,-0.6803467
-0.2,-0.2,1.2999999999999998,0.0,-0.5235987755982988,0,0.18196692,1.3068407,0.10650547,-0.0123540005,-0.29331723,1.2632279,0.2968177,-1.1433122,0.57195514,-1.1253669,0.32999212,0.20807652,0.42059377,-0.6630824
-0.2,-0.2,1.2999999999999998,0.0,-0.5235987755982988,0,0.38836956,1.377609,-0.027498774,-0.11975048,-0.015949134,1.2361307,-0.13177404,-1.1417785,0.568678,-1.1267611,0.33083805,0.21360311,0.4216633,-0.6639382
-0.2,-0.2,1.2999999999999998,0.0,-0.5235987755982988,0,-0.0071885055,1.3548787,0.11315113,-0.077293165,-0.2366535,1.2569896,-0.8243367,-1.143458,0.57217556,-1.1282113,0.32974175,0.2129513,0.42785072,-0.66757876
-0.2,-0.2,1.2999999999999998,0.0,-0.5235987755982988,0,0.1842621,1.2813933,0.39788568,-0.12997812,-0.028954448,1.3419539,-0.7595051,-1.1430432,0.5704803,-1.1276091,0.33021113,0.21408935,0.42538565,-0.64103913
-0.2,-0.2,1.2999999999999998,0.0,-0.5235987755982988,0,0.33424935,1.1829286,-0.08394727,-0.08517327,-0.24766457,1.2227764,-1.2096634,-1.142353,0.57229483,-1.1259862,0.32986012,0.20912448,0.42370358,-0.66899985
-0.2,-0.2,1.2999999999999998,0.0,-0.5235987755982988,0,-0.04493885,1.3859311,-0.03689466,-0.12984385,-0.07559976,1.3366234,-1.0475665,-1.1436437,0.5720261,-1.1287727,0.3308533,0.21378607,0.4134911,-0.6684026
-0.2,-0.2,1.2999999999999998,0.0,-0.5235987755982988,0,-0.122425616,1.3736513,0.05074348,-0.04951977,-0.103423394,1.180157,0.59698284,-1.1452149,0.57037437,-1.1268659,0.33055687,0.21690899,0.432293,-0.6736035
-0.2,-0.2,1.2999999999999998,0.0,-0.5235987755982988,0,0.41931698,1.375987,0.18317813,-0.07779985,0.10551517,1.2546188,0.5432187,-1.1442358,0.5708894,-1.1280638,0.33095992,0.2128612,0.42867237,-0.6696855
-0.2,-0.2,1.2999999999999998,0.0,-0.5235987755982988,0,0.30577284,1.320176,0.051515445,-0.03280428,-0.053172126,1.2459267,-0.6523738,-1.1423321,0.5722939,-1.1264023,0.33029553,0.20858268,0.42538682,-0.6591247
-0.2,-0.2,1.2999999999999998,0.0,-0.5235987755982988,0,0.31427115,1.2706873,0.04280487,-0.09136276,-0.0994636,1.1275715,-1.196297,-1.1436495,0.5699185,-1.1282834,0.3310406,0.21695745,0.41927823,-0.6619369
-0.2,-0.2,1.2999999999999998,0.0,-0.5235987755982988,0,0.6021409,1.3133011,0.088874094,-0.06334758,-0.104159474,1.2407103,-1.7997164,-1.1420768,0.5692743,-1.1290417,0.3304562,0.21165514,0.41331252,-0.6633198
-0.2,-0.2,1.2999999999999998,0.0,-0.5235987755982988,0,-0.0229794,1.2183334,-0.08882322,-0.098794304,-0.025066622,1.2249618,-0.49893653,-1.1425809,0.5690135,-1.1275032,0.33110294,0.2135526,0.42509633,-0.67333525
-0.2,-0.2,1.2999999999999998,0.0,-0.5235987755982988,0,0.27342737,1.1598439,0.09297744,-0.064927705,0.006822316,1.2618328,-0.7958397,-1.1423376,0.5710715,-1.1285961,0.33053595,0.2146971,0.4277255,-0.6627122
-0.2,-0.2,1.2999999999999998,0.0,-0.5235987755982988,0,0.6815991,1.1817336,-0.10353251,-0.048759364,-0.0052896636,1.3119518,0.79442126,-1.1422733,0.5700937,-1.1275517,0.32988432,0.2141975,0.4241472,-0.68215096
-0.2,-0.2,1.2999999999999998,0.0,-0.5235987755982988,0,0.26617834,1.2489643,0.03807238,-0.09723767,-0.3200762,1.2306329,-0.15130395,-1.1433225,0.5679166,-1.1302683,0.3307904,0.21493158,0.41560856,-0.65724003
-0.2,-0.2,1.2999999999999998,0.0,-0.5235987755982988,0,-0.033536457,1.0973283,-0.069730386,-0.08157459,-0.07262218,1.2210331,-0.13018711,-1.1436359,0.5695161,-1.1269647,0.33008316,0.21670303,0.41933343,-0.6698064
-0.2,-0.2,1.2999999999999998,0.0,-0.5235987755982988,0,-0.054003835,1.2817048,-0.14547665,-0.12036005,-0.12369046,1.2488425,-1.2806888,-1.1425816,0.5706394,-1.1281229,0.33046818,0.21565723,0.43131754,-0.6720978
-0.2,-0.2,1.2999999999999998,0.0,-0.5235987755982988,0,0.12543914,1.3266149,0.10062887,-0.08384186,0.025412958,1.2286011,0.50873876,-1.1440707,0.5717829,-1.1278595,0.33042604,0.21293025,0.4229136,-0.6570409
-0.2,-0.2,1.2999999999999998,0.0,-0.5235987755982988,0,0.6589044,1.3312544,-0.27640164,-0.03663236,-0.2128717,1.2473096,-0.8262103,-1.1430387,0.57062274,-1.12443,0.33125332,0.21462259,0.42755237,-0.6836066
-0.2,-0.2,1.2999999999999998,0.0,-0.5235987755982988,0,1.0490296,1.2308142,-0.073687844,-0.101110026,-0.003043333,1.1718022,-0.7121702,-1.1431023,0.56778705,-1.1281171,0.33065912,0.21464227,0.43203625,-0.68746126
-0.2,-0.2,1.2999999999999998,0.0,-0.5235987755982988,0,0.7306831,1.3446605,0.102683425,-0.055913884,-0.17327815,1.1686245,-0.582532,-1.1430922,0.5709077,-1.1280526,0.33122602,0.21006218,0.41946107,-0.6768587
-0.2,-0.2,1.2999999999999998,0.0,-0.5235987755982988,0,0.4383932,1.3086802,0.042419042,-0.06554856,0.0026883995,1.256595,-0.22641489,-1.1435726,0.5685781,-1.1265788,0.32931477,0.21816324,0.44141483,-0.6488807
-0.2,-0.2,1.2999999999999998,0.0,-0.5235987755982988,0,0.35552782,1.3212292,0.21583053,-0.030769879,-0.26108906,1.2617116,-1.4254572,-1.1426421,0.56805396,-1.127992,0.3301272,0.21702297,0.4143283,-0.6779269
-0.2,-0.2,1.2999999999999998,0.0,-0.5235987755982988,0,0.3284299,1.3914798,-0.0831629,-0.056928325,-0.19501594,1.217741,-0.79144824,-1.1439754,0.5702293,-1.1267077,0.3307801,0.22097059,0.42068222,-0.6839007
-0.2,-0.2,1.2999999999999998,0.0,-0.5235987755982988,0,-0.14801133,1.2523603,0.28155753,-0.07975826,0.051340867,1.1775285,-0.3232246,-1.1429709,0.56955886,-1.126563,0.33070958,0.21839076,0.4186362,-0.6712938
-0.2,-0.2,1.2999999999999998,0.0,-0.5235987755982988,0,-0.12542458,1.2027794,-0.02779009,-0.097090885,-0.06916997,1.2081221,-0.7800906,-1.1440535,0.57372344,-1.1270055,0.3309979,0.21193312,0.4218183,-0.6712284
-0.2,-0.2,1.2999999999999998,0.0,-0.5235987755982988,0,0.7302837,1.2580531,0.19184922,-0.08162318,0.094883665,1.2896069,-0.4409818,-1.1426246,0.5703103,-1.1291951,0.3311264,0.21391018,0.42122835,-0.6899732
-0.2,-0.2,1.2999999999999998,0.0,-0.5235987755982988,0,0.2858099,1.3394394,0.06889614,-0.12034361,0.1443288,1.2258879,-1.4998974,-1.1439785,0.5708039,-1.1280618,0.3316344,0.21465793,0.4166349,-0.6895312
-0.2,-0.2,1.2999999999999998,0.0,-0.5235987755982988,0,0.14674728,1.2396938,0.11556708,-0.09850322,0.049071193,1.2235082,-0.07233435,-1.1437455,0.5709398,-1.1289734,0.32964522,0.2160415,0.43285173,-0.65997684
-0.2,-0.2,1.2999999999999998,0.0,-0.5235987755982988,0,0.32575494,1.2439505,0.11625838,-0.08029869,-0.033577755,1.2415065,-0.47995773,-1.1440874,0.5723068,-1.1272882,0.33038047,0.2106094,0.41965672,-0.66237056
-0.2,-0.2,1.2999999999999998,0.0,-0.5235987755982988,0,-0.85327876,1.260294,0.01640099,-0.092824176,0.05824853,1.234478,0.4899825,-1.1440108,0.5705977,-1.1276679,0.33010522,0.21341191,0.4169256,-0.6653661
-0.2,-0.2,1.2999999999999998,0.0,-0.5235987755982988,0,-0.43976614,1.3804238,0.07230933,-0.15693977,-0.040483687,1.2003254,-3.052017,-1.1438409,0.5712195,-1.1294882,0.33022,0.22266997,0.4243384,-0.64259714
-0.2,-0.2,1.2999999999999998,0.0,-0.5235987755982988,0,0.7632492,1.2166836,-0.2019504,-0.05758488,-0.10850412,1.3508931,0.29740688,-1.1437645,0.57242525,-1.1289334,0.33082706,0.21518135,0.42456025,-0.67247754
-0.2,-0.2,1.2999999999999998,0.0,-0.5235987755982988,0,-0.084603965,1.2010309,0.07587715,-0.1352398,-0.18096429,1.3047541,0.3456673,-1.143816,0.56987035,-1.1278994,0.3306668,0.2103906,0.4290991,-0.6663122
-0.2,-0.2,1.2999999999999998,0.0,-0.5235987755982988,0,-0.3731402,1.2591604,-0.094734535,-0.117432244,-0.018055735,1.2344432,-0.9486258,-1.1435006,0.5702518,-1.1276594,0.33071506,0.21497191,0.4208558,-0.6795943
-0.2,-0.2,1.2999999999999998,0.0,-0.5235987755982988,0,0.45790684,1.2892543,0.2732612,-0.08205546,-0.11188591,1.2919209,-0.37800062,-1.1429747,0.57002765,-1.1286063,0.33106413,0.21115881,0.42834747,-0.6785977
-0.2,-0.2,1.2999999999999998,0.0,-0.5235987755982988,0,0.07030712,1.3967068,-1.8626408e-05,-0.08216189,-0.2250096,1.2635481,-0.5478129,-1.1429319,0.5683356,-1.1272591,0.3305388,0.20841083,0.42030844,-0.6879937
-0.2,-0.2,1.2999999999999998,0.0,-0.5235987755982988,0,0.46990442,1.2780542,0.19010498,-0.024421806,-0.10674043,1.3091564,-0.23765005,-1.1432446,0.56779206,-1.127367,0.33061472,0.21559633,0.41353798,-0.66775256
-0.2,-0.2,1.2999999999999998,0.0,-0.5235987755982988,0,0.61317974,1.1948724,0.048224982,-0.062299863,-0.361708,1.3643628,-0.79127306,-1.1432543,0.5686936,-1.127976,0.33035988,0.21136494,0.42006147,-0.6777737
-0.2,-0.2,1.2999999999999998,0.0,-0.5235987755982988,0,0.3830493,1.2897964,-0.103228904,-0.10701486,-0.09944733,1.320344,1.0949087,-1.145132,0.56996346,-1.1274025,0.32994607,0.21435617,0.41771019,-0.6954123
-0.2,-0.2,1.2999999999999998,0.0,-0.5235987755982988,0,-0.5674472,1.41362,-0.08738936,-0.07362392,0.18512402,1.2460608,0.46792206,-1.1420214,0.5692527,-1.1284722,0.3305632,0.21332397,0.4233783,-0.63573945
-0.2,-0.2,1.2999999999999998,0.0,-0.5235987755982988,0,0.8190222,1.206794,0.09460108,-0.09187616,-0.101048596,1.1230654,-0.17684706,-1.1425921,0.57007504,-1.129344,0.33017713,0.2113951,0.41924298,-0.66219103
-0.2,-0.2,1.2999999999999998,0.0,-0.5235987755982988,0,0.73842317,1.2693938,0.042532485,-0.041903824,-0.09540453,1.081839,0.6356598,-1.14256,0.5687175,-1.1291983,0.33043152,0.21225831,0.42225918,-0.65990937
-0.2,-0.2,1.2999999999999998,0.0,-0.5235987755982988,0,0.7989475,1.2923888,0.22056025,-0.037827447,-0.0048324103,1.270884,-0.75940996,-1.1441854,0.5699952,-1.1286197,0.33004984,0.21545504,0.41499683,-0.6716449
-0.2,-0.2,1.2999999999999998,0.0,-0.5235987755982988,0,-0.11465075,1.3072387,0.052937325,-0.03086959,-0.042753976,1.3099827,-0.20815031,-1.1439627,0.569391,-1.1276559,0.3306353,0.2110705,0.42936322,-0.6537582
-0.2,-0.2,1.2999999999999998,0.0,-0.5235987755982988,0,0.36759546,1.2717861,-0.061870534,-0.083724946,-0.24211735,1.1578511,-0.38498464,-1.1431134,0.57066023,-1.1296858,0.33000726,0.21510647,0.42684668,-0.6750518
-0.2,-0.2,1.2999999999999998,0.0,-0.5235987755982988,0,0.49949032,1.2134908,0.015913486,-0.06654984,-0.1115392,1.19813,0.58935493,-1.1431613,0.57240903,-1.127736,0.33033058,0.21133055,0.42024264,-0.6696053
-0.2,-0.2,1.2999999999999998,0.0,-0.5235987755982988,0,1.0026766,1.3351389,0.0059562107,-0.093611695,-0.12718642,1.2158142,-0.6714075,-1.1443595,0.5690854,-1.1282368,0.32987508,0.2115485,0.42278698,-0.6872677
-0.2,-0.2,1.2999999999999998,0.0,-0.5235987755982988,0,0.6471469,1.2350857,-0.0057978192,-0.10749886,0.15367737,1.2447187,-1.1956512,-1.1429754,0.5691472,-1.1276621,0.33152294,0.21403293,0.42116296,-0.67240584
-0.2,-0.2,1.2999999999999998,0.0,-0.5235987755982988,0,1.0561014,1.2863091,0.060861804,-0.070971854,0.07681605,1.2059686,-0.27651346,-1.1434722,0.56930745,-1.1277548,0.33038753,0.2117159,0.4262146,-0.6725672
-0.2,-0.2,1.2999999999999998,0.0,-0.5235987755982988,0,-0.3029648,1.2397535,-0.20711312,-0.030222343,-0.29885292,1.2178699,0.5411018,-1.1437128,0.56816894,-1.1268449,0.3301235,0.2167337,0.42775905,-0.67770594
-0.2,-0.2,1.2999999999999998,0.0,-0.5235987755982988,0,0.3752787,1.3584663,-0.014486794,-0.0690368,0.4960837,1.2703931,-0.7685557,-1.1424514,0.5690458,-1.1276191,0.32947686,0.21519302,0.41184527,-0.66089624
-0.2,-0.2,1.2999999999999998,0.0,-0.5235987755982988,0,0.39636704,1.2117051,0.0072169965,-0.054800965,0.15030485,1.1566978,-1.0026244,-1.1434453,0.56791264,-1.1282328,0.32989195,0.21447936,0.42402607,-0.67200184
-0.2,-0.2,1.2999999999999998,0.0,-0.5235987755982988,0,-0.15132296,1.1796697,0.21611963,-0.074864954,-0.0857732,1.2413864,0.18647557,-1.1411563,0.5693987,-1.1262099,0.33103117,0.21399255,0.42277816,-0.6889432
-0.2,-0.2,1.2999999999999998,0.0,-0.5235987755982988,0,-0.17795575,1.2834898,0.34968913,-0.058802858,-0.0031150042,1.2253083,-0.64841896,-1.1430765,0.56833965,-1.1288029,0.33002302,0.20847116,0.42059448,-0.66680425
-0.2,-0.2,1.2999999999999998,0.0,-0.5235987755982988,0,1.2073714,1.3369511,0.09260675,-0.02974498,-0.11560075,1.2267586,-1.1665187,-1.1437216,0.56972265,-1.1289269,0.330997,0.2074864,0.42988926,-0.65483135
-0.2,-0.2,1.2999999999999998,0.0,-0.5235987755982988,0,0.33396485,1.3616539,0.1359005,-0.08990601,-0.13906772,1.1728158,-0.8796843,-1.1428783,0.568764,-1.1283436,0.33024958,0.21545991,0.44493484,-0.66283387
-0.2,-0.2,1.2999999999999998,0.0,-0.5235987755982988,0,0.17633446,1.4738616,0.1100725,-0.042899024,-0.13221802,1.2989185,-0.3914103,-1.1421046,0.5697787,-1.1288439,0.33091974,0.21693861,0.42648137,-0.69575757
-0.2,-0.2,1.2999999999999998,0.0,-0.5235987755982988,0,0.4431249,1.1507492,0.070048496,-0.10681416,-0.21200193,1.1643943,-0.57916325,-1.1430806,0.5701323,-1.1276262,0.3313366,0.2136546,0.41787165,-0.6738588
-0.2,-0.2,1.2999999999999998,0.0,-0.5235987755982988,0,0.66644067,1.2629795,-0.19982569,-0.063559264,0.03566579,1.1974735,-2.0527213,-1.1445508,0.5704873,-1.1270568,0.33055627,0.21731831,0.42720786,-0.66990626
-0.2,-0.2,1.2999999999999998,0.0,-0.5235987755982988,0,0.5261834,1.2526293,0.2057222,-0.058582395,-0.040604755,1.2170866,-1.1180593,-1.1429945,0.5714055,-1.128604,0.3310001,0.21635598,0.4315359,-0.68058974
-0.2,-0.2,1.2999999999999998,0.0,-0.5235987755982988,0,0.6405313,1.256806,-0.055416554,-0.09877177,-0.061871547,1.2663102,0.47612146,-1.1430665,0.57182413,-1.1276245,0.3303637,0.20985219,0.4213718,-0.6712213
-0.2,-0.2,1.2999999999999998,0.0,-0.5235987755982988,0,0.6388244,1.2777656,0.09922269,-0.061082006,-0.063031875,1.2638586,-0.9205242,-1.1435108,0.5698779,-1.1276616,0.33073515,0.21367946,0.43044952,-0.6772504
-0.2,-0.2,1.2999999999999998,0.0,-0.5235987755982988,0,0.26269627,1.2083054,0.0057996907,-0.12645197,-0.040369745,1.0945809,-0.8634643,-1.1443354,0.5684763,-1.1269174,0.32923478,0.21654564,0.42878407,-0.66747254
-0.2,-0.2,1.2999999999999998,0.0,-0.5235987755982988,0,-0.122145645,1.3403426,0.16774325,-0.07170278,-0.09443964,1.2969141,-0.36339587,-1.1417003,0.57066953,-1.127951,0.33037576,0.21311939,0.4226115,-0.6547849
-0.2,-0.2,1.2999999999999998,0.0,-0.5235987755982988,0,-0.13865511,1.3422066,0.25520158,-0.033985835,0.104228616,1.2219824,-0.060150407,-1.143416,0.5693651,-1.1292287,0.33007708,0.21243535,0.4201431,-0.67550415
-0.2,-0.2,1.2999999999999998,0.0,-0.5235987755982988,0,0.22629805,1.2797676,0.25285205,-0.10464441,0.010551272,1.17231,-0.52464294,-1.142328,0.57178706,-1.1278613,0.33084467,0.21220225,0.42601103,-0.67839485
-0.2,-0.2,1.2999999999999998,0.0,-0.5235987755982988,0,0.02496905,1.3561081,-0.025848791,-0.04211888,-0.27785036,1.2247716,-1.051492,-1.1444528,0.5707241,-1.1283708,0.3311372,0.21262215,0.4231805,-0.67258304
-0.2,-0.2,1.2999999999999998,0.0,-0.5235987755982988,0,0.4910581,1.3834729,0.20336773,-0.07009948,-0.096305676,1.179815,-0.22243774,-1.1432632,0.57037485,-1.1269841,0.32975298,0.21249084,0.42658436,-0.677389
-0.2,-0.2,1.2999999999999998,0.0,-0.5235987755982988,0,-0.047868494,1.3804573,-0.1014979,-0.06971516,0.122249894,1.2692599,0.47840658,-1.1432145,0.5675402,-1.1270119,0.33035344,0.21504964,0.42508897,-0.684915
-0.2,-0.2,1.2999999999999998,0.0,-0.5235987755982988,0,0.8231834,1.3773978,-0.09452294,-0.045381155,-0.18668807,1.2810808,-1.0697287,-1.1432337,0.56960744,-1.1292827,0.3305236,0.21212953,0.41558084,-0.6895909
-0.2,-0.2,1.2999999999999998,0.0,-0.5235987755982988,0,0.45571494,1.4089234,-0.1672653,-0.08500099,-0.11256183,1.2444777,0.29381227,-1.1438007,0.5673432,-1.1280394,0.3293451,0.21135005,0.41726375,-0.6875027
-0.2,-0.2,1.2999999999999998,0.0,-0.5235987755982988,0,-0.0048411866,1.1707088,0.19303745,-0.064377144,-0.09949207,1.2396688,-0.42343268,-1.1446923,0.5706378,-1.1277,0.33052465,0.21684821,0.41487545,-0.679162
-0.2,-0.2,1.2999999999999998,0.0,-0.5235987755982988,0,0.39945117,1.2823105,0.34421456,-0.08837875,-0.1422811,1.3520347,-0.1259814,-1.1424627,0.57304007,-1.1287342,0.330449,0.21336828,0.422385,-0.6853921
-0.2,-0.2,1.2999999999999998,0.0,-0.5235987755982988,0,-0.0996632,1.3383201,0.008265961,-0.061936922,-0.12999733,1.3986319,-0.6183665,-1.1444883,0.56938416,-1.1275512,0.33122262,0.21127953,0.42938718,-0.6672622
-0.2,-0.2,1.2999999999999998,0.0,-0.5235987755982988,0,0.5478168,1.2964427,0.106797315,-0.09278663,0.16563798,1.2014502,0.22625285,-1.1429098,0.56972843,-1.1283035,0.3307141,0.21192306,0.4213094,-0.6614282
-0.2,-0.2,1.2999999999999998,0.0,-0.5235987755982988,0,-0.28814745,1.3748456,-0.11127965,-0.047086965,-0.22248805,1.2780429,-0.91629636,-1.1430916,0.57006854,-1.1268101,0.3295961,0.21411069,0.43249023,-0.6742048
-0.2,-0.2,1.2999999999999998,0.0,-0.5235987755982988,0,0.23089746,1.3395226,0.077730566,-0.12810141,-0.023948459,1.2312927,-1.6708297,-1.1418864,0.5725528,-1.1277831,0.33079943,0.21381399,0.42712566,-0.67017573
-0.2,-0.2,1.2999999999999998,0.0,-0.5235987755982988,0,0.9454332,1.2427492,0.4075342,-0.13724123,-0.23322667,1.208183,-0.85704166,-1.144183,0.5700562,-1.1277419,0.33076358,0.2158009,0.41832373,-0.6902607
-0.2,-0.2,1.2999999999999998,0.0,-0.5235987755982988,0,0.47619748,1.2443687,-0.08476212,-0.046672516,-0.21563867,1.213815,0.29211316,-1.1440752,0.5710301,-1.1286999,0.3307458,0.21598937,0.42456245,-0.6810971
-0.2,-0.2,1.2999999999999998,0.0,-0.5235987755982988,0,0.03130865,1.2616473,0.22805099,-0.07347677,-0.124556705,1.235988,-0.040478114,-1.1433443,0.569212,-1.127696,0.3303535,0.21598116,0.42719638,-0.6901505
-0.2,-0.2,1.2999999999999998,0.0,-0.5235987755982988,0,0.21446782,1.321693,0.19499423,-0.046264026,-0.26674524,1.0825198,-0.6999391,-1.1431946,0.5686328,-1.1283188,0.3308712,0.21300666,0.42850795,-0.69239646
-0.2,-0.2,1.2999999999999998,0.0,-0.5235987755982988,0,1.0653523,1.2524471,0.19458619,-0.09283007,0.0024207556,1.2311857,-0.34859386,-1.1425395,0.5690676,-1.1279556,0.33077163,0.21534641,0.4147494,-0.6667825
-0.2,-0.2,1.2999999999999998,0.0,-0.5235987755982988,0,1.0938495,1.2738746,-0.043154366,-0.15451139,0.05522007,1.1783158,-0.3089627,-1.1432309,0.5688354,-1.1280266,0.33078936,0.21360813,0.43054977,-0.68107367
-0.2,-0.2,1.2999999999999998,0.0,-0.5235987755982988,0,-0.19223231,1.3982861,-0.11590349,-0.114697665,-0.18943436,1.2080094,-0.6354764,-1.1442271,0.5690498,-1.1281041,0.33024442,0.2117123,0.42346427,-0.66089505
-0.2,-0.2,1.2999999999999998,0.0,-0.5235987755982988,0,0.06159718,1.3540713,-0.10839497,-0.14564563,0.023593256,1.2008414,-1.3395736,-1.143551,0.56916267,-1.1283716,0.32993034,0.21244709,0.43024933,-0.67175937
-0.2,-0.2,1.2999999999999998,0.0,-0.5235987755982988,0,-0.18808556,1.210819,0.10096566,-0.10816475,0.092060655,1.303625,-0.7271707,-1.1436216,0.5685765,-1.127512,0.33067232,0.21277535,0.42271897,-0.6619015
-0.2,-0.2,1.2999999999999998,0.0,-0.5235987755982988,0,0.4827839,1.1744615,0.14729969,-0.06092004,-0.3074158,1.1767135,-0.48113135,-1.1451049,0.5692769,-1.1289983,0.33018446,0.20984024,0.42775348,-0.6721959
-0.2,-0.2,1.2999999999999998,0.0,-0.5235987755982988,0,-0.07294733,1.2422253,0.17169552,-0.1331277,0.022726957,1.1983778,-1.3101038,-1.143573,0.57055074,-1.1263493,0.3303173,0.21010579,0.42739338,-0.6742564
-0.2,-0.2,1.2999999999999998,0.0,-0.5235987755982988,0,0.83622706,1.3505701,0.37796232,-0.12644842,-0.019757625,1.1998576,-1.0142504,-1.1431653,0.5690888,-1.1287441,0.32967627,0.21581584,0.42147097,-0.69287694
-0.2,-0.2,1.2999999999999998,0.0,-0.5235987755982988,0,0.76635367,1.2131774,0.32908377,-0.088197514,-0.16716589,1.2204964,0.18359174,-1.142996,0.56874204,-1.1268483,0.33115515,0.21521409,0.4229267,-0.6856943
-0.2,-0.2,1.2999999999999998,0.0,-0.5235987755982988,0,0.13542257,1.2149082,0.13685098,-0.081720896,0.036656987,1.3719991,-0.6975604,-1.1429942,0.5685999,-1.1291448,0.33003503,0.21314533,0.42373163,-0.685892
-0.2,-0.2,1.2999999999999998,0.0,-0.5235987755982988,0,0.526253,1.4197706,0.031166263,-0.01007783,-0.32871702,1.2766423,-0.548339,-1.1444532,0.5691972,-1.1272336,0.33182785,0.21078873,0.42084685,-0.6836048
-0.2,-0.2,1.2999999999999998,0.0,-0.5235987755982988,0,0.18274207,1.3900856,-0.09448937,-0.11483891,0.09673154,1.2464753,-0.5789237,-1.1432812,0.5655027,-1.127303,0.33002436,0.21225707,0.42758876,-0.6851145
-0.2,-0.2,1.2999999999999998,0.0,-0.5235987755982988,0,0.42307097,1.2275233,-0.14010507,0.017631365,-0.4177943,1.1835421,-0.20715323,-1.1425396,0.57319593,-1.1282221,0.3298421,0.21676087,0.42507708,-0.6696721
-0.2,-0.2,1.2999999999999998,0.0,-0.5235987755982988,0,0.1150606,1.3497545,-0.10932928,-0.05931715,0.24318138,1.2000003,-1.3286403,-1.1429074,0.56829304,-1.1278081,0.33013293,0.2172297,0.42110792,-0.66677016
-0.2,-0.2,1.2999999999999998,0.0,-0.5235987755982988,0,-0.35135242,1.4141246,-0.12674645,-0.06150303,0.15514086,1.2636722,-1.2986188,-1.1418318,0.56993705,-1.1268404,0.33075342,0.21025316,0.41955394,-0.68832123
-0.2,-0.2,1.2999999999999998,0.0,-0.5235987755982988,0,0.43418533,1.2824322,-0.020506063,-0.039572693,0.029378401,1.1492513,-1.3554127,-1.1422769,0.56936526,-1.1278037,0.3304067,0.21269141,0.42063633,-0.65335083
-0.2,-0.2,1.2999999999999998,0.0,-0.5235987755982988,0,0.37277678,1.3174086,0.020934545,-0.014096442,-0.15639962,1.2824868,-0.7131105,-1.144221,0.57248837,-1.1265639,0.32976758,0.21267639,0.4295061,-0.63839597
-0.2,-0.2,1.2999999999999998,0.0,-0.5235987755982988,0,0.4862082,1.2768729,0.051837374,-0.09901567,-0.23730604,1.2195685,-1.5730716,-1.1442875,0.57212365,-1.127723,0.32981864,0.21457234,0.41984317,-0.6620298
-0.2,-0.2,1.2999999999999998,0.0,-0.5235987755982988,0,0.07688069,1.2781838,0.16063783,-0.11347297,0.05975543,1.2769197,-1.1238291,-1.1419419,0.5722945,-1.1286848,0.33134744,0.21319772,0.41308504,-0.7001158
-0.2,-0.2,1.2999999999999998,0.0,-0.5235987755982988,0,0.34668547,1.1443611,0.12701814,-0.09354092,0.16767523,1.1422951,-0.46972236,-1.1451446,0.5711507,-1.126745,0.33033577,0.213532,0.41905645,-0.67104876
-0.2,-0.2,1.2999999999999998,0.0,-0.5235987755982988,0,0.42865616,1.236863,0.15693316,-0.09033843,-0.006732613,1.1773949,-0.66744214,-1.1432961,0.5714391,-1.127704,0.3300493,0.21252318,0.42016497,-0.6763388
-0.2,-0.2,1.2999999999999998,0.0,-0.5235987755982988,0,-0.5978796,1.2859865,0.004142513,-0.081738174,-0.15270105,1.1015095,0.6639708,-1.1442758,0.5713822,-1.1283787,0.32969686,0.20966403,0.41836005,-0.67252827
-0.2,-0.2,1.2999999999999998,0.0,-0.5235987755982988,0,0.39805216,1.1931512,0.3274739,-0.08362507,0.0022587902,1.2107168,-0.7115236,-1.142907,0.570536,-1.1273363,0.33010426,0.21349768,0.4150211,-0.6668217
-0.2,-0.2,1.2999999999999998,0.0,-0.5235987755982988,0,-0.05935695,1.3390783,0.018695265,-0.038005635,-0.052672666,1.0969061,-1.603368,-1.1429596,0.5684863,-1.1273135,0.3299705,0.20868208,0.41615957,-0.6849552
-0.2,-0.2,1.2999999999999998,0.0,-0.5235987755982988,0,0.5160917,1.4294424,-0.026836034,-0.09438983,0.073379576,1.3083954,-2.1935039,-1.1429166,0.5703065,-1.1297413,0.33033296,0.21252753,0.41713995,-0.67797416
-0.2,-0.2,1.2999999999999998,0.0,-0.5235987755982988,0,-0.031823467,1.3592539,0.22833815,-0.042730436,-0.15697867,1.1921642,-0.1892538,-1.1440837,0.56962425,-1.1295198,0.329286,0.20967351,0.4264896,-0.6832183
-0.2,-0.2,1.2999999999999998,0.0,-0.5235987755982988,0,0.40265462,1.2490754,0.19831346,-0.08248874,-0.047059305,1.192811,-0.08042803,-1.1436616,0.56989664,-1.1282768,0.33034173,0.2149754,0.42156333,-0.6917761
-0.2,-0.2,1.2999999999999998,0.0,-0.5235987755982988,0,0.004914145,1.268076,-0.04830264,-0.08463811,-0.26705727,1.3140349,0.045264043,-1.144851,0.57326955,-1.1290936,0.33076608,0.2145157,0.42129615,-0.67823786
-0.2,-0.2,1.2999999999999998,0.0,-0.5235987755982988,0,0.86808914,1.367006,-0.1027261,-0.09033952,-0.14488061,1.3937955,0.83133996,-1.1419084,0.5669722,-1.1287657,0.3297382,0.21279094,0.42383078,-0.6656119
