sanky1234/BimanualDexCatch/isaacgymenvs/cem_results/football_pose_-0.2_0.10000000000000003_0.8999999999999999_0.0_0.0_0_2025-05-25.csv
x,y,z,roll,pitch,yaw,robot1/joint1,robot1/joint2,robot1/joint3,robot1/joint4,robot1/joint5,robot1/joint6,robot1/joint7,robot2/joint1,robot2/joint2,robot2/joint3,robot2/joint4,robot2/joint5,robot2/joint6,robot2/joint7
-0.2,0.10000000000000003,0.8999999999999999,0.0,0.0,0,-0.9248585,-0.7541228,2.805348,-0.07766872,0.11529023,1.547872,-0.19148766,-1.6369623,1.2332295,0.3066429,-0.0398827,0.2968426,-1.4725533,-0.09468027
-0.2,0.10000000000000003,0.8999999999999999,0.0,0.0,0,-0.9162547,-0.7515338,2.799511,-0.06643743,0.11103165,1.5360479,-0.22714557,-1.0131179,1.1124594,0.31243205,-0.12123375,0.63569176,-1.5157989,0.25751242
-0.2,0.10000000000000003,0.8999999999999999,0.0,0.0,0,-0.92567796,-0.7771158,2.799094,-0.07151044,0.09690412,1.5451046,-0.19810231,-1.9780425,1.1669093,-0.011387458,-0.16365744,0.27351424,-1.4541025,0.35924962
-0.2,0.10000000000000003,0.8999999999999999,0.0,0.0,0,-0.9169874,-0.7668625,2.7981813,-0.077817805,0.11528727,1.5472025,-0.2057476,-1.528211,1.140018,-0.028250087,-0.16349372,0.2347123,-1.5020229,-0.35218126
-0.2,0.10000000000000003,0.8999999999999999,0.0,0.0,0,-0.9221135,-0.7699943,2.806211,-0.07412037,0.10596638,1.5411996,-0.18003689,-1.5167514,1.1489671,0.29382572,-0.043585666,0.08345747,-1.4896446,-0.27414277
-0.2,0.10000000000000003,0.8999999999999999,0.0,0.0,0,-0.9267038,-0.76017356,2.7988522,-0.07680237,0.116235346,1.5463381,-0.22577383,-1.2357488,1.2373904,0.14252573,-0.04061532,0.3875919,-1.5003527,0.94726634
-0.2,0.10000000000000003,0.8999999999999999,0.0,0.0,0,-0.9244285,-0.75771326,2.8116689,-0.07076515,0.11216735,1.5438011,-0.20986268,-1.4807923,1.245651,-0.10268324,-0.030238511,0.5333985,-1.4685787,0.5815868
-0.2,0.10000000000000003,0.8999999999999999,0.0,0.0,0,-0.924722,-0.77328926,2.803354,-0.08254632,0.11684201,1.5482138,-0.21807243,-2.0023553,1.175141,-0.06696659,-0.23886652,0.17886339,-1.4470181,-0.22320174
-0.2,0.10000000000000003,0.8999999999999999,0.0,0.0,0,-0.92177886,-0.7589157,2.8006885,-0.079646535,0.11834877,1.5507218,-0.21819918,-1.0911087,1.1958847,0.2969401,-0.14347067,0.40917924,-1.4659566,-0.65923876
-0.2,0.10000000000000003,0.8999999999999999,0.0,0.0,0,-0.92488706,-0.7761063,2.8015597,-0.0796787,0.12070955,1.5484934,-0.18162204,-1.0936034,1.2794605,-0.33718944,-0.093694106,0.39154068,-1.4248853,-0.9837823
-0.2,0.10000000000000003,0.8999999999999999,0.0,0.0,0,-0.920892,-0.7565222,2.808841,-0.07609695,0.11379376,1.5510747,-0.20324841,-0.6443972,1.1880678,-0.36833894,-0.12774292,0.14708444,-1.5083215,-0.8259847
-0.2,0.10000000000000003,0.8999999999999999,0.0,0.0,0,-0.9238955,-0.7626122,2.8078117,-0.0744668,0.10449182,1.5536025,-0.20063068,-2.0087433,1.2047728,0.5017977,-0.05382447,0.0077048717,-1.4900414,0.24061006
-0.2,0.10000000000000003,0.8999999999999999,0.0,0.0,0,-0.9153023,-0.77384573,2.8093507,-0.07644998,0.107473984,1.5437554,-0.22236222,-0.43648016,1.0686909,0.0050769793,-0.06414925,0.49408534,-1.5654603,0.3785313
-0.2,0.10000000000000003,0.8999999999999999,0.0,0.0,0,-0.91938764,-0.75714797,2.8084543,-0.07029126,0.10651369,1.5509183,-0.20429435,-1.6764748,1.2004018,-0.01103424,-0.04503902,0.16400519,-1.4733546,-0.7787562
-0.2,0.10000000000000003,0.8999999999999999,0.0,0.0,0,-0.9233856,-0.75262034,2.8015037,-0.06517096,0.11795193,1.5402607,-0.21410608,-0.7026539,1.1186073,0.20918986,-0.099257104,0.6974811,-1.5070841,0.095685095
-0.2,0.10000000000000003,0.8999999999999999,0.0,0.0,0,-0.9188552,-0.75632155,2.7989676,-0.07929337,0.10678167,1.5454117,-0.20536321,-0.9419993,1.2033207,0.102146305,-0.10755903,0.28222382,-1.4847764,-0.17109627
-0.2,0.10000000000000003,0.8999999999999999,0.0,0.0,0,-0.9178236,-0.75092447,2.7983384,-0.07577128,0.119416125,1.5465244,-0.21264884,-1.3501027,1.1041948,-0.0060039754,-0.1447661,0.057744272,-1.5398213,-0.7921328
-0.2,0.10000000000000003,0.8999999999999999,0.0,0.0,0,-0.9235905,-0.7597625,2.806936,-0.07681993,0.10495715,1.5470086,-0.19366565,-1.3149053,1.2007444,0.2633809,-0.10379122,0.34623173,-1.4980731,-0.35780206
-0.2,0.10000000000000003,0.8999999999999999,0.0,0.0,0,-0.92172205,-0.7565454,2.8067064,-0.075783476,0.09989949,1.5457431,-0.20243376,-0.5520511,1.2532568,0.19516616,-0.120945916,0.45506096,-1.4905944,0.23310989
-0.2,0.10000000000000003,0.8999999999999999,0.0,0.0,0,-0.9205226,-0.76522774,2.8020852,-0.08107818,0.1173913,1.5457234,-0.19559443,-1.0702511,1.1535257,-0.2573014,-0.18303047,0.558595,-1.5153168,-0.22231606
-0.2,0.10000000000000003,0.8999999999999999,0.0,0.0,0,-0.9236295,-0.73430467,2.8033223,-0.07997155,0.120525815,1.5496119,-0.2086418,-1.4460944,1.2234808,0.18187182,-0.1414233,0.18132886,-1.4853699,-0.3374847
-0.2,0.10000000000000003,0.8999999999999999,0.0,0.0,0,-0.93794143,-0.76996344,2.8039343,-0.07860553,0.11201431,1.5468903,-0.1769046,-0.78639233,1.201182,-0.11024081,-0.055452544,0.31923825,-1.4969405,0.46695554
-0.2,0.10000000000000003,0.8999999999999999,0.0,0.0,0,-0.931268,-0.7709506,2.8054867,-0.07319333,0.1031169,1.5512937,-0.21447478,-2.6464777,1.1674443,0.011672626,-0.21125199,-0.13257755,-1.5213457,-0.031768195
-0.2,0.10000000000000003,0.8999999999999999,0.0,0.0,0,-0.92526317,-0.76453197,2.804469,-0.071092494,0.11214685,1.5466528,-0.19820131,-0.93059385,1.1520739,-0.12605712,-0.058154687,0.33859333,-1.4772091,-0.45075542
-0.2,0.10000000000000003,0.8999999999999999,0.0,0.0,0,-0.9225717,-0.76422,2.8053582,-0.07472672,0.10941444,1.5505747,-0.19275182,-1.6400137,1.1244814,-0.23018742,-0.15280351,-0.0500861,-1.4963816,-1.0526675
-0.2,0.10000000000000003,0.8999999999999999,0.0,0.0,0,-0.9197224,-0.76690024,2.8109374,-0.0760463,0.11223173,1.5472019,-0.21243727,-1.6593558,1.1367391,0.10809369,-0.05014692,0.18831126,-1.4602821,0.32680896
-0.2,0.10000000000000003,0.8999999999999999,0.0,0.0,0,-0.91228926,-0.7616367,2.8078187,-0.06903525,0.10091837,1.5327471,-0.20778757,-1.6439289,1.1874654,0.025262108,-0.14617084,0.24216996,-1.4816504,0.08426107
-0.2,0.10000000000000003,0.8999999999999999,0.0,0.0,0,-0.9268516,-0.76361525,2.80382,-0.083907165,0.11112982,1.5486966,-0.20272057,-1.1280712,1.2640796,0.43673307,-0.06234417,0.17994805,-1.477649,-1.2362272
-0.2,0.10000000000000003,0.8999999999999999,0.0,0.0,0,-0.92474216,-0.7597378,2.8169575,-0.07643304,0.113684975,1.5429412,-0.22267476,-1.1471612,1.188537,0.271633,-0.07340132,0.41967925,-1.5301807,0.43405616
-0.2,0.10000000000000003,0.8999999999999999,0.0,0.0,0,-0.9191026,-0.7789115,2.794663,-0.07415735,0.11349577,1.5486617,-0.22024454,-2.564309,1.0576088,0.054099604,-0.10917179,0.67876095,-1.4380251,0.024075521
-0.2,0.10000000000000003,0.8999999999999999,0.0,0.0,0,-0.91692114,-0.7630664,2.8018246,-0.07637747,0.11526303,1.5488394,-0.23123018,-1.4768009,1.1357582,0.04567432,-0.032086883,0.22191052,-1.4444476,0.32738653
-0.2,0.10000000000000003,0.8999999999999999,0.0,0.0,0,-0.9263169,-0.7619867,2.8043664,-0.07153086,0.11703824,1.5468357,-0.23164064,-1.1869636,1.1779438,-0.115022704,-0.02013647,0.50656146,-1.4291219,-0.6693978
-0.2,0.10000000000000003,0.8999999999999999,0.0,0.0,0,-0.9240901,-0.7660098,2.8070269,-0.08298635,0.103420034,1.5512463,-0.21287332,-1.4378759,1.2326967,-0.018252706,-0.18207297,0.49154517,-1.4621662,-0.7246852
-0.2,0.10000000000000003,0.8999999999999999,0.0,0.0,0,-0.9211797,-0.76240057,2.8027985,-0.07263857,0.11124506,1.5478505,-0.20091516,-1.7381201,1.2017548,0.21470933,-0.09760547,0.5892252,-1.5351105,-0.7210522
-0.2,0.10000000000000003,0.8999999999999999,0.0,0.0,0,-0.9159223,-0.7691362,2.8031409,-0.081244804,0.10478371,1.5478748,-0.19835885,-2.1695545,1.1247929,0.1849137,-0.16642956,0.5635552,-1.4213967,-0.0007680063
-0.2,0.10000000000000003,0.8999999999999999,0.0,0.0,0,-0.93153995,-0.76664263,2.8104799,-0.08971048,0.099155135,1.5560282,-0.20380953,-0.8158232,1.1114129,-0.44030946,-0.1148524,0.1370492,-1.5237929,0.36523965
-0.2,0.10000000000000003,0.8999999999999999,0.0,0.0,0,-0.92402434,-0.76247054,2.8062181,-0.07476884,0.11691592,1.5486548,-0.2232936,-1.6067181,1.2054952,0.40586734,-0.14480461,0.69489557,-1.4791766,0.16808742
-0.2,0.10000000000000003,0.8999999999999999,0.0,0.0,0,-0.916269,-0.7614723,2.8054588,-0.06978266,0.11149746,1.5398126,-0.2240661,-0.1280037,1.1371982,0.16162273,-0.13374035,0.15970127,-1.4836098,0.12474437
-0.2,0.10000000000000003,0.8999999999999999,0.0,0.0,0,-0.9287853,-0.7670875,2.8047318,-0.086496,0.10214089,1.5552902,-0.19171937,-1.2215971,1.2462418,0.08573276,-0.12946075,0.29783094,-1.4732395,0.1778796
-0.2,0.10000000000000003,0.8999999999999999,0.0,0.0,0,-0.92251617,-0.7650234,2.8027358,-0.075081974,0.11746974,1.550625,-0.19570075,-0.6043241,1.1774281,-0.10848937,-0.09746281,0.34770375,-1.5016373,-0.25777057
-0.2,0.10000000000000003,0.8999999999999999,0.0,0.0,0,-0.919988,-0.77135706,2.8065677,-0.07875997,0.127373,1.5495809,-0.22252665,0.30629045,1.1753345,0.042168304,-0.0560544,0.27946556,-1.4869115,-0.8219714
-0.2,0.10000000000000003,0.8999999999999999,0.0,0.0,0,-0.9243629,-0.7619666,2.8000426,-0.07182089,0.12176065,1.5481547,-0.21829627,-2.1545017,1.0781903,-0.1803837,-0.13326876,0.35790431,-1.4656937,-0.13050872
-0.2,0.10000000000000003,0.8999999999999999,0.0,0.0,0,-0.91710633,-0.76720035,2.8038712,-0.08034856,0.1127163,1.5463217,-0.18584469,-1.951368,1.1952912,0.273252,-0.033493027,0.13510539,-1.5485591,-0.66164064
-0.2,0.10000000000000003,0.8999999999999999,0.0,0.0,0,-0.93060684,-0.76171577,2.8104336,-0.07623986,0.10572527,1.5501469,-0.22285214,-1.3959442,1.2272527,-0.018849835,-0.16375974,0.13972968,-1.475017,-0.11541382
-0.2,0.10000000000000003,0.8999999999999999,0.0,0.0,0,-0.9259463,-0.7598618,2.801705,-0.07660631,0.10919124,1.5436436,-0.23747332,-1.6341975,1.2361695,0.2451874,-0.13861802,0.113147944,-1.5387725,-0.35461634
-0.2,0.10000000000000003,0.8999999999999999,0.0,0.0,0,-0.92398864,-0.7580451,2.80573,-0.07486446,0.10868293,1.5418116,-0.21641077,-0.9391091,1.2005521,-0.13332991,-0.1054236,0.46937105,-1.5247949,-0.8062627
-0.2,0.10000000000000003,0.8999999999999999,0.0,0.0,0,-0.9230157,-0.7804698,2.7988455,-0.078397945,0.1032466,1.5427343,-0.20795095,-2.1297061,1.1645411,-0.11184099,-0.2427132,0.11603402,-1.4816365,-0.58085394
-0.2,0.10000000000000003,0.8999999999999999,0.0,0.0,0,-0.92235345,-0.76077175,2.800158,-0.08043277,0.110015154,1.547206,-0.2255914,-1.4772384,1.1675282,0.13590384,-0.16837163,0.14211427,-1.5314492,0.23817289
-0.2,0.10000000000000003,0.8999999999999999,0.0,0.0,0,-0.92721015,-0.77748847,2.808066,-0.07762476,0.10263128,1.5518966,-0.22227833,-0.5946047,1.1656171,0.20971957,-0.12901896,0.66760767,-1.4801388,-0.23928799
-0.2,0.10000000000000003,0.8999999999999999,0.0,0.0,0,-0.92634445,-0.757529,2.8052013,-0.070667885,0.10883088,1.5438803,-0.21846123,-1.2117352,1.1751338,-0.18230505,-0.051841028,0.2033211,-1.4200556,-0.24581732
-0.2,0.10000000000000003,0.8999999999999999,0.0,0.0,0,-0.9217883,-0.7628909,2.8089297,-0.06647505,0.102883376,1.5418593,-0.21067166,-1.6528891,1.1969302,-0.07840708,-0.15851566,0.38015303,-1.445366,-0.65673494
-0.2,0.10000000000000003,0.8999999999999999,0.0,0.0,0,-0.9218339,-0.76287174,2.8038924,-0.07726567,0.104822166,1.5486095,-0.21534781,-1.4875009,1.0752548,-0.08592492,-0.21697606,0.36234692,-1.4531469,-0.032353062
-0.2,0.10000000000000003,0.8999999999999999,0.0,0.0,0,-0.92890257,-0.76507217,2.8092682,-0.07469016,0.10514353,1.5468186,-0.21234758,-1.2738354,1.2577541,0.36956728,-0.10535919,0.14106165,-1.5157214,0.93753046
-0.2,0.10000000000000003,0.8999999999999999,0.0,0.0,0,-0.9236969,-0.77169514,2.8050473,-0.075218104,0.12276763,1.5491837,-0.23175499,-1.419575,1.1963097,-0.05808129,-0.23146828,0.78188777,-1.4568903,0.3397013
-0.2,0.10000000000000003,0.8999999999999999,0.0,0.0,0,-0.92625546,-0.7683505,2.7996733,-0.081616305,0.11231025,1.5494956,-0.21342592,-1.2084874,1.1462867,0.16085744,-0.038560286,0.4391698,-1.4063349,0.41381305
-0.2,0.10000000000000003,0.8999999999999999,0.0,0.0,0,-0.92305374,-0.7673146,2.8001027,-0.07671453,0.109201364,1.5494136,-0.20386653,0.17131789,1.180161,-0.08150975,-0.09191067,0.41874048,-1.4506246,-0.14640424
-0.2,0.10000000000000003,0.8999999999999999,0.0,0.0,0,-0.92714375,-0.7661493,2.8022203,-0.0747461,0.1184407,1.5493724,-0.21356069,-0.86643386,1.2110645,-0.09031191,-0.14772516,0.5228893,-1.505787,0.3609603
-0.2,0.10000000000000003,0.8999999999999999,0.0,0.0,0,-0.9254328,-0.771457,2.8091514,-0.07873505,0.121567704,1.5512575,-0.21333681,-1.5938342,1.236917,-0.023740012,-0.09913524,0.5015993,-1.4924294,-0.41188383
-0.2,0.10000000000000003,0.8999999999999999,0.0,0.0,0,-0.922848,-0.76658446,2.80476,-0.07583681,0.10653743,1.5503367,-0.20561227,-1.4204345,1.2556026,-0.10017577,-0.15817739,0.6711715,-1.4631596,-0.0748489
-0.2,0.10000000000000003,0.8999999999999999,0.0,0.0,0,-0.92461586,-0.7703664,2.8017073,-0.07616189,0.113567404,1.5431781,-0.19231008,-1.0088307,1.1464398,0.12292527,-0.051059138,0.3896129,-1.4353673,-0.787234
-0.2,0.10000000000000003,0.8999999999999999,0.0,0.0,0,-0.9300705,-0.7683887,2.807978,-0.07056879,0.11422271,1.5462893,-0.20281968,-1.588378,1.2230059,0.14144021,-0.074246876,0.42862287,-1.4983,-0.9290079
-0.2,0.10000000000000003,0.8999999999999999,0.0,0.0,0,-0.92021245,-0.77322996,2.8115103,-0.07325522,0.10690625,1.5420974,-0.20695105,-1.2487959,1.3000897,0.09557664,-0.12157769,0.47457442,-1.5059687,-0.42491636
-0.2,0.10000000000000003,0.8999999999999999,0.0,0.0,0,-0.91611195,-0.76362497,2.7986794,-0.07235438,0.11980681,1.5505649,-0.23563334,-0.3029456,1.2321364,-0.259175,-0.08688641,0.4191311,-1.4854729,0.13345806
-0.2,0.10000000000000003,0.8999999999999999,0.0,0.0,0,-0.917892,-0.7608125,2.8080285,-0.07542406,0.101037055,1.5561786,-0.20102935,-0.87493557,1.1780854,-0.1822363,-0.1499298,0.4115531,-1.5514208,0.43944645
-0.2,0.10000000000000003,0.8999999999999999,0.0,0.0,0,-0.9250001,-0.7645151,2.8059537,-0.076222934,0.10257026,1.5440675,-0.19679938,-1.0813808,1.2253662,0.044364624,-0.09894058,0.75709015,-1.5251391,-1.3116074
-0.2,0.10000000000000003,0.8999999999999999,0.0,0.0,0,-0.9165701,-0.7692446,2.8072817,-0.0748345,0.11284076,1.5453799,-0.1968883,-3.0020616,1.220889,-0.07488585,-0.017416487,0.38029101,-1.5173608,0.06954951
-0.2,0.10000000000000003,0.8999999999999999,0.0,0.0,0,-0.92102665,-0.7716578,2.8021662,-0.07546274,0.12480938,1.545726,-0.20874959,-1.3390971,1.1307161,-0.025162764,-0.20247082,0.2756426,-1.4154687,0.5310468
-0.2,0.10000000000000003,0.8999999999999999,0.0,0.0,0,-0.9216265,-0.7664242,2.803023,-0.07309009,0.11695764,1.5406839,-0.20727855,-1.8820742,1.1952665,0.17312779,-0.06921356,0.27159107,-1.490306,-0.6399358
-0.2,0.10000000000000003,0.8999999999999999,0.0,0.0,0,-0.92797416,-0.7655282,2.8020115,-0.07654459,0.10630436,1.5462072,-0.2099581,-2.110906,1.1016989,-0.26209077,-0.1443435,0.11051985,-1.4832656,-0.3755399
-0.2,0.10000000000000003,0.8999999999999999,0.0,0.0,0,-0.91971403,-0.7696342,2.7961993,-0.07335482,0.11623887,1.5480585,-0.21858075,-1.4199953,1.2287563,0.107978694,-0.02200212,0.38389614,-1.4616017,0.72801673
-0.2,0.10000000000000003,0.8999999999999999,0.0,0.0,0,-0.9255487,-0.71812606,2.8002064,-0.061555967,0.1025708,1.5560945,-0.19808689,-1.4646741,1.1336108,-0.011572595,-0.081178896,0.60182184,-1.5093979,0.3011582
-0.2,0.10000000000000003,0.8999999999999999,0.0,0.0,0,-0.9251163,-0.76925576,2.8009684,-0.08167669,0.112500414,1.5488214,-0.21084648,-1.5591576,1.210064,-0.08217056,-0.11744591,0.4974821,-1.4975762,0.3097224
-0.2,0.10000000000000003,0.8999999999999999,0.0,0.0,0,-0.92081094,-0.76872784,2.8066833,-0.07784521,0.11004647,1.5494705,-0.20052555,-1.57458,1.2628474,0.21742353,-0.14639676,0.6946102,-1.4540792,0.3904484
-0.2,0.10000000000000003,0.8999999999999999,0.0,0.0,0,-0.92317486,-0.7650203,2.8042893,-0.07466514,0.1041151,1.5402867,-0.1746734,-1.1056854,1.3183979,0.15279879,-0.07951804,0.5336001,-1.4758165,-0.29427326
-0.2,0.10000000000000003,0.8999999999999999,0.0,0.0,0,-0.923192,-0.7716382,2.8003335,-0.07579201,0.110934205,1.5480697,-0.19704346,-1.5504087,1.2047077,-0.0030653705,-0.12562086,0.4452659,-1.4613408,-0.48722395
-0.2,0.10000000000000003,0.8999999999999999,0.0,0.0,0,-0.91884845,-0.7780283,2.8022842,-0.07334891,0.11552661,1.5479081,-0.24329196,-1.6372392,1.0995331,0.27625206,-0.19529288,0.3919911,-1.4798675,-0.19782445
-0.2,0.10000000000000003,0.8999999999999999,0.0,0.0,0,-0.92626464,-0.77021265,2.799992,-0.080307126,0.11959104,1.5495362,-0.19683288,-1.2204638,1.346287,0.12943318,-0.15610136,0.5411937,-1.3927261,-0.034257066
-0.2,0.10000000000000003,0.8999999999999999,0.0,0.0,0,-0.919775,-0.7505862,2.8028185,-0.073702596,0.11860185,1.5452433,-0.18431951,-1.2210127,1.2945349,0.06740675,-0.11864289,0.39044854,-1.4804149,0.31488392
-0.2,0.10000000000000003,0.8999999999999999,0.0,0.0,0,-0.9247978,-0.76626897,2.804765,-0.06929482,0.11551458,1.5437993,-0.21604015,-1.3543177,1.2299051,0.24465086,-0.11637299,0.3586492,-1.5086702,0.050163418
-0.2,0.10000000000000003,0.8999999999999999,0.0,0.0,0,-0.9301275,-0.7752198,2.7950785,-0.07070962,0.1278503,1.5416533,-0.18692094,-2.2370493,1.1237096,0.102698736,-0.1956422,0.21597931,-1.4632634,-0.28062537
-0.2,0.10000000000000003,0.8999999999999999,0.0,0.0,0,-0.92466605,-0.7702925,2.8052366,-0.077078246,0.11356193,1.547978,-0.20081061,-1.422218,1.2398987,0.22986864,-0.12920527,0.30158556,-1.5003709,0.38174224
-0.2,0.10000000000000003,0.8999999999999999,0.0,0.0,0,-0.9304947,-0.77681464,2.8009346,-0.07715665,0.11610849,1.5452551,-0.18780522,-1.6778667,1.2750958,-0.012455465,-0.16625397,0.20707352,-1.4562043,-0.3128098
-0.2,0.10000000000000003,0.8999999999999999,0.0,0.0,0,-0.9226088,-0.7694094,2.8043826,-0.075080045,0.11254995,1.5506085,-0.20818049,-1.1130056,1.2562433,0.081444174,-0.17250326,0.5509826,-1.5686232,0.5197219
-0.2,0.10000000000000003,0.8999999999999999,0.0,0.0,0,-0.9176717,-0.74359447,2.8105047,-0.06985647,0.103758946,1.5530666,-0.18691729,-1.1924368,1.1364152,-0.19561902,-0.07703619,0.2096209,-1.5702657,-0.6919212
-0.2,0.10000000000000003,0.8999999999999999,0.0,0.0,0,-0.9298076,-0.7763758,2.8061037,-0.077074885,0.109977126,1.5441252,-0.2060294,-1.7555772,1.2259785,-0.1046953,-0.20037156,0.16531248,-1.4386662,0.38726506
-0.2,0.10000000000000003,0.8999999999999999,0.0,0.0,0,-0.9213588,-0.76762366,2.8086977,-0.07714877,0.09457862,1.5480024,-0.21877277,-2.6559806,1.106731,0.13651796,-0.1911777,0.51188827,-1.4510018,0.13312212
-0.2,0.10000000000000003,0.8999999999999999,0.0,0.0,0,-0.9253186,-0.7702783,2.8045704,-0.066609584,0.12338548,1.5417984,-0.20387211,-1.0236757,1.1780474,-0.04390299,-0.12723453,0.21003535,-1.4734877,-1.1171291
-0.2,0.10000000000000003,0.8999999999999999,0.0,0.0,0,-0.9232181,-0.7728777,2.804697,-0.07663092,0.10654091,1.550416,-0.19809365,-1.2696143,1.1869788,0.08453738,-0.103768945,0.50754935,-1.5387702,-0.440312
-0.2,0.10000000000000003,0.8999999999999999,0.0,0.0,0,-0.91882014,-0.7737896,2.8116906,-0.06745298,0.103247404,1.5457243,-0.17543073,-1.2749643,1.223806,0.06085601,-0.105481096,0.4454083,-1.4157683,-0.13095097
-0.2,0.10000000000000003,0.8999999999999999,0.0,0.0,0,-0.92334664,-0.7725392,2.806934,-0.069021076,0.113644265,1.549012,-0.21985473,-1.3419116,1.2802856,-0.18044788,-0.06762017,0.37143987,-1.5078526,0.53476137
-0.2,0.10000000000000003,0.8999999999999999,0.0,0.0,0,-0.9152175,-0.77222884,2.8051877,-0.074883364,0.112612195,1.5495869,-0.21007529,-0.58276415,1.2411499,-0.09695291,-0.13673097,0.31510934,-1.4670187,-0.12511319
-0.2,0.10000000000000003,0.8999999999999999,0.0,0.0,0,-0.9208223,-0.7641727,2.8066554,-0.07352151,0.10706194,1.5475405,-0.20471264,-1.2932407,1.1326458,0.41295326,-0.10947977,0.4612083,-1.5257134,-1.0846028
-0.2,0.10000000000000003,0.8999999999999999,0.0,0.0,0,-0.91607285,-0.77003086,2.809612,-0.072536305,0.10636077,1.5495812,-0.20755479,-0.8409118,1.216552,0.026339537,0.0037458146,0.23135936,-1.5039924,-0.6203273
-0.2,0.10000000000000003,0.8999999999999999,0.0,0.0,0,-0.9255106,-0.75396115,2.8100262,-0.076129146,0.106159955,1.550231,-0.20987318,-1.8068173,1.1561145,0.044407114,-0.18655671,-0.008692164,-1.5673383,-0.98777497
-0.2,0.10000000000000003,0.8999999999999999,0.0,0.0,0,-0.91779983,-0.7759422,2.8082643,-0.07445731,0.103204496,1.5496383,-0.19059241,-1.8090471,1.2307539,0.124813125,-0.25880703,0.5070777,-1.461632,0.15997402
-0.2,0.10000000000000003,0.8999999999999999,0.0,0.0,0,-0.92604285,-0.74383914,2.8008752,-0.07601234,0.11933129,1.5454149,-0.20565633,-1.468599,1.1816833,0.21641427,-0.08236598,0.57853544,-1.4976175,0.013405178
-0.2,0.10000000000000003,0.8999999999999999,0.0,0.0,0,-0.9249435,-0.77288854,2.811482,-0.07784651,0.102037944,1.5489361,-0.20910096,-1.6549124,1.1401165,-0.052952662,-0.030069465,0.30457306,-1.434737,0.3118389
-0.2,0.10000000000000003,0.8999999999999999,0.0,0.0,0,-0.92772126,-0.7683424,2.7998624,-0.07278105,0.11623359,1.5516894,-0.19980845,-2.4177556,1.1118853,-0.10639488,-0.1783645,0.44385466,-1.4348315,0.21463017
-0.2,0.10000000000000003,0.8999999999999999,0.0,0.0,0,-0.920779,-0.7772304,2.8073664,-0.07115632,0.11236676,1.5415419,-0.18319517,-1.1227714,1.1575917,-0.17304876,0.016872384,0.7039619,-1.4734175,0.5377232
-0.2,0.10000000000000003,0.8999999999999999,0.0,0.0,0,-0.9269947,-0.7786543,2.8064127,-0.07465184,0.115756854,1.5479115,-0.20109902,-1.8403294,1.1501181,0.21164797,-0.09376122,0.57331425,-1.5197978,-0.15380657
-0.2,0.10000000000000003,0.8999999999999999,0.0,0.0,0,-0.9287273,-0.7803336,2.8051705,-0.07056127,0.10908747,1.5425904,-0.18878883,-2.7617052,1.1876588,0.2670467,-0.19587174,0.3015064,-1.4288043,-1.2531469
-0.2,0.10000000000000003,0.8999999999999999,0.0,0.0,0,-0.9179263,-0.7762902,2.807787,-0.071023405,0.10836765,1.5492421,-0.20249414,-1.0989628,1.1522315,0.05324857,-0.11633507,0.3545006,-1.4977008,1.1669213
-0.2,0.10000000000000003,0.8999999999999999,0.0,0.0,0,-0.92856836,-0.7847013,2.8036478,-0.065905906,0.12187806,1.5430113,-0.22461239,-1.9021269,1.3178407,0.34380344,0.0011802386,0.38570476,-1.4569885,-0.32975462
-0.2,0.10000000000000003,0.8999999999999999,0.0,0.0,0,-0.9194171,-0.76827794,2.8090715,-0.07506135,0.10725651,1.5525857,-0.21277247,-1.2039374,1.1600068,0.07856836,0.031118818,0.29893455,-1.482409,-0.46209505
-0.2,0.10000000000000003,0.8999999999999999,0.0,0.0,0,-0.92258006,-0.77516127,2.8061197,-0.077625625,0.11570923,1.546319,-0.2177869,-0.29039082,1.1387273,-0.009019335,-0.1677466,0.43842608,-1.4310832,-0.07787636
-0.2,0.10000000000000003,0.8999999999999999,0.0,0.0,0,-0.9234777,-0.7558274,2.7971244,-0.08218228,0.10711032,1.5525981,-0.21191512,-0.95820767,1.2026458,-0.10506399,-0.041942168,0.5143979,-1.4823551,0.54047126
-0.2,0.10000000000000003,0.8999999999999999,0.0,0.0,0,-0.92161715,-0.7775959,2.812927,-0.06883005,0.122292586,1.5408306,-0.22523697,-1.3679678,1.2226357,0.24674144,-0.087768376,0.419604,-1.4766767,-0.25410447
-0.2,0.10000000000000003,0.8999999999999999,0.0,0.0,0,-0.91974264,-0.7379648,2.803103,-0.07272066,0.12154266,1.5536659,-0.21298367,-2.2172813,1.0843018,-0.15194581,-0.120618366,0.13889119,-1.4652216,-1.3923099
-0.2,0.10000000000000003,0.8999999999999999,0.0,0.0,0,-0.9234984,-0.7797451,2.8069975,-0.07520086,0.10998001,1.5428139,-0.21227334,-0.08877699,1.2209251,0.24622086,-0.10052846,0.65177125,-1.471315,0.7289691
-0.2,0.10000000000000003,0.8999999999999999,0.0,0.0,0,-0.9236711,-0.74781144,2.8023217,-0.06833616,0.11714279,1.5455823,-0.22221096,-1.5000046,1.1445513,0.053811353,-0.08244821,0.42507333,-1.4356791,-0.59024817
-0.2,0.10000000000000003,0.8999999999999999,0.0,0.0,0,-0.9186322,-0.77796465,2.8057044,-0.07777036,0.10459328,1.5440223,-0.2047185,-1.2828045,1.2686571,-0.31023523,-0.043814674,0.2819818,-1.5171303,-0.049838983
-0.2,0.10000000000000003,0.8999999999999999,0.0,0.0,0,-0.921529,-0.77963525,2.806353,-0.07017592,0.1157244,1.5441242,-0.22493665,-1.767225,1.2354889,0.55053127,-0.15045184,0.25152668,-1.4725347,0.68572444
-0.2,0.10000000000000003,0.8999999999999999,0.0,0.0,0,-0.9158426,-0.7717802,2.797195,-0.073650956,0.11655558,1.5464123,-0.21736851,-1.3161533,1.2900103,-0.06355705,-0.17025895,0.8840547,-1.4673147,0.78123915
-0.2,0.10000000000000003,0.8999999999999999,0.0,0.0,0,-0.9280535,-0.78024626,2.8041182,-0.07417162,0.11391,1.550853,-0.19823524,-0.6950215,1.2048081,-0.25460792,-0.16939604,0.9799321,-1.4534922,0.16363342
-0.2,0.10000000000000003,0.8999999999999999,0.0,0.0,0,-0.9237495,-0.77650905,2.8035576,-0.07398738,0.107860796,1.5488831,-0.18186195,-2.0045698,1.1561095,-0.47469342,-0.18818168,0.6930626,-1.5056484,-0.46730244
-0.2,0.10000000000000003,0.8999999999999999,0.0,0.0,0,-0.92466146,-0.7722425,2.809884,-0.07192237,0.103961214,1.5465512,-0.2001275,-0.878674,1.22105,0.0006595267,0.013424753,0.30749962,-1.44995,0.4103065
-0.2,0.10000000000000003,0.8999999999999999,0.0,0.0,0,-0.9208724,-0.76372695,2.80668,-0.08354786,0.114422016,1.551205,-0.19724306,-1.6913018,1.1107548,0.356129,-0.12428282,0.34512705,-1.4531401,-0.047383737
-0.2,0.10000000000000003,0.8999999999999999,0.0,0.0,0,-0.9222063,-0.7684693,2.795987,-0.0681515,0.10860399,1.5495942,-0.21590963,-1.3383363,1.2191794,-0.15374877,-0.14028864,0.93460536,-1.455605,-0.35468605
-0.2,0.10000000000000003,0.8999999999999999,0.0,0.0,0,-0.9166547,-0.76284313,2.7997139,-0.06819561,0.121300004,1.5468183,-0.2225867,-2.249098,1.1538273,0.14002052,-0.25780442,0.2534113,-1.4564661,-0.0048049954
-0.2,0.10000000000000003,0.8999999999999999,0.0,0.0,0,-0.9310379,-0.77419716,2.7996237,-0.08279027,0.113905735,1.5480022,-0.21083687,-2.2400377,1.1192156,-0.11077566,-0.18938957,0.32029596,-1.505755,-0.9904642
-0.2,0.10000000000000003,0.8999999999999999,0.0,0.0,0,-0.920671,-0.7754101,2.8035927,-0.07942819,0.111011826,1.5497295,-0.2037586,-1.5766971,1.0945009,0.3628259,-0.10212897,0.5298632,-1.4484512,-0.50894696
-0.2,0.10000000000000003,0.8999999999999999,0.0,0.0,0,-0.91941303,-0.78128904,2.804103,-0.0854111,0.12124347,1.541812,-0.20592591,-2.0316343,1.1814286,-0.17254592,-0.25206363,0.33791682,-1.4893565,0.3448749
-0.2,0.10000000000000003,0.8999999999999999,0.0,0.0,0,-0.92004794,-0.71494555,2.806259,-0.07084081,0.119595535,1.5474036,-0.21237521,-1.859393,1.1609203,0.38398346,-0.10315074,0.43793052,-1.5004798,-0.66944337
-0.2,0.10000000000000003,0.8999999999999999,0.0,0.0,0,-0.9237586,-0.738484,2.801927,-0.08505409,0.11449267,1.5454015,-0.2065776,-1.79249,1.1525556,0.13404849,-0.14553827,0.5999038,-1.4304153,-0.62670344
-0.2,0.10000000000000003,0.8999999999999999,0.0,0.0,0,-0.921005,-0.77044797,2.802501,-0.07627335,0.109115705,1.5524251,-0.20714368,-1.9507105,1.1589198,0.084186785,-0.10257677,0.108716615,-1.4144652,-0.6807277
-0.2,0.10000000000000003,0.8999999999999999,0.0,0.0,0,-0.921594,-0.76035595,2.8046813,-0.07677719,0.11170249,1.5473238,-0.19779031,-1.901668,1.1428596,-0.065001875,-0.13014233,0.6117415,-1.5022556,-0.41643208
-0.2,0.10000000000000003,0.8999999999999999,0.0,0.0,0,-0.92076445,-0.76307595,2.8040967,-0.0782673,0.110631324,1.5469737,-0.20524986,-1.848112,1.2074742,-0.14999874,-0.0839191,0.045657586,-1.4301326,0.6372383
-0.2,0.10000000000000003,0.8999999999999999,0.0,0.0,0,-0.91594815,-0.7635607,2.7992966,-0.06963375,0.111632966,1.5406175,-0.20776232,-1.7279824,1.1784877,-0.1335995,-0.16473407,0.5869807,-1.5143443,-0.85071534
-0.2,0.10000000000000003,0.8999999999999999,0.0,0.0,0,-0.9293156,-0.75910723,2.8049815,-0.076535426,0.11000182,1.5479773,-0.20755276,-1.7861232,1.2872301,-0.046597425,-0.18270494,0.17596538,-1.4685564,-0.77806044
-0.2,0.10000000000000003,0.8999999999999999,0.0,0.0,0,-0.9212637,-0.7289851,2.7999005,-0.0829975,0.10856028,1.5498979,-0.2073388,-2.1276004,1.254805,0.2527211,-0.18319212,0.29614696,-1.4704936,-0.26966232
-0.2,0.10000000000000003,0.8999999999999999,0.0,0.0,0,-0.9227498,-0.76060694,2.8050075,-0.070586875,0.11349777,1.5451462,-0.22045724,-1.8548241,1.1826644,-0.15460898,-0.09505474,0.46680018,-1.5216289,-0.372662
-0.2,0.10000000000000003,0.8999999999999999,0.0,0.0,0,-0.9193078,-0.7664476,2.8034093,-0.06474817,0.10683872,1.5459669,-0.21370392,-1.7786385,1.2345802,-0.27700788,-0.041783463,0.16613968,-1.5554479,-1.0507623
-0.2,0.10000000000000003,0.8999999999999999,0.0,0.0,0,-0.91918665,-0.75815254,2.7984133,-0.08237878,0.11832089,1.5480922,-0.19824569,-1.740801,1.3060367,-0.38674894,-0.15796727,0.3861507,-1.4890736,-0.40056634
-0.2,0.10000000000000003,0.8999999999999999,0.0,0.0,0,-0.92299384,-0.74663603,2.8043125,-0.072966956,0.122831844,1.5462257,-0.20636983,-2.1278884,1.1340884,0.2900404,-0.08601074,0.11209746,-1.4874941,-0.49005127
-0.2,0.10000000000000003,0.8999999999999999,0.0,0.0,0,-0.926769,-0.7838923,2.8089716,-0.07576675,0.10737577,1.5519313,-0.23788013,-1.1905255,1.1999053,-0.07369895,-0.030041214,-0.017383935,-1.4748858,-1.0278717
-0.2,0.10000000000000003,0.8999999999999999,0.0,0.0,0,-0.9232659,-0.7857289,2.8070505,-0.07281888,0.11127678,1.546413,-0.22047694,-2.1347356,1.1845222,0.1952105,-0.18993266,0.6932996,-1.4813209,-0.58750415
-0.2,0.10000000000000003,0.8999999999999999,0.0,0.0,0,-0.9181531,-0.7831624,2.8060324,-0.07451192,0.10745509,1.5486865,-0.22795637,-1.8437958,1.1770517,-0.20146425,-0.069064334,0.09337199,-1.4833955,0.2290567
-0.2,0.10000000000000003,0.8999999999999999,0.0,0.0,0,-0.91447884,-0.7153424,2.7957287,-0.06745334,0.10595583,1.5486921,-0.20082253,-1.8501897,1.2303512,-0.00965217,-0.15883756,0.5594126,-1.4769565,-1.834118
-0.2,0.10000000000000003,0.8999999999999999,0.0,0.0,0,-0.91846204,-0.7821017,2.802203,-0.073257625,0.11378891,1.5467677,-0.19876564,-1.9536216,1.2511364,-0.010709076,-0.043215685,0.4307679,-1.4834229,0.7004021
-0.2,0.10000000000000003,0.8999999999999999,0.0,0.0,0,-0.92199117,-0.75889605,2.812189,-0.07415038,0.10952187,1.5441085,-0.19767599,-1.9356697,1.078905,-0.08978904,-0.10928292,0.22502781,-1.4540465,-0.35118943
-0.2,0.10000000000000003,0.8999999999999999,0.0,0.0,0,-0.9198366,-0.7220782,2.8035934,-0.09200584,0.12534665,1.5489844,-0.19860917,-1.8631601,1.1123868,0.053942453,-0.11607042,0.020551445,-1.4872146,-0.26747057
-0.2,0.10000000000000003,0.8999999999999999,0.0,0.0,0,-0.9254933,-0.7441215,2.8108654,-0.0697691,0.10380007,1.5442166,-0.21772939,-1.9737258,1.339857,0.07835325,-0.077861585,0.38304406,-1.5024021,0.064256
-0.2,0.10000000000000003,0.8999999999999999,0.0,0.0,0,-0.91742283,-0.7987786,2.805375,-0.080364734,0.11845395,1.5542648,-0.1859356,-1.3940029,1.1957932,0.15049344,-0.12802027,0.41320476,-1.5550568,0.122030415
-0.2,0.10000000000000003,0.8999999999999999,0.0,0.0,0,-0.9251978,-0.72944933,2.8051689,-0.07364436,0.113358736,1.5457007,-0.19368567,-1.8972304,1.261412,0.1248254,-0.10825421,0.5078168,-1.4903611,0.40920663
-0.2,0.10000000000000003,0.8999999999999999,0.0,0.0,0,-0.9199827,-0.75625354,2.8013237,-0.077279456,0.11584553,1.5500051,-0.20520923,-2.1497927,1.1968299,0.05027145,-0.2581012,0.29617715,-1.5109855,0.8533329
-0.2,0.10000000000000003,0.8999999999999999,0.0,0.0,0,-0.9167059,-0.7843057,2.804716,-0.06388636,0.11219306,1.5509864,-0.21793693,-1.7570664,1.1711978,-0.31558278,-0.09008488,0.44010898,-1.5106076,-0.15864687
-0.2,0.10000000000000003,0.8999999999999999,0.0,0.0,0,-0.92929435,-0.71750516,2.8090427,-0.07531864,0.1010692,1.5441382,-0.21879964,-3.0126615,1.2457299,0.2801399,-0.16369064,0.67309743,-1.4785701,-0.2885728
-0.2,0.10000000000000003,0.8999999999999999,0.0,0.0,0,-0.925621,-0.75458074,2.8019125,-0.07213541,0.113061875,1.5495799,-0.20388898,-2.0530796,1.1213539,-0.11529998,-0.18143806,0.3350504,-1.5047915,-0.4939775
-0.2,0.10000000000000003,0.8999999999999999,0.0,0.0,0,-0.92336345,-0.787862,2.8035583,-0.07457507,0.11326038,1.5488347,-0.18527313,-2.2219737,1.1956658,0.33133474,-0.18720417,0.30928972,-1.4762022,-0.5692917
-0.2,0.10000000000000003,0.8999999999999999,0.0,0.0,0,-0.9238924,-0.7885971,2.80326,-0.07186923,0.108213335,1.5519546,-0.19608888,-2.0694768,1.2248957,0.33881772,-0.06516609,0.73448473,-1.5180202,0.06938662
-0.2,0.10000000000000003,0.8999999999999999,0.0,0.0,0,-0.9217769,-0.7447885,2.8091328,-0.07249491,0.10068975,1.5458474,-0.19487776,-1.7798084,1.1582073,0.22673725,-0.11185414,0.3634948,-1.5086626,-0.14304154
-0.2,0.10000000000000003,0.8999999999999999,0.0,0.0,0,-0.922645,-0.74167866,2.7997952,-0.07676982,0.11599663,1.5469266,-0.20256847,-1.8230107,1.246366,0.04888657,-0.09889111,0.6737175,-1.5256858,-0.08755396
-0.2,0.10000000000000003,0.8999999999999999,0.0,0.0,0,-0.9225297,-0.737128,2.8010073,-0.06818059,0.113846764,1.5419182,-0.22703823,-1.8002317,1.3111312,0.09429623,-0.08535692,0.5496395,-1.4812481,-0.118066624
-0.2,0.10000000000000003,0.8999999999999999,0.0,0.0,0,-0.9204524,-0.74491596,2.8035715,-0.07114062,0.1086217,1.5475626,-0.18624863,-1.2883539,1.1784275,0.37792268,-0.10633697,0.56669104,-1.440517,-0.10984421
-0.2,0.10000000000000003,0.8999999999999999,0.0,0.0,0,-0.92677224,-0.736593,2.801643,-0.0738618,0.11558938,1.5461344,-0.19077133,-0.5616393,1.2102345,-0.0024791777,-0.13730437,0.17265764,-1.4221975,-0.47771677
-0.2,0.10000000000000003,0.8999999999999999,0.0,0.0,0,-0.92368025,-0.7405291,2.8013692,-0.0794547,0.10079745,1.5422304,-0.2054744,-1.9428198,1.1866109,0.23561604,0.052024785,-0.03307131,-1.5312992,0.17674462
-0.2,0.10000000000000003,0.8999999999999999,0.0,0.0,0,-0.9231726,-0.75196046,2.8014536,-0.07112167,0.108683385,1.5474494,-0.21342453,-1.8722647,1.2865723,0.18794876,-0.10687761,0.68099034,-1.4627838,0.41435105
-0.2,0.10000000000000003,0.8999999999999999,0.0,0.0,0,-0.9200525,-0.75106055,2.8041117,-0.066033065,0.1294092,1.5482565,-0.19402778,-1.883128,1.2411847,0.17417082,-0.1040186,0.5804304,-1.4792726,-0.19994733
-0.2,0.10000000000000003,0.8999999999999999,0.0,0.0,0,-0.9260792,-0.7120855,2.8056161,-0.078504935,0.11028282,1.5471798,-0.20197046,-1.9433802,1.1881613,-0.023280902,-0.06867077,0.44984823,-1.519776,0.2308875
-0.2,0.10000000000000003,0.8999999999999999,0.0,0.0,0,-0.91639996,-0.75363195,2.8028986,-0.0809263,0.108111516,1.5486856,-0.18089916,-1.4979665,1.073313,0.22740608,-0.19014607,0.37412333,-1.5186032,-0.26899293
-0.2,0.10000000000000003,0.8999999999999999,0.0,0.0,0,-0.93790066,-0.79580444,2.7985318,-0.07405059,0.10030637,1.5392859,-0.19412296,-2.0759933,1.1974887,0.272187,-0.14044975,0.5239789,-1.4552947,-0.45560455
-0.2,0.10000000000000003,0.8999999999999999,0.0,0.0,0,-0.9255127,-0.76710826,2.8016562,-0.080999464,0.109872565,1.5484824,-0.19737627,-2.1283987,1.1881527,0.016081061,-0.29878378,0.3037588,-1.3923651,-0.24013327
-0.2,0.10000000000000003,0.8999999999999999,0.0,0.0,0,-0.9150612,-0.73097426,2.7994723,-0.08133766,0.106956065,1.5511435,-0.18926397,-1.7789217,1.274681,0.037703343,-0.12653984,0.24126323,-1.5227118,0.86638314
-0.2,0.10000000000000003,0.8999999999999999,0.0,0.0,0,-0.92280775,-0.7748745,2.803102,-0.079724826,0.111890964,1.5411422,-0.21203496,-1.9750662,1.3381981,0.110608704,-0.05817979,0.12907173,-1.5288464,-1.3378853
-0.2,0.10000000000000003,0.8999999999999999,0.0,0.0,0,-0.9205063,-0.7534532,2.7986054,-0.084033825,0.10795874,1.5471337,-0.18330272,-0.57676625,1.27442,0.23665644,-0.14804262,0.445173,-1.4863963,-0.8194386
-0.2,0.10000000000000003,0.8999999999999999,0.0,0.0,0,-0.9131875,-0.7473014,2.8041184,-0.07547676,0.121851884,1.5456914,-0.21664344,-1.420924,1.1763527,0.1140074,-0.1431672,0.41963714,-1.4998744,-0.69297
-0.2,0.10000000000000003,0.8999999999999999,0.0,0.0,0,-0.9263632,-0.7535129,2.809688,-0.07533713,0.116256796,1.5425333,-0.20058636,-1.8635943,1.2498488,0.1326894,-0.10224403,0.51648283,-1.5567526,0.38545248
-0.2,0.10000000000000003,0.8999999999999999,0.0,0.0,0,-0.92315495,-0.7650166,2.801973,-0.07564651,0.12759034,1.5521666,-0.21456721,-1.0898048,1.2744174,-0.37571624,-0.1361717,0.6195979,-1.4139097,-1.2684999
-0.2,0.10000000000000003,0.8999999999999999,0.0,0.0,0,-0.92823046,-0.7494754,2.802666,-0.078914665,0.105257705,1.5458484,-0.20325089,-1.434871,1.1696699,0.29129604,-0.1983747,0.395651,-1.5473197,-0.69080836
-0.2,0.10000000000000003,0.8999999999999999,0.0,0.0,0,-0.9158292,-0.7550344,2.8062255,-0.070661604,0.118601695,1.5418733,-0.21757357,-1.7779388,1.2615871,-0.0065840096,-0.11969237,0.6984999,-1.496,-0.6424528
-0.2,0.10000000000000003,0.8999999999999999,0.0,0.0,0,-0.92342526,-0.75346893,2.8036876,-0.0773919,0.10217908,1.5472561,-0.2170893,-2.0458815,1.2284914,0.47970992,-0.08791387,0.47992337,-1.4651825,-1.1642516
-0.2,0.10000000000000003,0.8999999999999999,0.0,0.0,0,-0.92274654,-0.7661432,2.8044481,-0.07330086,0.11160157,1.5396556,-0.22386281,-1.9125284,1.095151,0.036579505,-0.123259425,0.56243974,-1.5555123,-0.122011594
-0.2,0.10000000000000003,0.8999999999999999,0.0,0.0,0,-0.92215425,-0.7686756,2.8099554,-0.08045828,0.10231283,1.5490189,-0.20532711,-1.9205757,1.2522286,0.27707082,-0.1851814,0.51224947,-1.4484926,0.033480797
-0.2,0.10000000000000003,0.8999999999999999,0.0,0.0,0,-0.92206264,-0.7598495,2.8037376,-0.08080977,0.11253155,1.5500245,-0.19091702,-1.5000461,1.2401172,0.06464993,-0.1442851,0.28358552,-1.531524,-0.3997553
-0.2,0.10000000000000003,0.8999999999999999,0.0,0.0,0,-0.91882634,-0.7494419,2.805672,-0.07713353,0.114295915,1.5460383,-0.18131493,-2.084494,1.2072034,0.07425142,-0.2492872,0.19266558,-1.4700599,0.028789945
-0.2,0.10000000000000003,0.8999999999999999,0.0,0.0,0,-0.91683424,-0.73398423,2.8021553,-0.0780215,0.111794405,1.5531867,-0.1957492,-1.9489431,1.2438256,-0.31360224,-0.28475547,0.22931673,-1.5097265,-1.1158193
-0.2,0.10000000000000003,0.8999999999999999,0.0,0.0,0,-0.9238877,-0.772327,2.8052895,-0.07612881,0.11091802,1.5515891,-0.19785714,-1.7552512,1.240877,0.04364702,-0.06503828,0.4737133,-1.5125645,-0.13934307
-0.2,0.10000000000000003,0.8999999999999999,0.0,0.0,0,-0.92818224,-0.73580724,2.8024807,-0.0764417,0.108493105,1.5449991,-0.2017816,-1.9034979,1.1707696,-0.08880916,-0.04421427,0.67894536,-1.5012975,-0.015127934
-0.2,0.10000000000000003,0.8999999999999999,0.0,0.0,0,-0.9207398,-0.8049955,2.80643,-0.07500495,0.104440115,1.5473841,-0.19306135,-1.4844728,1.1449698,-0.16969943,-0.0419299,0.21573408,-1.4478619,0.08058018
-0.2,0.10000000000000003,0.8999999999999999,0.0,0.0,0,-0.9202803,-0.76961696,2.8091238,-0.14872794,0.11840474,1.5529592,-0.19382547,-1.8481206,1.2667041,-0.09015616,-0.0801273,0.5512035,-1.5231571,-0.0033193165
-0.2,0.10000000000000003,0.8999999999999999,0.0,0.0,0,-0.9196286,-0.75985587,2.8077185,-0.07609994,0.11282107,1.5486424,-0.22244844,-1.6759586,1.1611167,-0.22378922,-0.04885556,0.66322416,-1.4819989,-0.50213647
-0.2,0.10000000000000003,0.8999999999999999,0.0,0.0,0,-0.9222584,-0.7546515,2.8058867,-0.07078293,0.10698301,1.5514594,-0.18527691,-1.81763,1.181499,0.06255575,-0.085180506,0.5286339,-1.4585478,-0.7102279
-0.2,0.10000000000000003,0.8999999999999999,0.0,0.0,0,-0.91759676,-0.73296946,2.8068297,-0.072707385,0.1264781,1.5458748,-0.24639271,-1.7412573,1.1232928,-0.19547632,-0.08127144,0.6831725,-1.4279181,-0.07691776
-0.2,0.10000000000000003,0.8999999999999999,0.0,0.0,0,-0.92280513,-0.7789689,2.7983613,-0.08062545,0.11448344,1.5462052,-0.21898288,-2.0208998,1.2360758,0.12350775,-0.055685364,0.2315471,-1.4768494,-1.9393744
-0.2,0.10000000000000003,0.8999999999999999,0.0,0.0,0,-0.92435926,-0.77536905,2.7975821,-0.05843688,0.10892198,1.5491034,-0.19439162,-2.0931394,1.1685985,0.21915787,0.005976605,0.47739482,-1.426239,0.46239105
-0.2,0.10000000000000003,0.8999999999999999,0.0,0.0,0,-0.92435306,-0.75286746,2.8118951,-0.07536201,0.11880074,1.5457408,-0.1893338,-1.8867718,1.1845824,-0.17507786,-0.103426725,0.3104258,-1.4421164,0.6826199
-0.2,0.10000000000000003,0.8999999999999999,0.0,0.0,0,-0.924149,-0.76578563,2.8064985,-0.07360905,0.1266614,1.549688,-0.21106017,-2.030784,1.2308176,0.07540747,-0.0709034,0.46481007,-1.5243493,-0.593392
-0.2,0.10000000000000003,0.8999999999999999,0.0,0.0,0,-0.91995144,-0.72329646,2.8045356,-0.075738445,0.098740734,1.5454004,-0.22281227,-1.8531915,1.2479556,-0.2223437,-0.084587485,0.308852,-1.4790353,-0.4154288
-0.2,0.10000000000000003,0.8999999999999999,0.0,0.0,0,-0.92703694,-0.74560094,2.8018446,-0.07477902,0.10488937,1.5542208,-0.21256895,-1.7961253,1.1333001,-0.20376334,-0.13293621,0.4755876,-1.4488548,0.25968385
-0.2,0.10000000000000003,0.8999999999999999,0.0,0.0,0,-0.9186084,-0.6878365,2.8005774,-0.07727472,0.11981906,1.5475417,-0.19975424,-1.8160441,1.2872462,-0.20575497,-0.01776106,0.42449072,-1.5089588,-0.6118779
-0.2,0.10000000000000003,0.8999999999999999,0.0,0.0,0,-0.92485493,-0.737587,2.8017073,-0.079340324,0.12219846,1.5514647,-0.1994708,-2.0678124,1.193832,0.123112954,-0.046527024,0.23170511,-1.432962,-0.55270636
-0.2,0.10000000000000003,0.8999999999999999,0.0,0.0,0,-0.9270986,-0.772477,2.8010433,-0.07392148,0.11723259,1.5498978,-0.22125255,-2.0911872,1.1548685,0.083933726,-0.17143524,0.61857265,-1.4378594,-0.7358513
-0.2,0.10000000000000003,0.8999999999999999,0.0,0.0,0,-0.92592484,-0.74779445,2.815612,-0.08465782,0.10584957,1.5475117,-0.18986149,-2.0137327,1.3244847,0.23760246,-0.066812955,-0.02511657,-1.4504989,-0.019512186
-0.2,0.10000000000000003,0.8999999999999999,0.0,0.0,0,-0.9251378,-0.6990129,2.805978,-0.0733192,0.11358048,1.545418,-0.22661927,-0.89688885,1.2966797,0.17304686,-0.054810945,0.27919498,-1.5639391,0.13142475
-0.2,0.10000000000000003,0.8999999999999999,0.0,0.0,0,-0.91293156,-0.73325264,2.811194,-0.07106638,0.12173942,1.5466567,-0.22860372,-1.910434,1.1970044,-0.054091822,-0.023452364,0.58449143,-1.4905366,-0.38432547
-0.2,0.10000000000000003,0.8999999999999999,0.0,0.0,0,-0.92083913,-0.7286357,2.8095038,-0.06922235,0.11857344,1.543908,-0.21664119,-2.0683835,1.1215615,0.17331144,-0.13374718,0.2299718,-1.4902538,0.04173447
-0.2,0.10000000000000003,0.8999999999999999,0.0,0.0,0,-0.9231329,-0.74321073,2.7980359,-0.064234294,0.11216081,1.548133,-0.20223776,-1.9417294,1.2283703,0.1032151,-0.11688863,0.6098645,-1.451749,-0.9742201
-0.2,0.10000000000000003,0.8999999999999999,0.0,0.0,0,-0.9204397,-0.7680902,2.805385,-0.07420263,0.10966657,1.5530708,-0.21972547,-2.072178,1.1788028,0.10800063,-0.15169717,0.3787207,-1.4986322,-0.2018417
-0.2,0.10000000000000003,0.8999999999999999,0.0,0.0,0,-0.927947,-0.71583724,2.8057816,-0.0792365,0.11533909,1.5502404,-0.21265176,-2.0372803,1.223605,0.25691658,-0.07377505,0.69561714,-1.5178628,0.47007662
-0.2,0.10000000000000003,0.8999999999999999,0.0,0.0,0,-0.9139689,-0.75079954,2.8012993,-0.06769469,0.12410412,1.5495222,-0.18909055,-1.9706084,1.2320873,-0.018106516,-0.09777602,0.389479,-1.5026958,-0.16641246
-0.2,0.10000000000000003,0.8999999999999999,0.0,0.0,0,-0.9245998,-0.71488905,2.8025112,-0.080119915,0.11327707,1.5529603,-0.20707382,-1.8150824,1.1865364,-0.02258244,-0.07315152,0.32416797,-1.4496901,0.16349927
-0.2,0.10000000000000003,0.8999999999999999,0.0,0.0,0,-0.921863,-0.7563091,2.808053,-0.07716186,0.11086983,1.5495125,-0.19612257,-1.792531,1.2602578,-0.2571493,-0.09722845,0.4113355,-1.477834,-0.28363404
-0.2,0.10000000000000003,0.8999999999999999,0.0,0.0,0,-0.92314106,-0.71335727,2.8140244,-0.076422974,0.117938176,1.5511873,-0.21573737,-2.1191351,1.301322,0.24364917,-0.1433457,0.41409472,-1.4278011,0.78929186
-0.2,0.10000000000000003,0.8999999999999999,0.0,0.0,0,-0.9295151,-0.77632284,2.8008614,-0.057159923,0.095650256,1.5489795,-0.20762356,-1.9708116,1.1683518,-0.031627953,-0.09432389,0.47253713,-1.5423487,-1.0823201
-0.2,0.10000000000000003,0.8999999999999999,0.0,0.0,0,-0.9260307,-0.7509158,2.8038547,-0.066102244,0.11411317,1.5551099,-0.19038644,-2.1201274,1.1507366,0.17843391,-0.063230835,0.47623253,-1.4476315,-0.40918761
-0.2,0.10000000000000003,0.8999999999999999,0.0,0.0,0,-0.9291344,-0.7140298,2.804168,-0.07546341,0.11814489,1.5499516,-0.20683122,-1.5408498,1.1661052,-0.4130592,-0.0227754,0.5884646,-1.4970143,-1.0059762
-0.2,0.10000000000000003,0.8999999999999999,0.0,0.0,0,-0.91552967,-0.738901,2.7985647,-0.073857255,0.119284704,1.5504123,-0.20120841,-1.3179703,1.1808685,-0.24530353,-0.23866451,0.37832728,-1.4262408,-0.020062866
-0.2,0.10000000000000003,0.8999999999999999,0.0,0.0,0,-0.92108077,-0.71699697,2.8069468,-0.07997416,0.101243705,1.5453821,-0.1969145,-1.9135038,1.2105217,-0.06778215,-0.21010596,0.9454526,-1.48979,-0.5471117
-0.2,0.10000000000000003,0.8999999999999999,0.0,0.0,0,-0.92314917,-0.7538271,2.8041108,-0.07541735,0.112219125,1.5489976,-0.23652992,-1.9819313,1.1591542,0.17855774,-0.040140487,0.42252612,-1.4698911,-1.6172477
-0.2,0.10000000000000003,0.8999999999999999,0.0,0.0,0,-0.9233344,-0.7347348,2.8074338,-0.076080665,0.112810634,1.5431677,-0.22835922,-1.6046714,1.1651402,-0.04753155,-0.2644663,0.5636972,-1.5111272,-0.44146305
-0.2,0.10000000000000003,0.8999999999999999,0.0,0.0,0,-0.9220284,-0.78248495,2.8037016,-0.06994119,0.11480734,1.5506643,-0.20648581,-1.9732113,1.2878425,0.02258507,0.010567,0.5531724,-1.4552764,-0.46446222
-0.2,0.10000000000000003,0.8999999999999999,0.0,0.0,0,-0.9245656,-0.7668054,2.8010094,-0.08049557,0.108249515,1.5529665,-0.20394091,-2.09861,1.1674556,0.17366345,-0.12020518,0.56667686,-1.458304,-0.8892619
-0.2,0.10000000000000003,0.8999999999999999,0.0,0.0,0,-0.93216676,-0.7418156,2.8039727,-0.07296936,0.1094992,1.5439534,-0.18714353,-1.9589409,1.2618219,0.19177362,-0.08518958,0.722895,-1.4425244,-1.3504987
-0.2,0.10000000000000003,0.8999999999999999,0.0,0.0,0,-0.9285599,-0.75265014,2.7973711,-0.07628407,0.10757062,1.5436921,-0.20824808,-1.7389997,1.1591276,-0.04878782,-0.00405148,0.43939316,-1.4444962,0.1520995
-0.2,0.10000000000000003,0.8999999999999999,0.0,0.0,0,-0.92289984,-0.74462736,2.8004744,-0.07087576,0.12700143,1.5442308,-0.19043611,-1.9318326,1.1099674,-0.054234322,-0.11296909,0.42617378,-1.4955575,-0.2589736
-0.2,0.10000000000000003,0.8999999999999999,0.0,0.0,0,-0.92484784,-0.7689804,2.8083448,-0.08316945,0.114127554,1.544644,-0.20004062,-1.933386,1.1755743,0.08974262,-0.07501791,0.37557563,-1.3986275,0.13099217
-0.2,0.10000000000000003,0.8999999999999999,0.0,0.0,0,-0.91668755,-0.7481989,2.8031003,-0.07552421,0.11836734,1.5477396,-0.20725743,-1.8725635,1.2125148,0.043363295,-0.13589558,0.35087278,-1.4989502,-0.6906207
-0.2,0.10000000000000003,0.8999999999999999,0.0,0.0,0,-0.92360365,-0.72580874,2.8060055,-0.0771275,0.10677691,1.5514102,-0.21008626,-1.9364936,1.1953743,0.047974907,-0.03391124,0.093743816,-1.4513437,-0.12709796
-0.2,0.10000000000000003,0.8999999999999999,0.0,0.0,0,-0.9210894,-0.7684371,2.8085835,-0.08740797,0.10048871,1.55083,-0.19251788,-1.4914157,1.2525297,0.18682675,-0.12655449,0.3419572,-1.5092431,0.024497092
-0.2,0.10000000000000003,0.8999999999999999,0.0,0.0,0,-0.9262444,-0.7501939,2.8056064,-0.084721066,0.13177171,1.5461572,-0.19473356,-2.031909,1.1337465,0.04059616,-0.16097204,0.49494448,-1.5579044,0.18888742
-0.2,0.10000000000000003,0.8999999999999999,0.0,0.0,0,-0.9303801,-0.7665534,2.8041422,-0.07438795,0.124940045,1.5489793,-0.21198572,-1.9953473,1.195816,0.068668574,0.02302736,0.114224054,-1.4399732,-0.6841641
-0.2,0.10000000000000003,0.8999999999999999,0.0,0.0,0,-0.91951925,-0.7668932,2.8018456,-0.07204822,0.11232894,1.5456421,-0.19555931,-1.8131496,1.1954528,-0.34426886,-0.17042042,0.41906556,-1.4125105,0.48833126
-0.2,0.10000000000000003,0.8999999999999999,0.0,0.0,0,-0.92123353,-0.75804645,2.8112464,-0.0681586,0.10765056,1.5469468,-0.23705995,-1.9020498,1.1747917,-0.12728277,-0.14158207,0.22810563,-1.4728419,0.18561225
-0.2,0.10000000000000003,0.8999999999999999,0.0,0.0,0,-0.9271037,-0.7509652,2.805127,-0.0746643,0.11203794,1.5425152,-0.19813871,-1.9707942,1.2068297,0.0037670203,-0.22002137,0.46308962,-1.4282632,-0.80177397
-0.2,0.10000000000000003,0.8999999999999999,0.0,0.0,0,-0.9165836,-0.77268964,2.8022113,-0.08102777,0.108463906,1.5391958,-0.20743811,-1.8567727,1.1285454,-0.1773169,-0.084956825,0.46469343,-1.4977229,-0.48960057
-0.2,0.10000000000000003,0.8999999999999999,0.0,0.0,0,-0.92089474,-0.7618715,2.8061635,-0.069609575,0.11259754,1.5515004,-0.21377446,-2.0400624,1.2705684,0.24140367,-0.13022701,0.33165312,-1.4429383,0.0051482203
-0.2,0.10000000000000003,0.8999999999999999,0.0,0.0,0,-0.91867197,-0.7606818,2.8082912,-0.0738445,0.10978181,1.5485042,-0.18913893,-2.0767052,1.1686591,0.09057002,-0.18806988,0.5741225,-1.5064639,-0.461345
-0.2,0.10000000000000003,0.8999999999999999,0.0,0.0,0,-0.9247663,-0.75436676,2.804454,-0.072459586,0.10116079,1.5438296,-0.18749575,-1.6280662,1.1438272,-0.2682874,-0.008108622,0.5777648,-1.4829211,-1.2639434
-0.2,0.10000000000000003,0.8999999999999999,0.0,0.0,0,-0.93747276,-0.78138345,2.7964857,-0.08585961,0.10795325,1.5538313,-0.20014873,-1.9853027,1.193645,0.14196075,-0.17490093,0.046507325,-1.471636,0.21927693
-0.2,0.10000000000000003,0.8999999999999999,0.0,0.0,0,-0.92209136,-0.77679485,2.8099256,-0.0682746,0.10695667,1.54353,-0.19260706,-1.9002998,1.2538157,0.10264296,-0.08654575,0.3038015,-1.4750324,-0.5047462
-0.2,0.10000000000000003,0.8999999999999999,0.0,0.0,0,-0.9196113,-0.6863763,2.809634,-0.071806796,0.10409534,1.550893,-0.21689343,-1.8106155,1.1585171,-0.08174398,-0.1587434,0.4322179,-1.4897425,-0.22225294
-0.2,0.10000000000000003,0.8999999999999999,0.0,0.0,0,-0.9161599,-0.7595298,2.8037193,-0.06311247,0.113165736,1.544599,-0.20955768,-1.8952786,1.1574472,-0.072285265,-0.066517405,0.6496547,-1.5052392,-1.1630201
-0.2,0.10000000000000003,0.8999999999999999,0.0,0.0,0,-0.91992,-0.80642635,2.8057895,-0.068611056,0.098351896,1.5413522,-0.21771398,-1.8261617,1.2274255,-0.056633305,-0.033426788,0.39381865,-1.469452,-0.31675193
-0.2,0.10000000000000003,0.8999999999999999,0.0,0.0,0,-0.9158396,-0.7680237,2.8041115,-0.066568196,0.11165609,1.54315,-0.19289608,-2.0857527,1.2568303,0.09100798,-0.19080365,-0.12787789,-1.5061365,0.49508348
-0.2,0.10000000000000003,0.8999999999999999,0.0,0.0,0,-0.9243879,-0.7287204,2.804989,-0.07251079,0.108162545,1.5519264,-0.19029531,-1.9227117,1.1163145,0.14448014,0.04533366,0.45512602,-1.4759682,-0.58300203
-0.2,0.10000000000000003,0.8999999999999999,0.0,0.0,0,-0.9201028,-0.74801993,2.8031924,-0.06774093,0.096946955,1.5475155,-0.22077146,-1.9629235,1.1860619,-0.080544844,-0.14013761,0.19215217,-1.4797475,0.035494242
-0.2,0.10000000000000003,0.8999999999999999,0.0,0.0,0,-0.9235721,-0.74139255,2.8098068,-0.06853742,0.10875163,1.5416005,-0.20900804,-1.890238,1.2232506,-0.095929936,-0.13218504,0.42477736,-1.5596524,0.23748654
-0.2,0.10000000000000003,0.8999999999999999,0.0,0.0,0,-0.9182031,-0.73800445,2.796881,-0.08437908,0.122763574,1.5426944,-0.17930023,-1.96554,1.2145925,0.07031857,-0.1359162,0.46257764,-1.5102617,0.43420357
-0.2,0.10000000000000003,0.8999999999999999,0.0,0.0,0,-0.9180651,-0.74697465,2.8017275,-0.064951345,0.10631136,1.548503,-0.21582669,-1.9284848,1.1043643,-0.064025365,-0.12968941,0.5949482,-1.4895847,-0.17915137
-0.2,0.10000000000000003,0.8999999999999999,0.0,0.0,0,-0.92184347,-0.7394094,2.8102944,-0.07076072,0.09098499,1.5483578,-0.20858271,-1.7389243,1.1831322,-0.26038578,-0.12432106,0.5613659,-1.5161829,-0.52521455
-0.2,0.10000000000000003,0.8999999999999999,0.0,0.0,0,-0.9265126,-0.74204123,2.8055484,-0.07470374,0.09590131,1.5523504,-0.22060889,-1.7571331,1.2473948,-0.20324986,-0.113220766,0.37267485,-1.4646344,-1.739113
-0.2,0.10000000000000003,0.8999999999999999,0.0,0.0,0,-0.9184982,-0.7452213,2.8029728,-0.08572057,0.10891673,1.5473251,-0.21339928,-1.7503998,1.1364833,-0.3551206,-0.07425922,0.33383763,-1.5115547,-0.54300123
-0.2,0.10000000000000003,0.8999999999999999,0.0,0.0,0,-0.9173793,-0.7554573,2.8088636,-0.08061723,0.100598454,1.5487622,-0.21593706,-1.9205086,1.2096393,-0.051955633,-0.12946123,0.4033545,-1.4230677,-0.8021953
-0.2,0.10000000000000003,0.8999999999999999,0.0,0.0,0,-0.92386794,-0.7529141,2.803643,-0.06586094,0.1025285,1.5446038,-0.2554674,-1.6158345,1.1773521,0.07500332,-0.1737567,0.5343558,-1.4802909,-0.5499335
-0.2,0.10000000000000003,0.8999999999999999,0.0,0.0,0,-0.92399675,-0.75468415,2.7959723,-0.074658275,0.11037549,1.5407348,-0.20983766,-1.7949809,1.2071801,-0.08185894,-0.08217857,0.4548564,-1.455587,-0.11979731
-0.2,0.10000000000000003,0.8999999999999999,0.0,0.0,0,-0.92004806,-0.7685772,2.8098726,-0.07783598,0.11484986,1.5534413,-0.22205907,-1.9484124,1.219487,0.03727131,-0.13069649,0.38393945,-1.4554594,0.90656716
-0.2,0.10000000000000003,0.8999999999999999,0.0,0.0,0,-0.9312827,-0.7564592,2.801189,-0.078961246,0.10629182,1.5458484,-0.20366502,-1.7871176,1.1756252,-0.20271872,-0.10217547,0.64584756,-1.516101,-0.4565411
-0.2,0.10000000000000003,0.8999999999999999,0.0,0.0,0,-0.9150277,-0.7551418,2.8091948,-0.07474996,0.12893225,1.5482146,-0.19817877,-1.6182278,1.3302455,-0.39420778,0.01572323,0.425231,-1.512043,-0.5849886
-0.2,0.10000000000000003,0.8999999999999999,0.0,0.0,0,-0.92729926,-0.7534205,2.800433,-0.07042585,0.10099189,1.5429273,-0.21256156,-1.6877452,1.283142,-0.21381247,-0.04977041,0.6917838,-1.4592993,-0.5575704
-0.2,0.10000000000000003,0.8999999999999999,0.0,0.0,0,-0.9264522,-0.75747424,2.805702,-0.07615461,0.114849634,1.5483364,-0.21517134,-1.785758,1.2040433,-0.08901936,0.034672588,0.61984533,-1.510546,-0.56942075
-0.2,0.10000000000000003,0.8999999999999999,0.0,0.0,0,-0.9221092,-0.7616104,2.8041399,-0.068590306,0.1158153,1.5455048,-0.18792234,-1.8825037,1.1147987,0.046890635,-0.065186545,0.49120006,-1.4490217,-0.35600552
-0.2,0.10000000000000003,0.8999999999999999,0.0,0.0,0,-0.9166425,-0.76384467,2.8022897,-0.077473715,0.10312915,1.5465096,-0.21728164,-1.9198918,1.1202213,0.049206454,-0.09162588,0.77285045,-1.4498936,-0.2936706
-0.2,0.10000000000000003,0.8999999999999999,0.0,0.0,0,-0.9171545,-0.7672425,2.807205,-0.06573663,0.110435195,1.5455021,-0.21858908,-2.2571917,1.1630871,0.4517615,-0.14578868,0.5252538,-1.5177304,-0.94182134
-0.2,0.10000000000000003,0.8999999999999999,0.0,0.0,0,-0.9248769,-0.74390966,2.7984974,-0.07687624,0.11154947,1.5452621,-0.20641764,-2.0275621,1.211247,0.0822061,-0.12473055,0.27406594,-1.5398976,0.7952443
-0.2,0.10000000000000003,0.8999999999999999,0.0,0.0,0,-0.9249567,-0.73414904,2.8068037,-0.06667551,0.1114992,1.5474389,-0.21025817,-1.8144394,1.2006723,-0.16378918,-0.11412179,0.50378144,-1.4841179,0.49144647
-0.2,0.10000000000000003,0.8999999999999999,0.0,0.0,0,-0.9210849,-0.7605101,2.7973328,-0.080186434,0.115546,1.5520777,-0.21714005,-1.9553933,1.2638869,0.10372617,-0.011418655,0.29264343,-1.4348335,-0.3485275
