sanky1234/BimanualDexCatch/isaacgymenvs/cem_results/football_pose_0.0_0.1_0.7_0.0_-0.5235987755982988_0_2025-05-26.csv
x,y,z,roll,pitch,yaw,robot1/joint1,robot1/joint2,robot1/joint3,robot1/joint4,robot1/joint5,robot1/joint6,robot1/joint7,robot2/joint1,robot2/joint2,robot2/joint3,robot2/joint4,robot2/joint5,robot2/joint6,robot2/joint7
0.0,0.1,0.7,0.0,-0.5235987755982988,0,-0.044425983,1.3638258,-0.12177069,0.07218678,0.021809453,1.5082802,-0.32944483,0.4526577,-1.6300782,0.061457947,-0.005995211,0.00060865434,1.106034,1.0510852
0.0,0.1,0.7,0.0,-0.5235987755982988,0,-0.042405985,1.362995,-0.12537333,0.07255244,0.033430126,1.5097516,-0.39747733,-0.6632805,-1.6798819,-0.8293765,-0.024872866,-0.043711793,1.3090639,-0.36264086
0.0,0.1,0.7,0.0,-0.5235987755982988,0,-0.039780106,1.3653327,-0.12217483,0.06877661,0.0109786475,1.5040302,-0.38572645,0.9277158,-1.7656721,-0.58960474,-0.027646944,0.14632615,1.1786672,0.75738335
0.0,0.1,0.7,0.0,-0.5235987755982988,0,-0.042429816,1.3618459,-0.122789316,0.07363825,0.041851155,1.5022525,-0.35291785,-1.1018184,-1.6436257,0.26404026,-0.060166296,-0.09093339,1.1003549,0.2601275
0.0,0.1,0.7,0.0,-0.5235987755982988,0,-0.04284418,1.366189,-0.11997859,0.07022875,0.007945099,1.5024496,-0.3829346,-0.19392322,-1.662586,-0.036092494,-0.05123199,0.120289765,1.1315194,0.56218415
0.0,0.1,0.7,0.0,-0.5235987755982988,0,-0.043694288,1.3671712,-0.11827828,0.07095566,0.021491244,1.5080042,-0.3838175,-0.5761202,-1.572868,-0.16306873,0.024648957,-0.16759595,1.2033768,1.521306
0.0,0.1,0.7,0.0,-0.5235987755982988,0,-0.039787333,1.3632239,-0.12097045,0.074545905,0.0062653343,1.505134,-0.37596822,0.371565,-1.695902,-0.77481097,-0.067720026,-0.063288674,1.2202618,0.5317846
0.0,0.1,0.7,0.0,-0.5235987755982988,0,-0.04543084,1.3646349,-0.11704756,0.070733055,0.048191447,1.5137614,-0.33877793,-0.32324,-1.7348356,-0.93806416,-0.041615155,-0.063913055,1.167916,0.87934124
0.0,0.1,0.7,0.0,-0.5235987755982988,0,-0.04499673,1.3642578,-0.12395617,0.072170764,0.017077204,1.5028585,-0.3154118,-0.64649564,-1.6880177,0.14018145,-0.0525368,-0.003123928,1.2018474,-1.6558754
0.0,0.1,0.7,0.0,-0.5235987755982988,0,-0.04806511,1.363742,-0.115354225,0.07095324,0.03646451,1.5038607,-0.3604736,0.60514104,-1.656882,-0.011573053,-0.0445877,0.03934289,1.1477792,0.61372334
0.0,0.1,0.7,0.0,-0.5235987755982988,0,-0.04765974,1.3667864,-0.11948679,0.07126207,0.033387948,1.5079997,-0.30352134,-0.92859507,-1.6469605,-0.2786345,-0.09478528,-0.08614811,1.1236084,-0.354048
0.0,0.1,0.7,0.0,-0.5235987755982988,0,-0.053431366,1.365228,-0.12046883,0.0719667,0.010501628,1.4988494,-0.32281208,-0.48644012,-1.6913738,-0.14754954,-0.112971805,-0.18965596,1.1309412,-0.6525476
0.0,0.1,0.7,0.0,-0.5235987755982988,0,-0.04061684,1.3660668,-0.11500017,0.07258177,0.032366384,1.5105067,-0.35575366,-1.3318644,-1.6960541,-0.7065633,-0.059560835,-0.28237507,1.1296734,0.82578564
0.0,0.1,0.7,0.0,-0.5235987755982988,0,-0.049290713,1.365134,-0.116287515,0.07273602,0.0359162,1.5061646,-0.37059617,0.6770967,-1.6901613,-0.4185428,0.027728852,-0.14933625,1.2363096,0.20522086
0.0,0.1,0.7,0.0,-0.5235987755982988,0,-0.03793201,1.3662385,-0.12516926,0.072534434,0.019724727,1.4944795,-0.3676008,-0.7002453,-1.5685004,0.95044243,-0.09219913,-0.046390906,1.2414184,-0.48481575
0.0,0.1,0.7,0.0,-0.5235987755982988,0,-0.040286522,1.3644527,-0.11770628,0.07268862,0.026368603,1.5015342,-0.33674222,0.25480542,-1.7110195,-0.5065913,-0.022912716,-0.0530262,1.2207208,-0.6278927
0.0,0.1,0.7,0.0,-0.5235987755982988,0,-0.039259925,1.3677229,-0.12033681,0.06905602,0.020117082,1.5059505,-0.34113,0.14814559,-1.6617254,0.67623425,-0.047219805,-0.11978135,1.2373447,0.49288458
0.0,0.1,0.7,0.0,-0.5235987755982988,0,-0.047308896,1.3656949,-0.12022216,0.072887875,0.032441724,1.5138599,-0.24848133,-0.71471983,-1.6455097,-0.1510867,-0.051504593,0.14745976,1.2980727,0.0014732834
0.0,0.1,0.7,0.0,-0.5235987755982988,0,-0.039731182,1.365232,-0.12468914,0.07488346,0.047175795,1.5028354,-0.39572605,-0.31342942,-1.7123235,0.6063468,-0.074110545,-0.13652909,1.0295788,-1.113049
0.0,0.1,0.7,0.0,-0.5235987755982988,0,-0.04362841,1.3645202,-0.12174501,0.072412334,0.018114014,1.4955724,-0.3377722,0.33517793,-1.6379672,-0.25859928,-0.07588563,-0.05321856,1.2297701,0.4254305
0.0,0.1,0.7,0.0,-0.5235987755982988,0,-0.043491304,1.3678905,-0.121335156,0.071097225,0.04893747,1.4960079,-0.32392865,-0.27728784,-1.7480224,0.4650133,-0.06495904,0.06724066,1.1543633,-1.5205312
0.0,0.1,0.7,0.0,-0.5235987755982988,0,-0.04198488,1.3681941,-0.12063203,0.0695078,0.022334874,1.5053918,-0.36742237,0.94570893,-1.6413637,-0.69459456,-0.061929256,-0.02870966,1.2337377,-0.44169837
0.0,0.1,0.7,0.0,-0.5235987755982988,0,-0.03792984,1.3669349,-0.11929618,0.07296868,0.018835748,1.4984496,-0.2903762,-0.72326946,-1.6327789,-0.74694216,-0.0989586,-0.19960877,1.0591086,0.3286148
0.0,0.1,0.7,0.0,-0.5235987755982988,0,-0.036667075,1.3663298,-0.12087087,0.071964,0.02625679,1.5059323,-0.299044,-0.14752106,-1.6584786,0.55348104,-0.020900136,0.1787846,1.2908303,-1.1027924
0.0,0.1,0.7,0.0,-0.5235987755982988,0,-0.044106673,1.3641243,-0.11961857,0.070287146,0.049955305,1.5080267,-0.39406523,-0.4769266,-1.6923662,0.5329863,-0.057402477,0.10056971,1.1061037,2.3329294
0.0,0.1,0.7,0.0,-0.5235987755982988,0,-0.040328864,1.3656355,-0.12110168,0.07219414,0.024794864,1.5022788,-0.38936663,0.2601218,-1.5422661,-0.8772422,-0.064681396,0.009465284,1.1616627,1.520123
0.0,0.1,0.7,0.0,-0.5235987755982988,0,-0.042290654,1.3655599,-0.116744645,0.07255319,0.059505776,1.5089998,-0.3336666,-0.2732128,-1.7230127,1.0242356,-0.07303562,0.059131294,1.185631,0.34992427
0.0,0.1,0.7,0.0,-0.5235987755982988,0,-0.045417104,1.3662277,-0.11965621,0.070914045,0.020701993,1.5089175,-0.37154555,0.15333416,-1.7118021,-1.1326938,-0.044024993,0.11522895,1.1357282,-1.1316302
0.0,0.1,0.7,0.0,-0.5235987755982988,0,-0.043154646,1.3672366,-0.12267764,0.07315323,0.034757834,1.5025216,-0.3287971,-0.74818647,-1.706529,-0.98136395,-0.12672116,0.09082748,1.30274,-0.45002443
0.0,0.1,0.7,0.0,-0.5235987755982988,0,-0.044074584,1.3640059,-0.12911674,0.07239512,0.042277943,1.5133384,-0.35688147,-0.6609098,-1.62211,0.3885717,-0.035199437,0.011513874,1.2721541,-0.63883805
0.0,0.1,0.7,0.0,-0.5235987755982988,0,-0.044178788,1.3634454,-0.123741224,0.07286016,0.03929456,1.5064031,-0.2986829,-0.12057929,-1.7160044,-0.330235,-0.06883815,-0.13237129,1.1087111,-0.5773348
0.0,0.1,0.7,0.0,-0.5235987755982988,0,-0.041457035,1.3658717,-0.12530965,0.07188883,0.024598032,1.5096862,-0.3337119,-0.29082322,-1.6594758,-1.230306,-0.023207748,-0.049009424,1.1986159,0.16543356
0.0,0.1,0.7,0.0,-0.5235987755982988,0,-0.043802127,1.3657924,-0.11993357,0.072725356,0.027684292,1.5048089,-0.32671422,0.30484614,-1.6489286,-0.14922573,-0.1564613,-0.029806146,1.3476067,0.9820552
0.0,0.1,0.7,0.0,-0.5235987755982988,0,-0.046163883,1.3640621,-0.11535944,0.07301894,0.016915563,1.5115577,-0.3734058,0.18807824,-1.66312,0.02446218,-0.060064137,-0.11003975,1.242072,0.007943949
0.0,0.1,0.7,0.0,-0.5235987755982988,0,-0.044328764,1.3645096,-0.12020268,0.07174665,0.024848452,1.4991562,-0.31831658,0.15344733,-1.6929197,-0.25717428,-0.13060956,0.06015337,1.2044947,-1.3970942
0.0,0.1,0.7,0.0,-0.5235987755982988,0,-0.041278567,1.3646599,-0.121462345,0.06969244,0.02055186,1.5035348,-0.4045752,0.22985628,-1.7320417,0.64938676,-0.082932964,0.12004399,1.2024313,1.3034407
0.0,0.1,0.7,0.0,-0.5235987755982988,0,-0.042280667,1.3646536,-0.12141233,0.07376171,0.02559153,1.5000832,-0.353161,0.37985593,-1.6400142,-0.3724602,-0.014498639,0.022693863,1.1215036,0.5483605
0.0,0.1,0.7,0.0,-0.5235987755982988,0,-0.041327655,1.3659477,-0.12309911,0.07141893,0.03944833,1.5042903,-0.37561157,-0.11056693,-1.5928648,-0.30043277,-0.06513558,-0.15163459,1.1275924,-1.2989895
0.0,0.1,0.7,0.0,-0.5235987755982988,0,-0.04259665,1.3684633,-0.11797861,0.070435196,0.03109011,1.5160164,-0.37291858,0.6823907,-1.5912656,0.2629225,0.05304239,-0.13571496,1.1628095,-0.075572036
0.0,0.1,0.7,0.0,-0.5235987755982988,0,-0.04342149,1.3656816,-0.11899248,0.07136745,0.02267157,1.5083467,-0.3185391,0.27617145,-1.7295034,-0.764181,-0.031344432,-0.03472019,1.2779979,-1.1796935
0.0,0.1,0.7,0.0,-0.5235987755982988,0,-0.045006398,1.3667048,-0.12175271,0.07337936,0.039460257,1.4988471,-0.31251988,-0.2133922,-1.6108449,-0.47919053,-0.12899455,-0.074029274,1.0778474,-0.49302295
0.0,0.1,0.7,0.0,-0.5235987755982988,0,-0.044182763,1.3631835,-0.12786168,0.07118782,0.05260777,1.5068964,-0.41451183,-0.29282343,-1.6578692,-0.3224388,-0.09504702,0.08535135,1.2104228,-0.34774163
0.0,0.1,0.7,0.0,-0.5235987755982988,0,-0.04216655,1.3669381,-0.11591995,0.07160428,0.036486994,1.4964594,-0.31437957,0.19822979,-1.6588519,-0.37316754,-0.07195938,0.09876325,1.0747299,0.1299361
0.0,0.1,0.7,0.0,-0.5235987755982988,0,-0.042706124,1.3659285,-0.120488994,0.07136379,0.015212305,1.5012004,-0.3137572,-0.45870307,-1.784222,0.32980195,-0.07037136,0.089364894,1.0555457,0.9904751
0.0,0.1,0.7,0.0,-0.5235987755982988,0,-0.039565288,1.3641211,-0.11845632,0.06950643,0.014658335,1.508191,-0.36568674,1.3594958,-1.731918,-0.025087593,-0.08246401,-0.118273266,1.1227958,-2.1304853
0.0,0.1,0.7,0.0,-0.5235987755982988,0,-0.04684984,1.3630208,-0.11965859,0.07198813,0.016597355,1.5143967,-0.38049883,-0.99524665,-1.7056067,-0.47489092,-0.033749677,-0.0648379,1.1182629,0.65800965
0.0,0.1,0.7,0.0,-0.5235987755982988,0,-0.045665804,1.3668216,-0.120637454,0.06845779,0.019810556,1.507601,-0.3244049,-0.5734501,-1.7506832,-0.08439837,-0.06381134,0.04112767,1.1480632,0.6169565
0.0,0.1,0.7,0.0,-0.5235987755982988,0,-0.04081218,1.3650599,-0.122470215,0.07318474,0.03947061,1.5001782,-0.32119924,0.27643234,-1.645966,0.10527089,-0.027287774,-0.14615329,1.1476772,-0.27157706
0.0,0.1,0.7,0.0,-0.5235987755982988,0,-0.045094922,1.365996,-0.11824536,0.07118708,0.015947055,1.5069548,-0.35194296,-1.3371378,-1.7281419,0.9603887,-0.10714014,0.09005914,1.1667478,0.38395703
0.0,0.1,0.7,0.0,-0.5235987755982988,0,-0.044063523,1.3650624,-0.1175174,0.0706994,0.039991584,1.5043359,-0.36700475,0.028471608,-1.7315639,-0.22607149,-0.11536935,-0.010068671,1.1253556,0.7650194
0.0,0.1,0.7,0.0,-0.5235987755982988,0,-0.046262056,1.3679452,-0.11904075,0.07166685,0.015930776,1.5038686,-0.31965137,-0.08690196,-1.6315953,-0.26455748,-0.07082528,-0.011566263,1.2633334,0.1393135
0.0,0.1,0.7,0.0,-0.5235987755982988,0,-0.043662895,1.3629737,-0.12380659,0.07254389,0.041647628,1.5057547,-0.4078154,-0.50557935,-1.6474112,-0.62308985,-0.08236664,-0.06423792,1.1693302,-0.64651304
0.0,0.1,0.7,0.0,-0.5235987755982988,0,-0.042375017,1.3672487,-0.119773775,0.07214925,0.025225949,1.515814,-0.3975903,0.4626673,-1.6059635,-1.5207525,0.031588417,0.056311376,1.0831363,-0.28283882
0.0,0.1,0.7,0.0,-0.5235987755982988,0,-0.041610897,1.364168,-0.11945892,0.07122685,0.031059522,1.5188495,-0.3827564,-0.20974927,-1.6697311,-0.24897043,-0.055024173,-0.05660867,1.0609939,-0.3906661
0.0,0.1,0.7,0.0,-0.5235987755982988,0,-0.04185203,1.3657188,-0.120921284,0.074915394,0.052137803,1.5014116,-0.40903616,-0.74385387,-1.5900167,-0.40125695,-0.04992143,-0.14224005,1.1028352,0.79955256
0.0,0.1,0.7,0.0,-0.5235987755982988,0,-0.0489585,1.3667605,-0.117227904,0.06968693,0.036518745,1.5121372,-0.32481244,-0.035042457,-1.6589303,0.28297108,-0.04172203,-0.13474956,1.1351928,-1.2992804
0.0,0.1,0.7,0.0,-0.5235987755982988,0,-0.04113409,1.3624147,-0.11912056,0.07326867,0.045130502,1.5063982,-0.40836945,-0.33005333,-1.7303872,0.1889802,-0.13454598,-0.014748681,1.0661039,0.5170156
0.0,0.1,0.7,0.0,-0.5235987755982988,0,-0.043817416,1.3645854,-0.1267409,0.07355843,0.04423933,1.5112404,-0.39743042,0.63989246,-1.6402307,0.4998654,-0.06539031,-0.055186193,1.1587166,-2.1933029
0.0,0.1,0.7,0.0,-0.5235987755982988,0,-0.04779972,1.36459,-0.12030038,0.073117584,0.029920487,1.5036389,-0.40295774,0.12653354,-1.6099454,-0.7812832,-0.0520986,0.020607227,1.269956,0.9203684
0.0,0.1,0.7,0.0,-0.5235987755982988,0,-0.04601048,1.363049,-0.11770075,0.07276957,0.043556932,1.5105361,-0.3555907,-0.5275513,-1.6713966,0.19855204,-0.06190992,-0.119411446,1.1099,-1.0608095
0.0,0.1,0.7,0.0,-0.5235987755982988,0,-0.043641366,1.36804,-0.12767266,0.072125375,0.030372096,1.5155965,-0.32932922,0.8487542,-1.6434335,-0.034781147,-0.06921329,-0.17052296,1.3274728,-0.72891736
0.0,0.1,0.7,0.0,-0.5235987755982988,0,-0.041787867,1.3664356,-0.12255666,0.06953487,0.00883492,1.5039905,-0.33740607,0.82016206,-1.7840279,-0.17189741,-0.11680305,0.0072104167,1.1381218,0.36943406
0.0,0.1,0.7,0.0,-0.5235987755982988,0,-0.045056917,1.3639714,-0.119738415,0.072840236,0.035821877,1.5128825,-0.3725472,0.40978062,-1.7025132,-0.24070823,-0.08664842,-0.12674923,1.1752446,-0.3989615
0.0,0.1,0.7,0.0,-0.5235987755982988,0,-0.040405728,1.3669592,-0.123036005,0.06836885,0.015779367,1.5117272,-0.3278219,-1.0931206,-1.7743552,-0.067135,-0.017142713,-0.11658766,1.1273632,-0.6128446
0.0,0.1,0.7,0.0,-0.5235987755982988,0,-0.044954892,1.3646785,-0.1180898,0.07246629,0.046298943,1.5106685,-0.38212463,0.15608478,-1.729722,-0.50285876,-0.08296027,-0.013383709,1.0361154,0.69418573
0.0,0.1,0.7,0.0,-0.5235987755982988,0,-0.042520452,1.367844,-0.1198534,0.073527135,0.031079227,1.4979794,-0.27146074,-0.5467579,-1.6907736,-0.012963798,-0.054054268,-0.15365784,1.077412,-0.8452134
0.0,0.1,0.7,0.0,-0.5235987755982988,0,-0.043214105,1.3643736,-0.12587057,0.073167935,0.008807246,1.5012362,-0.4023394,-0.1685003,-1.6667173,0.54054624,-0.07557212,0.009824387,1.0550046,0.07455715
0.0,0.1,0.7,0.0,-0.5235987755982988,0,-0.040759135,1.3653605,-0.1236964,0.07124658,0.043497056,1.5042026,-0.3695396,0.13979666,-1.7072349,0.22032797,-0.0035835665,-0.12901956,1.0997504,-0.8230464
0.0,0.1,0.7,0.0,-0.5235987755982988,0,-0.04081301,1.3660563,-0.123391576,0.07408705,0.0017185383,1.4974188,-0.38939705,-0.04391975,-1.598671,-1.2578276,-0.115204066,0.096898355,1.1634008,-1.1071304
0.0,0.1,0.7,0.0,-0.5235987755982988,0,-0.04456637,1.3663443,-0.11922092,0.07085518,0.03762796,1.5059767,-0.33517438,0.4646045,-1.7270032,0.10216776,-0.054000672,-0.21325648,1.1444294,0.27862972
0.0,0.1,0.7,0.0,-0.5235987755982988,0,-0.04101526,1.3655237,-0.12745953,0.07383121,0.03985526,1.5048327,-0.2892189,-0.2963176,-1.6768504,-0.8007119,-0.014332851,-0.1317032,1.2368877,0.09552014
0.0,0.1,0.7,0.0,-0.5235987755982988,0,-0.043034486,1.3647523,-0.12285296,0.07033157,0.04431928,1.5092797,-0.3777661,0.06311811,-1.652266,-0.11662619,-0.08964218,-0.038569976,1.2444612,1.3040643
0.0,0.1,0.7,0.0,-0.5235987755982988,0,-0.042232145,1.3649818,-0.118343115,0.074293524,0.042341918,1.5004869,-0.3070731,-0.17683597,-1.6087353,-0.7689413,-0.07717078,-0.01758693,1.1544664,-0.9030085
0.0,0.1,0.7,0.0,-0.5235987755982988,0,-0.044534095,1.3682225,-0.12459666,0.070936136,0.05852916,1.5105431,-0.32209915,-0.18741168,-1.6257583,0.09182339,-0.07161015,-0.10700188,1.1279246,-0.38060012
0.0,0.1,0.7,0.0,-0.5235987755982988,0,-0.037433475,1.368799,-0.11658797,0.07127873,0.032127418,1.50608,-0.31636977,0.71808916,-1.6470085,-0.037608176,-0.09055039,-0.09385401,1.1765889,0.22496854
0.0,0.1,0.7,0.0,-0.5235987755982988,0,-0.04252612,1.3667369,-0.1226951,0.07310994,0.021550883,1.5078264,-0.40800798,-0.51391757,-1.7234234,-0.7743974,-0.15271853,-0.24199715,1.1706917,-0.2098389
0.0,0.1,0.7,0.0,-0.5235987755982988,0,-0.040414892,1.3666481,-0.11929652,0.07157312,0.004644687,1.5053178,-0.3548832,0.51985276,-1.6899474,-0.48325163,-0.03575578,-0.07732986,1.1723422,0.47937584
0.0,0.1,0.7,0.0,-0.5235987755982988,0,-0.045179475,1.365022,-0.12100552,0.07269141,0.037596148,1.502587,-0.4095779,-0.9115406,-1.7050359,0.030197995,-0.15133834,0.057090178,1.1404802,-0.88956946
0.0,0.1,0.7,0.0,-0.5235987755982988,0,-0.046307556,1.3652222,-0.12053815,0.07124616,0.021183746,1.5069267,-0.34771317,0.10768598,-1.791541,-0.071028836,-0.05451557,-0.1286174,1.0636361,-1.6656544
0.0,0.1,0.7,0.0,-0.5235987755982988,0,-0.03475312,1.3667468,-0.12264978,0.07095328,0.023582593,1.5025213,-0.42535546,0.47841358,-1.6478592,-0.08786812,-0.06330582,-0.112437114,1.0423375,-0.38395548
0.0,0.1,0.7,0.0,-0.5235987755982988,0,-0.04235127,1.3674623,-0.12690705,0.07232231,0.031452555,1.5030291,-0.36340237,1.0162562,-1.7097846,-0.8042938,-0.013081237,0.0021511372,1.2794338,0.6342458
0.0,0.1,0.7,0.0,-0.5235987755982988,0,-0.042721476,1.3677313,-0.12334105,0.07150296,0.031462133,1.5052756,-0.39289275,0.4401886,-1.6605123,-1.0842377,-0.056985646,-0.12427643,1.0977386,0.094794825
0.0,0.1,0.7,0.0,-0.5235987755982988,0,-0.04310349,1.3661819,-0.12224176,0.073545694,0.032369055,1.4981287,-0.37095416,0.31375167,-1.6391814,-0.32575816,-0.025801413,-0.027085949,1.099059,-2.13285
0.0,0.1,0.7,0.0,-0.5235987755982988,0,-0.04017036,1.3665475,-0.12032489,0.07218006,0.0387532,1.5091012,-0.35342085,0.8856667,-1.7300667,0.508941,-0.14367823,-0.15909252,1.2663198,-0.4139713
0.0,0.1,0.7,0.0,-0.5235987755982988,0,-0.044042993,1.3689352,-0.124255724,0.07243854,0.01826819,1.5113688,-0.28584418,0.14131239,-1.5973994,-1.3172697,-0.03848459,-0.21167956,1.1860429,0.6696057
0.0,0.1,0.7,0.0,-0.5235987755982988,0,-0.04953433,1.3655809,-0.11650145,0.07324623,0.043345213,1.5194503,-0.376879,-0.6930165,-1.6580504,-0.4404582,-0.072652936,-0.050211664,1.0298537,-0.175462
0.0,0.1,0.7,0.0,-0.5235987755982988,0,-0.04204376,1.3646028,-0.11950161,0.073501855,0.030051414,1.5179807,-0.3174871,0.778607,-1.6234565,-0.47615466,-0.08687413,-0.2507007,1.1986706,-0.66469955
0.0,0.1,0.7,0.0,-0.5235987755982988,0,-0.04474387,1.3671604,-0.12222704,0.06953368,0.029933829,1.5077956,-0.3553075,-0.17768027,-1.7138687,0.19856131,-0.12792356,0.08694485,1.1754532,0.43399012
0.0,0.1,0.7,0.0,-0.5235987755982988,0,-0.04322524,1.367761,-0.1226834,0.07057885,0.026675243,1.5056436,-0.35269386,-0.48030564,-1.7072774,-0.42583153,-0.044979308,-0.07162381,1.1235648,-1.075897
0.0,0.1,0.7,0.0,-0.5235987755982988,0,-0.04524077,1.3640134,-0.12312425,0.072566845,0.037123647,1.5072205,-0.3364376,-0.04042139,-1.7411761,-0.36649185,-0.10207282,-0.28269854,1.2074286,-0.5728505
0.0,0.1,0.7,0.0,-0.5235987755982988,0,-0.03907676,1.3641635,-0.12026509,0.074450545,0.027192129,1.4999654,-0.3669019,-0.15401717,-1.7024305,-0.20827764,-0.048688225,-0.18796195,1.0615357,0.9890318
0.0,0.1,0.7,0.0,-0.5235987755982988,0,-0.04158632,1.3643844,-0.12000782,0.07334859,0.030456947,1.5047737,-0.34233117,-1.0824527,-1.7457845,-0.44671288,-0.0691094,0.064227104,1.3895764,0.6261954
0.0,0.1,0.7,0.0,-0.5235987755982988,0,-0.04259451,1.3678788,-0.11816439,0.07036009,0.05095007,1.4989748,-0.28709385,0.4835205,-1.7444848,0.09096748,-0.05963553,-0.19970243,1.2117864,-1.0095036
0.0,0.1,0.7,0.0,-0.5235987755982988,0,-0.042652562,1.3640944,-0.12064155,0.07425745,0.009329864,1.5130026,-0.37854752,-1.0527806,-1.6249433,-0.04278019,-0.09487691,-0.20010827,1.1184231,-0.43063828
0.0,0.1,0.7,0.0,-0.5235987755982988,0,-0.045339014,1.365871,-0.11797436,0.07428557,0.045362934,1.4999439,-0.40889272,-0.7889935,-1.6514804,-0.42958662,-0.09126061,-0.10018895,1.0788417,1.0812076
0.0,0.1,0.7,0.0,-0.5235987755982988,0,-0.041912444,1.3660598,-0.11907291,0.071899064,0.04438861,1.4981328,-0.38278604,-0.11573808,-1.7223821,0.13501352,-0.07565227,-0.10532097,1.2499768,-1.290139
0.0,0.1,0.7,0.0,-0.5235987755982988,0,-0.041867554,1.364344,-0.11796682,0.07258665,0.03479987,1.499504,-0.3242593,0.11856666,-1.699572,-0.32407483,-0.12013227,-0.05122006,1.1975662,-0.8771175
0.0,0.1,0.7,0.0,-0.5235987755982988,0,-0.045636185,1.3691794,-0.1182398,0.07196516,0.0025694964,1.5033861,-0.40609944,0.45173827,-1.6330162,0.065481715,-0.0900558,-0.27076128,1.3475641,-0.2976519
0.0,0.1,0.7,0.0,-0.5235987755982988,0,-0.043019414,1.3661501,-0.11950446,0.07347264,0.017163077,1.5079639,-0.39947188,1.2754562,-1.8078197,-0.4450747,-0.05144515,-0.07827091,1.1250674,0.37160805
0.0,0.1,0.7,0.0,-0.5235987755982988,0,-0.042543933,1.3645626,-0.12375799,0.07577281,0.023394255,1.503666,-0.2638515,0.86858875,-1.6802586,-0.14296529,-0.04103471,0.046902586,1.3439107,-0.40652975
0.0,0.1,0.7,0.0,-0.5235987755982988,0,-0.04186654,1.3665826,-0.12230898,0.07092592,0.03111732,1.5005847,-0.41779912,0.63095915,-1.725507,-0.51797354,-0.13255027,0.2584122,1.1942723,-2.0791287
0.0,0.1,0.7,0.0,-0.5235987755982988,0,-0.041116666,1.3666027,-0.11900498,0.073285244,0.025941985,1.5122204,-0.34176418,0.6801646,-1.654752,-0.023046046,-0.07322059,-0.07771381,1.1433684,0.39089477
0.0,0.1,0.7,0.0,-0.5235987755982988,0,-0.044775568,1.3639802,-0.12175862,0.07264446,0.03486775,1.5070448,-0.49722242,-1.3247528,-1.6717762,0.034290105,-0.088536724,-0.25985,1.1655395,-0.20044835
0.0,0.1,0.7,0.0,-0.5235987755982988,0,-0.04308866,1.3656716,-0.121686585,0.07254768,0.03336908,1.505961,-0.36227465,0.5882035,-1.6471559,-0.60081553,-0.051834166,-0.0736802,1.1685642,-0.5091861
0.0,0.1,0.7,0.0,-0.5235987755982988,0,-0.04095753,1.3664033,-0.122456364,0.07151074,0.029619966,1.5078391,-0.33786923,-0.60268646,-1.6683787,-0.107372314,-0.042250197,-0.06484128,1.1748815,0.96128094
0.0,0.1,0.7,0.0,-0.5235987755982988,0,-0.042006455,1.3647676,-0.120363645,0.070347294,0.014708285,1.5138336,-0.37674466,-0.70318705,-1.7191902,-0.2671259,-0.06137674,-0.13721377,1.204082,0.11281568
0.0,0.1,0.7,0.0,-0.5235987755982988,0,-0.042832967,1.3657277,-0.12247846,0.07294673,0.032737516,1.5198935,-0.32327032,0.31750906,-1.69128,-0.2031755,-0.06916505,-0.09639141,1.267106,-2.432528
0.0,0.1,0.7,0.0,-0.5235987755982988,0,-0.045934055,1.3674849,-0.1182717,0.07276441,0.018346313,1.5099273,-0.3048217,-0.3818006,-1.6812595,-0.4763936,-0.032951545,0.04848467,1.1527351,0.705011
0.0,0.1,0.7,0.0,-0.5235987755982988,0,-0.045057926,1.366795,-0.121068396,0.07382178,0.016074259,1.5090145,-0.46319807,-0.4199725,-1.5624478,-0.25222364,-0.07861528,-0.039362565,1.069228,0.1940052
0.0,0.1,0.7,0.0,-0.5235987755982988,0,-0.03861173,1.3660749,-0.12100395,0.07289711,0.042958196,1.5091931,-0.3958814,0.91306293,-1.6309355,-0.40070787,-0.08369229,0.1182013,1.0866512,1.6343509
0.0,0.1,0.7,0.0,-0.5235987755982988,0,-0.04482251,1.3638207,-0.120948106,0.07428712,0.043227095,1.5135949,-0.3362714,0.6246532,-1.7614982,-0.61634105,-0.035519153,-0.13011523,1.1754793,-0.6603108
0.0,0.1,0.7,0.0,-0.5235987755982988,0,-0.042459298,1.3659086,-0.12075505,0.07489931,0.036189962,1.5123184,-0.38946396,0.68678147,-1.7167066,-0.74178064,-0.11827677,-0.14614247,1.0757638,0.58575517
0.0,0.1,0.7,0.0,-0.5235987755982988,0,-0.040493842,1.3649626,-0.1246992,0.0732398,0.028781522,1.501499,-0.41628468,-0.55404824,-1.7113415,-0.5492197,-0.050724246,-0.13875346,1.1303775,-0.18254672
0.0,0.1,0.7,0.0,-0.5235987755982988,0,-0.049693704,1.3656869,-0.11937965,0.07226907,0.029639637,1.5060304,-0.3457795,-0.21415363,-1.7323159,-0.0042570643,-0.046102006,-0.084117115,1.2424713,-1.0875518
0.0,0.1,0.7,0.0,-0.5235987755982988,0,-0.04193181,1.366327,-0.12158789,0.07035822,0.020966196,1.5096798,-0.37703887,-0.34441304,-1.7420884,0.29638863,-0.03560921,-0.10096251,1.2101033,-0.6625714
0.0,0.1,0.7,0.0,-0.5235987755982988,0,-0.047039133,1.3643585,-0.11836236,0.07284392,0.053600345,1.5147324,-0.38401636,0.096217394,-1.7084477,-0.058103222,-0.060275976,0.060503192,1.2193228,-0.814255
0.0,0.1,0.7,0.0,-0.5235987755982988,0,-0.039188832,1.3684509,-0.12346853,0.0741674,0.041951597,1.5059365,-0.3829823,0.58143985,-1.6919999,-0.35412526,-0.016952915,-0.088720106,1.194217,-1.6805141
0.0,0.1,0.7,0.0,-0.5235987755982988,0,-0.040009387,1.3701941,-0.118799426,0.06990899,0.0301731,1.5126537,-0.40236104,0.032215472,-1.6505611,-0.78385186,0.00728018,-0.061053015,1.1863848,-1.4268019
0.0,0.1,0.7,0.0,-0.5235987755982988,0,-0.042974845,1.3674701,-0.12078067,0.07155528,0.06433867,1.5060997,-0.37092474,0.12556447,-1.6591642,-0.083183974,-0.0856224,-0.020794569,1.2301961,-1.618386
0.0,0.1,0.7,0.0,-0.5235987755982988,0,-0.047881614,1.3657022,-0.124962844,0.07241516,0.0027795439,1.5030001,-0.42689246,-0.6228326,-1.6994162,-0.3079394,-0.12260217,0.05071504,1.2453423,-1.0808223
0.0,0.1,0.7,0.0,-0.5235987755982988,0,-0.041561466,1.365587,-0.11884729,0.07480899,0.024264414,1.5113832,-0.40484607,-0.041435543,-1.6761872,-0.11149723,-0.08634202,-0.2119873,1.1475414,-1.0355735
0.0,0.1,0.7,0.0,-0.5235987755982988,0,-0.04048423,1.3679487,-0.12613937,0.07304638,0.03025059,1.5147208,-0.35629636,0.030472022,-1.6147894,-0.045326218,-0.077500865,0.039668165,1.2712544,1.3390422
0.0,0.1,0.7,0.0,-0.5235987755982988,0,-0.03874023,1.3660333,-0.12262031,0.07264495,0.01619479,1.5070409,-0.34677663,-0.2186052,-1.7191185,0.055614162,-0.061541002,-0.11866171,1.1900345,-0.3686723
0.0,0.1,0.7,0.0,-0.5235987755982988,0,-0.03977062,1.3652283,-0.12115135,0.07278316,0.027709352,1.5145324,-0.38190725,-0.5932439,-1.712352,0.12846681,-0.06391469,-0.04942767,1.2436098,-0.06028471
0.0,0.1,0.7,0.0,-0.5235987755982988,0,-0.04527704,1.3670555,-0.12679236,0.072626054,0.036051583,1.5109184,-0.3518349,-0.5033967,-1.7176883,-0.4239807,-0.041863613,-0.031822767,1.2298486,0.2148682
0.0,0.1,0.7,0.0,-0.5235987755982988,0,-0.043511096,1.3623389,-0.12358607,0.068175234,0.026198143,1.5010738,-0.33377475,0.15995872,-1.6741742,-0.37949848,-0.055389274,-0.11461103,1.1590706,1.0433475
0.0,0.1,0.7,0.0,-0.5235987755982988,0,-0.048774898,1.3632687,-0.12297207,0.07151215,0.029771777,1.4964732,-0.30641714,0.62007874,-1.6426555,0.5986752,-0.064298235,0.02320079,1.391832,0.51795274
0.0,0.1,0.7,0.0,-0.5235987755982988,0,-0.04232829,1.3666295,-0.12116885,0.07021771,-0.01143497,1.4929453,-0.36119828,-0.7061329,-1.745702,-0.7888158,-0.040199958,-0.084368914,1.1579822,-0.8332131
0.0,0.1,0.7,0.0,-0.5235987755982988,0,-0.044355784,1.3653576,-0.123078816,0.07208282,0.03968822,1.500748,-0.3932028,-0.40677428,-1.66271,-0.5671855,0.006756227,0.010968413,1.0047605,-0.0029591816
0.0,0.1,0.7,0.0,-0.5235987755982988,0,-0.043648954,1.3659669,-0.12001607,0.07098178,0.031079628,1.5055681,-0.3915628,-0.40963757,-1.599698,-1.2821461,-0.013701753,-0.050028767,1.0618652,-0.8945821
0.0,0.1,0.7,0.0,-0.5235987755982988,0,-0.03951948,1.3641357,-0.1248506,0.068711385,0.018358218,1.5070442,-0.41084984,0.3300506,-1.7686538,-0.5480594,-0.10151399,0.05388227,1.1898108,-0.32515404
0.0,0.1,0.7,0.0,-0.5235987755982988,0,-0.0441535,1.3659122,-0.12075925,0.07219365,0.024928322,1.5030329,-0.37074837,0.1255648,-1.6219672,-0.14005253,-0.0580427,-0.063684456,1.1260892,-0.101674154
0.0,0.1,0.7,0.0,-0.5235987755982988,0,-0.039719,1.3644423,-0.11685454,0.07154388,0.03173708,1.5026184,-0.3185925,-0.23236743,-1.6121325,0.9723758,-0.099878855,-0.15358767,1.0708089,0.3630395
0.0,0.1,0.7,0.0,-0.5235987755982988,0,-0.043688357,1.3642926,-0.1210699,0.06934797,0.033705674,1.5137509,-0.40242633,0.45871723,-1.6078908,-1.2207631,-0.11948714,-0.11519733,1.1045682,-1.3083127
0.0,0.1,0.7,0.0,-0.5235987755982988,0,-0.048964582,1.3652788,-0.12204538,0.06953984,0.029246062,1.503192,-0.37933767,1.0330368,-1.6239522,-0.8302409,-0.08480803,-0.020388313,1.2050977,0.012811321
0.0,0.1,0.7,0.0,-0.5235987755982988,0,-0.040315185,1.365318,-0.11310289,0.070207946,0.029577933,1.5060654,-0.3950272,-0.71294963,-1.7092093,-1.2068636,-0.08256052,-0.07779758,1.0387533,-0.07916235
0.0,0.1,0.7,0.0,-0.5235987755982988,0,-0.04240223,1.3645463,-0.11872479,0.07052969,0.029891493,1.5120049,-0.30815384,-0.74854803,-1.6806208,0.4395491,0.044016693,-0.014985231,1.1746413,-0.7414675
0.0,0.1,0.7,0.0,-0.5235987755982988,0,-0.042041294,1.3662074,-0.117839985,0.0733019,0.05676749,1.5014597,-0.24191894,0.57133025,-1.7178788,-0.7139725,-0.0027120407,-0.27592474,1.1813167,0.20341972
0.0,0.1,0.7,0.0,-0.5235987755982988,0,-0.041023377,1.3670033,-0.11951158,0.06994367,0.0129186595,1.5047125,-0.36646768,-0.5518891,-1.5835454,-0.8781831,-0.07240167,-0.05489789,1.1103562,0.18167464
0.0,0.1,0.7,0.0,-0.5235987755982988,0,-0.043682203,1.3643543,-0.121076174,0.07017905,0.04298074,1.510588,-0.4087484,0.27437082,-1.799718,-0.54632235,-0.0134691205,0.06293111,1.1603526,0.5655723
0.0,0.1,0.7,0.0,-0.5235987755982988,0,-0.041963764,1.3629179,-0.11562659,0.07278453,0.018412545,1.5024695,-0.37523168,0.3599468,-1.6332216,-0.35171184,-0.020307772,-0.15245356,1.1991055,0.32416546
0.0,0.1,0.7,0.0,-0.5235987755982988,0,-0.043967806,1.3650136,-0.12018132,0.07570888,0.030566638,1.5017239,-0.42380324,-0.010046626,-1.658664,0.67737126,-0.12780203,0.089368664,1.0535848,-0.29376116
0.0,0.1,0.7,0.0,-0.5235987755982988,0,-0.045098525,1.366479,-0.11684814,0.069628134,0.047597066,1.5096959,-0.4133997,0.2446523,-1.671119,-0.25185692,0.012251216,-0.05980787,1.1476104,-0.8174526
0.0,0.1,0.7,0.0,-0.5235987755982988,0,-0.0392914,1.3687528,-0.11923851,0.0704893,0.038477127,1.4936997,-0.33025494,-0.3517849,-1.6512015,-0.2925043,-0.07234529,-0.2846723,1.315482,0.03903502
0.0,0.1,0.7,0.0,-0.5235987755982988,0,-0.04143451,1.3668927,-0.1257727,0.07346602,0.06158571,1.4975176,-0.37247214,-0.14306737,-1.7158636,0.13589908,-0.10115756,-0.11299807,1.2044611,0.68525314
0.0,0.1,0.7,0.0,-0.5235987755982988,0,-0.038166314,1.3670872,-0.12317337,0.0753156,0.033571698,1.5046498,-0.33611748,0.6616113,-1.7077,0.029072579,-0.105685405,0.13491516,1.1060082,0.10748597
0.0,0.1,0.7,0.0,-0.5235987755982988,0,-0.045930557,1.363982,-0.12182686,0.07151092,0.049523424,1.5074264,-0.31357747,-0.33168596,-1.6374303,-0.23650196,-0.11193371,-0.1560383,1.0650048,2.129796
0.0,0.1,0.7,0.0,-0.5235987755982988,0,-0.04326238,1.3622653,-0.12650643,0.06895507,0.022272648,1.5031849,-0.2892176,-0.95485854,-1.6014607,-0.657875,-0.055337694,0.07678479,1.2457017,0.2875186
0.0,0.1,0.7,0.0,-0.5235987755982988,0,-0.040893175,1.366366,-0.121883236,0.071190655,0.027461067,1.4971985,-0.29436845,-0.42030028,-1.675192,-1.2094887,-0.028351566,-0.060248263,0.99305964,-0.07372152
0.0,0.1,0.7,0.0,-0.5235987755982988,0,-0.047485393,1.3621123,-0.12493346,0.070179954,0.014553622,1.4998587,-0.3580672,1.0172797,-1.7090188,-1.6841325,0.00012053128,0.17248052,1.4185507,0.8296603
0.0,0.1,0.7,0.0,-0.5235987755982988,0,-0.043562084,1.3651111,-0.11929388,0.070001446,0.018325698,1.5060678,-0.2586387,0.47466803,-1.6750017,-0.24714524,-0.121411376,0.111331545,1.1853933,-1.5311011
0.0,0.1,0.7,0.0,-0.5235987755982988,0,-0.043642953,1.3662121,-0.121523775,0.06868295,0.019257095,1.4982375,-0.28956124,0.082054414,-1.738655,-0.30153057,-0.073738,0.0640194,1.1263313,0.14571366
0.0,0.1,0.7,0.0,-0.5235987755982988,0,-0.04081724,1.3630345,-0.12068947,0.068410024,0.028864196,1.5066727,-0.3581041,-0.063829646,-1.6653081,0.047260195,0.011703151,-0.13988103,1.1556966,-1.1376452
0.0,0.1,0.7,0.0,-0.5235987755982988,0,-0.044008538,1.3643049,-0.11935562,0.068706006,0.023078088,1.51229,-0.39905944,-0.644699,-1.6793566,-0.0068908706,-0.04569514,-0.16599594,1.218945,-1.3683126
0.0,0.1,0.7,0.0,-0.5235987755982988,0,-0.04409375,1.3626193,-0.11727634,0.0699029,0.027226994,1.5062023,-0.3213272,-0.6651612,-1.6771044,0.10925505,0.012916859,0.0018298347,1.3021567,0.94484234
0.0,0.1,0.7,0.0,-0.5235987755982988,0,-0.04623019,1.3645982,-0.1211312,0.07037012,0.0141869355,1.5065855,-0.34395048,-1.0165961,-1.5535661,0.2771793,-0.017656647,0.027039273,1.229026,-0.060936194
0.0,0.1,0.7,0.0,-0.5235987755982988,0,-0.043224465,1.3636036,-0.116996035,0.06847856,0.015223799,1.510043,-0.3228569,-0.94391966,-1.6674098,-0.8907973,-0.02767234,-0.103350915,1.0941764,-1.4136703
0.0,0.1,0.7,0.0,-0.5235987755982988,0,-0.041340023,1.3627213,-0.12369797,0.07005059,0.022580154,1.503769,-0.3588923,-0.27208894,-1.7119831,0.43195722,-0.028227875,-0.108821385,1.1614745,-0.095966764
0.0,0.1,0.7,0.0,-0.5235987755982988,0,-0.042484984,1.3643224,-0.12081458,0.06959012,0.039239813,1.5057437,-0.28720337,-0.96127176,-1.6182692,-0.6219285,-0.037740596,0.046483256,0.99319917,1.6058905
0.0,0.1,0.7,0.0,-0.5235987755982988,0,-0.043532353,1.3637027,-0.12072547,0.07085513,0.032320425,1.5007148,-0.3676311,-0.60045457,-1.545119,-0.32328784,-0.013143077,0.043790687,1.2208649,-0.70258933
0.0,0.1,0.7,0.0,-0.5235987755982988,0,-0.04164564,1.3648032,-0.120167986,0.07247782,0.019076219,1.5053942,-0.33396095,-0.4256299,-1.5742161,0.2825506,-0.008282039,-0.03999155,1.1188639,-0.19610418
0.0,0.1,0.7,0.0,-0.5235987755982988,0,-0.03880049,1.3646588,-0.122951515,0.07006843,0.050048847,1.5043111,-0.39550132,0.46438098,-1.5461248,-1.0717711,-0.13760802,0.05493509,1.0406345,0.6833059
0.0,0.1,0.7,0.0,-0.5235987755982988,0,-0.041668106,1.3631264,-0.12080526,0.07066862,0.015580362,1.5027561,-0.36399877,-0.4489614,-1.7300855,0.14961804,-0.027295431,0.2340964,1.0753711,-0.1804524
0.0,0.1,0.7,0.0,-0.5235987755982988,0,-0.04029984,1.3640785,-0.12226827,0.07025541,0.03483778,1.5058355,-0.3210851,0.41698834,-1.7363799,-0.3861279,-0.10730378,0.13365579,1.0057627,-0.11057182
0.0,0.1,0.7,0.0,-0.5235987755982988,0,-0.04515902,1.3666239,-0.12404847,0.0675469,0.035689175,1.5050975,-0.33936065,-0.46849462,-1.6839172,-0.19519089,-0.056765407,0.018965185,0.98502505,-1.9034352
0.0,0.1,0.7,0.0,-0.5235987755982988,0,-0.044547964,1.3642303,-0.12478142,0.07163303,0.031349372,1.4939651,-0.39938468,0.28314957,-1.7188487,0.1975799,-0.07985564,0.17824568,1.3543813,-1.4681301
0.0,0.1,0.7,0.0,-0.5235987755982988,0,-0.042114347,1.3641075,-0.114737466,0.07151602,0.005014458,1.5014586,-0.38680306,0.9824628,-1.7094353,0.21359947,-0.02057191,-0.1742658,1.0280172,0.57543147
0.0,0.1,0.7,0.0,-0.5235987755982988,0,-0.042847652,1.3660583,-0.12453443,0.06910788,0.06554477,1.501496,-0.3348504,-0.13063566,-1.6351396,-0.6750575,-0.058551285,-0.020058237,1.1962106,-1.4224544
0.0,0.1,0.7,0.0,-0.5235987755982988,0,-0.039686233,1.365535,-0.123724505,0.06999546,0.029599113,1.5014149,-0.39197898,-1.0475173,-1.7227571,0.04115579,0.0030007684,-0.13517174,1.1063061,0.34450346
0.0,0.1,0.7,0.0,-0.5235987755982988,0,-0.045585126,1.3654503,-0.11908693,0.07187712,0.048607532,1.4951098,-0.35533738,-0.66835773,-1.605423,-1.2416586,-0.16454753,0.10121479,1.0394303,0.22408882
0.0,0.1,0.7,0.0,-0.5235987755982988,0,-0.04312428,1.3663187,-0.12164031,0.06976203,0.020117689,1.5070772,-0.3700156,-0.61415684,-1.6996933,-0.29782003,-0.040553737,-0.0022713728,1.0359566,-0.7003675
0.0,0.1,0.7,0.0,-0.5235987755982988,0,-0.048345894,1.3647923,-0.12303373,0.07439981,0.03825889,1.4984481,-0.43034545,-0.24283454,-1.6078274,-0.67170393,-0.04366325,-0.030917604,1.0776105,1.2313807
0.0,0.1,0.7,0.0,-0.5235987755982988,0,-0.04024685,1.364096,-0.123163365,0.07240369,0.026956456,1.5063567,-0.30081236,0.027400168,-1.7016251,-0.105966195,-0.03171042,-0.014255199,1.1824157,-0.40628776
0.0,0.1,0.7,0.0,-0.5235987755982988,0,-0.04294734,1.3668112,-0.12358947,0.069848254,0.012057633,1.4971619,-0.40136242,-0.03848859,-1.7875131,-0.2850509,-0.03908711,-0.22633953,1.135615,1.0144712
0.0,0.1,0.7,0.0,-0.5235987755982988,0,-0.043292698,1.3655457,-0.12164918,0.073411055,0.013291717,1.4924778,-0.38140944,0.096195884,-1.6817381,-0.40659463,-0.05402293,-0.050971925,1.0943947,-0.05823659
0.0,0.1,0.7,0.0,-0.5235987755982988,0,-0.045254074,1.3671851,-0.123923704,0.06942606,0.05272128,1.5124664,-0.41005933,0.5839815,-1.7546765,-0.5653903,-0.06151165,-0.27078083,1.1826279,0.77492607
0.0,0.1,0.7,0.0,-0.5235987755982988,0,-0.038020812,1.3666811,-0.120651536,0.07366905,0.018033227,1.5093758,-0.42259035,0.6034611,-1.7152928,0.41102776,-0.06686704,-0.07155026,1.2098581,0.414757
0.0,0.1,0.7,0.0,-0.5235987755982988,0,-0.039905604,1.3639715,-0.11807781,0.07088855,0.02828287,1.5106341,-0.31604275,0.18635333,-1.6882341,-0.28329164,0.027747167,-0.15486607,1.148265,1.5090575
0.0,0.1,0.7,0.0,-0.5235987755982988,0,-0.03956473,1.3633764,-0.1207904,0.06986686,0.04621214,1.4981573,-0.28845254,0.102236114,-1.5470473,0.11417127,-0.04252509,0.15036145,1.2769196,0.055691767
0.0,0.1,0.7,0.0,-0.5235987755982988,0,-0.039695404,1.3646243,-0.1252301,0.067329355,0.023086328,1.5047824,-0.41673645,0.820003,-1.7100561,-1.6644635,-0.046804555,-0.17891872,1.0984209,0.38383532
0.0,0.1,0.7,0.0,-0.5235987755982988,0,-0.040830858,1.3654355,-0.11751261,0.07044894,0.00076116726,1.4941645,-0.37880445,-0.5849878,-1.624666,-0.8727262,-0.017744608,-0.15943323,0.9808974,0.3245814
0.0,0.1,0.7,0.0,-0.5235987755982988,0,-0.04558446,1.3618417,-0.118411124,0.07221876,0.044686176,1.4984822,-0.24678181,0.36049423,-1.5973029,-0.40636677,-0.075802214,0.123640515,1.1443605,0.57474315
0.0,0.1,0.7,0.0,-0.5235987755982988,0,-0.0379771,1.3652219,-0.12040772,0.06987727,0.031975042,1.5072843,-0.3079834,-0.18545751,-1.6517146,-1.0661494,-0.03390531,-0.20332927,1.1022019,1.4691055
0.0,0.1,0.7,0.0,-0.5235987755982988,0,-0.04002224,1.3640372,-0.120391704,0.071902804,0.026839862,1.4996516,-0.31968355,-0.5778275,-1.6393555,-0.08444701,0.03900247,-0.13333176,1.0230691,-2.0013325
0.0,0.1,0.7,0.0,-0.5235987755982988,0,-0.04385562,1.3646147,-0.12001581,0.07076209,0.019612363,1.500765,-0.327021,-1.0235186,-1.6562297,-0.685452,-0.022169333,0.009247361,0.95328224,0.18575732
0.0,0.1,0.7,0.0,-0.5235987755982988,0,-0.03767678,1.3649464,-0.12540022,0.06934711,0.033763308,1.5041373,-0.33045667,0.62778634,-1.6797868,-1.3426683,-0.047355622,0.030345146,1.1287138,-1.8459587
0.0,0.1,0.7,0.0,-0.5235987755982988,0,-0.04828406,1.3670198,-0.12092267,0.0672079,0.041061852,1.5024167,-0.38089424,-0.4355731,-1.608339,-0.9310642,-0.039648097,0.15750295,1.2835507,0.70419186
0.0,0.1,0.7,0.0,-0.5235987755982988,0,-0.04670714,1.364551,-0.12449408,0.06992896,0.027078202,1.4963168,-0.3678232,0.105853334,-1.6063657,-1.1027874,-0.04432264,-0.22809538,1.2083198,-1.5028161
0.0,0.1,0.7,0.0,-0.5235987755982988,0,-0.045129392,1.3623123,-0.12089924,0.069542244,0.040282268,1.4999228,-0.361944,0.7947053,-1.6658971,-0.8165455,-0.06062605,0.12938546,1.1824281,2.2830985
0.0,0.1,0.7,0.0,-0.5235987755982988,0,-0.04158653,1.3647171,-0.12132406,0.067189366,0.022923294,1.5160631,-0.3527088,0.38907075,-1.5841298,-0.53806454,-0.05867012,-0.11509898,1.1591511,-2.0980394
0.0,0.1,0.7,0.0,-0.5235987755982988,0,-0.04173898,1.3671123,-0.121300146,0.07036711,0.034526996,1.5010637,-0.3290565,-0.58794886,-1.6016936,-0.66936696,-0.041416064,-0.045307226,1.1000162,-0.5745132
0.0,0.1,0.7,0.0,-0.5235987755982988,0,-0.040317897,1.3659229,-0.11965462,0.07058214,0.0031816082,1.5002981,-0.3174893,0.45639995,-1.6539251,-0.629866,-0.096151225,-0.122885585,0.99669427,0.38764662
0.0,0.1,0.7,0.0,-0.5235987755982988,0,-0.047392625,1.36382,-0.12738043,0.066871054,0.026669575,1.5050331,-0.36471227,0.323256,-1.7133111,-0.07004806,-0.08966058,-0.06944395,1.1819309,0.100850694
0.0,0.1,0.7,0.0,-0.5235987755982988,0,-0.050287433,1.3649396,-0.11836682,0.070448495,0.038829487,1.5009255,-0.28342903,0.7940896,-1.6764965,0.31528807,-0.09333657,0.13156675,1.1043899,-0.7328252
0.0,0.1,0.7,0.0,-0.5235987755982988,0,-0.04415934,1.3664625,-0.12236326,0.067389384,0.026688129,1.510611,-0.39099592,0.53167105,-1.7322693,-0.7627707,0.01988575,-0.00016339311,1.1683474,0.101906285
0.0,0.1,0.7,0.0,-0.5235987755982988,0,-0.046978958,1.3648819,-0.121590324,0.069176346,0.042664766,1.5100368,-0.2927139,0.66515774,-1.6672128,-0.24467282,-0.05165511,-0.09499291,1.2065448,-2.6216755
0.0,0.1,0.7,0.0,-0.5235987755982988,0,-0.04070441,1.3648314,-0.12116072,0.071239084,0.013356921,1.498444,-0.29821122,-1.1407695,-1.6477246,-0.41560754,0.0047420724,0.024077596,1.2498949,-2.4181798
0.0,0.1,0.7,0.0,-0.5235987755982988,0,-0.03843212,1.3666655,-0.118508846,0.07259812,0.034353904,1.5045803,-0.3803798,-0.26443088,-1.6818365,-1.7970601,-0.09155582,0.04260156,1.0900898,-2.1202383
0.0,0.1,0.7,0.0,-0.5235987755982988,0,-0.045212753,1.3643645,-0.11739273,0.07161309,0.06125177,1.506462,-0.3063673,-0.82367736,-1.686573,-0.56272787,-0.039989896,-0.06647595,1.0375404,-0.15622054
0.0,0.1,0.7,0.0,-0.5235987755982988,0,-0.040220197,1.3639421,-0.119825855,0.06990765,0.038601156,1.504975,-0.3548569,0.14348204,-1.6897115,0.8708549,-0.0565273,0.13431351,1.1720401,-0.44267172
0.0,0.1,0.7,0.0,-0.5235987755982988,0,-0.046861947,1.3674101,-0.11975581,0.069268584,0.03520157,1.5012134,-0.36086938,0.3531409,-1.6737431,-0.25721368,-0.013193638,-0.061286137,1.1390699,-2.5108168
0.0,0.1,0.7,0.0,-0.5235987755982988,0,-0.045161564,1.3657042,-0.121219225,0.07289837,0.03580655,1.4917557,-0.37349364,-0.031577103,-1.6784081,0.79653674,0.019063072,-0.42099258,1.3104255,-0.9658363
0.0,0.1,0.7,0.0,-0.5235987755982988,0,-0.043409668,1.3626175,-0.122623734,0.07053258,0.033891905,1.5052687,-0.34167367,0.4076081,-1.67407,0.043673135,-0.026849547,-0.008854704,1.121519,1.1601292
0.0,0.1,0.7,0.0,-0.5235987755982988,0,-0.043522935,1.3639494,-0.11940144,0.06928076,0.022154553,1.5116178,-0.40620327,-1.449185,-1.6643244,0.47311553,0.012591071,-0.08013814,1.1427783,-0.43149248
0.0,0.1,0.7,0.0,-0.5235987755982988,0,-0.039591797,1.363752,-0.12609021,0.07086711,0.042188335,1.5135368,-0.36340874,-0.768856,-1.5673969,-1.0950085,-0.031397987,-0.002275347,1.1827134,-0.31430066
0.0,0.1,0.7,0.0,-0.5235987755982988,0,-0.044818502,1.3650359,-0.124385566,0.07044841,0.03350656,1.5035723,-0.379664,-0.16605806,-1.6473006,-0.71371543,0.0010412624,-0.20496063,1.1857424,0.12622954
0.0,0.1,0.7,0.0,-0.5235987755982988,0,-0.04925991,1.3633868,-0.120163165,0.07127436,0.044285893,1.5073407,-0.3575205,-0.02980849,-1.6576259,0.54429036,-0.11069353,0.0015294881,1.1964133,0.4582585
0.0,0.1,0.7,0.0,-0.5235987755982988,0,-0.042361666,1.3636605,-0.12324061,0.070754066,0.022581873,1.5125692,-0.34226704,-1.0610864,-1.6764525,-1.0493001,-0.05881707,-0.16829053,1.1376398,1.2104604
0.0,0.1,0.7,0.0,-0.5235987755982988,0,-0.041039694,1.3660855,-0.12149831,0.06868765,0.03203461,1.5078943,-0.32888246,0.2112335,-1.770353,0.41543427,-0.06668232,-0.020758927,1.03818,-0.5246098
0.0,0.1,0.7,0.0,-0.5235987755982988,0,-0.044345237,1.3646121,-0.12132687,0.07036624,0.043896277,1.4998847,-0.3536861,-0.65682477,-1.7759072,-0.6992487,-0.03225045,-0.019961042,1.2314544,0.20790838
0.0,0.1,0.7,0.0,-0.5235987755982988,0,-0.04341827,1.364496,-0.12349285,0.07100248,0.02531095,1.5102898,-0.36190665,-0.4624223,-1.6996528,-0.6232733,-0.12081869,-0.07543277,1.1277889,-0.18727235
0.0,0.1,0.7,0.0,-0.5235987755982988,0,-0.04136048,1.3666655,-0.12311544,0.07350672,0.0344581,1.5030669,-0.3648628,-0.45308048,-1.7167773,-1.7125474,-0.10217382,0.0063952887,1.1349461,1.2123419
0.0,0.1,0.7,0.0,-0.5235987755982988,0,-0.044577766,1.3650447,-0.12162868,0.07057913,0.021697601,1.5064158,-0.35553905,0.91832,-1.6786934,-1.0016363,-0.011084604,0.047423583,1.2356337,-1.0626526
0.0,0.1,0.7,0.0,-0.5235987755982988,0,-0.04586184,1.3649107,-0.12402113,0.07253293,0.036553115,1.5166888,-0.36755443,-0.5050771,-1.591768,-0.6243673,-0.09682647,-0.088240094,1.015591,-1.1705973
0.0,0.1,0.7,0.0,-0.5235987755982988,0,-0.04445555,1.3655438,-0.119840376,0.0725286,0.029835721,1.5122572,-0.358418,-1.1619667,-1.6551638,-0.43086332,-0.016183054,0.043960437,1.1838816,2.203414
0.0,0.1,0.7,0.0,-0.5235987755982988,0,-0.041164365,1.3627539,-0.12010949,0.071584396,0.039223596,1.5096937,-0.37417462,-0.006654965,-1.7036614,0.84802425,-0.049058456,-0.091070145,1.2293214,-1.0417613
0.0,0.1,0.7,0.0,-0.5235987755982988,0,-0.040034156,1.3627175,-0.123536825,0.07189383,0.037905164,1.510603,-0.44048223,0.1938126,-1.6336967,-1.1778405,-0.058079634,-0.14392245,1.2084572,0.5125723
0.0,0.1,0.7,0.0,-0.5235987755982988,0,-0.041668646,1.3671974,-0.12406294,0.069802165,0.013712876,1.4985086,-0.37589636,0.3089249,-1.7234143,-1.0254122,-0.105012685,0.21344031,1.2058764,-1.4585396
0.0,0.1,0.7,0.0,-0.5235987755982988,0,-0.041504573,1.3652917,-0.121555746,0.07199192,0.0045846626,1.5028784,-0.3160084,0.90866166,-1.637409,-0.19889484,-0.012195825,-0.012910895,1.1040764,0.35705513
0.0,0.1,0.7,0.0,-0.5235987755982988,0,-0.04331994,1.3640769,-0.118678875,0.070874244,0.03718383,1.5058867,-0.3475148,-0.09944304,-1.8087832,0.4909922,0.032558862,-0.07945886,1.2506944,1.0464593
0.0,0.1,0.7,0.0,-0.5235987755982988,0,-0.04445984,1.3639952,-0.12297713,0.07180335,0.03348047,1.5011287,-0.3907901,-0.43896887,-1.7448738,-0.69659805,-0.035167582,-0.124569155,1.0754249,2.161789
0.0,0.1,0.7,0.0,-0.5235987755982988,0,-0.037533846,1.3661577,-0.124586955,0.06933512,0.039620906,1.5071996,-0.3271819,0.56094295,-1.7061006,-0.5236892,-0.049577624,-0.07909804,1.1819645,-0.020014906
0.0,0.1,0.7,0.0,-0.5235987755982988,0,-0.04199112,1.3652706,-0.12198016,0.07116076,0.012529864,1.5015323,-0.30793795,1.41302,-1.6724967,-0.336168,-0.099321075,-0.28989747,1.2608491,1.3343152
0.0,0.1,0.7,0.0,-0.5235987755982988,0,-0.045691404,1.3630466,-0.122510724,0.072605975,0.04243382,1.5073436,-0.29113594,-0.6887146,-1.725748,-0.15480535,-0.06104058,-0.19999744,1.1555663,-1.6029675
0.0,0.1,0.7,0.0,-0.5235987755982988,0,-0.03787911,1.3646792,-0.12248169,0.072015725,0.009446927,1.506535,-0.35482043,0.57519233,-1.5997608,-1.3841844,-0.09006175,0.12948687,1.2535082,-0.67116535
0.0,0.1,0.7,0.0,-0.5235987755982988,0,-0.045123566,1.3653643,-0.1224515,0.07112752,0.038144622,1.4959955,-0.40524024,-0.81121373,-1.6859264,-0.4158783,-0.024355687,-0.036389213,1.1656115,0.32209828
0.0,0.1,0.7,0.0,-0.5235987755982988,0,-0.045093063,1.3654602,-0.12300242,0.07105977,0.027995324,1.504725,-0.35080174,-1.3687618,-1.6644099,-0.10531985,-0.06181929,0.0707542,1.3184243,1.5585561
0.0,0.1,0.7,0.0,-0.5235987755982988,0,-0.04024812,1.3629422,-0.12110842,0.07233352,0.031250708,1.5116628,-0.31963375,0.11708028,-1.6430172,0.077315606,-0.12926053,0.007980231,1.1544175,-1.2317425
0.0,0.1,0.7,0.0,-0.5235987755982988,0,-0.041839805,1.3682929,-0.12575315,0.071990885,0.02313767,1.5029075,-0.40169027,-0.31785893,-1.602376,-1.3065971,-0.13280183,-0.29518425,1.3288039,1.1558785
0.0,0.1,0.7,0.0,-0.5235987755982988,0,-0.041173223,1.3650006,-0.1275987,0.07306321,0.018350407,1.5081179,-0.32916695,-0.526123,-1.6484135,-0.45141223,-0.08724736,-0.024694964,1.1248641,0.014872085
0.0,0.1,0.7,0.0,-0.5235987755982988,0,-0.04056367,1.363467,-0.12067109,0.073116936,0.029718315,1.5082756,-0.40822384,0.43065962,-1.6127042,0.14447764,-0.067857414,-0.19357957,1.1506447,2.332177
0.0,0.1,0.7,0.0,-0.5235987755982988,0,-0.047050357,1.3685869,-0.121849805,0.07197062,0.022471609,1.509209,-0.34225106,-0.45188138,-1.6140969,0.03025788,-0.04448222,-0.007884213,1.3396759,0.5811412
0.0,0.1,0.7,0.0,-0.5235987755982988,0,-0.044123903,1.3659656,-0.121841095,0.07308547,0.031813588,1.4995062,-0.30282933,0.44566125,-1.7117827,0.4312683,-0.07376648,-0.03732207,1.0734293,-1.1633914
0.0,0.1,0.7,0.0,-0.5235987755982988,0,-0.039253328,1.3658789,-0.115486175,0.06992678,0.027716048,1.5018853,-0.3693129,-0.4381383,-1.7460755,0.11094746,-0.034610678,-0.028051475,1.1296102,-2.7756984
0.0,0.1,0.7,0.0,-0.5235987755982988,0,-0.03996635,1.3642368,-0.119613305,0.07338225,0.010592695,1.503597,-0.3741344,0.5423158,-1.6440047,0.642227,-0.08610644,0.06334334,1.1129501,-0.18272063
0.0,0.1,0.7,0.0,-0.5235987755982988,0,-0.04142267,1.3659235,-0.11964872,0.06906624,0.0432463,1.5117756,-0.46398664,0.48531684,-1.7458309,-0.64830196,-0.070381604,-0.06491814,1.217376,1.5803465
0.0,0.1,0.7,0.0,-0.5235987755982988,0,-0.046201546,1.3659914,-0.118098035,0.07080204,0.033598155,1.5121212,-0.40393972,-0.32826164,-1.6192561,-0.7152414,-0.0575709,0.05836155,1.1928147,-0.82896274
0.0,0.1,0.7,0.0,-0.5235987755982988,0,-0.042595778,1.3649737,-0.1263929,0.07025852,0.031312283,1.5123017,-0.3774379,-0.5304265,-1.7950883,-0.08522551,-0.07405922,-0.27478707,1.1135899,0.015524262
0.0,0.1,0.7,0.0,-0.5235987755982988,0,-0.046878107,1.3685387,-0.121287316,0.0691494,0.01637012,1.502106,-0.3281184,0.25044078,-1.7345841,0.025256693,-0.07761868,0.0011486274,1.1497525,-1.421433
0.0,0.1,0.7,0.0,-0.5235987755982988,0,-0.045372378,1.366978,-0.11801032,0.068576075,0.016843136,1.5085925,-0.38376823,-0.08042443,-1.6998283,0.10643649,-0.067656785,-0.12461836,1.2192754,-0.51775587
0.0,0.1,0.7,0.0,-0.5235987755982988,0,-0.040017366,1.3666041,-0.122456886,0.07128555,0.020199226,1.516088,-0.34336594,0.55139726,-1.637854,-0.6722753,-0.061767403,0.003359455,1.1240891,-1.2343664
0.0,0.1,0.7,0.0,-0.5235987755982988,0,-0.046017736,1.3654412,-0.122806415,0.07302029,0.0420431,1.5083219,-0.37321433,0.47092205,-1.7494344,0.87984335,-0.05727704,0.037416447,1.2500069,-1.3936299
0.0,0.1,0.7,0.0,-0.5235987755982988,0,-0.043020964,1.3668056,-0.11981507,0.07268824,0.029019538,1.5068156,-0.3167103,0.56018925,-1.7645804,-0.6144514,-0.13919415,0.08123743,1.2107499,1.1461465
0.0,0.1,0.7,0.0,-0.5235987755982988,0,-0.0426147,1.3666865,-0.12721111,0.07349149,0.012474787,1.5104882,-0.38400835,1.2360235,-1.7600039,0.5850978,-0.005983869,0.024524456,1.0176332,-0.9098616
0.0,0.1,0.7,0.0,-0.5235987755982988,0,-0.048545122,1.3665562,-0.120209634,0.07430566,0.021668723,1.5077763,-0.37095395,-0.730566,-1.5979666,0.602593,-0.03176585,-0.09576051,1.2785416,-0.113881096
0.0,0.1,0.7,0.0,-0.5235987755982988,0,-0.047493827,1.3650478,-0.120026864,0.07423057,0.043657385,1.5080315,-0.30132926,0.88405013,-1.726429,-0.14224768,-0.04959783,-0.15957424,1.1762105,0.98438174
0.0,0.1,0.7,0.0,-0.5235987755982988,0,-0.04567191,1.3656282,-0.12038994,0.07397706,0.022946507,1.4989874,-0.36083853,0.5617118,-1.6860442,-0.28891096,-0.1336004,0.008508463,1.2352138,0.6601537
0.0,0.1,0.7,0.0,-0.5235987755982988,0,-0.045947745,1.3647174,-0.11887919,0.07062231,0.037296064,1.5132743,-0.26533306,0.8242074,-1.6234591,-0.17152563,-0.2228428,0.22220765,1.1783737,0.4050691
0.0,0.1,0.7,0.0,-0.5235987755982988,0,-0.04177333,1.3642774,-0.1221646,0.07242597,0.0082263155,1.5006523,-0.4540317,-0.43304437,-1.6748842,0.6459489,-0.09752695,-0.10823631,1.2255162,0.3426395
0.0,0.1,0.7,0.0,-0.5235987755982988,0,-0.0461581,1.363353,-0.11971373,0.072995305,0.01809486,1.5155263,-0.36074752,-0.37077507,-1.7144048,-0.1561,-0.1037991,-0.050837986,1.1098673,0.32000637
0.0,0.1,0.7,0.0,-0.5235987755982988,0,-0.04522352,1.3651345,-0.12073337,0.071528174,0.019903032,1.5126845,-0.33590063,0.38579842,-1.6599845,0.6743871,-0.080812804,-0.0653362,1.0331215,-0.40375656
0.0,0.1,0.7,0.0,-0.5235987755982988,0,-0.04165825,1.3634921,-0.12214628,0.0726812,0.026936363,1.5059596,-0.33023536,0.6931841,-1.7021626,-0.90108126,-0.031083941,0.12780848,0.99519336,0.67051053
0.0,0.1,0.7,0.0,-0.5235987755982988,0,-0.04122248,1.3642929,-0.12249565,0.07141215,0.03604557,1.5043784,-0.35902217,0.22483015,-1.7415059,-0.18141715,0.03737099,-0.01816189,1.1980994,-1.3326098
0.0,0.1,0.7,0.0,-0.5235987755982988,0,-0.045072347,1.3644792,-0.12356276,0.069423914,0.018322442,1.5038279,-0.3321496,-0.09552792,-1.5807383,0.38185665,-0.05675043,0.018484851,1.1665832,0.28989536
0.0,0.1,0.7,0.0,-0.5235987755982988,0,-0.04345254,1.3647846,-0.12473969,0.07125611,0.028295135,1.5120605,-0.36922616,-0.28285944,-1.7339029,-0.5562803,-0.14594266,-0.04716352,0.9133502,2.1979597
0.0,0.1,0.7,0.0,-0.5235987755982988,0,-0.046628375,1.3626573,-0.120214835,0.0722096,0.023538038,1.5044564,-0.38269177,0.13616483,-1.6076611,-0.44303668,-0.040444404,-0.21170615,1.1611352,-0.42447317
