sanky1234/BimanualDexCatch/isaacgymenvs/cem_results/football_pose_0.1_0.0_0.9999999999999999_0.0_-0.5235987755982988_0_2025-05-26.csv
x,y,z,roll,pitch,yaw,robot1/joint1,robot1/joint2,robot1/joint3,robot1/joint4,robot1/joint5,robot1/joint6,robot1/joint7,robot2/joint1,robot2/joint2,robot2/joint3,robot2/joint4,robot2/joint5,robot2/joint6,robot2/joint7
0.1,0.0,0.9999999999999999,0.0,-0.5235987755982988,0,-1.5651457,0.99558824,-0.606479,0.6341588,-0.40838885,1.1325331,-2.2138367,1.060974,-1.7016894,-0.031597607,-0.014566353,0.3634,1.1856934,1.1258506
0.1,0.0,0.9999999999999999,0.0,-0.5235987755982988,0,-1.5577877,1.0009241,-0.6066503,0.63110715,-0.41449538,1.1320558,-2.226083,1.0074912,-1.7414418,0.17738362,-0.102367796,0.17383032,1.1761181,-0.69391996
0.1,0.0,0.9999999999999999,0.0,-0.5235987755982988,0,-1.5610567,0.99571824,-0.60821384,0.6332902,-0.4164941,1.1358745,-2.232793,1.3024993,-1.8131641,-0.20134646,-0.035886962,0.11625434,1.2084376,1.3816602
0.1,0.0,0.9999999999999999,0.0,-0.5235987755982988,0,-1.5563933,1.0068338,-0.6085843,0.63167816,-0.4155272,1.1325899,-2.2124505,1.2791917,-1.771692,-0.17380993,-0.10789751,-0.04811878,1.0460826,0.3226332
0.1,0.0,0.9999999999999999,0.0,-0.5235987755982988,0,-1.5621456,1.0006108,-0.60458595,0.6282423,-0.4154812,1.138599,-2.2295606,1.17546,-1.8036069,-0.048399996,-0.0892193,0.07798774,1.1765997,1.2661346
0.1,0.0,0.9999999999999999,0.0,-0.5235987755982988,0,-1.5602746,0.9984974,-0.6078737,0.62857884,-0.42003563,1.1333987,-2.228838,1.3527598,-1.8572068,0.032167967,-0.08603603,0.03795522,1.1357301,0.72269833
0.1,0.0,0.9999999999999999,0.0,-0.5235987755982988,0,-1.5610814,0.99722284,-0.60861593,0.6352962,-0.41711795,1.1334767,-2.2315006,1.0912662,-1.6500965,0.45256275,-0.04095748,0.023191156,1.0810513,0.37282106
0.1,0.0,0.9999999999999999,0.0,-0.5235987755982988,0,-1.5607731,0.9901411,-0.60449445,0.63003033,-0.4134898,1.1355475,-2.2330542,1.2046925,-1.9126292,0.24884923,-0.076896936,0.18291768,1.2130077,0.035303455
0.1,0.0,0.9999999999999999,0.0,-0.5235987755982988,0,-1.5639087,0.99272186,-0.6063367,0.6290533,-0.4262345,1.1336418,-2.246195,1.3110999,-1.8616695,-0.01763851,-0.059352964,0.10621467,1.0316389,0.37908372
0.1,0.0,0.9999999999999999,0.0,-0.5235987755982988,0,-1.5610446,0.9981369,-0.60864687,0.63015026,-0.4239022,1.1318502,-2.2201865,1.380662,-1.730963,0.22607678,-0.048117824,0.1427674,1.1684244,0.3678697
0.1,0.0,0.9999999999999999,0.0,-0.5235987755982988,0,-1.5607463,0.99833727,-0.6075733,0.63097805,-0.41247523,1.1370177,-2.2460105,1.112955,-1.8185931,0.25954887,-0.079139404,0.05574779,1.0735941,0.45156452
0.1,0.0,0.9999999999999999,0.0,-0.5235987755982988,0,-1.5622467,0.99774617,-0.60793793,0.6281315,-0.4225821,1.1344506,-2.2296019,1.066568,-1.6547283,-0.09499452,-0.05874859,-0.07670129,1.1068585,0.5252324
0.1,0.0,0.9999999999999999,0.0,-0.5235987755982988,0,-1.5589048,1.0013272,-0.60900545,0.63096106,-0.41656575,1.131904,-2.2241054,1.1222713,-1.59285,-0.26365498,-0.046371266,0.29007864,1.1946362,0.50757635
0.1,0.0,0.9999999999999999,0.0,-0.5235987755982988,0,-1.5600301,1.0022935,-0.60561657,0.6300687,-0.41958344,1.1306906,-2.2259865,1.2802266,-1.6681386,0.14928998,-0.014772439,0.2269151,1.0183202,0.18637843
0.1,0.0,0.9999999999999999,0.0,-0.5235987755982988,0,-1.5594525,0.99049103,-0.60632414,0.6286247,-0.41934046,1.1327353,-2.2225785,1.083747,-1.7278982,0.093558654,-0.042436484,0.2585153,1.2616055,-0.45245278
0.1,0.0,0.9999999999999999,0.0,-0.5235987755982988,0,-1.5599123,0.99710745,-0.60736346,0.6336331,-0.41802612,1.134436,-2.2284675,1.2354983,-1.7921119,0.08241956,-0.07732645,-0.010020789,1.1973654,0.29396734
0.1,0.0,0.9999999999999999,0.0,-0.5235987755982988,0,-1.5626471,0.99340725,-0.6065698,0.63155365,-0.413431,1.1339478,-2.2177217,1.1157804,-1.7518262,-0.026962304,-0.06386134,0.13491909,1.1017063,0.7061855
0.1,0.0,0.9999999999999999,0.0,-0.5235987755982988,0,-1.5608785,1.0025425,-0.6093309,0.6331076,-0.42520505,1.1349258,-2.229723,1.3430278,-1.7118099,-0.18947977,-0.093833394,0.05717912,1.1618856,0.23730187
0.1,0.0,0.9999999999999999,0.0,-0.5235987755982988,0,-1.559925,0.99533427,-0.6060914,0.63108665,-0.41173142,1.1316035,-2.2187715,1.0736016,-1.7602214,-0.44488686,-0.10451292,-0.06926206,1.1623952,0.28609478
0.1,0.0,0.9999999999999999,0.0,-0.5235987755982988,0,-1.5607883,0.9954324,-0.6100141,0.6298561,-0.41615897,1.1319016,-2.2391462,1.1089127,-1.8725561,0.08278072,-0.08581937,0.13313186,1.1187859,0.03675616
0.1,0.0,0.9999999999999999,0.0,-0.5235987755982988,0,-1.56103,1.000392,-0.60784155,0.6328743,-0.42011738,1.131947,-2.2330365,1.3096349,-1.7625686,0.116624326,-0.066406526,0.20538713,1.1124748,0.59298307
0.1,0.0,0.9999999999999999,0.0,-0.5235987755982988,0,-1.5629252,0.9998364,-0.6060573,0.63447964,-0.4184029,1.1341021,-2.2164924,0.99165976,-1.7040292,-0.08575504,-0.09135258,0.034068268,1.1894659,1.075812
0.1,0.0,0.9999999999999999,0.0,-0.5235987755982988,0,-1.5613407,1.0018144,-0.6092222,0.6317735,-0.4214846,1.135391,-2.2455404,1.2627234,-1.797862,-0.021541853,-0.11144321,0.12229994,1.1335274,0.029567448
0.1,0.0,0.9999999999999999,0.0,-0.5235987755982988,0,-1.5604358,1.0020509,-0.60851336,0.63281065,-0.41881987,1.1332794,-2.2325802,1.050931,-1.821917,0.15718684,-0.076772824,0.0011249728,1.1460496,0.45601934
0.1,0.0,0.9999999999999999,0.0,-0.5235987755982988,0,-1.561258,0.99977994,-0.60617465,0.62951577,-0.42267206,1.1306996,-2.220246,1.2133526,-1.7288456,-0.084963046,-0.06953322,0.21024482,1.1364139,0.9340082
0.1,0.0,0.9999999999999999,0.0,-0.5235987755982988,0,-1.5611879,0.9980851,-0.6090076,0.6315895,-0.41174132,1.1341844,-2.2177982,1.1132104,-1.8139141,0.23086612,-0.07895544,0.29413873,1.2086985,-0.106343225
0.1,0.0,0.9999999999999999,0.0,-0.5235987755982988,0,-1.5588347,0.98963016,-0.6063069,0.6300334,-0.4195608,1.1336535,-2.233851,1.4403228,-1.6485476,0.26464456,-0.07269712,0.119664796,1.3519439,0.46870208
0.1,0.0,0.9999999999999999,0.0,-0.5235987755982988,0,-1.5613095,0.999492,-0.60621375,0.63214356,-0.41138202,1.1352968,-2.2282853,1.0514988,-1.7569065,-0.26434818,-0.12581235,0.11893995,1.2107047,1.0959046
0.1,0.0,0.9999999999999999,0.0,-0.5235987755982988,0,-1.5605712,0.99591756,-0.60896087,0.6286793,-0.40601707,1.1312534,-2.2323418,1.2107837,-1.8483012,-0.6358418,-0.064816065,-0.1010438,1.0814663,0.26859674
0.1,0.0,0.9999999999999999,0.0,-0.5235987755982988,0,-1.557465,0.9983676,-0.6105961,0.63169235,-0.41828498,1.1327566,-2.2286534,1.1951756,-1.7695742,-0.32800943,-0.0920118,-0.017951962,1.1129668,0.8729323
0.1,0.0,0.9999999999999999,0.0,-0.5235987755982988,0,-1.5613774,1.0067458,-0.61001354,0.63345265,-0.42427516,1.1340046,-2.2274346,1.009955,-1.8460426,-0.33196884,-0.14119196,0.1869121,1.1392555,-0.07401501
0.1,0.0,0.9999999999999999,0.0,-0.5235987755982988,0,-1.5606886,0.9909199,-0.611892,0.63060683,-0.41588965,1.1343348,-2.2363849,1.1154727,-1.6714636,-0.15792404,-0.10028672,0.13715799,1.3062905,0.087340765
0.1,0.0,0.9999999999999999,0.0,-0.5235987755982988,0,-1.5598316,1.0025628,-0.6062513,0.6307723,-0.42018008,1.1356735,-2.2143767,0.9785708,-1.6878662,0.26023975,-0.07189027,0.09455273,1.2017238,0.68956983
0.1,0.0,0.9999999999999999,0.0,-0.5235987755982988,0,-1.5619421,0.9880219,-0.6082074,0.6322867,-0.41749695,1.1362959,-2.2323353,0.9021067,-1.7379428,0.03262753,-0.034984156,0.014488463,1.0941281,0.82280195
0.1,0.0,0.9999999999999999,0.0,-0.5235987755982988,0,-1.5631611,0.9980011,-0.6070593,0.632169,-0.42081225,1.1389155,-2.2415984,1.4271011,-1.7034756,-0.055233896,-0.04931952,0.15296249,1.1134484,1.230755
0.1,0.0,0.9999999999999999,0.0,-0.5235987755982988,0,-1.5542529,1.0044974,-0.6110825,0.63208497,-0.4162751,1.1312209,-2.256026,1.164065,-1.6960001,-0.13544503,-0.10690294,0.32279882,1.1815455,1.1466594
0.1,0.0,0.9999999999999999,0.0,-0.5235987755982988,0,-1.5646843,1.004352,-0.6084626,0.6303142,-0.4186747,1.1395451,-2.2213483,1.1527499,-1.6958632,-0.6324249,-0.081088364,-0.118702956,1.1826938,0.028214717
0.1,0.0,0.9999999999999999,0.0,-0.5235987755982988,0,-1.5601419,0.99526286,-0.60491604,0.63206166,-0.41501743,1.1353881,-2.2224798,1.1870085,-1.6535978,-0.30491528,-0.055326525,0.043518104,1.1282682,0.3979127
0.1,0.0,0.9999999999999999,0.0,-0.5235987755982988,0,-1.5607219,1.0089767,-0.6100108,0.6321663,-0.41577762,1.1345745,-2.2473226,1.0332845,-1.7148335,-0.11306918,-0.056811646,0.066908054,1.1913698,0.63456935
0.1,0.0,0.9999999999999999,0.0,-0.5235987755982988,0,-1.5623137,0.99803466,-0.60956776,0.62896067,-0.41393724,1.1368518,-2.229381,1.3078563,-1.6046118,-0.03592001,-0.040808022,-0.092627585,1.1372184,0.19791514
0.1,0.0,0.9999999999999999,0.0,-0.5235987755982988,0,-1.5654675,0.9974254,-0.6076445,0.6304594,-0.41627774,1.1385944,-2.2443476,1.1129628,-1.8191236,-0.4816248,-0.05481195,0.030559046,1.1735952,0.6922116
0.1,0.0,0.9999999999999999,0.0,-0.5235987755982988,0,-1.5634326,1.0001749,-0.608444,0.6280374,-0.41880164,1.1374333,-2.236476,1.277285,-1.745311,-0.33744478,0.003957647,-0.033858445,1.1870323,0.57510257
0.1,0.0,0.9999999999999999,0.0,-0.5235987755982988,0,-1.5597581,0.99791855,-0.60828674,0.63107836,-0.4226522,1.1372054,-2.239346,1.2003677,-1.8056202,-0.18932983,-0.055082038,0.065581694,1.1517885,-0.62037957
0.1,0.0,0.9999999999999999,0.0,-0.5235987755982988,0,-1.5605528,0.99772817,-0.60706156,0.6336293,-0.41389608,1.1331308,-2.2420406,1.2507659,-1.6552824,-0.058702923,-0.04805913,0.084942415,1.1293888,-0.00782114
0.1,0.0,0.9999999999999999,0.0,-0.5235987755982988,0,-1.5595682,0.98589385,-0.607799,0.63117206,-0.42589796,1.1313791,-2.2315378,1.0799128,-1.6409762,0.15895835,-0.088063456,0.2524422,1.1802102,0.82067204
0.1,0.0,0.9999999999999999,0.0,-0.5235987755982988,0,-1.5597397,1.0018587,-0.6051364,0.6318449,-0.41505662,1.1324499,-2.2256207,1.2015933,-1.7387516,-0.03484279,-0.08765606,0.06202975,1.2335256,1.3577784
0.1,0.0,0.9999999999999999,0.0,-0.5235987755982988,0,-1.563921,1.0012017,-0.60810786,0.63118553,-0.41472065,1.1351252,-2.2277513,1.08937,-1.7337985,-0.10709217,0.0059349006,0.23904558,1.1651286,0.690204
0.1,0.0,0.9999999999999999,0.0,-0.5235987755982988,0,-1.5618397,0.99557596,-0.60870105,0.6316355,-0.41699868,1.1343307,-2.228508,1.4088525,-1.8271415,-0.4520002,-0.065510474,0.23724817,1.1360186,-0.11381956
0.1,0.0,0.9999999999999999,0.0,-0.5235987755982988,0,-1.5608782,0.99228483,-0.6079918,0.6303185,-0.41870564,1.1316916,-2.2280524,1.1925993,-1.8312004,0.011573222,-0.10506346,0.1474277,1.1276,0.7669441
0.1,0.0,0.9999999999999999,0.0,-0.5235987755982988,0,-1.5635917,0.99780566,-0.604204,0.6330088,-0.40717366,1.1361691,-2.2355995,1.3654311,-1.797469,0.20069674,-0.11295963,0.104772,1.1195525,0.15975529
0.1,0.0,0.9999999999999999,0.0,-0.5235987755982988,0,-1.5621214,0.992298,-0.60688525,0.63274974,-0.40959328,1.1384182,-2.2421143,1.0683551,-1.5600009,0.08049674,-0.09689539,0.09433414,1.2364706,0.6273927
0.1,0.0,0.9999999999999999,0.0,-0.5235987755982988,0,-1.5615803,1.0044079,-0.6111702,0.63145655,-0.41407323,1.1376492,-2.2510297,1.0107872,-1.7414415,-0.6143701,-0.09399753,-0.061115436,1.043322,0.86105925
0.1,0.0,0.9999999999999999,0.0,-0.5235987755982988,0,-1.5601524,1.0001435,-0.60700625,0.62823546,-0.4215156,1.1326106,-2.2416928,0.93242604,-1.7979144,-0.16725026,-0.0667311,0.16841385,1.2979836,0.5476297
0.1,0.0,0.9999999999999999,0.0,-0.5235987755982988,0,-1.5597372,1.0038279,-0.603711,0.63162786,-0.41363797,1.1362426,-2.228382,1.3078406,-1.7787443,0.24148974,-0.124299645,0.16705704,1.1003455,1.241214
0.1,0.0,0.9999999999999999,0.0,-0.5235987755982988,0,-1.5629128,0.99361384,-0.6104057,0.6316716,-0.40728423,1.1353562,-2.2387104,1.2986988,-1.6990434,0.16156304,-0.078798965,0.18706237,1.2092781,0.8142569
0.1,0.0,0.9999999999999999,0.0,-0.5235987755982988,0,-1.55885,0.9920124,-0.60669553,0.6311032,-0.409113,1.1326413,-2.218818,1.2256069,-1.7291024,0.20009807,-0.10996514,0.11248701,1.1859814,0.66170883
0.1,0.0,0.9999999999999999,0.0,-0.5235987755982988,0,-1.5627867,1.0029722,-0.6083587,0.6280724,-0.4166116,1.1307667,-2.2344003,0.95304084,-1.7243681,-0.27754673,-0.06092301,0.20187312,1.204436,0.8637463
0.1,0.0,0.9999999999999999,0.0,-0.5235987755982988,0,-1.5614308,1.0037036,-0.6074184,0.6334143,-0.41579124,1.1317917,-2.2419903,0.9031694,-1.7784855,0.044674847,-0.04924528,-0.024131594,1.0777923,-0.023248848
0.1,0.0,0.9999999999999999,0.0,-0.5235987755982988,0,-1.5598027,1.0015785,-0.612606,0.6316395,-0.41479868,1.1320976,-2.2507231,1.2475916,-1.8135638,-0.3534206,0.00948433,0.09881238,1.1866492,0.22013515
0.1,0.0,0.9999999999999999,0.0,-0.5235987755982988,0,-1.563286,0.99011856,-0.6054992,0.63222015,-0.41983423,1.1318154,-2.224135,1.3725547,-1.7341335,0.15059775,-0.09002698,0.15399083,1.1001723,0.40087086
0.1,0.0,0.9999999999999999,0.0,-0.5235987755982988,0,-1.5587596,0.999526,-0.60559905,0.6325864,-0.42327514,1.1324234,-2.2482388,1.2284048,-1.8480909,0.4664337,-0.0021962393,0.18519342,1.1481588,0.54276526
0.1,0.0,0.9999999999999999,0.0,-0.5235987755982988,0,-1.5585083,1.0008011,-0.60753626,0.626013,-0.41883162,1.1356378,-2.2223415,0.87739575,-1.8009698,-0.06557086,-0.06738008,0.13210341,1.1241539,0.5136311
0.1,0.0,0.9999999999999999,0.0,-0.5235987755982988,0,-1.5624003,1.001542,-0.6060319,0.63013804,-0.4153067,1.1355392,-2.2550745,1.3077369,-1.7226613,-0.49464503,-0.09703831,-0.055187423,1.187886,0.7194994
0.1,0.0,0.9999999999999999,0.0,-0.5235987755982988,0,-1.563561,0.99529904,-0.6101354,0.6287474,-0.4189206,1.1330673,-2.224226,1.0673145,-1.5640668,0.1390151,-0.10138424,-0.08879751,1.2095755,1.2150675
0.1,0.0,0.9999999999999999,0.0,-0.5235987755982988,0,-1.5637199,0.9960741,-0.6073059,0.6314036,-0.41326103,1.1338677,-2.2338328,1.2131692,-1.7330966,0.118357226,-0.097762674,0.09928693,1.092927,0.39324507
0.1,0.0,0.9999999999999999,0.0,-0.5235987755982988,0,-1.5627464,0.9985279,-0.60423714,0.6294705,-0.41782302,1.1347988,-2.22405,1.1759934,-1.657429,0.095813625,-0.041765492,0.17995508,1.1696148,0.6804533
0.1,0.0,0.9999999999999999,0.0,-0.5235987755982988,0,-1.5625361,0.9900344,-0.61005944,0.6330271,-0.4064964,1.1316898,-2.2196448,1.3741874,-1.6978639,0.16719405,-0.10714688,0.07802043,1.1753701,0.55587935
0.1,0.0,0.9999999999999999,0.0,-0.5235987755982988,0,-1.5602939,0.9926541,-0.61022323,0.6311533,-0.4161052,1.1348581,-2.2434542,1.0049211,-1.6974595,0.13849325,-0.121510774,0.24146926,1.0531414,0.534235
0.1,0.0,0.9999999999999999,0.0,-0.5235987755982988,0,-1.5614015,1.0005578,-0.6095191,0.63252765,-0.4139002,1.1325581,-2.251268,1.0303061,-1.596005,0.2272855,-0.080058485,0.11969717,1.1447301,0.3690994
0.1,0.0,0.9999999999999999,0.0,-0.5235987755982988,0,-1.5581517,1.0059919,-0.6072114,0.63241535,-0.412435,1.130816,-2.2247794,1.1156905,-1.6573989,0.20286287,-0.032934282,0.087335296,1.2571263,0.13620618
0.1,0.0,0.9999999999999999,0.0,-0.5235987755982988,0,-1.5593263,1.0007534,-0.60609055,0.63041896,-0.4136931,1.1327448,-2.2270696,1.2544209,-1.7712411,0.40320757,-0.047038127,0.039806534,1.2022827,1.9374946
0.1,0.0,0.9999999999999999,0.0,-0.5235987755982988,0,-1.5618168,1.001555,-0.6057067,0.63194335,-0.40993112,1.1324146,-2.2273638,0.99780184,-1.7165428,-0.11292469,-0.067071006,0.027152736,1.1520356,0.49540505
0.1,0.0,0.9999999999999999,0.0,-0.5235987755982988,0,-1.5634477,0.99794346,-0.60617095,0.6302349,-0.41272688,1.1318738,-2.231108,1.0231787,-1.7868807,-0.056705356,-0.055868343,-0.021408448,1.2840129,0.99792486
0.1,0.0,0.9999999999999999,0.0,-0.5235987755982988,0,-1.5609,1.0119313,-0.60969275,0.6318228,-0.4144547,1.134211,-2.251523,1.294469,-1.608746,0.50393766,-0.032793134,0.25053045,1.202192,0.8979834
0.1,0.0,0.9999999999999999,0.0,-0.5235987755982988,0,-1.5568687,0.9963176,-0.60723823,0.63527966,-0.4236152,1.1346743,-2.216851,1.1293113,-1.7628859,-0.14144093,0.04115436,0.2584793,1.1380643,1.3699596
0.1,0.0,0.9999999999999999,0.0,-0.5235987755982988,0,-1.5610979,0.9975556,-0.607111,0.6297297,-0.4241037,1.1312137,-2.2432032,1.0690694,-1.6958934,-0.16980301,-0.102028735,0.038695775,1.241615,1.9192824
0.1,0.0,0.9999999999999999,0.0,-0.5235987755982988,0,-1.5620214,0.99806327,-0.606076,0.6316731,-0.41432744,1.1369268,-2.212221,1.4473759,-1.6570739,-0.3077463,0.046954285,0.14339331,1.2321167,0.66856486
0.1,0.0,0.9999999999999999,0.0,-0.5235987755982988,0,-1.5606015,0.9941592,-0.60470223,0.62931925,-0.41009748,1.1338187,-2.2355416,1.2713577,-1.821686,-0.1737248,-0.065784566,0.18663244,1.2332633,1.361588
0.1,0.0,0.9999999999999999,0.0,-0.5235987755982988,0,-1.5620322,0.9968322,-0.61268735,0.6308573,-0.41196838,1.133699,-2.2239616,1.015,-1.9789579,0.15706539,-0.0505638,0.08251134,1.173695,0.50765574
0.1,0.0,0.9999999999999999,0.0,-0.5235987755982988,0,-1.5625299,1.0030165,-0.6049798,0.62894785,-0.42380068,1.1363065,-2.2335265,1.1441077,-1.7087418,0.060457826,-0.071635306,0.13616692,1.1550604,-0.41678593
0.1,0.0,0.9999999999999999,0.0,-0.5235987755982988,0,-1.5606046,1.0013065,-0.60766965,0.63403994,-0.41146877,1.1351544,-2.2284005,1.1870959,-1.7364705,-0.29099354,-0.08058609,-0.116496004,1.2233771,0.52060574
0.1,0.0,0.9999999999999999,0.0,-0.5235987755982988,0,-1.5570847,1.003471,-0.60920197,0.6335471,-0.4190072,1.1339399,-2.2262764,1.1312757,-1.7113038,-0.371105,-0.06736476,0.19563681,1.0842258,0.3824488
0.1,0.0,0.9999999999999999,0.0,-0.5235987755982988,0,-1.5618591,1.0039724,-0.6106375,0.63413703,-0.40978274,1.1378589,-2.2299178,0.9570491,-1.8760904,0.2492372,-0.115541816,0.024994079,1.1642793,0.49272707
0.1,0.0,0.9999999999999999,0.0,-0.5235987755982988,0,-1.5616298,1.0010078,-0.60842407,0.6328846,-0.4144014,1.1402005,-2.242615,1.3463546,-1.6572472,-0.4994846,-0.10036757,0.040515494,1.2051879,0.17767312
0.1,0.0,0.9999999999999999,0.0,-0.5235987755982988,0,-1.5582553,0.99746394,-0.61037004,0.63355315,-0.42327407,1.1311855,-2.236042,1.2203423,-1.7095084,0.013891019,-0.05837041,-0.029028641,1.1770538,0.13008259
0.1,0.0,0.9999999999999999,0.0,-0.5235987755982988,0,-1.5631963,1.0004748,-0.6095715,0.6290068,-0.41566992,1.1356517,-2.224343,1.4538279,-1.7132345,0.48364365,-0.046565924,0.039910067,1.1798186,0.3052008
0.1,0.0,0.9999999999999999,0.0,-0.5235987755982988,0,-1.5580524,0.9963323,-0.6078317,0.6325454,-0.4190157,1.1356273,-2.2365124,1.0296046,-1.8025614,-0.13377392,-0.12568195,0.0856618,1.2193562,0.6423372
0.1,0.0,0.9999999999999999,0.0,-0.5235987755982988,0,-1.5622987,0.9952836,-0.60561836,0.6304299,-0.41348067,1.1371284,-2.2320542,1.0405612,-1.6301917,-0.059157155,-0.063871875,-0.019394424,1.1135015,1.1027437
0.1,0.0,0.9999999999999999,0.0,-0.5235987755982988,0,-1.5582361,0.99924105,-0.6097687,0.6285093,-0.41778246,1.1362252,-2.244398,1.172176,-1.7357353,-0.07029916,-0.07565271,0.17025115,1.2228073,0.4666233
0.1,0.0,0.9999999999999999,0.0,-0.5235987755982988,0,-1.5617992,0.9957172,-0.6095534,0.6283407,-0.41368532,1.1391512,-2.2479846,1.1627892,-1.8687415,-0.19939883,-0.10705051,0.16005446,1.2502354,0.44408548
0.1,0.0,0.9999999999999999,0.0,-0.5235987755982988,0,-1.5619959,1.0014979,-0.6097984,0.6291059,-0.41589463,1.1334786,-2.2217062,1.2382611,-1.6061232,0.036684714,-0.18786955,0.09606169,1.1924833,0.5798636
0.1,0.0,0.9999999999999999,0.0,-0.5235987755982988,0,-1.5615017,1.0008911,-0.60586727,0.627275,-0.42203954,1.1388358,-2.2399492,1.0936927,-1.7039611,0.2330857,-0.1213976,0.055519804,1.1751845,0.45200726
0.1,0.0,0.9999999999999999,0.0,-0.5235987755982988,0,-1.5602272,0.99779147,-0.6049964,0.6332112,-0.41441688,1.1365235,-2.237529,1.1760666,-1.7888255,-0.106307045,-0.15729171,0.11339849,1.0772256,0.83094776
0.1,0.0,0.9999999999999999,0.0,-0.5235987755982988,0,-1.5605226,1.0022157,-0.60754144,0.63259333,-0.42161602,1.1352532,-2.243179,1.3948672,-1.7002884,-0.07790598,-0.04682588,0.119139746,1.2747238,0.5038322
0.1,0.0,0.9999999999999999,0.0,-0.5235987755982988,0,-1.561128,1.0044235,-0.60591084,0.62805074,-0.4167093,1.1325692,-2.2284062,1.4149206,-1.6197121,-0.21008894,-0.09546041,0.15046279,1.1003089,0.25214162
0.1,0.0,0.9999999999999999,0.0,-0.5235987755982988,0,-1.5592558,1.0017763,-0.6060436,0.62781614,-0.42274636,1.1334599,-2.2346911,1.0297768,-1.7262781,-0.10524163,-0.015021402,0.15030828,1.2342535,0.15857366
0.1,0.0,0.9999999999999999,0.0,-0.5235987755982988,0,-1.5578783,0.9953288,-0.60830486,0.632132,-0.41369116,1.1355487,-2.2420082,1.1394603,-1.7220305,-0.09529276,-0.012356622,0.05060737,1.2475924,0.51140094
0.1,0.0,0.9999999999999999,0.0,-0.5235987755982988,0,-1.5604881,0.99473953,-0.60794175,0.63100046,-0.41816774,1.1378385,-2.2043705,1.20776,-1.7181449,0.31720424,-0.053329952,0.11541284,1.1914777,0.68703157
0.1,0.0,0.9999999999999999,0.0,-0.5235987755982988,0,-1.5637139,0.99449396,-0.6074842,0.6334604,-0.41417453,1.1327974,-2.2387977,1.0181545,-1.792478,-0.2607373,-0.08260118,0.16041282,1.151143,0.36798823
0.1,0.0,0.9999999999999999,0.0,-0.5235987755982988,0,-1.5628061,0.99979806,-0.61015975,0.6324408,-0.4146307,1.1377641,-2.222887,1.390921,-1.616992,0.2505094,-0.091082215,0.1549575,1.123193,-0.732516
0.1,0.0,0.9999999999999999,0.0,-0.5235987755982988,0,-1.561299,0.987407,-0.6059414,0.6311883,-0.4193686,1.1344116,-2.232765,0.8882561,-1.7864177,-0.19759576,-0.06251215,0.05749099,1.1280595,0.94318205
0.1,0.0,0.9999999999999999,0.0,-0.5235987755982988,0,-1.5576603,0.9937513,-0.6041194,0.63043326,-0.41202635,1.1368709,-2.2362404,1.2404573,-1.6281704,-0.32240614,-0.087178744,0.01982075,1.1543308,0.67775744
0.1,0.0,0.9999999999999999,0.0,-0.5235987755982988,0,-1.5664268,0.99190295,-0.6092698,0.63160515,-0.41949698,1.128974,-2.217214,1.2064444,-1.7880259,0.14452803,-0.068372115,0.2286559,1.149008,0.703922
0.1,0.0,0.9999999999999999,0.0,-0.5235987755982988,0,-1.5629725,0.9935363,-0.6079667,0.6327592,-0.41646954,1.1330309,-2.227511,1.239448,-1.7166643,0.047391936,-0.008370012,-0.015334335,1.0676531,0.50645274
0.1,0.0,0.9999999999999999,0.0,-0.5235987755982988,0,-1.5655117,1.0010046,-0.6060828,0.6328835,-0.41695538,1.1311747,-2.2391043,1.2060539,-1.7652482,0.443579,-0.096873164,0.22866859,1.0879993,1.5056913
0.1,0.0,0.9999999999999999,0.0,-0.5235987755982988,0,-1.5593104,1.001817,-0.6076966,0.63275814,-0.42333072,1.1367847,-2.2256684,1.1818254,-1.6442914,0.28838056,-0.00026471436,0.18415204,1.0207142,1.113181
0.1,0.0,0.9999999999999999,0.0,-0.5235987755982988,0,-1.558726,0.99467516,-0.6067101,0.6311356,-0.41255954,1.1304969,-2.253421,1.2173735,-1.6414067,0.09620955,-0.0281005,-0.032781634,0.99292064,0.7604391
0.1,0.0,0.9999999999999999,0.0,-0.5235987755982988,0,-1.560033,0.99958235,-0.60673904,0.628456,-0.41373208,1.1306432,-2.2428906,0.90936774,-1.8346744,-0.15852827,-0.09359154,-0.18687123,1.1135374,0.2860266
0.1,0.0,0.9999999999999999,0.0,-0.5235987755982988,0,-1.5599387,0.9960755,-0.6053667,0.6334659,-0.41579586,1.1350452,-2.2203176,1.0632025,-1.7984025,-0.16940534,-0.041325074,-0.1477503,1.1557362,0.59896445
0.1,0.0,0.9999999999999999,0.0,-0.5235987755982988,0,-1.5592734,0.98885447,-0.6043886,0.6333386,-0.4189773,1.1345325,-2.2283726,1.1314993,-1.6653622,-0.035767283,-0.057312462,0.14695743,1.2287858,-0.19307762
0.1,0.0,0.9999999999999999,0.0,-0.5235987755982988,0,-1.5565652,0.9974433,-0.6082324,0.6309319,-0.42249802,1.1386056,-2.2309377,1.3284636,-1.6572057,-0.4347258,-0.08448301,0.13564101,1.1593845,1.020897
0.1,0.0,0.9999999999999999,0.0,-0.5235987755982988,0,-1.5646801,0.9955444,-0.60806185,0.63081175,-0.4162383,1.1387234,-2.2295704,1.1446911,-1.7498571,-0.41858137,-0.04078297,0.12350864,1.1058509,0.5683696
0.1,0.0,0.9999999999999999,0.0,-0.5235987755982988,0,-1.5600481,0.9988278,-0.6084674,0.6302565,-0.4186902,1.1373503,-2.2454314,1.2235613,-1.7716295,-0.107890114,0.027330963,0.1135994,1.1660614,1.4059308
0.1,0.0,0.9999999999999999,0.0,-0.5235987755982988,0,-1.5601357,0.99499995,-0.60891175,0.6304578,-0.41801977,1.1365163,-2.2405016,0.9995959,-1.8948466,-0.044621576,-0.058293507,0.23162815,1.145227,1.0454556
0.1,0.0,0.9999999999999999,0.0,-0.5235987755982988,0,-1.559727,1.005911,-0.60928845,0.632282,-0.4211848,1.1345562,-2.2501533,1.3338913,-1.779889,0.060080025,-0.09824868,0.062146988,1.1485037,0.5900837
0.1,0.0,0.9999999999999999,0.0,-0.5235987755982988,0,-1.5585895,0.9958582,-0.6078959,0.6349775,-0.40710178,1.1325952,-2.2299404,1.1109654,-1.7598667,-0.03211283,-0.077827066,0.1866372,1.1656965,1.4594204
0.1,0.0,0.9999999999999999,0.0,-0.5235987755982988,0,-1.5646697,0.9995368,-0.60898834,0.62912285,-0.42333353,1.1373361,-2.227871,1.0027822,-1.6028459,0.09803832,-0.097076684,0.07743383,1.1352857,0.59215087
0.1,0.0,0.9999999999999999,0.0,-0.5235987755982988,0,-1.5650644,0.99361306,-0.61127067,0.63015443,-0.41606373,1.1333808,-2.2262785,1.0782285,-1.7236698,-0.03538064,-0.060428128,0.040801413,1.1573007,0.68264604
0.1,0.0,0.9999999999999999,0.0,-0.5235987755982988,0,-1.5624169,0.9999839,-0.60710853,0.6302083,-0.41653222,1.1343875,-2.222353,1.1603509,-1.6890252,-0.065426454,-0.11741861,-0.021751134,1.0738089,0.35502017
0.1,0.0,0.9999999999999999,0.0,-0.5235987755982988,0,-1.5605764,1.0010816,-0.6071746,0.63024515,-0.41125742,1.1381115,-2.2425213,1.0227324,-1.9731846,-0.14741059,-0.05312964,-0.09551597,1.2760203,1.8913457
0.1,0.0,0.9999999999999999,0.0,-0.5235987755982988,0,-1.5605245,1.0084091,-0.60552275,0.6303568,-0.41658238,1.1342584,-2.2335901,1.1268423,-1.7371974,-0.092730954,-0.016255695,-0.02892267,1.1804264,0.58533347
0.1,0.0,0.9999999999999999,0.0,-0.5235987755982988,0,-1.557535,0.99059993,-0.6083436,0.63089836,-0.40847674,1.1345661,-2.2482808,1.1061167,-1.7216614,-0.05141638,-0.06709202,0.0018805589,1.2464488,1.400358
0.1,0.0,0.9999999999999999,0.0,-0.5235987755982988,0,-1.5618551,0.98234844,-0.60794216,0.6275302,-0.4163906,1.1288146,-2.23775,0.9762466,-1.9197434,0.12753817,-0.08570672,0.11646016,1.105956,0.11554352
0.1,0.0,0.9999999999999999,0.0,-0.5235987755982988,0,-1.5649327,0.99756986,-0.6088298,0.632988,-0.4146627,1.1359133,-2.2373536,1.0942539,-1.8732507,0.23934889,-0.076001614,0.12852739,1.1653563,0.04627688
0.1,0.0,0.9999999999999999,0.0,-0.5235987755982988,0,-1.5578167,1.0050055,-0.6060924,0.6306999,-0.41924432,1.131535,-2.2396042,1.2756252,-1.7663914,0.06754875,-0.091523364,0.10689561,1.2892182,0.7464582
0.1,0.0,0.9999999999999999,0.0,-0.5235987755982988,0,-1.5645977,0.9922232,-0.61024654,0.6333457,-0.42247716,1.1350856,-2.2240498,1.2762759,-1.912388,-0.28537056,-0.054002214,0.1224163,0.98022604,0.5805085
0.1,0.0,0.9999999999999999,0.0,-0.5235987755982988,0,-1.560134,0.9957733,-0.60751927,0.629627,-0.41752017,1.1364425,-2.2466621,1.4471145,-1.7243667,0.26107842,-0.10776438,0.038502738,1.254861,-0.13900703
0.1,0.0,0.9999999999999999,0.0,-0.5235987755982988,0,-1.562793,0.993692,-0.60509104,0.63108367,-0.415486,1.1350759,-2.2325108,1.1967497,-1.7482572,-0.0664558,-0.044438247,0.11150392,1.1777233,0.11723582
0.1,0.0,0.9999999999999999,0.0,-0.5235987755982988,0,-1.56457,1.0056201,-0.60927016,0.629664,-0.42226377,1.134695,-2.2298374,1.0014675,-1.7540027,0.06354021,-0.10591939,-0.05537327,1.1398506,0.7119919
0.1,0.0,0.9999999999999999,0.0,-0.5235987755982988,0,-1.5613273,0.99819154,-0.6087478,0.62770736,-0.42073977,1.1364332,-2.2347093,1.1872876,-1.8619602,-0.22567596,-0.05588553,-0.06930252,1.2473836,0.6176114
0.1,0.0,0.9999999999999999,0.0,-0.5235987755982988,0,-1.5590714,0.9939817,-0.61021715,0.62813044,-0.40870064,1.1360755,-2.2357864,1.1090482,-1.74727,0.54069674,-0.052052137,0.12775554,1.2063857,1.0847559
0.1,0.0,0.9999999999999999,0.0,-0.5235987755982988,0,-1.565044,0.9972729,-0.6069278,0.6287829,-0.42006862,1.1358397,-2.2343922,1.5002588,-1.7854058,-0.3752226,-0.06510266,0.041237447,1.2061186,0.31280294
0.1,0.0,0.9999999999999999,0.0,-0.5235987755982988,0,-1.5608543,0.9944466,-0.6092422,0.63346136,-0.412644,1.1369414,-2.2068048,1.2414033,-1.6765978,0.23352064,-0.112450704,0.028630635,1.1294749,0.5964866
0.1,0.0,0.9999999999999999,0.0,-0.5235987755982988,0,-1.5622032,0.9937101,-0.61041397,0.63066113,-0.4074327,1.1365083,-2.2129557,1.1693958,-1.7881856,0.4879703,-0.14328152,0.048118502,1.1337569,0.916563
0.1,0.0,0.9999999999999999,0.0,-0.5235987755982988,0,-1.564458,0.99687415,-0.6099347,0.6291201,-0.40995726,1.1373419,-2.2340167,1.2510326,-1.7485584,-0.051004425,-0.11563202,0.22736993,1.1584736,0.7387384
0.1,0.0,0.9999999999999999,0.0,-0.5235987755982988,0,-1.561697,0.9938369,-0.6067081,0.6317376,-0.41816244,1.137606,-2.2188108,1.1734169,-1.8250248,0.6263092,0.018926961,0.21862805,1.2238237,0.8621952
0.1,0.0,0.9999999999999999,0.0,-0.5235987755982988,0,-1.5601687,0.99420863,-0.61082,0.6298194,-0.41040215,1.1383823,-2.2168982,1.2153871,-1.6853755,0.32527772,-0.0776037,0.14141728,1.0970696,0.7374707
0.1,0.0,0.9999999999999999,0.0,-0.5235987755982988,0,-1.5608262,0.9939186,-0.6092639,0.62911797,-0.41401413,1.1369476,-2.2081645,1.162687,-1.7116082,0.10697542,-0.008999383,0.022046933,1.218561,0.64135087
0.1,0.0,0.9999999999999999,0.0,-0.5235987755982988,0,-1.5654424,0.9986249,-0.6083869,0.63447547,-0.41407916,1.1382781,-2.2200503,1.0187799,-1.829813,0.22330087,-0.08721994,0.11980198,1.1753067,0.75587255
0.1,0.0,0.9999999999999999,0.0,-0.5235987755982988,0,-1.5611542,0.99782246,-0.6130015,0.6312079,-0.4211524,1.1312286,-2.2366517,1.3747216,-1.7653177,-0.09254643,-0.10227179,0.020308943,1.1250845,0.29621816
0.1,0.0,0.9999999999999999,0.0,-0.5235987755982988,0,-1.5604703,0.99569243,-0.60663974,0.6306738,-0.4126152,1.1343185,-2.2181559,1.2902563,-1.848141,-0.07168767,-0.05601626,0.025880469,1.208209,0.8784401
0.1,0.0,0.9999999999999999,0.0,-0.5235987755982988,0,-1.5559168,1.004439,-0.60522425,0.63001364,-0.40779018,1.1328106,-2.2364912,0.9741942,-1.839982,0.106902525,-0.09113115,0.14776935,1.1272776,1.3628029
0.1,0.0,0.9999999999999999,0.0,-0.5235987755982988,0,-1.5590252,1.0015082,-0.609012,0.6288326,-0.41299403,1.1335206,-2.2249482,0.7581952,-1.7396611,-0.1161079,-0.08979775,0.084902376,1.1454251,-0.13993238
0.1,0.0,0.9999999999999999,0.0,-0.5235987755982988,0,-1.558587,1.0024023,-0.60755,0.6290507,-0.40581644,1.1316378,-2.2471416,1.1949258,-1.7196592,0.14865017,-0.06622213,0.1786423,0.9987214,0.5309467
0.1,0.0,0.9999999999999999,0.0,-0.5235987755982988,0,-1.5611771,1.0003685,-0.60894394,0.63336146,-0.4147424,1.1323311,-2.2246833,1.293721,-1.7982807,0.08870189,-0.092413016,0.13030005,1.2809663,1.0990992
0.1,0.0,0.9999999999999999,0.0,-0.5235987755982988,0,-1.5606931,0.99982464,-0.6080631,0.62950104,-0.41338158,1.1268708,-2.2308729,1.126766,-1.6595871,-0.29332116,-0.0044637755,0.053867437,1.1373948,0.44100288
0.1,0.0,0.9999999999999999,0.0,-0.5235987755982988,0,-1.5629292,1.0031104,-0.60920775,0.6300181,-0.4150917,1.135465,-2.2267797,1.3298559,-1.5899142,-0.55214167,-0.1439839,0.05166704,1.2572838,0.5636563
0.1,0.0,0.9999999999999999,0.0,-0.5235987755982988,0,-1.5621681,0.99895906,-0.6040639,0.6296334,-0.4039516,1.1353941,-2.2598565,1.3045862,-1.6631011,0.27621838,-0.08746461,0.07030063,1.2191571,0.8368575
0.1,0.0,0.9999999999999999,0.0,-0.5235987755982988,0,-1.5627937,1.0000899,-0.60668814,0.63157266,-0.4151175,1.1337959,-2.2230422,0.9577512,-1.7231213,0.055509347,-0.053192865,0.13831401,1.2377111,0.32113224
0.1,0.0,0.9999999999999999,0.0,-0.5235987755982988,0,-1.5604788,1.0008255,-0.60588455,0.6298323,-0.41517928,1.136638,-2.2355115,1.1731585,-1.5276945,0.15180752,-0.1362452,0.2708059,1.1610556,1.2284604
0.1,0.0,0.9999999999999999,0.0,-0.5235987755982988,0,-1.5574319,1.0045156,-0.6049369,0.6303036,-0.42013487,1.1347877,-2.2517686,1.0192506,-1.7503104,0.24507344,-0.15642455,0.14749189,1.0566372,0.59374464
0.1,0.0,0.9999999999999999,0.0,-0.5235987755982988,0,-1.5629966,1.00239,-0.6082043,0.6298192,-0.41740882,1.1344959,-2.2096481,1.3243505,-1.6423066,-0.37969965,-0.12985982,0.17398442,1.221079,0.25756922
0.1,0.0,0.9999999999999999,0.0,-0.5235987755982988,0,-1.5559617,1.0054568,-0.6080765,0.6298738,-0.41997108,1.1331764,-2.2495317,1.2372049,-1.7844377,0.26009768,0.0003875804,-0.031100357,1.1717557,0.28202915
0.1,0.0,0.9999999999999999,0.0,-0.5235987755982988,0,-1.5606711,1.0024374,-0.60654676,0.6311565,-0.41404063,1.1377809,-2.212213,0.93538624,-1.6927774,-0.003777214,-0.052917574,0.10942331,1.2441311,0.7870186
0.1,0.0,0.9999999999999999,0.0,-0.5235987755982988,0,-1.5588658,1.0017881,-0.6082163,0.62988573,-0.42559224,1.1301193,-2.221241,1.0728685,-1.866788,0.10212457,-0.012787476,0.23815738,1.1417843,0.8466382
0.1,0.0,0.9999999999999999,0.0,-0.5235987755982988,0,-1.562396,1.0099821,-0.6046198,0.63115156,-0.41108304,1.13171,-2.219877,1.1280038,-1.9448469,0.22091138,-0.07989871,0.043717567,1.1991549,0.7558657
0.1,0.0,0.9999999999999999,0.0,-0.5235987755982988,0,-1.5575188,1.005824,-0.60809916,0.6335257,-0.41158026,1.1345313,-2.242128,1.1899321,-1.7111553,-0.1086603,-0.06498742,0.14935155,1.2786682,1.129391
0.1,0.0,0.9999999999999999,0.0,-0.5235987755982988,0,-1.5622449,0.9981285,-0.60680485,0.6311244,-0.40787515,1.130547,-2.219835,0.9698238,-1.8269231,-0.10177666,-0.06422016,0.23949452,1.11022,0.10373202
0.1,0.0,0.9999999999999999,0.0,-0.5235987755982988,0,-1.559144,0.9998103,-0.60803294,0.6298209,-0.41372553,1.135004,-2.2240312,1.4413024,-1.7514048,-0.25756282,-0.03188757,0.11627839,1.162736,0.19019042
0.1,0.0,0.9999999999999999,0.0,-0.5235987755982988,0,-1.5608441,1.0016136,-0.607407,0.63568425,-0.41360277,1.135199,-2.225352,1.5019978,-1.688581,0.35611922,-0.15003735,0.036907714,1.1126696,0.4502288
0.1,0.0,0.9999999999999999,0.0,-0.5235987755982988,0,-1.559372,1.0009029,-0.60919863,0.6322537,-0.41712204,1.1326784,-2.2391858,1.0993264,-1.7641577,0.39522877,-0.0034242033,-0.054808475,1.0987974,-0.18543871
0.1,0.0,0.9999999999999999,0.0,-0.5235987755982988,0,-1.5608523,1.0041292,-0.6059752,0.6315812,-0.42222127,1.1326033,-2.2201645,0.9727723,-1.7709057,0.3582835,-0.070602804,0.021472037,1.1556706,0.18770653
0.1,0.0,0.9999999999999999,0.0,-0.5235987755982988,0,-1.557477,0.99736017,-0.60633314,0.62874734,-0.4162098,1.1381851,-2.24224,1.201433,-1.7497252,0.10021383,-0.07681551,0.020948851,1.1673286,0.67903215
0.1,0.0,0.9999999999999999,0.0,-0.5235987755982988,0,-1.55693,0.9970405,-0.60749245,0.6281205,-0.41776425,1.1327355,-2.2242842,1.2145698,-1.676155,-0.36496165,-0.046474285,0.039520208,1.0298657,0.48504522
0.1,0.0,0.9999999999999999,0.0,-0.5235987755982988,0,-1.5591005,1.0008026,-0.6077505,0.6316279,-0.4170538,1.1324055,-2.2395482,1.0254258,-1.7293006,-0.47180337,-0.10133386,0.15022187,1.1377759,0.3728258
0.1,0.0,0.9999999999999999,0.0,-0.5235987755982988,0,-1.563196,0.99827486,-0.6088511,0.6330179,-0.4083455,1.1299454,-2.2180052,0.9802409,-1.5745623,-0.6039968,-0.11588215,0.086899884,1.1920516,-0.010876159
0.1,0.0,0.9999999999999999,0.0,-0.5235987755982988,0,-1.5633711,0.99659735,-0.6074305,0.6307354,-0.41537017,1.1324147,-2.2433565,0.99127305,-1.8933535,-0.32064238,-0.065513894,-0.059726153,1.0482662,0.31855744
0.1,0.0,0.9999999999999999,0.0,-0.5235987755982988,0,-1.5639147,1.0004947,-0.6089024,0.6316507,-0.41349426,1.1327212,-2.2540305,1.1785272,-1.7611436,0.041946553,-0.015696641,-0.046551615,1.1235832,0.6798157
0.1,0.0,0.9999999999999999,0.0,-0.5235987755982988,0,-1.5576322,1.0004706,-0.60892206,0.6318909,-0.41182894,1.1362078,-2.2317832,1.0692314,-1.899828,-0.35658872,-0.116075486,0.16808727,1.1208627,0.58221954
0.1,0.0,0.9999999999999999,0.0,-0.5235987755982988,0,-1.5626885,1.0008531,-0.60596216,0.6323502,-0.41930604,1.1368936,-2.226934,0.9621607,-1.8899829,-0.35585788,-0.07317576,-0.04032065,1.1545887,0.4792826
0.1,0.0,0.9999999999999999,0.0,-0.5235987755982988,0,-1.5597439,1.005582,-0.6085931,0.62940484,-0.41842365,1.1359429,-2.226877,1.1239226,-1.6352063,-0.036490608,-0.05422803,0.105673075,1.0948895,1.170307
0.1,0.0,0.9999999999999999,0.0,-0.5235987755982988,0,-1.5608189,0.99793893,-0.60700506,0.6320795,-0.4186646,1.1325009,-2.2322564,1.326363,-1.6427093,-0.22838624,-0.12746038,0.105698384,1.2034914,0.62131244
0.1,0.0,0.9999999999999999,0.0,-0.5235987755982988,0,-1.5626872,0.9992723,-0.60621923,0.63123846,-0.4159746,1.1346174,-2.236223,1.1184723,-1.7379473,0.071691655,-0.030174147,0.24262391,1.0742679,0.4661336
0.1,0.0,0.9999999999999999,0.0,-0.5235987755982988,0,-1.5601281,0.9960152,-0.61209416,0.631281,-0.40984273,1.1323614,-2.237869,1.2055709,-1.6112891,-0.20291957,0.046908177,0.17816569,1.1476389,0.13849717
0.1,0.0,0.9999999999999999,0.0,-0.5235987755982988,0,-1.5626842,0.9966339,-0.60627586,0.631893,-0.41198897,1.1344441,-2.237766,1.0879188,-1.8103627,-0.30176547,-0.06582843,0.14048001,1.2231843,0.33693913
0.1,0.0,0.9999999999999999,0.0,-0.5235987755982988,0,-1.5620803,0.99710196,-0.6097895,0.63369036,-0.41236758,1.1328553,-2.2390366,1.421594,-1.7664075,0.06216243,0.061330505,0.020324975,1.1643684,0.7469327
0.1,0.0,0.9999999999999999,0.0,-0.5235987755982988,0,-1.5599602,0.9979678,-0.6082484,0.62963986,-0.41389275,1.1318028,-2.2194786,1.0518942,-1.6746933,0.16060725,-0.064598605,0.029898157,1.2077317,0.83962995
0.1,0.0,0.9999999999999999,0.0,-0.5235987755982988,0,-1.561167,1.0039154,-0.60627335,0.63161653,-0.40961197,1.1363711,-2.2131393,1.439511,-1.8036958,0.26159495,-0.10196837,0.39770353,1.1631923,1.0201149
0.1,0.0,0.9999999999999999,0.0,-0.5235987755982988,0,-1.5605202,0.99402297,-0.60651296,0.628161,-0.41578144,1.1350912,-2.249831,1.2853098,-1.660003,-0.1979524,-0.040496502,0.22716859,1.2217797,0.65661854
0.1,0.0,0.9999999999999999,0.0,-0.5235987755982988,0,-1.5634991,0.9975638,-0.6108613,0.6273422,-0.41535223,1.1365297,-2.2265534,0.9440955,-1.7321712,-0.101538405,-0.06319217,-0.08590105,1.1692476,-0.5394283
0.1,0.0,0.9999999999999999,0.0,-0.5235987755982988,0,-1.5581962,0.9961294,-0.60673296,0.6319451,-0.41927472,1.1357142,-2.2383673,1.148182,-1.7128888,-0.11047399,-0.05626939,0.114107326,1.1407726,0.8331021
0.1,0.0,0.9999999999999999,0.0,-0.5235987755982988,0,-1.5590076,1.0007626,-0.60862005,0.63091844,-0.4109919,1.1295376,-2.2476473,0.9555388,-1.7155703,-0.002700067,-0.08056868,0.13299334,1.1768216,0.025678357
0.1,0.0,0.9999999999999999,0.0,-0.5235987755982988,0,-1.5595728,0.9955394,-0.60717285,0.6322306,-0.41113344,1.1370095,-2.2390933,1.257365,-1.7787594,-0.2611148,-0.0626426,0.04094802,1.1326473,0.9032242
0.1,0.0,0.9999999999999999,0.0,-0.5235987755982988,0,-1.5637242,0.9996205,-0.6058161,0.62994105,-0.4058795,1.1378814,-2.2552314,1.0264817,-1.6814402,-0.13295196,-0.021327619,-0.023988418,1.1911819,-0.07142553
0.1,0.0,0.9999999999999999,0.0,-0.5235987755982988,0,-1.5623362,1.0032368,-0.60568005,0.63325804,-0.4171632,1.1364603,-2.2439237,1.3091539,-1.6494145,-0.2015532,-0.047477998,-0.06855784,1.1865252,1.4092515
0.1,0.0,0.9999999999999999,0.0,-0.5235987755982988,0,-1.5610849,0.9985335,-0.60750026,0.6314869,-0.4133756,1.1353196,-2.2316692,1.3716493,-1.7512352,-0.1893802,-0.038251434,0.24154244,1.2747116,0.56985503
0.1,0.0,0.9999999999999999,0.0,-0.5235987755982988,0,-1.5618329,0.99113256,-0.6040998,0.6302964,-0.41226217,1.1332943,-2.2156894,1.2375596,-1.5722147,-0.10564639,-0.03789981,0.05101318,1.091552,0.6661306
0.1,0.0,0.9999999999999999,0.0,-0.5235987755982988,0,-1.5592282,1.0003308,-0.6070481,0.63214254,-0.42321122,1.1289893,-2.2186449,1.0579404,-1.7236475,-0.20673092,-0.08150765,0.13590102,1.1673512,0.9969549
0.1,0.0,0.9999999999999999,0.0,-0.5235987755982988,0,-1.559727,0.9963258,-0.60854846,0.63157284,-0.41110703,1.1352012,-2.2405548,0.9425774,-1.7541622,0.04528051,-0.09872822,0.009197186,1.2020868,0.4433631
0.1,0.0,0.9999999999999999,0.0,-0.5235987755982988,0,-1.5572717,0.99567896,-0.6063303,0.6292285,-0.42150727,1.1314563,-2.2557805,1.1254034,-1.6651311,-0.12852657,-0.062719,0.06883715,1.1758152,0.8849637
0.1,0.0,0.9999999999999999,0.0,-0.5235987755982988,0,-1.5595934,0.99526346,-0.60947555,0.62858385,-0.41354397,1.1349714,-2.2174406,1.3122317,-1.6683363,-0.114199884,-0.08360961,0.128801,1.2183263,0.5747492
0.1,0.0,0.9999999999999999,0.0,-0.5235987755982988,0,-1.5610993,0.99618536,-0.6090413,0.63009375,-0.42158407,1.132688,-2.238079,1.0828568,-1.6992171,0.27800468,-0.030543579,0.17644207,0.99470735,0.4994435
0.1,0.0,0.9999999999999999,0.0,-0.5235987755982988,0,-1.5610862,1.0006664,-0.60907865,0.6331278,-0.41425768,1.1329634,-2.2363095,1.2406971,-1.7814564,0.2703884,-0.025942424,0.14287336,1.2138224,0.21832235
0.1,0.0,0.9999999999999999,0.0,-0.5235987755982988,0,-1.5623596,0.9951284,-0.60900855,0.6322906,-0.41097426,1.1367644,-2.2218516,1.1900959,-1.8208367,-0.2222951,-0.09495917,-0.060555827,1.1097393,0.33627063
0.1,0.0,0.9999999999999999,0.0,-0.5235987755982988,0,-1.5614973,0.99122477,-0.60913956,0.6304779,-0.4199375,1.1335503,-2.230825,1.1072809,-1.778734,-0.2885689,-0.17177708,-0.073895596,1.1224506,0.48617005
0.1,0.0,0.9999999999999999,0.0,-0.5235987755982988,0,-1.564098,0.9918576,-0.60779625,0.6331318,-0.42066213,1.130796,-2.2332904,1.3719428,-1.8671125,-0.180153,-0.083415024,-0.0045738504,1.1941274,0.09510743
0.1,0.0,0.9999999999999999,0.0,-0.5235987755982988,0,-1.5587125,0.99815583,-0.60892546,0.6302388,-0.41888684,1.1377977,-2.2233722,1.261453,-1.7457267,0.2558702,-0.07894717,0.15377237,1.1370343,0.77003074
0.1,0.0,0.9999999999999999,0.0,-0.5235987755982988,0,-1.5567613,1.0022392,-0.6079742,0.63663405,-0.41882268,1.1314242,-2.2126458,1.2413272,-1.7118919,-0.3810088,-0.102470025,0.022261726,1.2728152,1.005719
0.1,0.0,0.9999999999999999,0.0,-0.5235987755982988,0,-1.5575935,0.9915486,-0.6063642,0.63147545,-0.41763824,1.1354328,-2.2086112,1.2708465,-1.7131642,-0.49923033,-0.118093975,0.15975395,1.0678949,0.754739
0.1,0.0,0.9999999999999999,0.0,-0.5235987755982988,0,-1.5606413,0.99331284,-0.60668343,0.63436085,-0.4213227,1.133528,-2.2222724,1.4005948,-1.8406668,-0.01632671,-0.0780968,-0.14922614,1.1518039,1.2719716
0.1,0.0,0.9999999999999999,0.0,-0.5235987755982988,0,-1.5572603,0.9963426,-0.6055528,0.630044,-0.41100705,1.1328857,-2.218084,1.2261482,-1.7593883,0.22374688,-0.04184691,0.07186826,1.0711943,1.0859808
0.1,0.0,0.9999999999999999,0.0,-0.5235987755982988,0,-1.5624982,1.0016644,-0.60424465,0.62830967,-0.41264328,1.1375859,-2.2357419,1.1760278,-1.6968673,-0.4574927,-0.048877366,0.14910981,1.217458,1.3564616
0.1,0.0,0.9999999999999999,0.0,-0.5235987755982988,0,-1.5616308,1.0002109,-0.60569227,0.6320235,-0.4144286,1.1327652,-2.226356,0.9734338,-1.7844416,0.30030736,-0.01690653,0.119660504,1.2324122,0.13226123
0.1,0.0,0.9999999999999999,0.0,-0.5235987755982988,0,-1.5603466,0.99504876,-0.60515565,0.63171065,-0.42349783,1.1338034,-2.2319272,1.3989822,-1.8093567,0.30193692,-0.029739037,0.0857689,1.1536642,0.5711868
0.1,0.0,0.9999999999999999,0.0,-0.5235987755982988,0,-1.5595402,0.99652356,-0.6113236,0.6316917,-0.41748533,1.1354481,-2.2287698,1.309146,-1.7498556,-0.23211244,-0.09880787,0.1708687,1.1637269,0.795268
0.1,0.0,0.9999999999999999,0.0,-0.5235987755982988,0,-1.5619309,0.9954287,-0.609926,0.62910587,-0.4122725,1.1360395,-2.2309144,1.0694575,-1.6303968,-0.25918996,-0.018394172,0.0021640195,1.1081326,1.1131874
0.1,0.0,0.9999999999999999,0.0,-0.5235987755982988,0,-1.5605234,1.0066795,-0.60580677,0.629974,-0.40641162,1.1366522,-2.2307153,1.4490652,-1.7349951,0.30045366,0.018215755,0.1923833,1.1681556,0.17034456
0.1,0.0,0.9999999999999999,0.0,-0.5235987755982988,0,-1.561278,0.9984371,-0.6088229,0.6327311,-0.4144128,1.1368291,-2.2437136,1.2292055,-1.7465414,-0.19328704,-0.08153351,0.07505119,1.1445388,1.069871
0.1,0.0,0.9999999999999999,0.0,-0.5235987755982988,0,-1.5618292,0.99381304,-0.60785383,0.6296447,-0.42118967,1.1333967,-2.226888,1.0026433,-1.7422849,-0.048715763,-0.04319974,0.24704339,1.0688803,-0.06780131
0.1,0.0,0.9999999999999999,0.0,-0.5235987755982988,0,-1.5638849,0.9982491,-0.60564345,0.62930316,-0.41786996,1.1313933,-2.221858,0.9834795,-1.7237668,-0.031836536,-0.056781527,-0.02187206,1.0944655,0.8166272
0.1,0.0,0.9999999999999999,0.0,-0.5235987755982988,0,-1.5621791,0.99893594,-0.6090019,0.63090473,-0.4137774,1.1338711,-2.2278917,1.3202981,-1.7161605,0.25108057,-0.10271974,0.28948537,1.1826277,0.50378275
0.1,0.0,0.9999999999999999,0.0,-0.5235987755982988,0,-1.5614698,0.9954427,-0.6095158,0.6306785,-0.40518838,1.1361428,-2.2237206,0.9648951,-1.8898456,0.42621872,-0.024985433,0.23804523,1.2171423,0.7109311
0.1,0.0,0.9999999999999999,0.0,-0.5235987755982988,0,-1.5623759,0.99851334,-0.605713,0.6313263,-0.42205152,1.1334685,-2.2215166,1.1596789,-1.7036735,0.4794345,-0.03135571,0.071868934,1.1352087,0.31350484
0.1,0.0,0.9999999999999999,0.0,-0.5235987755982988,0,-1.5614674,0.9982874,-0.60835874,0.6310764,-0.41436678,1.1385514,-2.2378156,1.1801124,-1.8179796,0.02148682,0.0005417577,0.0811347,1.1050298,0.8036868
0.1,0.0,0.9999999999999999,0.0,-0.5235987755982988,0,-1.5641228,1.003437,-0.6031094,0.63134754,-0.41369238,1.1347767,-2.230116,1.3405682,-1.7222135,0.12519422,-0.0820295,-0.023346266,1.1942269,0.44603005
0.1,0.0,0.9999999999999999,0.0,-0.5235987755982988,0,-1.5634797,0.9987737,-0.60684264,0.6321265,-0.42111433,1.1343281,-2.2259293,1.1709759,-1.7568088,0.030578755,-0.07091156,0.10494617,1.0822743,0.8811659
0.1,0.0,0.9999999999999999,0.0,-0.5235987755982988,0,-1.5615803,1.0012919,-0.60960644,0.62753695,-0.42366692,1.135682,-2.2388012,1.3717192,-1.8784312,-0.19190305,-0.04908896,-0.050693315,1.1465966,0.3746156
0.1,0.0,0.9999999999999999,0.0,-0.5235987755982988,0,-1.5596724,0.995831,-0.6072741,0.6309188,-0.41758192,1.136333,-2.2226772,1.2788479,-1.6403284,-0.57949996,-0.021054221,0.17472185,1.1704361,-0.061985623
0.1,0.0,0.9999999999999999,0.0,-0.5235987755982988,0,-1.5605478,1.0002809,-0.60996205,0.62970865,-0.41271693,1.1351327,-2.2115126,1.0015658,-1.7832456,0.5747866,-0.10370431,0.06421189,1.2020049,0.25495452
0.1,0.0,0.9999999999999999,0.0,-0.5235987755982988,0,-1.5598763,1.0038761,-0.6090667,0.6313078,-0.42167553,1.1347517,-2.2213044,1.322968,-1.8227364,-0.17440693,-0.1429736,0.122671396,1.2472749,0.032320995
0.1,0.0,0.9999999999999999,0.0,-0.5235987755982988,0,-1.5552946,1.0012289,-0.6086819,0.6338556,-0.40743512,1.1350232,-2.228442,1.1625427,-1.7322905,-0.15475263,-0.105158925,0.17195977,1.2454813,-0.062788196
0.1,0.0,0.9999999999999999,0.0,-0.5235987755982988,0,-1.5595143,0.9930124,-0.60797274,0.6318162,-0.42271802,1.1324172,-2.2349067,1.2581263,-1.8412801,-0.08417478,-0.17227271,0.14634386,1.1900781,0.5274875
0.1,0.0,0.9999999999999999,0.0,-0.5235987755982988,0,-1.5613112,0.99208224,-0.60739523,0.6330476,-0.41170013,1.1319185,-2.2162957,1.3034803,-1.7938799,0.07234,-0.10684027,0.048259072,1.0884762,0.82461005
0.1,0.0,0.9999999999999999,0.0,-0.5235987755982988,0,-1.561605,1.000323,-0.60283935,0.63054574,-0.412687,1.1363652,-2.231536,1.1907125,-1.6393651,0.09611012,-0.11276393,0.09018175,1.16791,1.0566242
0.1,0.0,0.9999999999999999,0.0,-0.5235987755982988,0,-1.5584674,0.9941588,-0.60911006,0.6316858,-0.41459095,1.1404617,-2.2146714,1.1572498,-1.6206439,-0.49256855,0.01127239,0.053004757,1.1474892,0.02019331
0.1,0.0,0.9999999999999999,0.0,-0.5235987755982988,0,-1.5673624,1.0019736,-0.6095889,0.62878245,-0.41837308,1.1346387,-2.2361116,1.1073078,-1.8360248,-0.12612118,0.019385362,0.06091284,1.1230828,-0.23673226
0.1,0.0,0.9999999999999999,0.0,-0.5235987755982988,0,-1.5635015,0.99603146,-0.6117038,0.6285467,-0.4131533,1.1349458,-2.2246797,1.1454282,-1.7591672,0.22221842,-0.040623922,0.14979102,1.2125565,0.86399984
0.1,0.0,0.9999999999999999,0.0,-0.5235987755982988,0,-1.5584581,0.9911429,-0.6069883,0.63211894,-0.4015706,1.1337512,-2.2337441,1.2546501,-1.6036167,-0.101373754,-0.08797267,0.017991822,1.1230286,0.2002123
0.1,0.0,0.9999999999999999,0.0,-0.5235987755982988,0,-1.5580275,0.99515676,-0.60650903,0.63108087,-0.4174308,1.1304522,-2.218474,0.96552396,-1.7291423,-0.39031696,-0.07801355,0.094981916,1.039093,0.71475303
0.1,0.0,0.9999999999999999,0.0,-0.5235987755982988,0,-1.5632765,0.99596363,-0.60640943,0.6328004,-0.41924137,1.134886,-2.2370825,1.2184314,-1.6545984,0.1255932,0.012979258,0.066604845,1.2251866,1.3783871
0.1,0.0,0.9999999999999999,0.0,-0.5235987755982988,0,-1.5599177,0.99727064,-0.60445994,0.6327325,-0.42025408,1.1382024,-2.2203588,0.97550565,-1.6559561,-0.44902346,-0.06772116,0.18003587,1.1923939,1.1169505
0.1,0.0,0.9999999999999999,0.0,-0.5235987755982988,0,-1.5613532,0.9952953,-0.6096795,0.63016534,-0.41020465,1.1342329,-2.229408,1.4925482,-1.7137755,-0.14687991,0.016380649,0.14781436,1.132599,0.43486908
0.1,0.0,0.9999999999999999,0.0,-0.5235987755982988,0,-1.5585916,0.99185836,-0.60721844,0.63237756,-0.4067698,1.1332465,-2.2452323,1.2990204,-1.6600602,0.009654895,-0.011317067,0.2513631,1.0461,0.1495537
0.1,0.0,0.9999999999999999,0.0,-0.5235987755982988,0,-1.5618651,0.9999413,-0.60784656,0.6319757,-0.42386237,1.1358194,-2.2180517,1.1134747,-1.8241892,0.033795953,-0.061374635,-0.056967277,1.1646945,0.26512393
0.1,0.0,0.9999999999999999,0.0,-0.5235987755982988,0,-1.5607023,0.9991508,-0.60636353,0.6314547,-0.4149186,1.1370066,-2.2378263,1.2290671,-1.8556721,-0.07934353,-0.047800828,0.16561225,1.1428776,-0.033181746
0.1,0.0,0.9999999999999999,0.0,-0.5235987755982988,0,-1.5608224,1.0005469,-0.60467875,0.6302013,-0.41671577,1.1329144,-2.2288606,1.0152817,-1.6192755,-0.18984263,-0.08019044,0.39986932,1.2118828,-0.13376419
0.1,0.0,0.9999999999999999,0.0,-0.5235987755982988,0,-1.5593596,1.0023106,-0.6060843,0.6319353,-0.40767318,1.1321125,-2.2202454,1.1487505,-1.7964692,0.050086737,-0.062717006,0.11826477,1.180571,-0.00422563
0.1,0.0,0.9999999999999999,0.0,-0.5235987755982988,0,-1.5599763,0.99953294,-0.6092459,0.6334553,-0.41501588,1.1318864,-2.2406213,1.2788186,-1.7634115,0.13251454,-0.07087827,0.15303698,1.2639842,0.038498543
0.1,0.0,0.9999999999999999,0.0,-0.5235987755982988,0,-1.5602355,1.0021391,-0.6086001,0.6292708,-0.41678956,1.1378828,-2.2363102,1.3347285,-1.7726473,0.007337173,-0.17759168,0.09619034,1.1439217,0.6829844
0.1,0.0,0.9999999999999999,0.0,-0.5235987755982988,0,-1.5606331,0.9972528,-0.60866016,0.63274693,-0.41023213,1.1288941,-2.2265985,1.2553413,-1.8247555,0.103093915,-0.08634044,0.18418068,1.1615558,-0.15376963
0.1,0.0,0.9999999999999999,0.0,-0.5235987755982988,0,-1.5630064,0.9968869,-0.6077852,0.6311397,-0.4102059,1.1365573,-2.2244813,1.0232365,-1.6710104,0.06394811,-0.13221058,0.17719619,1.1148702,0.53311783
0.1,0.0,0.9999999999999999,0.0,-0.5235987755982988,0,-1.5606183,1.0020014,-0.610245,0.6320748,-0.41569656,1.131677,-2.2302706,1.5314944,-1.7736056,-0.3832589,-0.012966839,0.15841825,1.1660479,0.13318278
0.1,0.0,0.9999999999999999,0.0,-0.5235987755982988,0,-1.5613016,0.99719286,-0.6107559,0.6316297,-0.4172358,1.1362587,-2.2256508,1.2658384,-1.8141208,-0.30648482,0.0233381,0.2514997,1.1700816,0.6752292
0.1,0.0,0.9999999999999999,0.0,-0.5235987755982988,0,-1.5606184,0.99481523,-0.608613,0.6287498,-0.41484562,1.1367404,-2.2426414,1.2838379,-1.771662,-0.2522576,-0.03660793,0.1268621,1.1363596,-0.18567859
0.1,0.0,0.9999999999999999,0.0,-0.5235987755982988,0,-1.559237,0.9938509,-0.60736436,0.630377,-0.4113278,1.1338409,-2.2232623,1.3268783,-1.8142637,-0.18978167,-0.009108492,0.15340962,1.1642625,0.4007843
0.1,0.0,0.9999999999999999,0.0,-0.5235987755982988,0,-1.5589164,0.9978956,-0.6070959,0.6313198,-0.4176397,1.1309894,-2.2310383,1.1450417,-1.6181438,0.49579182,-0.0834612,-0.03382304,1.0511967,0.16302678
0.1,0.0,0.9999999999999999,0.0,-0.5235987755982988,0,-1.5601048,0.99141055,-0.60576856,0.630504,-0.41173217,1.1367536,-2.2402034,1.4631748,-1.8496915,0.14817694,-0.1074819,0.17372714,1.1705505,0.40847912
0.1,0.0,0.9999999999999999,0.0,-0.5235987755982988,0,-1.5627496,0.99183625,-0.6091685,0.62979597,-0.4160087,1.1335921,-2.2145476,1.1600405,-1.6473076,-0.07483903,-0.12093945,0.22635032,1.1653945,0.789995
0.1,0.0,0.9999999999999999,0.0,-0.5235987755982988,0,-1.5603063,1.0013871,-0.6095263,0.6323953,-0.41759014,1.1362919,-2.227855,1.2414576,-1.7492204,0.5311515,-0.08846067,0.117839575,1.1756018,0.52609855
0.1,0.0,0.9999999999999999,0.0,-0.5235987755982988,0,-1.5614816,0.99955857,-0.6083361,0.63236254,-0.41224682,1.1324421,-2.2337487,1.067872,-1.7391659,-0.12266374,-0.074038155,-0.021061648,1.1116906,-0.18875681
0.1,0.0,0.9999999999999999,0.0,-0.5235987755982988,0,-1.5612416,0.99488866,-0.60565704,0.63128996,-0.4178711,1.1347615,-2.2243378,1.090762,-1.7513509,-0.07163724,-0.112555094,0.13352346,1.1379995,1.0960203
0.1,0.0,0.9999999999999999,0.0,-0.5235987755982988,0,-1.5629739,0.9993722,-0.60801727,0.6320463,-0.41800064,1.1332386,-2.2398727,1.1513387,-1.7570372,0.15991743,-0.12573512,0.06019651,1.1789575,-0.38689512
0.1,0.0,0.9999999999999999,0.0,-0.5235987755982988,0,-1.559346,0.9993559,-0.6066787,0.63029844,-0.41037995,1.1334409,-2.2397282,1.0254126,-1.8643938,-0.19216993,-0.04297856,0.28498304,1.339664,-0.10983877
0.1,0.0,0.9999999999999999,0.0,-0.5235987755982988,0,-1.5608169,0.9988294,-0.60669297,0.63363,-0.42042962,1.1294355,-2.2491944,1.259043,-1.6121123,-0.22036375,-0.062494904,0.20021778,1.0967674,0.07491075
0.1,0.0,0.9999999999999999,0.0,-0.5235987755982988,0,-1.5634007,1.0036381,-0.60649383,0.6338018,-0.4138038,1.131778,-2.2209253,1.0831448,-1.6400383,-0.09545738,-0.12911701,0.108795665,1.0610813,0.11586017
0.1,0.0,0.9999999999999999,0.0,-0.5235987755982988,0,-1.5640801,0.99683845,-0.61054903,0.6324674,-0.41635072,1.137339,-2.222177,1.0247359,-1.8241671,0.00704083,-0.09617983,0.13263759,1.0533293,1.1242079
