sanky1234/BimanualDexCatch/isaacgymenvs/cem_results/football_pose_-0.1_0.1_0.8999999999999999_-0.5235987755982988_-0.5235987755982988_0_2025-05-26.csv
x,y,z,roll,pitch,yaw,robot1/joint1,robot1/joint2,robot1/joint3,robot1/joint4,robot1/joint5,robot1/joint6,robot1/joint7,robot2/joint1,robot2/joint2,robot2/joint3,robot2/joint4,robot2/joint5,robot2/joint6,robot2/joint7
-0.1,0.1,0.8999999999999999,-0.5235987755982988,-0.5235987755982988,0,-0.32370237,1.309684,0.17422539,-0.08412357,0.012912191,1.2601213,1.68655,0.6626263,-1.4679396,-1.5493859,-0.08941756,-0.0058107213,1.1618896,0.683882
-0.1,0.1,0.8999999999999999,-0.5235987755982988,-0.5235987755982988,0,-0.323572,1.3236773,-0.11273604,-0.1156202,-0.07999959,1.163129,0.041613437,0.6836452,-1.4581344,-1.9488487,-0.07217099,-0.05730704,1.1577525,1.8069794
-0.1,0.1,0.8999999999999999,-0.5235987755982988,-0.5235987755982988,0,-0.32489365,1.3091451,0.067969136,-0.080639996,-0.15187253,1.2498761,-0.044806145,0.6333063,-1.4955515,-1.5362273,-0.027817462,0.043158915,1.0944558,-0.27711946
-0.1,0.1,0.8999999999999999,-0.5235987755982988,-0.5235987755982988,0,-0.32716623,1.3042221,0.012603782,-0.06855501,0.005826766,1.2644869,0.950434,0.7020923,-1.4618529,-1.5319285,-0.078513116,0.14637965,1.1458867,0.47350806
-0.1,0.1,0.8999999999999999,-0.5235987755982988,-0.5235987755982988,0,-0.3284207,1.333213,-0.0037375072,-0.068733,0.04853501,1.1644305,1.182898,0.67685467,-1.4648926,-1.7534809,-0.06742846,-0.041428186,1.189789,0.7208792
-0.1,0.1,0.8999999999999999,-0.5235987755982988,-0.5235987755982988,0,-0.32341543,1.323569,-0.054807503,-0.14839852,-0.1537549,1.2113817,0.47271347,0.66063607,-1.4776905,-1.7617037,-0.069914944,-0.0806226,1.2122475,-0.08426871
-0.1,0.1,0.8999999999999999,-0.5235987755982988,-0.5235987755982988,0,-0.32433,1.3212655,0.035189908,-0.030409163,-0.07202164,1.2799265,1.4334753,0.64845383,-1.4630629,-1.7705076,-0.050663788,0.068567246,1.1268164,1.149127
-0.1,0.1,0.8999999999999999,-0.5235987755982988,-0.5235987755982988,0,-0.32528436,1.3195605,0.20908691,-0.06010892,-0.03587494,1.1769582,0.6684086,0.67783123,-1.4601704,-1.6947714,-0.05533018,0.035861533,1.1814009,0.37861654
-0.1,0.1,0.8999999999999999,-0.5235987755982988,-0.5235987755982988,0,-0.32497016,1.3242741,0.058036648,0.0046124323,-0.19370498,1.2373991,0.01663886,0.6554506,-1.4799652,-1.5658147,-0.05931303,0.07134471,1.2152475,-0.14121304
-0.1,0.1,0.8999999999999999,-0.5235987755982988,-0.5235987755982988,0,-0.32372224,1.328493,0.21735539,-0.09596543,-0.06747558,1.2720933,1.6793503,0.60295486,-1.4739355,-1.664197,-0.06697866,-0.016877152,1.2388048,0.36738613
-0.1,0.1,0.8999999999999999,-0.5235987755982988,-0.5235987755982988,0,-0.32384124,1.3276842,0.16466117,0.012124077,-0.18922053,1.2499667,0.44885454,0.7029395,-1.4674697,-1.6349732,-0.05704872,0.05797974,1.1868832,-0.68854475
-0.1,0.1,0.8999999999999999,-0.5235987755982988,-0.5235987755982988,0,-0.32691348,1.3285197,-0.0051718256,-0.08070461,-0.16890383,1.1766703,1.5708956,0.696395,-1.4943136,-1.7129996,-0.06447592,0.04462595,1.1387948,0.10373574
-0.1,0.1,0.8999999999999999,-0.5235987755982988,-0.5235987755982988,0,-0.32506922,1.3218204,0.16830641,-0.075408585,-0.007236391,1.2048453,0.1783662,0.6449579,-1.4792625,-1.3912606,-0.0849675,0.054692436,1.1783321,0.30725977
-0.1,0.1,0.8999999999999999,-0.5235987755982988,-0.5235987755982988,0,-0.3278749,1.3318313,0.11142111,-0.020854676,-0.016544698,1.2533252,0.9694469,0.6792329,-1.4644302,-1.7571703,-0.050940227,0.087934576,1.1524563,0.67777014
-0.1,0.1,0.8999999999999999,-0.5235987755982988,-0.5235987755982988,0,-0.32567248,1.3208675,0.059074365,-0.08533435,0.053193934,1.1442336,0.8135252,0.6815955,-1.4609438,-1.7518251,-0.07700351,-0.09831942,1.2467527,0.13996369
-0.1,0.1,0.8999999999999999,-0.5235987755982988,-0.5235987755982988,0,-0.32782212,1.3054932,-0.042309593,-0.04024147,-0.043160427,1.2355068,0.5256677,0.70605844,-1.4573627,-1.6779163,-0.08893256,0.15127212,1.1465431,0.32121345
-0.1,0.1,0.8999999999999999,-0.5235987755982988,-0.5235987755982988,0,-0.33053085,1.3272051,-0.030402724,-0.07238076,-0.006865896,1.2129263,-0.57245135,0.6294835,-1.4687256,-1.739205,-0.051027216,-0.13091595,1.1776637,0.60158867
-0.1,0.1,0.8999999999999999,-0.5235987755982988,-0.5235987755982988,0,-0.32351825,1.3316191,-0.032885306,-0.072829455,-0.07578576,1.21104,0.47325766,0.67796373,-1.4737155,-1.5999984,-0.050121237,-0.05927463,1.1893878,1.0416247
-0.1,0.1,0.8999999999999999,-0.5235987755982988,-0.5235987755982988,0,-0.32213178,1.3237545,0.03247369,-0.034295026,0.0038986595,1.2276928,1.0748914,0.6450475,-1.4791688,-1.9192289,-0.05345258,-0.06604166,1.142018,0.4647479
-0.1,0.1,0.8999999999999999,-0.5235987755982988,-0.5235987755982988,0,-0.32515833,1.3252487,0.3067593,-0.045549262,-0.13524938,1.2178158,1.2503511,0.6184729,-1.4531298,-1.7002231,-0.071337335,-0.15649419,1.1394665,0.7828925
-0.1,0.1,0.8999999999999999,-0.5235987755982988,-0.5235987755982988,0,-0.32502812,1.3104154,0.3809294,-0.07435317,0.010142979,1.248271,0.31677398,0.655483,-1.4861453,-1.7714736,-0.066461794,-0.16101535,1.1862059,-0.024920763
-0.1,0.1,0.8999999999999999,-0.5235987755982988,-0.5235987755982988,0,-0.32801086,1.3097949,0.05385782,-0.075986415,0.008205994,1.1843877,0.61766,0.6302496,-1.46701,-1.6170845,-0.03778586,0.08768971,1.1722735,0.16279513
-0.1,0.1,0.8999999999999999,-0.5235987755982988,-0.5235987755982988,0,-0.32906958,1.3267367,-0.028624224,-0.1320207,-0.063467994,1.2635642,0.16733527,0.6542113,-1.4640154,-1.5936769,-0.056130648,0.021584364,1.1278089,0.1433818
-0.1,0.1,0.8999999999999999,-0.5235987755982988,-0.5235987755982988,0,-0.3256715,1.3243041,-0.16851076,-0.0004160622,-0.039536286,1.2348676,1.2642374,0.62664074,-1.4538335,-1.7404195,-0.034351673,-0.029016955,1.2003567,-0.40174624
-0.1,0.1,0.8999999999999999,-0.5235987755982988,-0.5235987755982988,0,-0.32640865,1.3198677,-0.0088229375,-0.039899107,0.015899427,1.231225,0.44072303,0.69618016,-1.4811994,-1.8276246,-0.08003949,0.043630615,1.1786271,-0.098968886
-0.1,0.1,0.8999999999999999,-0.5235987755982988,-0.5235987755982988,0,-0.3223595,1.3265556,0.1573983,-0.09021536,-0.0033823648,1.2008145,1.215105,0.65930206,-1.4783514,-1.728295,-0.09786842,0.020977005,1.1231852,0.7883319
-0.1,0.1,0.8999999999999999,-0.5235987755982988,-0.5235987755982988,0,-0.32044396,1.3265325,0.12531091,-0.03981969,-0.15235028,1.2461584,0.9327722,0.7041355,-1.4699574,-1.8203219,-0.06093684,-0.0797391,1.1561965,0.830765
-0.1,0.1,0.8999999999999999,-0.5235987755982988,-0.5235987755982988,0,-0.32580268,1.3191891,0.20902798,-0.09985251,0.05277118,1.242614,1.0760832,0.712199,-1.4737357,-1.6057272,-0.06396768,-0.06241479,1.1082484,0.8339251
-0.1,0.1,0.8999999999999999,-0.5235987755982988,-0.5235987755982988,0,-0.32952946,1.3276018,0.28378907,-0.047019742,-0.018102773,1.2366209,1.0452214,0.62805575,-1.4694144,-1.78547,-0.05980657,-0.113166645,1.1314692,-0.01578896
-0.1,0.1,0.8999999999999999,-0.5235987755982988,-0.5235987755982988,0,-0.3237337,1.3291625,-0.026989985,-0.082120605,0.018145002,1.252614,0.70630413,0.6146823,-1.4661777,-1.9241517,-0.08309858,0.028361887,1.199866,0.2695612
-0.1,0.1,0.8999999999999999,-0.5235987755982988,-0.5235987755982988,0,-0.3206884,1.32369,0.091718026,-0.058160804,-0.09027223,1.2590705,1.2847035,0.6541801,-1.4805913,-1.8800391,-0.08518222,0.060951985,1.2252996,0.050628893
-0.1,0.1,0.8999999999999999,-0.5235987755982988,-0.5235987755982988,0,-0.3247124,1.3316904,0.14027733,-0.05680736,-0.09485396,1.2552388,1.1105654,0.61863077,-1.4672738,-1.5134734,-0.12419668,-0.11393183,1.1428075,1.0820539
-0.1,0.1,0.8999999999999999,-0.5235987755982988,-0.5235987755982988,0,-0.32544556,1.3229321,0.21798645,-0.11259282,0.017068822,1.1791282,-0.46228263,0.6702402,-1.4501408,-1.855455,-0.047959484,0.059745397,1.227934,0.8211267
-0.1,0.1,0.8999999999999999,-0.5235987755982988,-0.5235987755982988,0,-0.32339087,1.3275772,0.11088758,-0.08717953,-0.12731762,1.2501097,-0.047443084,0.6348611,-1.4794381,-1.580134,-0.08276866,-0.10183407,1.1686577,0.65626246
-0.1,0.1,0.8999999999999999,-0.5235987755982988,-0.5235987755982988,0,-0.32766834,1.3101941,0.051355507,-0.07784306,-0.115883335,1.2722535,1.3990629,0.6578947,-1.472674,-1.3827928,-0.06726302,0.009638958,1.2409704,0.33776927
-0.1,0.1,0.8999999999999999,-0.5235987755982988,-0.5235987755982988,0,-0.32509026,1.3298944,-0.03932114,-0.045398884,-0.087082684,1.2096963,0.881042,0.68159074,-1.466482,-1.5750839,-0.08988128,-0.04477288,1.1706995,0.32060853
-0.1,0.1,0.8999999999999999,-0.5235987755982988,-0.5235987755982988,0,-0.32530966,1.3268093,-0.09976387,-0.0642041,0.013673513,1.2454523,0.57151794,0.698717,-1.4660704,-1.5167902,-0.043722536,-0.15908839,1.191209,0.4137038
-0.1,0.1,0.8999999999999999,-0.5235987755982988,-0.5235987755982988,0,-0.32714757,1.3264505,0.12099846,-0.10382366,-0.0003059726,1.1998348,0.8026068,0.63636625,-1.4583137,-1.5688602,-0.033240747,0.014266889,1.1416049,0.009470158
-0.1,0.1,0.8999999999999999,-0.5235987755982988,-0.5235987755982988,0,-0.33054793,1.3347961,0.2722813,-0.10004785,0.09601373,1.2377803,1.8939171,0.61641294,-1.497745,-1.5902597,-0.048172522,-0.06833035,1.143606,-0.04487865
-0.1,0.1,0.8999999999999999,-0.5235987755982988,-0.5235987755982988,0,-0.3237219,1.3294137,0.31016973,-0.13707146,0.030446354,1.2185197,0.26808438,0.6370855,-1.4753313,-1.6775041,-0.107309334,0.016229989,1.1966769,0.88221675
-0.1,0.1,0.8999999999999999,-0.5235987755982988,-0.5235987755982988,0,-0.3248298,1.328168,0.18561958,-0.10304314,-0.103048384,1.2423772,1.0490391,0.6006884,-1.4846131,-1.6301746,-0.04021043,-0.08479221,1.1972687,1.048999
-0.1,0.1,0.8999999999999999,-0.5235987755982988,-0.5235987755982988,0,-0.32712376,1.305921,0.009154918,-0.059293263,0.12825358,1.2259074,-0.32938576,0.64828616,-1.465962,-2.0784674,-0.02996784,-0.053415075,1.2146527,0.49470574
-0.1,0.1,0.8999999999999999,-0.5235987755982988,-0.5235987755982988,0,-0.32780614,1.3097749,-0.07017756,-0.07166883,-0.07367889,1.2344067,0.07049166,0.669959,-1.504698,-1.7611789,-0.047530275,-0.22969091,1.1336763,0.32232985
-0.1,0.1,0.8999999999999999,-0.5235987755982988,-0.5235987755982988,0,-0.3304522,1.3291613,0.07972523,-0.11419449,0.022663403,1.2478083,0.86709094,0.61639494,-1.4810405,-1.710852,-0.06401743,-0.03633088,1.2059332,0.5840927
-0.1,0.1,0.8999999999999999,-0.5235987755982988,-0.5235987755982988,0,-0.3275367,1.3160429,-0.07117655,-0.060783044,-0.12692975,1.1863842,0.3120073,0.65115887,-1.4674498,-1.6546342,-0.08017525,-0.15047632,1.1155516,0.60845286
-0.1,0.1,0.8999999999999999,-0.5235987755982988,-0.5235987755982988,0,-0.32600892,1.3216827,-0.03520376,-0.11442614,-0.114213035,1.2233864,-0.044484485,0.66347796,-1.4826093,-1.8343856,-0.02553515,0.103511795,1.1515067,0.58873624
-0.1,0.1,0.8999999999999999,-0.5235987755982988,-0.5235987755982988,0,-0.3233943,1.3271743,0.16264683,-0.0821275,0.01761362,1.2582248,0.7513376,0.6452017,-1.4698565,-1.6765455,-0.08164352,-0.022131728,1.2135742,0.8968595
-0.1,0.1,0.8999999999999999,-0.5235987755982988,-0.5235987755982988,0,-0.32559353,1.328049,0.1124801,0.011543555,-0.066901356,1.2160118,1.6702695,0.6110578,-1.4879087,-1.5967999,-0.07768499,-0.0655262,1.1500382,1.5280654
-0.1,0.1,0.8999999999999999,-0.5235987755982988,-0.5235987755982988,0,-0.3263094,1.327476,0.078059755,-0.038639076,-0.018293895,1.2117227,0.25946325,0.653768,-1.4856983,-1.533725,-0.037900284,-0.05375092,1.0949274,0.07467172
-0.1,0.1,0.8999999999999999,-0.5235987755982988,-0.5235987755982988,0,-0.32779673,1.3118807,0.13562131,-0.086677246,0.015511155,1.2202939,0.6314965,0.6094286,-1.4741561,-1.6893116,-0.12911522,-0.2679522,1.1652826,-0.07964478
-0.1,0.1,0.8999999999999999,-0.5235987755982988,-0.5235987755982988,0,-0.32324162,1.3286549,0.056156028,-0.10674599,-0.023113137,1.2086525,0.79539275,0.67986685,-1.481889,-1.8540022,-0.027328663,0.01416456,1.2293718,-0.6230731
-0.1,0.1,0.8999999999999999,-0.5235987755982988,-0.5235987755982988,0,-0.32655704,1.3125275,0.009716404,-0.018892229,-0.048903912,1.2050982,1.2206597,0.6151521,-1.4949145,-1.7887545,-0.05371168,0.04505521,1.157464,-0.16421363
-0.1,0.1,0.8999999999999999,-0.5235987755982988,-0.5235987755982988,0,-0.3258289,1.3118749,0.2092946,-0.13072313,-0.04278835,1.2624477,0.34979498,0.6328899,-1.4895895,-1.7571797,-0.047359195,0.073680125,1.233731,1.2145215
-0.1,0.1,0.8999999999999999,-0.5235987755982988,-0.5235987755982988,0,-0.325359,1.3336627,0.17234258,-0.07379691,-0.034251858,1.2888767,0.5108703,0.66398466,-1.4628527,-1.6288279,-0.09801989,-0.0982124,1.1758494,0.88640165
-0.1,0.1,0.8999999999999999,-0.5235987755982988,-0.5235987755982988,0,-0.32307735,1.3309666,-0.108370215,-0.08729952,-0.0068087615,1.2713931,0.42878693,0.66806823,-1.4672288,-1.7074395,-0.059439637,0.016425021,1.1266842,0.59457225
-0.1,0.1,0.8999999999999999,-0.5235987755982988,-0.5235987755982988,0,-0.32514998,1.3337712,0.04349555,-0.042572655,-0.050933532,1.2353671,0.84323853,0.6946295,-1.4920344,-1.451857,-0.052459482,-0.011997413,1.1347725,0.26126036
-0.1,0.1,0.8999999999999999,-0.5235987755982988,-0.5235987755982988,0,-0.32610855,1.3116057,0.2321675,-0.042869262,-0.021336403,1.2367104,1.0958521,0.62850225,-1.4877309,-1.6992252,-0.037254862,-0.017449062,1.1832634,1.0090535
-0.1,0.1,0.8999999999999999,-0.5235987755982988,-0.5235987755982988,0,-0.32754743,1.3258327,0.037434,-0.04092255,0.13459478,1.2306601,0.5129996,0.64919513,-1.4876611,-1.8020186,-0.12232593,-0.10418711,1.1602522,-0.7525275
-0.1,0.1,0.8999999999999999,-0.5235987755982988,-0.5235987755982988,0,-0.3269266,1.3216374,0.109241515,-0.10916603,-0.15718876,1.1999106,0.77384436,0.65695626,-1.4768463,-1.7964519,-0.08759963,-0.031150175,1.2053082,0.14936866
-0.1,0.1,0.8999999999999999,-0.5235987755982988,-0.5235987755982988,0,-0.32684627,1.3218855,0.06902677,-0.002076823,-0.12272799,1.2229927,0.08931802,0.66978836,-1.4790004,-1.6008527,-0.047622815,-0.120059855,1.1692928,0.3865164
-0.1,0.1,0.8999999999999999,-0.5235987755982988,-0.5235987755982988,0,-0.32598782,1.3265733,-0.09585879,-0.09483766,-0.0074747223,1.1686016,0.5603587,0.64610946,-1.4661506,-1.7079128,-0.07036125,0.024239207,1.1575885,-0.51825434
-0.1,0.1,0.8999999999999999,-0.5235987755982988,-0.5235987755982988,0,-0.32719976,1.3294923,0.12211535,-0.13026974,-0.011220854,1.193655,-0.2846058,0.631218,-1.499199,-1.8469204,-0.05111832,-0.07389942,1.2574921,0.57698554
-0.1,0.1,0.8999999999999999,-0.5235987755982988,-0.5235987755982988,0,-0.32842737,1.3097997,0.034008432,-0.092431255,-0.07338282,1.2638012,1.8916523,0.6149263,-1.4716302,-1.8523326,-0.06000358,0.04025871,1.1397761,0.7279132
-0.1,0.1,0.8999999999999999,-0.5235987755982988,-0.5235987755982988,0,-0.32429063,1.3374379,0.073839605,-0.028341383,-0.13857776,1.2560761,-0.34284732,0.63939,-1.4386232,-1.7055845,-0.035227507,-0.080510534,1.1283064,0.34312147
-0.1,0.1,0.8999999999999999,-0.5235987755982988,-0.5235987755982988,0,-0.32457957,1.3305888,0.07894706,-0.045753006,-0.0507171,1.2040845,1.3621914,0.63865703,-1.4696606,-1.8773003,-0.034511082,-0.038764395,1.1926874,0.50802696
-0.1,0.1,0.8999999999999999,-0.5235987755982988,-0.5235987755982988,0,-0.32676902,1.3279972,0.040143456,-0.077350356,-0.058996774,1.225686,0.65631175,0.6653426,-1.4466177,-1.6729146,-0.0568705,0.06330981,1.1705593,-0.15557934
-0.1,0.1,0.8999999999999999,-0.5235987755982988,-0.5235987755982988,0,-0.32679576,1.3102008,0.052883867,-0.070658535,-0.0808786,1.2829626,1.4927343,0.6504417,-1.4721841,-1.8803416,-0.032343253,0.044031497,1.2179022,0.63322157
-0.1,0.1,0.8999999999999999,-0.5235987755982988,-0.5235987755982988,0,-0.324334,1.3303261,0.20210388,-0.10827064,-0.06912091,1.2338177,0.97873914,0.6591211,-1.4632316,-1.796354,-0.06804202,0.06515307,1.2348998,0.11783452
-0.1,0.1,0.8999999999999999,-0.5235987755982988,-0.5235987755982988,0,-0.3253706,1.3139625,-0.080640145,-0.11642371,-0.0064214305,1.1970726,0.9613202,0.6674555,-1.4495763,-2.0416749,-0.058390934,-0.051307432,1.1676296,0.42449042
-0.1,0.1,0.8999999999999999,-0.5235987755982988,-0.5235987755982988,0,-0.32595485,1.3237298,-0.042451546,-0.09165077,-0.071038745,1.2529323,1.4130785,0.6232414,-1.4692315,-1.8885137,-0.052020285,-0.00089995965,1.2359276,0.19214036
-0.1,0.1,0.8999999999999999,-0.5235987755982988,-0.5235987755982988,0,-0.32584536,1.3147585,0.037194554,-0.0913781,-0.070956886,1.2543651,1.224775,0.6619226,-1.4445317,-1.741879,-0.08035277,-0.055519972,1.2121595,-0.31136602
-0.1,0.1,0.8999999999999999,-0.5235987755982988,-0.5235987755982988,0,-0.32920688,1.3320111,-0.0215198,-0.0981772,-0.038905974,1.1928645,1.2474337,0.6926806,-1.4819683,-1.5842309,-0.0304327,-0.16140594,1.0910275,0.23308243
-0.1,0.1,0.8999999999999999,-0.5235987755982988,-0.5235987755982988,0,-0.3270996,1.3150069,0.15819837,-0.08419305,-0.07926426,1.2663065,0.8935809,0.66907704,-1.4747329,-1.568171,-0.018397694,0.02512529,1.2085834,-0.022240939
-0.1,0.1,0.8999999999999999,-0.5235987755982988,-0.5235987755982988,0,-0.32662204,1.3214047,0.32431254,-0.034692705,0.02354186,1.3438169,1.1372495,0.61198884,-1.5017889,-1.4730438,-0.09769051,-0.13124506,1.2182494,1.0797371
-0.1,0.1,0.8999999999999999,-0.5235987755982988,-0.5235987755982988,0,-0.3327147,1.3220705,0.1472787,-0.07341413,-0.11730859,1.2477206,1.532242,0.6271535,-1.4820766,-1.6920364,-0.071875885,-0.012903927,1.1798437,-0.21677536
-0.1,0.1,0.8999999999999999,-0.5235987755982988,-0.5235987755982988,0,-0.32421857,1.3145255,0.012367115,-0.11726365,-0.082539886,1.2342364,1.6400036,0.6906809,-1.4483216,-1.8488708,-0.07631675,-0.026588075,1.1778146,1.1544516
-0.1,0.1,0.8999999999999999,-0.5235987755982988,-0.5235987755982988,0,-0.32628274,1.3151793,-0.0039751707,-0.03958184,0.037252147,1.1955781,0.48819703,0.6362202,-1.4898479,-1.6620445,-0.07597883,-0.1076739,1.1857634,0.16449161
-0.1,0.1,0.8999999999999999,-0.5235987755982988,-0.5235987755982988,0,-0.3290976,1.3320781,0.0101149585,-0.0780051,-0.036959693,1.1702738,1.3076043,0.64847195,-1.4878396,-1.6403323,-0.035085976,0.060166173,1.1524692,-0.61117476
-0.1,0.1,0.8999999999999999,-0.5235987755982988,-0.5235987755982988,0,-0.32734382,1.3299434,0.24485472,-0.049298324,-0.07352472,1.2710239,0.16630618,0.5955614,-1.4800283,-1.8592029,-0.0069871703,0.026203297,1.214042,1.0258828
-0.1,0.1,0.8999999999999999,-0.5235987755982988,-0.5235987755982988,0,-0.3261322,1.3338238,-0.26334763,-0.10388527,-0.08254167,1.2082334,1.5731496,0.667917,-1.4613681,-1.8693587,-0.047290057,-0.086390324,1.1799092,0.94413114
-0.1,0.1,0.8999999999999999,-0.5235987755982988,-0.5235987755982988,0,-0.3226371,1.3353844,0.00842234,-0.053982023,0.08558202,1.1498973,1.2569119,0.669297,-1.4778876,-1.825611,-0.07947027,-0.06846972,1.2024319,0.078752704
-0.1,0.1,0.8999999999999999,-0.5235987755982988,-0.5235987755982988,0,-0.32756394,1.3132347,-0.03598551,-0.058265585,-0.08263349,1.2500751,0.35278663,0.68227357,-1.4749,-1.579396,-0.08140515,0.0719324,1.2003899,0.32924682
-0.1,0.1,0.8999999999999999,-0.5235987755982988,-0.5235987755982988,0,-0.32880694,1.3291465,-0.00847136,-0.017113231,0.0026731424,1.2751703,0.84000057,0.677711,-1.4587829,-2.0403292,-0.08963132,-0.04235418,1.1686205,0.14778437
-0.1,0.1,0.8999999999999999,-0.5235987755982988,-0.5235987755982988,0,-0.3276427,1.3296137,0.16344416,-0.02847431,-0.059031073,1.2371489,0.09827421,0.6797115,-1.4881405,-1.6046758,-0.041359134,-0.019337306,1.2092174,-0.5731339
-0.1,0.1,0.8999999999999999,-0.5235987755982988,-0.5235987755982988,0,-0.3223974,1.3347821,0.073117256,-0.07953836,-0.05902681,1.2406828,0.1404748,0.6951287,-1.4840071,-1.7196432,-0.026213486,-0.016832214,1.1523726,0.6217326
-0.1,0.1,0.8999999999999999,-0.5235987755982988,-0.5235987755982988,0,-0.32533407,1.3296243,0.004066863,-0.048531715,-0.19144912,1.2252089,0.7525381,0.62401026,-1.4925953,-1.7781143,-0.072699085,-0.010541442,1.2204279,0.10149838
-0.1,0.1,0.8999999999999999,-0.5235987755982988,-0.5235987755982988,0,-0.3277164,1.3302888,-0.014790405,-0.082402155,0.028827056,1.2479883,0.44894806,0.64211464,-1.49339,-1.8336192,-0.07093827,0.17868331,1.1922839,-0.11203595
-0.1,0.1,0.8999999999999999,-0.5235987755982988,-0.5235987755982988,0,-0.32814637,1.3321599,0.15001287,-0.035857882,-0.089472584,1.2044796,0.8071185,0.62078863,-1.4775785,-1.7585175,-0.09788627,-0.0072130887,1.1903956,0.9659221
-0.1,0.1,0.8999999999999999,-0.5235987755982988,-0.5235987755982988,0,-0.33018404,1.3173985,-0.1868089,-0.039668925,-0.122091115,1.2736684,0.52777255,0.67751956,-1.4714171,-1.5413147,-0.07648128,0.13396065,1.2105807,0.92539114
-0.1,0.1,0.8999999999999999,-0.5235987755982988,-0.5235987755982988,0,-0.32660377,1.3281001,0.0036827284,-0.043955572,0.014016925,1.1784511,0.52379614,0.6317508,-1.4727299,-1.8470258,-0.054511335,-0.055959232,1.1464424,0.5411835
-0.1,0.1,0.8999999999999999,-0.5235987755982988,-0.5235987755982988,0,-0.32892525,1.3346162,0.20159699,-0.073531374,0.013965171,1.167013,1.0816264,0.6933133,-1.4694912,-1.5904036,-0.063499436,0.08773325,1.2015123,0.06127466
-0.1,0.1,0.8999999999999999,-0.5235987755982988,-0.5235987755982988,0,-0.32196113,1.3298695,0.15218437,-0.0689596,0.010273919,1.2568203,0.5136375,0.6082488,-1.4775056,-1.9408733,-0.029114943,-0.13548456,1.2129894,-0.21562855
-0.1,0.1,0.8999999999999999,-0.5235987755982988,-0.5235987755982988,0,-0.32580718,1.3298721,-0.08927379,-0.08081722,-0.090547495,1.2408621,1.0742528,0.657571,-1.4818871,-1.5324533,-0.04754479,-0.06453158,1.2124958,0.91421497
-0.1,0.1,0.8999999999999999,-0.5235987755982988,-0.5235987755982988,0,-0.325238,1.3287518,-0.07527237,-0.050368443,0.09545934,1.230514,0.4380288,0.69948643,-1.4549422,-1.613327,-0.07671142,-0.019040061,1.164775,0.6123482
-0.1,0.1,0.8999999999999999,-0.5235987755982988,-0.5235987755982988,0,-0.32724646,1.3321702,0.050268937,-0.07217495,-0.06528103,1.2434725,0.6281165,0.71383274,-1.4543809,-1.9181023,-0.06937082,-0.14429706,1.1367035,0.71616656
-0.1,0.1,0.8999999999999999,-0.5235987755982988,-0.5235987755982988,0,-0.32873866,1.3330653,0.13747568,-0.07271548,-0.110873125,1.2884988,0.5831889,0.63226354,-1.4944849,-1.6939508,-0.04263435,-0.02363412,1.1505836,0.05569623
-0.1,0.1,0.8999999999999999,-0.5235987755982988,-0.5235987755982988,0,-0.3257874,1.3168055,0.009906192,-0.03821287,-0.08049161,1.2669895,0.9578624,0.66009086,-1.4795804,-1.6334237,-0.063166164,-0.020906294,1.1682103,0.2566765
-0.1,0.1,0.8999999999999999,-0.5235987755982988,-0.5235987755982988,0,-0.328109,1.3262492,0.09506015,-0.09668588,-0.10241465,1.1781356,-0.3462048,0.6621376,-1.4596368,-1.6199615,-0.057548575,0.05280513,1.2422038,0.17513323
-0.1,0.1,0.8999999999999999,-0.5235987755982988,-0.5235987755982988,0,-0.32604507,1.3323362,0.192601,-0.06581375,-0.09510991,1.2199874,0.6677687,0.63890857,-1.465833,-2.0122201,-0.064743236,0.06425286,1.2304219,0.50297844
-0.1,0.1,0.8999999999999999,-0.5235987755982988,-0.5235987755982988,0,-0.3256409,1.3334486,-0.1123258,-0.05222618,-0.10590414,1.253668,1.022763,0.5983223,-1.4706701,-1.9036891,-0.07261628,0.07876193,1.2056856,0.24002463
-0.1,0.1,0.8999999999999999,-0.5235987755982988,-0.5235987755982988,0,-0.3255635,1.3366886,0.09176305,-0.07170249,-0.06256861,1.201135,0.5847636,0.6546386,-1.4593791,-1.9068426,-0.03732459,0.10514804,1.2661173,0.012055046
-0.1,0.1,0.8999999999999999,-0.5235987755982988,-0.5235987755982988,0,-0.32747826,1.3192149,0.26642486,-0.020600121,-0.06875217,1.2392355,1.9742774,0.6944083,-1.4666399,-1.6160872,-0.06991054,-0.09157191,1.2122674,-0.84732926
-0.1,0.1,0.8999999999999999,-0.5235987755982988,-0.5235987755982988,0,-0.32627976,1.3178474,0.017537503,-0.07200116,-0.07820846,1.2188855,1.9194902,0.643048,-1.4713949,-1.8525523,-0.0380041,-0.020263063,1.2209343,-0.2608555
-0.1,0.1,0.8999999999999999,-0.5235987755982988,-0.5235987755982988,0,-0.3271585,1.3243407,0.030059367,-0.13337927,-0.059262432,1.2777177,-0.23391256,0.6807411,-1.4872754,-1.6313401,-0.078563526,0.02942135,1.1459501,0.38274148
-0.1,0.1,0.8999999999999999,-0.5235987755982988,-0.5235987755982988,0,-0.32907438,1.3145317,0.005067986,-0.116047285,0.008273585,1.2058125,0.9289366,0.6530196,-1.4900569,-1.8098015,-0.08910297,-0.048833176,1.0787742,-0.17587714
-0.1,0.1,0.8999999999999999,-0.5235987755982988,-0.5235987755982988,0,-0.3265858,1.3283905,0.070024885,-0.064019926,-0.04161865,1.262049,0.54132104,0.6785022,-1.4744844,-1.8068106,-0.06741897,-0.109528065,1.1795752,1.850463
-0.1,0.1,0.8999999999999999,-0.5235987755982988,-0.5235987755982988,0,-0.3285939,1.3345621,0.2397939,-0.03524143,-0.024027092,1.2156193,0.30769122,0.6512636,-1.4823596,-1.7925938,-0.040801182,-0.06754908,1.1895207,0.6722905
-0.1,0.1,0.8999999999999999,-0.5235987755982988,-0.5235987755982988,0,-0.32939398,1.3310308,-0.017194424,-0.064926736,0.080986194,1.2499486,0.34990278,0.6608842,-1.485471,-1.7941989,-0.08028009,0.05663914,1.1975536,-0.1161686
-0.1,0.1,0.8999999999999999,-0.5235987755982988,-0.5235987755982988,0,-0.32663754,1.3177406,-0.10964932,-0.03890135,-0.020848613,1.2212989,0.81105393,0.67868996,-1.4679265,-1.8152965,-0.066358015,-0.084477164,1.1557597,-0.12119207
-0.1,0.1,0.8999999999999999,-0.5235987755982988,-0.5235987755982988,0,-0.32752934,1.3231065,0.07170285,-0.042469446,0.025508003,1.2661693,0.43798608,0.6665612,-1.4808474,-1.7063744,-0.09161866,-0.14301115,1.153985,0.46364364
-0.1,0.1,0.8999999999999999,-0.5235987755982988,-0.5235987755982988,0,-0.32629308,1.3184556,-0.056667715,-0.033848062,-0.09728523,1.2575445,1.0516225,0.7217662,-1.4760232,-1.7073474,-0.0786611,-0.1694955,1.1971312,1.5024059
-0.1,0.1,0.8999999999999999,-0.5235987755982988,-0.5235987755982988,0,-0.32640862,1.3298854,-0.050696276,-0.063341744,-0.0094576785,1.2842672,1.3632474,0.64808744,-1.4669322,-1.7502258,-0.07570738,-0.023251621,1.1377903,1.1974919
-0.1,0.1,0.8999999999999999,-0.5235987755982988,-0.5235987755982988,0,-0.32506406,1.337118,-0.061802335,-0.08663595,-0.013477519,1.2332094,0.081034794,0.6063093,-1.4643451,-1.8348716,-0.051778458,0.032583885,1.2323442,-0.20621337
-0.1,0.1,0.8999999999999999,-0.5235987755982988,-0.5235987755982988,0,-0.32794845,1.3371124,0.08275443,-0.09490223,-0.014832906,1.2627801,0.44455343,0.6279964,-1.4735675,-1.6739798,-0.027115308,-0.020870987,1.1546377,0.20977381
-0.1,0.1,0.8999999999999999,-0.5235987755982988,-0.5235987755982988,0,-0.32814154,1.3190699,0.11793915,-0.013495796,-0.05661411,1.2523655,0.57413995,0.65507114,-1.4769114,-1.7998832,-0.063267894,-0.14574467,1.0857815,-0.12026455
-0.1,0.1,0.8999999999999999,-0.5235987755982988,-0.5235987755982988,0,-0.32802576,1.3171331,0.08128482,-0.05054749,-0.07233467,1.2050036,0.62996906,0.6535924,-1.4783546,-1.6880225,-0.04552102,-0.0053727934,1.1704711,1.0013012
-0.1,0.1,0.8999999999999999,-0.5235987755982988,-0.5235987755982988,0,-0.32749587,1.3178468,0.031242438,-0.09375753,0.051697034,1.2835408,1.1777649,0.66591626,-1.4807376,-1.7785685,-0.055490818,-0.011148625,1.1617525,0.7098748
-0.1,0.1,0.8999999999999999,-0.5235987755982988,-0.5235987755982988,0,-0.33065403,1.312708,0.08738879,-0.11022778,-0.10261681,1.2634832,1.3830193,0.6560039,-1.4890482,-1.7543565,-0.032041248,-0.048227914,1.1592498,0.86511606
-0.1,0.1,0.8999999999999999,-0.5235987755982988,-0.5235987755982988,0,-0.32622248,1.3302265,-0.09309267,-0.1261916,0.07896453,1.2033088,0.72914845,0.6255166,-1.4614762,-1.4999305,-0.07797998,-0.054212507,1.1390002,0.33630112
-0.1,0.1,0.8999999999999999,-0.5235987755982988,-0.5235987755982988,0,-0.329255,1.3201315,0.09951259,-0.073931165,-0.2542664,1.3039551,0.35083133,0.6942023,-1.4816025,-1.7852141,-0.05548394,0.032840192,1.1924242,0.26886547
-0.1,0.1,0.8999999999999999,-0.5235987755982988,-0.5235987755982988,0,-0.32870227,1.3284628,-0.021903295,-0.07041033,-0.120043635,1.2906682,0.0949862,0.6666981,-1.4825462,-1.6225239,-0.046100713,-0.15924214,1.2147125,0.7841148
-0.1,0.1,0.8999999999999999,-0.5235987755982988,-0.5235987755982988,0,-0.33031666,1.3269614,-0.07007686,-0.038895685,-0.07351967,1.2657489,0.40219116,0.6703733,-1.469146,-1.7805364,-0.061191447,-0.056530323,1.1723337,0.15597458
-0.1,0.1,0.8999999999999999,-0.5235987755982988,-0.5235987755982988,0,-0.33080494,1.3169448,-0.03198567,-0.05802609,0.06949111,1.2433748,0.48587897,0.6285291,-1.4568007,-1.5957404,-0.05045638,-0.119284,1.1736438,0.252057
-0.1,0.1,0.8999999999999999,-0.5235987755982988,-0.5235987755982988,0,-0.3303151,1.3178427,-0.046741806,-0.091967046,-0.27313945,1.2652597,0.51913625,0.6745659,-1.4778395,-1.6777309,-0.043691088,0.018987266,1.2229408,0.4317519
-0.1,0.1,0.8999999999999999,-0.5235987755982988,-0.5235987755982988,0,-0.32594335,1.3294314,-0.044626642,-0.06509389,0.08491738,1.2160583,0.23555127,0.65294707,-1.4631637,-1.7729399,-0.053906493,-0.18417822,1.2176551,0.66712
-0.1,0.1,0.8999999999999999,-0.5235987755982988,-0.5235987755982988,0,-0.3288804,1.3207195,0.15441358,-0.077704065,-0.044989772,1.2664518,0.43494812,0.6194529,-1.4838442,-1.9483529,-0.04422104,-0.08313452,1.2133762,-0.035776407
-0.1,0.1,0.8999999999999999,-0.5235987755982988,-0.5235987755982988,0,-0.3288018,1.3237814,-0.09482896,-0.13233866,-0.022542518,1.2722027,0.8929423,0.6529843,-1.4702023,-1.4778584,-0.05298715,-0.067727424,1.2194072,-0.44022983
-0.1,0.1,0.8999999999999999,-0.5235987755982988,-0.5235987755982988,0,-0.3283361,1.3236796,0.18794505,-0.07848778,-0.12815626,1.2009923,0.90236974,0.6481848,-1.476257,-1.6636714,-0.029241832,-0.06348733,1.1950104,0.69857967
-0.1,0.1,0.8999999999999999,-0.5235987755982988,-0.5235987755982988,0,-0.33062544,1.3188181,0.0632422,-0.045684226,0.040955145,1.2688273,1.227071,0.59605765,-1.4847778,-1.451167,-0.048670903,-0.00015095153,1.1800448,-0.11344828
-0.1,0.1,0.8999999999999999,-0.5235987755982988,-0.5235987755982988,0,-0.32844752,1.3224858,0.008883913,-0.06080317,0.008587853,1.2901413,0.36301863,0.6656903,-1.4590595,-1.8690132,-0.06824945,-0.046443872,1.204243,0.72555673
-0.1,0.1,0.8999999999999999,-0.5235987755982988,-0.5235987755982988,0,-0.3281189,1.3315501,0.19369273,-0.092230596,-0.040379368,1.228821,0.11274084,0.6476677,-1.4948992,-1.7381243,-0.05790512,-0.03842122,1.1932606,0.16300873
-0.1,0.1,0.8999999999999999,-0.5235987755982988,-0.5235987755982988,0,-0.33264562,1.3121254,0.21768256,-0.09047663,-0.058616806,1.2354714,0.40365988,0.7075014,-1.474031,-1.5998724,-0.037380174,0.1475204,1.10306,1.0220766
-0.1,0.1,0.8999999999999999,-0.5235987755982988,-0.5235987755982988,0,-0.32979104,1.3305935,-0.18969703,-0.090812385,0.07113999,1.282134,0.889147,0.62922794,-1.4681827,-1.9606124,-0.056206092,0.09091159,1.2383516,1.4035808
-0.1,0.1,0.8999999999999999,-0.5235987755982988,-0.5235987755982988,0,-0.3306712,1.3211873,0.14200765,-0.11244326,0.06423581,1.19849,1.2190138,0.6732903,-1.4407977,-1.7899514,-0.048028976,0.14335032,1.2573711,-0.041270047
-0.1,0.1,0.8999999999999999,-0.5235987755982988,-0.5235987755982988,0,-0.33256996,1.3347522,0.35424018,-0.051031586,0.067464426,1.1489366,1.1979214,0.6862604,-1.4602627,-1.8745952,-0.037005782,0.040750355,1.1719556,-0.057743646
-0.1,0.1,0.8999999999999999,-0.5235987755982988,-0.5235987755982988,0,-0.3336735,1.3156052,0.025646891,-0.09243091,-0.11798247,1.2189664,-0.027604092,0.64094085,-1.4581747,-1.8224051,-0.08771768,-0.06585117,1.1542356,1.3430845
-0.1,0.1,0.8999999999999999,-0.5235987755982988,-0.5235987755982988,0,-0.32890877,1.3325151,0.120889805,-0.104204535,0.038978297,1.2249904,0.91084754,0.66505146,-1.4806587,-1.8394216,-0.02093489,-0.12431198,1.1337097,0.33705258
-0.1,0.1,0.8999999999999999,-0.5235987755982988,-0.5235987755982988,0,-0.33061475,1.3233583,-0.11412861,-0.08626898,-0.07833085,1.2286156,1.5499276,0.6692895,-1.4484874,-1.8317727,-0.07207566,0.0051674726,1.1748492,0.48888573
-0.1,0.1,0.8999999999999999,-0.5235987755982988,-0.5235987755982988,0,-0.33024466,1.3258947,0.068395264,-0.0682146,-0.051862467,1.2948306,-0.49388078,0.65099907,-1.472412,-1.5990444,-0.05942705,-0.009340626,1.1531725,1.1118374
-0.1,0.1,0.8999999999999999,-0.5235987755982988,-0.5235987755982988,0,-0.33133203,1.3352205,0.037173424,-0.0404594,0.07714608,1.239825,0.047033377,0.62913203,-1.4927236,-1.6284624,-0.05373773,-0.12674257,1.096189,0.060327716
-0.1,0.1,0.8999999999999999,-0.5235987755982988,-0.5235987755982988,0,-0.33292297,1.3216469,-0.038495313,-0.09651497,-0.10357222,1.1978459,0.5437152,0.6268173,-1.463658,-1.4600353,-0.071257964,-0.12217218,1.1974312,0.030457526
-0.1,0.1,0.8999999999999999,-0.5235987755982988,-0.5235987755982988,0,-0.33361483,1.3322855,0.11694005,-0.11240526,0.034216825,1.2109848,0.70975584,0.6489,-1.4888275,-1.8298261,-0.055451408,-0.003380297,1.1457529,-0.12017297
-0.1,0.1,0.8999999999999999,-0.5235987755982988,-0.5235987755982988,0,-0.3317343,1.327014,0.044232186,-0.11907065,-0.033167485,1.1962533,0.9148644,0.6610264,-1.4624362,-1.7319922,-0.05906752,-0.16248193,1.2323298,0.51678574
-0.1,0.1,0.8999999999999999,-0.5235987755982988,-0.5235987755982988,0,-0.33252496,1.3236481,0.40670776,-0.061077166,-0.00045736326,1.2990701,0.71521807,0.596265,-1.4823798,-1.7432948,-0.06876922,-0.04958663,1.1709719,-0.5872653
-0.1,0.1,0.8999999999999999,-0.5235987755982988,-0.5235987755982988,0,-0.331446,1.3242823,0.11749081,-0.071556196,-0.033679638,1.2620485,-0.5605993,0.6467318,-1.45215,-1.8012336,-0.048134536,-0.037491683,1.1864452,-0.7593555
-0.1,0.1,0.8999999999999999,-0.5235987755982988,-0.5235987755982988,0,-0.3330766,1.32555,0.15309002,-0.09611343,0.065608814,1.1937046,-0.84385574,0.69697875,-1.4610838,-1.7561932,-0.060648628,-0.070654094,1.2112784,0.27400056
-0.1,0.1,0.8999999999999999,-0.5235987755982988,-0.5235987755982988,0,-0.3255151,1.3494892,-0.17672762,-0.12227363,-0.0040074256,1.2126201,1.0517321,0.62116987,-1.4704137,-1.8113543,-0.060658883,-0.07486057,1.1805483,0.20847777
-0.1,0.1,0.8999999999999999,-0.5235987755982988,-0.5235987755982988,0,-0.32722047,1.3445817,0.14354758,-0.06396386,-0.023700532,1.2394156,0.27980906,0.70290464,-1.4935648,-1.726628,-0.059400447,0.043952253,1.1398505,0.24067539
-0.1,0.1,0.8999999999999999,-0.5235987755982988,-0.5235987755982988,0,-0.32481194,1.3420374,0.015533217,-0.025809204,-0.03843334,1.20132,1.225481,0.65268356,-1.4742217,-1.7762579,-0.039017238,-0.03234614,1.1826242,0.7383574
-0.1,0.1,0.8999999999999999,-0.5235987755982988,-0.5235987755982988,0,-0.32235953,1.343617,0.094315834,-0.14081414,-0.065537944,1.2678224,1.1263973,0.67119634,-1.4645321,-1.7089015,-0.07018308,0.112308726,1.1518066,0.17985465
-0.1,0.1,0.8999999999999999,-0.5235987755982988,-0.5235987755982988,0,-0.3294478,1.3406801,-0.086954184,-0.032644138,-0.056043856,1.2360413,1.7136824,0.67335695,-1.4731703,-1.6853975,-0.07219889,-0.16198081,1.2097713,0.81995946
-0.1,0.1,0.8999999999999999,-0.5235987755982988,-0.5235987755982988,0,-0.32850185,1.3361977,0.12158187,-0.08522411,-0.027047474,1.2676339,-0.6132372,0.6758044,-1.4787676,-1.6109086,-0.07770826,0.02053055,1.1581916,-0.16023135
-0.1,0.1,0.8999999999999999,-0.5235987755982988,-0.5235987755982988,0,-0.3256259,1.3356261,0.08612475,-0.025338989,-0.18928407,1.2284092,0.3745969,0.70413756,-1.4676181,-1.3233799,-0.039182745,-0.047111817,1.1209958,0.4375165
-0.1,0.1,0.8999999999999999,-0.5235987755982988,-0.5235987755982988,0,-0.32380122,1.3390582,0.24431163,-0.092321925,-0.12594086,1.2259479,-0.17067142,0.67807025,-1.4908024,-1.5569088,-0.03141411,-0.14954129,1.1743655,-0.18360044
-0.1,0.1,0.8999999999999999,-0.5235987755982988,-0.5235987755982988,0,-0.32524404,1.336037,0.0018376536,-0.13091893,-0.09010654,1.217249,0.44489387,0.66819733,-1.4440156,-1.5285356,-0.070467465,-0.0354086,1.1293365,0.8392033
-0.1,0.1,0.8999999999999999,-0.5235987755982988,-0.5235987755982988,0,-0.32676053,1.3337145,-0.03327196,-0.033303987,-0.0016610197,1.320515,1.2657912,0.61553526,-1.4685434,-1.8283222,-0.06708165,-0.10990333,1.1646852,0.5690413
-0.1,0.1,0.8999999999999999,-0.5235987755982988,-0.5235987755982988,0,-0.33186844,1.3308213,-0.047734704,-0.07603227,0.01123258,1.2612588,0.22219957,0.64621127,-1.4942499,-1.4979421,-0.030572254,-0.002907409,1.0807141,-0.6428091
-0.1,0.1,0.8999999999999999,-0.5235987755982988,-0.5235987755982988,0,-0.32096753,1.3300349,0.043639336,-0.11301801,-0.0030450665,1.1908685,1.5891544,0.652211,-1.4619433,-1.6162726,-0.061831135,-0.13937347,1.1744694,0.11308001
-0.1,0.1,0.8999999999999999,-0.5235987755982988,-0.5235987755982988,0,-0.33056647,1.3338159,-0.03513648,-0.11836729,-0.080617666,1.2660968,0.6321147,0.7215197,-1.4640305,-1.8351047,-0.037749503,0.0626901,1.1381847,0.8406263
-0.1,0.1,0.8999999999999999,-0.5235987755982988,-0.5235987755982988,0,-0.33089483,1.338413,-0.059503842,-0.033388328,-0.08379303,1.1849906,1.6224146,0.68303454,-1.4722435,-1.8909643,-0.0920815,-0.057888992,1.1545374,-0.51291627
-0.1,0.1,0.8999999999999999,-0.5235987755982988,-0.5235987755982988,0,-0.32417932,1.3307682,0.16770084,-0.030148406,-0.07534791,1.1881618,1.2474365,0.6643044,-1.4799435,-1.7371655,-0.057683825,0.02027161,1.1018761,0.19418052
-0.1,0.1,0.8999999999999999,-0.5235987755982988,-0.5235987755982988,0,-0.32384405,1.3306829,0.046472605,-0.084200874,-0.11055124,1.3066312,-0.6923372,0.6781614,-1.4880838,-1.4904885,-0.06411344,-0.019067585,1.2012641,1.2207311
-0.1,0.1,0.8999999999999999,-0.5235987755982988,-0.5235987755982988,0,-0.32698438,1.3304394,-0.20406258,-0.08764325,-0.07752501,1.2117242,0.15739654,0.66685176,-1.4683244,-1.603422,-0.055151116,-0.07318182,1.0659472,-0.6118295
-0.1,0.1,0.8999999999999999,-0.5235987755982988,-0.5235987755982988,0,-0.32988253,1.3336276,0.18338215,-0.1215754,0.021075139,1.1783706,1.6255594,0.67274606,-1.4647317,-1.6528784,-0.06861853,0.012664057,1.1953369,0.6335001
-0.1,0.1,0.8999999999999999,-0.5235987755982988,-0.5235987755982988,0,-0.33008993,1.3268958,0.2197384,-0.08593758,-0.13228291,1.1850059,0.43143997,0.62757844,-1.4898934,-2.1041808,-0.062236283,0.060735136,1.1130468,0.41268066
-0.1,0.1,0.8999999999999999,-0.5235987755982988,-0.5235987755982988,0,-0.33384156,1.3311067,0.13920465,-0.042889215,-0.02186861,1.2405697,0.25226858,0.6383821,-1.4845153,-1.6723624,-0.07215529,-0.12030759,1.1451026,0.5149204
-0.1,0.1,0.8999999999999999,-0.5235987755982988,-0.5235987755982988,0,-0.32444343,1.3292414,0.065671004,-0.08211783,-0.038201056,1.2212386,0.34657234,0.6329913,-1.4695338,-1.5673634,-0.06494517,-0.05926706,1.1871326,0.09853605
-0.1,0.1,0.8999999999999999,-0.5235987755982988,-0.5235987755982988,0,-0.3239735,1.3233882,0.009859577,-0.08846565,0.011748996,1.2421119,0.74494195,0.67879033,-1.4665971,-1.7287058,-0.044736926,-0.04027537,1.1283664,0.45129013
-0.1,0.1,0.8999999999999999,-0.5235987755982988,-0.5235987755982988,0,-0.32313687,1.3284274,-0.13746653,-0.073471874,-0.07025826,1.2459395,0.77970123,0.66449296,-1.4839853,-1.5870814,-0.026948754,-0.091561995,1.1491299,-0.123728484
-0.1,0.1,0.8999999999999999,-0.5235987755982988,-0.5235987755982988,0,-0.32563487,1.328908,0.008828088,-0.080973566,-0.12005776,1.2083321,0.61852366,0.6812679,-1.4812517,-1.440007,-0.06616182,-0.05795706,1.1601757,0.26301998
-0.1,0.1,0.8999999999999999,-0.5235987755982988,-0.5235987755982988,0,-0.3306455,1.3278478,0.1540534,-0.06389611,-0.06162643,1.2699364,0.34197113,0.6998574,-1.4804823,-1.447288,-0.022225212,-0.007993721,1.1703426,0.703302
-0.1,0.1,0.8999999999999999,-0.5235987755982988,-0.5235987755982988,0,-0.33003747,1.3297243,0.08817313,-0.063665554,0.01468138,1.251806,0.095545776,0.65355176,-1.492094,-1.9552677,-0.037840597,0.061798595,1.2128739,-0.58600825
-0.1,0.1,0.8999999999999999,-0.5235987755982988,-0.5235987755982988,0,-0.32416078,1.3271663,0.24140221,-0.12150419,-0.048225738,1.2426267,0.9516972,0.70132846,-1.4595977,-1.6583271,-0.06361555,0.019057771,1.2003844,0.03414566
-0.1,0.1,0.8999999999999999,-0.5235987755982988,-0.5235987755982988,0,-0.3258496,1.3324903,0.18573047,-0.039337777,-0.048943285,1.235734,1.2144202,0.68308485,-1.487442,-1.6857243,-0.08978,-0.1584049,1.1765217,0.1586077
-0.1,0.1,0.8999999999999999,-0.5235987755982988,-0.5235987755982988,0,-0.32916045,1.3284173,0.3318303,-0.0587973,0.13883851,1.1426743,1.0858791,0.62366176,-1.4937798,-1.733824,-0.07990742,-0.056972954,1.2162623,0.5443315
-0.1,0.1,0.8999999999999999,-0.5235987755982988,-0.5235987755982988,0,-0.3215757,1.3076649,-0.15740012,-0.07054334,-0.060521714,1.2058839,1.3689027,0.65516734,-1.4635022,-1.6981162,-0.10142189,0.008486931,1.1969596,0.12678356
-0.1,0.1,0.8999999999999999,-0.5235987755982988,-0.5235987755982988,0,-0.33000174,1.3267361,0.0759532,-0.082381174,-0.032330718,1.2711343,1.573994,0.6910719,-1.459416,-1.7818913,-0.06756344,0.0069419187,1.1348367,0.4652536
-0.1,0.1,0.8999999999999999,-0.5235987755982988,-0.5235987755982988,0,-0.33137307,1.3292527,0.009296196,-0.13360663,-0.07481977,1.2457408,0.6394848,0.65285605,-1.477539,-1.9746155,-0.057456102,-0.115735754,1.1563061,0.27347577
-0.1,0.1,0.8999999999999999,-0.5235987755982988,-0.5235987755982988,0,-0.32512316,1.3254188,0.06142293,-0.044386063,3.526712e-05,1.1894774,0.70047617,0.57340723,-1.4547045,-1.5351205,-0.06409926,0.09893553,1.172262,0.050228335
-0.1,0.1,0.8999999999999999,-0.5235987755982988,-0.5235987755982988,0,-0.3310265,1.3285161,0.018992038,-0.038129136,0.031963125,1.2449011,0.070478424,0.6554894,-1.5004177,-1.6445388,-0.056650244,-0.07979349,1.1368984,0.1029355
-0.1,0.1,0.8999999999999999,-0.5235987755982988,-0.5235987755982988,0,-0.32597637,1.3314979,0.28597903,-0.062241085,-0.108514056,1.2873191,1.7803957,0.6792228,-1.4879768,-1.9035145,-0.06451846,-0.15431978,1.1536081,0.15340102
-0.1,0.1,0.8999999999999999,-0.5235987755982988,-0.5235987755982988,0,-0.32633775,1.3256108,0.16312416,-0.064259335,-0.067349054,1.2193954,0.5597805,0.6319823,-1.4639981,-1.6637901,-0.07226622,-0.03524439,1.1822313,-1.0105458
-0.1,0.1,0.8999999999999999,-0.5235987755982988,-0.5235987755982988,0,-0.32972503,1.3272004,-0.13450651,-0.04617136,-0.08099658,1.2871488,0.38502628,0.6098883,-1.482403,-1.7657685,-0.07195125,-0.019677572,1.0675532,-0.09487981
-0.1,0.1,0.8999999999999999,-0.5235987755982988,-0.5235987755982988,0,-0.32555214,1.3252447,0.14065087,-0.035998803,-0.1715494,1.2459826,-0.67511237,0.6898402,-1.4616548,-1.6397405,-0.08150485,-0.075862914,1.1574564,0.5034047
-0.1,0.1,0.8999999999999999,-0.5235987755982988,-0.5235987755982988,0,-0.32796192,1.3253036,0.017983563,-0.1115782,-0.033055916,1.2187517,0.6175686,0.69525886,-1.487631,-1.649636,-0.046786685,-0.1192729,1.1856167,0.7298863
-0.1,0.1,0.8999999999999999,-0.5235987755982988,-0.5235987755982988,0,-0.32044575,1.339877,-0.12862112,-0.13666923,0.0042650057,1.2826488,0.6481123,0.668582,-1.4803708,-1.899279,-0.05097728,-0.0037616645,1.1851262,0.5328087
-0.1,0.1,0.8999999999999999,-0.5235987755982988,-0.5235987755982988,0,-0.32796678,1.3281363,-0.04007873,-0.087240085,-0.05998206,1.2407541,0.4672891,0.65945494,-1.4989518,-1.7979778,-0.06915224,0.025859846,1.0929905,0.3791312
-0.1,0.1,0.8999999999999999,-0.5235987755982988,-0.5235987755982988,0,-0.32733715,1.3301961,0.040752918,-0.14258035,0.06170331,1.2319968,-0.13806817,0.6599768,-1.4672846,-1.9604135,-0.04207161,-0.029193677,1.1224226,0.45245513
-0.1,0.1,0.8999999999999999,-0.5235987755982988,-0.5235987755982988,0,-0.32381982,1.3056844,0.261556,-0.09886744,0.051989872,1.2156513,-0.049634676,0.64659864,-1.4730188,-2.0337722,-0.07310889,0.06441613,1.2400047,-0.74957865
-0.1,0.1,0.8999999999999999,-0.5235987755982988,-0.5235987755982988,0,-0.32704645,1.3235035,0.2748977,-0.07495413,0.013238412,1.2036822,1.314952,0.64663386,-1.4757789,-1.4244272,-0.06645626,-0.07024941,1.2527562,0.63641673
-0.1,0.1,0.8999999999999999,-0.5235987755982988,-0.5235987755982988,0,-0.32223868,1.32453,0.10845623,-0.07128333,0.005306914,1.2250478,0.53032595,0.60458636,-1.4887027,-1.6965272,-0.06659684,0.079428695,1.1355976,-0.35723424
-0.1,0.1,0.8999999999999999,-0.5235987755982988,-0.5235987755982988,0,-0.3272293,1.3196304,0.1186569,-0.058413163,-0.10722243,1.267019,-0.56081134,0.6578993,-1.4958178,-1.8091056,-0.07508789,-0.11800805,1.2092419,0.6462115
-0.1,0.1,0.8999999999999999,-0.5235987755982988,-0.5235987755982988,0,-0.32098204,1.3176144,-0.100607015,-0.06542951,-0.11563396,1.2457114,1.0423928,0.617771,-1.4873515,-1.6785357,-0.06802097,-0.040421143,1.2346442,-0.02084986
-0.1,0.1,0.8999999999999999,-0.5235987755982988,-0.5235987755982988,0,-0.33186477,1.3263397,0.17376596,-0.046056334,-0.07714426,1.2416703,0.2451525,0.64094484,-1.4866785,-1.8551743,-0.08166002,0.032961268,1.1978731,0.043053403
-0.1,0.1,0.8999999999999999,-0.5235987755982988,-0.5235987755982988,0,-0.32649565,1.3225392,-0.05392157,-0.05027502,-0.09317426,1.2367845,1.454567,0.66884696,-1.4590043,-1.6928934,-0.07816614,-0.14387666,1.2318106,-0.028057797
-0.1,0.1,0.8999999999999999,-0.5235987755982988,-0.5235987755982988,0,-0.3260324,1.3195789,-0.083171055,-0.040804055,0.0375455,1.243417,0.6266691,0.610975,-1.4594635,-1.9541715,-0.07929915,-0.057582807,1.1679416,0.43273875
-0.1,0.1,0.8999999999999999,-0.5235987755982988,-0.5235987755982988,0,-0.32885432,1.3203263,0.25536814,-0.04287986,-0.07091923,1.2775029,1.595366,0.63600254,-1.464287,-1.7335682,-0.092047125,-0.05337575,1.1505415,0.46262902
-0.1,0.1,0.8999999999999999,-0.5235987755982988,-0.5235987755982988,0,-0.3214219,1.3216077,0.034148093,-0.07919391,-0.04953155,1.2722697,1.4130288,0.6566226,-1.4667006,-1.6209838,-0.06731977,0.00132447,1.2194971,0.46749598
-0.1,0.1,0.8999999999999999,-0.5235987755982988,-0.5235987755982988,0,-0.32883292,1.3222967,0.1266358,-0.042519014,-0.07957167,1.2530396,0.4740547,0.62885016,-1.4951085,-1.8599927,-0.063836224,0.27367285,1.1095799,-0.15713899
-0.1,0.1,0.8999999999999999,-0.5235987755982988,-0.5235987755982988,0,-0.32145,1.3226712,-0.055898737,-0.07669529,0.084311955,1.2098405,-0.61621976,0.64350307,-1.4812895,-1.5578192,-0.07173428,0.020952385,1.2248015,0.46106216
-0.1,0.1,0.8999999999999999,-0.5235987755982988,-0.5235987755982988,0,-0.3227923,1.3161812,0.13637039,-0.077983186,0.0020110018,1.2534753,0.39903888,0.6717322,-1.469743,-1.7581712,-0.058418825,-0.05029254,1.1436269,-0.72095835
-0.1,0.1,0.8999999999999999,-0.5235987755982988,-0.5235987755982988,0,-0.32965663,1.3246909,0.08683602,-0.12330639,-0.014149794,1.260369,0.16754793,0.68692,-1.4699191,-1.815766,-0.06113339,0.029908335,1.1996152,0.8470478
-0.1,0.1,0.8999999999999999,-0.5235987755982988,-0.5235987755982988,0,-0.32767886,1.3211395,0.16173612,-0.06548177,0.053289976,1.2381736,0.73254514,0.7071977,-1.4619055,-1.8544914,-0.017452398,-0.021708513,1.1806254,0.23910189
-0.1,0.1,0.8999999999999999,-0.5235987755982988,-0.5235987755982988,0,-0.32553643,1.3075635,0.0898032,-0.10301666,-0.09814602,1.222651,0.41774505,0.6632652,-1.464989,-1.2893715,-0.04930826,-0.04535191,1.1463033,0.0130146425
-0.1,0.1,0.8999999999999999,-0.5235987755982988,-0.5235987755982988,0,-0.32441187,1.3120949,0.008633807,-0.065859765,-0.15195969,1.2308553,0.20207982,0.66497475,-1.4820938,-1.8432316,-0.068950005,-0.09804562,1.2324088,0.24285217
-0.1,0.1,0.8999999999999999,-0.5235987755982988,-0.5235987755982988,0,-0.32930863,1.3179761,-0.15821563,-0.01172084,-0.103030376,1.1879989,0.71536744,0.65880084,-1.483576,-1.7976452,-0.049513422,-0.009199823,1.1604849,-0.07798651
-0.1,0.1,0.8999999999999999,-0.5235987755982988,-0.5235987755982988,0,-0.33011886,1.3261278,0.25335705,-0.16728905,-0.017097523,1.2388339,-0.3521683,0.6116643,-1.4785646,-1.7366236,-0.044824462,-0.03710951,1.2145398,0.044695474
-0.1,0.1,0.8999999999999999,-0.5235987755982988,-0.5235987755982988,0,-0.32789326,1.3176029,-0.09636559,-0.098088294,-0.030554993,1.204555,0.43477425,0.65868026,-1.4764693,-1.8200523,-0.055077016,0.014123775,1.2003099,0.8612743
-0.1,0.1,0.8999999999999999,-0.5235987755982988,-0.5235987755982988,0,-0.3251949,1.3182001,-0.09285362,-0.07265179,0.029709008,1.2154596,0.8846119,0.6223713,-1.4818306,-1.5494722,-0.045463737,-0.19347063,1.1368046,-0.46895573
-0.1,0.1,0.8999999999999999,-0.5235987755982988,-0.5235987755982988,0,-0.3239883,1.3187962,0.0883321,0.0013559606,-0.1045457,1.2616615,0.83831286,0.6322314,-1.4648914,-1.7009437,-0.07194045,-0.11396784,1.1390529,0.13998331
-0.1,0.1,0.8999999999999999,-0.5235987755982988,-0.5235987755982988,0,-0.3243709,1.3194342,0.17928088,-0.13736154,-0.14784616,1.2761588,0.74545616,0.6582511,-1.5078627,-1.7290597,-0.04879717,0.078494884,1.0883036,-0.9938964
-0.1,0.1,0.8999999999999999,-0.5235987755982988,-0.5235987755982988,0,-0.32834306,1.3202589,0.04354204,-0.04616775,-0.050725624,1.2255434,0.46231186,0.65618056,-1.4523963,-1.9334563,-0.06124773,0.046288032,1.1978166,-0.0905729
-0.1,0.1,0.8999999999999999,-0.5235987755982988,-0.5235987755982988,0,-0.3237436,1.3170462,-0.028616365,-0.08431686,-0.008284808,1.2650198,0.5727059,0.6396396,-1.4740707,-1.7918937,-0.07413368,0.10243587,1.1532229,0.8186589
-0.1,0.1,0.8999999999999999,-0.5235987755982988,-0.5235987755982988,0,-0.32871568,1.3196149,-0.2652052,-0.07853621,-0.058339138,1.2290461,0.80917925,0.59049684,-1.4694464,-2.0767415,-0.04538358,-0.016050002,1.2134048,0.43887562
-0.1,0.1,0.8999999999999999,-0.5235987755982988,-0.5235987755982988,0,-0.32466996,1.3152529,0.06943816,-0.09550182,-0.068531476,1.1825767,0.42627278,0.70004624,-1.4661546,-1.842275,-0.059046768,-0.025045766,1.1597505,0.8663223
-0.1,0.1,0.8999999999999999,-0.5235987755982988,-0.5235987755982988,0,-0.32485816,1.3161646,0.13205399,-0.058306213,0.0038905272,1.2143116,1.3995566,0.70060295,-1.4690996,-1.545908,-0.06847591,0.061900772,1.082802,0.61076194
-0.1,0.1,0.8999999999999999,-0.5235987755982988,-0.5235987755982988,0,-0.32544193,1.3147805,0.23556335,-0.046508122,0.016836558,1.2470146,1.1636579,0.64040446,-1.4703509,-1.7831028,-0.06893126,-0.08595797,1.2257552,0.5863846
-0.1,0.1,0.8999999999999999,-0.5235987755982988,-0.5235987755982988,0,-0.32488194,1.3158231,0.079836786,-0.031523265,-0.036740776,1.2142655,0.5371308,0.68372196,-1.4634334,-1.6451863,-0.06800504,0.09916213,1.142591,0.9746188
-0.1,0.1,0.8999999999999999,-0.5235987755982988,-0.5235987755982988,0,-0.3297077,1.3186487,0.06142949,-0.11931473,-0.15780301,1.2263904,-0.6367072,0.6253423,-1.4688804,-1.7715524,-0.07867741,0.037574634,1.1795659,0.83668786
-0.1,0.1,0.8999999999999999,-0.5235987755982988,-0.5235987755982988,0,-0.32595107,1.3145999,0.23661552,-0.029773036,-0.0018118835,1.191568,0.87194943,0.6214799,-1.4476503,-1.6575949,-0.08155016,-0.015529563,1.1672543,0.38018712
-0.1,0.1,0.8999999999999999,-0.5235987755982988,-0.5235987755982988,0,-0.32790118,1.3202953,0.075954035,-0.110017784,-0.08739546,1.2893617,0.12515332,0.60943717,-1.4688814,-1.9197936,-0.09735812,-0.09917534,1.1946596,0.72898173
-0.1,0.1,0.8999999999999999,-0.5235987755982988,-0.5235987755982988,0,-0.3290702,1.3178267,0.061566766,-0.12026076,0.04549135,1.2177638,-0.3037198,0.6806171,-1.4678652,-1.7375283,-0.04718083,-0.13583761,1.1925762,-0.011360366
-0.1,0.1,0.8999999999999999,-0.5235987755982988,-0.5235987755982988,0,-0.33060226,1.3166705,0.09825426,-0.05146472,0.076483004,1.1896664,0.2708313,0.6527874,-1.4887567,-1.8409901,-0.07871531,-0.0015745806,1.2023143,0.012019327
-0.1,0.1,0.8999999999999999,-0.5235987755982988,-0.5235987755982988,0,-0.32902727,1.3245118,0.18981025,-0.110411525,0.06897783,1.2550344,0.059065122,0.6578844,-1.4751229,-1.6293874,-0.0620124,-0.047950074,1.1449517,-0.2970022
-0.1,0.1,0.8999999999999999,-0.5235987755982988,-0.5235987755982988,0,-0.3317128,1.3181446,0.15117966,-0.058494132,0.05436406,1.2580243,1.3897535,0.62402064,-1.4718211,-1.8342637,-0.046987213,0.050245468,1.156228,-0.17549045
-0.1,0.1,0.8999999999999999,-0.5235987755982988,-0.5235987755982988,0,-0.32708734,1.3278955,0.2550038,-0.07667199,-0.006376771,1.2031507,0.06820907,0.65185964,-1.4841092,-2.0164099,-0.059095543,-0.09436944,1.2012328,1.0860069
-0.1,0.1,0.8999999999999999,-0.5235987755982988,-0.5235987755982988,0,-0.32622376,1.313213,0.14266291,-0.08345337,-0.008662643,1.2467309,0.19632028,0.63685316,-1.4632024,-2.0234346,-0.07285512,0.027126815,1.1773084,0.6930965
-0.1,0.1,0.8999999999999999,-0.5235987755982988,-0.5235987755982988,0,-0.32919425,1.3096178,-0.052856304,-0.049160235,-0.014852319,1.2382401,1.0100844,0.64809173,-1.4915808,-1.4878896,-0.0820891,0.09475866,1.183101,-0.36036432
-0.1,0.1,0.8999999999999999,-0.5235987755982988,-0.5235987755982988,0,-0.33447593,1.3166659,0.09475597,-0.08424414,-0.045818582,1.1531694,0.5967424,0.69875145,-1.4624305,-1.2901999,-0.043410547,0.062395066,1.1352795,0.74860644
-0.1,0.1,0.8999999999999999,-0.5235987755982988,-0.5235987755982988,0,-0.33303833,1.3100896,0.11829335,-0.09232737,-0.05529209,1.277466,1.2545074,0.64939916,-1.4858564,-1.9269944,-0.095630124,-0.02095297,1.1681992,-0.91299886
-0.1,0.1,0.8999999999999999,-0.5235987755982988,-0.5235987755982988,0,-0.33082998,1.3213968,0.0492461,-0.06846422,0.0368147,1.1551815,-0.005605432,0.6669818,-1.4569759,-1.7748148,-0.08439625,-0.09940869,1.1078135,0.018032845
-0.1,0.1,0.8999999999999999,-0.5235987755982988,-0.5235987755982988,0,-0.33015683,1.3218879,0.07935983,-0.10717843,-0.1524902,1.2552238,-0.059328407,0.589382,-1.4524404,-1.8507007,-0.060854774,-0.05398546,1.1708382,0.084741116
-0.1,0.1,0.8999999999999999,-0.5235987755982988,-0.5235987755982988,0,-0.33103555,1.319388,-0.08068839,-0.080976695,0.0557951,1.2028787,-0.21591744,0.6521914,-1.4793764,-1.4907959,-0.09362168,0.03834422,1.1731129,0.54520166
-0.1,0.1,0.8999999999999999,-0.5235987755982988,-0.5235987755982988,0,-0.3345773,1.3163023,0.11029518,-0.10111811,-0.012927973,1.2018842,0.64581454,0.63173157,-1.480072,-1.5265872,-0.07319456,-0.041064672,1.238588,0.09196301
-0.1,0.1,0.8999999999999999,-0.5235987755982988,-0.5235987755982988,0,-0.32514605,1.330775,0.104664735,-0.05588887,-0.069680244,1.2199656,1.2349097,0.6354329,-1.4745226,-1.7167327,-0.088672206,-0.16183044,1.1155207,-0.5609567
-0.1,0.1,0.8999999999999999,-0.5235987755982988,-0.5235987755982988,0,-0.32265833,1.3193378,0.265974,-0.073892176,-0.19555359,1.2066733,0.91995215,0.67703485,-1.4724737,-1.6429398,-0.039612044,0.019615643,1.2369696,-0.13026471
-0.1,0.1,0.8999999999999999,-0.5235987755982988,-0.5235987755982988,0,-0.31961337,1.3259025,0.00622282,-0.062793024,-0.08666846,1.2115306,-0.111752644,0.633811,-1.473728,-1.7579163,-0.062458385,-0.016588936,1.1283824,0.28173152
-0.1,0.1,0.8999999999999999,-0.5235987755982988,-0.5235987755982988,0,-0.32377306,1.3316647,-0.023422804,-0.10211057,-0.03419965,1.1904556,1.3611178,0.6755869,-1.4698031,-1.744048,-0.075871244,0.014715046,1.1915275,0.2579683
-0.1,0.1,0.8999999999999999,-0.5235987755982988,-0.5235987755982988,0,-0.3229424,1.3290977,-0.037228957,-0.05639871,-0.13215351,1.2057287,0.027555784,0.6947522,-1.4672818,-1.9333946,-0.021593694,-0.04572202,1.104869,0.10669243
-0.1,0.1,0.8999999999999999,-0.5235987755982988,-0.5235987755982988,0,-0.32411137,1.3291118,0.33788064,-0.03735004,-0.07530204,1.3024305,-0.13931756,0.62054634,-1.46069,-1.8380328,-0.056535464,-0.028218491,1.1165309,-0.7075429
-0.1,0.1,0.8999999999999999,-0.5235987755982988,-0.5235987755982988,0,-0.32370803,1.3247128,0.07286134,-0.083600685,0.00669327,1.2149789,0.72517717,0.6508727,-1.4703825,-1.784728,-0.045958538,0.13943021,1.1744084,-0.19179542
-0.1,0.1,0.8999999999999999,-0.5235987755982988,-0.5235987755982988,0,-0.3276609,1.3280299,0.13170284,0.0276602,-0.017168835,1.2663646,0.6024799,0.67609715,-1.4698607,-1.9847795,-0.0063584484,-0.16269928,1.2861971,1.0072436
-0.1,0.1,0.8999999999999999,-0.5235987755982988,-0.5235987755982988,0,-0.32554498,1.3277099,0.045153316,-0.10558523,-0.073156126,1.205715,-0.21926662,0.66486907,-1.4812062,-1.5555742,-0.03206403,-0.103015006,1.1267458,0.062102914
-0.1,0.1,0.8999999999999999,-0.5235987755982988,-0.5235987755982988,0,-0.32696414,1.3281016,0.13954155,-0.10573664,0.07382166,1.2403536,1.0451393,0.641438,-1.4902114,-1.6550944,-0.038232543,-0.099540964,1.1908451,-0.689196
-0.1,0.1,0.8999999999999999,-0.5235987755982988,-0.5235987755982988,0,-0.32666305,1.3270817,0.2338985,-0.082510404,0.023663484,1.2460341,0.76282525,0.7286613,-1.4796171,-1.7146411,-0.066512346,-0.040910322,1.2666187,0.013589941
-0.1,0.1,0.8999999999999999,-0.5235987755982988,-0.5235987755982988,0,-0.32737723,1.3292114,-0.14388338,-0.010134562,0.116418906,1.2115446,0.38312355,0.66518676,-1.468272,-1.7599515,-0.059694458,-0.15631197,1.184118,0.6791971
-0.1,0.1,0.8999999999999999,-0.5235987755982988,-0.5235987755982988,0,-0.32651636,1.3274163,0.07009102,-0.1216735,-0.103809245,1.2678893,0.13840006,0.6631134,-1.4907346,-1.8363261,-0.084867045,0.017452668,1.182316,-0.098448105
-0.1,0.1,0.8999999999999999,-0.5235987755982988,-0.5235987755982988,0,-0.3267563,1.3211488,-0.028679052,-0.109970935,0.005916557,1.2007807,0.51694447,0.64128613,-1.483287,-1.5421256,-0.0816377,0.10723463,1.1542732,0.76335466
-0.1,0.1,0.8999999999999999,-0.5235987755982988,-0.5235987755982988,0,-0.3262377,1.3246921,0.054509316,-0.075217456,0.0145289125,1.2365987,0.80180347,0.63768166,-1.4987578,-1.579499,-0.051084924,-0.045825902,1.1235567,0.13679014
-0.1,0.1,0.8999999999999999,-0.5235987755982988,-0.5235987755982988,0,-0.3270533,1.3184475,-0.006408822,-0.054768477,0.09905642,1.248093,0.7902364,0.631305,-1.4853933,-1.4610575,-0.080299616,-0.10214702,1.1753312,0.20475835
-0.1,0.1,0.8999999999999999,-0.5235987755982988,-0.5235987755982988,0,-0.32716388,1.3267505,0.031267643,-0.10469587,-0.1385165,1.1534042,0.19416787,0.7222247,-1.4812495,-2.0389938,-0.06442967,-0.100065954,1.1630416,-0.014241081
-0.1,0.1,0.8999999999999999,-0.5235987755982988,-0.5235987755982988,0,-0.32767922,1.3215209,0.10918279,-0.11610428,-0.026890365,1.2019048,0.20859276,0.67466754,-1.4668342,-1.7283912,-0.04893173,-0.04521093,1.1096616,0.28913108
-0.1,0.1,0.8999999999999999,-0.5235987755982988,-0.5235987755982988,0,-0.32686803,1.3300077,0.07067742,-0.15542051,-0.061977897,1.2342571,0.55801016,0.6457499,-1.4772826,-1.5700333,-0.050525945,0.11795068,1.1730571,0.17510729
-0.1,0.1,0.8999999999999999,-0.5235987755982988,-0.5235987755982988,0,-0.32785997,1.3200492,0.24046402,-0.10147431,-0.036423177,1.1850518,0.14321764,0.63799614,-1.4720366,-1.8152918,-0.039988343,0.0038132945,1.2244129,0.25344577
-0.1,0.1,0.8999999999999999,-0.5235987755982988,-0.5235987755982988,0,-0.33041042,1.3147744,0.19241427,-0.043798245,-0.0027343684,1.2224098,1.0244614,0.70307726,-1.4674654,-1.5846491,-0.037737627,-0.117248155,1.1630874,-0.9110235
-0.1,0.1,0.8999999999999999,-0.5235987755982988,-0.5235987755982988,0,-0.3268374,1.3222429,0.10639032,-0.09736491,-0.06664332,1.1917892,0.45118093,0.6867363,-1.4680766,-2.015266,-0.033792403,-0.09325769,1.2281967,-0.011839354
