sanky1234/BimanualDexCatch/isaacgymenvs/cem_results/football_pose_-0.1_-0.2_1.0999999999999999_0.5235987755982988_0.0_0_2025-05-25.csv
x,y,z,roll,pitch,yaw,robot1/joint1,robot1/joint2,robot1/joint3,robot1/joint4,robot1/joint5,robot1/joint6,robot1/joint7,robot2/joint1,robot2/joint2,robot2/joint3,robot2/joint4,robot2/joint5,robot2/joint6,robot2/joint7
-0.1,-0.2,1.0999999999999999,0.5235987755982988,0.0,0,-0.16959071,-1.3952963,1.6785012,-1.4474384,-0.19336724,0.49455875,-0.3931085,-0.11334888,0.027956657,-1.2901917,0.6159308,-0.28367013,1.5532725,-1.8892928
-0.1,-0.2,1.0999999999999999,0.5235987755982988,0.0,0,-0.16854516,-1.3991662,1.707082,-1.5048048,1.101156,0.539909,-0.2624278,-0.11767771,0.030977258,-1.2780035,0.6235332,-0.270597,1.55365,-1.9348979
-0.1,-0.2,1.0999999999999999,0.5235987755982988,0.0,0,-0.16551083,-1.4009818,1.6602619,-1.4310998,0.04172578,0.92754877,0.44618654,-0.123022944,0.02494056,-1.28629,0.62156177,-0.26424488,1.5466703,-1.8852358
-0.1,-0.2,1.0999999999999999,0.5235987755982988,0.0,0,-0.16916834,-1.4067882,1.6601079,-1.443091,1.012719,1.0235707,-1.067333,-0.112853706,0.02927005,-1.2844372,0.608391,-0.2713563,1.5355399,-1.912393
-0.1,-0.2,1.0999999999999999,0.5235987755982988,0.0,0,-0.1646336,-1.4013314,1.6773603,-1.517818,0.9576645,0.6625729,-0.63552904,-0.11561648,0.03169142,-1.2841719,0.617143,-0.2676105,1.5511047,-1.9034309
-0.1,-0.2,1.0999999999999999,0.5235987755982988,0.0,0,-0.17212816,-1.3986392,1.6905876,-1.446937,0.26041922,0.38229248,-0.05807094,-0.115283124,0.030198082,-1.293863,0.62104565,-0.27659068,1.5527288,-1.8453283
-0.1,-0.2,1.0999999999999999,0.5235987755982988,0.0,0,-0.18423857,-1.3967632,1.6750517,-1.4654998,-0.25377676,0.3443078,-0.7533692,-0.11419043,0.027026074,-1.2839273,0.6099397,-0.2701679,1.5416442,-1.9299799
-0.1,-0.2,1.0999999999999999,0.5235987755982988,0.0,0,-0.18012658,-1.4034207,1.6571177,-1.4681048,1.1061949,0.961504,-0.1923459,-0.11555172,0.030421982,-1.2849976,0.61253166,-0.27788627,1.5338415,-1.8975782
-0.1,-0.2,1.0999999999999999,0.5235987755982988,0.0,0,-0.18006206,-1.404919,1.6556779,-1.4690678,-0.28043735,0.55558085,0.06311764,-0.113270216,0.030395033,-1.2902813,0.6144172,-0.2767421,1.5487251,-1.8521308
-0.1,-0.2,1.0999999999999999,0.5235987755982988,0.0,0,-0.1700966,-1.4027658,1.6685368,-1.5296292,0.96533966,0.12680997,-0.3622771,-0.11950854,0.03220461,-1.2832986,0.6177782,-0.27713054,1.556484,-1.9309665
-0.1,-0.2,1.0999999999999999,0.5235987755982988,0.0,0,-0.16595359,-1.403808,1.7111241,-1.512318,0.60801,0.700592,-0.21192497,-0.11629848,0.0240003,-1.2864628,0.6123962,-0.27801874,1.5350047,-1.8791182
-0.1,-0.2,1.0999999999999999,0.5235987755982988,0.0,0,-0.16979237,-1.4011273,1.6972935,-1.4838336,1.1020569,0.641987,-1.0364385,-0.11945768,0.028649073,-1.2901369,0.6204711,-0.2603896,1.5259109,-1.9050833
-0.1,-0.2,1.0999999999999999,0.5235987755982988,0.0,0,-0.17621706,-1.4018089,1.6774011,-1.4568446,-0.7928604,0.17235777,-0.6023955,-0.11414318,0.030044826,-1.2823076,0.6230968,-0.27080837,1.5497651,-1.9227601
-0.1,-0.2,1.0999999999999999,0.5235987755982988,0.0,0,-0.16864996,-1.3969038,1.6852179,-1.515519,-0.16847852,0.6466155,-0.23899202,-0.11649116,0.027495135,-1.2792932,0.6178924,-0.27649313,1.5662111,-1.9325855
-0.1,-0.2,1.0999999999999999,0.5235987755982988,0.0,0,-0.1788606,-1.3985882,1.6984655,-1.4490013,0.27171507,0.7882164,-0.34403524,-0.112643965,0.026910355,-1.2864093,0.6279113,-0.28320435,1.5575734,-1.9635074
-0.1,-0.2,1.0999999999999999,0.5235987755982988,0.0,0,-0.17269799,-1.4032545,1.6762764,-1.4666013,-0.66492903,0.6575637,-0.24448356,-0.11033909,0.029297333,-1.2836913,0.61748916,-0.2725808,1.5661869,-1.9064183
-0.1,-0.2,1.0999999999999999,0.5235987755982988,0.0,0,-0.17950578,-1.4007057,1.7117225,-1.4905293,0.09270341,0.46559912,-0.507288,-0.11640614,0.029947894,-1.2823887,0.61502254,-0.25827435,1.537149,-1.8971891
-0.1,-0.2,1.0999999999999999,0.5235987755982988,0.0,0,-0.17415318,-1.4008596,1.6737041,-1.4861913,-0.38403153,0.4503756,-0.9883575,-0.1160421,0.029459363,-1.2907895,0.60452616,-0.28345075,1.5414989,-1.8921672
-0.1,-0.2,1.0999999999999999,0.5235987755982988,0.0,0,-0.15932088,-1.3988228,1.7022486,-1.4422567,-0.47384688,0.9927605,-0.94569093,-0.1194363,0.030907698,-1.2857041,0.6220247,-0.25656465,1.5483689,-1.8947492
-0.1,-0.2,1.0999999999999999,0.5235987755982988,0.0,0,-0.16686434,-1.3987595,1.670661,-1.4533396,0.5580029,0.8063444,-0.015541255,-0.11214673,0.029004721,-1.2890213,0.62342703,-0.2655802,1.5562961,-1.8784666
-0.1,-0.2,1.0999999999999999,0.5235987755982988,0.0,0,-0.17678565,-1.4019339,1.6761158,-1.46921,1.0716903,0.3945099,-0.790243,-0.118859716,0.029540177,-1.2865006,0.6139112,-0.2765466,1.5573856,-1.8652043
-0.1,-0.2,1.0999999999999999,0.5235987755982988,0.0,0,-0.17799327,-1.4014949,1.6581857,-1.4744943,0.051068135,0.5203281,0.15238571,-0.11359539,0.030612992,-1.2873607,0.6251605,-0.26618934,1.5578299,-1.8868722
-0.1,-0.2,1.0999999999999999,0.5235987755982988,0.0,0,-0.17136134,-1.4016201,1.6525712,-1.4722148,-0.23467965,0.113702856,-0.6593591,-0.12060987,0.02746579,-1.2843585,0.61933404,-0.28363016,1.5350561,-1.8921735
-0.1,-0.2,1.0999999999999999,0.5235987755982988,0.0,0,-0.16457418,-1.4029956,1.678006,-1.4013854,0.8899742,0.45109588,-0.53644097,-0.11535196,0.028583426,-1.2828085,0.61938316,-0.26384428,1.5488844,-1.9108388
-0.1,-0.2,1.0999999999999999,0.5235987755982988,0.0,0,-0.17027833,-1.3974398,1.6980116,-1.4711325,0.93629193,0.26034957,-0.09163167,-0.11427138,0.031201605,-1.2851334,0.61463714,-0.26832333,1.5352378,-1.883986
-0.1,-0.2,1.0999999999999999,0.5235987755982988,0.0,0,-0.17011924,-1.3960971,1.657625,-1.5085783,-0.018178562,0.9783706,-0.43194574,-0.119796544,0.029198501,-1.2871561,0.6094588,-0.29502335,1.5638957,-1.9038231
-0.1,-0.2,1.0999999999999999,0.5235987755982988,0.0,0,-0.17395163,-1.3973902,1.6747454,-1.4967072,-0.035030294,0.68137354,-0.30958787,-0.11989916,0.03082107,-1.277588,0.6184411,-0.2803726,1.5290769,-1.9144341
-0.1,-0.2,1.0999999999999999,0.5235987755982988,0.0,0,-0.18219435,-1.400561,1.6690978,-1.482462,0.21090749,0.10399285,-0.50206476,-0.11729363,0.026367566,-1.2810259,0.61294687,-0.2731335,1.5485734,-1.8873485
-0.1,-0.2,1.0999999999999999,0.5235987755982988,0.0,0,-0.17052874,-1.4001576,1.6586037,-1.4877317,-0.41234896,0.35675776,-0.88560814,-0.11766167,0.029867746,-1.2887042,0.60922426,-0.2765713,1.5609977,-1.8696185
-0.1,-0.2,1.0999999999999999,0.5235987755982988,0.0,0,-0.16794352,-1.4044522,1.6549991,-1.4553219,0.9462114,0.4280288,-0.2798587,-0.11655947,0.02788973,-1.2811037,0.61201525,-0.27752444,1.5570211,-1.879135
-0.1,-0.2,1.0999999999999999,0.5235987755982988,0.0,0,-0.17639287,-1.3994684,1.7046494,-1.5013827,0.3980017,0.52193856,-0.4516505,-0.120246656,0.029175911,-1.2796446,0.6203417,-0.29370996,1.5584483,-1.885929
-0.1,-0.2,1.0999999999999999,0.5235987755982988,0.0,0,-0.16187915,-1.3983134,1.7115663,-1.4275712,1.0697134,0.93192303,-0.24218066,-0.1169112,0.030632004,-1.2847856,0.62292826,-0.28204882,1.5530976,-1.8648582
-0.1,-0.2,1.0999999999999999,0.5235987755982988,0.0,0,-0.17789885,-1.4026757,1.6745545,-1.4698132,-1.0238248,0.57251924,-0.6915717,-0.108419225,0.029785201,-1.2843034,0.6261848,-0.2745236,1.55635,-1.8626881
-0.1,-0.2,1.0999999999999999,0.5235987755982988,0.0,0,-0.18052691,-1.3982917,1.6827168,-1.4537871,0.65234584,0.5362022,-0.5899736,-0.1137254,0.03003824,-1.2919545,0.6203462,-0.2740431,1.5490571,-1.8484583
-0.1,-0.2,1.0999999999999999,0.5235987755982988,0.0,0,-0.17141914,-1.4035019,1.679025,-1.458708,-0.6205146,1.1729034,-1.0981729,-0.11107499,0.031153172,-1.293738,0.62734324,-0.2699801,1.5386453,-1.9011607
-0.1,-0.2,1.0999999999999999,0.5235987755982988,0.0,0,-0.16866884,-1.3980781,1.6759737,-1.4864533,0.45274732,0.9164426,-0.35342136,-0.11329713,0.02702821,-1.2805789,0.6230014,-0.26557985,1.5440539,-1.8953587
-0.1,-0.2,1.0999999999999999,0.5235987755982988,0.0,0,-0.1695835,-1.4027593,1.6933812,-1.5045303,0.7118096,0.47276992,-0.99325067,-0.11273015,0.031046765,-1.2844493,0.62063086,-0.2668797,1.546149,-1.9363478
-0.1,-0.2,1.0999999999999999,0.5235987755982988,0.0,0,-0.17857881,-1.3956575,1.6898341,-1.4247515,0.91429096,0.93776226,-0.8104285,-0.123447664,0.029457655,-1.2857604,0.6076913,-0.27953398,1.5354813,-1.9317839
-0.1,-0.2,1.0999999999999999,0.5235987755982988,0.0,0,-0.17154236,-1.3960869,1.6849463,-1.4799432,0.21263587,0.79305255,-0.4856004,-0.11923796,0.027342835,-1.2860315,0.6051293,-0.26342317,1.5419557,-1.8789924
-0.1,-0.2,1.0999999999999999,0.5235987755982988,0.0,0,-0.17123175,-1.3971461,1.6914331,-1.4647211,0.6283407,0.42861146,-0.52145845,-0.1175295,0.030752257,-1.2928735,0.60216177,-0.2726349,1.5300627,-1.8634236
-0.1,-0.2,1.0999999999999999,0.5235987755982988,0.0,0,-0.17561272,-1.3959705,1.702794,-1.4450909,0.50049,0.9435754,-0.39448702,-0.11689092,0.029186875,-1.2810994,0.62333477,-0.27937192,1.5506574,-1.8984417
-0.1,-0.2,1.0999999999999999,0.5235987755982988,0.0,0,-0.17115755,-1.4017214,1.6907729,-1.4440187,-0.44267827,0.40040323,-0.54270625,-0.111207835,0.029891826,-1.2856648,0.61511046,-0.2610872,1.5401947,-1.905727
-0.1,-0.2,1.0999999999999999,0.5235987755982988,0.0,0,-0.1776149,-1.4041176,1.6465156,-1.4146596,-0.067976125,0.97842216,-1.0031043,-0.116343215,0.028991256,-1.2814006,0.61956865,-0.2759083,1.5410465,-1.8863051
-0.1,-0.2,1.0999999999999999,0.5235987755982988,0.0,0,-0.17027538,-1.401056,1.6964192,-1.4536878,0.746409,0.64625555,-0.8692084,-0.11450698,0.02700559,-1.2824758,0.6095994,-0.2800619,1.551543,-1.8592789
-0.1,-0.2,1.0999999999999999,0.5235987755982988,0.0,0,-0.16687143,-1.3947451,1.7121933,-1.4801413,0.5848272,0.564402,-0.7476672,-0.11794707,0.02814733,-1.2829417,0.6139733,-0.2724163,1.5503702,-1.8787527
-0.1,-0.2,1.0999999999999999,0.5235987755982988,0.0,0,-0.17314017,-1.4024822,1.6798782,-1.4505488,0.36077112,0.24929114,-0.2589639,-0.114066646,0.02902398,-1.2889363,0.61863446,-0.26384926,1.5400915,-1.878766
-0.1,-0.2,1.0999999999999999,0.5235987755982988,0.0,0,-0.17721689,-1.4060836,1.658155,-1.4534321,0.10143371,0.60286903,-0.5871489,-0.112942584,0.028701471,-1.2903298,0.62209755,-0.27184153,1.5354337,-1.8958337
-0.1,-0.2,1.0999999999999999,0.5235987755982988,0.0,0,-0.17300087,-1.4036106,1.6773701,-1.4120926,-0.12732843,0.9593826,-0.7414266,-0.11683776,0.028336558,-1.2833924,0.6117408,-0.27220356,1.5631444,-1.8797904
-0.1,-0.2,1.0999999999999999,0.5235987755982988,0.0,0,-0.1681969,-1.4009389,1.7081875,-1.4790186,-0.20583591,1.2512919,-0.18595432,-0.114081174,0.028416917,-1.2895205,0.6078712,-0.25913894,1.5400426,-1.8918065
-0.1,-0.2,1.0999999999999999,0.5235987755982988,0.0,0,-0.17924613,-1.4017024,1.6855052,-1.495535,-0.026135013,0.7451224,-0.5678305,-0.11196452,0.02656193,-1.2920228,0.62159425,-0.2824424,1.5256827,-1.8722984
-0.1,-0.2,1.0999999999999999,0.5235987755982988,0.0,0,-0.16500926,-1.3979026,1.707872,-1.4703968,-0.6081031,0.34951088,-0.61741143,-0.1163251,0.030695101,-1.2880491,0.60765845,-0.2820372,1.5495349,-1.878103
-0.1,-0.2,1.0999999999999999,0.5235987755982988,0.0,0,-0.1766094,-1.4021583,1.6956608,-1.5467231,0.5664694,0.25390598,-0.6231888,-0.11610236,0.03187242,-1.2839634,0.6201045,-0.27612188,1.5406564,-1.8717909
-0.1,-0.2,1.0999999999999999,0.5235987755982988,0.0,0,-0.17712976,-1.4020778,1.7000883,-1.4852682,-0.058112774,0.5709091,-0.19473249,-0.11827192,0.030419124,-1.2874218,0.61597127,-0.26537022,1.5655787,-1.869888
-0.1,-0.2,1.0999999999999999,0.5235987755982988,0.0,0,-0.16580749,-1.3976426,1.6604393,-1.4800396,-0.061659664,1.0006644,-0.6587155,-0.11433759,0.02893404,-1.2921256,0.6214605,-0.27599317,1.5374606,-1.9151435
-0.1,-0.2,1.0999999999999999,0.5235987755982988,0.0,0,-0.16903302,-1.3937583,1.7013633,-1.4665375,0.40258813,0.6552131,0.2929781,-0.11099283,0.02869632,-1.2902447,0.6317935,-0.26428396,1.5495485,-1.8929918
-0.1,-0.2,1.0999999999999999,0.5235987755982988,0.0,0,-0.17149273,-1.4002274,1.6744721,-1.4419678,0.087176755,1.2239295,-0.097328104,-0.1142592,0.02902138,-1.2860165,0.6144344,-0.28122014,1.548029,-1.9169971
-0.1,-0.2,1.0999999999999999,0.5235987755982988,0.0,0,-0.16106826,-1.4003099,1.6902652,-1.4621339,0.51424104,0.6989393,-1.2470242,-0.11273597,0.028257942,-1.2960746,0.61306906,-0.2773412,1.5258816,-1.8778235
-0.1,-0.2,1.0999999999999999,0.5235987755982988,0.0,0,-0.16822043,-1.4001658,1.6978362,-1.5129397,0.33362824,0.825589,-0.018018506,-0.118675284,0.028292017,-1.2841663,0.61837834,-0.26922476,1.5418589,-1.8806977
-0.1,-0.2,1.0999999999999999,0.5235987755982988,0.0,0,-0.18967591,-1.4015037,1.6655412,-1.443204,0.018728692,0.4155829,-0.5303641,-0.116549745,0.029914137,-1.2859309,0.62800074,-0.2726763,1.5539553,-1.8887789
-0.1,-0.2,1.0999999999999999,0.5235987755982988,0.0,0,-0.16736464,-1.4037124,1.6620121,-1.4430184,0.72547895,0.9241294,-0.059604675,-0.11937807,0.0292601,-1.2861019,0.61798334,-0.26739752,1.5492469,-1.8992672
-0.1,-0.2,1.0999999999999999,0.5235987755982988,0.0,0,-0.18220775,-1.4048136,1.6645659,-1.435317,0.620576,0.7444946,-0.5717287,-0.11493722,0.028139805,-1.2833279,0.60747373,-0.29934946,1.5428731,-1.9059967
-0.1,-0.2,1.0999999999999999,0.5235987755982988,0.0,0,-0.16621399,-1.4006015,1.677965,-1.5060815,0.14309543,0.96299595,-0.4952994,-0.12111618,0.028880473,-1.2797413,0.6135492,-0.25260615,1.5571028,-1.8736248
-0.1,-0.2,1.0999999999999999,0.5235987755982988,0.0,0,-0.1780307,-1.4025645,1.6766391,-1.4650406,-0.3615208,0.52407044,-0.6660386,-0.11341972,0.028338574,-1.2930437,0.61351717,-0.27444902,1.5465276,-1.92442
-0.1,-0.2,1.0999999999999999,0.5235987755982988,0.0,0,-0.16124563,-1.4002188,1.6780148,-1.4146614,0.2562704,0.8409413,0.016002063,-0.10705179,0.028042244,-1.2928112,0.6093862,-0.28754422,1.5392152,-1.9227349
-0.1,-0.2,1.0999999999999999,0.5235987755982988,0.0,0,-0.17800954,-1.4066713,1.6915627,-1.4790952,0.552887,1.0772119,-0.32654512,-0.11072878,0.029183622,-1.2897987,0.6184211,-0.28336722,1.5220164,-1.9209844
-0.1,-0.2,1.0999999999999999,0.5235987755982988,0.0,0,-0.17381053,-1.4025502,1.6619225,-1.4736342,0.9134775,0.5839647,-0.26032472,-0.11765688,0.027295107,-1.2825694,0.6253552,-0.27328587,1.5532309,-1.8807889
-0.1,-0.2,1.0999999999999999,0.5235987755982988,0.0,0,-0.16179192,-1.3983434,1.6718825,-1.4618818,0.39193818,1.4147393,-0.4751816,-0.1145909,0.030349042,-1.2903398,0.61049753,-0.2717004,1.5484395,-1.9170333
-0.1,-0.2,1.0999999999999999,0.5235987755982988,0.0,0,-0.16351178,-1.4021965,1.6522962,-1.4930458,0.8405545,0.8096915,-0.03143144,-0.11396577,0.02890006,-1.2878921,0.6073,-0.2753122,1.5527622,-1.8912297
-0.1,-0.2,1.0999999999999999,0.5235987755982988,0.0,0,-0.17678626,-1.3975661,1.6935365,-1.4208483,-0.35386053,0.4868703,-0.24674286,-0.11504316,0.0326989,-1.2852482,0.6197465,-0.27458018,1.5425617,-1.8768082
-0.1,-0.2,1.0999999999999999,0.5235987755982988,0.0,0,-0.1779653,-1.4036386,1.6590621,-1.520455,0.185796,0.24054691,-0.61802006,-0.11021959,0.028780717,-1.2876662,0.6167723,-0.26127896,1.5527644,-1.9270916
-0.1,-0.2,1.0999999999999999,0.5235987755982988,0.0,0,-0.15972644,-1.3983668,1.722571,-1.4745195,0.8422062,0.8732527,-1.010353,-0.11705205,0.032769345,-1.2917136,0.6226904,-0.26675212,1.5543672,-1.8895284
-0.1,-0.2,1.0999999999999999,0.5235987755982988,0.0,0,-0.16593024,-1.4014792,1.6892807,-1.4912132,0.017182855,0.538767,-0.794091,-0.1158483,0.028213384,-1.2896692,0.62037545,-0.28859094,1.5505306,-1.8707097
-0.1,-0.2,1.0999999999999999,0.5235987755982988,0.0,0,-0.16424721,-1.3995744,1.7118526,-1.4948071,0.6392463,0.7586994,0.15166144,-0.11340482,0.030070674,-1.2918991,0.6145528,-0.25688767,1.5316143,-1.9231013
-0.1,-0.2,1.0999999999999999,0.5235987755982988,0.0,0,-0.18922886,-1.4055845,1.6622285,-1.4911467,0.26789933,0.97149575,-1.1292623,-0.11348427,0.025591392,-1.2870104,0.61545306,-0.26757056,1.5386274,-1.8863986
-0.1,-0.2,1.0999999999999999,0.5235987755982988,0.0,0,-0.18395513,-1.4004087,1.7216867,-1.4977,-0.13236366,0.43907452,-0.34176552,-0.112931974,0.029273614,-1.2845159,0.6126731,-0.2629378,1.5507721,-1.9078085
-0.1,-0.2,1.0999999999999999,0.5235987755982988,0.0,0,-0.17539795,-1.4025081,1.6667123,-1.5126551,0.05384116,0.15711996,0.20637512,-0.11058373,0.030872162,-1.2871761,0.62216127,-0.26730943,1.5410289,-1.8593752
-0.1,-0.2,1.0999999999999999,0.5235987755982988,0.0,0,-0.17385492,-1.3967038,1.685744,-1.5010067,-0.08591341,0.8589299,-0.8540488,-0.11710772,0.028222373,-1.2890724,0.607055,-0.28837755,1.5340563,-1.9022844
-0.1,-0.2,1.0999999999999999,0.5235987755982988,0.0,0,-0.1782108,-1.4022088,1.6945286,-1.5144209,-0.28997418,0.23405552,-0.40896875,-0.11595973,0.027220337,-1.2837275,0.6120548,-0.2655954,1.546928,-1.9140722
-0.1,-0.2,1.0999999999999999,0.5235987755982988,0.0,0,-0.17231393,-1.3980721,1.7146791,-1.4591874,0.3392268,0.73757976,-0.39775833,-0.11682786,0.03078848,-1.2847807,0.61178666,-0.28051695,1.5581439,-1.8750291
-0.1,-0.2,1.0999999999999999,0.5235987755982988,0.0,0,-0.17596778,-1.398155,1.6858029,-1.4861598,0.61696553,0.9508289,-0.34190476,-0.12014496,0.031115767,-1.2910451,0.6218061,-0.25632298,1.5638936,-1.8657941
-0.1,-0.2,1.0999999999999999,0.5235987755982988,0.0,0,-0.16379392,-1.3985505,1.723831,-1.49769,0.5408406,1.1037062,0.028490571,-0.11371776,0.026573954,-1.2846346,0.6115261,-0.27400494,1.5459484,-1.8905401
-0.1,-0.2,1.0999999999999999,0.5235987755982988,0.0,0,-0.17685162,-1.400984,1.6834618,-1.4380612,-0.40221843,0.78002995,-0.08108466,-0.11696979,0.030550607,-1.2887944,0.61621547,-0.26954198,1.567041,-1.8647656
-0.1,-0.2,1.0999999999999999,0.5235987755982988,0.0,0,-0.17689507,-1.3983066,1.7036567,-1.4518759,0.6388679,0.24462481,-0.4451716,-0.11513412,0.028226266,-1.28922,0.61029905,-0.29169518,1.5534998,-1.9122084
-0.1,-0.2,1.0999999999999999,0.5235987755982988,0.0,0,-0.17211086,-1.4013833,1.672004,-1.4829296,0.07579568,0.4303014,0.06483971,-0.1146145,0.029556513,-1.2942955,0.6280824,-0.2764397,1.5352051,-1.8977058
-0.1,-0.2,1.0999999999999999,0.5235987755982988,0.0,0,-0.16645062,-1.3970633,1.7010319,-1.4830328,-0.13864973,0.004372231,0.029728603,-0.116131715,0.028919654,-1.2848794,0.6130393,-0.28437105,1.5646566,-1.8646022
-0.1,-0.2,1.0999999999999999,0.5235987755982988,0.0,0,-0.17222291,-1.4037311,1.6770929,-1.4846287,0.64995897,0.2767247,-0.62501305,-0.11653497,0.029885583,-1.2914774,0.614779,-0.26082185,1.553653,-1.8829372
-0.1,-0.2,1.0999999999999999,0.5235987755982988,0.0,0,-0.17121027,-1.3975114,1.7145755,-1.4480805,0.86883235,0.39891794,-1.0999005,-0.11032756,0.030333064,-1.2871346,0.6169221,-0.26222664,1.5512528,-1.8858545
-0.1,-0.2,1.0999999999999999,0.5235987755982988,0.0,0,-0.1708619,-1.3965855,1.7148522,-1.5551622,1.0497398,0.9259071,-0.60518706,-0.117668025,0.026311923,-1.2863795,0.6053954,-0.27985683,1.5675864,-1.8981353
-0.1,-0.2,1.0999999999999999,0.5235987755982988,0.0,0,-0.16648853,-1.4002208,1.6839213,-1.5157094,-0.038287234,0.68991834,-0.6041541,-0.11726592,0.026140423,-1.2852168,0.61047155,-0.26255566,1.5452543,-1.8771827
-0.1,-0.2,1.0999999999999999,0.5235987755982988,0.0,0,-0.1554293,-1.4009292,1.7171776,-1.4587625,-0.74164397,0.27400956,-0.18324676,-0.12203832,0.0296658,-1.2863625,0.61228436,-0.27134725,1.5244868,-1.895794
-0.1,-0.2,1.0999999999999999,0.5235987755982988,0.0,0,-0.16241711,-1.4034731,1.6910951,-1.507782,0.50710225,0.9832063,-0.8827587,-0.11811729,0.029495975,-1.2909621,0.6023145,-0.2665848,1.5430756,-1.9205014
-0.1,-0.2,1.0999999999999999,0.5235987755982988,0.0,0,-0.1781105,-1.4005157,1.706414,-1.5333135,0.5178878,0.6532101,-0.34071362,-0.114498034,0.031838655,-1.2856984,0.6230782,-0.26218605,1.5444155,-1.9200412
-0.1,-0.2,1.0999999999999999,0.5235987755982988,0.0,0,-0.16494739,-1.402578,1.6672593,-1.4416006,-0.0026686245,0.8667898,0.08454913,-0.12012123,0.032262836,-1.2849625,0.6220015,-0.27284512,1.5461938,-1.8825434
-0.1,-0.2,1.0999999999999999,0.5235987755982988,0.0,0,-0.16921717,-1.399225,1.6951072,-1.460086,0.8230718,0.9433736,-0.7785385,-0.11345827,0.030370785,-1.2874755,0.6194597,-0.27761918,1.5399934,-1.8950787
-0.1,-0.2,1.0999999999999999,0.5235987755982988,0.0,0,-0.1709057,-1.4019014,1.6851239,-1.4884266,0.8830893,0.61219317,-0.43715984,-0.11541701,0.028029865,-1.2836951,0.61662674,-0.28252947,1.5406442,-1.9033054
-0.1,-0.2,1.0999999999999999,0.5235987755982988,0.0,0,-0.16643405,-1.3971943,1.6757236,-1.5115923,-0.41881102,0.67927605,-0.1567483,-0.11388875,0.030341415,-1.2877201,0.6350565,-0.28793868,1.5450451,-1.901074
-0.1,-0.2,1.0999999999999999,0.5235987755982988,0.0,0,-0.16916871,-1.4028078,1.6562494,-1.4602773,-0.545155,0.47914594,-0.6606959,-0.117448576,0.028444936,-1.2846816,0.62309605,-0.26332355,1.5632799,-1.9245958
-0.1,-0.2,1.0999999999999999,0.5235987755982988,0.0,0,-0.17555659,-1.4014428,1.6888063,-1.4531302,0.09045892,0.87059075,-1.0593088,-0.11387173,0.027237784,-1.2827487,0.5998639,-0.27088177,1.5589405,-1.8757623
-0.1,-0.2,1.0999999999999999,0.5235987755982988,0.0,0,-0.17475915,-1.4017152,1.6757371,-1.414366,0.7763234,0.5086935,-0.16529773,-0.115578696,0.029230164,-1.2825171,0.6172894,-0.29092813,1.5447632,-1.8853316
-0.1,-0.2,1.0999999999999999,0.5235987755982988,0.0,0,-0.17715667,-1.3995566,1.6812323,-1.5805886,1.086067,0.5353358,-0.65248483,-0.11896066,0.026798101,-1.278786,0.6189821,-0.27113163,1.564448,-1.9054765
-0.1,-0.2,1.0999999999999999,0.5235987755982988,0.0,0,-0.17316592,-1.396502,1.7126733,-1.4670044,0.15291007,0.6673532,-0.59055257,-0.12106043,0.032290526,-1.2930222,0.6162369,-0.26810342,1.5293283,-1.8955069
-0.1,-0.2,1.0999999999999999,0.5235987755982988,0.0,0,-0.16577217,-1.406095,1.661124,-1.4598054,-0.5226512,0.21028878,-1.0414155,-0.11635095,0.02796641,-1.2883313,0.61567307,-0.27732167,1.5442355,-1.8939754
-0.1,-0.2,1.0999999999999999,0.5235987755982988,0.0,0,-0.15301986,-1.4010283,1.7170948,-1.4585463,0.51457256,0.8816873,-0.49842966,-0.11782514,0.029751249,-1.288483,0.61850256,-0.26803064,1.533626,-1.8911177
-0.1,-0.2,1.0999999999999999,0.5235987755982988,0.0,0,-0.16024525,-1.4039028,1.6775179,-1.4638084,0.17797454,-0.029561533,-0.84823215,-0.114560165,0.024829965,-1.283064,0.6182324,-0.2821463,1.540662,-1.8895687
-0.1,-0.2,1.0999999999999999,0.5235987755982988,0.0,0,-0.1786614,-1.402099,1.670045,-1.4861978,0.7720078,0.68920195,-0.65323937,-0.11609599,0.02720048,-1.2872093,0.61587685,-0.27853796,1.5490513,-1.9217283
-0.1,-0.2,1.0999999999999999,0.5235987755982988,0.0,0,-0.17358145,-1.4048115,1.6972572,-1.4594857,1.1539483,0.7234613,-0.66461694,-0.11538661,0.0313528,-1.2868744,0.62116104,-0.2670154,1.5244244,-1.9042689
-0.1,-0.2,1.0999999999999999,0.5235987755982988,0.0,0,-0.16726404,-1.3992643,1.6714262,-1.4691106,-0.32832915,0.96492684,-0.24588245,-0.114258364,0.027261984,-1.2931448,0.6156765,-0.25848445,1.544717,-1.9073001
-0.1,-0.2,1.0999999999999999,0.5235987755982988,0.0,0,-0.16680136,-1.4022952,1.6769943,-1.4455601,0.7516701,0.9915903,-0.36466557,-0.113442056,0.029918518,-1.2888196,0.6152403,-0.2756411,1.5374498,-1.9387261
-0.1,-0.2,1.0999999999999999,0.5235987755982988,0.0,0,-0.18698315,-1.4013146,1.6764766,-1.428834,0.34168503,1.2783848,0.046192184,-0.11900039,0.029485686,-1.292129,0.6155265,-0.27076864,1.5224329,-1.8808693
-0.1,-0.2,1.0999999999999999,0.5235987755982988,0.0,0,-0.17140752,-1.3997188,1.6922306,-1.4678217,0.53808373,0.5974686,-0.7877074,-0.11413383,0.027771108,-1.287226,0.6173323,-0.2659794,1.5420873,-1.8765208
-0.1,-0.2,1.0999999999999999,0.5235987755982988,0.0,0,-0.1761194,-1.4054625,1.668595,-1.4809679,0.489982,0.096415505,-0.20321071,-0.11711341,0.031687204,-1.2875433,0.6109703,-0.27521908,1.536257,-1.8821081
-0.1,-0.2,1.0999999999999999,0.5235987755982988,0.0,0,-0.16254556,-1.4039932,1.6716484,-1.4535519,1.2223134,0.41079664,-0.1742894,-0.1154007,0.028766792,-1.2787082,0.6168479,-0.28456542,1.5426625,-1.903074
-0.1,-0.2,1.0999999999999999,0.5235987755982988,0.0,0,-0.1695029,-1.4019688,1.6595223,-1.4396896,1.002834,0.5863237,-0.7140382,-0.11648156,0.03036911,-1.2798514,0.6186295,-0.27319485,1.5583717,-1.8837609
-0.1,-0.2,1.0999999999999999,0.5235987755982988,0.0,0,-0.16750751,-1.4001322,1.6920571,-1.4787204,-0.02378066,0.7024286,-0.39528653,-0.11259662,0.025408808,-1.2868444,0.61602,-0.27867618,1.5443666,-1.9122208
-0.1,-0.2,1.0999999999999999,0.5235987755982988,0.0,0,-0.16563343,-1.4044222,1.6816092,-1.4430741,0.575868,0.9985904,-0.32698113,-0.110701844,0.030945286,-1.2883244,0.6041963,-0.26634988,1.547754,-1.8723241
-0.1,-0.2,1.0999999999999999,0.5235987755982988,0.0,0,-0.17566718,-1.4029075,1.681039,-1.5126532,0.41178504,0.083800845,-0.81144184,-0.1160229,0.03241097,-1.2869838,0.61067563,-0.2725478,1.5612462,-1.9042184
-0.1,-0.2,1.0999999999999999,0.5235987755982988,0.0,0,-0.18004547,-1.4000348,1.675962,-1.4675891,-0.24962662,0.7787058,-0.4128689,-0.11779467,0.027014917,-1.2907072,0.61379653,-0.25683096,1.5430965,-1.915364
-0.1,-0.2,1.0999999999999999,0.5235987755982988,0.0,0,-0.16964822,-1.403863,1.7115778,-1.4561676,-0.02891237,0.84465235,-0.27987307,-0.11968202,0.027980762,-1.290023,0.62642705,-0.27949792,1.5305479,-1.8809166
-0.1,-0.2,1.0999999999999999,0.5235987755982988,0.0,0,-0.17291482,-1.400315,1.6671191,-1.4749367,0.05017077,0.5631325,-0.31555304,-0.1185882,0.027417073,-1.2873445,0.61833173,-0.28381535,1.5550171,-1.9238999
-0.1,-0.2,1.0999999999999999,0.5235987755982988,0.0,0,-0.16673924,-1.4011825,1.6715119,-1.5180093,0.71114534,0.23953195,-0.41539866,-0.11787143,0.031370554,-1.2801931,0.6231792,-0.27766603,1.5249728,-1.8949367
-0.1,-0.2,1.0999999999999999,0.5235987755982988,0.0,0,-0.17211898,-1.3972784,1.686813,-1.4404027,0.5955364,1.1616114,-0.7489723,-0.11993373,0.02653193,-1.2875749,0.609618,-0.27091298,1.5520029,-1.897149
-0.1,-0.2,1.0999999999999999,0.5235987755982988,0.0,0,-0.17325555,-1.3933134,1.7026922,-1.4546905,0.9554322,0.25376615,-0.5859259,-0.12011071,0.028171439,-1.2887948,0.6165378,-0.27868238,1.5385197,-1.8844326
-0.1,-0.2,1.0999999999999999,0.5235987755982988,0.0,0,-0.16736801,-1.4027975,1.6903161,-1.5238771,0.29444548,0.5177404,-1.3285849,-0.11539234,0.02527664,-1.2836117,0.6164326,-0.28154042,1.5290418,-1.8927871
-0.1,-0.2,1.0999999999999999,0.5235987755982988,0.0,0,-0.17729273,-1.3991991,1.6964619,-1.4803648,0.75336874,0.3280822,-0.37989792,-0.122840844,0.030155055,-1.2832855,0.62194884,-0.27239513,1.5605876,-1.9268847
-0.1,-0.2,1.0999999999999999,0.5235987755982988,0.0,0,-0.17503306,-1.3988162,1.6866165,-1.4559155,0.57128286,0.98641646,-0.24242344,-0.11530414,0.024195932,-1.2814678,0.6118077,-0.2808243,1.5606301,-1.8730013
-0.1,-0.2,1.0999999999999999,0.5235987755982988,0.0,0,-0.17292655,-1.4058126,1.6738409,-1.4419416,0.1100696,0.9983383,-0.31190056,-0.12124333,0.029523008,-1.2857445,0.6136419,-0.28032795,1.5649661,-1.8886465
-0.1,-0.2,1.0999999999999999,0.5235987755982988,0.0,0,-0.17007694,-1.4031858,1.6888945,-1.4814312,-0.13642205,1.0927464,-0.6590408,-0.11491769,0.028364774,-1.2882382,0.6095744,-0.27938455,1.5578254,-1.8647691
-0.1,-0.2,1.0999999999999999,0.5235987755982988,0.0,0,-0.18011521,-1.4030036,1.6693672,-1.4806123,0.15426832,1.2154295,-0.20398866,-0.11527662,0.029769024,-1.2845234,0.61744714,-0.27188772,1.5452938,-1.8870598
-0.1,-0.2,1.0999999999999999,0.5235987755982988,0.0,0,-0.16079946,-1.3966941,1.6977763,-1.442146,0.49551764,0.72879493,-0.7289983,-0.11798818,0.027022753,-1.2937981,0.6171854,-0.27357095,1.5231265,-1.8956597
-0.1,-0.2,1.0999999999999999,0.5235987755982988,0.0,0,-0.17244342,-1.4018818,1.6907088,-1.4303755,-0.34966084,0.98753405,-1.0065254,-0.1093763,0.027400382,-1.2843968,0.61602324,-0.28045204,1.5442219,-1.9084394
-0.1,-0.2,1.0999999999999999,0.5235987755982988,0.0,0,-0.16710228,-1.3976321,1.6705301,-1.4734806,-0.0336035,0.5840203,-0.24820632,-0.1234859,0.032303024,-1.2882124,0.6219845,-0.2741427,1.5612229,-1.8982459
-0.1,-0.2,1.0999999999999999,0.5235987755982988,0.0,0,-0.16232865,-1.398031,1.69203,-1.4811068,0.7130373,0.4285783,-0.1007526,-0.11849784,0.025381692,-1.2872019,0.6161805,-0.27167806,1.5578297,-1.8853145
-0.1,-0.2,1.0999999999999999,0.5235987755982988,0.0,0,-0.16660945,-1.4006028,1.6550736,-1.4605188,-0.122399375,1.3720325,0.13442913,-0.114820056,0.028424136,-1.2866946,0.6210393,-0.2657622,1.5582103,-1.9351674
-0.1,-0.2,1.0999999999999999,0.5235987755982988,0.0,0,-0.17688245,-1.4040309,1.7011855,-1.433293,-0.103557765,0.85970515,-0.9168898,-0.11403438,0.027389843,-1.28615,0.6103225,-0.26990938,1.56176,-1.9077955
-0.1,-0.2,1.0999999999999999,0.5235987755982988,0.0,0,-0.1567623,-1.4017538,1.6825908,-1.4518036,1.1964033,0.5332971,-0.5962956,-0.1147571,0.031237427,-1.2868391,0.61092764,-0.29175016,1.5452862,-1.8895751
-0.1,-0.2,1.0999999999999999,0.5235987755982988,0.0,0,-0.16696894,-1.4028026,1.6708599,-1.4388423,-0.38570377,0.9089155,-0.1508529,-0.10996218,0.03154179,-1.2924803,0.61968434,-0.28189844,1.5383873,-1.915976
-0.1,-0.2,1.0999999999999999,0.5235987755982988,0.0,0,-0.16381092,-1.4035233,1.6602305,-1.4919542,0.12727968,0.463387,-0.5730752,-0.113206245,0.030030912,-1.291536,0.60499805,-0.2822869,1.5290698,-1.9059718
-0.1,-0.2,1.0999999999999999,0.5235987755982988,0.0,0,-0.16864607,-1.3988045,1.6755025,-1.5053765,0.46140778,0.7576362,-0.69857717,-0.120822705,0.025806503,-1.2828263,0.6200675,-0.27924934,1.5543125,-1.9147497
-0.1,-0.2,1.0999999999999999,0.5235987755982988,0.0,0,-0.17289475,-1.4045068,1.662677,-1.4782429,1.0008556,0.5510705,-0.48639107,-0.114635386,0.030033097,-1.2896528,0.6118893,-0.2772656,1.5452129,-1.9228771
-0.1,-0.2,1.0999999999999999,0.5235987755982988,0.0,0,-0.1735762,-1.3996389,1.690956,-1.4841965,0.29080144,1.5392301,-0.024564601,-0.11527213,0.028544907,-1.288867,0.6164192,-0.26727754,1.5605419,-1.8639479
-0.1,-0.2,1.0999999999999999,0.5235987755982988,0.0,0,-0.16975014,-1.4004998,1.7165728,-1.4288951,-0.29953843,0.78489864,-0.451299,-0.11793393,0.030243238,-1.2832992,0.6185828,-0.26100972,1.5485715,-1.8950884
-0.1,-0.2,1.0999999999999999,0.5235987755982988,0.0,0,-0.16755922,-1.4019848,1.7021801,-1.4409581,0.31952742,1.3863314,-0.6951638,-0.11009321,0.027682623,-1.2908725,0.61561793,-0.26812753,1.5323766,-1.9102423
-0.1,-0.2,1.0999999999999999,0.5235987755982988,0.0,0,-0.17088822,-1.4019216,1.6997383,-1.4949502,0.73286515,1.1395957,-0.5757889,-0.11064008,0.028014023,-1.2857978,0.61963594,-0.28322792,1.5524988,-1.8648626
-0.1,-0.2,1.0999999999999999,0.5235987755982988,0.0,0,-0.17286758,-1.3993658,1.7026011,-1.5317729,-0.718612,0.6467092,-0.32775933,-0.115220815,0.02771165,-1.286774,0.6275312,-0.27014264,1.5527452,-1.879022
-0.1,-0.2,1.0999999999999999,0.5235987755982988,0.0,0,-0.16586892,-1.4011992,1.6701722,-1.5342075,-0.3066097,0.5944368,-0.3476385,-0.11458455,0.031663638,-1.2944255,0.6212845,-0.27644458,1.5570978,-1.9029393
-0.1,-0.2,1.0999999999999999,0.5235987755982988,0.0,0,-0.17575154,-1.3988879,1.6958838,-1.478776,0.29323265,0.57860494,-0.41903022,-0.11703246,0.030768344,-1.2898062,0.61221766,-0.2779384,1.5488744,-1.8904788
-0.1,-0.2,1.0999999999999999,0.5235987755982988,0.0,0,-0.17466095,-1.3986431,1.6976929,-1.4309038,1.6973485,0.35436508,-0.44328386,-0.1173671,0.028424941,-1.2867839,0.6206158,-0.28979543,1.5574982,-1.8902045
-0.1,-0.2,1.0999999999999999,0.5235987755982988,0.0,0,-0.17650618,-1.406004,1.6697402,-1.4824367,-0.14090504,0.664547,-0.9431071,-0.117274955,0.025946444,-1.2899052,0.61862564,-0.26076138,1.5534694,-1.9106078
-0.1,-0.2,1.0999999999999999,0.5235987755982988,0.0,0,-0.17201625,-1.405464,1.7153562,-1.4722996,0.6092591,-0.04772321,-0.7975199,-0.115234,0.027480552,-1.2900113,0.6174593,-0.27987334,1.5499524,-1.8589556
-0.1,-0.2,1.0999999999999999,0.5235987755982988,0.0,0,-0.17032674,-1.4005276,1.6817889,-1.4884675,-0.061475165,0.7600926,-0.45412764,-0.11714535,0.026486997,-1.2870473,0.6248523,-0.29046577,1.5575672,-1.8832698
-0.1,-0.2,1.0999999999999999,0.5235987755982988,0.0,0,-0.16892026,-1.4041169,1.7066507,-1.4758997,0.38641307,0.28254423,0.09261324,-0.11439892,0.026646582,-1.2880495,0.6125258,-0.2695037,1.5397221,-1.8821076
-0.1,-0.2,1.0999999999999999,0.5235987755982988,0.0,0,-0.16161937,-1.3981674,1.6758006,-1.4611559,1.6012139,0.8037336,-0.5102741,-0.11633185,0.026238378,-1.2906147,0.61466134,-0.28578845,1.5277703,-1.8944813
-0.1,-0.2,1.0999999999999999,0.5235987755982988,0.0,0,-0.17441025,-1.3995112,1.6989986,-1.5088389,0.7513892,0.5035305,-0.29751715,-0.10898461,0.026473876,-1.2843814,0.6122769,-0.26135617,1.553522,-1.9270139
-0.1,-0.2,1.0999999999999999,0.5235987755982988,0.0,0,-0.16958477,-1.4059118,1.6959292,-1.4768429,1.1044459,0.942532,0.112389624,-0.11431238,0.026021378,-1.2829325,0.606434,-0.2658955,1.5467619,-1.8706967
-0.1,-0.2,1.0999999999999999,0.5235987755982988,0.0,0,-0.16981944,-1.4013793,1.6772052,-1.4979233,0.19353466,0.45676678,-0.14337817,-0.121086925,0.029362407,-1.2804986,0.61354107,-0.2662836,1.5454996,-1.8964415
-0.1,-0.2,1.0999999999999999,0.5235987755982988,0.0,0,-0.17016287,-1.3979797,1.7055213,-1.445858,0.54025716,0.7366217,-0.38013533,-0.117030144,0.027648864,-1.2844617,0.62393284,-0.27156436,1.5354333,-1.9297484
-0.1,-0.2,1.0999999999999999,0.5235987755982988,0.0,0,-0.16147162,-1.404096,1.6880252,-1.4501319,0.15475951,0.48260012,-0.23431742,-0.11470653,0.031844586,-1.287165,0.6235335,-0.2853722,1.5436809,-1.8929985
-0.1,-0.2,1.0999999999999999,0.5235987755982988,0.0,0,-0.17293449,-1.4009823,1.6744343,-1.4689225,0.2508577,0.7414079,-0.33605912,-0.11530511,0.0298804,-1.2918549,0.62486136,-0.27104646,1.5550989,-1.897173
-0.1,-0.2,1.0999999999999999,0.5235987755982988,0.0,0,-0.1755689,-1.3963271,1.7066251,-1.4235787,0.16721898,0.8221634,0.0291771,-0.112993896,0.029213501,-1.291535,0.61993295,-0.27649748,1.5441434,-1.9000063
-0.1,-0.2,1.0999999999999999,0.5235987755982988,0.0,0,-0.16619231,-1.4056919,1.690205,-1.5358835,0.17389028,0.9299866,0.07422742,-0.1145475,0.031349562,-1.2877684,0.6131176,-0.2656489,1.523043,-1.9164293
-0.1,-0.2,1.0999999999999999,0.5235987755982988,0.0,0,-0.1799988,-1.4050361,1.6833937,-1.5229821,-0.6110912,1.3271704,-0.6091613,-0.12137244,0.02741344,-1.2863907,0.60465664,-0.27048895,1.5510803,-1.8707813
-0.1,-0.2,1.0999999999999999,0.5235987755982988,0.0,0,-0.1666887,-1.3988583,1.7056897,-1.4559729,0.5589162,0.647037,-0.35242078,-0.11215787,0.029514508,-1.2876414,0.61575246,-0.27625847,1.5647062,-1.9030088
-0.1,-0.2,1.0999999999999999,0.5235987755982988,0.0,0,-0.16348569,-1.3996677,1.7121396,-1.4361973,0.356534,0.7534016,-0.62333256,-0.1190689,0.029579258,-1.2870988,0.60500073,-0.26609048,1.5458138,-1.8885876
-0.1,-0.2,1.0999999999999999,0.5235987755982988,0.0,0,-0.16741875,-1.4027293,1.6484092,-1.425877,0.27075875,0.3971755,-0.34332997,-0.11872764,0.027501097,-1.2885973,0.61023635,-0.27778208,1.5688566,-1.8798239
-0.1,-0.2,1.0999999999999999,0.5235987755982988,0.0,0,-0.1608752,-1.3993471,1.6874725,-1.4785737,0.16925664,0.090371855,0.22758526,-0.11597478,0.029103845,-1.2882167,0.62124604,-0.2674215,1.5688827,-1.9320407
-0.1,-0.2,1.0999999999999999,0.5235987755982988,0.0,0,-0.17224619,-1.4008172,1.6961545,-1.4373504,0.9920131,0.6795133,-0.67024666,-0.11308749,0.026294272,-1.2902554,0.61371195,-0.2627377,1.561154,-1.9020463
-0.1,-0.2,1.0999999999999999,0.5235987755982988,0.0,0,-0.16210277,-1.4029464,1.6701853,-1.493609,0.3768492,0.8836576,-0.000120313634,-0.11153305,0.03080612,-1.2935392,0.6155155,-0.26806316,1.5494826,-1.8891572
-0.1,-0.2,1.0999999999999999,0.5235987755982988,0.0,0,-0.1606097,-1.3999884,1.672182,-1.4827396,1.1193634,1.1259596,0.5418633,-0.10992726,0.02690756,-1.2919656,0.6185648,-0.26928875,1.5653149,-1.845578
-0.1,-0.2,1.0999999999999999,0.5235987755982988,0.0,0,-0.17110488,-1.4073579,1.6721964,-1.4459267,-0.68051267,-0.45148626,-0.57105994,-0.11299304,0.027210252,-1.2912333,0.62247443,-0.27545735,1.5236534,-1.9162261
-0.1,-0.2,1.0999999999999999,0.5235987755982988,0.0,0,-0.17286363,-1.4006716,1.709998,-1.4736452,0.46187544,0.628183,-0.4888823,-0.10951971,0.029169714,-1.2883954,0.6209257,-0.2793852,1.5580922,-1.8927164
-0.1,-0.2,1.0999999999999999,0.5235987755982988,0.0,0,-0.17351696,-1.3995816,1.684149,-1.481627,1.2476519,0.61205655,0.11027835,-0.11557458,0.027821833,-1.2865703,0.612613,-0.2624781,1.5527667,-1.9048213
-0.1,-0.2,1.0999999999999999,0.5235987755982988,0.0,0,-0.16544949,-1.400717,1.6986428,-1.4961647,1.0626323,1.0160828,-0.22482167,-0.12132402,0.034566913,-1.2878741,0.6120391,-0.2703129,1.5597776,-1.8815511
-0.1,-0.2,1.0999999999999999,0.5235987755982988,0.0,0,-0.18095788,-1.4037882,1.6673999,-1.512506,0.68202025,1.0240325,-0.6977553,-0.11273085,0.030077187,-1.2850249,0.613059,-0.2806243,1.5507057,-1.9268023
-0.1,-0.2,1.0999999999999999,0.5235987755982988,0.0,0,-0.16646734,-1.4000319,1.7035139,-1.4693633,1.0619946,0.428947,-0.24541824,-0.11556331,0.028775984,-1.2851404,0.6237049,-0.27003267,1.5542624,-1.8791862
-0.1,-0.2,1.0999999999999999,0.5235987755982988,0.0,0,-0.16877215,-1.3988378,1.6906304,-1.5412745,-0.30969718,1.4762272,-0.128278,-0.11816044,0.026898697,-1.288022,0.61528647,-0.2702263,1.5550209,-1.9035547
-0.1,-0.2,1.0999999999999999,0.5235987755982988,0.0,0,-0.16957931,-1.4054155,1.6729397,-1.4806316,-0.052066177,0.3623975,-0.22165145,-0.1106997,0.032613106,-1.2801039,0.6115567,-0.27037188,1.5595369,-1.8717383
-0.1,-0.2,1.0999999999999999,0.5235987755982988,0.0,0,-0.16422637,-1.3971832,1.6753039,-1.4654638,0.8146006,0.21576113,-0.7169886,-0.1214774,0.029913383,-1.2916754,0.6194812,-0.2857965,1.5516393,-1.9272983
-0.1,-0.2,1.0999999999999999,0.5235987755982988,0.0,0,-0.17655812,-1.4058852,1.6662408,-1.4707031,-0.33049318,0.39378977,-0.29509243,-0.117895775,0.03154389,-1.2856371,0.61514723,-0.2739212,1.5466326,-1.9036714
-0.1,-0.2,1.0999999999999999,0.5235987755982988,0.0,0,-0.17659466,-1.399618,1.6852508,-1.4961103,0.40094358,0.8146286,-0.24758895,-0.11908004,0.024766065,-1.285518,0.61882186,-0.28575385,1.5376008,-1.8890215
-0.1,-0.2,1.0999999999999999,0.5235987755982988,0.0,0,-0.17594957,-1.4024323,1.6860768,-1.5015297,0.502236,0.8886826,-0.6870117,-0.115277685,0.030377926,-1.2862219,0.61453986,-0.26839665,1.5538731,-1.9211475
-0.1,-0.2,1.0999999999999999,0.5235987755982988,0.0,0,-0.17159756,-1.3991303,1.689153,-1.5102937,-0.31403276,1.1001728,-0.64816415,-0.111560784,0.030817876,-1.296741,0.61398226,-0.277685,1.5619166,-1.9088471
-0.1,-0.2,1.0999999999999999,0.5235987755982988,0.0,0,-0.1703032,-1.4015274,1.6905155,-1.4586421,0.94740826,0.5782467,-0.52657425,-0.11237081,0.02931177,-1.29251,0.6207938,-0.27594054,1.5639768,-1.859853
-0.1,-0.2,1.0999999999999999,0.5235987755982988,0.0,0,-0.17075506,-1.4032596,1.6751988,-1.5180547,0.50796694,1.0640047,0.21960616,-0.11267141,0.026215278,-1.290732,0.62555456,-0.27918607,1.5415508,-1.8839225
-0.1,-0.2,1.0999999999999999,0.5235987755982988,0.0,0,-0.173968,-1.4009781,1.6811029,-1.4827194,-0.40137652,0.93729484,-0.07753066,-0.11614663,0.031307198,-1.2904978,0.61468714,-0.2757115,1.5575571,-1.8723361
-0.1,-0.2,1.0999999999999999,0.5235987755982988,0.0,0,-0.17286652,-1.4056758,1.6801336,-1.5046517,0.44518214,0.760916,-0.2291447,-0.11952818,0.028576823,-1.2845047,0.6080164,-0.26888886,1.5444397,-1.9260187
-0.1,-0.2,1.0999999999999999,0.5235987755982988,0.0,0,-0.17737277,-1.4038645,1.6779306,-1.491695,0.52296805,0.44787604,-0.1675517,-0.11645779,0.02711475,-1.2887989,0.61814743,-0.27433318,1.5313667,-1.8943385
-0.1,-0.2,1.0999999999999999,0.5235987755982988,0.0,0,-0.17101628,-1.4034524,1.6913989,-1.4341913,0.47266048,0.43464518,-0.7211433,-0.11433264,0.029837385,-1.2884037,0.6249843,-0.2804311,1.5362421,-1.9113151
-0.1,-0.2,1.0999999999999999,0.5235987755982988,0.0,0,-0.16407906,-1.3983198,1.7426671,-1.5163635,1.023482,0.52608085,-0.2078968,-0.109638005,0.026345652,-1.2871771,0.6141808,-0.2770606,1.5519215,-1.9057232
-0.1,-0.2,1.0999999999999999,0.5235987755982988,0.0,0,-0.16813947,-1.4004205,1.6643943,-1.5066944,0.6855,0.85989386,-0.2624515,-0.11965733,0.030895755,-1.2932847,0.6193942,-0.28315252,1.5307537,-1.887449
-0.1,-0.2,1.0999999999999999,0.5235987755982988,0.0,0,-0.16557162,-1.4053714,1.6582379,-1.4402184,0.60795283,0.13736705,-0.07329623,-0.112878084,0.030607102,-1.2899663,0.6125691,-0.28691667,1.5346972,-1.8790255
-0.1,-0.2,1.0999999999999999,0.5235987755982988,0.0,0,-0.1661382,-1.4049088,1.7030138,-1.4768907,0.75096637,0.8173975,-0.32603994,-0.118448086,0.03040099,-1.2783451,0.6262025,-0.27428335,1.5403768,-1.9115745
-0.1,-0.2,1.0999999999999999,0.5235987755982988,0.0,0,-0.16165872,-1.4023522,1.6828564,-1.461309,0.1400715,0.5301905,-0.7219974,-0.11831982,0.02788419,-1.2915678,0.62724674,-0.27700302,1.5383829,-1.90578
-0.1,-0.2,1.0999999999999999,0.5235987755982988,0.0,0,-0.16767895,-1.4013638,1.7067118,-1.4228272,-0.40495428,0.9919577,-0.20989846,-0.11777717,0.028796935,-1.2857331,0.62090796,-0.2736347,1.5466448,-1.9064463
-0.1,-0.2,1.0999999999999999,0.5235987755982988,0.0,0,-0.17214184,-1.4033064,1.7045143,-1.4491861,0.50074553,0.8739782,0.042558778,-0.11702021,0.030797675,-1.2845339,0.61440057,-0.26892865,1.5394605,-1.8924431
-0.1,-0.2,1.0999999999999999,0.5235987755982988,0.0,0,-0.16898939,-1.4058424,1.6805973,-1.4481784,0.036872376,0.793249,-0.8852627,-0.11441041,0.031639844,-1.2923367,0.60811025,-0.27266657,1.5484114,-1.8968705
-0.1,-0.2,1.0999999999999999,0.5235987755982988,0.0,0,-0.17207281,-1.4023077,1.6934692,-1.5184817,0.3405619,0.86999464,-0.80870646,-0.11131933,0.03145722,-1.2915859,0.6135424,-0.27399793,1.5519253,-1.9085693
-0.1,-0.2,1.0999999999999999,0.5235987755982988,0.0,0,-0.1719901,-1.4015858,1.697378,-1.3762252,0.061846323,0.56849295,-0.3538211,-0.1154592,0.02497598,-1.2866696,0.60897106,-0.27162114,1.5565052,-1.8993869
-0.1,-0.2,1.0999999999999999,0.5235987755982988,0.0,0,-0.17792578,-1.4014348,1.6892744,-1.4806392,0.22522312,0.23503059,-0.00973445,-0.11202423,0.026330218,-1.2858181,0.60490614,-0.28653142,1.5557559,-1.8949934
-0.1,-0.2,1.0999999999999999,0.5235987755982988,0.0,0,-0.1749099,-1.4011906,1.6953391,-1.4782872,0.75891936,0.6893211,-0.7558047,-0.11647389,0.027262365,-1.286082,0.62448436,-0.26920262,1.5514433,-1.8798457
-0.1,-0.2,1.0999999999999999,0.5235987755982988,0.0,0,-0.18013923,-1.4043852,1.6818167,-1.4650711,0.967189,0.14961927,-1.0810504,-0.119536616,0.02961307,-1.2813879,0.61573696,-0.29276082,1.5481911,-1.9096353
-0.1,-0.2,1.0999999999999999,0.5235987755982988,0.0,0,-0.16694358,-1.4028159,1.6970917,-1.398495,0.27382505,0.47898927,-0.7137979,-0.11285437,0.028057031,-1.2856444,0.59867066,-0.26793864,1.5477601,-1.9098507
-0.1,-0.2,1.0999999999999999,0.5235987755982988,0.0,0,-0.1638038,-1.4012607,1.6863581,-1.4808344,0.0044507575,0.5103152,-0.30596355,-0.11676474,0.028871166,-1.2887936,0.6104514,-0.27399144,1.5570999,-1.9033731
-0.1,-0.2,1.0999999999999999,0.5235987755982988,0.0,0,-0.17611589,-1.4013209,1.701278,-1.5113654,-0.022734212,0.7146017,-0.012235062,-0.11506587,0.028435415,-1.2851452,0.6156787,-0.2778327,1.5549073,-1.8813504
-0.1,-0.2,1.0999999999999999,0.5235987755982988,0.0,0,-0.16061005,-1.3993099,1.7032752,-1.4851474,0.6548884,0.8368167,-0.34834024,-0.1126598,0.03238289,-1.2880428,0.6246595,-0.263851,1.5684543,-1.8528568
-0.1,-0.2,1.0999999999999999,0.5235987755982988,0.0,0,-0.16207294,-1.403607,1.6906784,-1.4724189,0.2691788,0.30766028,-0.45294192,-0.10957414,0.02866836,-1.2855018,0.6102636,-0.280364,1.535286,-1.9205225
-0.1,-0.2,1.0999999999999999,0.5235987755982988,0.0,0,-0.16971673,-1.4019468,1.6969874,-1.4754105,-1.0845193,1.0602981,-1.1813245,-0.11449914,0.029546097,-1.285997,0.61222935,-0.28213084,1.5651574,-1.8955958
-0.1,-0.2,1.0999999999999999,0.5235987755982988,0.0,0,-0.16468586,-1.4031292,1.6638012,-1.4769818,0.872416,1.1901242,-0.0103303455,-0.11467271,0.030733395,-1.2861131,0.60841835,-0.2689852,1.5316803,-1.8917794
-0.1,-0.2,1.0999999999999999,0.5235987755982988,0.0,0,-0.18023148,-1.4033648,1.6844642,-1.4623059,0.6075297,0.9603348,-0.5579595,-0.12042391,0.030971523,-1.2879477,0.61311126,-0.2701801,1.5313063,-1.8919599
-0.1,-0.2,1.0999999999999999,0.5235987755982988,0.0,0,-0.17408548,-1.3994447,1.6906718,-1.4735001,0.46590474,0.77416086,-0.38635078,-0.11680107,0.029990043,-1.289234,0.61334634,-0.2885312,1.5602922,-1.8742049
-0.1,-0.2,1.0999999999999999,0.5235987755982988,0.0,0,-0.16996232,-1.400202,1.7193424,-1.5029305,0.8122463,0.79465806,-0.63219094,-0.11217785,0.026906708,-1.284911,0.6085009,-0.27333218,1.5658114,-1.8965243
-0.1,-0.2,1.0999999999999999,0.5235987755982988,0.0,0,-0.15885788,-1.4030057,1.6870812,-1.451748,0.33892262,0.62004244,-0.3615768,-0.11615511,0.02854004,-1.2899961,0.61388636,-0.27456746,1.5283039,-1.8693657
-0.1,-0.2,1.0999999999999999,0.5235987755982988,0.0,0,-0.17377089,-1.4030465,1.6978076,-1.511977,0.71502185,0.6083604,-0.11336652,-0.11416681,0.02753392,-1.286553,0.6169988,-0.27367648,1.5519726,-1.9049953
-0.1,-0.2,1.0999999999999999,0.5235987755982988,0.0,0,-0.16753373,-1.3999507,1.7110554,-1.4929161,0.74652994,1.0831238,-1.1095579,-0.11560194,0.026235908,-1.2813277,0.62276167,-0.2787169,1.556037,-1.8869877
-0.1,-0.2,1.0999999999999999,0.5235987755982988,0.0,0,-0.17265573,-1.4010843,1.6989301,-1.4559227,0.02758065,0.87315017,-0.8125773,-0.11326257,0.026544036,-1.2875533,0.6106592,-0.26703155,1.5520604,-1.9177289
-0.1,-0.2,1.0999999999999999,0.5235987755982988,0.0,0,-0.17439835,-1.4025455,1.7097272,-1.4649364,0.59142923,0.9238516,-0.24376608,-0.116140254,0.029686984,-1.2842879,0.60658514,-0.270532,1.5501721,-1.9112368
-0.1,-0.2,1.0999999999999999,0.5235987755982988,0.0,0,-0.1624602,-1.4030225,1.7000622,-1.4798013,-0.39050642,0.6655309,-0.26323506,-0.11736548,0.02671404,-1.2872312,0.6166442,-0.27245843,1.5526776,-1.8727974
-0.1,-0.2,1.0999999999999999,0.5235987755982988,0.0,0,-0.17209211,-1.4020201,1.661538,-1.4801632,0.18831171,1.0687338,-0.9210732,-0.111206874,0.029872531,-1.2892408,0.6149358,-0.29519352,1.5606393,-1.9136561
-0.1,-0.2,1.0999999999999999,0.5235987755982988,0.0,0,-0.17915963,-1.4037939,1.6781273,-1.4694186,-0.27127084,0.97255313,-1.1846007,-0.110928096,0.027452437,-1.2914243,0.6249064,-0.2834931,1.5655946,-1.9086794
-0.1,-0.2,1.0999999999999999,0.5235987755982988,0.0,0,-0.1696172,-1.4010961,1.6981711,-1.4803025,-0.57408494,1.0598773,-0.5976399,-0.11670731,0.028172847,-1.2864087,0.61321485,-0.28900626,1.5617709,-1.8860278
-0.1,-0.2,1.0999999999999999,0.5235987755982988,0.0,0,-0.1787164,-1.4057819,1.690133,-1.491735,-0.10707589,0.89726156,0.16411577,-0.11453349,0.030175075,-1.2886887,0.60898364,-0.28345338,1.542205,-1.9023567
-0.1,-0.2,1.0999999999999999,0.5235987755982988,0.0,0,-0.17984065,-1.4022597,1.7215198,-1.4542271,-0.18386474,1.3266919,0.06169785,-0.110407405,0.029357994,-1.2822056,0.6227219,-0.25630954,1.5562695,-1.8775604
-0.1,-0.2,1.0999999999999999,0.5235987755982988,0.0,0,-0.16447072,-1.4011569,1.6903435,-1.4686556,1.4307624,0.25956863,-0.4194364,-0.11205772,0.029906468,-1.2819685,0.62048084,-0.27496815,1.5654383,-1.9171143
-0.1,-0.2,1.0999999999999999,0.5235987755982988,0.0,0,-0.16361207,-1.4045514,1.6747129,-1.4805992,0.8969257,0.7502726,-0.39868018,-0.11806019,0.02606297,-1.2922764,0.6137775,-0.277403,1.5410343,-1.890975
-0.1,-0.2,1.0999999999999999,0.5235987755982988,0.0,0,-0.16945924,-1.4069422,1.7068182,-1.4095348,-0.31296143,1.0946738,-0.91170365,-0.11326452,0.029694797,-1.2846847,0.62240183,-0.2642585,1.5407225,-1.8857367
-0.1,-0.2,1.0999999999999999,0.5235987755982988,0.0,0,-0.17942722,-1.4066467,1.7021432,-1.4620712,1.2083329,0.37468377,-0.41900653,-0.119956344,0.02830557,-1.2829338,0.6157985,-0.29081187,1.5443697,-1.8494048
-0.1,-0.2,1.0999999999999999,0.5235987755982988,0.0,0,-0.16848035,-1.4065409,1.6857476,-1.5339394,-0.124387495,0.14498419,-0.58188367,-0.116189405,0.027647033,-1.2854413,0.6211493,-0.2839279,1.5543312,-1.8789775
-0.1,-0.2,1.0999999999999999,0.5235987755982988,0.0,0,-0.17713083,-1.4079787,1.7076814,-1.5294791,1.3861394,0.22782962,-0.79067016,-0.11181778,0.029298602,-1.2863188,0.6130283,-0.2775279,1.541813,-1.9206831
-0.1,-0.2,1.0999999999999999,0.5235987755982988,0.0,0,-0.16114146,-1.4024831,1.6802021,-1.4990091,0.54066116,0.8304969,-0.24200425,-0.11558291,0.027669571,-1.282193,0.62316674,-0.26457837,1.5672874,-1.9357566
-0.1,-0.2,1.0999999999999999,0.5235987755982988,0.0,0,-0.17682967,-1.4003166,1.725846,-1.4744078,0.85558057,1.3387127,-0.61953825,-0.114329,0.028717313,-1.2873491,0.6176459,-0.2635763,1.5577815,-1.917424
-0.1,-0.2,1.0999999999999999,0.5235987755982988,0.0,0,-0.17034855,-1.404422,1.686121,-1.4944358,0.78033406,0.764404,0.2634226,-0.12082484,0.027196107,-1.2884179,0.613291,-0.26779887,1.5579628,-1.929434
-0.1,-0.2,1.0999999999999999,0.5235987755982988,0.0,0,-0.17462571,-1.4114172,1.6680579,-1.491722,-0.090974726,0.41125363,-0.28075466,-0.11732452,0.030201761,-1.2880651,0.6138544,-0.26109022,1.5477974,-1.9264624
-0.1,-0.2,1.0999999999999999,0.5235987755982988,0.0,0,-0.16894977,-1.4037782,1.6930676,-1.4369327,0.3655353,0.700716,-0.5468559,-0.112017326,0.028139273,-1.2898095,0.6131974,-0.2801249,1.5575948,-1.8823378
-0.1,-0.2,1.0999999999999999,0.5235987755982988,0.0,0,-0.17100362,-1.4055934,1.6689442,-1.4855541,0.44120005,1.064919,0.109479815,-0.12016464,0.028366437,-1.2835162,0.62163603,-0.28590298,1.5495393,-1.9273847
-0.1,-0.2,1.0999999999999999,0.5235987755982988,0.0,0,-0.16671354,-1.4049177,1.6942924,-1.4295833,-0.14099164,0.70981234,-0.25744212,-0.116145395,0.02748378,-1.2819567,0.6150431,-0.2776574,1.5643632,-1.8873372
-0.1,-0.2,1.0999999999999999,0.5235987755982988,0.0,0,-0.17063549,-1.4033709,1.6966443,-1.4766382,-0.50413936,1.2648908,-0.10789607,-0.11909281,0.02897445,-1.2910551,0.61652195,-0.26288098,1.5463927,-1.895433
-0.1,-0.2,1.0999999999999999,0.5235987755982988,0.0,0,-0.1765473,-1.4042364,1.6625181,-1.5332202,-0.34457392,1.0048962,-0.2829982,-0.114835285,0.025125252,-1.2793771,0.6168772,-0.2994929,1.5495733,-1.8984334
-0.1,-0.2,1.0999999999999999,0.5235987755982988,0.0,0,-0.16679671,-1.4041705,1.7047601,-1.4512924,0.4027076,0.33482116,-1.031651,-0.12210374,0.027037337,-1.278553,0.6094045,-0.28470153,1.54849,-1.868472
-0.1,-0.2,1.0999999999999999,0.5235987755982988,0.0,0,-0.15956959,-1.4020365,1.7000746,-1.4850544,-0.33534938,0.060995292,-0.120668314,-0.118763536,0.02787703,-1.2941784,0.6132027,-0.28100428,1.5663205,-1.91072
-0.1,-0.2,1.0999999999999999,0.5235987755982988,0.0,0,-0.1758767,-1.4007485,1.7086577,-1.4914768,-0.0031503453,0.9192308,-0.599121,-0.11625193,0.024789179,-1.2837903,0.6137554,-0.28149712,1.5642482,-1.9112898
-0.1,-0.2,1.0999999999999999,0.5235987755982988,0.0,0,-0.17495935,-1.4085059,1.6913053,-1.4480994,-0.40000114,1.0658778,-0.45973036,-0.11688198,0.031761046,-1.29069,0.6163348,-0.28177956,1.5593536,-1.896683
-0.1,-0.2,1.0999999999999999,0.5235987755982988,0.0,0,-0.1715189,-1.4003845,1.7238444,-1.5058085,0.025859304,1.2366694,-0.44720623,-0.10857422,0.031027677,-1.276425,0.6100908,-0.29549038,1.5533636,-1.8982836
-0.1,-0.2,1.0999999999999999,0.5235987755982988,0.0,0,-0.16829142,-1.4015828,1.6872615,-1.4863715,-0.35561937,0.78707296,-0.5885236,-0.11597489,0.027138613,-1.2861106,0.61833316,-0.27380717,1.5634986,-1.8827981
-0.1,-0.2,1.0999999999999999,0.5235987755982988,0.0,0,-0.16996856,-1.4049697,1.7168189,-1.4812948,0.7527571,0.73579335,-0.3523921,-0.11741655,0.029396586,-1.2883463,0.6140557,-0.26824307,1.5385913,-1.904749
-0.1,-0.2,1.0999999999999999,0.5235987755982988,0.0,0,-0.15934615,-1.4046475,1.6945541,-1.4483714,1.0359354,0.9362712,-0.54161865,-0.11933674,0.032492757,-1.2920957,0.6126019,-0.28303877,1.5566045,-1.9224406
-0.1,-0.2,1.0999999999999999,0.5235987755982988,0.0,0,-0.17441955,-1.4047624,1.7186037,-1.4612617,0.46171626,0.1613589,0.030433722,-0.11418671,0.02992866,-1.2854234,0.61024255,-0.2696741,1.5639133,-1.912636
-0.1,-0.2,1.0999999999999999,0.5235987755982988,0.0,0,-0.16242547,-1.4013968,1.6897153,-1.4918013,0.9597303,1.0769843,-0.21810202,-0.11954528,0.027682355,-1.2837265,0.62391174,-0.25817233,1.5352603,-1.931968
-0.1,-0.2,1.0999999999999999,0.5235987755982988,0.0,0,-0.17571583,-1.3980803,1.6698059,-1.5325807,-0.88436437,0.8175122,-0.47187528,-0.12050008,0.028726602,-1.2826631,0.61051875,-0.263453,1.5396365,-1.8757019
-0.1,-0.2,1.0999999999999999,0.5235987755982988,0.0,0,-0.16813546,-1.396921,1.6460636,-1.471951,-0.04190957,0.09385128,-0.21510212,-0.11337175,0.030246971,-1.28684,0.62096626,-0.27934694,1.5467153,-1.8686994
-0.1,-0.2,1.0999999999999999,0.5235987755982988,0.0,0,-0.1801439,-1.3979591,1.6801472,-1.4983593,0.2756126,0.7740375,-0.3510141,-0.116887726,0.02732841,-1.2780964,0.61437047,-0.2681233,1.5374094,-1.930961
-0.1,-0.2,1.0999999999999999,0.5235987755982988,0.0,0,-0.16945869,-1.401984,1.6508975,-1.374594,1.3000876,0.2834355,-0.9649975,-0.11128501,0.030706944,-1.2929438,0.6105004,-0.27545655,1.5680327,-1.8646245
-0.1,-0.2,1.0999999999999999,0.5235987755982988,0.0,0,-0.16764764,-1.3985932,1.7011908,-1.4250569,-0.10306605,0.7492387,0.06838529,-0.11941788,0.028828887,-1.2851498,0.61528873,-0.2795156,1.535462,-1.8748975
-0.1,-0.2,1.0999999999999999,0.5235987755982988,0.0,0,-0.16342175,-1.4010859,1.700537,-1.4901834,0.11519658,0.85510904,-1.1208506,-0.114694625,0.029898766,-1.2902873,0.61959946,-0.27291793,1.5432171,-1.8796129
-0.1,-0.2,1.0999999999999999,0.5235987755982988,0.0,0,-0.17512828,-1.4008144,1.7032361,-1.4319541,0.82400423,0.8252015,-0.33896625,-0.11622578,0.027162332,-1.2842011,0.60956776,-0.277013,1.536885,-1.8836359
-0.1,-0.2,1.0999999999999999,0.5235987755982988,0.0,0,-0.17182556,-1.3989211,1.6946819,-1.4691455,-0.4543859,0.5779794,-0.83782107,-0.11512173,0.028253231,-1.2922246,0.61965066,-0.26727495,1.5504186,-1.8919213
-0.1,-0.2,1.0999999999999999,0.5235987755982988,0.0,0,-0.1627799,-1.4001195,1.7192092,-1.4991081,0.4266208,0.7595033,-0.4871473,-0.11581028,0.02927864,-1.2875015,0.6079287,-0.28266972,1.5514288,-1.9125104
-0.1,-0.2,1.0999999999999999,0.5235987755982988,0.0,0,-0.15772904,-1.3943367,1.694847,-1.4665052,0.0614082,0.96380866,-0.48607564,-0.11857287,0.029407922,-1.2851583,0.61529607,-0.2754116,1.5406314,-1.8909574
