sanky1234/BimanualDexCatch/isaacgymenvs/cem_results/football_pose_0.1_0.0_1.1999999999999997_-0.5235987755982988_0.0_0_2025-05-26.csv
x,y,z,roll,pitch,yaw,robot1/joint1,robot1/joint2,robot1/joint3,robot1/joint4,robot1/joint5,robot1/joint6,robot1/joint7,robot2/joint1,robot2/joint2,robot2/joint3,robot2/joint4,robot2/joint5,robot2/joint6,robot2/joint7
0.1,0.0,1.1999999999999997,-0.5235987755982988,0.0,0,-1.6050979,1.2637975,-0.57086694,0.6205335,-0.3424739,1.0294119,-2.7494733,1.2225599,-1.6341438,-0.021854801,-0.014786495,0.05930588,1.0433675,0.13767111
0.1,0.0,1.1999999999999997,-0.5235987755982988,0.0,0,-1.6022278,1.266399,-0.5722029,0.6201886,-0.3476545,1.0276282,-2.7281308,1.130104,-1.594145,0.29681358,-0.027211964,-0.011289094,1.1350368,0.38119978
0.1,0.0,1.1999999999999997,-0.5235987755982988,0.0,0,-1.6036272,1.2621843,-0.5731654,0.6208979,-0.3501039,1.0283943,-2.712584,1.065675,-1.615352,0.04355969,-0.042096745,-0.03088705,1.1481276,0.5499517
0.1,0.0,1.1999999999999997,-0.5235987755982988,0.0,0,-1.6056064,1.2641691,-0.5731784,0.6211995,-0.34871823,1.029278,-2.7464797,1.0804564,-1.6030576,0.014355034,0.03775739,-0.09203331,1.2269467,0.3315322
0.1,0.0,1.1999999999999997,-0.5235987755982988,0.0,0,-1.6040643,1.2652574,-0.57119244,0.6206383,-0.35153455,1.0279948,-2.7408073,1.0599407,-1.6844486,0.16646771,-0.050482277,-0.07833785,1.0708748,0.45607135
0.1,0.0,1.1999999999999997,-0.5235987755982988,0.0,0,-1.6040893,1.2633635,-0.574192,0.6200546,-0.34809664,1.026487,-2.7505653,1.3791596,-1.6869304,0.21760826,-0.028458375,-0.06571132,1.1360947,0.10980499
0.1,0.0,1.1999999999999997,-0.5235987755982988,0.0,0,-1.6020582,1.2657562,-0.5703568,0.62026215,-0.3496674,1.029124,-2.7374122,1.2014,-1.685781,0.00080534996,-0.02258818,-0.0758161,1.2315103,-0.18563026
0.1,0.0,1.1999999999999997,-0.5235987755982988,0.0,0,-1.6041502,1.2656922,-0.5727584,0.6216823,-0.34385177,1.02653,-2.7494254,1.3113569,-1.6658541,0.33240354,-0.0247443,-0.2133214,1.0877132,1.0291566
0.1,0.0,1.1999999999999997,-0.5235987755982988,0.0,0,-1.6050541,1.2641766,-0.5712361,0.62113625,-0.3520302,1.0269492,-2.7404726,1.1473231,-1.6635915,0.46877748,0.015907796,0.2796703,1.2231206,0.44847172
0.1,0.0,1.1999999999999997,-0.5235987755982988,0.0,0,-1.603517,1.266594,-0.57254803,0.6207592,-0.34659544,1.028229,-2.747922,1.3344228,-1.6595066,-0.11565707,-0.04935882,-0.065229654,1.0998135,0.40178218
0.1,0.0,1.1999999999999997,-0.5235987755982988,0.0,0,-1.6060697,1.2631302,-0.5714809,0.6218668,-0.3445097,1.027278,-2.7459931,1.2543646,-1.5284603,0.014657,-0.14603238,0.029726787,1.1796674,0.627109
0.1,0.0,1.1999999999999997,-0.5235987755982988,0.0,0,-1.6055201,1.2635443,-0.571799,0.62022114,-0.34678116,1.0282063,-2.7551944,1.2030804,-1.6675872,0.1523242,-0.055429634,0.06511758,1.1738725,0.58592385
0.1,0.0,1.1999999999999997,-0.5235987755982988,0.0,0,-1.6049658,1.2640977,-0.57267475,0.6209108,-0.35066035,1.0261142,-2.7390318,1.1248845,-1.6253983,0.08499473,0.008221812,0.08278835,1.2868891,-0.13089518
0.1,0.0,1.1999999999999997,-0.5235987755982988,0.0,0,-1.6039783,1.2665379,-0.5712261,0.6212818,-0.34429872,1.0277647,-2.7381473,1.3377088,-1.6913089,-0.14690222,-0.11232846,0.06934867,1.023806,0.6211706
0.1,0.0,1.1999999999999997,-0.5235987755982988,0.0,0,-1.6027305,1.2639853,-0.5724799,0.6205892,-0.34578538,1.0272536,-2.7399185,1.2535715,-1.7145027,-0.057597514,-0.057715256,-0.049621884,1.0370097,0.30840057
0.1,0.0,1.1999999999999997,-0.5235987755982988,0.0,0,-1.6029618,1.263771,-0.57269025,0.6220095,-0.3474893,1.0268949,-2.76268,1.2692598,-1.653485,0.16891408,-0.062268037,0.17003012,1.208664,0.338886
0.1,0.0,1.1999999999999997,-0.5235987755982988,0.0,0,-1.6038108,1.2641765,-0.5707044,0.62118423,-0.35001048,1.0259523,-2.7166176,1.1778167,-1.6184909,0.030068737,-0.048678823,-0.28860962,1.2518744,0.5465199
0.1,0.0,1.1999999999999997,-0.5235987755982988,0.0,0,-1.6028779,1.2631269,-0.5709,0.62115574,-0.34506723,1.0293882,-2.7586353,1.2094986,-1.661336,-0.16634423,-0.08648896,-0.10432601,1.1222346,0.7542251
0.1,0.0,1.1999999999999997,-0.5235987755982988,0.0,0,-1.6039286,1.2651663,-0.5710293,0.6222846,-0.34587228,1.0274291,-2.7553043,1.1478751,-1.7170225,0.14680874,-0.05130668,-0.1295516,1.0111159,-0.07846355
0.1,0.0,1.1999999999999997,-0.5235987755982988,0.0,0,-1.6042271,1.262223,-0.57214206,0.6212382,-0.3416378,1.0275228,-2.7531502,1.2354476,-1.6508691,0.13836293,-0.063722104,-0.0638673,1.236319,0.6033259
0.1,0.0,1.1999999999999997,-0.5235987755982988,0.0,0,-1.6034118,1.2644043,-0.5711036,0.6208849,-0.34625298,1.0277878,-2.7261221,1.0633756,-1.6246858,0.09665645,-0.018630236,-0.057670128,1.1655018,0.02450285
0.1,0.0,1.1999999999999997,-0.5235987755982988,0.0,0,-1.604642,1.2653841,-0.5716977,0.62201875,-0.34307522,1.0268499,-2.7496848,1.3849746,-1.6313912,-0.19480605,-0.027188644,-0.186283,1.1221331,0.50272435
0.1,0.0,1.1999999999999997,-0.5235987755982988,0.0,0,-1.605149,1.2637484,-0.57214844,0.62063044,-0.3382991,1.0270602,-2.7358809,1.4087353,-1.7238567,0.097358815,-0.062977895,-0.075974174,1.1091298,-0.083161116
0.1,0.0,1.1999999999999997,-0.5235987755982988,0.0,0,-1.6036192,1.2621515,-0.57036394,0.62181467,-0.3400454,1.0267174,-2.7433012,1.3797625,-1.7251469,0.005016991,-0.056802664,-0.1430522,1.1416596,0.42627662
0.1,0.0,1.1999999999999997,-0.5235987755982988,0.0,0,-1.6036506,1.264702,-0.57164997,0.6214942,-0.3420718,1.0278733,-2.7552986,1.2381521,-1.6921464,0.0034059794,-0.053312216,-0.24302277,1.2510533,0.5337741
0.1,0.0,1.1999999999999997,-0.5235987755982988,0.0,0,-1.6036125,1.2649989,-0.5718811,0.6223185,-0.33901814,1.0280664,-2.7407334,1.2947634,-1.6517652,0.15788317,-0.034128755,-0.25145012,1.1581895,0.950509
0.1,0.0,1.1999999999999997,-0.5235987755982988,0.0,0,-1.6059126,1.2652472,-0.57146674,0.621543,-0.34311792,1.0282698,-2.748333,1.254732,-1.6211481,0.15897821,-0.084806725,-0.033752616,1.1003677,1.3317509
0.1,0.0,1.1999999999999997,-0.5235987755982988,0.0,0,-1.6045151,1.2633994,-0.57100666,0.62229747,-0.34363663,1.0277531,-2.7410522,1.1186444,-1.5597842,0.041559335,-0.07109248,-0.04263889,1.048607,0.763136
0.1,0.0,1.1999999999999997,-0.5235987755982988,0.0,0,-1.6043451,1.2622126,-0.5741536,0.6216114,-0.34748614,1.0267794,-2.7413795,1.5766671,-1.640218,0.3262569,-0.10484409,-0.16775584,1.1114931,0.7380895
0.1,0.0,1.1999999999999997,-0.5235987755982988,0.0,0,-1.6054572,1.2630597,-0.5699036,0.6213844,-0.34187114,1.0291803,-2.7255335,1.229848,-1.6666015,-0.0709682,-0.017267754,0.026906786,1.2012104,0.59074783
0.1,0.0,1.1999999999999997,-0.5235987755982988,0.0,0,-1.6036997,1.2632313,-0.5724287,0.62099206,-0.34730607,1.0278877,-2.75778,1.0205641,-1.7020162,-0.03284578,-0.06675238,-0.029818732,1.1045963,0.4380483
0.1,0.0,1.1999999999999997,-0.5235987755982988,0.0,0,-1.6045444,1.2642894,-0.57290167,0.62125725,-0.3446758,1.0289072,-2.7399,1.0944563,-1.5031526,0.37286323,0.054160345,-0.12132287,1.2121682,0.9203958
0.1,0.0,1.1999999999999997,-0.5235987755982988,0.0,0,-1.6024791,1.264857,-0.5708432,0.6217922,-0.3463594,1.0290664,-2.760628,1.3174369,-1.6667278,0.072828725,-0.061012913,0.09955527,1.1234708,0.7724618
0.1,0.0,1.1999999999999997,-0.5235987755982988,0.0,0,-1.6027865,1.2633038,-0.5715566,0.6210445,-0.33942398,1.0271186,-2.733413,1.2905943,-1.6709367,-0.29902688,-0.09518728,0.0840975,1.1711744,0.6401721
0.1,0.0,1.1999999999999997,-0.5235987755982988,0.0,0,-1.6045643,1.2641702,-0.5709088,0.6210921,-0.34694993,1.0280483,-2.74352,1.322528,-1.773073,-0.07122804,0.029813508,-0.060315117,1.2754642,0.5307278
0.1,0.0,1.1999999999999997,-0.5235987755982988,0.0,0,-1.6045457,1.2672725,-0.57347685,0.62079597,-0.34692183,1.0269041,-2.7357123,1.2913016,-1.6816357,0.7726844,-0.05438128,-0.09994096,1.090917,0.56557614
0.1,0.0,1.1999999999999997,-0.5235987755982988,0.0,0,-1.6053482,1.263384,-0.57060313,0.6205214,-0.34536505,1.0289938,-2.7329001,1.1430783,-1.6692663,0.062356357,-0.029033337,-0.16450122,1.2204444,-0.027275262
0.1,0.0,1.1999999999999997,-0.5235987755982988,0.0,0,-1.6042603,1.2627677,-0.5727054,0.62063265,-0.34558403,1.0291288,-2.7572198,1.2710465,-1.6461962,0.037510537,-0.058090743,-0.09819731,1.0746005,0.121020615
0.1,0.0,1.1999999999999997,-0.5235987755982988,0.0,0,-1.6026747,1.2649941,-0.57307583,0.6219918,-0.34932333,1.026443,-2.7618134,1.2017848,-1.6011643,0.49467456,-0.010230982,-0.11562065,1.150235,0.80222344
0.1,0.0,1.1999999999999997,-0.5235987755982988,0.0,0,-1.6043328,1.265229,-0.57402825,0.6202714,-0.3465458,1.0256008,-2.7230568,1.2279743,-1.658158,0.13799208,-0.027843852,-0.010887631,1.1995468,0.76038426
0.1,0.0,1.1999999999999997,-0.5235987755982988,0.0,0,-1.6044129,1.2639065,-0.5717004,0.6212697,-0.35023147,1.0275815,-2.7390728,0.95507485,-1.6084149,0.29173002,0.023891045,0.03590495,1.2279255,0.46904573
0.1,0.0,1.1999999999999997,-0.5235987755982988,0.0,0,-1.6049135,1.2651725,-0.5716111,0.6214152,-0.34348762,1.0273845,-2.7393997,1.5015653,-1.6298064,0.116817765,-0.07706606,-0.269476,1.3216109,0.9982034
0.1,0.0,1.1999999999999997,-0.5235987755982988,0.0,0,-1.6030852,1.2633942,-0.5719408,0.6213638,-0.3436153,1.0269452,-2.7265773,1.2189347,-1.735919,0.23419407,0.020343916,-0.11831012,1.1191183,0.5003315
0.1,0.0,1.1999999999999997,-0.5235987755982988,0.0,0,-1.6033511,1.2647907,-0.57128185,0.62243956,-0.34427634,1.0264602,-2.745506,1.0518582,-1.7141868,0.13864273,-0.058534008,-0.0031793506,1.2162925,0.77839595
0.1,0.0,1.1999999999999997,-0.5235987755982988,0.0,0,-1.6037405,1.2623787,-0.5712887,0.6212156,-0.34908774,1.0280074,-2.7432036,1.0953512,-1.5728527,-0.08613377,-0.05012992,-0.07330222,1.2342342,0.2500347
0.1,0.0,1.1999999999999997,-0.5235987755982988,0.0,0,-1.6046284,1.2642994,-0.5718288,0.6218298,-0.34569797,1.0273079,-2.7378519,1.2972963,-1.661395,0.08148429,-0.12421383,0.07880399,1.256241,0.7082766
0.1,0.0,1.1999999999999997,-0.5235987755982988,0.0,0,-1.6060083,1.2637255,-0.57095754,0.62359494,-0.34542656,1.0279331,-2.687889,1.3575196,-1.6015279,0.016589494,-0.03952863,0.09183299,1.0864048,-0.33615822
0.1,0.0,1.1999999999999997,-0.5235987755982988,0.0,0,-1.6037745,1.2676301,-0.57218,0.6221707,-0.3448081,1.0270811,-2.7428012,1.1543908,-1.6615008,-0.2081002,-0.029872552,-0.05459742,1.1570007,0.38775176
0.1,0.0,1.1999999999999997,-0.5235987755982988,0.0,0,-1.604244,1.2635548,-0.569626,0.6222145,-0.34300432,1.0287173,-2.7445362,1.1206036,-1.6716893,0.040419854,-0.012836038,-0.011036378,1.054078,1.146564
0.1,0.0,1.1999999999999997,-0.5235987755982988,0.0,0,-1.6040065,1.2655306,-0.5708181,0.6208541,-0.3457126,1.0281276,-2.7228572,1.3373333,-1.6384232,0.20493937,-0.10746941,-0.04535266,1.1716523,0.2972099
0.1,0.0,1.1999999999999997,-0.5235987755982988,0.0,0,-1.6044807,1.2651141,-0.5701676,0.6216222,-0.34742287,1.0281461,-2.7260585,1.3652498,-1.6140548,0.07480759,-0.087709926,-0.0056601004,1.1828032,0.65170264
0.1,0.0,1.1999999999999997,-0.5235987755982988,0.0,0,-1.6026026,1.2654985,-0.5730271,0.62151825,-0.35099858,1.0275445,-2.753243,1.2234033,-1.6893052,0.31409368,-0.1191245,-0.16771992,1.0566037,-0.15896116
0.1,0.0,1.1999999999999997,-0.5235987755982988,0.0,0,-1.6049054,1.2655071,-0.57239884,0.62207747,-0.34618905,1.028035,-2.7454531,1.2618278,-1.6681576,0.323182,0.034521524,0.037001483,1.0423989,0.28532755
0.1,0.0,1.1999999999999997,-0.5235987755982988,0.0,0,-1.6045529,1.2655946,-0.573659,0.62066823,-0.34710515,1.0281922,-2.7395701,1.3969425,-1.6847858,0.057799324,-0.053797122,0.009580267,1.0638115,0.21963489
0.1,0.0,1.1999999999999997,-0.5235987755982988,0.0,0,-1.6039306,1.2656167,-0.57399184,0.62140393,-0.34904572,1.0284386,-2.7501228,1.2745949,-1.6848263,0.30063945,-0.10668729,-0.09000812,1.076701,1.2084961
0.1,0.0,1.1999999999999997,-0.5235987755982988,0.0,0,-1.6034876,1.2634426,-0.57178354,0.61968267,-0.3529875,1.0272859,-2.734128,1.1453938,-1.7586595,-0.027445953,-0.06491953,0.049535412,1.0505582,1.1054454
0.1,0.0,1.1999999999999997,-0.5235987755982988,0.0,0,-1.6059701,1.2654423,-0.5708309,0.6206279,-0.34940043,1.0280133,-2.722204,1.3104838,-1.7863817,-0.0018127236,-0.033982422,-0.09303307,1.2440445,0.60133845
0.1,0.0,1.1999999999999997,-0.5235987755982988,0.0,0,-1.6043631,1.263484,-0.57387507,0.6203311,-0.3492514,1.0263617,-2.7252114,1.3000749,-1.6502424,0.14017075,-0.0661696,-0.21754926,1.1209159,0.36020824
0.1,0.0,1.1999999999999997,-0.5235987755982988,0.0,0,-1.6038244,1.2627727,-0.5727234,0.6204982,-0.3518358,1.0275216,-2.7193432,1.3739717,-1.649362,-0.041468907,-0.007955124,-0.36703137,1.1582208,0.34730557
0.1,0.0,1.1999999999999997,-0.5235987755982988,0.0,0,-1.6044291,1.2640307,-0.5733016,0.62051344,-0.3499299,1.0266883,-2.7220795,1.1735287,-1.6819896,-0.051882233,-0.06774103,-0.15636161,1.1487763,-0.005845225
0.1,0.0,1.1999999999999997,-0.5235987755982988,0.0,0,-1.6028324,1.2660064,-0.5729189,0.6210351,-0.35028505,1.0277612,-2.7420497,1.3901063,-1.6815678,-0.014834737,-0.08806008,-0.15122564,1.0986261,0.53505677
0.1,0.0,1.1999999999999997,-0.5235987755982988,0.0,0,-1.6045588,1.2639359,-0.57301724,0.6220407,-0.3428492,1.0288644,-2.7573824,1.1129627,-1.7061048,-0.24146731,-0.087332755,0.0648384,1.2169906,0.13952884
0.1,0.0,1.1999999999999997,-0.5235987755982988,0.0,0,-1.6047902,1.2650566,-0.5738115,0.6218093,-0.34781173,1.0288357,-2.7529707,1.0592617,-1.7669386,0.28541493,-0.027853265,0.04282369,1.1778668,0.36885065
0.1,0.0,1.1999999999999997,-0.5235987755982988,0.0,0,-1.6051816,1.2644486,-0.5732771,0.62100226,-0.35431477,1.0269072,-2.7322767,1.3792282,-1.6122181,0.23079804,-0.102192864,-0.035302605,1.0248551,0.36241952
0.1,0.0,1.1999999999999997,-0.5235987755982988,0.0,0,-1.6036422,1.2641798,-0.57206756,0.6211845,-0.35105494,1.0294012,-2.7233012,1.2107106,-1.5900062,0.07079406,0.03960257,0.083480604,1.0979195,0.2599084
0.1,0.0,1.1999999999999997,-0.5235987755982988,0.0,0,-1.6036127,1.2644862,-0.572934,0.62258303,-0.3520455,1.0279725,-2.7358096,1.1064055,-1.6965443,0.20819417,0.03421368,-0.17959598,1.1233048,0.7925429
0.1,0.0,1.1999999999999997,-0.5235987755982988,0.0,0,-1.6051942,1.264803,-0.5738872,0.6218466,-0.34896445,1.0290318,-2.7247396,1.2328608,-1.6194783,0.027368402,0.030029658,-0.031908203,1.145226,-0.39713168
0.1,0.0,1.1999999999999997,-0.5235987755982988,0.0,0,-1.6050285,1.2657334,-0.570329,0.6200732,-0.34909186,1.0295341,-2.738563,1.3609408,-1.6829656,0.2819253,-0.04558986,-0.23216997,1.1422712,0.246229
0.1,0.0,1.1999999999999997,-0.5235987755982988,0.0,0,-1.6023012,1.2627727,-0.56987524,0.62155294,-0.34773934,1.0291121,-2.7308562,1.2773387,-1.6931144,0.01975962,-0.0005569438,-0.05761488,1.0884886,0.43502024
0.1,0.0,1.1999999999999997,-0.5235987755982988,0.0,0,-1.6040913,1.2655512,-0.5723638,0.62153816,-0.34393594,1.0282091,-2.732381,1.349123,-1.6065407,-0.32985932,-0.108613566,-0.14702338,1.1128173,0.25267488
0.1,0.0,1.1999999999999997,-0.5235987755982988,0.0,0,-1.6034756,1.2654666,-0.57052076,0.6208006,-0.34279442,1.027251,-2.787962,1.1524338,-1.4064448,0.069297485,-0.10176574,0.10622118,1.2665035,0.6741283
0.1,0.0,1.1999999999999997,-0.5235987755982988,0.0,0,-1.6039613,1.2646618,-0.5698481,0.62067467,-0.3441649,1.0265108,-2.7770333,1.3573492,-1.5540236,-0.010207698,-1.9071722e-05,-0.15973261,1.2313044,0.62801987
0.1,0.0,1.1999999999999997,-0.5235987755982988,0.0,0,-1.6016818,1.2655122,-0.56963825,0.6204411,-0.3467585,1.0278833,-2.7623823,1.2272592,-1.6385055,0.13784567,0.0065347864,-0.06211734,1.2280592,1.1823692
0.1,0.0,1.1999999999999997,-0.5235987755982988,0.0,0,-1.6037552,1.264467,-0.5707504,0.6194587,-0.34517348,1.0261612,-2.7697613,1.3898396,-1.6218253,0.24463268,-0.04366982,-0.037605718,1.1335878,0.8349689
0.1,0.0,1.1999999999999997,-0.5235987755982988,0.0,0,-1.6029878,1.2640308,-0.5711741,0.6204722,-0.34760556,1.0275885,-2.7679899,1.279435,-1.5326942,0.26527432,-0.025023334,-0.24556305,1.1644808,1.1275233
0.1,0.0,1.1999999999999997,-0.5235987755982988,0.0,0,-1.6046605,1.2638817,-0.56974363,0.62050104,-0.34822637,1.026789,-2.756362,1.2437568,-1.5999839,-0.27685848,0.0020757068,0.01211108,1.0901593,1.1412987
0.1,0.0,1.1999999999999997,-0.5235987755982988,0.0,0,-1.6045607,1.2656294,-0.56999224,0.6210183,-0.34529492,1.026612,-2.756084,1.2493676,-1.5757481,-0.12637402,-0.067541234,0.098644994,1.1626595,-0.12761742
0.1,0.0,1.1999999999999997,-0.5235987755982988,0.0,0,-1.6040498,1.2664654,-0.57063836,0.62177545,-0.3452071,1.0267731,-2.7594805,1.2671739,-1.594451,0.2844137,0.054391604,0.054710284,1.1248338,0.10201542
0.1,0.0,1.1999999999999997,-0.5235987755982988,0.0,0,-1.6036888,1.2651778,-0.5691937,0.6208925,-0.34323204,1.028401,-2.7580698,1.2387134,-1.7122395,0.11501784,-0.068536595,0.021225555,1.1965158,0.30106944
0.1,0.0,1.1999999999999997,-0.5235987755982988,0.0,0,-1.602809,1.2657211,-0.57080275,0.6218004,-0.35154206,1.0256523,-2.7493935,1.2726592,-1.6283499,-0.37127522,-0.016879141,-0.16115099,1.2468512,1.0717305
0.1,0.0,1.1999999999999997,-0.5235987755982988,0.0,0,-1.6024384,1.2656088,-0.57133865,0.62005615,-0.34215295,1.0265123,-2.757377,1.1479254,-1.484683,0.14640023,-0.12621842,0.074786514,1.0695254,-0.30524904
0.1,0.0,1.1999999999999997,-0.5235987755982988,0.0,0,-1.605401,1.2639441,-0.571862,0.62100935,-0.34409747,1.027112,-2.7718468,1.2040194,-1.6464008,0.18466078,-0.06778886,-0.186273,1.2455363,0.3446673
0.1,0.0,1.1999999999999997,-0.5235987755982988,0.0,0,-1.6014287,1.263359,-0.57182485,0.6206619,-0.34922606,1.0264266,-2.7593596,1.2452356,-1.7392356,0.0037429011,-0.01737479,0.05780293,1.1601659,1.123791
0.1,0.0,1.1999999999999997,-0.5235987755982988,0.0,0,-1.6034294,1.2636986,-0.5715768,0.62082183,-0.3418281,1.0267818,-2.760848,1.4047233,-1.5817698,0.05663756,0.027625803,-0.13419375,1.1604159,0.94457614
0.1,0.0,1.1999999999999997,-0.5235987755982988,0.0,0,-1.6033394,1.2641009,-0.5712728,0.6217182,-0.3395529,1.0271975,-2.7364528,1.3368956,-1.6338825,0.01960701,0.036764663,-0.23002525,1.0659786,1.019194
0.1,0.0,1.1999999999999997,-0.5235987755982988,0.0,0,-1.6032033,1.2619143,-0.5697097,0.62081456,-0.346581,1.0288752,-2.7297595,1.2420615,-1.6748576,0.07607476,0.08989225,-0.14881806,1.123125,0.50808674
0.1,0.0,1.1999999999999997,-0.5235987755982988,0.0,0,-1.602661,1.2637945,-0.57228684,0.6206072,-0.35034353,1.0260803,-2.766159,1.2691977,-1.6066846,0.21680528,-0.02528063,0.21229224,1.0945112,0.55238545
0.1,0.0,1.1999999999999997,-0.5235987755982988,0.0,0,-1.605382,1.2633567,-0.57031846,0.62082857,-0.341109,1.0273757,-2.7193558,1.3797218,-1.6401191,0.11384032,-0.042732287,-0.080426045,1.1382434,0.3369933
0.1,0.0,1.1999999999999997,-0.5235987755982988,0.0,0,-1.6039952,1.2626262,-0.56953853,0.6194149,-0.34883174,1.0274496,-2.737515,1.1397595,-1.6566184,0.16040024,-0.03576437,-0.20192774,1.1391251,-0.0289881
0.1,0.0,1.1999999999999997,-0.5235987755982988,0.0,0,-1.6037173,1.2632458,-0.57075787,0.61980504,-0.3467654,1.0282131,-2.721994,1.1530697,-1.650453,-0.16505967,0.011559677,0.06448747,1.1297907,-0.42266932
0.1,0.0,1.1999999999999997,-0.5235987755982988,0.0,0,-1.6039748,1.2666653,-0.57145953,0.62122583,-0.34371385,1.0267694,-2.7559114,1.0373044,-1.7598559,-0.033964314,-0.00095716876,-0.05696724,1.2276479,0.61157227
0.1,0.0,1.1999999999999997,-0.5235987755982988,0.0,0,-1.6005979,1.2656423,-0.57067406,0.6215864,-0.3412649,1.0279977,-2.7390652,1.1471343,-1.7423114,0.48995498,0.001628838,-0.16740431,1.055607,0.9309572
0.1,0.0,1.1999999999999997,-0.5235987755982988,0.0,0,-1.6025777,1.2640134,-0.5719421,0.62077206,-0.3483807,1.0293906,-2.7494266,1.31441,-1.5977967,0.40952864,0.004118398,-0.2952774,1.2146232,1.0098389
0.1,0.0,1.1999999999999997,-0.5235987755982988,0.0,0,-1.6040161,1.2620498,-0.5706216,0.6213486,-0.34103525,1.0291356,-2.747979,1.1596537,-1.5899462,0.010412313,-0.09580432,-0.10104187,1.1974714,0.46694973
0.1,0.0,1.1999999999999997,-0.5235987755982988,0.0,0,-1.6022884,1.2653795,-0.5705218,0.6222021,-0.34922296,1.0261195,-2.715049,1.1339538,-1.5730859,0.01292787,0.01165659,0.034535024,1.1474458,0.8919058
0.1,0.0,1.1999999999999997,-0.5235987755982988,0.0,0,-1.6026244,1.2635514,-0.5711581,0.62071085,-0.3456342,1.0281171,-2.713676,1.2341232,-1.5656782,-0.28604215,-0.04508375,-0.15104648,1.106971,0.56153786
0.1,0.0,1.1999999999999997,-0.5235987755982988,0.0,0,-1.6052382,1.2630627,-0.5704283,0.62115985,-0.34350228,1.0279293,-2.7312024,1.1700953,-1.7463102,-0.13595702,-0.03259716,-0.26672915,1.2695581,1.005939
0.1,0.0,1.1999999999999997,-0.5235987755982988,0.0,0,-1.6035686,1.2623867,-0.56996155,0.62182564,-0.34823877,1.0281943,-2.729762,1.166553,-1.5846845,0.14705047,-0.04970783,-0.14167911,1.2144657,0.679713
0.1,0.0,1.1999999999999997,-0.5235987755982988,0.0,0,-1.6040671,1.2657586,-0.57025105,0.6210413,-0.34633675,1.0279764,-2.752064,1.065339,-1.6200134,0.22321223,-0.057124052,0.02710405,1.1634506,-0.36394522
0.1,0.0,1.1999999999999997,-0.5235987755982988,0.0,0,-1.6044521,1.2648501,-0.57213134,0.6208114,-0.34450248,1.0288196,-2.7236953,1.353292,-1.571925,0.1691714,0.018466333,-0.19298406,1.1094477,0.7046215
0.1,0.0,1.1999999999999997,-0.5235987755982988,0.0,0,-1.6034747,1.2636601,-0.5732118,0.6218873,-0.34797415,1.0265179,-2.7477007,1.0179842,-1.5460457,0.38775378,-0.0090746805,-0.12272093,1.1787035,0.19979574
0.1,0.0,1.1999999999999997,-0.5235987755982988,0.0,0,-1.6036184,1.2646168,-0.57127404,0.6218636,-0.34324467,1.0275762,-2.7301478,1.1072257,-1.6547312,0.21661529,-0.07026598,0.13788188,1.126291,0.4035883
0.1,0.0,1.1999999999999997,-0.5235987755982988,0.0,0,-1.6045913,1.2635834,-0.57188076,0.6203427,-0.34245247,1.0285773,-2.7474644,1.1630726,-1.5935075,0.17907162,-0.0399006,0.054943576,1.2339675,-0.15208434
0.1,0.0,1.1999999999999997,-0.5235987755982988,0.0,0,-1.6051089,1.264843,-0.5716411,0.6205558,-0.34579888,1.0265704,-2.7546313,1.3099117,-1.6892374,0.27280495,-0.028658343,0.018004328,1.2607156,0.13822992
0.1,0.0,1.1999999999999997,-0.5235987755982988,0.0,0,-1.6034545,1.2643394,-0.57185227,0.6207048,-0.3487844,1.0280348,-2.7325404,1.3009228,-1.6722788,0.12454875,-0.07211858,0.011475932,1.0374018,0.057129696
0.1,0.0,1.1999999999999997,-0.5235987755982988,0.0,0,-1.6042789,1.2654574,-0.57065547,0.6205813,-0.342794,1.0269154,-2.7410421,1.4408921,-1.7417998,0.24799336,-0.023204686,-0.18956175,1.1092772,0.47961828
0.1,0.0,1.1999999999999997,-0.5235987755982988,0.0,0,-1.60388,1.2639016,-0.5722301,0.62086356,-0.34719706,1.0285227,-2.7299728,1.1951815,-1.6465882,0.21924344,0.022837335,0.10081591,0.95703703,0.79952407
0.1,0.0,1.1999999999999997,-0.5235987755982988,0.0,0,-1.6042649,1.2663575,-0.5712064,0.62211776,-0.34803084,1.027645,-2.7219038,1.2265916,-1.5733998,0.17689483,-0.049108073,0.059508447,1.1656382,0.20096171
0.1,0.0,1.1999999999999997,-0.5235987755982988,0.0,0,-1.6057734,1.2654737,-0.57275176,0.61970097,-0.34551674,1.0287077,-2.7131598,1.2632993,-1.6460689,0.37967327,-0.010520218,-0.11519267,1.2055699,0.6309369
0.1,0.0,1.1999999999999997,-0.5235987755982988,0.0,0,-1.603861,1.2661614,-0.5719286,0.62068987,-0.3451171,1.0289302,-2.7314954,1.2780653,-1.6142476,0.18252705,-0.07835884,-0.070281774,1.0995998,0.69397676
0.1,0.0,1.1999999999999997,-0.5235987755982988,0.0,0,-1.6051685,1.2632718,-0.57172084,0.62178296,-0.34001374,1.0291867,-2.7352126,1.1514411,-1.5978688,-0.0815295,-0.052574057,-0.24100034,1.0305275,0.5459392
0.1,0.0,1.1999999999999997,-0.5235987755982988,0.0,0,-1.6023535,1.2633233,-0.5716894,0.61974347,-0.34479114,1.0271041,-2.7269309,1.3895487,-1.6138799,-0.14741687,-0.03151436,0.22893196,1.1750543,0.09334921
0.1,0.0,1.1999999999999997,-0.5235987755982988,0.0,0,-1.6033845,1.2661421,-0.5711813,0.6213913,-0.3487836,1.0254549,-2.7324293,1.171088,-1.6342138,-0.16504829,-0.05580487,-0.19458373,1.0948128,0.13742161
0.1,0.0,1.1999999999999997,-0.5235987755982988,0.0,0,-1.604122,1.2640886,-0.5690047,0.62021285,-0.3487657,1.0286822,-2.7324357,1.0869925,-1.6953728,0.06109429,0.027709184,0.09032292,1.1483091,0.87455726
0.1,0.0,1.1999999999999997,-0.5235987755982988,0.0,0,-1.6032672,1.2669864,-0.5703337,0.6214916,-0.3497117,1.0296694,-2.719606,1.2958813,-1.7331009,-0.046237994,0.010157171,-0.043328993,1.0872841,0.89977694
0.1,0.0,1.1999999999999997,-0.5235987755982988,0.0,0,-1.6038818,1.2643142,-0.57122177,0.6223036,-0.34804946,1.0284443,-2.7347858,1.2371632,-1.6372764,0.02226807,0.03461786,-0.010264495,1.1348885,0.10435234
0.1,0.0,1.1999999999999997,-0.5235987755982988,0.0,0,-1.6037369,1.2640665,-0.5724872,0.6217527,-0.34717262,1.0263553,-2.7240977,1.2183217,-1.670898,0.3451823,-0.07474081,-0.07297466,1.1436732,0.65025795
0.1,0.0,1.1999999999999997,-0.5235987755982988,0.0,0,-1.6058476,1.2643944,-0.57078725,0.6215337,-0.3517006,1.0280274,-2.710232,1.0407329,-1.6428307,0.07922776,-0.08173297,-0.42856717,1.1048918,0.0030448437
0.1,0.0,1.1999999999999997,-0.5235987755982988,0.0,0,-1.6047614,1.2664424,-0.5717394,0.6218236,-0.34851092,1.0293486,-2.7503865,1.2815838,-1.7086498,-0.14616837,-0.05181649,-0.084539376,1.0979825,-0.36846453
0.1,0.0,1.1999999999999997,-0.5235987755982988,0.0,0,-1.6039957,1.2649854,-0.57174593,0.62191904,-0.3431889,1.0294572,-2.7387564,1.2593331,-1.6555498,0.13675134,-0.09008965,-0.12832724,1.0574234,0.9629649
0.1,0.0,1.1999999999999997,-0.5235987755982988,0.0,0,-1.6025469,1.2663445,-0.57253575,0.6220314,-0.34787884,1.0289173,-2.754059,1.3817602,-1.730367,0.2836447,-0.12243784,-0.0376179,1.2626853,0.46865633
0.1,0.0,1.1999999999999997,-0.5235987755982988,0.0,0,-1.6039824,1.2642468,-0.5719103,0.62093604,-0.3393642,1.0282098,-2.7083948,1.1377364,-1.5900499,-0.1576305,-0.033481725,-0.037228424,1.1497647,0.13830657
0.1,0.0,1.1999999999999997,-0.5235987755982988,0.0,0,-1.6043074,1.2626402,-0.5705063,0.62172604,-0.34787604,1.0300052,-2.7370648,1.2453662,-1.603545,0.15759882,0.014385018,0.08016597,1.1645056,0.52562386
0.1,0.0,1.1999999999999997,-0.5235987755982988,0.0,0,-1.60447,1.266094,-0.57151914,0.6208241,-0.34779134,1.0287768,-2.7261186,1.1957802,-1.62743,0.18476267,-0.003303548,-0.031236516,1.218556,0.25728443
0.1,0.0,1.1999999999999997,-0.5235987755982988,0.0,0,-1.6040306,1.2641724,-0.569008,0.62113166,-0.34602186,1.0290152,-2.739895,1.05766,-1.7559104,-0.16276199,0.006439114,-0.29227304,1.0861076,0.12582062
0.1,0.0,1.1999999999999997,-0.5235987755982988,0.0,0,-1.6020811,1.2644737,-0.5709118,0.6210631,-0.34421104,1.0266746,-2.7505286,1.0719497,-1.7442577,0.12983327,-0.0051593245,-0.1675289,0.98153484,0.9321862
0.1,0.0,1.1999999999999997,-0.5235987755982988,0.0,0,-1.6046462,1.2635117,-0.57113993,0.6221138,-0.35072282,1.0283271,-2.7391663,1.2175131,-1.6409743,-0.061843548,-0.15107109,0.0075148665,1.2475597,0.9975194
0.1,0.0,1.1999999999999997,-0.5235987755982988,0.0,0,-1.6034389,1.2666306,-0.57207775,0.6203225,-0.35207996,1.0286933,-2.7444973,1.1700925,-1.6771232,0.09461068,-0.06451191,-0.045105062,1.1811279,0.69288415
0.1,0.0,1.1999999999999997,-0.5235987755982988,0.0,0,-1.6052018,1.2656119,-0.5711674,0.6211454,-0.35109106,1.0261396,-2.7336211,1.2463048,-1.7387716,0.3215873,-0.064804025,-0.09286337,1.0385578,0.5300026
0.1,0.0,1.1999999999999997,-0.5235987755982988,0.0,0,-1.6056964,1.2631724,-0.57277685,0.62153476,-0.34596145,1.0272156,-2.7489243,1.4377187,-1.6423355,0.08864072,-0.072612576,0.23193075,1.1932076,0.26192892
0.1,0.0,1.1999999999999997,-0.5235987755982988,0.0,0,-1.6024374,1.2643518,-0.57006043,0.6204117,-0.34866613,1.0282376,-2.7523222,1.1856779,-1.592135,0.20974386,-0.05538155,-0.02533465,1.1813253,0.26054552
0.1,0.0,1.1999999999999997,-0.5235987755982988,0.0,0,-1.6046891,1.2661848,-0.56942564,0.6214482,-0.34596872,1.0259497,-2.7190464,1.2285469,-1.7468072,-0.32101065,0.0020191567,-0.07999609,1.1771998,-0.29761472
0.1,0.0,1.1999999999999997,-0.5235987755982988,0.0,0,-1.6038375,1.2663014,-0.5734743,0.6204243,-0.34786174,1.0303465,-2.7251627,1.1344299,-1.5600712,0.34710032,0.068498865,0.0295187,1.138542,0.2641503
0.1,0.0,1.1999999999999997,-0.5235987755982988,0.0,0,-1.6021206,1.2640798,-0.57112724,0.62093925,-0.345297,1.0278844,-2.7596655,1.1477411,-1.6746938,0.49939862,-0.004374509,-0.2967516,1.0683534,0.19321282
0.1,0.0,1.1999999999999997,-0.5235987755982988,0.0,0,-1.6029189,1.2648623,-0.5702329,0.62050533,-0.3475057,1.0283105,-2.7525234,1.2598418,-1.6678693,0.0887367,0.016205784,-0.008207323,1.0896176,-0.70886153
0.1,0.0,1.1999999999999997,-0.5235987755982988,0.0,0,-1.6027737,1.2634604,-0.57324165,0.62098783,-0.347907,1.0285839,-2.73097,1.2178439,-1.6314378,-0.2169659,-0.03243085,-0.012731523,1.1850845,-0.19768122
0.1,0.0,1.1999999999999997,-0.5235987755982988,0.0,0,-1.6049654,1.266167,-0.5699632,0.62035054,-0.34653765,1.0276678,-2.7134318,1.135425,-1.590725,0.10325158,-0.036189295,-0.19521624,1.1956662,0.08955656
0.1,0.0,1.1999999999999997,-0.5235987755982988,0.0,0,-1.6028308,1.2644781,-0.5687107,0.62149143,-0.3504296,1.028335,-2.707462,1.0922303,-1.6107278,0.195319,0.017280344,-0.21875618,1.2797674,0.16167173
0.1,0.0,1.1999999999999997,-0.5235987755982988,0.0,0,-1.6037705,1.2655424,-0.5705865,0.6199989,-0.3463485,1.0280895,-2.7158265,1.4091603,-1.5516686,0.022427706,-0.059859417,-0.21268365,1.0846545,-0.0073974403
0.1,0.0,1.1999999999999997,-0.5235987755982988,0.0,0,-1.6021541,1.2678475,-0.57176256,0.62116474,-0.34464136,1.0269742,-2.7335365,1.2200255,-1.516104,-0.002199911,-0.04159705,-0.15847208,1.1343492,-0.089152284
0.1,0.0,1.1999999999999997,-0.5235987755982988,0.0,0,-1.6040062,1.2628319,-0.5715594,0.6209085,-0.3450029,1.0286506,-2.7297661,1.0099198,-1.5308017,0.1030258,0.021518739,-0.34603986,1.1033328,0.08943693
0.1,0.0,1.1999999999999997,-0.5235987755982988,0.0,0,-1.6028656,1.2646066,-0.57277644,0.62141955,-0.34138706,1.0275651,-2.7466724,1.3519131,-1.5592853,-0.19334908,-0.017651351,0.028317606,1.1527046,0.86819327
0.1,0.0,1.1999999999999997,-0.5235987755982988,0.0,0,-1.6038426,1.2642694,-0.5731907,0.6217466,-0.347249,1.0279784,-2.7469902,1.1317353,-1.6142902,-0.22493102,-0.067468815,0.050082806,1.0768658,-0.10928637
0.1,0.0,1.1999999999999997,-0.5235987755982988,0.0,0,-1.60284,1.2669946,-0.5726778,0.6207307,-0.34673434,1.0245892,-2.7194917,1.1225463,-1.5958977,0.09409983,-0.03503906,0.17246796,1.1750995,0.41974843
0.1,0.0,1.1999999999999997,-0.5235987755982988,0.0,0,-1.6026993,1.2639247,-0.57174087,0.6200267,-0.34604394,1.0271776,-2.7304254,1.4380934,-1.6452869,-0.12998423,-0.05710078,-0.1589887,1.1531727,0.5438812
0.1,0.0,1.1999999999999997,-0.5235987755982988,0.0,0,-1.6052196,1.2638022,-0.5733274,0.6209002,-0.3476692,1.0281101,-2.7501185,1.0513014,-1.5230443,-0.3639203,-0.008504294,-0.08334212,1.1181288,0.058193173
0.1,0.0,1.1999999999999997,-0.5235987755982988,0.0,0,-1.6050813,1.2641618,-0.571813,0.6212603,-0.3466309,1.0276837,-2.7531695,1.053003,-1.6404122,0.16553931,-0.04665124,-0.22008204,1.0904278,0.99739414
0.1,0.0,1.1999999999999997,-0.5235987755982988,0.0,0,-1.6035553,1.2641323,-0.5713407,0.62198097,-0.3514946,1.0268347,-2.7266917,1.2284471,-1.60121,-0.1393912,-0.1182407,-0.12723805,1.1288557,0.7585369
0.1,0.0,1.1999999999999997,-0.5235987755982988,0.0,0,-1.6025636,1.2655379,-0.5683362,0.62159395,-0.3491587,1.0272832,-2.7127922,1.2534862,-1.6691054,0.645481,-0.021562677,0.06442814,1.2337754,0.98256737
0.1,0.0,1.1999999999999997,-0.5235987755982988,0.0,0,-1.6059221,1.2635478,-0.57290757,0.6211341,-0.34717965,1.0284154,-2.7548444,1.2281961,-1.6228281,-0.11485263,-0.021547636,-0.021179734,1.117528,0.43266273
0.1,0.0,1.1999999999999997,-0.5235987755982988,0.0,0,-1.6047823,1.2673007,-0.5708063,0.6202031,-0.34596577,1.0283506,-2.7163124,1.2334514,-1.6919018,0.39310256,-0.19837584,0.08017755,1.0478323,0.4728249
0.1,0.0,1.1999999999999997,-0.5235987755982988,0.0,0,-1.6043956,1.2647991,-0.5716059,0.62127334,-0.3463334,1.0260482,-2.7431822,1.2356489,-1.760514,-0.20944361,-0.0034327242,-0.17891523,1.0751613,0.7245951
0.1,0.0,1.1999999999999997,-0.5235987755982988,0.0,0,-1.6060802,1.266014,-0.5699359,0.6218948,-0.33784887,1.0279784,-2.730498,1.1569061,-1.6097709,0.092600286,-0.11515319,-0.17942484,1.1915946,1.6286051
0.1,0.0,1.1999999999999997,-0.5235987755982988,0.0,0,-1.6036143,1.2650609,-0.5719439,0.6202284,-0.34297124,1.0282669,-2.7352955,1.2929784,-1.6487782,-0.19251883,-0.06651017,-0.23421502,1.1105102,0.48745707
0.1,0.0,1.1999999999999997,-0.5235987755982988,0.0,0,-1.6047608,1.2650007,-0.5715141,0.6205317,-0.34326366,1.0278587,-2.7406573,1.3070905,-1.6327411,-0.0673159,-0.058156718,0.023374619,1.1815013,1.5265878
0.1,0.0,1.1999999999999997,-0.5235987755982988,0.0,0,-1.6037638,1.264308,-0.5745589,0.62228006,-0.34216723,1.0280752,-2.7609959,1.3609576,-1.4726974,0.29629394,-0.02506035,-0.32054746,1.0086539,0.4998531
0.1,0.0,1.1999999999999997,-0.5235987755982988,0.0,0,-1.6032429,1.2646536,-0.5732113,0.6200805,-0.3435615,1.0285783,-2.7289588,1.0549546,-1.5500429,-0.08686546,-0.029951254,-0.10196972,1.1511358,0.96428293
0.1,0.0,1.1999999999999997,-0.5235987755982988,0.0,0,-1.6045558,1.2637205,-0.57204366,0.62023455,-0.34873176,1.0283897,-2.7496054,1.3847157,-1.606002,0.38485554,-0.041507177,-0.18752447,1.3385204,0.8108335
0.1,0.0,1.1999999999999997,-0.5235987755982988,0.0,0,-1.6040834,1.2645901,-0.5733608,0.620788,-0.34696475,1.0281304,-2.7607744,0.9793084,-1.5937307,0.4247604,0.0023702753,-0.23732962,1.088916,0.40926418
0.1,0.0,1.1999999999999997,-0.5235987755982988,0.0,0,-1.6025919,1.2657713,-0.57304764,0.62150496,-0.34160566,1.0273283,-2.7449424,1.3399302,-1.5242772,0.27135772,-0.017314909,-0.013082075,1.0655411,0.84494466
0.1,0.0,1.1999999999999997,-0.5235987755982988,0.0,0,-1.6041071,1.2653233,-0.5704445,0.6209473,-0.34457326,1.0290098,-2.733424,1.2005382,-1.6022911,0.18418065,-0.0025665583,0.013373816,1.0511802,0.80597126
0.1,0.0,1.1999999999999997,-0.5235987755982988,0.0,0,-1.6054819,1.2656621,-0.57191515,0.62168586,-0.34694386,1.0269489,-2.71977,1.2881433,-1.6145604,-0.14012861,-0.058527093,-0.061425164,1.0432001,0.8185764
0.1,0.0,1.1999999999999997,-0.5235987755982988,0.0,0,-1.6050842,1.2651776,-0.57111603,0.62031454,-0.34512025,1.027705,-2.7349226,1.2404715,-1.7152704,0.43594533,-0.074257374,0.21022171,1.0748857,0.18276198
0.1,0.0,1.1999999999999997,-0.5235987755982988,0.0,0,-1.6038039,1.2654213,-0.57178175,0.6196898,-0.34707755,1.0286461,-2.749812,1.1826587,-1.729411,0.040279824,-0.048912298,-0.055622622,1.1540582,0.080597244
0.1,0.0,1.1999999999999997,-0.5235987755982988,0.0,0,-1.6043065,1.2632469,-0.5718633,0.6206632,-0.34770197,1.0263706,-2.7149992,1.1118217,-1.5460404,0.3899195,-0.057378076,-0.084491715,1.1827179,-0.07177848
0.1,0.0,1.1999999999999997,-0.5235987755982988,0.0,0,-1.6031203,1.2651799,-0.5711718,0.62058717,-0.349358,1.027956,-2.7371554,1.1545992,-1.6213284,0.1858148,-0.0357567,0.0512181,1.1549981,0.21023546
0.1,0.0,1.1999999999999997,-0.5235987755982988,0.0,0,-1.6050771,1.2659761,-0.57233804,0.6204143,-0.34659415,1.0273066,-2.717404,1.2434934,-1.5365441,0.18950413,-0.010855922,-0.117490724,1.1085765,-0.27214307
0.1,0.0,1.1999999999999997,-0.5235987755982988,0.0,0,-1.60566,1.2645729,-0.569766,0.6217799,-0.3445734,1.0281206,-2.7411344,0.9278681,-1.7269917,-0.2296773,-0.064685255,0.0008577526,1.2413688,1.1753488
0.1,0.0,1.1999999999999997,-0.5235987755982988,0.0,0,-1.6041716,1.2643052,-0.57274824,0.62034696,-0.3489702,1.0271757,-2.734082,1.111658,-1.6191612,0.056845173,0.0011976738,-0.13475479,1.1181545,0.58023655
0.1,0.0,1.1999999999999997,-0.5235987755982988,0.0,0,-1.6036427,1.2646546,-0.5718306,0.6206551,-0.34359065,1.0273602,-2.7181845,1.1753116,-1.6189761,-0.15122665,-0.013541367,-0.07562447,1.1450304,1.2112827
0.1,0.0,1.1999999999999997,-0.5235987755982988,0.0,0,-1.6033667,1.2646601,-0.57163507,0.6210147,-0.35350096,1.0278252,-2.7263677,1.2895195,-1.5881906,0.07348215,-0.05842301,-0.11019321,1.0397372,1.0184872
0.1,0.0,1.1999999999999997,-0.5235987755982988,0.0,0,-1.604914,1.2659339,-0.5692231,0.62033623,-0.3490251,1.0276674,-2.7082188,1.2746571,-1.6764617,-0.16521424,-0.043138675,0.034892328,1.173541,0.58874315
0.1,0.0,1.1999999999999997,-0.5235987755982988,0.0,0,-1.6027306,1.2660273,-0.57115924,0.61997056,-0.34533444,1.0299815,-2.7379224,1.3847971,-1.651001,0.28395024,-0.02286543,-0.28469375,1.0704734,0.72729665
0.1,0.0,1.1999999999999997,-0.5235987755982988,0.0,0,-1.6027691,1.2667032,-0.57182705,0.6216616,-0.3472278,1.0273466,-2.7343016,1.186781,-1.7863,0.15535252,0.06636755,0.014182865,1.1989493,0.7949993
0.1,0.0,1.1999999999999997,-0.5235987755982988,0.0,0,-1.6043578,1.2642367,-0.5723505,0.6202632,-0.34900054,1.0270252,-2.7199054,1.2325896,-1.6368163,0.107422695,0.021759735,-0.2176086,1.024863,1.8183732
0.1,0.0,1.1999999999999997,-0.5235987755982988,0.0,0,-1.6031474,1.2644871,-0.5733792,0.6211465,-0.34214586,1.0289104,-2.7676425,1.0975665,-1.6436267,-0.10650697,-0.109188765,-0.16562384,1.0213464,0.36867213
0.1,0.0,1.1999999999999997,-0.5235987755982988,0.0,0,-1.6032039,1.2647499,-0.5709797,0.6209465,-0.3473051,1.0272734,-2.7323914,1.4766735,-1.7695965,-0.14725198,-0.083393075,-0.10623986,1.1699469,-0.02588085
0.1,0.0,1.1999999999999997,-0.5235987755982988,0.0,0,-1.6046677,1.2649584,-0.5724679,0.6208752,-0.3492105,1.02827,-2.7418892,1.2308588,-1.5372715,-0.15266253,0.008314848,-0.109455496,1.1764274,0.32059813
0.1,0.0,1.1999999999999997,-0.5235987755982988,0.0,0,-1.6043853,1.2646104,-0.57169724,0.6215967,-0.34596455,1.0274767,-2.7177713,0.9855865,-1.5966599,0.12598777,-0.054168433,-0.021690778,1.2575382,0.8702409
0.1,0.0,1.1999999999999997,-0.5235987755982988,0.0,0,-1.6043489,1.2664095,-0.572125,0.62061995,-0.34662056,1.0280027,-2.7250257,1.2562191,-1.7016786,0.23776582,-0.08609134,-0.08993784,1.0482213,0.7101119
0.1,0.0,1.1999999999999997,-0.5235987755982988,0.0,0,-1.6043944,1.2660364,-0.5716784,0.62134784,-0.3495932,1.0272427,-2.738012,1.19549,-1.709353,-0.12086986,-0.0032556655,-0.07136732,1.15067,-0.088547125
0.1,0.0,1.1999999999999997,-0.5235987755982988,0.0,0,-1.6053057,1.2636546,-0.5709462,0.6215639,-0.34528768,1.0281652,-2.7489676,1.2667916,-1.6529047,-0.0742531,-0.03538812,-0.042224936,1.1125025,0.8270286
0.1,0.0,1.1999999999999997,-0.5235987755982988,0.0,0,-1.6035336,1.265828,-0.57000095,0.6211145,-0.33688548,1.0276953,-2.7217991,1.1598045,-1.61759,0.15437974,-0.039459143,0.0964105,1.0504409,0.26346254
0.1,0.0,1.1999999999999997,-0.5235987755982988,0.0,0,-1.6036488,1.2650846,-0.5710615,0.6207864,-0.35150898,1.0290905,-2.7392588,1.2393715,-1.6305391,0.05945256,-0.034567606,-0.16433819,1.2603611,0.17617519
0.1,0.0,1.1999999999999997,-0.5235987755982988,0.0,0,-1.602858,1.2639533,-0.5704786,0.62055063,-0.34810445,1.0290703,-2.6971161,1.2678382,-1.5804396,0.20487608,-0.044980388,-0.14602008,1.1106582,0.376805
0.1,0.0,1.1999999999999997,-0.5235987755982988,0.0,0,-1.6030706,1.2642943,-0.5741487,0.6215457,-0.34752643,1.0266767,-2.7375681,1.1744233,-1.6018461,0.10375537,-0.07419334,-0.1873949,1.2599403,0.46506187
0.1,0.0,1.1999999999999997,-0.5235987755982988,0.0,0,-1.6052309,1.2639122,-0.5713034,0.6203768,-0.3492945,1.0291656,-2.7421334,1.2263429,-1.6724695,0.48833266,-0.011031549,0.05110077,1.2182891,1.0382328
0.1,0.0,1.1999999999999997,-0.5235987755982988,0.0,0,-1.6013287,1.2643052,-0.5711409,0.6212052,-0.35076207,1.0278229,-2.7032373,1.0712869,-1.5779892,-0.4067955,-0.12316608,-0.09567093,1.1729805,0.21845628
0.1,0.0,1.1999999999999997,-0.5235987755982988,0.0,0,-1.6034749,1.2635715,-0.57224154,0.62159616,-0.35202923,1.0261837,-2.7245698,1.1398288,-1.657152,0.06489219,-0.12174364,-0.067478485,1.1523482,0.011196115
0.1,0.0,1.1999999999999997,-0.5235987755982988,0.0,0,-1.6050127,1.2658333,-0.57272774,0.62131226,-0.34747335,1.0262653,-2.7115421,1.092948,-1.723708,0.2174032,-0.056877084,-0.30673757,1.1756442,0.8149285
0.1,0.0,1.1999999999999997,-0.5235987755982988,0.0,0,-1.6031529,1.2628008,-0.5721396,0.6206481,-0.3512389,1.0266883,-2.6990051,1.0038593,-1.6417333,0.2588856,-0.04113582,0.17020778,1.1815369,0.27343696
0.1,0.0,1.1999999999999997,-0.5235987755982988,0.0,0,-1.6025721,1.265178,-0.5734178,0.62174064,-0.34827727,1.029744,-2.7476153,1.1996169,-1.6116056,0.4063616,-0.09718733,-0.048890445,1.1607051,0.65314764
0.1,0.0,1.1999999999999997,-0.5235987755982988,0.0,0,-1.6050285,1.2658541,-0.5721932,0.6208304,-0.34543598,1.0281537,-2.7465088,1.2231202,-1.5820535,0.07367761,0.020249272,-0.10934868,0.946129,0.5328895
0.1,0.0,1.1999999999999997,-0.5235987755982988,0.0,0,-1.601504,1.2643559,-0.5713352,0.6202126,-0.34284455,1.0272818,-2.7980714,1.1736715,-1.7034577,0.070597395,-0.030688873,-0.26816675,1.0901197,0.95073926
0.1,0.0,1.1999999999999997,-0.5235987755982988,0.0,0,-1.6036049,1.2627276,-0.5718602,0.61977965,-0.3439915,1.0277512,-2.7738893,1.1853442,-1.6679356,-0.17600238,-0.0022701,-0.08352339,1.1155303,0.41884238
0.1,0.0,1.1999999999999997,-0.5235987755982988,0.0,0,-1.6057659,1.264098,-0.5718297,0.6209167,-0.34449968,1.0269554,-2.7739484,1.1790444,-1.5432135,0.13410477,-0.077897005,-0.081365146,1.1677655,-0.19685847
0.1,0.0,1.1999999999999997,-0.5235987755982988,0.0,0,-1.6036253,1.2639449,-0.57046616,0.62154937,-0.3398427,1.0276276,-2.7377458,1.242755,-1.6106162,0.1637837,-0.05944715,-0.094215184,1.0208842,0.9462771
0.1,0.0,1.1999999999999997,-0.5235987755982988,0.0,0,-1.6048731,1.2653668,-0.5706625,0.6201804,-0.3438574,1.02708,-2.7578373,1.4353288,-1.7591804,0.04260703,-0.0931809,0.004657084,1.0952255,1.0277352
0.1,0.0,1.1999999999999997,-0.5235987755982988,0.0,0,-1.6039456,1.2644044,-0.5717865,0.62048686,-0.34771124,1.028268,-2.7327373,1.2595588,-1.5913908,0.01651508,0.023206357,0.022629803,0.97124845,1.0431718
0.1,0.0,1.1999999999999997,-0.5235987755982988,0.0,0,-1.6031199,1.2633402,-0.57035595,0.62150854,-0.34448218,1.0264401,-2.7625492,1.4300524,-1.6840905,0.06219323,-0.041885663,-0.30171064,1.0002106,0.46861747
0.1,0.0,1.1999999999999997,-0.5235987755982988,0.0,0,-1.604254,1.2629732,-0.5709445,0.6203663,-0.3490774,1.0284058,-2.732472,1.2979099,-1.4950776,-0.038620606,-0.07883518,-0.2747493,1.2900668,0.19902197
0.1,0.0,1.1999999999999997,-0.5235987755982988,0.0,0,-1.60482,1.2643018,-0.5679756,0.6199173,-0.34303415,1.0291889,-2.7400367,1.0160118,-1.6615856,0.29950678,-0.047676444,-0.04844076,1.0652084,0.6318312
0.1,0.0,1.1999999999999997,-0.5235987755982988,0.0,0,-1.6028644,1.2626029,-0.5702803,0.62145585,-0.34913045,1.0272034,-2.7196064,1.1205455,-1.7044647,-0.021948196,0.074226454,-0.024356786,1.2641742,0.9392622
0.1,0.0,1.1999999999999997,-0.5235987755982988,0.0,0,-1.6044904,1.2652925,-0.5727632,0.6215817,-0.33632246,1.0286081,-2.7538147,1.3474764,-1.6177708,-0.30441412,-0.09754916,-0.07156357,1.0346849,0.18697323
0.1,0.0,1.1999999999999997,-0.5235987755982988,0.0,0,-1.605938,1.2623528,-0.57304513,0.62175953,-0.345259,1.0257027,-2.7723212,0.97939223,-1.6213459,0.21928184,-0.07141339,0.018482514,1.1262537,0.14716277
0.1,0.0,1.1999999999999997,-0.5235987755982988,0.0,0,-1.6042248,1.2658789,-0.57206887,0.6205975,-0.3438939,1.0278585,-2.751326,1.1331675,-1.628773,-0.066747546,-0.017719926,-0.26934725,1.1349239,0.60067743
0.1,0.0,1.1999999999999997,-0.5235987755982988,0.0,0,-1.6018153,1.2649345,-0.57255715,0.6204992,-0.34084597,1.0295457,-2.7406528,1.1318771,-1.6619086,-0.068822145,-0.0073447805,-0.0012079857,1.1645561,-0.727972
0.1,0.0,1.1999999999999997,-0.5235987755982988,0.0,0,-1.6056415,1.2629589,-0.5704778,0.62039185,-0.34583157,1.0248532,-2.7301385,1.2323225,-1.7129666,0.031742,-0.041381594,-0.07462761,1.13774,0.45686844
0.1,0.0,1.1999999999999997,-0.5235987755982988,0.0,0,-1.6028434,1.2632285,-0.571122,0.62243146,-0.35085166,1.0277635,-2.7507331,0.9550966,-1.6998063,0.3787545,-0.12836428,0.04526078,0.9732919,0.7761118
0.1,0.0,1.1999999999999997,-0.5235987755982988,0.0,0,-1.6043895,1.2629747,-0.5702959,0.622108,-0.34222797,1.0288644,-2.7391121,0.98605883,-1.623665,0.1898682,-0.026800543,0.16553165,1.2176688,0.32084307
0.1,0.0,1.1999999999999997,-0.5235987755982988,0.0,0,-1.6060399,1.260977,-0.56963444,0.6211794,-0.34177598,1.0277642,-2.7426832,1.5432391,-1.657569,-0.21926719,-0.003707868,-0.12561788,1.1930705,0.8281655
0.1,0.0,1.1999999999999997,-0.5235987755982988,0.0,0,-1.6049453,1.2646993,-0.5713052,0.6218655,-0.3500772,1.027473,-2.746042,1.01818,-1.6769812,-0.034274317,-0.012447069,-0.123155214,1.0209135,-0.30358872
0.1,0.0,1.1999999999999997,-0.5235987755982988,0.0,0,-1.6045936,1.2649419,-0.5724084,0.6222319,-0.34217528,1.0266658,-2.7315297,1.2486504,-1.6582696,-0.08664287,-0.08271604,-0.043381646,1.1629477,0.2016457
0.1,0.0,1.1999999999999997,-0.5235987755982988,0.0,0,-1.6038074,1.2624538,-0.57235116,0.6216365,-0.33871472,1.0288559,-2.7407317,1.0990989,-1.679302,-0.34859702,-0.0060670786,-0.20580454,1.1746573,0.6435417
0.1,0.0,1.1999999999999997,-0.5235987755982988,0.0,0,-1.604284,1.2642957,-0.5735014,0.6204541,-0.33790326,1.0288457,-2.716267,1.2498249,-1.7424086,0.46348447,-0.042733897,0.023501936,1.1441506,0.26490435
0.1,0.0,1.1999999999999997,-0.5235987755982988,0.0,0,-1.6025639,1.2655115,-0.5741058,0.6213924,-0.3455469,1.0267571,-2.7388537,1.2175007,-1.7122148,0.18163908,-0.102070756,0.18529834,1.1712296,0.527134
0.1,0.0,1.1999999999999997,-0.5235987755982988,0.0,0,-1.6034403,1.264679,-0.57024944,0.6197882,-0.3404744,1.0294695,-2.717653,1.3073276,-1.612482,0.1577656,-0.044966668,-0.33441287,1.2333229,0.32099444
0.1,0.0,1.1999999999999997,-0.5235987755982988,0.0,0,-1.6039859,1.2652553,-0.5709111,0.6207591,-0.3504466,1.0291997,-2.7468314,1.1999702,-1.7711611,0.33227566,-0.070725255,-0.18854354,1.0955143,0.19698274
0.1,0.0,1.1999999999999997,-0.5235987755982988,0.0,0,-1.6036303,1.2634165,-0.5686696,0.62130004,-0.34689158,1.0273511,-2.7502773,1.1188142,-1.6230354,0.1496411,-0.040797915,0.02105544,1.1599042,-0.46047035
0.1,0.0,1.1999999999999997,-0.5235987755982988,0.0,0,-1.6048019,1.2637314,-0.5717805,0.62077194,-0.34522873,1.0252064,-2.7408385,1.1397908,-1.7432094,0.58852416,-0.014335421,0.06424434,1.0390079,0.6101677
0.1,0.0,1.1999999999999997,-0.5235987755982988,0.0,0,-1.6038529,1.2655185,-0.5713997,0.62011576,-0.34840408,1.02861,-2.7495134,1.2774562,-1.7006171,0.010899369,-0.022936162,-0.11472386,1.0213463,0.9587704
0.1,0.0,1.1999999999999997,-0.5235987755982988,0.0,0,-1.6053666,1.2655104,-0.57083946,0.62054366,-0.3467255,1.028938,-2.7479188,1.2671345,-1.6571288,0.021760719,-0.08886077,-0.16808176,1.1851081,1.0734296
0.1,0.0,1.1999999999999997,-0.5235987755982988,0.0,0,-1.6049414,1.2644426,-0.5714841,0.6209441,-0.34599373,1.0278839,-2.7616394,1.2957668,-1.6297303,-0.2774393,0.003247043,0.0727388,1.1340493,0.14535753
0.1,0.0,1.1999999999999997,-0.5235987755982988,0.0,0,-1.6029304,1.2644972,-0.5722893,0.6208908,-0.34731796,1.0268468,-2.750835,1.2892185,-1.6573246,-0.07584048,-0.08875491,-0.16846256,1.0558499,0.40513992
0.1,0.0,1.1999999999999997,-0.5235987755982988,0.0,0,-1.6042655,1.2651384,-0.5699583,0.6199846,-0.34757754,1.0285076,-2.7298083,1.1218134,-1.6883365,0.053390797,-0.023449296,0.040432595,1.1857575,0.28886804
0.1,0.0,1.1999999999999997,-0.5235987755982988,0.0,0,-1.6036148,1.2642245,-0.5700828,0.6212144,-0.34730202,1.0283145,-2.7244358,1.3741924,-1.6668961,0.5906824,-0.0776361,-0.16333295,1.1737788,0.43748155
0.1,0.0,1.1999999999999997,-0.5235987755982988,0.0,0,-1.6032132,1.2642125,-0.5712,0.6210263,-0.3482868,1.027095,-2.7349124,1.3674697,-1.6077961,-0.17702805,-0.03693793,-0.018411288,1.1013439,-0.333493
0.1,0.0,1.1999999999999997,-0.5235987755982988,0.0,0,-1.603409,1.2644796,-0.57194066,0.62064624,-0.34866753,1.0269215,-2.7393885,1.5355428,-1.648275,0.14968997,-0.031272706,-0.00924565,1.0324242,0.7267691
0.1,0.0,1.1999999999999997,-0.5235987755982988,0.0,0,-1.6028712,1.2628051,-0.5700964,0.6213158,-0.34840202,1.02854,-2.751552,1.173118,-1.5256124,0.28467563,-0.06274748,-0.10550197,1.1709499,-0.19416961
0.1,0.0,1.1999999999999997,-0.5235987755982988,0.0,0,-1.604809,1.2652862,-0.57111377,0.62124056,-0.3438798,1.0297341,-2.7583408,1.2271396,-1.5224948,0.23393348,-0.08698904,0.09350553,1.0069243,0.35436335
0.1,0.0,1.1999999999999997,-0.5235987755982988,0.0,0,-1.6047788,1.2659361,-0.5718833,0.620591,-0.3464069,1.0266342,-2.724847,1.3737102,-1.6214422,0.17182809,-0.07188726,-0.122651935,1.1744667,0.5638302
0.1,0.0,1.1999999999999997,-0.5235987755982988,0.0,0,-1.6035054,1.2639164,-0.57001305,0.6219906,-0.34648034,1.0282304,-2.7561495,1.1450448,-1.7141135,-0.08733037,-0.07495841,-0.18463108,0.9743951,0.3971703
0.1,0.0,1.1999999999999997,-0.5235987755982988,0.0,0,-1.6042569,1.2649038,-0.57498926,0.6197624,-0.34770426,1.0274953,-2.7505085,1.141665,-1.5342299,-0.09772286,-0.08846078,0.0003684065,1.2327634,0.5191319
0.1,0.0,1.1999999999999997,-0.5235987755982988,0.0,0,-1.6035556,1.2620183,-0.57104516,0.62060267,-0.35251626,1.0285882,-2.7406712,1.2949971,-1.6159574,0.4177125,0.004503772,0.021578288,1.1331083,-0.17753291
0.1,0.0,1.1999999999999997,-0.5235987755982988,0.0,0,-1.6044949,1.2642943,-0.57154226,0.62111115,-0.34951517,1.0276647,-2.739041,1.2413657,-1.5862994,0.583636,-0.037149813,-0.057191424,1.1156822,0.829189
0.1,0.0,1.1999999999999997,-0.5235987755982988,0.0,0,-1.6032858,1.2649784,-0.57156724,0.6217679,-0.3394735,1.0275855,-2.743014,1.0037953,-1.659432,0.02983465,-0.042657323,-0.05403168,1.0532144,0.6917558
0.1,0.0,1.1999999999999997,-0.5235987755982988,0.0,0,-1.6050174,1.26705,-0.5736063,0.62096393,-0.35026506,1.0269717,-2.7455058,1.366752,-1.6949737,0.08353911,-0.1569789,0.027735433,1.1826077,1.1780595
0.1,0.0,1.1999999999999997,-0.5235987755982988,0.0,0,-1.6048213,1.26461,-0.5727808,0.621477,-0.3456025,1.0276577,-2.7434316,1.3495675,-1.6918601,-0.08033116,-0.006552125,-0.0013107336,1.2417575,0.3629922
0.1,0.0,1.1999999999999997,-0.5235987755982988,0.0,0,-1.6037034,1.2650591,-0.5697092,0.62170154,-0.35095808,1.0298294,-2.7094421,1.3107302,-1.5792723,0.1495291,-0.071276136,0.029070036,1.1551127,0.2574668
0.1,0.0,1.1999999999999997,-0.5235987755982988,0.0,0,-1.6058124,1.2665671,-0.5710074,0.62011516,-0.34662357,1.0293736,-2.7681248,1.1087018,-1.5853345,0.400692,-0.112812966,-0.3321659,1.0687613,0.7776752
0.1,0.0,1.1999999999999997,-0.5235987755982988,0.0,0,-1.6007625,1.2637148,-0.5710579,0.6211571,-0.34909943,1.026367,-2.7626338,1.2832127,-1.6785696,0.46425068,-0.056327023,0.06383541,1.0959429,0.8850532
0.1,0.0,1.1999999999999997,-0.5235987755982988,0.0,0,-1.6036656,1.2662225,-0.5686471,0.62018996,-0.3469518,1.027421,-2.7501976,1.1785554,-1.795349,-0.0635286,-0.031122595,-0.09484746,1.186039,0.8696018
0.1,0.0,1.1999999999999997,-0.5235987755982988,0.0,0,-1.6034671,1.2650546,-0.5712875,0.61999506,-0.3459211,1.0296421,-2.7307835,1.3577572,-1.6786653,0.25924852,-0.033320308,-0.16530599,1.1906859,1.0100075
0.1,0.0,1.1999999999999997,-0.5235987755982988,0.0,0,-1.6039344,1.2640992,-0.57185143,0.6203734,-0.3515335,1.0261589,-2.733968,1.2405167,-1.6585536,0.05601973,0.03160726,-0.15092318,1.1567844,-0.45567587
0.1,0.0,1.1999999999999997,-0.5235987755982988,0.0,0,-1.6034098,1.2646207,-0.5719559,0.62099177,-0.34676304,1.0277338,-2.7300265,1.1519313,-1.6416596,-0.37474382,-0.02618484,-0.033765025,1.076075,0.055616267
0.1,0.0,1.1999999999999997,-0.5235987755982988,0.0,0,-1.6030418,1.2628055,-0.5694534,0.62162125,-0.34608462,1.0275,-2.7390327,1.0597262,-1.7378621,-0.23403366,-0.05176021,-0.085093096,1.1643487,-0.3599518
0.1,0.0,1.1999999999999997,-0.5235987755982988,0.0,0,-1.6040438,1.2646203,-0.5710333,0.6223505,-0.33882445,1.027586,-2.7659078,1.1572886,-1.5635258,0.22678444,-0.028845748,-0.24728474,1.0834103,-0.010852294
0.1,0.0,1.1999999999999997,-0.5235987755982988,0.0,0,-1.6025863,1.2665157,-0.57024616,0.62111235,-0.34083596,1.0292015,-2.7154388,1.1863424,-1.6311445,-0.20608497,-0.033645142,-0.4737467,1.1281713,0.45702216
0.1,0.0,1.1999999999999997,-0.5235987755982988,0.0,0,-1.6062502,1.2661308,-0.571642,0.6207801,-0.34383914,1.027643,-2.7276905,1.0960329,-1.6298075,-0.058487087,-0.110365525,2.9878363e-05,1.114867,1.2424722
0.1,0.0,1.1999999999999997,-0.5235987755982988,0.0,0,-1.6021873,1.2636715,-0.57281804,0.6192844,-0.34691557,1.0292071,-2.721711,1.0946642,-1.6585349,0.14705323,-0.05273888,-0.14973633,1.0947587,0.6754324
0.1,0.0,1.1999999999999997,-0.5235987755982988,0.0,0,-1.6048299,1.2642658,-0.5727903,0.6210713,-0.34618077,1.0293853,-2.7516625,1.1624063,-1.7794805,0.07493867,-0.056027267,-0.39283335,1.1264443,1.0793706
0.1,0.0,1.1999999999999997,-0.5235987755982988,0.0,0,-1.6037025,1.2659458,-0.5729031,0.6192754,-0.34234855,1.0280634,-2.7574065,1.2247458,-1.6716274,0.27609438,-0.10709827,-0.08933515,1.1836727,0.66686416
0.1,0.0,1.1999999999999997,-0.5235987755982988,0.0,0,-1.6053133,1.2654182,-0.5725773,0.6202882,-0.337155,1.0279975,-2.736259,1.301447,-1.8487346,0.08390722,-0.0631433,-0.23515841,1.147831,1.186109
0.1,0.0,1.1999999999999997,-0.5235987755982988,0.0,0,-1.6021992,1.2629771,-0.5727801,0.62055826,-0.3409392,1.0266174,-2.7485094,1.1511176,-1.6352453,-0.09455149,-0.057281833,-0.060746267,1.2230898,1.1209661
0.1,0.0,1.1999999999999997,-0.5235987755982988,0.0,0,-1.6032175,1.2631422,-0.5733904,0.62195843,-0.34426805,1.0279797,-2.7242408,1.2637904,-1.6449014,-0.055576164,-0.083392516,-0.2016202,1.070308,1.114832
0.1,0.0,1.1999999999999997,-0.5235987755982988,0.0,0,-1.6025091,1.2639806,-0.5695675,0.62039316,-0.34643945,1.0285546,-2.7125757,0.9979218,-1.6478939,0.37418056,0.03134597,-0.089498274,1.1195017,0.35009053
