sanky1234/BimanualDexCatch/isaacgymenvs/cem_results/football_pose_-0.1_-0.1_1.1999999999999997_0.0_0.5235987755982988_0_2025-05-25.csv
x,y,z,roll,pitch,yaw,robot1/joint1,robot1/joint2,robot1/joint3,robot1/joint4,robot1/joint5,robot1/joint6,robot1/joint7,robot2/joint1,robot2/joint2,robot2/joint3,robot2/joint4,robot2/joint5,robot2/joint6,robot2/joint7
-0.1,-0.1,1.1999999999999997,0.0,0.5235987755982988,0,-0.6232901,0.54631996,1.3991755,0.70480675,0.7832897,0.6170937,-0.09315703,1.2750256,0.4424498,-0.29704404,0.07094763,-0.32315084,1.4290472,0.1674275
-0.1,-0.1,1.1999999999999997,0.0,0.5235987755982988,0,-0.62428284,0.53541815,1.3981774,0.70566833,0.7739679,0.6245089,-0.09035597,1.2755547,0.43243974,-0.25229964,0.049884103,-0.3687347,1.2658027,-0.4243979
-0.1,-0.1,1.1999999999999997,0.0,0.5235987755982988,0,-0.62409633,0.5386104,1.401572,0.70330757,0.7578297,0.62754494,-0.10555221,1.2752805,0.43947497,-0.16912979,-0.0741713,-0.7285435,1.2351677,-0.39601934
-0.1,-0.1,1.1999999999999997,0.0,0.5235987755982988,0,-0.6282992,0.54375535,1.3986655,0.70629466,0.7795584,0.62537557,-0.100058906,1.2785808,0.43814975,-0.17659047,-0.0073914495,-0.75284046,1.2917343,-0.3311934
-0.1,-0.1,1.1999999999999997,0.0,0.5235987755982988,0,-0.6282483,0.54591846,1.3986808,0.7051996,0.75487363,0.6204238,-0.0998821,1.2764,0.43979502,-0.2853936,-0.04128683,-0.036963396,1.3593283,0.003772863
-0.1,-0.1,1.1999999999999997,0.0,0.5235987755982988,0,-0.6282354,0.54290354,1.3970057,0.70373815,0.7655135,0.6244051,-0.110387,1.285692,0.43733364,0.0977012,0.05638116,-0.4738595,1.2215323,1.5107043
-0.1,-0.1,1.1999999999999997,0.0,0.5235987755982988,0,-0.6255534,0.5462821,1.3975257,0.7064505,0.78044355,0.62117845,-0.10148083,1.2723833,0.4318309,-0.17415424,-0.05656656,-0.3969396,1.300833,0.48584324
-0.1,-0.1,1.1999999999999997,0.0,0.5235987755982988,0,-0.6265246,0.53369105,1.4007865,0.70574397,0.7502166,0.6245701,-0.089752585,1.2858816,0.43175694,-0.020955192,0.05629053,-0.29438615,1.2212532,1.0499614
-0.1,-0.1,1.1999999999999997,0.0,0.5235987755982988,0,-0.626661,0.5345696,1.4001576,0.7044743,0.7639324,0.6253929,-0.105175935,1.2705462,0.43578818,-0.2798819,-0.0015642195,-0.46715137,1.3047626,1.0834906
-0.1,-0.1,1.1999999999999997,0.0,0.5235987755982988,0,-0.62848276,0.5356486,1.399884,0.70528865,0.7584606,0.6266835,-0.102369264,1.2846764,0.43891028,-0.1035023,0.050636485,-0.695493,1.2362365,1.0958668
-0.1,-0.1,1.1999999999999997,0.0,0.5235987755982988,0,-0.62524015,0.53681,1.4003836,0.7061591,0.7693373,0.62713355,-0.115920305,1.2725304,0.4312773,-0.10647757,-0.014759803,-0.45263442,1.2085559,1.0795182
-0.1,-0.1,1.1999999999999997,0.0,0.5235987755982988,0,-0.6274066,0.54054683,1.3974359,0.7031555,0.76622474,0.61964715,-0.11569995,1.2769827,0.4397429,-0.21773103,-0.039596267,-0.35033765,1.3440301,-0.2407261
-0.1,-0.1,1.1999999999999997,0.0,0.5235987755982988,0,-0.6273191,0.532036,1.3958269,0.7048771,0.76349026,0.6176117,-0.08371995,1.2671332,0.43179438,0.16623561,-0.13425052,-1.0598512,1.3155774,0.28409508
-0.1,-0.1,1.1999999999999997,0.0,0.5235987755982988,0,-0.62811285,0.54180807,1.4004712,0.70289916,0.77221584,0.6253345,-0.110218786,1.2719684,0.433875,-0.17123908,-0.07369416,-0.2827994,1.1502599,0.2870806
-0.1,-0.1,1.1999999999999997,0.0,0.5235987755982988,0,-0.62391514,0.5485361,1.3971545,0.7047232,0.76939327,0.6178886,-0.12153335,1.2686784,0.4392127,0.075110845,-0.059090395,-0.7112551,1.2607692,1.3369274
-0.1,-0.1,1.1999999999999997,0.0,0.5235987755982988,0,-0.62540114,0.5476701,1.3971556,0.70711124,0.76402,0.6237381,-0.11293951,1.2679939,0.4405672,-0.30783772,0.032578096,-0.84983647,1.3685544,1.060672
-0.1,-0.1,1.1999999999999997,0.0,0.5235987755982988,0,-0.6269472,0.5479596,1.3970222,0.7036989,0.7638004,0.6269682,-0.10332143,1.2786256,0.43691802,-0.3422591,-0.0067630927,-0.7385986,1.3198867,-0.2672406
-0.1,-0.1,1.1999999999999997,0.0,0.5235987755982988,0,-0.6261379,0.54672164,1.4003855,0.7044713,0.7634058,0.6218657,-0.08360495,1.2776175,0.43900546,-0.2730593,0.039701167,-0.38615608,1.4033142,-0.11533855
-0.1,-0.1,1.1999999999999997,0.0,0.5235987755982988,0,-0.62450665,0.5472978,1.3965358,0.7028176,0.7634553,0.6186063,-0.10919375,1.2800508,0.4351357,-0.21399996,0.02290141,-0.012436712,1.3928213,-0.5152366
-0.1,-0.1,1.1999999999999997,0.0,0.5235987755982988,0,-0.62576365,0.54650867,1.4000757,0.7041924,0.7615673,0.6265923,-0.114248164,1.2640792,0.43583024,-0.24036875,0.049600076,-0.47175157,1.2737883,-0.4443208
-0.1,-0.1,1.1999999999999997,0.0,0.5235987755982988,0,-0.62764275,0.5310994,1.399987,0.7028238,0.7467199,0.62632,-0.10989744,1.2684884,0.42520016,-0.15658912,0.06874119,-0.35747772,1.4390098,1.31219
-0.1,-0.1,1.1999999999999997,0.0,0.5235987755982988,0,-0.6283591,0.53876275,1.3978376,0.7053583,0.76981395,0.6306116,-0.1108434,1.2797534,0.43536785,-0.10588073,0.0668739,-0.5558869,1.3205523,0.30918565
-0.1,-0.1,1.1999999999999997,0.0,0.5235987755982988,0,-0.62473524,0.54424775,1.3966144,0.7022057,0.76428044,0.62874895,-0.083168834,1.2731061,0.43321493,-0.054177716,-0.07277308,-0.36767024,1.1694553,0.16501197
-0.1,-0.1,1.1999999999999997,0.0,0.5235987755982988,0,-0.6265208,0.5484723,1.4010478,0.70580256,0.76466095,0.624493,-0.1151423,1.272529,0.43090445,-0.36921552,0.17781313,-0.5300361,1.2205774,1.0535586
-0.1,-0.1,1.1999999999999997,0.0,0.5235987755982988,0,-0.62510246,0.53779036,1.3994554,0.70401555,0.7587342,0.6250736,-0.11888779,1.2803767,0.43630308,-0.09966593,0.030146975,-0.84475684,1.1475316,-0.011885246
-0.1,-0.1,1.1999999999999997,0.0,0.5235987755982988,0,-0.62267405,0.53914464,1.4005178,0.70547634,0.7521023,0.62384635,-0.09896917,1.2760391,0.43429747,-0.2864832,0.035965387,-0.6175086,1.2083861,1.2895913
-0.1,-0.1,1.1999999999999997,0.0,0.5235987755982988,0,-0.6250634,0.54525423,1.4008089,0.7052603,0.7580278,0.62760687,-0.10670645,1.271377,0.43966943,-0.41313776,-0.049247265,-0.09272447,1.3618437,0.81583434
-0.1,-0.1,1.1999999999999997,0.0,0.5235987755982988,0,-0.6274341,0.55080914,1.3954425,0.7042663,0.75978386,0.6246553,-0.098357365,1.272134,0.43675235,-0.50595856,-0.11893665,-0.7144586,1.4156371,1.1817083
-0.1,-0.1,1.1999999999999997,0.0,0.5235987755982988,0,-0.6229896,0.5331461,1.3984702,0.70351833,0.76539034,0.62731004,-0.107216395,1.2810664,0.44307244,0.10951168,-0.059209403,-0.28330162,1.1905771,0.6776505
-0.1,-0.1,1.1999999999999997,0.0,0.5235987755982988,0,-0.6254549,0.5266757,1.3995085,0.7031267,0.7618048,0.6241269,-0.11181391,1.2841474,0.43656814,0.0031628471,0.068772264,-0.6058451,1.427431,1.3639301
-0.1,-0.1,1.1999999999999997,0.0,0.5235987755982988,0,-0.6274598,0.55324465,1.3983208,0.70460486,0.7590933,0.623756,-0.09756155,1.2772856,0.43279263,-0.09137321,0.03303471,-0.82138085,1.3785479,0.04833021
-0.1,-0.1,1.1999999999999997,0.0,0.5235987755982988,0,-0.62535816,0.5406977,1.4003268,0.7035953,0.7679916,0.6233614,-0.105867,1.2855268,0.43691325,-0.08947239,0.052308403,-0.5937355,1.2675847,0.017970875
-0.1,-0.1,1.1999999999999997,0.0,0.5235987755982988,0,-0.627557,0.5469699,1.3992947,0.70447576,0.7622183,0.61944795,-0.1036358,1.2709883,0.4341271,-0.1861962,0.058617268,-0.7234042,1.2631994,-0.036973402
-0.1,-0.1,1.1999999999999997,0.0,0.5235987755982988,0,-0.6268711,0.5321372,1.399922,0.7049623,0.7687773,0.62597466,-0.1155155,1.2859572,0.43199772,-0.21987379,-0.029909635,-1.0177991,1.374106,-0.14721265
-0.1,-0.1,1.1999999999999997,0.0,0.5235987755982988,0,-0.62486494,0.53655314,1.3965449,0.7049238,0.77032644,0.61796665,-0.10496811,1.2825695,0.4332818,-0.19536981,-0.015417039,-0.5262553,1.2935531,-0.048778884
-0.1,-0.1,1.1999999999999997,0.0,0.5235987755982988,0,-0.6305788,0.53021246,1.3995258,0.7044617,0.77154344,0.62638384,-0.107522465,1.2657511,0.43360248,-0.13073103,-0.02935904,-0.9309609,1.1016829,1.0760311
-0.1,-0.1,1.1999999999999997,0.0,0.5235987755982988,0,-0.6243795,0.5440346,1.3999707,0.70520306,0.7601342,0.621878,-0.11045102,1.269507,0.43468282,-0.10300209,0.0109615065,-0.40023458,1.123546,0.24145395
-0.1,-0.1,1.1999999999999997,0.0,0.5235987755982988,0,-0.62193424,0.54602367,1.4004213,0.7042489,0.760452,0.62014157,-0.09737686,1.2703869,0.4355583,-0.26340804,-0.011070384,-0.3763563,1.1839869,0.5674953
-0.1,-0.1,1.1999999999999997,0.0,0.5235987755982988,0,-0.6262545,0.5459749,1.398711,0.7043254,0.75506985,0.6297632,-0.112505555,1.2692636,0.4251327,-0.14363165,-0.014575699,-0.112668045,1.3338472,-0.41230372
-0.1,-0.1,1.1999999999999997,0.0,0.5235987755982988,0,-0.62454194,0.54574955,1.3987498,0.7056672,0.7701963,0.6220478,-0.10313828,1.283387,0.43863198,-0.17051119,0.044965222,-0.451791,1.2940555,-0.030055875
-0.1,-0.1,1.1999999999999997,0.0,0.5235987755982988,0,-0.6273907,0.545762,1.3980602,0.7046854,0.78666276,0.6268035,-0.10221036,1.2862898,0.4288813,-0.122853965,-0.03324337,-0.39456454,1.1912011,0.51555234
-0.1,-0.1,1.1999999999999997,0.0,0.5235987755982988,0,-0.62407005,0.5554092,1.398475,0.70494795,0.7481054,0.6246502,-0.11192745,1.2629404,0.42671412,-0.31888467,-0.04033081,-0.41457152,1.2971381,0.44219777
-0.1,-0.1,1.1999999999999997,0.0,0.5235987755982988,0,-0.62921584,0.5419135,1.3977396,0.70625,0.7752233,0.62522537,-0.10279845,1.267955,0.44517103,-0.4503714,-0.0014835706,-1.1342863,1.2966051,0.22916272
-0.1,-0.1,1.1999999999999997,0.0,0.5235987755982988,0,-0.62789935,0.5392101,1.3975344,0.7048394,0.76556623,0.63083726,-0.11027389,1.274548,0.43839717,-0.22430988,0.06716684,-0.5462332,1.2657133,0.4713848
-0.1,-0.1,1.1999999999999997,0.0,0.5235987755982988,0,-0.6237832,0.55186564,1.3994364,0.7063953,0.7536044,0.6216723,-0.12272684,1.2642655,0.43575808,-0.2790982,0.09474299,-0.718844,1.2460804,0.30131856
-0.1,-0.1,1.1999999999999997,0.0,0.5235987755982988,0,-0.62903523,0.5415941,1.3985888,0.7045895,0.7768104,0.62916225,-0.09625412,1.27818,0.43496096,-0.19176754,-0.106035054,-0.39836708,1.2722671,0.20188141
-0.1,-0.1,1.1999999999999997,0.0,0.5235987755982988,0,-0.6249403,0.5451601,1.3965242,0.70497525,0.77393925,0.62549,-0.095975384,1.2785832,0.4381609,-0.16445611,-0.015998915,0.111029655,1.3615639,0.55427307
-0.1,-0.1,1.1999999999999997,0.0,0.5235987755982988,0,-0.62563634,0.5490264,1.3983752,0.70438063,0.75010777,0.6283221,-0.09705312,1.2831072,0.43452585,-0.1969345,0.02006224,-0.4262734,1.2362729,-0.1378345
-0.1,-0.1,1.1999999999999997,0.0,0.5235987755982988,0,-0.62852293,0.54774785,1.3974622,0.70377445,0.7628676,0.62723976,-0.10700006,1.2800137,0.43680927,-0.44813251,0.04430847,-0.84586996,1.3737396,0.19777024
-0.1,-0.1,1.1999999999999997,0.0,0.5235987755982988,0,-0.6277319,0.5444099,1.3978237,0.7056575,0.76987517,0.6313786,-0.11040667,1.2866857,0.44097346,-0.19441958,-0.0004622088,-0.5011966,1.155484,-0.3132605
-0.1,-0.1,1.1999999999999997,0.0,0.5235987755982988,0,-0.6269577,0.53638023,1.4001116,0.7056924,0.7671651,0.62063396,-0.10424944,1.2842526,0.43072808,-0.08052522,-0.031768207,-0.07834448,1.2640177,-0.39972684
-0.1,-0.1,1.1999999999999997,0.0,0.5235987755982988,0,-0.6246289,0.5512892,1.397133,0.7037905,0.7716918,0.6287031,-0.10563604,1.274734,0.4261955,-0.13833627,0.010692151,0.081911534,1.3806801,0.8303569
-0.1,-0.1,1.1999999999999997,0.0,0.5235987755982988,0,-0.62654275,0.5423504,1.3996218,0.70412445,0.7737369,0.6171832,-0.11749723,1.2774963,0.4424424,-0.0045592696,0.03918595,-0.44786108,1.2171601,0.31313536
-0.1,-0.1,1.1999999999999997,0.0,0.5235987755982988,0,-0.6248137,0.53156793,1.399397,0.707037,0.77701735,0.6207121,-0.09888228,1.2690125,0.43297318,-0.27288264,-0.05666466,-0.7684146,1.2145853,-0.29514307
-0.1,-0.1,1.1999999999999997,0.0,0.5235987755982988,0,-0.6275146,0.55290323,1.4008038,0.70581883,0.76555216,0.6217212,-0.101687975,1.2696198,0.43088496,-0.16875404,0.110062346,-0.5590388,1.3921537,-0.14814237
-0.1,-0.1,1.1999999999999997,0.0,0.5235987755982988,0,-0.6245521,0.5331735,1.3972543,0.70458597,0.7776006,0.6255615,-0.10151144,1.2769254,0.4343697,-0.22475563,-0.037855096,-0.6689978,1.2936902,0.45075238
-0.1,-0.1,1.1999999999999997,0.0,0.5235987755982988,0,-0.6250568,0.53914326,1.3995421,0.70329857,0.76414657,0.6235637,-0.11056885,1.2802924,0.43031275,-0.039877564,0.032362685,-0.649546,1.3712134,0.5880119
-0.1,-0.1,1.1999999999999997,0.0,0.5235987755982988,0,-0.6281355,0.5438377,1.3998569,0.705431,0.75952953,0.6215576,-0.099373244,1.2864703,0.43490177,-0.28515548,-0.050398756,-0.75787014,1.3368548,0.029474322
-0.1,-0.1,1.1999999999999997,0.0,0.5235987755982988,0,-0.62738913,0.54639107,1.3981127,0.7043708,0.7511413,0.62461597,-0.10664454,1.2732589,0.43056673,-0.31162113,-0.04016371,-0.22784391,1.4334574,0.20007257
-0.1,-0.1,1.1999999999999997,0.0,0.5235987755982988,0,-0.6274957,0.52359045,1.400411,0.70504445,0.7625334,0.6266166,-0.114887916,1.2818712,0.4375386,-0.18463291,0.018704971,-0.6868721,1.2233423,-0.09777699
-0.1,-0.1,1.1999999999999997,0.0,0.5235987755982988,0,-0.62646896,0.54998887,1.4001786,0.70401645,0.7639813,0.622981,-0.09935222,1.2824779,0.43230176,-0.30744675,-0.107670076,-0.35588536,1.3748507,0.20751797
-0.1,-0.1,1.1999999999999997,0.0,0.5235987755982988,0,-0.6271946,0.53982943,1.3985136,0.70417017,0.77785915,0.62731075,-0.104399875,1.2719557,0.42980674,-0.2709002,0.0117695015,-0.77806586,1.2313284,-0.36590844
-0.1,-0.1,1.1999999999999997,0.0,0.5235987755982988,0,-0.6253446,0.5389582,1.3987931,0.7034692,0.765859,0.6306889,-0.09244143,1.2736182,0.432962,-0.047970895,0.038540676,-0.32049927,1.2375276,0.14856105
-0.1,-0.1,1.1999999999999997,0.0,0.5235987755982988,0,-0.62567496,0.54733455,1.3989885,0.7042393,0.7530141,0.62406605,-0.09386468,1.2694341,0.43852347,0.16881897,-0.036342967,-0.37666902,1.1944236,0.37452418
-0.1,-0.1,1.1999999999999997,0.0,0.5235987755982988,0,-0.62568617,0.53814363,1.3996503,0.70457107,0.76194894,0.62152255,-0.11333496,1.2758892,0.42752758,-0.21165557,-0.027296277,-0.37196752,1.2656869,-1.1754411
-0.1,-0.1,1.1999999999999997,0.0,0.5235987755982988,0,-0.6252929,0.54640627,1.3963296,0.70383584,0.76151824,0.6258255,-0.093144484,1.2769374,0.44308472,-0.19264735,-0.030878445,-0.39839378,1.4015113,0.13036369
-0.1,-0.1,1.1999999999999997,0.0,0.5235987755982988,0,-0.62622076,0.5470413,1.3984141,0.7061028,0.7662211,0.6240416,-0.12988614,1.2633147,0.43014893,-0.09330192,-0.0046358197,-0.13623512,1.2874535,0.07583067
-0.1,-0.1,1.1999999999999997,0.0,0.5235987755982988,0,-0.6304727,0.5484087,1.4009272,0.7052567,0.767613,0.625016,-0.11873033,1.2815458,0.43056247,-0.2753472,-0.025761064,-0.44209644,1.3242868,-0.546991
-0.1,-0.1,1.1999999999999997,0.0,0.5235987755982988,0,-0.62617457,0.5386122,1.3984395,0.70576787,0.7797647,0.6238505,-0.11458579,1.2720361,0.4428783,-0.21666826,0.09057396,-0.46792892,1.3101792,-0.14671296
-0.1,-0.1,1.1999999999999997,0.0,0.5235987755982988,0,-0.62721735,0.5321638,1.3978003,0.7049201,0.7553959,0.62602395,-0.104651496,1.2819518,0.43245822,-0.37792853,-0.051309127,-0.68701196,1.4235234,0.50712025
-0.1,-0.1,1.1999999999999997,0.0,0.5235987755982988,0,-0.6279291,0.54335994,1.3971069,0.70579326,0.7699096,0.6231891,-0.11782837,1.2767158,0.4424566,-0.17590918,0.034504086,-0.17861012,1.3119388,0.67368525
-0.1,-0.1,1.1999999999999997,0.0,0.5235987755982988,0,-0.6298885,0.5389702,1.4000016,0.70388526,0.7570071,0.62499803,-0.12591493,1.2798042,0.42648777,-0.016434493,0.049199585,-0.66331375,1.3247422,1.3513258
-0.1,-0.1,1.1999999999999997,0.0,0.5235987755982988,0,-0.62705046,0.5430445,1.4006035,0.70459867,0.7594916,0.6281113,-0.105157204,1.2849852,0.43094832,-0.053512868,0.10257056,-0.4592747,1.2307993,-0.1259315
-0.1,-0.1,1.1999999999999997,0.0,0.5235987755982988,0,-0.6270086,0.543891,1.3994179,0.70482326,0.75948995,0.6216821,-0.10227552,1.2704042,0.4349624,-0.30375582,-0.025924874,-0.07563889,1.3020912,0.50908375
-0.1,-0.1,1.1999999999999997,0.0,0.5235987755982988,0,-0.62720686,0.5439812,1.3995016,0.7046745,0.7489127,0.62274134,-0.08351359,1.2772458,0.43018934,-0.34689215,-0.018512504,-0.4901504,1.3866011,0.9563958
-0.1,-0.1,1.1999999999999997,0.0,0.5235987755982988,0,-0.6297298,0.52131814,1.397796,0.70439637,0.7742157,0.62865543,-0.11495283,1.2802613,0.44163185,-0.02482655,-0.09641282,-0.5863055,1.3177462,-0.086019576
-0.1,-0.1,1.1999999999999997,0.0,0.5235987755982988,0,-0.6277366,0.5515798,1.3974203,0.7048488,0.76223636,0.624415,-0.11419977,1.270917,0.44445172,-0.19213097,0.0001856456,-0.51526344,1.261616,0.442758
-0.1,-0.1,1.1999999999999997,0.0,0.5235987755982988,0,-0.6264854,0.5392626,1.3986549,0.7040063,0.76710236,0.62756467,-0.11674094,1.2806715,0.43515512,-0.2439113,0.10076775,-0.32190078,1.2396635,-0.22206284
-0.1,-0.1,1.1999999999999997,0.0,0.5235987755982988,0,-0.6277972,0.55048954,1.3973416,0.706225,0.77931917,0.6223838,-0.09761073,1.2765876,0.43302304,-0.13369377,-0.0005007228,-0.5559182,1.3895643,-0.32685867
-0.1,-0.1,1.1999999999999997,0.0,0.5235987755982988,0,-0.6262956,0.54569733,1.4014038,0.7052864,0.779084,0.62996113,-0.10616034,1.279009,0.4345014,-0.3701461,-0.08629566,-0.45773712,1.2144594,0.10771574
-0.1,-0.1,1.1999999999999997,0.0,0.5235987755982988,0,-0.6261691,0.5583445,1.3994068,0.704617,0.77333385,0.6223969,-0.0982535,1.2810386,0.43248698,-0.13707083,0.016378019,-0.53361154,1.358321,0.57456315
-0.1,-0.1,1.1999999999999997,0.0,0.5235987755982988,0,-0.6246226,0.5487111,1.3977039,0.7056828,0.76161695,0.62631476,-0.10221967,1.2742019,0.42911455,-0.12810123,-0.061642222,-0.59007275,1.3105184,-0.3345162
-0.1,-0.1,1.1999999999999997,0.0,0.5235987755982988,0,-0.6261362,0.5630676,1.3992478,0.70312154,0.77425265,0.62552696,-0.09882969,1.2824571,0.42861935,-0.4500963,0.013217077,-0.26561403,1.3180828,-0.306449
-0.1,-0.1,1.1999999999999997,0.0,0.5235987755982988,0,-0.6300084,0.5501742,1.3988256,0.70516926,0.77335656,0.6238408,-0.09435577,1.264948,0.4351583,-0.4255717,0.030594513,-0.5497644,1.3116801,0.045557976
-0.1,-0.1,1.1999999999999997,0.0,0.5235987755982988,0,-0.62530345,0.5376902,1.399668,0.7057916,0.7796677,0.6194139,-0.10834438,1.2824714,0.43741298,-0.34603822,-0.060007967,-0.5142572,1.2913483,0.63090444
-0.1,-0.1,1.1999999999999997,0.0,0.5235987755982988,0,-0.6272782,0.5205079,1.3971773,0.7048484,0.7605311,0.6213934,-0.10061939,1.2766925,0.43343848,-0.26077175,0.049659897,-0.34868097,1.1598235,0.43659353
-0.1,-0.1,1.1999999999999997,0.0,0.5235987755982988,0,-0.62502444,0.55025494,1.3982978,0.70411503,0.7601694,0.6194755,-0.09233609,1.2663698,0.4329128,-0.23911066,-0.060260672,-0.18923704,1.2805455,0.19346872
-0.1,-0.1,1.1999999999999997,0.0,0.5235987755982988,0,-0.62561965,0.54543054,1.3981912,0.7054353,0.7766824,0.6197018,-0.12002344,1.2708321,0.43444315,-0.0045131007,0.10140097,-0.26936224,1.3062623,-0.33934742
-0.1,-0.1,1.1999999999999997,0.0,0.5235987755982988,0,-0.6244457,0.54113925,1.3960527,0.70546734,0.771669,0.6234464,-0.09997769,1.2702094,0.43496355,-0.3614404,0.010845633,-0.8670574,1.1724294,0.7024669
-0.1,-0.1,1.1999999999999997,0.0,0.5235987755982988,0,-0.6287158,0.52515227,1.3983381,0.70549846,0.75315,0.62440956,-0.107451595,1.2715502,0.43415943,0.09316429,0.0044383467,-0.9243489,1.3096958,0.41411015
-0.1,-0.1,1.1999999999999997,0.0,0.5235987755982988,0,-0.6290449,0.5427965,1.3996099,0.70671356,0.7771588,0.6234148,-0.10914035,1.2803496,0.43959057,-0.1696048,-0.024757441,-0.57642955,1.3887349,0.025897728
-0.1,-0.1,1.1999999999999997,0.0,0.5235987755982988,0,-0.62564576,0.539831,1.399596,0.7054889,0.7737155,0.6255451,-0.13605936,1.2827772,0.43040022,-0.25078934,-0.007904364,0.04616124,1.3082398,0.2700176
-0.1,-0.1,1.1999999999999997,0.0,0.5235987755982988,0,-0.62684727,0.53911203,1.3973403,0.70265245,0.78762186,0.62047136,-0.109710425,1.2731007,0.43161297,-0.14475814,-0.03428023,-0.070166856,1.1750233,0.8782243
-0.1,-0.1,1.1999999999999997,0.0,0.5235987755982988,0,-0.6242976,0.5406314,1.3993853,0.70415294,0.7878719,0.62681156,-0.10876219,1.279788,0.4379688,0.07313329,0.06709768,-0.5384791,1.3697786,0.82754946
-0.1,-0.1,1.1999999999999997,0.0,0.5235987755982988,0,-0.6266375,0.53648925,1.4014311,0.70652515,0.7725567,0.6261179,-0.094476245,1.273949,0.43407807,-0.16955438,-0.005394187,-0.11353839,1.2097485,-0.33700198
-0.1,-0.1,1.1999999999999997,0.0,0.5235987755982988,0,-0.625855,0.5405953,1.3993933,0.70374024,0.78826106,0.6255895,-0.11441691,1.2733164,0.4298627,-0.091217496,0.05979589,-0.768933,1.3631872,0.36301774
-0.1,-0.1,1.1999999999999997,0.0,0.5235987755982988,0,-0.6256654,0.52968174,1.4001678,0.7041967,0.7731257,0.6271444,-0.116836354,1.2841331,0.4348016,-0.27824378,-0.078110784,-0.5085129,1.3349538,1.0449917
-0.1,-0.1,1.1999999999999997,0.0,0.5235987755982988,0,-0.6266997,0.55423313,1.3985585,0.7045288,0.78788257,0.62668693,-0.11911887,1.2719971,0.4319321,-0.1112426,0.021477785,-0.65287566,1.2268771,-0.068087265
-0.1,-0.1,1.1999999999999997,0.0,0.5235987755982988,0,-0.6296955,0.5444,1.3984073,0.703359,0.7635151,0.62913126,-0.12258725,1.2654591,0.4376692,-0.11406738,0.022135913,-0.57256275,1.2024596,-0.030251663
-0.1,-0.1,1.1999999999999997,0.0,0.5235987755982988,0,-0.62855756,0.5484079,1.4003246,0.703055,0.7667148,0.6213241,-0.10638541,1.270327,0.44074693,-0.5209164,-0.01373832,-0.6115021,1.220623,0.086113304
-0.1,-0.1,1.1999999999999997,0.0,0.5235987755982988,0,-0.62724257,0.5234712,1.4020658,0.704887,0.7603674,0.62858045,-0.10061789,1.2713385,0.43923822,-0.29795033,0.009618335,-0.2510969,1.3880461,0.57521284
-0.1,-0.1,1.1999999999999997,0.0,0.5235987755982988,0,-0.62593657,0.5423315,1.3974665,0.7049006,0.78573763,0.62535757,-0.10625601,1.2689584,0.42656073,0.03300681,-0.037222452,-0.3655884,1.3536173,0.107405804
-0.1,-0.1,1.1999999999999997,0.0,0.5235987755982988,0,-0.62861955,0.5373742,1.3968502,0.704386,0.77877426,0.6224289,-0.09407674,1.2871336,0.4341723,0.006488411,0.08296323,-0.22123204,1.2376729,0.16050327
-0.1,-0.1,1.1999999999999997,0.0,0.5235987755982988,0,-0.6269324,0.53662103,1.4012617,0.70526046,0.7647501,0.6275483,-0.109699294,1.2719618,0.439249,-0.1901309,0.04590084,-0.063556015,1.1899929,-0.17279546
-0.1,-0.1,1.1999999999999997,0.0,0.5235987755982988,0,-0.6268091,0.5432903,1.3977487,0.70379937,0.78125966,0.62543845,-0.097389095,1.2780951,0.4322376,-0.38757303,0.014641082,-0.46267512,1.3060073,1.4136835
-0.1,-0.1,1.1999999999999997,0.0,0.5235987755982988,0,-0.62464404,0.5397167,1.3990794,0.7051577,0.76282704,0.627067,-0.09763837,1.2815082,0.42907685,-0.4274928,-0.100472145,-0.92132795,1.3017348,0.0894886
-0.1,-0.1,1.1999999999999997,0.0,0.5235987755982988,0,-0.6277523,0.53063214,1.3991288,0.70298207,0.77277803,0.6243454,-0.10208068,1.2703325,0.43999898,-0.18312037,-0.05520832,-0.89253104,1.2213352,0.76722544
-0.1,-0.1,1.1999999999999997,0.0,0.5235987755982988,0,-0.6289819,0.55585873,1.3967776,0.70509475,0.7763836,0.63066894,-0.11449728,1.281787,0.43369895,-0.19774453,0.04134573,-0.6811099,1.3579371,0.66916496
-0.1,-0.1,1.1999999999999997,0.0,0.5235987755982988,0,-0.626903,0.5258917,1.4024752,0.70443463,0.7835477,0.628469,-0.097265236,1.2820506,0.4379748,-0.2014056,-0.035653893,-0.13127232,1.2498113,0.62518585
-0.1,-0.1,1.1999999999999997,0.0,0.5235987755982988,0,-0.62602085,0.5343799,1.3986838,0.7053915,0.7702777,0.624081,-0.08633179,1.273152,0.43431553,-0.42407995,0.010606437,-0.016137738,1.2330493,0.35108075
-0.1,-0.1,1.1999999999999997,0.0,0.5235987755982988,0,-0.6226072,0.5581383,1.3987277,0.70283747,0.7641713,0.62886316,-0.11072858,1.2676802,0.42857784,0.032594368,-0.17525761,-0.58866113,1.2094759,0.6944117
-0.1,-0.1,1.1999999999999997,0.0,0.5235987755982988,0,-0.6309028,0.543978,1.3996056,0.70401096,0.79052585,0.62725174,-0.09924885,1.2673988,0.43672454,-0.24671543,-0.061802093,-0.6721121,1.3505425,0.4467749
-0.1,-0.1,1.1999999999999997,0.0,0.5235987755982988,0,-0.6262939,0.53811985,1.3997036,0.7040151,0.7791085,0.62805617,-0.10675114,1.2783209,0.4382801,-0.11079936,0.07008425,-0.028514748,1.2180285,-0.48093945
-0.1,-0.1,1.1999999999999997,0.0,0.5235987755982988,0,-0.62809,0.5288051,1.3992454,0.7075568,0.7747403,0.6245306,-0.10608657,1.2701313,0.43532214,-0.108412,-0.108494766,-0.5916592,1.3412343,1.720456
-0.1,-0.1,1.1999999999999997,0.0,0.5235987755982988,0,-0.62711465,0.5447623,1.3965714,0.70377845,0.78232014,0.62547934,-0.09527837,1.2846744,0.43439832,-0.26845282,0.042947896,-0.39872742,1.2678167,-0.72422415
-0.1,-0.1,1.1999999999999997,0.0,0.5235987755982988,0,-0.62704307,0.5365978,1.3987089,0.7036853,0.74942136,0.6234073,-0.11136377,1.2731669,0.44093835,-0.2713528,0.032749478,-0.26747695,1.3787564,-0.1573737
-0.1,-0.1,1.1999999999999997,0.0,0.5235987755982988,0,-0.6260591,0.5373692,1.3989129,0.70544285,0.7641315,0.625654,-0.105575986,1.2736814,0.43220678,-0.3268401,0.06757671,-0.2944142,1.1757315,0.31926617
-0.1,-0.1,1.1999999999999997,0.0,0.5235987755982988,0,-0.6295919,0.5460813,1.39824,0.70425975,0.78353804,0.62652993,-0.103940725,1.2747697,0.43405584,-0.25650018,0.030502738,-0.540672,1.2287626,-0.072859116
-0.1,-0.1,1.1999999999999997,0.0,0.5235987755982988,0,-0.6242558,0.53788847,1.3971645,0.70308185,0.7524954,0.6284756,-0.102254294,1.2840426,0.42792502,-0.20218502,-0.017383141,-0.36018553,1.4051548,-0.63374376
-0.1,-0.1,1.1999999999999997,0.0,0.5235987755982988,0,-0.6266756,0.5335775,1.3986913,0.7021664,0.76837254,0.6257389,-0.10610562,1.2728472,0.43718258,-0.15537688,-0.100440726,-0.5899716,1.259489,0.7329558
-0.1,-0.1,1.1999999999999997,0.0,0.5235987755982988,0,-0.6248989,0.54520345,1.3995835,0.7038454,0.7801152,0.62835115,-0.10570741,1.2770612,0.43509355,-0.0731574,0.0062640263,-0.539276,1.3954554,0.16830856
-0.1,-0.1,1.1999999999999997,0.0,0.5235987755982988,0,-0.6299383,0.5480169,1.3984233,0.70496726,0.78016514,0.6270176,-0.09830655,1.2752978,0.43173113,-0.24721147,-0.046118744,-0.40170524,1.2104242,0.21977617
-0.1,-0.1,1.1999999999999997,0.0,0.5235987755982988,0,-0.62657404,0.55453306,1.4008694,0.70462525,0.76834273,0.6269298,-0.09762827,1.2756965,0.4358005,-0.24606246,0.01419205,-0.16119552,1.348405,-0.56269175
-0.1,-0.1,1.1999999999999997,0.0,0.5235987755982988,0,-0.6277676,0.54553604,1.3977131,0.70497006,0.7535639,0.6232662,-0.10654974,1.2754791,0.44011092,-0.22986448,0.031402353,-0.24624245,1.2730627,-0.12287503
-0.1,-0.1,1.1999999999999997,0.0,0.5235987755982988,0,-0.6258634,0.53642887,1.4003567,0.7034845,0.75811124,0.6261521,-0.11370964,1.2736187,0.42852986,-0.23546435,-0.041253,-0.39804003,1.3417395,0.0077678617
-0.1,-0.1,1.1999999999999997,0.0,0.5235987755982988,0,-0.62984586,0.53660333,1.4004471,0.7045237,0.7767806,0.6251215,-0.09218964,1.2781196,0.43589145,-0.13923632,-0.017434945,-0.57549083,1.3166124,0.83259237
-0.1,-0.1,1.1999999999999997,0.0,0.5235987755982988,0,-0.6271546,0.5441733,1.397216,0.70429593,0.76549035,0.62092006,-0.10495082,1.288328,0.43252686,-0.09607296,-0.052586757,-0.47835255,1.1591462,0.6653255
-0.1,-0.1,1.1999999999999997,0.0,0.5235987755982988,0,-0.62688756,0.53544635,1.3992665,0.7043182,0.77804214,0.62762934,-0.09097272,1.2717785,0.43213788,-0.16572258,-0.036299538,-0.32905796,1.2759155,0.73384035
-0.1,-0.1,1.1999999999999997,0.0,0.5235987755982988,0,-0.62623477,0.5392168,1.399351,0.70563275,0.7596446,0.61772853,-0.091547765,1.2772849,0.4337826,-0.34227118,-0.031669665,-0.2834232,1.3140442,-0.72125345
-0.1,-0.1,1.1999999999999997,0.0,0.5235987755982988,0,-0.62752867,0.5394595,1.4010763,0.70534587,0.7601556,0.6281436,-0.11271581,1.2799218,0.43349606,-0.30092087,-0.004016861,-0.087593175,1.3788798,0.3332458
-0.1,-0.1,1.1999999999999997,0.0,0.5235987755982988,0,-0.6268853,0.5598534,1.4023552,0.7044411,0.7476115,0.6253393,-0.087216705,1.2808868,0.43115827,-0.30182296,-0.07346013,-0.45500043,1.2406927,0.9183492
-0.1,-0.1,1.1999999999999997,0.0,0.5235987755982988,0,-0.62818027,0.5414786,1.3962923,0.70537674,0.7602794,0.62678,-0.120391116,1.2663714,0.43358982,-0.0494955,0.013124939,-0.6106478,1.3529822,0.67738754
-0.1,-0.1,1.1999999999999997,0.0,0.5235987755982988,0,-0.6264861,0.53601164,1.3968498,0.70497,0.7794505,0.62539047,-0.11358308,1.2757311,0.44345728,-0.19246338,-0.075593494,-0.14737834,1.2366505,0.8537642
-0.1,-0.1,1.1999999999999997,0.0,0.5235987755982988,0,-0.6269885,0.54587,1.3995845,0.7044206,0.76036644,0.6245037,-0.10545966,1.266227,0.4343999,-0.14365552,0.037106596,-0.6366212,1.2480603,-0.016551858
-0.1,-0.1,1.1999999999999997,0.0,0.5235987755982988,0,-0.62626296,0.54361236,1.3978391,0.70250845,0.7673678,0.6234894,-0.106779374,1.266434,0.42838076,-0.124664284,-0.06596759,-0.6678724,1.2323879,0.33316407
-0.1,-0.1,1.1999999999999997,0.0,0.5235987755982988,0,-0.6286889,0.5445186,1.3977414,0.70498216,0.7566312,0.6315617,-0.094483994,1.2757477,0.4355907,-0.35226175,-0.13047554,-0.51594484,1.3368964,0.48825535
-0.1,-0.1,1.1999999999999997,0.0,0.5235987755982988,0,-0.62711704,0.53604376,1.399348,0.70345324,0.7681615,0.6261472,-0.098704204,1.2811989,0.43738058,-0.25909686,-0.013699406,-0.6409608,1.1430055,0.23814516
-0.1,-0.1,1.1999999999999997,0.0,0.5235987755982988,0,-0.6275217,0.5393631,1.3961625,0.7061296,0.7694142,0.62909883,-0.114895836,1.2696078,0.43623707,-0.09962184,0.05128485,-0.44964957,1.3162748,0.6453676
-0.1,-0.1,1.1999999999999997,0.0,0.5235987755982988,0,-0.6274594,0.53254735,1.4006307,0.7031204,0.77464265,0.6278382,-0.09611835,1.2801313,0.4284201,-0.16173425,-0.054811697,-0.15548798,1.1832235,0.38923606
-0.1,-0.1,1.1999999999999997,0.0,0.5235987755982988,0,-0.62936115,0.5408185,1.3997688,0.70461154,0.76866215,0.62512326,-0.118905626,1.2644722,0.43311727,0.26127875,-0.014937723,-0.6984509,1.334051,0.84031373
-0.1,-0.1,1.1999999999999997,0.0,0.5235987755982988,0,-0.6280926,0.5358614,1.4001329,0.7050542,0.7827022,0.6255743,-0.11576213,1.2821742,0.43044734,-0.21805148,-0.03186257,-0.5772477,1.3311517,-0.7987227
-0.1,-0.1,1.1999999999999997,0.0,0.5235987755982988,0,-0.6252917,0.53782654,1.3963767,0.70451504,0.7677098,0.6308791,-0.10378944,1.2779322,0.43613794,-0.3018735,0.030066313,-0.13491641,1.2749026,0.77305806
-0.1,-0.1,1.1999999999999997,0.0,0.5235987755982988,0,-0.6269753,0.5423653,1.3978369,0.7057553,0.7688199,0.6270642,-0.1061762,1.2792989,0.43068624,-0.24026649,0.020246182,-0.05165138,1.3258853,0.11244739
-0.1,-0.1,1.1999999999999997,0.0,0.5235987755982988,0,-0.6249106,0.53424245,1.4003142,0.7049234,0.7559836,0.62281716,-0.088574745,1.2728201,0.43141744,-0.27377424,0.10156744,-0.5999114,1.2540209,0.31328127
-0.1,-0.1,1.1999999999999997,0.0,0.5235987755982988,0,-0.6267257,0.5309413,1.400102,0.70587593,0.7555762,0.6306421,-0.11772208,1.2804089,0.43118507,-0.2552076,0.020973288,-0.55565786,1.2796609,0.34845614
-0.1,-0.1,1.1999999999999997,0.0,0.5235987755982988,0,-0.62358594,0.5473698,1.3994216,0.70481193,0.7642345,0.62355393,-0.08861919,1.28286,0.4407492,-0.14709331,-0.047816325,-0.68211985,1.3330877,0.3493559
-0.1,-0.1,1.1999999999999997,0.0,0.5235987755982988,0,-0.6218153,0.5348551,1.3997539,0.70430577,0.7629138,0.62043023,-0.113834314,1.2781379,0.43178752,-0.38374248,-0.14670917,-0.60825956,1.2970463,1.0297331
-0.1,-0.1,1.1999999999999997,0.0,0.5235987755982988,0,-0.6257726,0.55250496,1.3984017,0.7037714,0.7679692,0.6299749,-0.10617062,1.2789121,0.42671028,-0.06280756,0.05728614,-0.71719474,1.2336128,-0.6593054
-0.1,-0.1,1.1999999999999997,0.0,0.5235987755982988,0,-0.6274468,0.5161979,1.3991305,0.70552087,0.76615596,0.6230997,-0.1061192,1.2597772,0.43176645,-0.014972876,0.028453462,-0.8890902,1.4010077,-0.0060894284
-0.1,-0.1,1.1999999999999997,0.0,0.5235987755982988,0,-0.62561524,0.5435029,1.3971294,0.70505154,0.76324445,0.6233735,-0.09428958,1.2853298,0.4369468,-0.0007295263,0.035227515,-0.958297,1.3322392,0.15406822
-0.1,-0.1,1.1999999999999997,0.0,0.5235987755982988,0,-0.6283915,0.5417043,1.3987813,0.70465934,0.7743229,0.623165,-0.08611691,1.2809842,0.43336704,-0.30327,0.03521115,-0.54176015,1.1489999,-0.09215969
-0.1,-0.1,1.1999999999999997,0.0,0.5235987755982988,0,-0.6268203,0.52071506,1.400507,0.7051829,0.7662841,0.6200147,-0.122872,1.2737148,0.4291745,-0.33588508,-0.06146278,-0.96134037,1.3049072,-0.5077473
-0.1,-0.1,1.1999999999999997,0.0,0.5235987755982988,0,-0.6277854,0.53989965,1.4000976,0.7041966,0.7616219,0.6229717,-0.12848195,1.2911184,0.44212824,-0.29020166,-0.045322284,-0.79119825,1.2279682,0.08279231
-0.1,-0.1,1.1999999999999997,0.0,0.5235987755982988,0,-0.62818277,0.5393394,1.4000007,0.7053162,0.7600452,0.6261114,-0.10968997,1.2666196,0.4365407,-0.27742916,0.019211527,-0.6097804,1.3129396,-0.32329884
-0.1,-0.1,1.1999999999999997,0.0,0.5235987755982988,0,-0.6252036,0.5547228,1.397579,0.7039768,0.7784604,0.6245194,-0.11685174,1.2878231,0.4335784,-0.34815997,0.01805969,-0.937505,1.3343334,0.44333923
-0.1,-0.1,1.1999999999999997,0.0,0.5235987755982988,0,-0.62340957,0.5448747,1.3995378,0.70521075,0.7853647,0.625245,-0.10782758,1.2717446,0.4357823,0.047897,0.025910929,-0.5079361,1.2801945,0.80279624
-0.1,-0.1,1.1999999999999997,0.0,0.5235987755982988,0,-0.62640095,0.5259528,1.3990744,0.705231,0.76453227,0.6265338,-0.09223219,1.2732714,0.426897,0.12415726,0.051504757,-0.533228,1.414062,-0.07396649
-0.1,-0.1,1.1999999999999997,0.0,0.5235987755982988,0,-0.6256366,0.5390998,1.396941,0.704846,0.7596927,0.6267155,-0.10556941,1.2777591,0.43981177,-0.19177566,0.04821559,-0.0029071437,1.3086123,0.818242
-0.1,-0.1,1.1999999999999997,0.0,0.5235987755982988,0,-0.6275775,0.546923,1.3990452,0.7039183,0.7686642,0.6269732,-0.09863647,1.278065,0.4302928,-0.009699884,-0.06293134,-0.62546176,1.2812127,-0.15875952
-0.1,-0.1,1.1999999999999997,0.0,0.5235987755982988,0,-0.6276238,0.5358465,1.3973627,0.7057613,0.7876613,0.6284133,-0.11863511,1.268247,0.43051183,-0.34694907,-0.0011555433,-0.8207598,1.2161306,0.17594671
-0.1,-0.1,1.1999999999999997,0.0,0.5235987755982988,0,-0.62662554,0.54701567,1.3997906,0.70476204,0.7707098,0.62360674,-0.13614115,1.2719963,0.4398547,-0.11662706,0.04455013,-0.9932439,1.2692167,0.2656369
-0.1,-0.1,1.1999999999999997,0.0,0.5235987755982988,0,-0.6245605,0.53701407,1.3981518,0.7054795,0.7619469,0.6234769,-0.089704216,1.2601203,0.43221214,-0.06551378,0.059567448,-0.7540545,1.1816546,-0.2133627
-0.1,-0.1,1.1999999999999997,0.0,0.5235987755982988,0,-0.6271857,0.550013,1.4017698,0.70647776,0.759423,0.6263834,-0.09510384,1.271859,0.42963934,-0.29671386,0.09646168,-0.72133213,1.2698336,0.73005414
-0.1,-0.1,1.1999999999999997,0.0,0.5235987755982988,0,-0.62660474,0.5476357,1.3985558,0.705571,0.78703624,0.62560487,-0.10865523,1.2833226,0.43375883,-0.07521307,0.025125932,-0.49197802,1.3453723,0.077064954
-0.1,-0.1,1.1999999999999997,0.0,0.5235987755982988,0,-0.62423587,0.5393411,1.4008663,0.7057776,0.75734746,0.6218387,-0.08701469,1.2802292,0.43168032,-0.27003512,0.04207562,-0.6870638,1.2117497,0.032342803
-0.1,-0.1,1.1999999999999997,0.0,0.5235987755982988,0,-0.62812704,0.5294088,1.3976177,0.704304,0.7638339,0.6240615,-0.1043334,1.2743019,0.42987713,-0.37938234,-0.010202434,-0.45053557,1.1965368,0.6481645
-0.1,-0.1,1.1999999999999997,0.0,0.5235987755982988,0,-0.62827915,0.54102004,1.3967191,0.7031107,0.7638499,0.6257212,-0.110695496,1.2868601,0.42773545,-0.034010943,0.0983108,-0.4846281,1.2302067,0.7558394
-0.1,-0.1,1.1999999999999997,0.0,0.5235987755982988,0,-0.6254162,0.55309457,1.3975108,0.7048836,0.7638579,0.6228469,-0.098355934,1.2723626,0.43977776,-0.08264961,-0.039304163,-0.8042464,1.2891213,-0.30219033
-0.1,-0.1,1.1999999999999997,0.0,0.5235987755982988,0,-0.6277895,0.53083616,1.3992263,0.70607203,0.7854733,0.62180704,-0.090140715,1.263793,0.4293332,-0.16808875,0.015956001,-0.36984056,1.2541363,-0.05498955
-0.1,-0.1,1.1999999999999997,0.0,0.5235987755982988,0,-0.6291302,0.5386919,1.3965863,0.7049725,0.75800145,0.62501115,-0.11838933,1.2829999,0.43200245,-0.13277265,0.02798847,-0.61618966,1.2717595,0.39716098
-0.1,-0.1,1.1999999999999997,0.0,0.5235987755982988,0,-0.6259399,0.55080837,1.3981717,0.7045795,0.76906216,0.62641513,-0.118779056,1.2684323,0.43547246,-0.25756603,-0.041735753,-0.88464475,1.1645845,-0.90695333
-0.1,-0.1,1.1999999999999997,0.0,0.5235987755982988,0,-0.6273302,0.5467329,1.3957465,0.70498306,0.75721943,0.62922436,-0.09730326,1.2656156,0.43731698,-0.27228343,0.1244085,-0.66363716,1.1948906,0.5185567
-0.1,-0.1,1.1999999999999997,0.0,0.5235987755982988,0,-0.6267507,0.54546636,1.3985314,0.70483166,0.7631603,0.6226488,-0.098354094,1.2823464,0.43915576,-0.20581914,0.05018911,-0.4603678,1.338389,-0.04389835
-0.1,-0.1,1.1999999999999997,0.0,0.5235987755982988,0,-0.62966543,0.5387344,1.4010463,0.705062,0.7621774,0.62162703,-0.114791445,1.2739127,0.43444526,-0.16584246,0.0029722229,0.3171082,1.2605023,0.7081203
-0.1,-0.1,1.1999999999999997,0.0,0.5235987755982988,0,-0.6259483,0.55281305,1.396265,0.7056934,0.7533962,0.62668055,-0.086258225,1.279876,0.4363085,-0.22064494,0.015211659,-0.6596904,1.3860996,0.39579126
-0.1,-0.1,1.1999999999999997,0.0,0.5235987755982988,0,-0.624084,0.53183883,1.398988,0.704371,0.76327425,0.6238081,-0.08427146,1.2842035,0.4360502,-0.34503314,-0.12937431,-0.73082995,1.2144997,0.32369572
-0.1,-0.1,1.1999999999999997,0.0,0.5235987755982988,0,-0.62559885,0.54981893,1.3964201,0.7047868,0.7689918,0.6255722,-0.11062398,1.2802695,0.43432757,-0.116901614,-0.08027137,-0.40424028,1.255864,0.29025608
-0.1,-0.1,1.1999999999999997,0.0,0.5235987755982988,0,-0.6253563,0.5483397,1.3995272,0.7058939,0.770177,0.6266387,-0.13184279,1.2842276,0.4344862,-0.4512304,-0.025037196,-0.67866313,1.2952112,0.7071493
-0.1,-0.1,1.1999999999999997,0.0,0.5235987755982988,0,-0.62810236,0.54445213,1.4007535,0.7031023,0.77432513,0.6251558,-0.114648774,1.266465,0.44017258,-0.25261542,0.025388759,-0.26859316,1.3498898,0.46383232
-0.1,-0.1,1.1999999999999997,0.0,0.5235987755982988,0,-0.6244176,0.54235977,1.3984375,0.704484,0.7651903,0.6266789,-0.11487797,1.2643685,0.43418995,-0.25574002,0.068131946,-0.24924539,1.315219,0.86760026
-0.1,-0.1,1.1999999999999997,0.0,0.5235987755982988,0,-0.627618,0.53134733,1.3971907,0.705853,0.765095,0.62892145,-0.085488446,1.2748537,0.43111756,-0.113308355,-0.016845018,-0.40334305,1.3499792,-0.013404592
-0.1,-0.1,1.1999999999999997,0.0,0.5235987755982988,0,-0.62482214,0.5472064,1.3986537,0.704603,0.7681296,0.6241949,-0.10518815,1.2736768,0.43574226,-0.04885734,0.08040468,0.1720608,1.2386127,0.5341576
-0.1,-0.1,1.1999999999999997,0.0,0.5235987755982988,0,-0.6252381,0.54874295,1.3973584,0.70449966,0.7736488,0.62329,-0.10104362,1.2843926,0.43201074,-0.1157097,0.0622279,-1.0281695,1.3141431,0.39442044
-0.1,-0.1,1.1999999999999997,0.0,0.5235987755982988,0,-0.6253234,0.5290458,1.3986238,0.7050993,0.7592251,0.622743,-0.10984776,1.2695577,0.4394845,-0.08079676,0.009052244,0.061864533,1.2632744,0.08479148
-0.1,-0.1,1.1999999999999997,0.0,0.5235987755982988,0,-0.62727445,0.5591009,1.3993049,0.70594203,0.7632899,0.62289506,-0.114073455,1.2801822,0.43934974,-0.18173824,0.0016965223,-0.15303965,1.4605703,0.30811876
-0.1,-0.1,1.1999999999999997,0.0,0.5235987755982988,0,-0.62458706,0.5316631,1.3979282,0.705505,0.7636425,0.61849785,-0.11883048,1.2671671,0.42852047,0.036539763,0.030100893,-0.30292508,1.2794788,0.3103896
-0.1,-0.1,1.1999999999999997,0.0,0.5235987755982988,0,-0.6247082,0.54624957,1.3972175,0.70436764,0.7496398,0.62815344,-0.10024632,1.2792344,0.4332664,-0.06902903,-0.07956522,-0.18035826,1.282954,0.53246194
-0.1,-0.1,1.1999999999999997,0.0,0.5235987755982988,0,-0.62662256,0.53726864,1.3999469,0.70631355,0.75425977,0.6238289,-0.08084353,1.2733952,0.44479614,-0.16345137,-0.028458532,-0.43916658,1.309401,0.47411802
-0.1,-0.1,1.1999999999999997,0.0,0.5235987755982988,0,-0.6256981,0.5565373,1.3971372,0.7036786,0.7829461,0.6265822,-0.099176675,1.2687061,0.42322135,-0.17181411,0.03435309,-0.48699465,1.2414829,-0.013455679
-0.1,-0.1,1.1999999999999997,0.0,0.5235987755982988,0,-0.6271178,0.5362957,1.4011054,0.704134,0.7698385,0.6242365,-0.12419751,1.2739958,0.43466383,-0.025303932,-0.0055629853,-0.27826917,1.3419023,-0.08744089
-0.1,-0.1,1.1999999999999997,0.0,0.5235987755982988,0,-0.62415963,0.53348196,1.397168,0.703998,0.7510423,0.62210655,-0.12234501,1.2757397,0.44026107,-0.21720022,-0.0018612853,-0.46594056,1.4294037,0.5102888
-0.1,-0.1,1.1999999999999997,0.0,0.5235987755982988,0,-0.62735033,0.5358925,1.399283,0.70381725,0.76169056,0.6249535,-0.12054941,1.2741361,0.42929274,-0.040299755,0.032351628,-0.1766974,1.3403565,0.9528964
-0.1,-0.1,1.1999999999999997,0.0,0.5235987755982988,0,-0.6259743,0.5308786,1.3999147,0.7040843,0.7727414,0.62400645,-0.12586842,1.2754151,0.430977,-0.28948328,0.10469349,-0.4602028,1.2728171,0.5392068
-0.1,-0.1,1.1999999999999997,0.0,0.5235987755982988,0,-0.62646973,0.558277,1.3973122,0.7054333,0.76655394,0.6249429,-0.10221592,1.2838962,0.427238,-0.20084819,0.03560345,-0.79556185,1.2006747,1.0661532
-0.1,-0.1,1.1999999999999997,0.0,0.5235987755982988,0,-0.62717575,0.54603183,1.3987588,0.7045483,0.7713035,0.62103623,-0.11065236,1.2711265,0.43676275,0.07531526,0.008287472,0.064089485,1.2400738,0.2645441
-0.1,-0.1,1.1999999999999997,0.0,0.5235987755982988,0,-0.6250064,0.5434189,1.400953,0.70517564,0.78701246,0.62651515,-0.10750984,1.2813178,0.43577912,-0.42409018,0.038254604,-0.61155224,1.364953,0.19242753
-0.1,-0.1,1.1999999999999997,0.0,0.5235987755982988,0,-0.625468,0.54577863,1.3992599,0.70424634,0.75899863,0.62343514,-0.102184504,1.2715907,0.4359804,0.06460895,-0.067736976,-0.83599555,1.3940794,0.67464954
-0.1,-0.1,1.1999999999999997,0.0,0.5235987755982988,0,-0.6267211,0.56489563,1.4011326,0.7047842,0.7785782,0.62335086,-0.09179474,1.2697793,0.43086484,-0.13059558,0.0331567,-0.46149105,1.3778098,0.26246133
-0.1,-0.1,1.1999999999999997,0.0,0.5235987755982988,0,-0.62558913,0.53587025,1.401379,0.70605814,0.7491783,0.6238629,-0.10274038,1.2622609,0.43672803,-0.09360343,0.017316177,-0.45545226,1.3051007,0.758721
-0.1,-0.1,1.1999999999999997,0.0,0.5235987755982988,0,-0.6253016,0.55067766,1.3969973,0.704254,0.7609161,0.62458086,-0.08925786,1.2804917,0.43627748,-0.32706115,-0.07519823,-0.46396506,1.268627,1.0143223
-0.1,-0.1,1.1999999999999997,0.0,0.5235987755982988,0,-0.6250975,0.54886264,1.3971857,0.70550585,0.7627495,0.62849694,-0.10785679,1.2717488,0.4395075,-0.25132167,0.03957568,-0.35289633,1.2479726,-0.106698886
-0.1,-0.1,1.1999999999999997,0.0,0.5235987755982988,0,-0.624839,0.54823506,1.4015803,0.7052954,0.7767128,0.6251068,-0.11941708,1.2856803,0.43572894,-0.3123196,-0.009954683,-0.40930474,1.3209395,0.55621576
-0.1,-0.1,1.1999999999999997,0.0,0.5235987755982988,0,-0.6240938,0.52512413,1.4008875,0.70348376,0.7666479,0.6297382,-0.11600728,1.2819713,0.43431598,-0.08875798,-0.09740208,-1.0447922,1.4543451,-0.40223613
-0.1,-0.1,1.1999999999999997,0.0,0.5235987755982988,0,-0.627397,0.53216225,1.3982399,0.70455533,0.76574045,0.624564,-0.10261484,1.266695,0.43485314,-0.25510332,0.07727335,0.08623119,1.2708867,0.028443951
-0.1,-0.1,1.1999999999999997,0.0,0.5235987755982988,0,-0.6254359,0.5351218,1.4002974,0.7050106,0.77007174,0.6263545,-0.09865996,1.2744559,0.4269924,-0.31904903,0.022076646,-0.5395849,1.1339782,1.1961453
-0.1,-0.1,1.1999999999999997,0.0,0.5235987755982988,0,-0.6231148,0.54319674,1.4003348,0.7045911,0.77304554,0.6269561,-0.12860501,1.2777104,0.4306369,-0.04949802,-0.017117532,-0.9942769,1.314386,0.8167854
-0.1,-0.1,1.1999999999999997,0.0,0.5235987755982988,0,-0.6286158,0.5458755,1.4022427,0.7048271,0.76834327,0.6223317,-0.112964876,1.2790862,0.43522093,-0.26562312,-0.11936757,-0.17522709,1.3033755,-0.42826587
-0.1,-0.1,1.1999999999999997,0.0,0.5235987755982988,0,-0.6271729,0.5418169,1.3996918,0.70432216,0.768882,0.62865263,-0.097434856,1.2834711,0.43189156,-0.36722252,-0.10311081,-0.6461479,1.3470503,0.76443076
-0.1,-0.1,1.1999999999999997,0.0,0.5235987755982988,0,-0.6268718,0.55467194,1.3969404,0.70626366,0.7635978,0.6275964,-0.10899067,1.2664642,0.43651184,-0.20408002,-0.054960303,-0.48982763,1.1409186,0.40336823
-0.1,-0.1,1.1999999999999997,0.0,0.5235987755982988,0,-0.626127,0.54679245,1.3972739,0.7049597,0.7766648,0.6245908,-0.08338773,1.278908,0.4345494,-0.3290556,0.0673965,-0.3588527,1.3113414,-0.6882135
-0.1,-0.1,1.1999999999999997,0.0,0.5235987755982988,0,-0.6278144,0.5365788,1.3981948,0.70567685,0.771564,0.6275018,-0.101316325,1.2774311,0.43344945,-0.40564868,-0.021813551,-0.3010124,1.2588539,1.1015215
-0.1,-0.1,1.1999999999999997,0.0,0.5235987755982988,0,-0.6257222,0.5423071,1.4003724,0.7063534,0.7726097,0.62183607,-0.10408334,1.2858325,0.4357838,-0.11804816,0.082299605,-0.84623486,1.4131678,1.0540699
-0.1,-0.1,1.1999999999999997,0.0,0.5235987755982988,0,-0.6292621,0.53332365,1.3994182,0.70488274,0.75105405,0.6228772,-0.094353355,1.290333,0.44500023,-0.20985635,0.023598855,-0.20477521,1.3538944,-0.1085883
-0.1,-0.1,1.1999999999999997,0.0,0.5235987755982988,0,-0.62476635,0.55453837,1.3979324,0.7039824,0.77523804,0.6284508,-0.11102012,1.2684668,0.4379692,-0.34467462,0.04196815,-0.68602294,1.2901555,0.032468535
-0.1,-0.1,1.1999999999999997,0.0,0.5235987755982988,0,-0.6281338,0.5397961,1.3991346,0.704359,0.7677918,0.6266418,-0.08888817,1.2751695,0.42504814,-0.124913685,-0.024696024,-0.2703878,1.2896814,0.42424166
-0.1,-0.1,1.1999999999999997,0.0,0.5235987755982988,0,-0.62347424,0.5517866,1.3967422,0.70233387,0.7687262,0.6254761,-0.10878019,1.2827611,0.4312561,-0.103367746,-0.06662172,-0.08040926,1.1700999,0.12640826
-0.1,-0.1,1.1999999999999997,0.0,0.5235987755982988,0,-0.62674046,0.5198839,1.4013574,0.7041741,0.77637637,0.6311223,-0.09134618,1.2664052,0.43070802,-0.17808522,0.03622059,-0.23451325,1.2508397,-0.10519911
-0.1,-0.1,1.1999999999999997,0.0,0.5235987755982988,0,-0.6262507,0.5467723,1.3996358,0.7060598,0.77508223,0.6321449,-0.09326246,1.2784027,0.43006268,-0.24390419,-0.02124941,-0.67055553,1.3216511,-0.17623566
-0.1,-0.1,1.1999999999999997,0.0,0.5235987755982988,0,-0.6248423,0.5399082,1.3980789,0.7052592,0.78481877,0.6233699,-0.09658292,1.2729666,0.43409795,-0.010088118,0.031757776,-0.56235105,1.3827541,0.8515898
-0.1,-0.1,1.1999999999999997,0.0,0.5235987755982988,0,-0.6257058,0.536372,1.3995041,0.70536244,0.77198696,0.62906116,-0.11477758,1.27126,0.43068495,-0.023104643,-0.027575728,0.032247916,1.3471893,-0.69475317
-0.1,-0.1,1.1999999999999997,0.0,0.5235987755982988,0,-0.6264339,0.54258215,1.4010042,0.702912,0.76986337,0.6230745,-0.10034013,1.2722323,0.42960724,0.16549338,0.1363171,-0.7073128,1.3151124,0.0928304
-0.1,-0.1,1.1999999999999997,0.0,0.5235987755982988,0,-0.6262234,0.53884494,1.3968709,0.7037824,0.77301365,0.6254147,-0.11731883,1.2843726,0.431533,-0.15912792,-0.0064906324,-0.20762925,1.271042,1.2531619
-0.1,-0.1,1.1999999999999997,0.0,0.5235987755982988,0,-0.6284243,0.5510305,1.4009992,0.704214,0.75618577,0.6294599,-0.114374004,1.2760843,0.43648317,0.04437486,0.061932057,-0.0905568,1.1603651,0.9430448
-0.1,-0.1,1.1999999999999997,0.0,0.5235987755982988,0,-0.6265302,0.5428113,1.3983474,0.70549726,0.78359663,0.62838006,-0.092293784,1.2824144,0.43668288,-0.29088783,-0.020419357,-0.6232287,1.3428327,1.5943297
-0.1,-0.1,1.1999999999999997,0.0,0.5235987755982988,0,-0.6256827,0.53238106,1.4000175,0.70466864,0.7710432,0.63198656,-0.11367451,1.2695764,0.43662262,-0.061292827,-0.0075005745,-0.4524595,1.2226299,0.03247111
-0.1,-0.1,1.1999999999999997,0.0,0.5235987755982988,0,-0.6264097,0.55293894,1.3974679,0.70460343,0.7756606,0.63158834,-0.090390585,1.284498,0.42321053,-0.0746305,-0.01564946,-0.8026182,1.3611608,0.7415309
-0.1,-0.1,1.1999999999999997,0.0,0.5235987755982988,0,-0.6287139,0.5413585,1.3971511,0.70164555,0.75988245,0.62500936,-0.09179867,1.2742567,0.43214968,-0.1513127,-0.061638903,-0.19357724,1.2929366,-0.21360685
-0.1,-0.1,1.1999999999999997,0.0,0.5235987755982988,0,-0.6259587,0.52533185,1.3980081,0.70394415,0.7520452,0.6232354,-0.10016428,1.273769,0.43838432,-0.4037385,-0.04740943,-0.39167786,1.2553127,0.12511088
-0.1,-0.1,1.1999999999999997,0.0,0.5235987755982988,0,-0.62727493,0.5540836,1.3959224,0.70553523,0.76620436,0.62823653,-0.11528021,1.2732493,0.42952895,-0.123199016,-0.012794482,-0.23346466,1.2999027,0.5372745
-0.1,-0.1,1.1999999999999997,0.0,0.5235987755982988,0,-0.62784386,0.5519812,1.3955771,0.7050397,0.7819196,0.62093693,-0.11095781,1.2848926,0.4329455,-0.25206268,-0.04361315,-0.45000646,1.1767489,0.0074548083
-0.1,-0.1,1.1999999999999997,0.0,0.5235987755982988,0,-0.6292679,0.5454179,1.3975633,0.7049053,0.7592431,0.62363905,-0.10219149,1.2731653,0.43659884,-0.089832485,0.0026416478,-0.71265286,1.1914552,0.1040766
-0.1,-0.1,1.1999999999999997,0.0,0.5235987755982988,0,-0.62693465,0.5375143,1.3969755,0.70530367,0.7614307,0.626093,-0.10078504,1.2871833,0.43990657,-0.31687942,-0.042777307,-0.59329534,1.3289896,0.32036507
-0.1,-0.1,1.1999999999999997,0.0,0.5235987755982988,0,-0.6284918,0.5411271,1.3985322,0.7034224,0.7720214,0.6277215,-0.108056284,1.2834619,0.4251043,-0.037320767,-0.07455891,-0.72451043,1.2433051,0.67714995
-0.1,-0.1,1.1999999999999997,0.0,0.5235987755982988,0,-0.6299779,0.5498546,1.3975606,0.70479435,0.77572495,0.6252527,-0.10578207,1.2767476,0.43737936,-0.17424673,0.056040186,-0.3690025,1.368205,-0.202276
-0.1,-0.1,1.1999999999999997,0.0,0.5235987755982988,0,-0.62458146,0.5371869,1.3977276,0.70512855,0.77846456,0.6194518,-0.114968255,1.2705743,0.4308764,-0.17217183,0.05740153,-0.3121235,1.1816314,0.7584539
-0.1,-0.1,1.1999999999999997,0.0,0.5235987755982988,0,-0.62612593,0.5378907,1.3979365,0.70333743,0.7861146,0.6253798,-0.10396023,1.268972,0.4401209,-0.295867,0.05320027,-0.49903375,1.2080919,-0.6109641
-0.1,-0.1,1.1999999999999997,0.0,0.5235987755982988,0,-0.62920034,0.5400538,1.3954152,0.70374626,0.7641992,0.63326734,-0.12182777,1.2634057,0.43025544,0.09364229,0.062979065,-0.9108097,1.221534,0.24111941
-0.1,-0.1,1.1999999999999997,0.0,0.5235987755982988,0,-0.62597114,0.53701025,1.399844,0.70593816,0.7726519,0.6240702,-0.09720782,1.2765653,0.4388856,-0.062820464,-0.021904794,-0.6328948,1.2967979,1.0504813
-0.1,-0.1,1.1999999999999997,0.0,0.5235987755982988,0,-0.62812406,0.55177647,1.398014,0.70421386,0.7658195,0.6236431,-0.098636195,1.2739798,0.42788997,0.048066296,-0.032434124,-0.21521614,1.3402323,1.0289159
-0.1,-0.1,1.1999999999999997,0.0,0.5235987755982988,0,-0.6291552,0.5423337,1.3996863,0.70449364,0.77411807,0.62595034,-0.1212289,1.2770373,0.43346664,-0.0070319455,0.011097825,-0.32906893,1.3893222,0.9469704
-0.1,-0.1,1.1999999999999997,0.0,0.5235987755982988,0,-0.6284112,0.5458722,1.399079,0.7044822,0.75832075,0.62199,-0.09813866,1.2725824,0.43776527,-0.114406474,0.009109516,-0.54024124,1.276388,-0.26346517
-0.1,-0.1,1.1999999999999997,0.0,0.5235987755982988,0,-0.6284883,0.54865474,1.3979224,0.7042481,0.77590454,0.6255667,-0.1211723,1.2545745,0.4383007,-0.32778335,-0.008662372,-0.22793458,1.3336325,-0.21171339
-0.1,-0.1,1.1999999999999997,0.0,0.5235987755982988,0,-0.624485,0.5280661,1.3982452,0.70519876,0.75829357,0.6322057,-0.10823511,1.274296,0.44225112,-0.31176868,-0.12978183,-0.3476583,1.3444623,0.46984452
-0.1,-0.1,1.1999999999999997,0.0,0.5235987755982988,0,-0.62617517,0.5492079,1.3969487,0.7060851,0.777745,0.6194675,-0.09462245,1.2770411,0.42933324,-0.014903116,0.073768936,-0.7044551,1.292298,0.90101624
-0.1,-0.1,1.1999999999999997,0.0,0.5235987755982988,0,-0.6247065,0.55889183,1.3969368,0.7053566,0.7568769,0.6236711,-0.113943316,1.2777761,0.43776068,-0.12134799,0.14072376,-0.38743064,1.3451823,-0.03521648
-0.1,-0.1,1.1999999999999997,0.0,0.5235987755982988,0,-0.6261455,0.53878534,1.3972704,0.7038125,0.76931864,0.62843513,-0.12012257,1.2740604,0.4442156,-0.24592175,-0.01809631,-0.10166309,1.1595004,1.4186076
-0.1,-0.1,1.1999999999999997,0.0,0.5235987755982988,0,-0.6228996,0.5358578,1.3975072,0.70582676,0.7532508,0.621772,-0.11658707,1.2688968,0.44527948,-0.029623285,0.09646521,-0.5811996,1.3421795,0.76452833
-0.1,-0.1,1.1999999999999997,0.0,0.5235987755982988,0,-0.6260831,0.54744023,1.3980631,0.7047537,0.751472,0.6211585,-0.11525212,1.2851053,0.43255085,-0.18080617,0.004147749,-0.5654232,1.2383937,0.6341465
-0.1,-0.1,1.1999999999999997,0.0,0.5235987755982988,0,-0.6258308,0.54719335,1.3980721,0.7057212,0.7644557,0.6269591,-0.079244934,1.2830901,0.43424118,-0.27862608,-0.025530709,-0.7689693,1.4403789,0.42540526
-0.1,-0.1,1.1999999999999997,0.0,0.5235987755982988,0,-0.6264415,0.55151284,1.3993975,0.70366853,0.7956177,0.6199253,-0.097249314,1.2734997,0.43778825,-0.05326788,-0.019720107,-0.008767541,1.2297406,-1.2021558
-0.1,-0.1,1.1999999999999997,0.0,0.5235987755982988,0,-0.62598175,0.5383675,1.3971398,0.7043788,0.76793915,0.6221766,-0.0926552,1.2772537,0.4343666,-0.2028722,-0.06656238,0.017704677,1.2081715,0.7046767
-0.1,-0.1,1.1999999999999997,0.0,0.5235987755982988,0,-0.62699854,0.53369313,1.3970202,0.7049511,0.7676442,0.6266982,-0.11479437,1.2781582,0.42331555,-0.32625693,-0.11233746,-0.5349696,1.4785134,-0.62376684
-0.1,-0.1,1.1999999999999997,0.0,0.5235987755982988,0,-0.6296667,0.55107164,1.3978597,0.70599073,0.77104586,0.6264498,-0.10766635,1.2817879,0.43825033,-0.43291128,0.0008178105,-0.34206623,1.3791363,0.25578675
-0.1,-0.1,1.1999999999999997,0.0,0.5235987755982988,0,-0.6265337,0.5478645,1.4005157,0.70410603,0.78432214,0.6243444,-0.1099243,1.2783725,0.4372226,-0.07593755,-0.03714806,-0.81042284,1.2374182,1.1719171
-0.1,-0.1,1.1999999999999997,0.0,0.5235987755982988,0,-0.62544346,0.52902454,1.4000629,0.7054621,0.77752,0.62756944,-0.113318376,1.2687178,0.4364477,-0.05052095,0.028194135,0.030301483,1.3632988,0.45876825
-0.1,-0.1,1.1999999999999997,0.0,0.5235987755982988,0,-0.6245339,0.53588694,1.4002866,0.7026261,0.77586114,0.62575895,-0.13384187,1.2743331,0.43413565,-0.29601875,0.015736334,-0.7158023,1.2760276,-0.13613023
