sanky1234/BimanualDexCatch/isaacgymenvs/cem_results/football_pose_-0.1_0.1_0.7_0.0_0.5235987755982988_0_2025-05-26.csv
x,y,z,roll,pitch,yaw,robot1/joint1,robot1/joint2,robot1/joint3,robot1/joint4,robot1/joint5,robot1/joint6,robot1/joint7,robot2/joint1,robot2/joint2,robot2/joint3,robot2/joint4,robot2/joint5,robot2/joint6,robot2/joint7
-0.1,0.1,0.7,0.0,0.5235987755982988,0,-0.09466317,1.5427039,0.4771587,-0.1031304,0.08313681,1.5555704,3.0157354,-1.0867937,1.4593494,-0.2337676,0.17738628,-0.038514636,1.2792474,0.06761262
-0.1,0.1,0.7,0.0,0.5235987755982988,0,-0.07627062,1.5206424,0.4733445,-0.08146175,0.11088961,1.559682,3.0491707,-1.1685854,1.4473547,-0.17497234,0.17441256,0.0052846777,1.2925135,0.005046286
-0.1,0.1,0.7,0.0,0.5235987755982988,0,-0.059173994,1.5284462,0.48106608,-0.083764665,0.10697176,1.5581743,3.0674772,-1.1763157,1.4601606,-0.26140037,0.16886714,0.009717215,1.3014296,0.08692836
-0.1,0.1,0.7,0.0,0.5235987755982988,0,-0.1003312,1.5402205,0.48748532,-0.06751359,0.1313285,1.5507164,3.0454264,-1.1080185,1.4636441,-0.22485,0.16291817,0.025962522,1.3071737,0.23883511
-0.1,0.1,0.7,0.0,0.5235987755982988,0,-0.057464648,1.539202,0.45975995,-0.06380866,0.12716018,1.5557871,3.0876772,-1.123259,1.4918447,-0.22473888,0.17861938,0.03675075,1.2712271,0.09986686
-0.1,0.1,0.7,0.0,0.5235987755982988,0,-0.08140572,1.5086277,0.46185985,-0.060645983,0.112573616,1.5536543,3.0806541,-1.1734893,1.4443794,-0.24898842,0.16780809,0.023820624,1.2752218,-0.029196711
-0.1,0.1,0.7,0.0,0.5235987755982988,0,-0.081333086,1.5519431,0.46585345,-0.09719249,0.12661453,1.5539011,3.042006,-1.0364196,1.4503384,-0.23134692,0.1914297,0.030039953,1.2946297,0.07317321
-0.1,0.1,0.7,0.0,0.5235987755982988,0,-0.045824762,1.5189,0.45222405,-0.109457225,0.08950392,1.5627279,3.033388,-1.1315014,1.4674308,-0.17497802,0.16955239,0.013341945,1.3047365,0.18490802
-0.1,0.1,0.7,0.0,0.5235987755982988,0,-0.10630451,1.5241841,0.45863965,-0.057722367,0.21943691,1.5565395,3.0290074,-1.1591517,1.4513692,-0.20585321,0.1800615,-0.061445653,1.2827901,0.15108661
-0.1,0.1,0.7,0.0,0.5235987755982988,0,-0.075496346,1.5345767,0.48111722,-0.0917122,0.0982223,1.5597816,3.0878615,-1.0852083,1.4671819,-0.19434322,0.17972098,-7.4540236e-05,1.2990794,0.17987376
-0.1,0.1,0.7,0.0,0.5235987755982988,0,-0.06466215,1.5321729,0.4611693,-0.0820228,0.113276705,1.557867,3.0634525,-1.1445814,1.4382749,-0.21143068,0.16054583,-0.014530615,1.3109089,0.07475639
-0.1,0.1,0.7,0.0,0.5235987755982988,0,-0.072179876,1.5290399,0.46800828,-0.0909346,0.13158236,1.555554,3.0666428,-1.0290697,1.456063,-0.22159724,0.18427946,0.034229968,1.2948564,0.052610483
-0.1,0.1,0.7,0.0,0.5235987755982988,0,-0.10210287,1.5250584,0.46520185,-0.0568146,0.1303025,1.549747,3.0589247,-1.0487486,1.4503437,-0.21021523,0.18721792,0.0022128352,1.275439,0.12093391
-0.1,0.1,0.7,0.0,0.5235987755982988,0,-0.094989896,1.529111,0.45792586,-0.06597803,0.12155515,1.5488431,3.0261364,-1.0583376,1.461207,-0.20755452,0.17564113,0.017086733,1.2966138,0.1465312
-0.1,0.1,0.7,0.0,0.5235987755982988,0,-0.09025982,1.548371,0.48078138,-0.09347212,0.10551835,1.5566819,3.0818155,-1.0962409,1.4621922,-0.2147836,0.16860786,-0.013064871,1.302788,0.1445053
-0.1,0.1,0.7,0.0,0.5235987755982988,0,-0.07448283,1.5196109,0.4809114,-0.0784219,0.11594644,1.5588175,3.0490723,-1.0533482,1.4753184,-0.23045023,0.1777985,-0.0042669005,1.2887299,0.20535286
-0.1,0.1,0.7,0.0,0.5235987755982988,0,-0.1261344,1.5381427,0.47559333,-0.06584628,0.08734614,1.5532384,3.0613205,-1.1267495,1.468048,-0.19521534,0.1688361,0.0006158538,1.2793188,0.087135054
-0.1,0.1,0.7,0.0,0.5235987755982988,0,-0.06555862,1.5567379,0.46229467,-0.11446469,0.10323381,1.5583068,3.0556576,-1.1241868,1.456636,-0.18223493,0.1604816,0.013655483,1.2805704,0.023691561
-0.1,0.1,0.7,0.0,0.5235987755982988,0,-0.07029208,1.5206583,0.4691091,-0.08355936,0.14585766,1.5587158,3.0333002,-1.0987722,1.4628564,-0.19592659,0.19253026,-0.002612178,1.2945607,0.013635205
-0.1,0.1,0.7,0.0,0.5235987755982988,0,-0.07414622,1.525839,0.48832682,-0.08035912,0.07414587,1.5480708,3.0860682,-1.1182371,1.4593458,-0.16353075,0.18494312,-0.017206717,1.2651654,-0.008267442
-0.1,0.1,0.7,0.0,0.5235987755982988,0,-0.080033176,1.5359513,0.46010965,-0.06896033,0.055826314,1.5526192,3.0354393,-1.0936772,1.4624163,-0.2619846,0.16868421,-0.028031703,1.2915463,0.062321264
-0.1,0.1,0.7,0.0,0.5235987755982988,0,-0.0859994,1.5246307,0.47355157,-0.07741854,0.081710726,1.5563246,3.0917656,-1.0321842,1.4587518,-0.21595751,0.18509418,0.039318655,1.293554,0.019639112
-0.1,0.1,0.7,0.0,0.5235987755982988,0,-0.12433255,1.5342652,0.47460955,-0.046105437,0.14587434,1.5616492,3.0427885,-1.144313,1.459894,-0.19480938,0.17098239,-0.0026561734,1.284891,0.1233692
-0.1,0.1,0.7,0.0,0.5235987755982988,0,-0.066789605,1.5334035,0.4686208,-0.08988596,0.06975746,1.5643731,3.0550776,-1.1050866,1.4525491,-0.18530834,0.1773836,-0.0005815272,1.2786975,0.1839371
-0.1,0.1,0.7,0.0,0.5235987755982988,0,-0.116082944,1.5380626,0.4643033,-0.045147326,0.14107932,1.555001,3.0899837,-1.0968721,1.4652375,-0.2270951,0.17796609,0.020679764,1.2876341,0.13203032
-0.1,0.1,0.7,0.0,0.5235987755982988,0,-0.10455673,1.5395685,0.49103215,-0.061390895,0.13517246,1.5597235,3.0796895,-1.1977788,1.4578491,-0.21120135,0.16584398,-0.006028754,1.3139269,0.087351024
-0.1,0.1,0.7,0.0,0.5235987755982988,0,-0.11204849,1.541587,0.4736455,-0.05916391,0.13132484,1.5596427,3.05881,-1.0571824,1.4681995,-0.21201034,0.169693,0.039492592,1.2950783,0.069858834
-0.1,0.1,0.7,0.0,0.5235987755982988,0,-0.055730198,1.5033903,0.4687881,-0.06214346,0.14639752,1.555632,3.052383,-1.0858378,1.4534132,-0.2038197,0.18129955,-0.04889378,1.2876003,0.096059814
-0.1,0.1,0.7,0.0,0.5235987755982988,0,-0.07159825,1.5312382,0.46088415,-0.08217686,0.16118962,1.5555321,3.0635762,-0.9994875,1.4619067,-0.23094569,0.1829802,0.016996367,1.2974609,0.10043824
-0.1,0.1,0.7,0.0,0.5235987755982988,0,-0.062227182,1.546535,0.47198424,-0.099683076,0.052186217,1.564639,3.0838382,-1.1016201,1.4578576,-0.24408937,0.17279015,-0.03405411,1.2597669,0.18231313
-0.1,0.1,0.7,0.0,0.5235987755982988,0,-0.05112743,1.5275474,0.46001768,-0.08944001,0.044241875,1.55203,3.074328,-1.1626036,1.4423126,-0.21939139,0.1552331,0.0061370265,1.3019955,0.08373087
-0.1,0.1,0.7,0.0,0.5235987755982988,0,-0.07017324,1.5434686,0.47678798,-0.09513265,0.075854085,1.5628293,3.0486434,-1.2360047,1.4505187,-0.21667337,0.1812468,0.00050083624,1.311808,0.16143605
-0.1,0.1,0.7,0.0,0.5235987755982988,0,-0.08293065,1.5353951,0.48517665,-0.07208929,0.045464996,1.5578468,3.0771396,-1.1097661,1.4448489,-0.22370693,0.16241527,0.02447385,1.2789125,0.11180798
-0.1,0.1,0.7,0.0,0.5235987755982988,0,-0.05582566,1.5320463,0.4666316,-0.085258946,0.1321329,1.5608255,3.0505304,-1.0278152,1.4688486,-0.170718,0.1757067,0.0061830957,1.3018204,0.15572038
-0.1,0.1,0.7,0.0,0.5235987755982988,0,-0.13408104,1.5419706,0.46913087,-0.06919076,0.08946366,1.5562238,3.0640037,-1.0727705,1.4486082,-0.22441208,0.16728216,-0.03838361,1.2717456,0.13068919
-0.1,0.1,0.7,0.0,0.5235987755982988,0,-0.14335714,1.5597397,0.46263504,-0.069038555,0.09485597,1.5547384,3.0239275,-1.127767,1.4382324,-0.19018364,0.1713181,-0.033247314,1.2844753,0.15681364
-0.1,0.1,0.7,0.0,0.5235987755982988,0,-0.079463564,1.5404855,0.465507,-0.07970294,0.1428131,1.5602931,3.0424182,-1.080463,1.4599447,-0.2046464,0.17901596,0.0008755422,1.2963183,0.16377881
-0.1,0.1,0.7,0.0,0.5235987755982988,0,-0.10510051,1.5359328,0.47411644,-0.063572206,0.13631123,1.5532207,3.083705,-1.1008943,1.4532337,-0.24197961,0.17137797,-0.046495244,1.2883438,0.07164777
-0.1,0.1,0.7,0.0,0.5235987755982988,0,-0.07951265,1.5115678,0.47149268,-0.03870464,0.0788374,1.5525951,3.0484905,-1.1123227,1.4800019,-0.17089064,0.1762333,-0.024112793,1.2846549,-0.03254094
-0.1,0.1,0.7,0.0,0.5235987755982988,0,-0.07085484,1.5270978,0.4723922,-0.0822011,0.11356409,1.5643479,3.0667384,-1.1567366,1.4505098,-0.18961625,0.1711565,0.022930676,1.3024454,-0.048343163
-0.1,0.1,0.7,0.0,0.5235987755982988,0,-0.08460282,1.5320495,0.46953505,-0.075929545,0.13026728,1.554246,3.0704176,-1.0766436,1.4363467,-0.1858566,0.18403609,0.014976788,1.2848269,0.06805021
-0.1,0.1,0.7,0.0,0.5235987755982988,0,-0.063554384,1.5402019,0.4709892,-0.08876279,0.17726259,1.5622151,3.0779462,-1.2174116,1.4523904,-0.23290892,0.1655041,-0.047223803,1.2829531,0.12858763
-0.1,0.1,0.7,0.0,0.5235987755982988,0,-0.10463914,1.5373061,0.43981695,-0.031061498,0.08401407,1.5582714,3.0182757,-1.1156188,1.4677598,-0.19718185,0.18076484,0.03190984,1.2965508,0.08626173
-0.1,0.1,0.7,0.0,0.5235987755982988,0,-0.05950249,1.5521897,0.47624868,-0.109828845,0.15088484,1.5628983,3.0459402,-1.0893029,1.446618,-0.23368296,0.17458546,-0.01886969,1.2985361,0.004821437
-0.1,0.1,0.7,0.0,0.5235987755982988,0,-0.08997646,1.521218,0.47793686,-0.060585577,0.1519917,1.5587986,3.0817063,-1.078027,1.4634659,-0.20629099,0.17423533,-0.036080036,1.284927,0.05116973
-0.1,0.1,0.7,0.0,0.5235987755982988,0,-0.07029538,1.5238695,0.46394143,-0.0542456,0.09200337,1.5625625,3.0903714,-1.1739744,1.4429955,-0.1789363,0.18159913,-0.022661017,1.2862867,0.21486153
-0.1,0.1,0.7,0.0,0.5235987755982988,0,-0.070666336,1.5495832,0.47320867,-0.099647924,0.11233,1.5592797,3.0416453,-1.1312941,1.4631668,-0.17701255,0.17851578,-0.013049656,1.3087112,0.13492009
-0.1,0.1,0.7,0.0,0.5235987755982988,0,-0.056822218,1.5336328,0.468929,-0.08869418,0.10563859,1.5648519,3.051034,-1.1008736,1.4600841,-0.19787522,0.17189106,0.007466543,1.2714224,0.046276078
-0.1,0.1,0.7,0.0,0.5235987755982988,0,-0.08699715,1.5316916,0.48067895,-0.06938478,0.07063815,1.5499549,3.0330017,-1.1333472,1.4434332,-0.21345963,0.17657842,0.0423236,1.2832671,0.107626915
-0.1,0.1,0.7,0.0,0.5235987755982988,0,-0.08256184,1.5437083,0.4835584,-0.057772726,0.111503035,1.5550625,3.0583737,-1.268404,1.4515773,-0.17193386,0.17512256,0.008862965,1.324235,0.09498291
-0.1,0.1,0.7,0.0,0.5235987755982988,0,-0.076457605,1.5304832,0.4992712,-0.076311976,0.10565966,1.5604019,3.0389445,-1.1295342,1.4520447,-0.2668892,0.16977681,0.033002783,1.278508,0.03190508
-0.1,0.1,0.7,0.0,0.5235987755982988,0,-0.11315974,1.5434275,0.4448771,-0.04119197,0.1276806,1.5608854,3.069695,-1.1345493,1.4634092,-0.21310748,0.15878762,-0.02646959,1.3016089,0.08089168
-0.1,0.1,0.7,0.0,0.5235987755982988,0,-0.07393724,1.5465107,0.46566775,-0.08379323,0.07447124,1.5599247,3.0411034,-1.1083348,1.4391086,-0.19027312,0.17649001,-0.0028104752,1.297746,0.19675492
-0.1,0.1,0.7,0.0,0.5235987755982988,0,-0.06452095,1.514367,0.4934096,-0.08682399,0.0617794,1.5533216,3.056016,-1.1642314,1.458025,-0.2054781,0.18399358,-0.011485833,1.2930919,0.10875886
-0.1,0.1,0.7,0.0,0.5235987755982988,0,-0.04283912,1.5325526,0.47379726,-0.066474035,0.117277,1.5606928,3.072379,-1.1408974,1.4658583,-0.18053338,0.16652362,-0.0012254601,1.3223412,0.18700731
-0.1,0.1,0.7,0.0,0.5235987755982988,0,-0.07739897,1.5417444,0.472909,-0.07339541,0.08167209,1.5607284,3.0854309,-1.0833666,1.4538945,-0.2338794,0.16325067,0.051981106,1.3022774,-0.0363687
-0.1,0.1,0.7,0.0,0.5235987755982988,0,-0.055690173,1.5330528,0.46347997,-0.08149058,0.061572276,1.5578115,3.0561728,-1.089428,1.4413912,-0.2332646,0.16991062,-0.028706627,1.2877289,0.048904814
-0.1,0.1,0.7,0.0,0.5235987755982988,0,-0.07744347,1.5210353,0.45311746,-0.054575857,0.14997445,1.5531405,3.0626788,-1.1686888,1.4609574,-0.22272474,0.16837727,0.018867057,1.2735125,0.034790073
-0.1,0.1,0.7,0.0,0.5235987755982988,0,-0.08667839,1.5314833,0.45084214,-0.07236941,0.076867804,1.5608592,3.0608633,-1.01813,1.4549674,-0.2231301,0.18695173,0.02639831,1.2974259,0.21944524
-0.1,0.1,0.7,0.0,0.5235987755982988,0,-0.03220495,1.5508144,0.47593096,-0.13181858,0.05946458,1.5459639,3.047732,-1.139118,1.4645842,-0.22690953,0.17336658,0.03170917,1.2928494,0.15879501
-0.1,0.1,0.7,0.0,0.5235987755982988,0,-0.08406541,1.5358274,0.47328982,-0.07686358,0.13255106,1.5571849,3.0297494,-1.1598542,1.4437344,-0.21582057,0.17310238,0.01566535,1.2887683,0.07248389
-0.1,0.1,0.7,0.0,0.5235987755982988,0,-0.074423075,1.5489753,0.46506664,-0.07779048,0.10744301,1.5587763,3.096452,-1.040955,1.4595963,-0.1983538,0.17109302,-0.06464724,1.2876239,0.14905657
-0.1,0.1,0.7,0.0,0.5235987755982988,0,-0.05863204,1.5374846,0.45626616,-0.0793934,0.14816876,1.5600218,3.0547106,-1.0993651,1.4486862,-0.23990285,0.17943858,0.045130126,1.303448,0.1993471
-0.1,0.1,0.7,0.0,0.5235987755982988,0,-0.09117751,1.5423483,0.46462744,-0.07245182,0.09402862,1.562615,3.0521424,-1.1656271,1.4591235,-0.18052809,0.16169877,-0.0034739892,1.2916925,0.10973618
-0.1,0.1,0.7,0.0,0.5235987755982988,0,-0.07005283,1.5460922,0.46063522,-0.06221761,0.10116375,1.5622023,3.0431917,-1.1279118,1.4456048,-0.24116853,0.17026557,0.012175066,1.3076373,0.1094997
-0.1,0.1,0.7,0.0,0.5235987755982988,0,-0.06993261,1.5462543,0.46939012,-0.07450764,0.09588144,1.5542254,3.0400941,-1.0550224,1.4447387,-0.19529814,0.18856966,-0.0025926824,1.3068446,0.1137854
-0.1,0.1,0.7,0.0,0.5235987755982988,0,-0.07999903,1.5387297,0.47498748,-0.0734384,0.09148446,1.561548,3.0469747,-1.0939795,1.4711386,-0.23412676,0.16971996,-0.015090775,1.2876259,0.18553114
-0.1,0.1,0.7,0.0,0.5235987755982988,0,-0.08305206,1.5428624,0.46930745,-0.052966185,0.12312318,1.5564604,3.0466268,-1.1506782,1.4592175,-0.23249744,0.19476326,0.017850379,1.270931,0.13590637
-0.1,0.1,0.7,0.0,0.5235987755982988,0,-0.08310522,1.5434493,0.46713907,-0.05450458,0.0661415,1.5586246,3.0873418,-1.0949619,1.4464034,-0.18603621,0.1587954,-0.037103493,1.2916775,0.11406132
-0.1,0.1,0.7,0.0,0.5235987755982988,0,-0.059584554,1.5365723,0.48119208,-0.0846003,0.12435725,1.5584935,3.0511026,-1.0971847,1.4569887,-0.21899854,0.16742119,0.0055569853,1.2668678,0.15194345
-0.1,0.1,0.7,0.0,0.5235987755982988,0,-0.037805036,1.5400789,0.454797,-0.094669275,0.10463931,1.5497679,3.0222812,-1.0914581,1.4503388,-0.1950922,0.17113188,-0.013348263,1.2820829,0.17328417
-0.1,0.1,0.7,0.0,0.5235987755982988,0,-0.08686899,1.5472248,0.46259925,-0.067043625,0.09243024,1.5552689,3.0431478,-1.06156,1.4459176,-0.2282733,0.16206415,0.009833065,1.2831703,-0.007776164
-0.1,0.1,0.7,0.0,0.5235987755982988,0,-0.0731773,1.5238286,0.46833244,-0.064403564,0.20865439,1.5484445,3.0224946,-1.1022154,1.4705931,-0.17191303,0.1740796,0.031034281,1.2796346,0.06670211
-0.1,0.1,0.7,0.0,0.5235987755982988,0,-0.063827984,1.5299003,0.4532738,-0.06254437,0.13136648,1.5533595,3.090101,-1.1341981,1.4500223,-0.2532789,0.17202729,0.0066642943,1.2701613,0.27169573
-0.1,0.1,0.7,0.0,0.5235987755982988,0,-0.08803917,1.5577965,0.46963874,-0.09590622,0.12034191,1.5545217,3.0789661,-1.0783709,1.4540175,-0.20999295,0.17721651,0.007920263,1.2974607,0.16331388
-0.1,0.1,0.7,0.0,0.5235987755982988,0,-0.07339521,1.5548764,0.43571717,-0.067563936,0.16467144,1.558991,3.0621734,-1.0804017,1.4535711,-0.17788541,0.17168601,0.01315485,1.2915837,0.15391698
-0.1,0.1,0.7,0.0,0.5235987755982988,0,-0.10520817,1.5410644,0.45039636,-0.06305715,0.065867014,1.5583966,3.0402098,-1.0426598,1.4578679,-0.18137793,0.187666,-0.04664013,1.2812493,0.07547007
-0.1,0.1,0.7,0.0,0.5235987755982988,0,-0.07627071,1.5325752,0.47412166,-0.09424126,0.08531896,1.5573097,3.0371354,-1.2025658,1.4759448,-0.22634262,0.16841981,-0.010182201,1.2706414,0.14559339
-0.1,0.1,0.7,0.0,0.5235987755982988,0,-0.06304944,1.540874,0.47151363,-0.0881626,0.10803344,1.5553157,3.0520535,-1.1528732,1.4681953,-0.21986926,0.16454962,0.009363187,1.3065518,0.05474779
-0.1,0.1,0.7,0.0,0.5235987755982988,0,-0.05223492,1.5285734,0.48519146,-0.113265365,0.08327354,1.5586922,3.072284,-1.1492529,1.454375,-0.18668967,0.19668439,0.033423565,1.2899992,0.17761065
-0.1,0.1,0.7,0.0,0.5235987755982988,0,-0.08080706,1.5336044,0.47653818,-0.03963644,0.15550318,1.5617698,3.0703154,-1.0521069,1.4648409,-0.19739237,0.1831689,-0.006132718,1.275971,0.14834769
-0.1,0.1,0.7,0.0,0.5235987755982988,0,-0.07677188,1.5442156,0.4708828,-0.07466208,0.12561217,1.5526837,3.0429337,-1.0680114,1.4391873,-0.22238483,0.17996162,0.02682376,1.3018808,0.15180787
-0.1,0.1,0.7,0.0,0.5235987755982988,0,-0.07626692,1.5461769,0.47023886,-0.068362236,0.12899034,1.5629338,3.0522861,-1.1198071,1.4305011,-0.19232637,0.1706053,0.008929139,1.3048075,0.136515
-0.1,0.1,0.7,0.0,0.5235987755982988,0,-0.09325331,1.5528075,0.46115682,-0.050630573,0.17313276,1.5626469,3.0491748,-1.0493165,1.4705895,-0.22271009,0.18844391,-0.016980898,1.2934976,0.0105113145
-0.1,0.1,0.7,0.0,0.5235987755982988,0,-0.087077804,1.5157093,0.469272,-0.060052305,0.12573868,1.5582634,3.0945559,-1.0710018,1.4642508,-0.22389376,0.1735084,-0.015593468,1.2784858,0.10929966
-0.1,0.1,0.7,0.0,0.5235987755982988,0,-0.08590741,1.5253016,0.47559643,-0.062280465,0.08385405,1.5599174,3.053514,-1.1221355,1.461758,-0.20453501,0.17408617,0.030311378,1.2703124,0.05468974
-0.1,0.1,0.7,0.0,0.5235987755982988,0,-0.057576522,1.5315515,0.48978895,-0.089233026,0.09823609,1.5563368,3.0735366,-1.1391438,1.4487784,-0.21978013,0.18279196,-0.0079396665,1.2937602,0.13086075
-0.1,0.1,0.7,0.0,0.5235987755982988,0,-0.12417628,1.5511955,0.47173843,-0.048008353,0.16458532,1.5528004,3.0603669,-1.1212082,1.4562705,-0.20176037,0.1725997,-0.018333439,1.2877898,0.16598254
-0.1,0.1,0.7,0.0,0.5235987755982988,0,-0.09026308,1.5435436,0.4613208,-0.0717339,0.11754064,1.5633788,3.0230322,-1.1495377,1.4414924,-0.22924379,0.18495618,0.0017887258,1.2808582,-0.06784605
-0.1,0.1,0.7,0.0,0.5235987755982988,0,-0.06504287,1.5393603,0.4810792,-0.083992355,0.068127654,1.5557824,3.078646,-1.1162018,1.4694213,-0.236206,0.16204834,0.006921282,1.2984447,0.15766059
-0.1,0.1,0.7,0.0,0.5235987755982988,0,-0.09068281,1.5507013,0.45229506,-0.08562859,0.14101121,1.5646253,3.0518126,-1.0593821,1.4752028,-0.26019117,0.17318217,0.004616791,1.2683419,0.13766813
-0.1,0.1,0.7,0.0,0.5235987755982988,0,-0.07280133,1.5402716,0.4518255,-0.07393369,0.13493444,1.5561593,3.0478454,-1.2328275,1.4532512,-0.22535108,0.16390198,-0.007154581,1.2814488,-0.027828481
-0.1,0.1,0.7,0.0,0.5235987755982988,0,-0.06018685,1.554996,0.461693,-0.04889663,0.12385217,1.5630578,3.051349,-1.165542,1.4397451,-0.21590295,0.19027515,-0.04840122,1.2746468,0.19381416
-0.1,0.1,0.7,0.0,0.5235987755982988,0,-0.09506141,1.5519699,0.47580257,-0.054527774,0.074744165,1.5616559,3.057271,-1.0436232,1.4787896,-0.18974775,0.17448466,0.0055485647,1.3049655,0.066440724
-0.1,0.1,0.7,0.0,0.5235987755982988,0,-0.096215285,1.5466611,0.47287047,-0.07815521,0.092774905,1.557046,3.0328684,-1.1063515,1.4550737,-0.23228893,0.17405689,-0.038269874,1.2998147,0.15561366
-0.1,0.1,0.7,0.0,0.5235987755982988,0,-0.08901528,1.5408489,0.47735012,-0.098375686,0.03376066,1.5513973,3.048593,-1.0976963,1.4406066,-0.21264747,0.18995656,-0.0074282624,1.2900614,0.08450024
-0.1,0.1,0.7,0.0,0.5235987755982988,0,-0.100637116,1.5457894,0.46493414,-0.05686519,0.09772495,1.5553731,3.0627522,-1.0713836,1.454708,-0.20552287,0.19100459,-0.023695666,1.2914302,0.23073474
-0.1,0.1,0.7,0.0,0.5235987755982988,0,-0.07434447,1.5369395,0.45817077,-0.11632774,0.1539624,1.5633854,3.069378,-1.0923098,1.4404345,-0.22482309,0.16428657,-0.04533072,1.2771739,-0.047182124
-0.1,0.1,0.7,0.0,0.5235987755982988,0,-0.06939967,1.5452746,0.4548454,-0.023516526,0.12401393,1.5537653,3.064118,-1.0929686,1.4588207,-0.25943932,0.1742817,-0.01230615,1.3107581,0.05767843
-0.1,0.1,0.7,0.0,0.5235987755982988,0,-0.08981689,1.5501236,0.4539002,-0.079398505,0.064846665,1.5543747,3.0459235,-1.057192,1.4449666,-0.23920873,0.16554156,0.047142625,1.3149966,0.059267823
-0.1,0.1,0.7,0.0,0.5235987755982988,0,-0.06836376,1.5252023,0.46684244,-0.076090604,0.14476067,1.5632161,3.055603,-1.1431458,1.4539961,-0.22419941,0.188833,-0.014485942,1.2848265,0.1287542
-0.1,0.1,0.7,0.0,0.5235987755982988,0,-0.118746325,1.5388296,0.46175623,-0.056090213,0.010132087,1.5581405,3.0647337,-1.1133842,1.4617984,-0.20361347,0.17964914,0.03650172,1.3273128,0.09096234
-0.1,0.1,0.7,0.0,0.5235987755982988,0,-0.077036776,1.5540459,0.4778028,-0.073604144,0.09238275,1.5533577,3.0907288,-1.0944827,1.4416472,-0.19220206,0.15626058,-0.0075647747,1.2793646,0.11507774
-0.1,0.1,0.7,0.0,0.5235987755982988,0,-0.040114813,1.5355954,0.49006364,-0.09624502,0.11968672,1.5549877,3.0527291,-0.9930969,1.4443835,-0.26004893,0.17988366,-0.02170593,1.277463,0.036111522
-0.1,0.1,0.7,0.0,0.5235987755982988,0,-0.067837045,1.5332669,0.4725012,-0.06939423,0.07895263,1.5585016,3.0546248,-1.0789452,1.4592229,-0.25545946,0.16741459,-0.007102692,1.2941734,-0.033289276
-0.1,0.1,0.7,0.0,0.5235987755982988,0,-0.092472844,1.5360756,0.49859273,-0.03948651,0.11863707,1.5514755,3.0720453,-1.0579743,1.4626926,-0.18243633,0.17476004,-0.05624272,1.2695134,-0.02784067
-0.1,0.1,0.7,0.0,0.5235987755982988,0,-0.07621907,1.5449511,0.48141173,-0.08088971,0.07331806,1.5572587,3.0331173,-1.0671295,1.4582095,-0.20987768,0.18745726,0.0002379963,1.2747492,0.17717288
-0.1,0.1,0.7,0.0,0.5235987755982988,0,-0.07721605,1.5344268,0.46579698,-0.069588,0.118978105,1.5589553,3.0739639,-1.0961221,1.4515331,-0.16322024,0.16304287,-0.018800065,1.311397,0.036259465
-0.1,0.1,0.7,0.0,0.5235987755982988,0,-0.08188061,1.5303881,0.4773904,-0.076785184,0.124789275,1.5479052,3.0582886,-1.0899448,1.452846,-0.17968135,0.1661842,0.0035720086,1.3200928,0.05206404
-0.1,0.1,0.7,0.0,0.5235987755982988,0,-0.09081541,1.5352159,0.4633618,-0.030057134,0.104647085,1.5588787,3.0699105,-1.1585289,1.4444886,-0.15420043,0.17637956,-0.028145919,1.2903545,0.06496983
-0.1,0.1,0.7,0.0,0.5235987755982988,0,-0.073848866,1.5358275,0.48212713,-0.05707717,0.06938688,1.5642155,3.0585403,-1.1730614,1.4549466,-0.20477849,0.18933865,-0.033016633,1.3029726,0.12911353
-0.1,0.1,0.7,0.0,0.5235987755982988,0,-0.08665939,1.526469,0.4515212,-0.10075624,0.16752738,1.5592726,3.0390804,-1.1974036,1.4559319,-0.23473161,0.17078489,0.02694595,1.2908188,0.14282098
-0.1,0.1,0.7,0.0,0.5235987755982988,0,-0.079656065,1.523723,0.47117528,-0.09973039,0.13631867,1.5628,3.0620084,-1.050474,1.4429404,-0.23068395,0.17953892,0.02600729,1.2713425,0.1494428
-0.1,0.1,0.7,0.0,0.5235987755982988,0,-0.09876658,1.5483848,0.45702687,-0.09673136,0.13222267,1.5632142,3.08356,-1.1827393,1.4345461,-0.18825476,0.17989135,-0.006393547,1.2789887,0.13720584
-0.1,0.1,0.7,0.0,0.5235987755982988,0,-0.085277535,1.5249612,0.46639824,-0.082269914,0.13513035,1.5586071,3.0470757,-1.1090811,1.4436942,-0.22798313,0.18212001,-0.01597121,1.2738726,0.18792564
-0.1,0.1,0.7,0.0,0.5235987755982988,0,-0.08531946,1.5262276,0.47843313,-0.08421219,0.1185582,1.5562513,3.0650754,-1.1025985,1.4550633,-0.20188868,0.17357343,-0.014444033,1.2841144,0.16729283
-0.1,0.1,0.7,0.0,0.5235987755982988,0,-0.065419525,1.5398701,0.46255177,-0.107321985,0.061757155,1.5569965,3.074083,-1.057674,1.4594566,-0.22478606,0.17121468,-0.018820457,1.2990348,0.14472635
-0.1,0.1,0.7,0.0,0.5235987755982988,0,-0.0824067,1.540288,0.450149,-0.08507484,0.16506164,1.5676457,3.034487,-1.1742959,1.4353086,-0.17474294,0.1671727,-0.007135461,1.2996908,0.12575983
-0.1,0.1,0.7,0.0,0.5235987755982988,0,-0.07754991,1.5364281,0.46674344,-0.0695927,0.10647567,1.563029,3.0585375,-1.1550825,1.4761561,-0.2388446,0.18075112,0.0038045119,1.3082154,0.059810426
-0.1,0.1,0.7,0.0,0.5235987755982988,0,-0.09398278,1.5396487,0.48498908,-0.093886375,0.06731716,1.5546514,3.055024,-1.1548194,1.4771065,-0.16918217,0.1764999,0.03572307,1.2788339,0.060184874
-0.1,0.1,0.7,0.0,0.5235987755982988,0,-0.049744412,1.5208329,0.45530516,-0.10145859,0.11382344,1.5583694,3.0365396,-1.1736118,1.4623412,-0.231613,0.17324084,-0.0128062535,1.303746,-0.029202284
-0.1,0.1,0.7,0.0,0.5235987755982988,0,-0.09743896,1.5305705,0.46162713,-0.068643354,0.12137209,1.5643363,3.071116,-1.1017228,1.473307,-0.23458639,0.18601127,-0.04280631,1.2825742,0.101856135
-0.1,0.1,0.7,0.0,0.5235987755982988,0,-0.0547859,1.511529,0.46110076,-0.08831538,0.069158055,1.5617214,3.0644097,-1.1142579,1.4442282,-0.17476414,0.16660963,0.0022779242,1.2995249,0.023760587
-0.1,0.1,0.7,0.0,0.5235987755982988,0,-0.039235387,1.5288643,0.48067814,-0.0926397,0.08864449,1.5579622,3.0246813,-1.0776541,1.4804509,-0.22722353,0.17465428,0.022146603,1.2877187,0.09635073
-0.1,0.1,0.7,0.0,0.5235987755982988,0,-0.07019965,1.5271765,0.4672839,-0.09037649,0.14817153,1.5592082,3.0949197,-1.0727103,1.4721897,-0.20015138,0.18525355,-0.0023659703,1.2907833,0.06873748
-0.1,0.1,0.7,0.0,0.5235987755982988,0,-0.13295233,1.5417776,0.49481973,-0.07539063,0.103106394,1.5579289,3.0632434,-1.1126457,1.4550937,-0.20718989,0.17337261,-0.001850901,1.2754773,0.2189978
-0.1,0.1,0.7,0.0,0.5235987755982988,0,-0.08113051,1.5120252,0.46862838,-0.032743946,0.13773501,1.5508258,3.0708985,-1.1755096,1.4471118,-0.2459111,0.1912046,-0.024380537,1.2857578,0.04449179
-0.1,0.1,0.7,0.0,0.5235987755982988,0,-0.07071684,1.5447779,0.46428028,-0.087934375,0.056873932,1.546859,3.0800273,-1.0605339,1.4783556,-0.21837282,0.17107153,0.039527908,1.2617365,0.12401864
-0.1,0.1,0.7,0.0,0.5235987755982988,0,-0.07394067,1.542851,0.44670478,-0.08580692,0.10528341,1.5546128,3.0602694,-1.2048873,1.4521731,-0.18921739,0.17921385,-0.0629162,1.30515,0.030174755
-0.1,0.1,0.7,0.0,0.5235987755982988,0,-0.06514664,1.5390234,0.47806814,-0.07138395,0.116968185,1.5503482,3.0351372,-1.0869493,1.4452828,-0.21490063,0.1873028,-0.0009872479,1.2941388,0.10812427
-0.1,0.1,0.7,0.0,0.5235987755982988,0,-0.06370202,1.5288562,0.4548296,-0.07199053,0.13666059,1.5534667,3.026446,-1.1649946,1.459662,-0.21574342,0.17777918,0.014505016,1.2845734,0.064433925
-0.1,0.1,0.7,0.0,0.5235987755982988,0,-0.0656108,1.5229138,0.49044076,-0.06852356,0.11705099,1.5613203,3.0398002,-1.1106342,1.4764564,-0.2157568,0.17462677,-0.008187775,1.3077629,-0.0098661985
-0.1,0.1,0.7,0.0,0.5235987755982988,0,-0.0725612,1.550391,0.47699302,-0.087265946,0.13898389,1.5536903,3.0761678,-1.1537005,1.462745,-0.21046637,0.18571146,-0.08133931,1.3116201,0.08105972
-0.1,0.1,0.7,0.0,0.5235987755982988,0,-0.07576678,1.5515498,0.4813258,-0.069157176,0.13619226,1.5584718,3.0673366,-1.2358353,1.4628181,-0.16971505,0.17499287,0.01746609,1.2933608,0.14468682
-0.1,0.1,0.7,0.0,0.5235987755982988,0,-0.046195984,1.5110734,0.46259344,-0.05820682,0.085450575,1.5572848,3.0642698,-1.1589867,1.4368798,-0.23402877,0.17789881,-0.01433105,1.3000443,0.14878999
-0.1,0.1,0.7,0.0,0.5235987755982988,0,-0.100235365,1.5465219,0.46273577,-0.08243583,0.096778646,1.559393,3.0764785,-1.1487247,1.4429781,-0.2125916,0.1774532,-0.007220902,1.2907186,0.10261187
-0.1,0.1,0.7,0.0,0.5235987755982988,0,-0.07275676,1.5405993,0.4861064,-0.07519392,0.09600402,1.5526509,3.0509458,-1.1330119,1.4494445,-0.20668273,0.178213,-0.00046185317,1.3080739,0.016616218
-0.1,0.1,0.7,0.0,0.5235987755982988,0,-0.041712467,1.5339743,0.4807652,-0.09461403,0.10541044,1.5638146,3.029667,-1.0706143,1.4509108,-0.20067497,0.17491938,-0.0017243709,1.2808517,-0.006087379
-0.1,0.1,0.7,0.0,0.5235987755982988,0,-0.05187532,1.5485064,0.44420058,-0.07356877,0.16137125,1.5591855,3.054152,-1.1369544,1.441405,-0.18579687,0.16983615,-0.037654445,1.2845336,0.12715851
-0.1,0.1,0.7,0.0,0.5235987755982988,0,-0.07761583,1.5248427,0.48278695,-0.07717995,0.1289528,1.56161,3.0624957,-1.1733075,1.4644006,-0.20755644,0.17202432,0.016841874,1.2881234,0.081713445
-0.1,0.1,0.7,0.0,0.5235987755982988,0,-0.04726662,1.5489984,0.4528688,-0.0837616,0.12952451,1.5537145,3.037428,-1.0990577,1.4575542,-0.19411457,0.18184893,-0.0065532653,1.2995656,0.05682948
-0.1,0.1,0.7,0.0,0.5235987755982988,0,-0.06501186,1.5321058,0.46946305,-0.054693457,0.11164005,1.5589241,3.0655107,-1.0601166,1.469005,-0.24328801,0.16123824,0.031268585,1.2780422,0.26371336
-0.1,0.1,0.7,0.0,0.5235987755982988,0,-0.08282123,1.538672,0.4661747,-0.09375839,0.12895922,1.556438,3.0633738,-1.1152233,1.464402,-0.18313059,0.17951578,0.005390133,1.2932887,0.09618591
-0.1,0.1,0.7,0.0,0.5235987755982988,0,-0.1074179,1.5453357,0.4936031,-0.06367014,0.111111015,1.5516834,3.0828083,-1.1964389,1.4590006,-0.21105233,0.1756155,-0.0018502258,1.2844889,0.0698323
-0.1,0.1,0.7,0.0,0.5235987755982988,0,-0.088107474,1.5391842,0.46333623,-0.080019094,0.109107085,1.5594242,3.0683553,-1.1161157,1.4693708,-0.25205758,0.17581283,0.0069118612,1.2839688,-0.0059466115
-0.1,0.1,0.7,0.0,0.5235987755982988,0,-0.091348715,1.5311807,0.45637956,-0.08195757,0.13676414,1.5669173,3.0451996,-1.129259,1.4405482,-0.21514606,0.17404562,-0.039489087,1.2890952,0.12487815
-0.1,0.1,0.7,0.0,0.5235987755982988,0,-0.07159438,1.5247,0.45769712,-0.0766795,0.09052695,1.5633641,3.0713706,-1.1463621,1.4633147,-0.16241693,0.17100811,-0.02667733,1.2928143,0.111520484
-0.1,0.1,0.7,0.0,0.5235987755982988,0,-0.06487198,1.5330868,0.49254522,-0.08818016,0.13656318,1.5587103,3.0441554,-1.1296014,1.4865012,-0.22109844,0.17145765,0.043241467,1.2751883,0.09648995
-0.1,0.1,0.7,0.0,0.5235987755982988,0,-0.1235991,1.5464356,0.49613407,-0.078045346,0.08834305,1.5553858,3.0340457,-1.2018888,1.466041,-0.23443595,0.1687099,-0.014350646,1.2852951,0.12535705
-0.1,0.1,0.7,0.0,0.5235987755982988,0,-0.0902622,1.5033296,0.49174818,-0.05844183,0.056913745,1.5619508,3.0647764,-1.2368361,1.4597251,-0.20004682,0.15853828,0.0069731385,1.2934012,0.09153301
-0.1,0.1,0.7,0.0,0.5235987755982988,0,-0.06049054,1.5284302,0.47792685,-0.119692825,0.055899225,1.552667,3.0518053,-1.1285964,1.4776798,-0.20975569,0.17079388,0.0012671425,1.3002595,0.037628375
-0.1,0.1,0.7,0.0,0.5235987755982988,0,-0.09465845,1.5334603,0.46287775,-0.04981315,0.1030451,1.5562118,3.039428,-1.150381,1.4681756,-0.21764714,0.17464906,-0.018601453,1.2810439,0.12240289
-0.1,0.1,0.7,0.0,0.5235987755982988,0,-0.07667055,1.5361648,0.48159656,-0.09062863,0.07226451,1.5577942,3.0540633,-1.1964777,1.4760331,-0.21075286,0.1755942,-0.04408557,1.2510132,-0.08730257
-0.1,0.1,0.7,0.0,0.5235987755982988,0,-0.08583598,1.5295618,0.4972135,-0.08333264,0.11737414,1.5574669,3.0639694,-1.1447245,1.4620891,-0.1777747,0.17791842,-0.0054789674,1.2896272,0.04006348
-0.1,0.1,0.7,0.0,0.5235987755982988,0,-0.061297376,1.4959236,0.46507302,-0.04793836,0.114854224,1.5620128,3.0459821,-1.1795355,1.4603217,-0.23139934,0.17153451,0.018197086,1.2748355,-0.040070996
-0.1,0.1,0.7,0.0,0.5235987755982988,0,-0.07305741,1.511392,0.46872434,-0.06991072,0.09676237,1.5609993,3.071301,-1.1506357,1.4659886,-0.20800462,0.17264353,-0.009118372,1.3051244,0.12451269
-0.1,0.1,0.7,0.0,0.5235987755982988,0,-0.097792156,1.5138651,0.45911023,-0.052881032,0.1450841,1.5576239,3.0485172,-1.118971,1.4946789,-0.18436159,0.16179807,0.00784265,1.2689497,0.12941888
-0.1,0.1,0.7,0.0,0.5235987755982988,0,-0.06830474,1.5366066,0.484782,-0.046365146,0.18441632,1.555594,3.0486782,-1.20018,1.4510735,-0.20131849,0.173389,-0.03202137,1.2737279,0.13516675
-0.1,0.1,0.7,0.0,0.5235987755982988,0,-0.08048461,1.5158087,0.4740287,-0.0409331,0.097417854,1.554365,3.0781631,-1.1811377,1.4536141,-0.2123005,0.17541386,0.0014817853,1.2732176,0.04278157
-0.1,0.1,0.7,0.0,0.5235987755982988,0,-0.07546828,1.5360587,0.48590323,-0.070693076,0.14210258,1.552553,3.0727296,-1.2180169,1.4505991,-0.17795712,0.16918604,-0.01977712,1.3044869,0.10764861
-0.1,0.1,0.7,0.0,0.5235987755982988,0,-0.08453971,1.5288725,0.4498303,-0.0590912,0.08251439,1.5616034,3.0936744,-1.1921443,1.4737158,-0.15558077,0.18912587,-0.014729418,1.297296,0.036606163
-0.1,0.1,0.7,0.0,0.5235987755982988,0,-0.079576224,1.535732,0.45047742,-0.07612852,0.121730454,1.5545931,3.0591621,-1.1199235,1.4661113,-0.19321078,0.18410693,-0.0040271194,1.2971845,0.11325975
-0.1,0.1,0.7,0.0,0.5235987755982988,0,-0.03434961,1.5389988,0.4707627,-0.15236437,0.12617534,1.553,3.0613272,-1.1540984,1.4481484,-0.19825147,0.17369138,0.012749511,1.2736309,0.08307348
-0.1,0.1,0.7,0.0,0.5235987755982988,0,-0.05503759,1.5307257,0.47546044,-0.09596528,0.10018171,1.560606,3.0686364,-1.1501199,1.4658166,-0.17951785,0.17507246,-0.0024577458,1.3023996,0.05310706
-0.1,0.1,0.7,0.0,0.5235987755982988,0,-0.07226211,1.5460349,0.45923305,-0.06381264,0.05163546,1.557788,3.0330353,-1.1299556,1.4707862,-0.17122135,0.17583202,0.024304189,1.2967683,0.09939083
-0.1,0.1,0.7,0.0,0.5235987755982988,0,-0.115781076,1.5321358,0.45731235,-0.06744535,0.12806672,1.5611404,3.0375328,-1.2129836,1.4725384,-0.21832234,0.16959661,0.066689365,1.3040942,0.12453139
-0.1,0.1,0.7,0.0,0.5235987755982988,0,-0.07274461,1.5299422,0.45657766,-0.095097095,0.10311546,1.5609634,3.0222955,-1.1017231,1.466453,-0.22099745,0.17816526,0.024432404,1.2976631,0.08039155
-0.1,0.1,0.7,0.0,0.5235987755982988,0,-0.066179685,1.5275809,0.46799526,-0.087684266,0.04608797,1.5533277,3.0973668,-1.140979,1.4620862,-0.23892881,0.15931742,0.035744663,1.280495,0.14765553
-0.1,0.1,0.7,0.0,0.5235987755982988,0,-0.06324589,1.5209677,0.48229814,-0.08006003,0.08635318,1.5582355,3.041522,-1.157649,1.4569577,-0.21417071,0.17956634,0.035403423,1.304739,0.024659785
-0.1,0.1,0.7,0.0,0.5235987755982988,0,-0.108019374,1.5446512,0.48824283,-0.054259963,0.14152612,1.556681,3.0673554,-1.2068079,1.4576675,-0.20112321,0.17786613,0.033138845,1.2947241,0.13957915
-0.1,0.1,0.7,0.0,0.5235987755982988,0,-0.08357102,1.5364279,0.4738364,-0.06567626,0.15871425,1.5616088,3.0539048,-1.1586457,1.4513801,-0.22900575,0.16911852,-0.021074792,1.2856586,0.017212158
-0.1,0.1,0.7,0.0,0.5235987755982988,0,-0.08473313,1.5455177,0.45765305,-0.061148822,0.070349514,1.5618721,3.0771787,-1.1177137,1.4599195,-0.2129972,0.16599624,-0.00041130636,1.2909385,0.2135224
-0.1,0.1,0.7,0.0,0.5235987755982988,0,-0.06442269,1.5358341,0.48322335,-0.10866897,0.029722057,1.5506847,3.080874,-1.1652529,1.4643308,-0.20186108,0.1643908,0.012650673,1.2841092,0.04006234
-0.1,0.1,0.7,0.0,0.5235987755982988,0,-0.10116954,1.542522,0.49424168,-0.060675334,0.18663388,1.556397,3.0725605,-1.133646,1.4786578,-0.19937111,0.17641431,-0.058458876,1.2819813,0.114573866
-0.1,0.1,0.7,0.0,0.5235987755982988,0,-0.07278611,1.5307432,0.483006,-0.08774749,0.08927025,1.5573529,3.0700383,-1.0998846,1.4601167,-0.22877318,0.17458603,0.060439225,1.3008188,0.07674196
-0.1,0.1,0.7,0.0,0.5235987755982988,0,-0.055804927,1.5428729,0.44244158,-0.039214745,0.13743845,1.5498997,3.0369482,-1.1752441,1.4710624,-0.17318568,0.17513388,0.010223228,1.2908648,0.2467582
-0.1,0.1,0.7,0.0,0.5235987755982988,0,-0.054693915,1.5366329,0.45659363,-0.07526498,0.1406667,1.5549085,3.0375683,-1.0886407,1.4836878,-0.16312404,0.17423521,0.0076138075,1.2930847,0.05279813
-0.1,0.1,0.7,0.0,0.5235987755982988,0,-0.077761665,1.548788,0.4278821,-0.057164956,0.12159519,1.5567966,3.0358405,-1.1569144,1.4597903,-0.22371817,0.18364613,0.019781183,1.2846142,0.041493624
-0.1,0.1,0.7,0.0,0.5235987755982988,0,-0.07575271,1.5292958,0.46595255,-0.09055237,0.14489608,1.5531012,3.0248268,-1.1549261,1.4475046,-0.18979898,0.17893745,-0.006248498,1.2895579,0.2457049
-0.1,0.1,0.7,0.0,0.5235987755982988,0,-0.076903105,1.5486934,0.47059357,-0.09711817,0.10247347,1.5585146,3.0777771,-1.0708278,1.4454312,-0.20653126,0.17519765,-0.027690055,1.2999926,0.13401951
-0.1,0.1,0.7,0.0,0.5235987755982988,0,-0.07093744,1.538978,0.45502737,-0.07772095,0.14257932,1.549642,3.0680883,-1.1468266,1.4534411,-0.21042414,0.17002144,-0.016744142,1.2930183,0.09066793
-0.1,0.1,0.7,0.0,0.5235987755982988,0,-0.083188854,1.5426097,0.4706955,-0.08336804,0.06561499,1.5681167,3.0464976,-1.1794733,1.4553993,-0.19650124,0.16514897,-0.0116361575,1.3085678,0.23725615
-0.1,0.1,0.7,0.0,0.5235987755982988,0,-0.06664715,1.5439088,0.48984915,-0.06520277,0.052813765,1.5529711,3.0505898,-1.0894458,1.4773077,-0.28098878,0.18512826,0.025050282,1.2943758,0.020076433
-0.1,0.1,0.7,0.0,0.5235987755982988,0,-0.08292297,1.537371,0.46914637,-0.0804729,0.116803914,1.5525147,3.0435588,-1.048081,1.4610431,-0.2548604,0.17955226,0.04206094,1.2845175,0.17546988
-0.1,0.1,0.7,0.0,0.5235987755982988,0,-0.027505415,1.5514749,0.4448459,-0.09538677,0.07391517,1.556022,3.0615168,-1.1292582,1.4714041,-0.21121547,0.16686366,0.020539513,1.2866291,0.010720669
-0.1,0.1,0.7,0.0,0.5235987755982988,0,-0.11184309,1.5392964,0.4857118,-0.052412447,0.07259732,1.5629799,3.0768418,-1.1196012,1.4577972,-0.19168596,0.1817831,0.0047306926,1.2800878,0.04724753
-0.1,0.1,0.7,0.0,0.5235987755982988,0,-0.073946446,1.5410838,0.47990558,-0.07111628,0.12793481,1.5592568,3.043996,-1.1519898,1.4553391,-0.21330445,0.17818199,0.0018042988,1.2829908,0.1068899
-0.1,0.1,0.7,0.0,0.5235987755982988,0,-0.0844712,1.5384476,0.47077343,-0.05484729,0.1540392,1.5511273,3.0443258,-1.1299443,1.4553522,-0.23297429,0.1694273,0.02107351,1.2869589,0.081693664
-0.1,0.1,0.7,0.0,0.5235987755982988,0,-0.06655499,1.528203,0.46397254,-0.06611263,0.11027299,1.5603293,3.0613594,-1.0761209,1.4655389,-0.24058487,0.17405567,-0.03806085,1.2806482,0.18631527
-0.1,0.1,0.7,0.0,0.5235987755982988,0,-0.078812994,1.5422401,0.4981472,-0.068281315,0.10933197,1.5534657,3.0621119,-1.1586094,1.4516218,-0.21045047,0.167832,0.026810952,1.2872823,0.010541781
-0.1,0.1,0.7,0.0,0.5235987755982988,0,-0.049857203,1.5401162,0.47335395,-0.06352609,0.049181808,1.5525072,3.0456674,-1.155878,1.4604073,-0.24192642,0.16998999,-0.009142633,1.2873294,0.030987876
-0.1,0.1,0.7,0.0,0.5235987755982988,0,-0.088409394,1.5395523,0.43903455,-0.06700917,0.06242326,1.5620825,3.057757,-1.1014361,1.4699368,-0.24871506,0.17781298,0.021151192,1.2976259,0.1188952
-0.1,0.1,0.7,0.0,0.5235987755982988,0,-0.040947694,1.5291059,0.46447316,-0.09431416,0.085044585,1.5591584,3.030098,-1.1539098,1.4488775,-0.18840349,0.17680946,-0.009381599,1.2838442,0.0054260814
-0.1,0.1,0.7,0.0,0.5235987755982988,0,-0.06405894,1.553435,0.48289895,-0.10508991,0.089189224,1.5529634,3.0623827,-1.1215543,1.4618413,-0.17994794,0.17304304,0.012687384,1.2905462,0.13382855
-0.1,0.1,0.7,0.0,0.5235987755982988,0,-0.04897987,1.5469127,0.47304314,-0.09024107,0.08949775,1.554051,3.08563,-1.1477374,1.4563359,-0.19965476,0.18027347,0.0072198934,1.2718177,0.14489341
-0.1,0.1,0.7,0.0,0.5235987755982988,0,-0.049348425,1.522992,0.4589682,-0.09035468,0.10075615,1.5578889,3.0210614,-1.1423473,1.4725765,-0.2266901,0.16014113,-0.015820278,1.2950767,0.11575226
-0.1,0.1,0.7,0.0,0.5235987755982988,0,-0.072524145,1.5390574,0.46905664,-0.051645655,0.07232362,1.5525408,3.0587106,-1.1076123,1.444222,-0.2526869,0.16974847,0.0020574508,1.3087661,0.20544125
-0.1,0.1,0.7,0.0,0.5235987755982988,0,-0.082243636,1.5541191,0.4616308,-0.07884426,0.09200008,1.5489217,3.039824,-1.2047067,1.4512964,-0.19483002,0.18868168,-0.014233942,1.2959324,0.15769611
-0.1,0.1,0.7,0.0,0.5235987755982988,0,-0.082358256,1.5422958,0.48128265,-0.069758415,0.08992126,1.5529425,3.061066,-1.1413784,1.4535792,-0.23878786,0.16590954,-0.018317027,1.2815783,0.09941088
-0.1,0.1,0.7,0.0,0.5235987755982988,0,-0.06648418,1.5357234,0.49376452,-0.08250261,0.10175196,1.5556153,3.0651755,-1.1694539,1.4614706,-0.21024795,0.17769712,0.016289959,1.2933046,0.095314756
-0.1,0.1,0.7,0.0,0.5235987755982988,0,-0.08959188,1.5359576,0.4754823,-0.09060909,0.12888496,1.5646917,3.060971,-1.1304042,1.4511538,-0.20880505,0.17613347,0.0597959,1.2979568,0.011779772
-0.1,0.1,0.7,0.0,0.5235987755982988,0,-0.07034264,1.5283849,0.4865127,-0.06913204,0.1409581,1.5532111,3.0149865,-1.1385561,1.4648848,-0.19597088,0.17847365,0.005010426,1.2736664,0.10615398
-0.1,0.1,0.7,0.0,0.5235987755982988,0,-0.10043684,1.5346248,0.4637994,-0.06778426,0.07118848,1.5537345,3.0628908,-1.1670232,1.459755,-0.22310732,0.1628961,-0.008227124,1.270637,0.18574859
-0.1,0.1,0.7,0.0,0.5235987755982988,0,-0.055198207,1.5233319,0.46347785,-0.05404918,0.099100575,1.5599115,3.0511155,-1.1323674,1.4631809,-0.18487789,0.18252467,-0.006345039,1.2958114,0.022289611
-0.1,0.1,0.7,0.0,0.5235987755982988,0,-0.06051245,1.5323561,0.4806754,-0.060113996,0.10734117,1.5486884,3.046076,-1.1568958,1.4503437,-0.19932893,0.17728284,0.017944368,1.288284,0.14382634
-0.1,0.1,0.7,0.0,0.5235987755982988,0,-0.09019554,1.528948,0.4657627,-0.010907057,0.14385363,1.5593704,3.057562,-1.0244931,1.4649497,-0.2071202,0.17235534,-0.037985336,1.2736329,0.03486215
-0.1,0.1,0.7,0.0,0.5235987755982988,0,-0.0808122,1.5494795,0.45496505,-0.08022047,0.13827977,1.5576532,3.0895662,-1.1178616,1.4416646,-0.22791044,0.18199697,-0.008616121,1.2979413,0.10274994
-0.1,0.1,0.7,0.0,0.5235987755982988,0,-0.06088922,1.5350466,0.50478345,-0.10404966,0.033976097,1.5604098,3.039667,-1.1072363,1.4598733,-0.22640318,0.17454305,0.029206663,1.2817729,0.10976592
-0.1,0.1,0.7,0.0,0.5235987755982988,0,-0.067541756,1.5349078,0.48830262,-0.07325717,0.13602573,1.5592525,3.043559,-1.1598499,1.4496714,-0.23470207,0.17506157,-0.014719575,1.2592827,0.04935576
-0.1,0.1,0.7,0.0,0.5235987755982988,0,-0.08398301,1.544656,0.45553967,-0.053879302,0.18534222,1.5619249,3.0646422,-1.156114,1.4548846,-0.25248384,0.18007086,0.025591604,1.2955699,0.12583202
-0.1,0.1,0.7,0.0,0.5235987755982988,0,-0.087138586,1.544941,0.46631548,-0.0732805,0.12974963,1.5570099,3.0756764,-1.2113503,1.4376845,-0.19074436,0.17228329,0.009663773,1.2836413,0.040829588
-0.1,0.1,0.7,0.0,0.5235987755982988,0,-0.07655398,1.5689212,0.44688776,-0.07181894,0.11001154,1.556528,3.0672495,-1.0826811,1.4742426,-0.1939714,0.17217733,0.026674617,1.3011266,0.19415066
-0.1,0.1,0.7,0.0,0.5235987755982988,0,-0.11951278,1.5419667,0.47282,-0.0074212146,0.09431534,1.5507363,3.0365715,-1.1780577,1.4631124,-0.19130857,0.1652082,0.035615075,1.2765598,0.037880063
-0.1,0.1,0.7,0.0,0.5235987755982988,0,-0.08302618,1.5303055,0.47675273,-0.06409873,0.08716102,1.5532485,3.0492373,-1.0469834,1.4624442,-0.19066344,0.17423066,-0.0067973835,1.2775092,-0.058288056
-0.1,0.1,0.7,0.0,0.5235987755982988,0,-0.09073363,1.5185196,0.48796532,-0.10268298,0.13007176,1.5487953,3.0481234,-1.1489599,1.4726375,-0.18652153,0.16999242,-0.010277314,1.2745914,-0.0018619846
-0.1,0.1,0.7,0.0,0.5235987755982988,0,-0.105804004,1.522622,0.44267094,-0.085109815,0.15814291,1.5502819,3.0727901,-1.1400769,1.4578202,-0.1866494,0.17404984,0.039712053,1.3117026,0.02947565
-0.1,0.1,0.7,0.0,0.5235987755982988,0,-0.08928614,1.5371403,0.45395628,-0.0902459,0.13515636,1.5562954,3.0547278,-1.177311,1.4569927,-0.18418716,0.16396362,-0.028634539,1.3114872,0.09762735
-0.1,0.1,0.7,0.0,0.5235987755982988,0,-0.09296597,1.5221578,0.47708037,-0.07281736,0.07594915,1.5545679,3.0559363,-1.0854906,1.4882374,-0.1780324,0.18183643,0.007881932,1.3099521,0.04254146
-0.1,0.1,0.7,0.0,0.5235987755982988,0,-0.06415917,1.5317966,0.45176005,-0.07628567,0.15476684,1.5539669,3.0484052,-1.1554229,1.4548916,-0.21340805,0.16396722,-0.008624478,1.2875535,0.054486193
-0.1,0.1,0.7,0.0,0.5235987755982988,0,-0.08404988,1.5086561,0.46062872,-0.049265828,0.046869513,1.5481203,3.0571055,-1.1010829,1.443861,-0.23660423,0.17178583,-0.017757626,1.3178473,0.13143784
-0.1,0.1,0.7,0.0,0.5235987755982988,0,-0.07665563,1.5187585,0.45645702,-0.06680239,0.08081285,1.5570056,3.0444965,-1.0901275,1.476442,-0.18526684,0.18411887,0.053021796,1.2712154,0.19481692
-0.1,0.1,0.7,0.0,0.5235987755982988,0,-0.08706246,1.5453805,0.47139955,-0.08270768,0.15076198,1.5585995,3.02839,-1.1314127,1.4739741,-0.2148821,0.17713486,-0.02305994,1.2994163,0.08368273
-0.1,0.1,0.7,0.0,0.5235987755982988,0,-0.037647486,1.5280399,0.49738017,-0.014593032,0.07255507,1.5569957,3.0628145,-1.0508555,1.4589573,-0.19656645,0.16945614,0.017553862,1.306269,0.16782962
-0.1,0.1,0.7,0.0,0.5235987755982988,0,-0.0652229,1.5410753,0.47281408,-0.090809464,0.16232643,1.5580822,3.083189,-1.1024175,1.4664783,-0.17394952,0.15543601,0.013639879,1.2991685,0.089250445
-0.1,0.1,0.7,0.0,0.5235987755982988,0,-0.11397346,1.5265443,0.46643552,-0.06390886,0.11060216,1.5617666,3.0435002,-1.1613129,1.4718091,-0.24230975,0.17363891,0.03530935,1.3093656,0.22253725
-0.1,0.1,0.7,0.0,0.5235987755982988,0,-0.081929065,1.5279405,0.46944022,-0.061977223,0.08679547,1.5458571,3.0641222,-1.2092636,1.4585727,-0.17771642,0.18570752,0.012178383,1.2940063,0.07189005
-0.1,0.1,0.7,0.0,0.5235987755982988,0,-0.07502524,1.5353094,0.48013628,-0.08802031,0.09446145,1.556138,3.0475707,-1.0975333,1.4576647,-0.19931802,0.16689862,-0.0057042367,1.293981,0.09106259
-0.1,0.1,0.7,0.0,0.5235987755982988,0,-0.09608357,1.5347669,0.4785108,-0.06610667,0.10844627,1.5674937,3.0839734,-1.1406682,1.4558125,-0.22046345,0.16464402,-0.030892469,1.3155489,0.06867436
-0.1,0.1,0.7,0.0,0.5235987755982988,0,-0.06993634,1.5549841,0.44533154,-0.056257192,0.102916986,1.5527116,3.0765576,-1.1339505,1.4601519,-0.18580176,0.17996341,-0.029139398,1.3030156,0.031889625
-0.1,0.1,0.7,0.0,0.5235987755982988,0,-0.06199982,1.5245736,0.46564376,-0.088350065,0.055551462,1.5505587,3.0460174,-1.186618,1.4563744,-0.21520217,0.17290321,0.0064414977,1.3054222,0.15788142
-0.1,0.1,0.7,0.0,0.5235987755982988,0,-0.10277555,1.5410055,0.48572487,-0.06434884,0.112231,1.5548245,3.0538747,-1.1362764,1.4326923,-0.20026296,0.16108032,0.009585064,1.2955892,0.23429501
-0.1,0.1,0.7,0.0,0.5235987755982988,0,-0.106496066,1.5521624,0.48500967,-0.06595673,0.11957318,1.5540718,3.0407662,-1.1450373,1.461177,-0.17947006,0.1760597,0.03415284,1.2829736,0.07636223
-0.1,0.1,0.7,0.0,0.5235987755982988,0,-0.06105898,1.5243458,0.46066013,-0.068680614,0.1768822,1.5537467,3.0443785,-1.1304158,1.4799639,-0.20519319,0.17646453,0.010300336,1.3013474,0.075550474
-0.1,0.1,0.7,0.0,0.5235987755982988,0,-0.070465855,1.5170358,0.4765464,-0.056198593,0.0664826,1.5593041,3.0673409,-1.1703063,1.4561795,-0.20288344,0.17070824,0.011924801,1.3032774,0.1314561
-0.1,0.1,0.7,0.0,0.5235987755982988,0,-0.06429423,1.539788,0.48469895,-0.077431835,0.13368313,1.5643255,3.0738297,-1.0764854,1.4553893,-0.19194072,0.18985437,-0.010498089,1.3069985,0.099143155
-0.1,0.1,0.7,0.0,0.5235987755982988,0,-0.07318961,1.5424271,0.47059166,-0.06661495,0.057029504,1.5521419,3.0668633,-1.0402997,1.4530613,-0.21752621,0.17569134,-0.0033093824,1.2922585,0.22638139
-0.1,0.1,0.7,0.0,0.5235987755982988,0,-0.050682507,1.5233648,0.4858222,-0.06823034,0.11449037,1.5599792,3.0745635,-1.099654,1.4559237,-0.19000901,0.17655022,0.010429319,1.2739643,-0.014679752
-0.1,0.1,0.7,0.0,0.5235987755982988,0,-0.07139003,1.5289166,0.46419537,-0.055113655,0.09865601,1.5575224,3.0737386,-1.0879209,1.4466703,-0.2113984,0.17852058,-0.015715655,1.2961626,0.13664313
-0.1,0.1,0.7,0.0,0.5235987755982988,0,-0.06611867,1.5349185,0.45094588,-0.07752936,0.015363572,1.5585821,3.0655203,-1.1879305,1.4588989,-0.20620815,0.16995704,-0.022127349,1.3021237,0.078972474
-0.1,0.1,0.7,0.0,0.5235987755982988,0,-0.07679468,1.5484189,0.445529,-0.068564355,0.09780742,1.564844,3.042062,-1.0808812,1.453314,-0.20161381,0.16267233,0.008588438,1.3000349,0.16746247
-0.1,0.1,0.7,0.0,0.5235987755982988,0,-0.07611559,1.5233082,0.48327133,-0.057966292,0.0894576,1.5543191,3.0299425,-1.188779,1.4644718,-0.18898986,0.16427065,-0.0025433043,1.282221,0.20976615
-0.1,0.1,0.7,0.0,0.5235987755982988,0,-0.073025644,1.5403105,0.46622545,-0.027815811,0.17486013,1.5593424,3.0701914,-1.2031769,1.4651849,-0.17033486,0.16244702,0.036387376,1.2973864,0.061538234
-0.1,0.1,0.7,0.0,0.5235987755982988,0,-0.041117918,1.5269108,0.44455597,-0.067013755,0.12092784,1.5537002,3.0555978,-1.1499238,1.4528875,-0.16978654,0.17746222,-0.020757124,1.2707387,0.10081884
-0.1,0.1,0.7,0.0,0.5235987755982988,0,-0.093612224,1.5411501,0.4552815,-0.07174228,0.10018757,1.5553172,3.0609393,-1.1544023,1.4656961,-0.19638196,0.17484762,-0.0043321163,1.2920264,0.17460257
-0.1,0.1,0.7,0.0,0.5235987755982988,0,-0.07431214,1.5504555,0.4707833,-0.064688586,0.082343265,1.5613053,3.0433042,-1.0763065,1.4469198,-0.2064466,0.18598013,-0.05231955,1.2929977,0.11851524
-0.1,0.1,0.7,0.0,0.5235987755982988,0,-0.04526763,1.5398679,0.45576102,-0.058528848,0.11292515,1.5539886,3.0742211,-1.1644651,1.4319661,-0.19174848,0.18718958,0.025175616,1.284481,0.065707475
-0.1,0.1,0.7,0.0,0.5235987755982988,0,-0.07997133,1.5463132,0.43708196,-0.07508091,0.1365858,1.5476767,3.0861745,-1.1254253,1.4571397,-0.2338568,0.18552965,0.055831127,1.2821116,0.18608825
-0.1,0.1,0.7,0.0,0.5235987755982988,0,-0.058509354,1.5338371,0.47077033,-0.080154195,0.092475854,1.5577506,3.0444539,-1.0904214,1.442638,-0.22217485,0.16507523,-0.019165127,1.298722,-0.05291027
-0.1,0.1,0.7,0.0,0.5235987755982988,0,-0.092210114,1.5297309,0.45870933,-0.041535024,0.110022776,1.5520698,3.0550957,-1.0965886,1.4632621,-0.18141535,0.16514315,-0.021968804,1.3105663,0.020719355
-0.1,0.1,0.7,0.0,0.5235987755982988,0,-0.11407996,1.5265594,0.46223232,-0.040212292,0.10765112,1.5684123,3.0589137,-1.0949608,1.450152,-0.1740361,0.17346402,-0.034052897,1.280039,0.11475377
-0.1,0.1,0.7,0.0,0.5235987755982988,0,-0.06460952,1.5131459,0.44896042,-0.031248527,0.10076213,1.5594386,3.0651233,-1.0771823,1.4537811,-0.23884203,0.1741254,-0.0024711671,1.2931951,-0.04473915
-0.1,0.1,0.7,0.0,0.5235987755982988,0,-0.06478132,1.5236732,0.46327367,-0.04697993,0.13091634,1.5531726,3.0888054,-1.134584,1.4526079,-0.19109668,0.17592129,-0.03300924,1.2956284,0.13462418
-0.1,0.1,0.7,0.0,0.5235987755982988,0,-0.07810127,1.5491748,0.47418097,-0.09438193,0.08829095,1.5566231,3.0509117,-1.1163188,1.4630601,-0.2174247,0.18113801,0.03136604,1.2850183,0.1497513
-0.1,0.1,0.7,0.0,0.5235987755982988,0,-0.07217895,1.521904,0.45006722,-0.08593985,0.07238258,1.5539286,3.0517786,-1.1140623,1.4567162,-0.22604033,0.17869678,-0.014532535,1.2658925,-0.036706675
-0.1,0.1,0.7,0.0,0.5235987755982988,0,-0.071502425,1.5404902,0.47694376,-0.09227807,0.07976319,1.5542746,3.061683,-1.1107548,1.4718931,-0.19074859,0.16226584,-0.0082427235,1.2923645,0.082406655
-0.1,0.1,0.7,0.0,0.5235987755982988,0,-0.07238106,1.5164696,0.48076645,-0.05459224,0.12061477,1.552221,3.0557718,-1.0796723,1.452676,-0.238678,0.17553727,-0.0605495,1.2862799,-0.020104587
