sanky1234/BimanualDexCatch/isaacgymenvs/cem_results/football_pose_0.1_-0.1_0.9999999999999999_0.0_-0.5235987755982988_0_2025-05-26.csv
x,y,z,roll,pitch,yaw,robot1/joint1,robot1/joint2,robot1/joint3,robot1/joint4,robot1/joint5,robot1/joint6,robot1/joint7,robot2/joint1,robot2/joint2,robot2/joint3,robot2/joint4,robot2/joint5,robot2/joint6,robot2/joint7
0.1,-0.1,0.9999999999999999,0.0,-0.5235987755982988,0,-2.1132233,1.0255414,0.5061143,0.7612822,-0.9736419,1.4807464,-0.28247342,-0.32066768,-1.0365273,2.4991295,0.060524646,0.40770343,-0.043187283,0.2879244
0.1,-0.1,0.9999999999999999,0.0,-0.5235987755982988,0,-2.0553265,1.053178,0.563524,0.69169986,-0.98794866,1.3833066,0.39759293,-0.34688836,-1.026543,2.4460928,0.08460898,0.20121323,0.48252553,-0.92688376
0.1,-0.1,0.9999999999999999,0.0,-0.5235987755982988,0,-2.0426438,1.0536801,0.48955202,0.7044999,-0.945074,1.4420968,0.119093224,-0.3143185,-1.0300344,2.506321,0.0713321,0.0026813722,0.4239588,-0.43448517
0.1,-0.1,0.9999999999999999,0.0,-0.5235987755982988,0,-1.9997041,1.0328637,0.5449514,0.69198483,-0.987393,1.4591595,0.3927303,-0.28739625,-1.0305039,2.4434125,0.04163512,-0.20738329,0.02359934,-3.0902271
0.1,-0.1,0.9999999999999999,0.0,-0.5235987755982988,0,-2.0451655,1.0206567,0.5076048,0.7543204,-0.9522854,1.4037294,0.11085794,-0.31208014,-0.99393165,2.4641488,0.06515641,0.5673889,0.46160823,-0.9307098
0.1,-0.1,0.9999999999999999,0.0,-0.5235987755982988,0,-2.0984716,0.9904233,0.54310155,0.7273889,-0.94392645,1.4368036,-0.13293421,-0.32680765,-0.996559,2.429503,0.08716883,0.18069474,0.14078268,-1.8647938
0.1,-0.1,0.9999999999999999,0.0,-0.5235987755982988,0,-2.061671,0.9895036,0.4769417,0.67447805,-0.9431166,1.4085389,-0.092373714,-0.32544562,-1.0204517,2.4064085,0.0651031,-0.29743972,0.5548404,-2.4204426
0.1,-0.1,0.9999999999999999,0.0,-0.5235987755982988,0,-2.0529106,1.0085751,0.45437714,0.7191531,-0.94003975,1.3469802,0.042073112,-0.3199,-1.0083746,2.4808803,0.062462408,0.56622094,0.27587825,-0.38664922
0.1,-0.1,0.9999999999999999,0.0,-0.5235987755982988,0,-2.0557823,1.040359,0.44888335,0.69649607,-0.946221,1.3693482,-0.21760844,-0.3215543,-1.0537834,2.479598,0.08084932,0.25121334,0.3515742,-1.1568332
0.1,-0.1,0.9999999999999999,0.0,-0.5235987755982988,0,-2.0473745,1.0412196,0.4999987,0.7535557,-0.97427934,1.4257065,0.30362344,-0.33397248,-1.0018042,2.4349172,0.042595983,0.63747483,0.40476862,-1.2639798
0.1,-0.1,0.9999999999999999,0.0,-0.5235987755982988,0,-2.0393162,1.0719306,0.53205895,0.6943015,-1.0109049,1.5512338,0.16505383,-0.28654724,-1.0605822,2.5639195,0.06520677,-0.26198,0.32570451,-0.561161
0.1,-0.1,0.9999999999999999,0.0,-0.5235987755982988,0,-2.0980368,0.96762496,0.5246294,0.7108613,-0.96249354,1.4000769,-0.13347223,-0.30933475,-1.006751,2.5786498,0.055258434,0.30294472,0.62760866,-1.1148078
0.1,-0.1,0.9999999999999999,0.0,-0.5235987755982988,0,-2.008731,1.089579,0.39879203,0.7022508,-0.9710326,1.3691976,0.0879129,-0.3100366,-1.0424637,2.4550338,0.06753367,0.36241972,0.21810782,-0.89459264
0.1,-0.1,0.9999999999999999,0.0,-0.5235987755982988,0,-2.0398924,1.0543432,0.4995674,0.7366369,-0.91707927,1.4613168,-0.1889441,-0.32240465,-1.0053427,2.4990249,0.068668246,-0.09545977,0.26503593,0.6831106
0.1,-0.1,0.9999999999999999,0.0,-0.5235987755982988,0,-2.0184464,1.0443511,0.4341225,0.71216536,-0.9533952,1.4414895,-0.01979042,-0.3134166,-1.0288832,2.4067085,0.055314817,0.55961764,0.46490866,-1.2208976
0.1,-0.1,0.9999999999999999,0.0,-0.5235987755982988,0,-2.0916228,0.9754626,0.5015038,0.6952886,-0.9948838,1.3569204,-0.33154595,-0.29551107,-1.0242442,2.4279382,0.06606329,0.29642677,-0.22102644,0.13502693
0.1,-0.1,0.9999999999999999,0.0,-0.5235987755982988,0,-2.0696468,1.0230554,0.49069718,0.72116053,-0.93405515,1.3803566,-0.33036643,-0.31792754,-1.0240093,2.424491,0.052769,0.38588524,0.17976639,-1.0535102
0.1,-0.1,0.9999999999999999,0.0,-0.5235987755982988,0,-2.0201042,1.0160494,0.4252684,0.7005257,-0.9838384,1.3571361,-0.21199203,-0.34760612,-1.0089829,2.4786913,0.070609786,0.69201386,0.5484043,-0.74597454
0.1,-0.1,0.9999999999999999,0.0,-0.5235987755982988,0,-2.028541,1.0311052,0.44315597,0.71676654,-0.913681,1.4213816,0.07445701,-0.3318892,-1.0297002,2.4690528,0.047399655,0.09356097,0.21337882,-1.1601449
0.1,-0.1,0.9999999999999999,0.0,-0.5235987755982988,0,-2.0341983,1.0200547,0.43596736,0.7622958,-0.9939855,1.3530335,-0.26013207,-0.3256923,-1.0248321,2.4209764,0.0779071,0.5780693,0.17354202,-2.0696898
0.1,-0.1,0.9999999999999999,0.0,-0.5235987755982988,0,-2.1318645,0.97838354,0.52573866,0.7231795,-0.9032586,1.3776453,-0.5827882,-0.3235808,-1.028549,2.5226119,0.051282186,0.34718224,0.7382748,-0.7342151
0.1,-0.1,0.9999999999999999,0.0,-0.5235987755982988,0,-2.0534008,1.0421882,0.46554083,0.69081527,-0.9258732,1.4189247,0.015082529,-0.32625967,-1.0211767,2.4528818,0.06960529,-0.2768299,0.0022741002,-1.541965
0.1,-0.1,0.9999999999999999,0.0,-0.5235987755982988,0,-2.0944862,1.0649878,0.473881,0.6422943,-0.91474855,1.3851274,-0.12771104,-0.31723598,-1.014121,2.4849842,0.11096824,0.40286005,0.138259,-0.37720352
0.1,-0.1,0.9999999999999999,0.0,-0.5235987755982988,0,-2.0951915,1.0417241,0.5664907,0.71231747,-0.9609991,1.4537569,0.37635672,-0.32305002,-1.0115433,2.428687,0.04807377,0.21895869,0.379494,-1.31346
0.1,-0.1,0.9999999999999999,0.0,-0.5235987755982988,0,-2.1121018,1.0229386,0.50894135,0.70497006,-0.96616983,1.3887156,0.03793888,-0.3174139,-1.0483863,2.5231752,0.056616418,0.044356562,0.49044877,-1.4176185
0.1,-0.1,0.9999999999999999,0.0,-0.5235987755982988,0,-2.0850272,1.0762138,0.49250427,0.6825899,-0.931758,1.4001787,0.22307248,-0.3171732,-1.0105077,2.4884048,0.07806607,-0.000663478,0.66172785,0.98559934
0.1,-0.1,0.9999999999999999,0.0,-0.5235987755982988,0,-2.0852652,1.0447335,0.48850223,0.74284935,-0.9800996,1.2934448,-0.8625149,-0.30550012,-1.011675,2.4541802,0.06764942,0.5043838,0.45200107,0.1581172
0.1,-0.1,0.9999999999999999,0.0,-0.5235987755982988,0,-2.060295,1.0480896,0.4604056,0.67089576,-0.96686226,1.3899088,-0.07569825,-0.3011905,-1.057356,2.49986,0.031891633,-0.1652558,-0.07101411,-1.5526553
0.1,-0.1,0.9999999999999999,0.0,-0.5235987755982988,0,-2.1456068,1.0498244,0.6235902,0.80625385,-0.9590424,1.4004637,0.26443055,-0.3304687,-0.9918869,2.4732559,0.065880045,0.02587551,-0.24760139,-0.35974118
0.1,-0.1,0.9999999999999999,0.0,-0.5235987755982988,0,-2.0667024,1.0281687,0.46784902,0.68053275,-0.94138247,1.4387935,0.12561597,-0.3000721,-1.0797936,2.5107775,0.06623181,-0.27956155,0.441029,-1.2770383
0.1,-0.1,0.9999999999999999,0.0,-0.5235987755982988,0,-2.1123126,1.048591,0.5129517,0.7098492,-0.96807647,1.4144882,-0.024285933,-0.3147731,-1.0435396,2.466994,0.07389036,-0.36402795,-0.079829864,-0.9646223
0.1,-0.1,0.9999999999999999,0.0,-0.5235987755982988,0,-1.9892682,1.053582,0.3909534,0.7217279,-0.92695117,1.3607073,0.051016286,-0.309976,-1.0241544,2.4898524,0.05382862,0.09300191,0.72757286,0.05596409
0.1,-0.1,0.9999999999999999,0.0,-0.5235987755982988,0,-2.057531,1.03625,0.48608917,0.69793475,-0.9615327,1.4151675,0.03829314,-0.2903654,-0.9933172,2.5433152,0.06624838,0.27694023,-0.0119400695,-1.2460636
0.1,-0.1,0.9999999999999999,0.0,-0.5235987755982988,0,-2.0730834,1.0447223,0.48846743,0.72115356,-0.96984243,1.33541,-0.006753297,-0.33831838,-1.0370086,2.402601,0.057254225,0.71151537,0.3185312,-1.019362
0.1,-0.1,0.9999999999999999,0.0,-0.5235987755982988,0,-2.0467033,0.9970683,0.4407683,0.7354641,-0.9207729,1.3659072,-0.18607435,-0.3240983,-1.074467,2.46537,0.062494118,0.6439964,0.32039803,-1.8638455
0.1,-0.1,0.9999999999999999,0.0,-0.5235987755982988,0,-2.059954,1.0430743,0.47664824,0.7685887,-0.93011475,1.421458,-0.5488881,-0.31627855,-1.0255423,2.4313881,0.08108339,0.14104906,0.40123644,-1.3903089
0.1,-0.1,0.9999999999999999,0.0,-0.5235987755982988,0,-2.0582814,1.0322677,0.45556298,0.69959366,-0.9626416,1.3688189,-0.39887375,-0.3337751,-1.0326862,2.4350479,0.05290091,0.058371328,0.26863545,-1.3084711
0.1,-0.1,0.9999999999999999,0.0,-0.5235987755982988,0,-2.0732296,1.0460452,0.4535171,0.7171738,-0.95023817,1.3104132,0.17064904,-0.31744084,-1.044609,2.460121,0.05252196,0.69290304,0.61284643,-2.1555347
0.1,-0.1,0.9999999999999999,0.0,-0.5235987755982988,0,-2.073267,1.0491563,0.49273723,0.7680628,-0.94677156,1.3269441,0.22818027,-0.3044597,-1.022023,2.4643064,0.049010873,-0.23918936,0.048309617,-1.8629545
0.1,-0.1,0.9999999999999999,0.0,-0.5235987755982988,0,-2.0775201,0.9945556,0.4523725,0.7008053,-0.95868915,1.3361471,0.14042217,-0.29827,-1.0263351,2.4686382,0.06739679,0.15387146,0.45082042,-0.00733312
0.1,-0.1,0.9999999999999999,0.0,-0.5235987755982988,0,-2.0783992,1.0519406,0.5182516,0.7547679,-1.0106734,1.4200537,0.028855322,-0.31336352,-1.0094732,2.4808362,0.047768164,0.037882835,0.7691199,-0.89225125
0.1,-0.1,0.9999999999999999,0.0,-0.5235987755982988,0,-2.0910692,1.068963,0.45801356,0.7429984,-0.96247756,1.3510123,0.2534626,-0.32205945,-1.0420915,2.4842,0.045854487,1.2869843,0.24997337,-1.3837649
0.1,-0.1,0.9999999999999999,0.0,-0.5235987755982988,0,-2.059636,1.038749,0.45438883,0.7024186,-0.9404016,1.3977519,-0.4159342,-0.3046348,-1.059469,2.472107,0.085144326,0.6126585,0.11997202,-0.62432206
0.1,-0.1,0.9999999999999999,0.0,-0.5235987755982988,0,-2.0816631,1.0506254,0.5575545,0.77387136,-0.9343022,1.4270743,-0.27799806,-0.30604148,-1.0236652,2.5092325,0.0655666,0.30477038,0.36463374,-0.69038355
0.1,-0.1,0.9999999999999999,0.0,-0.5235987755982988,0,-2.1501095,1.0362622,0.6162342,0.7631072,-0.9414251,1.4977708,0.14385901,-0.30500987,-1.0317758,2.3847106,0.061790373,0.43671346,0.17721897,-0.64157486
0.1,-0.1,0.9999999999999999,0.0,-0.5235987755982988,0,-2.0570688,1.0419732,0.45158178,0.7095714,-0.95118237,1.3970865,0.04312943,-0.3375884,-1.0062523,2.4554822,0.061443925,0.9616223,-0.047770552,-0.5422145
0.1,-0.1,0.9999999999999999,0.0,-0.5235987755982988,0,-2.0565152,1.0591782,0.45526555,0.7465114,-0.9563721,1.3591017,-0.22572036,-0.31005874,-1.0238104,2.4466434,0.07460515,-0.0342822,0.13019288,-1.2353512
0.1,-0.1,0.9999999999999999,0.0,-0.5235987755982988,0,-2.0588264,1.0697727,0.470254,0.70003766,-0.9589726,1.3904768,0.11804898,-0.31746042,-0.9934237,2.471108,0.08356146,0.6034718,0.9486263,-0.4373558
0.1,-0.1,0.9999999999999999,0.0,-0.5235987755982988,0,-2.0634499,1.0413526,0.42306247,0.6921664,-0.93639094,1.3459665,-0.097889185,-0.32223487,-1.0215496,2.470467,0.06527528,0.47557503,0.23922078,-0.9833389
0.1,-0.1,0.9999999999999999,0.0,-0.5235987755982988,0,-2.0702958,1.0323559,0.49926725,0.70567214,-0.9594481,1.3446567,0.31140214,-0.2991485,-1.0207373,2.4619243,0.050564323,0.370754,0.62271756,-0.8340719
0.1,-0.1,0.9999999999999999,0.0,-0.5235987755982988,0,-2.0953271,1.0891861,0.56937116,0.77018976,-0.95420307,1.5288802,0.15333974,-0.30121914,-1.0557256,2.485663,0.06352615,-0.10113137,0.13675466,-0.049033716
0.1,-0.1,0.9999999999999999,0.0,-0.5235987755982988,0,-2.0545363,1.0639164,0.47931656,0.66513747,-0.9662068,1.459963,-0.70333076,-0.2842751,-1.0361094,2.4603355,0.06971588,-0.3147496,0.4058142,0.710364
0.1,-0.1,0.9999999999999999,0.0,-0.5235987755982988,0,-2.0920572,1.0835907,0.44151297,0.6967971,-0.98095685,1.3280407,0.16460514,-0.30979952,-1.0009316,2.4052403,0.08407884,0.2074117,0.32769054,-2.3419547
0.1,-0.1,0.9999999999999999,0.0,-0.5235987755982988,0,-2.05382,1.0231968,0.44885725,0.7087631,-0.8937326,1.3772092,-0.42635638,-0.32776344,-1.0042393,2.4307437,0.0591115,0.4298014,0.11030132,-0.65683085
0.1,-0.1,0.9999999999999999,0.0,-0.5235987755982988,0,-2.0820758,1.0911698,0.52865016,0.74779624,-0.9677781,1.3513156,0.40129983,-0.3002952,-1.0173764,2.443228,0.067472145,-0.20195833,0.67492443,0.4725047
0.1,-0.1,0.9999999999999999,0.0,-0.5235987755982988,0,-2.056044,1.055251,0.43994412,0.69589245,-0.97237813,1.3995812,-0.0635112,-0.2859382,-0.9995816,2.4399245,0.079797775,0.34775528,0.114705026,-1.4606781
0.1,-0.1,0.9999999999999999,0.0,-0.5235987755982988,0,-2.0791717,1.087508,0.54621315,0.7065795,-0.9556751,1.5078903,0.29450592,-0.29855084,-1.0792881,2.409652,0.054360766,0.42228186,0.33109042,-2.2347546
0.1,-0.1,0.9999999999999999,0.0,-0.5235987755982988,0,-2.09031,1.0458,0.51732486,0.77197593,-1.0316308,1.4030868,0.097791344,-0.31828675,-1.0181834,2.4630625,0.06880896,0.4329886,0.25260806,-0.2189653
0.1,-0.1,0.9999999999999999,0.0,-0.5235987755982988,0,-2.0325928,1.0103792,0.55750775,0.72596675,-0.9585119,1.4745103,-0.10652051,-0.3146253,-1.0287485,2.5335028,0.07251849,0.5362676,0.2639589,-1.6905662
0.1,-0.1,0.9999999999999999,0.0,-0.5235987755982988,0,-2.097517,1.1084849,0.41748613,0.7048717,-0.96877366,1.3734407,0.03704057,-0.31746256,-1.0619936,2.4682877,0.070156574,0.35108888,0.2251509,-0.71165204
0.1,-0.1,0.9999999999999999,0.0,-0.5235987755982988,0,-2.0623722,1.0454265,0.5121977,0.7058063,-0.96061635,1.4831691,-0.30941507,-0.30750662,-1.0255208,2.439957,0.08660568,0.052581236,0.32068986,-2.0650368
0.1,-0.1,0.9999999999999999,0.0,-0.5235987755982988,0,-2.017252,1.0955794,0.3789618,0.68673444,-0.9942793,1.3968254,-0.057823718,-0.32435745,-1.002724,2.4289587,0.061652597,0.3167524,0.47860354,0.3813646
0.1,-0.1,0.9999999999999999,0.0,-0.5235987755982988,0,-2.077747,1.024921,0.5096553,0.6936828,-0.9390274,1.4061357,-0.7348667,-0.32301688,-1.064289,2.4671826,0.06608423,-0.54841447,0.23274776,0.24922436
0.1,-0.1,0.9999999999999999,0.0,-0.5235987755982988,0,-2.0966854,1.0321864,0.46779603,0.7367021,-0.9655933,1.3570766,-0.1426525,-0.31301615,-1.0280226,2.4937663,0.04550167,-0.2829413,0.4136389,-1.1615596
0.1,-0.1,0.9999999999999999,0.0,-0.5235987755982988,0,-2.0586512,1.0839654,0.44013035,0.72383773,-0.9393151,1.41757,-0.17585835,-0.33087528,-1.014918,2.460488,0.09898555,0.20470564,-0.053714093,-0.2945369
0.1,-0.1,0.9999999999999999,0.0,-0.5235987755982988,0,-2.0238602,1.0143523,0.43807513,0.6470058,-1.001646,1.3547307,0.33856022,-0.33626792,-1.0521356,2.4447942,0.061878,0.06056075,0.1269154,-2.0654626
0.1,-0.1,0.9999999999999999,0.0,-0.5235987755982988,0,-2.1144876,1.041555,0.43163857,0.7001309,-0.94555724,1.3414463,-0.21702047,-0.31312943,-1.0252934,2.4388247,0.05695976,-0.40017524,0.14947766,-1.1887441
0.1,-0.1,0.9999999999999999,0.0,-0.5235987755982988,0,-2.0796237,1.0678842,0.5160444,0.69283324,-0.95328593,1.4361014,0.29796866,-0.31454644,-1.0499772,2.4749014,0.05093379,0.24619168,0.51976794,1.3823974
0.1,-0.1,0.9999999999999999,0.0,-0.5235987755982988,0,-2.008726,1.081607,0.41355312,0.71819955,-1.0077467,1.4539762,-0.079419605,-0.3166085,-1.0606682,2.4195914,0.042607572,0.1220743,0.059078716,1.6666062
0.1,-0.1,0.9999999999999999,0.0,-0.5235987755982988,0,-2.0970411,1.0933218,0.4209977,0.72221595,-0.9373999,1.2770725,-0.3514428,-0.31232864,-1.0630033,2.538901,0.058552068,-0.19885081,0.020806417,-0.23168465
0.1,-0.1,0.9999999999999999,0.0,-0.5235987755982988,0,-2.0408275,1.0037273,0.45329183,0.73691714,-0.9485732,1.4182538,-0.5364371,-0.29463083,-1.0670971,2.5313249,0.048347507,0.087549224,0.34487134,-0.89649206
0.1,-0.1,0.9999999999999999,0.0,-0.5235987755982988,0,-2.0871265,1.1121995,0.5010758,0.70450723,-0.9844814,1.3909763,0.48097637,-0.29593858,-1.0107496,2.3848054,0.039732955,-0.04290565,0.24321786,0.07711338
0.1,-0.1,0.9999999999999999,0.0,-0.5235987755982988,0,-2.0226946,1.0256134,0.36550367,0.6888975,-1.0013855,1.3015963,0.06368473,-0.3039889,-1.0452787,2.5001633,0.07770154,-0.12560849,0.8516104,-0.38281336
0.1,-0.1,0.9999999999999999,0.0,-0.5235987755982988,0,-2.049423,1.0491196,0.41896805,0.7072094,-0.94501954,1.367141,-0.39580402,-0.31754464,-1.0715297,2.5178273,0.07880896,0.16997091,0.45687753,0.5054111
0.1,-0.1,0.9999999999999999,0.0,-0.5235987755982988,0,-2.0535285,1.0019444,0.42352185,0.70628303,-0.9758192,1.3756037,-0.46996385,-0.29762563,-0.9936093,2.5777452,0.08173017,0.8689669,0.27845457,-0.6224704
0.1,-0.1,0.9999999999999999,0.0,-0.5235987755982988,0,-2.0273328,1.0755916,0.4144317,0.7172653,-0.95413977,1.4164629,0.028923573,-0.29555908,-1.0075802,2.4732428,0.07009877,0.9467031,-0.045809407,-0.026885707
0.1,-0.1,0.9999999999999999,0.0,-0.5235987755982988,0,-2.0564613,1.0779015,0.41209203,0.7103657,-1.0023687,1.3761438,-0.34056112,-0.3360799,-1.0176877,2.5058265,0.049143154,0.36462542,0.41482955,-0.9813704
0.1,-0.1,0.9999999999999999,0.0,-0.5235987755982988,0,-2.1210794,1.0654008,0.5107315,0.73860085,-0.98496395,1.3796153,-0.3651313,-0.30656263,-1.0112249,2.4271224,0.053691674,0.21997368,0.31285918,-1.2284352
0.1,-0.1,0.9999999999999999,0.0,-0.5235987755982988,0,-2.0450146,1.0459346,0.46307012,0.7233004,-0.9676353,1.4535253,0.07490319,-0.28394318,-1.0512233,2.449992,0.074799,0.19330683,0.114120446,-0.28751028
0.1,-0.1,0.9999999999999999,0.0,-0.5235987755982988,0,-2.0710227,1.0686977,0.44192678,0.6851729,-0.95538735,1.4012929,-0.47505298,-0.32106063,-1.0023334,2.4824486,0.048094556,0.60948694,0.37771168,-1.5348452
0.1,-0.1,0.9999999999999999,0.0,-0.5235987755982988,0,-2.0797038,1.0684481,0.5080369,0.6924125,-0.92052436,1.4645824,0.0017497663,-0.29536426,-1.0397567,2.4473577,0.037436686,0.15893348,0.4260936,-0.59828496
0.1,-0.1,0.9999999999999999,0.0,-0.5235987755982988,0,-2.0482337,1.042793,0.4562186,0.73632926,-0.93696856,1.4122609,0.36792538,-0.30380985,-1.0437423,2.5228977,0.04186933,0.6489765,0.1002241,0.5743698
0.1,-0.1,0.9999999999999999,0.0,-0.5235987755982988,0,-2.0378168,1.0073113,0.416536,0.717674,-0.92113966,1.356493,0.13407649,-0.32076666,-1.0533433,2.4865823,0.05721923,-0.26199284,0.31165776,-0.67505336
0.1,-0.1,0.9999999999999999,0.0,-0.5235987755982988,0,-2.120275,1.0393955,0.42827588,0.6458678,-1.049326,1.3601605,-0.28732258,-0.30529276,-0.9949865,2.4487717,0.06404229,0.8847315,0.3576102,0.06358598
0.1,-0.1,0.9999999999999999,0.0,-0.5235987755982988,0,-2.039036,1.0370641,0.42090207,0.7007242,-0.9852595,1.3928691,0.14712949,-0.31491312,-1.0400944,2.4533992,0.033297595,0.32574508,0.2962013,-1.6512471
0.1,-0.1,0.9999999999999999,0.0,-0.5235987755982988,0,-2.1078718,1.0332006,0.46435395,0.6299561,-0.9924289,1.4127784,0.59670794,-0.31023508,-1.0758053,2.5277321,0.06935542,-0.12278486,0.7540959,-0.49090198
0.1,-0.1,0.9999999999999999,0.0,-0.5235987755982988,0,-2.100175,1.078826,0.4939203,0.68879676,-0.9416968,1.4447331,0.03482277,-0.30636147,-1.0473733,2.4612718,0.035668273,0.19007707,0.5467104,0.46595365
0.1,-0.1,0.9999999999999999,0.0,-0.5235987755982988,0,-2.0729668,1.0690241,0.46896943,0.696352,-0.98597395,1.4126112,0.14495073,-0.31556702,-1.0275255,2.4549017,0.09687992,0.70613265,0.74460953,-1.745213
0.1,-0.1,0.9999999999999999,0.0,-0.5235987755982988,0,-2.082816,1.0281293,0.4489031,0.6703564,-0.9526725,1.3777875,-0.13052316,-0.33074626,-1.0375991,2.4634228,0.05789117,0.71487206,0.5967552,-0.81434476
0.1,-0.1,0.9999999999999999,0.0,-0.5235987755982988,0,-2.065077,1.0348322,0.48826098,0.6960579,-0.9392848,1.2994449,0.3642914,-0.31663665,-1.0345014,2.4807577,0.06204826,-0.34059852,0.042520236,-2.8618124
0.1,-0.1,0.9999999999999999,0.0,-0.5235987755982988,0,-2.0471575,1.0442866,0.4106522,0.668983,-0.95061713,1.3696059,-0.38853818,-0.33205557,-1.0329123,2.485231,0.043704282,0.22157852,0.46284115,-0.7671476
0.1,-0.1,0.9999999999999999,0.0,-0.5235987755982988,0,-2.051076,1.0346135,0.4077482,0.73996526,-0.925242,1.4099443,-0.16134661,-0.3088001,-1.0457286,2.4447646,0.054763146,-0.18223296,0.23256609,-1.7062263
0.1,-0.1,0.9999999999999999,0.0,-0.5235987755982988,0,-2.0806139,1.0613863,0.4706643,0.74724215,-0.90391433,1.3667785,-0.47066122,-0.28872716,-0.97749865,2.4684083,0.06603935,0.47042212,0.37772608,-1.2456887
0.1,-0.1,0.9999999999999999,0.0,-0.5235987755982988,0,-2.057252,1.0569406,0.4106154,0.75182045,-0.952269,1.404287,0.005154176,-0.3158848,-1.0426657,2.50746,0.053197123,-0.277087,0.304978,-0.68417037
0.1,-0.1,0.9999999999999999,0.0,-0.5235987755982988,0,-2.0962186,1.0588434,0.5111412,0.6869777,-0.94627243,1.4751544,0.07844259,-0.32235286,-1.0315918,2.4665973,0.053270433,0.6638359,0.58884573,-0.04204994
0.1,-0.1,0.9999999999999999,0.0,-0.5235987755982988,0,-2.0373235,1.0354966,0.3850727,0.7014772,-0.91386366,1.4399189,0.25591713,-0.33138603,-0.93654895,2.4445724,0.060418952,0.36752823,0.47245616,-0.15873615
0.1,-0.1,0.9999999999999999,0.0,-0.5235987755982988,0,-2.0328286,1.0329909,0.389579,0.69979525,-0.9956232,1.395502,-0.09260323,-0.32494172,-1.0342244,2.542251,0.04026868,0.30332232,0.56212413,-0.8727522
0.1,-0.1,0.9999999999999999,0.0,-0.5235987755982988,0,-2.0783257,1.0135316,0.4891633,0.7377923,-0.9591009,1.4060395,0.16825294,-0.30964977,-0.9982888,2.5290053,0.06577823,0.2833266,0.24318357,-1.2575309
0.1,-0.1,0.9999999999999999,0.0,-0.5235987755982988,0,-2.0893369,1.0509832,0.44014636,0.7132992,-0.96324176,1.386943,0.1711078,-0.3225284,-1.0490712,2.4053807,0.06986581,-0.32790166,0.2517929,-0.9244705
0.1,-0.1,0.9999999999999999,0.0,-0.5235987755982988,0,-2.0452843,0.9975068,0.45222542,0.69721866,-0.87852776,1.3666095,-0.12560977,-0.3014886,-1.0013384,2.557598,0.07833757,-0.03312488,0.7867157,-0.6727372
0.1,-0.1,0.9999999999999999,0.0,-0.5235987755982988,0,-2.0944586,1.0488623,0.44784516,0.6654517,-0.97629124,1.3977686,-0.17791079,-0.32231313,-1.0030993,2.4545302,0.058641903,0.038925152,0.2874224,-1.8930447
0.1,-0.1,0.9999999999999999,0.0,-0.5235987755982988,0,-2.0704308,1.0718077,0.4319181,0.72026354,-0.9559301,1.4291458,0.13447867,-0.33566645,-1.0573208,2.4681137,0.04106066,0.31206486,-0.07102105,-0.91607386
0.1,-0.1,0.9999999999999999,0.0,-0.5235987755982988,0,-2.111822,1.017647,0.48305774,0.7054429,-0.95645857,1.4295118,-0.12905467,-0.33165497,-1.0640548,2.5138702,0.0060330825,0.10485413,0.4239514,0.06624096
0.1,-0.1,0.9999999999999999,0.0,-0.5235987755982988,0,-2.0231817,1.0037453,0.35530028,0.70334494,-0.99512804,1.2975397,-0.5541186,-0.31604633,-1.0308118,2.5394888,0.019579003,0.068910524,1.1061137,1.293562
0.1,-0.1,0.9999999999999999,0.0,-0.5235987755982988,0,-2.094033,1.0606614,0.4689529,0.6784834,-0.9150402,1.473846,0.010637443,-0.327913,-1.0335376,2.4220018,0.05877746,0.4883896,0.79021317,-0.5548717
0.1,-0.1,0.9999999999999999,0.0,-0.5235987755982988,0,-2.0088098,1.0326499,0.44435996,0.74056536,-0.9809518,1.4107437,0.0835177,-0.338494,-0.9980157,2.4834192,0.053052653,0.5393406,0.5006235,-0.25845012
0.1,-0.1,0.9999999999999999,0.0,-0.5235987755982988,0,-2.0731292,1.0481064,0.37216878,0.71530163,-0.979199,1.4066232,0.19745907,-0.28257278,-1.0119652,2.5047393,0.06633351,0.92715126,0.06396785,-0.8592089
0.1,-0.1,0.9999999999999999,0.0,-0.5235987755982988,0,-2.0778975,1.0839196,0.38598934,0.6662832,-0.9409151,1.3684877,0.12935898,-0.30706993,-1.0217427,2.4657238,0.041580774,-0.24357754,0.2924441,-1.0103345
0.1,-0.1,0.9999999999999999,0.0,-0.5235987755982988,0,-2.0795777,1.0290687,0.4329163,0.7147913,-0.9516209,1.3987324,0.009052652,-0.3126716,-1.0294687,2.5238457,0.08458742,-0.123749375,0.24930364,-0.3636776
0.1,-0.1,0.9999999999999999,0.0,-0.5235987755982988,0,-2.0918329,1.0148615,0.39274487,0.7341319,-0.95050687,1.2123309,-0.28362402,-0.3161214,-1.0138768,2.497881,0.076206245,0.13541655,0.3570599,0.75110346
0.1,-0.1,0.9999999999999999,0.0,-0.5235987755982988,0,-2.1072423,1.0757469,0.4700641,0.7232507,-0.97632736,1.3773696,0.24456906,-0.30519757,-1.0600194,2.4680493,0.05956915,-0.16827324,0.36239386,-1.1517997
0.1,-0.1,0.9999999999999999,0.0,-0.5235987755982988,0,-2.078225,1.0205832,0.41685116,0.67026746,-0.9393002,1.4636953,-0.42433795,-0.34067634,-1.0709333,2.5186355,0.06273489,-0.14851381,0.2942793,-0.45447287
0.1,-0.1,0.9999999999999999,0.0,-0.5235987755982988,0,-2.025841,1.0146863,0.4526225,0.7201903,-0.9467688,1.4477617,0.06733441,-0.3283218,-1.0069804,2.4405546,0.051409017,0.37993035,-0.013947342,0.4141149
0.1,-0.1,0.9999999999999999,0.0,-0.5235987755982988,0,-2.0230157,1.0492228,0.39821965,0.73150635,-0.97791874,1.3708397,-0.22259352,-0.29869878,-1.0114381,2.5630932,0.087378554,0.52755666,0.33045423,-2.5162308
0.1,-0.1,0.9999999999999999,0.0,-0.5235987755982988,0,-2.05417,1.0405803,0.40656126,0.71515083,-0.95083046,1.4211106,0.002891361,-0.2897198,-1.0358696,2.4535408,0.056766313,0.22771548,-0.04804775,-0.08775388
0.1,-0.1,0.9999999999999999,0.0,-0.5235987755982988,0,-2.1014044,1.0603299,0.45644417,0.7658893,-1.0143799,1.3727978,0.15572496,-0.30517152,-1.0488017,2.4674075,0.056188233,0.088557556,0.24529915,-0.96670455
0.1,-0.1,0.9999999999999999,0.0,-0.5235987755982988,0,-2.0911036,1.063224,0.46115994,0.73234403,-0.9591298,1.3903444,0.17809708,-0.33147803,-1.0632776,2.513266,0.07468451,0.36036724,0.5206796,-0.77225935
0.1,-0.1,0.9999999999999999,0.0,-0.5235987755982988,0,-2.0838015,1.0642903,0.463348,0.72822404,-0.9629035,1.4043044,-0.070669815,-0.2957017,-1.0119278,2.4807823,0.059024096,0.07285685,0.3753186,-0.6223038
0.1,-0.1,0.9999999999999999,0.0,-0.5235987755982988,0,-2.0672417,1.0461214,0.37276733,0.7350559,-0.9372687,1.230538,-0.94574904,-0.2879762,-1.0270677,2.45107,0.03569024,-0.13471568,0.73544973,-1.1851252
0.1,-0.1,0.9999999999999999,0.0,-0.5235987755982988,0,-2.0774572,1.0520908,0.3579174,0.66189957,-0.9653977,1.3443707,-0.09220696,-0.32804242,-0.9912607,2.4283543,0.075660594,-0.39420596,0.4610823,-0.080514975
0.1,-0.1,0.9999999999999999,0.0,-0.5235987755982988,0,-2.077818,1.0550612,0.38893524,0.7314695,-0.966669,1.3147848,-0.42566845,-0.32483658,-1.0673364,2.4757261,0.058335308,0.247456,0.6187755,-0.10986646
0.1,-0.1,0.9999999999999999,0.0,-0.5235987755982988,0,-2.0877326,1.0706247,0.48026448,0.7236484,-0.93639493,1.5429441,0.07439079,-0.31861082,-1.0658021,2.4969199,0.024098616,0.03342293,0.55051994,-1.8354609
0.1,-0.1,0.9999999999999999,0.0,-0.5235987755982988,0,-2.0709636,1.0637544,0.49204624,0.6972566,-0.94274426,1.3673257,0.19608387,-0.31682163,-1.0464584,2.4500473,0.09591879,0.66822857,-0.136141,-0.70633525
0.1,-0.1,0.9999999999999999,0.0,-0.5235987755982988,0,-2.1431408,1.0175408,0.4316348,0.67631894,-0.94477504,1.3287152,-0.014431312,-0.3215746,-1.0165476,2.4329083,0.03692902,-0.18391806,0.36732015,-1.6868751
0.1,-0.1,0.9999999999999999,0.0,-0.5235987755982988,0,-2.0734556,1.0267725,0.4167793,0.6917295,-0.95353293,1.4227242,-0.34049532,-0.330608,-1.0461897,2.5507708,0.07803097,0.22473717,0.57913506,-2.6166732
0.1,-0.1,0.9999999999999999,0.0,-0.5235987755982988,0,-2.1102116,1.0483744,0.4065326,0.73922884,-0.9247087,1.3787521,-0.77967733,-0.34348667,-1.0465074,2.4852402,0.07241692,0.090601526,0.12617853,1.1194649
0.1,-0.1,0.9999999999999999,0.0,-0.5235987755982988,0,-2.027461,1.0735469,0.38267758,0.75845575,-1.0024093,1.3971742,0.17931747,-0.28595334,-1.0630279,2.4748092,0.07191538,0.43854383,0.8242473,-0.1959216
0.1,-0.1,0.9999999999999999,0.0,-0.5235987755982988,0,-2.073299,1.0457315,0.40235502,0.6801039,-0.92637706,1.3928255,-0.07147096,-0.32583532,-1.0457789,2.500066,0.055669084,0.43644422,0.46385148,-1.9833078
0.1,-0.1,0.9999999999999999,0.0,-0.5235987755982988,0,-2.1022084,1.0424573,0.45200253,0.74696326,-0.9584449,1.4642962,-0.16300642,-0.3273737,-0.9900391,2.5295591,0.05135262,-0.009772392,0.44368717,-0.20483105
0.1,-0.1,0.9999999999999999,0.0,-0.5235987755982988,0,-2.1083798,1.0554308,0.41556537,0.6821915,-0.9734069,1.382095,0.27152145,-0.29381317,-1.0514104,2.4343662,0.055721723,0.11299733,-0.13451156,-0.07111248
0.1,-0.1,0.9999999999999999,0.0,-0.5235987755982988,0,-2.0661962,1.0818802,0.37297302,0.74782795,-0.94572306,1.3653604,0.15067242,-0.33031452,-1.0499557,2.4215546,-0.009089151,0.6042766,-0.102288894,0.18010359
0.1,-0.1,0.9999999999999999,0.0,-0.5235987755982988,0,-2.121922,1.0559037,0.3575349,0.66166866,-0.91257644,1.3960967,-0.32770708,-0.27347898,-1.0085816,2.491891,0.049000513,-0.42796764,0.47597203,-2.7778795
0.1,-0.1,0.9999999999999999,0.0,-0.5235987755982988,0,-2.1060615,1.047028,0.52662474,0.72310007,-0.99231327,1.4939413,0.1477182,-0.29739374,-1.0066205,2.5167031,0.056855142,0.6800965,0.55091465,-1.3342663
0.1,-0.1,0.9999999999999999,0.0,-0.5235987755982988,0,-2.098626,1.0799859,0.38711792,0.7293393,-0.9668934,1.3710169,-0.44271332,-0.3070391,-1.065361,2.433787,0.053123247,0.49256483,0.3101906,-0.69486785
0.1,-0.1,0.9999999999999999,0.0,-0.5235987755982988,0,-1.9573135,0.98645616,0.48478025,0.721345,-0.9721057,1.4414313,0.13098294,-0.3226359,-1.0349672,2.4288535,0.030420875,0.3351737,0.18002693,-1.5635217
0.1,-0.1,0.9999999999999999,0.0,-0.5235987755982988,0,-2.043122,1.0410632,0.34645092,0.6821225,-0.90691483,1.4338133,-0.31152174,-0.31131768,-1.0100256,2.4052837,0.07804165,1.054287,-0.019928103,-2.0607193
0.1,-0.1,0.9999999999999999,0.0,-0.5235987755982988,0,-2.0874104,1.1136241,0.47120783,0.7137218,-0.9327707,1.4855549,0.37919492,-0.33599174,-1.0657899,2.4866753,0.06432137,0.15221278,0.3500271,0.094475605
0.1,-0.1,0.9999999999999999,0.0,-0.5235987755982988,0,-2.0342643,1.0381501,0.31407368,0.72139853,-0.9201286,1.3724402,-0.18302724,-0.30776504,-1.0487177,2.4735007,0.065457195,0.86665154,0.3652881,-0.7321521
0.1,-0.1,0.9999999999999999,0.0,-0.5235987755982988,0,-2.069857,0.97524863,0.36466488,0.7484978,-0.96191895,1.348905,-0.33150777,-0.3191071,-1.019069,2.4660664,0.030864295,-0.29937628,0.5108241,-1.0647696
0.1,-0.1,0.9999999999999999,0.0,-0.5235987755982988,0,-2.005832,1.0482328,0.32549426,0.76049745,-0.9304242,1.453208,-0.41778782,-0.30595362,-1.0492233,2.442706,0.045653027,0.75599635,0.030561833,-1.0080818
0.1,-0.1,0.9999999999999999,0.0,-0.5235987755982988,0,-2.0584986,1.0242164,0.3138247,0.72592956,-0.97798365,1.2969366,-0.5675051,-0.3025765,-1.0436101,2.4630318,0.061426118,0.2722356,0.70311856,-0.27468395
0.1,-0.1,0.9999999999999999,0.0,-0.5235987755982988,0,-2.071774,1.0303823,0.41810614,0.676633,-0.9510618,1.3773224,-0.07091397,-0.3196743,-1.0358176,2.5863826,0.06852825,0.28960285,0.649879,-0.044234212
0.1,-0.1,0.9999999999999999,0.0,-0.5235987755982988,0,-2.1081705,1.0623579,0.35024863,0.6553077,-0.96479875,1.335989,-0.74162656,-0.2909419,-1.0493766,2.4542673,0.0664531,0.19685768,0.1678767,0.3658333
0.1,-0.1,0.9999999999999999,0.0,-0.5235987755982988,0,-2.053452,1.0505953,0.31402487,0.65490645,-1.0000061,1.4052625,-0.11202253,-0.31750998,-1.0133762,2.4710915,0.0876411,-0.3013808,0.46726194,-1.2728168
0.1,-0.1,0.9999999999999999,0.0,-0.5235987755982988,0,-2.0483747,1.086205,0.31543985,0.668163,-0.9408805,1.3342555,0.29349485,-0.31960776,-1.0174433,2.4562433,0.071999915,-0.5565599,0.43792385,-1.0147091
0.1,-0.1,0.9999999999999999,0.0,-0.5235987755982988,0,-2.0049422,1.0319588,0.29801247,0.7501733,-0.9513153,1.3583213,-0.15151691,-0.3253667,-1.0418288,2.504675,0.047411256,0.43733248,0.0184944,-0.7081478
0.1,-0.1,0.9999999999999999,0.0,-0.5235987755982988,0,-2.1152644,1.105989,0.39615002,0.6934393,-0.9522801,1.4276091,-0.9460645,-0.3090223,-0.99016297,2.5472908,0.059590068,0.616123,-0.013602922,-1.5343187
0.1,-0.1,0.9999999999999999,0.0,-0.5235987755982988,0,-2.1054173,1.0461563,0.39313462,0.68338853,-0.9513809,1.3288784,0.5328482,-0.31377017,-0.97361785,2.5546489,0.03461889,0.39799294,0.5198471,-1.2155895
0.1,-0.1,0.9999999999999999,0.0,-0.5235987755982988,0,-2.0456643,1.0426711,0.5658662,0.713096,-0.9251639,1.3186685,-0.31595486,-0.31041995,-1.040713,2.5035558,0.07044148,-0.522233,0.74997646,-1.6126356
0.1,-0.1,0.9999999999999999,0.0,-0.5235987755982988,0,-2.032354,0.9973768,0.6195744,0.7835435,-0.9527627,1.4362978,-0.6264043,-0.34725565,-1.0682002,2.465589,0.060299147,0.6936694,-0.022243604,-0.1786883
0.1,-0.1,0.9999999999999999,0.0,-0.5235987755982988,0,-2.0283346,1.0212555,0.5169607,0.7534836,-0.93676096,1.3485957,0.33753327,-0.31808314,-1.0577493,2.5307477,0.043926623,0.72865033,0.18258764,-0.5672121
0.1,-0.1,0.9999999999999999,0.0,-0.5235987755982988,0,-2.0329673,1.0343751,0.65149844,0.7228889,-0.93297935,1.4484798,0.3109478,-0.30543745,-1.0390123,2.4628124,0.06509663,0.54233795,0.4581949,-0.68657327
0.1,-0.1,0.9999999999999999,0.0,-0.5235987755982988,0,-2.038341,1.0709609,0.45878068,0.70792365,-0.98766166,1.3353441,0.15958093,-0.3138131,-1.0604526,2.5337086,0.061744887,0.34782755,-0.1563369,-0.04830541
0.1,-0.1,0.9999999999999999,0.0,-0.5235987755982988,0,-2.0343778,1.006308,0.6389427,0.7038917,-0.97311467,1.5286419,-0.040240105,-0.31425998,-1.0324332,2.4843495,0.055716075,-0.85135126,0.44109827,-0.20200168
0.1,-0.1,0.9999999999999999,0.0,-0.5235987755982988,0,-2.0263796,1.0313984,0.63759875,0.7589402,-0.9478234,1.3851149,0.8352549,-0.27928224,-1.0255865,2.3752239,0.073424995,0.76076704,0.5944291,0.14210586
0.1,-0.1,0.9999999999999999,0.0,-0.5235987755982988,0,-1.9197493,1.109756,0.4262123,0.7242661,-0.9588907,1.4186045,0.044843227,-0.3258629,-1.0504339,2.458015,0.10975095,0.14042895,0.15728046,-0.7980555
0.1,-0.1,0.9999999999999999,0.0,-0.5235987755982988,0,-1.9944471,1.0879978,0.4280785,0.70247984,-0.933703,1.3465437,-0.046762183,-0.30182305,-1.0456581,2.5387821,0.0779086,0.09730977,0.58702624,-0.4770364
0.1,-0.1,0.9999999999999999,0.0,-0.5235987755982988,0,-2.0092654,1.0125208,0.48071146,0.6795034,-1.0224514,1.4556082,0.16906244,-0.3339084,-1.0439569,2.4480991,0.07280992,0.2573985,0.27716285,-0.8430216
0.1,-0.1,0.9999999999999999,0.0,-0.5235987755982988,0,-2.044817,1.0160302,0.59467614,0.70399034,-0.9796847,1.5492673,0.11453065,-0.30525637,-1.047927,2.4229803,0.06657722,-0.0075601675,0.3393571,-1.097709
0.1,-0.1,0.9999999999999999,0.0,-0.5235987755982988,0,-2.0513363,0.99664706,0.5957025,0.7429935,-0.9288197,1.3369141,0.3799313,-0.31406578,-0.9805328,2.4766033,0.081480384,-0.4506096,-0.17330782,-1.8800561
0.1,-0.1,0.9999999999999999,0.0,-0.5235987755982988,0,-2.117237,0.97404444,0.5884879,0.69987357,-0.9643158,1.3790976,0.27003112,-0.3079612,-1.0549806,2.458926,0.06368485,0.37164846,0.2758033,-1.5592719
0.1,-0.1,0.9999999999999999,0.0,-0.5235987755982988,0,-1.9950285,1.0308248,0.5502323,0.75296277,-0.9053846,1.509642,-0.7862127,-0.31352985,-1.0047973,2.5544643,0.0178403,0.25920933,-0.074662186,0.48291898
0.1,-0.1,0.9999999999999999,0.0,-0.5235987755982988,0,-2.0665672,1.0830638,0.5237084,0.71143824,-0.9761025,1.483357,-0.35109147,-0.29049197,-1.0448772,2.525779,0.072188854,-0.32736722,0.70235527,0.04500909
0.1,-0.1,0.9999999999999999,0.0,-0.5235987755982988,0,-2.083234,0.97706985,0.5603409,0.70669925,-0.91312444,1.2913884,-0.579785,-0.30455235,-1.0335994,2.4474413,0.10597537,0.5801763,0.3654289,-0.7971576
0.1,-0.1,0.9999999999999999,0.0,-0.5235987755982988,0,-2.0065928,1.0095739,0.5687075,0.7259996,-0.92793494,1.5294515,-0.21309137,-0.3081568,-1.0472715,2.4255667,0.05925559,-0.18199046,-0.045667823,-1.1580542
0.1,-0.1,0.9999999999999999,0.0,-0.5235987755982988,0,-1.9809167,0.99373966,0.49870557,0.6423207,-0.91570497,1.4422091,0.05980128,-0.3191887,-1.0834441,2.4293976,0.09039934,0.2494633,0.9073684,0.08647073
0.1,-0.1,0.9999999999999999,0.0,-0.5235987755982988,0,-2.0678048,1.0484782,0.5672342,0.71401477,-0.9790673,1.4889842,0.2550248,-0.31328142,-1.0676556,2.489165,0.078054085,-0.039770175,0.16809851,-2.3530233
0.1,-0.1,0.9999999999999999,0.0,-0.5235987755982988,0,-2.033544,1.0121051,0.5382204,0.67135257,-0.9589093,1.4866558,0.23519696,-0.31832218,-1.0449094,2.4188495,0.034965735,0.5605231,-0.02141836,0.71485287
0.1,-0.1,0.9999999999999999,0.0,-0.5235987755982988,0,-2.0472448,1.0724952,0.63956404,0.7498154,-0.93215966,1.4693298,0.54767746,-0.29634058,-1.0442369,2.575209,0.08542457,-0.008458779,0.2575681,0.0024869982
0.1,-0.1,0.9999999999999999,0.0,-0.5235987755982988,0,-2.008228,1.052905,0.5700621,0.7429764,-0.95059156,1.4255824,0.43635258,-0.3052776,-1.036516,2.4081612,0.028159041,-0.2974801,0.884244,-0.6464331
0.1,-0.1,0.9999999999999999,0.0,-0.5235987755982988,0,-2.016551,1.0170084,0.4614122,0.69095606,-0.9734137,1.3787949,-0.1963167,-0.3076441,-1.0246038,2.4457173,0.049942493,-0.05586108,-0.054729424,0.5646072
0.1,-0.1,0.9999999999999999,0.0,-0.5235987755982988,0,-2.0406845,1.0050437,0.42854953,0.7338875,-0.94250876,1.3390243,0.036040436,-0.30993485,-1.056092,2.5424356,0.058112346,-0.045613665,0.12793583,0.26894102
0.1,-0.1,0.9999999999999999,0.0,-0.5235987755982988,0,-2.0357006,1.0103434,0.54311895,0.71685904,-0.9314957,1.4354016,-0.6781271,-0.32519045,-1.0173002,2.5133975,0.03847415,0.6963566,0.59313583,-2.273622
0.1,-0.1,0.9999999999999999,0.0,-0.5235987755982988,0,-2.0230675,1.0151672,0.5359096,0.72937435,-0.99325037,1.4938924,-0.031258576,-0.30412138,-1.0305165,2.4773695,0.07051553,0.9174024,0.45401433,-0.17680873
0.1,-0.1,0.9999999999999999,0.0,-0.5235987755982988,0,-2.0025377,1.0439143,0.47217134,0.7580696,-1.007931,1.4238033,-0.74972874,-0.2755083,-1.0810382,2.54009,0.060246214,-0.4774169,0.590597,-1.8669779
0.1,-0.1,0.9999999999999999,0.0,-0.5235987755982988,0,-1.9137173,0.98087496,0.46473357,0.71557987,-0.9459573,1.4693807,-0.49116683,-0.2930567,-1.0340035,2.4681122,0.07315165,0.24469215,0.71952105,1.8538253
0.1,-0.1,0.9999999999999999,0.0,-0.5235987755982988,0,-2.0444233,0.9638547,0.54323477,0.7344309,-0.9529274,1.388253,-0.29493394,-0.31659165,-1.0383657,2.4527912,0.0635383,0.16201705,-0.36863607,-0.17451984
0.1,-0.1,0.9999999999999999,0.0,-0.5235987755982988,0,-1.9220128,1.0313827,0.42084795,0.6958382,-0.97024363,1.3713508,0.37394667,-0.2823972,-1.0436808,2.4491901,0.09724111,0.1975641,0.35070753,-0.37144345
0.1,-0.1,0.9999999999999999,0.0,-0.5235987755982988,0,-2.0799832,1.0241992,0.58750457,0.73575324,-0.96996284,1.394044,0.15930265,-0.31773555,-1.0394986,2.4907699,0.071179934,0.15469489,0.56582814,-0.9883617
0.1,-0.1,0.9999999999999999,0.0,-0.5235987755982988,0,-2.0147479,1.0518906,0.38543323,0.70960534,-0.89829427,1.3447486,-0.38179132,-0.31541502,-1.0273634,2.5262742,0.06552736,0.51845306,0.15912394,0.16645515
0.1,-0.1,0.9999999999999999,0.0,-0.5235987755982988,0,-1.9974147,1.0441731,0.46592882,0.67629635,-0.96112674,1.4584194,-0.3453172,-0.29250848,-1.0440478,2.5074663,0.07792699,0.458117,-0.10332455,-0.12706943
0.1,-0.1,0.9999999999999999,0.0,-0.5235987755982988,0,-2.0340152,0.95879763,0.44299102,0.6794122,-0.92516327,1.3684529,0.08669662,-0.3162251,-1.002587,2.4759786,0.04070169,-0.015467891,0.16693336,-0.6924377
0.1,-0.1,0.9999999999999999,0.0,-0.5235987755982988,0,-1.984019,1.0001302,0.51859367,0.85708463,-0.9118843,1.3180542,-0.5434543,-0.3210046,-1.0522025,2.4669237,0.03969731,0.3502632,0.1161999,-0.83614546
0.1,-0.1,0.9999999999999999,0.0,-0.5235987755982988,0,-2.0240428,1.0170038,0.49808034,0.7356777,-0.88956076,1.4107724,-0.27081478,-0.33720452,-1.0445155,2.4949117,0.053128805,0.2788543,0.21178475,-0.016667876
0.1,-0.1,0.9999999999999999,0.0,-0.5235987755982988,0,-2.041949,1.0472449,0.4981071,0.7375214,-0.90370286,1.3072149,-0.6640952,-0.31362912,-1.0239744,2.465912,0.08787291,0.20934169,0.40969473,-0.73042554
0.1,-0.1,0.9999999999999999,0.0,-0.5235987755982988,0,-1.959016,1.045453,0.38959375,0.70845175,-0.96580786,1.4121886,-0.22394055,-0.3070006,-1.061213,2.4855666,0.07688574,0.6865693,0.17220423,-1.3477608
0.1,-0.1,0.9999999999999999,0.0,-0.5235987755982988,0,-2.039808,1.0424142,0.40941763,0.6912733,-0.98457384,1.3784853,-0.08935955,-0.3311819,-1.0771289,2.5159051,0.04697346,0.109970056,0.30831096,-0.06074853
0.1,-0.1,0.9999999999999999,0.0,-0.5235987755982988,0,-1.8979053,1.0651088,0.3304603,0.73851925,-0.9584908,1.2871393,-0.5248227,-0.32472008,-1.047862,2.58842,0.06135939,0.17898686,0.29811573,-0.25149187
0.1,-0.1,0.9999999999999999,0.0,-0.5235987755982988,0,-2.059082,1.0494176,0.52143866,0.7365249,-0.95607185,1.3967977,-0.10360907,-0.30920506,-1.0321192,2.4679937,0.07995915,0.34976497,0.23712392,-0.2155147
0.1,-0.1,0.9999999999999999,0.0,-0.5235987755982988,0,-2.0212507,1.0393695,0.47179553,0.72322273,-0.98090625,1.4351358,-0.76372784,-0.30172092,-1.0818777,2.4920712,0.0568916,-0.36527568,0.71069676,-0.017370261
0.1,-0.1,0.9999999999999999,0.0,-0.5235987755982988,0,-2.0370646,1.0598855,0.5551616,0.74412054,-0.96774197,1.4737337,-0.4131164,-0.30797094,-1.0327561,2.4524531,0.0572274,0.110135935,0.54899,-0.6159938
0.1,-0.1,0.9999999999999999,0.0,-0.5235987755982988,0,-2.0094728,1.0250695,0.4400482,0.757306,-0.9733415,1.4493985,-0.19150226,-0.3217995,-1.0390738,2.4874918,0.04839846,0.5306059,0.29099664,-0.031041997
0.1,-0.1,0.9999999999999999,0.0,-0.5235987755982988,0,-2.035995,1.0608462,0.47138998,0.7283959,-0.9356864,1.4663392,-0.17316547,-0.30906186,-0.9774539,2.507534,0.04927578,0.47244763,0.45965436,-1.3179439
0.1,-0.1,0.9999999999999999,0.0,-0.5235987755982988,0,-2.0093799,1.0388138,0.4080348,0.6764332,-1.0163605,1.3641262,-0.15269727,-0.27643874,-1.0196882,2.5161455,0.060741123,-0.20423315,0.6523896,-0.31305704
0.1,-0.1,0.9999999999999999,0.0,-0.5235987755982988,0,-2.056013,1.0209061,0.5344989,0.7022414,-0.8957951,1.4370093,-0.13652746,-0.32122478,-1.017816,2.4712727,0.070436455,0.33554658,0.5150793,-1.3861597
0.1,-0.1,0.9999999999999999,0.0,-0.5235987755982988,0,-2.055242,1.024028,0.52305746,0.69643587,-1.0167694,1.4266399,-0.3360724,-0.31465265,-1.0335926,2.504302,0.06405744,0.4505664,0.017393133,-1.0770414
0.1,-0.1,0.9999999999999999,0.0,-0.5235987755982988,0,-1.9903789,1.0210854,0.43344605,0.70055324,-0.90943664,1.4030964,-0.46164948,-0.3074304,-1.0441656,2.3984098,0.054845434,-0.26565802,0.07343388,-0.93886185
0.1,-0.1,0.9999999999999999,0.0,-0.5235987755982988,0,-2.0310135,1.0521717,0.37554178,0.73073447,-0.9438938,1.3440126,0.33737007,-0.3003854,-1.0410566,2.5289464,0.075021066,0.2862526,0.52717364,0.25572106
0.1,-0.1,0.9999999999999999,0.0,-0.5235987755982988,0,-1.9991046,0.9978684,0.42408028,0.69794667,-0.9559537,1.4000123,-0.14267197,-0.3004474,-1.0361892,2.5001688,0.057754733,-0.018745763,0.2232468,-2.0119216
0.1,-0.1,0.9999999999999999,0.0,-0.5235987755982988,0,-2.0579836,1.0175953,0.53093547,0.7399078,-0.9686068,1.4439522,-0.29927745,-0.30049646,-1.029881,2.4822521,0.047240507,0.27599934,0.533325,-0.43506256
0.1,-0.1,0.9999999999999999,0.0,-0.5235987755982988,0,-2.0836334,1.0346472,0.48425654,0.69011396,-0.9648065,1.3619537,0.058127936,-0.32615188,-1.0306071,2.5246902,0.081029035,0.4723459,0.32143408,-1.481898
0.1,-0.1,0.9999999999999999,0.0,-0.5235987755982988,0,-2.0310116,1.0128264,0.48298633,0.73169273,-0.9601941,1.3697523,-0.69480294,-0.2996354,-0.98918635,2.458195,0.08719339,0.39762804,0.59687334,-0.6312842
0.1,-0.1,0.9999999999999999,0.0,-0.5235987755982988,0,-2.105421,0.99565053,0.5115884,0.6671308,-0.934319,1.4219294,0.24447165,-0.31328562,-1.0172352,2.4236922,0.07426422,0.3066397,0.23909168,-0.13346569
0.1,-0.1,0.9999999999999999,0.0,-0.5235987755982988,0,-2.028151,1.001547,0.35849425,0.7811086,-0.96968144,1.3259599,-0.2390307,-0.2970636,-1.0171533,2.503385,0.078099266,0.5757233,0.34425527,-0.9666808
0.1,-0.1,0.9999999999999999,0.0,-0.5235987755982988,0,-2.0499234,1.0242418,0.48060146,0.7165881,-0.9536449,1.3848841,-0.6136025,-0.3008835,-1.0254917,2.409375,0.033160638,-0.045448147,0.43223676,-0.9125668
0.1,-0.1,0.9999999999999999,0.0,-0.5235987755982988,0,-2.0757842,0.9753498,0.4758616,0.7193701,-0.93648106,1.3436154,0.18743879,-0.35902962,-1.0454159,2.460229,0.04188531,0.32122755,-0.15317585,-0.5030897
0.1,-0.1,0.9999999999999999,0.0,-0.5235987755982988,0,-2.048429,1.0577807,0.41579434,0.76894724,-0.94625264,1.374237,0.086006805,-0.28244555,-1.0809596,2.439626,0.052192282,0.41849846,0.2522443,-0.27863517
0.1,-0.1,0.9999999999999999,0.0,-0.5235987755982988,0,-2.0696507,1.0174049,0.44482002,0.69502634,-0.9550005,1.4111854,0.22211918,-0.3219881,-1.0644442,2.4656107,0.017750494,-0.2506072,0.30714095,-1.6368258
0.1,-0.1,0.9999999999999999,0.0,-0.5235987755982988,0,-2.043764,0.9972787,0.47728002,0.70744497,-0.96714777,1.4651104,-0.22741224,-0.32522207,-1.0267793,2.4569476,0.056700073,0.73360825,-0.20542899,-0.9832913
0.1,-0.1,0.9999999999999999,0.0,-0.5235987755982988,0,-2.0334623,1.0186971,0.46055692,0.7073062,-0.9075357,1.3430893,0.14418763,-0.30094245,-1.0477571,2.4930646,0.046929866,-0.26265928,0.13334373,-1.1638352
0.1,-0.1,0.9999999999999999,0.0,-0.5235987755982988,0,-2.0358396,1.0441564,0.51005965,0.7025545,-0.96162087,1.4626272,0.2388925,-0.3204751,-1.0140234,2.5341003,0.06620203,-0.076979466,0.21962999,-1.1222045
0.1,-0.1,0.9999999999999999,0.0,-0.5235987755982988,0,-2.067902,1.0439502,0.5346634,0.76214194,-0.935703,1.4773759,-0.22738989,-0.29139853,-1.004425,2.448386,0.06421094,-0.13988808,0.0071339556,-2.1428862
0.1,-0.1,0.9999999999999999,0.0,-0.5235987755982988,0,-1.9916861,1.0741472,0.4492161,0.74448866,-0.89596015,1.4706224,0.062149983,-0.29691452,-1.0502683,2.4688466,0.050319098,0.4034149,0.67764705,0.07921821
0.1,-0.1,0.9999999999999999,0.0,-0.5235987755982988,0,-2.1165838,1.0111476,0.48289773,0.7307225,-0.8931438,1.3202571,-0.14298832,-0.29461694,-0.9864956,2.4591143,0.09128488,-0.1293558,-0.027711375,-0.21809627
0.1,-0.1,0.9999999999999999,0.0,-0.5235987755982988,0,-2.0683594,0.9762233,0.427173,0.74295735,-0.9432441,1.3993564,-0.18034174,-0.32363,-1.0499868,2.470073,0.08281636,0.008913265,1.0043737,-0.8521231
0.1,-0.1,0.9999999999999999,0.0,-0.5235987755982988,0,-2.0563266,1.0507009,0.43007654,0.694632,-0.9586071,1.4518373,0.30286154,-0.31437504,-1.0319033,2.4247162,0.031173421,0.3718541,0.37441048,0.97985107
0.1,-0.1,0.9999999999999999,0.0,-0.5235987755982988,0,-2.0999713,1.031523,0.5468744,0.74201584,-0.9569378,1.4395592,0.33649856,-0.2838901,-1.0357479,2.4801977,0.060981832,0.8235841,0.8297225,-0.8031995
0.1,-0.1,0.9999999999999999,0.0,-0.5235987755982988,0,-2.0871575,1.0475839,0.40294167,0.7200002,-0.9993314,1.2545813,-0.08478158,-0.32795447,-1.0548012,2.5354464,0.0704731,0.27825195,0.35561752,-0.33281308
0.1,-0.1,0.9999999999999999,0.0,-0.5235987755982988,0,-2.0175815,1.0316395,0.43869707,0.7136841,-0.911133,1.3935884,-0.30621895,-0.31221807,-1.0018721,2.4426873,0.062386606,0.2158628,0.34109506,-0.37725222
0.1,-0.1,0.9999999999999999,0.0,-0.5235987755982988,0,-2.0420456,1.0116788,0.4511174,0.7449199,-0.95525694,1.3860399,0.5168805,-0.33363822,-0.9992001,2.4994245,0.03630229,0.25719887,0.6097062,-0.85447156
0.1,-0.1,0.9999999999999999,0.0,-0.5235987755982988,0,-2.0543752,1.0244468,0.48079985,0.7461878,-0.9503195,1.4320236,-0.23321016,-0.31291798,-1.043723,2.5281773,0.08838408,-0.19614664,0.39024708,0.68558687
0.1,-0.1,0.9999999999999999,0.0,-0.5235987755982988,0,-2.1208274,1.0315691,0.5097097,0.7407963,-0.95201427,1.3087258,-0.56040406,-0.29959172,-1.0318059,2.527446,0.06305333,0.12798163,0.5940621,-2.2366753
0.1,-0.1,0.9999999999999999,0.0,-0.5235987755982988,0,-2.0688813,1.0303563,0.46686208,0.7476792,-0.9974134,1.3830279,-0.5701538,-0.30427337,-1.0411973,2.450173,0.027646635,0.47978947,-0.4931404,-0.25058386
0.1,-0.1,0.9999999999999999,0.0,-0.5235987755982988,0,-2.1061063,1.033072,0.47815582,0.7179597,-0.91904676,1.3832837,-0.45387655,-0.31059685,-1.0296297,2.4893522,0.04364188,0.571184,0.18060562,-1.083583
0.1,-0.1,0.9999999999999999,0.0,-0.5235987755982988,0,-2.0471544,1.0649346,0.4147987,0.7019549,-0.94675916,1.4268334,0.1148267,-0.288747,-1.0668314,2.4755836,0.08476921,0.016803952,0.3186998,-0.46221036
0.1,-0.1,0.9999999999999999,0.0,-0.5235987755982988,0,-1.9849983,1.0339605,0.3966742,0.7329518,-0.9827207,1.4627823,-0.003995825,-0.31078655,-1.0010893,2.4106345,0.089154065,0.16113397,0.4734939,-0.6253188
0.1,-0.1,0.9999999999999999,0.0,-0.5235987755982988,0,-1.9650148,1.0625931,0.449657,0.75973004,-0.96295696,1.4442699,0.4804504,-0.25982204,-1.0543942,2.5202005,0.049074557,0.2931196,0.9295996,-1.0256374
0.1,-0.1,0.9999999999999999,0.0,-0.5235987755982988,0,-2.0449457,1.0589638,0.3749392,0.6922634,-0.97079986,1.4187841,-0.060779214,-0.30594662,-1.0750921,2.482288,0.06682826,0.23161308,0.35377562,-0.12707023
0.1,-0.1,0.9999999999999999,0.0,-0.5235987755982988,0,-2.117097,1.0240126,0.5042689,0.6787546,-0.91729677,1.441533,-0.7510266,-0.32900646,-1.0146146,2.496542,0.06314346,-0.29227358,0.5319817,-0.79839075
0.1,-0.1,0.9999999999999999,0.0,-0.5235987755982988,0,-2.0194721,1.0785893,0.40784314,0.68909615,-0.98954785,1.4235132,0.13160096,-0.32779065,-1.0338337,2.458976,0.052578263,0.4114427,-0.05297627,0.75810105
0.1,-0.1,0.9999999999999999,0.0,-0.5235987755982988,0,-2.065646,1.0361302,0.4134881,0.7276966,-0.95284647,1.4045782,-0.1469925,-0.3140454,-1.0723388,2.4053237,0.034848385,-0.32203466,0.18589719,0.39239764
0.1,-0.1,0.9999999999999999,0.0,-0.5235987755982988,0,-2.0918093,1.0101345,0.4971361,0.7413545,-0.9481531,1.4332687,0.088530965,-0.28944576,-1.0439696,2.468795,0.043818343,-0.39067867,0.40142396,0.15982908
0.1,-0.1,0.9999999999999999,0.0,-0.5235987755982988,0,-2.0350637,1.0290754,0.41663182,0.7393461,-0.9567366,1.4400789,0.018814549,-0.32492948,-1.0352324,2.3875184,0.06774427,0.22530183,0.12863946,-0.026708392
0.1,-0.1,0.9999999999999999,0.0,-0.5235987755982988,0,-2.0163329,1.013991,0.3877047,0.7114144,-1.0037547,1.4835063,-0.37049964,-0.2833622,-1.0238557,2.5088248,0.068778045,0.4325859,-0.019109651,-2.0042996
0.1,-0.1,0.9999999999999999,0.0,-0.5235987755982988,0,-1.976824,1.0623206,0.40200862,0.73050725,-0.89062613,1.4427834,-0.46024662,-0.2885037,-1.043611,2.449174,0.056577235,-0.20672171,0.6873929,-0.61538064
0.1,-0.1,0.9999999999999999,0.0,-0.5235987755982988,0,-2.0668066,1.0954174,0.39298025,0.66237956,-0.9814558,1.4054658,-0.79101276,-0.31396016,-1.0785173,2.503457,0.061691433,0.41712207,0.18459244,-0.074426375
0.1,-0.1,0.9999999999999999,0.0,-0.5235987755982988,0,-2.1368806,1.0175575,0.51030856,0.7469288,-0.97868466,1.4357932,0.053406876,-0.29477698,-1.0819349,2.478621,0.06904134,0.18837525,0.12696372,-0.4461294
0.1,-0.1,0.9999999999999999,0.0,-0.5235987755982988,0,-2.0266395,1.0313214,0.35100543,0.70359844,-0.90369344,1.3795513,-0.18607567,-0.27787194,-1.0042421,2.4836576,0.06609753,-0.2890497,-0.09618151,-0.3335393
0.1,-0.1,0.9999999999999999,0.0,-0.5235987755982988,0,-2.1074004,1.057602,0.45764977,0.7241329,-0.9714611,1.4315182,-0.32323456,-0.30944914,-1.0260837,2.4930372,0.031678554,0.30331412,-0.11556913,0.0004204683
0.1,-0.1,0.9999999999999999,0.0,-0.5235987755982988,0,-2.0203853,1.0440221,0.34594327,0.7440065,-0.9416128,1.3699188,-0.038901284,-0.30994937,-1.0384938,2.5538976,0.038789008,-0.012798956,0.23573068,-1.1818953
0.1,-0.1,0.9999999999999999,0.0,-0.5235987755982988,0,-2.0288835,1.0665574,0.5501677,0.7403482,-0.9703113,1.4624103,0.24354835,-0.29931292,-1.0290649,2.5041428,0.08007837,0.3660143,-0.12326171,-1.4472357
0.1,-0.1,0.9999999999999999,0.0,-0.5235987755982988,0,-2.0656786,1.0567632,0.4132452,0.68650246,-0.96543026,1.3870647,-0.76617277,-0.31589618,-1.0174936,2.470386,0.041548852,-0.1479018,0.37489966,-1.5434295
0.1,-0.1,0.9999999999999999,0.0,-0.5235987755982988,0,-2.0501144,1.0311551,0.38727397,0.6929151,-1.0093366,1.3852149,0.2953906,-0.33175048,-1.0361447,2.432991,0.061364327,-0.18269645,0.46664965,0.47443646
0.1,-0.1,0.9999999999999999,0.0,-0.5235987755982988,0,-2.1189606,1.0332388,0.42688704,0.68472844,-0.9382936,1.3933935,0.07935524,-0.3033786,-1.0422361,2.50951,0.061647177,0.4511498,0.40838662,0.111260206
0.1,-0.1,0.9999999999999999,0.0,-0.5235987755982988,0,-2.0362732,1.0757114,0.38342232,0.7019789,-0.9745219,1.4952257,0.087146774,-0.31505322,-1.0573347,2.5287957,0.060312264,0.12795907,0.51529646,-1.4844508
0.1,-0.1,0.9999999999999999,0.0,-0.5235987755982988,0,-2.0071177,1.048975,0.3703457,0.7185576,-0.97549665,1.4294432,0.008831992,-0.32426435,-0.9945671,2.436502,0.026326101,0.19095826,-0.098049685,-0.9419946
0.1,-0.1,0.9999999999999999,0.0,-0.5235987755982988,0,-2.1362808,0.9975304,0.55584884,0.7613707,-0.9669821,1.4209542,-0.15188034,-0.29783982,-1.0520948,2.5388021,0.085099086,-0.17939751,0.13841936,-0.6479134
0.1,-0.1,0.9999999999999999,0.0,-0.5235987755982988,0,-1.9833237,1.0160813,0.5292234,0.7525294,-0.89354575,1.4048989,0.34491497,-0.306977,-1.0284921,2.5242853,0.05987712,0.27050215,0.5542072,-0.95517606
0.1,-0.1,0.9999999999999999,0.0,-0.5235987755982988,0,-2.0558813,1.0570931,0.38028124,0.6892324,-0.9809738,1.4661937,-0.3657255,-0.26611552,-1.0273422,2.442621,0.048420623,0.4064979,0.7668539,-1.0220851
0.1,-0.1,0.9999999999999999,0.0,-0.5235987755982988,0,-2.045387,1.041769,0.39790276,0.7233818,-0.9149879,1.382157,0.25367355,-0.32038146,-1.0486772,2.5255704,0.054397304,0.061533485,0.2468242,-1.9314488
0.1,-0.1,0.9999999999999999,0.0,-0.5235987755982988,0,-2.047277,1.0087458,0.5449822,0.72510576,-0.93183005,1.3621942,0.5633612,-0.32167038,-1.0139825,2.5181866,0.022386983,0.74321896,0.44640398,-1.4287829
0.1,-0.1,0.9999999999999999,0.0,-0.5235987755982988,0,-2.1324334,1.0590122,0.44936335,0.70027137,-0.9541585,1.4230183,-0.7026084,-0.31797236,-1.0588517,2.4291017,0.048769668,0.3512996,0.063913405,-0.23726936
0.1,-0.1,0.9999999999999999,0.0,-0.5235987755982988,0,-2.0753522,1.0271667,0.34557673,0.66523784,-0.95734566,1.2980801,0.110711426,-0.31074715,-1.0392245,2.5143774,0.085597016,-0.06356193,0.52247614,-0.14856379
0.1,-0.1,0.9999999999999999,0.0,-0.5235987755982988,0,-2.0454307,1.0452023,0.39556405,0.73490715,-0.963162,1.4622587,-0.18299924,-0.31921464,-1.0377808,2.5326126,0.056392055,0.17567556,0.30913487,-0.58970046
0.1,-0.1,0.9999999999999999,0.0,-0.5235987755982988,0,-2.125508,1.0387185,0.39127815,0.74455816,-0.9494745,1.4414681,-0.42013404,-0.30672076,-1.0461298,2.4658232,0.03531099,0.37692222,0.4919469,-1.8051014
0.1,-0.1,0.9999999999999999,0.0,-0.5235987755982988,0,-2.0767272,1.0208563,0.38062617,0.7694366,-0.9279839,1.4918532,-0.50318754,-0.29038608,-1.0402694,2.5162194,0.05424994,-0.23342861,0.12738402,-1.4494863
