sanky1234/BimanualDexCatch/isaacgymenvs/cem_results/football_pose_-0.1_0.0_1.0999999999999999_-0.5235987755982988_0.0_0_2025-05-25.csv
x,y,z,roll,pitch,yaw,robot1/joint1,robot1/joint2,robot1/joint3,robot1/joint4,robot1/joint5,robot1/joint6,robot1/joint7,robot2/joint1,robot2/joint2,robot2/joint3,robot2/joint4,robot2/joint5,robot2/joint6,robot2/joint7
-0.1,0.0,1.0999999999999999,-0.5235987755982988,0.0,0,-1.3263053,-1.477881,-0.8193899,0.4742049,-0.0062010693,0.8210099,-0.41099468,0.19786586,-0.8975476,-1.2414536,-0.10614777,-0.075316474,1.0241251,-0.03667947
-0.1,0.0,1.0999999999999999,-0.5235987755982988,0.0,0,-1.3271091,-1.4770538,-0.8201531,0.47512588,-0.02386281,0.98512274,-0.21846859,0.20398484,-0.89667964,-1.24229,-0.061190378,0.09978662,1.0804393,-2.0378847
-0.1,0.0,1.0999999999999999,-0.5235987755982988,0.0,0,-1.3262615,-1.477439,-0.8181336,0.47498167,-0.0032469344,0.84428126,-0.23962902,0.21298231,-0.89769626,-1.2503097,-0.024681887,-0.07275687,1.0962114,-1.0569818
-0.1,0.0,1.0999999999999999,-0.5235987755982988,0.0,0,-1.326322,-1.478458,-0.8199016,0.47095528,-0.017453637,0.84564537,-0.033830278,0.20156258,-0.89622563,-1.2369193,-0.013207839,0.069483794,1.0518517,-0.65288836
-0.1,0.0,1.0999999999999999,-0.5235987755982988,0.0,0,-1.3262789,-1.4769835,-0.81697875,0.4732466,-0.052998707,0.91260153,0.08638374,0.19466826,-0.89650464,-1.2308658,-0.017845592,0.048798386,1.0765691,-0.3365019
-0.1,0.0,1.0999999999999999,-0.5235987755982988,0.0,0,-1.3266379,-1.4790832,-0.818707,0.4767472,-0.06046946,0.9070871,-0.53624266,0.19791673,-0.8945204,-1.2485906,-0.10872717,-0.01501017,1.0414467,-1.0502039
-0.1,0.0,1.0999999999999999,-0.5235987755982988,0.0,0,-1.3268166,-1.477235,-0.81710696,0.47531775,-0.055493698,0.85131484,0.16723643,0.20248781,-0.8956506,-1.2446368,-0.024833122,0.017070143,1.0301263,-1.0287325
-0.1,0.0,1.0999999999999999,-0.5235987755982988,0.0,0,-1.326857,-1.4780982,-0.819002,0.47491044,0.0071238754,0.776917,-0.21978715,0.20132975,-0.89641607,-1.2516142,-0.07796447,-0.033458117,1.0210816,0.102306746
-0.1,0.0,1.0999999999999999,-0.5235987755982988,0.0,0,-1.3268577,-1.4786087,-0.81948954,0.4729011,-0.028578639,0.9872211,-0.5688257,0.20259152,-0.89691204,-1.2507427,-0.09500276,0.0107985195,1.0834687,-0.70918894
-0.1,0.0,1.0999999999999999,-0.5235987755982988,0.0,0,-1.326921,-1.4792984,-0.81932443,0.47676507,0.009754557,0.8112732,-0.18267405,0.20429493,-0.8960897,-1.2469832,-0.081226744,0.05681035,1.0898947,-0.3043331
-0.1,0.0,1.0999999999999999,-0.5235987755982988,0.0,0,-1.3267667,-1.4798447,-0.818716,0.4744877,-0.04776628,0.85351807,0.07787379,0.20041935,-0.8962481,-1.2469504,-0.048602786,-0.10867107,1.0722136,0.08061093
-0.1,0.0,1.0999999999999999,-0.5235987755982988,0.0,0,-1.3272655,-1.4769568,-0.8205347,0.47858468,0.04193806,0.95838267,-0.6358513,0.20374636,-0.8967044,-1.2466252,-0.07018679,-0.009353525,1.1556548,-0.22536114
-0.1,0.0,1.0999999999999999,-0.5235987755982988,0.0,0,-1.3269244,-1.4784276,-0.8206242,0.4720399,0.029679397,0.81962067,-0.1660888,0.20190439,-0.89590496,-1.2538035,-0.043692745,-0.0441144,1.07231,-0.1112275
-0.1,0.0,1.0999999999999999,-0.5235987755982988,0.0,0,-1.3272488,-1.4799443,-0.8187856,0.4748028,-0.022773944,0.8483586,-0.2556955,0.1957423,-0.89646703,-1.2535168,-0.07109789,-0.010071349,1.0206705,-2.327402
-0.1,0.0,1.0999999999999999,-0.5235987755982988,0.0,0,-1.3272907,-1.4759029,-0.81979233,0.47854796,-0.016645456,0.93644416,-0.9130316,0.1957425,-0.8969766,-1.2455566,-0.09645561,0.048382223,1.0298023,-0.5676293
-0.1,0.0,1.0999999999999999,-0.5235987755982988,0.0,0,-1.3269069,-1.4770435,-0.8184163,0.4754112,-0.020035058,0.8404858,-0.43769318,0.2127904,-0.8967116,-1.2332466,-0.13633059,-0.07617686,1.1189677,-0.3645174
-0.1,0.0,1.0999999999999999,-0.5235987755982988,0.0,0,-1.3265008,-1.4781053,-0.818214,0.47207257,-0.029188262,0.9289501,-1.0843314,0.20895013,-0.89700216,-1.2586119,0.011372422,0.0032985427,1.051095,-0.0041957903
-0.1,0.0,1.0999999999999999,-0.5235987755982988,0.0,0,-1.3255702,-1.4780939,-0.8171352,0.47538266,-0.04287263,0.8983066,-0.7900028,0.18636471,-0.89682186,-1.2400085,-0.02526445,-0.04470479,0.9580971,0.38408023
-0.1,0.0,1.0999999999999999,-0.5235987755982988,0.0,0,-1.3262614,-1.4784106,-0.81835085,0.47728753,-0.1336217,0.8841924,-0.32760134,0.19167092,-0.8955098,-1.253974,-0.053746957,-0.11089534,1.0485247,-1.0003927
-0.1,0.0,1.0999999999999999,-0.5235987755982988,0.0,0,-1.326285,-1.4781995,-0.8166535,0.47800952,-0.022431798,0.87696016,-0.5174897,0.19132505,-0.8958311,-1.247629,-0.11211199,-0.119747594,1.1029124,-0.036265448
-0.1,0.0,1.0999999999999999,-0.5235987755982988,0.0,0,-1.3264272,-1.4774215,-0.8175595,0.47587568,0.0593408,0.94700277,-0.12379263,0.20334873,-0.8951777,-1.2545835,-0.012624961,0.07312399,0.9865814,-1.7201437
-0.1,0.0,1.0999999999999999,-0.5235987755982988,0.0,0,-1.3265185,-1.4810802,-0.8183931,0.4740002,-0.019600466,0.8372066,0.14414382,0.19582431,-0.8972757,-1.2435384,-0.12093766,-0.03747011,1.1529198,-2.1355646
-0.1,0.0,1.0999999999999999,-0.5235987755982988,0.0,0,-1.327252,-1.4779502,-0.81860584,0.47145775,-0.014048033,0.85612124,-0.6745007,0.1952032,-0.89620966,-1.2454181,-0.024859775,-0.055385686,1.1406105,-0.48450926
-0.1,0.0,1.0999999999999999,-0.5235987755982988,0.0,0,-1.3268627,-1.4764658,-0.8192444,0.47142774,-0.16199322,0.89808565,-0.33642843,0.208244,-0.8967692,-1.2412838,-0.021881254,0.08040336,1.0835041,-0.4204683
-0.1,0.0,1.0999999999999999,-0.5235987755982988,0.0,0,-1.3273858,-1.4786615,-0.81841356,0.47526157,-0.07686439,0.8708031,-0.74655044,0.19703002,-0.8958689,-1.2476904,-0.006906722,-0.0066453926,1.1367302,-1.4907998
-0.1,0.0,1.0999999999999999,-0.5235987755982988,0.0,0,-1.326655,-1.4781123,-0.8179637,0.47387433,-0.07595441,0.9568151,-0.6278207,0.19179103,-0.89661765,-1.2481693,-0.024070416,-0.04234351,1.1193565,0.14625691
-0.1,0.0,1.0999999999999999,-0.5235987755982988,0.0,0,-1.3275683,-1.4793693,-0.8173822,0.4710843,-0.123961516,0.9251956,0.14876314,0.20784277,-0.8962293,-1.2447807,-0.019008584,-0.085133664,0.99882525,-1.8310846
-0.1,0.0,1.0999999999999999,-0.5235987755982988,0.0,0,-1.3258355,-1.4788566,-0.8177997,0.47403386,-0.022250028,0.9431069,-0.19371596,0.19245918,-0.896387,-1.2366791,0.012545075,-0.02247984,1.0351596,-0.2374339
-0.1,0.0,1.0999999999999999,-0.5235987755982988,0.0,0,-1.3259194,-1.4777067,-0.81905115,0.4744704,-0.06204494,0.9955001,-0.51386106,0.20799857,-0.89678216,-1.2462568,-0.04992536,0.01976196,1.069655,-0.8037726
-0.1,0.0,1.0999999999999999,-0.5235987755982988,0.0,0,-1.3255749,-1.4771796,-0.8190924,0.47398177,-0.03641869,0.862461,-0.5705504,0.19803469,-0.8968563,-1.2499022,-0.059764963,0.06542255,1.0661508,-0.23511784
-0.1,0.0,1.0999999999999999,-0.5235987755982988,0.0,0,-1.3274003,-1.4764711,-0.82030493,0.47655922,0.005407411,0.9583457,-0.6748499,0.2018762,-0.89626586,-1.2404038,-0.02026544,0.023523098,1.0220096,-0.94518304
-0.1,0.0,1.0999999999999999,-0.5235987755982988,0.0,0,-1.3264918,-1.477499,-0.8200338,0.4729752,0.002064402,0.85758245,-0.56198174,0.19148016,-0.89632887,-1.2468988,-0.02775763,0.0044212565,1.1217936,-0.5378176
-0.1,0.0,1.0999999999999999,-0.5235987755982988,0.0,0,-1.3268937,-1.4785947,-0.81704676,0.47434792,-0.016275167,0.9179468,0.31255805,0.1952778,-0.8950908,-1.244345,0.01760428,0.096070156,1.0099461,-0.3242941
-0.1,0.0,1.0999999999999999,-0.5235987755982988,0.0,0,-1.3263816,-1.4771875,-0.818635,0.47864544,-0.070535205,0.9356083,-0.27601296,0.20006904,-0.896403,-1.242496,-0.02976033,-0.12943412,1.0498381,-0.95344883
-0.1,0.0,1.0999999999999999,-0.5235987755982988,0.0,0,-1.3269941,-1.4781257,-0.81822246,0.4773499,-0.035598382,0.8617863,0.04372729,0.19484836,-0.8959768,-1.2267512,-0.07293683,-0.16450334,1.0029722,0.0011951841
-0.1,0.0,1.0999999999999999,-0.5235987755982988,0.0,0,-1.3264846,-1.4758353,-0.8192982,0.46781623,-0.060829192,1.000695,-0.5901344,0.19430567,-0.8966515,-1.240743,-0.052013494,-0.06309093,1.1111448,-0.3416136
-0.1,0.0,1.0999999999999999,-0.5235987755982988,0.0,0,-1.3261691,-1.4789057,-0.81769556,0.47757325,0.041441545,0.8957999,-0.3592993,0.19936985,-0.89570993,-1.2435585,-0.049270757,-0.008299155,1.0067252,-1.3083911
-0.1,0.0,1.0999999999999999,-0.5235987755982988,0.0,0,-1.3263159,-1.4770995,-0.8177213,0.4731263,-0.06771003,0.90718806,-0.18300295,0.19244388,-0.8954657,-1.2437595,-0.12767337,0.11268811,1.1433092,-1.2087607
-0.1,0.0,1.0999999999999999,-0.5235987755982988,0.0,0,-1.3265316,-1.4774661,-0.81874096,0.47292066,-0.084546715,0.8694588,-0.102824256,0.19077344,-0.8961188,-1.2459013,-0.034280386,0.023132417,1.0510912,-0.196271
-0.1,0.0,1.0999999999999999,-0.5235987755982988,0.0,0,-1.327319,-1.4791201,-0.8196197,0.47370303,-0.0014560369,0.81134003,-0.42304203,0.19151929,-0.89635646,-1.2261788,-0.032025743,-0.083029084,1.1190642,-0.40739962
-0.1,0.0,1.0999999999999999,-0.5235987755982988,0.0,0,-1.3273705,-1.4784421,-0.8199581,0.4710998,-0.10199168,0.7963332,-0.003964879,0.19887006,-0.8946952,-1.251235,-0.063998654,0.012697211,1.0892404,-2.0748405
-0.1,0.0,1.0999999999999999,-0.5235987755982988,0.0,0,-1.3269631,-1.4792603,-0.81767416,0.47711033,-0.04027569,0.8478546,0.1969362,0.20281833,-0.8955373,-1.2362915,-0.005676778,-0.17259535,1.0141356,-0.4279683
-0.1,0.0,1.0999999999999999,-0.5235987755982988,0.0,0,-1.3260583,-1.4769353,-0.8187353,0.477406,0.011193787,0.98950505,-0.14606445,0.19735056,-0.89591247,-1.2343706,-0.07004863,0.07530467,1.0698912,0.28859437
-0.1,0.0,1.0999999999999999,-0.5235987755982988,0.0,0,-1.3260422,-1.4770538,-0.81872606,0.4697408,-0.0835776,0.90399945,0.1316395,0.2040799,-0.896532,-1.2440298,-0.0616632,0.06734565,0.9708297,-0.6801587
-0.1,0.0,1.0999999999999999,-0.5235987755982988,0.0,0,-1.3265762,-1.4772005,-0.8182673,0.4762088,0.06353749,0.81657755,-0.4772923,0.20889807,-0.89501876,-1.2479913,-0.035800114,0.0830922,1.0678562,-0.7782303
-0.1,0.0,1.0999999999999999,-0.5235987755982988,0.0,0,-1.3262258,-1.4803212,-0.817032,0.4737737,-0.0727972,1.026695,-0.50772065,0.20336631,-0.8969721,-1.2504295,-0.09866745,-0.008800822,1.0291046,-1.5727464
-0.1,0.0,1.0999999999999999,-0.5235987755982988,0.0,0,-1.326645,-1.4785503,-0.81899065,0.4751926,-0.022263663,0.9465383,0.19813068,0.20125395,-0.89730483,-1.2398138,-0.06800405,-0.07097086,1.1381208,-0.8068189
-0.1,0.0,1.0999999999999999,-0.5235987755982988,0.0,0,-1.3265266,-1.4788435,-0.8172295,0.4723174,-0.04675328,0.9096457,-0.7853835,0.2026452,-0.89615387,-1.2482561,0.008247243,-0.05551916,1.0830773,0.0038962055
-0.1,0.0,1.0999999999999999,-0.5235987755982988,0.0,0,-1.3262856,-1.4772713,-0.8189855,0.47766006,0.011636154,0.93401855,-0.7543638,0.201072,-0.8963345,-1.2435256,-0.04544747,-0.06445961,1.0254172,-0.16392983
-0.1,0.0,1.0999999999999999,-0.5235987755982988,0.0,0,-1.326792,-1.4801922,-0.8194216,0.4749068,-0.037672028,0.9145912,-0.1750598,0.20236292,-0.895958,-1.2355351,-0.031586856,-0.008416729,0.9842646,-0.034902573
-0.1,0.0,1.0999999999999999,-0.5235987755982988,0.0,0,-1.3267319,-1.4794759,-0.817122,0.47365838,-0.08808586,0.8427677,-0.62968105,0.2012983,-0.89478254,-1.2485634,-0.15572758,0.026615813,1.0768496,-1.7523159
-0.1,0.0,1.0999999999999999,-0.5235987755982988,0.0,0,-1.3267288,-1.4784583,-0.8179671,0.47736147,-0.08285213,0.89126784,-0.050502457,0.19990048,-0.8958843,-1.2368876,-0.062793806,-0.059306204,1.0200913,-1.3634219
-0.1,0.0,1.0999999999999999,-0.5235987755982988,0.0,0,-1.3265561,-1.4772347,-0.8195268,0.47121647,0.0034940836,0.91427124,-0.19888532,0.19244859,-0.8958285,-1.2459915,-0.027120523,-0.00038940116,1.0118976,-0.23576157
-0.1,0.0,1.0999999999999999,-0.5235987755982988,0.0,0,-1.3262914,-1.4795387,-0.81724125,0.47421047,0.061027836,0.9042477,-0.32857636,0.19824152,-0.8964077,-1.2224101,-0.07456255,0.007800274,1.0765232,-1.272384
-0.1,0.0,1.0999999999999999,-0.5235987755982988,0.0,0,-1.3267769,-1.4766842,-0.81850505,0.4747377,-0.07765334,0.910578,-0.13614596,0.1940587,-0.8959408,-1.232913,-0.041847307,-0.06219247,1.0915396,-0.715637
-0.1,0.0,1.0999999999999999,-0.5235987755982988,0.0,0,-1.326513,-1.4788107,-0.8168235,0.47624418,-0.032337166,0.8956102,-0.02825486,0.20032504,-0.89665544,-1.2580674,-0.057947636,0.017558904,1.0283573,-0.7854031
-0.1,0.0,1.0999999999999999,-0.5235987755982988,0.0,0,-1.3267896,-1.476529,-0.8195163,0.47691843,-0.029584667,0.9737383,-0.5500582,0.19361027,-0.8958118,-1.2488712,-0.023651157,0.029765671,1.1004084,-0.14868133
-0.1,0.0,1.0999999999999999,-0.5235987755982988,0.0,0,-1.3262371,-1.4778572,-0.816821,0.4745654,0.0015225116,0.8707989,-0.06821629,0.20269978,-0.89563036,-1.2434363,-0.03080857,0.08575692,1.0177705,0.84858346
-0.1,0.0,1.0999999999999999,-0.5235987755982988,0.0,0,-1.3262562,-1.479211,-0.8175384,0.4746927,0.063779674,0.91933,-0.57594293,0.1932046,-0.89587045,-1.2464839,-0.13268022,0.045648098,0.9974507,0.40747693
-0.1,0.0,1.0999999999999999,-0.5235987755982988,0.0,0,-1.3267102,-1.4782592,-0.8182562,0.47617513,-0.10611263,0.9470469,-0.45578346,0.19101122,-0.8961403,-1.2582537,-0.084806904,-0.06572978,0.98333824,-0.9853492
-0.1,0.0,1.0999999999999999,-0.5235987755982988,0.0,0,-1.3266029,-1.4768823,-0.8190708,0.4743166,-0.022729136,0.8099256,-0.24331415,0.19974439,-0.8973631,-1.2395185,-0.0044228653,-0.074053,1.0552548,0.42031783
-0.1,0.0,1.0999999999999999,-0.5235987755982988,0.0,0,-1.3272387,-1.4760499,-0.8195953,0.47613975,-0.018372579,0.9558869,-0.5385891,0.20027371,-0.89550614,-1.2407218,-0.13885807,0.0004109601,1.0578756,-0.95151496
-0.1,0.0,1.0999999999999999,-0.5235987755982988,0.0,0,-1.3263735,-1.4756067,-0.8168135,0.47555614,-0.047758635,0.8328284,-1.0715832,0.19826311,-0.89512557,-1.2529355,-0.089566596,0.005965003,0.9296482,-0.7286891
-0.1,0.0,1.0999999999999999,-0.5235987755982988,0.0,0,-1.3268516,-1.4791055,-0.8170989,0.47332102,0.017927086,0.8781865,-0.46281412,0.19221205,-0.89610904,-1.2363216,-0.037902173,0.10865372,0.9369362,-0.29939228
-0.1,0.0,1.0999999999999999,-0.5235987755982988,0.0,0,-1.3266563,-1.4793848,-0.8190332,0.47637433,0.0024148533,0.8785715,-0.078536585,0.20093806,-0.89602953,-1.2403463,-0.10025293,-0.08565549,1.0596063,0.2911289
-0.1,0.0,1.0999999999999999,-0.5235987755982988,0.0,0,-1.3263234,-1.4779891,-0.8190038,0.47462302,0.012903601,0.9098611,-0.43289754,0.19472097,-0.8965232,-1.2558274,-0.026330745,-0.10995222,0.9824716,0.58542913
-0.1,0.0,1.0999999999999999,-0.5235987755982988,0.0,0,-1.3260622,-1.478542,-0.8191863,0.4755819,0.028130874,0.8332265,-0.31901446,0.21063514,-0.89490354,-1.2447568,-0.10723704,-0.040004373,1.0349683,-0.15169178
-0.1,0.0,1.0999999999999999,-0.5235987755982988,0.0,0,-1.3271409,-1.4789149,-0.8170876,0.4711111,-0.031153645,0.9177045,0.44551584,0.20578042,-0.8963313,-1.2455132,-0.10044438,-0.024324,0.9442897,-0.3193959
-0.1,0.0,1.0999999999999999,-0.5235987755982988,0.0,0,-1.3274876,-1.4795909,-0.81701344,0.4719149,-0.06311795,0.8177544,-0.30692655,0.20532487,-0.8962552,-1.2322899,-0.042583566,-0.07688912,1.1126931,-0.12965697
-0.1,0.0,1.0999999999999999,-0.5235987755982988,0.0,0,-1.3251458,-1.4792744,-0.8182918,0.4753975,-0.0038801315,0.90806264,-0.5118658,0.2034071,-0.89719737,-1.2539941,-0.103497535,0.017190613,1.0444204,-1.4613299
-0.1,0.0,1.0999999999999999,-0.5235987755982988,0.0,0,-1.3264312,-1.4769061,-0.8188455,0.47554505,-0.08187976,0.9095249,-0.3175436,0.2011243,-0.8948442,-1.2623097,-0.097229555,0.07715978,1.0212297,-1.2231327
-0.1,0.0,1.0999999999999999,-0.5235987755982988,0.0,0,-1.3269469,-1.4772849,-0.8168876,0.4778544,-0.1089957,0.8600585,-0.37770137,0.20674455,-0.89723665,-1.2408861,-0.07505737,0.04638915,1.045121,0.009818563
-0.1,0.0,1.0999999999999999,-0.5235987755982988,0.0,0,-1.3271016,-1.4771876,-0.8182495,0.4777683,-0.09360107,0.946464,-0.39520335,0.18749654,-0.89637935,-1.2555212,-0.013963847,-0.044952173,0.9916944,-1.3064493
-0.1,0.0,1.0999999999999999,-0.5235987755982988,0.0,0,-1.3267722,-1.4763685,-0.81811553,0.47765943,-0.049332306,0.96835494,0.19782647,0.20979483,-0.89676166,-1.2419341,-0.07922935,0.06511095,1.05948,-1.0732346
-0.1,0.0,1.0999999999999999,-0.5235987755982988,0.0,0,-1.326751,-1.4786791,-0.81969845,0.47723675,0.014986755,0.8713728,0.47112182,0.18931049,-0.8951523,-1.2573996,-0.083331205,-0.067198105,1.031939,-1.9755876
-0.1,0.0,1.0999999999999999,-0.5235987755982988,0.0,0,-1.3266053,-1.4752628,-0.8200744,0.4747289,-0.10932204,0.90167165,-0.35731336,0.20261958,-0.8970428,-1.2573993,-0.044829443,-0.010402633,0.95821726,0.20373748
-0.1,0.0,1.0999999999999999,-0.5235987755982988,0.0,0,-1.3259777,-1.4762675,-0.8174833,0.4724971,-0.07970129,0.98620445,-0.122139856,0.20313944,-0.8954803,-1.242815,-0.070849404,0.03602043,0.95640445,-1.0681001
-0.1,0.0,1.0999999999999999,-0.5235987755982988,0.0,0,-1.3264091,-1.4783758,-0.8185089,0.47399712,-0.09868315,0.9928689,-0.290086,0.17498896,-0.896725,-1.2441909,-0.09370882,0.08908755,1.0239233,-1.1115402
-0.1,0.0,1.0999999999999999,-0.5235987755982988,0.0,0,-1.3262664,-1.4769007,-0.81685287,0.4748563,-0.06490146,0.8550782,-0.4349495,0.19120482,-0.89669836,-1.2554985,0.012799865,-0.10499509,1.0499992,-1.3412681
-0.1,0.0,1.0999999999999999,-0.5235987755982988,0.0,0,-1.3269393,-1.4777668,-0.8157872,0.47262248,-0.06267604,0.95075905,-0.60996515,0.19951467,-0.896105,-1.2512648,-0.11218189,-0.017823603,1.2597646,-0.33223295
-0.1,0.0,1.0999999999999999,-0.5235987755982988,0.0,0,-1.3267732,-1.4774628,-0.81861496,0.4746068,-0.03504679,0.8513259,0.06869431,0.20511839,-0.89628696,-1.2418766,-0.086932294,-0.16492279,1.0557255,-0.27382907
-0.1,0.0,1.0999999999999999,-0.5235987755982988,0.0,0,-1.3263998,-1.4759443,-0.8172534,0.47479922,0.0334458,0.8733812,-0.67180985,0.20694436,-0.8965755,-1.2499119,-0.04546799,-0.079922125,1.0963805,-0.7016205
-0.1,0.0,1.0999999999999999,-0.5235987755982988,0.0,0,-1.3260524,-1.4781636,-0.8189823,0.475351,-0.11407399,0.83858854,-0.50320446,0.19026944,-0.8959421,-1.2567322,-0.084713876,-0.042996988,0.98709244,-0.7715834
-0.1,0.0,1.0999999999999999,-0.5235987755982988,0.0,0,-1.327253,-1.4759899,-0.8174121,0.470484,0.03594061,0.8600097,-0.21998104,0.1989095,-0.89612776,-1.2565007,-0.051210824,0.016487405,0.9364123,-0.31450808
-0.1,0.0,1.0999999999999999,-0.5235987755982988,0.0,0,-1.3279011,-1.4798851,-0.82024693,0.47637984,-0.036723446,0.82012564,-0.35776353,0.20256254,-0.89591527,-1.2505788,-0.032430355,-0.059620343,1.0218916,-0.054440483
-0.1,0.0,1.0999999999999999,-0.5235987755982988,0.0,0,-1.3270364,-1.4762541,-0.8199668,0.4753215,-0.038567938,0.82855463,0.07860992,0.20483062,-0.8972848,-1.2542411,-0.108118035,0.051350135,1.0416138,-0.61160713
-0.1,0.0,1.0999999999999999,-0.5235987755982988,0.0,0,-1.3261373,-1.4781675,-0.8204883,0.47027025,0.0027948648,0.87979573,0.07316954,0.19652402,-0.8968994,-1.2531395,-0.014336138,-0.04649638,1.0687649,-0.24842794
-0.1,0.0,1.0999999999999999,-0.5235987755982988,0.0,0,-1.3269594,-1.476168,-0.81796294,0.4755204,-0.11156661,0.96683794,-0.5086105,0.19312935,-0.89497304,-1.25223,-0.056773502,-0.09870772,0.9602097,-0.45732662
-0.1,0.0,1.0999999999999999,-0.5235987755982988,0.0,0,-1.3268955,-1.4769993,-0.8194161,0.4737205,-0.0031219483,0.9706476,-0.8112969,0.2034307,-0.8960415,-1.2476655,-0.037965506,-0.0357557,0.9890932,-1.2749765
-0.1,0.0,1.0999999999999999,-0.5235987755982988,0.0,0,-1.3274511,-1.4771829,-0.81826305,0.47385305,-0.10589003,0.80141824,-0.03540416,0.20270902,-0.8952502,-1.2547394,-0.028149279,-0.034589488,1.0833071,0.32812887
-0.1,0.0,1.0999999999999999,-0.5235987755982988,0.0,0,-1.3261846,-1.4775888,-0.81806195,0.47419754,-0.03780524,0.86646926,-0.32100627,0.19816405,-0.8962297,-1.2561377,-0.114845075,0.026707105,0.9867541,-1.2166842
-0.1,0.0,1.0999999999999999,-0.5235987755982988,0.0,0,-1.3264358,-1.4768873,-0.8185113,0.47487006,0.049566455,0.9148221,0.21696787,0.19292109,-0.89561945,-1.2559956,-0.058295574,-0.03763822,1.0404303,-1.1337324
-0.1,0.0,1.0999999999999999,-0.5235987755982988,0.0,0,-1.3263004,-1.4773871,-0.8187249,0.47599614,-0.013017143,0.9586341,-0.52721035,0.2063012,-0.8975595,-1.249013,0.012234818,0.0496662,0.95769143,-0.003510523
-0.1,0.0,1.0999999999999999,-0.5235987755982988,0.0,0,-1.3266807,-1.4782192,-0.820552,0.47529417,0.037097834,0.8997903,-0.16684,0.20627071,-0.8963299,-1.246221,-0.11269521,-0.13300918,1.0649143,-0.42461914
-0.1,0.0,1.0999999999999999,-0.5235987755982988,0.0,0,-1.3257877,-1.4779025,-0.8193567,0.47979665,0.08782038,0.9140055,0.05841662,0.1829759,-0.89607555,-1.2529986,-0.02354217,-0.0017395203,1.0391114,-0.27811164
-0.1,0.0,1.0999999999999999,-0.5235987755982988,0.0,0,-1.3267081,-1.4778035,-0.81796104,0.47188455,-0.0077074054,0.8151406,-0.096130826,0.20570228,-0.89693296,-1.2366321,-0.10112859,0.047587994,1.025955,-1.2261823
-0.1,0.0,1.0999999999999999,-0.5235987755982988,0.0,0,-1.3269978,-1.4781953,-0.8195933,0.47229657,0.0031892506,0.93300474,-0.93599623,0.18894847,-0.8959036,-1.2514262,-0.010316131,-0.042102307,1.1185338,-0.07988492
-0.1,0.0,1.0999999999999999,-0.5235987755982988,0.0,0,-1.3263037,-1.4768245,-0.81882477,0.4737201,-0.041013226,0.81622267,-0.31547633,0.2008013,-0.8962749,-1.2461792,-0.10578687,-0.10491437,1.078266,-0.19207714
-0.1,0.0,1.0999999999999999,-0.5235987755982988,0.0,0,-1.3269926,-1.475296,-0.81735075,0.47294727,-0.07668732,0.88715863,-0.22573142,0.20283669,-0.89558375,-1.2386888,-0.09898935,-0.068578966,1.0176712,-0.26324457
-0.1,0.0,1.0999999999999999,-0.5235987755982988,0.0,0,-1.325266,-1.4772594,-0.8178899,0.4760127,0.010865137,0.9730607,0.08857794,0.2108464,-0.8957424,-1.244963,-0.096179314,-0.09926778,1.0791544,0.5437748
-0.1,0.0,1.0999999999999999,-0.5235987755982988,0.0,0,-1.3273563,-1.4790094,-0.8202739,0.47385627,0.04335875,0.8441791,-0.17118832,0.20208888,-0.89494985,-1.2462236,-0.06512978,0.0056175613,1.1030111,-1.5324554
-0.1,0.0,1.0999999999999999,-0.5235987755982988,0.0,0,-1.3268092,-1.4761689,-0.81945795,0.47382572,0.016896896,0.7578708,-0.17148401,0.20645392,-0.89534616,-1.2539517,-0.016536796,-0.018290339,1.0156976,0.22183774
-0.1,0.0,1.0999999999999999,-0.5235987755982988,0.0,0,-1.3261678,-1.4774212,-0.8191574,0.4760924,0.0060272343,0.93562376,-0.24182723,0.19979317,-0.8968647,-1.244409,-0.027769633,-0.17210159,1.1324782,-0.25016636
-0.1,0.0,1.0999999999999999,-0.5235987755982988,0.0,0,-1.3271258,-1.4771249,-0.81863815,0.4751998,-0.047737498,0.8791433,-0.3509,0.20149827,-0.89642084,-1.2349285,0.023171535,0.026403593,1.0857853,-0.61088663
-0.1,0.0,1.0999999999999999,-0.5235987755982988,0.0,0,-1.326018,-1.4781995,-0.81802636,0.4765754,-0.037901912,0.9389473,-0.059918415,0.19907436,-0.8948357,-1.2468222,-0.12346658,-0.018809946,0.95668876,-0.84384334
-0.1,0.0,1.0999999999999999,-0.5235987755982988,0.0,0,-1.3276174,-1.4772853,-0.8210125,0.47464848,-0.06100052,0.98007834,0.018248754,0.19750452,-0.8954382,-1.2485644,0.020424085,0.15676111,1.0278075,-0.053602587
-0.1,0.0,1.0999999999999999,-0.5235987755982988,0.0,0,-1.3268945,-1.4776413,-0.8185482,0.4747148,0.0030661873,0.9602252,-0.5801147,0.20210697,-0.8975595,-1.2527885,-0.037649583,-0.07652654,0.9315955,-0.50891924
-0.1,0.0,1.0999999999999999,-0.5235987755982988,0.0,0,-1.3267505,-1.4793481,-0.81844693,0.47193143,-0.025491426,0.9139831,-0.1331481,0.19736941,-0.89651334,-1.2288058,-0.026133867,-0.0073746494,1.0429463,-1.0471234
-0.1,0.0,1.0999999999999999,-0.5235987755982988,0.0,0,-1.3258559,-1.4782298,-0.8198528,0.47557652,-0.08570869,0.91583055,-0.44990444,0.20098558,-0.8956833,-1.2580659,-0.05554637,-0.021323944,1.122384,-0.6689465
-0.1,0.0,1.0999999999999999,-0.5235987755982988,0.0,0,-1.3267239,-1.476374,-0.81899434,0.47633213,0.0034430402,0.9764273,-0.5725718,0.20127565,-0.8953321,-1.2424263,-0.03930486,-0.075947404,1.0215125,-0.51913726
-0.1,0.0,1.0999999999999999,-0.5235987755982988,0.0,0,-1.3271524,-1.4760058,-0.81892204,0.47421885,-0.041226584,0.8433625,-0.28366742,0.20354402,-0.89591277,-1.2449459,-0.08248456,-0.082312435,1.0422492,-1.8618374
-0.1,0.0,1.0999999999999999,-0.5235987755982988,0.0,0,-1.3266937,-1.4790009,-0.817364,0.47239357,-0.025654187,0.9386362,-1.0756977,0.19328275,-0.89494467,-1.252002,0.013742747,0.10227711,0.99812716,-0.51572025
-0.1,0.0,1.0999999999999999,-0.5235987755982988,0.0,0,-1.3260576,-1.4786628,-0.81931263,0.47728765,0.022872547,0.87470126,-0.6236235,0.2035535,-0.8966525,-1.2559205,-0.0656605,-0.030440511,1.0769491,-1.018353
-0.1,0.0,1.0999999999999999,-0.5235987755982988,0.0,0,-1.3265138,-1.4780751,-0.81755567,0.47653192,-0.025799936,0.90070283,-0.91982067,0.20730174,-0.897387,-1.2440999,-0.0270783,-0.07616845,1.0262102,-0.4070003
-0.1,0.0,1.0999999999999999,-0.5235987755982988,0.0,0,-1.3264778,-1.4779142,-0.81977016,0.4759047,-0.030298634,0.9017479,-0.102291174,0.20096996,-0.8958967,-1.2499207,-0.06336086,-0.015289182,1.1628451,-1.8129367
-0.1,0.0,1.0999999999999999,-0.5235987755982988,0.0,0,-1.3262242,-1.4774425,-0.82018024,0.4764887,-0.08863991,0.85805714,-0.5718164,0.19887713,-0.8956927,-1.2339895,0.02930838,-0.077964924,0.993524,0.115555204
-0.1,0.0,1.0999999999999999,-0.5235987755982988,0.0,0,-1.3266597,-1.4769245,-0.8188355,0.47471574,-0.023593029,0.96490055,-0.021948552,0.20154707,-0.8960176,-1.2377598,-0.08167197,-0.031212736,1.1401991,-1.3917847
-0.1,0.0,1.0999999999999999,-0.5235987755982988,0.0,0,-1.3251026,-1.4763795,-0.8178996,0.47329777,0.040279675,0.8983992,-0.08090897,0.19943132,-0.8965419,-1.2574998,-0.06559747,-0.03343072,1.057914,-0.18639912
-0.1,0.0,1.0999999999999999,-0.5235987755982988,0.0,0,-1.3263608,-1.477501,-0.8178815,0.47013047,-0.12713921,0.8995241,-0.43009764,0.20019661,-0.89652556,-1.2385609,-0.05608723,-0.10894896,1.0632993,-0.51501817
-0.1,0.0,1.0999999999999999,-0.5235987755982988,0.0,0,-1.325607,-1.478502,-0.8154079,0.47695273,-0.035134185,1.006337,-0.15896381,0.19586022,-0.8963605,-1.2417647,0.009166278,0.04297539,1.0839173,-0.82603806
-0.1,0.0,1.0999999999999999,-0.5235987755982988,0.0,0,-1.3259938,-1.4766506,-0.8206792,0.47845352,0.043323018,0.91688746,-0.01826025,0.19870289,-0.89616245,-1.2451915,-0.095663086,-0.089588806,1.0923482,-1.1692535
-0.1,0.0,1.0999999999999999,-0.5235987755982988,0.0,0,-1.3266724,-1.478106,-0.8187555,0.4732269,-0.04463547,0.8998211,-0.30654386,0.19535023,-0.89572746,-1.246647,-0.09995377,-0.045262925,1.0601444,-0.9069281
-0.1,0.0,1.0999999999999999,-0.5235987755982988,0.0,0,-1.3264058,-1.475133,-0.81745005,0.4742181,-0.102456726,0.8859091,0.06980123,0.19902575,-0.8952707,-1.2565432,-0.014799358,-0.23157813,1.105653,-0.56169814
-0.1,0.0,1.0999999999999999,-0.5235987755982988,0.0,0,-1.3266293,-1.4794947,-0.81946,0.47391236,0.026643662,1.0085858,0.095501296,0.1942905,-0.89723486,-1.2521656,-0.08767725,-0.088588886,1.0349354,-1.261954
-0.1,0.0,1.0999999999999999,-0.5235987755982988,0.0,0,-1.3261279,-1.4794,-0.81818974,0.47190672,-0.11129345,0.8316136,-0.15021732,0.19707958,-0.8965708,-1.247972,-0.06626781,0.0030561967,0.9682138,-0.496292
-0.1,0.0,1.0999999999999999,-0.5235987755982988,0.0,0,-1.3265795,-1.478008,-0.81808275,0.471351,-0.012108718,0.8743405,-0.49601975,0.1959577,-0.896283,-1.2469546,-0.013003576,-0.13863741,1.029577,-0.5947737
-0.1,0.0,1.0999999999999999,-0.5235987755982988,0.0,0,-1.3261667,-1.4783349,-0.81835943,0.472508,-0.075537324,0.7431824,-0.47699547,0.2044219,-0.89511806,-1.2426637,0.008073789,-0.10895897,1.0887622,0.45225623
-0.1,0.0,1.0999999999999999,-0.5235987755982988,0.0,0,-1.3266097,-1.4779427,-0.8187578,0.4735935,-0.021890175,0.8896494,-0.7769902,0.20723985,-0.8972842,-1.2405185,-0.08515943,-0.05004135,1.1013929,-1.0708442
-0.1,0.0,1.0999999999999999,-0.5235987755982988,0.0,0,-1.3262715,-1.4764236,-0.8178343,0.4741869,0.015327316,0.95494807,-0.4385707,0.20088495,-0.89708865,-1.2448882,-0.062860414,-0.07299198,1.0528235,-0.8571474
-0.1,0.0,1.0999999999999999,-0.5235987755982988,0.0,0,-1.3266621,-1.4779826,-0.8186613,0.4718088,0.04404543,0.9572314,-0.100431055,0.20129022,-0.8976853,-1.2476249,-0.14911768,-0.008137037,1.0626509,-0.6775896
-0.1,0.0,1.0999999999999999,-0.5235987755982988,0.0,0,-1.3267,-1.4792557,-0.8181271,0.4735341,0.005828431,0.82847035,-0.08485349,0.20049989,-0.8970991,-1.2528173,-0.13509892,-0.16029152,0.94057536,-0.14852706
-0.1,0.0,1.0999999999999999,-0.5235987755982988,0.0,0,-1.3268459,-1.4793783,-0.8169376,0.47389165,-0.08030977,0.8379921,-0.15221724,0.20335351,-0.8950218,-1.260796,-0.064176396,-0.08747837,1.0743067,-0.17268291
-0.1,0.0,1.0999999999999999,-0.5235987755982988,0.0,0,-1.3271061,-1.4776485,-0.8165228,0.4731399,-0.09864743,0.89595896,-1.0365717,0.20649858,-0.89659506,-1.2494757,-0.043415457,0.029543225,1.0727222,-1.3277057
-0.1,0.0,1.0999999999999999,-0.5235987755982988,0.0,0,-1.3283099,-1.4792248,-0.8181962,0.4752066,-0.0697887,0.9421213,-0.3976622,0.2035527,-0.8955518,-1.2536061,-0.032375544,-0.039201424,1.0047804,0.43139666
-0.1,0.0,1.0999999999999999,-0.5235987755982988,0.0,0,-1.3261497,-1.4800483,-0.81871593,0.4703248,-0.016254254,0.81882745,-0.037285306,0.19957952,-0.8959598,-1.2480853,-0.0037389544,0.13952929,1.0694516,-0.3698229
-0.1,0.0,1.0999999999999999,-0.5235987755982988,0.0,0,-1.3265644,-1.4773897,-0.8199858,0.4758065,-0.18098201,0.9788781,-0.043219447,0.19825989,-0.8960823,-1.2469801,-0.06587763,0.065193914,0.97118396,-1.7565829
-0.1,0.0,1.0999999999999999,-0.5235987755982988,0.0,0,-1.3276432,-1.4755753,-0.818408,0.47355276,0.00043819085,0.8890133,-0.29724652,0.19944115,-0.8958577,-1.246916,-0.11289333,-0.10491872,1.0905902,-1.3460231
-0.1,0.0,1.0999999999999999,-0.5235987755982988,0.0,0,-1.3266559,-1.4782084,-0.81686676,0.4753778,0.01366302,0.84526694,-0.430584,0.19526456,-0.89704984,-1.2529883,-0.051885713,0.1170889,1.0503498,-0.29108852
-0.1,0.0,1.0999999999999999,-0.5235987755982988,0.0,0,-1.3265263,-1.4775318,-0.818754,0.47533783,-0.027213627,0.9835581,0.013733987,0.20896131,-0.8964894,-1.2423577,-0.027945112,-0.076237835,1.0347397,0.6498499
-0.1,0.0,1.0999999999999999,-0.5235987755982988,0.0,0,-1.3261353,-1.4781202,-0.81927127,0.47214586,0.05201565,0.9050212,-0.37209058,0.19892727,-0.8961007,-1.2469226,-0.048266992,0.056031927,1.0425538,0.14915854
-0.1,0.0,1.0999999999999999,-0.5235987755982988,0.0,0,-1.3261037,-1.4768556,-0.81704634,0.47519052,-0.033864588,0.8593714,0.4017791,0.2073496,-0.89458495,-1.2542309,-0.06758871,-0.12394502,1.0593296,-1.3132719
-0.1,0.0,1.0999999999999999,-0.5235987755982988,0.0,0,-1.3265054,-1.4768494,-0.817851,0.47259393,-0.040391043,0.9503513,-0.52753276,0.19769876,-0.8974752,-1.2443012,-0.0509922,-0.056204926,1.0923525,-1.0885634
-0.1,0.0,1.0999999999999999,-0.5235987755982988,0.0,0,-1.3274367,-1.4747347,-0.8194656,0.47546193,0.094250366,0.994126,-0.487014,0.20346116,-0.8964726,-1.253764,-0.0121777505,-0.11982076,1.10455,-0.7508878
-0.1,0.0,1.0999999999999999,-0.5235987755982988,0.0,0,-1.3259476,-1.478674,-0.81877244,0.4743234,-0.04181038,0.89920455,0.3809517,0.19371043,-0.89635515,-1.2355808,-0.09991149,-0.023637703,0.88113815,-0.31196812
-0.1,0.0,1.0999999999999999,-0.5235987755982988,0.0,0,-1.3270472,-1.4793794,-0.81747174,0.47883102,-0.0125052,0.913023,-1.0168139,0.1957572,-0.8957553,-1.248808,-0.04728155,-0.07683327,1.0152408,-0.70412236
-0.1,0.0,1.0999999999999999,-0.5235987755982988,0.0,0,-1.3262126,-1.4761577,-0.8193568,0.47492883,-0.10132859,0.8966756,-0.17467414,0.2009278,-0.8962902,-1.2342964,-0.028447356,-0.04952758,1.0439796,-1.0343235
-0.1,0.0,1.0999999999999999,-0.5235987755982988,0.0,0,-1.3264983,-1.477379,-0.8166498,0.47131494,-0.010322891,0.9517253,0.19143876,0.19569872,-0.89657444,-1.2358682,-0.05353263,0.10731212,1.011576,-0.3723845
-0.1,0.0,1.0999999999999999,-0.5235987755982988,0.0,0,-1.3274083,-1.4785284,-0.8163591,0.47462523,-0.05078273,0.8783311,-0.6601314,0.19361308,-0.8956908,-1.2519041,-0.018756088,0.009769755,1.00718,-0.71653986
-0.1,0.0,1.0999999999999999,-0.5235987755982988,0.0,0,-1.3252357,-1.4784926,-0.8186323,0.47384557,-0.13174245,1.0167184,-0.69368196,0.20320283,-0.895554,-1.2403078,-0.09389591,-0.09795529,1.1800286,-0.1490664
-0.1,0.0,1.0999999999999999,-0.5235987755982988,0.0,0,-1.3268343,-1.4768804,-0.8180269,0.47657856,0.021718044,0.8614494,-0.38229287,0.20034954,-0.89610994,-1.2409157,-0.04858615,-0.14394553,0.9825746,-0.70210135
-0.1,0.0,1.0999999999999999,-0.5235987755982988,0.0,0,-1.3273172,-1.4741678,-0.81727564,0.4735871,0.052733663,0.9626493,-0.55098104,0.19607706,-0.8959537,-1.2440609,-0.035209626,-0.16558671,1.007251,-0.4157498
-0.1,0.0,1.0999999999999999,-0.5235987755982988,0.0,0,-1.3274413,-1.4797252,-0.81790864,0.472943,-0.11770195,0.8700365,-0.26002914,0.20948045,-0.89751875,-1.2627413,-0.02108862,-0.086243,1.0557683,-0.6029807
-0.1,0.0,1.0999999999999999,-0.5235987755982988,0.0,0,-1.3264327,-1.4807308,-0.81938314,0.4733331,0.12631433,0.8373535,-0.72213,0.19461629,-0.89708996,-1.2357389,-0.088841885,0.043997798,1.0720915,-0.73293686
-0.1,0.0,1.0999999999999999,-0.5235987755982988,0.0,0,-1.3265569,-1.4774148,-0.81715935,0.47925723,-0.07781969,0.8802125,-0.42412087,0.19753245,-0.8963943,-1.2465215,-0.08036418,-0.057411093,1.0591661,-0.33729556
-0.1,0.0,1.0999999999999999,-0.5235987755982988,0.0,0,-1.3270499,-1.4788263,-0.82020766,0.47429952,0.06936227,0.8621893,0.06620329,0.19392616,-0.895566,-1.2608753,-0.072500445,-0.021595314,1.0896465,-0.48291853
-0.1,0.0,1.0999999999999999,-0.5235987755982988,0.0,0,-1.3263772,-1.4762757,-0.819779,0.4768229,-0.05728084,0.9833478,-0.8310049,0.20454353,-0.89555395,-1.2509866,-0.0060237246,-0.04588113,1.0729824,-1.0843773
-0.1,0.0,1.0999999999999999,-0.5235987755982988,0.0,0,-1.3269129,-1.4775406,-0.81853783,0.4788461,-0.0024556974,0.983504,-0.4782057,0.20061189,-0.89594656,-1.2336966,-0.094450966,-0.01628491,1.0142721,-1.6129299
-0.1,0.0,1.0999999999999999,-0.5235987755982988,0.0,0,-1.3268209,-1.4772395,-0.81881136,0.4758679,-0.020714063,0.9044229,-0.46926093,0.20669036,-0.89683086,-1.247584,-0.06962212,-0.081402674,1.0915174,-0.42101058
-0.1,0.0,1.0999999999999999,-0.5235987755982988,0.0,0,-1.3275306,-1.476945,-0.82017875,0.4755153,0.017725654,0.80410147,-0.6414846,0.2062885,-0.8950352,-1.2434773,0.012002189,-0.16114174,1.1663662,-0.03985644
-0.1,0.0,1.0999999999999999,-0.5235987755982988,0.0,0,-1.3262899,-1.4770794,-0.8185968,0.474519,-0.0019916713,0.8903469,0.14013761,0.19702011,-0.8959852,-1.2510556,-0.02734436,-0.082463406,1.0885524,-0.15479356
-0.1,0.0,1.0999999999999999,-0.5235987755982988,0.0,0,-1.3265786,-1.4792666,-0.8180511,0.47777298,-0.11501406,0.8964594,-0.095605165,0.19752638,-0.89726293,-1.2497661,-0.06829731,-0.06847432,0.94436294,-0.43397292
-0.1,0.0,1.0999999999999999,-0.5235987755982988,0.0,0,-1.3269502,-1.4765106,-0.82081264,0.47287548,0.104425766,0.800589,-0.23428817,0.19813967,-0.8963505,-1.244955,-0.07295604,-0.06373256,0.93459135,0.050860003
-0.1,0.0,1.0999999999999999,-0.5235987755982988,0.0,0,-1.3261998,-1.4765142,-0.81854093,0.47497255,0.08038209,0.94847465,-0.53626287,0.20583092,-0.8964219,-1.2506735,-0.037015554,0.00040922675,1.008219,-0.109729655
-0.1,0.0,1.0999999999999999,-0.5235987755982988,0.0,0,-1.3278091,-1.4793822,-0.81786376,0.4738178,-0.03735123,0.8916486,-0.51204234,0.19817533,-0.89619493,-1.240424,0.014936845,-0.10991253,0.9959091,-0.3928933
-0.1,0.0,1.0999999999999999,-0.5235987755982988,0.0,0,-1.3258344,-1.4773164,-0.8178828,0.4706853,-0.10221696,0.9079192,0.14496173,0.1993466,-0.8956099,-1.2449508,-0.07019936,0.07842624,1.0467134,-1.3546584
-0.1,0.0,1.0999999999999999,-0.5235987755982988,0.0,0,-1.3269899,-1.4789864,-0.8175774,0.47326162,-0.022830399,0.79487735,-0.24299482,0.19754641,-0.8964442,-1.2525235,-0.03672706,-0.048312422,1.0222588,0.10639038
-0.1,0.0,1.0999999999999999,-0.5235987755982988,0.0,0,-1.3266475,-1.4767035,-0.81808126,0.4790331,-0.0010654228,0.844116,-0.47223845,0.21225703,-0.89632815,-1.2464194,-0.044754554,-0.026815807,1.0956949,-1.2617925
-0.1,0.0,1.0999999999999999,-0.5235987755982988,0.0,0,-1.326605,-1.4772425,-0.81898195,0.47116315,0.0114804525,0.94860995,-0.23342915,0.20518787,-0.89648086,-1.2463313,-0.103255145,-0.06816653,0.97440684,-0.7705016
-0.1,0.0,1.0999999999999999,-0.5235987755982988,0.0,0,-1.3260771,-1.4776634,-0.8173777,0.47404638,0.021130513,0.93835706,0.5134681,0.20230795,-0.89714915,-1.2374213,-0.024081571,-0.10001904,1.0887383,-1.1347837
-0.1,0.0,1.0999999999999999,-0.5235987755982988,0.0,0,-1.327068,-1.4770743,-0.81882846,0.4752233,-0.04792706,0.8593351,-0.6415289,0.20479564,-0.8956758,-1.2608815,-0.07849024,0.009194701,1.1069249,-0.33398634
-0.1,0.0,1.0999999999999999,-0.5235987755982988,0.0,0,-1.3276542,-1.4763161,-0.8193029,0.47553277,0.02430964,0.9935173,-0.059494298,0.21351327,-0.8960923,-1.2540104,0.048819896,0.013794224,1.068568,-0.40494457
-0.1,0.0,1.0999999999999999,-0.5235987755982988,0.0,0,-1.3270121,-1.4782903,-0.81770205,0.4727395,0.0016390991,0.948054,0.25083774,0.19770537,-0.89585274,-1.252568,-0.053751156,-0.017109472,1.1911477,-1.5626134
-0.1,0.0,1.0999999999999999,-0.5235987755982988,0.0,0,-1.3258317,-1.4785556,-0.81833243,0.47702467,-0.04272975,0.9182729,-0.10708256,0.20804238,-0.8961714,-1.2519066,-0.0770789,-0.061674062,1.2878412,0.016773567
-0.1,0.0,1.0999999999999999,-0.5235987755982988,0.0,0,-1.3264272,-1.4776905,-0.81835693,0.47045943,-0.056089096,0.91780233,0.38720497,0.20019743,-0.8957144,-1.2358541,-0.07147519,-0.052437764,1.0899127,-0.15134114
-0.1,0.0,1.0999999999999999,-0.5235987755982988,0.0,0,-1.3255037,-1.4771994,-0.8194894,0.47604826,-0.020329153,0.8736977,-0.5103187,0.19998027,-0.895657,-1.2506888,-0.080237426,-0.072541125,1.109721,-1.0249206
-0.1,0.0,1.0999999999999999,-0.5235987755982988,0.0,0,-1.3268692,-1.4781498,-0.8185588,0.4725085,-0.023469621,0.88735217,-0.10991543,0.20035097,-0.8972014,-1.2409867,-0.06944239,-0.0074206595,1.0101193,-1.5456499
-0.1,0.0,1.0999999999999999,-0.5235987755982988,0.0,0,-1.3270925,-1.480225,-0.818389,0.4726616,-0.1029272,0.8966957,-0.48464718,0.1930718,-0.89551014,-1.2505282,-0.11652558,-0.06956707,1.0944752,-1.1218709
-0.1,0.0,1.0999999999999999,-0.5235987755982988,0.0,0,-1.3268309,-1.4767237,-0.8198094,0.47623083,-0.031256706,0.86889464,-0.49389333,0.19963859,-0.89540607,-1.2567434,-0.07358266,0.0023795483,1.0597129,-0.6880108
-0.1,0.0,1.0999999999999999,-0.5235987755982988,0.0,0,-1.326966,-1.4779936,-0.8174894,0.476283,0.023052588,0.85935676,-0.20288056,0.19462371,-0.89505434,-1.2354267,-0.048175693,0.035430934,1.1429124,-0.4686358
-0.1,0.0,1.0999999999999999,-0.5235987755982988,0.0,0,-1.3265392,-1.4781566,-0.8182306,0.4727887,-0.039156936,0.96250284,-0.031219935,0.19877177,-0.8956818,-1.2462143,0.00357332,-0.12463897,1.010564,-0.58221173
-0.1,0.0,1.0999999999999999,-0.5235987755982988,0.0,0,-1.3258902,-1.4795661,-0.81691176,0.47213542,0.039649956,0.9512499,-0.26444027,0.1967327,-0.896991,-1.2606959,-0.053426918,-0.027285479,1.122371,-1.1169232
-0.1,0.0,1.0999999999999999,-0.5235987755982988,0.0,0,-1.32508,-1.4774472,-0.8181265,0.47002822,0.020429831,1.0649377,0.2597107,0.2016823,-0.896803,-1.248726,-0.07013945,-0.029388618,1.0935571,-0.99093735
-0.1,0.0,1.0999999999999999,-0.5235987755982988,0.0,0,-1.3268347,-1.4780736,-0.81798035,0.47767547,-0.08260249,0.8872619,0.45272592,0.19903335,-0.89505285,-1.2436318,-0.06498786,-0.05976431,1.1450138,0.05892752
-0.1,0.0,1.0999999999999999,-0.5235987755982988,0.0,0,-1.3264085,-1.47792,-0.8169171,0.46982193,0.024343407,0.8515581,0.06277166,0.21245588,-0.8959894,-1.244415,-0.06665046,-0.11507182,1.0013951,-1.7633032
-0.1,0.0,1.0999999999999999,-0.5235987755982988,0.0,0,-1.3264285,-1.4776927,-0.8188932,0.47355455,-0.051785745,0.93530345,0.18909363,0.18907575,-0.8957902,-1.2485209,-0.024643544,-0.021028684,1.0420108,-1.30853
-0.1,0.0,1.0999999999999999,-0.5235987755982988,0.0,0,-1.3268331,-1.4785547,-0.81859463,0.47128677,0.029229041,0.89030683,-0.3683364,0.21886596,-0.8959704,-1.2329254,-0.03914444,-0.11073418,0.92845535,0.03202723
-0.1,0.0,1.0999999999999999,-0.5235987755982988,0.0,0,-1.3259113,-1.4762028,-0.8183886,0.47508615,0.011132697,0.825374,0.28593048,0.19662003,-0.8969959,-1.2495341,-0.011497786,0.06274499,1.0940737,-0.9715386
-0.1,0.0,1.0999999999999999,-0.5235987755982988,0.0,0,-1.3269207,-1.4766504,-0.81782264,0.47568062,0.054973923,0.88370407,-0.5430347,0.18495014,-0.8973037,-1.2464654,-0.06869456,-0.0552323,0.96542627,-1.2764511
-0.1,0.0,1.0999999999999999,-0.5235987755982988,0.0,0,-1.326048,-1.4775493,-0.8176393,0.47123706,-0.071917295,0.9596079,0.021855645,0.19231103,-0.89659786,-1.2655053,-0.023420446,-0.091959216,1.0588574,-0.0026709747
-0.1,0.0,1.0999999999999999,-0.5235987755982988,0.0,0,-1.3267536,-1.4778036,-0.8189098,0.47468367,0.044897296,0.90358937,-0.5317206,0.18550193,-0.89731455,-1.2452464,-0.022764545,-0.098664984,0.9300443,-0.67857224
-0.1,0.0,1.0999999999999999,-0.5235987755982988,0.0,0,-1.3264925,-1.4767847,-0.8178221,0.4762687,-0.106598355,0.8070256,0.27292177,0.19169469,-0.8960354,-1.2594962,-0.09427491,0.019070724,1.0208018,-0.5685053
-0.1,0.0,1.0999999999999999,-0.5235987755982988,0.0,0,-1.3264909,-1.4772655,-0.8173686,0.4709157,-0.028159937,0.96448183,-0.6693902,0.1940706,-0.8981077,-1.2505333,-0.10752092,-0.08795406,1.0951877,0.12767354
-0.1,0.0,1.0999999999999999,-0.5235987755982988,0.0,0,-1.3271991,-1.4765308,-0.8187966,0.4744886,-0.065193236,0.88388395,0.21222661,0.20014581,-0.89606684,-1.2522453,-0.074026205,0.0053034183,0.9967622,-0.40607563
-0.1,0.0,1.0999999999999999,-0.5235987755982988,0.0,0,-1.3270532,-1.4744481,-0.8178217,0.47137746,0.010694855,0.9678027,-0.45365143,0.19261582,-0.89633137,-1.2579683,-0.044858333,0.02409514,1.0837606,-0.48734015
-0.1,0.0,1.0999999999999999,-0.5235987755982988,0.0,0,-1.3269535,-1.4785491,-0.8174724,0.47252676,-0.018204782,0.8519819,-0.10008661,0.18439816,-0.8965996,-1.2473507,-0.035073567,-0.102234535,1.1435121,-0.4667392
-0.1,0.0,1.0999999999999999,-0.5235987755982988,0.0,0,-1.3271773,-1.4757454,-0.81813735,0.47594872,-0.11741099,0.93361044,0.31354645,0.18983546,-0.89599395,-1.254898,-0.06505883,-0.10193289,1.0631781,-1.7106591
-0.1,0.0,1.0999999999999999,-0.5235987755982988,0.0,0,-1.326697,-1.4773104,-0.81895256,0.4732519,0.008868972,0.91897297,0.2018787,0.20081507,-0.8958311,-1.2568171,-0.015710037,0.0023089203,0.9510057,-0.9838581
-0.1,0.0,1.0999999999999999,-0.5235987755982988,0.0,0,-1.3264172,-1.4786209,-0.8196964,0.47292212,-0.13072374,0.9036155,0.30818596,0.18770936,-0.89646995,-1.2440989,-0.041360203,-0.07589537,0.8681271,-0.96885633
-0.1,0.0,1.0999999999999999,-0.5235987755982988,0.0,0,-1.326837,-1.4794037,-0.81798464,0.47675434,-0.065881506,0.8716117,-0.29731473,0.18757233,-0.89741695,-1.2423675,-0.09532431,0.10738925,1.0735939,-0.51264596
-0.1,0.0,1.0999999999999999,-0.5235987755982988,0.0,0,-1.3266383,-1.4760616,-0.8176862,0.46962425,-0.028357623,0.9565592,-0.29387963,0.20436807,-0.8969887,-1.2352195,-0.061649803,0.10161714,1.1225044,-0.89849675
-0.1,0.0,1.0999999999999999,-0.5235987755982988,0.0,0,-1.3256948,-1.4781102,-0.816851,0.4709526,-0.16100626,0.9356616,-0.6277532,0.18663217,-0.89573115,-1.2488023,-0.0288918,0.023924576,0.97299844,-2.4788165
-0.1,0.0,1.0999999999999999,-0.5235987755982988,0.0,0,-1.3267599,-1.4772055,-0.81795275,0.4762225,-0.044125438,0.89508927,-0.60434085,0.18701594,-0.89615524,-1.2471725,-0.12802872,-0.084078304,0.9931849,-0.69752663
-0.1,0.0,1.0999999999999999,-0.5235987755982988,0.0,0,-1.3265246,-1.477862,-0.81848526,0.47655568,0.029704016,0.8508033,-0.4392391,0.1933938,-0.89485306,-1.2607229,-0.044891976,0.04164445,0.90757453,-1.3484834
-0.1,0.0,1.0999999999999999,-0.5235987755982988,0.0,0,-1.3269281,-1.4795965,-0.81793517,0.4730999,-0.0012383896,0.82049185,-0.6236492,0.19726993,-0.89617944,-1.254834,-0.033912554,-0.06735823,1.0189264,-1.6043234
-0.1,0.0,1.0999999999999999,-0.5235987755982988,0.0,0,-1.3255596,-1.4800152,-0.81978524,0.47768873,-0.19559462,0.9136939,-0.68186086,0.20592374,-0.89591086,-1.2518088,-0.10821997,-0.0945698,1.0537852,0.29929674
-0.1,0.0,1.0999999999999999,-0.5235987755982988,0.0,0,-1.325984,-1.477594,-0.81945586,0.4716361,-0.029406643,0.88272095,-0.031321224,0.1954518,-0.8956213,-1.2487661,-0.08872466,-0.102185056,0.9796694,-1.0914073
-0.1,0.0,1.0999999999999999,-0.5235987755982988,0.0,0,-1.3268155,-1.4759338,-0.8179824,0.47392908,0.019999491,0.9761524,-0.7617367,0.20470774,-0.89632654,-1.2352376,-0.08675863,-0.020721667,1.0733159,-0.77760434
-0.1,0.0,1.0999999999999999,-0.5235987755982988,0.0,0,-1.3264505,-1.4780011,-0.8184211,0.477181,-0.06553837,0.9219252,0.20352928,0.19995834,-0.89549255,-1.2404436,-0.11770315,-0.17203663,1.1047925,-1.1350795
-0.1,0.0,1.0999999999999999,-0.5235987755982988,0.0,0,-1.3273798,-1.4769166,-0.8184156,0.4755922,-0.1358628,0.9491093,-0.22475414,0.20329103,-0.8969368,-1.2510916,-0.029812768,0.054618724,1.0190117,-2.2332678
-0.1,0.0,1.0999999999999999,-0.5235987755982988,0.0,0,-1.3246206,-1.4762665,-0.81928194,0.47674268,-0.06412377,0.8131681,0.050623752,0.20763275,-0.89733577,-1.2423561,-0.06414485,-0.240731,0.9593676,-1.8172506
-0.1,0.0,1.0999999999999999,-0.5235987755982988,0.0,0,-1.3263329,-1.4755986,-0.81932276,0.4761196,0.055329032,0.9645714,-0.6400902,0.20122929,-0.895812,-1.2555903,-0.038898658,0.09759668,1.0363705,0.023878265
-0.1,0.0,1.0999999999999999,-0.5235987755982988,0.0,0,-1.3276201,-1.479231,-0.81857055,0.47565475,-0.040918704,0.750535,-0.8203466,0.20422001,-0.8968511,-1.2524859,-0.045912158,-0.12490076,0.93507266,-0.6996634
-0.1,0.0,1.0999999999999999,-0.5235987755982988,0.0,0,-1.3255788,-1.4766265,-0.818846,0.47588107,-0.08889834,0.85970837,0.24538663,0.19790564,-0.89602596,-1.2361042,-0.023520177,0.0396235,1.018641,-0.7965476
-0.1,0.0,1.0999999999999999,-0.5235987755982988,0.0,0,-1.326882,-1.4779698,-0.8193704,0.47105947,-0.043351095,0.854115,-0.96091723,0.20615125,-0.89653426,-1.256552,-0.019442542,-0.07398573,1.1035538,-1.4758927
-0.1,0.0,1.0999999999999999,-0.5235987755982988,0.0,0,-1.3268856,-1.4765974,-0.81819415,0.47805402,-0.061698113,0.9244203,-0.07795606,0.195159,-0.8961598,-1.2621447,-0.04093898,-0.058805864,1.044256,0.024521416
-0.1,0.0,1.0999999999999999,-0.5235987755982988,0.0,0,-1.3265176,-1.4762095,-0.8180008,0.47285363,-0.11546887,0.8567333,-0.20492485,0.19871312,-0.89628196,-1.2587465,-0.092727594,0.0075570117,1.0600262,-0.1747038
-0.1,0.0,1.0999999999999999,-0.5235987755982988,0.0,0,-1.3263248,-1.4769654,-0.8177919,0.47518608,0.020745551,0.9467015,-0.4798697,0.2019822,-0.896069,-1.2529771,-0.061830577,-0.0111814365,0.9587291,-0.8821861
-0.1,0.0,1.0999999999999999,-0.5235987755982988,0.0,0,-1.3261179,-1.4782878,-0.81760114,0.48185456,-0.07291666,0.8354997,-0.54392886,0.20880808,-0.8955929,-1.2456741,-0.029783312,0.015180506,1.0173033,0.59014565
-0.1,0.0,1.0999999999999999,-0.5235987755982988,0.0,0,-1.3258103,-1.4770561,-0.8197354,0.4766572,-0.036524236,0.82533616,-0.18416537,0.19842555,-0.8964073,-1.2500478,-0.107751235,0.08280595,1.0701663,-0.28750214
-0.1,0.0,1.0999999999999999,-0.5235987755982988,0.0,0,-1.3261387,-1.4774598,-0.8165435,0.47784427,0.09034182,0.9432132,-0.617108,0.19722246,-0.89552855,-1.2463319,-0.064550795,-0.07343583,1.0061985,-0.96845615
-0.1,0.0,1.0999999999999999,-0.5235987755982988,0.0,0,-1.326408,-1.4764338,-0.81755173,0.47382873,-0.070413545,0.8470362,-0.8226403,0.1950055,-0.89653164,-1.2499218,-0.099311754,0.036969878,1.0056908,0.08908467
-0.1,0.0,1.0999999999999999,-0.5235987755982988,0.0,0,-1.3264693,-1.479481,-0.8179918,0.47167954,-0.018660553,0.91298836,-0.33843696,0.1887865,-0.89535004,-1.2410982,-0.011035235,-0.09168941,1.028931,-1.0918777
-0.1,0.0,1.0999999999999999,-0.5235987755982988,0.0,0,-1.3264135,-1.4772676,-0.8169643,0.47352555,-0.03875978,0.86039805,-0.35149884,0.20549615,-0.896404,-1.2432401,-0.036226932,0.06250462,1.043255,-1.1768125
-0.1,0.0,1.0999999999999999,-0.5235987755982988,0.0,0,-1.3262182,-1.4799984,-0.8178012,0.47279325,-0.018039983,0.8687028,-0.5327932,0.19675894,-0.8966141,-1.2511413,-0.039261106,-0.10402457,0.9773615,0.7358489
-0.1,0.0,1.0999999999999999,-0.5235987755982988,0.0,0,-1.3264326,-1.478124,-0.81876487,0.47905087,-0.046652213,0.904741,-0.26240367,0.2026083,-0.89648163,-1.2570201,-0.0699133,0.061573427,1.1000638,-0.16341595
-0.1,0.0,1.0999999999999999,-0.5235987755982988,0.0,0,-1.3264005,-1.4778843,-0.81873256,0.47157842,-0.017611502,0.9529851,-0.4726835,0.20856082,-0.89667946,-1.255446,-0.053664368,-0.017086957,1.0340573,-0.008246191
-0.1,0.0,1.0999999999999999,-0.5235987755982988,0.0,0,-1.3269581,-1.4771546,-0.8190693,0.47117382,-0.14414892,0.8220503,-0.57114017,0.20461239,-0.89465576,-1.2435212,-0.04394936,-0.077231824,1.0345589,-0.5709129
-0.1,0.0,1.0999999999999999,-0.5235987755982988,0.0,0,-1.3262492,-1.4789083,-0.82033306,0.47362915,0.029727198,0.94573367,-0.9904931,0.2035489,-0.89696,-1.2443184,-0.019250168,-0.0071821483,1.1507412,0.39274064
-0.1,0.0,1.0999999999999999,-0.5235987755982988,0.0,0,-1.3263361,-1.4773475,-0.81866944,0.47557896,-0.098964855,0.9304091,-0.09861469,0.20457426,-0.8955622,-1.2444533,-0.02606528,-0.02763667,1.0627581,-0.7687458
-0.1,0.0,1.0999999999999999,-0.5235987755982988,0.0,0,-1.3270904,-1.4775038,-0.8174316,0.47455734,0.016357236,0.89094913,0.14165555,0.19909286,-0.89583147,-1.2383302,-0.008107061,-0.075443946,0.9725556,-0.60033673
-0.1,0.0,1.0999999999999999,-0.5235987755982988,0.0,0,-1.3265477,-1.4773868,-0.81838125,0.47948775,-0.006712954,0.9156019,-0.1663314,0.20682545,-0.8971142,-1.2538483,-0.08549164,-0.064679205,1.029908,0.17294595
-0.1,0.0,1.0999999999999999,-0.5235987755982988,0.0,0,-1.3263658,-1.4809942,-0.81767553,0.4727304,-0.053236112,0.883591,-0.68783116,0.19814122,-0.8970574,-1.2454406,-0.05602417,-0.05270522,1.0866452,-0.417954
-0.1,0.0,1.0999999999999999,-0.5235987755982988,0.0,0,-1.3266523,-1.4774398,-0.81890756,0.47596577,-0.05458525,0.79231536,-0.98267037,0.20390739,-0.89653647,-1.2539421,-0.054850698,0.10455352,1.0500528,-1.0062466
-0.1,0.0,1.0999999999999999,-0.5235987755982988,0.0,0,-1.3255417,-1.4784833,-0.8171911,0.4755729,-0.005803699,1.0246848,-0.35534495,0.19580272,-0.89524853,-1.2439729,-0.008725536,0.059815697,1.0219586,-0.34634343
-0.1,0.0,1.0999999999999999,-0.5235987755982988,0.0,0,-1.325747,-1.4799392,-0.81941193,0.4732574,-0.021466486,0.9813277,-0.23376527,0.19263592,-0.8961507,-1.2414104,-0.0834156,0.11121846,1.0472772,-0.040122777
-0.1,0.0,1.0999999999999999,-0.5235987755982988,0.0,0,-1.3259104,-1.4799068,-0.8190497,0.47533843,0.028672371,0.8939182,-0.32011953,0.19929035,-0.8966486,-1.2571326,-0.054390702,-0.08456311,1.0249044,-1.4967127
-0.1,0.0,1.0999999999999999,-0.5235987755982988,0.0,0,-1.326514,-1.4778965,-0.8194153,0.47255412,-0.15899493,0.97813004,-0.5780125,0.20210928,-0.8949528,-1.2525892,-0.067106426,-0.08462515,1.0545559,-0.10246465
-0.1,0.0,1.0999999999999999,-0.5235987755982988,0.0,0,-1.326797,-1.4777111,-0.8185213,0.4728195,0.017851293,0.82120484,0.17838743,0.1981513,-0.8965003,-1.2409084,0.014073351,0.08789721,1.114094,0.9896925
-0.1,0.0,1.0999999999999999,-0.5235987755982988,0.0,0,-1.3266447,-1.4745448,-0.81948775,0.47332805,-0.047861606,0.970255,-0.30646762,0.21012531,-0.89699763,-1.254457,-0.0404166,0.004870227,0.9344356,-0.29414812
-0.1,0.0,1.0999999999999999,-0.5235987755982988,0.0,0,-1.3269213,-1.4770476,-0.81757706,0.47519845,-0.06367434,0.8475774,-0.5445422,0.20535332,-0.8965705,-1.254426,-0.08523552,0.1461527,1.0387169,0.2540975
-0.1,0.0,1.0999999999999999,-0.5235987755982988,0.0,0,-1.3263605,-1.4787099,-0.81862813,0.47140673,0.054343637,0.89602464,-0.5375088,0.2043977,-0.89587283,-1.2553209,-0.045616623,0.03207267,1.0594001,-0.20353581
-0.1,0.0,1.0999999999999999,-0.5235987755982988,0.0,0,-1.3273017,-1.4772598,-0.8192753,0.47274598,0.049038015,0.841239,-0.26813734,0.21860677,-0.89546186,-1.2344394,-0.019382201,-0.052772783,1.0019255,-0.77119887
-0.1,0.0,1.0999999999999999,-0.5235987755982988,0.0,0,-1.325504,-1.4778941,-0.81801236,0.47385943,0.038427886,0.93354774,-0.3438607,0.19069423,-0.89620614,-1.2494318,-0.09753693,0.084883735,1.0478702,-0.1509732
-0.1,0.0,1.0999999999999999,-0.5235987755982988,0.0,0,-1.3270731,-1.4773376,-0.81879705,0.47668278,0.008358109,0.8908356,-0.45482695,0.18912251,-0.89791536,-1.2522008,-0.027566347,-0.018077249,0.97695214,0.5432505
-0.1,0.0,1.0999999999999999,-0.5235987755982988,0.0,0,-1.3264313,-1.4779626,-0.81715757,0.47348234,-0.08394344,0.9924978,0.11289328,0.18911837,-0.89740956,-1.2482356,-0.080064006,-0.120045505,1.0492572,-0.12077499
-0.1,0.0,1.0999999999999999,-0.5235987755982988,0.0,0,-1.3261536,-1.4793506,-0.82046103,0.4732827,0.067572564,0.7867719,-0.2481646,0.18980423,-0.89725393,-1.2422537,-0.023707649,0.029226786,0.9281538,-0.34884217
-0.1,0.0,1.0999999999999999,-0.5235987755982988,0.0,0,-1.327379,-1.4782903,-0.8189566,0.47494707,-0.11308672,0.93179524,-0.44801328,0.18945226,-0.89689875,-1.2511618,-0.102154225,-0.038957044,1.0706888,-0.040082283
-0.1,0.0,1.0999999999999999,-0.5235987755982988,0.0,0,-1.3269047,-1.4764503,-0.81698847,0.47140443,-0.091851026,0.93433493,-0.343474,0.19385923,-0.89663047,-1.2656224,-0.12979928,0.06101685,1.0160733,-0.5925031
-0.1,0.0,1.0999999999999999,-0.5235987755982988,0.0,0,-1.3268551,-1.4765364,-0.8191525,0.47547555,-0.051156554,0.96413064,-0.363883,0.19859244,-0.8954521,-1.2635168,-0.019383717,0.009260857,1.0052396,0.43638164
-0.1,0.0,1.0999999999999999,-0.5235987755982988,0.0,0,-1.3272893,-1.4796758,-0.8178417,0.47446802,0.01905508,0.84250385,0.20688583,0.19009198,-0.8967876,-1.2511452,-0.018782692,-0.012235107,1.0212367,-0.6134909
-0.1,0.0,1.0999999999999999,-0.5235987755982988,0.0,0,-1.3258862,-1.4793966,-0.8181641,0.47353,0.020750431,0.87556034,-0.1813293,0.19185014,-0.8954553,-1.2555429,-0.051528282,-0.014337089,1.0598228,-0.81999314
-0.1,0.0,1.0999999999999999,-0.5235987755982988,0.0,0,-1.3258207,-1.4772003,-0.8163863,0.47649977,0.026483228,0.85111284,-0.5849748,0.20384334,-0.8960083,-1.23985,-0.050171044,-0.03246109,0.8912894,-0.7269239
-0.1,0.0,1.0999999999999999,-0.5235987755982988,0.0,0,-1.325732,-1.4768006,-0.8219208,0.4747647,0.0066405395,0.9434266,0.27720216,0.19712418,-0.8954383,-1.2539331,-0.045435023,0.055315174,0.9655222,-0.76901335
-0.1,0.0,1.0999999999999999,-0.5235987755982988,0.0,0,-1.3268105,-1.4782622,-0.8175086,0.4733073,-0.032979134,0.8390755,-0.20621824,0.19774134,-0.8956913,-1.2293792,-0.03470519,-0.03692509,0.9730582,-0.3634042
-0.1,0.0,1.0999999999999999,-0.5235987755982988,0.0,0,-1.3259131,-1.4783016,-0.81774193,0.47618154,-0.035977527,0.9324746,0.035126235,0.20336407,-0.8959423,-1.2543235,-0.034153834,-0.016711757,1.0018065,-1.1102155
-0.1,0.0,1.0999999999999999,-0.5235987755982988,0.0,0,-1.3260134,-1.4769112,-0.8192399,0.47183594,-0.05056142,1.0107666,-0.62900424,0.1973002,-0.8965337,-1.2500111,-0.02865414,-0.069444366,0.9374698,-0.30635858
