sanky1234/BimanualDexCatch/isaacgymenvs/cem_results/football_pose_0.1_0.1_0.9999999999999999_-0.5235987755982988_-0.5235987755982988_0_2025-05-27.csv
x,y,z,roll,pitch,yaw,robot1/joint1,robot1/joint2,robot1/joint3,robot1/joint4,robot1/joint5,robot1/joint6,robot1/joint7,robot2/joint1,robot2/joint2,robot2/joint3,robot2/joint4,robot2/joint5,robot2/joint6,robot2/joint7
0.1,0.1,0.9999999999999999,-0.5235987755982988,-0.5235987755982988,0,1.2703582,-1.4989722,-1.228275,0.7305906,0.33199623,1.3088598,-0.19652069,0.8145873,1.4369191,0.24182056,0.016001059,-0.076640815,1.0932435,-0.55892074
0.1,0.1,0.9999999999999999,-0.5235987755982988,-0.5235987755982988,0,1.2708156,-1.4975593,-1.2273808,0.73201746,0.32283273,1.3152574,-0.16925658,0.18914196,1.1422278,-0.8574673,-0.28547767,0.1048935,0.9957155,0.41235358
0.1,0.1,0.9999999999999999,-0.5235987755982988,-0.5235987755982988,0,1.2694341,-1.4996088,-1.2255346,0.73948807,0.3350911,1.3129673,-0.16009331,-0.011390719,1.3505222,0.3496316,-0.09745801,-0.22261031,0.9337221,-1.6588402
0.1,0.1,0.9999999999999999,-0.5235987755982988,-0.5235987755982988,0,1.2693267,-1.4982758,-1.2338715,0.73297054,0.34710053,1.3107779,-0.17170113,0.6448545,1.1800613,-0.36074492,0.08116062,0.23380704,1.1213781,-0.90723616
0.1,0.1,0.9999999999999999,-0.5235987755982988,-0.5235987755982988,0,1.2676283,-1.4988121,-1.2268091,0.72512615,0.32404426,1.309011,-0.1795531,0.91202694,1.4555378,-0.44270018,0.098900065,0.28644636,0.8096955,-0.024908971
0.1,0.1,0.9999999999999999,-0.5235987755982988,-0.5235987755982988,0,1.2688235,-1.5006322,-1.2277921,0.72897965,0.34343433,1.3070568,-0.18798353,0.787535,1.1759439,0.31223664,0.18848689,0.21855074,0.9257696,-2.2521884
0.1,0.1,0.9999999999999999,-0.5235987755982988,-0.5235987755982988,0,1.2673048,-1.5003427,-1.2254943,0.73225206,0.34587762,1.30861,-0.16127314,0.24322335,1.5340447,-0.41851288,-0.15490653,0.002274199,1.162721,0.16401677
0.1,0.1,0.9999999999999999,-0.5235987755982988,-0.5235987755982988,0,1.2680652,-1.497216,-1.2259835,0.7327554,0.33864117,1.3071674,-0.14466356,0.34326577,1.073617,-1.7453128,0.03524627,-0.23043162,1.0692691,-1.2498417
0.1,0.1,0.9999999999999999,-0.5235987755982988,-0.5235987755982988,0,1.2683117,-1.501512,-1.2200477,0.7333733,0.33461034,1.3143893,-0.27315608,0.21712548,1.1772935,-0.52574676,-0.070132494,0.035852343,0.8836134,-1.3976017
0.1,0.1,0.9999999999999999,-0.5235987755982988,-0.5235987755982988,0,1.2700161,-1.4994375,-1.228505,0.73309636,0.32957408,1.3098468,-0.20719828,0.58494526,1.223942,-1.1788745,-0.081546605,0.35570267,1.1007861,-0.42220062
0.1,0.1,0.9999999999999999,-0.5235987755982988,-0.5235987755982988,0,1.264157,-1.4989207,-1.2236353,0.71887386,0.34238935,1.3079008,-0.22353762,0.15837939,1.1472552,-0.29316887,0.17226623,0.19807616,1.0511475,-1.2170542
0.1,0.1,0.9999999999999999,-0.5235987755982988,-0.5235987755982988,0,1.2697287,-1.5009661,-1.2258079,0.73304904,0.3417345,1.309557,-0.1935601,-0.08744355,1.3287643,-0.3709559,0.031443436,0.06167189,0.9918837,-0.5683127
0.1,0.1,0.9999999999999999,-0.5235987755982988,-0.5235987755982988,0,1.2693965,-1.5016196,-1.2256002,0.73131716,0.33687848,1.3104479,-0.17767076,0.19325325,1.2255193,-1.069097,-0.06522938,0.1549017,1.1146867,0.029741121
0.1,0.1,0.9999999999999999,-0.5235987755982988,-0.5235987755982988,0,1.2688847,-1.5011744,-1.2225884,0.73377085,0.32536432,1.3143029,-0.20794296,0.85663044,1.1045007,0.67829627,0.099585734,-0.18150224,1.1762527,-1.1201842
0.1,0.1,0.9999999999999999,-0.5235987755982988,-0.5235987755982988,0,1.2685009,-1.4983032,-1.2230058,0.72774947,0.342548,1.3078244,-0.23081286,0.8138969,1.0320907,0.037009675,-0.047158312,0.37887016,0.95924366,-1.2502979
0.1,0.1,0.9999999999999999,-0.5235987755982988,-0.5235987755982988,0,1.2701641,-1.499645,-1.229035,0.73677,0.33304894,1.31041,-0.23547825,0.84623444,1.173811,0.16687603,-0.1245855,-0.14009531,0.95008844,-0.54857165
0.1,0.1,0.9999999999999999,-0.5235987755982988,-0.5235987755982988,0,1.2698163,-1.5006647,-1.2271711,0.73377985,0.33520657,1.3127755,-0.21186265,0.7033908,1.4298716,-0.6954112,0.0006914463,-0.24305792,1.1002522,-0.8337731
0.1,0.1,0.9999999999999999,-0.5235987755982988,-0.5235987755982988,0,1.2694896,-1.5009063,-1.2260035,0.7331973,0.33486533,1.3097471,-0.21168387,1.1345489,1.3247917,-0.9974457,0.09556638,0.111925535,0.9573345,-0.3398495
0.1,0.1,0.9999999999999999,-0.5235987755982988,-0.5235987755982988,0,1.270158,-1.4961544,-1.2382365,0.73388803,0.332686,1.3105481,-0.1942331,0.35860696,1.1604116,-0.712466,-0.1995545,-0.3443829,1.0537598,-0.41176286
0.1,0.1,0.9999999999999999,-0.5235987755982988,-0.5235987755982988,0,1.2696139,-1.4991345,-1.2269875,0.7318876,0.33442688,1.3091923,-0.18623897,0.13288546,1.2082393,-1.1086869,-0.040006455,-0.43090957,0.8096057,1.888235
0.1,0.1,0.9999999999999999,-0.5235987755982988,-0.5235987755982988,0,1.2702968,-1.4996707,-1.229376,0.73337066,0.32816848,1.307564,-0.15977167,0.6347719,1.246518,-0.7451225,-0.18547192,0.0032926723,1.010247,0.6783827
0.1,0.1,0.9999999999999999,-0.5235987755982988,-0.5235987755982988,0,1.2690873,-1.4992509,-1.2254066,0.7323588,0.3300335,1.3071569,-0.18106693,0.5288045,1.4232088,-0.45211694,-0.05354929,0.014496941,1.127132,-0.12172826
0.1,0.1,0.9999999999999999,-0.5235987755982988,-0.5235987755982988,0,1.2694453,-1.5016589,-1.2295198,0.73725796,0.33306575,1.3082907,-0.25061274,0.45305738,1.4992961,-0.8579596,-0.054971676,-0.41143745,1.1711594,-1.9709378
0.1,0.1,0.9999999999999999,-0.5235987755982988,-0.5235987755982988,0,1.2720048,-1.4986299,-1.2252325,0.7362955,0.34030518,1.3127124,-0.20235765,0.19679217,1.1610988,-1.4954909,-0.12750143,0.12593964,0.9363894,-1.5322345
0.1,0.1,0.9999999999999999,-0.5235987755982988,-0.5235987755982988,0,1.2689972,-1.5009985,-1.2264401,0.7311823,0.33397925,1.3104782,-0.16324072,0.13248725,1.3548115,-0.7094749,0.04618652,-0.056788575,0.9938103,-0.41163898
0.1,0.1,0.9999999999999999,-0.5235987755982988,-0.5235987755982988,0,1.2693101,-1.500399,-1.2272831,0.72783893,0.35648543,1.3094217,-0.15964518,0.6623876,1.407249,-0.6886292,0.033704948,-0.32256052,1.328343,0.39702183
0.1,0.1,0.9999999999999999,-0.5235987755982988,-0.5235987755982988,0,1.2693244,-1.5015111,-1.2284222,0.7339756,0.33189344,1.3085076,-0.12869476,0.33291233,1.137517,0.14518636,0.04592924,-0.004736051,0.77762944,0.89325196
0.1,0.1,0.9999999999999999,-0.5235987755982988,-0.5235987755982988,0,1.2711626,-1.5017314,-1.2206789,0.7277868,0.34163216,1.3081254,-0.21187884,0.92608935,1.1809844,0.18222654,-0.0009127569,-0.19080612,1.0428259,-1.5808294
0.1,0.1,0.9999999999999999,-0.5235987755982988,-0.5235987755982988,0,1.2729294,-1.4983146,-1.2324407,0.7301255,0.3371274,1.3105313,-0.18924908,-0.24581936,1.4334108,0.34849843,0.024915911,0.1824978,1.0095742,-0.90572345
0.1,0.1,0.9999999999999999,-0.5235987755982988,-0.5235987755982988,0,1.2720321,-1.497704,-1.2285463,0.7403386,0.33847362,1.3099788,-0.19915834,0.3762075,1.1261638,-0.6892201,-0.021611594,-0.0014033896,1.079793,-1.28448
0.1,0.1,0.9999999999999999,-0.5235987755982988,-0.5235987755982988,0,1.268666,-1.4994953,-1.2259983,0.72462124,0.35669944,1.3094742,-0.25129044,0.31618798,1.3476293,-0.15917706,0.13803728,-0.45009717,0.83273536,0.08582669
0.1,0.1,0.9999999999999999,-0.5235987755982988,-0.5235987755982988,0,1.2678566,-1.5006824,-1.2279146,0.7344031,0.33688518,1.3116559,-0.1864116,0.45141163,1.0666904,0.13324012,-0.06841601,0.18132553,1.0293014,-0.78475386
0.1,0.1,0.9999999999999999,-0.5235987755982988,-0.5235987755982988,0,1.2694123,-1.499457,-1.2229275,0.7329115,0.3373715,1.3083745,-0.21576473,-0.07345378,1.162524,-0.12876764,0.16300245,0.31521106,1.2997764,-0.4068102
0.1,0.1,0.9999999999999999,-0.5235987755982988,-0.5235987755982988,0,1.2695937,-1.4982648,-1.2227426,0.7313432,0.32792982,1.3121051,-0.1487553,0.2982916,1.2737979,-0.20031248,-0.03046472,-0.15587035,0.9615319,0.54820895
0.1,0.1,0.9999999999999999,-0.5235987755982988,-0.5235987755982988,0,1.2713186,-1.498973,-1.2287097,0.7346907,0.35350925,1.3125725,-0.22433446,0.2296003,1.4198511,0.3316641,-0.1680742,0.16908102,1.1090991,1.5933137
0.1,0.1,0.9999999999999999,-0.5235987755982988,-0.5235987755982988,0,1.2683921,-1.5003804,-1.2238013,0.73553306,0.33080328,1.3116562,-0.20986912,1.0706954,1.4555988,-1.4099165,-0.030910205,-0.19648644,1.2036681,0.47851226
0.1,0.1,0.9999999999999999,-0.5235987755982988,-0.5235987755982988,0,1.2714826,-1.4973557,-1.2268169,0.726874,0.34563848,1.3097575,-0.21384767,0.2582446,1.2812313,-0.67008954,-0.12685372,0.1420954,0.9135263,-0.3573446
0.1,0.1,0.9999999999999999,-0.5235987755982988,-0.5235987755982988,0,1.2664316,-1.4968864,-1.2361029,0.73242265,0.33956465,1.3074906,-0.2053575,0.06058871,1.1949103,0.21997862,-0.063536935,-0.26712847,1.0380244,0.12217997
0.1,0.1,0.9999999999999999,-0.5235987755982988,-0.5235987755982988,0,1.269468,-1.5008767,-1.2207365,0.731072,0.34390667,1.3104899,-0.22558872,-0.16064756,1.4048567,0.078263536,-0.1499495,-0.62294656,0.93453103,0.6628569
0.1,0.1,0.9999999999999999,-0.5235987755982988,-0.5235987755982988,0,1.2703723,-1.5020336,-1.2132236,0.73173404,0.32364386,1.313188,-0.2277392,0.5464759,1.293714,-0.9264804,0.03217307,0.25616822,1.0271635,-1.7038928
0.1,0.1,0.9999999999999999,-0.5235987755982988,-0.5235987755982988,0,1.2681813,-1.4993035,-1.2266985,0.73551947,0.33464244,1.3103375,-0.19137892,0.42617142,1.096813,-1.2461764,-0.08289771,-0.06517809,1.2407618,-0.29202303
0.1,0.1,0.9999999999999999,-0.5235987755982988,-0.5235987755982988,0,1.2682271,-1.4988915,-1.2256435,0.73585975,0.33525038,1.3105137,-0.11803647,0.1038135,1.2206141,-0.52537024,0.05211938,0.23497596,0.85878515,-0.26462328
0.1,0.1,0.9999999999999999,-0.5235987755982988,-0.5235987755982988,0,1.271911,-1.4996072,-1.2224612,0.729806,0.32037815,1.310228,-0.20672809,0.6754315,1.4774209,-0.9515429,0.066560455,-0.0541012,1.0785686,-0.036491595
0.1,0.1,0.9999999999999999,-0.5235987755982988,-0.5235987755982988,0,1.2703075,-1.4988302,-1.222482,0.7339905,0.32080713,1.3103462,-0.20213924,0.10834175,1.1398218,-0.03471129,-0.075150535,-0.10745612,0.91735685,-0.89120466
0.1,0.1,0.9999999999999999,-0.5235987755982988,-0.5235987755982988,0,1.2695451,-1.4975114,-1.2308943,0.7391924,0.33418262,1.3082299,-0.22186705,-0.038453717,1.0833712,-0.52262974,0.122474745,-0.21503954,1.1803904,-0.7559112
0.1,0.1,0.9999999999999999,-0.5235987755982988,-0.5235987755982988,0,1.2678076,-1.4985216,-1.2216362,0.7372823,0.34101176,1.3079672,-0.16054046,0.68698776,1.3452966,-0.5668814,0.15714905,0.1515296,1.0199549,-0.3873484
0.1,0.1,0.9999999999999999,-0.5235987755982988,-0.5235987755982988,0,1.2685633,-1.4988114,-1.224258,0.7356535,0.33469364,1.3115256,-0.17695749,0.49238905,1.3647759,-0.5040162,-0.04283699,0.07850321,1.0755515,-1.4568964
0.1,0.1,0.9999999999999999,-0.5235987755982988,-0.5235987755982988,0,1.2701652,-1.4987592,-1.2333757,0.73846126,0.33861065,1.3113325,-0.16764449,0.5615215,1.255743,-0.39195997,0.052181575,0.19871148,1.165669,-0.5269687
0.1,0.1,0.9999999999999999,-0.5235987755982988,-0.5235987755982988,0,1.2663425,-1.4983389,-1.2252378,0.73572934,0.32627895,1.3112074,-0.2081671,0.21849437,1.390269,-0.47551692,0.1338867,0.17507541,0.9914912,0.3705947
0.1,0.1,0.9999999999999999,-0.5235987755982988,-0.5235987755982988,0,1.2693233,-1.4996407,-1.2263087,0.74068445,0.34453842,1.310976,-0.17616142,0.6392244,1.1427422,-1.1396892,-0.05289962,-0.1576822,0.7702872,-1.3275064
0.1,0.1,0.9999999999999999,-0.5235987755982988,-0.5235987755982988,0,1.2691234,-1.5000131,-1.2335271,0.73174137,0.33248678,1.3127376,-0.255859,-0.1873179,1.28607,-0.85113406,-0.0456757,-0.38400432,1.0026151,-0.16137487
0.1,0.1,0.9999999999999999,-0.5235987755982988,-0.5235987755982988,0,1.2698392,-1.4991205,-1.2261851,0.73167896,0.34600338,1.3076118,-0.18832065,1.0089594,0.9913636,-1.4513067,-0.00728928,0.50224704,0.9618716,-0.0628295
0.1,0.1,0.9999999999999999,-0.5235987755982988,-0.5235987755982988,0,1.2683718,-1.5012851,-1.227328,0.7361496,0.34197086,1.3123424,-0.21247882,0.883794,1.4146755,-0.27188605,-0.03001083,-0.2633162,1.2493122,0.3079867
0.1,0.1,0.9999999999999999,-0.5235987755982988,-0.5235987755982988,0,1.2701594,-1.4988624,-1.2220118,0.738651,0.33450773,1.3122042,-0.18853723,0.26062262,1.1489416,0.17634626,-0.015797073,-0.09993565,1.0326984,2.2087097
0.1,0.1,0.9999999999999999,-0.5235987755982988,-0.5235987755982988,0,1.2706122,-1.5000064,-1.2269914,0.7322545,0.33036044,1.3086534,-0.22799487,0.28316396,1.3206856,-0.563239,-0.056888867,0.3571613,0.9814467,-1.6593592
0.1,0.1,0.9999999999999999,-0.5235987755982988,-0.5235987755982988,0,1.2712742,-1.4995191,-1.2264425,0.7335731,0.33861753,1.3111875,-0.19870856,0.9483483,1.1054734,-0.32896984,-0.10704632,0.19676384,1.1229154,0.4721986
0.1,0.1,0.9999999999999999,-0.5235987755982988,-0.5235987755982988,0,1.2694796,-1.5009987,-1.2264196,0.732262,0.34115845,1.3100529,-0.16506667,0.86710304,1.338703,-0.6883908,0.007587185,-0.10337555,1.057374,-0.92731667
0.1,0.1,0.9999999999999999,-0.5235987755982988,-0.5235987755982988,0,1.2690033,-1.5021781,-1.222339,0.73364294,0.34378612,1.3075207,-0.21368878,0.31649175,1.1401514,-0.86161095,-0.10618462,-0.17109396,0.89792794,-1.3181024
0.1,0.1,0.9999999999999999,-0.5235987755982988,-0.5235987755982988,0,1.2712252,-1.500096,-1.2298561,0.7312413,0.32444966,1.306377,-0.17825471,0.36044863,1.4815171,-0.018230965,0.1195114,0.025459616,1.0633471,0.95121145
0.1,0.1,0.9999999999999999,-0.5235987755982988,-0.5235987755982988,0,1.2689638,-1.4998136,-1.2307141,0.7328634,0.32751963,1.310182,-0.27022666,0.46674353,1.186679,-0.67883074,-0.0064623463,-0.13853334,0.9941742,-1.0451771
0.1,0.1,0.9999999999999999,-0.5235987755982988,-0.5235987755982988,0,1.2687517,-1.4976782,-1.2240741,0.73096097,0.3357719,1.3071167,-0.23591879,0.7435298,1.2649275,-0.62233436,-0.097734995,0.34762165,0.90013325,-0.3266918
0.1,0.1,0.9999999999999999,-0.5235987755982988,-0.5235987755982988,0,1.2708409,-1.5007426,-1.2221986,0.73074234,0.33041158,1.3142347,-0.25792634,0.6525888,1.3927411,0.23678966,-0.1633707,0.16913821,0.9900958,-0.31529307
0.1,0.1,0.9999999999999999,-0.5235987755982988,-0.5235987755982988,0,1.2688212,-1.500446,-1.2284442,0.7334089,0.33832994,1.3118165,-0.19748782,0.62874466,1.4838183,0.2474688,-0.16824147,0.21754192,0.97764677,-0.037820835
0.1,0.1,0.9999999999999999,-0.5235987755982988,-0.5235987755982988,0,1.272674,-1.498894,-1.2203839,0.7270886,0.33327624,1.3134986,-0.2005043,0.5389718,0.96318585,-0.46046016,-0.0773328,-0.18493196,1.0495626,-0.77164686
0.1,0.1,0.9999999999999999,-0.5235987755982988,-0.5235987755982988,0,1.2678936,-1.4989002,-1.227574,0.72797,0.31831104,1.3089772,-0.26211765,0.36054975,1.3227574,-0.19380067,-0.0830969,-0.03422445,1.135569,0.026886877
0.1,0.1,0.9999999999999999,-0.5235987755982988,-0.5235987755982988,0,1.2670428,-1.4995576,-1.22064,0.7347751,0.33622545,1.3114468,-0.24333712,0.31896633,1.272668,-0.879951,-0.088852815,-0.10562504,1.1013446,0.42734072
0.1,0.1,0.9999999999999999,-0.5235987755982988,-0.5235987755982988,0,1.2675766,-1.4963746,-1.2359364,0.72812617,0.3445834,1.3115737,-0.19624494,-0.26901725,1.5884606,0.114641555,0.010233854,-0.06872529,0.803793,0.15312336
0.1,0.1,0.9999999999999999,-0.5235987755982988,-0.5235987755982988,0,1.2699193,-1.4989219,-1.229341,0.7223022,0.35228285,1.3113134,-0.13336408,-0.10300519,1.0913626,-1.5904353,0.065766245,-0.075560436,1.1860824,0.15509176
0.1,0.1,0.9999999999999999,-0.5235987755982988,-0.5235987755982988,0,1.270337,-1.502221,-1.2285525,0.7220617,0.33261257,1.3091263,-0.19038159,0.32122442,1.529089,-0.63642484,-0.10520238,-0.010074442,0.9894222,0.22585699
0.1,0.1,0.9999999999999999,-0.5235987755982988,-0.5235987755982988,0,1.2691194,-1.4989017,-1.2249254,0.7254899,0.33629814,1.3101122,-0.19992644,0.6227598,1.1387953,-1.1685033,-0.042517487,-0.006588553,1.2086064,0.35697314
0.1,0.1,0.9999999999999999,-0.5235987755982988,-0.5235987755982988,0,1.2716175,-1.4973402,-1.2344768,0.7254395,0.34487304,1.3121977,-0.19809815,0.19212002,1.1417798,-0.8637316,0.0010382639,0.2460564,1.1318814,0.13237041
0.1,0.1,0.9999999999999999,-0.5235987755982988,-0.5235987755982988,0,1.2689584,-1.5002912,-1.2270659,0.7280596,0.3207238,1.3107439,-0.18306985,0.23769602,0.9129133,-0.0067268326,-0.017412212,0.013091943,1.0211692,-1.605233
0.1,0.1,0.9999999999999999,-0.5235987755982988,-0.5235987755982988,0,1.2680585,-1.4978733,-1.2300777,0.7313045,0.34440884,1.3126248,-0.11949566,0.3607309,1.3268327,-0.07927212,-0.07285111,0.063902155,0.8738801,-0.43727648
0.1,0.1,0.9999999999999999,-0.5235987755982988,-0.5235987755982988,0,1.2715422,-1.4999313,-1.2259299,0.7229216,0.35517812,1.311231,-0.19733039,0.5695581,1.042191,-0.42155796,-0.05591654,-0.24703315,1.074141,-1.3003209
0.1,0.1,0.9999999999999999,-0.5235987755982988,-0.5235987755982988,0,1.2699856,-1.497686,-1.2342318,0.7275976,0.34946752,1.3084165,-0.2648261,0.5588296,1.1620841,-1.5344718,0.09927342,-0.07327189,0.76474625,-0.71255726
0.1,0.1,0.9999999999999999,-0.5235987755982988,-0.5235987755982988,0,1.2707982,-1.4974486,-1.2260425,0.7364921,0.3426973,1.3074023,-0.21973372,0.35711646,1.2213926,0.33132166,0.057198267,0.4763881,0.9154946,0.5133643
0.1,0.1,0.9999999999999999,-0.5235987755982988,-0.5235987755982988,0,1.269417,-1.4993347,-1.225668,0.72671276,0.3241199,1.3116494,-0.19520888,0.5370831,1.0467618,-0.7395649,-0.020569013,-0.36342824,0.9153265,0.029348945
0.1,0.1,0.9999999999999999,-0.5235987755982988,-0.5235987755982988,0,1.2682194,-1.4980502,-1.228982,0.7235737,0.34476176,1.3109802,-0.19917424,0.20280743,1.2496606,-0.021679463,0.036503103,-0.36622784,1.0661312,-0.9135311
0.1,0.1,0.9999999999999999,-0.5235987755982988,-0.5235987755982988,0,1.2703394,-1.4969089,-1.2309929,0.73269665,0.34162968,1.3071733,-0.16430533,-0.13467501,1.5968158,-0.6355258,0.023893457,0.16161115,0.93315744,0.19332379
0.1,0.1,0.9999999999999999,-0.5235987755982988,-0.5235987755982988,0,1.2670587,-1.498105,-1.2329447,0.73057455,0.33776513,1.3104624,-0.23214658,0.63683563,1.4148461,-0.6985258,-0.052778747,0.41384286,0.9394406,-0.8726656
0.1,0.1,0.9999999999999999,-0.5235987755982988,-0.5235987755982988,0,1.2702348,-1.5006222,-1.2266923,0.7319335,0.3392518,1.3116881,-0.2637378,0.40366635,1.15858,-1.210565,-0.22757363,0.2352517,0.90348727,-0.011576537
0.1,0.1,0.9999999999999999,-0.5235987755982988,-0.5235987755982988,0,1.2692587,-1.5009315,-1.2339387,0.7318137,0.32067537,1.3085709,-0.13570139,0.29114872,0.97154737,-1.0207168,0.0311225,-0.31819633,0.8775777,-0.3274437
0.1,0.1,0.9999999999999999,-0.5235987755982988,-0.5235987755982988,0,1.2684883,-1.4994637,-1.2340517,0.7259344,0.3669537,1.3121259,-0.19310361,0.076093055,1.1476872,-1.3944409,-0.21616422,0.19930682,1.0835339,-1.2103748
0.1,0.1,0.9999999999999999,-0.5235987755982988,-0.5235987755982988,0,1.2684023,-1.4997764,-1.2231055,0.7306156,0.3500899,1.3115706,-0.18879128,0.5652193,1.1498044,-0.88319176,-0.013871699,0.037932053,1.0041721,-1.0559124
0.1,0.1,0.9999999999999999,-0.5235987755982988,-0.5235987755982988,0,1.2698463,-1.4979438,-1.2342052,0.73655415,0.33517608,1.309129,-0.109284185,0.8027028,1.1511468,-1.034106,-0.138019,0.21511692,1.2231703,0.9913544
0.1,0.1,0.9999999999999999,-0.5235987755982988,-0.5235987755982988,0,1.2706676,-1.4973528,-1.2314143,0.7335987,0.32604182,1.3087589,-0.14834452,0.22827226,1.1966518,0.29404223,0.058179848,-0.44275692,0.9889208,-0.6456623
0.1,0.1,0.9999999999999999,-0.5235987755982988,-0.5235987755982988,0,1.2701355,-1.4994084,-1.2267948,0.7292219,0.33823636,1.3121127,-0.20493372,0.3604852,1.0804262,-0.9922235,0.016548896,0.30802572,1.069988,0.3230003
0.1,0.1,0.9999999999999999,-0.5235987755982988,-0.5235987755982988,0,1.2691209,-1.5001978,-1.2232417,0.73186654,0.3236211,1.3054981,-0.227719,0.052591033,1.581773,-0.00074795185,-0.075227626,0.4115532,0.93885773,-0.7974623
0.1,0.1,0.9999999999999999,-0.5235987755982988,-0.5235987755982988,0,1.2692463,-1.4977883,-1.2289003,0.7310606,0.34756234,1.3092457,-0.22208762,0.28164372,1.1999018,-0.7337316,0.0140479505,-0.27927402,0.7964794,-1.0806252
0.1,0.1,0.9999999999999999,-0.5235987755982988,-0.5235987755982988,0,1.268903,-1.4993567,-1.2300386,0.7329614,0.34026268,1.3089806,-0.21228062,-0.02374836,1.283793,0.44762772,-0.011236279,-0.3850228,0.9335401,-0.60829747
0.1,0.1,0.9999999999999999,-0.5235987755982988,-0.5235987755982988,0,1.2685508,-1.498793,-1.2271377,0.72537905,0.3377321,1.3076816,-0.16876252,0.2907879,1.0228518,-0.18996754,0.08564407,0.06421245,1.1539543,-0.40516123
0.1,0.1,0.9999999999999999,-0.5235987755982988,-0.5235987755982988,0,1.2706333,-1.4971987,-1.2379515,0.72807837,0.3573877,1.3141567,-0.17503731,0.47043476,1.3094757,-0.533089,-0.11791138,-0.1559407,0.9333268,1.0404673
0.1,0.1,0.9999999999999999,-0.5235987755982988,-0.5235987755982988,0,1.2679048,-1.4995201,-1.2263331,0.72902316,0.32426235,1.3091314,-0.2063617,0.26664492,1.1821275,-0.9451046,-0.08909752,-0.1925112,0.8651833,-1.3782693
0.1,0.1,0.9999999999999999,-0.5235987755982988,-0.5235987755982988,0,1.268524,-1.4972447,-1.2234664,0.726979,0.3186309,1.3076228,-0.15584806,-0.12349197,1.373339,-0.021876825,0.0600268,-0.073517166,1.037094,0.7128999
0.1,0.1,0.9999999999999999,-0.5235987755982988,-0.5235987755982988,0,1.267493,-1.4981706,-1.227436,0.7228174,0.34109223,1.3092458,-0.23457631,0.57349896,1.3492355,0.027923396,-0.01985474,0.29957646,0.98460853,-0.21761557
0.1,0.1,0.9999999999999999,-0.5235987755982988,-0.5235987755982988,0,1.268345,-1.4987046,-1.2241051,0.72528034,0.3357108,1.313244,-0.23320685,0.47216985,1.3473147,0.25475428,0.16968602,-0.22275169,1.002271,-0.3826783
0.1,0.1,0.9999999999999999,-0.5235987755982988,-0.5235987755982988,0,1.2683553,-1.4983525,-1.2274486,0.7329594,0.3188669,1.3122026,-0.15149027,0.28641155,1.2254684,-0.92580193,0.0217928,-0.57829297,1.0335368,-0.61598825
0.1,0.1,0.9999999999999999,-0.5235987755982988,-0.5235987755982988,0,1.2691711,-1.5018047,-1.2272127,0.73714757,0.34604895,1.3085343,-0.11262382,0.22382483,1.2864459,-0.7447801,-0.10714757,0.08975275,0.86717504,0.09373729
0.1,0.1,0.9999999999999999,-0.5235987755982988,-0.5235987755982988,0,1.2688019,-1.5002344,-1.2316216,0.73312706,0.32147512,1.3115714,-0.18465286,1.1837493,1.2248925,-0.7750876,0.0048260996,0.25078046,1.09289,0.43061504
0.1,0.1,0.9999999999999999,-0.5235987755982988,-0.5235987755982988,0,1.2701097,-1.4984875,-1.2249649,0.72228736,0.32256863,1.3072531,-0.19148599,0.72191525,1.3371487,-1.1284361,-0.0037286778,-0.48907745,1.0410877,-0.7057091
0.1,0.1,0.9999999999999999,-0.5235987755982988,-0.5235987755982988,0,1.2712438,-1.4975871,-1.2344815,0.7396383,0.32534844,1.3087524,-0.17959465,0.5615266,1.2565446,-1.2118585,0.062032375,-0.32781655,1.0533187,0.13235638
0.1,0.1,0.9999999999999999,-0.5235987755982988,-0.5235987755982988,0,1.2694659,-1.5025661,-1.2218034,0.72688395,0.34486806,1.3112286,-0.16429809,0.12257903,1.3090786,-0.19242053,-0.008077543,-0.19716778,1.0381902,0.44346258
0.1,0.1,0.9999999999999999,-0.5235987755982988,-0.5235987755982988,0,1.2699414,-1.4991391,-1.2255299,0.73118025,0.3239614,1.3108627,-0.21686603,0.33227837,1.2959466,-1.4680433,0.12172443,0.13043727,0.9518201,1.0109338
0.1,0.1,0.9999999999999999,-0.5235987755982988,-0.5235987755982988,0,1.2710257,-1.4982917,-1.2174486,0.73408324,0.34350678,1.3109151,-0.11899324,0.8939584,1.2452706,0.46593332,-0.23151045,0.16412017,0.91981673,-0.61250716
0.1,0.1,0.9999999999999999,-0.5235987755982988,-0.5235987755982988,0,1.2684749,-1.4993893,-1.2296395,0.72723943,0.330107,1.3111954,-0.18798006,0.2893886,1.2337933,-0.8003846,-0.03869019,0.027150514,0.9327118,-1.2822561
0.1,0.1,0.9999999999999999,-0.5235987755982988,-0.5235987755982988,0,1.2706038,-1.4991629,-1.2369807,0.7329903,0.35068122,1.3088737,-0.22753178,0.16948034,1.1317772,-0.8467699,0.020628775,-0.12487993,1.1617544,-0.094575465
0.1,0.1,0.9999999999999999,-0.5235987755982988,-0.5235987755982988,0,1.2688103,-1.4986972,-1.2360077,0.7334983,0.3230239,1.3057631,-0.22460966,0.52872837,0.7855398,-0.80041724,-0.06309366,0.19197133,1.2066426,-0.5277209
0.1,0.1,0.9999999999999999,-0.5235987755982988,-0.5235987755982988,0,1.2684371,-1.4985796,-1.2276944,0.72629154,0.33261597,1.3115647,-0.247295,0.7247801,0.8991567,-0.5649764,-0.13451408,-0.21028337,0.9088957,0.29667428
0.1,0.1,0.9999999999999999,-0.5235987755982988,-0.5235987755982988,0,1.2694073,-1.4991701,-1.228697,0.7299752,0.3300874,1.3055941,-0.13339622,-0.08997329,1.3857453,-0.539341,0.16432165,-0.12630425,1.1601752,-1.0665399
0.1,0.1,0.9999999999999999,-0.5235987755982988,-0.5235987755982988,0,1.2693766,-1.4983965,-1.2240065,0.7215304,0.3385899,1.3083147,-0.24593686,0.34076908,1.1563107,-0.3050489,-0.026669923,-0.15442756,0.9653116,0.84469724
0.1,0.1,0.9999999999999999,-0.5235987755982988,-0.5235987755982988,0,1.2703388,-1.4985526,-1.2247651,0.7257803,0.3324345,1.3100879,-0.16945869,0.33350697,1.2736548,-0.23851115,0.11890239,0.11598547,0.9226289,-0.5411098
0.1,0.1,0.9999999999999999,-0.5235987755982988,-0.5235987755982988,0,1.2692612,-1.5006293,-1.2240452,0.7312934,0.33288005,1.3134245,-0.19566284,0.39225116,1.1989146,-1.8007339,-0.008545629,0.32359532,1.1222498,-1.4471383
0.1,0.1,0.9999999999999999,-0.5235987755982988,-0.5235987755982988,0,1.2684157,-1.5003717,-1.2244041,0.7312139,0.33621165,1.3095086,-0.19761501,0.6287224,1.0353287,0.00828017,0.0617441,-0.10350693,1.0281484,1.0257144
0.1,0.1,0.9999999999999999,-0.5235987755982988,-0.5235987755982988,0,1.2708672,-1.5001763,-1.2182562,0.7257059,0.33653122,1.3124294,-0.16606,0.25375077,1.1263196,-0.55618316,-0.03750968,-0.15513712,1.0761302,0.22147079
0.1,0.1,0.9999999999999999,-0.5235987755982988,-0.5235987755982988,0,1.2696589,-1.4974359,-1.2345232,0.73495245,0.33842966,1.312101,-0.1527142,0.4519011,1.0896246,-0.5077547,0.028919466,-0.066425815,0.79441035,1.1282742
0.1,0.1,0.9999999999999999,-0.5235987755982988,-0.5235987755982988,0,1.2682132,-1.4976022,-1.2297686,0.7419239,0.34674984,1.3085738,-0.20193475,-0.024394773,1.2481781,0.795066,-0.11071303,0.04352911,1.0385249,0.7122889
0.1,0.1,0.9999999999999999,-0.5235987755982988,-0.5235987755982988,0,1.2702769,-1.4999361,-1.2254493,0.7249876,0.33867204,1.3105308,-0.21332753,0.2308497,1.0115421,-0.36655298,-0.084561296,-0.03073173,1.012624,-1.8200847
0.1,0.1,0.9999999999999999,-0.5235987755982988,-0.5235987755982988,0,1.2676383,-1.4985592,-1.2271928,0.7238677,0.3340487,1.3119117,-0.2258273,0.033787694,1.1247513,0.4311711,0.10284365,0.15833746,1.2410109,0.881049
0.1,0.1,0.9999999999999999,-0.5235987755982988,-0.5235987755982988,0,1.2703416,-1.4990388,-1.2256452,0.7357666,0.32473692,1.3083984,-0.21406901,0.94321364,1.0728357,-0.94996154,-0.069182925,0.09826799,0.95570415,-1.1060266
0.1,0.1,0.9999999999999999,-0.5235987755982988,-0.5235987755982988,0,1.2700025,-1.5001578,-1.2303661,0.7313165,0.33079383,1.3085585,-0.19172558,-0.2315421,1.4349583,-0.8722516,-0.054759122,0.16781756,1.0738951,-2.234196
0.1,0.1,0.9999999999999999,-0.5235987755982988,-0.5235987755982988,0,1.2683085,-1.4978935,-1.2318091,0.7344862,0.34189057,1.3099706,-0.19429421,0.20401888,1.2688446,-0.03712008,0.040472563,-0.29336488,0.9376755,-0.26960447
0.1,0.1,0.9999999999999999,-0.5235987755982988,-0.5235987755982988,0,1.2690182,-1.5010103,-1.2203676,0.73717284,0.33204016,1.3106762,-0.18341647,-0.2566842,1.2403927,0.25341523,0.034726802,-0.03189075,0.81571895,-0.006065553
0.1,0.1,0.9999999999999999,-0.5235987755982988,-0.5235987755982988,0,1.2715478,-1.4976723,-1.2300912,0.7327332,0.33251846,1.3127874,-0.15059686,0.017947704,1.40485,-0.4629516,0.1129009,0.312733,1.088378,0.56846184
0.1,0.1,0.9999999999999999,-0.5235987755982988,-0.5235987755982988,0,1.267342,-1.4960386,-1.221877,0.7318984,0.32358378,1.3085556,-0.24821499,0.33598903,0.9517779,-1.3162866,-0.09704379,0.01685564,0.9727237,0.15484707
0.1,0.1,0.9999999999999999,-0.5235987755982988,-0.5235987755982988,0,1.2702457,-1.4998521,-1.2294252,0.7343026,0.33611482,1.3111717,-0.2177304,0.61451554,1.47545,-0.031542853,0.08065176,-0.020551316,0.904297,-0.30107936
0.1,0.1,0.9999999999999999,-0.5235987755982988,-0.5235987755982988,0,1.267707,-1.4981877,-1.2257541,0.7299627,0.33540037,1.3122376,-0.14629163,0.50722367,1.1684232,0.8772963,-0.08470366,-0.18935633,0.7301564,-2.2723796
0.1,0.1,0.9999999999999999,-0.5235987755982988,-0.5235987755982988,0,1.2691364,-1.498385,-1.236192,0.7367656,0.3278388,1.3115946,-0.21715635,0.5958438,1.0037967,-0.77682984,-0.12033631,-0.051116377,0.86810786,0.78713787
0.1,0.1,0.9999999999999999,-0.5235987755982988,-0.5235987755982988,0,1.2679168,-1.4994363,-1.2260213,0.7248065,0.34581697,1.3088306,-0.12543026,0.042737346,1.2374246,-0.018485542,0.2530969,0.32894936,1.0600932,-1.662263
0.1,0.1,0.9999999999999999,-0.5235987755982988,-0.5235987755982988,0,1.2683194,-1.4983284,-1.2234414,0.7350193,0.3233803,1.3083491,-0.14336152,0.107380144,1.1643705,-0.0695945,0.012320129,-0.16456078,0.98833495,-2.2970438
0.1,0.1,0.9999999999999999,-0.5235987755982988,-0.5235987755982988,0,1.2705457,-1.4983678,-1.2223532,0.7397142,0.32565504,1.3102502,-0.24067137,0.018772548,1.020865,0.29299316,0.11381595,0.08859112,0.99540555,0.4038333
0.1,0.1,0.9999999999999999,-0.5235987755982988,-0.5235987755982988,0,1.2690454,-1.4974668,-1.2277724,0.7258717,0.33247134,1.3139105,-0.14887793,0.013486066,1.3144519,0.37176883,0.10423511,-0.016590217,1.0678222,-1.2015156
0.1,0.1,0.9999999999999999,-0.5235987755982988,-0.5235987755982988,0,1.2705044,-1.5002009,-1.2273718,0.7349584,0.3565094,1.3115019,-0.27711713,0.3507164,1.0829356,-0.39776134,0.012236249,-0.30912793,1.1165783,-1.9267057
0.1,0.1,0.9999999999999999,-0.5235987755982988,-0.5235987755982988,0,1.2698272,-1.4982107,-1.2219826,0.7265575,0.33975676,1.3095696,-0.19180118,0.13511866,1.109081,-0.044667058,-0.005317279,-0.35560834,0.810268,0.20130481
0.1,0.1,0.9999999999999999,-0.5235987755982988,-0.5235987755982988,0,1.2715495,-1.4975178,-1.2189653,0.73077244,0.32189414,1.3146734,-0.16731343,0.42991042,1.251126,0.21744844,-0.13207473,0.20784222,0.8985185,-1.0721264
0.1,0.1,0.9999999999999999,-0.5235987755982988,-0.5235987755982988,0,1.2708316,-1.4997833,-1.2255756,0.73229337,0.34455633,1.3086295,-0.16366667,0.5827571,0.9919062,-0.4185023,-0.20362826,-0.27758104,1.1761343,-0.7322234
0.1,0.1,0.9999999999999999,-0.5235987755982988,-0.5235987755982988,0,1.2713504,-1.4998347,-1.2292055,0.734567,0.3254018,1.30735,-0.23527339,0.78788275,1.0107933,-0.5792919,0.023160823,0.5430919,0.96010983,-1.3794835
0.1,0.1,0.9999999999999999,-0.5235987755982988,-0.5235987755982988,0,1.2687029,-1.4999305,-1.2226425,0.73503065,0.34296653,1.311012,-0.25302637,0.49884915,1.1638211,-0.7951537,0.068374164,-0.16690513,0.9328759,0.12269287
0.1,0.1,0.9999999999999999,-0.5235987755982988,-0.5235987755982988,0,1.2712367,-1.5007102,-1.2254713,0.73774654,0.34144515,1.3082867,-0.21905425,0.13739775,1.1196814,-0.7989507,0.06568256,0.012749917,1.0749269,-0.59536827
0.1,0.1,0.9999999999999999,-0.5235987755982988,-0.5235987755982988,0,1.2715728,-1.4987417,-1.2228948,0.7259935,0.3573498,1.3101346,-0.19200547,-0.16830222,1.2916425,-0.46530172,0.1306834,0.32235804,1.3013501,-1.2322898
0.1,0.1,0.9999999999999999,-0.5235987755982988,-0.5235987755982988,0,1.2700701,-1.4983428,-1.2238741,0.7308968,0.3326516,1.3096998,-0.20605965,0.21862695,1.2531865,-0.32847458,-0.03673905,0.19339712,0.9022615,-0.16786823
0.1,0.1,0.9999999999999999,-0.5235987755982988,-0.5235987755982988,0,1.2713922,-1.4983381,-1.2194358,0.7228036,0.34258178,1.3104919,-0.2249525,0.16080035,1.3407559,-0.7963221,0.06781624,-0.2643928,1.0031552,-0.8760823
0.1,0.1,0.9999999999999999,-0.5235987755982988,-0.5235987755982988,0,1.2720307,-1.497563,-1.2275783,0.73412424,0.32717308,1.311691,-0.20062545,0.13570417,1.0605707,0.17736728,-0.046343505,-0.21845752,1.0015805,-0.67811006
0.1,0.1,0.9999999999999999,-0.5235987755982988,-0.5235987755982988,0,1.2705935,-1.4972711,-1.2270806,0.7328024,0.33912173,1.3095182,-0.2674907,0.18362738,1.1395375,0.19595607,-0.095324345,-0.21804124,0.9153001,-0.94200224
0.1,0.1,0.9999999999999999,-0.5235987755982988,-0.5235987755982988,0,1.2691369,-1.5001374,-1.2308606,0.73620486,0.34190017,1.3095207,-0.22967285,0.10697285,1.541694,-0.41648296,0.15931949,0.08790131,1.034744,0.006301351
0.1,0.1,0.9999999999999999,-0.5235987755982988,-0.5235987755982988,0,1.2696464,-1.4991866,-1.2286172,0.7308373,0.3748762,1.3118184,-0.21548611,0.38949695,0.9754358,-0.53774565,-0.069642305,0.021621505,0.8308412,-1.3868395
0.1,0.1,0.9999999999999999,-0.5235987755982988,-0.5235987755982988,0,1.2704648,-1.4979432,-1.2268279,0.7342033,0.30798897,1.3128438,-0.2549163,-0.27127925,1.3213938,-0.59084636,-0.26262632,0.06502812,0.9221306,-0.87259257
0.1,0.1,0.9999999999999999,-0.5235987755982988,-0.5235987755982988,0,1.271128,-1.4996058,-1.2248168,0.7346625,0.35035926,1.3135659,-0.16480465,0.48159,0.9473513,0.13808589,0.17020361,0.2943231,0.9323468,0.99276376
0.1,0.1,0.9999999999999999,-0.5235987755982988,-0.5235987755982988,0,1.267144,-1.5005411,-1.2281858,0.72716856,0.35343358,1.3110839,-0.23133665,0.5206369,1.2993765,0.18299837,-0.15003888,0.07635516,0.9620771,0.20223504
0.1,0.1,0.9999999999999999,-0.5235987755982988,-0.5235987755982988,0,1.2692776,-1.4989324,-1.2252661,0.72707456,0.33297688,1.3132598,-0.24529469,0.45712394,1.1657326,-0.5056905,-0.15729126,0.24873404,1.0512971,-0.20122679
0.1,0.1,0.9999999999999999,-0.5235987755982988,-0.5235987755982988,0,1.2709496,-1.5029728,-1.220038,0.7377233,0.3238663,1.3062572,-0.23370259,0.3300702,1.1611466,-1.1400967,-0.20320155,0.21475491,0.9967422,-0.2804203
0.1,0.1,0.9999999999999999,-0.5235987755982988,-0.5235987755982988,0,1.2714026,-1.4996508,-1.2228673,0.7270652,0.34630626,1.3105862,-0.21925178,0.6562297,1.3697753,0.17002061,0.101527154,0.31899378,0.9148325,-0.5656413
0.1,0.1,0.9999999999999999,-0.5235987755982988,-0.5235987755982988,0,1.2693522,-1.498444,-1.2243446,0.7214782,0.3242714,1.3082075,-0.1859462,0.30270624,1.4235023,-1.3026382,0.036134537,0.39705095,1.1198972,0.009616065
0.1,0.1,0.9999999999999999,-0.5235987755982988,-0.5235987755982988,0,1.2679197,-1.4984305,-1.2290661,0.7318082,0.33381143,1.3129246,-0.25872028,1.0694884,1.1655879,-0.3560452,0.058534387,-0.13511398,0.7392837,-0.027773345
0.1,0.1,0.9999999999999999,-0.5235987755982988,-0.5235987755982988,0,1.2717026,-1.4986565,-1.226171,0.73596025,0.34974736,1.3140033,-0.22232306,0.51534164,1.1465378,-0.8003399,-0.08823773,-0.45751935,1.1217384,-1.9397266
0.1,0.1,0.9999999999999999,-0.5235987755982988,-0.5235987755982988,0,1.2688869,-1.4981174,-1.2237052,0.734522,0.32167703,1.3111389,-0.19844405,0.6060149,1.1895528,-1.4629662,-0.066623256,-0.11615734,1.0793636,-0.49576738
0.1,0.1,0.9999999999999999,-0.5235987755982988,-0.5235987755982988,0,1.2683138,-1.4976385,-1.2352166,0.7364559,0.33413002,1.3133299,-0.18554723,0.59842384,1.308956,-0.1481659,-0.06716573,-0.5217556,0.9443559,0.89175117
0.1,0.1,0.9999999999999999,-0.5235987755982988,-0.5235987755982988,0,1.2690012,-1.5008265,-1.232757,0.73045963,0.33324337,1.311632,-0.2723641,0.34249565,1.3427225,0.24617857,-0.023788473,-0.18276152,0.82241464,-0.7589031
0.1,0.1,0.9999999999999999,-0.5235987755982988,-0.5235987755982988,0,1.2712086,-1.4980216,-1.2325603,0.73871857,0.3455512,1.3104768,-0.19393265,0.49940032,1.3481258,-0.9655909,0.12720378,-0.22160372,1.2379097,-0.3818467
0.1,0.1,0.9999999999999999,-0.5235987755982988,-0.5235987755982988,0,1.2699128,-1.4987472,-1.2260982,0.73884803,0.33474958,1.3092364,-0.20029646,0.517645,1.4847949,-1.0920388,-0.16719836,-0.068149306,0.9061526,0.013474443
0.1,0.1,0.9999999999999999,-0.5235987755982988,-0.5235987755982988,0,1.2704583,-1.4980658,-1.2315947,0.72872376,0.33879924,1.3104347,-0.22164616,0.6922625,1.1154544,-0.025959244,0.0007405983,0.038780533,1.1133142,-1.6259664
0.1,0.1,0.9999999999999999,-0.5235987755982988,-0.5235987755982988,0,1.2703615,-1.4985528,-1.2263541,0.72729737,0.34314376,1.3093755,-0.17370279,0.49973673,1.115891,-0.6860315,-0.098340996,-0.075658575,1.2089218,-0.6590252
0.1,0.1,0.9999999999999999,-0.5235987755982988,-0.5235987755982988,0,1.2716824,-1.4987168,-1.2207159,0.73544073,0.33241352,1.310151,-0.21064942,-0.1043907,1.1785182,0.43369552,-0.042969823,-0.02667022,0.8936333,-1.1925032
0.1,0.1,0.9999999999999999,-0.5235987755982988,-0.5235987755982988,0,1.2690983,-1.5006932,-1.2349352,0.7310245,0.32570308,1.3116434,-0.21775797,0.16291276,1.43457,-0.20050715,0.030436145,-0.09887524,1.0390365,-1.8222708
0.1,0.1,0.9999999999999999,-0.5235987755982988,-0.5235987755982988,0,1.2703604,-1.4987403,-1.2344145,0.7270604,0.34129435,1.3100504,-0.21869832,0.12899657,1.4839166,-0.6284586,0.0760591,-0.23915757,1.1602166,-1.738043
0.1,0.1,0.9999999999999999,-0.5235987755982988,-0.5235987755982988,0,1.2692096,-1.4980227,-1.2228183,0.73465645,0.3310451,1.3100634,-0.22352141,0.6722082,1.4170054,0.56454,-0.068004265,0.12021311,1.1391544,0.032292906
0.1,0.1,0.9999999999999999,-0.5235987755982988,-0.5235987755982988,0,1.2721752,-1.4996741,-1.2231487,0.732315,0.33377504,1.3087925,-0.23617429,0.057598773,1.4575372,-0.4074931,0.053432677,-0.26851523,1.0133021,-1.2253422
0.1,0.1,0.9999999999999999,-0.5235987755982988,-0.5235987755982988,0,1.2687765,-1.4977564,-1.2238564,0.73433316,0.33445922,1.3134127,-0.19686401,0.14145207,1.0981866,-0.49693868,0.11119328,0.13799044,0.9053392,-0.41682705
0.1,0.1,0.9999999999999999,-0.5235987755982988,-0.5235987755982988,0,1.2712113,-1.4994582,-1.225341,0.72979593,0.33637106,1.3123997,-0.2013504,0.23838927,1.2898672,0.33819252,0.060966656,0.09810447,1.0011084,0.4129193
0.1,0.1,0.9999999999999999,-0.5235987755982988,-0.5235987755982988,0,1.2722328,-1.4983118,-1.2286519,0.7345069,0.33600247,1.3115405,-0.21275176,0.4828046,1.0442991,0.025339201,-0.0010529687,0.008934862,0.94252384,0.005227768
0.1,0.1,0.9999999999999999,-0.5235987755982988,-0.5235987755982988,0,1.2710837,-1.4984678,-1.2223657,0.73082966,0.33022022,1.309897,-0.18904693,-0.018268561,1.2834688,-0.16523813,0.096841194,0.060594577,0.9900097,-1.5189135
0.1,0.1,0.9999999999999999,-0.5235987755982988,-0.5235987755982988,0,1.2683111,-1.5010798,-1.2319604,0.73232377,0.35176697,1.310563,-0.24357398,0.53441113,0.8933352,-0.40539277,-0.06695777,0.27570704,0.81612355,-0.09368094
0.1,0.1,0.9999999999999999,-0.5235987755982988,-0.5235987755982988,0,1.2693954,-1.49835,-1.2275614,0.73136204,0.33242568,1.3096994,-0.21073085,0.10972023,1.2967682,-0.6566743,-0.0922295,-0.3075116,0.94895315,-0.89301515
0.1,0.1,0.9999999999999999,-0.5235987755982988,-0.5235987755982988,0,1.272084,-1.5013858,-1.2202934,0.73428744,0.33104885,1.3131177,-0.17395145,0.18341811,1.3356062,-1.0643936,-0.039101396,0.13431904,0.99950063,0.49727136
0.1,0.1,0.9999999999999999,-0.5235987755982988,-0.5235987755982988,0,1.2695205,-1.4988382,-1.2305162,0.7253488,0.34959227,1.3081496,-0.22924557,0.21741365,1.1957694,-1.0503445,0.06813497,0.17843978,0.8640219,-0.54478526
0.1,0.1,0.9999999999999999,-0.5235987755982988,-0.5235987755982988,0,1.2701786,-1.500443,-1.2285061,0.726932,0.33059445,1.3096229,-0.20800015,0.49808076,1.2853804,-1.2291446,0.04618282,-0.13063355,0.94544965,0.15971617
0.1,0.1,0.9999999999999999,-0.5235987755982988,-0.5235987755982988,0,1.270445,-1.5000507,-1.2276796,0.7325529,0.31811526,1.311679,-0.20486131,0.6509653,1.5153822,0.2091103,0.00105058,-0.0500442,1.1326872,-0.5117669
0.1,0.1,0.9999999999999999,-0.5235987755982988,-0.5235987755982988,0,1.2705364,-1.4981649,-1.223187,0.73560876,0.32607841,1.3101641,-0.1852579,-0.23863927,1.3314613,-0.0847732,-0.026001101,0.12881698,0.97867054,-0.16580889
0.1,0.1,0.9999999999999999,-0.5235987755982988,-0.5235987755982988,0,1.2713873,-1.4987288,-1.2256466,0.7345975,0.3321833,1.3110733,-0.19946748,-0.17712152,1.5047951,0.6960326,-0.18322909,-0.3333366,0.86971027,-0.9930224
0.1,0.1,0.9999999999999999,-0.5235987755982988,-0.5235987755982988,0,1.268114,-1.5006044,-1.228339,0.73172295,0.328291,1.3088751,-0.1827479,0.16664983,0.7724533,-0.9970393,-0.2832912,-0.015889635,1.0727345,-0.31113213
0.1,0.1,0.9999999999999999,-0.5235987755982988,-0.5235987755982988,0,1.2701045,-1.4989543,-1.2330847,0.7226796,0.3267917,1.3096627,-0.23957379,0.6461965,0.96677744,-0.15832445,0.003914397,0.23112857,1.1376845,-0.6058165
0.1,0.1,0.9999999999999999,-0.5235987755982988,-0.5235987755982988,0,1.2671832,-1.4970325,-1.223077,0.72879684,0.34906253,1.3106794,-0.10918804,0.5921021,1.333826,-0.8947935,-0.067308426,0.05596669,1.0743533,-0.46378663
0.1,0.1,0.9999999999999999,-0.5235987755982988,-0.5235987755982988,0,1.2677503,-1.4972419,-1.2182984,0.72703797,0.36223093,1.3123362,-0.2259192,0.5126083,1.2177377,-0.12798868,0.05238734,0.09868629,1.0176085,-0.07461093
0.1,0.1,0.9999999999999999,-0.5235987755982988,-0.5235987755982988,0,1.2697845,-1.5009187,-1.2281184,0.73455215,0.34438446,1.3109732,-0.16577668,0.30676416,0.98461103,-0.6606676,-0.024309956,0.21540429,0.9552337,-0.044187006
0.1,0.1,0.9999999999999999,-0.5235987755982988,-0.5235987755982988,0,1.2684668,-1.4987751,-1.2333246,0.73251605,0.32383713,1.3110595,-0.19435376,-0.20936167,1.3387284,-0.51594436,-0.1479071,0.050959807,1.0116849,0.5724298
0.1,0.1,0.9999999999999999,-0.5235987755982988,-0.5235987755982988,0,1.2682569,-1.4997623,-1.230282,0.7315554,0.33038452,1.3133848,-0.21448389,0.7956873,1.3373905,-0.7031649,-0.060890045,-0.09648419,1.1739651,-0.59258175
0.1,0.1,0.9999999999999999,-0.5235987755982988,-0.5235987755982988,0,1.2706997,-1.499931,-1.229576,0.7288064,0.35162446,1.3124852,-0.22340873,0.0973946,1.0909777,-0.46802422,-0.024599824,-0.21814151,1.029865,-0.11447943
0.1,0.1,0.9999999999999999,-0.5235987755982988,-0.5235987755982988,0,1.2699914,-1.4985965,-1.2278476,0.72905535,0.32977742,1.3122954,-0.19328614,0.49676993,1.2996124,-0.40851057,-0.020308051,0.10257053,1.0492247,-0.2360864
0.1,0.1,0.9999999999999999,-0.5235987755982988,-0.5235987755982988,0,1.2698904,-1.4988567,-1.2246552,0.724687,0.3382197,1.3126689,-0.19838978,0.8589344,1.6844475,-0.4796067,0.13682465,-0.2246689,1.2116107,-0.9779643
0.1,0.1,0.9999999999999999,-0.5235987755982988,-0.5235987755982988,0,1.2685432,-1.4987495,-1.228746,0.739875,0.33676496,1.310169,-0.16628525,0.9224529,1.0889813,-0.7928941,0.026497165,0.03305629,1.1138484,0.674875
0.1,0.1,0.9999999999999999,-0.5235987755982988,-0.5235987755982988,0,1.2679985,-1.4995351,-1.2246834,0.7243173,0.33792615,1.3086444,-0.18889417,0.23872538,1.2844272,-0.7606027,-0.10627485,-0.34002107,1.0674294,-0.4369552
0.1,0.1,0.9999999999999999,-0.5235987755982988,-0.5235987755982988,0,1.2677583,-1.4982985,-1.2274365,0.73104364,0.35353267,1.3161248,-0.19296508,0.6709526,1.2936922,-0.046006657,-0.0938517,-0.15645292,0.92005086,0.068617985
0.1,0.1,0.9999999999999999,-0.5235987755982988,-0.5235987755982988,0,1.2699827,-1.4985049,-1.2220771,0.7396485,0.33930397,1.3110735,-0.2150786,0.60921556,1.1320051,-0.92647654,0.030876355,0.27624664,1.1644698,-1.8843298
0.1,0.1,0.9999999999999999,-0.5235987755982988,-0.5235987755982988,0,1.2704825,-1.4994874,-1.2296177,0.72930133,0.3269762,1.3077475,-0.13853925,0.78105307,1.5679135,-0.6174306,-0.13623337,0.41099232,1.0371543,-1.6558692
0.1,0.1,0.9999999999999999,-0.5235987755982988,-0.5235987755982988,0,1.2698708,-1.4993609,-1.2319269,0.7286458,0.3346687,1.3120791,-0.19328274,0.2381001,1.2927216,-0.28762057,-0.11858979,-0.008263954,0.9036904,-0.7190062
0.1,0.1,0.9999999999999999,-0.5235987755982988,-0.5235987755982988,0,1.2702664,-1.497921,-1.2210937,0.73533624,0.32921714,1.3093091,-0.1853219,0.5257706,1.5033718,-0.6625449,0.19257912,0.1086801,0.99193543,-1.3194789
0.1,0.1,0.9999999999999999,-0.5235987755982988,-0.5235987755982988,0,1.2668469,-1.4985645,-1.2272649,0.72421104,0.33162704,1.3098676,-0.23056483,0.7013621,1.4941303,0.099653386,-0.011772507,-0.54476804,1.1641188,-0.34741434
0.1,0.1,0.9999999999999999,-0.5235987755982988,-0.5235987755982988,0,1.2713702,-1.4973453,-1.2209976,0.7353745,0.33532974,1.3124583,-0.21647954,0.4297693,1.1935463,0.27824953,-0.16390197,0.32846877,1.1181294,-0.6782607
0.1,0.1,0.9999999999999999,-0.5235987755982988,-0.5235987755982988,0,1.2714882,-1.4985092,-1.2285135,0.7228193,0.34874234,1.3087289,-0.25788707,0.6578078,1.1990669,0.5484315,-0.092084974,0.1268821,1.0337536,0.13249987
0.1,0.1,0.9999999999999999,-0.5235987755982988,-0.5235987755982988,0,1.2718998,-1.5009232,-1.2199932,0.72449714,0.33069718,1.3125772,-0.24587494,0.6227069,1.3497685,-0.26025793,0.013330926,0.07206096,0.9899411,-1.3295012
0.1,0.1,0.9999999999999999,-0.5235987755982988,-0.5235987755982988,0,1.2690184,-1.5010903,-1.2301004,0.7225332,0.3448397,1.3115546,-0.21706718,0.598519,1.2324958,-1.0791073,0.04036093,0.22532646,1.0006906,-0.27943972
0.1,0.1,0.9999999999999999,-0.5235987755982988,-0.5235987755982988,0,1.2711084,-1.4983455,-1.2212285,0.72441715,0.33278698,1.3135164,-0.1841601,0.46094146,1.153911,-0.6272082,0.03650142,0.16964583,1.1751438,-1.448237
0.1,0.1,0.9999999999999999,-0.5235987755982988,-0.5235987755982988,0,1.2696437,-1.4985503,-1.2237221,0.72849625,0.3424773,1.3122158,-0.14733338,-0.10228756,0.86430734,-0.84312356,0.0062201214,-0.005054521,1.0498729,-0.7963417
0.1,0.1,0.9999999999999999,-0.5235987755982988,-0.5235987755982988,0,1.2707357,-1.4986916,-1.2211052,0.7273122,0.33171755,1.3095534,-0.13855971,0.47452107,1.3434678,-1.055245,-0.06699283,0.03923939,1.0726278,0.6909737
0.1,0.1,0.9999999999999999,-0.5235987755982988,-0.5235987755982988,0,1.2677504,-1.4999769,-1.230334,0.7291387,0.35430723,1.3097522,-0.1597805,3.554953e-05,1.2653579,-0.3474309,0.14511134,-0.108855076,1.2326121,-1.058582
0.1,0.1,0.9999999999999999,-0.5235987755982988,-0.5235987755982988,0,1.2715766,-1.499795,-1.2317353,0.72385716,0.3512692,1.3141272,-0.17365563,0.67807907,1.1796974,0.73052716,0.05173663,-0.1629078,1.1409162,-0.21202803
0.1,0.1,0.9999999999999999,-0.5235987755982988,-0.5235987755982988,0,1.2689296,-1.5014852,-1.2261071,0.7267196,0.33496156,1.3110044,-0.1779759,0.5700059,1.0561204,-0.66828126,-0.113518745,-0.44740483,1.018371,-0.67296827
0.1,0.1,0.9999999999999999,-0.5235987755982988,-0.5235987755982988,0,1.2699807,-1.5000057,-1.2318988,0.7248261,0.3322568,1.3111048,-0.2059641,0.7545147,1.114597,0.13789628,-0.20857881,-0.18815558,0.72837937,-0.9153713
0.1,0.1,0.9999999999999999,-0.5235987755982988,-0.5235987755982988,0,1.2703812,-1.5003624,-1.2215378,0.73275054,0.3277154,1.3114979,-0.14738612,0.43044034,1.2967097,-1.8927205,0.14568639,0.07407707,0.8422674,-0.97983384
0.1,0.1,0.9999999999999999,-0.5235987755982988,-0.5235987755982988,0,1.2701432,-1.4992002,-1.2271807,0.73727065,0.33547574,1.3116858,-0.22849907,0.3733265,1.139621,-1.0767853,0.07523935,0.13570373,0.8598686,-0.9101928
0.1,0.1,0.9999999999999999,-0.5235987755982988,-0.5235987755982988,0,1.2670591,-1.4986532,-1.2323488,0.72956717,0.34801006,1.3136338,-0.17139728,0.4179938,0.9989653,-0.19136505,-0.19417794,-0.07432669,0.9965725,-0.6820521
0.1,0.1,0.9999999999999999,-0.5235987755982988,-0.5235987755982988,0,1.2670373,-1.499218,-1.2213361,0.72791374,0.34945795,1.3127749,-0.17381835,0.926632,1.1618115,-0.4256597,-0.0049018776,-0.045012422,0.9034997,-0.13750134
0.1,0.1,0.9999999999999999,-0.5235987755982988,-0.5235987755982988,0,1.269196,-1.5006242,-1.2306238,0.7306732,0.33895257,1.3095527,-0.1710003,0.20171928,1.3574815,-0.5791369,-0.1418977,-0.106374204,0.9042358,0.70186615
0.1,0.1,0.9999999999999999,-0.5235987755982988,-0.5235987755982988,0,1.2707862,-1.4983624,-1.2246785,0.72373277,0.3585583,1.3117663,-0.19187039,0.5462575,1.2397658,-0.3866479,0.05294003,0.02384901,0.98339593,0.380619
0.1,0.1,0.9999999999999999,-0.5235987755982988,-0.5235987755982988,0,1.2690425,-1.4989748,-1.227799,0.7319279,0.34747383,1.3068444,-0.14572874,0.060195662,0.9268091,0.019943275,-0.043700892,-0.0022289802,1.0870973,-0.85283554
0.1,0.1,0.9999999999999999,-0.5235987755982988,-0.5235987755982988,0,1.2709422,-1.4988718,-1.2236637,0.72954524,0.32755783,1.3088529,-0.18555798,0.43318775,1.1578488,-0.9802518,-0.17511168,0.25336924,1.0473922,-0.371613
0.1,0.1,0.9999999999999999,-0.5235987755982988,-0.5235987755982988,0,1.2700557,-1.5025966,-1.2267374,0.73630434,0.34333032,1.308266,-0.07386739,0.18713419,1.314082,-0.13232486,-0.15499514,-0.11375835,0.94667655,-1.9523965
0.1,0.1,0.9999999999999999,-0.5235987755982988,-0.5235987755982988,0,1.2690234,-1.4999558,-1.2190605,0.73187745,0.32991347,1.3122916,-0.29356834,1.0362942,1.4159565,-0.40261525,-0.032656524,-0.027324412,1.0613228,-2.1616676
0.1,0.1,0.9999999999999999,-0.5235987755982988,-0.5235987755982988,0,1.2687002,-1.5015593,-1.2199149,0.7272899,0.32557747,1.311826,-0.2854961,0.21520714,1.0476569,-1.0388086,-0.029040666,-0.012387578,1.009317,-2.3264802
0.1,0.1,0.9999999999999999,-0.5235987755982988,-0.5235987755982988,0,1.270103,-1.4989349,-1.2240493,0.7288765,0.3225943,1.3115479,-0.21017918,0.821818,1.2955594,0.25080386,0.14585271,0.3189492,1.0255249,-0.95510983
0.1,0.1,0.9999999999999999,-0.5235987755982988,-0.5235987755982988,0,1.2693284,-1.4988683,-1.2243778,0.7322666,0.31895456,1.3113762,-0.20108195,0.37766245,1.1401539,-1.002861,0.02862371,-0.056989994,0.89987195,0.066303425
0.1,0.1,0.9999999999999999,-0.5235987755982988,-0.5235987755982988,0,1.2691109,-1.4984653,-1.2206317,0.7363474,0.3325014,1.3085886,-0.23139715,0.76552796,1.3768743,-0.50076073,-0.07275953,0.113292895,0.8974586,0.19945674
0.1,0.1,0.9999999999999999,-0.5235987755982988,-0.5235987755982988,0,1.269669,-1.498314,-1.2231206,0.7244518,0.34002382,1.3092989,-0.23486827,0.19894427,1.1156402,-0.07962535,-0.08300298,-0.0037992396,1.0956528,-0.2612723
0.1,0.1,0.9999999999999999,-0.5235987755982988,-0.5235987755982988,0,1.2696241,-1.5002933,-1.2277887,0.7301523,0.33040512,1.3091699,-0.23663487,0.596705,1.3759016,-0.5438465,-0.19576155,-0.3079273,1.0359297,0.32211447
0.1,0.1,0.9999999999999999,-0.5235987755982988,-0.5235987755982988,0,1.2692342,-1.4950501,-1.2271544,0.73228073,0.35616183,1.3096473,-0.18502152,0.112874806,1.0246252,-0.660005,0.0003839591,0.08738342,0.66362256,-0.35484043
0.1,0.1,0.9999999999999999,-0.5235987755982988,-0.5235987755982988,0,1.2699517,-1.4967909,-1.2340055,0.72266346,0.34830323,1.3102194,-0.25413343,0.40467027,0.9842736,-0.07666791,-0.18065423,-0.15926984,0.89354646,0.667834
0.1,0.1,0.9999999999999999,-0.5235987755982988,-0.5235987755982988,0,1.269259,-1.494789,-1.2303655,0.7187267,0.34306785,1.3096265,-0.20012432,0.5328138,1.0054016,-1.509694,-0.15245327,-0.10436367,1.0501436,0.85332257
0.1,0.1,0.9999999999999999,-0.5235987755982988,-0.5235987755982988,0,1.2682463,-1.49786,-1.2320898,0.726382,0.3502726,1.3110614,-0.18426186,0.6011388,1.1610262,0.03359448,-0.03254402,-0.57189816,0.94485104,0.11269485
0.1,0.1,0.9999999999999999,-0.5235987755982988,-0.5235987755982988,0,1.270259,-1.4982789,-1.2289861,0.7250388,0.3391407,1.3096174,-0.24535593,0.28137484,1.0369493,-1.2412066,-0.022381725,0.009418826,1.1362965,0.019967983
0.1,0.1,0.9999999999999999,-0.5235987755982988,-0.5235987755982988,0,1.269945,-1.49877,-1.2301497,0.72828823,0.33951184,1.3085729,-0.24028371,0.65796095,1.3929726,-0.66571337,0.0589439,0.006876632,1.0000882,-0.5421877
0.1,0.1,0.9999999999999999,-0.5235987755982988,-0.5235987755982988,0,1.2719691,-1.4976732,-1.2242163,0.7289494,0.33918172,1.3107305,-0.18198088,0.25940713,1.203343,-0.5856347,-0.20690481,0.21002708,0.89080393,0.05290894
0.1,0.1,0.9999999999999999,-0.5235987755982988,-0.5235987755982988,0,1.2684712,-1.4979119,-1.234223,0.732309,0.33888006,1.3060343,-0.23511308,0.5972162,1.5205613,-0.026247699,-0.046041783,0.21018483,1.0664544,-0.7656275
0.1,0.1,0.9999999999999999,-0.5235987755982988,-0.5235987755982988,0,1.2703596,-1.4984683,-1.2294306,0.7358183,0.3384043,1.3092141,-0.1609773,0.6231783,1.209316,0.24058989,-0.1616995,-0.27049097,0.92585,-0.6979458
0.1,0.1,0.9999999999999999,-0.5235987755982988,-0.5235987755982988,0,1.2704282,-1.4994006,-1.233062,0.72524464,0.3511251,1.3096691,-0.26616594,0.22779746,1.2585402,1.1994587,-0.07150164,0.08085404,1.0367423,0.15414798
0.1,0.1,0.9999999999999999,-0.5235987755982988,-0.5235987755982988,0,1.2699767,-1.4986597,-1.2328463,0.73351896,0.33515656,1.3088809,-0.23342787,0.27572915,1.2526097,-1.228034,0.10647083,0.030365167,1.0953323,-0.89624286
0.1,0.1,0.9999999999999999,-0.5235987755982988,-0.5235987755982988,0,1.2722781,-1.4983445,-1.2254171,0.733988,0.33700183,1.3080571,-0.2398965,0.08943434,1.5502328,0.06769845,-0.140299,-0.0864083,1.0336899,-0.43729866
0.1,0.1,0.9999999999999999,-0.5235987755982988,-0.5235987755982988,0,1.2699583,-1.4999965,-1.2265004,0.7297659,0.33344153,1.3164902,-0.20926839,0.15606941,1.2365363,-0.014235947,-0.11188266,0.162505,0.9747207,-1.8550396
0.1,0.1,0.9999999999999999,-0.5235987755982988,-0.5235987755982988,0,1.2700268,-1.4980384,-1.226681,0.7249907,0.332604,1.3099939,-0.27444968,0.74782187,1.0207716,-1.2747462,-0.21651228,-0.15355477,0.7298385,-1.3190312
0.1,0.1,0.9999999999999999,-0.5235987755982988,-0.5235987755982988,0,1.2690437,-1.498815,-1.2278708,0.7316467,0.34080663,1.3131219,-0.17707196,-0.020172574,1.2847766,-0.4011954,0.050156474,0.06866255,0.72965133,0.040246032
0.1,0.1,0.9999999999999999,-0.5235987755982988,-0.5235987755982988,0,1.270105,-1.5005538,-1.2281289,0.73680043,0.3318435,1.3103843,-0.15929839,0.48850736,1.2335477,-0.3814066,-0.075377904,0.32853585,1.0281957,-1.6806731
0.1,0.1,0.9999999999999999,-0.5235987755982988,-0.5235987755982988,0,1.2708118,-1.4989711,-1.2239565,0.72968185,0.33513358,1.311583,-0.17440939,0.4517273,1.2174921,-1.0282819,-0.16381481,-0.0128811365,1.0709211,0.08967699
0.1,0.1,0.9999999999999999,-0.5235987755982988,-0.5235987755982988,0,1.2704302,-1.4977975,-1.2276412,0.72843534,0.33143303,1.3102115,-0.20788324,0.5720422,1.1981807,-0.4711638,-0.14634734,-0.17097996,1.1198633,0.014071168
0.1,0.1,0.9999999999999999,-0.5235987755982988,-0.5235987755982988,0,1.2702328,-1.5003754,-1.227494,0.7312748,0.3486571,1.3122461,-0.19172539,0.21579823,1.4620574,-0.21717465,-0.10762918,-0.113650925,1.1191903,-0.27072698
0.1,0.1,0.9999999999999999,-0.5235987755982988,-0.5235987755982988,0,1.2704419,-1.5004946,-1.2252433,0.7332271,0.33966395,1.3108431,-0.17899571,0.73729354,1.5018898,-0.683476,-0.12997,0.45822644,1.1763365,-0.06330631
0.1,0.1,0.9999999999999999,-0.5235987755982988,-0.5235987755982988,0,1.2705296,-1.5005157,-1.228558,0.72898346,0.3205559,1.3110301,-0.22935799,0.3436643,1.292347,-1.1027051,-0.0018226192,-0.30907622,1.1421406,-0.37183625
0.1,0.1,0.9999999999999999,-0.5235987755982988,-0.5235987755982988,0,1.2708113,-1.4989707,-1.2295357,0.7363567,0.31104544,1.3111352,-0.20757551,0.55017763,1.40457,-1.0966327,0.002678032,-0.23094124,1.110364,0.76289034
0.1,0.1,0.9999999999999999,-0.5235987755982988,-0.5235987755982988,0,1.2704333,-1.5013956,-1.228283,0.73829055,0.32890296,1.3083671,-0.17640899,0.39039832,1.3515619,0.17052776,-0.2320758,-0.2794642,0.88077617,0.25484687
0.1,0.1,0.9999999999999999,-0.5235987755982988,-0.5235987755982988,0,1.2688767,-1.4979781,-1.230979,0.7338212,0.32664818,1.3103735,-0.15280063,0.050165497,1.2542303,-0.30632713,0.12682603,-0.29020038,0.88232076,-1.8902559
0.1,0.1,0.9999999999999999,-0.5235987755982988,-0.5235987755982988,0,1.267572,-1.4967939,-1.2287705,0.73389244,0.34430772,1.3089006,-0.20519075,0.018311363,1.2128423,-0.9358088,-0.26066852,-0.027377393,0.8285518,-1.0013824
0.1,0.1,0.9999999999999999,-0.5235987755982988,-0.5235987755982988,0,1.2704589,-1.4990423,-1.2296543,0.7264484,0.3494546,1.3106636,-0.1932317,0.939958,1.2990296,-0.7691578,-0.099863864,0.29941392,0.92434984,-0.33332697
0.1,0.1,0.9999999999999999,-0.5235987755982988,-0.5235987755982988,0,1.2695106,-1.498201,-1.2265881,0.73260266,0.33702448,1.3132685,-0.21524805,0.13459486,1.3486197,-0.41590658,0.00804529,0.11939281,1.0030644,-0.75860685
0.1,0.1,0.9999999999999999,-0.5235987755982988,-0.5235987755982988,0,1.270122,-1.4980296,-1.2261593,0.7336249,0.3211384,1.3108648,-0.19717938,0.19684044,1.3625932,-0.027353503,-0.07832615,0.22046074,1.175256,-0.70683694
0.1,0.1,0.9999999999999999,-0.5235987755982988,-0.5235987755982988,0,1.2662821,-1.4996185,-1.2214298,0.73173887,0.33349067,1.3126603,-0.19145077,0.29348633,1.2946798,-0.85881734,0.20016083,-0.046295878,1.0286525,0.18753771
0.1,0.1,0.9999999999999999,-0.5235987755982988,-0.5235987755982988,0,1.2714779,-1.4989289,-1.2386085,0.73215425,0.328219,1.3114165,-0.24218827,0.38657808,1.1271652,0.21996088,0.13918468,0.17535897,1.1180457,-2.8340306
0.1,0.1,0.9999999999999999,-0.5235987755982988,-0.5235987755982988,0,1.2691811,-1.499791,-1.2355534,0.7342654,0.31771335,1.3092575,-0.24439345,0.56402105,1.3311396,-0.15993175,-0.109752536,-0.16213655,0.99723995,0.69980925
0.1,0.1,0.9999999999999999,-0.5235987755982988,-0.5235987755982988,0,1.27037,-1.4993526,-1.2347585,0.7328819,0.3285702,1.3083751,-0.16278021,0.47149035,1.2011126,0.049542528,0.07380496,0.017039943,0.90903336,-0.6513311
0.1,0.1,0.9999999999999999,-0.5235987755982988,-0.5235987755982988,0,1.2712138,-1.4976106,-1.2246075,0.7294085,0.3262262,1.3120724,-0.20793542,0.70314306,1.1606038,-0.62219,-0.12829435,0.35867023,0.99737334,0.25195706
