sanky1234/BimanualDexCatch/isaacgymenvs/cem_results/football_pose_0.0_-0.1_0.9999999999999999_-0.5235987755982988_0.5235987755982988_0_2025-05-26.csv
x,y,z,roll,pitch,yaw,robot1/joint1,robot1/joint2,robot1/joint3,robot1/joint4,robot1/joint5,robot1/joint6,robot1/joint7,robot2/joint1,robot2/joint2,robot2/joint3,robot2/joint4,robot2/joint5,robot2/joint6,robot2/joint7
0.0,-0.1,0.9999999999999999,-0.5235987755982988,0.5235987755982988,0,0.8075469,-0.75612885,-2.6625824,0.8744177,-1.071573,1.259046,-1.2008475,0.1909398,-0.6560892,-3.0804546,0.5209858,0.67506653,1.1963466,-1.1222283
0.0,-0.1,0.9999999999999999,-0.5235987755982988,0.5235987755982988,0,0.79918903,-0.7675119,-2.7256517,0.87583965,-1.0499985,1.2162405,-1.2516631,0.22990867,-0.6441915,-3.0969384,0.5231408,0.50687283,1.1159456,-0.27570152
0.0,-0.1,0.9999999999999999,-0.5235987755982988,0.5235987755982988,0,0.8541393,-0.7442445,-2.6834257,0.8524689,-1.0012321,1.2343594,-0.94140327,0.21392429,-0.68439424,-3.1027598,0.5109067,0.5727927,1.5343744,-0.24521047
0.0,-0.1,0.9999999999999999,-0.5235987755982988,0.5235987755982988,0,0.78913695,-0.76260287,-2.6702662,0.8474461,-1.0545638,1.2175611,-1.4394621,0.2078237,-0.6433368,-3.123129,0.54285276,0.8733589,1.091273,-0.88400775
0.0,-0.1,0.9999999999999999,-0.5235987755982988,0.5235987755982988,0,0.8554919,-0.7494745,-2.6434584,0.8590444,-1.0361503,1.244633,-1.6712219,0.18086888,-0.6583607,-3.067123,0.5315661,0.8760157,1.2871565,0.7823764
0.0,-0.1,0.9999999999999999,-0.5235987755982988,0.5235987755982988,0,0.815569,-0.75119805,-2.7179105,0.85877895,-1.0201397,1.2200503,-0.7531892,0.22157644,-0.6487609,-3.1194067,0.5224814,0.5155473,1.2587379,0.6406256
0.0,-0.1,0.9999999999999999,-0.5235987755982988,0.5235987755982988,0,0.8662399,-0.8082711,-2.728313,0.8519681,-1.0174956,1.1955911,-1.7025625,0.21958297,-0.6606048,-3.1282527,0.51388234,0.60628724,1.1617879,-0.088456124
0.0,-0.1,0.9999999999999999,-0.5235987755982988,0.5235987755982988,0,0.7960143,-0.735436,-2.6822517,0.8460088,-1.0039526,1.2505174,-1.2932835,0.21095899,-0.6480533,-3.0697749,0.5327349,0.6331986,1.398307,0.1258018
0.0,-0.1,0.9999999999999999,-0.5235987755982988,0.5235987755982988,0,0.76204646,-0.7365572,-2.7378273,0.8402877,-0.9803332,1.2388513,-0.9515066,0.20050417,-0.6495278,-3.0702505,0.49951714,0.5989253,1.288949,-0.002919355
0.0,-0.1,0.9999999999999999,-0.5235987755982988,0.5235987755982988,0,0.8341865,-0.77568585,-2.7234912,0.85401845,-1.0178264,1.2370135,-1.4834249,0.20576516,-0.6624501,-3.0936692,0.5255039,0.6239251,1.4367546,0.6853497
0.0,-0.1,0.9999999999999999,-0.5235987755982988,0.5235987755982988,0,0.9006854,-0.72812796,-2.6702719,0.8749649,-1.0451448,1.2464592,-1.2057996,0.20524907,-0.6498532,-3.05421,0.5554972,0.22686778,1.1009732,-0.86250836
0.0,-0.1,0.9999999999999999,-0.5235987755982988,0.5235987755982988,0,0.8170709,-0.7316086,-2.7069159,0.8674378,-0.9551479,1.2116936,-0.9430369,0.19823201,-0.6321006,-3.104538,0.5408505,0.55244136,1.0293787,-0.8598026
0.0,-0.1,0.9999999999999999,-0.5235987755982988,0.5235987755982988,0,0.7892775,-0.7725143,-2.7222812,0.85265785,-1.0577654,1.2517114,-0.78010136,0.21313119,-0.666474,-3.069136,0.54351395,1.0961584,1.2360084,-0.80149764
0.0,-0.1,0.9999999999999999,-0.5235987755982988,0.5235987755982988,0,0.7965766,-0.79466337,-2.66895,0.83863086,-1.0541188,1.2213216,-1.2834953,0.19923465,-0.6622434,-3.0643082,0.5445058,0.55538267,1.1797885,-0.25969696
0.0,-0.1,0.9999999999999999,-0.5235987755982988,0.5235987755982988,0,0.7929068,-0.78669536,-2.7349362,0.8297213,-1.0581367,1.2310897,-0.9833971,0.22483611,-0.63892704,-3.093196,0.50723267,0.14293985,1.4320102,0.11253768
0.0,-0.1,0.9999999999999999,-0.5235987755982988,0.5235987755982988,0,0.8190039,-0.76539135,-2.6509688,0.85798216,-1.0652577,1.1985655,-1.1693649,0.20690301,-0.6680792,-3.0829015,0.52679026,0.46867588,1.3251996,-0.97677404
0.0,-0.1,0.9999999999999999,-0.5235987755982988,0.5235987755982988,0,0.8164706,-0.72280467,-2.7020895,0.8414073,-1.0250841,1.174037,-1.8657004,0.21411127,-0.6399062,-3.0465295,0.52077496,0.50675774,1.3497704,-0.31767443
0.0,-0.1,0.9999999999999999,-0.5235987755982988,0.5235987755982988,0,0.8073973,-0.7387935,-2.6892412,0.83590287,-1.0307455,1.200547,-1.4300967,0.2007501,-0.62831813,-3.114795,0.53938854,0.24706528,1.3945674,1.5027735
0.0,-0.1,0.9999999999999999,-0.5235987755982988,0.5235987755982988,0,0.82859087,-0.7840821,-2.6761487,0.8814971,-1.0532055,1.2427348,-1.2648915,0.1977044,-0.64501923,-3.1131246,0.5218116,0.54166704,1.2641534,-1.0236288
0.0,-0.1,0.9999999999999999,-0.5235987755982988,0.5235987755982988,0,0.79855037,-0.7599334,-2.6623807,0.87884337,-0.9621302,1.2195519,-1.0610077,0.20948894,-0.6403906,-3.0803096,0.53658,0.34386814,1.2226739,-0.49158585
0.0,-0.1,0.9999999999999999,-0.5235987755982988,0.5235987755982988,0,0.8619793,-0.75424236,-2.6858785,0.8490708,-0.98100096,1.2175071,-1.2087951,0.22059746,-0.6454053,-3.078917,0.5377882,0.5325249,1.1430448,-0.26133484
0.0,-0.1,0.9999999999999999,-0.5235987755982988,0.5235987755982988,0,0.7759212,-0.7451906,-2.6801128,0.8402003,-1.0049688,1.2525921,-1.1405011,0.20728078,-0.64820653,-3.0819004,0.5597985,0.54464304,1.2243198,-1.0340024
0.0,-0.1,0.9999999999999999,-0.5235987755982988,0.5235987755982988,0,0.8009513,-0.75781643,-2.7041717,0.8337726,-1.0796273,1.1693776,-0.83022517,0.21487197,-0.64652526,-3.0751984,0.51858455,0.29766947,1.3127354,0.26395187
0.0,-0.1,0.9999999999999999,-0.5235987755982988,0.5235987755982988,0,0.8187183,-0.765055,-2.691528,0.8728905,-1.0078584,1.2038298,-0.70786655,0.23528118,-0.64677024,-3.078088,0.52103025,0.31169125,1.3206373,-0.31884503
0.0,-0.1,0.9999999999999999,-0.5235987755982988,0.5235987755982988,0,0.8182003,-0.7412045,-2.6600885,0.8560013,-1.0326443,1.1768775,-1.8776377,0.1892787,-0.65510386,-3.0676537,0.5230338,0.69658905,1.2774856,-0.21896882
0.0,-0.1,0.9999999999999999,-0.5235987755982988,0.5235987755982988,0,0.80345833,-0.7404264,-2.6751375,0.8757539,-1.0629841,1.2142652,-1.3371124,0.20727094,-0.6622589,-3.0973473,0.49240613,0.88920766,1.1042781,-1.4288293
0.0,-0.1,0.9999999999999999,-0.5235987755982988,0.5235987755982988,0,0.8459977,-0.71955377,-2.6535866,0.84141105,-1.0286392,1.2003506,-0.53043467,0.2092634,-0.6621944,-3.1037126,0.57450044,0.7501166,1.280765,0.024993278
0.0,-0.1,0.9999999999999999,-0.5235987755982988,0.5235987755982988,0,0.7678147,-0.7571177,-2.6677146,0.82188636,-1.0218956,1.2389096,-1.2269535,0.19432314,-0.6416165,-3.0931787,0.5234631,1.0347724,0.7803377,-1.9356351
0.0,-0.1,0.9999999999999999,-0.5235987755982988,0.5235987755982988,0,0.83703136,-0.7646192,-2.6732411,0.8673543,-1.0296005,1.2185973,-0.9019984,0.20418058,-0.67522436,-3.0708256,0.5248751,0.5714635,1.3802521,-1.0431764
0.0,-0.1,0.9999999999999999,-0.5235987755982988,0.5235987755982988,0,0.80437136,-0.7623046,-2.6666715,0.8478694,-0.9654584,1.1974154,-1.2542542,0.21972398,-0.63780063,-3.1073508,0.5409992,0.8179016,1.3354422,-0.636473
0.0,-0.1,0.9999999999999999,-0.5235987755982988,0.5235987755982988,0,0.7953552,-0.78075844,-2.6316578,0.89514065,-1.074394,1.2155234,-0.97992676,0.19832553,-0.65494895,-3.0956852,0.53124535,0.63197786,1.2918873,0.16654782
0.0,-0.1,0.9999999999999999,-0.5235987755982988,0.5235987755982988,0,0.8233996,-0.79009295,-2.676876,0.8456868,-1.0415686,1.2427855,-0.91805816,0.21985108,-0.6589772,-3.1250253,0.525662,0.48936883,1.3188276,-1.4221505
0.0,-0.1,0.9999999999999999,-0.5235987755982988,0.5235987755982988,0,0.82434267,-0.758399,-2.646005,0.8653783,-1.0031995,1.2262074,-0.91832054,0.2158084,-0.63643575,-3.0946958,0.51955783,0.5789132,1.4436971,-1.715935
0.0,-0.1,0.9999999999999999,-0.5235987755982988,0.5235987755982988,0,0.85615057,-0.7566773,-2.66446,0.85970575,-1.0980779,1.1979511,-1.642209,0.19031234,-0.6572903,-3.0297022,0.5017522,0.40498248,1.4979917,-0.33609697
0.0,-0.1,0.9999999999999999,-0.5235987755982988,0.5235987755982988,0,0.7888782,-0.73838866,-2.7141602,0.8593969,-1.0069062,1.204852,-0.6032512,0.18166782,-0.6533345,-3.0421727,0.5525856,0.5300852,1.075685,1.6512225
0.0,-0.1,0.9999999999999999,-0.5235987755982988,0.5235987755982988,0,0.8148088,-0.75060296,-2.6428185,0.86348945,-1.0466527,1.2225144,-1.1871246,0.20842715,-0.66576535,-3.1272268,0.51218367,0.51745224,1.2144681,-0.5146599
0.0,-0.1,0.9999999999999999,-0.5235987755982988,0.5235987755982988,0,0.80461013,-0.7732129,-2.6521235,0.87926275,-1.0244329,1.2287285,-0.89398587,0.23082946,-0.65287536,-3.0999088,0.5142912,0.7985632,1.2594194,-2.175099
0.0,-0.1,0.9999999999999999,-0.5235987755982988,0.5235987755982988,0,0.8597565,-0.78184235,-2.6986647,0.8432484,-1.0190285,1.2092049,-0.92451537,0.18912743,-0.6578259,-3.04412,0.5286877,0.8099762,1.0691341,-0.17446123
0.0,-0.1,0.9999999999999999,-0.5235987755982988,0.5235987755982988,0,0.8379559,-0.7623933,-2.7023392,0.8327485,-1.0661838,1.2314322,-1.0566581,0.19291179,-0.6416537,-3.0906122,0.49855307,0.88555205,1.2838678,-1.1654574
0.0,-0.1,0.9999999999999999,-0.5235987755982988,0.5235987755982988,0,0.83981323,-0.80048734,-2.722985,0.85092515,-1.0012753,1.2085468,-1.2614422,0.19861382,-0.64639026,-3.0845637,0.5272809,0.45506936,1.0944008,-0.6511126
0.0,-0.1,0.9999999999999999,-0.5235987755982988,0.5235987755982988,0,0.84729075,-0.7634502,-2.6533582,0.87955153,-1.0272226,1.227181,-1.098219,0.21257213,-0.63748175,-3.077539,0.5111813,0.28067812,1.2639992,0.23672211
0.0,-0.1,0.9999999999999999,-0.5235987755982988,0.5235987755982988,0,0.7966332,-0.76622224,-2.6755962,0.8684432,-1.0593271,1.1992713,-1.113045,0.20979156,-0.6362841,-3.058339,0.5495779,0.4978137,1.3823205,0.9980363
0.0,-0.1,0.9999999999999999,-0.5235987755982988,0.5235987755982988,0,0.82612544,-0.7483829,-2.6656442,0.8865526,-1.0311341,1.2082411,-1.1684602,0.18712084,-0.65728915,-3.0698388,0.5460992,0.71284336,1.4858956,-1.4525497
0.0,-0.1,0.9999999999999999,-0.5235987755982988,0.5235987755982988,0,0.798253,-0.7618983,-2.7130306,0.8430732,-1.0222104,1.2254076,-0.96292096,0.19570576,-0.66622686,-3.090627,0.54907703,0.6124356,1.3055887,0.14083575
0.0,-0.1,0.9999999999999999,-0.5235987755982988,0.5235987755982988,0,0.84059656,-0.73934263,-2.7352715,0.84549814,-1.0182986,1.2237272,-0.7392578,0.18011788,-0.6765117,-3.0832982,0.5294401,0.26881975,1.3104302,-0.14526054
0.0,-0.1,0.9999999999999999,-0.5235987755982988,0.5235987755982988,0,0.79759365,-0.76792663,-2.7293382,0.82274175,-0.9882728,1.2336162,-0.6756551,0.22034289,-0.6582209,-3.105194,0.5296837,0.6883401,1.365212,-1.7161796
0.0,-0.1,0.9999999999999999,-0.5235987755982988,0.5235987755982988,0,0.8654477,-0.7559713,-2.6818943,0.855826,-0.9966209,1.2025492,-0.70306706,0.215386,-0.6696935,-3.090016,0.50231797,0.97060305,1.1655403,0.607017
0.0,-0.1,0.9999999999999999,-0.5235987755982988,0.5235987755982988,0,0.7807401,-0.77466106,-2.716933,0.8394809,-0.9774475,1.2345759,-0.44711483,0.19119686,-0.6429724,-3.1080291,0.5525824,1.0750211,1.2228712,0.96239084
0.0,-0.1,0.9999999999999999,-0.5235987755982988,0.5235987755982988,0,0.7736311,-0.7535091,-2.6706784,0.8714326,-1.0599871,1.2316083,-0.93500954,0.2179509,-0.66487724,-3.062871,0.5311961,0.39274797,1.4009053,0.005146691
0.0,-0.1,0.9999999999999999,-0.5235987755982988,0.5235987755982988,0,0.8717601,-0.7502389,-2.7391548,0.84915674,-1.0075349,1.231002,-1.2995304,0.19021527,-0.6531106,-3.110552,0.5146926,0.6310871,1.1355622,-1.1467451
0.0,-0.1,0.9999999999999999,-0.5235987755982988,0.5235987755982988,0,0.81286836,-0.7761493,-2.6660156,0.8163811,-1.0150583,1.2110194,-1.1211869,0.22472632,-0.6683369,-3.0679622,0.5416242,0.6736162,1.3990544,0.32446682
0.0,-0.1,0.9999999999999999,-0.5235987755982988,0.5235987755982988,0,0.80313295,-0.703977,-2.677137,0.8683617,-1.0556726,1.2232604,-0.8046849,0.23289005,-0.6410643,-3.0664504,0.5487835,0.8360776,0.9993041,0.092183225
0.0,-0.1,0.9999999999999999,-0.5235987755982988,0.5235987755982988,0,0.79673016,-0.7573447,-2.6639512,0.85357904,-1.0302584,1.197964,-0.52368456,0.21780534,-0.65745467,-3.0636263,0.5653102,0.5533628,1.1028364,0.2592684
0.0,-0.1,0.9999999999999999,-0.5235987755982988,0.5235987755982988,0,0.868682,-0.7346705,-2.648716,0.8629936,-0.99878174,1.2240293,-1.0986719,0.2021935,-0.65504646,-3.0789747,0.5577137,0.3689111,1.3897717,0.7125877
0.0,-0.1,0.9999999999999999,-0.5235987755982988,0.5235987755982988,0,0.858154,-0.7636154,-2.6977065,0.8665506,-1.0314628,1.2121539,-0.90650105,0.2049434,-0.65557736,-3.1284752,0.5487907,0.6407836,0.7812462,-0.07373116
0.0,-0.1,0.9999999999999999,-0.5235987755982988,0.5235987755982988,0,0.8218771,-0.81441593,-2.665857,0.8482481,-1.0815036,1.2110572,-0.6367475,0.2120724,-0.6644193,-3.0956576,0.55130774,0.82190454,1.4702009,-2.118777
0.0,-0.1,0.9999999999999999,-0.5235987755982988,0.5235987755982988,0,0.80831736,-0.7608073,-2.6654842,0.84421676,-1.0097576,1.2228959,-1.4922607,0.19934607,-0.65713084,-3.1078305,0.5264918,0.3910888,1.2477175,1.4291133
0.0,-0.1,0.9999999999999999,-0.5235987755982988,0.5235987755982988,0,0.79941285,-0.7640072,-2.7310271,0.87130344,-0.9854142,1.2242044,-1.0515276,0.19382596,-0.63953286,-3.1031547,0.5416978,0.74739397,1.1625394,0.18475269
0.0,-0.1,0.9999999999999999,-0.5235987755982988,0.5235987755982988,0,0.83287615,-0.7397906,-2.6674533,0.85563654,-0.9984067,1.2324076,-1.1730202,0.22297941,-0.6606596,-3.1048048,0.52804554,0.50343186,1.0636888,-0.52244854
0.0,-0.1,0.9999999999999999,-0.5235987755982988,0.5235987755982988,0,0.8221921,-0.7399025,-2.6601865,0.8676904,-0.9879579,1.2657298,-0.744965,0.22030391,-0.6482659,-3.1002676,0.54719657,0.62819034,1.2875975,0.466194
0.0,-0.1,0.9999999999999999,-0.5235987755982988,0.5235987755982988,0,0.8072221,-0.7687241,-2.6788871,0.8563322,-1.0911087,1.2227694,-1.2087414,0.23832263,-0.6603251,-3.0945568,0.50781953,0.32434925,1.4633728,0.12002962
0.0,-0.1,0.9999999999999999,-0.5235987755982988,0.5235987755982988,0,0.84244514,-0.72194487,-2.6820621,0.8408623,-0.995306,1.2546682,-0.947975,0.19763395,-0.67818505,-3.08631,0.5647644,0.5443272,1.169573,0.6588799
0.0,-0.1,0.9999999999999999,-0.5235987755982988,0.5235987755982988,0,0.83743274,-0.77772987,-2.6613297,0.8715322,-0.9940512,1.1938975,-1.0786685,0.22175415,-0.65553457,-3.057788,0.55848825,0.3702802,1.1044445,0.6665478
0.0,-0.1,0.9999999999999999,-0.5235987755982988,0.5235987755982988,0,0.8266077,-0.7546004,-2.6654387,0.8429155,-1.0652,1.2217277,-0.89423674,0.22513908,-0.66381085,-3.1067312,0.5413871,0.41667405,1.1055871,1.8638107
0.0,-0.1,0.9999999999999999,-0.5235987755982988,0.5235987755982988,0,0.77310133,-0.7463413,-2.6630828,0.8456387,-1.0681143,1.220258,-1.2598004,0.20218779,-0.6485609,-3.1268501,0.5384361,0.5607986,0.9995625,1.2408806
0.0,-0.1,0.9999999999999999,-0.5235987755982988,0.5235987755982988,0,0.84784037,-0.7431097,-2.6899989,0.8810303,-1.0838454,1.2244914,-1.0628954,0.20952551,-0.64053047,-3.074145,0.5247805,0.6820768,1.1574641,-1.1325334
0.0,-0.1,0.9999999999999999,-0.5235987755982988,0.5235987755982988,0,0.8471012,-0.7279313,-2.6761491,0.84427047,-0.97215235,1.2192318,-1.0084114,0.1779958,-0.6683323,-3.0858326,0.51876414,0.5119094,1.3111076,0.77595854
0.0,-0.1,0.9999999999999999,-0.5235987755982988,0.5235987755982988,0,0.8417961,-0.73096347,-2.6965296,0.83198893,-1.0827239,1.2105072,-0.80852866,0.18892808,-0.6613405,-3.1125176,0.55616075,0.47038674,0.9648091,-0.4464353
0.0,-0.1,0.9999999999999999,-0.5235987755982988,0.5235987755982988,0,0.8425006,-0.7230334,-2.6700475,0.8412214,-1.0223699,1.2490679,-1.1752198,0.21414101,-0.63768077,-3.1330795,0.5524465,0.58073217,1.169014,0.9209069
0.0,-0.1,0.9999999999999999,-0.5235987755982988,0.5235987755982988,0,0.8560327,-0.76327664,-2.6998045,0.85439265,-1.0642681,1.2161695,-1.4749558,0.19063412,-0.6670967,-3.0945663,0.49855044,0.42677718,1.4549818,1.1294283
0.0,-0.1,0.9999999999999999,-0.5235987755982988,0.5235987755982988,0,0.8462351,-0.75010747,-2.7075303,0.82468015,-1.0381492,1.2039682,-1.3532245,0.1928157,-0.6262007,-3.08682,0.5052551,0.6659026,1.4122168,-0.2544742
0.0,-0.1,0.9999999999999999,-0.5235987755982988,0.5235987755982988,0,0.8438463,-0.7483283,-2.6771367,0.87551856,-0.9794311,1.2437658,-1.2159185,0.21000627,-0.6404869,-3.0330353,0.5307612,0.7591748,0.97539544,0.2150866
0.0,-0.1,0.9999999999999999,-0.5235987755982988,0.5235987755982988,0,0.82213867,-0.76267236,-2.6600382,0.86022776,-1.0864891,1.2313011,-1.4574531,0.18746379,-0.6214309,-3.0500014,0.5564122,0.24871244,1.3219398,-0.5216644
0.0,-0.1,0.9999999999999999,-0.5235987755982988,0.5235987755982988,0,0.8402516,-0.7880591,-2.709228,0.86325324,-1.0447361,1.2246494,-1.1027073,0.2114598,-0.6542109,-3.0779846,0.53476924,0.76158404,1.1968849,-1.2430339
0.0,-0.1,0.9999999999999999,-0.5235987755982988,0.5235987755982988,0,0.863741,-0.73444873,-2.6840837,0.88854086,-1.0166267,1.2103721,-0.9474008,0.19114907,-0.6591575,-3.0645545,0.5283248,0.90419465,1.2520573,0.27432328
0.0,-0.1,0.9999999999999999,-0.5235987755982988,0.5235987755982988,0,0.8318024,-0.7134457,-2.6827097,0.8431075,-0.94366086,1.2462974,-0.65370774,0.20935123,-0.6536629,-3.0575516,0.50477594,0.44072026,1.3513018,0.94795096
0.0,-0.1,0.9999999999999999,-0.5235987755982988,0.5235987755982988,0,0.76248753,-0.7975586,-2.712061,0.8623152,-1.015029,1.1739117,-1.0416554,0.19593333,-0.672109,-3.1115859,0.5261267,0.81361216,1.3196055,0.6542858
0.0,-0.1,0.9999999999999999,-0.5235987755982988,0.5235987755982988,0,0.83346367,-0.7245226,-2.7154279,0.82826513,-1.0655409,1.1870334,-1.0286733,0.22276878,-0.6623911,-3.094547,0.5224087,0.5559846,1.4658986,-0.90934014
0.0,-0.1,0.9999999999999999,-0.5235987755982988,0.5235987755982988,0,0.84261733,-0.7355198,-2.673654,0.86849654,-1.0079876,1.2393036,-0.98121554,0.21173726,-0.66415244,-3.12864,0.5564691,0.15558445,1.2306012,0.6049522
0.0,-0.1,0.9999999999999999,-0.5235987755982988,0.5235987755982988,0,0.8423867,-0.73962307,-2.688516,0.841684,-1.0833539,1.20061,-1.3158734,0.2019419,-0.6479244,-3.047649,0.5323958,0.4408392,0.8198935,0.865178
0.0,-0.1,0.9999999999999999,-0.5235987755982988,0.5235987755982988,0,0.8274024,-0.75724566,-2.6692967,0.82519937,-1.0441413,1.2329001,-0.9182032,0.20178509,-0.6468443,-3.057184,0.52813023,0.7401685,1.1518312,-1.0156293
0.0,-0.1,0.9999999999999999,-0.5235987755982988,0.5235987755982988,0,0.87076664,-0.73890674,-2.6755066,0.83514243,-1.06558,1.1710874,-0.5346942,0.1856664,-0.66001785,-3.1043856,0.5459213,0.67019796,1.2301533,0.03414203
0.0,-0.1,0.9999999999999999,-0.5235987755982988,0.5235987755982988,0,0.80349505,-0.73220485,-2.6556778,0.8552813,-1.0798686,1.2402236,-1.0628422,0.21237546,-0.6841343,-3.0787976,0.49955553,0.59950674,1.1829163,0.17514259
0.0,-0.1,0.9999999999999999,-0.5235987755982988,0.5235987755982988,0,0.83665925,-0.7716638,-2.6714106,0.8386712,-1.009286,1.2264637,-0.6081827,0.19616601,-0.6536924,-3.0780232,0.54123604,0.38101918,1.1210726,1.0173033
0.0,-0.1,0.9999999999999999,-0.5235987755982988,0.5235987755982988,0,0.8215205,-0.7798008,-2.6856308,0.85455704,-0.99469763,1.196983,-1.2528518,0.21193278,-0.64990485,-3.0975618,0.5381558,0.56422246,1.2739289,-0.43037918
0.0,-0.1,0.9999999999999999,-0.5235987755982988,0.5235987755982988,0,0.8068533,-0.7904752,-2.6862626,0.87772894,-1.0139835,1.2088645,-0.9499654,0.22108398,-0.6600793,-3.0860398,0.5226592,0.3266472,0.93161744,-0.20446797
0.0,-0.1,0.9999999999999999,-0.5235987755982988,0.5235987755982988,0,0.8180326,-0.7405494,-2.656534,0.8461268,-1.0139384,1.2205073,-1.5318745,0.20677169,-0.6510991,-3.040261,0.51989067,0.55858463,1.3905425,0.82650834
0.0,-0.1,0.9999999999999999,-0.5235987755982988,0.5235987755982988,0,0.7911357,-0.7615114,-2.691458,0.8732226,-1.0844128,1.2206973,-0.717708,0.20508689,-0.63891107,-3.0847864,0.5365301,0.45918185,1.2372007,-0.70464885
0.0,-0.1,0.9999999999999999,-0.5235987755982988,0.5235987755982988,0,0.8082562,-0.7608971,-2.6520522,0.87557554,-1.0152757,1.2378963,-0.9065572,0.20341751,-0.6543487,-3.1051579,0.5444201,0.33776414,1.449323,0.7124708
0.0,-0.1,0.9999999999999999,-0.5235987755982988,0.5235987755982988,0,0.85645217,-0.7394287,-2.6980076,0.88921463,-1.0189488,1.237093,-0.7497743,0.22538711,-0.65114087,-3.0686045,0.5481622,0.55418223,1.5244125,-1.4475257
0.0,-0.1,0.9999999999999999,-0.5235987755982988,0.5235987755982988,0,0.8333168,-0.783717,-2.7038915,0.87038136,-1.0900773,1.255197,-0.8448166,0.21684813,-0.6591274,-3.05865,0.56565946,0.54121506,1.3507607,0.6304792
0.0,-0.1,0.9999999999999999,-0.5235987755982988,0.5235987755982988,0,0.79725647,-0.7395833,-2.697107,0.85865885,-1.012634,1.2188663,-1.2820084,0.19338828,-0.6725097,-3.0675118,0.44025683,0.6728326,1.1936828,-0.5876494
0.0,-0.1,0.9999999999999999,-0.5235987755982988,0.5235987755982988,0,0.86189413,-0.7605446,-2.6673226,0.8665383,-0.96097326,1.2273961,-1.5229888,0.22326458,-0.6544417,-3.0617185,0.56247205,0.5850365,1.1982265,-1.3342298
0.0,-0.1,0.9999999999999999,-0.5235987755982988,0.5235987755982988,0,0.86800736,-0.7440021,-2.7284632,0.84069234,-1.0909989,1.2081223,-1.0651119,0.20488812,-0.6429492,-3.0705686,0.56227744,0.78008604,1.2326612,1.6593367
0.0,-0.1,0.9999999999999999,-0.5235987755982988,0.5235987755982988,0,0.8122013,-0.7971557,-2.713101,0.8651096,-0.9854485,1.220844,-1.1258531,0.20729299,-0.65520346,-3.0980978,0.5242364,0.55749834,1.1298585,-0.06631548
0.0,-0.1,0.9999999999999999,-0.5235987755982988,0.5235987755982988,0,0.85963726,-0.7892349,-2.6897018,0.85523146,-1.0916433,1.2404896,-1.4690164,0.22496,-0.6457135,-3.0499117,0.53151083,0.87262106,1.484842,1.32085
0.0,-0.1,0.9999999999999999,-0.5235987755982988,0.5235987755982988,0,0.8509555,-0.78008044,-2.6821759,0.8533881,-1.0188637,1.2110448,-1.2754066,0.19715802,-0.6469497,-3.1093593,0.539456,0.57907367,1.3516518,0.2004737
0.0,-0.1,0.9999999999999999,-0.5235987755982988,0.5235987755982988,0,0.8125862,-0.73844063,-2.6367521,0.8547321,-1.0183231,1.2362176,-1.3741956,0.21528985,-0.66850996,-3.11018,0.54979473,0.61138403,1.355085,-0.35792404
0.0,-0.1,0.9999999999999999,-0.5235987755982988,0.5235987755982988,0,0.80307,-0.7796846,-2.6700103,0.88331133,-1.0004487,1.2430811,-1.0882299,0.21119171,-0.64875346,-3.0914361,0.5362054,0.7107934,1.435784,-0.35000882
0.0,-0.1,0.9999999999999999,-0.5235987755982988,0.5235987755982988,0,0.8375054,-0.68405944,-2.6771903,0.86918896,-1.0468218,1.229095,-0.8193911,0.2054897,-0.6514744,-3.094518,0.5141559,0.55993795,1.2355527,0.4597877
0.0,-0.1,0.9999999999999999,-0.5235987755982988,0.5235987755982988,0,0.8193244,-0.7527393,-2.692395,0.85946834,-1.0154277,1.2197216,-0.7972347,0.2173144,-0.6300875,-3.0878737,0.53605765,0.41825527,1.1430757,0.3011017
0.0,-0.1,0.9999999999999999,-0.5235987755982988,0.5235987755982988,0,0.8667398,-0.7520195,-2.7166727,0.8342952,-1.0388665,1.2227659,-1.4645444,0.20272166,-0.64509535,-3.098527,0.5312279,0.6762758,1.1141309,0.4910125
0.0,-0.1,0.9999999999999999,-0.5235987755982988,0.5235987755982988,0,0.7937575,-0.76877993,-2.7023964,0.8682563,-1.0446341,1.219104,-0.92157394,0.19028416,-0.6474222,-3.1046774,0.55075073,0.5090682,1.2553854,0.8677727
0.0,-0.1,0.9999999999999999,-0.5235987755982988,0.5235987755982988,0,0.85837585,-0.77679944,-2.6713727,0.82422835,-0.9512415,1.2052925,-0.68704456,0.2046757,-0.6332186,-3.1028714,0.52039856,0.4623408,1.2873142,-0.47356987
0.0,-0.1,0.9999999999999999,-0.5235987755982988,0.5235987755982988,0,0.80413795,-0.7538864,-2.7112086,0.84278226,-0.965636,1.1971648,-1.4647881,0.18126525,-0.64904344,-3.0634534,0.5323865,0.4450102,1.2267268,-0.0509714
0.0,-0.1,0.9999999999999999,-0.5235987755982988,0.5235987755982988,0,0.8600131,-0.73661023,-2.6671267,0.84945875,-1.0069325,1.23251,-0.70858586,0.21294695,-0.64812666,-3.1178362,0.51895344,0.48571134,1.075217,-0.9981401
0.0,-0.1,0.9999999999999999,-0.5235987755982988,0.5235987755982988,0,0.82302135,-0.72992027,-2.6985695,0.853044,-1.0350658,1.2312963,-0.87648946,0.24517272,-0.66666365,-3.125655,0.5064028,0.41162023,1.5394562,-0.13884385
0.0,-0.1,0.9999999999999999,-0.5235987755982988,0.5235987755982988,0,0.80853,-0.73543334,-2.6880667,0.8568846,-0.98234606,1.222244,-1.365202,0.20508653,-0.63993454,-3.1263294,0.53577006,0.71055686,1.42259,0.85123754
0.0,-0.1,0.9999999999999999,-0.5235987755982988,0.5235987755982988,0,0.8611811,-0.78156465,-2.6685734,0.86998373,-0.95987034,1.2322152,-0.91915405,0.21321903,-0.65039927,-3.0984912,0.53281367,0.50046825,1.2532269,-0.5156122
0.0,-0.1,0.9999999999999999,-0.5235987755982988,0.5235987755982988,0,0.78650284,-0.7597524,-2.6706765,0.8451563,-1.036069,1.2517961,-1.1204401,0.21548307,-0.66975325,-3.131855,0.5309121,0.3325304,0.9362565,-1.0177556
0.0,-0.1,0.9999999999999999,-0.5235987755982988,0.5235987755982988,0,0.7971264,-0.7759377,-2.629983,0.85782444,-0.9716491,1.2142174,-1.0990216,0.19443409,-0.67401063,-3.066658,0.5453908,0.4849546,0.7874844,-0.04734009
0.0,-0.1,0.9999999999999999,-0.5235987755982988,0.5235987755982988,0,0.8054295,-0.7422741,-2.6948001,0.8223951,-1.0185385,1.2202117,-0.8409146,0.22698091,-0.6452852,-3.0896988,0.5187714,0.3811851,1.3803862,-0.8710473
0.0,-0.1,0.9999999999999999,-0.5235987755982988,0.5235987755982988,0,0.8584614,-0.77873844,-2.6190066,0.8548673,-1.0450935,1.2451824,-0.86625373,0.24022152,-0.65455574,-3.0748003,0.548358,0.84854645,0.9998651,-0.25193545
0.0,-0.1,0.9999999999999999,-0.5235987755982988,0.5235987755982988,0,0.8066044,-0.7029235,-2.6884458,0.8740325,-1.0581868,1.1961528,-1.0241572,0.1997191,-0.6361197,-3.0995097,0.54509795,0.44242442,1.2302395,-1.3185248
0.0,-0.1,0.9999999999999999,-0.5235987755982988,0.5235987755982988,0,0.7818286,-0.7564082,-2.6876044,0.88401586,-1.0349433,1.2213141,-1.1776255,0.21357115,-0.64584553,-3.129094,0.51537687,0.55079335,1.116972,1.3538597
0.0,-0.1,0.9999999999999999,-0.5235987755982988,0.5235987755982988,0,0.80944186,-0.76238227,-2.6538186,0.8608654,-1.0412403,1.2262232,-1.0075433,0.19216089,-0.6395188,-3.1013165,0.5275914,0.32457244,1.3238755,0.2487834
0.0,-0.1,0.9999999999999999,-0.5235987755982988,0.5235987755982988,0,0.8704418,-0.7585646,-2.724824,0.88234127,-1.038986,1.1947342,-1.0440251,0.1926497,-0.6457994,-3.090481,0.5357043,0.5647463,1.1879654,0.8731833
0.0,-0.1,0.9999999999999999,-0.5235987755982988,0.5235987755982988,0,0.8102009,-0.80285364,-2.680922,0.8659222,-0.9694734,1.1876646,-1.549052,0.20119366,-0.6499174,-3.0887368,0.54069954,0.36917755,0.9562122,1.5798287
0.0,-0.1,0.9999999999999999,-0.5235987755982988,0.5235987755982988,0,0.8386152,-0.73601234,-2.7311187,0.8655919,-1.019287,1.2259175,-1.0366305,0.21311392,-0.650828,-3.1145422,0.5039361,0.7590688,1.1783718,-0.674883
0.0,-0.1,0.9999999999999999,-0.5235987755982988,0.5235987755982988,0,0.8020307,-0.7513057,-2.7260084,0.8609729,-1.0496812,1.2112341,-0.8917695,0.20559448,-0.6595784,-3.0544906,0.542603,0.6107705,1.4093333,0.8424089
0.0,-0.1,0.9999999999999999,-0.5235987755982988,0.5235987755982988,0,0.786216,-0.73961425,-2.6729186,0.85946685,-0.9880284,1.2033192,-1.6578518,0.21202733,-0.6568951,-3.106984,0.5403654,0.5763367,0.88593614,1.8496221
0.0,-0.1,0.9999999999999999,-0.5235987755982988,0.5235987755982988,0,0.789952,-0.7753218,-2.6533253,0.85456145,-1.0048262,1.2502686,-0.47241455,0.22093628,-0.6549033,-3.069347,0.5258702,0.5453207,1.2147318,-0.9924834
0.0,-0.1,0.9999999999999999,-0.5235987755982988,0.5235987755982988,0,0.8373685,-0.7853383,-2.6492927,0.8436277,-1.0833838,1.2514433,-0.82689106,0.24177185,-0.6457272,-3.0703905,0.5200537,0.37324336,1.3114275,0.607465
0.0,-0.1,0.9999999999999999,-0.5235987755982988,0.5235987755982988,0,0.8075417,-0.7802479,-2.7004588,0.8371488,-1.015558,1.2105256,-1.3206233,0.20602724,-0.6443927,-3.0790575,0.5337592,0.6410151,1.2880718,0.010305281
0.0,-0.1,0.9999999999999999,-0.5235987755982988,0.5235987755982988,0,0.8336722,-0.7826266,-2.6895494,0.8760785,-1.0384176,1.2134017,-1.4869934,0.21108286,-0.653153,-3.1338441,0.5534533,0.5553281,1.271497,-0.42027712
0.0,-0.1,0.9999999999999999,-0.5235987755982988,0.5235987755982988,0,0.83417046,-0.74480104,-2.6462464,0.8603577,-1.0267055,1.2128239,-1.7288578,0.20333864,-0.6503291,-3.0855792,0.535014,0.5573117,1.2479945,-0.633675
0.0,-0.1,0.9999999999999999,-0.5235987755982988,0.5235987755982988,0,0.8126346,-0.7672533,-2.6853957,0.84779704,-0.9797538,1.2060777,-1.9813234,0.1941773,-0.63318235,-3.061277,0.54180825,0.9390762,0.99689287,2.2778254
0.0,-0.1,0.9999999999999999,-0.5235987755982988,0.5235987755982988,0,0.81921047,-0.7611597,-2.6930068,0.85911554,-1.0128505,1.2358156,-0.6690673,0.19177337,-0.64335394,-3.070794,0.53287095,0.6417465,1.3103058,-1.2504486
0.0,-0.1,0.9999999999999999,-0.5235987755982988,0.5235987755982988,0,0.8343376,-0.7887669,-2.6609833,0.8301286,-1.0371734,1.1917672,-1.0349883,0.22194071,-0.6455696,-3.1020348,0.531786,0.3845591,1.1768123,1.1621321
0.0,-0.1,0.9999999999999999,-0.5235987755982988,0.5235987755982988,0,0.87374246,-0.76517123,-2.696602,0.8500582,-1.0069054,1.241872,-1.5341418,0.21572365,-0.67760545,-3.0699568,0.5081886,0.5523169,1.2934139,0.20101623
0.0,-0.1,0.9999999999999999,-0.5235987755982988,0.5235987755982988,0,0.8275398,-0.76319754,-2.6869838,0.85043675,-1.068963,1.2323852,-0.9953183,0.240304,-0.6463848,-3.0613153,0.51152337,0.36106655,1.5254934,0.055631895
0.0,-0.1,0.9999999999999999,-0.5235987755982988,0.5235987755982988,0,0.79816335,-0.7346036,-2.6823962,0.86040914,-1.0806257,1.2265536,-1.3059843,0.20283309,-0.63620985,-3.0769913,0.5463898,0.4971427,1.2406207,0.5191245
0.0,-0.1,0.9999999999999999,-0.5235987755982988,0.5235987755982988,0,0.845917,-0.765136,-2.6889536,0.86477435,-0.93794304,1.1931827,-1.171278,0.21353132,-0.6416147,-3.1066148,0.50971395,0.47107512,1.3067844,0.10221385
0.0,-0.1,0.9999999999999999,-0.5235987755982988,0.5235987755982988,0,0.83955216,-0.7702513,-2.659164,0.8735357,-1.0010055,1.2059798,-0.49093997,0.19868979,-0.64196926,-3.0584946,0.5413175,0.41803357,1.426929,-0.49018356
0.0,-0.1,0.9999999999999999,-0.5235987755982988,0.5235987755982988,0,0.8243161,-0.7907362,-2.6728256,0.8534485,-1.0292927,1.256084,-1.1763773,0.2042584,-0.66569465,-3.078076,0.55157775,0.5111833,1.2876649,-0.82879364
0.0,-0.1,0.9999999999999999,-0.5235987755982988,0.5235987755982988,0,0.8251236,-0.7109101,-2.6848323,0.8676636,-1.0254202,1.2080636,-1.2365135,0.23276156,-0.6495727,-3.0905347,0.50614125,0.42321852,1.3276443,-1.3947848
0.0,-0.1,0.9999999999999999,-0.5235987755982988,0.5235987755982988,0,0.8244838,-0.75021595,-2.6463501,0.87137365,-0.99275833,1.1899716,-1.0045073,0.18718956,-0.64842534,-3.0749865,0.49966457,0.45554662,1.4661448,-0.5043198
0.0,-0.1,0.9999999999999999,-0.5235987755982988,0.5235987755982988,0,0.8353063,-0.73772436,-2.7359593,0.83490175,-1.0301687,1.2210985,-1.4971491,0.2220695,-0.6829826,-3.1086836,0.50149024,0.64691085,1.3036056,1.1708378
0.0,-0.1,0.9999999999999999,-0.5235987755982988,0.5235987755982988,0,0.8144215,-0.6779272,-2.695978,0.85650384,-0.97935724,1.2281374,-0.48483604,0.21950534,-0.65715367,-3.1031184,0.52386767,0.84603065,1.0984242,-0.6536114
0.0,-0.1,0.9999999999999999,-0.5235987755982988,0.5235987755982988,0,0.82521284,-0.78779507,-2.6572495,0.85323584,-1.1126308,1.2237896,-0.6273958,0.2168993,-0.66596967,-3.0717564,0.5073123,0.3656094,1.2962598,-0.40022492
0.0,-0.1,0.9999999999999999,-0.5235987755982988,0.5235987755982988,0,0.82045513,-0.80877715,-2.6561832,0.86047226,-1.0564579,1.220383,-1.1068715,0.21243042,-0.65822965,-3.0654082,0.5530433,0.43665293,1.0885276,-1.1394968
0.0,-0.1,0.9999999999999999,-0.5235987755982988,0.5235987755982988,0,0.7990846,-0.7396494,-2.6867783,0.8495579,-1.0575744,1.2154409,-0.972931,0.2152062,-0.64236456,-3.1123252,0.5480091,0.5056088,1.0936185,0.019040858
0.0,-0.1,0.9999999999999999,-0.5235987755982988,0.5235987755982988,0,0.79455435,-0.7252527,-2.6569655,0.87930244,-1.0448734,1.2186593,-1.0348425,0.2109596,-0.67144215,-3.074427,0.47964382,0.73888487,1.3012024,-0.35923252
0.0,-0.1,0.9999999999999999,-0.5235987755982988,0.5235987755982988,0,0.82064456,-0.79800963,-2.6629207,0.86898786,-1.015028,1.2122774,-1.4399126,0.19703446,-0.6576254,-3.0937316,0.55121684,0.41195866,1.411461,0.310629
0.0,-0.1,0.9999999999999999,-0.5235987755982988,0.5235987755982988,0,0.7861923,-0.75447285,-2.6932347,0.8538283,-1.0420713,1.1936263,-0.50327796,0.19913723,-0.6592506,-3.0909836,0.522483,0.5196335,1.4591436,0.7550845
0.0,-0.1,0.9999999999999999,-0.5235987755982988,0.5235987755982988,0,0.7600968,-0.7616951,-2.6697583,0.8520079,-1.0103142,1.2301021,-1.3541193,0.21290655,-0.64364314,-3.0789313,0.5232107,0.8246197,0.89697254,0.9722168
0.0,-0.1,0.9999999999999999,-0.5235987755982988,0.5235987755982988,0,0.8056563,-0.78092223,-2.701785,0.87774855,-1.0511652,1.219013,-0.8919178,0.2053026,-0.6525517,-3.1253335,0.55718404,0.63611174,1.2219471,0.25324142
0.0,-0.1,0.9999999999999999,-0.5235987755982988,0.5235987755982988,0,0.7965213,-0.78883153,-2.6895127,0.8441345,-0.97937196,1.1692117,-0.9579859,0.21588014,-0.6568703,-3.0707407,0.54144394,0.38005972,1.2816675,0.41332573
0.0,-0.1,0.9999999999999999,-0.5235987755982988,0.5235987755982988,0,0.82972467,-0.7832413,-2.732397,0.8637324,-0.99775916,1.2100315,-1.4570656,0.19687912,-0.6481917,-3.0782723,0.5310269,0.9002443,0.6637722,-0.8008015
0.0,-0.1,0.9999999999999999,-0.5235987755982988,0.5235987755982988,0,0.8170241,-0.72932184,-2.6584146,0.8751573,-1.0115124,1.2088376,-1.3382491,0.2127596,-0.6345673,-3.1284444,0.53286505,0.4197681,1.2717359,1.3062592
0.0,-0.1,0.9999999999999999,-0.5235987755982988,0.5235987755982988,0,0.80224186,-0.76000917,-2.7247949,0.8737421,-1.0449235,1.2227696,-0.4345232,0.22077145,-0.6450875,-3.1146133,0.5157712,0.5135534,1.3260542,0.26415148
0.0,-0.1,0.9999999999999999,-0.5235987755982988,0.5235987755982988,0,0.8342912,-0.7527203,-2.730997,0.87617326,-1.0500039,1.178535,-1.2644578,0.20900498,-0.6437861,-3.0511613,0.555692,0.650113,1.270091,-0.3396242
0.0,-0.1,0.9999999999999999,-0.5235987755982988,0.5235987755982988,0,0.8879867,-0.7811116,-2.710829,0.8678231,-1.0115702,1.2216499,-0.46603578,0.18917662,-0.6443975,-3.105249,0.5509878,0.43578482,1.2814041,-0.95217085
0.0,-0.1,0.9999999999999999,-0.5235987755982988,0.5235987755982988,0,0.78828394,-0.74618566,-2.7119906,0.8710967,-1.0125798,1.1988177,-0.9910116,0.20760033,-0.66624945,-3.110294,0.5032493,0.5335889,0.98808295,0.012918241
0.0,-0.1,0.9999999999999999,-0.5235987755982988,0.5235987755982988,0,0.81183046,-0.7687458,-2.6744509,0.8699535,-1.0002749,1.2373481,-1.1909415,0.18416467,-0.6352229,-3.0668454,0.56116015,0.5196151,1.2582865,-1.0811224
0.0,-0.1,0.9999999999999999,-0.5235987755982988,0.5235987755982988,0,0.823216,-0.7723711,-2.6131566,0.86197287,-1.0034178,1.2290043,-0.4702216,0.18916643,-0.64788604,-3.1105373,0.5459074,0.31743172,1.2347198,0.781769
0.0,-0.1,0.9999999999999999,-0.5235987755982988,0.5235987755982988,0,0.8362889,-0.7842801,-2.7025762,0.8345177,-0.97029287,1.234802,-1.2708056,0.22978413,-0.6543067,-3.0872183,0.53693473,0.6231836,1.1679595,0.25249028
0.0,-0.1,0.9999999999999999,-0.5235987755982988,0.5235987755982988,0,0.80805826,-0.74465173,-2.6826808,0.8628307,-0.9615486,1.1872659,-1.2161691,0.20655762,-0.6357553,-3.068205,0.5302806,0.704394,1.4358768,-0.31404403
0.0,-0.1,0.9999999999999999,-0.5235987755982988,0.5235987755982988,0,0.85046595,-0.74170214,-2.670321,0.8775266,-0.99225026,1.2194405,-1.1289412,0.19451468,-0.6681705,-3.0939832,0.5183483,0.64783335,1.4113518,-0.43691584
0.0,-0.1,0.9999999999999999,-0.5235987755982988,0.5235987755982988,0,0.79624426,-0.7540335,-2.687795,0.8497599,-1.0464855,1.2282783,-0.80502915,0.18117343,-0.6439291,-3.06237,0.5626581,0.32369685,1.3251634,0.6373077
0.0,-0.1,0.9999999999999999,-0.5235987755982988,0.5235987755982988,0,0.76913977,-0.7443241,-2.6558642,0.8471126,-0.97672313,1.2184827,-0.9726261,0.19732308,-0.64628047,-3.1066463,0.55333877,0.61912674,1.312631,1.1902987
0.0,-0.1,0.9999999999999999,-0.5235987755982988,0.5235987755982988,0,0.883479,-0.7986638,-2.7078378,0.8410185,-1.0353153,1.22034,-1.1217095,0.20998414,-0.64721364,-3.0518491,0.50530374,0.56191146,1.1081326,0.6865915
0.0,-0.1,0.9999999999999999,-0.5235987755982988,0.5235987755982988,0,0.80653775,-0.735282,-2.672241,0.85456854,-1.041776,1.1873122,-1.5474533,0.24133241,-0.65412396,-3.0789504,0.5579756,0.55002314,1.0915922,0.1653201
0.0,-0.1,0.9999999999999999,-0.5235987755982988,0.5235987755982988,0,0.8414827,-0.8070445,-2.6590524,0.86627936,-1.0158756,1.1822243,-1.3261318,0.20912783,-0.649335,-3.0842044,0.5675866,0.44951987,1.217177,-0.18391803
0.0,-0.1,0.9999999999999999,-0.5235987755982988,0.5235987755982988,0,0.824468,-0.7543758,-2.665095,0.872308,-0.9763615,1.1980382,-1.2361026,0.20033893,-0.65295494,-3.0765805,0.5461109,0.56592304,1.1585786,-1.1063193
0.0,-0.1,0.9999999999999999,-0.5235987755982988,0.5235987755982988,0,0.8198977,-0.7439643,-2.6899083,0.8471454,-1.0752288,1.2151033,-1.4293977,0.22910908,-0.6454694,-3.0944507,0.5284409,0.6394949,1.255504,-0.9058938
0.0,-0.1,0.9999999999999999,-0.5235987755982988,0.5235987755982988,0,0.84629905,-0.76245284,-2.701847,0.83322734,-1.0103252,1.2572328,-0.63784367,0.20228711,-0.65513617,-3.1009777,0.5316619,0.755459,1.3928746,-0.044946916
0.0,-0.1,0.9999999999999999,-0.5235987755982988,0.5235987755982988,0,0.8852033,-0.80501884,-2.710947,0.8780213,-1.0266962,1.195207,-1.2717576,0.19842705,-0.6478017,-3.0923152,0.53558016,0.80057085,1.297781,1.8957275
0.0,-0.1,0.9999999999999999,-0.5235987755982988,0.5235987755982988,0,0.81404626,-0.74275213,-2.6650617,0.8415126,-0.9726931,1.2557473,-1.0297962,0.21717279,-0.6444468,-3.130369,0.53515375,0.2183622,1.3728691,-0.45831406
0.0,-0.1,0.9999999999999999,-0.5235987755982988,0.5235987755982988,0,0.8437209,-0.7521222,-2.6764092,0.8384664,-1.0514998,1.1984955,-1.6999582,0.23566465,-0.6608954,-3.079576,0.53194135,0.29099208,1.4912226,0.42603737
0.0,-0.1,0.9999999999999999,-0.5235987755982988,0.5235987755982988,0,0.81551576,-0.78720206,-2.694898,0.8597073,-1.0433186,1.2206777,-1.2963676,0.19818503,-0.6330478,-3.1130939,0.55351824,0.58648026,1.0535598,0.55288553
0.0,-0.1,0.9999999999999999,-0.5235987755982988,0.5235987755982988,0,0.81018174,-0.74311674,-2.6974115,0.836734,-0.9896856,1.191787,-1.0987467,0.20987077,-0.6405136,-3.0868793,0.55430853,0.74389315,1.0519484,-0.43334463
0.0,-0.1,0.9999999999999999,-0.5235987755982988,0.5235987755982988,0,0.7929212,-0.7380508,-2.7001112,0.8651287,-0.972399,1.2188623,-0.7451793,0.20872843,-0.65669054,-3.1092844,0.515071,0.6159438,1.3800831,-0.4969386
0.0,-0.1,0.9999999999999999,-0.5235987755982988,0.5235987755982988,0,0.86669356,-0.70962465,-2.6715612,0.8790087,-1.0284443,1.2141335,-0.7916045,0.21409597,-0.64210594,-3.0724685,0.55163103,0.33997524,1.3760495,0.46692476
0.0,-0.1,0.9999999999999999,-0.5235987755982988,0.5235987755982988,0,0.8341967,-0.75540197,-2.7099717,0.84907424,-1.0385755,1.2129167,-0.794015,0.23304431,-0.6560148,-3.0933735,0.50961,0.6793369,1.3287959,1.2646197
0.0,-0.1,0.9999999999999999,-0.5235987755982988,0.5235987755982988,0,0.80032736,-0.7470233,-2.6759045,0.8465495,-1.0054549,1.217297,-0.9687617,0.20886722,-0.64233583,-3.0635104,0.5266655,0.60966575,1.4697764,-0.27241427
0.0,-0.1,0.9999999999999999,-0.5235987755982988,0.5235987755982988,0,0.80905926,-0.7369859,-2.6911726,0.85382885,-1.0600592,1.210061,-1.2004595,0.21976763,-0.64724684,-3.1021552,0.55409425,0.4257771,1.0525553,0.86089456
0.0,-0.1,0.9999999999999999,-0.5235987755982988,0.5235987755982988,0,0.8309043,-0.77884924,-2.7169693,0.8629722,-1.0054843,1.2143766,-0.45348623,0.19564019,-0.64459306,-3.0757775,0.52804315,0.45459357,1.0983212,0.7514627
0.0,-0.1,0.9999999999999999,-0.5235987755982988,0.5235987755982988,0,0.8385114,-0.756409,-2.67383,0.84432524,-1.0452992,1.2474031,-0.8916858,0.20275706,-0.65752614,-3.0963929,0.544654,0.42653656,1.187107,1.360446
0.0,-0.1,0.9999999999999999,-0.5235987755982988,0.5235987755982988,0,0.83951986,-0.7900468,-2.66434,0.85352015,-1.0134239,1.2110949,-1.1663885,0.23879954,-0.63358635,-3.065326,0.53510946,1.0066147,1.0444779,-0.30752042
0.0,-0.1,0.9999999999999999,-0.5235987755982988,0.5235987755982988,0,0.802136,-0.7581943,-2.7200851,0.87164915,-1.0477043,1.2123946,-0.925284,0.24459688,-0.65049297,-3.0611944,0.5424476,0.54627645,1.3955834,-1.3044453
0.0,-0.1,0.9999999999999999,-0.5235987755982988,0.5235987755982988,0,0.77926975,-0.7947322,-2.6965015,0.86120033,-1.0083035,1.2199329,-1.0958383,0.2248729,-0.66163325,-3.116978,0.53703225,0.7946476,1.3352499,0.54678124
0.0,-0.1,0.9999999999999999,-0.5235987755982988,0.5235987755982988,0,0.8063012,-0.75989467,-2.7390203,0.8467106,-1.0380872,1.2171828,-1.2591062,0.23851319,-0.64821476,-3.0790205,0.5190678,0.66958463,1.3019183,-0.6754036
0.0,-0.1,0.9999999999999999,-0.5235987755982988,0.5235987755982988,0,0.8587744,-0.7554325,-2.7457373,0.8215732,-1.0841368,1.2002277,-0.79827625,0.18654688,-0.65500987,-3.0914211,0.5366373,0.5574256,1.4671462,-0.26243424
0.0,-0.1,0.9999999999999999,-0.5235987755982988,0.5235987755982988,0,0.8215652,-0.75092435,-2.6726959,0.88312566,-1.0649574,1.244749,-1.3170683,0.20646946,-0.6375603,-3.0689557,0.546881,0.38843,0.93057704,-0.08323448
0.0,-0.1,0.9999999999999999,-0.5235987755982988,0.5235987755982988,0,0.8519649,-0.77701074,-2.689003,0.8702759,-0.97992903,1.2194155,-0.6063455,0.20019355,-0.64475995,-3.108643,0.5389236,0.45694968,1.340334,-0.62941766
0.0,-0.1,0.9999999999999999,-0.5235987755982988,0.5235987755982988,0,0.7778871,-0.76675665,-2.6824098,0.86119497,-0.9727857,1.2136765,-1.2410913,0.20202598,-0.6458802,-3.0815694,0.5712954,0.22024797,1.0200957,0.7869186
0.0,-0.1,0.9999999999999999,-0.5235987755982988,0.5235987755982988,0,0.8329651,-0.77773595,-2.6907058,0.84016055,-0.9999078,1.1919137,-1.12216,0.19161043,-0.64728016,-3.0573413,0.5373617,0.5911131,1.1889374,-0.53782475
0.0,-0.1,0.9999999999999999,-0.5235987755982988,0.5235987755982988,0,0.8861085,-0.7978682,-2.6412306,0.8951476,-0.97262985,1.2439945,-1.279031,0.2215695,-0.6387831,-3.0850444,0.5317561,0.8566526,1.1438026,-0.9369666
0.0,-0.1,0.9999999999999999,-0.5235987755982988,0.5235987755982988,0,0.8420358,-0.7539359,-2.669205,0.8643333,-0.9719841,1.208339,-1.1313151,0.20197217,-0.6342001,-3.0574822,0.55435777,0.4818565,1.0537531,-0.4586558
0.0,-0.1,0.9999999999999999,-0.5235987755982988,0.5235987755982988,0,0.7704617,-0.76285285,-2.6853158,0.8877675,-1.0634923,1.2232013,-1.2953862,0.19475548,-0.6405086,-3.0636308,0.55229276,0.63263285,1.2297442,-0.028305223
0.0,-0.1,0.9999999999999999,-0.5235987755982988,0.5235987755982988,0,0.8155898,-0.74386597,-2.675505,0.8417373,-1.0639257,1.247811,-0.8896543,0.1908485,-0.66216606,-3.1112359,0.53895617,0.4129349,1.208382,-0.11369826
0.0,-0.1,0.9999999999999999,-0.5235987755982988,0.5235987755982988,0,0.823175,-0.71637607,-2.6584036,0.8813575,-0.9881247,1.2250252,-1.2289081,0.19105518,-0.63606787,-3.0793288,0.5447794,0.5273912,1.3858664,0.13493502
0.0,-0.1,0.9999999999999999,-0.5235987755982988,0.5235987755982988,0,0.7860363,-0.695825,-2.6581721,0.86988753,-1.0559735,1.2176341,-0.6657354,0.19608922,-0.6298306,-3.1136901,0.5447308,0.63866043,1.3783215,-1.0361725
0.0,-0.1,0.9999999999999999,-0.5235987755982988,0.5235987755982988,0,0.80142766,-0.70314974,-2.6561003,0.86611456,-1.0185705,1.2055341,-1.626064,0.20931476,-0.65102524,-3.107096,0.51007956,0.46424007,1.5479568,0.52970856
0.0,-0.1,0.9999999999999999,-0.5235987755982988,0.5235987755982988,0,0.8079705,-0.73967546,-2.6931665,0.84497255,-1.002337,1.2384107,-0.6666041,0.1940546,-0.65438604,-3.0637686,0.54392874,0.5290866,1.0171148,-0.17872278
0.0,-0.1,0.9999999999999999,-0.5235987755982988,0.5235987755982988,0,0.82793045,-0.71177083,-2.7336688,0.8777231,-1.0558653,1.2108723,-1.8000094,0.21136749,-0.64242405,-3.0635111,0.5364412,0.572743,1.4591808,-1.2011945
0.0,-0.1,0.9999999999999999,-0.5235987755982988,0.5235987755982988,0,0.81946397,-0.7461478,-2.7048671,0.87255645,-0.9571381,1.17221,-1.1217313,0.19963111,-0.64248914,-3.1076076,0.53316635,0.29503384,1.153679,-0.9181154
0.0,-0.1,0.9999999999999999,-0.5235987755982988,0.5235987755982988,0,0.8535976,-0.7497544,-2.700784,0.8804153,-1.0074403,1.2401329,-1.2244908,0.23077501,-0.6579385,-3.1273131,0.53883773,0.5873655,1.0063684,-0.90037215
0.0,-0.1,0.9999999999999999,-0.5235987755982988,0.5235987755982988,0,0.80073315,-0.7496604,-2.6983814,0.85962063,-1.0488284,1.1974182,-0.4528504,0.20605302,-0.64644325,-3.0635622,0.551903,0.45840055,1.3140519,-0.5736066
0.0,-0.1,0.9999999999999999,-0.5235987755982988,0.5235987755982988,0,0.79842275,-0.7629497,-2.6990285,0.861802,-0.99307674,1.210749,-0.9952091,0.21317261,-0.64961016,-3.1050684,0.52890813,0.5022466,0.94647866,0.9278892
0.0,-0.1,0.9999999999999999,-0.5235987755982988,0.5235987755982988,0,0.86296636,-0.74603826,-2.6836812,0.8501005,-1.030955,1.172005,-0.7181989,0.20524131,-0.64187086,-3.0827105,0.5621392,0.75018716,1.0039227,0.55034333
0.0,-0.1,0.9999999999999999,-0.5235987755982988,0.5235987755982988,0,0.83997667,-0.7995625,-2.6721838,0.8672193,-1.0627056,1.2258034,-0.8700633,0.21651588,-0.6483186,-3.080329,0.5267458,0.56666,0.9063161,2.1335554
0.0,-0.1,0.9999999999999999,-0.5235987755982988,0.5235987755982988,0,0.80570066,-0.73245096,-2.7063982,0.850749,-1.0034355,1.2047665,-0.8108618,0.21813974,-0.64169466,-3.0601518,0.5451463,0.51074547,0.9951052,0.4267256
0.0,-0.1,0.9999999999999999,-0.5235987755982988,0.5235987755982988,0,0.7953055,-0.791597,-2.6875246,0.8473146,-1.0571066,1.2162693,-0.8520966,0.19158201,-0.6714173,-3.0793397,0.5001912,0.41799435,1.2658219,0.3838123
0.0,-0.1,0.9999999999999999,-0.5235987755982988,0.5235987755982988,0,0.84683895,-0.7244555,-2.7172546,0.8681592,-1.0002415,1.2303154,-0.8747965,0.20224391,-0.65455824,-3.1248317,0.51107526,0.106616475,1.2970554,-0.62874436
0.0,-0.1,0.9999999999999999,-0.5235987755982988,0.5235987755982988,0,0.78218955,-0.757938,-2.686208,0.8576322,-1.0313759,1.2374521,-0.53737557,0.21501544,-0.6471437,-3.0875897,0.5420941,0.3360598,1.4024831,1.0384218
0.0,-0.1,0.9999999999999999,-0.5235987755982988,0.5235987755982988,0,0.78928006,-0.7651194,-2.6842058,0.85959077,-1.0581716,1.2411972,-0.90149516,0.1926248,-0.6379973,-3.091708,0.53865844,0.5959542,1.2056412,-1.60551
0.0,-0.1,0.9999999999999999,-0.5235987755982988,0.5235987755982988,0,0.77059215,-0.7833022,-2.6635308,0.8493514,-1.0854905,1.2502227,-1.5370313,0.23125476,-0.6460526,-3.0936103,0.53016657,0.5504202,1.2752613,-0.46396407
0.0,-0.1,0.9999999999999999,-0.5235987755982988,0.5235987755982988,0,0.8204688,-0.7662768,-2.6901493,0.85382074,-0.96033156,1.2259014,-0.6631493,0.18408059,-0.6522354,-3.1020458,0.53619987,0.3355919,1.2038753,0.079980195
0.0,-0.1,0.9999999999999999,-0.5235987755982988,0.5235987755982988,0,0.83994055,-0.7351587,-2.7271986,0.8635308,-1.0850381,1.2193384,-0.62301725,0.20598608,-0.6602273,-3.1047153,0.5326122,0.8731239,1.2462946,-0.7715155
0.0,-0.1,0.9999999999999999,-0.5235987755982988,0.5235987755982988,0,0.78142035,-0.74074596,-2.6852264,0.85811734,-1.0349752,1.2270646,-1.204628,0.22224994,-0.6393049,-3.0926168,0.54428524,0.709117,1.0698463,-0.15860201
0.0,-0.1,0.9999999999999999,-0.5235987755982988,0.5235987755982988,0,0.8290222,-0.75735235,-2.6911254,0.8817461,-0.9997805,1.2153262,-1.1295376,0.20959422,-0.655654,-3.0735624,0.5290147,0.10619782,1.04562,0.009298323
0.0,-0.1,0.9999999999999999,-0.5235987755982988,0.5235987755982988,0,0.8829323,-0.7408222,-2.6644824,0.87848157,-1.0929658,1.2066864,-1.0582598,0.19395776,-0.66851616,-3.1158621,0.5401882,0.31264198,1.1511817,-0.108377315
0.0,-0.1,0.9999999999999999,-0.5235987755982988,0.5235987755982988,0,0.7817326,-0.75512356,-2.6991088,0.8763197,-1.0754856,1.1936322,-1.0547279,0.20037545,-0.655009,-3.0806165,0.5084086,0.3914805,1.1844859,0.235303
0.0,-0.1,0.9999999999999999,-0.5235987755982988,0.5235987755982988,0,0.77953535,-0.78319603,-2.6971068,0.84020895,-1.0669806,1.2380968,-1.3128494,0.23431893,-0.67252856,-3.0711713,0.5497985,0.6708617,1.3204566,0.37489668
0.0,-0.1,0.9999999999999999,-0.5235987755982988,0.5235987755982988,0,0.80351484,-0.7809868,-2.696586,0.8650475,-1.0026623,1.1889194,-1.588593,0.23309675,-0.6409383,-3.0860786,0.536328,0.66709155,1.0475186,0.5736861
0.0,-0.1,0.9999999999999999,-0.5235987755982988,0.5235987755982988,0,0.7783272,-0.7488457,-2.7008,0.84522367,-1.016842,1.2435997,-0.8983605,0.20182064,-0.6175785,-3.0772095,0.49526492,0.6108973,1.3276095,-0.32194984
0.0,-0.1,0.9999999999999999,-0.5235987755982988,0.5235987755982988,0,0.819375,-0.77552265,-2.649685,0.8538084,-1.0262587,1.2040367,-0.8489531,0.22519831,-0.6534449,-3.1032887,0.54506177,0.6282261,1.1792849,0.341043
0.0,-0.1,0.9999999999999999,-0.5235987755982988,0.5235987755982988,0,0.8039993,-0.74283487,-2.6535437,0.8667561,-1.0425028,1.240325,-1.4940195,0.22329566,-0.64177144,-3.1261337,0.526096,0.7603762,1.5346198,-1.1544334
0.0,-0.1,0.9999999999999999,-0.5235987755982988,0.5235987755982988,0,0.80654955,-0.7329482,-2.722544,0.8885664,-1.0249056,1.2242063,-1.0038841,0.22916716,-0.6399498,-3.120686,0.5320847,0.4900164,1.501354,-1.37976
0.0,-0.1,0.9999999999999999,-0.5235987755982988,0.5235987755982988,0,0.8379561,-0.8112737,-2.694924,0.8136521,-0.9836443,1.1987083,-1.0529721,0.21313207,-0.6545897,-3.0996394,0.51391685,0.5006984,1.0525081,0.38613567
0.0,-0.1,0.9999999999999999,-0.5235987755982988,0.5235987755982988,0,0.815141,-0.7624223,-2.7125366,0.8547911,-1.0045352,1.197964,-1.0847843,0.22499357,-0.63267165,-3.0507321,0.5628898,0.42287067,1.0631363,0.15781598
0.0,-0.1,0.9999999999999999,-0.5235987755982988,0.5235987755982988,0,0.7942258,-0.7552612,-2.7232878,0.8512336,-0.9407198,1.2208313,-1.150137,0.22541016,-0.6399305,-3.0625794,0.51344955,0.73554355,0.82184213,-1.197338
0.0,-0.1,0.9999999999999999,-0.5235987755982988,0.5235987755982988,0,0.79945683,-0.7380971,-2.7022552,0.8578707,-0.9785904,1.2265418,-0.7821196,0.20483613,-0.6542418,-3.0890703,0.5255407,0.72394264,1.3615788,-0.98064035
0.0,-0.1,0.9999999999999999,-0.5235987755982988,0.5235987755982988,0,0.78109527,-0.7678558,-2.6525326,0.87436795,-1.0453395,1.2300123,-0.7812894,0.17147881,-0.6517629,-3.06378,0.5168237,0.46959838,1.3005474,-1.1724559
0.0,-0.1,0.9999999999999999,-0.5235987755982988,0.5235987755982988,0,0.80345905,-0.74095684,-2.6874063,0.8708554,-0.9802989,1.2687356,-0.7200645,0.20658799,-0.6642463,-3.0704808,0.5329141,0.38040563,1.3334873,0.10198341
0.0,-0.1,0.9999999999999999,-0.5235987755982988,0.5235987755982988,0,0.823738,-0.74866635,-2.6949155,0.8668716,-0.98402953,1.2229406,-1.1000375,0.204345,-0.64221776,-3.0533347,0.53885007,0.9043032,0.9917553,-0.2830293
0.0,-0.1,0.9999999999999999,-0.5235987755982988,0.5235987755982988,0,0.7802313,-0.71977615,-2.7084026,0.84922516,-1.0367098,1.1971302,-1.2590886,0.20964924,-0.641311,-3.0493507,0.5052497,0.23514278,1.4437671,0.41186044
0.0,-0.1,0.9999999999999999,-0.5235987755982988,0.5235987755982988,0,0.7592072,-0.7857071,-2.6861134,0.8451615,-1.0021808,1.227421,-0.5326325,0.19517092,-0.6521735,-3.1013546,0.5292211,0.74253404,1.3477095,0.8565057
0.0,-0.1,0.9999999999999999,-0.5235987755982988,0.5235987755982988,0,0.78006244,-0.72875315,-2.7004082,0.8722717,-1.0262787,1.2089086,-1.0196395,0.20983523,-0.64837873,-3.0781782,0.5378424,0.7561794,1.2285217,0.054102845
0.0,-0.1,0.9999999999999999,-0.5235987755982988,0.5235987755982988,0,0.87064195,-0.7728216,-2.7407112,0.89005744,-0.981552,1.2120092,-1.4857657,0.2298398,-0.6305683,-3.0840638,0.548481,0.686548,1.1589257,-1.3154072
0.0,-0.1,0.9999999999999999,-0.5235987755982988,0.5235987755982988,0,0.8121198,-0.736813,-2.6729906,0.84848243,-0.97957873,1.248565,-0.825281,0.17815223,-0.64895064,-3.089565,0.5178569,0.39597225,1.4168341,-0.9298025
0.0,-0.1,0.9999999999999999,-0.5235987755982988,0.5235987755982988,0,0.7872485,-0.785118,-2.7102349,0.8895215,-0.984419,1.2137794,-2.0546792,0.19603656,-0.6493401,-3.1244678,0.5221356,0.44446504,1.2241033,0.45985755
0.0,-0.1,0.9999999999999999,-0.5235987755982988,0.5235987755982988,0,0.77950394,-0.7130336,-2.6830852,0.8783541,-0.9994942,1.2047187,-1.0631502,0.20840561,-0.650737,-3.0914147,0.5378189,0.79516566,1.3956634,-0.62716085
0.0,-0.1,0.9999999999999999,-0.5235987755982988,0.5235987755982988,0,0.8186205,-0.7122413,-2.6780086,0.8379845,-1.006947,1.2522403,-0.9276985,0.19865094,-0.6579201,-3.087002,0.5257783,0.5797166,1.3886306,1.6696824
0.0,-0.1,0.9999999999999999,-0.5235987755982988,0.5235987755982988,0,0.82982093,-0.73423886,-2.7044232,0.88090736,-1.0391138,1.1995565,-1.0396596,0.20108992,-0.63533914,-3.0797424,0.53569555,0.60805565,1.2840275,-0.61917007
0.0,-0.1,0.9999999999999999,-0.5235987755982988,0.5235987755982988,0,0.76291555,-0.78522414,-2.7270384,0.8428633,-1.0864851,1.2354083,-0.909534,0.20670094,-0.6598214,-3.1157815,0.5289308,0.5069247,1.0401577,0.3371061
0.0,-0.1,0.9999999999999999,-0.5235987755982988,0.5235987755982988,0,0.7943753,-0.74805945,-2.6785843,0.8694133,-1.0597569,1.2202214,-1.284677,0.22731157,-0.6221244,-3.1266954,0.52434826,0.6831167,1.1406354,0.45252627
0.0,-0.1,0.9999999999999999,-0.5235987755982988,0.5235987755982988,0,0.77273494,-0.76163274,-2.7310646,0.8578249,-1.026855,1.2365044,-1.3204962,0.20903286,-0.6331334,-3.0838814,0.5115686,0.57699096,1.4890872,-1.2137177
0.0,-0.1,0.9999999999999999,-0.5235987755982988,0.5235987755982988,0,0.88649225,-0.77103686,-2.7493327,0.83980936,-1.0124362,1.2192364,-0.6177444,0.19676203,-0.6348874,-3.0831246,0.49786702,0.42759433,1.4654742,-0.8654985
0.0,-0.1,0.9999999999999999,-0.5235987755982988,0.5235987755982988,0,0.81519085,-0.7777908,-2.7051716,0.80551827,-1.025243,1.2314993,-1.5770758,0.18435821,-0.6388678,-3.0937192,0.5373393,0.44685513,1.2803149,-0.6300385
0.0,-0.1,0.9999999999999999,-0.5235987755982988,0.5235987755982988,0,0.75207466,-0.7765857,-2.6896749,0.87325907,-1.0257816,1.2319499,-0.9028071,0.23662712,-0.63172644,-3.081167,0.5386236,0.67655516,1.3500242,-0.20301013
0.0,-0.1,0.9999999999999999,-0.5235987755982988,0.5235987755982988,0,0.78466934,-0.74606985,-2.7086349,0.82917637,-1.0185827,1.251707,-1.3745601,0.19959588,-0.6545554,-3.0704308,0.5170018,0.7589308,1.0693045,0.34229422
0.0,-0.1,0.9999999999999999,-0.5235987755982988,0.5235987755982988,0,0.7939839,-0.7352259,-2.7031362,0.8505663,-1.0546645,1.2380866,-1.2669191,0.21018372,-0.6489852,-3.0939608,0.5371394,0.8155139,1.287698,1.5753828
0.0,-0.1,0.9999999999999999,-0.5235987755982988,0.5235987755982988,0,0.790271,-0.7936666,-2.6875136,0.85402256,-1.0734851,1.2510494,-1.6044762,0.2307397,-0.6639415,-3.1063635,0.57583433,1.1069323,1.1120276,1.61354
0.0,-0.1,0.9999999999999999,-0.5235987755982988,0.5235987755982988,0,0.82494354,-0.7412156,-2.7228909,0.82246083,-1.0087804,1.2427361,-1.5320964,0.20792021,-0.65031415,-3.097635,0.5573513,0.87492114,0.72388184,0.1728308
0.0,-0.1,0.9999999999999999,-0.5235987755982988,0.5235987755982988,0,0.8498672,-0.79652256,-2.7080283,0.8506983,-1.0762595,1.2150285,-0.82457983,0.21756202,-0.6465645,-3.0834322,0.5818231,0.56009114,1.1834025,0.18587019
0.0,-0.1,0.9999999999999999,-0.5235987755982988,0.5235987755982988,0,0.81473356,-0.7341078,-2.6613524,0.8315399,-1.0113665,1.2388597,-1.2602993,0.20543203,-0.6589697,-3.0789804,0.5825501,0.74239856,1.1544048,0.07006016
0.0,-0.1,0.9999999999999999,-0.5235987755982988,0.5235987755982988,0,0.8275273,-0.78150433,-2.6967132,0.86555165,-0.98910457,1.20362,-1.4956579,0.21029665,-0.64679253,-3.1051908,0.55135274,0.695446,1.0262368,1.0705415
0.0,-0.1,0.9999999999999999,-0.5235987755982988,0.5235987755982988,0,0.8355569,-0.74596655,-2.6803572,0.89124393,-0.98218656,1.2139874,-1.3256869,0.20607935,-0.6518023,-3.0767407,0.5225542,0.5944342,1.21303,-0.26006648
0.0,-0.1,0.9999999999999999,-0.5235987755982988,0.5235987755982988,0,0.83268386,-0.7394457,-2.6983745,0.87802035,-1.05986,1.23642,-1.4129297,0.22481598,-0.6490515,-3.0933712,0.5620661,0.5151843,1.0099401,-0.20898251
0.0,-0.1,0.9999999999999999,-0.5235987755982988,0.5235987755982988,0,0.84943825,-0.7600674,-2.7020638,0.86391675,-1.001479,1.2447113,-1.6160138,0.23237367,-0.65055645,-3.0935588,0.5496112,0.393874,1.3951669,0.83665115
0.0,-0.1,0.9999999999999999,-0.5235987755982988,0.5235987755982988,0,0.8278871,-0.76752305,-2.7079859,0.9038396,-1.0205572,1.2498395,-1.0956378,0.19728966,-0.6680033,-3.092585,0.58231235,0.50248647,1.394664,-0.6934084
0.0,-0.1,0.9999999999999999,-0.5235987755982988,0.5235987755982988,0,0.79359174,-0.72549856,-2.7034268,0.8349369,-1.0338408,1.2052784,-1.0879555,0.17595421,-0.64687127,-3.1170588,0.4865684,0.26369616,1.3754175,-0.54149014
0.0,-0.1,0.9999999999999999,-0.5235987755982988,0.5235987755982988,0,0.7905427,-0.78344756,-2.673363,0.84815943,-1.0059103,1.2308552,-1.2662336,0.18729632,-0.6458169,-3.090252,0.5166387,0.084859386,1.2301329,-1.1654108
