sanky1234/BimanualDexCatch/isaacgymenvs/cem_results/football_pose_0.1_-0.1_0.6_0.5235987755982988_0.0_0_2025-05-26.csv
x,y,z,roll,pitch,yaw,robot1/joint1,robot1/joint2,robot1/joint3,robot1/joint4,robot1/joint5,robot1/joint6,robot1/joint7,robot2/joint1,robot2/joint2,robot2/joint3,robot2/joint4,robot2/joint5,robot2/joint6,robot2/joint7
0.1,-0.1,0.6,0.5235987755982988,0.0,0,-1.1900923,1.9769377,-0.14776339,-0.7928047,-0.053177405,1.2954421,-2.4117303,0.56604713,1.3488564,0.18716292,-0.47981432,-0.1257522,1.5020654,0.861056
0.1,-0.1,0.6,0.5235987755982988,0.0,0,-1.1957806,1.9699143,-0.16429406,-0.7932641,-0.086798236,1.2887357,-1.8610277,0.55639225,1.3398683,0.20917243,-0.48923355,-0.122351505,1.4968241,0.96028143
0.1,-0.1,0.6,0.5235987755982988,0.0,0,-1.1651642,1.978623,-0.17622921,-0.7850735,-0.027164752,1.2881099,-2.2681453,0.5526187,1.3486773,0.20310405,-0.4845004,-0.11574219,1.4979231,0.8270396
0.1,-0.1,0.6,0.5235987755982988,0.0,0,-1.1588986,1.9913347,-0.1290835,-0.7925996,-0.07901014,1.297457,-2.5514698,0.5505209,1.3427435,0.21009953,-0.48476657,-0.14269933,1.4975582,0.9080054
0.1,-0.1,0.6,0.5235987755982988,0.0,0,-1.160744,1.979641,-0.1426826,-0.8018754,-0.02608227,1.3189656,-2.1884797,0.5528156,1.3510836,0.20945884,-0.48507136,-0.13945647,1.503854,0.8670428
0.1,-0.1,0.6,0.5235987755982988,0.0,0,-1.2325097,1.9957119,-0.1662509,-0.78506184,-0.03221613,1.3061589,-2.4443138,0.5424868,1.3523444,0.21317317,-0.47775003,-0.119091265,1.4915725,0.9544888
0.1,-0.1,0.6,0.5235987755982988,0.0,0,-1.1695458,1.9751711,-0.12042879,-0.80785036,-0.05356153,1.2945998,-2.248145,0.54534835,1.3411027,0.21025686,-0.48049954,-0.14072211,1.5024232,0.8617889
0.1,-0.1,0.6,0.5235987755982988,0.0,0,-1.1669773,1.9768378,-0.14924763,-0.783586,-0.006621054,1.3134601,-2.169186,0.55619526,1.3576273,0.19801494,-0.48160797,-0.13270514,1.515583,0.95602447
0.1,-0.1,0.6,0.5235987755982988,0.0,0,-1.1169785,1.9639211,-0.12459409,-0.77438927,-0.06481282,1.3017739,-2.0250225,0.56123406,1.3442978,0.21754256,-0.47966293,-0.10092979,1.4974602,0.86032456
0.1,-0.1,0.6,0.5235987755982988,0.0,0,-1.1277611,1.964792,-0.15857236,-0.7880925,-0.08363983,1.2686564,-2.689752,0.5562376,1.3444728,0.1961273,-0.48610613,-0.12685396,1.4982166,0.92917335
0.1,-0.1,0.6,0.5235987755982988,0.0,0,-1.2091033,1.9610369,-0.14836876,-0.78158,-0.0024648996,1.2913257,-2.6522043,0.54347163,1.3511629,0.20955648,-0.4817553,-0.121125564,1.4988469,0.8513158
0.1,-0.1,0.6,0.5235987755982988,0.0,0,-1.1272178,1.98098,-0.13976271,-0.7759481,-0.0320639,1.2969228,-2.2847402,0.5689214,1.3457378,0.20133504,-0.4738029,-0.12714043,1.5016934,0.8460888
0.1,-0.1,0.6,0.5235987755982988,0.0,0,-1.1398327,1.9726588,-0.17505538,-0.7987394,-0.08360644,1.3169491,-2.4161232,0.54755926,1.3484055,0.2156086,-0.4752116,-0.12629423,1.5106703,0.8531561
0.1,-0.1,0.6,0.5235987755982988,0.0,0,-1.1609781,1.9789549,-0.14784507,-0.79484403,-0.004719923,1.2890044,-1.9300597,0.5451284,1.3531544,0.22103491,-0.48644263,-0.11788392,1.4959781,0.90053374
0.1,-0.1,0.6,0.5235987755982988,0.0,0,-1.0971093,1.97147,-0.13035955,-0.7936033,-0.049203202,1.2965658,-1.9615899,0.5385885,1.3446838,0.20909883,-0.4835269,-0.12106468,1.5002223,0.83452314
0.1,-0.1,0.6,0.5235987755982988,0.0,0,-1.1596142,1.9679033,-0.15837266,-0.788862,0.006837352,1.2991914,-2.289986,0.5560149,1.3428123,0.21747649,-0.4746535,-0.12872349,1.4902122,0.90273297
0.1,-0.1,0.6,0.5235987755982988,0.0,0,-1.1939389,1.9574902,-0.15900718,-0.80943215,-0.112925954,1.2933109,-2.2840598,0.55037,1.3453397,0.21486549,-0.47115368,-0.1434134,1.4926575,0.80096054
0.1,-0.1,0.6,0.5235987755982988,0.0,0,-1.1322845,1.9737736,-0.17024902,-0.80035895,-0.033461284,1.2889374,-2.3135085,0.54478383,1.347998,0.20873897,-0.47126818,-0.12267483,1.5024548,0.8558619
0.1,-0.1,0.6,0.5235987755982988,0.0,0,-1.1521078,1.9699394,-0.14713144,-0.80322385,-0.13210079,1.3133467,-2.5165217,0.5586136,1.3492281,0.2190182,-0.4748744,-0.1422488,1.4945351,0.8769073
0.1,-0.1,0.6,0.5235987755982988,0.0,0,-1.215623,1.9599711,-0.13851555,-0.805097,-0.016314235,1.2986468,-2.2718267,0.55508274,1.34479,0.21513319,-0.484319,-0.11217183,1.5024266,0.905481
0.1,-0.1,0.6,0.5235987755982988,0.0,0,-1.1688061,1.9839455,-0.15539698,-0.78683287,-0.02799806,1.3011348,-2.7416346,0.55149376,1.3404878,0.20824358,-0.4910375,-0.12979023,1.4972899,0.8715943
0.1,-0.1,0.6,0.5235987755982988,0.0,0,-1.1116422,1.9821397,-0.1425169,-0.78510344,-0.01701644,1.3264195,-2.6863039,0.549727,1.3518574,0.22707644,-0.479107,-0.117484756,1.4964526,0.85528773
0.1,-0.1,0.6,0.5235987755982988,0.0,0,-1.1279066,1.958548,-0.17438124,-0.7905792,-0.10107054,1.3323468,-2.6163235,0.5615556,1.3459748,0.22134617,-0.46741137,-0.14869615,1.5039217,0.7927655
0.1,-0.1,0.6,0.5235987755982988,0.0,0,-1.154708,1.9764688,-0.16391325,-0.8041008,-0.095539,1.2874013,-2.3207576,0.53720534,1.3524071,0.22406691,-0.4865391,-0.1335692,1.5013868,0.8927094
0.1,-0.1,0.6,0.5235987755982988,0.0,0,-1.1914843,1.9589727,-0.12511751,-0.81114966,0.004389717,1.2909247,-2.064059,0.55221426,1.3508452,0.21627715,-0.48716143,-0.1391888,1.5032433,0.8873133
0.1,-0.1,0.6,0.5235987755982988,0.0,0,-1.1579183,1.9674306,-0.15348414,-0.7875833,-0.016102526,1.2945554,-2.0508113,0.5562664,1.3452368,0.20180719,-0.48049882,-0.15279637,1.4964875,0.89583814
0.1,-0.1,0.6,0.5235987755982988,0.0,0,-1.1745429,1.9798311,-0.14964077,-0.78704584,-0.023112327,1.3036865,-2.3495352,0.565798,1.3525556,0.21510553,-0.48031276,-0.124959074,1.4986601,0.84569085
0.1,-0.1,0.6,0.5235987755982988,0.0,0,-1.1675655,1.9750738,-0.1616165,-0.79992324,-0.0651237,1.2966192,-2.4610777,0.5440512,1.3485067,0.22476485,-0.483077,-0.11950796,1.5048537,0.8367148
0.1,-0.1,0.6,0.5235987755982988,0.0,0,-1.1578835,1.9908868,-0.13698862,-0.8126399,-0.076092586,1.3083907,-1.9909853,0.5400902,1.3482201,0.20042822,-0.4705053,-0.12740576,1.5020953,0.8472873
0.1,-0.1,0.6,0.5235987755982988,0.0,0,-1.1495725,1.9664614,-0.13187905,-0.7848138,-0.05969751,1.3094373,-2.5885537,0.55565006,1.3586532,0.19661072,-0.4821342,-0.11588265,1.5005894,0.86945564
0.1,-0.1,0.6,0.5235987755982988,0.0,0,-1.124197,1.9583211,-0.1474332,-0.81390476,-0.05357648,1.314143,-2.8389459,0.53710276,1.3503639,0.19220988,-0.48570383,-0.11205885,1.4976777,0.87686336
0.1,-0.1,0.6,0.5235987755982988,0.0,0,-1.1678033,1.9762361,-0.10984524,-0.8027003,-0.052894164,1.3132758,-2.2353783,0.5424675,1.341827,0.21969664,-0.4800553,-0.14195485,1.5028207,0.9175008
0.1,-0.1,0.6,0.5235987755982988,0.0,0,-1.1559895,1.9720834,-0.16788459,-0.7925026,-0.07715038,1.3056879,-2.0685565,0.5571258,1.3485619,0.2019543,-0.46957687,-0.14762118,1.5014254,0.87458986
0.1,-0.1,0.6,0.5235987755982988,0.0,0,-1.1910758,1.955286,-0.16564918,-0.793846,-0.064684555,1.3181378,-2.1786585,0.5498237,1.354933,0.20404997,-0.47008777,-0.1189836,1.4974835,0.9453119
0.1,-0.1,0.6,0.5235987755982988,0.0,0,-1.1580784,1.9656185,-0.15919882,-0.79161936,-0.0071218684,1.3192232,-1.9215001,0.55328465,1.3395162,0.19765511,-0.47220525,-0.14150259,1.4931365,0.8773828
0.1,-0.1,0.6,0.5235987755982988,0.0,0,-1.1663729,1.9839242,-0.14281917,-0.7983185,-0.026049092,1.3040043,-2.109416,0.55891937,1.3498996,0.19505347,-0.4743847,-0.13059816,1.498687,0.8674558
0.1,-0.1,0.6,0.5235987755982988,0.0,0,-1.1768655,1.9770744,-0.12004722,-0.78216285,-0.073157765,1.2864708,-2.1198907,0.55749106,1.3445934,0.20501679,-0.48855314,-0.12975058,1.4978089,0.90894777
0.1,-0.1,0.6,0.5235987755982988,0.0,0,-1.2057009,1.9600501,-0.15451974,-0.7953913,-0.011278743,1.3096001,-2.2915673,0.55745417,1.3440074,0.20733048,-0.4844036,-0.15151094,1.501298,0.8631843
0.1,-0.1,0.6,0.5235987755982988,0.0,0,-1.1880554,1.9742316,-0.148809,-0.78112054,0.05784882,1.2830971,-1.6678494,0.5594196,1.3425225,0.20977974,-0.4834235,-0.13635603,1.5015749,0.8432793
0.1,-0.1,0.6,0.5235987755982988,0.0,0,-1.178929,1.9685284,-0.13095577,-0.7914589,-0.050205607,1.2926283,-2.3445175,0.5339946,1.3480567,0.2128576,-0.48638403,-0.121873796,1.5034878,0.85463685
0.1,-0.1,0.6,0.5235987755982988,0.0,0,-1.1575422,1.9789494,-0.16282389,-0.7921463,-0.057175945,1.3127708,-2.541911,0.5530981,1.3452126,0.20580216,-0.4808057,-0.1143323,1.4995321,0.81180084
0.1,-0.1,0.6,0.5235987755982988,0.0,0,-1.1596144,1.9768353,-0.14689107,-0.802029,-0.068088725,1.3201803,-2.4042532,0.55866235,1.3420678,0.20351535,-0.4820333,-0.123646945,1.4978971,0.8542241
0.1,-0.1,0.6,0.5235987755982988,0.0,0,-1.1609269,1.9892805,-0.16005573,-0.7997315,0.02767074,1.2895303,-2.360138,0.5673158,1.3540772,0.20256549,-0.48059717,-0.123093255,1.4979011,0.8450114
0.1,-0.1,0.6,0.5235987755982988,0.0,0,-1.1428721,1.9705852,-0.14118734,-0.7874889,-0.05414279,1.277539,-2.3770845,0.55316675,1.3497496,0.19813305,-0.47099897,-0.11969091,1.4966611,0.84731287
0.1,-0.1,0.6,0.5235987755982988,0.0,0,-1.1498294,1.9750144,-0.16085787,-0.79277915,-0.06244156,1.2867994,-2.3989863,0.5435077,1.3423185,0.20883422,-0.47231513,-0.13041277,1.5056411,0.85225475
0.1,-0.1,0.6,0.5235987755982988,0.0,0,-1.1673203,1.9729823,-0.16771878,-0.7964363,0.0305644,1.2689396,-2.2775507,0.5593656,1.3407934,0.21707124,-0.47331065,-0.13140151,1.502823,0.93969506
0.1,-0.1,0.6,0.5235987755982988,0.0,0,-1.1515816,1.9634562,-0.17564909,-0.7795559,-0.08851194,1.2778246,-2.549708,0.5429871,1.3488789,0.20960303,-0.47249678,-0.124378495,1.5145098,0.9412685
0.1,-0.1,0.6,0.5235987755982988,0.0,0,-1.2493862,1.9786038,-0.12203333,-0.80104774,-0.0670884,1.2949167,-2.8197281,0.544368,1.3548912,0.20491455,-0.4786954,-0.12996937,1.4990801,0.77365166
0.1,-0.1,0.6,0.5235987755982988,0.0,0,-1.1958551,1.9801183,-0.15490773,-0.7744204,-0.029638289,1.2933797,-1.8749534,0.5459606,1.3490211,0.20068891,-0.47927615,-0.13027447,1.4929605,0.8669436
0.1,-0.1,0.6,0.5235987755982988,0.0,0,-1.1587831,1.9918863,-0.13999495,-0.79670745,-0.035761464,1.2990285,-2.0056555,0.5445501,1.3556204,0.20599109,-0.4820039,-0.10265288,1.5062993,0.81568825
0.1,-0.1,0.6,0.5235987755982988,0.0,0,-1.188651,1.9649427,-0.16657539,-0.7917301,-0.025322821,1.2889977,-2.2614458,0.5463324,1.3465269,0.21413143,-0.4873556,-0.12474286,1.5115523,0.94007605
0.1,-0.1,0.6,0.5235987755982988,0.0,0,-1.1559638,1.9672408,-0.13733919,-0.79034436,-0.08674916,1.2879424,-2.4915297,0.55691993,1.3577547,0.21032329,-0.4752986,-0.17428902,1.4947895,0.8733855
0.1,-0.1,0.6,0.5235987755982988,0.0,0,-1.2014358,1.982131,-0.15793557,-0.81542456,-0.04536626,1.2836553,-2.2419028,0.5512721,1.339881,0.22059281,-0.47904658,-0.12977518,1.5042545,0.93161213
0.1,-0.1,0.6,0.5235987755982988,0.0,0,-1.1976138,1.967659,-0.17108308,-0.7929248,-0.042705227,1.3225477,-2.3070843,0.5472401,1.3402618,0.22372353,-0.4856644,-0.12471699,1.499873,0.90933377
0.1,-0.1,0.6,0.5235987755982988,0.0,0,-1.1630528,1.9658219,-0.14691457,-0.7935574,-0.002459464,1.3107334,-2.2672093,0.5484993,1.3502806,0.20981096,-0.48062155,-0.15226541,1.5042306,0.86938334
0.1,-0.1,0.6,0.5235987755982988,0.0,0,-1.1636618,1.9607557,-0.18135977,-0.79292405,-0.03701511,1.2928543,-2.4015336,0.5554917,1.3480335,0.21269412,-0.48300552,-0.1103429,1.5038493,0.9522068
0.1,-0.1,0.6,0.5235987755982988,0.0,0,-1.161811,1.9830469,-0.15633942,-0.77076906,0.005568733,1.2568157,-2.9917831,0.546315,1.3485663,0.20223606,-0.48008898,-0.14223324,1.4945041,0.8395955
0.1,-0.1,0.6,0.5235987755982988,0.0,0,-1.147751,1.9806974,-0.186015,-0.7806266,-0.035330947,1.2844851,-2.438071,0.56362844,1.3494612,0.22542961,-0.47760937,-0.129783,1.4989839,0.8622136
0.1,-0.1,0.6,0.5235987755982988,0.0,0,-1.1361903,1.9719057,-0.1535714,-0.80033493,-0.056329392,1.3039573,-2.1691272,0.5492657,1.3410527,0.22649772,-0.48061788,-0.10360908,1.4970318,0.85503525
0.1,-0.1,0.6,0.5235987755982988,0.0,0,-1.1821889,1.9718775,-0.14822993,-0.8067705,-0.028194726,1.2884413,-2.0219493,0.54706466,1.3496466,0.20709515,-0.4769238,-0.114460014,1.4984884,0.8896171
0.1,-0.1,0.6,0.5235987755982988,0.0,0,-1.1647563,1.9762588,-0.15149283,-0.7971248,-0.068540625,1.3020082,-2.3613605,0.5446825,1.3529131,0.21543358,-0.486948,-0.12866956,1.4982507,0.8986049
0.1,-0.1,0.6,0.5235987755982988,0.0,0,-1.2152967,1.9711118,-0.16704962,-0.78644353,-0.042287733,1.2942252,-2.6388905,0.5396179,1.3381361,0.22138308,-0.48767918,-0.11462486,1.4992864,0.8451621
0.1,-0.1,0.6,0.5235987755982988,0.0,0,-1.164156,1.9680159,-0.13265945,-0.7916871,-0.121880464,1.3083189,-2.2470384,0.5580173,1.3395807,0.19132113,-0.4821206,-0.11968188,1.4978074,0.87640715
0.1,-0.1,0.6,0.5235987755982988,0.0,0,-1.1957322,1.9856209,-0.1496764,-0.79765373,-0.04368434,1.2988337,-2.0967228,0.5533011,1.345544,0.2066038,-0.4883991,-0.084183946,1.5068604,0.83531016
0.1,-0.1,0.6,0.5235987755982988,0.0,0,-1.1536667,1.9649818,-0.12984796,-0.78387326,-0.087886035,1.2807467,-2.4065073,0.5555408,1.3467097,0.20499326,-0.4856521,-0.13322526,1.5026973,0.8657129
0.1,-0.1,0.6,0.5235987755982988,0.0,0,-1.1309057,1.9734169,-0.1448653,-0.7956456,-0.08027289,1.3126962,-2.2595086,0.5507248,1.356592,0.21240483,-0.48397645,-0.13399181,1.5040964,0.8851178
0.1,-0.1,0.6,0.5235987755982988,0.0,0,-1.1834245,1.9812177,-0.13909258,-0.7985827,-0.06035578,1.2984669,-2.0458443,0.550885,1.3495766,0.21206142,-0.47549126,-0.12274605,1.4932419,0.84454376
0.1,-0.1,0.6,0.5235987755982988,0.0,0,-1.1441755,1.9694333,-0.12415708,-0.7872422,-0.02063219,1.2892498,-2.290805,0.55915505,1.3433578,0.19949184,-0.47654733,-0.13189346,1.5059834,0.9435301
0.1,-0.1,0.6,0.5235987755982988,0.0,0,-1.2080672,1.9803507,-0.13483444,-0.7905989,-0.08041701,1.3028889,-2.2958572,0.55362105,1.3481599,0.21707483,-0.48669094,-0.15998878,1.4996097,0.8914548
0.1,-0.1,0.6,0.5235987755982988,0.0,0,-1.1988202,1.9716756,-0.15925294,-0.80408454,-0.031654086,1.302062,-2.40704,0.5554261,1.3418647,0.20424908,-0.48261186,-0.12820217,1.5019896,0.8435255
0.1,-0.1,0.6,0.5235987755982988,0.0,0,-1.1276796,1.9575648,-0.11671809,-0.7855544,-0.043006796,1.2757065,-2.8053334,0.54562765,1.345069,0.21367577,-0.4823714,-0.120084696,1.5000298,0.94760257
0.1,-0.1,0.6,0.5235987755982988,0.0,0,-1.2073612,1.9807053,-0.13707152,-0.78547627,-0.07622194,1.2886866,-2.2645354,0.56508386,1.339798,0.21506175,-0.48085353,-0.11958433,1.5034577,0.8689182
0.1,-0.1,0.6,0.5235987755982988,0.0,0,-1.2472769,1.978865,-0.15783402,-0.7828477,-0.02347831,1.3071048,-2.5158985,0.5450008,1.3463598,0.21942022,-0.46253943,-0.14444984,1.4986871,0.89947194
0.1,-0.1,0.6,0.5235987755982988,0.0,0,-1.1711792,1.9647537,-0.15844782,-0.7967855,0.0041306918,1.3046687,-2.3780231,0.55172265,1.3463659,0.20860498,-0.4820873,-0.116191424,1.5022591,0.7368932
0.1,-0.1,0.6,0.5235987755982988,0.0,0,-1.168984,1.9735155,-0.16929969,-0.8016417,-0.03095189,1.2852709,-2.4194667,0.57607085,1.340862,0.20526817,-0.47716847,-0.13975371,1.4990544,0.9060321
0.1,-0.1,0.6,0.5235987755982988,0.0,0,-1.1448758,1.9702891,-0.12254325,-0.777673,-0.06303341,1.2813779,-2.1519399,0.55619335,1.3491197,0.20582703,-0.4836892,-0.11715022,1.5039904,0.83989334
0.1,-0.1,0.6,0.5235987755982988,0.0,0,-1.1782306,1.9731009,-0.14225467,-0.7861921,-0.06733439,1.2946025,-2.1394672,0.55586845,1.3423775,0.2342086,-0.4768934,-0.12361565,1.5063087,0.8755619
0.1,-0.1,0.6,0.5235987755982988,0.0,0,-1.1974922,1.9633912,-0.15890181,-0.7991352,-0.110515624,1.2846663,-2.8252916,0.55219793,1.3434834,0.1921888,-0.4814691,-0.13453366,1.5031539,0.86222726
0.1,-0.1,0.6,0.5235987755982988,0.0,0,-1.228811,1.9856573,-0.15298934,-0.7978382,-0.049413104,1.3168778,-2.6630788,0.54382735,1.346322,0.20956138,-0.47315335,-0.11839965,1.5029562,0.92055357
0.1,-0.1,0.6,0.5235987755982988,0.0,0,-1.1780418,1.9736239,-0.17456125,-0.7837314,-0.0021960167,1.2821785,-2.300427,0.5549386,1.3521574,0.2174446,-0.47290522,-0.13101722,1.4988685,0.8615891
0.1,-0.1,0.6,0.5235987755982988,0.0,0,-1.2066606,1.9665407,-0.13062544,-0.8016859,-0.101185374,1.3180621,-2.1388493,0.54293275,1.3540152,0.20428851,-0.47810894,-0.13998237,1.5066627,0.95247215
0.1,-0.1,0.6,0.5235987755982988,0.0,0,-1.1485666,1.9730626,-0.131233,-0.79605776,-0.12684736,1.2944816,-2.399804,0.54535216,1.3480812,0.19746642,-0.47374862,-0.10973527,1.5065656,0.8884059
0.1,-0.1,0.6,0.5235987755982988,0.0,0,-1.1831062,1.9761333,-0.1522898,-0.80650264,-0.036845606,1.2843207,-2.2964187,0.55608535,1.3465613,0.22246501,-0.47544876,-0.13729161,1.5042281,0.90702295
0.1,-0.1,0.6,0.5235987755982988,0.0,0,-1.1743194,1.9722561,-0.14967582,-0.8053212,-0.039053794,1.2984627,-2.1536853,0.5530769,1.3521415,0.20812432,-0.47440204,-0.12722121,1.5012362,0.85330945
0.1,-0.1,0.6,0.5235987755982988,0.0,0,-1.1893654,1.9657147,-0.14045443,-0.7916127,-0.058302123,1.2934387,-2.291668,0.54166573,1.3539007,0.21756305,-0.48683375,-0.11388489,1.5042431,0.8595002
0.1,-0.1,0.6,0.5235987755982988,0.0,0,-1.197811,1.9731846,-0.15010653,-0.7899808,-0.14621739,1.2934238,-2.2200105,0.5460262,1.3564745,0.2127337,-0.48296055,-0.115601644,1.4998697,0.88850474
0.1,-0.1,0.6,0.5235987755982988,0.0,0,-1.1951218,1.972112,-0.13743652,-0.80091566,-0.10541941,1.3281538,-2.6367774,0.5571789,1.3462828,0.19985814,-0.47573918,-0.12732989,1.5050572,0.85392964
0.1,-0.1,0.6,0.5235987755982988,0.0,0,-1.2018942,1.9744935,-0.13555352,-0.78454715,-0.05549936,1.2862185,-2.3625252,0.557256,1.3485043,0.20141725,-0.4752986,-0.1456029,1.498095,0.91259885
0.1,-0.1,0.6,0.5235987755982988,0.0,0,-1.11963,1.9753098,-0.11556104,-0.7827417,-0.10608777,1.2821369,-1.9866716,0.56135136,1.3373886,0.22764975,-0.47815338,-0.12961428,1.5007912,0.9102706
0.1,-0.1,0.6,0.5235987755982988,0.0,0,-1.136675,1.968771,-0.14648734,-0.8088394,-0.06641474,1.3045175,-2.3315158,0.5557188,1.3408074,0.20977116,-0.47769225,-0.12056067,1.5003357,0.81281555
0.1,-0.1,0.6,0.5235987755982988,0.0,0,-1.1827909,1.9669049,-0.14330745,-0.79980415,-0.06220851,1.293932,-2.5425515,0.54380333,1.3487322,0.20497301,-0.48140863,-0.11109629,1.5096663,0.8689311
0.1,-0.1,0.6,0.5235987755982988,0.0,0,-1.1479077,1.971746,-0.14996669,-0.8100989,-0.049822256,1.3026068,-2.3721163,0.56854314,1.3342305,0.22484994,-0.46762824,-0.13109139,1.5003636,0.8324212
0.1,-0.1,0.6,0.5235987755982988,0.0,0,-1.2073367,1.9686544,-0.17969699,-0.77627,-0.021360595,1.2829106,-2.342702,0.56737953,1.3445446,0.20606476,-0.4798471,-0.14519012,1.4998069,0.85109305
0.1,-0.1,0.6,0.5235987755982988,0.0,0,-1.1380364,1.9714597,-0.15713605,-0.7857196,-0.06997785,1.3040049,-2.1760957,0.542466,1.3503454,0.22655953,-0.48604333,-0.14340152,1.5134202,0.9410458
0.1,-0.1,0.6,0.5235987755982988,0.0,0,-1.1376562,1.9660257,-0.12750696,-0.79003805,-0.027589425,1.2972914,-2.3802867,0.5580002,1.3430703,0.21668868,-0.48281035,-0.12859966,1.5064391,0.94979143
0.1,-0.1,0.6,0.5235987755982988,0.0,0,-1.1693059,1.9653174,-0.17142269,-0.7879658,-0.007417298,1.3136064,-2.31738,0.53550607,1.3543953,0.20496789,-0.4855609,-0.14354688,1.5071362,0.87069887
0.1,-0.1,0.6,0.5235987755982988,0.0,0,-1.161507,1.9743998,-0.14374807,-0.7908627,-0.031669233,1.3173084,-2.1704423,0.55421174,1.3489804,0.20118584,-0.48451108,-0.12498347,1.500263,0.91852003
0.1,-0.1,0.6,0.5235987755982988,0.0,0,-1.2084746,1.9787835,-0.1513004,-0.8015785,-0.10614283,1.3176085,-2.2486482,0.56425875,1.3481009,0.19131126,-0.48090333,-0.11923434,1.5008624,0.8740978
0.1,-0.1,0.6,0.5235987755982988,0.0,0,-1.1652669,1.9623854,-0.15883972,-0.7827548,-0.054313768,1.3054047,-2.4476447,0.549846,1.3501261,0.20120582,-0.4846708,-0.1267523,1.5020285,0.9211455
0.1,-0.1,0.6,0.5235987755982988,0.0,0,-1.1825035,1.9573063,-0.15093295,-0.7966043,-0.043378476,1.2884926,-2.0766923,0.5713965,1.3474396,0.19879343,-0.47906473,-0.115335576,1.4966435,0.9238142
0.1,-0.1,0.6,0.5235987755982988,0.0,0,-1.1749068,1.9664682,-0.15576907,-0.79774284,-0.044065338,1.2760366,-2.3208525,0.54148626,1.3460383,0.21122888,-0.48252282,-0.1117656,1.5005338,0.82551986
0.1,-0.1,0.6,0.5235987755982988,0.0,0,-1.1574405,1.9741893,-0.14329086,-0.7870403,0.0028074046,1.3037988,-2.1150823,0.56091505,1.3509773,0.20918952,-0.47344267,-0.13659404,1.502944,0.90167165
0.1,-0.1,0.6,0.5235987755982988,0.0,0,-1.1409832,1.9666625,-0.16440871,-0.79369175,-0.069286846,1.2812676,-2.411365,0.5557555,1.3430139,0.20792274,-0.47596762,-0.13578524,1.498307,0.89788073
0.1,-0.1,0.6,0.5235987755982988,0.0,0,-1.1523018,1.9711378,-0.1608322,-0.7993639,0.03823732,1.2906718,-2.2563357,0.5453366,1.343248,0.21233784,-0.4882215,-0.10767536,1.502836,0.8948237
0.1,-0.1,0.6,0.5235987755982988,0.0,0,-1.1921201,1.9692554,-0.14999844,-0.79525065,-0.08352107,1.2946432,-1.9167942,0.56312853,1.3492901,0.19587556,-0.4790482,-0.13063627,1.4986845,0.9195036
0.1,-0.1,0.6,0.5235987755982988,0.0,0,-1.1564841,1.9673518,-0.15038714,-0.79813194,-0.062295202,1.2860647,-3.0832832,0.5355831,1.3498644,0.2126969,-0.48453698,-0.111040376,1.5019305,0.8482778
0.1,-0.1,0.6,0.5235987755982988,0.0,0,-1.2200495,1.9802725,-0.13390028,-0.7981982,0.0025922933,1.2949185,-2.5512915,0.54300284,1.3457929,0.21931605,-0.4693517,-0.16136277,1.493693,0.9094987
0.1,-0.1,0.6,0.5235987755982988,0.0,0,-1.2056583,1.9723498,-0.15799247,-0.8053857,-0.10118629,1.3077054,-2.2752376,0.5612586,1.3479853,0.20612876,-0.48337623,-0.10006389,1.4990698,0.89768517
0.1,-0.1,0.6,0.5235987755982988,0.0,0,-1.1472672,1.9815093,-0.14834341,-0.7852217,-0.13587016,1.299799,-2.483971,0.5407191,1.3430234,0.21151373,-0.4768869,-0.11386103,1.4967142,0.7912341
0.1,-0.1,0.6,0.5235987755982988,0.0,0,-1.1385636,1.9752471,-0.14334631,-0.7908125,-0.077383794,1.2917901,-1.9443979,0.5580226,1.3418205,0.21218075,-0.47783434,-0.11751362,1.496539,0.9241824
0.1,-0.1,0.6,0.5235987755982988,0.0,0,-1.1270825,1.9528915,-0.16061766,-0.77695984,-0.055792805,1.3223481,-2.430233,0.5441671,1.3458375,0.21339831,-0.4748833,-0.1235721,1.4992051,0.9496539
0.1,-0.1,0.6,0.5235987755982988,0.0,0,-1.2084697,1.9669439,-0.15643205,-0.80192214,-0.06099042,1.3013643,-2.1852188,0.5653162,1.3421947,0.21471216,-0.47938254,-0.1247582,1.5049416,0.89056325
0.1,-0.1,0.6,0.5235987755982988,0.0,0,-1.1843807,1.9735734,-0.14640838,-0.7832491,-0.068034075,1.2864136,-2.287704,0.5505559,1.3406864,0.19909023,-0.48310775,-0.10921843,1.5006706,0.9364191
0.1,-0.1,0.6,0.5235987755982988,0.0,0,-1.1508498,1.9592022,-0.15438974,-0.7973714,-0.02692014,1.2796156,-2.6815379,0.55591685,1.3606162,0.20463946,-0.48517412,-0.12413481,1.501771,0.800835
0.1,-0.1,0.6,0.5235987755982988,0.0,0,-1.1783417,1.9713534,-0.12947735,-0.79986644,-0.044743028,1.3005431,-2.002235,0.5558658,1.3482459,0.2073444,-0.48052117,-0.13324066,1.505271,0.8694193
0.1,-0.1,0.6,0.5235987755982988,0.0,0,-1.1506182,1.9417236,-0.13284239,-0.78005725,-0.06359756,1.3031844,-2.373247,0.5589081,1.3410689,0.21809927,-0.46308002,-0.13653938,1.5028528,0.88134813
0.1,-0.1,0.6,0.5235987755982988,0.0,0,-1.1777486,1.9687122,-0.14206757,-0.785033,0.012366563,1.2853327,-2.4520879,0.5527019,1.3456913,0.20896451,-0.4775871,-0.1311926,1.5005916,0.8862595
0.1,-0.1,0.6,0.5235987755982988,0.0,0,-1.2096975,1.9664025,-0.15339135,-0.78643733,0.011711178,1.2994252,-2.1458411,0.5453418,1.3486975,0.21892694,-0.47692263,-0.09860859,1.5082406,0.8610438
0.1,-0.1,0.6,0.5235987755982988,0.0,0,-1.1423525,1.961666,-0.16634426,-0.78773105,-0.04481796,1.2933964,-2.2535963,0.5272203,1.3523586,0.20411843,-0.47981286,-0.13003522,1.4948546,0.92168003
0.1,-0.1,0.6,0.5235987755982988,0.0,0,-1.1954213,1.9783344,-0.14793096,-0.78445154,-0.08126778,1.2592947,-2.192657,0.5625719,1.3523079,0.20637237,-0.47256044,-0.13042234,1.5027406,0.90470904
0.1,-0.1,0.6,0.5235987755982988,0.0,0,-1.1727066,1.9796683,-0.124938555,-0.7843639,-0.049655344,1.2780129,-2.521581,0.55205154,1.3462641,0.2110319,-0.47625878,-0.12836674,1.4989884,0.8226901
0.1,-0.1,0.6,0.5235987755982988,0.0,0,-1.1833664,1.9611214,-0.12699,-0.7926132,-0.03121235,1.314341,-2.448852,0.5392374,1.3506039,0.21211153,-0.47505665,-0.1258446,1.4989326,0.92018074
0.1,-0.1,0.6,0.5235987755982988,0.0,0,-1.157832,1.9805384,-0.14419335,-0.78674,-0.032757483,1.3038039,-2.4609165,0.54050523,1.3630157,0.21184273,-0.47649,-0.1274299,1.5005416,0.8782196
0.1,-0.1,0.6,0.5235987755982988,0.0,0,-1.17095,1.9744265,-0.1257829,-0.78684425,-0.055854276,1.2844825,-1.9303547,0.5497829,1.3535743,0.20998885,-0.4746504,-0.12348919,1.4983395,0.90357465
0.1,-0.1,0.6,0.5235987755982988,0.0,0,-1.1649497,1.9546986,-0.1501308,-0.7855313,-0.15778583,1.3073621,-2.302722,0.5571502,1.3500117,0.20200546,-0.48009294,-0.11433074,1.5006653,0.83504575
0.1,-0.1,0.6,0.5235987755982988,0.0,0,-1.276108,1.9675658,-0.17179154,-0.77459925,-0.03629782,1.3100431,-2.2943072,0.56554794,1.3396341,0.19442797,-0.46981058,-0.123300634,1.5084971,0.9107886
0.1,-0.1,0.6,0.5235987755982988,0.0,0,-1.2041324,1.9760358,-0.1340692,-0.7924073,-0.057760864,1.3287791,-2.416636,0.55654496,1.351959,0.21709599,-0.4765621,-0.14534228,1.5050925,0.84143203
0.1,-0.1,0.6,0.5235987755982988,0.0,0,-1.1954768,1.9733127,-0.12801051,-0.79664963,-0.018753573,1.2844082,-2.0984948,0.55763173,1.3441086,0.20894067,-0.47959098,-0.122453414,1.5039188,0.85692
0.1,-0.1,0.6,0.5235987755982988,0.0,0,-1.2214757,1.9569964,-0.17070486,-0.78748745,-0.11533243,1.2871516,-2.6116705,0.5771956,1.3566617,0.19681436,-0.47938186,-0.13068707,1.4957391,0.87229806
0.1,-0.1,0.6,0.5235987755982988,0.0,0,-1.1793797,1.9686745,-0.14010786,-0.7951632,-0.086632654,1.2895497,-2.6333854,0.56007916,1.3453634,0.20668906,-0.48112547,-0.13114437,1.5071194,0.8727161
0.1,-0.1,0.6,0.5235987755982988,0.0,0,-1.1904157,1.9667621,-0.13929668,-0.78574216,-0.026462743,1.2947301,-2.6303859,0.5399185,1.3487104,0.20896848,-0.48358023,-0.14028217,1.5075634,0.96665365
0.1,-0.1,0.6,0.5235987755982988,0.0,0,-1.1968911,1.9590751,-0.13886677,-0.7945331,-0.049610045,1.2793276,-2.7369637,0.5511339,1.3447038,0.21248862,-0.4838808,-0.10698585,1.5046569,0.87475556
0.1,-0.1,0.6,0.5235987755982988,0.0,0,-1.1722745,1.9737338,-0.15747099,-0.768835,0.013733714,1.3013389,-2.3529642,0.5581585,1.3489997,0.20977284,-0.4725093,-0.115754224,1.5001361,0.90010136
0.1,-0.1,0.6,0.5235987755982988,0.0,0,-1.1537696,1.9620036,-0.11739213,-0.7795914,0.037853528,1.2753522,-2.1253648,0.54690135,1.3488449,0.21554503,-0.47558135,-0.099647865,1.5012695,0.8748948
0.1,-0.1,0.6,0.5235987755982988,0.0,0,-1.222201,1.9647893,-0.13847657,-0.7821681,-0.08274812,1.313502,-2.639088,0.5632123,1.3431141,0.21562685,-0.47530097,-0.1384827,1.4993597,0.9465983
0.1,-0.1,0.6,0.5235987755982988,0.0,0,-1.1786305,1.9745826,-0.1416696,-0.77874005,0.026916107,1.2833444,-2.040518,0.5429948,1.3476745,0.21859442,-0.47853467,-0.11766654,1.5042981,0.8392431
0.1,-0.1,0.6,0.5235987755982988,0.0,0,-1.1913645,1.9726831,-0.1412177,-0.7880359,-0.06814106,1.284893,-2.3628888,0.5517745,1.3438649,0.21319623,-0.47882992,-0.13653307,1.5033917,0.86925894
0.1,-0.1,0.6,0.5235987755982988,0.0,0,-1.2165815,1.9782903,-0.1230953,-0.78610915,-0.009599031,1.2861356,-2.328228,0.55259913,1.3390814,0.20598161,-0.47607622,-0.11280129,1.5061232,0.85298914
0.1,-0.1,0.6,0.5235987755982988,0.0,0,-1.1692613,1.9729781,-0.14263856,-0.79065365,-0.04662066,1.2986239,-2.5627074,0.554437,1.3520864,0.20750338,-0.47730717,-0.1388129,1.495236,0.84512675
0.1,-0.1,0.6,0.5235987755982988,0.0,0,-1.1367311,1.9683626,-0.1584428,-0.79247874,0.0010700219,1.2997856,-2.1929119,0.54853046,1.350967,0.21109566,-0.47284722,-0.14576028,1.497215,0.8205726
0.1,-0.1,0.6,0.5235987755982988,0.0,0,-1.1501633,1.9603034,-0.15224081,-0.80767304,-0.027666258,1.3157365,-2.5272193,0.56847584,1.3373061,0.22248656,-0.4760382,-0.13704023,1.4977845,0.889031
0.1,-0.1,0.6,0.5235987755982988,0.0,0,-1.1347153,1.972039,-0.1485248,-0.78618926,-0.045983873,1.304582,-2.4374738,0.5514721,1.3475513,0.19808838,-0.4702106,-0.1144069,1.5044161,0.86617553
0.1,-0.1,0.6,0.5235987755982988,0.0,0,-1.19679,1.9697334,-0.13969076,-0.796256,0.00014748426,1.3006892,-2.5392692,0.53783995,1.3435628,0.21607696,-0.47973484,-0.10879061,1.497325,0.88734525
0.1,-0.1,0.6,0.5235987755982988,0.0,0,-1.1617666,1.971927,-0.124516994,-0.8001409,-0.0628516,1.2830439,-2.396371,0.5541455,1.3447236,0.20308363,-0.46968842,-0.1275367,1.5044687,0.8720741
0.1,-0.1,0.6,0.5235987755982988,0.0,0,-1.1718211,1.9725088,-0.17159073,-0.8000044,-0.048154343,1.3148621,-2.3070755,0.55069476,1.346538,0.20575126,-0.48004442,-0.11245017,1.4989824,0.917665
0.1,-0.1,0.6,0.5235987755982988,0.0,0,-1.2046762,1.9793139,-0.16309328,-0.79551995,-0.065923244,1.312948,-2.3734868,0.5580577,1.3403943,0.19907568,-0.48121002,-0.12910788,1.5055891,0.88878614
0.1,-0.1,0.6,0.5235987755982988,0.0,0,-1.2058578,1.9778352,-0.14215045,-0.7888034,-0.07376517,1.3034188,-2.720946,0.54188454,1.346691,0.20818074,-0.4829866,-0.11710524,1.5038228,0.8181663
0.1,-0.1,0.6,0.5235987755982988,0.0,0,-1.2012821,1.9660507,-0.1526236,-0.80239034,-0.08440307,1.2859743,-2.6007082,0.57351124,1.3416435,0.20059776,-0.4777976,-0.12350815,1.5005744,0.9059166
0.1,-0.1,0.6,0.5235987755982988,0.0,0,-1.1868955,1.977744,-0.12865421,-0.79113114,-0.04520433,1.2962749,-2.732975,0.54182374,1.3468664,0.21955395,-0.48301548,-0.13744481,1.5054156,0.7944288
0.1,-0.1,0.6,0.5235987755982988,0.0,0,-1.1289014,1.9752535,-0.15491116,-0.7910659,-0.07957321,1.3038553,-1.7823313,0.5605735,1.3537052,0.19543508,-0.46754268,-0.117992125,1.5054955,0.8861059
0.1,-0.1,0.6,0.5235987755982988,0.0,0,-1.1801765,1.9790787,-0.15369068,-0.7704668,-0.016775241,1.2769625,-2.1874974,0.5480566,1.3406218,0.23002765,-0.48181355,-0.116383284,1.4912243,0.9481428
0.1,-0.1,0.6,0.5235987755982988,0.0,0,-1.1929406,1.967435,-0.14758189,-0.7734731,-0.04623347,1.2949407,-2.4825335,0.56391585,1.3431785,0.19444016,-0.4815329,-0.13606708,1.5021261,0.86169827
0.1,-0.1,0.6,0.5235987755982988,0.0,0,-1.1399969,1.977975,-0.15218134,-0.79873234,-0.09809987,1.2981993,-2.4617913,0.55312675,1.3427427,0.21329904,-0.47821465,-0.13955699,1.497515,0.9226973
0.1,-0.1,0.6,0.5235987755982988,0.0,0,-1.1636317,1.9710938,-0.13794704,-0.7940318,-0.060270593,1.3295366,-2.3408883,0.5519001,1.3596987,0.20712833,-0.47783846,-0.11179168,1.5013473,0.86509806
0.1,-0.1,0.6,0.5235987755982988,0.0,0,-1.1663564,1.9800588,-0.13832396,-0.79435915,-0.021541715,1.3025504,-2.0334496,0.5474132,1.3512548,0.20263086,-0.47717384,-0.14757583,1.5004673,0.87379557
0.1,-0.1,0.6,0.5235987755982988,0.0,0,-1.1651845,1.9612398,-0.15138014,-0.77790767,-0.05753431,1.2925075,-2.1728928,0.57219505,1.3478936,0.1962581,-0.47858864,-0.113126665,1.500675,0.90609735
0.1,-0.1,0.6,0.5235987755982988,0.0,0,-1.2072662,1.9777397,-0.14335257,-0.8041775,-0.026317654,1.2966634,-1.8046119,0.54674304,1.3458593,0.21203731,-0.47077343,-0.12236727,1.5023583,0.8470246
0.1,-0.1,0.6,0.5235987755982988,0.0,0,-1.10172,1.9752219,-0.14277703,-0.77432185,-0.03749811,1.2930458,-2.7108643,0.54420996,1.3487542,0.2115179,-0.47166368,-0.101908065,1.4996154,0.8483434
0.1,-0.1,0.6,0.5235987755982988,0.0,0,-1.1767141,1.9631822,-0.14806695,-0.80059063,-0.05827045,1.3254775,-2.2842402,0.5536075,1.3481821,0.21781264,-0.47508174,-0.114264265,1.5042698,0.9078745
0.1,-0.1,0.6,0.5235987755982988,0.0,0,-1.1757599,1.9640443,-0.14717717,-0.78618586,-0.029615361,1.3028754,-2.2219086,0.5643637,1.3504469,0.19542897,-0.48046947,-0.113174975,1.499457,0.8654133
0.1,-0.1,0.6,0.5235987755982988,0.0,0,-1.1668113,1.9815392,-0.14304996,-0.78545,-0.082692534,1.2963768,-2.1860788,0.5575227,1.3398358,0.20152237,-0.4770419,-0.120248966,1.5074646,0.86121494
0.1,-0.1,0.6,0.5235987755982988,0.0,0,-1.1362079,1.9708517,-0.15030225,-0.7836999,-0.07636797,1.2699649,-2.040513,0.5545983,1.3454983,0.2070059,-0.476556,-0.12169401,1.4981256,0.86744946
0.1,-0.1,0.6,0.5235987755982988,0.0,0,-1.168249,1.9528502,-0.15409783,-0.79197854,-0.09225377,1.2815865,-2.4805496,0.54419935,1.3542252,0.20864221,-0.47881484,-0.12719426,1.5064692,0.88464916
0.1,-0.1,0.6,0.5235987755982988,0.0,0,-1.1578753,1.9759668,-0.14254317,-0.7979713,-0.08455589,1.2974032,-2.2036638,0.54253423,1.347371,0.21607113,-0.47068822,-0.13809656,1.4913743,0.87987363
0.1,-0.1,0.6,0.5235987755982988,0.0,0,-1.1681778,1.9722933,-0.13697319,-0.7875215,-0.024197016,1.2976345,-1.974716,0.5449761,1.3371202,0.21196462,-0.47314718,-0.1044348,1.4992527,0.903867
0.1,-0.1,0.6,0.5235987755982988,0.0,0,-1.180974,1.9734573,-0.15507732,-0.78939664,-0.06967213,1.2866066,-2.3930013,0.54982036,1.3411975,0.2155379,-0.4650179,-0.13915485,1.4952008,0.7845999
0.1,-0.1,0.6,0.5235987755982988,0.0,0,-1.1259983,1.9565372,-0.14246915,-0.7837791,-0.018356584,1.3066952,-2.421063,0.54079044,1.3539459,0.2177569,-0.47548035,-0.12948772,1.4971285,0.8057162
0.1,-0.1,0.6,0.5235987755982988,0.0,0,-1.1091416,1.9757476,-0.13154222,-0.78798395,-0.057456635,1.2835475,-2.3682532,0.5684106,1.3411896,0.20693006,-0.47339284,-0.13985337,1.5000513,0.9558726
0.1,-0.1,0.6,0.5235987755982988,0.0,0,-1.1476682,1.9734911,-0.13324702,-0.787169,-0.07906464,1.2908788,-2.561541,0.5638536,1.3363042,0.20929734,-0.46952575,-0.14098442,1.4965067,0.83860046
0.1,-0.1,0.6,0.5235987755982988,0.0,0,-1.2103494,1.9656122,-0.15916817,-0.79349995,-0.048750542,1.2876347,-1.9929974,0.54421425,1.3476985,0.20921744,-0.47385663,-0.14348865,1.4971412,0.87840647
0.1,-0.1,0.6,0.5235987755982988,0.0,0,-1.1614972,1.9740138,-0.16397758,-0.7858465,-0.054516513,1.2799617,-2.341124,0.55439866,1.3527547,0.19924803,-0.47252288,-0.113733,1.5007426,0.8765985
0.1,-0.1,0.6,0.5235987755982988,0.0,0,-1.1688769,1.9799662,-0.12965162,-0.77255315,-0.08956532,1.3040336,-2.3581443,0.56319165,1.3562403,0.20072864,-0.47386855,-0.11538913,1.4907861,0.8541962
0.1,-0.1,0.6,0.5235987755982988,0.0,0,-1.142837,1.9776952,-0.1513159,-0.8114868,-0.053891744,1.311883,-2.186392,0.551856,1.3501947,0.22845118,-0.47418457,-0.12144478,1.5032841,0.8100925
0.1,-0.1,0.6,0.5235987755982988,0.0,0,-1.162894,1.9802388,-0.17048931,-0.7874191,-0.08800181,1.2764581,-2.0332448,0.5534075,1.3491534,0.2119518,-0.47978145,-0.13095282,1.5039877,0.833991
0.1,-0.1,0.6,0.5235987755982988,0.0,0,-1.1865984,1.961868,-0.13545687,-0.7960373,-0.095141225,1.2984128,-2.6210308,0.5368537,1.3485527,0.20296934,-0.4910563,-0.1327705,1.5022984,0.90603757
0.1,-0.1,0.6,0.5235987755982988,0.0,0,-1.1270229,1.9673271,-0.17395309,-0.79333115,-0.032537773,1.2767957,-2.3690054,0.5572864,1.3473177,0.18757531,-0.4818038,-0.15276302,1.5027034,0.90437776
0.1,-0.1,0.6,0.5235987755982988,0.0,0,-1.177018,1.9806484,-0.14363158,-0.80314827,-0.087379776,1.3085465,-2.1569238,0.5487855,1.3505954,0.19487737,-0.47366378,-0.111423954,1.4986314,0.7919896
0.1,-0.1,0.6,0.5235987755982988,0.0,0,-1.2163728,1.9838535,-0.13726446,-0.78119934,-0.094338015,1.3084596,-2.425059,0.5455559,1.3547158,0.22050424,-0.47633842,-0.103556685,1.4941316,0.89094156
0.1,-0.1,0.6,0.5235987755982988,0.0,0,-1.1377451,1.970057,-0.1558547,-0.7799813,-0.06289031,1.3122023,-2.1754177,0.55857563,1.3456771,0.20218529,-0.48429143,-0.13825335,1.5067269,0.873786
0.1,-0.1,0.6,0.5235987755982988,0.0,0,-1.1495494,1.9682763,-0.14739768,-0.7865647,0.047977116,1.3222764,-2.1056833,0.55489904,1.351324,0.21194038,-0.46923572,-0.12459458,1.5022079,0.83507276
0.1,-0.1,0.6,0.5235987755982988,0.0,0,-1.1708201,1.9767666,-0.14646575,-0.7862532,-0.13208301,1.2723807,-2.4065442,0.5571686,1.3425883,0.21155117,-0.47607666,-0.1229867,1.5035934,0.8905596
0.1,-0.1,0.6,0.5235987755982988,0.0,0,-1.146813,1.9706893,-0.1476975,-0.77718407,-0.10189043,1.295665,-2.6159682,0.55246747,1.3454075,0.21413516,-0.484366,-0.10994774,1.5041196,0.89354193
0.1,-0.1,0.6,0.5235987755982988,0.0,0,-1.1225972,1.9850886,-0.14924896,-0.78884304,-0.029020032,1.2678274,-2.224077,0.5513693,1.3340309,0.2009875,-0.4700076,-0.13491689,1.5009377,0.9182471
0.1,-0.1,0.6,0.5235987755982988,0.0,0,-1.2142502,1.9519613,-0.14053336,-0.79039353,0.006114592,1.287422,-2.488187,0.5611451,1.34876,0.20383313,-0.47524846,-0.12879874,1.4977247,0.94827706
0.1,-0.1,0.6,0.5235987755982988,0.0,0,-1.2098584,1.9698153,-0.11882551,-0.7972913,-0.019614253,1.2897563,-2.7008479,0.5354859,1.3523587,0.2136316,-0.47082126,-0.11722238,1.4999677,0.87100554
0.1,-0.1,0.6,0.5235987755982988,0.0,0,-1.1924639,1.971669,-0.1425961,-0.8078243,0.028463313,1.2987612,-2.312439,0.55963856,1.356091,0.21603738,-0.47903997,-0.14945897,1.5007043,0.9116585
0.1,-0.1,0.6,0.5235987755982988,0.0,0,-1.1363235,1.9842706,-0.16754574,-0.7810954,0.003626951,1.2747052,-1.9548185,0.55351466,1.3519647,0.21341999,-0.48651007,-0.1388829,1.5078402,0.9068532
0.1,-0.1,0.6,0.5235987755982988,0.0,0,-1.1379985,1.9686558,-0.14697781,-0.7809015,-0.075222634,1.2972589,-2.2302547,0.5631327,1.3497294,0.21320012,-0.48250702,-0.13419475,1.5051727,0.86224425
0.1,-0.1,0.6,0.5235987755982988,0.0,0,-1.165405,1.9671379,-0.13076824,-0.78587866,-0.031598,1.298707,-2.3131309,0.54341066,1.3434992,0.209345,-0.47401437,-0.1145227,1.4938389,0.89090985
0.1,-0.1,0.6,0.5235987755982988,0.0,0,-1.1661841,1.967596,-0.1397897,-0.7926779,0.020457547,1.2847135,-2.2237732,0.5386934,1.3419409,0.20258409,-0.47503975,-0.14489073,1.4970057,0.8850599
0.1,-0.1,0.6,0.5235987755982988,0.0,0,-1.1991898,1.9729667,-0.14729719,-0.7934298,-0.05457696,1.2975918,-2.1788688,0.5523317,1.3511089,0.22578372,-0.47297737,-0.13983314,1.5028031,0.79849994
0.1,-0.1,0.6,0.5235987755982988,0.0,0,-1.1625264,1.957657,-0.16844618,-0.79313874,-0.13957849,1.3005856,-2.1057572,0.5477923,1.3364024,0.2078754,-0.48324308,-0.1360761,1.492259,0.86593896
0.1,-0.1,0.6,0.5235987755982988,0.0,0,-1.1328895,1.9810578,-0.1535702,-0.7834686,-0.077536,1.3120781,-2.728004,0.55065703,1.340377,0.1971859,-0.48004013,-0.11207308,1.5020669,0.8348634
0.1,-0.1,0.6,0.5235987755982988,0.0,0,-1.1618932,1.974135,-0.17490275,-0.7865437,-0.014628541,1.2997276,-2.0897224,0.5535799,1.3527207,0.2121733,-0.47750768,-0.1292021,1.5007712,0.8676875
0.1,-0.1,0.6,0.5235987755982988,0.0,0,-1.138337,1.9736094,-0.15676326,-0.7776806,-0.026625602,1.283663,-2.023077,0.55657226,1.3530458,0.21394429,-0.48262113,-0.11722429,1.5050917,0.90728676
0.1,-0.1,0.6,0.5235987755982988,0.0,0,-1.1728135,1.9754792,-0.14528961,-0.7816148,-0.016813414,1.2965091,-2.1433694,0.5454393,1.3454179,0.21686964,-0.47850564,-0.12685068,1.5043019,0.90083635
0.1,-0.1,0.6,0.5235987755982988,0.0,0,-1.209863,1.978681,-0.14379643,-0.78396255,-0.010335191,1.2644533,-2.2941391,0.564014,1.3404694,0.2175465,-0.4762197,-0.12940754,1.5075705,0.89880985
0.1,-0.1,0.6,0.5235987755982988,0.0,0,-1.1064571,1.9703032,-0.17132297,-0.7874166,-0.012204185,1.3092678,-1.8341156,0.55051446,1.3549037,0.20351934,-0.48158664,-0.12224736,1.5036138,0.92144686
0.1,-0.1,0.6,0.5235987755982988,0.0,0,-1.2111073,1.9823779,-0.15646851,-0.7797365,-0.084792495,1.2847703,-2.5520515,0.53687274,1.3481501,0.2051529,-0.474076,-0.11639571,1.5005418,0.8825618
0.1,-0.1,0.6,0.5235987755982988,0.0,0,-1.1548934,1.9588146,-0.13723734,-0.7992047,-0.017889652,1.3107085,-1.9926947,0.5498901,1.3464653,0.20043595,-0.47673836,-0.11593861,1.4995781,0.8720725
0.1,-0.1,0.6,0.5235987755982988,0.0,0,-1.1888137,1.9827896,-0.17971852,-0.7956261,-0.022697728,1.3038117,-2.2184532,0.55615544,1.3560792,0.20833081,-0.47441188,-0.1320622,1.4991038,0.9749601
0.1,-0.1,0.6,0.5235987755982988,0.0,0,-1.1898495,1.9839575,-0.15923753,-0.7826563,-0.051871475,1.3045273,-2.587967,0.5315979,1.349835,0.20717515,-0.4766903,-0.1325421,1.4957774,0.87255794
0.1,-0.1,0.6,0.5235987755982988,0.0,0,-1.167372,1.9610962,-0.1882665,-0.78051496,-0.095779054,1.3226832,-2.4432836,0.54397714,1.3513899,0.20270628,-0.47697765,-0.11240574,1.5006369,0.87117475
0.1,-0.1,0.6,0.5235987755982988,0.0,0,-1.1012294,1.9678911,-0.16898869,-0.7890868,-0.097845845,1.3030398,-1.9892168,0.56010944,1.3427843,0.2067979,-0.47984895,-0.1164904,1.5066859,0.8893437
0.1,-0.1,0.6,0.5235987755982988,0.0,0,-1.1575009,1.9983861,-0.15615039,-0.8011681,-0.09716307,1.3167695,-1.9791753,0.5266335,1.3446914,0.21058065,-0.47523364,-0.12650992,1.498573,0.9186505
0.1,-0.1,0.6,0.5235987755982988,0.0,0,-1.1892636,1.9547997,-0.14622557,-0.7962293,-0.05203377,1.2923295,-2.688849,0.53694683,1.3501475,0.20868377,-0.47753435,-0.1061842,1.4988759,0.85040116
0.1,-0.1,0.6,0.5235987755982988,0.0,0,-1.2060181,1.9890516,-0.1318247,-0.787845,-0.105794005,1.2896967,-2.9135354,0.56072855,1.3451325,0.20846313,-0.47807246,-0.11733999,1.4994518,0.9033668
0.1,-0.1,0.6,0.5235987755982988,0.0,0,-1.1909696,1.9807782,-0.1353678,-0.7788316,-0.037014473,1.2764086,-2.053624,0.5438314,1.355381,0.19874872,-0.4742882,-0.10003528,1.4920365,0.9307308
0.1,-0.1,0.6,0.5235987755982988,0.0,0,-1.1868851,1.9769635,-0.15260464,-0.79087585,-0.008258606,1.2935711,-2.5095136,0.5680087,1.3370389,0.2056008,-0.4683168,-0.12444667,1.4944607,0.86798
0.1,-0.1,0.6,0.5235987755982988,0.0,0,-1.20089,1.9807808,-0.16362436,-0.7624514,-0.084207304,1.2911023,-2.5236485,0.5413598,1.3481667,0.21030805,-0.4731338,-0.11371864,1.4957492,0.9183565
0.1,-0.1,0.6,0.5235987755982988,0.0,0,-1.2050686,1.9673312,-0.14272238,-0.8039342,-0.15073395,1.3178885,-2.3057349,0.54775625,1.3494892,0.21187839,-0.46810105,-0.12994076,1.492749,0.8929711
0.1,-0.1,0.6,0.5235987755982988,0.0,0,-1.1457969,1.9719402,-0.1480372,-0.786871,-0.060744572,1.3196913,-2.3279278,0.54193705,1.3388712,0.21033853,-0.47210944,-0.10329513,1.5046064,0.8618974
0.1,-0.1,0.6,0.5235987755982988,0.0,0,-1.1692163,1.9796915,-0.13650984,-0.7897364,0.023560263,1.3010086,-2.089708,0.5523399,1.3418438,0.21041372,-0.49296328,-0.12341421,1.5048802,0.8210642
0.1,-0.1,0.6,0.5235987755982988,0.0,0,-1.1646421,1.9736439,-0.16251403,-0.78727186,-0.092046626,1.2935117,-2.6134624,0.5587554,1.3426521,0.20841642,-0.47466686,-0.110243805,1.4988978,0.88765687
0.1,-0.1,0.6,0.5235987755982988,0.0,0,-1.1567073,1.9668009,-0.14946716,-0.7783,-0.079906136,1.3075037,-2.5129879,0.52511555,1.347195,0.21707815,-0.47769564,-0.1058356,1.5100521,0.9074841
0.1,-0.1,0.6,0.5235987755982988,0.0,0,-1.1032152,1.9768432,-0.1458586,-0.7885949,-0.090352565,1.3040283,-1.9259222,0.55442053,1.3480031,0.20648576,-0.47997558,-0.1198136,1.5028923,0.8964272
0.1,-0.1,0.6,0.5235987755982988,0.0,0,-1.1352082,1.9740614,-0.15330462,-0.8008229,-0.09216971,1.2936172,-2.6180487,0.5628062,1.351028,0.18680078,-0.47854686,-0.11328595,1.4985341,0.9503371
0.1,-0.1,0.6,0.5235987755982988,0.0,0,-1.1505558,1.9560387,-0.15189604,-0.78269964,-0.011091005,1.3075167,-1.8141744,0.5693774,1.3502737,0.22326232,-0.4808248,-0.14071868,1.5026262,0.92814904
0.1,-0.1,0.6,0.5235987755982988,0.0,0,-1.1450815,1.9769485,-0.16059071,-0.7930722,-0.0887885,1.2956165,-1.94207,0.54537714,1.344014,0.20817992,-0.4635062,-0.12574388,1.4996154,0.85910815
0.1,-0.1,0.6,0.5235987755982988,0.0,0,-1.1348569,1.9727943,-0.14013141,-0.7895827,-0.04338728,1.28819,-2.269413,0.54230005,1.3365365,0.21796145,-0.47181454,-0.13319398,1.5012037,0.858563
0.1,-0.1,0.6,0.5235987755982988,0.0,0,-1.1801366,1.9631501,-0.117293805,-0.7848541,-0.022425182,1.297718,-2.401922,0.5492103,1.3447828,0.21798663,-0.4653485,-0.12422288,1.4894817,0.9276007
0.1,-0.1,0.6,0.5235987755982988,0.0,0,-1.1643289,1.9646428,-0.151006,-0.78335285,0.0308986,1.2878469,-2.3854387,0.55769503,1.3495034,0.20166156,-0.47584197,-0.11867578,1.4980589,0.90020627
0.1,-0.1,0.6,0.5235987755982988,0.0,0,-1.187062,1.9772456,-0.14102589,-0.7946706,0.011996523,1.300964,-2.5098672,0.55250746,1.3447796,0.21221258,-0.46981728,-0.14187708,1.4966244,0.8876989
0.1,-0.1,0.6,0.5235987755982988,0.0,0,-1.1810682,1.9558921,-0.14179324,-0.7875485,-0.093952544,1.2982146,-2.797902,0.5478851,1.3414396,0.20641604,-0.4741422,-0.12068946,1.502248,0.9080997
0.1,-0.1,0.6,0.5235987755982988,0.0,0,-1.1214452,1.9667907,-0.17004393,-0.775695,-0.07196924,1.320024,-2.3349802,0.55657965,1.3521407,0.20963798,-0.4746375,-0.14321332,1.4995633,0.8705531
0.1,-0.1,0.6,0.5235987755982988,0.0,0,-1.1347296,1.9742131,-0.15788196,-0.79375887,-0.040902924,1.304898,-2.3458302,0.5502218,1.3495376,0.19825196,-0.48537838,-0.1107388,1.5038791,0.91629475
0.1,-0.1,0.6,0.5235987755982988,0.0,0,-1.1984618,1.9734248,-0.1487752,-0.8045073,-0.065860435,1.2845882,-2.182616,0.5587846,1.3507566,0.2058216,-0.47065586,-0.13181403,1.494621,0.95307815
0.1,-0.1,0.6,0.5235987755982988,0.0,0,-1.1720539,1.9795898,-0.15156549,-0.8021068,-0.1033346,1.2746142,-2.0567935,0.5540511,1.3494718,0.19468032,-0.4718528,-0.10883307,1.4965037,0.9078288
0.1,-0.1,0.6,0.5235987755982988,0.0,0,-1.1264943,1.9887971,-0.15458883,-0.79066235,0.011178272,1.292079,-2.6040895,0.56297386,1.3499392,0.20979984,-0.46991313,-0.11684094,1.4973388,0.81663305
0.1,-0.1,0.6,0.5235987755982988,0.0,0,-1.1850808,1.9791385,-0.15712614,-0.7798491,-0.11054945,1.2863004,-2.2965155,0.55216736,1.3508295,0.20218086,-0.47104222,-0.116739586,1.4985476,0.9048933
0.1,-0.1,0.6,0.5235987755982988,0.0,0,-1.1498547,1.9775811,-0.14121139,-0.79573035,-0.030016983,1.2857221,-2.5044005,0.53844607,1.3473849,0.20316482,-0.46731395,-0.09471346,1.5016494,0.8623455
0.1,-0.1,0.6,0.5235987755982988,0.0,0,-1.2060231,1.9740632,-0.14805573,-0.78538543,-0.09505028,1.3149081,-2.2393599,0.561429,1.3449569,0.2087632,-0.48379984,-0.11917024,1.4980427,0.8825006
0.1,-0.1,0.6,0.5235987755982988,0.0,0,-1.174356,1.9729795,-0.16116795,-0.80363476,-0.05503396,1.306377,-2.0490377,0.55422705,1.3515139,0.19032042,-0.47736403,-0.11112478,1.4998572,0.9353692
0.1,-0.1,0.6,0.5235987755982988,0.0,0,-1.1926601,1.9699951,-0.15534033,-0.7906388,-0.069172956,1.2998353,-2.2840414,0.5445879,1.3562925,0.19760658,-0.4698485,-0.09779226,1.497114,0.85899657
0.1,-0.1,0.6,0.5235987755982988,0.0,0,-1.187362,1.9735707,-0.1274032,-0.79600865,-0.09672026,1.2953596,-1.8954345,0.5486748,1.3520126,0.20661074,-0.4729591,-0.14788605,1.5002104,0.8137397
0.1,-0.1,0.6,0.5235987755982988,0.0,0,-1.1824745,1.9791853,-0.16156892,-0.7822367,-0.082086466,1.2876414,-2.0929286,0.5550916,1.3574607,0.20181966,-0.48046556,-0.12334403,1.5092407,0.8366937
0.1,-0.1,0.6,0.5235987755982988,0.0,0,-1.19354,1.9788734,-0.13537325,-0.78856236,-0.056413535,1.3089366,-1.8657465,0.5504886,1.3441885,0.22217625,-0.4773705,-0.08872287,1.5009297,0.8699403
0.1,-0.1,0.6,0.5235987755982988,0.0,0,-1.1657683,1.9719236,-0.13948405,-0.8063401,0.023479883,1.3239869,-1.6653951,0.55378664,1.3450868,0.22714396,-0.4697313,-0.1478203,1.5006832,0.8824819
0.1,-0.1,0.6,0.5235987755982988,0.0,0,-1.1207259,1.9737298,-0.1616407,-0.7800792,-0.018831674,1.2870476,-2.3328521,0.5581793,1.3412663,0.21111529,-0.4597965,-0.12394844,1.4874004,0.89963925
0.1,-0.1,0.6,0.5235987755982988,0.0,0,-1.1808337,1.966489,-0.15066087,-0.7923756,-0.090311386,1.3047516,-1.9526812,0.55168194,1.3493352,0.21469365,-0.4750572,-0.11101575,1.5039502,0.87667096
0.1,-0.1,0.6,0.5235987755982988,0.0,0,-1.2319432,1.9745647,-0.1579502,-0.7787412,-0.042443946,1.2921807,-2.423456,0.5605839,1.3487916,0.1995933,-0.4668241,-0.12149374,1.4981838,0.96153194
0.1,-0.1,0.6,0.5235987755982988,0.0,0,-1.2163169,1.9711819,-0.15911643,-0.7898232,-0.082998544,1.3261025,-2.4658175,0.5490547,1.353586,0.20210716,-0.4751169,-0.123866856,1.5005014,0.93154407
0.1,-0.1,0.6,0.5235987755982988,0.0,0,-1.1398345,1.9701791,-0.12228879,-0.77736855,-0.04374394,1.3065668,-2.0186348,0.5560797,1.3375198,0.21712804,-0.48493358,-0.11226409,1.5052491,0.9144538
0.1,-0.1,0.6,0.5235987755982988,0.0,0,-1.148426,1.9708552,-0.16570573,-0.7887153,-0.021930046,1.2975649,-1.661417,0.5656684,1.3425756,0.21167104,-0.47854227,-0.12094762,1.501457,0.8538592
0.1,-0.1,0.6,0.5235987755982988,0.0,0,-1.1064388,1.9751263,-0.17225863,-0.7919404,-0.03773265,1.2902944,-2.435917,0.56103176,1.3470469,0.19354871,-0.46781856,-0.1211144,1.4999512,0.9302458
0.1,-0.1,0.6,0.5235987755982988,0.0,0,-1.1419127,1.9823351,-0.15154843,-0.79557586,-0.0763086,1.3167922,-2.1616793,0.56247884,1.3468457,0.20211977,-0.4713746,-0.1316301,1.5079454,0.9380428
0.1,-0.1,0.6,0.5235987755982988,0.0,0,-1.2356939,1.9733022,-0.1446351,-0.790686,-0.045175757,1.3037338,-2.0254464,0.5582483,1.3482852,0.20361777,-0.47375524,-0.14565834,1.5027673,0.8680115
0.1,-0.1,0.6,0.5235987755982988,0.0,0,-1.2092491,1.960895,-0.15542156,-0.7752208,-0.08517038,1.3050853,-2.245544,0.5416115,1.360314,0.20528764,-0.4670869,-0.11829873,1.4968203,0.94389206
0.1,-0.1,0.6,0.5235987755982988,0.0,0,-1.1874983,1.9772339,-0.13042074,-0.7811448,-0.031562738,1.3442698,-2.308948,0.54717726,1.3449298,0.21208008,-0.4734709,-0.120560765,1.496612,0.8459957
0.1,-0.1,0.6,0.5235987755982988,0.0,0,-1.1873462,1.9758347,-0.1738732,-0.80076647,-0.058180824,1.2997466,-2.315267,0.5412111,1.3463782,0.22287999,-0.4732554,-0.10676426,1.5064088,0.91755813
0.1,-0.1,0.6,0.5235987755982988,0.0,0,-1.1747893,1.9808997,-0.17015484,-0.7866756,-0.033765286,1.3268572,-2.4446511,0.5593007,1.3433459,0.2069777,-0.4751344,-0.13522696,1.5063729,0.8365107
0.1,-0.1,0.6,0.5235987755982988,0.0,0,-1.2229565,1.9670155,-0.13570467,-0.7852018,-0.0051104045,1.327253,-2.5258713,0.5457686,1.3481414,0.20533356,-0.49346974,-0.1507049,1.4951754,0.8379573
0.1,-0.1,0.6,0.5235987755982988,0.0,0,-1.1764162,1.9698123,-0.16851158,-0.78839177,0.041232366,1.284658,-2.0597816,0.55829734,1.3503748,0.20333786,-0.48843673,-0.10209769,1.4979161,0.8436611
0.1,-0.1,0.6,0.5235987755982988,0.0,0,-1.1810637,1.9753767,-0.13355286,-0.8013535,-0.06326107,1.2642527,-2.3281758,0.5541379,1.3453797,0.21771885,-0.47625634,-0.1351527,1.4961556,0.888724
0.1,-0.1,0.6,0.5235987755982988,0.0,0,-1.1874353,1.9676545,-0.14915732,-0.80800945,-0.03281002,1.2850128,-1.8760288,0.5439251,1.3492385,0.2045977,-0.48066723,-0.11947452,1.5024638,0.87160945
0.1,-0.1,0.6,0.5235987755982988,0.0,0,-1.1750997,1.9786661,-0.14812176,-0.7936223,-0.041591946,1.2964096,-2.288432,0.54467905,1.3409129,0.20362619,-0.4783924,-0.11281152,1.5040734,0.8454077
