sanky1234/BimanualDexCatch/isaacgymenvs/cem_results/football_pose_0.0_0.0_1.4999999999999998_-0.5235987755982988_0.5235987755982988_0_2025-05-26.csv
x,y,z,roll,pitch,yaw,robot1/joint1,robot1/joint2,robot1/joint3,robot1/joint4,robot1/joint5,robot1/joint6,robot1/joint7,robot2/joint1,robot2/joint2,robot2/joint3,robot2/joint4,robot2/joint5,robot2/joint6,robot2/joint7
0.0,0.0,1.4999999999999998,-0.5235987755982988,0.5235987755982988,0,1.0627867,-1.0976475,-2.2148788,-0.08967602,-0.044649117,1.2138498,-0.27351174,-0.5467385,1.2807946,0.009778447,-0.07731837,-0.029456502,1.2738695,1.3621577
0.0,0.0,1.4999999999999998,-0.5235987755982988,0.5235987755982988,0,1.0625564,-1.0975274,-2.2143798,-0.08942935,-0.061953783,1.2181202,-0.18761894,-0.5471129,1.2880125,0.0043245074,-0.073657714,0.012317702,1.2700506,0.10306179
0.0,0.0,1.4999999999999998,-0.5235987755982988,0.5235987755982988,0,1.062849,-1.0977114,-2.2164805,-0.08950238,-0.075373344,1.2197967,-0.10552989,-0.5135582,1.2746936,-0.014891512,-0.07552881,-0.02722737,1.2731541,-0.89028895
0.0,0.0,1.4999999999999998,-0.5235987755982988,0.5235987755982988,0,1.0625702,-1.097598,-2.2169344,-0.08904901,-0.02759086,1.2140027,-0.062115468,-0.80255103,1.2735623,0.009577546,-0.08288186,-0.03174844,1.2719421,0.7849256
0.0,0.0,1.4999999999999998,-0.5235987755982988,0.5235987755982988,0,1.0625885,-1.0976458,-2.2132154,-0.08953178,-0.041584916,1.2193334,0.2568082,-0.5967444,1.273909,-0.002740506,-0.07452241,-0.003964473,1.2725552,-0.14796712
0.0,0.0,1.4999999999999998,-0.5235987755982988,0.5235987755982988,0,1.0625321,-1.0978105,-2.2158375,-0.08958354,-0.03245029,1.2159507,0.14417407,-0.45355004,1.2714083,0.0026647293,-0.08469286,0.011469501,1.2643089,0.8349157
0.0,0.0,1.4999999999999998,-0.5235987755982988,0.5235987755982988,0,1.0627692,-1.097677,-2.215026,-0.08984383,-0.022678275,1.2188488,-0.11523297,-0.7376513,1.2706851,-0.0033599094,-0.07675939,0.0114288265,1.2682097,-0.34086198
0.0,0.0,1.4999999999999998,-0.5235987755982988,0.5235987755982988,0,1.0627606,-1.0977218,-2.2170982,-0.09155343,-0.016932655,1.2160896,0.09993699,-0.53944004,1.2799292,-0.014472088,-0.08007838,-0.0029431083,1.2683401,2.418177
0.0,0.0,1.4999999999999998,-0.5235987755982988,0.5235987755982988,0,1.0624633,-1.0976456,-2.2145777,-0.092639245,-0.03189288,1.2174538,-0.28939253,-0.7572356,1.2689481,-0.0039886525,-0.0832375,-0.025115982,1.2763207,1.0542356
0.0,0.0,1.4999999999999998,-0.5235987755982988,0.5235987755982988,0,1.0626488,-1.097906,-2.214248,-0.09030373,-0.036163263,1.2167097,-0.13652848,-0.5436502,1.2687964,-0.009324406,-0.0769992,0.0031754451,1.2673093,-0.97304666
0.0,0.0,1.4999999999999998,-0.5235987755982988,0.5235987755982988,0,1.0628737,-1.0976186,-2.2123702,-0.09050959,-0.035028335,1.2141284,-0.09607975,-0.57432836,1.2812774,-0.006295085,-0.08506825,-0.01912009,1.2739651,-0.3065065
0.0,0.0,1.4999999999999998,-0.5235987755982988,0.5235987755982988,0,1.0625837,-1.0977403,-2.2160316,-0.091102265,-0.018495964,1.2189174,-0.39970645,-0.7507814,1.269567,0.013989922,-0.08392443,0.0091874795,1.2776016,-0.25923017
0.0,0.0,1.4999999999999998,-0.5235987755982988,0.5235987755982988,0,1.0627326,-1.0976921,-2.2140672,-0.09466493,-0.050887313,1.2187389,-0.041038904,-0.58380413,1.268815,0.0028135532,-0.0826894,0.0014452098,1.259887,-0.89991087
0.0,0.0,1.4999999999999998,-0.5235987755982988,0.5235987755982988,0,1.0625492,-1.0977082,-2.2132554,-0.08778753,-0.04659563,1.215761,-0.37296197,-0.7631737,1.2696983,-0.028057668,-0.081133716,-0.009838373,1.2610928,0.6087846
0.0,0.0,1.4999999999999998,-0.5235987755982988,0.5235987755982988,0,1.0625274,-1.0977672,-2.2150495,-0.08720553,-0.012158865,1.2153969,-0.14908193,-0.613799,1.2764632,-0.01488411,-0.07806,-0.00079048675,1.2649837,-0.13888526
0.0,0.0,1.4999999999999998,-0.5235987755982988,0.5235987755982988,0,1.0627286,-1.0978094,-2.2129722,-0.08983596,-0.013274331,1.2175511,0.04272206,-0.72190815,1.2698529,-0.02819588,-0.08112993,0.012831479,1.2657112,0.14685734
0.0,0.0,1.4999999999999998,-0.5235987755982988,0.5235987755982988,0,1.0625274,-1.0979186,-2.2141535,-0.09332033,-0.05079419,1.2165848,-0.39882338,-0.50742704,1.2823981,-0.011225205,-0.08231493,0.00019298837,1.2686864,0.81335884
0.0,0.0,1.4999999999999998,-0.5235987755982988,0.5235987755982988,0,1.0626365,-1.0980233,-2.2125843,-0.09070108,-0.060064916,1.2147465,0.07047187,-0.4312365,1.2733909,0.011877242,-0.07252201,-0.020022836,1.2597835,-0.10177753
0.0,0.0,1.4999999999999998,-0.5235987755982988,0.5235987755982988,0,1.0625548,-1.097643,-2.2161622,-0.088691466,-0.06466039,1.2167103,-0.13409291,-0.4763259,1.276762,-0.0111024305,-0.085310735,-0.0135530345,1.2667785,-1.1956823
0.0,0.0,1.4999999999999998,-0.5235987755982988,0.5235987755982988,0,1.0623443,-1.0977119,-2.2153385,-0.09039733,-0.03310164,1.2171861,-0.0015195647,-0.49289685,1.2717471,-0.029515836,-0.077249475,-0.030353444,1.264303,-0.48959565
0.0,0.0,1.4999999999999998,-0.5235987755982988,0.5235987755982988,0,1.0625854,-1.0977695,-2.2145705,-0.09107053,-0.06923288,1.2188425,-0.06975299,-0.5785855,1.2801143,-0.024994941,-0.07603058,-0.0029453135,1.2649357,-1.005099
0.0,0.0,1.4999999999999998,-0.5235987755982988,0.5235987755982988,0,1.0624568,-1.0976256,-2.2143102,-0.087937936,-0.053653784,1.2179236,0.010362841,-0.6824095,1.2718091,0.0014531547,-0.08437682,-0.011947308,1.2634752,0.37593636
0.0,0.0,1.4999999999999998,-0.5235987755982988,0.5235987755982988,0,1.0627337,-1.0975834,-2.2156596,-0.088721536,-0.052923027,1.2219188,-0.050230317,-0.41034895,1.2808179,0.005010763,-0.08093303,-0.018316561,1.2686366,-1.1191559
0.0,0.0,1.4999999999999998,-0.5235987755982988,0.5235987755982988,0,1.062594,-1.0977794,-2.2141936,-0.08984021,-0.042197186,1.2169569,0.0072136964,-0.5719075,1.2682836,-0.019582987,-0.07865804,-0.021347588,1.2589989,1.6706924
0.0,0.0,1.4999999999999998,-0.5235987755982988,0.5235987755982988,0,1.0623394,-1.0976857,-2.2151766,-0.09104624,-0.04608275,1.2146362,-0.49345028,-0.45138678,1.2888008,0.0008020316,-0.07918184,-0.02860196,1.2689302,0.46426937
0.0,0.0,1.4999999999999998,-0.5235987755982988,0.5235987755982988,0,1.062561,-1.0976351,-2.2152913,-0.08852063,-0.033554107,1.2171128,0.041104738,-0.7210343,1.2693933,-0.012129431,-0.08343431,0.00043567413,1.2631795,0.3051609
0.0,0.0,1.4999999999999998,-0.5235987755982988,0.5235987755982988,0,1.0629191,-1.0975834,-2.2135832,-0.0919361,-0.052612785,1.2138244,-0.11826594,-0.6572549,1.2753996,0.00046691514,-0.08128681,0.012014287,1.2702584,-0.28717282
0.0,0.0,1.4999999999999998,-0.5235987755982988,0.5235987755982988,0,1.0624465,-1.0980908,-2.2137675,-0.08962525,-0.03586431,1.2178578,-0.21936142,-0.5142946,1.27875,-0.032678936,-0.08422666,0.0019514079,1.272132,-0.5951201
0.0,0.0,1.4999999999999998,-0.5235987755982988,0.5235987755982988,0,1.062404,-1.0976484,-2.2138314,-0.09324499,-0.062162995,1.2133843,-0.07786832,-0.43034834,1.2730713,-0.021858128,-0.083963595,-0.010871828,1.2663515,0.7254293
0.0,0.0,1.4999999999999998,-0.5235987755982988,0.5235987755982988,0,1.0624609,-1.0976993,-2.215326,-0.088919185,-0.026641417,1.2178519,0.07624125,-0.541711,1.2671633,-0.00810968,-0.07491723,-0.0049922853,1.264,1.105686
0.0,0.0,1.4999999999999998,-0.5235987755982988,0.5235987755982988,0,1.0625507,-1.0977018,-2.2132242,-0.09241294,-0.053271446,1.2139299,-0.037439764,-0.55923176,1.2738622,0.0039626854,-0.076466784,-0.0100279795,1.273352,1.7862966
0.0,0.0,1.4999999999999998,-0.5235987755982988,0.5235987755982988,0,1.0626589,-1.0979258,-2.212965,-0.087850556,-0.0547807,1.2180035,-0.051768463,-0.5020989,1.2639806,0.0011008412,-0.079353034,-0.016702082,1.2662792,0.35687083
0.0,0.0,1.4999999999999998,-0.5235987755982988,0.5235987755982988,0,1.0625688,-1.0979886,-2.2136345,-0.091091886,-0.03627898,1.2197255,-0.08056816,-0.5385137,1.2781583,-0.021882229,-0.08012698,-0.007975028,1.272054,0.70949775
0.0,0.0,1.4999999999999998,-0.5235987755982988,0.5235987755982988,0,1.0625262,-1.0977044,-2.2177572,-0.090494275,-0.06644201,1.2171583,-0.120891586,-0.47920007,1.2682658,0.009609903,-0.08050114,-0.012939114,1.260431,0.07261993
0.0,0.0,1.4999999999999998,-0.5235987755982988,0.5235987755982988,0,1.0625055,-1.0976571,-2.212839,-0.090987764,-0.042993255,1.2165407,-0.078195505,-0.7217752,1.2697023,-0.008130152,-0.07936031,-0.023659568,1.2751997,0.5092063
0.0,0.0,1.4999999999999998,-0.5235987755982988,0.5235987755982988,0,1.0624281,-1.0975803,-2.2154977,-0.08578651,-0.048552394,1.2154295,0.02790227,-0.62302047,1.2655367,0.0026919143,-0.082497634,0.026534725,1.2569188,-0.36531934
0.0,0.0,1.4999999999999998,-0.5235987755982988,0.5235987755982988,0,1.0624725,-1.097642,-2.2151062,-0.091863185,-0.029282242,1.2163614,-0.142248,-0.6209753,1.2884467,0.0013300269,-0.0817159,0.009204212,1.2733135,-0.35542777
0.0,0.0,1.4999999999999998,-0.5235987755982988,0.5235987755982988,0,1.0627238,-1.0978079,-2.2165844,-0.088518344,-0.07635228,1.2165099,0.07448314,-0.68692255,1.281346,0.02972521,-0.0755241,-0.0084695695,1.2756506,2.4797695
0.0,0.0,1.4999999999999998,-0.5235987755982988,0.5235987755982988,0,1.0625086,-1.0976826,-2.216301,-0.0888504,-0.026398983,1.2145536,-0.29056084,-0.6354125,1.2759644,0.005998521,-0.07678815,-0.016385822,1.2651961,-0.11651176
0.0,0.0,1.4999999999999998,-0.5235987755982988,0.5235987755982988,0,1.0625157,-1.0979347,-2.212804,-0.089543216,-0.015515179,1.2218332,0.11284165,-0.6249204,1.2817284,-0.019692024,-0.08361418,-0.00032316908,1.2644035,0.552629
0.0,0.0,1.4999999999999998,-0.5235987755982988,0.5235987755982988,0,1.0629565,-1.0975624,-2.2148125,-0.090041965,-0.025954211,1.2147598,-0.12553932,-0.43966323,1.2741078,0.0040799007,-0.07968805,-0.014569841,1.2583171,-0.057434894
0.0,0.0,1.4999999999999998,-0.5235987755982988,0.5235987755982988,0,1.0626724,-1.0979064,-2.2147198,-0.0874976,-0.046410944,1.2205453,0.0652838,-0.5137507,1.2804532,0.017775748,-0.0784683,-0.025318796,1.2590891,-1.0496768
0.0,0.0,1.4999999999999998,-0.5235987755982988,0.5235987755982988,0,1.0624202,-1.0978761,-2.2155986,-0.09005721,-0.057193566,1.2146026,-0.016709968,-0.53507376,1.2666101,-0.009671779,-0.079885185,-0.049838237,1.2593678,0.34504026
0.0,0.0,1.4999999999999998,-0.5235987755982988,0.5235987755982988,0,1.06271,-1.0976603,-2.2139423,-0.091578804,-0.05025749,1.215802,-0.1045278,-0.57579786,1.274481,-0.013175447,-0.07653433,-0.00137718,1.2668571,-0.85931265
0.0,0.0,1.4999999999999998,-0.5235987755982988,0.5235987755982988,0,1.0628021,-1.0978006,-2.2142432,-0.09048026,-0.04582942,1.2184154,0.1650387,-0.65932804,1.2756103,-0.006420234,-0.08485957,0.013481481,1.2636919,-0.73229146
0.0,0.0,1.4999999999999998,-0.5235987755982988,0.5235987755982988,0,1.062324,-1.0977805,-2.2140415,-0.08965636,-0.040350437,1.2142351,-0.38807622,-0.62715685,1.2807466,0.0036664912,-0.07735651,-0.0067986776,1.2702324,0.54430336
0.0,0.0,1.4999999999999998,-0.5235987755982988,0.5235987755982988,0,1.0624698,-1.0975605,-2.2140374,-0.08902496,-0.00096220366,1.217317,0.123651974,-0.69051576,1.2651656,-0.0055006105,-0.07721915,-0.027914466,1.2680702,1.8384377
0.0,0.0,1.4999999999999998,-0.5235987755982988,0.5235987755982988,0,1.0625304,-1.0976704,-2.215339,-0.09188968,-0.03593481,1.2165867,-0.13780607,-0.4987029,1.2694254,0.0027160752,-0.0823442,0.02881919,1.2687465,-2.204633
0.0,0.0,1.4999999999999998,-0.5235987755982988,0.5235987755982988,0,1.0627043,-1.0977169,-2.2144353,-0.090428635,-0.03974899,1.2151047,-0.17726149,-0.6472742,1.284165,-0.010367023,-0.08431244,0.004722145,1.2701538,0.7298002
0.0,0.0,1.4999999999999998,-0.5235987755982988,0.5235987755982988,0,1.0628501,-1.0976945,-2.215416,-0.09560502,-0.020773247,1.2166419,-0.111201935,-0.60815537,1.2786299,-0.030983463,-0.07838349,-0.03326945,1.2712933,1.0377028
0.0,0.0,1.4999999999999998,-0.5235987755982988,0.5235987755982988,0,1.0626074,-1.0977392,-2.2135952,-0.088096,-0.030317176,1.2157506,-0.22954784,-0.76074046,1.2733752,-0.0030460095,-0.08085562,-0.006328378,1.2684357,-0.30371234
0.0,0.0,1.4999999999999998,-0.5235987755982988,0.5235987755982988,0,1.0627472,-1.0976576,-2.212342,-0.08778587,-0.011323574,1.2165297,-0.24946736,-0.793371,1.2733729,0.011377096,-0.08235383,-0.004832619,1.2681273,-1.2014045
0.0,0.0,1.4999999999999998,-0.5235987755982988,0.5235987755982988,0,1.0624729,-1.0977437,-2.2125304,-0.090573825,-0.026054395,1.2171249,0.0020393075,-0.61231565,1.2783338,-0.02540702,-0.073270746,-0.02037863,1.26826,-1.2027248
0.0,0.0,1.4999999999999998,-0.5235987755982988,0.5235987755982988,0,1.062387,-1.0976593,-2.2136664,-0.089436494,-0.04411041,1.2164313,-0.046458602,-0.50584596,1.273852,-0.01714577,-0.08632607,-0.00873373,1.2668852,0.12162608
0.0,0.0,1.4999999999999998,-0.5235987755982988,0.5235987755982988,0,1.062583,-1.0976087,-2.212868,-0.09251029,-0.046276886,1.2175173,-0.25694126,-0.5907093,1.2703605,0.0038769275,-0.07794608,-0.0043777525,1.2618805,-0.9099298
0.0,0.0,1.4999999999999998,-0.5235987755982988,0.5235987755982988,0,1.0627036,-1.0976576,-2.2134697,-0.09042504,-0.022360742,1.2173923,0.043673113,-0.69954664,1.2724733,-0.00010670586,-0.070804656,0.00614691,1.2623042,0.8897395
0.0,0.0,1.4999999999999998,-0.5235987755982988,0.5235987755982988,0,1.0627577,-1.0975746,-2.2151759,-0.09185647,-0.09416146,1.2205216,-0.375675,-0.59333354,1.2783213,-0.010569747,-0.07957359,-0.011272761,1.2653534,-2.2262836
0.0,0.0,1.4999999999999998,-0.5235987755982988,0.5235987755982988,0,1.0625435,-1.0977625,-2.2144847,-0.089716375,-0.04611931,1.2146223,-0.19999717,-0.5337672,1.269579,-0.01921618,-0.08446766,0.009973019,1.274087,-1.1684297
0.0,0.0,1.4999999999999998,-0.5235987755982988,0.5235987755982988,0,1.0626771,-1.097566,-2.2140157,-0.08935925,-0.034166165,1.2164638,-0.106705315,-0.46291634,1.2754482,-0.012950196,-0.074048705,-0.005153966,1.2694315,1.726375
0.0,0.0,1.4999999999999998,-0.5235987755982988,0.5235987755982988,0,1.0628009,-1.0977726,-2.2150185,-0.08966539,-0.06738718,1.2139801,0.1110449,-0.54756016,1.2666802,-0.018123336,-0.084860206,0.00079533586,1.2694819,0.8825644
0.0,0.0,1.4999999999999998,-0.5235987755982988,0.5235987755982988,0,1.0625496,-1.0976706,-2.2150166,-0.088598296,-0.049299657,1.2188421,-0.05506737,-0.6364718,1.2755705,-0.002383962,-0.078799464,-0.0126385465,1.2692701,-1.3286703
0.0,0.0,1.4999999999999998,-0.5235987755982988,0.5235987755982988,0,1.0622678,-1.0976709,-2.2142532,-0.09087497,-0.046918105,1.2185835,-0.04393563,-0.5064093,1.2754596,-0.0067733782,-0.08006595,-0.025474587,1.2655914,0.43817565
0.0,0.0,1.4999999999999998,-0.5235987755982988,0.5235987755982988,0,1.0625848,-1.0978763,-2.2145858,-0.08830097,-0.046727724,1.2167403,0.07468779,-0.8988936,1.2806059,0.016753431,-0.07557871,-0.02993672,1.264592,-1.631184
0.0,0.0,1.4999999999999998,-0.5235987755982988,0.5235987755982988,0,1.0625088,-1.0976785,-2.2141955,-0.09086971,-0.05846444,1.2143015,0.06634319,-0.6492709,1.2680122,-0.0081435125,-0.07886627,-0.011332506,1.2599248,-1.5082625
0.0,0.0,1.4999999999999998,-0.5235987755982988,0.5235987755982988,0,1.0624921,-1.097632,-2.2153857,-0.089572735,-0.04185065,1.2186725,-0.2518714,-0.49050504,1.2745208,-0.009587805,-0.075736545,-0.020372093,1.258458,0.4649178
0.0,0.0,1.4999999999999998,-0.5235987755982988,0.5235987755982988,0,1.0624515,-1.0975217,-2.2147963,-0.08871375,-0.022304239,1.2177879,0.046235263,-0.61063087,1.2597935,0.0012758247,-0.07675221,-0.021665033,1.2686967,1.0259117
0.0,0.0,1.4999999999999998,-0.5235987755982988,0.5235987755982988,0,1.0625484,-1.09787,-2.2135928,-0.09367919,-0.060807493,1.215475,-0.3152497,-0.681692,1.2640439,0.000654059,-0.0781229,-0.047306463,1.2635078,-0.39677173
0.0,0.0,1.4999999999999998,-0.5235987755982988,0.5235987755982988,0,1.0626906,-1.0980537,-2.2136533,-0.09372049,-0.060392052,1.2165555,0.20247391,-0.52701545,1.2763166,-0.0028437325,-0.08272608,-0.0072468994,1.2668942,-0.4505277
0.0,0.0,1.4999999999999998,-0.5235987755982988,0.5235987755982988,0,1.0624381,-1.0975009,-2.2145355,-0.09049109,-0.029860064,1.2168553,0.061902888,-0.4324326,1.2713593,-0.04039115,-0.076597586,0.019145519,1.266782,0.32661828
0.0,0.0,1.4999999999999998,-0.5235987755982988,0.5235987755982988,0,1.0624022,-1.0975875,-2.2125716,-0.089421384,-0.020505683,1.2173727,-0.10184594,-0.5068418,1.265977,-0.015715191,-0.07243147,-0.007294247,1.2642983,-0.24088441
0.0,0.0,1.4999999999999998,-0.5235987755982988,0.5235987755982988,0,1.0627849,-1.0977874,-2.2142227,-0.08984259,-0.079381995,1.2150397,0.032175787,-0.6326828,1.2689303,-0.015205503,-0.0796544,0.0058392896,1.2745923,-0.17067488
0.0,0.0,1.4999999999999998,-0.5235987755982988,0.5235987755982988,0,1.062507,-1.097866,-2.213007,-0.08996048,-0.051734563,1.2149413,-0.058120202,-0.6109175,1.2774359,-0.02559064,-0.07679895,-0.002937176,1.256366,-0.2243693
0.0,0.0,1.4999999999999998,-0.5235987755982988,0.5235987755982988,0,1.0627056,-1.0978003,-2.2132175,-0.09095973,-0.045254704,1.220614,0.045004554,-0.573915,1.2662208,-0.026736818,-0.07985741,-0.028676715,1.2729497,1.3086147
0.0,0.0,1.4999999999999998,-0.5235987755982988,0.5235987755982988,0,1.0625845,-1.0976595,-2.2151687,-0.09046046,-0.03947597,1.2157108,0.06900304,-0.6745942,1.2653456,-0.008988877,-0.070705004,-0.025674265,1.2656393,0.8990068
0.0,0.0,1.4999999999999998,-0.5235987755982988,0.5235987755982988,0,1.0625505,-1.0977101,-2.2159097,-0.08986844,-0.0587377,1.2186491,-0.16347462,-0.53871566,1.2763467,-0.021973915,-0.07907643,-0.0077962754,1.26906,0.92969304
0.0,0.0,1.4999999999999998,-0.5235987755982988,0.5235987755982988,0,1.0626082,-1.097754,-2.2127516,-0.08730268,-0.03731917,1.2173685,-0.21773835,-0.65077984,1.2845241,-0.008978293,-0.07852129,-0.032479398,1.259173,0.13152288
0.0,0.0,1.4999999999999998,-0.5235987755982988,0.5235987755982988,0,1.0625798,-1.0976477,-2.2143035,-0.09120205,-0.059793103,1.2150397,-0.0366679,-0.59860796,1.2792524,0.0014381477,-0.07413242,-0.018391177,1.2706741,0.4524013
0.0,0.0,1.4999999999999998,-0.5235987755982988,0.5235987755982988,0,1.0624987,-1.0978045,-2.2139459,-0.08540469,-0.07037976,1.2146949,-0.20400564,-0.6900959,1.2751968,0.0023313025,-0.08452989,-0.014068757,1.2617496,0.8047594
0.0,0.0,1.4999999999999998,-0.5235987755982988,0.5235987755982988,0,1.0625756,-1.0976853,-2.2144186,-0.09074713,-0.03735971,1.2195873,-0.021098943,-0.49067435,1.2810354,0.011228431,-0.079035826,0.009913045,1.2714602,1.1491929
0.0,0.0,1.4999999999999998,-0.5235987755982988,0.5235987755982988,0,1.0625625,-1.0977343,-2.21259,-0.09082309,-0.03084797,1.2167567,-0.0029972265,-0.6243275,1.2614238,0.0034606627,-0.075677656,0.006161223,1.266984,1.844966
0.0,0.0,1.4999999999999998,-0.5235987755982988,0.5235987755982988,0,1.0627474,-1.0977211,-2.2144854,-0.092746295,-0.030768398,1.2181852,-0.16282006,-0.53076977,1.273956,-0.039381757,-0.08057051,0.012986217,1.2650509,-0.08051191
0.0,0.0,1.4999999999999998,-0.5235987755982988,0.5235987755982988,0,1.0627216,-1.0978884,-2.2142615,-0.09046976,-0.077172026,1.2161536,0.2382151,-0.44202927,1.2742393,-0.03776971,-0.08041299,-0.019180398,1.2685431,-0.21148643
0.0,0.0,1.4999999999999998,-0.5235987755982988,0.5235987755982988,0,1.0624583,-1.0978534,-2.2139635,-0.09196259,-0.055079777,1.2177151,-0.13377081,-0.49839142,1.2714515,-0.00029432407,-0.08433622,0.002821915,1.2685329,0.79349196
0.0,0.0,1.4999999999999998,-0.5235987755982988,0.5235987755982988,0,1.062452,-1.0978035,-2.213145,-0.08854307,-0.051679913,1.2146416,0.09764815,-0.6474619,1.2796111,-0.022451252,-0.07668749,0.012997796,1.2681171,-0.21441995
0.0,0.0,1.4999999999999998,-0.5235987755982988,0.5235987755982988,0,1.0627738,-1.0977795,-2.215235,-0.08955005,-0.05357928,1.2163185,-0.161772,-0.648764,1.282889,-0.0018003287,-0.07949503,-0.0047047734,1.2705519,0.4306813
0.0,0.0,1.4999999999999998,-0.5235987755982988,0.5235987755982988,0,1.062265,-1.097619,-2.2128663,-0.088969946,-0.053670935,1.2180489,-0.23176028,-0.54090333,1.274772,0.008123326,-0.082115486,0.03256505,1.264879,0.41011095
0.0,0.0,1.4999999999999998,-0.5235987755982988,0.5235987755982988,0,1.062587,-1.0980344,-2.2142737,-0.08882139,-0.040064912,1.2165595,-0.19935095,-0.57148933,1.2786318,-0.012108327,-0.06734382,-0.019676313,1.2685938,0.35051256
0.0,0.0,1.4999999999999998,-0.5235987755982988,0.5235987755982988,0,1.0625933,-1.0977969,-2.214974,-0.08724768,0.0009076871,1.2126825,-0.014494667,-0.59732217,1.2751803,-0.019356597,-0.07504089,-0.011847591,1.2700762,0.48910952
0.0,0.0,1.4999999999999998,-0.5235987755982988,0.5235987755982988,0,1.0623373,-1.0978342,-2.215363,-0.08937864,-0.02996736,1.2152803,0.06873209,-0.55261606,1.2807676,0.0008801147,-0.07883036,-0.02687979,1.2727078,-0.13059077
0.0,0.0,1.4999999999999998,-0.5235987755982988,0.5235987755982988,0,1.0625142,-1.0978931,-2.21299,-0.08962872,-0.049861476,1.2168039,-0.086005256,-0.6209357,1.2701055,-0.012260818,-0.08632632,-0.01650541,1.2722733,0.56595
0.0,0.0,1.4999999999999998,-0.5235987755982988,0.5235987755982988,0,1.062756,-1.0978383,-2.2132099,-0.090313464,-0.03017246,1.2194774,7.76631e-05,-0.6867741,1.2755561,0.0030674816,-0.07661142,-0.014919069,1.2695662,1.6856724
0.0,0.0,1.4999999999999998,-0.5235987755982988,0.5235987755982988,0,1.0627096,-1.0977486,-2.2140384,-0.09090988,-0.045835495,1.2172405,-0.0484725,-0.6735416,1.2714671,0.004386829,-0.0806289,-0.004660029,1.2686325,1.0847534
0.0,0.0,1.4999999999999998,-0.5235987755982988,0.5235987755982988,0,1.0626211,-1.0978651,-2.21477,-0.08931804,-0.05257976,1.2166097,-0.24270324,-0.65278226,1.2780782,-0.01632027,-0.08209819,-0.019721946,1.2671115,-0.25330392
0.0,0.0,1.4999999999999998,-0.5235987755982988,0.5235987755982988,0,1.0624837,-1.0976249,-2.2152452,-0.08646081,-0.03061324,1.2167217,-0.22344314,-0.40744635,1.2819031,-0.021708388,-0.068442024,-0.03251653,1.2716463,-1.333163
0.0,0.0,1.4999999999999998,-0.5235987755982988,0.5235987755982988,0,1.0626153,-1.0975635,-2.2161295,-0.091402255,-0.010406726,1.2181445,-0.09176168,-0.49651474,1.2768086,0.00910869,-0.07388678,-0.0325668,1.2603453,0.42711025
0.0,0.0,1.4999999999999998,-0.5235987755982988,0.5235987755982988,0,1.062555,-1.0974939,-2.2142644,-0.09066933,-0.023422237,1.2171706,-0.08787661,-0.5411863,1.27612,-0.024987305,-0.08208655,-0.0004595664,1.2742603,0.9861511
0.0,0.0,1.4999999999999998,-0.5235987755982988,0.5235987755982988,0,1.0626582,-1.0976691,-2.2154975,-0.08896277,-0.034191802,1.2177023,0.065016724,-0.45626608,1.277517,0.018769009,-0.07916473,-0.037714064,1.2651856,-0.08596021
0.0,0.0,1.4999999999999998,-0.5235987755982988,0.5235987755982988,0,1.0623467,-1.0978293,-2.2136958,-0.09087365,-0.027129466,1.2147832,-0.17642914,-0.6061754,1.2768718,-0.003864307,-0.078030095,-0.031060629,1.264104,-1.8267407
0.0,0.0,1.4999999999999998,-0.5235987755982988,0.5235987755982988,0,1.0623683,-1.0976638,-2.2148435,-0.09297111,-0.071137264,1.2206653,-0.25644964,-0.70300704,1.2719492,-0.009103518,-0.0830731,0.0010304298,1.2593757,2.7428563
0.0,0.0,1.4999999999999998,-0.5235987755982988,0.5235987755982988,0,1.0625367,-1.0978563,-2.2151265,-0.089696616,-0.061248824,1.2183146,0.06381345,-0.61503744,1.2686998,-0.009892576,-0.08394236,-0.009177229,1.2620654,-0.58640385
0.0,0.0,1.4999999999999998,-0.5235987755982988,0.5235987755982988,0,1.0625018,-1.0978855,-2.214063,-0.087032646,-0.031249853,1.2184207,-0.16121922,-0.8820908,1.285443,-0.025337929,-0.07929265,-0.0131067345,1.2717971,-0.59213996
0.0,0.0,1.4999999999999998,-0.5235987755982988,0.5235987755982988,0,1.0626185,-1.0976173,-2.2130473,-0.09000799,-0.032734767,1.2158544,0.41842437,-0.5509202,1.2776561,-0.006202596,-0.07957454,-0.009502604,1.2682,0.48340076
0.0,0.0,1.4999999999999998,-0.5235987755982988,0.5235987755982988,0,1.0625684,-1.0978596,-2.2151518,-0.0933384,0.007666001,1.2174393,-0.053425055,-0.56492597,1.2774233,-0.003108371,-0.078130655,0.0025730417,1.2592288,1.3073281
0.0,0.0,1.4999999999999998,-0.5235987755982988,0.5235987755982988,0,1.0624514,-1.0975766,-2.213964,-0.08888832,-0.07139786,1.2181703,-0.09821321,-0.5942273,1.269367,-0.019538516,-0.07678469,-0.017860482,1.2698317,-0.36586198
0.0,0.0,1.4999999999999998,-0.5235987755982988,0.5235987755982988,0,1.0626262,-1.0977504,-2.214447,-0.09187585,-0.08221875,1.2144064,-0.18883152,-0.6574324,1.2777756,-0.0053706486,-0.08507231,0.016556192,1.2678988,-1.1961839
0.0,0.0,1.4999999999999998,-0.5235987755982988,0.5235987755982988,0,1.0626085,-1.098014,-2.2136917,-0.09405544,-0.034164917,1.2152098,-0.11625566,-0.5371056,1.2696775,-0.006833437,-0.07609702,-0.007231738,1.268037,-2.0944383
0.0,0.0,1.4999999999999998,-0.5235987755982988,0.5235987755982988,0,1.0626849,-1.097837,-2.212899,-0.08969696,-0.038353667,1.2189832,-0.26263258,-0.5872083,1.272687,0.0033614815,-0.081677705,-0.0053298296,1.259472,0.72293013
0.0,0.0,1.4999999999999998,-0.5235987755982988,0.5235987755982988,0,1.0624985,-1.0978674,-2.2142847,-0.09053322,-0.03555247,1.2141517,-0.060744453,-0.5321201,1.2665511,0.014418225,-0.08398146,-0.012639644,1.26537,-0.39178336
0.0,0.0,1.4999999999999998,-0.5235987755982988,0.5235987755982988,0,1.0625051,-1.0979226,-2.2166278,-0.09118434,-0.04233928,1.2146988,-0.2801748,-0.6237675,1.2726116,0.009475217,-0.083190225,-0.013277236,1.2761502,-1.8796786
0.0,0.0,1.4999999999999998,-0.5235987755982988,0.5235987755982988,0,1.0624241,-1.097553,-2.213311,-0.09328306,-0.027015042,1.216223,-0.26627848,-0.5353127,1.2687175,-0.029563772,-0.078698255,0.002724864,1.2586293,0.41160086
0.0,0.0,1.4999999999999998,-0.5235987755982988,0.5235987755982988,0,1.062762,-1.0977494,-2.2125921,-0.09023341,-0.053665884,1.2172865,-0.031246725,-0.60036135,1.2835662,-0.024192736,-0.07534457,-0.0070365085,1.2629975,-1.437983
0.0,0.0,1.4999999999999998,-0.5235987755982988,0.5235987755982988,0,1.0624859,-1.0975941,-2.2142591,-0.08946283,-0.049382303,1.2162355,-0.18135339,-0.76642025,1.2753451,-4.8430597e-05,-0.07577419,-0.009759103,1.2647194,-1.095271
0.0,0.0,1.4999999999999998,-0.5235987755982988,0.5235987755982988,0,1.0626138,-1.0977998,-2.2130191,-0.088828795,-0.03716222,1.217935,0.11052033,-0.6753487,1.2738677,-0.0073044915,-0.08349678,-0.015563097,1.2627044,0.25670755
0.0,0.0,1.4999999999999998,-0.5235987755982988,0.5235987755982988,0,1.06264,-1.0980575,-2.2158566,-0.09020117,-0.012566244,1.2166202,0.2627617,-0.46488342,1.2727227,0.0015212699,-0.07979846,-0.025795925,1.2670649,-0.7859049
0.0,0.0,1.4999999999999998,-0.5235987755982988,0.5235987755982988,0,1.06269,-1.0979604,-2.2150893,-0.0949465,-0.049165785,1.2175707,-0.43110004,-0.7211194,1.275503,0.0008842279,-0.082298554,0.017121075,1.2638321,0.56640023
0.0,0.0,1.4999999999999998,-0.5235987755982988,0.5235987755982988,0,1.0629668,-1.0977423,-2.215841,-0.092176236,-0.033561874,1.217346,-0.24361281,-0.47105724,1.2857567,-0.0061272923,-0.07925022,0.0027192363,1.2668401,0.13002424
0.0,0.0,1.4999999999999998,-0.5235987755982988,0.5235987755982988,0,1.062587,-1.097946,-2.2128727,-0.087286405,-0.05591933,1.2175033,0.12313392,-0.6059717,1.2689118,-0.020223007,-0.0764145,-0.019203901,1.257674,0.36330202
0.0,0.0,1.4999999999999998,-0.5235987755982988,0.5235987755982988,0,1.0625092,-1.0976161,-2.2142189,-0.089065954,-0.07170439,1.2179269,-0.15810572,-0.65255284,1.2844121,-0.026723793,-0.08053522,0.0026035786,1.2721542,0.48663887
0.0,0.0,1.4999999999999998,-0.5235987755982988,0.5235987755982988,0,1.062762,-1.0975848,-2.2137315,-0.091763586,-0.062083565,1.2166965,-0.44331348,-0.6309266,1.2794123,-0.027696295,-0.08812686,0.0063399933,1.2612655,-1.0972285
0.0,0.0,1.4999999999999998,-0.5235987755982988,0.5235987755982988,0,1.062549,-1.0976788,-2.215878,-0.0894225,-0.08378911,1.2155516,-0.16658518,-0.65785396,1.2731287,0.028778793,-0.08510728,-0.0039332644,1.2681891,-0.7793704
0.0,0.0,1.4999999999999998,-0.5235987755982988,0.5235987755982988,0,1.0627786,-1.0977564,-2.2128544,-0.08926066,-0.018772123,1.214961,-0.04821466,-0.73619366,1.2655225,-0.026477756,-0.07995349,0.02185791,1.2682222,1.8372089
0.0,0.0,1.4999999999999998,-0.5235987755982988,0.5235987755982988,0,1.0624996,-1.0977259,-2.2146099,-0.08936315,-0.030253373,1.2171388,-0.05643656,-0.61710995,1.2782187,0.0013683354,-0.075444885,-0.0040349937,1.2718251,0.15044758
0.0,0.0,1.4999999999999998,-0.5235987755982988,0.5235987755982988,0,1.062702,-1.097799,-2.2138925,-0.091428354,-0.06240248,1.2164986,-0.15185952,-0.785876,1.2701756,-0.029190559,-0.08420772,0.02867834,1.2797859,-0.37734535
0.0,0.0,1.4999999999999998,-0.5235987755982988,0.5235987755982988,0,1.0624708,-1.0978038,-2.2127664,-0.09051599,-0.026733335,1.2190099,-0.2303263,-0.7373724,1.2750473,-0.0143819805,-0.0764618,-0.008435266,1.2762102,0.4011657
0.0,0.0,1.4999999999999998,-0.5235987755982988,0.5235987755982988,0,1.0626276,-1.0976541,-2.2148924,-0.09053939,-0.031551264,1.2168231,-0.14783627,-0.7438201,1.2741929,-0.017924735,-0.08074538,-0.02268136,1.266789,0.5053591
0.0,0.0,1.4999999999999998,-0.5235987755982988,0.5235987755982988,0,1.0627342,-1.0976197,-2.2150037,-0.08879766,-0.04207474,1.2157408,-0.07103383,-0.6354295,1.2824727,-0.016382191,-0.08015288,-0.0035508869,1.2633437,-0.015476957
0.0,0.0,1.4999999999999998,-0.5235987755982988,0.5235987755982988,0,1.0627304,-1.0978409,-2.216007,-0.090410344,-0.044619508,1.2165291,-0.19049396,-0.5035593,1.2679393,-0.025289351,-0.0827641,-0.006701566,1.262736,-0.029831357
0.0,0.0,1.4999999999999998,-0.5235987755982988,0.5235987755982988,0,1.0625057,-1.0978166,-2.2127063,-0.0923078,-0.06401235,1.215165,-0.22540075,-0.73510194,1.2727908,-0.0015782524,-0.082894064,-0.022890374,1.2747573,-1.4064786
0.0,0.0,1.4999999999999998,-0.5235987755982988,0.5235987755982988,0,1.0628653,-1.0978698,-2.2122142,-0.090756476,-0.014475551,1.2137002,-0.039011613,-0.63559383,1.2769389,-0.00975302,-0.08016724,-0.007721649,1.2780931,0.039830346
0.0,0.0,1.4999999999999998,-0.5235987755982988,0.5235987755982988,0,1.0625316,-1.0978825,-2.2152014,-0.09064709,-0.03606073,1.2149179,-0.09422208,-0.5561284,1.2649829,-0.0053243143,-0.07805902,-0.021815209,1.2702498,-0.100870185
0.0,0.0,1.4999999999999998,-0.5235987755982988,0.5235987755982988,0,1.0625372,-1.0974914,-2.214006,-0.09307437,-0.060368795,1.2152104,-0.030740272,-0.69194293,1.2758967,0.008272637,-0.07413318,0.0057361554,1.274794,-0.47826925
0.0,0.0,1.4999999999999998,-0.5235987755982988,0.5235987755982988,0,1.0624964,-1.0977464,-2.216968,-0.09207401,-0.050766084,1.2160411,-0.22325458,-0.5822898,1.2833323,-0.0041678883,-0.07409214,-0.040283702,1.2630671,-1.1045101
0.0,0.0,1.4999999999999998,-0.5235987755982988,0.5235987755982988,0,1.0627143,-1.0980402,-2.2151859,-0.09386164,-0.04633234,1.2165592,-0.10251317,-0.51651406,1.2702827,-0.03863275,-0.07155495,-0.016524011,1.2749238,-0.27611652
0.0,0.0,1.4999999999999998,-0.5235987755982988,0.5235987755982988,0,1.0624906,-1.097984,-2.216546,-0.08911413,-0.05905102,1.2173392,-0.042726442,-0.55747133,1.2745591,-0.0003036686,-0.07685157,-0.0073103984,1.2650533,-0.46292582
0.0,0.0,1.4999999999999998,-0.5235987755982988,0.5235987755982988,0,1.0624036,-1.0976597,-2.2132578,-0.09031118,-0.020591691,1.2177426,0.057303462,-0.37630752,1.2661198,-0.019149832,-0.08453836,-0.0138020795,1.2702898,1.0296206
0.0,0.0,1.4999999999999998,-0.5235987755982988,0.5235987755982988,0,1.0625187,-1.0979836,-2.215218,-0.09241738,-0.04035377,1.2172693,-0.030034028,-0.72515136,1.2797304,0.010801769,-0.07991439,0.0015490403,1.2653278,1.7799653
0.0,0.0,1.4999999999999998,-0.5235987755982988,0.5235987755982988,0,1.0626879,-1.0978746,-2.2153108,-0.089894325,-0.04023074,1.2196969,-0.07560454,-0.5977287,1.2741904,-0.009199673,-0.07593074,-0.024916084,1.2564362,1.5490117
0.0,0.0,1.4999999999999998,-0.5235987755982988,0.5235987755982988,0,1.0625725,-1.0979937,-2.214244,-0.08779444,-0.046080936,1.216491,-0.18054755,-0.6480419,1.2883093,0.030222783,-0.083332434,3.4983852e-05,1.2656461,-0.33595026
0.0,0.0,1.4999999999999998,-0.5235987755982988,0.5235987755982988,0,1.0625017,-1.0976789,-2.2135463,-0.09055996,-0.04134853,1.2180649,-0.2064075,-0.37864804,1.2789721,-0.030375494,-0.08154478,-0.007612747,1.271298,0.66829914
0.0,0.0,1.4999999999999998,-0.5235987755982988,0.5235987755982988,0,1.0624627,-1.0978117,-2.213408,-0.08978289,-0.026433043,1.2174593,-0.0060868836,-0.57989544,1.2783608,0.010722117,-0.07715666,0.01863867,1.2649659,-0.6479207
0.0,0.0,1.4999999999999998,-0.5235987755982988,0.5235987755982988,0,1.062862,-1.0977727,-2.2147684,-0.08807228,-0.051802486,1.2133484,-0.13476324,-0.70372605,1.2655948,0.0023442474,-0.075275116,0.0067500137,1.2629207,0.86940217
0.0,0.0,1.4999999999999998,-0.5235987755982988,0.5235987755982988,0,1.0625366,-1.0976596,-2.2148826,-0.08950343,-0.048504777,1.2161419,-0.011855998,-0.5891923,1.2761027,0.006412775,-0.071787074,-0.018238066,1.25918,-0.29772487
0.0,0.0,1.4999999999999998,-0.5235987755982988,0.5235987755982988,0,1.0625226,-1.0975285,-2.215758,-0.08966375,-0.06084065,1.2174908,0.14462557,-0.4991409,1.2684844,-9.591147e-05,-0.075877704,-0.04170941,1.2666802,1.0106415
0.0,0.0,1.4999999999999998,-0.5235987755982988,0.5235987755982988,0,1.06228,-1.0978545,-2.2161381,-0.08925845,-0.059221745,1.2159327,0.15327299,-0.7192506,1.2667108,0.0063841054,-0.07398371,-0.018937092,1.2663865,-0.4508308
0.0,0.0,1.4999999999999998,-0.5235987755982988,0.5235987755982988,0,1.0625705,-1.0977268,-2.217051,-0.09238519,-0.0625752,1.2171092,-0.14701813,-0.65417635,1.2733417,-0.02710885,-0.077175595,-0.013612993,1.2668095,-0.43692383
0.0,0.0,1.4999999999999998,-0.5235987755982988,0.5235987755982988,0,1.0628469,-1.0977244,-2.21528,-0.08926938,-0.0424896,1.216518,-0.047358785,-0.597441,1.2740971,-0.0069525125,-0.07974464,-0.001511658,1.2661308,-0.28348383
0.0,0.0,1.4999999999999998,-0.5235987755982988,0.5235987755982988,0,1.0627186,-1.097805,-2.2144442,-0.08995585,-0.03818684,1.2154946,0.21155705,-0.5861524,1.2827358,0.012673321,-0.080754034,-0.027514385,1.2615508,-1.1495305
0.0,0.0,1.4999999999999998,-0.5235987755982988,0.5235987755982988,0,1.0626796,-1.0979956,-2.2164328,-0.08910091,-0.049685694,1.2174104,-0.22043113,-0.6153351,1.273808,-0.017945284,-0.0783855,-0.014377384,1.2639691,0.27839568
0.0,0.0,1.4999999999999998,-0.5235987755982988,0.5235987755982988,0,1.0626882,-1.0977967,-2.2149696,-0.08925232,-0.014602397,1.2163486,-0.11175661,-0.74025846,1.2750758,0.0112078255,-0.08571417,-0.011841351,1.2652164,-0.8682132
0.0,0.0,1.4999999999999998,-0.5235987755982988,0.5235987755982988,0,1.062513,-1.0978457,-2.216202,-0.08962903,-0.025590977,1.2152293,-0.28493145,-0.73529345,1.2798012,0.0010692271,-0.084299944,-0.034486193,1.2696403,-0.7672053
0.0,0.0,1.4999999999999998,-0.5235987755982988,0.5235987755982988,0,1.0627147,-1.0975233,-2.2156205,-0.09220021,-0.019982697,1.2153212,-0.38149604,-0.5848243,1.2739389,-0.015366345,-0.08406238,-0.014270674,1.2634943,-0.045247957
0.0,0.0,1.4999999999999998,-0.5235987755982988,0.5235987755982988,0,1.0625788,-1.0977994,-2.2140543,-0.08770497,-0.026242616,1.2160616,-0.21471456,-0.52732956,1.2690909,0.01083072,-0.08004614,0.010351636,1.2626905,1.6291127
0.0,0.0,1.4999999999999998,-0.5235987755982988,0.5235987755982988,0,1.0625855,-1.0977057,-2.2150145,-0.088806264,-0.041531984,1.2162046,-0.11159883,-0.78347814,1.2713765,-0.01962819,-0.07867681,-0.02087392,1.2586905,-0.15434277
0.0,0.0,1.4999999999999998,-0.5235987755982988,0.5235987755982988,0,1.0623826,-1.0978843,-2.213229,-0.089507274,-0.06212643,1.2164733,-0.023185814,-0.67434025,1.2767708,-0.025051603,-0.07642629,-0.005324931,1.257901,-0.08688875
0.0,0.0,1.4999999999999998,-0.5235987755982988,0.5235987755982988,0,1.0625335,-1.0977345,-2.2148333,-0.089212045,-0.04797424,1.2156063,-0.64481074,-0.644777,1.2838877,-0.018190602,-0.075660355,-0.00039754843,1.2608471,0.20011677
0.0,0.0,1.4999999999999998,-0.5235987755982988,0.5235987755982988,0,1.0627391,-1.097608,-2.217227,-0.089493655,-0.04868114,1.2166789,-0.026117183,-0.6644635,1.2738086,0.013688081,-0.08259874,0.002534588,1.2746708,1.8947846
0.0,0.0,1.4999999999999998,-0.5235987755982988,0.5235987755982988,0,1.0628111,-1.0978673,-2.215345,-0.08810826,-0.013790433,1.2195532,-0.057288915,-0.52694,1.2800602,-0.009336775,-0.08151258,-0.017340615,1.2708904,1.5035746
0.0,0.0,1.4999999999999998,-0.5235987755982988,0.5235987755982988,0,1.062744,-1.0978202,-2.2138026,-0.09244903,-0.06492387,1.2153767,-0.13446799,-0.5790181,1.2723291,-0.005509918,-0.08546268,0.0029092021,1.2774122,-0.1390737
0.0,0.0,1.4999999999999998,-0.5235987755982988,0.5235987755982988,0,1.0627036,-1.0978976,-2.2146451,-0.08774797,-0.066474944,1.2184793,-0.034947325,-0.7528599,1.2776897,-0.037539862,-0.08445744,-0.03374179,1.2684898,-0.069623336
0.0,0.0,1.4999999999999998,-0.5235987755982988,0.5235987755982988,0,1.062595,-1.0977056,-2.2150257,-0.08977126,-0.05497303,1.2184275,-0.20256509,-0.5536262,1.2764541,-0.006711166,-0.08001765,-0.00010487405,1.265405,-0.20277245
0.0,0.0,1.4999999999999998,-0.5235987755982988,0.5235987755982988,0,1.0627273,-1.097934,-2.2140794,-0.09046648,-0.04464963,1.2152083,0.005664999,-0.5328082,1.2749952,-0.007993596,-0.07598957,-0.011595035,1.2618752,-0.5752662
0.0,0.0,1.4999999999999998,-0.5235987755982988,0.5235987755982988,0,1.0625193,-1.097832,-2.2145512,-0.08767495,-0.0683258,1.2165184,0.087940864,-0.5508941,1.2640605,-0.02270061,-0.06800906,-0.021453544,1.2649829,-1.1965853
0.0,0.0,1.4999999999999998,-0.5235987755982988,0.5235987755982988,0,1.0627023,-1.0979413,-2.2152522,-0.09077255,-0.0036485875,1.2131839,0.10760802,-0.62015384,1.2784932,0.014829288,-0.07813588,-0.021277638,1.2648046,-0.6559245
0.0,0.0,1.4999999999999998,-0.5235987755982988,0.5235987755982988,0,1.0624177,-1.0979211,-2.2140808,-0.08805759,-0.035393856,1.2171634,-0.32365298,-0.5788203,1.274858,-0.03371807,-0.07736644,-0.007839282,1.2739657,-1.5062468
0.0,0.0,1.4999999999999998,-0.5235987755982988,0.5235987755982988,0,1.0626007,-1.0978967,-2.2144248,-0.08822469,-0.030516438,1.218969,0.029211625,-0.6466282,1.2697482,-0.0030660632,-0.076925665,0.0016619744,1.272688,0.7807901
0.0,0.0,1.4999999999999998,-0.5235987755982988,0.5235987755982988,0,1.062272,-1.0977639,-2.2157598,-0.08963311,-0.07411477,1.220591,-0.2472638,-0.6357983,1.2715952,0.0014312794,-0.08164554,-0.009990516,1.2670895,-1.5517329
0.0,0.0,1.4999999999999998,-0.5235987755982988,0.5235987755982988,0,1.0628028,-1.0975755,-2.2140603,-0.08878161,-0.059062436,1.2148923,-0.3150086,-0.6317606,1.2717265,-0.028869307,-0.07889003,0.02489419,1.2609502,-0.20988409
0.0,0.0,1.4999999999999998,-0.5235987755982988,0.5235987755982988,0,1.0625767,-1.0977688,-2.2154958,-0.08981022,-0.021271516,1.2154086,-0.21834509,-0.75271577,1.2805829,-0.020506527,-0.08426277,-0.012323901,1.2746453,-1.094719
0.0,0.0,1.4999999999999998,-0.5235987755982988,0.5235987755982988,0,1.0625428,-1.0975329,-2.2133203,-0.09111435,-0.07250906,1.2177032,-0.27575937,-0.6092193,1.2773011,-0.0034528521,-0.08387129,0.00719126,1.2679278,0.42603427
0.0,0.0,1.4999999999999998,-0.5235987755982988,0.5235987755982988,0,1.0627483,-1.0978085,-2.21642,-0.09183522,-0.04815689,1.2157339,-0.21331437,-0.60977066,1.2753663,-0.022092562,-0.07401441,-0.0054778093,1.2765452,-1.3623871
0.0,0.0,1.4999999999999998,-0.5235987755982988,0.5235987755982988,0,1.0628971,-1.0977658,-2.216366,-0.087791435,-0.03716831,1.2165756,0.16629478,-0.7007857,1.2720348,0.009308236,-0.085375786,-0.023732278,1.2621362,0.35701334
0.0,0.0,1.4999999999999998,-0.5235987755982988,0.5235987755982988,0,1.0626171,-1.0979073,-2.2162807,-0.087157585,-0.031886864,1.2189841,0.010382123,-0.76700324,1.275437,0.003679669,-0.08282882,-0.0017668615,1.259567,-1.1514529
0.0,0.0,1.4999999999999998,-0.5235987755982988,0.5235987755982988,0,1.0626074,-1.097758,-2.2142968,-0.09336854,-0.024031227,1.2170414,-0.103707455,-0.43740597,1.2610552,-0.009650998,-0.075815074,-0.020078441,1.2698181,-1.1794387
0.0,0.0,1.4999999999999998,-0.5235987755982988,0.5235987755982988,0,1.0629382,-1.097617,-2.2134795,-0.0906121,-0.05182425,1.2180558,-0.1840176,-0.6331963,1.2717973,-0.011538546,-0.08905766,0.004439832,1.2570114,-0.9330163
0.0,0.0,1.4999999999999998,-0.5235987755982988,0.5235987755982988,0,1.0625936,-1.0979838,-2.2161624,-0.0899438,-0.012315778,1.2152946,0.013774368,-0.46815288,1.2713732,0.0011291682,-0.08878771,0.0022456734,1.2678145,-0.13592868
0.0,0.0,1.4999999999999998,-0.5235987755982988,0.5235987755982988,0,1.0625522,-1.0977173,-2.2158306,-0.09048616,-0.05477628,1.2156584,-0.19441858,-0.7487555,1.2760171,0.011975766,-0.07906796,-0.020125708,1.2628946,0.31161627
0.0,0.0,1.4999999999999998,-0.5235987755982988,0.5235987755982988,0,1.062555,-1.0977981,-2.2154424,-0.088783816,-0.07633415,1.2179409,-0.03835176,-0.49746647,1.2765211,0.009630527,-0.08267246,-0.0242842,1.2656134,-0.16630743
0.0,0.0,1.4999999999999998,-0.5235987755982988,0.5235987755982988,0,1.0627123,-1.0980818,-2.2146027,-0.09215168,-0.01948416,1.2175786,0.16713676,-0.6147799,1.2759274,-0.021956742,-0.07738908,-0.03646164,1.2643467,-0.030413672
0.0,0.0,1.4999999999999998,-0.5235987755982988,0.5235987755982988,0,1.0625337,-1.0980494,-2.2143226,-0.08927341,-0.04724521,1.2167019,0.058303494,-0.5726557,1.2735808,0.0065369247,-0.08031042,-0.011482462,1.2737895,1.6010675
0.0,0.0,1.4999999999999998,-0.5235987755982988,0.5235987755982988,0,1.0625867,-1.0977479,-2.2151685,-0.0873327,-0.039013285,1.2198585,0.24221097,-0.6060844,1.2680786,0.025685495,-0.08322572,-0.031111054,1.2597195,0.7157958
0.0,0.0,1.4999999999999998,-0.5235987755982988,0.5235987755982988,0,1.0628588,-1.0978673,-2.2133253,-0.089696854,-0.043639842,1.2185314,-0.078842744,-0.63868934,1.2678099,-0.0184764,-0.08579392,0.0012136701,1.2710118,1.511078
0.0,0.0,1.4999999999999998,-0.5235987755982988,0.5235987755982988,0,1.0625187,-1.0975617,-2.217275,-0.088348866,-0.052092046,1.2161995,0.120804034,-0.5127773,1.2798991,-0.026493078,-0.0828561,-0.010224414,1.2719971,0.39306253
0.0,0.0,1.4999999999999998,-0.5235987755982988,0.5235987755982988,0,1.062509,-1.0976961,-2.2138257,-0.092286445,-0.01687126,1.2137192,-0.037255667,-0.8241375,1.271961,-0.012838205,-0.080600664,-0.020380251,1.257156,0.7757152
0.0,0.0,1.4999999999999998,-0.5235987755982988,0.5235987755982988,0,1.0625948,-1.0978501,-2.2134757,-0.092583254,-0.06862711,1.2138658,-0.056432206,-0.46740776,1.2711037,-0.03699799,-0.08057518,-0.03498632,1.2677054,0.35427463
0.0,0.0,1.4999999999999998,-0.5235987755982988,0.5235987755982988,0,1.0628234,-1.0975778,-2.2142096,-0.09104046,-0.02865958,1.2174414,0.028462501,-0.60052174,1.2737422,-0.0053387196,-0.0785933,-0.021790143,1.2629424,0.96523947
0.0,0.0,1.4999999999999998,-0.5235987755982988,0.5235987755982988,0,1.0625062,-1.0976763,-2.2137694,-0.09356146,-0.03228437,1.2169684,-0.24294743,-0.57875687,1.267333,-0.015498856,-0.080689676,-0.00653652,1.2693102,-1.2632159
0.0,0.0,1.4999999999999998,-0.5235987755982988,0.5235987755982988,0,1.0625554,-1.0977765,-2.2143016,-0.09070124,-0.037173387,1.216281,-0.33766606,-0.6093867,1.2787724,-0.016064418,-0.07892217,-0.013608759,1.2715408,1.0019538
0.0,0.0,1.4999999999999998,-0.5235987755982988,0.5235987755982988,0,1.0626377,-1.0980213,-2.213061,-0.08677469,-0.035167426,1.218863,0.010708022,-0.7727079,1.2736429,-0.018114356,-0.07901711,-0.016751338,1.2694551,-0.50372326
0.0,0.0,1.4999999999999998,-0.5235987755982988,0.5235987755982988,0,1.0625718,-1.0976326,-2.2168112,-0.08873853,-0.0058800965,1.2192941,-0.17471382,-0.5679321,1.2810521,-0.0036451493,-0.08799572,-0.0148589825,1.2676096,-0.19691433
0.0,0.0,1.4999999999999998,-0.5235987755982988,0.5235987755982988,0,1.062416,-1.0977337,-2.2154846,-0.08995769,-0.025656331,1.2182212,-0.06709066,-0.5511739,1.2695578,-0.017576879,-0.06742447,-0.020027256,1.2695692,-0.4211594
0.0,0.0,1.4999999999999998,-0.5235987755982988,0.5235987755982988,0,1.0624518,-1.0978513,-2.212619,-0.08704651,-0.0648211,1.2157748,-0.08855478,-0.58431786,1.2780267,0.008860189,-0.07682098,-0.018075928,1.2595265,1.1906941
0.0,0.0,1.4999999999999998,-0.5235987755982988,0.5235987755982988,0,1.06228,-1.0974312,-2.2119253,-0.08973432,-0.052576974,1.21488,0.12448074,-0.46575233,1.2757989,-0.022458997,-0.08443098,-0.03451451,1.2685251,-0.5879216
0.0,0.0,1.4999999999999998,-0.5235987755982988,0.5235987755982988,0,1.0627055,-1.0979159,-2.21569,-0.09010994,-0.06674326,1.2146211,-0.0549796,-0.5250938,1.2796314,-0.019660616,-0.08193826,-0.025665928,1.2562606,2.5132785
0.0,0.0,1.4999999999999998,-0.5235987755982988,0.5235987755982988,0,1.0624843,-1.0975504,-2.2146335,-0.09432798,-0.04555912,1.2170054,-0.0071123065,-0.53138804,1.276984,0.009759361,-0.0744079,-0.0012838643,1.2718774,-1.0154967
0.0,0.0,1.4999999999999998,-0.5235987755982988,0.5235987755982988,0,1.0625665,-1.097678,-2.213208,-0.08808957,-0.040953983,1.2163179,-0.39861253,-0.6328526,1.2803005,-0.0039589736,-0.07466249,0.010982795,1.2622797,-1.5618601
0.0,0.0,1.4999999999999998,-0.5235987755982988,0.5235987755982988,0,1.062323,-1.0975873,-2.215509,-0.09104801,-0.024522213,1.2167379,0.07921529,-0.6924181,1.2695144,-0.016799964,-0.07716684,0.004972472,1.2683324,1.5987695
0.0,0.0,1.4999999999999998,-0.5235987755982988,0.5235987755982988,0,1.0626147,-1.0977826,-2.2151537,-0.09159223,-0.04216235,1.2166915,0.12383048,-0.6589702,1.2826185,-0.010782773,-0.07417651,-0.015092903,1.2758596,0.08565977
0.0,0.0,1.4999999999999998,-0.5235987755982988,0.5235987755982988,0,1.0624249,-1.097693,-2.2136843,-0.08777696,-0.037379973,1.2165413,0.11959904,-0.50822645,1.2759994,-0.021272916,-0.07901699,0.0130088255,1.2666678,0.8962157
0.0,0.0,1.4999999999999998,-0.5235987755982988,0.5235987755982988,0,1.062731,-1.0978924,-2.2168312,-0.08806919,-0.05334866,1.2168736,-0.21578138,-0.6609328,1.2783898,-0.012262795,-0.08236484,-0.036712773,1.2734765,-0.80346555
0.0,0.0,1.4999999999999998,-0.5235987755982988,0.5235987755982988,0,1.062758,-1.097738,-2.2150097,-0.08918168,-0.050277855,1.2166699,-0.15373282,-0.5755709,1.2773962,0.009246322,-0.086305805,0.009031447,1.2652439,-0.14367168
0.0,0.0,1.4999999999999998,-0.5235987755982988,0.5235987755982988,0,1.0623763,-1.0976161,-2.2161727,-0.090692244,-0.03731936,1.2156129,-0.21179956,-0.65661824,1.2634794,0.0070157927,-0.08222534,-0.045219418,1.2664657,-1.5841358
0.0,0.0,1.4999999999999998,-0.5235987755982988,0.5235987755982988,0,1.0625165,-1.0978497,-2.2140808,-0.09018288,-0.017579935,1.2139341,-0.082475774,-0.76115656,1.2681856,-0.019618416,-0.078016005,-0.006659051,1.2680676,-0.8307824
0.0,0.0,1.4999999999999998,-0.5235987755982988,0.5235987755982988,0,1.0628405,-1.0976962,-2.2152994,-0.09001501,-0.06617025,1.2148547,-0.33714637,-0.6957797,1.2815902,0.006243526,-0.079926565,-0.010388981,1.2599545,0.16485332
0.0,0.0,1.4999999999999998,-0.5235987755982988,0.5235987755982988,0,1.0625789,-1.0977668,-2.2163901,-0.08933049,-0.066001765,1.2174127,-0.062242102,-0.6137118,1.2675892,0.004023897,-0.07665473,0.0183475,1.2742486,1.0776633
0.0,0.0,1.4999999999999998,-0.5235987755982988,0.5235987755982988,0,1.0625873,-1.0977671,-2.2169673,-0.09097883,-0.051445827,1.2192632,-0.010752693,-0.74748456,1.2738987,-0.031227287,-0.0820849,-0.027446307,1.2801993,0.14131235
0.0,0.0,1.4999999999999998,-0.5235987755982988,0.5235987755982988,0,1.0625733,-1.0976676,-2.214732,-0.088235125,-0.055873547,1.2154561,-0.3292485,-0.6979632,1.2826331,-3.1973083e-05,-0.07962122,-0.0047266986,1.2504736,-0.698511
0.0,0.0,1.4999999999999998,-0.5235987755982988,0.5235987755982988,0,1.0625303,-1.0976555,-2.216663,-0.09036219,-0.07758731,1.2172124,-0.13908598,-0.5785434,1.2673676,-0.026320925,-0.07878982,0.018036941,1.2636921,0.18454678
0.0,0.0,1.4999999999999998,-0.5235987755982988,0.5235987755982988,0,1.0624063,-1.0977716,-2.2147455,-0.09228699,-0.023789434,1.2172714,-0.40426964,-0.6998916,1.2741823,-0.010802476,-0.08463172,-0.008470747,1.2705096,0.06383455
0.0,0.0,1.4999999999999998,-0.5235987755982988,0.5235987755982988,0,1.0627562,-1.0977309,-2.2153516,-0.08850221,-0.047971096,1.212547,-0.05911829,-0.68450433,1.2710414,-0.0072341664,-0.07330374,-0.0077971574,1.2568898,-0.4993677
0.0,0.0,1.4999999999999998,-0.5235987755982988,0.5235987755982988,0,1.0628116,-1.0975996,-2.2152126,-0.08990042,-0.04120502,1.2189715,-0.08710267,-0.6792239,1.2721572,-0.024337992,-0.08087655,0.010280906,1.2682741,0.6468553
0.0,0.0,1.4999999999999998,-0.5235987755982988,0.5235987755982988,0,1.0627096,-1.0980036,-2.213416,-0.089596346,-0.012519616,1.2166419,0.1298507,-0.5446046,1.2727962,-0.00094215275,-0.07597283,-0.029774217,1.2657357,1.2314746
0.0,0.0,1.4999999999999998,-0.5235987755982988,0.5235987755982988,0,1.0626714,-1.0976717,-2.2154925,-0.08904606,-0.014074952,1.2195679,-0.031928267,-0.7293428,1.2692016,-0.0013169342,-0.084213674,-0.0037752984,1.2639507,-0.3331473
0.0,0.0,1.4999999999999998,-0.5235987755982988,0.5235987755982988,0,1.0624512,-1.0977215,-2.212873,-0.087747216,-0.022458125,1.2167426,-0.11590428,-0.48264238,1.2743558,0.01358339,-0.08832048,-0.019414295,1.264169,1.3271537
0.0,0.0,1.4999999999999998,-0.5235987755982988,0.5235987755982988,0,1.062803,-1.0977608,-2.2148678,-0.08933359,-0.07103693,1.2184173,0.13685046,-0.6656537,1.2755804,-0.011854852,-0.06734948,-0.025845971,1.2666097,-0.9811142
0.0,0.0,1.4999999999999998,-0.5235987755982988,0.5235987755982988,0,1.0626246,-1.0979052,-2.2151153,-0.088816114,-0.028190577,1.2150354,-0.025165198,-0.5957353,1.2859312,-0.03139449,-0.08241037,-0.016034463,1.2749058,0.7765502
0.0,0.0,1.4999999999999998,-0.5235987755982988,0.5235987755982988,0,1.0627478,-1.0977257,-2.214185,-0.09104304,-0.015921762,1.2181731,-0.016278448,-0.7605099,1.267409,-0.03848822,-0.082775705,-0.0046512242,1.2671548,0.7361831
0.0,0.0,1.4999999999999998,-0.5235987755982988,0.5235987755982988,0,1.0625296,-1.0978868,-2.2123783,-0.09178576,-0.04146336,1.2182993,-0.2209385,-0.5739233,1.2791524,-0.008254681,-0.07524094,-0.031270243,1.2719494,-0.014700298
0.0,0.0,1.4999999999999998,-0.5235987755982988,0.5235987755982988,0,1.0626072,-1.0978914,-2.2144766,-0.0916005,-0.0351339,1.2174681,-0.21172325,-0.4781737,1.273511,-0.0203107,-0.080469176,-0.021478968,1.2803837,-0.3685582
0.0,0.0,1.4999999999999998,-0.5235987755982988,0.5235987755982988,0,1.0627334,-1.0979084,-2.213705,-0.0912228,-0.03677259,1.2193117,-0.033471677,-0.60103595,1.2735157,0.014380008,-0.08423819,0.0037845832,1.2692659,-0.9061234
0.0,0.0,1.4999999999999998,-0.5235987755982988,0.5235987755982988,0,1.06253,-1.0977774,-2.2136059,-0.09204036,-0.06769553,1.2153989,-0.22412431,-0.54322284,1.2779793,5.6860834e-05,-0.08075825,-0.019395817,1.2651746,0.5931509
0.0,0.0,1.4999999999999998,-0.5235987755982988,0.5235987755982988,0,1.0625287,-1.0977569,-2.214064,-0.08950999,-0.035134595,1.2168388,-0.06537065,-0.6406839,1.2737715,-0.022237081,-0.0726422,0.012858684,1.2687942,-0.15469927
0.0,0.0,1.4999999999999998,-0.5235987755982988,0.5235987755982988,0,1.0626655,-1.0980726,-2.2143357,-0.087191045,-0.053735197,1.2164662,-0.04323869,-0.5268995,1.2788147,-0.0126134055,-0.080205746,0.021751767,1.2687016,-0.2069493
0.0,0.0,1.4999999999999998,-0.5235987755982988,0.5235987755982988,0,1.0623987,-1.0981382,-2.2161393,-0.09383002,-0.03788776,1.2174958,-0.2216536,-0.46204102,1.2748822,-0.007431703,-0.072255254,0.005966495,1.2655181,-0.035892885
0.0,0.0,1.4999999999999998,-0.5235987755982988,0.5235987755982988,0,1.062845,-1.0977179,-2.2142267,-0.088778295,-0.05075854,1.2155175,0.101203926,-0.6601908,1.2703965,0.004787016,-0.07567185,-0.023050006,1.2802539,-0.39506269
0.0,0.0,1.4999999999999998,-0.5235987755982988,0.5235987755982988,0,1.0628732,-1.0979548,-2.2158427,-0.08780046,-0.026208315,1.2139527,-0.08741381,-0.6191136,1.2762684,-0.019522151,-0.0769295,0.0077524064,1.256902,0.17322944
0.0,0.0,1.4999999999999998,-0.5235987755982988,0.5235987755982988,0,1.0628676,-1.0975868,-2.2141168,-0.091275685,-0.010612085,1.2179087,-0.08861522,-0.6041632,1.2692024,0.0040882872,-0.07512456,-0.007991463,1.2702296,-0.5457066
0.0,0.0,1.4999999999999998,-0.5235987755982988,0.5235987755982988,0,1.0625731,-1.0976735,-2.2144408,-0.0952049,-0.046526212,1.2169908,-0.18644664,-0.67858005,1.2755119,-0.0048855026,-0.074693605,-0.0039510266,1.2711593,1.65445
0.0,0.0,1.4999999999999998,-0.5235987755982988,0.5235987755982988,0,1.062789,-1.0978214,-2.2132483,-0.08725546,-0.057240847,1.2153242,0.013276113,-0.63918686,1.2763838,0.00575437,-0.07545083,0.018413283,1.2549721,-0.25542554
0.0,0.0,1.4999999999999998,-0.5235987755982988,0.5235987755982988,0,1.0628523,-1.0978885,-2.2133563,-0.08885984,-0.03651829,1.2159382,-0.0454371,-0.590285,1.2668208,0.0031462011,-0.079396114,-0.02109493,1.2670244,-1.9947342
0.0,0.0,1.4999999999999998,-0.5235987755982988,0.5235987755982988,0,1.0626148,-1.0981376,-2.2142625,-0.091155134,-0.059744205,1.2174886,-0.30431888,-0.67802787,1.2685496,-0.0018289556,-0.077082336,-0.0096003525,1.2672849,-0.44382083
0.0,0.0,1.4999999999999998,-0.5235987755982988,0.5235987755982988,0,1.0628654,-1.0978699,-2.216177,-0.089214645,-0.078143895,1.2160498,-0.27970928,-0.6820949,1.2817228,-0.030476006,-0.08247519,0.011960368,1.2716018,1.3850708
0.0,0.0,1.4999999999999998,-0.5235987755982988,0.5235987755982988,0,1.0625918,-1.0977415,-2.2110631,-0.087681234,-0.012506246,1.2161276,-0.2770083,-0.5123517,1.2803956,-0.006948185,-0.07660386,-0.011551316,1.2705208,-1.6210129
0.0,0.0,1.4999999999999998,-0.5235987755982988,0.5235987755982988,0,1.0624031,-1.0978311,-2.2160952,-0.09164258,-0.0023487357,1.2176446,0.1357801,-0.5937094,1.2729688,0.0017148057,-0.08142229,-0.00521606,1.2801782,1.4220943
0.0,0.0,1.4999999999999998,-0.5235987755982988,0.5235987755982988,0,1.0625925,-1.0978107,-2.2156508,-0.090304576,-0.040113974,1.2158487,-0.051166743,-0.6740499,1.2773247,-0.00076298503,-0.08205816,0.0034391342,1.2675921,1.5897436
0.0,0.0,1.4999999999999998,-0.5235987755982988,0.5235987755982988,0,1.0628366,-1.0980113,-2.2158718,-0.09247727,-0.031694002,1.2178234,-0.2011743,-0.6559688,1.2671685,-0.01864676,-0.07592138,-0.011910701,1.2662665,0.52854836
0.0,0.0,1.4999999999999998,-0.5235987755982988,0.5235987755982988,0,1.062912,-1.0977862,-2.2153623,-0.089732304,-0.033401944,1.2198337,0.12893122,-0.5689405,1.2778692,-0.006318576,-0.080004916,-0.034091808,1.2657715,0.7974061
0.0,0.0,1.4999999999999998,-0.5235987755982988,0.5235987755982988,0,1.0627376,-1.0978535,-2.2166395,-0.08949499,-0.047240037,1.2160732,-0.114588626,-0.6145528,1.269583,0.016306037,-0.07663449,0.007385447,1.2645676,-0.41163167
0.0,0.0,1.4999999999999998,-0.5235987755982988,0.5235987755982988,0,1.0625086,-1.0978096,-2.216219,-0.08823143,-0.03076155,1.2192955,-0.051825833,-0.59771305,1.2769134,-0.0015407122,-0.07609562,-0.0058983197,1.2774719,1.374433
0.0,0.0,1.4999999999999998,-0.5235987755982988,0.5235987755982988,0,1.0625491,-1.0977552,-2.214932,-0.08799535,-0.04196264,1.2152951,-0.009695555,-0.4007624,1.2782358,0.011007986,-0.087446086,0.0023221234,1.2721815,1.1377542
0.0,0.0,1.4999999999999998,-0.5235987755982988,0.5235987755982988,0,1.0625187,-1.0980725,-2.213811,-0.091698006,0.0019364813,1.2166457,-0.020779613,-0.6344423,1.2690029,-0.006893467,-0.08328026,-0.03570756,1.2697682,0.74217945
0.0,0.0,1.4999999999999998,-0.5235987755982988,0.5235987755982988,0,1.062837,-1.0979037,-2.2150712,-0.088900074,-0.03762406,1.216356,-0.15280236,-0.64921814,1.2787646,-0.0075180545,-0.07775243,-0.010374993,1.2615589,-0.37165022
0.0,0.0,1.4999999999999998,-0.5235987755982988,0.5235987755982988,0,1.0624012,-1.0978976,-2.2142398,-0.09088572,-0.05144448,1.2182099,-0.40261304,-0.6448378,1.2775859,0.013212957,-0.0853195,-0.008832699,1.2723613,1.4708383
0.0,0.0,1.4999999999999998,-0.5235987755982988,0.5235987755982988,0,1.0627695,-1.097624,-2.2156718,-0.0887214,-0.016203979,1.2196474,-0.2366178,-0.5890525,1.271402,0.0061465297,-0.0852429,-0.017114256,1.2647213,0.8749387
0.0,0.0,1.4999999999999998,-0.5235987755982988,0.5235987755982988,0,1.0627264,-1.0980114,-2.2146819,-0.09020416,-0.032362957,1.216212,-0.19521587,-0.8224633,1.26758,-0.018389424,-0.077932626,-0.024174377,1.2688246,0.8151932
0.0,0.0,1.4999999999999998,-0.5235987755982988,0.5235987755982988,0,1.0628502,-1.0977775,-2.2148733,-0.092087515,-0.02100376,1.2184335,-0.1265334,-0.50745684,1.2780437,-0.020238753,-0.07881905,0.015847925,1.261876,-1.8600415
0.0,0.0,1.4999999999999998,-0.5235987755982988,0.5235987755982988,0,1.0625567,-1.0977968,-2.2155917,-0.09055663,-0.03915446,1.2205353,-0.19991301,-0.70672905,1.2713791,-0.0037211264,-0.07801554,-0.00504652,1.2677526,0.8774277
0.0,0.0,1.4999999999999998,-0.5235987755982988,0.5235987755982988,0,1.0628355,-1.0975276,-2.2151744,-0.091622524,-0.020890072,1.2149007,-0.20793442,-0.63685447,1.2774184,0.0075272634,-0.07675575,0.017970625,1.2621228,-0.65452766
0.0,0.0,1.4999999999999998,-0.5235987755982988,0.5235987755982988,0,1.062747,-1.0975109,-2.214395,-0.090634346,-0.07144218,1.2212752,-0.0038875162,-0.63487667,1.2851393,-0.011531058,-0.07904202,-0.00800854,1.2695879,-0.40574047
0.0,0.0,1.4999999999999998,-0.5235987755982988,0.5235987755982988,0,1.0625976,-1.097991,-2.21509,-0.08868895,-0.034251433,1.2155087,-0.06351608,-0.55759513,1.281754,-0.021299474,-0.078517094,-0.03035561,1.2682457,-0.19677544
0.0,0.0,1.4999999999999998,-0.5235987755982988,0.5235987755982988,0,1.0624945,-1.0976583,-2.2147174,-0.093895055,-0.04152522,1.2139449,-0.13594228,-0.5658137,1.2773595,-0.016961226,-0.07767657,0.017382044,1.2690264,-2.403835
0.0,0.0,1.4999999999999998,-0.5235987755982988,0.5235987755982988,0,1.0626005,-1.0976094,-2.2148657,-0.088921376,-0.027309602,1.2148277,-0.16194993,-0.5602215,1.2692057,-0.010879249,-0.070814,-0.0053853723,1.2660568,0.011556896
0.0,0.0,1.4999999999999998,-0.5235987755982988,0.5235987755982988,0,1.0626006,-1.0974963,-2.214027,-0.09222426,-0.03759704,1.2163786,0.033867516,-0.54494107,1.2778214,-0.0066122497,-0.08474129,-0.019729225,1.2632277,-0.7119052
0.0,0.0,1.4999999999999998,-0.5235987755982988,0.5235987755982988,0,1.0624709,-1.0976199,-2.2148561,-0.09181327,-0.048393328,1.2144918,-0.064431675,-0.42205018,1.2722509,-0.025472999,-0.087348856,-0.024156868,1.2631462,-0.25271282
0.0,0.0,1.4999999999999998,-0.5235987755982988,0.5235987755982988,0,1.0626419,-1.0978274,-2.21738,-0.08733745,-0.037575204,1.2181798,-0.120435394,-0.49367735,1.2640668,0.007315685,-0.075480856,-0.009303464,1.2700022,-1.9957252
0.0,0.0,1.4999999999999998,-0.5235987755982988,0.5235987755982988,0,1.0626206,-1.0976477,-2.2156353,-0.09131274,-0.030808108,1.2150913,0.12606724,-0.4508787,1.2814913,-0.012771086,-0.082255356,0.0071244654,1.2654371,-0.004679601
0.0,0.0,1.4999999999999998,-0.5235987755982988,0.5235987755982988,0,1.0625823,-1.097675,-2.2153733,-0.08881861,-0.044111967,1.2204243,-0.14362352,-0.4494409,1.2756444,-0.021764623,-0.082731344,-0.02478613,1.2574664,1.2875773
