sanky1234/BimanualDexCatch/isaacgymenvs/cem_results/football_pose_-0.1_-0.1_0.8999999999999999_-0.5235987755982988_0.0_0_2025-05-25.csv
x,y,z,roll,pitch,yaw,robot1/joint1,robot1/joint2,robot1/joint3,robot1/joint4,robot1/joint5,robot1/joint6,robot1/joint7,robot2/joint1,robot2/joint2,robot2/joint3,robot2/joint4,robot2/joint5,robot2/joint6,robot2/joint7
-0.1,-0.1,0.8999999999999999,-0.5235987755982988,0.0,0,0.025141867,-1.1639687,2.4034395,-0.6710596,0.043040946,1.54518,0.40188327,0.17943764,-0.81868523,-2.3847923,0.005503093,-0.12866156,1.5328325,-1.3613892
-0.1,-0.1,0.8999999999999999,-0.5235987755982988,0.0,0,0.104099765,-1.1686926,2.4267445,-0.64592296,0.099735506,1.5544719,0.42576864,0.19751437,-0.8056081,-2.4166014,-0.05464088,-0.054609198,1.5163454,-1.236025
-0.1,-0.1,0.8999999999999999,-0.5235987755982988,0.0,0,0.064873144,-1.1654515,2.4125469,-0.68498063,0.082422085,1.5522058,0.41225234,0.24814211,-0.81995875,-2.3732316,-0.07490056,-0.054678492,1.5119616,-1.3353037
-0.1,-0.1,0.8999999999999999,-0.5235987755982988,0.0,0,0.071253054,-1.1690466,2.3157675,-0.65451247,0.1217806,1.5501091,0.25069615,0.22791679,-0.8479488,-2.3630178,-0.024218637,-0.044898216,1.5096109,-1.2526238
-0.1,-0.1,0.8999999999999999,-0.5235987755982988,0.0,0,0.11309266,-1.1574925,2.3416953,-0.6375855,0.10057555,1.5581003,0.40866265,0.24690014,-0.8512076,-2.4046383,0.0062749665,-0.04791162,1.5286436,-1.336374
-0.1,-0.1,0.8999999999999999,-0.5235987755982988,0.0,0,0.07919792,-1.1915888,2.3589442,-0.67679316,0.11939932,1.5427542,0.30682918,0.29339224,-0.8249089,-2.3512332,-0.027223494,-0.14421803,1.5053267,-1.5516355
-0.1,-0.1,0.8999999999999999,-0.5235987755982988,0.0,0,0.061354585,-1.1890815,2.3982718,-0.6925136,0.085102856,1.5675946,0.34145045,0.24348593,-0.85825586,-2.4484131,0.029769888,0.010298541,1.5131481,-1.2485477
-0.1,-0.1,0.8999999999999999,-0.5235987755982988,0.0,0,0.036210086,-1.168744,2.3514712,-0.64540786,0.09010944,1.5476941,0.37483123,0.21686392,-0.84264344,-2.3809552,-0.12039797,-0.006566207,1.5319521,-1.427061
-0.1,-0.1,0.8999999999999999,-0.5235987755982988,0.0,0,0.03588129,-1.1798201,2.3883677,-0.6470935,-3.3917182e-05,1.5393765,0.3421794,0.2698772,-0.8038698,-2.3432512,-0.12034407,0.025603296,1.516595,-1.2325392
-0.1,-0.1,0.8999999999999999,-0.5235987755982988,0.0,0,0.048199132,-1.1725844,2.4449527,-0.67079395,0.05996763,1.5403421,0.35724154,0.28219694,-0.8572148,-2.411166,-0.09845313,-0.08870638,1.5329086,-1.2671106
-0.1,-0.1,0.8999999999999999,-0.5235987755982988,0.0,0,0.075153396,-1.1887807,2.3936322,-0.6909072,0.10817551,1.547404,0.43495652,0.23864716,-0.8381599,-2.3504815,-0.018442538,-0.020156724,1.4965523,-1.3173201
-0.1,-0.1,0.8999999999999999,-0.5235987755982988,0.0,0,0.045038797,-1.1986923,2.397551,-0.664503,0.042179972,1.5479836,0.41641745,0.26773873,-0.8174183,-2.378225,-0.069888696,-0.11852097,1.5420061,-1.3680654
-0.1,-0.1,0.8999999999999999,-0.5235987755982988,0.0,0,0.09441861,-1.1914699,2.3745005,-0.66184527,0.09155134,1.5475676,0.3684965,0.23054314,-0.87921524,-2.4068165,0.041554574,-0.019956978,1.4918945,-1.3301417
-0.1,-0.1,0.8999999999999999,-0.5235987755982988,0.0,0,0.069287844,-1.171728,2.4080913,-0.6973512,0.115972534,1.5572691,0.39024192,0.2130653,-0.801206,-2.42174,-0.007013407,-0.0092808595,1.5383803,-1.2445385
-0.1,-0.1,0.8999999999999999,-0.5235987755982988,0.0,0,0.05892381,-1.1773367,2.356744,-0.65613407,0.09028071,1.536252,0.42474788,0.18705206,-0.8216494,-2.370572,0.025137784,-0.10643472,1.5206003,-1.1373327
-0.1,-0.1,0.8999999999999999,-0.5235987755982988,0.0,0,0.09255188,-1.1530554,2.3455667,-0.65392965,0.16860893,1.5508395,0.30212504,0.22315355,-0.8142481,-2.398459,-0.10102326,-0.093346246,1.5474677,-1.3952088
-0.1,-0.1,0.8999999999999999,-0.5235987755982988,0.0,0,0.026025813,-1.1870279,2.4204125,-0.679334,0.055942565,1.5508947,0.40100244,0.22496887,-0.8142554,-2.421199,-0.0064884736,-0.0589498,1.5169859,-1.449946
-0.1,-0.1,0.8999999999999999,-0.5235987755982988,0.0,0,0.06999492,-1.1930138,2.325228,-0.6708576,0.11494379,1.5497276,0.38618055,0.25902116,-0.8195743,-2.3471332,-0.060205903,-0.10924007,1.5505607,-1.2165807
-0.1,-0.1,0.8999999999999999,-0.5235987755982988,0.0,0,0.13310276,-1.1646359,2.4033659,-0.65443313,0.13087137,1.5547855,0.40903983,0.24498515,-0.82332915,-2.451258,0.004785564,-0.19421242,1.5514411,-1.2894377
-0.1,-0.1,0.8999999999999999,-0.5235987755982988,0.0,0,0.04941907,-1.170198,2.3629572,-0.69129056,0.10338804,1.540081,0.47805482,0.2361364,-0.85735565,-2.3673868,-0.0053808466,-0.020590782,1.5399814,-1.0500346
-0.1,-0.1,0.8999999999999999,-0.5235987755982988,0.0,0,0.090664,-1.1678189,2.3914497,-0.65863156,0.14314793,1.5535307,0.39132,0.23202632,-0.862669,-2.4020028,-0.03599994,-0.0012996579,1.5043904,-1.3441086
-0.1,-0.1,0.8999999999999999,-0.5235987755982988,0.0,0,0.07718481,-1.1652738,2.35927,-0.66599834,0.16622864,1.5493127,0.4562808,0.25708327,-0.8158299,-2.432611,-0.026072545,-0.01834205,1.5377766,-1.3364975
-0.1,-0.1,0.8999999999999999,-0.5235987755982988,0.0,0,0.10461865,-1.1759076,2.423683,-0.64996725,0.060517777,1.5482754,0.34332982,0.2856627,-0.8708107,-2.4248593,-0.028110368,-0.033512723,1.5156484,-1.1449533
-0.1,-0.1,0.8999999999999999,-0.5235987755982988,0.0,0,0.031949986,-1.1965171,2.4038913,-0.7108261,0.10787217,1.5506252,0.47006974,0.21423878,-0.8618937,-2.3992891,-0.010601445,-0.11302848,1.5526868,-1.2753975
-0.1,-0.1,0.8999999999999999,-0.5235987755982988,0.0,0,0.06682717,-1.1635051,2.4373486,-0.6668871,0.12208136,1.5591711,0.29730988,0.26367474,-0.8341275,-2.3727617,-0.050422657,-0.07747242,1.5100741,-1.3308274
-0.1,-0.1,0.8999999999999999,-0.5235987755982988,0.0,0,0.057035923,-1.2069944,2.3472857,-0.73241913,0.1166501,1.5468749,0.3991718,0.24066456,-0.820185,-2.390244,-0.13737309,-0.10964447,1.5102224,-1.1023812
-0.1,-0.1,0.8999999999999999,-0.5235987755982988,0.0,0,0.10336603,-1.18635,2.368873,-0.6598036,0.13538784,1.543777,0.32601532,0.2351475,-0.8323885,-2.3686302,-0.009876413,-0.052252557,1.5223832,-1.3783847
-0.1,-0.1,0.8999999999999999,-0.5235987755982988,0.0,0,0.080563135,-1.1666774,2.3226418,-0.67062265,0.08566036,1.5490232,0.44967842,0.26676083,-0.7685652,-2.4087868,-0.049503177,-0.08202231,1.5471693,-1.2080427
-0.1,-0.1,0.8999999999999999,-0.5235987755982988,0.0,0,0.05133315,-1.1619927,2.400381,-0.6602038,0.10392894,1.54498,0.3703847,0.26267645,-0.8464143,-2.3873253,-0.07424072,-0.13229765,1.5049806,-1.2350194
-0.1,-0.1,0.8999999999999999,-0.5235987755982988,0.0,0,0.07848371,-1.1627018,2.3567343,-0.6429929,0.11416237,1.5621817,0.3997836,0.24675094,-0.8225804,-2.36978,-0.04954857,-0.020170625,1.5094758,-1.303038
-0.1,-0.1,0.8999999999999999,-0.5235987755982988,0.0,0,0.11720952,-1.177518,2.3812952,-0.6626224,0.11590109,1.546593,0.2851096,0.22273983,-0.8374337,-2.4191692,-0.057599694,-0.037111405,1.544091,-1.2352352
-0.1,-0.1,0.8999999999999999,-0.5235987755982988,0.0,0,0.07134632,-1.173542,2.3949556,-0.6209051,0.14105462,1.5470906,0.2836897,0.23010436,-0.82777804,-2.43045,-0.06250316,0.014682749,1.5292038,-1.4190081
-0.1,-0.1,0.8999999999999999,-0.5235987755982988,0.0,0,0.06636834,-1.1885496,2.3077376,-0.62083566,0.057450876,1.5378634,0.32593662,0.22298439,-0.8212432,-2.4455526,-0.04905425,-0.11752022,1.5408727,-1.239107
-0.1,-0.1,0.8999999999999999,-0.5235987755982988,0.0,0,0.042983554,-1.1751946,2.3810172,-0.6546141,0.0601808,1.5681353,0.3134132,0.2632164,-0.82279575,-2.3869443,-0.03669525,-0.15949626,1.518076,-1.3207564
-0.1,-0.1,0.8999999999999999,-0.5235987755982988,0.0,0,0.051672157,-1.1918398,2.355457,-0.62523425,0.11100333,1.5476977,0.36623132,0.26947138,-0.81299824,-2.3892624,-0.11103453,0.099043004,1.5394824,-1.474334
-0.1,-0.1,0.8999999999999999,-0.5235987755982988,0.0,0,0.08541238,-1.1737156,2.373543,-0.6914123,0.121725164,1.5456082,0.389077,0.26439986,-0.82926553,-2.424223,0.06082675,-0.09086133,1.4922106,-0.9763511
-0.1,-0.1,0.8999999999999999,-0.5235987755982988,0.0,0,0.11944195,-1.1977729,2.3650453,-0.638702,0.115074754,1.5656588,0.45970765,0.2447261,-0.8610395,-2.3580058,-0.095510975,0.046109587,1.5051281,-1.1688229
-0.1,-0.1,0.8999999999999999,-0.5235987755982988,0.0,0,0.08398666,-1.178494,2.3935513,-0.62094283,0.07007429,1.5512334,0.3720945,0.25171864,-0.8212216,-2.3894198,-0.06152527,0.048758794,1.5437341,-1.1634294
-0.1,-0.1,0.8999999999999999,-0.5235987755982988,0.0,0,0.07528289,-1.1570438,2.3772979,-0.62970966,0.0613635,1.5502127,0.30445313,0.23719434,-0.81748074,-2.3987894,0.0007258149,-0.10133325,1.5244699,-1.1574638
-0.1,-0.1,0.8999999999999999,-0.5235987755982988,0.0,0,0.11650882,-1.1639761,2.3374362,-0.6640862,0.08117012,1.5400048,0.3538059,0.21663095,-0.8500071,-2.3883235,-0.028208625,-0.07540074,1.5223156,-1.2491622
-0.1,-0.1,0.8999999999999999,-0.5235987755982988,0.0,0,0.10608312,-1.1628137,2.3807156,-0.6586739,0.09986451,1.5438725,0.31265366,0.23082861,-0.81939197,-2.3839006,-0.0024188594,-0.089870684,1.5586772,-1.4085758
-0.1,-0.1,0.8999999999999999,-0.5235987755982988,0.0,0,0.10032092,-1.1653726,2.4004683,-0.6361913,0.07887893,1.5473974,0.4262733,0.24404337,-0.85154366,-2.4037316,-0.07602596,-0.06386982,1.5304602,-1.33751
-0.1,-0.1,0.8999999999999999,-0.5235987755982988,0.0,0,0.0644242,-1.1751068,2.4148285,-0.65857387,0.16168238,1.5480627,0.3219749,0.2529709,-0.7774113,-2.4003549,-0.06089671,-0.11129293,1.5170295,-1.21868
-0.1,-0.1,0.8999999999999999,-0.5235987755982988,0.0,0,0.11037393,-1.1731937,2.3626523,-0.6762452,0.13632719,1.5362444,0.35100567,0.2305537,-0.82193786,-2.368791,-0.03642791,-0.034076404,1.4977745,-1.2257354
-0.1,-0.1,0.8999999999999999,-0.5235987755982988,0.0,0,0.037811343,-1.1591442,2.4210715,-0.66365427,0.10594309,1.5417664,0.28314498,0.23241328,-0.85860425,-2.3910675,-0.04596635,-0.070499405,1.5303993,-1.4218826
-0.1,-0.1,0.8999999999999999,-0.5235987755982988,0.0,0,0.07154246,-1.1797956,2.4172833,-0.6792469,0.12225382,1.5422275,0.37022913,0.23277698,-0.80149126,-2.3598728,-0.020400615,0.015281105,1.5177966,-1.3144617
-0.1,-0.1,0.8999999999999999,-0.5235987755982988,0.0,0,0.07488877,-1.1566125,2.4150388,-0.6555713,0.10046708,1.5576764,0.35768357,0.25581047,-0.8086477,-2.399716,-0.011203222,-0.03363009,1.5209173,-1.1827104
-0.1,-0.1,0.8999999999999999,-0.5235987755982988,0.0,0,0.043300625,-1.1824428,2.3645113,-0.6878694,0.1622073,1.5449121,0.31877932,0.27142614,-0.86768955,-2.4037702,-0.040182576,-0.04741247,1.5229256,-1.2047048
-0.1,-0.1,0.8999999999999999,-0.5235987755982988,0.0,0,0.06956152,-1.1582806,2.3884246,-0.6685115,0.06635419,1.5539887,0.386111,0.25097045,-0.823162,-2.3540838,-0.01606827,-0.019393353,1.5218654,-1.2805064
-0.1,-0.1,0.8999999999999999,-0.5235987755982988,0.0,0,0.10357224,-1.195658,2.385329,-0.67006797,0.036350373,1.5524445,0.39645427,0.24402867,-0.8117477,-2.3824675,-0.038489293,-0.08981329,1.5207019,-1.4384667
-0.1,-0.1,0.8999999999999999,-0.5235987755982988,0.0,0,0.08496936,-1.1721144,2.3379197,-0.65336937,0.06264202,1.5560378,0.3232094,0.20568731,-0.8019401,-2.4028873,-0.058151152,-0.055942055,1.5110435,-1.0783465
-0.1,-0.1,0.8999999999999999,-0.5235987755982988,0.0,0,0.050922897,-1.1875972,2.302425,-0.6323806,0.13011894,1.5461882,0.46945384,0.24196018,-0.820631,-2.402846,-0.112681665,-0.030494248,1.5508989,-1.3474494
-0.1,-0.1,0.8999999999999999,-0.5235987755982988,0.0,0,-0.0063262694,-1.195588,2.3485243,-0.70340526,0.08543107,1.5489254,0.42141715,0.24176297,-0.8364954,-2.441411,-0.00051745813,-0.0797991,1.5391575,-1.186437
-0.1,-0.1,0.8999999999999999,-0.5235987755982988,0.0,0,0.05759808,-1.1526086,2.4098387,-0.643592,0.0150475595,1.5580881,0.3216288,0.2544934,-0.80232596,-2.4110417,-0.056740973,-0.04824402,1.5464941,-1.5080636
-0.1,-0.1,0.8999999999999999,-0.5235987755982988,0.0,0,0.082215525,-1.1612601,2.4056938,-0.67254794,0.07069832,1.5531392,0.28903586,0.25428775,-0.80548835,-2.3867965,-0.03494434,-0.028088868,1.5355644,-1.176856
-0.1,-0.1,0.8999999999999999,-0.5235987755982988,0.0,0,0.046189953,-1.1585996,2.386194,-0.66575176,0.10902419,1.5565606,0.38267943,0.24906704,-0.88538766,-2.4019787,0.046870686,0.014211284,1.4983618,-1.328152
-0.1,-0.1,0.8999999999999999,-0.5235987755982988,0.0,0,0.06708038,-1.1746683,2.424737,-0.67992085,0.10364073,1.5584332,0.31713536,0.2559302,-0.8303996,-2.351266,-0.02675594,-0.09924532,1.5027102,-1.3295277
-0.1,-0.1,0.8999999999999999,-0.5235987755982988,0.0,0,0.05841273,-1.1869292,2.417082,-0.6481807,0.086411014,1.5556731,0.35881323,0.24351004,-0.80775625,-2.359313,0.016937958,-0.026051404,1.502664,-1.3512781
-0.1,-0.1,0.8999999999999999,-0.5235987755982988,0.0,0,0.08963377,-1.1837023,2.32966,-0.6527803,0.07976273,1.5555956,0.4020011,0.24258976,-0.8222479,-2.4107692,-0.07298314,-0.013196436,1.5373799,-1.4120635
-0.1,-0.1,0.8999999999999999,-0.5235987755982988,0.0,0,0.094404966,-1.1724762,2.408882,-0.71929157,0.06686783,1.5626279,0.3633419,0.22054037,-0.8187249,-2.4099016,-0.13253517,-0.027084889,1.5278283,-1.124507
-0.1,-0.1,0.8999999999999999,-0.5235987755982988,0.0,0,-0.0033434466,-1.1634637,2.3531563,-0.6386401,0.10194866,1.5447584,0.4488549,0.24582496,-0.8653595,-2.4284418,-0.010939143,0.0016817324,1.5260521,-1.1128707
-0.1,-0.1,0.8999999999999999,-0.5235987755982988,0.0,0,0.05959657,-1.1860583,2.3801475,-0.62724984,0.085239224,1.5490235,0.3866669,0.27407083,-0.81426907,-2.3686059,-0.076108165,-0.07966988,1.519454,-1.4863381
-0.1,-0.1,0.8999999999999999,-0.5235987755982988,0.0,0,0.029990165,-1.157154,2.3551276,-0.6329092,0.09103973,1.5499656,0.21608251,0.26622558,-0.81637686,-2.4040883,-0.0741174,-0.017893946,1.5077318,-1.3500463
-0.1,-0.1,0.8999999999999999,-0.5235987755982988,0.0,0,0.11589998,-1.1762192,2.4163952,-0.665478,0.093735546,1.5491502,0.26298952,0.24787907,-0.89377546,-2.476165,-0.063004896,-0.030802935,1.5260963,-1.2517766
-0.1,-0.1,0.8999999999999999,-0.5235987755982988,0.0,0,0.0842077,-1.1812447,2.3630216,-0.6349722,0.062368963,1.5444851,0.34736875,0.2770514,-0.843361,-2.3569496,-0.020287097,-0.08192814,1.5033071,-1.4534703
-0.1,-0.1,0.8999999999999999,-0.5235987755982988,0.0,0,0.025997493,-1.1548445,2.2952752,-0.6182402,0.07619841,1.5617514,0.32044464,0.23450173,-0.8195627,-2.3475986,0.0038759282,-0.04192236,1.488614,-1.3185574
-0.1,-0.1,0.8999999999999999,-0.5235987755982988,0.0,0,0.07392629,-1.1416994,2.3627365,-0.6576342,0.05267813,1.5569689,0.46794912,0.23222573,-0.79383993,-2.440556,0.018643001,-0.06360651,1.5052918,-1.113221
-0.1,-0.1,0.8999999999999999,-0.5235987755982988,0.0,0,0.10546681,-1.1708362,2.3671038,-0.61836135,0.050127674,1.5601144,0.32040945,0.24279788,-0.838525,-2.393473,-0.045726128,-0.13685311,1.5637203,-1.2868099
-0.1,-0.1,0.8999999999999999,-0.5235987755982988,0.0,0,0.07252739,-1.1810997,2.368233,-0.6608907,0.12348227,1.5429162,0.25451314,0.2599632,-0.8438722,-2.434223,-0.0730582,-0.084624104,1.5353773,-1.2300161
-0.1,-0.1,0.8999999999999999,-0.5235987755982988,0.0,0,0.0856817,-1.175232,2.3794,-0.6995438,0.20672895,1.5577698,0.31672195,0.26963764,-0.8273981,-2.3818955,0.01477118,-0.051404618,1.531131,-1.1876328
-0.1,-0.1,0.8999999999999999,-0.5235987755982988,0.0,0,0.018339934,-1.1670448,2.354356,-0.6787859,0.048081,1.5556103,0.40214616,0.2434199,-0.83265746,-2.3754258,-0.029354086,-0.09764986,1.5412693,-1.2341399
-0.1,-0.1,0.8999999999999999,-0.5235987755982988,0.0,0,0.07021954,-1.15824,2.3934953,-0.68632096,0.08380276,1.5472493,0.35098854,0.2616801,-0.82671076,-2.4043417,0.017961724,0.001286243,1.5263216,-1.2737218
-0.1,-0.1,0.8999999999999999,-0.5235987755982988,0.0,0,0.065331474,-1.1615299,2.3385866,-0.6684844,0.10232446,1.5437225,0.4403411,0.21809311,-0.8123676,-2.3405423,-0.012213794,0.024179524,1.512802,-1.2655184
-0.1,-0.1,0.8999999999999999,-0.5235987755982988,0.0,0,0.040344425,-1.1874456,2.4033499,-0.65252525,0.056333806,1.5547904,0.318049,0.22616068,-0.89896804,-2.392306,-0.04973088,-0.18433739,1.497368,-1.4256684
-0.1,-0.1,0.8999999999999999,-0.5235987755982988,0.0,0,0.03277687,-1.1795274,2.4288661,-0.6756299,-0.011233961,1.5604566,0.363661,0.26354444,-0.86093915,-2.3621047,-0.038446493,-0.010495827,1.550192,-1.412696
-0.1,-0.1,0.8999999999999999,-0.5235987755982988,0.0,0,0.039925825,-1.1671989,2.377272,-0.64379215,0.080007315,1.5521077,0.3423418,0.2369718,-0.8535931,-2.3787389,-0.018812813,-0.08668003,1.5201066,-1.1361241
-0.1,-0.1,0.8999999999999999,-0.5235987755982988,0.0,0,0.0018677897,-1.1533787,2.4097679,-0.6330356,0.17766714,1.5494521,0.30012992,0.24908374,-0.8076956,-2.345515,-0.06461757,-0.0715463,1.5349385,-1.304328
-0.1,-0.1,0.8999999999999999,-0.5235987755982988,0.0,0,0.12798522,-1.1971022,2.3556833,-0.6542977,0.09472319,1.5631478,0.3983911,0.27404115,-0.81760085,-2.4028983,-0.0014751464,-0.071026474,1.5454332,-1.0763277
-0.1,-0.1,0.8999999999999999,-0.5235987755982988,0.0,0,0.066435024,-1.1971363,2.3447711,-0.64763993,0.065189645,1.559233,0.41494012,0.28145534,-0.83417016,-2.3517542,-0.08248042,-0.014649135,1.505226,-1.1014999
-0.1,-0.1,0.8999999999999999,-0.5235987755982988,0.0,0,0.10142575,-1.1907438,2.384137,-0.59545,0.08346546,1.5560875,0.47547105,0.23302956,-0.8400071,-2.4216413,0.029684154,-0.09985206,1.5298344,-1.3205147
-0.1,-0.1,0.8999999999999999,-0.5235987755982988,0.0,0,0.081710644,-1.1540577,2.3966799,-0.68604434,0.098352715,1.5524048,0.50124246,0.2497248,-0.8142183,-2.4579766,-0.05777001,-0.062314853,1.5237359,-1.2393334
-0.1,-0.1,0.8999999999999999,-0.5235987755982988,0.0,0,0.06310906,-1.1474651,2.3930597,-0.66934395,0.106949285,1.5553784,0.33786768,0.26802218,-0.813109,-2.3977153,-0.034447897,-0.14133926,1.5392803,-1.1563112
-0.1,-0.1,0.8999999999999999,-0.5235987755982988,0.0,0,0.08965279,-1.1568655,2.436662,-0.6632667,0.05729105,1.5414253,0.41688657,0.26446256,-0.8223449,-2.4119294,-0.07117704,-0.0388066,1.5212109,-1.1897063
-0.1,-0.1,0.8999999999999999,-0.5235987755982988,0.0,0,0.10836068,-1.2022104,2.453993,-0.6797409,0.043581177,1.5563078,0.37230468,0.22488078,-0.84264046,-2.4168582,-0.04569077,-0.026676329,1.5052971,-1.2280471
-0.1,-0.1,0.8999999999999999,-0.5235987755982988,0.0,0,0.09948549,-1.187032,2.3929448,-0.66053474,0.080103904,1.5499486,0.30660868,0.2532763,-0.86342806,-2.3995428,-0.0046117604,-0.06848668,1.5315617,-1.2339425
-0.1,-0.1,0.8999999999999999,-0.5235987755982988,0.0,0,0.08042161,-1.1908102,2.3627703,-0.6976421,0.21071291,1.5409865,0.38485345,0.18787602,-0.84889466,-2.3946552,-0.03409547,-0.058594294,1.5112673,-1.2108455
-0.1,-0.1,0.8999999999999999,-0.5235987755982988,0.0,0,0.10118436,-1.1862576,2.3885963,-0.65583444,0.14466414,1.5501254,0.312586,0.22563553,-0.8460353,-2.4119906,-0.09048052,-0.044817016,1.5000769,-1.1854731
-0.1,-0.1,0.8999999999999999,-0.5235987755982988,0.0,0,0.12059986,-1.1585984,2.3828156,-0.6568749,0.109732844,1.5621465,0.33437485,0.26349512,-0.8224934,-2.3576906,0.0029549522,-0.0056596445,1.4877641,-1.4178709
-0.1,-0.1,0.8999999999999999,-0.5235987755982988,0.0,0,0.12709281,-1.1813837,2.333593,-0.6619075,0.050942995,1.5473367,0.39439377,0.25781035,-0.83755547,-2.3343916,-0.0079538645,-0.04473945,1.5161285,-1.2469833
-0.1,-0.1,0.8999999999999999,-0.5235987755982988,0.0,0,0.061130933,-1.1539358,2.3517203,-0.64234084,0.074532986,1.5527905,0.22196876,0.2462613,-0.8646739,-2.3977392,-0.051136263,-0.10234465,1.5350584,-1.2183856
-0.1,-0.1,0.8999999999999999,-0.5235987755982988,0.0,0,0.02941252,-1.1537167,2.3963032,-0.66860765,0.09213497,1.5451614,0.36628142,0.23090859,-0.8629248,-2.4055762,-0.056727245,-0.07377242,1.4992675,-1.3022724
-0.1,-0.1,0.8999999999999999,-0.5235987755982988,0.0,0,0.09334156,-1.1588658,2.432397,-0.6629236,0.12631351,1.5534371,0.3423044,0.26096725,-0.8309156,-2.406413,-0.092278145,0.010019323,1.5308335,-1.4122794
-0.1,-0.1,0.8999999999999999,-0.5235987755982988,0.0,0,0.084710084,-1.1939801,2.3511672,-0.6684069,0.104571104,1.5540967,0.21502064,0.23068237,-0.8677707,-2.385089,-0.005442224,-0.12919103,1.5231092,-1.3330677
-0.1,-0.1,0.8999999999999999,-0.5235987755982988,0.0,0,0.092209816,-1.185986,2.433855,-0.6527178,0.07720089,1.5502625,0.3225244,0.24675079,-0.8283646,-2.3102565,-0.043044765,-0.17587367,1.5445645,-1.0856917
-0.1,-0.1,0.8999999999999999,-0.5235987755982988,0.0,0,0.08357202,-1.1718471,2.334316,-0.6265978,0.097148485,1.5429759,0.5221264,0.23789108,-0.86224526,-2.3780875,-0.10163092,-0.05259925,1.5048119,-1.280864
-0.1,-0.1,0.8999999999999999,-0.5235987755982988,0.0,0,0.06647559,-1.1891661,2.4311905,-0.6517738,0.08257605,1.5499771,0.2949419,0.2391457,-0.8432297,-2.4077322,-0.12553605,-0.04570672,1.5399306,-1.076273
-0.1,-0.1,0.8999999999999999,-0.5235987755982988,0.0,0,0.07276993,-1.1745325,2.4914715,-0.6675463,0.08025925,1.5686355,0.39797932,0.27998543,-0.88391584,-2.4166443,-0.069385454,-0.092579894,1.5181744,-1.1806697
-0.1,-0.1,0.8999999999999999,-0.5235987755982988,0.0,0,0.05524283,-1.1795049,2.4257169,-0.7005616,0.18028428,1.5575507,0.41937456,0.20510311,-0.80906963,-2.4433043,-0.031162145,0.037486736,1.521636,-1.4082248
-0.1,-0.1,0.8999999999999999,-0.5235987755982988,0.0,0,0.07205379,-1.1747519,2.3821502,-0.6564503,0.1429329,1.5552794,0.3269709,0.25156906,-0.80822027,-2.395205,-0.009911145,-0.070633866,1.5129015,-1.0619894
-0.1,-0.1,0.8999999999999999,-0.5235987755982988,0.0,0,0.11383871,-1.1908717,2.418989,-0.6840637,0.0459396,1.5396585,0.32140458,0.25041142,-0.8378637,-2.3977344,-0.074272305,-0.07132132,1.5290228,-1.174546
-0.1,-0.1,0.8999999999999999,-0.5235987755982988,0.0,0,0.08459347,-1.1728014,2.4369307,-0.6663584,0.16938457,1.5427997,0.22853893,0.2404296,-0.79016346,-2.4071326,-0.07984173,-0.076309174,1.5430315,-1.3001953
-0.1,-0.1,0.8999999999999999,-0.5235987755982988,0.0,0,0.058890175,-1.1719803,2.3474784,-0.6477988,0.059981596,1.5465275,0.43223932,0.23740004,-0.82255924,-2.40511,-0.03987892,-0.061785486,1.5074056,-1.26185
-0.1,-0.1,0.8999999999999999,-0.5235987755982988,0.0,0,0.063094445,-1.1776946,2.3688333,-0.68335915,0.03361414,1.5555702,0.3457328,0.23809148,-0.8218487,-2.3769178,0.028521424,-0.010147722,1.5200502,-1.1917012
-0.1,-0.1,0.8999999999999999,-0.5235987755982988,0.0,0,0.11073669,-1.1686134,2.3756406,-0.6551349,0.14063965,1.5512873,0.48124465,0.24790327,-0.8265565,-2.3911839,-0.03589653,-0.07230885,1.524895,-1.3578032
-0.1,-0.1,0.8999999999999999,-0.5235987755982988,0.0,0,0.084559105,-1.159142,2.3734827,-0.6631381,0.13375302,1.5455809,0.34437907,0.23892286,-0.82288355,-2.3997684,-0.05481046,-0.042422097,1.5343984,-1.3010242
-0.1,-0.1,0.8999999999999999,-0.5235987755982988,0.0,0,0.098372355,-1.1748714,2.379021,-0.6592594,0.08522669,1.5606931,0.4339026,0.28918728,-0.79246366,-2.3594778,-0.051743828,0.032785494,1.5337105,-1.3135035
-0.1,-0.1,0.8999999999999999,-0.5235987755982988,0.0,0,0.03360989,-1.1732711,2.433357,-0.65514064,0.18292755,1.5662801,0.31892523,0.26020503,-0.8718395,-2.3878593,-0.027511137,-0.08771662,1.5141337,-1.2328575
-0.1,-0.1,0.8999999999999999,-0.5235987755982988,0.0,0,0.04828477,-1.1537044,2.2838242,-0.6390762,0.13140704,1.5582346,0.3564994,0.22995456,-0.8082093,-2.3305533,-0.038094375,-0.11664234,1.5414075,-1.118856
-0.1,-0.1,0.8999999999999999,-0.5235987755982988,0.0,0,0.05557689,-1.1593882,2.410291,-0.66929185,0.12471221,1.5499374,0.4740939,0.2384069,-0.84766847,-2.4380953,-0.061719555,0.018199192,1.5158254,-1.3631468
-0.1,-0.1,0.8999999999999999,-0.5235987755982988,0.0,0,0.09138066,-1.1819624,2.3841195,-0.7103794,0.16229105,1.5592537,0.27296174,0.2696349,-0.79359007,-2.3708386,-0.01339983,-0.07153436,1.5246516,-1.2591484
-0.1,-0.1,0.8999999999999999,-0.5235987755982988,0.0,0,0.063301116,-1.1957844,2.4123836,-0.6766332,0.09879246,1.5523627,0.30586556,0.22253147,-0.8432141,-2.4377954,-0.040513862,-0.0142982565,1.5409604,-1.0269811
-0.1,-0.1,0.8999999999999999,-0.5235987755982988,0.0,0,0.12792139,-1.1554323,2.4039934,-0.6778178,0.123967305,1.559818,0.3553232,0.24450062,-0.8202093,-2.3583968,0.043788314,-0.061946455,1.5504185,-1.2158281
-0.1,-0.1,0.8999999999999999,-0.5235987755982988,0.0,0,0.056973964,-1.1644791,2.3540847,-0.6386321,0.1679254,1.5421361,0.4859951,0.26770058,-0.83577645,-2.408363,-0.0128353,-0.06814117,1.5169147,-1.495265
-0.1,-0.1,0.8999999999999999,-0.5235987755982988,0.0,0,0.015180144,-1.1705893,2.4337249,-0.65038747,0.07804116,1.5645504,0.3839216,0.20087701,-0.8087591,-2.3715916,-0.07029256,0.00076758675,1.5407068,-1.1955259
-0.1,-0.1,0.8999999999999999,-0.5235987755982988,0.0,0,0.04698827,-1.1465944,2.4182677,-0.66453016,0.12303465,1.5518564,0.33510247,0.22913639,-0.80634385,-2.3413608,-0.03177207,-0.0959166,1.53703,-1.2273799
-0.1,-0.1,0.8999999999999999,-0.5235987755982988,0.0,0,0.08393201,-1.167843,2.358964,-0.6867414,0.04103492,1.5554667,0.34745422,0.21268511,-0.8204448,-2.3813686,-0.15566197,-0.056762304,1.5241573,-1.3300245
-0.1,-0.1,0.8999999999999999,-0.5235987755982988,0.0,0,0.113631055,-1.1786894,2.3713243,-0.6520455,0.13088354,1.5502325,0.3611517,0.2618923,-0.8322915,-2.4089613,-0.04721076,0.03848755,1.5566837,-1.1563202
-0.1,-0.1,0.8999999999999999,-0.5235987755982988,0.0,0,0.05543408,-1.1631635,2.3485603,-0.65123856,0.12760577,1.564653,0.40712205,0.25808063,-0.8455031,-2.4118326,-0.026397625,-0.15471348,1.5200192,-1.1887515
-0.1,-0.1,0.8999999999999999,-0.5235987755982988,0.0,0,0.08853298,-1.1861863,2.4403856,-0.67494375,0.06954887,1.5506903,0.36969367,0.21185963,-0.82549125,-2.453138,-0.096863545,-0.11163748,1.5478133,-1.1897902
-0.1,-0.1,0.8999999999999999,-0.5235987755982988,0.0,0,0.05021234,-1.1602049,2.405405,-0.63192904,0.13322127,1.5467525,0.34032398,0.25365895,-0.8502944,-2.4001298,-0.06544969,-0.06026637,1.5197049,-1.1500307
-0.1,-0.1,0.8999999999999999,-0.5235987755982988,0.0,0,0.100371346,-1.1729534,2.3274817,-0.6661436,0.098690994,1.5647156,0.38757056,0.2723996,-0.83176696,-2.3685327,-0.038451985,-0.0013056619,1.5559036,-1.2254932
-0.1,-0.1,0.8999999999999999,-0.5235987755982988,0.0,0,0.049051493,-1.1433494,2.2963798,-0.704277,0.09260995,1.5459505,0.50092185,0.27028534,-0.8260969,-2.440685,-0.21310823,-0.08553109,1.5397202,-1.2662944
-0.1,-0.1,0.8999999999999999,-0.5235987755982988,0.0,0,0.098712415,-1.200476,2.4122057,-0.70519984,0.119252905,1.55197,0.3881346,0.1956636,-0.82475966,-2.3560688,-0.057577826,-0.14299743,1.4979045,-1.3380373
-0.1,-0.1,0.8999999999999999,-0.5235987755982988,0.0,0,0.13429141,-1.1460726,2.3311532,-0.63544375,0.046008646,1.5546461,0.2882903,0.24349041,-0.81641936,-2.4123068,-0.067321904,-0.113708496,1.5477836,-1.3428427
-0.1,-0.1,0.8999999999999999,-0.5235987755982988,0.0,0,0.068448044,-1.2051629,2.4214954,-0.618327,0.0863967,1.5428358,0.330316,0.19807427,-0.7949873,-2.4158773,-0.006340571,-0.048003897,1.5131986,-1.4750478
-0.1,-0.1,0.8999999999999999,-0.5235987755982988,0.0,0,0.11335425,-1.1843405,2.489593,-0.63992697,0.09938205,1.5605898,0.3993862,0.30196202,-0.8360143,-2.4440756,0.01005653,0.0103631485,1.5043823,-1.1881083
-0.1,-0.1,0.8999999999999999,-0.5235987755982988,0.0,0,0.060660273,-1.1706402,2.3531077,-0.7069082,0.11086289,1.562154,0.34525025,0.22328278,-0.83659196,-2.4262626,0.02236348,-0.029394617,1.5496378,-1.1857417
-0.1,-0.1,0.8999999999999999,-0.5235987755982988,0.0,0,0.07574353,-1.1504899,2.3571002,-0.6595002,0.14664757,1.5506976,0.32171342,0.24465865,-0.78266335,-2.347896,0.01660842,-0.06439905,1.5363724,-1.2364677
-0.1,-0.1,0.8999999999999999,-0.5235987755982988,0.0,0,0.059695214,-1.184374,2.3846793,-0.6765342,0.07311044,1.5464234,0.5447148,0.24529989,-0.8502939,-2.3488588,-0.03225005,0.02580959,1.5665205,-1.417385
-0.1,-0.1,0.8999999999999999,-0.5235987755982988,0.0,0,0.057071578,-1.1801035,2.4056,-0.6495935,0.12315809,1.5655757,0.24081859,0.20311673,-0.8112161,-2.401888,0.0009816216,-0.10778646,1.5287259,-1.4088337
-0.1,-0.1,0.8999999999999999,-0.5235987755982988,0.0,0,0.09562447,-1.1626208,2.3948772,-0.7018159,0.10036259,1.5544338,0.555483,0.2109884,-0.8874162,-2.4408643,-0.05899868,0.012402324,1.5231574,-1.2253677
-0.1,-0.1,0.8999999999999999,-0.5235987755982988,0.0,0,0.12444058,-1.1874322,2.3449657,-0.6538875,0.11689275,1.5498359,0.35803977,0.22392657,-0.8161369,-2.3293376,-0.06346278,0.035584617,1.5319595,-1.218158
-0.1,-0.1,0.8999999999999999,-0.5235987755982988,0.0,0,0.095633194,-1.1675937,2.3784254,-0.69731086,0.09131517,1.555439,0.3233743,0.24019106,-0.82322186,-2.349477,0.00758087,-0.023547927,1.5418545,-1.2554274
-0.1,-0.1,0.8999999999999999,-0.5235987755982988,0.0,0,0.10857356,-1.1958929,2.3822498,-0.6522171,0.1143316,1.5658965,0.41907746,0.26104113,-0.8557375,-2.3832617,-0.056726813,-0.08243153,1.5316291,-1.1409621
-0.1,-0.1,0.8999999999999999,-0.5235987755982988,0.0,0,0.08818033,-1.164622,2.4364197,-0.6542789,0.12384795,1.548124,0.31403795,0.28065345,-0.7951101,-2.2910104,-0.057925653,-0.05274066,1.5254817,-0.9530682
-0.1,-0.1,0.8999999999999999,-0.5235987755982988,0.0,0,0.023824345,-1.1903775,2.377191,-0.6794848,0.07647687,1.536499,0.24235113,0.243536,-0.7928151,-2.4287717,-0.17752363,-0.12515147,1.5139562,-1.2471482
-0.1,-0.1,0.8999999999999999,-0.5235987755982988,0.0,0,0.098988496,-1.1847284,2.426112,-0.6505351,0.073041566,1.5548326,0.34177554,0.2719389,-0.79066944,-2.3948505,-0.0568859,-0.06989616,1.5154675,-1.259043
-0.1,-0.1,0.8999999999999999,-0.5235987755982988,0.0,0,0.10926026,-1.1723105,2.3509135,-0.70699114,0.10588056,1.5570922,0.42434835,0.24852292,-0.8361307,-2.3336456,0.045168765,-0.05862508,1.5087162,-1.2153467
-0.1,-0.1,0.8999999999999999,-0.5235987755982988,0.0,0,0.017743045,-1.1554158,2.3479633,-0.6663011,0.16035038,1.5445681,0.3560817,0.21957372,-0.82071173,-2.4236996,0.017523006,-0.143671,1.4874218,-1.3006034
-0.1,-0.1,0.8999999999999999,-0.5235987755982988,0.0,0,0.14125746,-1.1763055,2.3413794,-0.63937396,0.060715713,1.5381336,0.3207743,0.2363375,-0.8396791,-2.4218688,0.040926617,-0.04866892,1.5267087,-1.3600463
-0.1,-0.1,0.8999999999999999,-0.5235987755982988,0.0,0,0.033790793,-1.1897635,2.3560705,-0.700884,0.109289125,1.5646884,0.3849386,0.22543043,-0.798747,-2.4045403,-0.043232292,-0.02743401,1.5330302,-1.2809982
-0.1,-0.1,0.8999999999999999,-0.5235987755982988,0.0,0,0.046988044,-1.187671,2.4129739,-0.6631487,0.15142377,1.5510467,0.3605115,0.20004527,-0.81206477,-2.4293666,0.0112000145,-0.14516357,1.5112585,-1.351289
-0.1,-0.1,0.8999999999999999,-0.5235987755982988,0.0,0,0.077294156,-1.1773466,2.376518,-0.6812313,0.07201227,1.539084,0.37078458,0.2760523,-0.82196254,-2.4133968,0.03106022,0.031534117,1.5232568,-1.3137021
-0.1,-0.1,0.8999999999999999,-0.5235987755982988,0.0,0,0.06328131,-1.1788609,2.398643,-0.7160455,0.13627912,1.5608594,0.42658338,0.31207335,-0.8027136,-2.4235334,-0.035582412,-0.09241177,1.518474,-1.3167659
-0.1,-0.1,0.8999999999999999,-0.5235987755982988,0.0,0,0.08556036,-1.1924956,2.4723048,-0.63334984,0.07428767,1.5530037,0.2918189,0.20545614,-0.81210047,-2.3807344,-0.07386368,-0.090925425,1.5601437,-1.38242
-0.1,-0.1,0.8999999999999999,-0.5235987755982988,0.0,0,0.060731336,-1.1667783,2.3606188,-0.6530184,0.1034327,1.5447267,0.29221988,0.24055219,-0.84287596,-2.456822,-0.025850855,0.004997419,1.5090299,-1.3176581
-0.1,-0.1,0.8999999999999999,-0.5235987755982988,0.0,0,0.0924112,-1.1744684,2.4346547,-0.6827365,0.11361579,1.5536324,0.4585304,0.28301045,-0.8159843,-2.3673806,0.018267255,-0.040374197,1.5253415,-1.2781106
-0.1,-0.1,0.8999999999999999,-0.5235987755982988,0.0,0,0.08203795,-1.1410375,2.3871858,-0.6316377,0.10617283,1.5500871,0.43361187,0.23294972,-0.81993824,-2.3659704,-0.008882644,-0.068646036,1.5446558,-1.2832814
-0.1,-0.1,0.8999999999999999,-0.5235987755982988,0.0,0,-0.018122941,-1.1779481,2.3932781,-0.68290764,0.2102637,1.5517124,0.35192138,0.26407936,-0.82353866,-2.3333564,-0.10477356,-0.14235349,1.5302713,-1.278257
-0.1,-0.1,0.8999999999999999,-0.5235987755982988,0.0,0,0.08927261,-1.1838703,2.4162521,-0.65734684,0.077932455,1.548858,0.38719475,0.22115442,-0.837683,-2.3712924,0.030728988,-0.06470336,1.5251057,-1.1434449
-0.1,-0.1,0.8999999999999999,-0.5235987755982988,0.0,0,0.08978359,-1.157511,2.415758,-0.62771493,0.1422892,1.551151,0.3381516,0.23723437,-0.8320845,-2.4087522,-0.019808847,0.011669514,1.5264217,-1.1777045
-0.1,-0.1,0.8999999999999999,-0.5235987755982988,0.0,0,0.043555968,-1.1742918,2.341798,-0.6731156,0.12672146,1.558463,0.44210145,0.27111024,-0.81964827,-2.3690796,-0.08302144,-0.16280483,1.5229063,-1.4339586
-0.1,-0.1,0.8999999999999999,-0.5235987755982988,0.0,0,0.08715936,-1.189613,2.340655,-0.62511045,0.14900115,1.5489733,0.33296522,0.22691804,-0.8445155,-2.3623867,-0.026404383,0.013455059,1.5289515,-1.270817
-0.1,-0.1,0.8999999999999999,-0.5235987755982988,0.0,0,0.06558293,-1.1451135,2.3513517,-0.6429168,0.09271818,1.535643,0.25728595,0.25149313,-0.82055026,-2.4013302,0.019013217,0.019122986,1.5315912,-1.292359
-0.1,-0.1,0.8999999999999999,-0.5235987755982988,0.0,0,0.10870453,-1.1658775,2.3839152,-0.65811926,0.11395755,1.5422815,0.25921452,0.21333063,-0.8346751,-2.350293,-0.12064832,-0.068128444,1.513177,-1.4366091
-0.1,-0.1,0.8999999999999999,-0.5235987755982988,0.0,0,0.11036173,-1.1660268,2.4228687,-0.6499415,0.09791055,1.5550525,0.34430486,0.25865182,-0.7768678,-2.3755379,-0.029273631,0.04665248,1.5367211,-1.2865947
-0.1,-0.1,0.8999999999999999,-0.5235987755982988,0.0,0,0.06273986,-1.170429,2.439442,-0.64890313,0.029117363,1.5519322,0.32863683,0.26806736,-0.80690306,-2.3878129,-0.07784793,0.025079003,1.5228091,-1.0328306
-0.1,-0.1,0.8999999999999999,-0.5235987755982988,0.0,0,0.07137129,-1.1691244,2.410345,-0.65290767,0.161297,1.5414459,0.38520306,0.22177568,-0.7678047,-2.394113,-0.036172513,0.024028081,1.520697,-1.3591849
-0.1,-0.1,0.8999999999999999,-0.5235987755982988,0.0,0,0.11141327,-1.1778948,2.407631,-0.6501411,0.11054757,1.5414282,0.40213737,0.25681585,-0.818816,-2.3749466,-0.06126434,-0.07929375,1.5173453,-1.2512486
-0.1,-0.1,0.8999999999999999,-0.5235987755982988,0.0,0,0.0809495,-1.1846904,2.3704052,-0.6232909,0.0798254,1.5534962,0.26896852,0.2273911,-0.75506544,-2.4027066,0.0053909286,-0.11704552,1.4929836,-1.1652988
-0.1,-0.1,0.8999999999999999,-0.5235987755982988,0.0,0,0.07136054,-1.1647581,2.274637,-0.66570115,0.145829,1.5548359,0.32866293,0.22080843,-0.84206706,-2.366648,-0.03424606,-0.029065121,1.5232859,-1.2658329
-0.1,-0.1,0.8999999999999999,-0.5235987755982988,0.0,0,0.034070414,-1.1895164,2.4088728,-0.66258144,0.09359638,1.5437096,0.42367053,0.22497003,-0.8007978,-2.4245784,0.0041308245,-0.0917473,1.5647446,-1.1965333
-0.1,-0.1,0.8999999999999999,-0.5235987755982988,0.0,0,0.06585342,-1.1804054,2.3795023,-0.64459354,0.14979082,1.5446875,0.34656408,0.25969627,-0.82742685,-2.3981092,-0.024629762,-0.056813,1.5375264,-1.346658
-0.1,-0.1,0.8999999999999999,-0.5235987755982988,0.0,0,0.10397856,-1.1743168,2.3338952,-0.6053889,0.09583798,1.5561595,0.38395002,0.23601334,-0.8264214,-2.3828316,-0.06592002,-0.14292765,1.5453601,-1.011886
-0.1,-0.1,0.8999999999999999,-0.5235987755982988,0.0,0,0.049979202,-1.1989651,2.4185843,-0.65937054,0.12243539,1.5573294,0.23919517,0.25032464,-0.81977236,-2.3978233,-0.053407397,-0.13134502,1.5022056,-1.1573442
-0.1,-0.1,0.8999999999999999,-0.5235987755982988,0.0,0,0.09843744,-1.1923447,2.3447146,-0.6217289,0.051484913,1.5555391,0.31203395,0.24276893,-0.85105777,-2.3912995,-0.027683107,-0.05652609,1.5264708,-1.2296839
-0.1,-0.1,0.8999999999999999,-0.5235987755982988,0.0,0,0.0712948,-1.1816583,2.3361962,-0.64645565,0.01410659,1.5468935,0.4029557,0.24948828,-0.8437623,-2.3756576,-0.013219288,-0.14039192,1.5359211,-1.206921
-0.1,-0.1,0.8999999999999999,-0.5235987755982988,0.0,0,0.10501929,-1.181118,2.3786118,-0.6957158,0.06343878,1.5612767,0.35986486,0.25573137,-0.8083679,-2.3653648,-0.05132885,-0.023290949,1.5377415,-1.2632495
-0.1,-0.1,0.8999999999999999,-0.5235987755982988,0.0,0,0.08177367,-1.1728797,2.378263,-0.6918448,0.11312517,1.5502678,0.45256153,0.25112584,-0.8059429,-2.408197,0.030603852,-0.045837596,1.5069971,-1.1226357
-0.1,-0.1,0.8999999999999999,-0.5235987755982988,0.0,0,0.08998823,-1.1830884,2.4093773,-0.65761155,0.044823293,1.5482664,0.48409492,0.26452166,-0.8333745,-2.3575225,-0.012505426,-0.03791359,1.5174708,-1.3560894
-0.1,-0.1,0.8999999999999999,-0.5235987755982988,0.0,0,0.07597118,-1.1751983,2.3684201,-0.6335532,0.13487875,1.5398755,0.36326122,0.24327715,-0.8304496,-2.4040406,0.0072969887,0.008894363,1.528828,-1.3227866
-0.1,-0.1,0.8999999999999999,-0.5235987755982988,0.0,0,0.017537221,-1.1670644,2.4320812,-0.63907087,-0.066572115,1.5562677,0.23236205,0.27587804,-0.82085973,-2.3562584,-0.033922914,-0.039456002,1.5300113,-1.2720398
-0.1,-0.1,0.8999999999999999,-0.5235987755982988,0.0,0,0.030077012,-1.1796819,2.3745599,-0.6285212,0.17602473,1.5570049,0.30312306,0.23917024,-0.842816,-2.3749204,-0.05895939,-0.0770481,1.5292493,-1.2408375
-0.1,-0.1,0.8999999999999999,-0.5235987755982988,0.0,0,0.08715282,-1.1771597,2.4075155,-0.69650686,0.09018015,1.5430155,0.41963282,0.23568429,-0.8046551,-2.3618443,-0.063482665,0.029065719,1.5427691,-1.2914287
-0.1,-0.1,0.8999999999999999,-0.5235987755982988,0.0,0,0.058156233,-1.1543148,2.3630536,-0.6308541,0.08530162,1.559645,0.51716644,0.28342387,-0.8232854,-2.351661,-0.022857847,-0.12054891,1.5207134,-1.2141237
-0.1,-0.1,0.8999999999999999,-0.5235987755982988,0.0,0,0.057135932,-1.1875768,2.385501,-0.655976,0.082911536,1.555387,0.5064274,0.22203659,-0.82381785,-2.3686504,0.0032238609,-0.076671496,1.5123792,-1.3589138
-0.1,-0.1,0.8999999999999999,-0.5235987755982988,0.0,0,0.055368792,-1.1676729,2.35446,-0.6356706,0.08866568,1.5329938,0.30545968,0.21467671,-0.8103862,-2.3337264,-0.046750996,-0.06988542,1.5144943,-1.3557082
-0.1,-0.1,0.8999999999999999,-0.5235987755982988,0.0,0,0.048722196,-1.168658,2.3710988,-0.6835196,0.076607,1.560075,0.33439893,0.27569583,-0.8015634,-2.382205,-0.038052842,-0.12669882,1.5209063,-1.2633922
-0.1,-0.1,0.8999999999999999,-0.5235987755982988,0.0,0,0.07192312,-1.1727115,2.347945,-0.64849395,0.07739766,1.5566132,0.16489558,0.22040024,-0.82377803,-2.3773718,0.003749773,-0.07485527,1.5078031,-1.2948962
-0.1,-0.1,0.8999999999999999,-0.5235987755982988,0.0,0,0.01885491,-1.1747459,2.329911,-0.6574197,0.116853125,1.5469166,0.47163874,0.23902945,-0.81908184,-2.3449237,-0.07170799,-0.0763476,1.5484681,-1.4049083
-0.1,-0.1,0.8999999999999999,-0.5235987755982988,0.0,0,0.09404846,-1.1687878,2.416742,-0.654824,0.15940447,1.544473,0.25878328,0.2360364,-0.84573317,-2.4202416,-0.0058766124,-0.022114646,1.500298,-1.2155354
-0.1,-0.1,0.8999999999999999,-0.5235987755982988,0.0,0,0.044986334,-1.1622363,2.3339877,-0.70986557,0.06019337,1.5613289,0.4223891,0.23364837,-0.8485655,-2.4130158,0.014908728,-0.06839983,1.5046303,-1.1926155
-0.1,-0.1,0.8999999999999999,-0.5235987755982988,0.0,0,0.07752237,-1.1787031,2.42073,-0.61893594,0.13762212,1.5434617,0.48793206,0.24944538,-0.8785642,-2.3922281,-0.06255662,-0.114457935,1.5493984,-1.2675763
-0.1,-0.1,0.8999999999999999,-0.5235987755982988,0.0,0,0.08844,-1.1638045,2.401853,-0.63758945,0.14541653,1.5579419,0.3099748,0.2515793,-0.8014697,-2.3594778,0.0074042734,0.0014242626,1.5182353,-1.1219534
-0.1,-0.1,0.8999999999999999,-0.5235987755982988,0.0,0,0.082734466,-1.1634041,2.4202056,-0.661617,0.14914024,1.5585382,0.36931232,0.27026188,-0.78186363,-2.3869238,-0.05372705,-0.008427007,1.5260179,-1.4305006
-0.1,-0.1,0.8999999999999999,-0.5235987755982988,0.0,0,0.04771651,-1.1622051,2.4201932,-0.6371116,0.12117079,1.5472356,0.4473574,0.2562732,-0.7962502,-2.3949406,-0.08187264,-0.15634295,1.5186741,-1.2742288
-0.1,-0.1,0.8999999999999999,-0.5235987755982988,0.0,0,0.060580026,-1.1894449,2.2829857,-0.64224786,0.06819043,1.5624264,0.42798606,0.2418743,-0.8388845,-2.4191535,0.018808808,0.001794895,1.4950322,-1.43756
-0.1,-0.1,0.8999999999999999,-0.5235987755982988,0.0,0,0.016203351,-1.1473784,2.3705065,-0.72014976,0.13409828,1.5555277,0.4667605,0.2572907,-0.79354155,-2.3879476,0.007947697,0.004779346,1.5017022,-1.3677518
-0.1,-0.1,0.8999999999999999,-0.5235987755982988,0.0,0,0.042576656,-1.162551,2.3364685,-0.6191103,0.064852096,1.5580994,0.436819,0.25335187,-0.823623,-2.390323,-0.044933993,-0.016792938,1.5241184,-1.3170544
-0.1,-0.1,0.8999999999999999,-0.5235987755982988,0.0,0,0.07664057,-1.1496205,2.4605463,-0.60877967,0.077114604,1.5597477,0.40886754,0.22771145,-0.79222566,-2.3754961,-0.02611069,-0.022145256,1.5238533,-1.346747
-0.1,-0.1,0.8999999999999999,-0.5235987755982988,0.0,0,0.08449077,-1.1757722,2.367736,-0.6142198,0.09691303,1.5417993,0.43572223,0.25055394,-0.8611796,-2.4231517,0.03517663,-0.08082528,1.5078415,-1.2830601
-0.1,-0.1,0.8999999999999999,-0.5235987755982988,0.0,0,0.09140244,-1.1553391,2.4095092,-0.6514021,0.12913044,1.561153,0.21339431,0.2563449,-0.803656,-2.4245088,-0.044001255,-0.04598028,1.5178833,-1.2194153
-0.1,-0.1,0.8999999999999999,-0.5235987755982988,0.0,0,0.102625616,-1.1726259,2.409645,-0.6483638,0.07670094,1.5462623,0.48267767,0.24536735,-0.8340841,-2.4207582,-0.046304025,-0.09723959,1.4919752,-1.2742231
-0.1,-0.1,0.8999999999999999,-0.5235987755982988,0.0,0,0.0754696,-1.1840945,2.436632,-0.6658315,0.054276187,1.5518943,0.46852785,0.24351886,-0.8504501,-2.4033558,-0.03279905,-0.10529343,1.4926851,-1.211931
-0.1,-0.1,0.8999999999999999,-0.5235987755982988,0.0,0,0.057959236,-1.1546086,2.424307,-0.6558378,0.10130039,1.5679582,0.31805345,0.23989448,-0.88700545,-2.3811028,-0.08347416,-0.082813896,1.5224172,-1.3321773
-0.1,-0.1,0.8999999999999999,-0.5235987755982988,0.0,0,0.09265903,-1.1715293,2.426552,-0.66981155,0.11947833,1.5541409,0.49757347,0.25296846,-0.8264006,-2.4034185,-0.052731674,-0.04650029,1.5170861,-1.3314546
-0.1,-0.1,0.8999999999999999,-0.5235987755982988,0.0,0,0.06009923,-1.1659985,2.3494766,-0.6492072,0.10771929,1.5447768,0.36350334,0.26411006,-0.839994,-2.4214091,-0.04627837,-0.11708179,1.5211601,-1.2965168
-0.1,-0.1,0.8999999999999999,-0.5235987755982988,0.0,0,0.08346659,-1.1816323,2.4198055,-0.6801713,0.10109685,1.5564549,0.4305669,0.21091044,-0.8669541,-2.3963976,-0.003426428,-0.046759345,1.5083545,-1.2956796
-0.1,-0.1,0.8999999999999999,-0.5235987755982988,0.0,0,0.055643734,-1.1590192,2.3690763,-0.639282,0.15014133,1.5428952,0.2418945,0.2027032,-0.81815165,-2.4950058,-0.045044556,-0.09437749,1.5220222,-1.2782949
-0.1,-0.1,0.8999999999999999,-0.5235987755982988,0.0,0,0.12309049,-1.1825325,2.3954594,-0.6881908,0.12128336,1.5531746,0.18626955,0.25554115,-0.85639113,-2.354742,-0.10798484,-0.036919698,1.5227284,-1.219945
-0.1,-0.1,0.8999999999999999,-0.5235987755982988,0.0,0,0.09434235,-1.1694063,2.402623,-0.6533557,0.08526812,1.5430169,0.4077691,0.21438712,-0.8614098,-2.3414938,-0.07897,-0.043693963,1.4788456,-1.3239646
-0.1,-0.1,0.8999999999999999,-0.5235987755982988,0.0,0,0.071260735,-1.1809539,2.360793,-0.7096542,0.07237417,1.542108,0.4286696,0.25932112,-0.8350713,-2.4386463,-0.012967387,-0.06106281,1.5088888,-1.1763065
-0.1,-0.1,0.8999999999999999,-0.5235987755982988,0.0,0,0.09670472,-1.1733191,2.3901408,-0.6890331,0.16826572,1.5675889,0.3438629,0.23608984,-0.79361445,-2.383124,-0.04067544,-0.03236311,1.542308,-1.479238
-0.1,-0.1,0.8999999999999999,-0.5235987755982988,0.0,0,0.08111714,-1.1679059,2.3922973,-0.65918714,0.1415221,1.5577682,0.41864663,0.25513485,-0.82319194,-2.4485402,-0.059030626,-0.11839843,1.5511721,-1.155085
-0.1,-0.1,0.8999999999999999,-0.5235987755982988,0.0,0,0.09898434,-1.1550463,2.3397775,-0.64679444,0.089909,1.5500139,0.33714625,0.27509403,-0.8519622,-2.3290935,-0.01777896,0.039294213,1.5039959,-1.1539387
-0.1,-0.1,0.8999999999999999,-0.5235987755982988,0.0,0,0.070650876,-1.1450329,2.379652,-0.6567079,0.13649848,1.5484413,0.34329972,0.23116767,-0.7828144,-2.363792,-1.741029e-05,-0.06727024,1.4922993,-1.2807233
-0.1,-0.1,0.8999999999999999,-0.5235987755982988,0.0,0,0.06339029,-1.1696239,2.3643909,-0.6633229,0.07412867,1.5456374,0.34562114,0.24860163,-0.8345721,-2.3883638,-0.048565306,-0.024695177,1.5351746,-1.1261
-0.1,-0.1,0.8999999999999999,-0.5235987755982988,0.0,0,0.07635396,-1.1899985,2.381429,-0.6547773,0.06369184,1.5468088,0.3144662,0.23548378,-0.8339598,-2.3564606,-0.05389538,-0.076860756,1.5485066,-1.1221994
-0.1,-0.1,0.8999999999999999,-0.5235987755982988,0.0,0,0.06856731,-1.1779974,2.4055462,-0.6941342,0.15959577,1.5510273,0.5205648,0.2608882,-0.855544,-2.400948,-0.05611996,-0.09724181,1.5031178,-1.1383265
-0.1,-0.1,0.8999999999999999,-0.5235987755982988,0.0,0,0.065574996,-1.1668036,2.3949811,-0.6655646,0.050988566,1.561352,0.3334153,0.2168246,-0.80997604,-2.335635,-0.09031897,0.029364143,1.5059066,-1.2674986
-0.1,-0.1,0.8999999999999999,-0.5235987755982988,0.0,0,0.09750204,-1.1685476,2.4029973,-0.61013395,0.13455129,1.5416074,0.3557246,0.2616246,-0.84063107,-2.4122326,-0.041686554,-0.12702404,1.5124252,-1.3270885
-0.1,-0.1,0.8999999999999999,-0.5235987755982988,0.0,0,0.084629305,-1.2042276,2.4078643,-0.66854066,0.04217764,1.5543656,0.23129326,0.23153418,-0.82316923,-2.3963654,-0.035432223,-0.059729453,1.4924835,-1.036185
-0.1,-0.1,0.8999999999999999,-0.5235987755982988,0.0,0,0.06198918,-1.1698077,2.4117508,-0.6672421,0.09623147,1.555705,0.407698,0.20942886,-0.8127152,-2.398225,-0.016993027,-0.06689709,1.5268556,-1.2217332
-0.1,-0.1,0.8999999999999999,-0.5235987755982988,0.0,0,0.05760438,-1.1866555,2.340006,-0.62310207,0.15555717,1.552839,0.3730142,0.23635265,-0.85470366,-2.3996525,-0.061287336,-0.10626384,1.5293301,-1.274235
-0.1,-0.1,0.8999999999999999,-0.5235987755982988,0.0,0,0.05938396,-1.1607627,2.3981287,-0.6473679,0.10822355,1.5629755,0.2901472,0.22634144,-0.8314809,-2.3524797,-0.052763354,-0.09429923,1.5200404,-1.1279434
-0.1,-0.1,0.8999999999999999,-0.5235987755982988,0.0,0,0.09155533,-1.175753,2.3905973,-0.6022165,-0.044608347,1.5360563,0.4873393,0.2513968,-0.79342043,-2.3944077,-0.02686518,-0.09248845,1.5066646,-1.1892961
-0.1,-0.1,0.8999999999999999,-0.5235987755982988,0.0,0,0.10274459,-1.1776325,2.3868139,-0.6775781,0.07561612,1.5545744,0.46674147,0.23175137,-0.8379063,-2.4072933,-0.0073241442,-0.012040396,1.4943689,-1.4526019
-0.1,-0.1,0.8999999999999999,-0.5235987755982988,0.0,0,0.04764295,-1.1723405,2.3618307,-0.6429307,0.0627501,1.5496433,0.5537621,0.23246196,-0.8269369,-2.410966,-0.018095098,-0.031722233,1.5110902,-1.3658133
-0.1,-0.1,0.8999999999999999,-0.5235987755982988,0.0,0,0.12476034,-1.172598,2.3685238,-0.6560746,0.080707245,1.5488051,0.3484731,0.22284445,-0.8389546,-2.3964314,-0.023917856,0.019953333,1.5221678,-1.3457209
-0.1,-0.1,0.8999999999999999,-0.5235987755982988,0.0,0,0.050875496,-1.1575379,2.389824,-0.6263452,0.04850518,1.5396736,0.369439,0.22736922,-0.83502424,-2.3917818,-0.09136042,-0.07217189,1.5029567,-1.3306273
-0.1,-0.1,0.8999999999999999,-0.5235987755982988,0.0,0,0.0964162,-1.1820445,2.372995,-0.6386081,0.07541482,1.5492008,0.45378765,0.2416626,-0.8043309,-2.3998282,-0.093038596,-0.07948316,1.5380299,-1.322948
-0.1,-0.1,0.8999999999999999,-0.5235987755982988,0.0,0,0.024748622,-1.1811142,2.3435614,-0.6356623,0.094762184,1.5343009,0.33222243,0.21532558,-0.84159786,-2.3885365,-0.02319894,-0.066143855,1.5234561,-1.3593664
-0.1,-0.1,0.8999999999999999,-0.5235987755982988,0.0,0,0.08372801,-1.1680092,2.3843136,-0.6835121,0.039395116,1.5422211,0.42908543,0.19672716,-0.83695585,-2.391904,-0.08378518,-0.03180322,1.5247076,-1.3764274
-0.1,-0.1,0.8999999999999999,-0.5235987755982988,0.0,0,0.07615649,-1.1648893,2.377094,-0.6786845,0.08157648,1.5506027,0.28878883,0.20678662,-0.7801478,-2.3649476,-0.07961666,-0.10280726,1.5298793,-1.1487203
-0.1,-0.1,0.8999999999999999,-0.5235987755982988,0.0,0,0.06496822,-1.1714015,2.2861695,-0.659088,0.11356644,1.55744,0.41188103,0.22836666,-0.8166035,-2.3894858,-0.030875688,-0.07360424,1.5043795,-1.2398453
-0.1,-0.1,0.8999999999999999,-0.5235987755982988,0.0,0,0.04803803,-1.1574615,2.3298595,-0.6818025,0.12780336,1.5351406,0.28757545,0.23317263,-0.84550464,-2.3659945,-0.030553136,0.028142488,1.5063945,-1.3661699
-0.1,-0.1,0.8999999999999999,-0.5235987755982988,0.0,0,0.10590419,-1.1768402,2.4105482,-0.6600648,0.04174619,1.5554314,0.35711437,0.23621947,-0.8510934,-2.3944833,-0.019090138,-0.06673832,1.5564461,-1.0051295
-0.1,-0.1,0.8999999999999999,-0.5235987755982988,0.0,0,0.12096979,-1.1854811,2.409562,-0.6700034,0.0833493,1.5592144,0.22046752,0.24425253,-0.86409074,-2.3032405,-0.032615863,-0.06834329,1.5087167,-1.3138217
-0.1,-0.1,0.8999999999999999,-0.5235987755982988,0.0,0,0.06298146,-1.1595485,2.4008553,-0.6608472,0.08074878,1.5645767,0.44986168,0.23450172,-0.8206449,-2.399444,-0.07170116,-0.09638643,1.4908633,-1.0378433
-0.1,-0.1,0.8999999999999999,-0.5235987755982988,0.0,0,0.05016097,-1.1730082,2.3733513,-0.6671273,0.09805186,1.55822,0.32709357,0.22752294,-0.8032363,-2.3748784,-0.087101065,-0.06644392,1.530986,-1.1906279
-0.1,-0.1,0.8999999999999999,-0.5235987755982988,0.0,0,0.041297037,-1.159314,2.3914914,-0.6559555,0.08293723,1.5563709,0.4386069,0.23719525,-0.85285014,-2.3931994,-0.083350286,-0.0064221993,1.5036163,-1.1762667
-0.1,-0.1,0.8999999999999999,-0.5235987755982988,0.0,0,0.10876457,-1.1690147,2.37971,-0.64135385,0.08285245,1.5545546,0.33893597,0.23713768,-0.8247125,-2.3432755,-0.038889386,0.052732203,1.5067738,-1.4164522
-0.1,-0.1,0.8999999999999999,-0.5235987755982988,0.0,0,0.062044874,-1.172684,2.3622565,-0.6939297,0.13051648,1.55319,0.31130868,0.25788143,-0.8337906,-2.3723824,-0.029809412,-0.006095252,1.5031427,-1.3552766
-0.1,-0.1,0.8999999999999999,-0.5235987755982988,0.0,0,0.0729414,-1.1850868,2.361555,-0.6872613,0.12964597,1.5505538,0.5003788,0.24542937,-0.80292135,-2.4088323,-0.013210231,0.0063573034,1.5102159,-1.3342797
-0.1,-0.1,0.8999999999999999,-0.5235987755982988,0.0,0,0.08501124,-1.1730973,2.4360683,-0.65453404,0.017216679,1.5524423,0.40806547,0.21424279,-0.8293985,-2.4444723,0.096240155,-0.0821209,1.5120474,-1.2799412
-0.1,-0.1,0.8999999999999999,-0.5235987755982988,0.0,0,0.044839837,-1.1826559,2.384441,-0.6617411,0.07706174,1.5533537,0.4781132,0.253849,-0.8290926,-2.404796,-0.012503792,-0.05450027,1.5542854,-1.1129439
-0.1,-0.1,0.8999999999999999,-0.5235987755982988,0.0,0,0.095441744,-1.166195,2.3441558,-0.63602823,0.054407157,1.5563512,0.37923834,0.2380641,-0.8177956,-2.3396995,-0.053027466,-0.09434366,1.5139682,-1.2348135
-0.1,-0.1,0.8999999999999999,-0.5235987755982988,0.0,0,0.04006557,-1.1932926,2.349071,-0.6859798,0.12808278,1.5506284,0.38181803,0.22755925,-0.8068082,-2.368252,-0.039192125,-0.07130483,1.5382074,-1.1101023
-0.1,-0.1,0.8999999999999999,-0.5235987755982988,0.0,0,0.04524056,-1.160171,2.4292552,-0.6614035,0.09322074,1.5523111,0.46538,0.27810517,-0.85496306,-2.4040194,-0.023887297,-0.0821774,1.5393232,-1.4361478
-0.1,-0.1,0.8999999999999999,-0.5235987755982988,0.0,0,0.08259997,-1.1758171,2.4287543,-0.6651986,0.13395174,1.544617,0.4290648,0.21627419,-0.8907245,-2.4072251,-0.012398455,-0.034217823,1.5125319,-1.1413661
-0.1,-0.1,0.8999999999999999,-0.5235987755982988,0.0,0,0.062168628,-1.1681151,2.4008517,-0.6660164,0.005128196,1.5349555,0.32585815,0.27938277,-0.7972251,-2.398284,0.007950098,-0.079961106,1.4940217,-1.1477175
-0.1,-0.1,0.8999999999999999,-0.5235987755982988,0.0,0,0.0052489596,-1.1841173,2.360371,-0.68444204,0.11199669,1.5585555,0.4071585,0.24128662,-0.84641194,-2.3894913,-0.0488418,-0.013883277,1.5400199,-1.268686
-0.1,-0.1,0.8999999999999999,-0.5235987755982988,0.0,0,0.108202055,-1.1733937,2.3879454,-0.673623,0.1250367,1.5593259,0.32604733,0.25105143,-0.88357097,-2.3764899,-0.124156,-0.027807517,1.5479914,-1.285591
-0.1,-0.1,0.8999999999999999,-0.5235987755982988,0.0,0,0.04755877,-1.1840476,2.3590043,-0.6659079,0.12737677,1.5569571,0.51167256,0.23534718,-0.8047838,-2.3895144,-0.07833568,-0.031625558,1.5258019,-1.1237799
-0.1,-0.1,0.8999999999999999,-0.5235987755982988,0.0,0,0.07363993,-1.1542771,2.404636,-0.636509,0.059476133,1.5510477,0.3420642,0.28671375,-0.8747932,-2.4060204,-0.0904281,0.003794397,1.5020158,-1.2320073
-0.1,-0.1,0.8999999999999999,-0.5235987755982988,0.0,0,0.08502808,-1.1774864,2.3927183,-0.6432211,0.10643129,1.553153,0.40294683,0.20576029,-0.82179713,-2.4368749,0.021089839,-0.076732084,1.5001799,-1.172633
-0.1,-0.1,0.8999999999999999,-0.5235987755982988,0.0,0,0.028288519,-1.1634696,2.4333634,-0.63938797,0.06736293,1.5551313,0.39480194,0.22053109,-0.8586777,-2.3373902,-0.01823235,-0.04387114,1.5169412,-1.251752
-0.1,-0.1,0.8999999999999999,-0.5235987755982988,0.0,0,0.08728446,-1.1832392,2.289172,-0.62230587,0.17044331,1.5655024,0.36302456,0.2766246,-0.8162305,-2.3523664,-0.04656221,-0.043993127,1.5467697,-1.1347537
-0.1,-0.1,0.8999999999999999,-0.5235987755982988,0.0,0,0.07575676,-1.1743958,2.3363736,-0.67105186,0.05867535,1.5559223,0.32129875,0.26310173,-0.83237356,-2.359652,-0.08032935,-0.017541189,1.5042012,-1.3127365
-0.1,-0.1,0.8999999999999999,-0.5235987755982988,0.0,0,0.11395765,-1.1771715,2.3321335,-0.62174445,0.13130988,1.5532395,0.35336667,0.26679727,-0.8593686,-2.3757532,-0.052163817,-0.0604011,1.5191165,-1.3926231
-0.1,-0.1,0.8999999999999999,-0.5235987755982988,0.0,0,0.06599339,-1.1655439,2.3523958,-0.6386458,0.06101362,1.5652571,0.34878862,0.2189503,-0.82238203,-2.4071395,-0.11403735,0.041788954,1.5475029,-1.2209718
-0.1,-0.1,0.8999999999999999,-0.5235987755982988,0.0,0,0.0049685272,-1.1746631,2.3500993,-0.6525273,0.06891003,1.5598917,0.36279064,0.22444007,-0.8107079,-2.3857677,-0.031581387,-0.02236718,1.5409049,-1.4310483
-0.1,-0.1,0.8999999999999999,-0.5235987755982988,0.0,0,0.07891107,-1.1646382,2.3580866,-0.63440424,0.16951397,1.5538883,0.33772576,0.21915057,-0.83252746,-2.3628213,0.01253614,-0.12661609,1.5038589,-1.0913472
-0.1,-0.1,0.8999999999999999,-0.5235987755982988,0.0,0,0.026175773,-1.1691291,2.3734713,-0.6645274,0.11383466,1.5485954,0.39327627,0.2796485,-0.8214228,-2.41758,-0.05664324,0.00552302,1.4879215,-1.1801997
-0.1,-0.1,0.8999999999999999,-0.5235987755982988,0.0,0,0.041646868,-1.1748518,2.4036367,-0.6399342,0.03050021,1.5478144,0.393514,0.25103855,-0.84148073,-2.3392677,-0.029832065,0.0281923,1.5071927,-1.3270799
-0.1,-0.1,0.8999999999999999,-0.5235987755982988,0.0,0,0.026614262,-1.1613756,2.354874,-0.68475056,0.0816843,1.5511401,0.30462062,0.23808129,-0.8380869,-2.3755527,-0.03855389,-0.023563245,1.5002456,-1.2463723
