sanky1234/BimanualDexCatch/isaacgymenvs/cem_results/football_pose_0.1_0.0_0.8999999999999999_0.0_0.0_0_2025-05-26.csv
x,y,z,roll,pitch,yaw,robot1/joint1,robot1/joint2,robot1/joint3,robot1/joint4,robot1/joint5,robot1/joint6,robot1/joint7,robot2/joint1,robot2/joint2,robot2/joint3,robot2/joint4,robot2/joint5,robot2/joint6,robot2/joint7
0.1,0.0,0.8999999999999999,0.0,0.0,0,-1.6109526,1.3032845,-0.39409006,0.50703967,-0.45200643,1.3374891,-1.4584016,2.4545178,0.9911198,0.04103947,0.06298131,-0.22338673,1.2975621,0.44336098
0.1,0.0,0.8999999999999999,0.0,0.0,0,-1.5961982,1.3179356,-0.38903633,0.50767505,-0.46294585,1.3203241,-1.4766788,2.4548097,0.9917728,-0.028552335,0.064793885,-0.10127411,1.091863,0.22692756
0.1,0.0,0.8999999999999999,0.0,0.0,0,-1.6086395,1.3092407,-0.39707333,0.50060046,-0.46517873,1.3270035,-1.492396,2.3214223,0.99249095,0.023232428,0.06345188,-0.1475542,1.2780336,-0.57725435
0.1,0.0,0.8999999999999999,0.0,0.0,0,-1.6004272,1.3069779,-0.38446155,0.5036581,-0.4575793,1.3333113,-1.405089,2.4361925,0.9955563,0.03600269,0.0705888,-0.060640145,1.0104705,0.20529701
0.1,0.0,0.8999999999999999,0.0,0.0,0,-1.6062782,1.3178079,-0.39954594,0.5021303,-0.4688276,1.3305122,-1.4434271,2.4971771,0.98922884,-0.05254115,0.06749272,0.044567924,1.256152,-0.51942265
0.1,0.0,0.8999999999999999,0.0,0.0,0,-1.6001705,1.314821,-0.39673218,0.50443697,-0.45537332,1.3366506,-1.5537263,2.4491377,0.99127096,0.01241175,0.060202464,-0.21731879,1.0609564,0.33156955
0.1,0.0,0.8999999999999999,0.0,0.0,0,-1.5984898,1.3155353,-0.39085934,0.49920496,-0.45628288,1.3264958,-1.4740512,2.4874682,0.996146,-0.021066189,0.067433566,-0.21643646,1.220215,-0.6883062
0.1,0.0,0.8999999999999999,0.0,0.0,0,-1.5943413,1.3098012,-0.40288758,0.50498164,-0.45256147,1.3258811,-1.5001359,2.405561,0.9921606,0.0008662938,0.061944667,-0.026192088,1.219867,1.0076599
0.1,0.0,0.8999999999999999,0.0,0.0,0,-1.6082773,1.3170779,-0.3952643,0.49843755,-0.4554548,1.3228356,-1.3329188,2.4722288,0.9904851,-0.013271989,0.069221966,-0.20415637,1.3074338,-0.32037133
0.1,0.0,0.8999999999999999,0.0,0.0,0,-1.5957227,1.3061852,-0.3921681,0.49661428,-0.4548246,1.3253593,-1.3636426,2.4283772,0.99024624,0.058501545,0.06507742,-0.18746316,1.1218569,-0.04747811
0.1,0.0,0.8999999999999999,0.0,0.0,0,-1.5938841,1.307794,-0.39096627,0.49889985,-0.4522344,1.334541,-1.3965979,2.3987567,0.99214756,-0.008177649,0.06563138,0.09749763,1.1531614,-0.35309356
0.1,0.0,0.8999999999999999,0.0,0.0,0,-1.6090615,1.3038695,-0.38589096,0.508839,-0.45604825,1.3244534,-1.3456826,2.5438213,0.9880059,-0.041465495,0.061905857,0.12187133,1.1544306,0.5242266
0.1,0.0,0.8999999999999999,0.0,0.0,0,-1.6015667,1.3011981,-0.39038253,0.5047436,-0.45423156,1.3381624,-1.465195,2.4843347,0.9872308,0.035724025,0.059892956,-0.12077594,1.1859546,0.12021145
0.1,0.0,0.8999999999999999,0.0,0.0,0,-1.6086634,1.3216103,-0.39949206,0.49722818,-0.46468085,1.33383,-1.3995092,2.451695,0.9952434,-0.043158315,0.060985718,0.094929755,1.2025051,0.29718176
0.1,0.0,0.8999999999999999,0.0,0.0,0,-1.6104903,1.3192261,-0.3975226,0.5014272,-0.4604462,1.3328363,-1.3812551,2.3967438,0.9946092,0.023478493,0.067649394,-0.06643198,1.0737703,-1.1950489
0.1,0.0,0.8999999999999999,0.0,0.0,0,-1.6072321,1.3163704,-0.38898763,0.50374013,-0.46336016,1.3354772,-1.3848276,2.4614458,0.99084985,0.0048818733,0.06288632,0.10510576,0.93204683,0.28863838
0.1,0.0,0.8999999999999999,0.0,0.0,0,-1.6002296,1.311012,-0.3997977,0.5042688,-0.46153387,1.3335837,-1.2796772,2.4503517,0.9951383,-0.0011422398,0.06539145,0.10572157,0.97509736,0.30527097
0.1,0.0,0.8999999999999999,0.0,0.0,0,-1.5954499,1.3077551,-0.3870615,0.51116043,-0.45736566,1.3327163,-1.4527087,2.4555266,0.99309725,0.0560693,0.068002805,-0.040821023,1.1318378,-0.424607
0.1,0.0,0.8999999999999999,0.0,0.0,0,-1.6037908,1.3148392,-0.3966566,0.5039738,-0.4513872,1.3446344,-1.403527,2.443582,0.9961731,-0.044759035,0.06542478,0.059158977,1.3152039,-0.64025587
0.1,0.0,0.8999999999999999,0.0,0.0,0,-1.6062948,1.308846,-0.38204563,0.50954354,-0.45854035,1.3316232,-1.4855032,2.437694,0.98909366,-0.007268989,0.065490834,0.025315637,1.0917295,-0.62989384
0.1,0.0,0.8999999999999999,0.0,0.0,0,-1.6038039,1.308272,-0.38890314,0.50520927,-0.44716924,1.3421974,-1.362586,2.4186635,0.99482775,0.082356095,0.06661328,0.04528225,1.3064553,0.046208646
0.1,0.0,0.8999999999999999,0.0,0.0,0,-1.6003243,1.3114572,-0.40209767,0.50456274,-0.45620406,1.3360533,-1.3359342,2.4676259,0.991299,0.039832164,0.06671492,0.09200862,1.2764904,0.11946494
0.1,0.0,0.8999999999999999,0.0,0.0,0,-1.6085037,1.3117714,-0.38294846,0.51086926,-0.45249104,1.3284438,-1.3644445,2.4228716,0.99056876,-0.0022702692,0.06679717,0.023359237,1.1614771,-0.30659178
0.1,0.0,0.8999999999999999,0.0,0.0,0,-1.6079292,1.3073316,-0.3969806,0.50684124,-0.45530814,1.3272285,-1.3270625,2.490597,0.99279356,-0.003705879,0.062217284,0.37260175,1.1249893,0.9673141
0.1,0.0,0.8999999999999999,0.0,0.0,0,-1.6122633,1.319058,-0.40109158,0.496322,-0.45699602,1.3297102,-1.423576,2.454954,0.9907997,-0.022153702,0.06607259,-0.14794318,1.1918815,-0.14534254
0.1,0.0,0.8999999999999999,0.0,0.0,0,-1.5979137,1.328174,-0.399711,0.50273585,-0.45328647,1.3384966,-1.4050059,2.4447217,0.9914643,-0.04184402,0.065709986,-0.1543132,1.2690045,0.8224352
0.1,0.0,0.8999999999999999,0.0,0.0,0,-1.6136677,1.3116392,-0.39286318,0.50258476,-0.4495947,1.331582,-1.4171176,2.4047964,0.9902308,0.017649658,0.063306086,-0.18168047,1.0901887,0.21793893
0.1,0.0,0.8999999999999999,0.0,0.0,0,-1.6073606,1.3157858,-0.3968538,0.50726277,-0.4569642,1.3287216,-1.5131979,2.4687061,0.9899447,0.030559566,0.06568459,0.35597274,1.0125029,0.4665902
0.1,0.0,0.8999999999999999,0.0,0.0,0,-1.6000366,1.3059176,-0.3850961,0.50403386,-0.4523443,1.3242576,-1.4652487,2.4242601,0.9920437,0.03188004,0.06715435,-0.07312079,1.2147988,0.19201702
0.1,0.0,0.8999999999999999,0.0,0.0,0,-1.6071068,1.3146062,-0.39557442,0.5046544,-0.45239916,1.3371495,-1.4296502,2.385966,0.9941654,0.017146371,0.066467814,-0.044315934,1.1287024,-0.7271849
0.1,0.0,0.8999999999999999,0.0,0.0,0,-1.6017859,1.3072196,-0.39715156,0.48837405,-0.43992668,1.3441238,-1.3446503,2.4770641,0.9952921,-0.041335586,0.065490656,-0.037866242,1.2968513,0.16177619
0.1,0.0,0.8999999999999999,0.0,0.0,0,-1.6098783,1.3077959,-0.39080292,0.4911179,-0.44980478,1.3338957,-1.4854639,2.3846328,0.98868805,-0.12324608,0.06597771,-0.008786776,1.3667307,0.18814465
0.1,0.0,0.8999999999999999,0.0,0.0,0,-1.6105185,1.3046672,-0.3912553,0.4890834,-0.4482305,1.3264598,-1.4356451,2.4663904,0.99224675,-0.04362178,0.06495649,-0.29525173,1.0905769,0.6168392
0.1,0.0,0.8999999999999999,0.0,0.0,0,-1.6024934,1.3084388,-0.39259323,0.49707732,-0.45789218,1.3335959,-1.3744186,2.4579132,0.991383,0.027830305,0.0662256,0.013443915,1.2568939,0.3808813
0.1,0.0,0.8999999999999999,0.0,0.0,0,-1.6022139,1.3086313,-0.39954302,0.4948721,-0.45155632,1.3354448,-1.4291016,2.4499047,0.9928618,-0.040438186,0.06423866,0.22369492,1.2641248,0.26277012
0.1,0.0,0.8999999999999999,0.0,0.0,0,-1.610768,1.2968043,-0.39600858,0.49816436,-0.44798124,1.3345667,-1.4691508,2.4744728,0.9870084,-0.040451333,0.06950985,-0.1649595,1.3785083,-0.16665983
0.1,0.0,0.8999999999999999,0.0,0.0,0,-1.6090177,1.3005388,-0.3920335,0.5023078,-0.44455466,1.3351893,-1.438132,2.4796038,0.99266744,-0.00888725,0.06395682,-0.020012848,1.0874791,-0.9494985
0.1,0.0,0.8999999999999999,0.0,0.0,0,-1.5962062,1.2995275,-0.39511123,0.5023527,-0.4480724,1.3313078,-1.410731,2.44472,0.99081576,0.0025338812,0.06994527,-0.0241664,1.1025904,-0.14534533
0.1,0.0,0.8999999999999999,0.0,0.0,0,-1.5999727,1.3149056,-0.3923389,0.4969697,-0.4649611,1.3306977,-1.2719271,2.3651974,0.9926408,-0.0059890603,0.07140791,0.069135144,1.2161187,-0.8799022
0.1,0.0,0.8999999999999999,0.0,0.0,0,-1.6134521,1.3158679,-0.38508448,0.50856924,-0.46080732,1.3406631,-1.4922845,2.4642615,0.9935842,-0.03553618,0.06864347,0.15912098,1.2056186,0.035381727
0.1,0.0,0.8999999999999999,0.0,0.0,0,-1.6123092,1.2965848,-0.38855493,0.5068101,-0.4537608,1.3375331,-1.4343194,2.483611,0.9867796,-0.026022295,0.06766414,0.09800544,1.3391619,0.37008348
0.1,0.0,0.8999999999999999,0.0,0.0,0,-1.6024858,1.3085488,-0.3917117,0.49210563,-0.44853917,1.325632,-1.4675647,2.4104717,0.99291366,-0.0018788239,0.06465966,0.25191948,1.1359432,0.66340363
0.1,0.0,0.8999999999999999,0.0,0.0,0,-1.614641,1.3223655,-0.39689434,0.5028084,-0.46075246,1.3249811,-1.3552846,2.4225378,0.9892711,0.02422284,0.06403314,0.030217469,1.1296827,-0.24991111
0.1,0.0,0.8999999999999999,0.0,0.0,0,-1.6096274,1.310961,-0.38563845,0.50419027,-0.45419982,1.3370599,-1.4554458,2.4697871,0.9905905,0.010842221,0.066848844,-0.23728067,1.2272722,0.36095238
0.1,0.0,0.8999999999999999,0.0,0.0,0,-1.5994056,1.3088793,-0.38928515,0.50111026,-0.4570919,1.3313042,-1.4197781,2.4638193,0.9924195,-0.036169864,0.065642215,-0.17830448,1.2454793,0.5035201
0.1,0.0,0.8999999999999999,0.0,0.0,0,-1.6150523,1.2978472,-0.39304057,0.49739236,-0.46103415,1.3285652,-1.3699071,2.44873,0.9899764,0.04203498,0.06370064,0.0626184,1.0852817,2.000708
0.1,0.0,0.8999999999999999,0.0,0.0,0,-1.6044945,1.3137963,-0.3926729,0.49958748,-0.45425597,1.32593,-1.4097569,2.3893523,0.9929412,0.020606935,0.07000234,0.121569015,1.196885,0.3308444
0.1,0.0,0.8999999999999999,0.0,0.0,0,-1.5993327,1.3076215,-0.39037445,0.50181115,-0.4617149,1.33179,-1.426328,2.5151196,0.9907472,0.017824672,0.06889175,0.09425727,1.1676775,0.19747712
0.1,0.0,0.8999999999999999,0.0,0.0,0,-1.6044716,1.3176347,-0.40044862,0.5062483,-0.4560189,1.3265142,-1.4288721,2.4156268,0.9921056,-0.03248624,0.06811786,-0.28422937,1.0809019,-0.79650325
0.1,0.0,0.8999999999999999,0.0,0.0,0,-1.5910496,1.3176452,-0.39062357,0.5123997,-0.44788602,1.3397408,-1.4199892,2.5293386,0.99233127,0.008138043,0.06352458,-0.008663061,1.0834517,1.3916664
0.1,0.0,0.8999999999999999,0.0,0.0,0,-1.607134,1.3082626,-0.3928145,0.5055407,-0.4578631,1.3338389,-1.4231113,2.4486887,0.99323684,-0.004530843,0.068548724,0.0720774,1.3297751,0.18510027
0.1,0.0,0.8999999999999999,0.0,0.0,0,-1.6041019,1.3120241,-0.38737264,0.5078105,-0.45398873,1.331972,-1.3383659,2.4563143,0.9927715,-0.0031770736,0.06300911,-0.08307698,1.1556399,-0.04558218
0.1,0.0,0.8999999999999999,0.0,0.0,0,-1.6091297,1.313295,-0.40194577,0.4953334,-0.458821,1.3301725,-1.3057455,2.4796739,0.99131674,0.07638245,0.06443408,0.0092634875,1.1531123,-0.63157463
0.1,0.0,0.8999999999999999,0.0,0.0,0,-1.6038879,1.3103681,-0.39087272,0.5024559,-0.45888263,1.327574,-1.3780742,2.4578946,0.99557,-0.004148089,0.06218856,0.16843054,1.2160949,-0.27698487
0.1,0.0,0.8999999999999999,0.0,0.0,0,-1.5894533,1.3077556,-0.3964622,0.5090695,-0.45760536,1.3349324,-1.3693837,2.3692582,0.9898882,0.044339694,0.06716273,-0.017823048,1.3066515,1.07816
0.1,0.0,0.8999999999999999,0.0,0.0,0,-1.6015037,1.3092929,-0.39582318,0.5057856,-0.45724177,1.3301609,-1.3520292,2.4590888,0.9906996,-0.009822172,0.055661835,0.048884805,1.3392578,0.9757238
0.1,0.0,0.8999999999999999,0.0,0.0,0,-1.6089643,1.3155746,-0.3874417,0.49767306,-0.45933336,1.3310258,-1.3535571,2.5407493,0.9929093,-0.0026714234,0.06805373,-0.24829678,1.1253297,0.7479463
0.1,0.0,0.8999999999999999,0.0,0.0,0,-1.6086191,1.2932447,-0.38958058,0.49891204,-0.45581514,1.325743,-1.4864314,2.461099,0.99139816,-0.021914491,0.066266,0.30939117,1.3562114,0.11610422
0.1,0.0,0.8999999999999999,0.0,0.0,0,-1.6054186,1.3129352,-0.3951166,0.50328547,-0.45878956,1.3364286,-1.5009936,2.4986806,0.991947,-0.05873684,0.0634735,-0.39819708,1.2686747,0.26504087
0.1,0.0,0.8999999999999999,0.0,0.0,0,-1.5949011,1.3060685,-0.39725992,0.50507134,-0.44717968,1.3377646,-1.4118989,2.3891249,0.9920725,0.0016216553,0.060609825,-0.11469749,1.328781,0.40675563
0.1,0.0,0.8999999999999999,0.0,0.0,0,-1.605452,1.3139693,-0.38964033,0.5079847,-0.46048996,1.3269683,-1.3419273,2.3569105,0.988257,-0.017566912,0.063952126,0.038920347,1.247242,0.6102124
0.1,0.0,0.8999999999999999,0.0,0.0,0,-1.6175209,1.2995867,-0.38840923,0.50600946,-0.44961348,1.336373,-1.4601094,2.4213955,0.9924955,-0.0011886815,0.06570128,-0.2316714,1.3440207,0.6088709
0.1,0.0,0.8999999999999999,0.0,0.0,0,-1.6055595,1.319081,-0.39538056,0.50163126,-0.45784506,1.3272576,-1.4722345,2.4349923,0.9889615,-0.023584923,0.064960875,-0.16558708,1.1786481,0.70028085
0.1,0.0,0.8999999999999999,0.0,0.0,0,-1.6044204,1.3108562,-0.38184193,0.5069159,-0.45266142,1.3367263,-1.4900192,2.4450192,0.9921518,0.059493896,0.06695929,-0.17884631,1.1666244,0.3634319
0.1,0.0,0.8999999999999999,0.0,0.0,0,-1.6088299,1.3180871,-0.3956149,0.49767858,-0.45098427,1.335408,-1.4182538,2.4016037,0.99124247,-0.012136429,0.062219124,0.010171135,1.0074615,-0.4190293
0.1,0.0,0.8999999999999999,0.0,0.0,0,-1.6060591,1.2977791,-0.39327258,0.5043796,-0.45476666,1.3405463,-1.3986524,2.5097058,0.993941,0.06459017,0.05917184,-0.15717836,1.1570622,0.4466831
0.1,0.0,0.8999999999999999,0.0,0.0,0,-1.6025594,1.3068175,-0.40100613,0.5076701,-0.4404472,1.3337401,-1.3521119,2.3642533,0.9868245,0.054974843,0.06999092,-0.2002451,1.3722519,1.5300491
0.1,0.0,0.8999999999999999,0.0,0.0,0,-1.6007937,1.3090882,-0.3863705,0.50361407,-0.4522617,1.3311039,-1.5185034,2.431393,0.9965139,0.0056079677,0.06381152,0.32034785,1.2169869,-0.12071317
0.1,0.0,0.8999999999999999,0.0,0.0,0,-1.6104383,1.3025134,-0.3948145,0.50335664,-0.45255718,1.3277465,-1.4018108,2.3685408,0.99126214,-0.014436516,0.061566,0.051135413,1.2899423,0.2849951
0.1,0.0,0.8999999999999999,0.0,0.0,0,-1.6119903,1.2933552,-0.38900727,0.5040607,-0.45542434,1.324627,-1.3346593,2.4451866,0.9902057,-0.03297435,0.06484104,-0.048372827,1.2182512,-0.090170726
0.1,0.0,0.8999999999999999,0.0,0.0,0,-1.6109334,1.309215,-0.38494796,0.49755093,-0.46370217,1.3287381,-1.3719921,2.363193,0.9928817,0.053668696,0.0627888,-0.113373846,1.1275723,-0.26158044
0.1,0.0,0.8999999999999999,0.0,0.0,0,-1.6171553,1.2957765,-0.39100578,0.501266,-0.45486698,1.3328013,-1.2847322,2.5572388,0.9928256,0.03994004,0.06627469,0.0023496703,1.2216117,0.5812359
0.1,0.0,0.8999999999999999,0.0,0.0,0,-1.6064006,1.3114659,-0.39699763,0.50706637,-0.45968336,1.3304559,-1.250343,2.5609124,0.9938536,0.04567704,0.064375155,-0.18594545,1.1659203,0.58963084
0.1,0.0,0.8999999999999999,0.0,0.0,0,-1.6024033,1.3179432,-0.40095925,0.49760112,-0.4577111,1.3287483,-1.4299161,2.3375075,0.99064595,-0.030283557,0.0696139,-0.18978782,1.0894319,0.507471
0.1,0.0,0.8999999999999999,0.0,0.0,0,-1.6000737,1.304496,-0.40015134,0.49549028,-0.45011738,1.3271598,-1.460246,2.35491,0.9931674,-0.0239565,0.062145315,0.15037929,1.173156,0.015048169
0.1,0.0,0.8999999999999999,0.0,0.0,0,-1.6083208,1.3148068,-0.39677662,0.5015586,-0.46487355,1.3360882,-1.3323792,2.4691503,0.9893714,0.04232676,0.06931697,0.3876574,1.1099669,-0.10945988
0.1,0.0,0.8999999999999999,0.0,0.0,0,-1.6090293,1.3003076,-0.3893399,0.4926829,-0.44628993,1.331983,-1.4443651,2.4027443,0.9925573,0.042724878,0.068722434,0.09147011,1.1096367,-0.8663102
0.1,0.0,0.8999999999999999,0.0,0.0,0,-1.6097752,1.3255526,-0.39860675,0.49815553,-0.4560861,1.3370274,-1.4056942,2.470414,0.9943359,0.07503987,0.06327037,-0.46795458,1.0852484,-0.29000205
0.1,0.0,0.8999999999999999,0.0,0.0,0,-1.6052302,1.321274,-0.39358464,0.5169437,-0.46870837,1.3297819,-1.3653239,2.512152,0.9949261,-0.0041620536,0.061693627,-0.27393413,1.0995876,0.50096744
0.1,0.0,0.8999999999999999,0.0,0.0,0,-1.6066294,1.3055979,-0.38981953,0.50356215,-0.4620053,1.3262522,-1.4330708,2.3913715,0.9925379,0.015786266,0.07238248,-0.10805334,1.2127119,-0.024725044
0.1,0.0,0.8999999999999999,0.0,0.0,0,-1.599899,1.3073974,-0.38825712,0.5038755,-0.44942218,1.3336617,-1.3242812,2.3953645,0.99357873,-0.072672464,0.061808556,-0.0049865777,1.1407987,0.11578339
0.1,0.0,0.8999999999999999,0.0,0.0,0,-1.6128583,1.3064972,-0.38704485,0.50660115,-0.46321195,1.3309983,-1.3895997,2.4407709,0.98924196,-0.026267305,0.06573303,-0.16011211,1.2365922,0.039039094
0.1,0.0,0.8999999999999999,0.0,0.0,0,-1.6070701,1.3111213,-0.3904809,0.50314444,-0.4598214,1.3374406,-1.3421577,2.4162335,0.9884412,-0.023033597,0.062257413,0.02537773,1.250066,-0.8054656
0.1,0.0,0.8999999999999999,0.0,0.0,0,-1.6155916,1.3036364,-0.39056143,0.5064448,-0.45416194,1.3298719,-1.3687114,2.4842477,0.9896006,-0.07556943,0.06701571,0.23352931,1.1016054,-0.52056307
0.1,0.0,0.8999999999999999,0.0,0.0,0,-1.6110224,1.3099957,-0.38768756,0.50103307,-0.4515771,1.3315187,-1.372523,2.4166932,0.99225676,0.056102064,0.06413306,-0.39361832,1.1388985,0.6631892
0.1,0.0,0.8999999999999999,0.0,0.0,0,-1.6045297,1.2983352,-0.38670605,0.5070275,-0.4603545,1.3313962,-1.5005898,2.5204716,0.9893124,0.04116731,0.068893224,-0.04833646,1.2506489,-0.038062908
0.1,0.0,0.8999999999999999,0.0,0.0,0,-1.6114299,1.3034022,-0.3924161,0.50806016,-0.45529494,1.3334252,-1.3494508,2.46748,0.990288,0.0019701698,0.06573882,-0.08740119,1.2718132,-0.07151627
0.1,0.0,0.8999999999999999,0.0,0.0,0,-1.614429,1.3094531,-0.40263835,0.49138483,-0.45016912,1.3321315,-1.2707013,2.4411082,0.9952534,-0.0068710344,0.06944022,0.24171604,0.96591216,-0.6100817
0.1,0.0,0.8999999999999999,0.0,0.0,0,-1.6074444,1.3182732,-0.39863446,0.503853,-0.45584655,1.3325135,-1.4308157,2.4646912,0.9938165,-0.01733103,0.067006946,-0.076832205,1.1521441,1.3680829
0.1,0.0,0.8999999999999999,0.0,0.0,0,-1.610847,1.2967325,-0.39486998,0.48769528,-0.45392942,1.3352432,-1.3582791,2.3760087,0.9927995,0.047191028,0.06538177,0.0910195,1.2218477,0.5916907
0.1,0.0,0.8999999999999999,0.0,0.0,0,-1.603076,1.2975987,-0.39145482,0.5005823,-0.46284756,1.3359466,-1.4729594,2.5222492,0.98898995,0.0016284621,0.06309304,-0.21197602,1.1419495,0.7771334
0.1,0.0,0.8999999999999999,0.0,0.0,0,-1.6064118,1.308036,-0.38865256,0.5081374,-0.46497163,1.338287,-1.2879151,2.4188178,0.99134034,0.017444687,0.061407488,-0.17941363,1.195443,-0.77871007
0.1,0.0,0.8999999999999999,0.0,0.0,0,-1.5967778,1.3014338,-0.3864542,0.50725186,-0.46493027,1.3330495,-1.4270272,2.481306,0.98963684,-0.007472098,0.06611275,0.0766186,1.0922492,-1.186176
0.1,0.0,0.8999999999999999,0.0,0.0,0,-1.6045307,1.3030092,-0.38614196,0.49104884,-0.45761323,1.3312562,-1.4798225,2.4393187,0.9907283,0.004303151,0.06682656,0.11570015,1.0179446,-1.1201485
0.1,0.0,0.8999999999999999,0.0,0.0,0,-1.6033436,1.3038194,-0.39370254,0.5007888,-0.46578026,1.3253,-1.4259439,2.510102,0.9956889,-0.0855603,0.060608834,-0.112863086,1.160118,-1.2186693
0.1,0.0,0.8999999999999999,0.0,0.0,0,-1.6047544,1.3072398,-0.39483786,0.5051052,-0.46041903,1.3242127,-1.4301447,2.4660242,0.9952956,-0.07403966,0.067388594,0.050908417,1.3319883,0.45400175
0.1,0.0,0.8999999999999999,0.0,0.0,0,-1.6050427,1.3068287,-0.39136395,0.50914127,-0.45189884,1.3300091,-1.4222069,2.3626847,0.9909689,0.001344007,0.06278894,-0.102089226,1.0879146,-0.3330318
0.1,0.0,0.8999999999999999,0.0,0.0,0,-1.6106659,1.3042412,-0.38943386,0.510789,-0.45558238,1.3299257,-1.3884089,2.4170516,0.99391407,-0.05162298,0.06480504,0.1161978,1.2364886,0.12144563
0.1,0.0,0.8999999999999999,0.0,0.0,0,-1.6159892,1.3125156,-0.39289907,0.50597227,-0.45753905,1.3232689,-1.442764,2.4546678,0.9907565,-0.0141424555,0.06046009,-0.43203002,1.1915741,1.4293026
0.1,0.0,0.8999999999999999,0.0,0.0,0,-1.6129897,1.303028,-0.38953996,0.49808115,-0.45334736,1.3357508,-1.44764,2.3681953,0.9910134,0.04264694,0.05986237,-0.06778865,1.252686,-0.8855789
0.1,0.0,0.8999999999999999,0.0,0.0,0,-1.6151,1.3102263,-0.39194205,0.49701235,-0.46496785,1.3319108,-1.3314652,2.3270783,0.98902225,-0.06394008,0.062338293,-0.115645245,1.0573825,0.016361447
0.1,0.0,0.8999999999999999,0.0,0.0,0,-1.6022424,1.3231671,-0.39362216,0.49389943,-0.45327765,1.3414181,-1.4182268,2.386098,0.9952467,-0.026376419,0.06282058,-0.18241207,1.2593172,-0.041454613
0.1,0.0,0.8999999999999999,0.0,0.0,0,-1.6061116,1.2990599,-0.3841864,0.51113206,-0.460331,1.3269143,-1.4305639,2.5205545,0.99180114,0.042582914,0.06459957,0.11841565,1.0908427,0.05259948
0.1,0.0,0.8999999999999999,0.0,0.0,0,-1.6048127,1.3145561,-0.39661396,0.5004173,-0.4592689,1.3369374,-1.4428581,2.4712837,0.9924102,0.06919997,0.069613226,-0.05510339,1.2087393,0.6390314
0.1,0.0,0.8999999999999999,0.0,0.0,0,-1.5934325,1.3077744,-0.3935524,0.5042877,-0.45264593,1.325801,-1.3515012,2.5355484,0.99176455,0.0023301516,0.06822921,0.012763977,1.090573,-0.5487589
0.1,0.0,0.8999999999999999,0.0,0.0,0,-1.6104704,1.3085216,-0.3895624,0.50756055,-0.4592145,1.3238381,-1.4631954,2.4171522,0.9890612,-0.016339948,0.062353607,-0.17869054,1.0696603,-0.3740016
0.1,0.0,0.8999999999999999,0.0,0.0,0,-1.5982181,1.3155212,-0.39932114,0.500147,-0.4637239,1.3293285,-1.4017808,2.3968236,0.991029,0.015221715,0.06064089,0.06552657,1.0941377,0.47148064
0.1,0.0,0.8999999999999999,0.0,0.0,0,-1.610561,1.2976114,-0.38400918,0.5109038,-0.46876025,1.3226466,-1.3995086,2.4983702,0.99027413,0.05811991,0.06529015,0.06270021,1.1462272,0.9489534
0.1,0.0,0.8999999999999999,0.0,0.0,0,-1.606081,1.3074782,-0.3878531,0.5039868,-0.45798635,1.3316789,-1.5285903,2.3675916,0.99139446,-0.032453377,0.06626413,-0.285764,1.3627944,-0.42111728
0.1,0.0,0.8999999999999999,0.0,0.0,0,-1.6114281,1.31028,-0.39082098,0.4941582,-0.45597643,1.3357894,-1.4177237,2.5176039,0.990576,-0.020792933,0.0638228,-0.14426847,1.2932605,0.6634474
0.1,0.0,0.8999999999999999,0.0,0.0,0,-1.6070851,1.315435,-0.3989328,0.50288117,-0.45881483,1.3275504,-1.3380109,2.499258,0.9894424,0.029994925,0.06833575,-0.38553417,1.0470055,0.35361195
0.1,0.0,0.8999999999999999,0.0,0.0,0,-1.6077427,1.314132,-0.3911843,0.5044913,-0.45837834,1.332343,-1.4269842,2.4200506,0.9917497,-0.009947393,0.065196976,0.5077247,1.1807109,-0.7168874
0.1,0.0,0.8999999999999999,0.0,0.0,0,-1.5941864,1.304768,-0.39178473,0.5005395,-0.45181528,1.3309548,-1.4704919,2.4388814,0.99127865,-0.00954619,0.0611521,0.083490394,1.2516179,0.11273782
0.1,0.0,0.8999999999999999,0.0,0.0,0,-1.6082367,1.304863,-0.39438152,0.5081832,-0.4452033,1.3280693,-1.4053941,2.4456856,0.9926406,-0.03191909,0.062827736,-0.008671974,1.3383927,0.4958883
0.1,0.0,0.8999999999999999,0.0,0.0,0,-1.6103777,1.3163036,-0.38739312,0.5132929,-0.46431768,1.3289471,-1.4452019,2.3778906,0.99017936,0.052118946,0.064204246,-0.044032447,1.1818887,-0.33527452
0.1,0.0,0.8999999999999999,0.0,0.0,0,-1.6056404,1.3039869,-0.3953493,0.4956124,-0.4602706,1.3294181,-1.2760999,2.4662323,0.9950728,0.018324096,0.06855577,0.050241,1.1346802,-0.91967887
0.1,0.0,0.8999999999999999,0.0,0.0,0,-1.5974624,1.3037046,-0.39060143,0.5012054,-0.45298496,1.3294656,-1.3759066,2.4073377,0.98856586,-0.047750432,0.06851343,-0.3181237,1.1138957,0.69200015
0.1,0.0,0.8999999999999999,0.0,0.0,0,-1.6055466,1.2982235,-0.3948061,0.50135434,-0.45313323,1.3264074,-1.318782,2.439388,0.99249685,-0.04647137,0.059066206,0.080454655,1.173757,-0.5085354
0.1,0.0,0.8999999999999999,0.0,0.0,0,-1.6019899,1.2947025,-0.3912529,0.5006524,-0.45450813,1.3289443,-1.3722278,2.47006,0.99284106,0.089707814,0.064652376,-0.08727517,1.0358025,-0.07242781
0.1,0.0,0.8999999999999999,0.0,0.0,0,-1.6045377,1.2974322,-0.38209596,0.5013098,-0.45314237,1.3285972,-1.4154471,2.4592147,0.9948203,-0.033328913,0.06270946,-0.22325334,1.294794,0.37947515
0.1,0.0,0.8999999999999999,0.0,0.0,0,-1.6092064,1.2996947,-0.38803706,0.5078119,-0.45377985,1.3267516,-1.3888267,2.378655,0.99076146,0.020272734,0.06242843,0.11130519,1.1626567,0.5917284
0.1,0.0,0.8999999999999999,0.0,0.0,0,-1.6036015,1.3041326,-0.38828626,0.5021123,-0.45409524,1.3356212,-1.3820392,2.4109907,0.9930059,0.009192947,0.062409718,-0.038759105,1.3015532,-0.08539628
0.1,0.0,0.8999999999999999,0.0,0.0,0,-1.6066974,1.3069919,-0.384204,0.5035696,-0.44907948,1.335329,-1.4226252,2.4496567,0.9881853,0.024542708,0.06605369,-0.12483943,1.0673585,1.0292654
0.1,0.0,0.8999999999999999,0.0,0.0,0,-1.6075164,1.3028013,-0.3878581,0.49788827,-0.46366897,1.3279318,-1.5166914,2.4727309,0.9923777,-0.022409566,0.06025453,-0.041912053,1.1725456,-0.34360415
0.1,0.0,0.8999999999999999,0.0,0.0,0,-1.609197,1.3050467,-0.38880518,0.50940883,-0.45587182,1.3335955,-1.4148443,2.5298624,0.99654907,-0.027785996,0.06387143,-0.034322932,1.1901999,0.5632257
0.1,0.0,0.8999999999999999,0.0,0.0,0,-1.5982529,1.3109505,-0.39194027,0.5005304,-0.45285523,1.334288,-1.4029722,2.3769436,0.9948874,0.007849709,0.06395348,-0.20537914,1.2797511,0.38762724
0.1,0.0,0.8999999999999999,0.0,0.0,0,-1.6119448,1.3096181,-0.38605314,0.51077473,-0.45772082,1.3362565,-1.4150271,2.4542775,0.99054176,0.012110104,0.062234882,0.036288656,1.1787087,0.16019331
0.1,0.0,0.8999999999999999,0.0,0.0,0,-1.6065611,1.318101,-0.39475358,0.5001393,-0.444043,1.3347692,-1.3778486,2.4154727,0.9901509,-0.00012324874,0.062291816,0.0052537196,1.0847032,-0.1721076
0.1,0.0,0.8999999999999999,0.0,0.0,0,-1.5877389,1.3189616,-0.40174675,0.5041012,-0.44145027,1.336628,-1.4440668,2.4126098,0.99401796,0.054331552,0.06738106,-0.06812825,1.2554305,0.04399467
0.1,0.0,0.8999999999999999,0.0,0.0,0,-1.6005353,1.3060592,-0.39427242,0.49960998,-0.45889464,1.3313657,-1.4315826,2.4642599,0.99085903,0.033006538,0.067019805,-0.16006319,1.150122,0.8069732
0.1,0.0,0.8999999999999999,0.0,0.0,0,-1.6017005,1.2991359,-0.3880336,0.49518022,-0.45265546,1.330312,-1.4587586,2.4643772,0.98635536,0.00955637,0.066710055,0.043238427,1.1765683,-0.3713401
0.1,0.0,0.8999999999999999,0.0,0.0,0,-1.6042701,1.3157845,-0.39337507,0.5021244,-0.4519975,1.3297676,-1.4498382,2.4993825,0.99347484,0.06768003,0.06523916,-0.1640975,1.0763953,0.950963
0.1,0.0,0.8999999999999999,0.0,0.0,0,-1.5959829,1.3041503,-0.39607513,0.5060435,-0.46305916,1.3342977,-1.4375116,2.505994,0.99363536,0.09645529,0.06366978,0.12366229,1.1580727,-0.33048
0.1,0.0,0.8999999999999999,0.0,0.0,0,-1.6080124,1.304002,-0.38994306,0.4995532,-0.45432758,1.3342192,-1.4390122,2.4375284,0.9953167,-0.012133477,0.06639654,-0.24924764,1.3121126,1.417047
0.1,0.0,0.8999999999999999,0.0,0.0,0,-1.6052402,1.3087305,-0.38833693,0.5050023,-0.45970875,1.3342233,-1.3689038,2.3578181,0.9945508,0.013335534,0.061016276,-0.23037247,1.16569,0.35244116
0.1,0.0,0.8999999999999999,0.0,0.0,0,-1.6111335,1.3101686,-0.39484882,0.49726388,-0.4528061,1.3310627,-1.4697183,2.462493,0.9936653,0.027911253,0.069698475,0.32615617,1.3036641,-0.5499968
0.1,0.0,0.8999999999999999,0.0,0.0,0,-1.5978832,1.3051214,-0.39699626,0.49710086,-0.4488149,1.3314494,-1.3802766,2.370223,0.9899969,0.0064503765,0.0698333,0.29438308,1.3229394,0.35456577
0.1,0.0,0.8999999999999999,0.0,0.0,0,-1.6004337,1.2953163,-0.39958727,0.4975471,-0.44797596,1.3269506,-1.3012084,2.4613898,0.9910286,0.017855925,0.06526627,-0.096123464,1.2100407,0.3749874
0.1,0.0,0.8999999999999999,0.0,0.0,0,-1.6129159,1.3159771,-0.38897213,0.5016164,-0.45297197,1.3399025,-1.3214434,2.408158,0.99096334,-0.018083856,0.06259719,-0.21833533,1.1637582,1.7315001
0.1,0.0,0.8999999999999999,0.0,0.0,0,-1.6140435,1.3013017,-0.38889095,0.4875377,-0.45428184,1.3367567,-1.4091916,2.519007,0.990925,0.032820076,0.063910335,-0.19345321,1.2552685,0.21515515
0.1,0.0,0.8999999999999999,0.0,0.0,0,-1.6076499,1.3046786,-0.39275065,0.4953816,-0.44390646,1.3311613,-1.4470488,2.4689639,0.9902684,0.02069886,0.06748306,-0.03401955,1.0977957,-0.701276
0.1,0.0,0.8999999999999999,0.0,0.0,0,-1.6015649,1.3177722,-0.40123883,0.50560343,-0.45661378,1.327195,-1.3833619,2.509943,0.9941754,-0.02810328,0.06771462,-0.10518911,1.1940476,-0.13938114
0.1,0.0,0.8999999999999999,0.0,0.0,0,-1.6083304,1.3093776,-0.39797264,0.49922392,-0.45549908,1.3229913,-1.5005891,2.4478538,0.99357873,0.020554373,0.066211425,0.001412654,1.2857981,-0.3903171
0.1,0.0,0.8999999999999999,0.0,0.0,0,-1.6039137,1.3103662,-0.39359358,0.5009344,-0.44662088,1.3353463,-1.3336345,2.463924,0.9915199,-0.03979606,0.06425951,-0.23764879,1.1759492,0.66278
0.1,0.0,0.8999999999999999,0.0,0.0,0,-1.6083732,1.2992176,-0.38701928,0.49204522,-0.45725405,1.3404819,-1.4039185,2.518501,0.99355257,-0.026740639,0.06914529,-0.15152553,1.173481,-0.20296782
0.1,0.0,0.8999999999999999,0.0,0.0,0,-1.6021017,1.3148019,-0.39254364,0.49831805,-0.45642343,1.3300263,-1.4595039,2.4383495,0.9919801,-0.048838917,0.065240465,0.39903307,1.2896901,0.7978755
0.1,0.0,0.8999999999999999,0.0,0.0,0,-1.6032599,1.3202057,-0.39612707,0.5010058,-0.45852986,1.3276376,-1.2974868,2.4443471,0.98839307,-0.023324316,0.067087,-0.19658019,1.1494527,-0.33831424
0.1,0.0,0.8999999999999999,0.0,0.0,0,-1.6122031,1.3122493,-0.39646113,0.49778244,-0.46209684,1.3226267,-1.3012319,2.3976948,0.98873705,0.026815625,0.06689242,0.25727823,1.2467893,0.4647418
0.1,0.0,0.8999999999999999,0.0,0.0,0,-1.6010498,1.3140996,-0.39478472,0.5097587,-0.45661902,1.3234388,-1.4303342,2.4307733,0.99368894,0.03416415,0.066379495,-0.08370752,1.3535317,0.5873094
0.1,0.0,0.8999999999999999,0.0,0.0,0,-1.596743,1.3064592,-0.3870701,0.49080166,-0.471903,1.3336618,-1.4062504,2.4679356,0.9926707,-0.025281856,0.06632773,-0.15117177,1.1654499,0.51928467
0.1,0.0,0.8999999999999999,0.0,0.0,0,-1.6024612,1.3047765,-0.38884744,0.50342166,-0.4616727,1.3195103,-1.3882245,2.444848,0.993918,-0.0646498,0.061423033,0.07214547,1.2445182,-0.29136923
0.1,0.0,0.8999999999999999,0.0,0.0,0,-1.6030029,1.3006934,-0.38468885,0.50528514,-0.45407742,1.3352205,-1.381924,2.4511597,0.99016607,-0.0067751775,0.066383004,-0.2791918,1.0864278,0.06009077
0.1,0.0,0.8999999999999999,0.0,0.0,0,-1.5927931,1.3074186,-0.3966617,0.49544242,-0.45257786,1.332796,-1.3307352,2.4017782,0.99031335,-0.04900658,0.06503236,-0.17917657,1.1521817,-0.8089562
0.1,0.0,0.8999999999999999,0.0,0.0,0,-1.6016724,1.3088758,-0.39767298,0.5011357,-0.45351857,1.3302554,-1.2960067,2.4629073,0.9885168,0.012220954,0.0641296,0.05108192,1.2843139,-0.14956717
0.1,0.0,0.8999999999999999,0.0,0.0,0,-1.609773,1.2957368,-0.38778147,0.5025491,-0.448921,1.3310797,-1.3991216,2.4493225,0.98769426,0.023991182,0.06887058,-0.000870817,1.1140571,0.23406313
0.1,0.0,0.8999999999999999,0.0,0.0,0,-1.6024935,1.3066139,-0.39676207,0.5077597,-0.4483527,1.3231548,-1.3775572,2.4807768,0.9898143,0.012544607,0.06337035,0.10768063,1.1852748,0.49523515
0.1,0.0,0.8999999999999999,0.0,0.0,0,-1.6029694,1.3124111,-0.38925812,0.50715506,-0.4639347,1.3344091,-1.415824,2.4902632,0.9871855,-0.0070427964,0.064340785,0.037321426,1.2172775,0.8808503
0.1,0.0,0.8999999999999999,0.0,0.0,0,-1.596033,1.3070639,-0.39809072,0.49879375,-0.45575383,1.330113,-1.3956925,2.4504344,0.9920673,0.009998458,0.056130487,-0.08276816,1.2126186,-0.8400174
0.1,0.0,0.8999999999999999,0.0,0.0,0,-1.6008189,1.3136206,-0.3956913,0.5019003,-0.45175433,1.3329246,-1.3655668,2.4534802,0.9876622,-0.02474711,0.065609045,0.11590337,1.1862607,0.26776513
0.1,0.0,0.8999999999999999,0.0,0.0,0,-1.6101886,1.3048962,-0.39493498,0.49687648,-0.45819145,1.3332396,-1.3835764,2.5929363,0.9912012,0.018154142,0.07008362,-0.1295053,1.3435967,-0.17887348
0.1,0.0,0.8999999999999999,0.0,0.0,0,-1.5984693,1.311756,-0.3980761,0.502214,-0.44323424,1.3350083,-1.3446487,2.4944954,0.99178886,-0.058973815,0.066432774,-0.20131789,1.3336155,0.4258624
0.1,0.0,0.8999999999999999,0.0,0.0,0,-1.612861,1.3117007,-0.3947615,0.5007295,-0.4582821,1.3365651,-1.2506462,2.5240784,0.9915922,0.06094266,0.06687156,-0.06611473,1.3750376,1.3486596
0.1,0.0,0.8999999999999999,0.0,0.0,0,-1.6003664,1.3155053,-0.38824037,0.5033051,-0.4615105,1.3403991,-1.3936006,2.4498298,0.98730546,-0.0029131426,0.062026992,-0.12025736,1.1436783,0.48061067
0.1,0.0,0.8999999999999999,0.0,0.0,0,-1.6063498,1.3099808,-0.3954608,0.49745056,-0.44429827,1.3276956,-1.3531215,2.4617043,0.9878818,-0.025053775,0.0671383,-0.1449118,1.1590272,-0.31723318
0.1,0.0,0.8999999999999999,0.0,0.0,0,-1.6099638,1.3028532,-0.3856529,0.4985666,-0.45931032,1.3262805,-1.486131,2.44147,0.98918873,-0.028510641,0.0668983,0.061167534,1.2326044,-0.2932835
0.1,0.0,0.8999999999999999,0.0,0.0,0,-1.5990825,1.306058,-0.38861945,0.5061003,-0.46096078,1.3310852,-1.318335,2.4290795,0.99303305,-0.046107344,0.06260746,-0.028581304,1.2918898,-0.37895775
0.1,0.0,0.8999999999999999,0.0,0.0,0,-1.5999715,1.316814,-0.38645685,0.5082534,-0.47019565,1.3292551,-1.4164673,2.4228134,0.9853147,-0.06157699,0.06547349,-0.35220167,1.167396,0.7618557
0.1,0.0,0.8999999999999999,0.0,0.0,0,-1.6057309,1.3022226,-0.38513586,0.5037832,-0.46332803,1.3286233,-1.3996508,2.4826796,0.9919635,0.08181039,0.059438925,-0.1719308,1.1530812,1.2228823
0.1,0.0,0.8999999999999999,0.0,0.0,0,-1.597523,1.3093415,-0.38793632,0.5021814,-0.45952803,1.3308556,-1.5363014,2.5246015,0.99174875,-0.049712356,0.06465059,-0.07561418,1.1980731,-0.46100518
0.1,0.0,0.8999999999999999,0.0,0.0,0,-1.6089176,1.3162338,-0.394578,0.5019673,-0.44972008,1.3330163,-1.3861015,2.4571736,0.9912074,-0.0019444263,0.06148724,0.23494516,1.1651723,1.0021024
0.1,0.0,0.8999999999999999,0.0,0.0,0,-1.6116353,1.3014145,-0.39641982,0.49590304,-0.45344362,1.3255417,-1.4107331,2.5427566,0.99044955,0.019995961,0.06346808,-0.06899073,1.2962905,0.4727734
0.1,0.0,0.8999999999999999,0.0,0.0,0,-1.6045309,1.3132153,-0.39073345,0.50116897,-0.46130508,1.3354158,-1.4230088,2.538765,0.9902094,0.0028868236,0.062853225,-0.17846546,1.2364149,-0.43196276
0.1,0.0,0.8999999999999999,0.0,0.0,0,-1.6007962,1.3117403,-0.39795718,0.4963501,-0.44503367,1.3372493,-1.3813636,2.5474591,0.99086654,0.009581643,0.065237045,0.09568727,1.2207471,-0.57395774
0.1,0.0,0.8999999999999999,0.0,0.0,0,-1.60108,1.3040093,-0.39735273,0.49878973,-0.45359683,1.3260335,-1.3365749,2.432123,0.98900783,-0.0047906144,0.07068859,-0.03830272,1.2579161,0.61940587
0.1,0.0,0.8999999999999999,0.0,0.0,0,-1.6134573,1.3043419,-0.39601558,0.4998584,-0.45437667,1.3378171,-1.4679681,2.4344273,0.9922456,0.060866773,0.06810701,0.04508146,1.3539145,1.0959305
0.1,0.0,0.8999999999999999,0.0,0.0,0,-1.5816989,1.3684232,-0.38462263,0.5043854,-0.45226035,1.3286983,-1.4209305,2.4540048,0.99454415,-0.026843911,0.06595186,-0.039209593,1.0751456,0.6177403
0.1,0.0,0.8999999999999999,0.0,0.0,0,-1.5807021,1.3224956,-0.36658585,0.49138793,-0.4530393,1.3211175,-1.2930887,2.4503686,0.9916857,0.0074114385,0.06532873,-0.27607265,1.1591176,-0.48577052
0.1,0.0,0.8999999999999999,0.0,0.0,0,-1.5848383,1.31198,-0.3576733,0.49935612,-0.44246116,1.3281945,-1.3630844,2.4458168,0.99036664,0.01570038,0.06196924,-0.115606636,1.1184878,0.122622035
0.1,0.0,0.8999999999999999,0.0,0.0,0,-1.6018689,1.3090818,-0.35845405,0.5003211,-0.45909047,1.3249362,-1.5139141,2.509782,0.99427325,0.03615537,0.06405192,-0.026188092,1.1725156,-0.61499923
0.1,0.0,0.8999999999999999,0.0,0.0,0,-1.5816115,1.3314359,-0.36842737,0.50164974,-0.45247635,1.3301524,-1.4094518,2.503221,0.9968421,0.0032785358,0.065201476,0.046537,1.1310351,0.1449002
0.1,0.0,0.8999999999999999,0.0,0.0,0,-1.6092141,1.3062434,-0.38838527,0.49403232,-0.45193228,1.3354574,-1.4831983,2.4256046,0.99337053,0.020469252,0.06815541,0.12399197,1.2217537,-0.86195487
0.1,0.0,0.8999999999999999,0.0,0.0,0,-1.6092942,1.3169639,-0.37175444,0.49931067,-0.4593511,1.3248587,-1.4244142,2.3999846,0.98474056,0.03232217,0.06885637,-0.15399486,1.2735513,0.41626942
0.1,0.0,0.8999999999999999,0.0,0.0,0,-1.5993497,1.2905005,-0.39921224,0.5062223,-0.46342692,1.3248512,-1.4164637,2.4859424,0.98896885,0.028236838,0.06310005,0.1890973,1.1795197,1.5162218
0.1,0.0,0.8999999999999999,0.0,0.0,0,-1.5976967,1.3108789,-0.38801003,0.5051258,-0.45794666,1.3340433,-1.4168471,2.4363651,0.9944946,0.005890273,0.06506831,-0.07547475,1.3354895,0.87355465
0.1,0.0,0.8999999999999999,0.0,0.0,0,-1.5959263,1.3009517,-0.38370317,0.50649256,-0.45927194,1.3236234,-1.4252102,2.4421356,0.994575,-0.04945945,0.064478725,-0.29767534,1.3077788,-0.5820024
0.1,0.0,0.8999999999999999,0.0,0.0,0,-1.601153,1.314605,-0.38995984,0.5000321,-0.44876227,1.3281206,-1.3953799,2.4151583,0.9944775,-0.035605956,0.06142706,0.17199539,1.2341824,-0.3374144
0.1,0.0,0.8999999999999999,0.0,0.0,0,-1.5971583,1.3016542,-0.3757282,0.5014685,-0.46398476,1.3318096,-1.4095689,2.4217515,0.9901035,-0.027088843,0.064127974,0.024763316,1.1654791,0.23596032
0.1,0.0,0.8999999999999999,0.0,0.0,0,-1.6069101,1.307829,-0.3663243,0.49993104,-0.45892316,1.3370811,-1.4505706,2.4317234,0.9881021,-0.044330433,0.06456894,-0.10976001,1.2128222,0.48118767
0.1,0.0,0.8999999999999999,0.0,0.0,0,-1.614443,1.3088895,-0.39875495,0.5054993,-0.47315067,1.3256013,-1.3488606,2.4731681,0.9922773,-0.014344044,0.05965287,0.3077569,1.115557,-0.11811909
0.1,0.0,0.8999999999999999,0.0,0.0,0,-1.6116619,1.3081497,-0.3859554,0.50556153,-0.4546411,1.3326207,-1.3973509,2.3985465,0.9894285,0.075131334,0.06390738,0.005594401,1.0119199,0.34621915
0.1,0.0,0.8999999999999999,0.0,0.0,0,-1.6115395,1.3178276,-0.3889766,0.5021741,-0.45067763,1.3362957,-1.4303943,2.4535084,0.98870933,-0.04531148,0.06975469,0.027443081,1.0124245,0.24186935
0.1,0.0,0.8999999999999999,0.0,0.0,0,-1.6093719,1.3076456,-0.39827412,0.49502122,-0.4459434,1.3248351,-1.3839713,2.4813542,0.9880025,0.00023302982,0.06202371,-0.16790798,1.1285877,-0.5316874
0.1,0.0,0.8999999999999999,0.0,0.0,0,-1.6011766,1.3019694,-0.39109984,0.5038496,-0.4619599,1.3270108,-1.4149635,2.501111,0.9902084,-0.021964304,0.06544477,-0.036979858,1.1720709,0.38364124
0.1,0.0,0.8999999999999999,0.0,0.0,0,-1.6128545,1.3018388,-0.3623542,0.49660584,-0.45732808,1.3383021,-1.4188963,2.437463,0.9949895,-0.040734217,0.06688471,-0.40384114,1.113156,0.21785773
0.1,0.0,0.8999999999999999,0.0,0.0,0,-1.6077274,1.3101189,-0.38852713,0.5080729,-0.4665471,1.3294914,-1.421516,2.4656243,0.9902562,0.044814013,0.06687116,-0.09501257,1.2413921,0.27739152
0.1,0.0,0.8999999999999999,0.0,0.0,0,-1.6113528,1.3101281,-0.39698353,0.5042402,-0.46088398,1.3324431,-1.4270947,2.4445221,0.9930573,0.0014135328,0.06806656,-0.12788022,1.3570871,0.6342447
0.1,0.0,0.8999999999999999,0.0,0.0,0,-1.592127,1.3055599,-0.39142647,0.49723575,-0.45252538,1.3351359,-1.3912247,2.437083,0.9889603,-0.011943917,0.06587612,0.014885765,1.2899921,-0.6970063
0.1,0.0,0.8999999999999999,0.0,0.0,0,-1.5944656,1.3160127,-0.3925691,0.5092807,-0.45706198,1.3356442,-1.4136981,2.4195995,0.9950784,-0.0032833188,0.066872336,0.30896166,1.2578334,-0.66236895
0.1,0.0,0.8999999999999999,0.0,0.0,0,-1.6059033,1.315486,-0.39054605,0.49882045,-0.45253778,1.3272798,-1.4157408,2.4665494,0.9901734,0.097228676,0.06755216,0.013030074,1.2188497,0.49213994
0.1,0.0,0.8999999999999999,0.0,0.0,0,-1.590071,1.3062755,-0.3890955,0.4954542,-0.44468194,1.3333342,-1.4366434,2.4926357,0.99365544,-0.02929984,0.066150464,0.09265458,1.2763127,0.86818796
0.1,0.0,0.8999999999999999,0.0,0.0,0,-1.6222541,1.3164328,-0.38947198,0.5070338,-0.45133194,1.3262792,-1.4613875,2.454121,0.99515975,0.021717563,0.067001596,-0.078181215,1.1840444,-0.23017804
0.1,0.0,0.8999999999999999,0.0,0.0,0,-1.5933726,1.314182,-0.38871217,0.49692482,-0.45505494,1.3365239,-1.4439473,2.3909693,0.9900359,-0.007066735,0.067060515,-0.028158225,1.2045323,0.6452645
0.1,0.0,0.8999999999999999,0.0,0.0,0,-1.6111449,1.3022759,-0.38360664,0.5050839,-0.46510884,1.3263634,-1.3827826,2.442738,0.9896286,-0.071695,0.06113407,-0.11808577,1.1023706,-0.54504496
0.1,0.0,0.8999999999999999,0.0,0.0,0,-1.6117598,1.3180044,-0.39379302,0.5066081,-0.45127612,1.3323529,-1.4180018,2.409729,0.9920752,-0.0022065106,0.06317794,-0.2660592,1.1357877,-0.2910547
0.1,0.0,0.8999999999999999,0.0,0.0,0,-1.6021408,1.3077722,-0.39878586,0.49614838,-0.4466543,1.3277261,-1.389643,2.4351335,0.992642,0.036472373,0.06287125,0.096974045,1.1266941,1.2134042
0.1,0.0,0.8999999999999999,0.0,0.0,0,-1.602572,1.3037812,-0.38999692,0.5085481,-0.44411302,1.3250552,-1.3068243,2.49869,0.99070203,-0.010670759,0.063897304,0.020589145,1.3224337,0.69436264
0.1,0.0,0.8999999999999999,0.0,0.0,0,-1.5944233,1.3078045,-0.4000436,0.5004287,-0.45140046,1.3301622,-1.373935,2.4791386,0.99186224,-0.032574516,0.06148551,-0.088449314,1.1622567,0.36354926
0.1,0.0,0.8999999999999999,0.0,0.0,0,-1.5966091,1.3211906,-0.39359385,0.5045643,-0.46035516,1.3300371,-1.4518983,2.4128861,0.99481064,-0.020890923,0.06523869,-0.11362754,1.1467034,-0.024808748
0.1,0.0,0.8999999999999999,0.0,0.0,0,-1.6017076,1.3078581,-0.38580912,0.5055994,-0.45748684,1.3324858,-1.4404563,2.4204452,0.98889947,0.041420367,0.06634582,0.43874717,1.2329898,0.19205046
0.1,0.0,0.8999999999999999,0.0,0.0,0,-1.6098428,1.3310459,-0.39704198,0.50972277,-0.46999022,1.3360931,-1.3803556,2.3801115,0.9948844,0.02293225,0.06982785,-0.16261137,1.2696874,-0.1549412
0.1,0.0,0.8999999999999999,0.0,0.0,0,-1.6126461,1.3163913,-0.39559302,0.5053256,-0.45969683,1.32669,-1.5454916,2.4116602,0.99005723,0.035280045,0.06679016,-0.124534175,1.1355441,0.7808316
0.1,0.0,0.8999999999999999,0.0,0.0,0,-1.6207469,1.3131917,-0.38894442,0.49885103,-0.45779914,1.3257103,-1.389793,2.4198973,0.9921426,0.028272992,0.06394007,-0.5363575,1.086434,-0.2768826
0.1,0.0,0.8999999999999999,0.0,0.0,0,-1.6078843,1.3064219,-0.38716963,0.5026853,-0.45156997,1.3337917,-1.2830591,2.4668632,0.9890267,0.024149802,0.06627172,-0.0566173,1.1888039,0.97249097
0.1,0.0,0.8999999999999999,0.0,0.0,0,-1.6096756,1.3036089,-0.39612174,0.5046556,-0.4484209,1.3257992,-1.4592447,2.436791,0.9929863,-0.002440335,0.06681731,0.5074546,1.2674665,0.5512858
0.1,0.0,0.8999999999999999,0.0,0.0,0,-1.6093947,1.3072067,-0.3936481,0.5043685,-0.4554645,1.3277322,-1.3803359,2.475281,0.9886951,-0.06577346,0.06441987,0.28286126,1.1849695,0.24697204
0.1,0.0,0.8999999999999999,0.0,0.0,0,-1.5969468,1.3104746,-0.38974494,0.50634015,-0.4536939,1.3370172,-1.4530748,2.4474769,0.99464476,0.03155649,0.06431236,0.025380224,1.1625776,1.1790081
0.1,0.0,0.8999999999999999,0.0,0.0,0,-1.611087,1.3042599,-0.3932201,0.5077064,-0.46249005,1.333553,-1.3301159,2.3803437,0.9859964,0.08888565,0.066459805,-0.45121598,1.1871935,-0.014874087
0.1,0.0,0.8999999999999999,0.0,0.0,0,-1.6112822,1.3138003,-0.39110854,0.5062079,-0.45017666,1.3207963,-1.5450858,2.4367282,0.9926447,-0.021074837,0.065291576,0.16061078,1.3105577,0.8119836
0.1,0.0,0.8999999999999999,0.0,0.0,0,-1.605974,1.2974864,-0.39036155,0.50483,-0.44641873,1.3305682,-1.4122391,2.4895084,0.9937365,0.10334238,0.06566155,-0.19342695,1.1420286,-0.41301158
0.1,0.0,0.8999999999999999,0.0,0.0,0,-1.602425,1.3109107,-0.39571717,0.5044189,-0.44731545,1.3309853,-1.4192157,2.3713715,0.9876462,0.1091859,0.059309352,-0.11739502,1.2590692,1.52855
0.1,0.0,0.8999999999999999,0.0,0.0,0,-1.6047606,1.3166202,-0.40478384,0.49113292,-0.45897585,1.3354187,-1.4237466,2.4434357,0.9939911,0.058440074,0.06500156,0.25992817,1.1183122,-0.21998104
0.1,0.0,0.8999999999999999,0.0,0.0,0,-1.6035435,1.3141767,-0.39786643,0.5070511,-0.458621,1.3309938,-1.4668064,2.4596233,0.99123555,0.040325157,0.058826756,-0.45907244,1.2461017,0.14459759
0.1,0.0,0.8999999999999999,0.0,0.0,0,-1.6113496,1.3124708,-0.3878663,0.49898806,-0.4444387,1.3364365,-1.3695207,2.4561515,0.9901133,0.034945793,0.067415915,-0.14170669,1.377456,1.4535203
0.1,0.0,0.8999999999999999,0.0,0.0,0,-1.6035942,1.3055393,-0.3970961,0.50531024,-0.45944232,1.3186573,-1.4461594,2.4500139,0.98651785,0.005976539,0.061158042,0.072171025,1.319364,0.6692943
0.1,0.0,0.8999999999999999,0.0,0.0,0,-1.5932059,1.3058397,-0.39010683,0.49689662,-0.45444667,1.3352259,-1.2920926,2.3974018,0.99098134,-0.0051968326,0.06764238,-0.052719206,1.0532753,-0.010563727
0.1,0.0,0.8999999999999999,0.0,0.0,0,-1.6098441,1.3204695,-0.39966035,0.505304,-0.46035504,1.330397,-1.4169947,2.4545822,0.99384165,0.0073235123,0.066635236,-0.27805436,1.17563,0.66725385
0.1,0.0,0.8999999999999999,0.0,0.0,0,-1.5974344,1.3030736,-0.4004646,0.5070413,-0.46052992,1.3337072,-1.425974,2.4627743,0.9884082,-0.012394203,0.062988125,-0.24335068,1.2725606,0.2654232
0.1,0.0,0.8999999999999999,0.0,0.0,0,-1.6071091,1.316119,-0.398215,0.50669813,-0.46118715,1.3282439,-1.4221833,2.417123,0.9956622,0.041193787,0.060798734,-0.08396188,1.2786055,0.32918406
0.1,0.0,0.8999999999999999,0.0,0.0,0,-1.602768,1.29432,-0.39660043,0.5134191,-0.44972098,1.3228713,-1.3469934,2.4807131,0.9906889,0.026616627,0.064153224,0.030958032,1.2429355,-0.59978443
0.1,0.0,0.8999999999999999,0.0,0.0,0,-1.6011049,1.3064401,-0.3949045,0.5074463,-0.45476472,1.3313445,-1.4518915,2.4158792,0.98949564,-0.05636089,0.06649036,0.22353913,1.1986704,1.1926869
0.1,0.0,0.8999999999999999,0.0,0.0,0,-1.6100576,1.2979542,-0.39432156,0.49406603,-0.45702618,1.3336632,-1.3426749,2.4406095,0.9913165,0.01574046,0.07013107,-0.35985857,1.2003629,0.026225012
0.1,0.0,0.8999999999999999,0.0,0.0,0,-1.6116403,1.3138742,-0.39635822,0.50455976,-0.4514447,1.3316069,-1.4240148,2.4650507,0.99002403,0.003395616,0.06650342,0.09193806,1.196452,0.17953399
0.1,0.0,0.8999999999999999,0.0,0.0,0,-1.6041715,1.3062582,-0.39103904,0.49701336,-0.4700635,1.3258053,-1.4851075,2.410413,0.98949784,0.060528032,0.06112641,0.0737843,1.1216402,1.4091743
0.1,0.0,0.8999999999999999,0.0,0.0,0,-1.6148603,1.2969722,-0.37884286,0.5018803,-0.46176246,1.3235333,-1.4627986,2.537077,0.99539644,0.0016360569,0.06582792,-0.30054867,1.3724128,0.48472828
0.1,0.0,0.8999999999999999,0.0,0.0,0,-1.6090094,1.3045266,-0.39346716,0.4995704,-0.45680994,1.3290638,-1.3880441,2.5072956,0.99370015,0.013880085,0.05978175,-0.33810538,1.2117715,-0.43240368
0.1,0.0,0.8999999999999999,0.0,0.0,0,-1.5995619,1.3066418,-0.3969595,0.5071632,-0.4487882,1.3311697,-1.3836638,2.5226102,0.99043643,-0.03731241,0.06465378,0.0423656,1.1377505,0.65684557
0.1,0.0,0.8999999999999999,0.0,0.0,0,-1.6032832,1.3086785,-0.3912684,0.5068993,-0.46657565,1.3269199,-1.3406358,2.3789237,0.9926041,0.013669794,0.06417107,-0.028216725,1.2100105,0.22932127
0.1,0.0,0.8999999999999999,0.0,0.0,0,-1.6011171,1.311167,-0.38608062,0.50427747,-0.46310923,1.3338064,-1.5027589,2.4510489,0.99446756,0.021594265,0.06705025,-0.33421138,1.2515012,0.5959727
0.1,0.0,0.8999999999999999,0.0,0.0,0,-1.6049203,1.3193843,-0.399248,0.5025898,-0.459296,1.3304946,-1.3393809,2.3876376,0.99362326,0.0019002312,0.065513775,0.027237074,1.3605765,0.32123664
0.1,0.0,0.8999999999999999,0.0,0.0,0,-1.6036835,1.3037004,-0.38983962,0.5068442,-0.4504879,1.3352597,-1.3634526,2.4968991,0.9877585,-0.05663607,0.06532172,0.06862958,1.1389128,-0.06519689
0.1,0.0,0.8999999999999999,0.0,0.0,0,-1.6095837,1.3080554,-0.3938572,0.50868446,-0.445743,1.3339075,-1.295206,2.495094,0.9945717,0.06636013,0.06375184,0.12062176,1.0648493,1.483931
0.1,0.0,0.8999999999999999,0.0,0.0,0,-1.6138502,1.3055578,-0.3838888,0.50917846,-0.4510227,1.3324797,-1.4153346,2.4577951,0.98983514,0.018603452,0.06849742,0.055422872,1.1857662,0.651509
0.1,0.0,0.8999999999999999,0.0,0.0,0,-1.6264879,1.3125714,-0.38971162,0.4994018,-0.44763303,1.337683,-1.4337877,2.4342158,0.9940679,0.04240503,0.06278793,-0.06042308,1.1469657,0.4725128
0.1,0.0,0.8999999999999999,0.0,0.0,0,-1.6066138,1.303412,-0.3930323,0.49921167,-0.44974786,1.3280377,-1.4271135,2.4728405,0.9870559,0.013377915,0.068443544,0.016397536,1.1494225,0.74984723
0.1,0.0,0.8999999999999999,0.0,0.0,0,-1.6049272,1.3022674,-0.38622665,0.5062326,-0.44880906,1.3346202,-1.3709149,2.4559891,0.98964894,-0.05152656,0.062868945,0.14031178,1.2307028,0.28479126
0.1,0.0,0.8999999999999999,0.0,0.0,0,-1.5958929,1.3136039,-0.39485815,0.5005536,-0.4569611,1.3293753,-1.4969625,2.509458,0.99259096,0.019854903,0.06818887,-0.15156676,1.1057926,-0.069760054
0.1,0.0,0.8999999999999999,0.0,0.0,0,-1.608847,1.3014076,-0.38220727,0.4933137,-0.4596773,1.3270211,-1.4604057,2.4809396,0.98868835,0.00017452979,0.060413577,0.015494652,1.0610285,-0.7348075
0.1,0.0,0.8999999999999999,0.0,0.0,0,-1.6104246,1.3103386,-0.4037028,0.5045731,-0.46094564,1.3309774,-1.4568912,2.4998546,0.9939679,0.004805972,0.0604745,-0.06067887,1.2313712,-0.25441685
0.1,0.0,0.8999999999999999,0.0,0.0,0,-1.6063726,1.3069712,-0.3931841,0.514036,-0.45975915,1.338523,-1.5662371,2.3891628,0.9856972,-0.015863758,0.06653016,-0.029151937,1.2089456,-0.29718474
0.1,0.0,0.8999999999999999,0.0,0.0,0,-1.6188554,1.3036411,-0.384382,0.51011354,-0.4586282,1.3311034,-1.362596,2.475486,0.99566627,-0.0021979914,0.06268257,-0.051792413,1.197356,0.45509332
0.1,0.0,0.8999999999999999,0.0,0.0,0,-1.600226,1.3168086,-0.39932978,0.50508326,-0.46501386,1.3271648,-1.4246684,2.5577679,0.9845564,-0.043885607,0.06815598,-0.062105685,1.0873588,0.14332967
0.1,0.0,0.8999999999999999,0.0,0.0,0,-1.597943,1.3068328,-0.40643895,0.4954198,-0.45316872,1.3270065,-1.4102818,2.4972346,0.99002004,0.0018885159,0.057068557,0.19320603,1.0837501,1.4707817
0.1,0.0,0.8999999999999999,0.0,0.0,0,-1.609657,1.3031584,-0.39253998,0.5037413,-0.44437146,1.32526,-1.4824147,2.4918165,0.9972485,0.07178948,0.065197475,-0.01164099,1.0164353,0.6026898
0.1,0.0,0.8999999999999999,0.0,0.0,0,-1.6000304,1.3135508,-0.39236182,0.5006405,-0.4627246,1.3281242,-1.4053684,2.4140334,0.9928889,0.00941253,0.06531956,-0.023438178,1.2514174,-0.4827307
0.1,0.0,0.8999999999999999,0.0,0.0,0,-1.607339,1.3053846,-0.39259017,0.50444114,-0.4515649,1.3271463,-1.4786769,2.5492074,0.9921822,0.0034480253,0.06688372,-0.0013711961,1.1757264,1.4937733
0.1,0.0,0.8999999999999999,0.0,0.0,0,-1.6038628,1.2992975,-0.39643362,0.5076681,-0.45995697,1.3364979,-1.3022207,2.514074,0.98883224,-0.036109354,0.0606142,-0.14039257,1.1353526,0.7276914
