sanky1234/BimanualDexCatch/isaacgymenvs/cem_results/football_pose_-0.1_-0.1_1.4999999999999998_0.0_-0.5235987755982988_0_2025-05-25.csv
x,y,z,roll,pitch,yaw,robot1/joint1,robot1/joint2,robot1/joint3,robot1/joint4,robot1/joint5,robot1/joint6,robot1/joint7,robot2/joint1,robot2/joint2,robot2/joint3,robot2/joint4,robot2/joint5,robot2/joint6,robot2/joint7
-0.1,-0.1,1.4999999999999998,0.0,-0.5235987755982988,0,-0.2612337,-1.5492984,0.88750166,-0.31873262,0.11263802,1.1346554,-0.6405023,0.3435584,-0.58837795,-0.30302262,0.28065786,-0.16584803,0.9553016,0.43818957
-0.1,-0.1,1.4999999999999998,0.0,-0.5235987755982988,0,-0.26039368,-1.5503165,0.90571624,-0.3179782,0.25033626,1.2049525,-0.34339264,0.34097436,-0.5860358,-0.30650765,0.26436347,0.015346901,1.160802,0.32336843
-0.1,-0.1,1.4999999999999998,0.0,-0.5235987755982988,0,-0.2601217,-1.5516613,0.8934646,-0.3147004,0.042448785,1.1248375,0.032458168,0.3388778,-0.58556414,-0.2978697,0.26193076,-0.1656647,1.0401931,0.0803622
-0.1,-0.1,1.4999999999999998,0.0,-0.5235987755982988,0,-0.26132622,-1.5508068,0.89228445,-0.3176995,0.14448212,1.1235101,-1.2826128,0.34067184,-0.58758324,-0.29528677,0.26934165,-0.040577605,0.8473315,0.5204438
-0.1,-0.1,1.4999999999999998,0.0,-0.5235987755982988,0,-0.2587644,-1.5495714,0.91249686,-0.3178093,0.08931638,1.1917732,-0.55837274,0.3420458,-0.5873896,-0.30815813,0.25744608,-0.14269738,1.0515267,-0.01883575
-0.1,-0.1,1.4999999999999998,0.0,-0.5235987755982988,0,-0.26191363,-1.5496595,0.90423346,-0.3166589,0.2514566,1.0624602,-0.8306988,0.33422,-0.58786196,-0.30185544,0.2706181,-0.1489629,1.0249273,0.7018995
-0.1,-0.1,1.4999999999999998,0.0,-0.5235987755982988,0,-0.2620966,-1.5511523,0.8896929,-0.3131054,0.084918566,1.1541401,-0.51100826,0.3440463,-0.5879053,-0.30226055,0.25721285,-0.23794104,1.0705724,-1.3697846
-0.1,-0.1,1.4999999999999998,0.0,-0.5235987755982988,0,-0.26022425,-1.5489086,0.8815014,-0.3169825,0.08454311,1.0895102,0.6287948,0.3415708,-0.58586913,-0.28404137,0.26374528,-0.14137861,1.1287905,-0.762311
-0.1,-0.1,1.4999999999999998,0.0,-0.5235987755982988,0,-0.25966144,-1.550288,0.87627876,-0.31636724,0.181353,1.1523415,0.8643592,0.33868536,-0.58696663,-0.2938901,0.25870627,-0.078952216,0.9902854,0.7768775
-0.1,-0.1,1.4999999999999998,0.0,-0.5235987755982988,0,-0.25844777,-1.5506871,0.9055131,-0.31257096,0.23461719,1.1859984,-0.548058,0.3387426,-0.58688647,-0.30262172,0.26968065,-0.12185755,1.1400578,0.58502406
-0.1,-0.1,1.4999999999999998,0.0,-0.5235987755982988,0,-0.26286608,-1.5501992,0.89889145,-0.315577,0.25350803,1.0902638,-0.12267174,0.3384074,-0.5880169,-0.30433223,0.25769618,-0.109409116,1.0943531,0.047206603
-0.1,-0.1,1.4999999999999998,0.0,-0.5235987755982988,0,-0.26012507,-1.5499408,0.9000836,-0.31681284,0.06340313,1.1302013,0.4242108,0.3389292,-0.5862885,-0.30077162,0.24812366,-0.06765156,0.9812859,0.45401785
-0.1,-0.1,1.4999999999999998,0.0,-0.5235987755982988,0,-0.26072243,-1.5511404,0.89085233,-0.31719357,0.32984528,1.126284,0.29021114,0.340308,-0.5874339,-0.2941793,0.25868553,-0.015104991,0.8701928,-0.57809347
-0.1,-0.1,1.4999999999999998,0.0,-0.5235987755982988,0,-0.2615942,-1.551327,0.89904445,-0.31613576,0.11723605,1.1128592,-0.80524606,0.3437271,-0.58860517,-0.3105574,0.27638426,-0.0051752576,1.0274605,-0.93657875
-0.1,-0.1,1.4999999999999998,0.0,-0.5235987755982988,0,-0.25998372,-1.5500964,0.90607214,-0.3167673,0.16920133,1.129683,2.141615,0.33828512,-0.5872953,-0.29680187,0.2503082,-0.03212603,1.0712416,0.24610707
-0.1,-0.1,1.4999999999999998,0.0,-0.5235987755982988,0,-0.26049626,-1.5516989,0.902365,-0.31691042,0.22065142,1.1433707,0.37309545,0.34186143,-0.5861594,-0.31122705,0.26107666,-0.17086299,1.1689247,1.0095097
-0.1,-0.1,1.4999999999999998,0.0,-0.5235987755982988,0,-0.25934798,-1.5490906,0.90525275,-0.31749284,0.050849687,1.0592966,0.3872676,0.3390681,-0.58707935,-0.30079398,0.24323593,0.02769377,1.0169067,-0.14207204
-0.1,-0.1,1.4999999999999998,0.0,-0.5235987755982988,0,-0.2625855,-1.5487276,0.9032427,-0.32011417,0.066668615,1.1467983,-0.39854512,0.33965605,-0.58792984,-0.2990817,0.27735302,-0.086606845,1.137834,-0.90060914
-0.1,-0.1,1.4999999999999998,0.0,-0.5235987755982988,0,-0.26151508,-1.5509613,0.8901249,-0.3177544,-0.04184667,1.1073662,0.19935404,0.3413607,-0.58542615,-0.30549815,0.27630153,-0.20848669,1.0265945,-0.33569807
-0.1,-0.1,1.4999999999999998,0.0,-0.5235987755982988,0,-0.25975975,-1.5497634,0.9008744,-0.31411305,0.2640744,1.0198566,0.26307094,0.33655852,-0.5874824,-0.3029318,0.29634306,-0.18109722,1.1202779,-0.047400363
-0.1,-0.1,1.4999999999999998,0.0,-0.5235987755982988,0,-0.26129228,-1.5506105,0.90494025,-0.31460363,0.0023957966,1.1399833,-0.4472594,0.3378433,-0.58760744,-0.3018503,0.27586442,0.032892603,1.1641011,-0.05890001
-0.1,-0.1,1.4999999999999998,0.0,-0.5235987755982988,0,-0.25943655,-1.5490795,0.8835886,-0.31544045,0.09835422,1.1135029,-0.33659822,0.34033868,-0.5873309,-0.29588747,0.26529244,-0.04903972,1.2137783,-0.19108652
-0.1,-0.1,1.4999999999999998,0.0,-0.5235987755982988,0,-0.26186717,-1.5505158,0.8966841,-0.31992903,0.263327,1.1684936,-0.07320459,0.33464772,-0.587272,-0.29976457,0.2693881,-0.20886949,0.91028327,0.33167824
-0.1,-0.1,1.4999999999999998,0.0,-0.5235987755982988,0,-0.2603086,-1.551455,0.8952788,-0.31527126,0.26504043,1.1840172,0.83178574,0.3379466,-0.5858718,-0.29492068,0.28035554,-0.22403067,1.0308444,-1.3851898
-0.1,-0.1,1.4999999999999998,0.0,-0.5235987755982988,0,-0.2616656,-1.5497723,0.90239716,-0.31810248,0.0888934,1.1950622,1.065383,0.3427973,-0.5880281,-0.3080277,0.26735866,-0.11750202,1.0767024,-0.66180545
-0.1,-0.1,1.4999999999999998,0.0,-0.5235987755982988,0,-0.26030093,-1.5512153,0.89160913,-0.31631362,0.15576133,1.1588664,0.1675555,0.33781394,-0.5874178,-0.28899664,0.2788777,-0.15366311,0.99559045,0.59355485
-0.1,-0.1,1.4999999999999998,0.0,-0.5235987755982988,0,-0.26121506,-1.5502101,0.8930294,-0.31558695,0.068081364,1.197082,-0.6516614,0.34166092,-0.58758134,-0.30283782,0.23920909,-0.16085793,1.0479108,1.0993843
-0.1,-0.1,1.4999999999999998,0.0,-0.5235987755982988,0,-0.2600752,-1.5506647,0.89070743,-0.31500617,0.07043851,1.1271814,0.47165444,0.34514645,-0.58647555,-0.3060738,0.276724,-0.017919358,1.0152571,-0.5168459
-0.1,-0.1,1.4999999999999998,0.0,-0.5235987755982988,0,-0.2600585,-1.5500065,0.9091785,-0.31556666,0.14710574,1.1531681,0.62827194,0.3373971,-0.5883588,-0.29750144,0.24933314,-0.2170838,1.0791967,-0.04725027
-0.1,-0.1,1.4999999999999998,0.0,-0.5235987755982988,0,-0.2587295,-1.550367,0.90198725,-0.31380054,0.23332784,1.195922,0.66871387,0.33676958,-0.5854403,-0.30297616,0.2705343,-0.056691013,1.0097123,0.023654157
-0.1,-0.1,1.4999999999999998,0.0,-0.5235987755982988,0,-0.26149046,-1.5512888,0.9063168,-0.31755513,0.077642955,1.132509,-0.36459488,0.33783504,-0.5868924,-0.3039648,0.24042423,-0.035973325,1.0092613,-1.188077
-0.1,-0.1,1.4999999999999998,0.0,-0.5235987755982988,0,-0.26003715,-1.5504279,0.9015469,-0.3153854,0.06770583,1.1626585,-0.040738065,0.3344937,-0.5862239,-0.3036797,0.25659022,-0.10769523,1.0101434,1.3467648
-0.1,-0.1,1.4999999999999998,0.0,-0.5235987755982988,0,-0.2622188,-1.5511341,0.8940911,-0.3156572,0.2012461,1.0982258,0.54927003,0.3385688,-0.58818924,-0.29575616,0.2625334,-0.22131954,1.1073537,0.27970275
-0.1,-0.1,1.4999999999999998,0.0,-0.5235987755982988,0,-0.26167583,-1.5513244,0.8821634,-0.31542975,0.047733698,1.2557588,0.55058974,0.34027272,-0.58631235,-0.2940761,0.27735224,-0.039327372,1.0778711,-1.5791794
-0.1,-0.1,1.4999999999999998,0.0,-0.5235987755982988,0,-0.26120698,-1.549888,0.88529825,-0.31582707,0.052547265,1.1939194,-0.22926123,0.33814055,-0.58575654,-0.30268556,0.2707208,-0.065362625,1.1569607,-0.8404381
-0.1,-0.1,1.4999999999999998,0.0,-0.5235987755982988,0,-0.260992,-1.5497669,0.893283,-0.31680122,-0.049179573,1.2036747,-0.39033142,0.34385163,-0.5887132,-0.29984596,0.284403,-0.050789475,1.0901674,1.1046247
-0.1,-0.1,1.4999999999999998,0.0,-0.5235987755982988,0,-0.26139554,-1.5502015,0.91013366,-0.3175038,0.13806231,1.1160115,0.40271887,0.3382938,-0.58744115,-0.29451382,0.2628301,-0.1726596,1.247931,1.1382788
-0.1,-0.1,1.4999999999999998,0.0,-0.5235987755982988,0,-0.26056546,-1.5497792,0.8972584,-0.31507188,0.14785811,1.1365999,-0.48509791,0.33523166,-0.587242,-0.29801944,0.25735041,-0.039580222,0.993205,0.20489733
-0.1,-0.1,1.4999999999999998,0.0,-0.5235987755982988,0,-0.25977743,-1.5495559,0.89274585,-0.31366,0.21547095,1.1269524,-1.0464996,0.33475712,-0.5867311,-0.30559117,0.2951274,-0.062442947,1.2189801,0.72295094
-0.1,-0.1,1.4999999999999998,0.0,-0.5235987755982988,0,-0.25998825,-1.5506582,0.8959744,-0.3164534,0.19349939,1.1348199,0.9900058,0.34069228,-0.5878451,-0.30145353,0.27578446,-0.03914984,1.1016659,0.40102616
-0.1,-0.1,1.4999999999999998,0.0,-0.5235987755982988,0,-0.2604998,-1.548756,0.88779217,-0.31276995,0.21715912,1.095802,0.52028614,0.34009576,-0.5873432,-0.3118715,0.2696726,-0.077834025,1.0369925,0.03560067
-0.1,-0.1,1.4999999999999998,0.0,-0.5235987755982988,0,-0.26067,-1.5520556,0.90484,-0.3162371,0.23213537,1.1984068,0.5863188,0.3398627,-0.5879337,-0.28465122,0.27686492,-0.037258472,1.2437934,-0.13783138
-0.1,-0.1,1.4999999999999998,0.0,-0.5235987755982988,0,-0.2609659,-1.551108,0.8906445,-0.31596965,0.06761643,1.1496171,-1.4860516,0.34052858,-0.5865264,-0.3117539,0.27352697,-0.062135316,1.0743659,0.9522122
-0.1,-0.1,1.4999999999999998,0.0,-0.5235987755982988,0,-0.26109082,-1.549924,0.8969143,-0.31720752,0.26814413,1.1824933,0.4358241,0.33751765,-0.5866673,-0.30094063,0.25097096,-0.034111157,1.065966,0.018124662
-0.1,-0.1,1.4999999999999998,0.0,-0.5235987755982988,0,-0.2607323,-1.5501053,0.90191126,-0.3175522,0.14596139,1.1088519,0.48379666,0.33767384,-0.58798945,-0.30194554,0.27159312,-0.08372179,0.9825646,0.73712575
-0.1,-0.1,1.4999999999999998,0.0,-0.5235987755982988,0,-0.2611394,-1.550378,0.8919495,-0.3162659,0.23056416,1.1477298,-0.05685167,0.3405345,-0.5865114,-0.3109765,0.27045953,-0.0005459953,1.0432196,-0.5241372
-0.1,-0.1,1.4999999999999998,0.0,-0.5235987755982988,0,-0.26031396,-1.5509417,0.9008202,-0.32030132,0.16881321,1.1108346,-0.80275905,0.3354783,-0.58528656,-0.29780078,0.26169986,-0.26609474,1.1194762,0.36755833
-0.1,-0.1,1.4999999999999998,0.0,-0.5235987755982988,0,-0.25953704,-1.5502497,0.8724336,-0.31422612,0.064239554,1.2183079,-0.06703558,0.3418964,-0.58601344,-0.30279458,0.27894086,-0.10443038,1.0351713,-0.050552327
-0.1,-0.1,1.4999999999999998,0.0,-0.5235987755982988,0,-0.26087743,-1.5496339,0.87785465,-0.31619525,-0.057062626,1.144352,-0.18685606,0.34184518,-0.58591676,-0.30905807,0.27148136,-0.2418828,1.1698581,-0.156146
-0.1,-0.1,1.4999999999999998,0.0,-0.5235987755982988,0,-0.2603964,-1.5504006,0.90019214,-0.31713396,0.28556573,1.176233,-0.87164354,0.34025046,-0.58653396,-0.3079044,0.2796187,-0.17621909,1.1269246,0.41855082
-0.1,-0.1,1.4999999999999998,0.0,-0.5235987755982988,0,-0.26096028,-1.5502516,0.8943322,-0.31559232,0.13741799,1.0917245,0.39765283,0.34034976,-0.5885993,-0.29972145,0.25499713,-0.16558626,1.1565608,-1.0639937
-0.1,-0.1,1.4999999999999998,0.0,-0.5235987755982988,0,-0.25994325,-1.5520048,0.88843036,-0.31807712,0.22992887,1.1536748,0.9736333,0.34186485,-0.5853512,-0.3001168,0.2632919,0.02983704,1.0017611,-0.73741555
-0.1,-0.1,1.4999999999999998,0.0,-0.5235987755982988,0,-0.26027244,-1.5503602,0.90077025,-0.31887576,0.03128393,1.1385663,-0.691565,0.33703402,-0.5870522,-0.2955557,0.27155602,-0.065565564,1.1384401,1.4828852
-0.1,-0.1,1.4999999999999998,0.0,-0.5235987755982988,0,-0.261085,-1.5477239,0.8896506,-0.3177219,0.14264031,1.1279504,-0.562946,0.3415274,-0.58639616,-0.29851523,0.25974312,-0.07209378,1.3523494,1.1581717
-0.1,-0.1,1.4999999999999998,0.0,-0.5235987755982988,0,-0.260964,-1.5506335,0.8811257,-0.31482416,-0.053359892,1.1559767,-1.29151,0.34064457,-0.58885854,-0.29523936,0.2629295,-0.17319724,1.0148176,-0.21705993
-0.1,-0.1,1.4999999999999998,0.0,-0.5235987755982988,0,-0.25866625,-1.5504078,0.900139,-0.3146238,0.22242582,1.1185247,0.73233557,0.33958146,-0.58694905,-0.306864,0.26805118,0.078926645,1.2333561,0.17931885
-0.1,-0.1,1.4999999999999998,0.0,-0.5235987755982988,0,-0.26072738,-1.5495899,0.8917985,-0.31822035,0.16022004,1.1109813,-0.6283545,0.33902496,-0.5871369,-0.30543637,0.29365167,0.120636255,1.1033676,0.6558173
-0.1,-0.1,1.4999999999999998,0.0,-0.5235987755982988,0,-0.26038122,-1.5513875,0.9067029,-0.31547424,0.04639181,1.1283268,-0.682911,0.33988014,-0.5888297,-0.29729682,0.25034937,0.024763534,1.1339895,0.38700145
-0.1,-0.1,1.4999999999999998,0.0,-0.5235987755982988,0,-0.2589729,-1.5503517,0.89420897,-0.31769305,0.028229088,1.1345352,0.6568789,0.33658338,-0.58512825,-0.29972515,0.25002247,-0.0014380388,1.0888122,0.7562633
-0.1,-0.1,1.4999999999999998,0.0,-0.5235987755982988,0,-0.26098844,-1.5524315,0.8834099,-0.3152127,0.098957986,1.1411169,0.5773231,0.33900753,-0.5882837,-0.2932856,0.28550896,0.021284675,1.0171069,1.5530244
-0.1,-0.1,1.4999999999999998,0.0,-0.5235987755982988,0,-0.25931603,-1.5509434,0.89777356,-0.31601682,0.11517102,1.071122,-0.7929062,0.33831006,-0.58661014,-0.3020068,0.2835321,0.029959215,1.180926,0.86210036
-0.1,-0.1,1.4999999999999998,0.0,-0.5235987755982988,0,-0.25849274,-1.5491962,0.8844441,-0.31457838,0.20637184,1.191302,0.7524462,0.3429584,-0.59027433,-0.29249388,0.26380587,-0.22680667,1.021866,-0.08194965
-0.1,-0.1,1.4999999999999998,0.0,-0.5235987755982988,0,-0.26126045,-1.550861,0.8936739,-0.3134605,0.19662367,1.158916,-0.9659356,0.3372841,-0.5872393,-0.30517256,0.28508788,-0.18227214,1.2547379,-0.6156796
-0.1,-0.1,1.4999999999999998,0.0,-0.5235987755982988,0,-0.25855166,-1.5490323,0.8960984,-0.31668448,-0.09013427,1.1544886,-0.14977723,0.33507875,-0.5867008,-0.30056357,0.23953684,-0.02824593,1.1924005,1.6013317
-0.1,-0.1,1.4999999999999998,0.0,-0.5235987755982988,0,-0.2612499,-1.5501276,0.87678295,-0.31816927,0.053034082,1.1400086,0.106813505,0.33873641,-0.58797,-0.29133424,0.23387952,-0.19891647,1.1221055,0.5493833
-0.1,-0.1,1.4999999999999998,0.0,-0.5235987755982988,0,-0.2599416,-1.5520469,0.8898478,-0.31527922,-0.052434538,1.138165,0.02376374,0.33658135,-0.5870435,-0.30091795,0.26217583,-0.19806217,0.84522635,1.4426211
-0.1,-0.1,1.4999999999999998,0.0,-0.5235987755982988,0,-0.26023093,-1.550545,0.89410245,-0.3164103,0.22239392,1.1271601,0.006523788,0.34064338,-0.58812433,-0.30662957,0.28072247,0.043158233,1.0897788,-0.52498835
-0.1,-0.1,1.4999999999999998,0.0,-0.5235987755982988,0,-0.26124108,-1.5518559,0.8956521,-0.3166498,0.089143045,1.1791502,1.0388969,0.34170166,-0.5887839,-0.3020886,0.2561048,-0.05395699,1.045457,0.8013895
-0.1,-0.1,1.4999999999999998,0.0,-0.5235987755982988,0,-0.25955197,-1.5495992,0.8888811,-0.31601733,0.22921194,1.0582728,0.020967387,0.3384102,-0.5873153,-0.30660784,0.27918744,-0.16779661,1.0830796,0.050442528
-0.1,-0.1,1.4999999999999998,0.0,-0.5235987755982988,0,-0.25992054,-1.5509013,0.9070245,-0.31858754,0.22254044,1.1711671,-0.6828063,0.33276537,-0.5866224,-0.30158824,0.25618857,-0.23667076,1.20887,0.12602329
-0.1,-0.1,1.4999999999999998,0.0,-0.5235987755982988,0,-0.26041692,-1.5520592,0.89406997,-0.314738,0.04328073,1.1926755,-0.8908341,0.33929256,-0.5893865,-0.29927835,0.25168824,-0.038397543,1.2204357,0.62742764
-0.1,-0.1,1.4999999999999998,0.0,-0.5235987755982988,0,-0.26237443,-1.5495605,0.91069293,-0.31350878,0.10901471,1.1368369,0.6455734,0.34007767,-0.58761334,-0.2977979,0.27301258,0.045429356,1.0273885,-1.5617306
-0.1,-0.1,1.4999999999999998,0.0,-0.5235987755982988,0,-0.259955,-1.5515912,0.89166594,-0.3174735,0.23963466,1.1155716,0.75466394,0.34125748,-0.5867469,-0.31138414,0.24110058,-0.1863219,1.0390116,-0.6013096
-0.1,-0.1,1.4999999999999998,0.0,-0.5235987755982988,0,-0.2592668,-1.5523806,0.8994207,-0.31835845,-0.12870772,0.99387836,0.35437554,0.3378229,-0.5851255,-0.31423515,0.26349953,-0.004299929,1.1784455,-0.0868344
-0.1,-0.1,1.4999999999999998,0.0,-0.5235987755982988,0,-0.26145095,-1.5491582,0.89460605,-0.3219491,0.23658936,1.0389287,0.33635318,0.3427971,-0.585452,-0.30380923,0.26488897,-0.15442385,1.0390114,-0.9471953
-0.1,-0.1,1.4999999999999998,0.0,-0.5235987755982988,0,-0.25965032,-1.5469885,0.8936126,-0.31098124,0.051612597,1.1681347,-1.0174762,0.33899403,-0.5878708,-0.30462554,0.3060194,0.04737377,0.96752125,0.5107058
-0.1,-0.1,1.4999999999999998,0.0,-0.5235987755982988,0,-0.2622589,-1.5496532,0.89238644,-0.31647226,0.15088215,1.1830626,1.088128,0.34121826,-0.58774376,-0.30891657,0.24899709,-0.109597534,1.0383344,-0.06640833
-0.1,-0.1,1.4999999999999998,0.0,-0.5235987755982988,0,-0.2606231,-1.5510765,0.8948388,-0.31254017,-0.12774004,1.0164266,0.9757536,0.34326845,-0.5873579,-0.30344394,0.28495705,-0.079764254,1.0938528,0.5047489
-0.1,-0.1,1.4999999999999998,0.0,-0.5235987755982988,0,-0.2615232,-1.5508367,0.8949122,-0.31695363,0.08890125,1.1632371,0.81356865,0.34252077,-0.5860521,-0.30166897,0.24555081,0.045863956,1.1202885,0.4491632
-0.1,-0.1,1.4999999999999998,0.0,-0.5235987755982988,0,-0.2591036,-1.547906,0.89732826,-0.31375873,0.07186953,1.0606521,1.0614971,0.3420336,-0.5899062,-0.30129585,0.27186576,-0.20559345,1.0088466,-0.054913428
-0.1,-0.1,1.4999999999999998,0.0,-0.5235987755982988,0,-0.26111966,-1.5498031,0.90454453,-0.31791657,0.23451036,1.1021122,-0.5868005,0.33911905,-0.58664703,-0.2956297,0.25980112,-0.18559873,0.9202427,-0.59550047
-0.1,-0.1,1.4999999999999998,0.0,-0.5235987755982988,0,-0.26136595,-1.5508463,0.893971,-0.31592426,0.15177536,1.1064068,0.47258228,0.33825564,-0.5868247,-0.2909668,0.2749561,-0.132343,0.9982593,-0.17077813
-0.1,-0.1,1.4999999999999998,0.0,-0.5235987755982988,0,-0.26273385,-1.5506185,0.8942455,-0.3194321,-0.020750754,1.1171117,0.33252913,0.33986756,-0.5860881,-0.30107996,0.24557342,0.011851351,1.0852593,1.5497609
-0.1,-0.1,1.4999999999999998,0.0,-0.5235987755982988,0,-0.25888446,-1.5496334,0.8903716,-0.31635204,0.011840359,1.0687181,1.3128496,0.34277108,-0.588493,-0.30373114,0.2905122,-0.118536085,0.98548496,0.3233027
-0.1,-0.1,1.4999999999999998,0.0,-0.5235987755982988,0,-0.26078296,-1.5505952,0.8841307,-0.31757084,0.24135433,1.0944529,0.4432405,0.33803245,-0.5866555,-0.29472288,0.27213255,-0.13416368,1.1020077,0.052121222
-0.1,-0.1,1.4999999999999998,0.0,-0.5235987755982988,0,-0.2603228,-1.5512205,0.89034534,-0.31574878,0.28057632,1.1571234,0.36212635,0.34043735,-0.5860016,-0.2946598,0.25441435,-0.06581666,1.1486576,1.0393826
-0.1,-0.1,1.4999999999999998,0.0,-0.5235987755982988,0,-0.26236218,-1.5520983,0.90400296,-0.31913707,0.08405426,1.0655522,-0.26648393,0.34170738,-0.58766425,-0.3021947,0.24852425,-0.15163189,1.0269716,-0.80289453
-0.1,-0.1,1.4999999999999998,0.0,-0.5235987755982988,0,-0.26192686,-1.551193,0.90209913,-0.31775588,0.12453471,1.0712023,-0.60018134,0.33876136,-0.5891433,-0.29331863,0.27594012,-0.10435728,1.1248655,0.91715306
-0.1,-0.1,1.4999999999999998,0.0,-0.5235987755982988,0,-0.2611678,-1.5497255,0.88442653,-0.3139383,0.064662,1.2037022,0.5850635,0.34077096,-0.5870092,-0.31072786,0.26417994,-0.27701712,1.1326997,-0.3362513
-0.1,-0.1,1.4999999999999998,0.0,-0.5235987755982988,0,-0.26179036,-1.5519798,0.8924647,-0.3142678,0.13266471,1.050546,-0.3157574,0.3401396,-0.5890555,-0.30577815,0.28748637,-0.12223903,0.96353596,0.46631986
-0.1,-0.1,1.4999999999999998,0.0,-0.5235987755982988,0,-0.25997865,-1.549512,0.8883592,-0.3158789,0.14397584,1.1441879,0.6799128,0.3373914,-0.58892184,-0.30210397,0.28281453,-0.05139283,1.0030686,0.4593971
-0.1,-0.1,1.4999999999999998,0.0,-0.5235987755982988,0,-0.26070607,-1.5503372,0.89018947,-0.31715742,0.3424094,1.0802337,1.130257,0.34025925,-0.58787256,-0.28261444,0.2925231,-0.21838108,1.1032411,-0.47774032
-0.1,-0.1,1.4999999999999998,0.0,-0.5235987755982988,0,-0.26150268,-1.551114,0.886116,-0.31534627,-0.11149161,1.1528466,0.01529895,0.339016,-0.5862383,-0.2946534,0.26489705,-0.055573177,1.2251989,0.5690317
-0.1,-0.1,1.4999999999999998,0.0,-0.5235987755982988,0,-0.26185566,-1.548666,0.904969,-0.3148049,-0.0014125891,1.0731369,1.1395606,0.33986774,-0.58782244,-0.31012782,0.26876953,-0.09391985,1.1125158,0.44509593
-0.1,-0.1,1.4999999999999998,0.0,-0.5235987755982988,0,-0.2606868,-1.5499845,0.9076918,-0.31513774,0.31136724,1.2027853,-0.8498212,0.33582294,-0.58506584,-0.30842653,0.2658381,-0.03816963,0.9735577,0.7462705
-0.1,-0.1,1.4999999999999998,0.0,-0.5235987755982988,0,-0.26121768,-1.5511732,0.90328455,-0.3179727,0.27346745,1.0952678,-0.40729138,0.3384757,-0.58653504,-0.2968143,0.26734632,-0.09318224,1.1862698,-0.84132284
-0.1,-0.1,1.4999999999999998,0.0,-0.5235987755982988,0,-0.2624016,-1.5499605,0.8993088,-0.31605512,0.22062624,1.0850843,1.4765716,0.34319627,-0.5856903,-0.3191696,0.2563882,-0.053166814,1.0888023,0.17282481
-0.1,-0.1,1.4999999999999998,0.0,-0.5235987755982988,0,-0.26208347,-1.55102,0.8957187,-0.3141805,0.28108668,1.0529691,0.55749047,0.33387455,-0.5855456,-0.30647787,0.29683623,-0.11951576,1.1748966,-0.9876792
-0.1,-0.1,1.4999999999999998,0.0,-0.5235987755982988,0,-0.26023486,-1.5495453,0.8870832,-0.32040438,0.15064146,1.188571,-0.47578886,0.34170046,-0.5865843,-0.2993767,0.2643196,-0.038432825,1.0971158,-0.033241417
-0.1,-0.1,1.4999999999999998,0.0,-0.5235987755982988,0,-0.25896597,-1.5503316,0.8941453,-0.31833687,0.09841046,1.1535214,0.5732262,0.3381726,-0.5883245,-0.3058742,0.2802407,-0.012195368,1.0241079,0.5487131
-0.1,-0.1,1.4999999999999998,0.0,-0.5235987755982988,0,-0.26142293,-1.5506707,0.89708316,-0.31731993,0.016658338,1.0430295,0.6631613,0.34143066,-0.58447254,-0.3046798,0.28594708,0.0627493,0.8327743,0.67647374
-0.1,-0.1,1.4999999999999998,0.0,-0.5235987755982988,0,-0.2612824,-1.5503683,0.90215206,-0.31572586,0.10421116,1.0962087,-0.16914338,0.34102127,-0.58585894,-0.30115217,0.26385725,-0.14291646,0.9084113,0.9196964
-0.1,-0.1,1.4999999999999998,0.0,-0.5235987755982988,0,-0.26335505,-1.5477117,0.8873026,-0.31376106,0.05311003,1.0599174,-0.7856659,0.34092844,-0.58788663,-0.30981597,0.25235313,-0.008010613,0.89831007,0.6464187
-0.1,-0.1,1.4999999999999998,0.0,-0.5235987755982988,0,-0.26080206,-1.5498468,0.902895,-0.3156754,0.19966865,1.1666096,-0.9243453,0.3398246,-0.584505,-0.30839345,0.27948168,-0.09729024,1.0759362,0.086792395
-0.1,-0.1,1.4999999999999998,0.0,-0.5235987755982988,0,-0.26285318,-1.5503371,0.89719814,-0.3104084,-0.16612393,1.1197249,0.9579049,0.34060988,-0.586777,-0.30285615,0.25855643,-0.08294332,0.90908444,0.34086114
-0.1,-0.1,1.4999999999999998,0.0,-0.5235987755982988,0,-0.26230007,-1.5482444,0.8870218,-0.31757438,0.101525836,1.0861926,0.49469543,0.3433045,-0.5850852,-0.2981016,0.26950485,-0.095535435,1.1256986,0.19698358
-0.1,-0.1,1.4999999999999998,0.0,-0.5235987755982988,0,-0.26073968,-1.5489452,0.9109874,-0.31405106,0.0051975544,1.1424041,0.6747964,0.34031796,-0.58670264,-0.31155637,0.28350252,-0.2206767,0.94659865,-0.10972655
-0.1,-0.1,1.4999999999999998,0.0,-0.5235987755982988,0,-0.26170972,-1.5512347,0.9007931,-0.31314522,0.13348871,1.0099763,-0.29677132,0.34217966,-0.5863292,-0.30673137,0.28546888,-0.17102514,1.1176903,0.38895833
-0.1,-0.1,1.4999999999999998,0.0,-0.5235987755982988,0,-0.26243895,-1.5494534,0.8905442,-0.3171738,0.25648886,1.146767,0.05412982,0.34278953,-0.5861347,-0.29535663,0.26150715,-0.07347557,0.96419847,2.2523382
-0.1,-0.1,1.4999999999999998,0.0,-0.5235987755982988,0,-0.26288566,-1.549564,0.885899,-0.31256506,0.034472436,1.2149776,-0.06801243,0.3442732,-0.5870974,-0.30044758,0.26365283,0.039965045,1.0410415,-0.2111211
-0.1,-0.1,1.4999999999999998,0.0,-0.5235987755982988,0,-0.2596561,-1.5508555,0.8973815,-0.31248438,0.2162385,1.1360364,0.45882085,0.34448302,-0.5854469,-0.29502937,0.2763978,-0.18420665,0.9267266,-0.39391637
-0.1,-0.1,1.4999999999999998,0.0,-0.5235987755982988,0,-0.26071337,-1.5487062,0.9144677,-0.31402785,0.034206457,1.2368304,0.585519,0.34315395,-0.58847404,-0.29929432,0.28745908,-0.021821529,1.0184066,-0.26421824
-0.1,-0.1,1.4999999999999998,0.0,-0.5235987755982988,0,-0.2611074,-1.5477908,0.8968329,-0.3216162,0.14028737,1.0592846,0.32247064,0.34203863,-0.5843958,-0.30296695,0.25145093,-0.037552312,1.137502,0.083764516
-0.1,-0.1,1.4999999999999998,0.0,-0.5235987755982988,0,-0.26205882,-1.5501454,0.90493715,-0.3177461,0.20544924,1.1654528,0.72368866,0.3403338,-0.58590764,-0.2995018,0.28515744,9.691979e-05,0.9661747,-0.53438544
-0.1,-0.1,1.4999999999999998,0.0,-0.5235987755982988,0,-0.26067364,-1.549558,0.9038568,-0.31582227,0.25396413,1.0641509,-0.3314352,0.34219545,-0.585458,-0.30228683,0.2664211,-0.035893854,0.92097145,0.15712605
-0.1,-0.1,1.4999999999999998,0.0,-0.5235987755982988,0,-0.26205423,-1.5498776,0.8950062,-0.31573203,0.12374836,1.1519493,-0.6092826,0.34521016,-0.58729684,-0.30242035,0.26458764,-0.094039194,1.176448,0.74573874
-0.1,-0.1,1.4999999999999998,0.0,-0.5235987755982988,0,-0.26197013,-1.5514643,0.8963206,-0.31512263,-0.019720266,1.0978863,0.045480005,0.34008017,-0.5852813,-0.2977053,0.2761513,-0.08712621,0.96078944,-0.46758217
-0.1,-0.1,1.4999999999999998,0.0,-0.5235987755982988,0,-0.26154724,-1.5492779,0.8965199,-0.31811482,0.14768946,1.168078,0.53975314,0.34267664,-0.58602333,-0.29955015,0.2870562,-0.1067217,1.0625268,0.7806906
-0.1,-0.1,1.4999999999999998,0.0,-0.5235987755982988,0,-0.26066074,-1.5482368,0.90512717,-0.31757823,0.102057286,1.0691785,-0.61912197,0.3409322,-0.5853437,-0.2923835,0.25378594,-0.0329617,0.8924811,1.0895176
-0.1,-0.1,1.4999999999999998,0.0,-0.5235987755982988,0,-0.26095638,-1.5485578,0.90702176,-0.31458038,0.11041187,1.0766575,-0.028764505,0.33794266,-0.58686,-0.29841954,0.2470476,-0.24370944,1.1491728,-0.108559296
-0.1,-0.1,1.4999999999999998,0.0,-0.5235987755982988,0,-0.26001263,-1.5482076,0.91522723,-0.31576896,0.10121147,1.1125844,0.70423764,0.34058967,-0.58530414,-0.29989874,0.269519,-0.17053638,0.9437868,-0.6376356
-0.1,-0.1,1.4999999999999998,0.0,-0.5235987755982988,0,-0.26044995,-1.5494355,0.9003147,-0.31368405,0.15409286,1.0856533,0.8575632,0.34024483,-0.58664125,-0.30793148,0.2788965,-0.13914822,1.0150012,-0.087976605
-0.1,-0.1,1.4999999999999998,0.0,-0.5235987755982988,0,-0.26032537,-1.5474734,0.8935621,-0.31569415,0.18305571,0.997117,-0.26673836,0.3365134,-0.5851593,-0.30297694,0.2503621,-0.099635676,0.9476739,0.26704738
-0.1,-0.1,1.4999999999999998,0.0,-0.5235987755982988,0,-0.26061818,-1.5509592,0.90269387,-0.3153708,-0.02580824,1.0722377,-0.3980794,0.3375479,-0.5856804,-0.2841135,0.2835113,-0.19684099,1.0028164,-1.1533453
-0.1,-0.1,1.4999999999999998,0.0,-0.5235987755982988,0,-0.26090044,-1.5496935,0.9088679,-0.31449258,0.08087234,1.0055532,-0.4291772,0.33876276,-0.58695304,-0.2977929,0.26527658,-0.14238799,1.0817705,1.0746531
-0.1,-0.1,1.4999999999999998,0.0,-0.5235987755982988,0,-0.26210278,-1.5501435,0.905239,-0.31586984,-0.06763784,1.2206831,0.15343559,0.33885744,-0.58419204,-0.29760092,0.2643245,-0.028211582,0.892295,-0.329715
-0.1,-0.1,1.4999999999999998,0.0,-0.5235987755982988,0,-0.26146936,-1.550333,0.8937705,-0.31296253,-0.0571819,1.1645106,-0.6570872,0.34096,-0.5870698,-0.29589188,0.26977083,-0.19574864,1.1695398,0.33182496
-0.1,-0.1,1.4999999999999998,0.0,-0.5235987755982988,0,-0.26263145,-1.5511781,0.9017442,-0.31511852,-0.047609612,1.1534927,-0.3243801,0.3392455,-0.5872422,-0.29196203,0.26447994,-0.18937406,0.98177797,-0.16664189
-0.1,-0.1,1.4999999999999998,0.0,-0.5235987755982988,0,-0.26225477,-1.5504037,0.89215446,-0.31461084,0.20318356,1.0649321,0.06382492,0.33732852,-0.58465075,-0.30399007,0.25713116,0.12357965,1.1558132,-0.4496926
-0.1,-0.1,1.4999999999999998,0.0,-0.5235987755982988,0,-0.25987184,-1.548757,0.8980561,-0.31287768,0.14861938,1.1081583,0.25300056,0.3380475,-0.58675086,-0.28457516,0.27985913,-0.055613045,1.0482148,-0.19956262
-0.1,-0.1,1.4999999999999998,0.0,-0.5235987755982988,0,-0.26190445,-1.5502796,0.9038122,-0.31618902,0.17086259,1.0889765,0.90686697,0.33965927,-0.58520025,-0.307596,0.24770938,-0.037303083,1.1311449,-0.045156345
-0.1,-0.1,1.4999999999999998,0.0,-0.5235987755982988,0,-0.26146996,-1.5498996,0.9049837,-0.3181595,0.15665217,1.1496851,-0.8216438,0.34078488,-0.5872469,-0.30441764,0.26995352,0.02250979,1.0883794,0.2689348
-0.1,-0.1,1.4999999999999998,0.0,-0.5235987755982988,0,-0.2615706,-1.5498976,0.90186924,-0.31654966,0.28406268,1.1318065,1.0563086,0.34069392,-0.5867746,-0.29864717,0.25035936,-0.31365293,1.0367297,0.08712163
-0.1,-0.1,1.4999999999999998,0.0,-0.5235987755982988,0,-0.2597258,-1.5496184,0.90161365,-0.3153733,0.26136187,1.0778184,-0.67827934,0.34056607,-0.5867462,-0.29142705,0.28063232,-0.103927664,1.1525612,-1.3103663
-0.1,-0.1,1.4999999999999998,0.0,-0.5235987755982988,0,-0.26061153,-1.5524573,0.8909187,-0.31558833,-0.11652357,1.129603,1.2282169,0.34280658,-0.58347726,-0.3023875,0.24967009,-0.15951927,1.070423,0.31512797
-0.1,-0.1,1.4999999999999998,0.0,-0.5235987755982988,0,-0.2630735,-1.5503839,0.8991471,-0.31614655,0.089889325,1.1428798,0.26043245,0.34140155,-0.58545905,-0.3116827,0.270616,-0.16938858,1.1230553,-0.5122198
-0.1,-0.1,1.4999999999999998,0.0,-0.5235987755982988,0,-0.26138696,-1.5497633,0.8823449,-0.3134231,0.14437467,1.1397007,-0.2099838,0.34030908,-0.58557695,-0.30293244,0.26372236,-0.015501968,0.98263085,0.1580063
-0.1,-0.1,1.4999999999999998,0.0,-0.5235987755982988,0,-0.26209062,-1.550897,0.89865714,-0.3130008,-0.022280116,1.0959713,0.5113694,0.3398403,-0.58672714,-0.3092651,0.26168337,-0.20489846,1.1921555,0.9256342
-0.1,-0.1,1.4999999999999998,0.0,-0.5235987755982988,0,-0.26285243,-1.5492195,0.8965515,-0.3152744,-0.03790413,1.1111325,-0.7716642,0.34151775,-0.58871824,-0.30093074,0.28952962,-0.038346563,1.1238487,1.5963581
-0.1,-0.1,1.4999999999999998,0.0,-0.5235987755982988,0,-0.2618065,-1.5501631,0.9018462,-0.31547838,-0.010209908,1.0505389,-0.40832797,0.3405419,-0.58692443,-0.3010146,0.25622594,-0.25179997,1.1150504,0.22088131
-0.1,-0.1,1.4999999999999998,0.0,-0.5235987755982988,0,-0.26240316,-1.5501597,0.89042604,-0.31622905,-0.06706505,1.1681641,0.2081644,0.3384156,-0.58666354,-0.30024156,0.24726485,0.013317854,1.0947413,0.72406435
-0.1,-0.1,1.4999999999999998,0.0,-0.5235987755982988,0,-0.2606423,-1.5485669,0.8908542,-0.3154874,0.18755741,1.1226097,0.5823911,0.33967113,-0.58664846,-0.29303724,0.2458453,-0.16724785,1.1392093,0.04471226
-0.1,-0.1,1.4999999999999998,0.0,-0.5235987755982988,0,-0.25992668,-1.5494065,0.8921601,-0.31579438,0.03136557,1.075676,0.48192194,0.3371843,-0.5856616,-0.2925068,0.2800119,-0.07648042,1.091481,0.35499716
-0.1,-0.1,1.4999999999999998,0.0,-0.5235987755982988,0,-0.25786194,-1.5477077,0.90425324,-0.31098458,0.37091544,1.107221,0.56194824,0.33830723,-0.5881875,-0.29887185,0.26880988,-0.15213023,1.1314793,0.75451565
-0.1,-0.1,1.4999999999999998,0.0,-0.5235987755982988,0,-0.260169,-1.5486158,0.8992841,-0.3182078,0.07180408,1.0543957,-1.4435822,0.3425346,-0.58699906,-0.29567233,0.26580524,-0.037450258,0.97570544,-0.1727254
-0.1,-0.1,1.4999999999999998,0.0,-0.5235987755982988,0,-0.2601484,-1.5497037,0.89036417,-0.3150383,0.10245103,1.1889478,-0.50035477,0.3442309,-0.58669555,-0.2903772,0.2658218,-0.089474596,1.089477,-0.78994656
-0.1,-0.1,1.4999999999999998,0.0,-0.5235987755982988,0,-0.25940818,-1.5509608,0.8876454,-0.31590742,0.027238136,1.1620204,-1.4462577,0.34320256,-0.58662117,-0.30089995,0.251301,-0.083115414,1.1657015,0.2654053
-0.1,-0.1,1.4999999999999998,0.0,-0.5235987755982988,0,-0.2604296,-1.5501589,0.9063709,-0.3182272,0.07058362,1.155324,0.6041956,0.34186602,-0.58652216,-0.30399534,0.2788448,-0.10919862,1.0608457,-0.26068032
-0.1,-0.1,1.4999999999999998,0.0,-0.5235987755982988,0,-0.26174402,-1.5497961,0.8970303,-0.3168203,-0.014602223,1.0784754,-0.1775161,0.33948326,-0.58617777,-0.3084201,0.2718152,-0.15337811,1.0908786,1.2571814
-0.1,-0.1,1.4999999999999998,0.0,-0.5235987755982988,0,-0.26084185,-1.5500371,0.87980855,-0.31683594,0.123019725,1.1234851,-0.0333574,0.34007066,-0.58548945,-0.29755378,0.24145553,-0.09332111,1.0272764,0.077833876
-0.1,-0.1,1.4999999999999998,0.0,-0.5235987755982988,0,-0.26009038,-1.5490246,0.89568686,-0.31548187,0.08886112,1.153385,-0.067395926,0.34189996,-0.58654445,-0.30539307,0.26353976,-0.08095151,0.96039206,0.45092183
-0.1,-0.1,1.4999999999999998,0.0,-0.5235987755982988,0,-0.26202002,-1.5501652,0.90202504,-0.3160637,0.23734646,1.1388385,-1.8080742,0.33691856,-0.5882182,-0.30256099,0.29174623,-0.010571709,1.1013405,-0.1283883
-0.1,-0.1,1.4999999999999998,0.0,-0.5235987755982988,0,-0.25920314,-1.5488768,0.9025972,-0.31526685,0.087423824,1.1421622,0.24211298,0.33389148,-0.5853472,-0.3095255,0.25889748,-0.15955983,0.9603335,-0.055914063
-0.1,-0.1,1.4999999999999998,0.0,-0.5235987755982988,0,-0.2615122,-1.5498036,0.90334916,-0.31361768,0.20165592,1.1394106,0.4231883,0.33721185,-0.58700067,-0.31460893,0.25781265,-0.19884014,0.9579241,0.7794437
-0.1,-0.1,1.4999999999999998,0.0,-0.5235987755982988,0,-0.2607175,-1.5494068,0.8898164,-0.31742966,0.06999972,1.1032172,1.9801185,0.33986458,-0.584838,-0.3002203,0.27134165,-0.09232997,0.99498355,1.0476228
-0.1,-0.1,1.4999999999999998,0.0,-0.5235987755982988,0,-0.26207787,-1.5509024,0.8770924,-0.31485134,0.08351835,1.1321104,0.17043778,0.33964485,-0.58610636,-0.2974427,0.2615473,-0.14468406,1.1283361,0.1273108
-0.1,-0.1,1.4999999999999998,0.0,-0.5235987755982988,0,-0.25997505,-1.5500706,0.9006618,-0.31881052,-0.002828413,1.2212673,0.06711076,0.3441286,-0.5871575,-0.29349864,0.23710197,-0.17479247,1.0309856,-0.4186382
-0.1,-0.1,1.4999999999999998,0.0,-0.5235987755982988,0,-0.26181203,-1.549833,0.8986263,-0.3172662,0.17915583,1.1349365,-0.13580444,0.3365309,-0.58558726,-0.29868534,0.25084218,-0.16539206,1.1214802,-1.076513
-0.1,-0.1,1.4999999999999998,0.0,-0.5235987755982988,0,-0.25813535,-1.5488123,0.9132254,-0.32042268,-0.05750541,1.1108909,-0.35880247,0.34412077,-0.58647627,-0.30287454,0.28164056,-0.10489799,0.97867537,0.12384336
-0.1,-0.1,1.4999999999999998,0.0,-0.5235987755982988,0,-0.2624515,-1.549732,0.89134556,-0.31697863,0.051284377,1.1545703,0.9368226,0.3409168,-0.5872278,-0.3059179,0.26516527,-0.2083456,1.1809411,0.107229024
-0.1,-0.1,1.4999999999999998,0.0,-0.5235987755982988,0,-0.25981072,-1.5512708,0.90151304,-0.31281045,0.027620148,1.2089467,-0.06414173,0.33908454,-0.58551854,-0.31249803,0.27015078,0.08822957,0.87283003,-0.38964766
-0.1,-0.1,1.4999999999999998,0.0,-0.5235987755982988,0,-0.26065314,-1.5499803,0.8904543,-0.31483427,0.21330804,1.0873624,0.87681216,0.34190103,-0.586526,-0.29814994,0.26209813,-0.1462107,1.1116028,0.29012343
-0.1,-0.1,1.4999999999999998,0.0,-0.5235987755982988,0,-0.26017034,-1.5510731,0.9012204,-0.31108007,0.021165205,1.1217012,0.042439044,0.34091306,-0.58754545,-0.30396852,0.28157791,-0.082905084,1.107578,-0.83263254
-0.1,-0.1,1.4999999999999998,0.0,-0.5235987755982988,0,-0.25899458,-1.5486482,0.9053351,-0.31931707,0.05458484,1.1452634,0.4257454,0.3422805,-0.5882118,-0.2955413,0.27581245,-0.029428897,0.93083996,0.11061628
-0.1,-0.1,1.4999999999999998,0.0,-0.5235987755982988,0,-0.2592517,-1.5482545,0.8809378,-0.31468678,0.2777712,1.0731759,0.13002728,0.34295422,-0.5868272,-0.30390912,0.28383338,-0.1811753,0.8852912,-1.4200792
-0.1,-0.1,1.4999999999999998,0.0,-0.5235987755982988,0,-0.26103824,-1.5499154,0.89272606,-0.31821334,0.03178293,1.1020615,-0.37461755,0.33984646,-0.5872383,-0.29728708,0.25487226,-0.13579577,1.0101578,-0.7421497
-0.1,-0.1,1.4999999999999998,0.0,-0.5235987755982988,0,-0.2617583,-1.5513822,0.89983857,-0.31297374,0.015996175,1.1523141,-0.53954685,0.33907944,-0.587102,-0.30510366,0.25463906,0.0011094814,1.0265098,0.43527576
-0.1,-0.1,1.4999999999999998,0.0,-0.5235987755982988,0,-0.26019278,-1.5495248,0.8942956,-0.3169625,0.34435087,1.0614728,0.83954686,0.33948818,-0.5871657,-0.3069087,0.2702523,-0.12054517,0.90362966,0.33358896
-0.1,-0.1,1.4999999999999998,0.0,-0.5235987755982988,0,-0.2608957,-1.5490355,0.89861774,-0.32040906,0.18369381,1.1480638,0.3535046,0.34015313,-0.58713853,-0.29101357,0.2983931,-0.13514915,1.1631347,1.1896452
-0.1,-0.1,1.4999999999999998,0.0,-0.5235987755982988,0,-0.26134104,-1.5509665,0.8969979,-0.31624106,0.16112024,1.2140467,0.014344429,0.3400427,-0.5869605,-0.29830983,0.28486916,-0.18491682,1.1047568,0.40904608
-0.1,-0.1,1.4999999999999998,0.0,-0.5235987755982988,0,-0.26028463,-1.5510873,0.8957137,-0.3160176,0.2197761,1.059624,0.2607145,0.33915314,-0.58688647,-0.29665333,0.26587734,-0.18731615,1.0752985,-0.6978389
-0.1,-0.1,1.4999999999999998,0.0,-0.5235987755982988,0,-0.2591919,-1.5501311,0.8836453,-0.31504157,-0.09674807,1.0565943,-0.4337154,0.34277573,-0.5852039,-0.30813333,0.27308974,-0.1299203,1.0945746,-0.5059464
-0.1,-0.1,1.4999999999999998,0.0,-0.5235987755982988,0,-0.25828508,-1.5503707,0.8928883,-0.31420535,0.17042693,1.1091827,1.1389983,0.3397938,-0.58589745,-0.30124748,0.2441584,-0.08530694,1.1107695,-0.2970337
-0.1,-0.1,1.4999999999999998,0.0,-0.5235987755982988,0,-0.26059872,-1.549675,0.90426385,-0.31768548,-0.021500109,1.1667746,1.1262242,0.33635825,-0.5869528,-0.30116028,0.28328678,-0.14150125,1.0853517,-0.30591807
-0.1,-0.1,1.4999999999999998,0.0,-0.5235987755982988,0,-0.26019645,-1.5493395,0.8819814,-0.3166003,0.11339568,1.1359007,0.2747256,0.34050146,-0.58833086,-0.29362947,0.25699654,0.10032559,0.9891451,-1.4555221
-0.1,-0.1,1.4999999999999998,0.0,-0.5235987755982988,0,-0.25887263,-1.5485015,0.90450805,-0.31787685,0.055808615,1.0629427,0.3217802,0.3401916,-0.58731604,-0.30146208,0.25851494,-0.004192742,1.0774628,-0.027617665
-0.1,-0.1,1.4999999999999998,0.0,-0.5235987755982988,0,-0.26009703,-1.5501289,0.88330394,-0.31106114,0.21144053,1.2573943,0.07483933,0.3410827,-0.5873389,-0.30232522,0.2668508,-0.09928244,1.0351136,-1.0162393
-0.1,-0.1,1.4999999999999998,0.0,-0.5235987755982988,0,-0.26086032,-1.5511894,0.89324117,-0.31647894,0.18293278,1.0435061,-0.4132411,0.34070122,-0.5865134,-0.30284578,0.25332358,-0.060998164,0.96304727,-0.49163187
-0.1,-0.1,1.4999999999999998,0.0,-0.5235987755982988,0,-0.25978512,-1.5511054,0.8999307,-0.31515417,0.14802963,1.1796507,-0.2093799,0.33968452,-0.58851624,-0.29591563,0.27148968,-0.016952364,1.1680146,1.596397
-0.1,-0.1,1.4999999999999998,0.0,-0.5235987755982988,0,-0.26028863,-1.5492649,0.8813686,-0.3147277,-0.15862608,1.1086301,0.15592104,0.34094694,-0.587537,-0.30650136,0.27072668,-0.19852377,0.86235714,0.6011111
-0.1,-0.1,1.4999999999999998,0.0,-0.5235987755982988,0,-0.26027292,-1.5509552,0.8913934,-0.31482896,-0.015816769,1.1600955,0.24579293,0.34323096,-0.58827424,-0.29835096,0.28381336,-0.093374155,1.0824903,0.84397733
-0.1,-0.1,1.4999999999999998,0.0,-0.5235987755982988,0,-0.2600613,-1.5506136,0.88732797,-0.31397936,0.27907884,1.0865726,-0.55677474,0.3420224,-0.5864209,-0.2987258,0.28122225,0.12282438,1.0200496,1.5432175
-0.1,-0.1,1.4999999999999998,0.0,-0.5235987755982988,0,-0.2610473,-1.5493978,0.90456647,-0.31823093,0.12108433,1.1885732,0.6441485,0.34227312,-0.5882113,-0.3089923,0.27973235,-0.1540459,0.9821786,1.4724051
-0.1,-0.1,1.4999999999999998,0.0,-0.5235987755982988,0,-0.26085776,-1.5487288,0.8874748,-0.31644353,0.26766342,1.1255255,-0.087754324,0.3370887,-0.58694816,-0.3032531,0.28582713,-0.036135793,1.0542439,-1.0755609
-0.1,-0.1,1.4999999999999998,0.0,-0.5235987755982988,0,-0.26066253,-1.5506147,0.8905122,-0.31937107,0.074804805,1.193714,0.88953686,0.33819506,-0.5840908,-0.30846494,0.27312875,-0.06958704,1.1899233,-0.1353971
-0.1,-0.1,1.4999999999999998,0.0,-0.5235987755982988,0,-0.26087466,-1.5504556,0.8993144,-0.31574562,0.124096006,1.1573972,1.5306594,0.34046477,-0.58869034,-0.29555276,0.2681852,-0.20142245,0.96171075,-0.071480714
-0.1,-0.1,1.4999999999999998,0.0,-0.5235987755982988,0,-0.2612581,-1.549557,0.8896254,-0.31705928,0.40818414,1.1814796,-0.6731945,0.33850425,-0.58682424,-0.297779,0.26791146,0.07273074,1.0556182,-1.0465119
-0.1,-0.1,1.4999999999999998,0.0,-0.5235987755982988,0,-0.2610149,-1.5512093,0.8867122,-0.31662932,0.04922042,1.1410049,0.08045735,0.3420799,-0.58617634,-0.29777926,0.24965905,-0.16148823,0.99478793,1.149102
-0.1,-0.1,1.4999999999999998,0.0,-0.5235987755982988,0,-0.26062852,-1.5496278,0.9033659,-0.31830728,-0.009807129,1.1787618,0.13952987,0.3353766,-0.5865479,-0.3022361,0.28409302,-0.28035885,1.1301416,0.8141084
-0.1,-0.1,1.4999999999999998,0.0,-0.5235987755982988,0,-0.258158,-1.5509754,0.898333,-0.3126625,0.21215907,1.1836315,0.62101156,0.34206992,-0.5877715,-0.2955601,0.2555359,-0.029628115,1.0350655,0.09119127
-0.1,-0.1,1.4999999999999998,0.0,-0.5235987755982988,0,-0.26196116,-1.5496528,0.8967894,-0.3182507,0.022523662,1.2331725,-0.20541696,0.33362204,-0.5875369,-0.29334316,0.27300587,-0.23479737,1.1533009,0.3133464
-0.1,-0.1,1.4999999999999998,0.0,-0.5235987755982988,0,-0.2601172,-1.5512061,0.8997196,-0.31490335,0.21195358,1.1147076,0.030909808,0.3396923,-0.58815974,-0.29604125,0.25803968,-0.057630673,1.0413452,0.16228116
-0.1,-0.1,1.4999999999999998,0.0,-0.5235987755982988,0,-0.2613,-1.5510288,0.8962176,-0.3153049,0.08481858,1.1967199,0.6233122,0.34103692,-0.58729494,-0.31050608,0.29752553,-0.17188859,1.0171044,-0.40495187
-0.1,-0.1,1.4999999999999998,0.0,-0.5235987755982988,0,-0.25940615,-1.5489166,0.8948138,-0.3156012,0.07106373,1.1373533,0.68760973,0.33738023,-0.58691037,-0.30322656,0.26347312,-0.1384307,1.0239531,-0.38146847
-0.1,-0.1,1.4999999999999998,0.0,-0.5235987755982988,0,-0.26004696,-1.5509425,0.8891432,-0.31411177,-0.14319922,1.1756177,0.3186619,0.33724788,-0.5864128,-0.2929732,0.27423474,-0.013606509,1.0619853,0.25386938
-0.1,-0.1,1.4999999999999998,0.0,-0.5235987755982988,0,-0.2608753,-1.5505135,0.8967291,-0.31466275,0.3105324,1.2110801,0.17965138,0.3391103,-0.58788663,-0.30358934,0.27822632,-0.09861768,0.89971966,0.6427865
-0.1,-0.1,1.4999999999999998,0.0,-0.5235987755982988,0,-0.2609314,-1.5503393,0.8938278,-0.31510198,0.20075163,1.1234808,0.43342462,0.3369648,-0.58720195,-0.3040804,0.26548272,-0.20336078,0.9979225,-0.5619943
-0.1,-0.1,1.4999999999999998,0.0,-0.5235987755982988,0,-0.26145428,-1.5500894,0.8776513,-0.32019493,0.13312837,1.1305922,0.1215054,0.34068385,-0.58745396,-0.29513717,0.28279352,-0.08099806,1.0296992,0.02709159
-0.1,-0.1,1.4999999999999998,0.0,-0.5235987755982988,0,-0.2598898,-1.5497171,0.89615047,-0.31895125,0.19535786,1.1310457,-0.8741875,0.34358448,-0.5869822,-0.3012759,0.27816123,-0.19282836,1.1194869,-0.87176186
-0.1,-0.1,1.4999999999999998,0.0,-0.5235987755982988,0,-0.26001552,-1.5510244,0.8882485,-0.31658053,0.1525263,1.1552763,0.35813415,0.34107685,-0.5872307,-0.3038814,0.26647398,0.066514105,1.0043015,1.7308614
-0.1,-0.1,1.4999999999999998,0.0,-0.5235987755982988,0,-0.26170942,-1.5530558,0.8877111,-0.31490344,-0.04431563,1.2118994,0.886351,0.33843666,-0.58775693,-0.29258746,0.2591711,-0.07045205,1.0528159,-0.96019584
-0.1,-0.1,1.4999999999999998,0.0,-0.5235987755982988,0,-0.25904888,-1.5505831,0.8890116,-0.3132888,0.086219825,1.1536648,0.69156694,0.337526,-0.5874734,-0.30217767,0.25894067,-0.07753952,1.0833557,0.48485813
-0.1,-0.1,1.4999999999999998,0.0,-0.5235987755982988,0,-0.26019505,-1.551014,0.8885591,-0.3184723,0.11082266,1.1114769,0.48434472,0.34240475,-0.5882524,-0.29538584,0.25401828,-0.2498476,1.0119278,0.47658068
-0.1,-0.1,1.4999999999999998,0.0,-0.5235987755982988,0,-0.26035407,-1.5508726,0.90500444,-0.31463137,0.16566795,1.0983801,0.28365657,0.34129244,-0.5884658,-0.30593166,0.27746668,0.030543536,0.98808485,-0.37393484
-0.1,-0.1,1.4999999999999998,0.0,-0.5235987755982988,0,-0.2603102,-1.5489037,0.90576625,-0.3163964,0.09790368,0.9983098,0.021991555,0.33939072,-0.5879098,-0.3016365,0.23893553,-0.0051207026,0.9472542,-0.29757434
-0.1,-0.1,1.4999999999999998,0.0,-0.5235987755982988,0,-0.2617685,-1.5491627,0.8888782,-0.31579977,0.10015445,1.1688752,-0.5384122,0.33721307,-0.5861967,-0.31757253,0.27245882,-0.05457154,1.0729749,0.050246235
-0.1,-0.1,1.4999999999999998,0.0,-0.5235987755982988,0,-0.25874662,-1.5502298,0.89239144,-0.3180496,0.06424229,1.1012255,0.5163762,0.34230426,-0.58676577,-0.29315355,0.26511672,0.0074540195,0.86480224,0.08032288
-0.1,-0.1,1.4999999999999998,0.0,-0.5235987755982988,0,-0.26086995,-1.5493124,0.8851987,-0.31405544,0.18576017,1.1264437,-0.03482389,0.33671606,-0.5886273,-0.3026843,0.25674796,-0.22676499,0.92342097,-0.8396036
-0.1,-0.1,1.4999999999999998,0.0,-0.5235987755982988,0,-0.2615829,-1.5504998,0.90103227,-0.31828183,0.109174445,1.1481359,0.48775804,0.33844584,-0.5885437,-0.31004795,0.26738876,-0.21432783,1.0901004,0.9511869
-0.1,-0.1,1.4999999999999998,0.0,-0.5235987755982988,0,-0.26038146,-1.5465436,0.90373385,-0.31611383,0.22371757,1.100008,0.6379015,0.34163088,-0.5861772,-0.3049152,0.27349642,-0.07380443,0.9706879,1.0760971
-0.1,-0.1,1.4999999999999998,0.0,-0.5235987755982988,0,-0.26100934,-1.5500789,0.905227,-0.31630516,0.13951139,1.0916017,0.10645545,0.34309372,-0.58714956,-0.3082318,0.25984475,-0.1427982,0.83448285,-0.91544926
-0.1,-0.1,1.4999999999999998,0.0,-0.5235987755982988,0,-0.26220903,-1.5480345,0.89798707,-0.3172504,0.17027628,1.1772016,1.415116,0.33746943,-0.58528626,-0.30677918,0.2723464,-0.069690816,0.8978256,0.00057908084
-0.1,-0.1,1.4999999999999998,0.0,-0.5235987755982988,0,-0.26193374,-1.5503733,0.89421475,-0.31540656,0.119796045,1.1312883,-0.14408965,0.3400613,-0.5845254,-0.30453524,0.253951,0.05476335,1.0366669,2.1639028
-0.1,-0.1,1.4999999999999998,0.0,-0.5235987755982988,0,-0.26131257,-1.5495375,0.90888494,-0.31825233,0.1609719,1.1436963,-0.37387624,0.34221086,-0.58557296,-0.2933637,0.2622864,-0.14770983,0.9475738,0.63736093
-0.1,-0.1,1.4999999999999998,0.0,-0.5235987755982988,0,-0.26176476,-1.5494802,0.9041997,-0.31467474,0.15653646,1.126067,-0.29113665,0.34135017,-0.586308,-0.3048949,0.26488227,0.07311577,1.1199023,1.1574856
-0.1,-0.1,1.4999999999999998,0.0,-0.5235987755982988,0,-0.26038024,-1.5510243,0.9035334,-0.3131541,0.26995802,1.1164665,0.7888927,0.34203187,-0.5852243,-0.30142185,0.24937709,-0.102221146,0.93999654,-0.6759556
-0.1,-0.1,1.4999999999999998,0.0,-0.5235987755982988,0,-0.26079616,-1.5484107,0.89893454,-0.31547087,0.13719893,1.1349672,1.3062186,0.33908558,-0.5860806,-0.29815078,0.27458185,-0.11311083,1.0367814,-1.1093811
-0.1,-0.1,1.4999999999999998,0.0,-0.5235987755982988,0,-0.26222828,-1.5484576,0.8965803,-0.31369084,0.18915616,1.0951613,0.7799609,0.3420768,-0.58777046,-0.30830383,0.2767275,-0.104489505,1.148108,0.32728758
-0.1,-0.1,1.4999999999999998,0.0,-0.5235987755982988,0,-0.26052135,-1.5490009,0.9093115,-0.31569675,-0.007885336,1.0311034,-1.0421858,0.33786845,-0.586913,-0.3032815,0.28743643,-0.13312337,1.0835859,-0.4734518
-0.1,-0.1,1.4999999999999998,0.0,-0.5235987755982988,0,-0.2605918,-1.5485262,0.90381956,-0.31490186,0.01899618,1.0940217,0.5801048,0.3370922,-0.58806336,-0.30021298,0.28115362,-0.053164143,0.95214725,0.84457105
-0.1,-0.1,1.4999999999999998,0.0,-0.5235987755982988,0,-0.26117292,-1.5514268,0.89289355,-0.3130935,0.01446455,1.130077,-0.8387569,0.3410319,-0.5855962,-0.30734357,0.2747248,-0.053325884,0.9611986,-0.4454665
-0.1,-0.1,1.4999999999999998,0.0,-0.5235987755982988,0,-0.26122892,-1.5494558,0.89671916,-0.3178296,0.17268234,1.0703657,0.5597926,0.3386591,-0.5847109,-0.3044738,0.2767088,-0.045705672,1.1830101,-0.12390718
-0.1,-0.1,1.4999999999999998,0.0,-0.5235987755982988,0,-0.26140577,-1.5504057,0.8983134,-0.3147421,0.14521645,1.1456529,0.470588,0.34050414,-0.58555925,-0.30490282,0.28410244,-0.18819316,1.0185207,-0.1368984
-0.1,-0.1,1.4999999999999998,0.0,-0.5235987755982988,0,-0.2607165,-1.5505874,0.8927537,-0.3154483,-0.031927995,1.2651371,-0.63862455,0.34470493,-0.5872594,-0.29704592,0.2494698,-0.0652341,1.0180526,1.8694026
-0.1,-0.1,1.4999999999999998,0.0,-0.5235987755982988,0,-0.26029286,-1.5501136,0.8990646,-0.31425175,0.12405366,1.1584525,0.9667733,0.33998123,-0.58553034,-0.2958864,0.26082432,-0.2830837,1.1566021,0.38152987
-0.1,-0.1,1.4999999999999998,0.0,-0.5235987755982988,0,-0.26038975,-1.5501239,0.9010124,-0.31656274,-0.064504705,1.0332267,0.089487165,0.3427626,-0.58811504,-0.30611047,0.25160292,-0.1416228,0.9132498,1.5509149
-0.1,-0.1,1.4999999999999998,0.0,-0.5235987755982988,0,-0.2616344,-1.5513371,0.89121187,-0.31249228,0.0956064,1.1249943,-1.2898815,0.33910137,-0.5871491,-0.29568222,0.2586422,-0.106687814,1.010617,-0.1251317
-0.1,-0.1,1.4999999999999998,0.0,-0.5235987755982988,0,-0.26096585,-1.5499755,0.8914627,-0.31843832,0.16793174,1.1616638,1.6218978,0.3369879,-0.5849337,-0.30463648,0.30130342,-0.30361837,1.0709624,-0.43391353
-0.1,-0.1,1.4999999999999998,0.0,-0.5235987755982988,0,-0.2616357,-1.5498495,0.9005476,-0.31794974,-0.061951704,1.1554127,0.8719058,0.33809105,-0.58579934,-0.3049283,0.29333118,0.020094974,1.0283858,-1.0830063
-0.1,-0.1,1.4999999999999998,0.0,-0.5235987755982988,0,-0.26123875,-1.5497639,0.89150035,-0.31506622,0.10147036,1.1570516,-0.039753646,0.33811912,-0.5877793,-0.29744756,0.29105818,-0.06903657,1.1148801,-0.02746763
-0.1,-0.1,1.4999999999999998,0.0,-0.5235987755982988,0,-0.2599362,-1.5502776,0.89137477,-0.31373858,0.06725015,1.2347412,0.059004195,0.34182164,-0.5864096,-0.30306044,0.27815434,-0.2634862,1.063194,-0.2653609
-0.1,-0.1,1.4999999999999998,0.0,-0.5235987755982988,0,-0.2604337,-1.5488412,0.89977723,-0.3171992,-0.013148178,1.1921657,0.11138383,0.33955967,-0.5871693,-0.30288592,0.26386926,-0.2882991,1.1418084,0.5374065
-0.1,-0.1,1.4999999999999998,0.0,-0.5235987755982988,0,-0.25948542,-1.5492747,0.8981621,-0.31597868,0.25260654,1.1769456,-0.37951684,0.33766216,-0.58568287,-0.30243352,0.27916408,-0.19812453,1.017265,-1.6118462
-0.1,-0.1,1.4999999999999998,0.0,-0.5235987755982988,0,-0.26139066,-1.5516989,0.89720416,-0.31767023,0.13275993,1.0461032,1.4384636,0.33935222,-0.58613414,-0.29905227,0.3031777,-0.09097226,1.0597899,0.069390595
-0.1,-0.1,1.4999999999999998,0.0,-0.5235987755982988,0,-0.26060542,-1.548701,0.8955296,-0.3170013,0.07859729,1.1137637,0.207549,0.33830565,-0.5864826,-0.3025814,0.2645061,-0.0070861285,1.3019232,0.3655153
-0.1,-0.1,1.4999999999999998,0.0,-0.5235987755982988,0,-0.25967953,-1.5506122,0.9012103,-0.31570578,0.07387277,1.1272533,-0.41020387,0.34040383,-0.5873829,-0.29812065,0.27266672,-0.11520542,1.010938,-0.1718371
-0.1,-0.1,1.4999999999999998,0.0,-0.5235987755982988,0,-0.26083693,-1.550407,0.8956528,-0.31345615,0.22752248,1.205596,-0.2523384,0.34399393,-0.58784664,-0.30312565,0.25587928,-0.062460076,1.0889157,0.61458325
-0.1,-0.1,1.4999999999999998,0.0,-0.5235987755982988,0,-0.26209787,-1.5498323,0.8898838,-0.3174023,0.25744298,1.1282926,1.0165852,0.34154835,-0.5878031,-0.29967436,0.254115,-0.14382736,1.1873803,0.5057264
-0.1,-0.1,1.4999999999999998,0.0,-0.5235987755982988,0,-0.26237687,-1.5510088,0.89168924,-0.31731272,0.2911764,1.0475963,-0.6613722,0.337152,-0.5867694,-0.29603726,0.27379322,-0.030173764,1.0558418,-0.17167035
-0.1,-0.1,1.4999999999999998,0.0,-0.5235987755982988,0,-0.26122925,-1.5504078,0.8906975,-0.3167372,-0.014041466,1.142048,1.1600392,0.33692974,-0.5872209,-0.29083663,0.24597691,-0.13940856,1.003308,0.536027
-0.1,-0.1,1.4999999999999998,0.0,-0.5235987755982988,0,-0.26219246,-1.5502753,0.9059216,-0.31352702,0.040063135,1.1356632,0.6276354,0.3377386,-0.58923453,-0.30266666,0.2612424,-0.18366338,1.0926181,0.22051665
-0.1,-0.1,1.4999999999999998,0.0,-0.5235987755982988,0,-0.25953513,-1.5504285,0.9054338,-0.31723517,0.09884845,1.1283848,-0.23431799,0.34208572,-0.5870797,-0.30777442,0.24410665,-0.052048463,1.2254139,1.224611
-0.1,-0.1,1.4999999999999998,0.0,-0.5235987755982988,0,-0.26059058,-1.5508385,0.8997024,-0.31678587,0.07396355,1.0594242,1.6267377,0.33870286,-0.5873525,-0.31373256,0.26538384,-0.0019715142,1.0462089,-0.1326449
-0.1,-0.1,1.4999999999999998,0.0,-0.5235987755982988,0,-0.25997412,-1.5491089,0.88551784,-0.31457978,-0.0062327622,1.1281687,-0.009035152,0.336049,-0.58661264,-0.29875493,0.26865837,-0.12657322,1.0184324,0.23564206
-0.1,-0.1,1.4999999999999998,0.0,-0.5235987755982988,0,-0.25847983,-1.5492097,0.89161575,-0.31576586,0.08083054,1.0749831,-0.08533605,0.34223658,-0.58625835,-0.30491394,0.26175976,-0.20165029,1.1698085,0.59814084
-0.1,-0.1,1.4999999999999998,0.0,-0.5235987755982988,0,-0.25970903,-1.5498028,0.9055674,-0.31761733,0.16504197,1.0599597,0.30862927,0.33856142,-0.58843964,-0.30314124,0.29591185,-0.12219448,1.0166421,0.8093193
-0.1,-0.1,1.4999999999999998,0.0,-0.5235987755982988,0,-0.26075003,-1.5511163,0.897932,-0.31812125,0.16539481,1.1129355,1.326049,0.34012443,-0.5850731,-0.30275857,0.26460603,-0.014894924,0.81320435,1.3207929
-0.1,-0.1,1.4999999999999998,0.0,-0.5235987755982988,0,-0.26064086,-1.5488858,0.90483713,-0.31252733,0.121667266,1.152779,0.49508053,0.33984628,-0.58609045,-0.29004443,0.2659564,-0.16149,1.1297783,-1.6991361
-0.1,-0.1,1.4999999999999998,0.0,-0.5235987755982988,0,-0.25870675,-1.5517843,0.8936042,-0.31375825,-0.052407034,1.1719179,0.23871171,0.34253654,-0.5859027,-0.3006742,0.24678694,-0.14121775,0.92568237,-0.4347171
-0.1,-0.1,1.4999999999999998,0.0,-0.5235987755982988,0,-0.26246694,-1.5508175,0.8979412,-0.31739146,0.08223673,1.1245266,-0.7003175,0.33662882,-0.5864659,-0.3013144,0.29189855,0.037430216,1.1468375,-1.724274
-0.1,-0.1,1.4999999999999998,0.0,-0.5235987755982988,0,-0.2603782,-1.5509735,0.8900099,-0.3129531,0.15048543,1.1125642,0.5190683,0.33945003,-0.58623457,-0.30008098,0.28800663,-0.11509943,1.1719635,1.0196867
-0.1,-0.1,1.4999999999999998,0.0,-0.5235987755982988,0,-0.26023248,-1.5515171,0.885289,-0.31356788,0.13823442,1.1527139,-0.44643345,0.34135437,-0.58560354,-0.3047304,0.26881295,-0.09314141,0.9649577,-0.16973118
-0.1,-0.1,1.4999999999999998,0.0,-0.5235987755982988,0,-0.26097488,-1.5497396,0.8884067,-0.31760657,0.106254205,1.0905745,0.4106924,0.34024835,-0.5882798,-0.29502705,0.25950333,-0.11136841,0.91027576,0.006984098
-0.1,-0.1,1.4999999999999998,0.0,-0.5235987755982988,0,-0.2605358,-1.5512421,0.8987215,-0.32035992,0.26340142,1.215747,-0.25578228,0.3411006,-0.5857731,-0.29872257,0.25457358,-0.09394233,1.2464032,0.2416117
-0.1,-0.1,1.4999999999999998,0.0,-0.5235987755982988,0,-0.25922635,-1.5512334,0.8979062,-0.31979173,-0.05633589,1.0994263,0.47267833,0.34139982,-0.5877469,-0.29891497,0.27830702,-0.02648374,1.1400104,1.0287346
-0.1,-0.1,1.4999999999999998,0.0,-0.5235987755982988,0,-0.26014078,-1.553603,0.8935373,-0.31421337,0.06504855,1.1533802,1.1000443,0.33612463,-0.5859159,-0.30534276,0.2756201,-0.23318224,1.2107912,0.43448246
