sanky1234/BimanualDexCatch/isaacgymenvs/cem_results/football_pose_-0.2_0.10000000000000003_1.4_0.0_-0.5235987755982988_0_2025-05-25.csv
x,y,z,roll,pitch,yaw,robot1/joint1,robot1/joint2,robot1/joint3,robot1/joint4,robot1/joint5,robot1/joint6,robot1/joint7,robot2/joint1,robot2/joint2,robot2/joint3,robot2/joint4,robot2/joint5,robot2/joint6,robot2/joint7
-0.2,0.10000000000000003,1.4,0.0,-0.5235987755982988,0,0.8385008,0.39627612,0.99178225,0.43009055,0.51603705,0.47854695,0.123067215,0.5900917,1.254098,0.11388375,-0.03644859,-0.095783584,1.2011054,-0.5162528
-0.2,0.10000000000000003,1.4,0.0,-0.5235987755982988,0,0.83882254,0.3937402,0.9925088,0.4302152,0.51347774,0.47923157,0.15234396,0.58736765,1.3670442,0.061040793,-0.037783984,0.068895444,1.213475,-1.0468054
-0.2,0.10000000000000003,1.4,0.0,-0.5235987755982988,0,0.8400019,0.39247966,0.9905618,0.4305595,0.5059492,0.47973326,0.12205631,0.672392,1.362108,-0.057427257,-0.021023365,0.15506789,1.2064158,-0.036393687
-0.2,0.10000000000000003,1.4,0.0,-0.5235987755982988,0,0.83919716,0.3940152,0.9911254,0.42982447,0.5124934,0.47753868,0.15855339,-0.087242916,1.3122283,-0.19659519,-0.08438133,0.03138732,1.1704301,-0.07731451
-0.2,0.10000000000000003,1.4,0.0,-0.5235987755982988,0,0.8409975,0.39555487,0.99172825,0.4300894,0.5125155,0.47502357,0.13151197,0.29226264,1.3136407,-0.31472078,-0.109712355,0.27364784,1.1563042,-0.30503052
-0.2,0.10000000000000003,1.4,0.0,-0.5235987755982988,0,0.83893657,0.39295253,0.9907185,0.43111432,0.50426114,0.47914535,0.14735623,0.44993156,1.2484883,-0.07308175,-0.14886963,0.13396005,1.1965429,0.18870449
-0.2,0.10000000000000003,1.4,0.0,-0.5235987755982988,0,0.84240323,0.3941251,0.99016255,0.43070075,0.51757735,0.47876972,0.13523307,0.5825218,1.3471609,-0.12026673,-0.008061734,0.06382708,1.2766922,-1.6306045
-0.2,0.10000000000000003,1.4,0.0,-0.5235987755982988,0,0.83874226,0.39118275,0.9903553,0.43090567,0.51287216,0.47504815,0.12957563,-0.27506083,1.3738488,-0.092120185,-0.02495772,0.08619445,1.269746,-0.9662992
-0.2,0.10000000000000003,1.4,0.0,-0.5235987755982988,0,0.8406427,0.3933218,0.9913651,0.4304251,0.5134721,0.47704375,0.1227095,0.33623672,1.2705615,0.16932085,-0.12868004,0.34166375,1.2594433,-0.6229076
-0.2,0.10000000000000003,1.4,0.0,-0.5235987755982988,0,0.838646,0.39186734,0.99085224,0.43053946,0.51052636,0.47583145,0.16216315,0.36097956,1.3379186,0.06523577,-0.036690682,-0.07288394,1.1728088,-0.2542321
-0.2,0.10000000000000003,1.4,0.0,-0.5235987755982988,0,0.84074634,0.39716297,0.9930117,0.4306012,0.51029164,0.4788183,0.12728028,-0.2948838,1.3822337,0.123381734,-0.041319292,-0.012743132,1.2444679,-1.4936371
-0.2,0.10000000000000003,1.4,0.0,-0.5235987755982988,0,0.83952016,0.3936217,0.99120903,0.43160847,0.5216705,0.4750814,0.13977568,0.31364053,1.3464487,-0.26590428,-0.08284614,0.17726354,1.1018499,-1.1744194
-0.2,0.10000000000000003,1.4,0.0,-0.5235987755982988,0,0.83986753,0.3957449,0.99350613,0.430258,0.51271856,0.48279682,0.12144099,0.3884222,1.2777867,0.1576749,-0.09700934,0.031623516,1.2486273,-1.3559963
-0.2,0.10000000000000003,1.4,0.0,-0.5235987755982988,0,0.83939296,0.39212522,0.99289864,0.43094084,0.5118284,0.47780964,0.117344536,0.24320671,1.2865663,-0.060370483,0.03171783,0.057663135,1.1533071,-1.5003687
-0.2,0.10000000000000003,1.4,0.0,-0.5235987755982988,0,0.8421991,0.393812,0.9914903,0.42971972,0.51003957,0.4789664,0.12286343,0.14737478,1.2197573,0.10700649,-0.05411134,0.017649412,1.2698812,-1.4335759
-0.2,0.10000000000000003,1.4,0.0,-0.5235987755982988,0,0.83741224,0.39469618,0.9917471,0.42909616,0.512197,0.47794697,0.14227366,-0.09167927,1.2195288,-0.18957886,-0.06972733,0.17125574,1.2539173,-1.0890757
-0.2,0.10000000000000003,1.4,0.0,-0.5235987755982988,0,0.8399272,0.39126402,0.99283814,0.43041244,0.50461566,0.47858927,0.14959422,0.03547324,1.2724376,-0.046684947,-0.13888894,0.09664448,1.2472352,-0.4504339
-0.2,0.10000000000000003,1.4,0.0,-0.5235987755982988,0,0.8382988,0.39757687,0.9892244,0.43036133,0.51521814,0.4805678,0.12749262,-0.09549201,1.362195,-0.09451588,-0.055332623,0.23097423,1.2658654,0.06883887
-0.2,0.10000000000000003,1.4,0.0,-0.5235987755982988,0,0.841671,0.39584255,0.9923861,0.43071842,0.51277196,0.4784337,0.14118949,0.5680131,1.3480214,0.13808873,-0.02766879,0.20611039,1.2227832,0.73220676
-0.2,0.10000000000000003,1.4,0.0,-0.5235987755982988,0,0.8412674,0.3943815,0.99163306,0.4298331,0.5176707,0.47973597,0.11908885,0.38167757,1.263637,0.009028503,-0.028821185,0.06728531,1.1279566,0.1892422
-0.2,0.10000000000000003,1.4,0.0,-0.5235987755982988,0,0.8391086,0.39122942,0.991064,0.43021417,0.51295835,0.4747068,0.13764368,1.0010471,1.2434808,0.08584995,-0.078184225,0.13645267,1.2142708,-0.8973005
-0.2,0.10000000000000003,1.4,0.0,-0.5235987755982988,0,0.83859974,0.3934476,0.99052703,0.43017447,0.51122016,0.47897953,0.121967435,0.23976906,1.2748876,-0.082773454,-0.07426414,0.03219843,1.2487928,-1.5394112
-0.2,0.10000000000000003,1.4,0.0,-0.5235987755982988,0,0.8395527,0.3924011,0.9927273,0.43048596,0.515536,0.4789947,0.13018066,0.005431448,1.2335403,-0.20157658,-0.20465714,0.029863954,1.3106003,-0.53883904
-0.2,0.10000000000000003,1.4,0.0,-0.5235987755982988,0,0.83885914,0.39171612,0.99147475,0.43051887,0.51528215,0.4767899,0.12842225,0.585972,1.3320353,-0.1762903,0.0075852857,0.34374776,1.2763433,0.08175077
-0.2,0.10000000000000003,1.4,0.0,-0.5235987755982988,0,0.8387818,0.39572015,0.99168503,0.43118995,0.51473165,0.4743859,0.120818295,0.5383399,1.2766544,-0.07924543,0.029014068,-0.07439226,1.2262189,-0.43712473
-0.2,0.10000000000000003,1.4,0.0,-0.5235987755982988,0,0.8402513,0.39339602,0.9883538,0.43070793,0.51391983,0.4792905,0.13260227,0.5739653,1.2459022,-0.0014625045,-0.025144797,0.11827145,1.1625313,-0.520887
-0.2,0.10000000000000003,1.4,0.0,-0.5235987755982988,0,0.8372501,0.3942375,0.99127114,0.43102813,0.5111202,0.47848472,0.14082167,0.7789365,1.3499029,0.27065057,-0.12559891,-0.10979827,1.226078,-0.7351245
-0.2,0.10000000000000003,1.4,0.0,-0.5235987755982988,0,0.83924943,0.3931306,0.9913549,0.42972213,0.5150434,0.47788253,0.13723412,0.69413304,1.3161641,0.04871993,-0.024802659,0.09884252,1.2476726,-1.6517026
-0.2,0.10000000000000003,1.4,0.0,-0.5235987755982988,0,0.84079367,0.39230898,0.9915984,0.4298562,0.50983506,0.48110193,0.12672168,0.24678937,1.3054358,0.025511501,-0.081436746,0.19054286,1.2633379,-0.93003166
-0.2,0.10000000000000003,1.4,0.0,-0.5235987755982988,0,0.839263,0.39215678,0.9919102,0.42993662,0.5104294,0.47841796,0.12215309,0.21633266,1.2197706,0.049280312,-0.04872232,0.1569929,1.2247936,-0.66499245
-0.2,0.10000000000000003,1.4,0.0,-0.5235987755982988,0,0.8401949,0.38913077,0.9915264,0.429662,0.5183576,0.47725838,0.14027023,0.8201714,1.2702603,0.11964657,0.014435731,-0.057806384,1.224767,0.20887628
-0.2,0.10000000000000003,1.4,0.0,-0.5235987755982988,0,0.8392351,0.3931621,0.99174964,0.43105847,0.5188489,0.48050475,0.12702192,0.03078624,1.264964,-0.26573512,-0.07336635,0.03524378,1.1887051,-0.50944495
-0.2,0.10000000000000003,1.4,0.0,-0.5235987755982988,0,0.83938986,0.3945901,0.9905804,0.43110076,0.5084437,0.47997797,0.122756235,1.1454414,1.3144202,0.07476194,-0.043019287,0.035625614,1.2305144,-0.46245176
-0.2,0.10000000000000003,1.4,0.0,-0.5235987755982988,0,0.8373242,0.39364693,0.9902721,0.42924955,0.5171465,0.47743452,0.106633544,-0.10726168,1.2782086,-0.17095362,-0.08198181,-0.0012065516,1.2372665,-0.18773949
-0.2,0.10000000000000003,1.4,0.0,-0.5235987755982988,0,0.8389886,0.39918727,0.99230653,0.43088263,0.5071078,0.4787332,0.12897497,0.15827267,1.3412529,-0.13035475,-0.061649162,0.21134685,1.3297728,-0.6345724
-0.2,0.10000000000000003,1.4,0.0,-0.5235987755982988,0,0.8384713,0.3947663,0.9917234,0.42976663,0.5142829,0.47876537,0.11991733,-0.14353369,1.3300214,-0.0061994293,-0.057958648,0.19876952,1.2156551,-1.5983365
-0.2,0.10000000000000003,1.4,0.0,-0.5235987755982988,0,0.83855087,0.3962093,0.99081165,0.430782,0.5106443,0.47986245,0.14021616,-0.21425392,1.3974701,0.015030073,-0.09166347,-0.119325675,1.2495872,-0.7252223
-0.2,0.10000000000000003,1.4,0.0,-0.5235987755982988,0,0.83903503,0.39147076,0.990336,0.4297361,0.510445,0.47705203,0.13287607,0.29106936,1.3484114,0.085169606,-0.077947,-0.039808124,1.2143787,-0.0633719
-0.2,0.10000000000000003,1.4,0.0,-0.5235987755982988,0,0.84087133,0.39339513,0.9898295,0.42967618,0.5082871,0.47783634,0.13708049,-0.015567793,1.2318579,-0.16890979,-0.032746892,-0.020225631,1.2543788,-0.44487095
-0.2,0.10000000000000003,1.4,0.0,-0.5235987755982988,0,0.83838415,0.39446047,0.9916115,0.42984107,0.51253694,0.48121762,0.09982706,0.01897544,1.3939118,0.39325598,-0.14248872,0.10855947,1.0868986,-2.5108962
-0.2,0.10000000000000003,1.4,0.0,-0.5235987755982988,0,0.83974195,0.39646977,0.9900296,0.42968416,0.52193165,0.47911996,0.13842678,0.12111729,1.2763349,-0.036476355,0.019160295,-0.026986198,1.0867954,-0.8922268
-0.2,0.10000000000000003,1.4,0.0,-0.5235987755982988,0,0.839094,0.39317054,0.99060595,0.43133906,0.5064269,0.47795272,0.13015778,-0.08844274,1.2942374,-0.11888693,-0.068449035,0.07431769,1.077047,-0.38461113
-0.2,0.10000000000000003,1.4,0.0,-0.5235987755982988,0,0.83828104,0.39544678,0.99047786,0.43075055,0.5091259,0.48049664,0.10618567,0.55085564,1.2186788,0.2640809,-0.066681616,0.06984559,1.192211,-0.5045207
-0.2,0.10000000000000003,1.4,0.0,-0.5235987755982988,0,0.83773744,0.39387184,0.9911774,0.4294108,0.51278955,0.4781425,0.17223927,0.200753,1.3348547,0.19538933,-0.018994786,0.14056136,1.2457286,0.8119893
-0.2,0.10000000000000003,1.4,0.0,-0.5235987755982988,0,0.8404721,0.38952318,0.9907479,0.4300326,0.5153953,0.47574925,0.12466016,0.17808928,1.2118443,-0.056656364,-0.11118494,-0.11513487,1.1604794,-0.20107646
-0.2,0.10000000000000003,1.4,0.0,-0.5235987755982988,0,0.83964807,0.39768896,0.9922697,0.43028584,0.5126996,0.48003924,0.1316397,0.07633463,1.3307227,-0.10884285,-0.06036144,0.05599005,1.1617097,-1.4275265
-0.2,0.10000000000000003,1.4,0.0,-0.5235987755982988,0,0.8401274,0.3948703,0.99080247,0.43098268,0.5112783,0.47973084,0.1255683,-0.16009507,1.3927602,0.09095277,-0.0882807,0.031213984,1.222984,-0.8398369
-0.2,0.10000000000000003,1.4,0.0,-0.5235987755982988,0,0.8386588,0.3926174,0.99108297,0.4300526,0.5142447,0.47572836,0.1345884,0.7132754,1.4295177,-0.0019631344,-0.117196396,0.36989203,1.2634032,-2.074401
-0.2,0.10000000000000003,1.4,0.0,-0.5235987755982988,0,0.8386522,0.39870104,0.9910864,0.43066654,0.5181377,0.47871614,0.14523867,0.5671631,1.3356792,-0.03329204,-0.03253201,0.10618043,1.2153007,0.17261706
-0.2,0.10000000000000003,1.4,0.0,-0.5235987755982988,0,0.8385875,0.39439318,0.9905508,0.43059337,0.5128859,0.47723123,0.15429264,-0.2809291,1.2101446,0.09578585,0.0250609,0.18442589,1.1752219,-0.98073643
-0.2,0.10000000000000003,1.4,0.0,-0.5235987755982988,0,0.8372282,0.39610317,0.99117005,0.4308674,0.51175743,0.48083428,0.12785818,0.50998825,1.3188424,-0.08304486,-0.10655751,-0.04792152,1.2392957,-1.0003211
-0.2,0.10000000000000003,1.4,0.0,-0.5235987755982988,0,0.8397495,0.39068976,0.99017054,0.4295019,0.5137553,0.4808663,0.12852782,0.570563,1.2398639,0.036009625,-0.0027812147,0.4184647,1.2875834,0.0866658
-0.2,0.10000000000000003,1.4,0.0,-0.5235987755982988,0,0.83908486,0.39656064,0.9918782,0.4307058,0.51317424,0.47935274,0.12723626,0.9899156,1.28041,-0.037553422,-0.041268464,0.026944581,1.1892909,-0.5667654
-0.2,0.10000000000000003,1.4,0.0,-0.5235987755982988,0,0.8368658,0.39244607,0.99240464,0.430694,0.5109006,0.47801372,0.13828059,0.40347993,1.3957242,-0.15745632,-0.020412423,0.16820489,1.1401476,-0.59148383
-0.2,0.10000000000000003,1.4,0.0,-0.5235987755982988,0,0.8409922,0.39342108,0.9900354,0.43002635,0.51679456,0.47563684,0.13289773,0.6561943,1.3463863,0.08444011,0.011017138,0.14757477,1.1737037,-0.5237646
-0.2,0.10000000000000003,1.4,0.0,-0.5235987755982988,0,0.83935946,0.3959141,0.9911255,0.4313348,0.50938064,0.47932497,0.11002119,0.6729055,1.2512236,0.36086422,-0.030051487,0.009359741,1.2023332,-0.29807663
-0.2,0.10000000000000003,1.4,0.0,-0.5235987755982988,0,0.8386121,0.39653486,0.9907622,0.43040463,0.50935143,0.47435692,0.11379566,-0.10864097,1.2034025,-0.14166902,-0.045154832,0.0005888537,1.2024013,-0.68453664
-0.2,0.10000000000000003,1.4,0.0,-0.5235987755982988,0,0.8373573,0.39484048,0.9922858,0.42943382,0.50343287,0.47955275,0.10086844,0.75181425,1.2843509,0.11331308,-0.12423262,-0.047947176,1.1425455,0.039482445
-0.2,0.10000000000000003,1.4,0.0,-0.5235987755982988,0,0.8384287,0.39677414,0.9914035,0.4306413,0.5165337,0.47289786,0.12675513,0.0795572,1.3336629,0.03428146,-0.09366446,-0.032898284,1.1376559,-1.2972053
-0.2,0.10000000000000003,1.4,0.0,-0.5235987755982988,0,0.8395159,0.39106143,0.9898384,0.43014702,0.50743663,0.47718644,0.14123881,0.22802493,1.2946067,-0.1392227,-0.06631867,0.06255468,1.2770344,-1.1325734
-0.2,0.10000000000000003,1.4,0.0,-0.5235987755982988,0,0.8393454,0.39582494,0.99025667,0.4315448,0.51583374,0.4794075,0.14820728,0.22014259,1.2914703,-0.07684673,-0.11202258,0.19931905,1.1935024,-1.5169317
-0.2,0.10000000000000003,1.4,0.0,-0.5235987755982988,0,0.8377984,0.39233315,0.9924784,0.42995822,0.51120216,0.47623777,0.11671977,0.46925378,1.2875084,-0.0330193,-0.0073741227,-0.05381055,1.2185869,-1.0797857
-0.2,0.10000000000000003,1.4,0.0,-0.5235987755982988,0,0.837167,0.3937371,0.99240476,0.4308692,0.51243097,0.47691992,0.12774463,-0.16869353,1.2137158,-0.05926287,-0.04698612,-0.06933807,1.3048605,0.016155498
-0.2,0.10000000000000003,1.4,0.0,-0.5235987755982988,0,0.83901584,0.39612037,0.9913772,0.4301466,0.5157566,0.48043525,0.12320444,0.6987523,1.2181418,-0.006507131,-0.08586496,0.10709243,1.3645526,-0.4825252
-0.2,0.10000000000000003,1.4,0.0,-0.5235987755982988,0,0.8375026,0.3943883,0.9915176,0.42995626,0.5097796,0.4804966,0.13871975,0.87911505,1.2862756,-0.021187145,-0.037051067,-0.0058777933,1.3144472,-0.73588294
-0.2,0.10000000000000003,1.4,0.0,-0.5235987755982988,0,0.84000975,0.39452335,0.9893386,0.43022138,0.51199216,0.47851154,0.14865538,0.29724175,1.2247248,-0.08884905,0.030700557,0.21037415,1.3136688,-1.6677828
-0.2,0.10000000000000003,1.4,0.0,-0.5235987755982988,0,0.83846164,0.3958911,0.99029845,0.4302024,0.51160264,0.48244378,0.13072449,-0.029601056,1.3433671,-0.19577985,-0.112117976,0.07470931,1.1562108,-0.91518176
-0.2,0.10000000000000003,1.4,0.0,-0.5235987755982988,0,0.83864266,0.39378676,0.9905365,0.42986608,0.5153384,0.48089552,0.1365085,0.45308858,1.2959484,0.14129402,-0.057916317,0.16532739,1.3471864,-0.45949557
-0.2,0.10000000000000003,1.4,0.0,-0.5235987755982988,0,0.84049684,0.39711794,0.98936296,0.43155634,0.5158329,0.47534898,0.15033343,0.6433207,1.3104116,-0.050273634,-0.0397149,0.3026933,1.2160702,-0.9269199
-0.2,0.10000000000000003,1.4,0.0,-0.5235987755982988,0,0.83905697,0.3946079,0.98946255,0.4306573,0.51345176,0.4746132,0.13292226,-0.09006692,1.3720787,0.09732787,-0.05855274,0.11713368,1.140702,-1.5423363
-0.2,0.10000000000000003,1.4,0.0,-0.5235987755982988,0,0.8413715,0.39108703,0.99226224,0.43060225,0.5100263,0.48097393,0.12823999,-0.052722227,1.3240006,0.08442103,-0.13018326,0.08132538,1.1830498,1.0519722
-0.2,0.10000000000000003,1.4,0.0,-0.5235987755982988,0,0.8408152,0.39569956,0.9899592,0.43001145,0.51492786,0.47837952,0.118474886,0.4618627,1.2779101,-0.054037493,-0.13206875,-0.06313407,1.2823461,-1.3189523
-0.2,0.10000000000000003,1.4,0.0,-0.5235987755982988,0,0.8376299,0.39522493,0.9891687,0.42984673,0.51600343,0.48439878,0.13438125,0.21958113,1.2970167,-0.06549273,-0.052730538,0.13181031,1.2492555,-1.7253284
-0.2,0.10000000000000003,1.4,0.0,-0.5235987755982988,0,0.8411112,0.39292708,0.9905648,0.43041563,0.51018023,0.47910154,0.1498988,0.9067001,1.3207337,0.23377177,-0.07638852,0.025369931,1.1344147,-0.3730911
-0.2,0.10000000000000003,1.4,0.0,-0.5235987755982988,0,0.8357479,0.39565805,0.99132466,0.43094182,0.50807077,0.47537512,0.11512193,0.85428774,1.2175611,-0.0691333,-0.21034323,0.2902113,1.2667588,-1.2774918
-0.2,0.10000000000000003,1.4,0.0,-0.5235987755982988,0,0.8396734,0.39493287,0.990501,0.4292035,0.5051785,0.4807696,0.10637189,-0.5548178,1.315033,-0.21983123,-0.029296601,-0.08805776,1.269902,-1.4087732
-0.2,0.10000000000000003,1.4,0.0,-0.5235987755982988,0,0.83812296,0.39646253,0.99020094,0.43095613,0.5163391,0.47804463,0.14907283,0.16361593,1.2010634,-0.19284786,-0.053376894,-0.07494339,1.1508238,-1.2786046
-0.2,0.10000000000000003,1.4,0.0,-0.5235987755982988,0,0.8390533,0.39358616,0.99113613,0.42977336,0.51070315,0.47628972,0.14661247,-0.09744777,1.2644191,-0.1845508,-0.071060255,-0.0073741674,1.1328064,-0.8864661
-0.2,0.10000000000000003,1.4,0.0,-0.5235987755982988,0,0.8419692,0.3974354,0.9905653,0.4308175,0.5141307,0.48297545,0.14870965,0.22138925,1.3253117,0.033145815,-0.15675531,-0.06361699,1.1989441,-0.14373672
-0.2,0.10000000000000003,1.4,0.0,-0.5235987755982988,0,0.8400559,0.39364132,0.9919305,0.42943344,0.5095505,0.4787735,0.15130423,0.20476094,1.3819134,-0.13552523,-0.0445328,0.18852943,1.216758,-0.27959418
-0.2,0.10000000000000003,1.4,0.0,-0.5235987755982988,0,0.83916044,0.3944165,0.99078155,0.43049064,0.51431787,0.47858727,0.14379922,0.48663655,1.3465075,-0.29366603,-0.11984876,0.006905601,1.3064622,-0.9675494
-0.2,0.10000000000000003,1.4,0.0,-0.5235987755982988,0,0.83983827,0.39413312,0.9901941,0.43008232,0.5154678,0.47482148,0.12272631,0.6332907,1.4172987,0.028127965,-0.15925951,0.05525209,1.2737648,-0.9407267
-0.2,0.10000000000000003,1.4,0.0,-0.5235987755982988,0,0.8378684,0.39426672,0.9898224,0.4300929,0.5112126,0.4759545,0.13506746,0.0530764,1.3313487,-0.12088819,-0.13900219,0.042394765,1.2297361,-0.23529422
-0.2,0.10000000000000003,1.4,0.0,-0.5235987755982988,0,0.8394718,0.39128336,0.9909947,0.43088084,0.51466453,0.48106295,0.112398274,0.4631896,1.3170811,0.0023866133,-0.100323536,-0.09471891,1.1711377,-1.104685
-0.2,0.10000000000000003,1.4,0.0,-0.5235987755982988,0,0.83905804,0.392639,0.99084496,0.43061763,0.5147048,0.4740134,0.110999964,0.45961356,1.1727993,0.13598616,-0.008076423,-0.028145913,1.2744058,-0.8510269
-0.2,0.10000000000000003,1.4,0.0,-0.5235987755982988,0,0.83983004,0.3962882,0.9933116,0.42990482,0.5121455,0.4803199,0.12477972,-0.29994547,1.3714179,-0.21895027,0.010752933,0.12775832,1.2846045,-2.0646384
-0.2,0.10000000000000003,1.4,0.0,-0.5235987755982988,0,0.83963645,0.3942936,0.9931441,0.43044707,0.50997394,0.4811533,0.13074307,0.681365,1.3319095,0.1247276,-0.13448946,0.18648863,1.160734,-0.82197195
-0.2,0.10000000000000003,1.4,0.0,-0.5235987755982988,0,0.8394204,0.39374834,0.9933998,0.430865,0.5130376,0.47966745,0.12637438,0.13815211,1.3154984,-0.05212338,-0.17990096,-0.12427793,1.1801264,-1.0385422
-0.2,0.10000000000000003,1.4,0.0,-0.5235987755982988,0,0.83879924,0.39337566,0.9924799,0.4306164,0.5150846,0.47956103,0.12882158,0.20943365,1.378951,-0.33079538,-0.03096183,0.33029595,1.2326652,-1.9246529
-0.2,0.10000000000000003,1.4,0.0,-0.5235987755982988,0,0.8406636,0.39491296,0.9918804,0.43033215,0.5119781,0.4805608,0.10920324,0.25534853,1.3261801,-0.02679477,-0.0062624593,-0.04963582,1.297578,-0.7402982
-0.2,0.10000000000000003,1.4,0.0,-0.5235987755982988,0,0.83934695,0.39443296,0.99252367,0.43022263,0.5114916,0.47867426,0.12181657,0.5313812,1.3743093,-0.3293038,-0.08213407,-0.03759248,1.3252736,-1.4842728
-0.2,0.10000000000000003,1.4,0.0,-0.5235987755982988,0,0.8417634,0.3944238,0.99058276,0.43029615,0.50819886,0.48115245,0.1311469,0.0015624668,1.2468683,0.044971082,0.05554665,0.02314702,1.1565312,-0.7615606
-0.2,0.10000000000000003,1.4,0.0,-0.5235987755982988,0,0.8402371,0.39266077,0.99098915,0.4306151,0.51122653,0.48128152,0.13463834,0.019181686,1.2949666,-0.041783605,-0.09849737,0.32491836,1.1994323,-0.6215827
-0.2,0.10000000000000003,1.4,0.0,-0.5235987755982988,0,0.8387909,0.39430782,0.99228483,0.43100107,0.51094294,0.4793706,0.1349758,0.9499037,1.3682673,-0.11733253,-0.092800006,0.17600903,1.1612856,-2.1474051
-0.2,0.10000000000000003,1.4,0.0,-0.5235987755982988,0,0.83926374,0.3938953,0.99325854,0.43077868,0.5149719,0.4819916,0.12924533,0.20904247,1.3523746,-0.232831,-0.053006705,0.24853575,1.2287257,-0.56517816
-0.2,0.10000000000000003,1.4,0.0,-0.5235987755982988,0,0.84112364,0.3901888,0.9907442,0.43003204,0.50969887,0.48123693,0.15071549,-0.026819408,1.3666441,-0.037548445,-0.08950666,0.02890917,1.2929063,-1.4173974
-0.2,0.10000000000000003,1.4,0.0,-0.5235987755982988,0,0.84154487,0.3961433,0.9902834,0.43069035,0.51360524,0.47957876,0.14658679,-0.38036105,1.3282394,-0.014855182,0.01684539,0.327015,1.240287,-1.6242796
-0.2,0.10000000000000003,1.4,0.0,-0.5235987755982988,0,0.8400494,0.38988563,0.9925171,0.4314258,0.5081119,0.47819272,0.13253455,-0.9006455,1.3907771,0.112985194,-0.0387008,0.16998549,1.2341019,-0.8705052
-0.2,0.10000000000000003,1.4,0.0,-0.5235987755982988,0,0.84153706,0.39440954,0.99037844,0.42969537,0.5111827,0.47985688,0.1404119,0.18048166,1.4184825,-0.12815928,0.075513795,-0.03236547,1.1253598,-1.236629
-0.2,0.10000000000000003,1.4,0.0,-0.5235987755982988,0,0.8395432,0.3934833,0.993609,0.430367,0.5075438,0.4787263,0.09576031,0.787032,1.2407237,-0.2336656,-0.06055509,-0.044531547,1.2462324,0.37063017
-0.2,0.10000000000000003,1.4,0.0,-0.5235987755982988,0,0.8399776,0.39624453,0.99223375,0.43062088,0.50945115,0.4787239,0.15342727,-0.43368882,1.2756833,-0.23013079,0.007820134,0.12668954,1.2549775,-0.11309624
-0.2,0.10000000000000003,1.4,0.0,-0.5235987755982988,0,0.8405039,0.393394,0.9907669,0.43143854,0.5113997,0.47766104,0.1302505,0.7134286,1.3488129,-0.08563245,-0.027147464,-0.014442721,1.1288418,-1.3031627
-0.2,0.10000000000000003,1.4,0.0,-0.5235987755982988,0,0.84214854,0.39535615,0.99013114,0.43077675,0.51230323,0.47650784,0.12209577,0.9831135,1.228146,0.2741613,-0.07350274,0.06670177,1.2500213,-0.62125224
-0.2,0.10000000000000003,1.4,0.0,-0.5235987755982988,0,0.8393072,0.39509454,0.992403,0.43087822,0.51920587,0.47929147,0.12363636,0.3305068,1.3003023,-0.20117007,-0.074472696,0.008674185,1.1627078,-1.1401479
-0.2,0.10000000000000003,1.4,0.0,-0.5235987755982988,0,0.8374532,0.39455807,0.99263823,0.42991105,0.5087505,0.4760759,0.10714958,0.8173034,1.3201543,0.15550695,-0.07104499,0.119809255,1.2361594,-0.3236157
-0.2,0.10000000000000003,1.4,0.0,-0.5235987755982988,0,0.83867073,0.39493,0.9904579,0.43067852,0.5075325,0.47621146,0.11538767,1.0847055,1.368643,0.09719564,0.058059704,0.066562265,1.1609937,-1.9018058
-0.2,0.10000000000000003,1.4,0.0,-0.5235987755982988,0,0.8377766,0.39551148,0.9912134,0.430486,0.5090509,0.47867998,0.16854137,-0.16201845,1.2196164,-0.1645206,-0.06271066,0.07213752,1.0760622,-1.446294
-0.2,0.10000000000000003,1.4,0.0,-0.5235987755982988,0,0.8371926,0.3932985,0.9920216,0.43043995,0.5085489,0.4787614,0.13091993,0.32486954,1.4071988,0.041250236,-0.09214728,0.006441958,1.1689557,-1.1817044
-0.2,0.10000000000000003,1.4,0.0,-0.5235987755982988,0,0.83900577,0.3927873,0.9920184,0.43015376,0.50597423,0.4771583,0.1530398,0.24733497,1.3629589,0.011301019,-0.03812045,0.13384116,1.2018301,-0.53169423
-0.2,0.10000000000000003,1.4,0.0,-0.5235987755982988,0,0.838516,0.395161,0.9901797,0.42973247,0.51026636,0.4814299,0.11816843,0.4189165,1.4493688,-0.091720216,-0.015781345,0.1387269,1.145418,-0.8517912
-0.2,0.10000000000000003,1.4,0.0,-0.5235987755982988,0,0.83857256,0.39830196,0.99032587,0.4292695,0.5106174,0.476117,0.13433228,0.7090697,1.3184707,0.11957183,-0.13039568,-0.17835434,1.0256522,-2.0184562
-0.2,0.10000000000000003,1.4,0.0,-0.5235987755982988,0,0.84091544,0.39515886,0.99019146,0.43032527,0.511432,0.47804058,0.13134499,-0.67956597,1.2501299,-0.17828666,-0.016909027,-0.1641943,1.1331923,-1.3082879
-0.2,0.10000000000000003,1.4,0.0,-0.5235987755982988,0,0.83718276,0.39546555,0.9922302,0.43051806,0.5117791,0.4794378,0.13568264,0.4563469,1.2109733,-0.07327079,-0.13464773,-0.1347578,1.2350028,-0.6949365
-0.2,0.10000000000000003,1.4,0.0,-0.5235987755982988,0,0.8401429,0.3912407,0.9894064,0.43024153,0.5060425,0.47886747,0.14628734,0.10791977,1.1408453,0.054457296,-0.10402051,0.23993334,1.2251459,-0.64706755
-0.2,0.10000000000000003,1.4,0.0,-0.5235987755982988,0,0.8388487,0.39750564,0.99022883,0.43096182,0.5061025,0.4792912,0.1322318,-0.13644797,1.426138,-0.020468654,-0.0318435,-0.044450056,1.3041981,-0.85872024
-0.2,0.10000000000000003,1.4,0.0,-0.5235987755982988,0,0.83940893,0.3960821,0.9906637,0.42986676,0.51256406,0.48020184,0.13987334,0.590983,1.2849115,0.23071952,-0.18605389,0.17095494,1.1791635,-0.654885
-0.2,0.10000000000000003,1.4,0.0,-0.5235987755982988,0,0.8365307,0.39437705,0.991315,0.4288546,0.5124322,0.47805792,0.12752053,0.4004193,1.3389695,-0.03752545,-0.096341595,0.11876225,1.2905426,-1.105889
-0.2,0.10000000000000003,1.4,0.0,-0.5235987755982988,0,0.8389696,0.39510748,0.9907358,0.42979163,0.5087488,0.48005366,0.11886774,0.14333421,1.3971282,-0.0022140087,0.00057982764,-0.12899984,1.1689268,-1.9569364
-0.2,0.10000000000000003,1.4,0.0,-0.5235987755982988,0,0.84093815,0.39662862,0.9898364,0.43071133,0.50897944,0.47790593,0.11304882,-0.062403336,1.396125,-0.101869725,-0.051846974,-0.105667196,1.1085936,-0.71790355
-0.2,0.10000000000000003,1.4,0.0,-0.5235987755982988,0,0.8388742,0.3951746,0.9912486,0.43110323,0.50972545,0.47779298,0.13482717,0.77278537,1.2797797,0.18029973,0.020090638,0.15648021,1.2519816,-0.9068682
-0.2,0.10000000000000003,1.4,0.0,-0.5235987755982988,0,0.839687,0.396597,0.9938917,0.43054423,0.5069006,0.4756301,0.1445636,0.83684105,1.2445437,-0.1975219,-0.04369949,-0.0049761296,1.2594787,-0.17151806
-0.2,0.10000000000000003,1.4,0.0,-0.5235987755982988,0,0.83937305,0.3946261,0.9903548,0.4310238,0.5109681,0.47659713,0.1445512,0.6033157,1.3254813,0.018679332,-0.05522508,-0.00010753269,1.2372302,-1.1706374
-0.2,0.10000000000000003,1.4,0.0,-0.5235987755982988,0,0.83950466,0.39293665,0.99065256,0.43135306,0.51066786,0.47805303,0.15455228,0.9858288,1.187097,-0.015971707,-0.0764378,0.298457,1.1847837,-0.9234727
-0.2,0.10000000000000003,1.4,0.0,-0.5235987755982988,0,0.8387251,0.39408767,0.9918201,0.43101192,0.51345116,0.4794659,0.1346724,0.7412831,1.1692551,-0.15350491,-0.12502442,0.041741677,1.1558976,-1.1556394
-0.2,0.10000000000000003,1.4,0.0,-0.5235987755982988,0,0.83712447,0.3964748,0.99194074,0.43029162,0.5064931,0.47953862,0.13536207,0.5710632,1.2554759,-0.35193673,-0.02894117,0.28902823,1.1406068,0.8071658
-0.2,0.10000000000000003,1.4,0.0,-0.5235987755982988,0,0.8407466,0.3947527,0.99080515,0.43083206,0.51023,0.48256338,0.12551714,0.5338953,1.3945578,-0.05252467,0.03426024,-0.25001413,1.1768397,-1.6130084
-0.2,0.10000000000000003,1.4,0.0,-0.5235987755982988,0,0.8386834,0.39704204,0.9910404,0.43087703,0.510806,0.47993526,0.13353147,-0.071681395,1.2991903,0.03346616,-0.025040355,0.22605681,1.2243792,-1.3752537
-0.2,0.10000000000000003,1.4,0.0,-0.5235987755982988,0,0.8382682,0.39520583,0.99049324,0.4314041,0.5128218,0.4807176,0.11219781,0.4221891,1.3202087,0.100779325,-0.16385065,-0.013668126,1.1698598,-0.068398125
-0.2,0.10000000000000003,1.4,0.0,-0.5235987755982988,0,0.8396939,0.393503,0.99241614,0.4314036,0.5069115,0.47704357,0.11843654,0.12725152,1.2058797,-0.056250673,-0.078209646,0.031603232,1.237462,-0.44197625
-0.2,0.10000000000000003,1.4,0.0,-0.5235987755982988,0,0.8406711,0.3940645,0.9908532,0.42973897,0.5101612,0.47900015,0.1138385,0.383557,1.3107574,0.05270218,0.03972297,0.018867295,1.2093675,0.33400568
-0.2,0.10000000000000003,1.4,0.0,-0.5235987755982988,0,0.8395671,0.39254597,0.99026686,0.43072608,0.51141346,0.47946885,0.15213436,0.23878303,1.2966042,0.00326762,-0.02851607,0.16026998,1.2322384,-0.91712147
-0.2,0.10000000000000003,1.4,0.0,-0.5235987755982988,0,0.8379772,0.39634216,0.9918513,0.43057266,0.5084068,0.47784835,0.12969229,0.22955193,1.3661891,-0.14525034,-0.028178986,-0.07879575,1.190573,-0.7581967
-0.2,0.10000000000000003,1.4,0.0,-0.5235987755982988,0,0.839322,0.39628637,0.9917786,0.43144575,0.5112235,0.47901067,0.13739464,-0.40919626,1.3411875,-0.12147016,-0.14526048,0.19288051,1.0488542,-0.05677057
-0.2,0.10000000000000003,1.4,0.0,-0.5235987755982988,0,0.83757097,0.39528686,0.9893294,0.43140495,0.5126481,0.47686088,0.15969071,0.15782061,1.3046377,-0.24998339,-0.15679488,0.016066676,1.3040959,0.4336661
-0.2,0.10000000000000003,1.4,0.0,-0.5235987755982988,0,0.8398864,0.39319047,0.9907622,0.4304954,0.50824904,0.4769611,0.11627917,0.32898727,1.3606,-0.020280395,-0.027869333,0.18049668,1.1691929,-2.4042459
-0.2,0.10000000000000003,1.4,0.0,-0.5235987755982988,0,0.8415921,0.39523485,0.9917756,0.4310697,0.5074183,0.47725803,0.13933629,0.5241118,1.3595902,0.019249465,-0.18988909,0.16569644,1.3209023,-1.5778115
-0.2,0.10000000000000003,1.4,0.0,-0.5235987755982988,0,0.8409057,0.39809543,0.9921811,0.42988703,0.5048119,0.47311458,0.14608847,0.28948644,1.3371189,0.0077374354,0.08624655,-0.012698571,1.1778831,-0.7898742
-0.2,0.10000000000000003,1.4,0.0,-0.5235987755982988,0,0.8409127,0.3941804,0.99205357,0.4312588,0.5083869,0.4776355,0.12424031,0.41838944,1.3565329,0.00048022147,-0.02569228,-0.09054659,1.203477,-1.0486959
-0.2,0.10000000000000003,1.4,0.0,-0.5235987755982988,0,0.83855176,0.3960101,0.98886555,0.4294794,0.5102476,0.478306,0.13500981,0.22777082,1.2897164,-0.24773887,-0.117840715,0.0768674,1.2042514,-1.0008273
-0.2,0.10000000000000003,1.4,0.0,-0.5235987755982988,0,0.8399838,0.3962382,0.99137384,0.43060148,0.5072247,0.4742133,0.13263518,0.151207,1.3053997,-0.05245846,-0.036117926,0.0679671,1.1970302,-0.28460315
-0.2,0.10000000000000003,1.4,0.0,-0.5235987755982988,0,0.8387351,0.3946843,0.99169177,0.43050462,0.5024289,0.47825888,0.13927083,0.19770524,1.2666517,0.04523307,-0.07645862,0.017718246,1.3048815,-1.2561284
-0.2,0.10000000000000003,1.4,0.0,-0.5235987755982988,0,0.8379042,0.39617628,0.9899698,0.43008375,0.5117586,0.4830518,0.14370923,0.17849538,1.3561921,-0.076953165,-0.04334644,-0.10107914,1.234118,-1.1599854
-0.2,0.10000000000000003,1.4,0.0,-0.5235987755982988,0,0.8380037,0.39476627,0.99032277,0.4307066,0.50104046,0.47825825,0.12998602,-0.1818423,1.267213,-0.26477456,-0.15304203,0.22020252,1.2355183,-1.5311893
-0.2,0.10000000000000003,1.4,0.0,-0.5235987755982988,0,0.8408356,0.39570975,0.99156684,0.43017077,0.51174587,0.4832414,0.13106157,0.539921,1.2409824,0.19288121,-0.16681498,-0.016096363,1.2108341,-0.77217406
-0.2,0.10000000000000003,1.4,0.0,-0.5235987755982988,0,0.84243184,0.39658213,0.9899568,0.43108925,0.5163388,0.47671422,0.12738284,0.16576892,1.2324663,-0.4011407,-0.11693027,0.09202193,1.1401074,-1.0534654
-0.2,0.10000000000000003,1.4,0.0,-0.5235987755982988,0,0.83765155,0.39574993,0.9910106,0.4295775,0.5184453,0.47779188,0.13614067,0.2870316,1.380242,-0.11577357,-0.099771254,-0.24549682,1.3149041,-1.0540359
-0.2,0.10000000000000003,1.4,0.0,-0.5235987755982988,0,0.83894455,0.39377394,0.99100906,0.43143526,0.50603825,0.47754925,0.12748605,0.35734573,1.187871,-0.072103046,-0.15067866,0.47240925,1.2417029,-1.5544658
-0.2,0.10000000000000003,1.4,0.0,-0.5235987755982988,0,0.83881414,0.39532006,0.991863,0.43125018,0.5107327,0.4780117,0.14690112,0.7139339,1.4170399,-0.19246837,-0.07150392,0.07820401,1.1933092,-0.042408507
-0.2,0.10000000000000003,1.4,0.0,-0.5235987755982988,0,0.8394876,0.3942885,0.98972625,0.42995182,0.5101645,0.47659603,0.1237615,0.42532024,1.389182,-0.19807641,-0.01962339,0.16464332,1.2246931,-0.1115538
-0.2,0.10000000000000003,1.4,0.0,-0.5235987755982988,0,0.840449,0.39681074,0.9897099,0.42967728,0.5085903,0.4810612,0.12013324,0.31198415,1.3060081,-0.034186304,0.045421712,-0.01939183,1.2586997,0.5557892
-0.2,0.10000000000000003,1.4,0.0,-0.5235987755982988,0,0.8396981,0.39233503,0.9910473,0.42987183,0.51795775,0.4794375,0.12838037,1.0175487,1.211513,-0.1025639,-0.067943215,0.0837168,1.0825151,0.18476179
-0.2,0.10000000000000003,1.4,0.0,-0.5235987755982988,0,0.8363463,0.39334413,0.99040926,0.43007863,0.5144466,0.4789359,0.14954953,-0.022004282,1.146954,-0.07977589,-0.013526712,0.0033073185,1.3065581,-1.1192623
-0.2,0.10000000000000003,1.4,0.0,-0.5235987755982988,0,0.8380613,0.39529744,0.99159175,0.43006006,0.50762767,0.47928655,0.1556993,0.102648556,1.3311113,-0.2638218,-0.038683236,0.025104212,1.2372168,-1.0571829
-0.2,0.10000000000000003,1.4,0.0,-0.5235987755982988,0,0.83964586,0.39212528,0.9907041,0.43149942,0.5128718,0.47696534,0.15645571,0.2716007,1.2385094,-0.013715668,0.0044201375,-0.0254845,1.2500987,-0.14416187
-0.2,0.10000000000000003,1.4,0.0,-0.5235987755982988,0,0.83874154,0.39467928,0.9909677,0.43099293,0.5122488,0.47895053,0.13073537,0.8292346,1.3911812,-0.10031795,-0.08524599,-0.025151525,1.1211298,-0.7488553
-0.2,0.10000000000000003,1.4,0.0,-0.5235987755982988,0,0.83865047,0.3921799,0.99423593,0.43116197,0.5074574,0.4778572,0.12951249,0.32758823,1.3478314,0.01274642,-0.049136046,0.2809031,1.2524914,-0.44730294
-0.2,0.10000000000000003,1.4,0.0,-0.5235987755982988,0,0.83899647,0.39427596,0.9905397,0.43015692,0.5058428,0.47946355,0.109846346,0.7318819,1.3790944,-0.2588418,-0.07630502,0.021401612,1.0976202,-1.0357533
-0.2,0.10000000000000003,1.4,0.0,-0.5235987755982988,0,0.84054935,0.3964714,0.9911663,0.4311796,0.5055831,0.47486576,0.12073831,0.2153795,1.3225586,-0.24713032,-0.07111698,0.1197342,1.1049409,-1.5374929
-0.2,0.10000000000000003,1.4,0.0,-0.5235987755982988,0,0.8391045,0.393619,0.9896589,0.43067023,0.5063054,0.4792186,0.11452512,0.40582895,1.4770461,-0.06071338,0.0014538602,-0.037780967,1.2208931,-0.6586425
-0.2,0.10000000000000003,1.4,0.0,-0.5235987755982988,0,0.8390991,0.39437127,0.9915805,0.4299483,0.5049752,0.4808807,0.15398291,0.1411031,1.2839669,0.09771105,-0.106518894,-0.01181896,1.202669,-0.38718373
-0.2,0.10000000000000003,1.4,0.0,-0.5235987755982988,0,0.8395451,0.39313677,0.99105805,0.43139303,0.5023758,0.47838548,0.124184005,0.17911074,1.3242809,-0.31114775,-0.11864819,-0.10442594,1.230903,-0.041777812
-0.2,0.10000000000000003,1.4,0.0,-0.5235987755982988,0,0.8395781,0.39578485,0.99076754,0.42981791,0.51007795,0.47952422,0.12685524,0.18151997,1.3548748,0.0043482087,-0.058136884,-0.05575999,1.1804336,-0.6992219
-0.2,0.10000000000000003,1.4,0.0,-0.5235987755982988,0,0.83971256,0.396561,0.9913066,0.43078172,0.51530105,0.47826248,0.13372566,0.31244987,1.3121538,0.20831694,-0.025354961,0.19731748,1.1613066,0.7322085
-0.2,0.10000000000000003,1.4,0.0,-0.5235987755982988,0,0.8387713,0.3942499,0.99056536,0.43085614,0.5074557,0.47919965,0.13589089,0.17629407,1.2961526,0.03555618,-0.098869845,0.15677647,1.2413263,-1.528431
-0.2,0.10000000000000003,1.4,0.0,-0.5235987755982988,0,0.83939576,0.39303175,0.99044293,0.43080488,0.50748205,0.48073414,0.12912388,0.119000815,1.3284327,0.25022948,-0.13318925,0.0536731,1.1881816,-0.9198741
-0.2,0.10000000000000003,1.4,0.0,-0.5235987755982988,0,0.83971643,0.39542434,0.99112517,0.42998415,0.51105666,0.47931892,0.13604149,-0.24742821,1.3895489,-0.016298847,0.071280934,-0.036274727,1.0865197,-0.79532176
-0.2,0.10000000000000003,1.4,0.0,-0.5235987755982988,0,0.83903134,0.39406168,0.99297804,0.43084866,0.5141217,0.47696462,0.12843864,0.027415413,1.2968946,-0.32616815,-0.17737743,0.06499908,1.2210716,-0.860259
-0.2,0.10000000000000003,1.4,0.0,-0.5235987755982988,0,0.8376205,0.39455178,0.9933034,0.43104732,0.5115162,0.47698635,0.13505329,0.60462826,1.3782965,0.076474465,-0.18278919,0.3164465,1.226724,-1.2320555
-0.2,0.10000000000000003,1.4,0.0,-0.5235987755982988,0,0.8404683,0.39795563,0.99126256,0.430132,0.5102451,0.47982296,0.13367988,0.63829786,1.2997072,0.019964986,-0.12966076,0.113733076,1.1462586,-1.8259634
-0.2,0.10000000000000003,1.4,0.0,-0.5235987755982988,0,0.83714235,0.39466003,0.9920413,0.42955402,0.5145817,0.47644302,0.12743978,0.37723228,1.2978494,-0.050441965,-0.044173483,0.068115026,1.2582997,-0.48602363
-0.2,0.10000000000000003,1.4,0.0,-0.5235987755982988,0,0.838353,0.39365515,0.9906106,0.43074623,0.5036067,0.47888058,0.13373466,0.5326157,1.3298764,-0.07161967,-0.06144257,0.34987316,1.2268462,-0.85056424
-0.2,0.10000000000000003,1.4,0.0,-0.5235987755982988,0,0.839084,0.39532274,0.992027,0.43018693,0.5053329,0.4786715,0.1592002,0.633398,1.2178174,0.10232973,-0.10264426,-0.07062279,1.0974568,-2.2640226
-0.2,0.10000000000000003,1.4,0.0,-0.5235987755982988,0,0.8384663,0.3956219,0.9930905,0.43057626,0.5112609,0.47667313,0.13199145,0.8710941,1.3321098,-0.23359725,-0.19474633,0.15005524,1.2526156,-1.9551018
-0.2,0.10000000000000003,1.4,0.0,-0.5235987755982988,0,0.8378074,0.3945755,0.9894596,0.43095207,0.513472,0.47685084,0.13333067,0.7769826,1.296964,0.20610611,-0.005780827,0.12933385,1.2023834,-2.2238903
-0.2,0.10000000000000003,1.4,0.0,-0.5235987755982988,0,0.83943564,0.39437658,0.99269056,0.43018118,0.5113892,0.48049963,0.11601423,0.21632613,1.255664,-0.18424736,-0.05051221,0.2836767,1.1639363,0.53704274
-0.2,0.10000000000000003,1.4,0.0,-0.5235987755982988,0,0.8385475,0.39757794,0.9911203,0.43065482,0.5107956,0.47810417,0.12533927,0.15830009,1.3597337,-0.07784094,-0.10768507,-0.09264981,1.2188425,-0.9506773
-0.2,0.10000000000000003,1.4,0.0,-0.5235987755982988,0,0.8401832,0.39555243,0.99100614,0.43055284,0.5160157,0.48066846,0.14023694,0.30332652,1.344183,-0.018914701,-0.07382975,-0.013953591,1.250763,-0.7569515
-0.2,0.10000000000000003,1.4,0.0,-0.5235987755982988,0,0.84110934,0.39423007,0.990758,0.43105385,0.5089934,0.47755617,0.14801046,-0.54505205,1.2342575,0.019331519,0.01469579,0.16692372,1.3847966,-1.0256889
-0.2,0.10000000000000003,1.4,0.0,-0.5235987755982988,0,0.8386869,0.39417893,0.99250233,0.43127128,0.509874,0.47741294,0.096379064,0.38721478,1.2821325,0.29115173,-0.2191917,0.18991093,1.1560769,-1.1428032
-0.2,0.10000000000000003,1.4,0.0,-0.5235987755982988,0,0.8389931,0.39404628,0.99116164,0.43140557,0.5076279,0.47475415,0.12527043,0.21591996,1.2840687,-0.19590923,-0.05149651,-0.15593119,1.1573483,-1.2354087
-0.2,0.10000000000000003,1.4,0.0,-0.5235987755982988,0,0.8392397,0.39395836,0.99206376,0.43083534,0.507165,0.48057508,0.09524577,-0.08743099,1.2982364,-0.14096966,-0.09621226,0.007791164,1.2550807,-1.3235735
-0.2,0.10000000000000003,1.4,0.0,-0.5235987755982988,0,0.8402128,0.39577687,0.99173677,0.43025267,0.5086912,0.47690296,0.13964248,0.9077865,1.3490018,-0.08813559,-0.061636988,0.30729648,1.1784855,-1.028474
-0.2,0.10000000000000003,1.4,0.0,-0.5235987755982988,0,0.84004104,0.3958453,0.98987925,0.43099448,0.5117944,0.4772431,0.12985702,0.4762586,1.3837246,-0.08175628,-0.1802279,-0.053409494,1.2889204,-1.172485
-0.2,0.10000000000000003,1.4,0.0,-0.5235987755982988,0,0.83897895,0.3951731,0.992327,0.43040365,0.5058473,0.47942346,0.11530642,0.43330273,1.2464651,0.068972036,-0.09811045,0.26720628,1.2812502,-0.54953796
-0.2,0.10000000000000003,1.4,0.0,-0.5235987755982988,0,0.84012985,0.39475578,0.9900578,0.43077487,0.5103194,0.47654194,0.15269972,-0.080847636,1.3562038,0.03389007,-0.09586475,-0.08113738,1.259627,-0.6388647
-0.2,0.10000000000000003,1.4,0.0,-0.5235987755982988,0,0.84126097,0.39628777,0.99000204,0.43114954,0.51349217,0.4758601,0.14110285,0.47655928,1.4550916,-0.028756402,-0.100206755,0.17088962,1.2020081,-0.1069465
-0.2,0.10000000000000003,1.4,0.0,-0.5235987755982988,0,0.8396269,0.39519212,0.9911241,0.43080935,0.5174065,0.4792077,0.093646266,-0.091727585,1.2988795,0.1912259,0.035862733,0.1817672,1.2403456,-0.4361477
-0.2,0.10000000000000003,1.4,0.0,-0.5235987755982988,0,0.83898413,0.39389607,0.991127,0.4307548,0.5104282,0.47880203,0.13381724,0.17871813,1.2950714,-0.08867596,-0.091663435,0.2559986,1.2332691,-2.0462325
-0.2,0.10000000000000003,1.4,0.0,-0.5235987755982988,0,0.8391752,0.39325663,0.99170303,0.43034914,0.5096896,0.48225397,0.15052243,0.16727383,1.336425,0.046963476,-0.07224348,0.05927663,1.2238269,-1.4242501
-0.2,0.10000000000000003,1.4,0.0,-0.5235987755982988,0,0.8386955,0.39350793,0.9902256,0.43093368,0.5117884,0.47444817,0.116337,1.1534384,1.3322432,-0.16572833,-0.08730558,-0.001328856,1.222628,0.30428138
-0.2,0.10000000000000003,1.4,0.0,-0.5235987755982988,0,0.8397496,0.3962441,0.9903367,0.4303349,0.5147821,0.48007962,0.11182613,0.43623343,1.3485628,0.0096837515,-0.0625806,0.18206175,1.223332,-1.24892
-0.2,0.10000000000000003,1.4,0.0,-0.5235987755982988,0,0.8400902,0.3945341,0.9896225,0.43046668,0.5019892,0.4777262,0.12135719,0.6571431,1.2931666,-0.087463275,-0.018632973,-0.11032571,1.2978779,-0.7787248
-0.2,0.10000000000000003,1.4,0.0,-0.5235987755982988,0,0.8394682,0.39827397,0.9925777,0.43024012,0.51109725,0.47704208,0.12451396,0.22941996,1.229299,0.15029022,-0.060046602,-0.08311709,1.2273475,-0.39058003
-0.2,0.10000000000000003,1.4,0.0,-0.5235987755982988,0,0.84133893,0.39165157,0.99048567,0.4307958,0.5065263,0.47663927,0.13099548,0.39130944,1.2433467,-0.05032204,-0.08063906,-0.011260813,1.2323203,-1.5802245
-0.2,0.10000000000000003,1.4,0.0,-0.5235987755982988,0,0.8388761,0.39447647,0.99172616,0.43040484,0.51093704,0.48097134,0.1382722,-0.31437027,1.2316788,-0.087784775,-0.072208725,0.03662881,1.2308934,0.7338849
-0.2,0.10000000000000003,1.4,0.0,-0.5235987755982988,0,0.8387442,0.3960278,0.9915118,0.43023843,0.5107539,0.47862884,0.1308487,0.4153267,1.208892,0.077410154,-0.0839172,0.10306492,1.2543955,0.24059404
-0.2,0.10000000000000003,1.4,0.0,-0.5235987755982988,0,0.83896136,0.39363608,0.9921682,0.43009862,0.50818527,0.48010793,0.12843955,-0.31354296,1.3575624,-0.068816446,-0.05703225,0.28087023,1.1652478,-0.712914
-0.2,0.10000000000000003,1.4,0.0,-0.5235987755982988,0,0.8409384,0.39354432,0.9917776,0.43029308,0.5074727,0.47801045,0.11764869,1.0592366,1.406641,0.14901714,-0.048752196,0.106682196,1.1885327,-0.577911
-0.2,0.10000000000000003,1.4,0.0,-0.5235987755982988,0,0.8408009,0.39439988,0.9904103,0.4301642,0.50628126,0.47746673,0.14499955,0.34491265,1.3236157,0.135112,-0.16525666,0.11925539,1.2111486,-0.92772776
-0.2,0.10000000000000003,1.4,0.0,-0.5235987755982988,0,0.84005415,0.39374563,0.98979026,0.43069446,0.50635266,0.47723553,0.123088576,0.45291504,1.3327985,0.031584542,-0.12664825,0.062832646,1.2561393,-1.2042204
-0.2,0.10000000000000003,1.4,0.0,-0.5235987755982988,0,0.84198844,0.39560255,0.98930466,0.43068406,0.51019627,0.47757885,0.12109352,0.62651235,1.3101158,0.026916271,0.016178604,0.22091049,1.232454,-1.1388955
-0.2,0.10000000000000003,1.4,0.0,-0.5235987755982988,0,0.8396137,0.39204836,0.99077916,0.430927,0.50549555,0.48022583,0.11467457,-0.2769667,1.2789568,-0.07808393,-0.03172301,0.0025693323,1.1636765,-0.6069642
-0.2,0.10000000000000003,1.4,0.0,-0.5235987755982988,0,0.8375245,0.39553088,0.9917761,0.42965367,0.5153222,0.47626272,0.13443735,0.2306557,1.3266685,0.07845662,-0.14591905,0.24446611,1.314082,-1.0125188
-0.2,0.10000000000000003,1.4,0.0,-0.5235987755982988,0,0.83949107,0.39434624,0.9915567,0.43024322,0.5062345,0.47874248,0.14415863,0.70836693,1.3384647,0.026806457,-0.057393167,0.0104303155,1.2743962,-2.0848706
-0.2,0.10000000000000003,1.4,0.0,-0.5235987755982988,0,0.83939433,0.3957754,0.98994404,0.43091297,0.5057795,0.47708353,0.13527684,0.7532622,1.3080658,-0.07518535,-0.13883096,0.097462445,1.1906012,-0.9332671
-0.2,0.10000000000000003,1.4,0.0,-0.5235987755982988,0,0.8426216,0.39482215,0.9902331,0.43037885,0.50937843,0.47730225,0.15140757,0.8429748,1.3771149,0.2690808,-0.012036707,-0.018837355,1.1993363,-0.6125773
-0.2,0.10000000000000003,1.4,0.0,-0.5235987755982988,0,0.84016174,0.3934902,0.9910059,0.43013096,0.511206,0.483038,0.13568678,-0.2780741,1.2825707,-0.24940053,-0.03539027,-0.14654122,1.317969,-1.4555416
-0.2,0.10000000000000003,1.4,0.0,-0.5235987755982988,0,0.8412299,0.39554057,0.9909056,0.43064716,0.5039866,0.4751621,0.1419217,0.33734596,1.3307519,-0.0035166235,0.01887248,0.028134286,1.280508,0.18823841
-0.2,0.10000000000000003,1.4,0.0,-0.5235987755982988,0,0.84016603,0.39404416,0.99195325,0.43048704,0.50831544,0.47633606,0.100944616,0.49655154,1.3898083,0.14271319,-0.012206554,0.17564008,1.2052772,-0.66333187
-0.2,0.10000000000000003,1.4,0.0,-0.5235987755982988,0,0.8404677,0.39294627,0.9922242,0.43064994,0.5082509,0.4768238,0.10205327,0.09611183,1.240833,-0.020865228,-0.020599505,0.29348487,1.2875301,-0.740852
-0.2,0.10000000000000003,1.4,0.0,-0.5235987755982988,0,0.83984536,0.39544645,0.9909125,0.43048078,0.5152613,0.47927573,0.121319726,-0.009347374,1.3108997,0.11223098,-0.0420693,0.13898362,1.2813982,-1.4424082
-0.2,0.10000000000000003,1.4,0.0,-0.5235987755982988,0,0.8405701,0.3946117,0.9901085,0.43092254,0.51447666,0.4794863,0.14409083,0.90293366,1.2529386,0.07971625,-0.07906001,-0.04795357,1.2214098,-1.1721005
-0.2,0.10000000000000003,1.4,0.0,-0.5235987755982988,0,0.83917475,0.39506128,0.9895517,0.4306913,0.51065785,0.47570625,0.13799347,0.711006,1.3610473,-0.025154946,-0.13605104,0.2554757,1.1353927,0.06977999
-0.2,0.10000000000000003,1.4,0.0,-0.5235987755982988,0,0.83774245,0.39293903,0.9931135,0.43071568,0.5097844,0.4794069,0.13694039,0.36380774,1.1965096,0.14130566,-0.058784097,0.15289566,1.2739516,-2.045722
-0.2,0.10000000000000003,1.4,0.0,-0.5235987755982988,0,0.83699584,0.3948541,0.9882251,0.42957127,0.5102441,0.47849718,0.11413815,-0.08338958,1.2861111,0.10792492,-0.0550467,0.28542188,1.1910028,-1.7882646
-0.2,0.10000000000000003,1.4,0.0,-0.5235987755982988,0,0.8405324,0.39365453,0.99105084,0.43058723,0.5067522,0.47761187,0.12203468,0.8089182,1.3095121,0.054967694,-0.069413215,-0.06220499,1.2543515,-1.0223217
-0.2,0.10000000000000003,1.4,0.0,-0.5235987755982988,0,0.8402147,0.393931,0.99217224,0.4299988,0.50872755,0.47693157,0.123547055,-0.02824741,1.329904,-0.32588032,-0.015371367,0.16600184,1.2240537,-1.0208193
-0.2,0.10000000000000003,1.4,0.0,-0.5235987755982988,0,0.840163,0.39523143,0.9903502,0.43023258,0.50857574,0.47625297,0.15458192,0.15055074,1.2542541,0.09375959,-0.0699106,0.2223367,1.2697904,0.12899661
-0.2,0.10000000000000003,1.4,0.0,-0.5235987755982988,0,0.840195,0.39305583,0.9911525,0.43042246,0.5116157,0.4796821,0.11952563,0.76715034,1.2993383,-0.07037421,-0.050840907,0.09981987,1.2607477,-0.7708752
-0.2,0.10000000000000003,1.4,0.0,-0.5235987755982988,0,0.8380197,0.3964269,0.99032927,0.43078366,0.5106151,0.4759833,0.14714919,0.33177382,1.3926126,0.12214163,-0.06917908,0.0539755,1.2223228,-1.3687253
-0.2,0.10000000000000003,1.4,0.0,-0.5235987755982988,0,0.8377025,0.39487338,0.9925966,0.4302415,0.513505,0.48064187,0.13951202,0.45312333,1.225376,0.13905711,0.007472934,-0.029802756,1.1988627,-0.4481952
-0.2,0.10000000000000003,1.4,0.0,-0.5235987755982988,0,0.8392975,0.3915948,0.99107337,0.43038943,0.5075287,0.4799893,0.08855379,-0.457329,1.2311797,-0.013033864,-0.11319567,-0.12639159,1.1924646,-0.76089394
-0.2,0.10000000000000003,1.4,0.0,-0.5235987755982988,0,0.8394328,0.39526618,0.9898996,0.43059042,0.50958955,0.47471228,0.14810903,0.42135876,1.3194517,-0.14458202,-0.084052555,0.04563672,1.1826411,-1.7047825
-0.2,0.10000000000000003,1.4,0.0,-0.5235987755982988,0,0.8397421,0.39276436,0.9898069,0.43104342,0.5035642,0.4794193,0.14314403,0.37886372,1.292718,0.16161206,-0.07849625,-0.18663998,1.1912034,-0.5813703
-0.2,0.10000000000000003,1.4,0.0,-0.5235987755982988,0,0.84129524,0.39757055,0.99064136,0.42984477,0.50537926,0.47629443,0.11299445,0.52819186,1.2757719,-0.08027632,-0.002138828,-0.22321622,1.2195778,-0.9912787
-0.2,0.10000000000000003,1.4,0.0,-0.5235987755982988,0,0.8406246,0.39471537,0.9901359,0.42941305,0.49936992,0.47793353,0.1246011,-0.023114296,1.2218258,0.13105671,-0.07022565,0.045889262,1.100962,-0.9034409
-0.2,0.10000000000000003,1.4,0.0,-0.5235987755982988,0,0.83776164,0.39367265,0.9919221,0.42996046,0.5103333,0.47758684,0.13052537,0.029782813,1.3102171,-0.22213565,-0.11772151,0.122683965,1.265754,-0.95818937
-0.2,0.10000000000000003,1.4,0.0,-0.5235987755982988,0,0.83840704,0.39426687,0.9921683,0.42966962,0.5131817,0.47600827,0.117923886,0.720586,1.3016306,0.030256541,-0.14197658,0.14961325,1.1835839,0.45996976
-0.2,0.10000000000000003,1.4,0.0,-0.5235987755982988,0,0.83970094,0.39342824,0.9918702,0.4302934,0.51010007,0.47870737,0.13319339,0.3914006,1.373738,0.045423947,-0.08624219,0.33371207,1.2336519,-0.01948951
-0.2,0.10000000000000003,1.4,0.0,-0.5235987755982988,0,0.83982784,0.39397052,0.98982817,0.43000346,0.51759076,0.4751169,0.1288845,1.3883657,1.3401902,0.10105144,-0.032551907,0.18375768,1.21982,-0.2657089
-0.2,0.10000000000000003,1.4,0.0,-0.5235987755982988,0,0.8409914,0.39226466,0.9911586,0.4312966,0.5181051,0.47884646,0.13687725,0.55922854,1.3822469,0.048546165,-0.03540917,-0.015920937,1.2326685,-1.4304827
-0.2,0.10000000000000003,1.4,0.0,-0.5235987755982988,0,0.84119487,0.39062795,0.99036175,0.43146384,0.51048154,0.47773942,0.13551748,0.44221705,1.2729307,0.03975826,0.036538128,0.15540132,1.1806058,-1.0536312
-0.2,0.10000000000000003,1.4,0.0,-0.5235987755982988,0,0.83679074,0.39244518,0.9909359,0.4290746,0.506708,0.47915238,0.13768816,0.72993314,1.3273226,0.09234803,-0.015149691,-0.16354099,1.2288566,-0.5100094
-0.2,0.10000000000000003,1.4,0.0,-0.5235987755982988,0,0.8408639,0.39434552,0.992891,0.4311177,0.5095478,0.47917902,0.12889023,0.059762377,1.3656086,-0.12766951,-0.20579076,0.033544634,1.1925218,-0.57378256
-0.2,0.10000000000000003,1.4,0.0,-0.5235987755982988,0,0.84058326,0.39543077,0.9927612,0.4305834,0.5074775,0.47981635,0.15433365,0.38736895,1.2448394,0.047121212,-0.08193863,-0.007131615,1.2329906,-0.6516173
-0.2,0.10000000000000003,1.4,0.0,-0.5235987755982988,0,0.8369976,0.39545155,0.99322826,0.43022907,0.5121633,0.47971854,0.1201976,0.5101902,1.2053953,-0.29148743,-0.047922447,-0.0944914,1.2498069,-0.752581
-0.2,0.10000000000000003,1.4,0.0,-0.5235987755982988,0,0.8402319,0.39674392,0.99005127,0.43119937,0.5113654,0.47869188,0.13608718,0.3433677,1.3545327,0.06377958,0.07393901,0.16235581,1.3259534,-1.3034612
-0.2,0.10000000000000003,1.4,0.0,-0.5235987755982988,0,0.83862865,0.39455277,0.99143773,0.4305677,0.5054316,0.47956425,0.12940131,-0.3326402,1.4068782,-0.056220952,-0.016713548,-0.07292701,1.1485393,0.36424294
-0.2,0.10000000000000003,1.4,0.0,-0.5235987755982988,0,0.84090483,0.39364466,0.9906906,0.42990875,0.5081238,0.47773787,0.14130604,0.6242557,1.2929062,0.2118036,-0.011288849,0.0857192,1.2066761,-0.5148332
-0.2,0.10000000000000003,1.4,0.0,-0.5235987755982988,0,0.8381703,0.3952473,0.99161136,0.43013114,0.5058652,0.47902912,0.12803046,0.5849328,1.2697797,0.14697883,0.059197403,-0.12072329,1.2939879,-1.6614108
-0.2,0.10000000000000003,1.4,0.0,-0.5235987755982988,0,0.8374706,0.39203927,0.9907363,0.431078,0.50728714,0.48374912,0.116827674,0.14098506,1.3966231,0.25678658,-0.12563284,0.008262088,1.2373643,-1.1760672
-0.2,0.10000000000000003,1.4,0.0,-0.5235987755982988,0,0.8410457,0.39603618,0.9906812,0.42978942,0.51452565,0.47965872,0.14003758,1.4488969,1.3232046,-0.069564946,-0.103808716,-0.0499465,1.2430937,-0.54305655
-0.2,0.10000000000000003,1.4,0.0,-0.5235987755982988,0,0.84088945,0.39591408,0.9901243,0.4313087,0.50538474,0.47798166,0.11440121,0.540446,1.2379683,-0.01692254,0.008852167,0.082281515,1.1453485,-0.95148426
-0.2,0.10000000000000003,1.4,0.0,-0.5235987755982988,0,0.83963245,0.39288414,0.9911012,0.4301581,0.5069409,0.4773638,0.14702153,0.29692152,1.3428501,-0.04857729,-0.03898171,-0.17869884,1.1649667,-2.039358
-0.2,0.10000000000000003,1.4,0.0,-0.5235987755982988,0,0.8391968,0.38829872,0.99242157,0.43076503,0.50346625,0.4802215,0.12708797,0.68819904,1.2250121,0.08599429,-0.06368248,-0.005001448,1.1675012,-0.1856435
-0.2,0.10000000000000003,1.4,0.0,-0.5235987755982988,0,0.83779776,0.39374158,0.9900728,0.43075156,0.5057502,0.47941026,0.14946218,0.30076936,1.2395531,0.111902684,-0.089337565,0.029983545,1.232727,-0.39318836
-0.2,0.10000000000000003,1.4,0.0,-0.5235987755982988,0,0.8401716,0.39462397,0.99024725,0.43019208,0.5038165,0.48029453,0.14152747,0.5529921,1.3520983,0.0082472,-0.014558172,0.08357947,1.144191,-2.2248423
-0.2,0.10000000000000003,1.4,0.0,-0.5235987755982988,0,0.84019226,0.39583904,0.99202585,0.43109876,0.50819045,0.47684413,0.14607097,0.079716004,1.2989504,0.04270061,-0.1268462,0.062812425,1.3201224,-0.71955466
-0.2,0.10000000000000003,1.4,0.0,-0.5235987755982988,0,0.83858,0.3921466,0.9897628,0.42985046,0.50974125,0.4780669,0.11871819,-0.05050862,1.2360545,0.002536222,-0.039976228,0.16253844,1.1557697,-0.65322495
-0.2,0.10000000000000003,1.4,0.0,-0.5235987755982988,0,0.83949023,0.39204538,0.9910819,0.4310173,0.50832427,0.47778067,0.124775395,0.3064433,1.3836015,0.17325552,-0.11133022,0.22787681,1.2157197,-1.0484024
-0.2,0.10000000000000003,1.4,0.0,-0.5235987755982988,0,0.83891726,0.39555445,0.99150854,0.43011442,0.50280565,0.47881094,0.109211065,0.40835497,1.2613263,-0.13651954,-0.10611884,0.026220812,1.190545,0.5485104
-0.2,0.10000000000000003,1.4,0.0,-0.5235987755982988,0,0.83952343,0.39455372,0.9919179,0.4302017,0.508801,0.47662008,0.12863939,0.5121167,1.2877469,-0.025009893,0.03760291,-0.17740226,1.2596577,-1.2946283
-0.2,0.10000000000000003,1.4,0.0,-0.5235987755982988,0,0.83900386,0.3940002,0.99139094,0.43094477,0.5097354,0.47533035,0.13427185,-0.20259355,1.2533002,0.039268434,0.024926009,0.057443354,1.2064495,-0.23311217
-0.2,0.10000000000000003,1.4,0.0,-0.5235987755982988,0,0.8396112,0.39219862,0.9911471,0.43121892,0.50977224,0.48152116,0.1260912,0.490426,1.3697748,-0.013240684,-0.025779298,0.06232613,1.2266465,-0.674329
-0.2,0.10000000000000003,1.4,0.0,-0.5235987755982988,0,0.83978325,0.39477825,0.98925275,0.42983788,0.50954324,0.4758958,0.13334578,0.45375586,1.2288212,-0.030399963,0.01659019,0.12132808,1.1997163,-0.98526263
-0.2,0.10000000000000003,1.4,0.0,-0.5235987755982988,0,0.84049785,0.39268813,0.98957306,0.43035874,0.5041681,0.4782315,0.14937776,-0.10947561,1.371082,0.09968526,-0.09241052,-0.034076653,1.22455,-0.47534847
