sanky1234/BimanualDexCatch/isaacgymenvs/cem_results/football_pose_-0.1_0.0_1.4_0.5235987755982988_-0.5235987755982988_0_2025-05-25.csv
x,y,z,roll,pitch,yaw,robot1/joint1,robot1/joint2,robot1/joint3,robot1/joint4,robot1/joint5,robot1/joint6,robot1/joint7,robot2/joint1,robot2/joint2,robot2/joint3,robot2/joint4,robot2/joint5,robot2/joint6,robot2/joint7
-0.1,0.0,1.4,0.5235987755982988,-0.5235987755982988,0,-1.0549885,-1.1949319,0.67269105,0.07341132,0.22569051,0.9022264,-0.4938339,-1.8389682,1.7681733,-0.06635564,0.31814966,-0.12361506,0.7345432,-0.3615455
-0.1,0.0,1.4,0.5235987755982988,-0.5235987755982988,0,-1.0532609,-1.1957628,0.7555227,0.1341534,0.067002155,0.7834298,-0.6332956,-1.8385429,1.7671095,-0.08826392,0.33672395,0.048131865,0.63851064,-1.7885914
-0.1,0.0,1.4,0.5235987755982988,-0.5235987755982988,0,-1.0520146,-1.1958673,0.9069532,0.086926326,0.19568396,0.9224539,0.12238975,-1.8411736,1.7675095,-0.07579184,0.3632505,-0.17800827,0.6960515,-0.4822254
-0.1,0.0,1.4,0.5235987755982988,-0.5235987755982988,0,-1.0542512,-1.1944754,0.6373131,0.08157771,0.020032335,0.8984626,-0.20649277,-1.8384672,1.7664893,-0.07926684,0.30462012,0.1770858,0.7670735,-1.1000592
-0.1,0.0,1.4,0.5235987755982988,-0.5235987755982988,0,-1.0519924,-1.1935046,1.0225618,0.15234794,-0.13081083,0.9459648,0.30580664,-1.8416153,1.764932,-0.06393239,0.29776254,-0.054934207,0.6996645,-1.1627271
-0.1,0.0,1.4,0.5235987755982988,-0.5235987755982988,0,-1.0541327,-1.1950687,0.9947857,0.17715779,-0.15917131,1.0169868,-0.2344246,-1.8402841,1.767557,-0.05270727,0.367227,-0.084433675,0.67435175,-0.7160816
-0.1,0.0,1.4,0.5235987755982988,-0.5235987755982988,0,-1.0528959,-1.1954472,0.7706546,0.12013077,-0.0077122473,1.0058681,-0.7583552,-1.8414602,1.7690176,-0.06759436,0.35567003,0.17422038,0.6793791,-1.2089399
-0.1,0.0,1.4,0.5235987755982988,-0.5235987755982988,0,-1.0547175,-1.1951445,0.85763013,0.08020503,-0.25955436,0.8759386,-1.5680509,-1.839063,1.7682704,-0.060682386,0.34769794,-0.009206889,0.55685014,-0.6575399
-0.1,0.0,1.4,0.5235987755982988,-0.5235987755982988,0,-1.0523348,-1.1946331,1.2733591,0.15502392,0.038207754,0.9975142,-0.21152389,-1.8389518,1.7674237,-0.056210298,0.31678835,-0.021363689,0.71778345,-0.39645496
-0.1,0.0,1.4,0.5235987755982988,-0.5235987755982988,0,-1.0565692,-1.1944001,0.7626494,0.050187808,0.011168168,0.9785851,0.018118823,-1.8399663,1.7681421,-0.06599973,0.30346033,0.039749205,0.8042962,-0.7027739
-0.1,0.0,1.4,0.5235987755982988,-0.5235987755982988,0,-1.053983,-1.1942025,0.91170853,0.06384783,-0.119150825,0.8841085,0.5249834,-1.8417923,1.7681379,-0.056316506,0.3051903,0.15533957,0.68141043,-0.76024854
-0.1,0.0,1.4,0.5235987755982988,-0.5235987755982988,0,-1.05488,-1.1937066,1.0047748,0.10494456,0.16446923,0.9971792,-0.23622315,-1.8419156,1.7688626,-0.07987242,0.3704888,-0.10297024,0.7909921,-0.4443865
-0.1,0.0,1.4,0.5235987755982988,-0.5235987755982988,0,-1.0555475,-1.1957557,1.2154998,0.08753882,-0.08102682,0.8316002,-0.28513,-1.8410511,1.7690213,-0.061074242,0.32336217,-0.15927576,0.69386965,-0.5730132
-0.1,0.0,1.4,0.5235987755982988,-0.5235987755982988,0,-1.0524359,-1.1962548,0.87453324,0.08457615,-0.12533264,0.94059473,-0.94673306,-1.839972,1.7672849,-0.06806503,0.37327716,-0.02314058,0.6984576,-0.6915806
-0.1,0.0,1.4,0.5235987755982988,-0.5235987755982988,0,-1.0531119,-1.1931424,1.1916081,0.10540629,-0.3168296,0.8850694,-0.45930025,-1.8368675,1.7696295,-0.066494495,0.32730865,0.03889187,0.6302021,0.37040922
-0.1,0.0,1.4,0.5235987755982988,-0.5235987755982988,0,-1.0525633,-1.1935498,1.0814186,0.01795092,-0.09901526,1.0298716,0.31532544,-1.8372921,1.7668368,-0.065753885,0.3466207,0.06809723,0.7422294,-0.6578113
-0.1,0.0,1.4,0.5235987755982988,-0.5235987755982988,0,-1.055845,-1.1949372,0.7356995,0.111646794,0.022721255,0.87011,-0.83964276,-1.8427536,1.7690263,-0.06524361,0.34140113,0.06923827,0.7305883,-1.0294344
-0.1,0.0,1.4,0.5235987755982988,-0.5235987755982988,0,-1.0520301,-1.1931742,0.630495,0.045685176,0.034339696,0.9609054,-1.0945897,-1.8393476,1.7663195,-0.05902105,0.29873928,0.17113158,0.74174374,-1.8609954
-0.1,0.0,1.4,0.5235987755982988,-0.5235987755982988,0,-1.0561898,-1.1944991,0.9513472,0.071618386,-0.3048237,0.92427933,-0.35078353,-1.8412437,1.7671746,-0.045507118,0.325434,0.16246216,0.7281441,-0.77796876
-0.1,0.0,1.4,0.5235987755982988,-0.5235987755982988,0,-1.0567487,-1.1931483,1.3241228,0.16683081,-0.008180301,0.8868972,-1.2290359,-1.8418107,1.7677758,-0.049501274,0.33502045,0.059394144,0.6663493,-0.6340645
-0.1,0.0,1.4,0.5235987755982988,-0.5235987755982988,0,-1.0542706,-1.1943735,0.89580834,0.07064418,-0.07737821,0.9150122,-0.92727065,-1.839968,1.7679046,-0.0721121,0.3278798,0.005248022,0.5169729,-1.4166399
-0.1,0.0,1.4,0.5235987755982988,-0.5235987755982988,0,-1.0535469,-1.1934121,1.1613845,0.16282314,0.05247027,0.92496365,-0.02783299,-1.8398157,1.768862,-0.051908113,0.29916662,-0.012021408,0.6483588,-1.6515015
-0.1,0.0,1.4,0.5235987755982988,-0.5235987755982988,0,-1.053883,-1.1941254,1.056454,0.09180251,-0.12459228,0.9086786,-0.29147097,-1.8410532,1.769395,-0.07052985,0.31240156,0.1301595,0.73466754,-0.8831031
-0.1,0.0,1.4,0.5235987755982988,-0.5235987755982988,0,-1.0559484,-1.1921366,1.0880091,0.13890305,-0.18038848,0.9813296,0.085398585,-1.8396969,1.7692604,-0.057890587,0.36522275,0.015733374,0.72168964,-2.4629602
-0.1,0.0,1.4,0.5235987755982988,-0.5235987755982988,0,-1.055303,-1.1928709,0.66605467,0.060656063,0.18867254,1.0125026,0.87991905,-1.8396636,1.7680867,-0.08013888,0.3128001,0.017303655,0.6328371,-1.1005511
-0.1,0.0,1.4,0.5235987755982988,-0.5235987755982988,0,-1.0518454,-1.1953079,0.88068193,0.08050113,0.020850053,0.9194214,-0.88203853,-1.839795,1.7692763,-0.060942188,0.3183762,0.030393893,0.7256041,-0.7458822
-0.1,0.0,1.4,0.5235987755982988,-0.5235987755982988,0,-1.0525312,-1.1949121,1.1448599,0.1309883,-0.09008969,0.8752268,0.44762605,-1.8418515,1.7689046,-0.07853607,0.30993247,-0.19371288,0.78362113,0.08412917
-0.1,0.0,1.4,0.5235987755982988,-0.5235987755982988,0,-1.0506234,-1.1940392,0.595482,0.084613785,-0.083375536,0.7560851,-0.5332367,-1.839612,1.7667332,-0.07073355,0.33266723,-0.12791312,0.69947946,-0.91016155
-0.1,0.0,1.4,0.5235987755982988,-0.5235987755982988,0,-1.050995,-1.1929624,1.1458169,0.117523864,-0.034304842,0.91864514,-1.5120943,-1.8361082,1.7688546,-0.0742966,0.330795,-0.23594725,0.6990704,-1.0205629
-0.1,0.0,1.4,0.5235987755982988,-0.5235987755982988,0,-1.0582993,-1.1946808,0.61049604,0.08818831,-0.10629415,0.9234972,0.01027516,-1.8385462,1.7666225,-0.065133415,0.35671666,0.06797096,0.7528795,-0.37592432
-0.1,0.0,1.4,0.5235987755982988,-0.5235987755982988,0,-1.054222,-1.1952412,0.84887904,0.13463998,0.29078788,1.078694,-0.06671747,-1.8396585,1.7688887,-0.06280337,0.31824365,0.07283911,0.7682265,-0.76673293
-0.1,0.0,1.4,0.5235987755982988,-0.5235987755982988,0,-1.0554651,-1.192253,0.7274658,0.06992761,-0.17242296,0.9650855,0.33716258,-1.8396813,1.7683816,-0.067013994,0.30774534,0.009983722,0.75104964,-1.0861821
-0.1,0.0,1.4,0.5235987755982988,-0.5235987755982988,0,-1.0511959,-1.1949241,0.70301956,0.13191698,0.12113799,0.87747735,0.41500953,-1.8398683,1.7688589,-0.05202796,0.3279506,-0.04485078,0.75970167,-2.5314002
-0.1,0.0,1.4,0.5235987755982988,-0.5235987755982988,0,-1.0570962,-1.1945372,0.8028234,0.1861194,-0.33589357,0.81192714,0.55009276,-1.839372,1.7706053,-0.075126655,0.33197507,-0.10031789,0.88071376,-0.7689144
-0.1,0.0,1.4,0.5235987755982988,-0.5235987755982988,0,-1.0543149,-1.1929069,1.1185468,0.21750511,0.053750284,0.9039385,-0.35599923,-1.8451915,1.7690549,-0.054609574,0.33625275,0.037107896,0.70144165,-0.94437855
-0.1,0.0,1.4,0.5235987755982988,-0.5235987755982988,0,-1.0569954,-1.1934949,0.9816733,0.105918564,-0.22495374,0.8502701,-0.9320361,-1.8393426,1.7679656,-0.06578995,0.2889835,-0.16277981,0.78769076,-0.73012316
-0.1,0.0,1.4,0.5235987755982988,-0.5235987755982988,0,-1.054567,-1.193349,1.2669199,0.10376474,-0.028078722,0.89791757,-0.10637811,-1.839541,1.7673911,-0.056752168,0.34361854,-0.046889514,0.7081201,-0.6503311
-0.1,0.0,1.4,0.5235987755982988,-0.5235987755982988,0,-1.0545992,-1.1930666,0.779573,0.10564669,0.1400435,0.98108286,-0.6797522,-1.8396311,1.7691674,-0.04824808,0.35944992,0.34817126,0.86738193,-0.7804547
-0.1,0.0,1.4,0.5235987755982988,-0.5235987755982988,0,-1.0566796,-1.1940609,1.130907,0.07642124,-0.14064921,0.923433,-0.43790448,-1.8404027,1.7664398,-0.062148117,0.348687,0.011548432,0.63821185,-1.3750046
-0.1,0.0,1.4,0.5235987755982988,-0.5235987755982988,0,-1.055116,-1.194723,1.1398005,0.17661121,-0.22721295,0.86560977,-0.18012102,-1.8394547,1.7684134,-0.06015719,0.32616657,-0.037240118,0.80771446,-0.38081717
-0.1,0.0,1.4,0.5235987755982988,-0.5235987755982988,0,-1.0521523,-1.1934632,1.1211503,0.10814885,-0.08623691,0.9171887,-1.7149223,-1.838481,1.7682725,-0.06318719,0.31624714,-0.061818898,0.63711965,0.38106716
-0.1,0.0,1.4,0.5235987755982988,-0.5235987755982988,0,-1.0527805,-1.1946061,1.0639154,0.11578077,-0.0128884055,0.9639898,-1.7159395,-1.8395284,1.768714,-0.05900353,0.29893324,-0.076479964,0.8562452,-1.4733227
-0.1,0.0,1.4,0.5235987755982988,-0.5235987755982988,0,-1.0539225,-1.1927189,1.0097283,0.21414715,-0.0868223,0.90466905,-0.7137475,-1.8393589,1.7690718,-0.07667081,0.29616678,-0.015260294,0.71067977,-1.4611104
-0.1,0.0,1.4,0.5235987755982988,-0.5235987755982988,0,-1.05331,-1.1939855,1.6001034,0.12637198,-0.23887514,0.92226243,-0.00042509966,-1.840318,1.7652541,-0.061640773,0.35125136,-0.07723232,0.69096345,-0.9588022
-0.1,0.0,1.4,0.5235987755982988,-0.5235987755982988,0,-1.053595,-1.1936078,1.3025137,0.08768952,0.0023175103,0.9759445,-0.5202787,-1.8409846,1.766926,-0.07518586,0.3178227,0.09320162,0.6841848,-0.71664125
-0.1,0.0,1.4,0.5235987755982988,-0.5235987755982988,0,-1.0517236,-1.1936955,1.1916045,-0.024913855,-0.022767892,1.0065936,-0.55479497,-1.8400869,1.7665671,-0.06400223,0.33326948,0.028497014,0.715865,-0.98642147
-0.1,0.0,1.4,0.5235987755982988,-0.5235987755982988,0,-1.0536265,-1.1946192,1.031626,0.08603761,0.0070112757,0.94428927,-0.44968536,-1.8382508,1.7657017,-0.0768525,0.33300865,-0.06843293,0.68398273,-1.4967641
-0.1,0.0,1.4,0.5235987755982988,-0.5235987755982988,0,-1.0561587,-1.193731,1.1054369,0.13642994,0.10373911,0.9118642,0.8070398,-1.8398324,1.7658952,-0.053400237,0.32517576,-0.03405997,0.7404285,-2.0437121
-0.1,0.0,1.4,0.5235987755982988,-0.5235987755982988,0,-1.0542125,-1.1935155,1.1625553,0.095288254,0.39756027,0.90331537,-0.18823653,-1.8432308,1.7678746,-0.053873636,0.3209014,-0.080336116,0.6460517,-1.2051892
-0.1,0.0,1.4,0.5235987755982988,-0.5235987755982988,0,-1.0548757,-1.1935178,0.7347876,0.016950782,0.06428464,0.9615934,-0.6431617,-1.839196,1.766748,-0.06392695,0.29893112,-0.03205748,0.655874,-0.87030584
-0.1,0.0,1.4,0.5235987755982988,-0.5235987755982988,0,-1.0554495,-1.1950878,0.7037895,0.037937276,-0.02849423,0.9199732,0.14479066,-1.8377508,1.7676609,-0.071945526,0.33233672,0.095759876,0.82842803,-0.7256399
-0.1,0.0,1.4,0.5235987755982988,-0.5235987755982988,0,-1.0544603,-1.1941073,0.7787563,0.06429716,-0.06554209,1.0094094,0.09766878,-1.8397269,1.7666322,-0.061978363,0.34484845,-0.0013696809,0.7591515,-0.5001966
-0.1,0.0,1.4,0.5235987755982988,-0.5235987755982988,0,-1.0544566,-1.1943736,1.4153979,0.11293787,0.09745632,1.0012733,-1.3452792,-1.8421793,1.769459,-0.064466,0.3318856,-0.11040969,0.74517083,-2.0366642
-0.1,0.0,1.4,0.5235987755982988,-0.5235987755982988,0,-1.0502282,-1.194064,0.9007092,0.18174446,-0.017312026,0.9423189,0.054490115,-1.8380271,1.7687751,-0.05873452,0.33805707,0.14585596,0.8341337,-0.33263907
-0.1,0.0,1.4,0.5235987755982988,-0.5235987755982988,0,-1.0523292,-1.1940022,0.5299184,0.10850965,0.07548557,0.9301754,-0.2937504,-1.8378464,1.7675596,-0.085696094,0.3064943,0.15579541,0.72493595,-1.0300637
-0.1,0.0,1.4,0.5235987755982988,-0.5235987755982988,0,-1.0558639,-1.1934775,1.0257343,0.05521569,-0.05915491,0.8680901,-0.82889944,-1.8390882,1.7683343,-0.07500801,0.3312089,-0.229295,0.72800016,-1.0590099
-0.1,0.0,1.4,0.5235987755982988,-0.5235987755982988,0,-1.0534462,-1.1935449,0.7564206,0.03141613,-0.11780217,0.9629192,0.61680704,-1.8459731,1.7682041,-0.07090765,0.316414,-0.11142534,0.6038289,-1.068598
-0.1,0.0,1.4,0.5235987755982988,-0.5235987755982988,0,-1.0548604,-1.1940378,0.79463035,0.092499085,-0.07077079,0.8431075,-1.1204174,-1.8387669,1.768288,-0.056270115,0.3332568,0.11605427,0.79488444,-0.6151226
-0.1,0.0,1.4,0.5235987755982988,-0.5235987755982988,0,-1.0553714,-1.1935847,1.5060012,0.080813885,0.18670778,1.0175217,-0.040381186,-1.8392463,1.7698665,-0.06511636,0.34973305,-0.018166535,0.7046734,-1.5548302
-0.1,0.0,1.4,0.5235987755982988,-0.5235987755982988,0,-1.0546497,-1.1922883,0.79540384,0.09253167,0.015341043,0.81333655,-0.45802212,-1.8377516,1.767381,-0.06851392,0.29832292,0.07077661,0.76850384,-1.3793573
-0.1,0.0,1.4,0.5235987755982988,-0.5235987755982988,0,-1.0526158,-1.1943322,1.1571697,0.09072858,0.011978159,0.76669353,0.3831162,-1.8417062,1.7668315,-0.059897482,0.3577205,0.08332923,0.6599991,-0.8692622
-0.1,0.0,1.4,0.5235987755982988,-0.5235987755982988,0,-1.0539858,-1.1934549,1.046892,0.085397325,-0.042091515,0.832939,-0.33226565,-1.8399713,1.7675633,-0.07494889,0.34255594,-0.14665362,0.59888965,-1.7510744
-0.1,0.0,1.4,0.5235987755982988,-0.5235987755982988,0,-1.053821,-1.1943561,0.9092919,0.13617466,0.19122653,0.9123332,0.058462393,-1.8395215,1.7669114,-0.065987766,0.319368,-0.040315792,0.73520285,-1.2853743
-0.1,0.0,1.4,0.5235987755982988,-0.5235987755982988,0,-1.054343,-1.194933,1.0085928,0.009797964,0.048717465,0.8965777,-0.22482345,-1.8397467,1.7669094,-0.07231103,0.3486051,0.1159425,0.62685573,-1.4190365
-0.1,0.0,1.4,0.5235987755982988,-0.5235987755982988,0,-1.0534048,-1.1930132,1.2708267,0.12348101,0.027081074,0.9736928,-0.14875534,-1.8416485,1.7683868,-0.067411326,0.34318212,-0.2360466,0.743372,-0.1462009
-0.1,0.0,1.4,0.5235987755982988,-0.5235987755982988,0,-1.054601,-1.1933168,1.4725684,0.022896012,0.20776057,1.0648637,0.6097001,-1.8429676,1.7686291,-0.054728203,0.31056136,0.15358223,0.7198425,-0.53553146
-0.1,0.0,1.4,0.5235987755982988,-0.5235987755982988,0,-1.0549119,-1.1936496,0.5975996,0.17865086,0.120305784,0.9253396,-0.9928426,-1.8403236,1.7685789,-0.06277661,0.34073186,-0.081452824,0.66009957,-0.60963786
-0.1,0.0,1.4,0.5235987755982988,-0.5235987755982988,0,-1.048375,-1.1947803,1.018639,0.11764942,-0.0115973605,0.8185306,0.05252144,-1.8401185,1.7678412,-0.061500907,0.32334328,0.18856542,0.6292124,-2.0630188
-0.1,0.0,1.4,0.5235987755982988,-0.5235987755982988,0,-1.0544149,-1.191995,1.0582709,0.15363075,-0.26426718,0.89574337,-0.5457656,-1.841674,1.7684559,-0.055041175,0.30958253,0.041703217,0.7166333,-1.2818258
-0.1,0.0,1.4,0.5235987755982988,-0.5235987755982988,0,-1.0562676,-1.1940147,0.93319386,0.11856635,0.15030004,0.96664387,-0.6452716,-1.840551,1.76709,-0.06860352,0.31583714,-0.1665152,0.8623346,-1.0076665
-0.1,0.0,1.4,0.5235987755982988,-0.5235987755982988,0,-1.0538363,-1.1938255,1.1755309,0.090927064,-0.23024268,0.9099018,-1.2175736,-1.8398262,1.7664565,-0.06791347,0.3170473,-0.16382019,0.80727327,-0.6164815
-0.1,0.0,1.4,0.5235987755982988,-0.5235987755982988,0,-1.0515748,-1.1944866,0.8447997,0.11092203,0.029999841,1.0535175,0.8730361,-1.8413241,1.768154,-0.073089704,0.34631655,0.09728571,0.60481966,-1.0140984
-0.1,0.0,1.4,0.5235987755982988,-0.5235987755982988,0,-1.0523198,-1.1945142,1.0714478,0.16962636,-0.01657137,1.0584197,-0.13061875,-1.8454388,1.7683733,-0.0720258,0.32394874,0.035650287,0.6431893,-1.1008496
-0.1,0.0,1.4,0.5235987755982988,-0.5235987755982988,0,-1.056377,-1.1932528,1.0603087,0.14393862,0.1985551,0.91552776,0.30662194,-1.8390087,1.7656857,-0.06041196,0.34599772,0.14100818,0.7561636,-0.8963546
-0.1,0.0,1.4,0.5235987755982988,-0.5235987755982988,0,-1.0546645,-1.1933638,1.1739795,0.16786608,0.18672779,0.8856346,0.12048922,-1.8371372,1.7694196,-0.071978115,0.33405527,0.057559315,0.7987054,-1.3302646
-0.1,0.0,1.4,0.5235987755982988,-0.5235987755982988,0,-1.0524904,-1.1965098,0.7137311,0.1123342,-0.061185353,1.1228454,-0.21982399,-1.8406196,1.7674813,-0.061375577,0.30202588,-0.16905853,0.7988011,-0.24870707
-0.1,0.0,1.4,0.5235987755982988,-0.5235987755982988,0,-1.0537013,-1.194119,1.1309651,0.12939322,-0.0131594585,0.9406683,-0.87243766,-1.839958,1.7658046,-0.06596504,0.3464407,-0.07695079,0.7375677,-0.30118454
-0.1,0.0,1.4,0.5235987755982988,-0.5235987755982988,0,-1.0549676,-1.1927978,0.93171877,0.04417686,0.06317664,0.86269486,-1.0008916,-1.840386,1.7681795,-0.060090546,0.29697487,0.019605782,0.7789558,-1.5403636
-0.1,0.0,1.4,0.5235987755982988,-0.5235987755982988,0,-1.0520127,-1.1956837,0.9321337,0.13215624,-0.12208963,1.002345,-0.22764936,-1.8414038,1.7695178,-0.060126673,0.3006947,0.019129224,0.7615102,-1.7605324
-0.1,0.0,1.4,0.5235987755982988,-0.5235987755982988,0,-1.0501724,-1.1936845,1.2220473,0.119758666,-0.12682737,0.9252577,0.008750883,-1.840998,1.7670188,-0.05225311,0.34028196,0.11219963,0.5714185,-1.1491392
-0.1,0.0,1.4,0.5235987755982988,-0.5235987755982988,0,-1.0527288,-1.1934968,1.1777374,0.26978585,-0.1014363,0.90727365,-0.18211865,-1.8409148,1.7655891,-0.06279629,0.3441613,-0.01135281,0.6819954,-1.2026465
-0.1,0.0,1.4,0.5235987755982988,-0.5235987755982988,0,-1.0526015,-1.192356,1.2037979,0.06577343,-0.13870095,0.93922687,0.21989156,-1.8386999,1.7711529,-0.06704978,0.36095175,-0.09979488,0.6169958,-0.20269303
-0.1,0.0,1.4,0.5235987755982988,-0.5235987755982988,0,-1.0516587,-1.1945655,0.86029994,0.07262901,0.21635997,0.8583037,-0.37912515,-1.8381653,1.7688265,-0.06499226,0.40212893,-0.066199265,0.74357635,-1.9602649
-0.1,0.0,1.4,0.5235987755982988,-0.5235987755982988,0,-1.0543694,-1.1935157,0.99219567,0.07871762,0.047674794,0.95597476,-0.44036967,-1.8408134,1.7690669,-0.062345944,0.3116008,0.1300024,0.5476636,-0.3944285
-0.1,0.0,1.4,0.5235987755982988,-0.5235987755982988,0,-1.054324,-1.1923332,0.7086049,0.13241118,-0.2509099,1.0317626,0.073627755,-1.8411154,1.7676544,-0.05970865,0.33149177,-0.17346443,0.6077844,-0.5179938
-0.1,0.0,1.4,0.5235987755982988,-0.5235987755982988,0,-1.0544568,-1.1962805,1.561922,0.090662815,0.07541455,0.9165126,-0.09210068,-1.8433471,1.7680949,-0.06375318,0.31206027,0.079619765,0.8203253,-0.87870795
-0.1,0.0,1.4,0.5235987755982988,-0.5235987755982988,0,-1.0511774,-1.1936111,1.3021538,0.07061849,-0.056781456,0.9078636,-0.34223837,-1.8395997,1.7678283,-0.056237925,0.34154513,0.17669667,0.81303626,-0.8021692
-0.1,0.0,1.4,0.5235987755982988,-0.5235987755982988,0,-1.0542896,-1.1944505,0.9869439,0.07145568,0.3488174,0.83473897,0.98902524,-1.8371646,1.7678771,-0.06521984,0.3115322,-0.06697428,0.8404285,-1.5381116
-0.1,0.0,1.4,0.5235987755982988,-0.5235987755982988,0,-1.0522429,-1.1940941,1.2822856,0.09038832,-0.16259614,0.9633942,-0.40630823,-1.8393116,1.7675979,-0.065078735,0.3665389,0.05159647,0.77599883,-0.88943547
-0.1,0.0,1.4,0.5235987755982988,-0.5235987755982988,0,-1.0545719,-1.1938523,1.184453,0.012238271,-0.09335841,0.94353515,0.15611035,-1.8416269,1.7675852,-0.05669548,0.35609737,0.28021473,0.62598354,-1.7757598
-0.1,0.0,1.4,0.5235987755982988,-0.5235987755982988,0,-1.0536387,-1.1942904,1.271597,0.0708198,-0.20251703,1.0013627,-0.4199063,-1.838159,1.7674605,-0.072969586,0.36083618,0.005892871,0.7322603,-1.3063531
-0.1,0.0,1.4,0.5235987755982988,-0.5235987755982988,0,-1.0516524,-1.1936831,0.89637214,0.09772654,0.04074867,0.8803146,-0.89484555,-1.8428477,1.767618,-0.05165238,0.3251304,0.20362002,0.6816768,-1.8139055
-0.1,0.0,1.4,0.5235987755982988,-0.5235987755982988,0,-1.0525812,-1.1927615,0.6670371,0.09659905,0.03784229,0.8105669,0.023893187,-1.8383343,1.7676206,-0.07391695,0.31723496,0.082621254,0.64765924,-1.2014166
-0.1,0.0,1.4,0.5235987755982988,-0.5235987755982988,0,-1.0519835,-1.1928549,0.68532497,0.071066484,-0.029207451,0.8398327,0.04846255,-1.8390942,1.7671111,-0.06598882,0.35188267,0.16398492,0.8753172,-0.9710043
-0.1,0.0,1.4,0.5235987755982988,-0.5235987755982988,0,-1.0538026,-1.193455,1.1256851,0.17478272,0.3541527,0.95540977,-0.20734087,-1.8396468,1.7691032,-0.07210861,0.35208163,0.11751132,0.65567154,-1.5243113
-0.1,0.0,1.4,0.5235987755982988,-0.5235987755982988,0,-1.0521474,-1.1942008,0.8894077,0.12780267,-0.11967383,0.91408384,-0.22996448,-1.8426417,1.7659115,-0.061920144,0.33280316,0.014428475,0.8700622,-1.2463454
-0.1,0.0,1.4,0.5235987755982988,-0.5235987755982988,0,-1.050398,-1.1961612,0.8418695,0.14787084,-0.13426638,0.85070074,-0.38871896,-1.8422575,1.768825,-0.071906075,0.32301348,-0.049765956,0.9581206,-1.8914863
-0.1,0.0,1.4,0.5235987755982988,-0.5235987755982988,0,-1.0516741,-1.1927496,1.0858066,0.1184027,0.4332304,0.84034115,-1.2958754,-1.840778,1.7664617,-0.057529192,0.32105199,0.09978176,0.73490864,-0.75221324
-0.1,0.0,1.4,0.5235987755982988,-0.5235987755982988,0,-1.052882,-1.1925039,1.408487,0.06468299,-0.08778303,0.9053707,0.6695343,-1.840492,1.7693685,-0.06569624,0.33204246,-0.009792696,0.6206837,-1.2454056
-0.1,0.0,1.4,0.5235987755982988,-0.5235987755982988,0,-1.0531867,-1.1921769,1.3960425,0.075287715,0.24580245,0.8146196,0.7880435,-1.8399606,1.7678193,-0.05983138,0.3318572,0.0028261954,0.85454607,0.101505525
-0.1,0.0,1.4,0.5235987755982988,-0.5235987755982988,0,-1.0523398,-1.1948973,1.1323775,0.008627693,0.10762299,1.0152241,0.17270027,-1.8390466,1.7674563,-0.071684316,0.34990808,0.06823373,0.8456752,-1.4837387
-0.1,0.0,1.4,0.5235987755982988,-0.5235987755982988,0,-1.0529145,-1.1953342,0.7522713,0.10582999,-0.08788719,1.0285541,-0.6161266,-1.843535,1.7671658,-0.053684283,0.33456463,0.07723191,0.63020605,-0.8773769
-0.1,0.0,1.4,0.5235987755982988,-0.5235987755982988,0,-1.0539598,-1.1932905,0.8738491,0.13757798,-0.1012257,0.89304334,-0.47814322,-1.8398372,1.7686218,-0.05671368,0.38117984,0.1266606,0.69338435,-0.528654
-0.1,0.0,1.4,0.5235987755982988,-0.5235987755982988,0,-1.0540353,-1.1950129,0.73519784,0.0738734,-0.22287066,0.7658364,-0.48908722,-1.840847,1.7675622,-0.059660245,0.353353,0.26110423,0.7664172,-0.6365699
-0.1,0.0,1.4,0.5235987755982988,-0.5235987755982988,0,-1.0509247,-1.1941313,0.7291143,0.09546072,0.17836237,0.83406514,-0.25744894,-1.8379986,1.7671641,-0.06413177,0.3212947,0.11848482,0.65197605,0.53956634
-0.1,0.0,1.4,0.5235987755982988,-0.5235987755982988,0,-1.0553088,-1.1938832,1.0100219,0.09301531,0.029033728,0.93112564,-0.9158475,-1.84163,1.7689217,-0.06683848,0.34697756,-0.103469014,0.91167694,-0.5438886
-0.1,0.0,1.4,0.5235987755982988,-0.5235987755982988,0,-1.052346,-1.1934217,0.5303565,0.0985609,-0.09064198,0.8312136,0.27655995,-1.8415042,1.76621,-0.06454003,0.30770597,0.07316241,0.7836665,-1.0533365
-0.1,0.0,1.4,0.5235987755982988,-0.5235987755982988,0,-1.0528651,-1.1946051,1.4151306,0.02478851,-0.012476089,0.9022008,-0.98365486,-1.8416996,1.7658765,-0.051185083,0.36091906,0.091277786,0.7169781,-1.2787462
-0.1,0.0,1.4,0.5235987755982988,-0.5235987755982988,0,-1.053869,-1.1957126,1.3587493,0.12615536,0.056716874,1.0478423,-0.49257076,-1.8397795,1.7672234,-0.06796456,0.3077086,-0.005242083,0.820244,-0.47719887
-0.1,0.0,1.4,0.5235987755982988,-0.5235987755982988,0,-1.0550938,-1.1953545,1.2825283,0.053669866,0.017854538,0.9424423,-0.71118206,-1.839793,1.767269,-0.0716618,0.290554,0.110406786,0.78530145,-1.4345611
-0.1,0.0,1.4,0.5235987755982988,-0.5235987755982988,0,-1.0556282,-1.1936218,1.2235348,-0.0077244625,-0.10341281,1.1144373,0.9040653,-1.8383936,1.7678437,-0.05825975,0.35784817,0.2651514,0.741047,-0.21515802
-0.1,0.0,1.4,0.5235987755982988,-0.5235987755982988,0,-1.0548434,-1.1958817,0.8256519,0.026649052,0.1887326,0.81824744,-1.2626256,-1.836579,1.7672774,-0.06213859,0.30304846,0.048951514,0.73399884,-2.1535687
-0.1,0.0,1.4,0.5235987755982988,-0.5235987755982988,0,-1.0565385,-1.1957939,0.8172915,0.07981477,-0.09849489,0.9590812,0.481477,-1.8416266,1.7678727,-0.06504828,0.30940393,0.16352294,0.70333993,-1.0088568
-0.1,0.0,1.4,0.5235987755982988,-0.5235987755982988,0,-1.0562997,-1.1931553,0.8060159,0.03615207,0.032351974,0.7489959,0.48188028,-1.8375322,1.7652014,-0.056476768,0.31170094,-0.18583587,0.64633715,-0.55377644
-0.1,0.0,1.4,0.5235987755982988,-0.5235987755982988,0,-1.0521208,-1.1964068,1.1659371,0.07436175,-0.2629295,0.9673314,-1.1595777,-1.8391801,1.7665906,-0.08892651,0.31658795,-0.019312901,0.70171416,-0.8291694
-0.1,0.0,1.4,0.5235987755982988,-0.5235987755982988,0,-1.0533621,-1.1939361,0.87174314,0.062342014,-0.3016612,0.89861786,-0.96106553,-1.8372117,1.768417,-0.057819735,0.31976023,-0.32438147,0.65145046,-1.4304599
-0.1,0.0,1.4,0.5235987755982988,-0.5235987755982988,0,-1.0532324,-1.1943294,0.81127685,0.05546186,0.14289562,0.9064409,-0.10899064,-1.8394141,1.7691249,-0.045389857,0.3652239,0.023952758,0.540629,-0.5085229
-0.1,0.0,1.4,0.5235987755982988,-0.5235987755982988,0,-1.055731,-1.1950396,0.8694786,0.21939126,-0.10794899,1.0362313,-0.69337445,-1.8374444,1.770181,-0.059901673,0.3089263,0.20974202,0.6013824,-0.34816018
-0.1,0.0,1.4,0.5235987755982988,-0.5235987755982988,0,-1.0540004,-1.1934656,0.60177463,0.05061946,-0.00469456,0.85990316,0.43032598,-1.8381479,1.7678276,-0.055212803,0.29485503,0.13821399,0.59442484,-1.655299
-0.1,0.0,1.4,0.5235987755982988,-0.5235987755982988,0,-1.0547308,-1.1934904,0.7124163,0.1300969,-0.044738214,0.82444584,-0.33736828,-1.8370907,1.7685083,-0.05840111,0.3111187,0.10170537,0.6217974,-1.174129
-0.1,0.0,1.4,0.5235987755982988,-0.5235987755982988,0,-1.0557193,-1.1964287,0.65118635,0.09564106,-0.15276204,1.0241618,0.058394335,-1.8410757,1.7668016,-0.06380689,0.33614162,0.052917156,0.78453195,-0.5140113
-0.1,0.0,1.4,0.5235987755982988,-0.5235987755982988,0,-1.0566046,-1.1953061,1.0689152,0.07088887,-0.06351183,0.9824764,-0.5247243,-1.8410519,1.7712648,-0.07005816,0.34141293,0.08002928,0.52042514,-0.8731049
-0.1,0.0,1.4,0.5235987755982988,-0.5235987755982988,0,-1.0548456,-1.195142,0.9296184,0.119555786,0.2613644,0.9797091,-1.0530549,-1.8415736,1.7683213,-0.07326923,0.3501652,0.09239669,0.72784626,-0.42763767
-0.1,0.0,1.4,0.5235987755982988,-0.5235987755982988,0,-1.0547667,-1.1955594,1.3209829,0.19793764,0.016245833,0.90409386,0.17150904,-1.8429039,1.7679187,-0.06003785,0.3490889,0.052070666,0.7777974,-1.0413774
-0.1,0.0,1.4,0.5235987755982988,-0.5235987755982988,0,-1.0576152,-1.1937699,1.0944816,0.15101488,0.2287433,0.881933,0.03426026,-1.840741,1.7671499,-0.08174498,0.32872322,-0.07490186,0.72834617,-1.0100068
-0.1,0.0,1.4,0.5235987755982988,-0.5235987755982988,0,-1.0582107,-1.1956702,1.1740369,0.1691715,-0.22921951,0.87793314,-0.008639775,-1.8407726,1.7690711,-0.06159134,0.38096094,0.04818216,0.8408811,-1.5816957
-0.1,0.0,1.4,0.5235987755982988,-0.5235987755982988,0,-1.0539347,-1.1954485,0.8810926,0.16387534,-0.051343407,1.0345213,-0.75406235,-1.8396401,1.7700039,-0.05898942,0.30707824,0.10888503,0.7330791,-0.8450376
-0.1,0.0,1.4,0.5235987755982988,-0.5235987755982988,0,-1.0542382,-1.1943924,1.5611247,0.19175518,0.029888332,1.0001743,0.1408802,-1.837876,1.7680779,-0.047314588,0.33846155,0.25991866,0.772504,-1.6985984
-0.1,0.0,1.4,0.5235987755982988,-0.5235987755982988,0,-1.0545535,-1.195803,0.9930908,0.13897753,-0.15034421,0.91589665,-1.1456348,-1.8407476,1.7682399,-0.0578688,0.31988794,0.11280144,0.6219621,-0.14441581
-0.1,0.0,1.4,0.5235987755982988,-0.5235987755982988,0,-1.0567961,-1.1943142,0.8793462,0.06684502,0.07296925,0.852396,-0.060044102,-1.8415941,1.7680752,-0.061251868,0.34641725,0.03154764,0.8770781,-0.8512449
-0.1,0.0,1.4,0.5235987755982988,-0.5235987755982988,0,-1.0557523,-1.1959478,1.1567061,0.119895376,0.02749112,0.98307556,0.30649546,-1.8450767,1.7678223,-0.070828885,0.33766052,0.2810462,0.64410067,-1.1109228
-0.1,0.0,1.4,0.5235987755982988,-0.5235987755982988,0,-1.0548402,-1.1952363,1.3785611,0.2053207,0.058817595,0.9316044,0.18188524,-1.8393434,1.766715,-0.07094205,0.36150268,0.03582553,0.6864127,-1.2557722
-0.1,0.0,1.4,0.5235987755982988,-0.5235987755982988,0,-1.0526618,-1.1951679,1.3788536,0.11990195,-0.041679848,0.99894816,-0.5088255,-1.8422513,1.7677045,-0.056819063,0.3769932,0.18595572,0.500608,-0.62304366
-0.1,0.0,1.4,0.5235987755982988,-0.5235987755982988,0,-1.0558997,-1.1947732,1.4847975,0.19502525,0.053733464,0.86253566,-0.1791542,-1.8394636,1.7661784,-0.075634204,0.34285384,-0.031909734,0.59647894,-1.344169
-0.1,0.0,1.4,0.5235987755982988,-0.5235987755982988,0,-1.0551065,-1.1955905,0.9693543,0.24615906,0.028416485,0.9946468,-0.32890075,-1.8404417,1.7658149,-0.06136199,0.29759088,0.07445297,0.7852822,-1.4225786
-0.1,0.0,1.4,0.5235987755982988,-0.5235987755982988,0,-1.054707,-1.1936344,1.0230817,0.1467067,-0.22611032,0.8552871,-0.44084185,-1.8382639,1.7677226,-0.07045738,0.29449335,-0.092143364,0.7368405,-1.6131891
-0.1,0.0,1.4,0.5235987755982988,-0.5235987755982988,0,-1.0552573,-1.1947243,0.7186863,0.12237791,-0.111045904,0.93344146,-1.065871,-1.8386832,1.7685381,-0.06864303,0.3323041,0.27294695,0.7071239,-1.3444539
-0.1,0.0,1.4,0.5235987755982988,-0.5235987755982988,0,-1.0524689,-1.1956921,1.0665647,0.054487348,-0.37684152,0.8854309,-0.84426314,-1.8402784,1.7678837,-0.06500559,0.29034936,-0.0009546184,0.6438262,-1.2229539
-0.1,0.0,1.4,0.5235987755982988,-0.5235987755982988,0,-1.0552032,-1.1941148,0.9790507,-0.014664339,-0.12488987,1.0216147,-0.19125089,-1.8369021,1.7672015,-0.056903884,0.31086397,-0.070121005,0.748466,-0.9467593
-0.1,0.0,1.4,0.5235987755982988,-0.5235987755982988,0,-1.0579221,-1.1940621,1.2598046,0.13826281,-0.27562287,0.92121845,-0.81638324,-1.836786,1.7664962,-0.072468966,0.32424146,0.20871423,0.52004826,-1.1312174
-0.1,0.0,1.4,0.5235987755982988,-0.5235987755982988,0,-1.0560752,-1.1956196,0.9322305,0.18642351,0.12628461,0.939351,-0.5390276,-1.8377473,1.7665908,-0.0624724,0.32947844,-0.038150348,0.68699014,-1.3566465
-0.1,0.0,1.4,0.5235987755982988,-0.5235987755982988,0,-1.0586017,-1.1942661,1.1242923,0.0130173275,-0.3350116,0.9432675,-1.087325,-1.8397334,1.7666222,-0.08196611,0.3808986,0.013229841,0.6429186,-1.5522429
-0.1,0.0,1.4,0.5235987755982988,-0.5235987755982988,0,-1.0539886,-1.1939555,1.0797098,0.07174983,0.14480376,0.84831315,-0.022568963,-1.8415036,1.7691473,-0.07017494,0.30903414,-0.013820952,0.818081,-0.7502006
-0.1,0.0,1.4,0.5235987755982988,-0.5235987755982988,0,-1.0544771,-1.1941658,1.0705373,0.028293282,-0.044324435,0.86853194,-0.45805603,-1.8427472,1.7682338,-0.05753616,0.31087252,0.16180292,0.60262156,-0.04898699
-0.1,0.0,1.4,0.5235987755982988,-0.5235987755982988,0,-1.056376,-1.1957844,0.85507226,0.21523987,-0.06709945,0.9534113,0.98551667,-1.8390605,1.7681015,-0.07102068,0.33874997,0.16632238,0.7218534,-0.42957544
-0.1,0.0,1.4,0.5235987755982988,-0.5235987755982988,0,-1.0541506,-1.1946479,0.71825665,0.11639408,-0.27232832,0.9655061,-0.09291775,-1.8402559,1.7676493,-0.06680316,0.30802312,0.050222475,0.59080166,-1.2192014
-0.1,0.0,1.4,0.5235987755982988,-0.5235987755982988,0,-1.0570971,-1.1941028,0.96803993,0.069473304,0.23736723,0.94574887,-0.48924708,-1.8413284,1.7679394,-0.058765765,0.31363115,0.18101004,0.8167809,0.3078595
-0.1,0.0,1.4,0.5235987755982988,-0.5235987755982988,0,-1.0514803,-1.1948775,0.96202576,0.09172293,-0.04521534,1.045415,-0.065278806,-1.8414654,1.766551,-0.060520537,0.30670565,-0.24790835,0.678883,-1.0607944
-0.1,0.0,1.4,0.5235987755982988,-0.5235987755982988,0,-1.0573909,-1.1950154,0.8440012,0.12864275,-0.008062317,0.8599439,0.40337938,-1.8395998,1.7705787,-0.07704168,0.32493305,0.101909,0.7464213,-1.274026
-0.1,0.0,1.4,0.5235987755982988,-0.5235987755982988,0,-1.0525705,-1.1949646,1.4594171,0.122140795,-0.19673434,0.95379525,-0.24860157,-1.841617,1.7658519,-0.07230813,0.36079895,0.1003516,0.6111327,-1.2483929
-0.1,0.0,1.4,0.5235987755982988,-0.5235987755982988,0,-1.0525866,-1.1943743,0.9542754,0.11876899,-0.13765569,0.8239704,-1.0651162,-1.837239,1.7695686,-0.06945384,0.30857962,-0.08611592,0.760199,-1.2681324
-0.1,0.0,1.4,0.5235987755982988,-0.5235987755982988,0,-1.053007,-1.194157,1.1577151,0.060596794,0.060652174,0.9927055,0.25688758,-1.8403658,1.767706,-0.06210673,0.2678888,0.02268954,0.68385696,-0.34723938
-0.1,0.0,1.4,0.5235987755982988,-0.5235987755982988,0,-1.0533193,-1.1934478,1.056636,0.11515743,-0.122985855,0.8997202,-0.6274628,-1.8370973,1.7673157,-0.049267836,0.33294427,-0.233849,0.7026141,-1.6951075
-0.1,0.0,1.4,0.5235987755982988,-0.5235987755982988,0,-1.0530565,-1.1950967,0.9191354,0.033693213,0.041996688,0.8295609,-1.7997845,-1.8401186,1.7676545,-0.06798479,0.28289166,0.025449337,0.63560605,-0.8594447
-0.1,0.0,1.4,0.5235987755982988,-0.5235987755982988,0,-1.0533329,-1.1938188,0.43606234,0.08975753,0.1184641,0.84262604,-0.28863797,-1.8389597,1.7694197,-0.04996615,0.3600985,0.01135991,0.55182725,0.5188225
-0.1,0.0,1.4,0.5235987755982988,-0.5235987755982988,0,-1.054647,-1.1945837,0.81456256,0.085501194,0.119844206,0.964981,-0.12568061,-1.8421577,1.7664894,-0.061474804,0.33379045,0.124160565,0.82795143,-1.3882902
-0.1,0.0,1.4,0.5235987755982988,-0.5235987755982988,0,-1.0531485,-1.1956316,1.1462449,0.07192643,-0.20448215,0.9625608,1.3248973,-1.8402594,1.766679,-0.058237027,0.31013337,0.26301968,0.8043832,-1.1242812
-0.1,0.0,1.4,0.5235987755982988,-0.5235987755982988,0,-1.0559928,-1.194294,0.86767745,0.08065489,-0.054453705,0.996918,-0.70462894,-1.8395238,1.7668607,-0.056403752,0.33891043,0.15244177,0.7593935,-1.0707159
-0.1,0.0,1.4,0.5235987755982988,-0.5235987755982988,0,-1.0527599,-1.1943144,1.3460664,0.11279463,-0.013361482,1.0211351,0.1685164,-1.8382488,1.7671667,-0.066212185,0.32003748,-0.11738385,0.73748523,-1.3869627
-0.1,0.0,1.4,0.5235987755982988,-0.5235987755982988,0,-1.0543348,-1.1940686,1.0455512,0.14922886,-0.18643348,0.9259898,-1.3442948,-1.8399647,1.7685107,-0.078939825,0.3805195,0.15800065,0.68741983,-0.6374784
-0.1,0.0,1.4,0.5235987755982988,-0.5235987755982988,0,-1.0549586,-1.1942166,1.0118978,0.07076231,-0.30195197,0.8028413,0.21693775,-1.8385228,1.7669444,-0.0625133,0.3122456,0.07797818,0.6858677,-1.5412014
-0.1,0.0,1.4,0.5235987755982988,-0.5235987755982988,0,-1.0564235,-1.1942685,0.80526793,0.07332578,-0.08851841,0.9159253,-1.0941935,-1.8387873,1.769895,-0.06554598,0.30679598,-0.15839419,0.7513709,-0.8823636
-0.1,0.0,1.4,0.5235987755982988,-0.5235987755982988,0,-1.0544493,-1.193348,0.89183515,0.12429927,0.027457777,0.80125916,-0.55292475,-1.8383182,1.7679976,-0.06316077,0.33317453,0.16124932,0.6571757,-0.6980142
-0.1,0.0,1.4,0.5235987755982988,-0.5235987755982988,0,-1.0525804,-1.1947337,1.1177834,0.14359903,0.11896498,0.9313558,0.83948433,-1.8383335,1.766991,-0.06716775,0.32256028,0.01585382,0.7618917,-0.7778897
-0.1,0.0,1.4,0.5235987755982988,-0.5235987755982988,0,-1.0537746,-1.1956415,0.8351143,0.089880355,0.054166023,1.0234394,0.79871,-1.8383572,1.7676396,-0.070847414,0.31830418,-0.030818574,0.76487195,-0.7919205
-0.1,0.0,1.4,0.5235987755982988,-0.5235987755982988,0,-1.0524875,-1.1957762,1.086568,0.05181862,0.05994639,0.9280964,-1.054262,-1.8412623,1.7677267,-0.06005902,0.34212986,0.06750057,0.653596,-0.37645736
-0.1,0.0,1.4,0.5235987755982988,-0.5235987755982988,0,-1.0550864,-1.1951016,0.7028281,0.042133775,-0.08202697,1.003954,0.31171435,-1.8408471,1.7673838,-0.071592085,0.3516916,0.04176729,0.689491,-1.3018183
-0.1,0.0,1.4,0.5235987755982988,-0.5235987755982988,0,-1.0560021,-1.1933328,1.0582783,0.17396557,-0.37001073,1.0922866,0.10129205,-1.8392625,1.7672142,-0.06313126,0.36204717,-0.023051122,0.6885802,-1.7118587
-0.1,0.0,1.4,0.5235987755982988,-0.5235987755982988,0,-1.052669,-1.1941761,0.95262015,0.12612505,0.027130386,0.9448063,0.36974826,-1.843363,1.7679904,-0.0603454,0.3331456,0.11881332,0.69710845,-0.39482403
-0.1,0.0,1.4,0.5235987755982988,-0.5235987755982988,0,-1.0525323,-1.1931244,1.3118306,0.16036643,-0.11542521,0.85017663,-0.62806326,-1.8390436,1.7689573,-0.06668705,0.28543416,-0.020165384,0.74152464,-0.5929625
-0.1,0.0,1.4,0.5235987755982988,-0.5235987755982988,0,-1.0549325,-1.1933459,0.9722954,-0.027573548,-0.14148568,0.94842744,0.54801726,-1.8386168,1.7694663,-0.06999165,0.32545877,-0.1282447,0.7169191,-1.0559727
-0.1,0.0,1.4,0.5235987755982988,-0.5235987755982988,0,-1.0562972,-1.1949244,0.6827509,0.09240215,-0.08569802,0.922687,0.008182266,-1.8379337,1.7675445,-0.062265888,0.35031447,0.0030127326,0.75052863,-1.047973
-0.1,0.0,1.4,0.5235987755982988,-0.5235987755982988,0,-1.0548396,-1.1946493,0.9752062,0.14256187,-0.02711398,1.0036167,0.76990396,-1.8428504,1.7676528,-0.05186958,0.33274946,0.12143715,0.8683687,-1.3376157
-0.1,0.0,1.4,0.5235987755982988,-0.5235987755982988,0,-1.0557632,-1.1935954,0.8514401,0.19195668,0.11111013,0.9308727,-0.08341659,-1.8376037,1.7692157,-0.06196476,0.29935017,0.050705947,0.89549994,-0.81659377
-0.1,0.0,1.4,0.5235987755982988,-0.5235987755982988,0,-1.0551239,-1.1921594,0.91299844,0.05344242,0.017980868,0.95176303,-0.70764565,-1.8411663,1.7660663,-0.055296935,0.301117,0.17056032,0.7125213,-0.9944996
-0.1,0.0,1.4,0.5235987755982988,-0.5235987755982988,0,-1.0524702,-1.1944052,0.94258654,0.11568089,0.27033067,0.9782913,-0.24833348,-1.8393707,1.7684598,-0.06053202,0.29794773,0.08894057,0.8250736,-0.8877579
-0.1,0.0,1.4,0.5235987755982988,-0.5235987755982988,0,-1.0551996,-1.1942703,1.2523049,0.039738413,-0.22007573,0.95462734,-1.3019416,-1.8394239,1.7664181,-0.060643826,0.37776726,-0.140992,0.6454266,-1.1933192
-0.1,0.0,1.4,0.5235987755982988,-0.5235987755982988,0,-1.0526272,-1.1942873,0.8666685,0.14294489,-0.1901574,1.0244998,-0.6035931,-1.8380295,1.7658602,-0.06476959,0.315915,0.114887,0.6950155,-0.44429177
-0.1,0.0,1.4,0.5235987755982988,-0.5235987755982988,0,-1.0552319,-1.1933497,0.7914998,0.10932205,-0.1614816,0.87883615,-0.39443392,-1.8408831,1.7693931,-0.059670113,0.31888944,0.08998381,0.6927616,-0.798185
-0.1,0.0,1.4,0.5235987755982988,-0.5235987755982988,0,-1.0525225,-1.1939843,0.8644212,0.14505345,-0.39740062,0.9130424,0.124267235,-1.8398812,1.7681286,-0.07370357,0.31654257,0.2221293,0.5996569,-1.012731
-0.1,0.0,1.4,0.5235987755982988,-0.5235987755982988,0,-1.0533457,-1.1945994,1.0688136,0.1559369,-0.14842501,0.87567043,-0.8482878,-1.8387338,1.7679726,-0.07503994,0.3460554,-0.023859696,0.7581812,-0.86416894
-0.1,0.0,1.4,0.5235987755982988,-0.5235987755982988,0,-1.0544949,-1.1942407,0.81239766,0.13944565,-0.26872152,0.9027111,0.7181092,-1.8379166,1.7676361,-0.06336874,0.35602453,-0.019044137,0.6942702,-0.78022105
-0.1,0.0,1.4,0.5235987755982988,-0.5235987755982988,0,-1.053652,-1.1928878,1.1068101,0.12704226,-0.18351105,0.9418767,-0.4347822,-1.8404067,1.7663152,-0.064682335,0.33278194,0.06936365,0.6700973,-0.39171228
-0.1,0.0,1.4,0.5235987755982988,-0.5235987755982988,0,-1.0556185,-1.1933271,1.0787988,0.067906626,-0.07519777,0.9459715,-0.8949991,-1.8376181,1.7658724,-0.072348855,0.3197908,0.020090211,0.61877036,-0.8353115
-0.1,0.0,1.4,0.5235987755982988,-0.5235987755982988,0,-1.0538931,-1.1948372,1.1482801,0.021137245,-0.29508033,1.120449,-0.035380345,-1.8413005,1.768351,-0.07727983,0.3313172,0.1907416,0.8077102,-1.6316884
-0.1,0.0,1.4,0.5235987755982988,-0.5235987755982988,0,-1.0548214,-1.1923642,1.1716926,0.10034819,-0.07153742,1.0413282,-0.41125417,-1.8410892,1.7668896,-0.05459208,0.35494262,0.09590293,0.6910091,-1.2823862
-0.1,0.0,1.4,0.5235987755982988,-0.5235987755982988,0,-1.0543226,-1.1951655,1.4065433,0.11538896,0.060422163,0.81567466,-0.4717053,-1.8438406,1.7687466,-0.06379927,0.34553018,-0.20066348,0.5533893,-1.8874983
-0.1,0.0,1.4,0.5235987755982988,-0.5235987755982988,0,-1.0517396,-1.1942984,0.7687257,0.07562073,-0.14664184,0.8572458,-0.37756738,-1.8412911,1.7677594,-0.07418873,0.33413497,0.15536322,0.6599511,-1.1061325
-0.1,0.0,1.4,0.5235987755982988,-0.5235987755982988,0,-1.0546207,-1.1934923,1.1721958,0.055508804,-0.27080464,0.97532207,0.09215746,-1.8422587,1.7678077,-0.065362304,0.35555163,0.05418673,0.5721898,-0.8006098
-0.1,0.0,1.4,0.5235987755982988,-0.5235987755982988,0,-1.0542331,-1.1940885,0.9817316,0.094862156,0.08692805,0.9176135,0.63753974,-1.8415363,1.7698718,-0.06713565,0.3431094,0.014787927,0.72797847,-0.67187095
-0.1,0.0,1.4,0.5235987755982988,-0.5235987755982988,0,-1.054225,-1.1935873,1.0668285,0.08456865,-0.03709059,0.88699764,-0.7733606,-1.838345,1.7674044,-0.07340011,0.31003577,0.060166206,0.6708612,-0.58479595
-0.1,0.0,1.4,0.5235987755982988,-0.5235987755982988,0,-1.0519753,-1.193536,0.55519724,0.07949201,0.20916405,0.92956287,0.12955564,-1.8420264,1.7691213,-0.07490639,0.33685613,-0.088314615,0.6257894,-0.9403654
-0.1,0.0,1.4,0.5235987755982988,-0.5235987755982988,0,-1.05451,-1.195492,1.3884625,0.10690649,-0.17203122,1.0259457,-0.09337555,-1.8414752,1.7685931,-0.069954224,0.388048,0.015457335,0.7190204,-3.0104823
-0.1,0.0,1.4,0.5235987755982988,-0.5235987755982988,0,-1.0549303,-1.1938313,1.2509106,0.12059729,-0.2405933,0.93191856,-0.63828295,-1.8377784,1.7678268,-0.06372075,0.3211145,0.17510237,0.7936126,-1.1780852
-0.1,0.0,1.4,0.5235987755982988,-0.5235987755982988,0,-1.0537531,-1.1920674,1.0960045,0.13484108,-0.16294453,0.91377634,0.3205817,-1.8422989,1.7658564,-0.058628492,0.30433917,0.14980112,0.6238214,-1.2505378
-0.1,0.0,1.4,0.5235987755982988,-0.5235987755982988,0,-1.0537066,-1.1934686,0.8199141,0.06283544,-0.090812296,0.82509166,-0.07267965,-1.8418151,1.7686898,-0.06431841,0.3129247,0.26313087,0.88779366,-0.30453882
-0.1,0.0,1.4,0.5235987755982988,-0.5235987755982988,0,-1.0508157,-1.1949444,0.8136123,0.07327347,-0.227758,0.97385675,-0.9445342,-1.8409288,1.7686238,-0.06275201,0.3303503,-0.07597432,0.80482936,-1.0669287
-0.1,0.0,1.4,0.5235987755982988,-0.5235987755982988,0,-1.054379,-1.1927959,1.3160611,0.12258436,0.1179587,0.9461512,-0.25580153,-1.8385932,1.7690158,-0.068973124,0.31311017,-0.08182564,0.7905413,-0.8836195
-0.1,0.0,1.4,0.5235987755982988,-0.5235987755982988,0,-1.0537984,-1.1934344,1.0330011,0.15337056,0.16324735,0.9697704,0.17976823,-1.8384833,1.7681959,-0.05844564,0.34053805,0.13311927,0.7810787,-1.4718329
-0.1,0.0,1.4,0.5235987755982988,-0.5235987755982988,0,-1.0533088,-1.1961398,0.8924636,0.12528244,-0.13914359,0.80871785,-0.3208047,-1.8386366,1.7679615,-0.06913453,0.35891706,0.0577496,0.6695369,-1.4038619
-0.1,0.0,1.4,0.5235987755982988,-0.5235987755982988,0,-1.0559102,-1.1947076,1.2006928,0.073587425,0.0245726,0.87141377,-1.1052234,-1.8382231,1.7683451,-0.05966936,0.30400583,0.1294291,0.6991708,-1.1023172
-0.1,0.0,1.4,0.5235987755982988,-0.5235987755982988,0,-1.05589,-1.1948094,1.2132565,0.083095066,0.09103848,0.82443655,-0.1740879,-1.8425878,1.7675661,-0.074538305,0.3080025,0.10923387,0.799258,-0.67815924
-0.1,0.0,1.4,0.5235987755982988,-0.5235987755982988,0,-1.055827,-1.193343,0.727272,0.069838405,-0.14623037,1.0285864,0.71298236,-1.8393621,1.7668124,-0.057707366,0.3333986,-0.015936097,0.7947383,-0.44615293
-0.1,0.0,1.4,0.5235987755982988,-0.5235987755982988,0,-1.051841,-1.1935896,1.1847413,0.09324139,0.13469525,0.90851504,0.6898219,-1.840949,1.7675871,-0.06788422,0.33420685,-0.09391098,0.72785604,0.16807926
-0.1,0.0,1.4,0.5235987755982988,-0.5235987755982988,0,-1.0536863,-1.1931092,0.7705604,0.13511437,-0.07706899,0.92115813,-1.2329679,-1.8387789,1.7690566,-0.061318714,0.2888046,-0.029376237,0.69882077,0.019507699
-0.1,0.0,1.4,0.5235987755982988,-0.5235987755982988,0,-1.0545105,-1.1949716,1.3079731,0.031377293,0.16670188,0.9935094,-0.6539335,-1.841563,1.7670014,-0.0631884,0.3225265,0.10622407,0.83670676,-0.8711879
-0.1,0.0,1.4,0.5235987755982988,-0.5235987755982988,0,-1.0564692,-1.1950865,0.9828832,0.022113224,0.14673306,0.8775952,-0.23314835,-1.840589,1.7675436,-0.055638812,0.35939056,-0.097222164,0.8141697,-1.6008213
-0.1,0.0,1.4,0.5235987755982988,-0.5235987755982988,0,-1.0549992,-1.1921248,0.6863366,0.008676757,0.2002722,0.9361382,-0.008126988,-1.8400217,1.7695546,-0.067576945,0.3740845,0.09590442,0.61690605,-0.6729332
-0.1,0.0,1.4,0.5235987755982988,-0.5235987755982988,0,-1.0549258,-1.192629,0.4805657,0.06718082,0.058832053,1.0481756,0.4861487,-1.8400608,1.76813,-0.047668383,0.37569603,-0.0028994395,0.7529486,-1.0857774
-0.1,0.0,1.4,0.5235987755982988,-0.5235987755982988,0,-1.0543135,-1.1930821,0.9064087,0.0734436,0.043664727,1.0959657,-0.43976143,-1.838895,1.7680868,-0.05499855,0.36988077,0.060833164,0.6247823,-1.4815195
-0.1,0.0,1.4,0.5235987755982988,-0.5235987755982988,0,-1.0527416,-1.1948463,0.90846026,0.1609389,0.19671214,0.84062296,-0.39550644,-1.8388045,1.7683152,-0.07568624,0.38491383,-0.040246513,0.6916664,-0.19923419
-0.1,0.0,1.4,0.5235987755982988,-0.5235987755982988,0,-1.054722,-1.1948011,0.72075933,0.11224173,0.007756125,1.0070527,-0.2574728,-1.8407714,1.7674373,-0.06394414,0.3856489,-0.26667124,0.5664006,-1.0722213
-0.1,0.0,1.4,0.5235987755982988,-0.5235987755982988,0,-1.0536827,-1.1953135,1.1767936,0.073015966,0.00074236223,1.0230957,-0.5200056,-1.8385229,1.7706628,-0.061608467,0.35404977,-0.014384978,0.6482179,-0.5484729
-0.1,0.0,1.4,0.5235987755982988,-0.5235987755982988,0,-1.0553335,-1.1927085,0.6515846,0.11300051,-0.2972344,1.0737853,-0.9141635,-1.8402786,1.7661932,-0.06581517,0.3307005,0.011980233,0.7066298,-1.1710303
-0.1,0.0,1.4,0.5235987755982988,-0.5235987755982988,0,-1.051182,-1.1944879,1.370812,0.1250763,0.18191232,1.0111473,-0.19330549,-1.8371358,1.7671646,-0.06560222,0.33687958,-0.008922018,0.7894971,-0.57788426
-0.1,0.0,1.4,0.5235987755982988,-0.5235987755982988,0,-1.0505737,-1.1934639,1.0186853,0.1552322,-0.18393998,0.9925593,0.32953256,-1.8379915,1.7674154,-0.062981054,0.3231127,-0.11176701,0.9566171,-0.9334009
-0.1,0.0,1.4,0.5235987755982988,-0.5235987755982988,0,-1.0558453,-1.1943063,0.9178373,0.114316575,0.074592344,1.0032947,-1.1548386,-1.8371111,1.768471,-0.056194786,0.35985082,0.116942756,0.58629644,-0.5636766
-0.1,0.0,1.4,0.5235987755982988,-0.5235987755982988,0,-1.0528508,-1.194256,1.0265391,0.08787215,0.014704412,0.9799655,-0.9246122,-1.8385843,1.7675023,-0.05474536,0.37256712,0.017758697,0.58996594,-1.1842638
-0.1,0.0,1.4,0.5235987755982988,-0.5235987755982988,0,-1.0558597,-1.1947917,1.0014423,0.08030161,-0.25366074,0.96291536,-1.054601,-1.8391522,1.766278,-0.07492441,0.3091217,0.17282169,0.56285363,0.56748605
-0.1,0.0,1.4,0.5235987755982988,-0.5235987755982988,0,-1.0541136,-1.1941336,0.9552828,0.10125842,-0.072596915,0.8396126,-0.80332226,-1.8378453,1.7695059,-0.069990166,0.30856213,0.2117818,0.6507833,-0.327769
-0.1,0.0,1.4,0.5235987755982988,-0.5235987755982988,0,-1.0537941,-1.1948013,0.8194703,0.14921546,0.013716142,0.8997981,-0.95841926,-1.8398603,1.7670978,-0.05409334,0.3090744,0.064782344,0.70958716,-0.7454239
-0.1,0.0,1.4,0.5235987755982988,-0.5235987755982988,0,-1.0556284,-1.1937882,0.7807095,0.070930004,-0.10089742,0.8631959,-0.54898244,-1.8398601,1.7679095,-0.048760753,0.3226777,0.03904593,0.6720159,-1.9948949
-0.1,0.0,1.4,0.5235987755982988,-0.5235987755982988,0,-1.0536807,-1.1960207,1.1826321,0.037517775,0.07092026,0.82202387,0.92347264,-1.8418049,1.769673,-0.06421826,0.2980472,0.10860849,0.71392703,-0.98489434
-0.1,0.0,1.4,0.5235987755982988,-0.5235987755982988,0,-1.0539799,-1.1945659,0.6207446,0.034223247,0.03848922,0.8755671,-0.32432827,-1.8383179,1.7692664,-0.058123752,0.3546618,-0.041204453,0.69632894,-1.9128113
-0.1,0.0,1.4,0.5235987755982988,-0.5235987755982988,0,-1.0521736,-1.1952876,0.9496812,0.14224686,0.22937237,0.97399616,-0.40787864,-1.841453,1.7676082,-0.061328515,0.30620053,0.02997113,0.839135,-1.5739905
-0.1,0.0,1.4,0.5235987755982988,-0.5235987755982988,0,-1.0530086,-1.1946915,0.8946245,0.04369501,-0.19624683,0.9489666,0.2714606,-1.8384829,1.7720035,-0.04880008,0.37621772,-0.0156056285,0.65898,-0.643237
-0.1,0.0,1.4,0.5235987755982988,-0.5235987755982988,0,-1.0511338,-1.1953071,0.9519099,0.1019686,0.23048015,0.8901476,0.37876534,-1.8432114,1.7676308,-0.059166387,0.3529188,-0.13090894,0.82600033,-0.7494676
-0.1,0.0,1.4,0.5235987755982988,-0.5235987755982988,0,-1.0535613,-1.1940833,0.8538622,0.16057783,0.010939133,0.9351376,0.4856331,-1.8404813,1.7680888,-0.04928131,0.3047058,0.19668575,0.66554874,-1.1806101
-0.1,0.0,1.4,0.5235987755982988,-0.5235987755982988,0,-1.0548438,-1.1949148,1.410907,0.07024314,-0.22717372,0.8763815,-0.18580051,-1.8373466,1.76919,-0.07625016,0.29517362,-0.013611587,0.65760416,-1.1835077
-0.1,0.0,1.4,0.5235987755982988,-0.5235987755982988,0,-1.0559262,-1.1949693,0.6371793,0.123046786,-0.16686913,0.88600016,-1.3969312,-1.8410289,1.7691181,-0.06590459,0.3465146,-0.06416413,0.73400325,-1.4134884
-0.1,0.0,1.4,0.5235987755982988,-0.5235987755982988,0,-1.0564418,-1.1945174,1.0148575,0.07953812,-0.1071776,0.7575975,0.3966231,-1.838693,1.7669368,-0.062558636,0.33765745,-0.07306289,0.69398737,-1.8551041
-0.1,0.0,1.4,0.5235987755982988,-0.5235987755982988,0,-1.0533358,-1.1941262,1.0288372,0.16182594,-0.04144907,0.8855446,0.301674,-1.838998,1.7705926,-0.06682159,0.32643127,-0.030994106,0.72287947,-0.639953
-0.1,0.0,1.4,0.5235987755982988,-0.5235987755982988,0,-1.0548652,-1.1946094,1.0227607,0.12712184,-0.023630194,0.912165,-0.18333127,-1.8409717,1.7668083,-0.06820187,0.34469405,0.12171807,0.64545244,-0.46526712
-0.1,0.0,1.4,0.5235987755982988,-0.5235987755982988,0,-1.0523664,-1.193786,1.5201907,0.085816495,-0.3696445,0.99164754,0.23172782,-1.8388914,1.7694689,-0.06528638,0.32046834,-0.0077637103,0.5759352,-0.4861571
-0.1,0.0,1.4,0.5235987755982988,-0.5235987755982988,0,-1.0528234,-1.1938844,1.3894172,0.103548616,0.27254173,0.888559,-0.1336295,-1.839854,1.7672999,-0.070920095,0.32207942,-0.025361085,0.6370153,-0.33023718
-0.1,0.0,1.4,0.5235987755982988,-0.5235987755982988,0,-1.053581,-1.1939046,1.2883095,0.05019484,0.029411389,0.9503747,-1.1895764,-1.8372271,1.7672118,-0.061972838,0.3092841,0.007022401,0.61710584,-1.5084349
-0.1,0.0,1.4,0.5235987755982988,-0.5235987755982988,0,-1.05297,-1.1946968,1.653894,0.09764905,0.040091977,0.9413731,-0.13861015,-1.8417346,1.7684913,-0.049633153,0.3134505,0.017072894,0.66665024,-0.4880294
-0.1,0.0,1.4,0.5235987755982988,-0.5235987755982988,0,-1.053869,-1.1943877,1.06661,0.059345867,0.21458979,0.8934489,-0.78287745,-1.843111,1.7673529,-0.0634792,0.2957328,0.17833689,0.671593,-1.3239069
-0.1,0.0,1.4,0.5235987755982988,-0.5235987755982988,0,-1.0538424,-1.1946303,1.0326831,0.10170502,-0.06746343,0.7819795,-0.408649,-1.839663,1.7682248,-0.06519027,0.31965628,0.18029834,0.8148733,-0.9571701
-0.1,0.0,1.4,0.5235987755982988,-0.5235987755982988,0,-1.0550996,-1.1943742,1.0819011,0.09935053,0.065445244,0.80858517,0.10772817,-1.8440185,1.7703761,-0.0647367,0.31361547,-0.035290014,0.62418175,-0.8704664
-0.1,0.0,1.4,0.5235987755982988,-0.5235987755982988,0,-1.0540473,-1.1946783,0.93291473,0.16771804,-0.16492192,0.94862986,0.8375448,-1.8415803,1.767888,-0.06288193,0.32763782,-0.19080073,0.7614399,-0.7158592
-0.1,0.0,1.4,0.5235987755982988,-0.5235987755982988,0,-1.0533634,-1.1943294,1.3493497,0.062320575,0.03253532,1.0403595,0.18187523,-1.8388209,1.7690341,-0.0795617,0.32617357,0.022017093,0.6805524,-1.1536075
-0.1,0.0,1.4,0.5235987755982988,-0.5235987755982988,0,-1.0558856,-1.1937332,0.8013582,0.065657154,-0.22410418,1.0082328,0.79054797,-1.8401952,1.7668502,-0.06360095,0.3255196,0.16914476,0.7095567,-0.7323725
-0.1,0.0,1.4,0.5235987755982988,-0.5235987755982988,0,-1.0534298,-1.1946464,0.9495973,0.15964681,0.16028719,0.81718236,-0.8208762,-1.839611,1.7685703,-0.05913961,0.3381899,-0.02883249,0.7780003,-0.5623238
-0.1,0.0,1.4,0.5235987755982988,-0.5235987755982988,0,-1.0538584,-1.1948279,0.7647759,0.108469,0.017701583,0.81658185,0.13059112,-1.8413811,1.7656455,-0.05812049,0.3159189,-0.0041711694,0.57991093,-0.3229952
-0.1,0.0,1.4,0.5235987755982988,-0.5235987755982988,0,-1.0567142,-1.1934433,0.9718036,0.11790217,0.11687663,0.84685063,0.78091604,-1.8416582,1.7674677,-0.06105853,0.3261629,0.015940698,0.6223472,-0.4469329
-0.1,0.0,1.4,0.5235987755982988,-0.5235987755982988,0,-1.0540205,-1.193185,1.0107024,0.15883227,-0.07269641,0.83616257,-0.38140786,-1.8385212,1.7685032,-0.06463205,0.32528922,0.050697815,0.596111,-0.4174008
-0.1,0.0,1.4,0.5235987755982988,-0.5235987755982988,0,-1.0540625,-1.194725,0.83689827,0.08687429,0.0561109,0.8779087,-0.31116188,-1.8395704,1.7684242,-0.06612499,0.32437497,0.21239965,0.7818666,-1.101908
-0.1,0.0,1.4,0.5235987755982988,-0.5235987755982988,0,-1.0532115,-1.1957967,1.1482537,0.090542845,-0.07497312,0.79770094,0.049430914,-1.838649,1.7677655,-0.05820822,0.33001268,-0.12053965,0.67488545,-1.5763578
-0.1,0.0,1.4,0.5235987755982988,-0.5235987755982988,0,-1.0552663,-1.1942346,0.7759064,0.034062594,0.059989206,0.9491289,0.7638951,-1.8450135,1.766408,-0.061724287,0.34924877,0.0196761,0.6188881,-1.2225125
-0.1,0.0,1.4,0.5235987755982988,-0.5235987755982988,0,-1.056294,-1.1936666,0.8186961,0.04635099,0.1578256,0.88506985,-0.2804498,-1.8395256,1.7683388,-0.05749387,0.33994678,0.14178436,0.70230335,-0.33354583
-0.1,0.0,1.4,0.5235987755982988,-0.5235987755982988,0,-1.0532176,-1.1942637,1.0453687,0.037900873,0.14139526,0.94473386,-0.027967567,-1.841075,1.7691548,-0.07735447,0.34417537,-0.04226395,0.63124955,-0.9395748
-0.1,0.0,1.4,0.5235987755982988,-0.5235987755982988,0,-1.0513233,-1.1925077,0.6438555,0.065717876,-0.1517031,0.98004156,-1.0011533,-1.8390584,1.7669125,-0.060786966,0.3044623,0.03281435,0.77961254,-1.0045215
-0.1,0.0,1.4,0.5235987755982988,-0.5235987755982988,0,-1.0504565,-1.1936673,0.8045211,0.052273862,-0.08599138,0.97243214,-0.2431579,-1.8404832,1.7683202,-0.06579558,0.29782125,-0.023980731,0.8143964,0.1302284
-0.1,0.0,1.4,0.5235987755982988,-0.5235987755982988,0,-1.0538892,-1.1922872,0.68400925,0.11085386,0.41600126,0.949596,-0.024272244,-1.8422401,1.767004,-0.0713109,0.37195978,-0.11071955,0.6322937,-1.157364
-0.1,0.0,1.4,0.5235987755982988,-0.5235987755982988,0,-1.0520495,-1.1944991,0.7548169,0.058350112,0.14035398,0.87548715,-0.26041654,-1.8391358,1.7688006,-0.06434807,0.33542484,-0.13667561,0.72402453,-0.16581818
