sanky1234/BimanualDexCatch/isaacgymenvs/cem_results/football_pose_-0.1_-0.2_0.6_-0.5235987755982988_0.5235987755982988_0_2025-05-25.csv
x,y,z,roll,pitch,yaw,robot1/joint1,robot1/joint2,robot1/joint3,robot1/joint4,robot1/joint5,robot1/joint6,robot1/joint7,robot2/joint1,robot2/joint2,robot2/joint3,robot2/joint4,robot2/joint5,robot2/joint6,robot2/joint7
-0.1,-0.2,0.6,-0.5235987755982988,0.5235987755982988,0,1.1675552,1.653234,0.25287995,0.18355997,0.56986594,0.6699678,0.019342668,-0.075273536,1.2965283,-0.14657085,-0.82444257,-0.24029395,1.5563183,-0.5004278
-0.1,-0.2,0.6,-0.5235987755982988,0.5235987755982988,0,1.1879237,1.6567079,0.24262133,0.16731466,0.6118527,0.65916944,0.07705264,-0.12255486,1.2957028,-0.13507624,-0.80954576,-0.20661174,1.5552945,-0.465781
-0.1,-0.2,0.6,-0.5235987755982988,0.5235987755982988,0,1.1444439,1.6474859,0.19855623,0.19727667,0.6433776,0.6677452,0.011963624,-0.07683687,1.2937514,-0.19023515,-0.9348768,-0.2850807,1.5198723,-0.7423664
-0.1,-0.2,0.6,-0.5235987755982988,0.5235987755982988,0,1.1538525,1.6970091,0.19966313,0.20973809,0.74036026,0.6629489,0.07184897,-0.07579244,1.291555,-0.245455,-0.7551919,-0.25371596,1.4974105,-0.5651947
-0.1,-0.2,0.6,-0.5235987755982988,0.5235987755982988,0,1.1989167,1.6643649,0.24712455,0.18401119,0.6247838,0.6493882,0.040714603,-0.10223341,1.2958881,-0.19834627,-0.77522486,-0.21828529,1.5304525,-0.38619605
-0.1,-0.2,0.6,-0.5235987755982988,0.5235987755982988,0,1.2456965,1.6861261,0.11222807,0.21613331,0.64349276,0.6575354,0.03605618,-0.052421134,1.3106438,-0.16251735,-0.7626612,-0.2512628,1.5134319,-0.3141868
-0.1,-0.2,0.6,-0.5235987755982988,0.5235987755982988,0,1.2096225,1.6453428,0.1595973,0.1764351,0.63519156,0.6922566,0.039724216,-0.10777184,1.3058684,-0.18706135,-0.940918,-0.2779877,1.5521278,-0.42520583
-0.1,-0.2,0.6,-0.5235987755982988,0.5235987755982988,0,1.269379,1.6493518,0.23090065,0.15926798,0.6399343,0.6409006,-0.027692942,-0.07788134,1.2860273,-0.12293496,-0.8061982,-0.2521307,1.5160457,-0.40259472
-0.1,-0.2,0.6,-0.5235987755982988,0.5235987755982988,0,1.183054,1.6554229,0.14986534,0.24644417,0.6048834,0.6171438,-0.083347484,-0.04257324,1.3048277,-0.20231888,-0.81537026,-0.23968327,1.4756888,-0.49328414
-0.1,-0.2,0.6,-0.5235987755982988,0.5235987755982988,0,1.1818917,1.6783181,0.2467726,0.18690224,0.62233335,0.6273622,0.0390824,-0.11529949,1.2768515,-0.18443534,-0.8774909,-0.27760127,1.5590322,-0.3873635
-0.1,-0.2,0.6,-0.5235987755982988,0.5235987755982988,0,1.1945119,1.6314743,0.25414622,0.14703554,0.61255306,0.67750466,0.083926536,-0.053765155,1.3079948,-0.1401842,-0.8365404,-0.23907939,1.5361016,-0.20291823
-0.1,-0.2,0.6,-0.5235987755982988,0.5235987755982988,0,1.2399603,1.6560266,0.25700113,0.123149745,0.63364565,0.6915396,0.040451102,-0.09269799,1.3081883,-0.16128297,-0.8317734,-0.20139247,1.5425032,-0.412953
-0.1,-0.2,0.6,-0.5235987755982988,0.5235987755982988,0,1.244244,1.6873245,0.20413014,0.22128928,0.59567297,0.63770854,0.05413736,-0.045443125,1.2853844,-0.16038203,-0.6034474,-0.26612586,1.5206921,-0.16772683
-0.1,-0.2,0.6,-0.5235987755982988,0.5235987755982988,0,1.2206999,1.6583192,0.24731347,0.19306469,0.59875757,0.6620216,-0.044105403,-0.046981156,1.2938166,-0.17308906,-0.8238583,-0.28339672,1.548272,-0.21525075
-0.1,-0.2,0.6,-0.5235987755982988,0.5235987755982988,0,1.2582988,1.662324,0.2755386,0.15172213,0.6285315,0.65993404,0.048401732,-0.089567915,1.2891792,-0.13128905,-0.7756303,-0.22251657,1.5333302,-0.4957013
-0.1,-0.2,0.6,-0.5235987755982988,0.5235987755982988,0,1.230377,1.6708941,0.21662909,0.22002973,0.66060215,0.6709345,0.023173809,-0.08626295,1.2892096,-0.13784981,-0.7447412,-0.22211286,1.5199429,-0.6643616
-0.1,-0.2,0.6,-0.5235987755982988,0.5235987755982988,0,1.2125863,1.6767004,0.24232613,0.1868751,0.63333565,0.65963453,0.14915709,-0.052857693,1.3082186,-0.13120562,-0.74928105,-0.29988912,1.5292364,-0.122950576
-0.1,-0.2,0.6,-0.5235987755982988,0.5235987755982988,0,1.2571139,1.6879497,0.238618,0.18016192,0.6505114,0.67377293,0.10507814,-0.05570954,1.3063773,-0.16958676,-0.76509637,-0.21163936,1.5293703,-0.27866343
-0.1,-0.2,0.6,-0.5235987755982988,0.5235987755982988,0,1.2126987,1.638067,0.22268878,0.25644317,0.7485517,0.681348,0.12206702,-0.09960154,1.3140384,-0.19888656,-0.69524044,-0.25492546,1.5578547,-0.38958672
-0.1,-0.2,0.6,-0.5235987755982988,0.5235987755982988,0,1.2353256,1.6089293,0.16211605,0.182756,0.7202193,0.6137266,-0.021475557,-0.07963831,1.2918774,-0.20642547,-0.89681065,-0.25026068,1.5214349,-0.33615765
-0.1,-0.2,0.6,-0.5235987755982988,0.5235987755982988,0,1.2037836,1.6547943,0.14480413,0.21709174,0.6947834,0.62587035,-0.050132755,-0.13409086,1.3035893,-0.14261647,-0.837752,-0.2207602,1.5274422,-0.007548939
-0.1,-0.2,0.6,-0.5235987755982988,0.5235987755982988,0,1.2013876,1.6837751,0.1614015,0.2066412,0.6510266,0.6477803,0.08274796,-0.10666866,1.290225,-0.16155723,-0.91782004,-0.2268566,1.5534711,-0.54189384
-0.1,-0.2,0.6,-0.5235987755982988,0.5235987755982988,0,1.1663724,1.6616862,0.19636343,0.19518426,0.6189119,0.69355136,-0.0002318827,-0.04920476,1.2881583,-0.13729562,-1.0319604,-0.27495223,1.5060515,-0.53720266
-0.1,-0.2,0.6,-0.5235987755982988,0.5235987755982988,0,1.1806291,1.6611581,0.0658342,0.00951486,0.663491,0.66252774,0.044094767,-0.08205076,1.2971584,-0.12111566,-1.0187713,-0.27039346,1.5249604,-0.43183357
-0.1,-0.2,0.6,-0.5235987755982988,0.5235987755982988,0,1.2304947,1.6474288,0.18804406,0.19935745,0.6100348,0.63369393,0.06529364,-0.08452724,1.2822036,-0.1496239,-0.79877084,-0.28483352,1.5424209,-0.122763254
-0.1,-0.2,0.6,-0.5235987755982988,0.5235987755982988,0,1.2291151,1.6543407,0.19839871,0.18056576,0.62532264,0.6593086,0.031431317,-0.091952056,1.2943524,-0.15721266,-0.8343845,-0.2637486,1.5277928,-0.270342
-0.1,-0.2,0.6,-0.5235987755982988,0.5235987755982988,0,1.1859618,1.6743066,0.12721455,0.22404717,0.6980486,0.6784503,0.12928154,-0.06378304,1.2802781,-0.1254059,-0.81410336,-0.16273007,1.54233,-0.52449566
-0.1,-0.2,0.6,-0.5235987755982988,0.5235987755982988,0,1.2231474,1.6488041,0.14870945,0.20978297,0.6506809,0.66133755,0.15656853,-0.09991265,1.29282,-0.20450476,-0.8386138,-0.34092152,1.5322274,-0.4948929
-0.1,-0.2,0.6,-0.5235987755982988,0.5235987755982988,0,1.1698891,1.703396,0.16978398,0.14150399,0.638844,0.6798821,-0.040778786,-0.082513526,1.284365,-0.18824632,-0.7943487,-0.21839152,1.5209681,-0.31307825
-0.1,-0.2,0.6,-0.5235987755982988,0.5235987755982988,0,1.191545,1.6494993,0.27395302,0.15762165,0.6941663,0.6483478,0.015356653,-0.060076255,1.3105357,-0.17567034,-0.9303155,-0.26207498,1.48334,-0.56044996
-0.1,-0.2,0.6,-0.5235987755982988,0.5235987755982988,0,1.1716502,1.6499367,0.19487764,0.2574412,0.54349256,0.64865357,0.08761001,-0.072965056,1.2989744,-0.16399154,-0.9457033,-0.2562527,1.5258638,-0.09443573
-0.1,-0.2,0.6,-0.5235987755982988,0.5235987755982988,0,1.1483711,1.7088547,0.16286772,0.36523607,0.5463949,0.681685,0.06405758,-0.09526609,1.2895124,-0.15541212,-0.8149476,-0.23445122,1.5109161,-0.46967763
-0.1,-0.2,0.6,-0.5235987755982988,0.5235987755982988,0,1.1801587,1.6541637,0.16854139,0.1520314,0.6873606,0.6548561,0.0551458,-0.057528168,1.3037683,-0.16195989,-0.9108599,-0.2545058,1.5114018,-0.6267312
-0.1,-0.2,0.6,-0.5235987755982988,0.5235987755982988,0,1.2369556,1.6708407,0.20143649,0.19753978,0.644426,0.6648845,0.07856812,-0.08232491,1.297651,-0.18410109,-0.66609883,-0.2231946,1.5436176,-0.39558926
-0.1,-0.2,0.6,-0.5235987755982988,0.5235987755982988,0,1.2275583,1.6164098,0.15856823,0.19644625,0.51586896,0.66322136,0.050618626,-0.07074086,1.2899696,-0.16694143,-0.91185254,-0.25222555,1.5458517,-0.49331847
-0.1,-0.2,0.6,-0.5235987755982988,0.5235987755982988,0,1.199139,1.6825178,0.15092891,0.3359989,0.61502546,0.65506923,0.103967,-0.06781118,1.2911818,-0.18847744,-0.94212216,-0.25954688,1.5667791,-0.65284526
-0.1,-0.2,0.6,-0.5235987755982988,0.5235987755982988,0,1.1241668,1.656731,0.164425,0.22690502,0.7149643,0.6649189,-0.0613541,-0.06331784,1.3009356,-0.16729859,-0.8886222,-0.20157479,1.517217,-0.6292159
-0.1,-0.2,0.6,-0.5235987755982988,0.5235987755982988,0,1.189741,1.6774256,0.19723386,0.19194211,0.5797172,0.6583284,0.13029324,-0.068358585,1.3051059,-0.1876071,-0.86712366,-0.25986263,1.526457,-0.3729296
-0.1,-0.2,0.6,-0.5235987755982988,0.5235987755982988,0,1.2155612,1.6442394,0.19254471,0.21688423,0.647594,0.6895589,-0.00079493684,-0.069841765,1.2932508,-0.19185118,-0.80174327,-0.20665817,1.5210187,-0.4078085
-0.1,-0.2,0.6,-0.5235987755982988,0.5235987755982988,0,1.1842551,1.6551279,0.13658012,0.22660471,0.608738,0.6822641,-0.0053907395,-0.083269686,1.304842,-0.190427,-0.9089553,-0.25640735,1.5554581,-0.60051244
-0.1,-0.2,0.6,-0.5235987755982988,0.5235987755982988,0,1.2284889,1.6650164,0.18539183,0.21623425,0.6542213,0.65159136,0.046069372,-0.104770005,1.3154457,-0.17569345,-0.7477849,-0.25773254,1.519453,-0.6721571
-0.1,-0.2,0.6,-0.5235987755982988,0.5235987755982988,0,1.2699676,1.6804706,0.19078031,0.15859279,0.7512057,0.6869372,0.071286745,-0.052291416,1.3061639,-0.15563704,-0.80230594,-0.2975896,1.5299703,-0.3501372
-0.1,-0.2,0.6,-0.5235987755982988,0.5235987755982988,0,1.1335602,1.6517066,0.1621689,0.23170021,0.70735145,0.6982083,0.11835015,-0.032881323,1.2986712,-0.15292528,-0.7801889,-0.2306082,1.538702,-0.71342033
-0.1,-0.2,0.6,-0.5235987755982988,0.5235987755982988,0,1.1103202,1.6838704,0.18217471,0.27584922,0.59861153,0.61157835,0.018226866,-0.087696426,1.2919872,-0.16219321,-0.77636003,-0.3248635,1.5272052,-0.31646636
-0.1,-0.2,0.6,-0.5235987755982988,0.5235987755982988,0,1.2486666,1.6435568,0.14124762,0.21931788,0.65105075,0.6946048,-0.019536206,-0.055226672,1.3088269,-0.12936564,-0.85856205,-0.20211415,1.5353386,-0.6612687
-0.1,-0.2,0.6,-0.5235987755982988,0.5235987755982988,0,1.2989424,1.6738622,0.25076166,0.15373988,0.57420284,0.64814055,0.117276385,-0.015102949,1.3174082,-0.16212875,-0.80717915,-0.29748306,1.5382539,-0.39060843
-0.1,-0.2,0.6,-0.5235987755982988,0.5235987755982988,0,1.157868,1.6640912,0.14004473,0.22839743,0.6641537,0.6888827,0.11444855,-0.08716199,1.2995825,-0.12561111,-0.85808164,-0.27830526,1.552107,-0.565975
-0.1,-0.2,0.6,-0.5235987755982988,0.5235987755982988,0,1.2356417,1.6679536,0.25957558,0.14175302,0.66748947,0.687525,-0.024844972,-0.022807574,1.3166531,-0.14018096,-0.822069,-0.2643986,1.5401002,-0.46466297
-0.1,-0.2,0.6,-0.5235987755982988,0.5235987755982988,0,1.1760907,1.6243346,0.3031255,0.16561796,0.6957815,0.7080235,0.009213194,-0.07178161,1.3043532,-0.18178053,-0.64733624,-0.24225439,1.4963932,-0.52909875
-0.1,-0.2,0.6,-0.5235987755982988,0.5235987755982988,0,1.3289353,1.6290407,0.23085013,0.16626595,0.6134838,0.6638268,0.1362786,-0.10419675,1.2788349,-0.17621036,-0.7258816,-0.25388277,1.5056657,-0.57576257
-0.1,-0.2,0.6,-0.5235987755982988,0.5235987755982988,0,1.204114,1.6752634,0.15573578,0.2525697,0.7491461,0.619971,0.06471003,-0.05680664,1.2959975,-0.17415553,-0.78106236,-0.28808138,1.5173458,-0.35016772
-0.1,-0.2,0.6,-0.5235987755982988,0.5235987755982988,0,1.2362106,1.6266806,0.16700986,0.25419348,0.65738,0.6463241,0.06276675,-0.084289394,1.2999938,-0.1547413,-0.8114815,-0.25040266,1.5154258,-0.37732515
-0.1,-0.2,0.6,-0.5235987755982988,0.5235987755982988,0,1.1277368,1.6421072,0.21070206,0.23843557,0.70340776,0.63587105,0.048345342,-0.08989483,1.2988819,-0.14098537,-0.79173815,-0.2620707,1.5399193,-0.28686094
-0.1,-0.2,0.6,-0.5235987755982988,0.5235987755982988,0,1.2158166,1.6466479,0.22485867,0.17589702,0.7447818,0.66774374,0.07719134,-0.026348177,1.2890313,-0.1622458,-0.78648674,-0.21641041,1.544531,-0.7061981
-0.1,-0.2,0.6,-0.5235987755982988,0.5235987755982988,0,1.1978081,1.675382,0.23345032,0.19728662,0.6565893,0.67940694,0.015647093,-0.023655795,1.2955081,-0.18408549,-0.8024197,-0.34296992,1.547183,-0.46403465
-0.1,-0.2,0.6,-0.5235987755982988,0.5235987755982988,0,1.2042081,1.6777223,0.13352355,0.23995449,0.6344696,0.67641044,0.032538958,-0.062423497,1.3029622,-0.17623538,-0.7925087,-0.2842226,1.5400937,-0.5086046
-0.1,-0.2,0.6,-0.5235987755982988,0.5235987755982988,0,1.2117838,1.657447,0.1461321,0.24764055,0.6176996,0.6949619,0.028936688,-0.061876133,1.284884,-0.21683604,-0.79247427,-0.25716978,1.5351663,-0.58787525
-0.1,-0.2,0.6,-0.5235987755982988,0.5235987755982988,0,1.197242,1.6826847,0.2467831,0.23644547,0.586062,0.6765204,0.0963621,-0.048508476,1.3112234,-0.15860859,-0.7355469,-0.16494244,1.5328252,0.16423236
-0.1,-0.2,0.6,-0.5235987755982988,0.5235987755982988,0,1.2315081,1.6286583,0.19291641,0.23166752,0.7230542,0.65428513,0.11880346,-0.05316703,1.3001376,-0.16294779,-0.7768348,-0.22035158,1.5575893,-0.51396066
-0.1,-0.2,0.6,-0.5235987755982988,0.5235987755982988,0,1.224681,1.6614126,0.20276673,0.25712928,0.6534623,0.64814645,-0.016294219,-0.0636382,1.3131269,-0.17658031,-0.7423694,-0.26372814,1.5397779,-0.34795642
-0.1,-0.2,0.6,-0.5235987755982988,0.5235987755982988,0,1.2832947,1.6549048,0.26768798,0.18650906,0.6318837,0.6777364,0.022293929,-0.06474222,1.2810113,-0.14521916,-0.73752755,-0.27132934,1.5281787,-0.28440833
-0.1,-0.2,0.6,-0.5235987755982988,0.5235987755982988,0,1.2036769,1.6550641,0.37848526,0.15183447,0.6529805,0.6776193,0.10290166,-0.089174934,1.2906463,-0.15037775,-0.6654433,-0.24184524,1.509512,-0.6325274
-0.1,-0.2,0.6,-0.5235987755982988,0.5235987755982988,0,1.2872906,1.6677123,0.24980329,0.22245537,0.68995607,0.6309304,0.07816469,-0.06010831,1.3026283,-0.19722557,-0.741677,-0.24591331,1.5566989,-0.26839715
-0.1,-0.2,0.6,-0.5235987755982988,0.5235987755982988,0,1.2943348,1.6383967,0.23796913,0.22455196,0.6881556,0.6832765,0.024184229,-0.070554525,1.2935048,-0.14857805,-0.70175475,-0.25694767,1.5356257,-0.56039
-0.1,-0.2,0.6,-0.5235987755982988,0.5235987755982988,0,1.2112342,1.6682215,0.27598676,0.21243906,0.561448,0.68673736,0.12709038,-0.05100517,1.3165559,-0.15088136,-0.70415145,-0.28121606,1.5448704,-0.5395824
-0.1,-0.2,0.6,-0.5235987755982988,0.5235987755982988,0,1.2862219,1.6991589,0.17804411,0.2766158,0.7091665,0.6945672,-0.008652907,-0.081067674,1.3051286,-0.15502617,-0.70239735,-0.21602456,1.548915,-0.34079516
-0.1,-0.2,0.6,-0.5235987755982988,0.5235987755982988,0,1.1408207,1.6661792,0.15681624,0.23948172,0.65292597,0.64099246,0.12056468,-0.08637502,1.2938371,-0.19136773,-1.0927655,-0.32759312,1.518934,-0.2836308
-0.1,-0.2,0.6,-0.5235987755982988,0.5235987755982988,0,1.270981,1.6388302,0.15019082,0.15623035,0.640287,0.645919,0.08960571,-0.058900695,1.2786213,-0.16071297,-0.8724367,-0.26557907,1.5194974,-0.23812948
-0.1,-0.2,0.6,-0.5235987755982988,0.5235987755982988,0,1.1972473,1.6674117,0.19467427,0.21186084,0.61893225,0.62040985,0.0077175032,-0.10767244,1.2986678,-0.16783586,-0.90735894,-0.2840424,1.5283556,-0.28759223
-0.1,-0.2,0.6,-0.5235987755982988,0.5235987755982988,0,1.2761002,1.7075156,0.16886647,0.14162555,0.6230237,0.68756545,0.059805755,-0.047299493,1.325513,-0.19645377,-0.9384687,-0.20069142,1.5386578,-0.46735257
-0.1,-0.2,0.6,-0.5235987755982988,0.5235987755982988,0,1.2761368,1.6651163,0.1443151,0.15211779,0.61383224,0.6776298,0.065032855,-0.087080285,1.3077976,-0.1950144,-0.9373339,-0.28355095,1.5417408,0.105655774
-0.1,-0.2,0.6,-0.5235987755982988,0.5235987755982988,0,1.1374848,1.6785724,0.28057188,0.17152393,0.7412184,0.65572226,0.07993926,-0.07475735,1.2887625,-0.13370521,-0.9364304,-0.25719795,1.5266944,-0.40710908
-0.1,-0.2,0.6,-0.5235987755982988,0.5235987755982988,0,1.0464125,1.6571983,0.15786338,0.17997144,0.5921878,0.669843,0.060831964,-0.054905258,1.2985847,-0.17101307,-0.95802903,-0.2770462,1.5269156,-0.06237919
-0.1,-0.2,0.6,-0.5235987755982988,0.5235987755982988,0,1.209411,1.6539162,0.114141256,0.19966027,0.6897244,0.70697576,-0.015503625,-0.07192854,1.3002555,-0.20023507,-0.98231953,-0.2898813,1.5286546,-0.2853969
-0.1,-0.2,0.6,-0.5235987755982988,0.5235987755982988,0,1.165972,1.6694415,0.18596151,0.16944675,0.7233475,0.64824057,0.03425767,-0.05288877,1.2986952,-0.21579942,-0.93106663,-0.3367708,1.5498642,-0.24009351
-0.1,-0.2,0.6,-0.5235987755982988,0.5235987755982988,0,1.1773005,1.6538857,0.16976207,0.22903901,0.61787426,0.65684927,-0.04731799,-0.06740226,1.3174974,-0.18078347,-0.84241056,-0.29245928,1.5167265,-0.3209465
-0.1,-0.2,0.6,-0.5235987755982988,0.5235987755982988,0,1.2155095,1.655493,0.16301806,0.21018668,0.61078835,0.64313734,0.054076124,-0.08886036,1.285199,-0.13923915,-0.8417028,-0.21643877,1.5348254,-0.3748086
-0.1,-0.2,0.6,-0.5235987755982988,0.5235987755982988,0,1.2783855,1.6329846,0.2999399,0.13706197,0.71622664,0.609567,0.017367918,-0.06766242,1.2976818,-0.15379305,-0.8765186,-0.25117388,1.5438328,-0.2809044
-0.1,-0.2,0.6,-0.5235987755982988,0.5235987755982988,0,1.1691848,1.675075,0.15344915,0.18583335,0.67715985,0.6542281,0.12293473,-0.052089043,1.2976062,-0.1397249,-0.9199711,-0.21808985,1.5207587,-0.29119927
-0.1,-0.2,0.6,-0.5235987755982988,0.5235987755982988,0,1.1867193,1.672555,0.2031715,0.22247276,0.5884238,0.65084743,-0.06889063,-0.06468604,1.3021587,-0.14126821,-0.8776789,-0.22478843,1.5072103,-0.47813806
-0.1,-0.2,0.6,-0.5235987755982988,0.5235987755982988,0,1.1194186,1.6576815,0.17800379,0.23153025,0.5668477,0.6465045,0.06151723,-0.045856927,1.2880862,-0.16170613,-0.8885785,-0.30996925,1.5447843,-0.6514728
-0.1,-0.2,0.6,-0.5235987755982988,0.5235987755982988,0,1.2021445,1.675424,0.11746691,0.20289323,0.67770976,0.68486357,0.1461921,-0.08167604,1.2988172,-0.15968265,-0.87966937,-0.26413244,1.5409857,-0.21448451
-0.1,-0.2,0.6,-0.5235987755982988,0.5235987755982988,0,1.2835482,1.6462419,0.15888917,0.19316797,0.57164955,0.65711087,-0.020769937,-0.10708568,1.276821,-0.22938298,-0.8836552,-0.2918056,1.5251693,-0.55178636
-0.1,-0.2,0.6,-0.5235987755982988,0.5235987755982988,0,1.1464764,1.6826426,0.31068152,0.15532665,0.69353217,0.68061984,0.1488175,-0.06349514,1.292762,-0.19255395,-0.8080319,-0.26272327,1.5047988,-0.16000615
-0.1,-0.2,0.6,-0.5235987755982988,0.5235987755982988,0,1.2074062,1.6786959,0.17039938,0.21572761,0.6856685,0.6297876,0.1244213,-0.12061747,1.293953,-0.12681313,-0.8791319,-0.27153254,1.5296593,-0.54359037
-0.1,-0.2,0.6,-0.5235987755982988,0.5235987755982988,0,1.2148633,1.642245,0.20650958,0.18966877,0.64292836,0.66001815,0.04334139,-0.081603,1.2807947,-0.16581133,-0.86081153,-0.25715527,1.5613011,-0.64644873
-0.1,-0.2,0.6,-0.5235987755982988,0.5235987755982988,0,1.2547996,1.6637263,0.16665202,0.25088474,0.62447596,0.64320105,-0.03022031,-0.07019556,1.2842351,-0.16945612,-0.78884405,-0.26829544,1.5180371,-0.32353732
-0.1,-0.2,0.6,-0.5235987755982988,0.5235987755982988,0,1.225317,1.6536902,0.3120369,0.16494931,0.67824847,0.6370797,-0.055882692,-0.08476151,1.2906135,-0.13830997,-0.7999038,-0.2583237,1.5343084,-0.773104
-0.1,-0.2,0.6,-0.5235987755982988,0.5235987755982988,0,1.2237507,1.6695606,0.2066365,0.1611498,0.7844067,0.64014673,0.008373617,-0.03778509,1.2993438,-0.15799744,-0.84173495,-0.23836614,1.5696892,-0.033668038
-0.1,-0.2,0.6,-0.5235987755982988,0.5235987755982988,0,1.2007366,1.6656452,0.10550328,0.22785775,0.7019503,0.66768193,0.1363291,-0.08190952,1.3076055,-0.18026009,-0.848389,-0.24284782,1.5561613,0.28341568
-0.1,-0.2,0.6,-0.5235987755982988,0.5235987755982988,0,1.2234206,1.6689425,0.13270722,0.23103501,0.7657505,0.66996676,0.035815515,-0.10226323,1.2685509,-0.18292792,-0.8709759,-0.263151,1.5574085,-0.34731755
-0.1,-0.2,0.6,-0.5235987755982988,0.5235987755982988,0,1.1530623,1.6797243,0.23587155,0.17675644,0.6796986,0.65295136,-0.019150564,-0.045351483,1.30026,-0.12490793,-0.7737114,-0.25870207,1.5134599,-0.028761871
-0.1,-0.2,0.6,-0.5235987755982988,0.5235987755982988,0,1.1827942,1.6452069,0.20038001,0.24915811,0.63299817,0.63717073,0.038397517,-0.1219262,1.2853993,-0.13394009,-0.8171908,-0.23704652,1.5244261,-0.19865504
-0.1,-0.2,0.6,-0.5235987755982988,0.5235987755982988,0,1.205324,1.64327,0.24583346,0.1964079,0.61022127,0.61525315,-0.0052661686,-0.08035688,1.3131655,-0.15216577,-0.84773433,-0.24607068,1.5209054,-0.4825439
-0.1,-0.2,0.6,-0.5235987755982988,0.5235987755982988,0,1.1118097,1.6729919,0.15294568,0.29395467,0.5534723,0.61096174,0.06505639,-0.07056167,1.2934513,-0.19744675,-0.86905867,-0.25024402,1.525816,-0.52198714
-0.1,-0.2,0.6,-0.5235987755982988,0.5235987755982988,0,1.2459686,1.65797,0.22081655,0.23484312,0.7576218,0.6755161,0.06809897,-0.04420599,1.301007,-0.1761261,-0.8060069,-0.30257306,1.5478452,-0.51662093
-0.1,-0.2,0.6,-0.5235987755982988,0.5235987755982988,0,1.1991605,1.6827325,0.12390313,0.20513089,0.722911,0.70719135,0.06161793,-0.044909876,1.3093712,-0.16700394,-0.8558754,-0.279374,1.5633093,-0.41380122
-0.1,-0.2,0.6,-0.5235987755982988,0.5235987755982988,0,1.1569022,1.6306995,0.25776803,0.1835533,0.684594,0.6449806,0.10016824,-0.1038164,1.2893075,-0.15189686,-0.799128,-0.22488566,1.5294999,-0.41648394
-0.1,-0.2,0.6,-0.5235987755982988,0.5235987755982988,0,1.169296,1.6920607,0.14038794,0.25204435,0.67902005,0.6555372,0.0049249646,-0.061332304,1.3031236,-0.20397751,-0.797646,-0.32247368,1.5232812,-0.40958104
-0.1,-0.2,0.6,-0.5235987755982988,0.5235987755982988,0,1.208746,1.7055224,0.18139963,0.2282238,0.7490238,0.64836997,0.029551048,-0.079034515,1.3058317,-0.15218931,-0.8531473,-0.24308784,1.5500088,-0.7556392
-0.1,-0.2,0.6,-0.5235987755982988,0.5235987755982988,0,1.1869386,1.6791528,0.20887604,0.21615401,0.5505865,0.61711067,0.028728446,-0.10219665,1.3117746,-0.15087539,-0.8104658,-0.24404955,1.5254817,-0.46256867
-0.1,-0.2,0.6,-0.5235987755982988,0.5235987755982988,0,1.1865635,1.6855364,0.2270389,0.1982002,0.5819637,0.6428034,0.01050464,-0.09141977,1.3045436,-0.17017351,-0.69980896,-0.19466777,1.542601,-0.44588646
-0.1,-0.2,0.6,-0.5235987755982988,0.5235987755982988,0,1.1375728,1.6829313,0.17621543,0.22849287,0.6507872,0.64681333,0.091958776,-0.084478036,1.2980676,-0.14603917,-0.81735003,-0.29384732,1.5391698,-0.6381894
-0.1,-0.2,0.6,-0.5235987755982988,0.5235987755982988,0,1.1720612,1.6446608,0.1891678,0.25058448,0.6484589,0.6393134,0.07149132,-0.07425764,1.3099246,-0.15091653,-0.78160775,-0.29071227,1.524679,-0.19603233
-0.1,-0.2,0.6,-0.5235987755982988,0.5235987755982988,0,1.2278081,1.6712847,0.2628008,0.17342813,0.5488308,0.64869815,0.06693801,-0.07028122,1.3086143,-0.16023622,-0.82377297,-0.246073,1.5400045,-0.6788838
-0.1,-0.2,0.6,-0.5235987755982988,0.5235987755982988,0,1.1747857,1.6575729,0.19459987,0.24854165,0.5992332,0.6264259,0.039817262,-0.08321688,1.2909681,-0.17403983,-0.8202999,-0.2747031,1.5457093,-0.38870257
-0.1,-0.2,0.6,-0.5235987755982988,0.5235987755982988,0,1.2060952,1.7008399,0.17439593,0.2115804,0.6365193,0.6530561,0.030393682,-0.07842471,1.290342,-0.17528068,-0.8096093,-0.2919029,1.5400826,-0.50743437
-0.1,-0.2,0.6,-0.5235987755982988,0.5235987755982988,0,1.2998053,1.6500413,0.16099161,0.24098726,0.6962198,0.6368845,0.08982551,-0.09190004,1.2986438,-0.14835812,-0.8212499,-0.23598196,1.5577185,-0.40031505
-0.1,-0.2,0.6,-0.5235987755982988,0.5235987755982988,0,1.2915252,1.6543947,0.20076738,0.19644491,0.6329643,0.6691444,0.1038296,-0.10161103,1.3040675,-0.12768637,-0.73341984,-0.25930038,1.5058063,-0.26689908
-0.1,-0.2,0.6,-0.5235987755982988,0.5235987755982988,0,1.2238374,1.6624737,0.18631007,0.21908796,0.64262956,0.7112123,0.058346365,-0.05639921,1.3150823,-0.18415025,-0.78069216,-0.21605043,1.5513033,-0.31153548
-0.1,-0.2,0.6,-0.5235987755982988,0.5235987755982988,0,1.2152395,1.700586,0.22422458,0.2203756,0.7373479,0.67130035,-0.024498757,-0.08130429,1.2955382,-0.14514074,-0.690776,-0.25972357,1.5428096,-0.24850799
-0.1,-0.2,0.6,-0.5235987755982988,0.5235987755982988,0,1.2022861,1.6687511,0.25657392,0.24299315,0.60338575,0.68177974,0.017757539,-0.07685897,1.2886016,-0.15597133,-0.750641,-0.21124884,1.5580405,-0.29098746
-0.1,-0.2,0.6,-0.5235987755982988,0.5235987755982988,0,1.2613068,1.6414405,0.18614373,0.22224388,0.7438288,0.6780144,0.08092501,-0.059996918,1.2951419,-0.11993792,-0.7189068,-0.26702446,1.50077,-0.21799237
-0.1,-0.2,0.6,-0.5235987755982988,0.5235987755982988,0,1.1672139,1.6907576,0.1915004,0.2865425,0.637261,0.6652541,0.009051238,-0.090106785,1.2939161,-0.1826096,-0.6635184,-0.3094994,1.5269309,-0.50498414
-0.1,-0.2,0.6,-0.5235987755982988,0.5235987755982988,0,1.2082677,1.6763904,0.18440026,0.25443038,0.6390964,0.600993,0.15322971,-0.071942456,1.29512,-0.1850788,-0.71400255,-0.20699042,1.5146533,-0.4344238
-0.1,-0.2,0.6,-0.5235987755982988,0.5235987755982988,0,1.2094266,1.6621406,0.20517777,0.25984213,0.6843488,0.6606086,0.100656785,-0.063150376,1.292132,-0.15307985,-0.7117836,-0.2843286,1.5224316,-0.21163918
-0.1,-0.2,0.6,-0.5235987755982988,0.5235987755982988,0,1.1632622,1.6516216,0.2609135,0.2075248,0.64687175,0.68682766,0.08369239,-0.03146763,1.299792,-0.13563587,-0.68268955,-0.2847,1.5163634,-0.518304
-0.1,-0.2,0.6,-0.5235987755982988,0.5235987755982988,0,1.145382,1.6466113,0.2365198,0.21226801,0.7556762,0.6757382,0.11974267,-0.059736587,1.2971581,-0.16811159,-0.69582903,-0.24665286,1.5313649,-0.23614213
-0.1,-0.2,0.6,-0.5235987755982988,0.5235987755982988,0,1.2208247,1.6674442,0.18143682,0.27931386,0.6318763,0.68513215,0.07552223,-0.06952885,1.2986319,-0.15579809,-0.6787963,-0.24741209,1.5298977,-0.5238639
-0.1,-0.2,0.6,-0.5235987755982988,0.5235987755982988,0,1.2886653,1.6342368,0.22911611,0.24551363,0.6362541,0.65907043,0.119033225,-0.067463204,1.2915683,-0.1681451,-0.65949875,-0.22723068,1.5092092,-0.49007872
-0.1,-0.2,0.6,-0.5235987755982988,0.5235987755982988,0,1.2054273,1.6966532,0.21716924,0.29441148,0.6973247,0.6413351,-0.008213669,-0.06772795,1.3080516,-0.14816093,-0.7182407,-0.22832818,1.5477638,-0.2717744
-0.1,-0.2,0.6,-0.5235987755982988,0.5235987755982988,0,1.2428362,1.6654043,0.19347282,0.27560362,0.62186396,0.670993,-0.01203005,-0.068268575,1.298259,-0.17046422,-0.6851813,-0.18653357,1.5403728,-0.3794093
-0.1,-0.2,0.6,-0.5235987755982988,0.5235987755982988,0,1.1400067,1.6697628,0.17317131,0.20436916,0.61450547,0.61063975,0.12817702,-0.076335914,1.2837055,-0.17445818,-0.92314243,-0.24084315,1.5220824,-0.2756597
-0.1,-0.2,0.6,-0.5235987755982988,0.5235987755982988,0,1.2513757,1.6282849,0.12369726,0.17138037,0.6188502,0.70562387,0.028454963,-0.06400935,1.2955565,-0.17256412,-0.8452616,-0.2809997,1.5331786,-0.3125761
-0.1,-0.2,0.6,-0.5235987755982988,0.5235987755982988,0,1.2090465,1.6567682,0.1528238,0.17589423,0.6099146,0.6829379,0.060715105,-0.08825783,1.303401,-0.14696178,-0.9791223,-0.25339693,1.5288708,-0.40477866
-0.1,-0.2,0.6,-0.5235987755982988,0.5235987755982988,0,1.1553338,1.6428857,0.22171989,0.19862232,0.7082331,0.5720641,0.087508745,-0.07902981,1.2869152,-0.15759276,-0.8592586,-0.21078606,1.5419565,-0.49283004
-0.1,-0.2,0.6,-0.5235987755982988,0.5235987755982988,0,1.2039661,1.6554482,0.13772443,0.21946134,0.5958289,0.66764873,0.05575065,-0.04940961,1.272512,-0.15358298,-0.71669215,-0.25617152,1.5302373,-0.5723315
-0.1,-0.2,0.6,-0.5235987755982988,0.5235987755982988,0,1.2124414,1.6411326,0.17633581,0.208967,0.70824397,0.6427971,-0.010944352,-0.06136265,1.2888703,-0.12382224,-0.82275856,-0.21472244,1.5390013,-0.46543646
-0.1,-0.2,0.6,-0.5235987755982988,0.5235987755982988,0,1.152005,1.6759068,0.1779758,0.17803541,0.6432975,0.67732185,0.11463598,-0.025103275,1.2866254,-0.16838029,-0.97552997,-0.21612978,1.5462241,-0.24701613
-0.1,-0.2,0.6,-0.5235987755982988,0.5235987755982988,0,1.1954457,1.6537389,0.14988738,0.18677738,0.7019008,0.6901624,0.060456555,-0.026635824,1.3067983,-0.17889515,-0.987815,-0.24021108,1.5300885,-0.44282553
-0.1,-0.2,0.6,-0.5235987755982988,0.5235987755982988,0,1.2542791,1.6372048,0.19484858,0.16120659,0.66514695,0.65621036,0.062988356,-0.08820292,1.3066281,-0.13857539,-0.90812486,-0.26398513,1.5159379,-0.56126356
-0.1,-0.2,0.6,-0.5235987755982988,0.5235987755982988,0,1.1792393,1.6663998,0.14946349,0.19416001,0.68169576,0.66612595,0.041531492,-0.06727268,1.3020802,-0.1308786,-0.92350537,-0.24372181,1.5439824,-0.31028792
-0.1,-0.2,0.6,-0.5235987755982988,0.5235987755982988,0,1.1003708,1.6494707,0.21330194,0.1910683,0.6547608,0.6521635,0.0013067863,-0.05139881,1.2938646,-0.1530632,-0.94835377,-0.20891443,1.5150579,-0.4513625
-0.1,-0.2,0.6,-0.5235987755982988,0.5235987755982988,0,1.1968381,1.6506249,0.1852789,0.17454559,0.6296157,0.7267847,0.04390798,-0.06009888,1.2924365,-0.1827905,-0.93907416,-0.26988608,1.5417813,-0.5085966
-0.1,-0.2,0.6,-0.5235987755982988,0.5235987755982988,0,1.1765642,1.6250151,0.17031868,0.19434528,0.67446536,0.64389795,0.09209701,-0.12967955,1.3165148,-0.16625915,-0.9182893,-0.32030782,1.534571,-0.3533918
-0.1,-0.2,0.6,-0.5235987755982988,0.5235987755982988,0,1.1601514,1.6544923,0.15378319,0.2276145,0.73086375,0.66088617,0.06333472,-0.110330455,1.3022351,-0.15275167,-0.9568215,-0.2354847,1.5412314,-0.34082824
-0.1,-0.2,0.6,-0.5235987755982988,0.5235987755982988,0,1.1869009,1.6853479,0.16042303,0.21384637,0.68116564,0.6492924,0.052764665,-0.11151609,1.2798835,-0.17158905,-0.86752367,-0.2493864,1.5442083,-0.60986423
-0.1,-0.2,0.6,-0.5235987755982988,0.5235987755982988,0,1.1751919,1.6416028,0.10647803,0.25459307,0.6907026,0.62203604,0.071405925,-0.046825267,1.280371,-0.117972136,-0.85421133,-0.2788356,1.5165094,-0.24784875
-0.1,-0.2,0.6,-0.5235987755982988,0.5235987755982988,0,1.2786219,1.6745311,0.22785026,0.11599742,0.5724896,0.6734275,0.004457495,-0.059309244,1.3042454,-0.12350798,-0.8258435,-0.25689244,1.4838837,-0.43929905
-0.1,-0.2,0.6,-0.5235987755982988,0.5235987755982988,0,1.1389792,1.6891187,0.22218864,0.1847101,0.7368635,0.6312055,-0.09711514,-0.10470888,1.29908,-0.16332047,-0.8931459,-0.28064755,1.5413632,-0.41623735
-0.1,-0.2,0.6,-0.5235987755982988,0.5235987755982988,0,1.16206,1.6598564,0.1849892,0.22528325,0.64967704,0.69323516,0.07444718,-0.11053927,1.2838504,-0.1601962,-0.8237803,-0.23110516,1.5258982,-0.12811968
-0.1,-0.2,0.6,-0.5235987755982988,0.5235987755982988,0,1.2080743,1.6699561,0.17764553,0.20058915,0.66336673,0.64717424,-0.060545295,-0.06018331,1.3011595,-0.14380321,-0.7644616,-0.22854179,1.5161778,-0.14396527
-0.1,-0.2,0.6,-0.5235987755982988,0.5235987755982988,0,1.1290926,1.6993333,0.17065418,0.22207381,0.63435787,0.64855087,0.06532598,-0.022368057,1.3005117,-0.17261659,-0.90832907,-0.24997973,1.5335062,-0.64342844
-0.1,-0.2,0.6,-0.5235987755982988,0.5235987755982988,0,1.1766384,1.6244522,0.17783245,0.2022825,0.63486433,0.6715495,0.028655058,-0.06730861,1.2815403,-0.15995032,-0.87588286,-0.24564661,1.4832675,-0.66716635
-0.1,-0.2,0.6,-0.5235987755982988,0.5235987755982988,0,1.1589371,1.7077391,0.1956756,0.20277199,0.67208815,0.6243605,0.111540735,-0.075235255,1.299603,-0.13314027,-0.7680201,-0.24548362,1.5100242,-0.43107724
-0.1,-0.2,0.6,-0.5235987755982988,0.5235987755982988,0,1.2309506,1.6418754,0.1595013,0.1930418,0.6644976,0.6698719,0.026237756,-0.04664605,1.2845519,-0.1558394,-0.85974556,-0.2398565,1.5246913,-0.35481113
-0.1,-0.2,0.6,-0.5235987755982988,0.5235987755982988,0,1.1496464,1.6594719,0.267339,0.17845078,0.6596704,0.60461146,0.103338085,-0.044434953,1.274409,-0.17237549,-0.817717,-0.19451906,1.5546215,-0.45093754
-0.1,-0.2,0.6,-0.5235987755982988,0.5235987755982988,0,1.1409279,1.6447216,0.18185574,0.21322383,0.6477923,0.6694999,0.034707915,-0.08891212,1.3105861,-0.16518173,-0.85112035,-0.24483468,1.5387267,-0.38260227
-0.1,-0.2,0.6,-0.5235987755982988,0.5235987755982988,0,1.223868,1.6593623,0.13213962,0.24736461,0.60240275,0.6658818,0.1351776,-0.074336156,1.2989194,-0.18714175,-0.79978704,-0.25714076,1.5151643,-0.26670814
-0.1,-0.2,0.6,-0.5235987755982988,0.5235987755982988,0,1.209832,1.680388,0.16054758,0.19879568,0.774331,0.6434446,0.05433374,-0.061574303,1.2957226,-0.16759603,-0.80717206,-0.24686153,1.5170721,-0.09866173
-0.1,-0.2,0.6,-0.5235987755982988,0.5235987755982988,0,1.2351654,1.6522472,0.1951512,0.2415675,0.70080024,0.66173625,0.12037925,-0.07892939,1.3000163,-0.15331814,-0.75175506,-0.27938718,1.5204179,-0.41694146
-0.1,-0.2,0.6,-0.5235987755982988,0.5235987755982988,0,1.1909266,1.6512614,0.21035087,0.21026632,0.67203045,0.6627454,0.02247471,-0.07332949,1.3057826,-0.16205175,-0.8803393,-0.20700407,1.5487782,-0.39769495
-0.1,-0.2,0.6,-0.5235987755982988,0.5235987755982988,0,1.176057,1.6832627,0.23424049,0.17306355,0.6070028,0.6705905,0.08775425,-0.071402535,1.2944145,-0.16755824,-0.83031934,-0.31493276,1.5267076,-0.18759163
-0.1,-0.2,0.6,-0.5235987755982988,0.5235987755982988,0,1.1675365,1.6648533,0.19443573,0.21133658,0.66464454,0.66587967,0.010414712,-0.101764776,1.3030521,-0.1582452,-0.84665525,-0.28169587,1.5342091,-0.40931392
-0.1,-0.2,0.6,-0.5235987755982988,0.5235987755982988,0,1.1739932,1.6646333,0.21640281,0.2238595,0.6781551,0.6122595,0.024474658,-0.10469248,1.2887423,-0.18288268,-0.8363383,-0.24522682,1.5247581,-0.24233247
-0.1,-0.2,0.6,-0.5235987755982988,0.5235987755982988,0,1.1606649,1.6821977,0.18402614,0.22916861,0.7457911,0.65712446,0.028028507,-0.057228986,1.3035394,-0.19868013,-0.8155363,-0.20770167,1.5444419,-0.3640341
-0.1,-0.2,0.6,-0.5235987755982988,0.5235987755982988,0,1.1450074,1.6704658,0.18921079,0.20958994,0.5561362,0.6730147,0.019826248,-0.07281547,1.3021317,-0.17345856,-0.8488912,-0.22711875,1.5130602,-0.44827697
-0.1,-0.2,0.6,-0.5235987755982988,0.5235987755982988,0,1.1571027,1.6526957,0.23349117,0.23453565,0.6683588,0.646173,0.060775384,-0.08697576,1.2851063,-0.2030777,-0.85655755,-0.21451987,1.51862,-0.4816615
-0.1,-0.2,0.6,-0.5235987755982988,0.5235987755982988,0,1.1742326,1.6636876,0.24406397,0.18587841,0.565974,0.66929066,0.019027513,-0.047165565,1.3077036,-0.16854815,-0.76053154,-0.20558497,1.4957554,-0.3283543
-0.1,-0.2,0.6,-0.5235987755982988,0.5235987755982988,0,1.2766781,1.6464661,0.21870284,0.19953711,0.6478709,0.6590081,-0.0039883335,-0.049753394,1.3084482,-0.15075573,-0.7619498,-0.26621053,1.541708,-0.32129788
-0.1,-0.2,0.6,-0.5235987755982988,0.5235987755982988,0,1.1577162,1.6545266,0.20657215,0.22507176,0.7306024,0.635059,0.04878258,-0.07579812,1.304356,-0.12224364,-0.80378,-0.25346124,1.5478193,-0.5667274
-0.1,-0.2,0.6,-0.5235987755982988,0.5235987755982988,0,1.2683024,1.7019142,0.14912128,0.21338731,0.6818996,0.6285835,0.067814596,-0.05217971,1.3014052,-0.15352343,-0.7851508,-0.33870584,1.5155249,-0.48621333
-0.1,-0.2,0.6,-0.5235987755982988,0.5235987755982988,0,1.198019,1.6960897,0.2182212,0.17455322,0.7422657,0.62961185,0.106309086,-0.008880574,1.2898,-0.10925997,-0.77562064,-0.24038674,1.527303,-0.50328547
-0.1,-0.2,0.6,-0.5235987755982988,0.5235987755982988,0,1.2336457,1.6678807,0.19667107,0.20060116,0.5762347,0.6544899,0.14575423,-0.051251657,1.2899803,-0.18116787,-0.7778016,-0.22366937,1.4950091,-0.39593756
-0.1,-0.2,0.6,-0.5235987755982988,0.5235987755982988,0,1.2091678,1.6664186,0.2588749,0.17909805,0.73136306,0.6347385,0.15511478,-0.061055176,1.2993785,-0.15675178,-0.77462256,-0.23887303,1.5087379,-0.57520854
-0.1,-0.2,0.6,-0.5235987755982988,0.5235987755982988,0,1.2306051,1.6429816,0.24882202,0.19617794,0.56290996,0.6647913,0.1876174,-0.076721005,1.3024287,-0.14598697,-0.8356073,-0.2820973,1.5616736,-0.5733451
-0.1,-0.2,0.6,-0.5235987755982988,0.5235987755982988,0,1.1812813,1.6732528,0.2094241,0.22035222,0.6858225,0.65437925,-0.013418254,-0.07679952,1.2799803,-0.19473141,-0.8221392,-0.25646242,1.5395631,-0.48074016
-0.1,-0.2,0.6,-0.5235987755982988,0.5235987755982988,0,1.2018576,1.6374689,0.18447809,0.23795049,0.6870557,0.6659118,-0.00022717642,-0.064340256,1.2946303,-0.14648871,-0.7605647,-0.2908848,1.5537857,-0.45610964
-0.1,-0.2,0.6,-0.5235987755982988,0.5235987755982988,0,1.2033865,1.6809404,0.25502437,0.19913192,0.67119825,0.65741855,0.068972856,-0.029738165,1.3024093,-0.13867311,-0.73982286,-0.25072455,1.5318893,-0.20209907
-0.1,-0.2,0.6,-0.5235987755982988,0.5235987755982988,0,1.2683208,1.6888593,0.18724789,0.19800168,0.6582448,0.6409479,0.01143636,-0.04823809,1.2940592,-0.17375477,-0.72555333,-0.2537817,1.5039847,-0.234047
-0.1,-0.2,0.6,-0.5235987755982988,0.5235987755982988,0,1.0656252,1.6747085,0.10373786,0.2693017,0.5981605,0.67907584,0.038192585,-0.10043406,1.2916181,-0.13008487,-0.70808357,-0.28895503,1.4956434,-0.43718767
-0.1,-0.2,0.6,-0.5235987755982988,0.5235987755982988,0,1.2231276,1.668359,0.27382794,0.17574444,0.7172422,0.66456765,0.11878374,-0.074200355,1.3084443,-0.22666137,-0.68166316,-0.24934153,1.5379944,-0.02749754
-0.1,-0.2,0.6,-0.5235987755982988,0.5235987755982988,0,1.146058,1.65954,0.11627059,0.25567648,0.6492502,0.6899577,0.045286246,-0.0846347,1.2886417,-0.14607659,-0.76921105,-0.27169463,1.5556774,-0.070630915
-0.1,-0.2,0.6,-0.5235987755982988,0.5235987755982988,0,1.2371181,1.6447872,0.23317638,0.2323455,0.6881197,0.6221981,0.06611924,-0.10432959,1.310126,-0.17975554,-0.63279134,-0.28107816,1.5448488,-0.25206605
-0.1,-0.2,0.6,-0.5235987755982988,0.5235987755982988,0,1.2500434,1.6768795,0.25370616,0.19666372,0.6455617,0.628229,0.102130555,-0.08589985,1.308162,-0.17986132,-0.754647,-0.23049736,1.5383219,-0.39726022
-0.1,-0.2,0.6,-0.5235987755982988,0.5235987755982988,0,1.1966429,1.6584293,0.20357646,0.1869118,0.66457915,0.6976953,0.09539511,-0.083105065,1.3031616,-0.18824354,-0.79787517,-0.26268584,1.5511482,-0.43286932
-0.1,-0.2,0.6,-0.5235987755982988,0.5235987755982988,0,1.2618475,1.7034092,0.23189978,0.18833981,0.5878652,0.6540908,0.063742734,-0.08867579,1.3185052,-0.19470559,-0.76872903,-0.23340379,1.5305856,-0.62289727
-0.1,-0.2,0.6,-0.5235987755982988,0.5235987755982988,0,1.225059,1.6668253,0.26754433,0.16796531,0.6447145,0.694198,0.0054557645,-0.040738225,1.3016274,-0.15791003,-0.74504465,-0.24135266,1.5205809,-0.54425985
-0.1,-0.2,0.6,-0.5235987755982988,0.5235987755982988,0,1.2016228,1.692421,0.24237463,0.2141458,0.6784753,0.66700584,0.096766725,-0.04517368,1.2882359,-0.15832138,-0.65853614,-0.25766405,1.5384955,-0.5187105
-0.1,-0.2,0.6,-0.5235987755982988,0.5235987755982988,0,1.243842,1.6564496,0.18830432,0.2378547,0.72278726,0.70518494,0.032796558,-0.05901998,1.3146932,-0.16018929,-0.84911275,-0.18310344,1.5609535,-0.3353268
-0.1,-0.2,0.6,-0.5235987755982988,0.5235987755982988,0,1.2079935,1.6912781,0.19496831,0.25784507,0.6761552,0.65314007,-0.0065340037,-0.099349275,1.2895955,-0.17906933,-0.7583489,-0.21926865,1.5250698,-0.6638568
-0.1,-0.2,0.6,-0.5235987755982988,0.5235987755982988,0,1.1256119,1.6343808,0.19923462,0.26908535,0.55345863,0.6559187,0.07220121,-0.06033349,1.2908062,-0.17500721,-0.7442693,-0.2660092,1.5377803,-0.39307648
-0.1,-0.2,0.6,-0.5235987755982988,0.5235987755982988,0,1.1968387,1.6294764,0.19384797,0.25038415,0.71146274,0.6797506,0.038295873,-0.033680964,1.3009362,-0.16184644,-0.7830093,-0.24118462,1.5634769,-0.4869775
-0.1,-0.2,0.6,-0.5235987755982988,0.5235987755982988,0,1.1476768,1.6740694,0.097158425,0.17643116,0.61766773,0.7099061,0.047496855,-0.09186827,1.313227,-0.18644336,-1.1039677,-0.266954,1.5434448,-0.24478261
-0.1,-0.2,0.6,-0.5235987755982988,0.5235987755982988,0,1.2125765,1.6694009,0.14829254,0.23797098,0.660574,0.5961653,0.0010420908,-0.053998563,1.3003318,-0.1652138,-1.0817093,-0.23216264,1.5480374,-0.2593612
-0.1,-0.2,0.6,-0.5235987755982988,0.5235987755982988,0,1.1794096,1.6819028,0.21382193,0.19082227,0.65481955,0.6466982,0.08216828,-0.058931638,1.3096321,-0.15734759,-1.0538702,-0.26075637,1.529256,-0.36042964
-0.1,-0.2,0.6,-0.5235987755982988,0.5235987755982988,0,1.1608747,1.6672841,0.19036987,0.1546553,0.71831053,0.66945964,0.032997843,-0.086250655,1.2957321,-0.12171034,-1.0654202,-0.2200616,1.5414021,-0.33508378
-0.1,-0.2,0.6,-0.5235987755982988,0.5235987755982988,0,1.1996688,1.6616051,0.2097782,0.18378064,0.7019172,0.63811547,0.015793411,-0.0963985,1.2846857,-0.15807769,-0.94605845,-0.29173356,1.5121622,-0.16386439
-0.1,-0.2,0.6,-0.5235987755982988,0.5235987755982988,0,1.2225056,1.6480538,0.16282812,0.20377333,0.60207474,0.62422854,0.08412579,-0.0946289,1.3020439,-0.20822187,-0.89115137,-0.19866599,1.5335435,-0.2591302
-0.1,-0.2,0.6,-0.5235987755982988,0.5235987755982988,0,1.1326239,1.6796776,0.18320647,0.18770137,0.5846721,0.64896816,-0.056656145,-0.07976297,1.3142992,-0.13438208,-0.9512047,-0.21076928,1.5133417,-0.5870311
-0.1,-0.2,0.6,-0.5235987755982988,0.5235987755982988,0,1.2060802,1.6828346,0.17405325,0.19847916,0.70922786,0.636434,-0.033585627,-0.07222401,1.3101465,-0.17994374,-0.9345456,-0.22087893,1.5223198,-0.38841754
-0.1,-0.2,0.6,-0.5235987755982988,0.5235987755982988,0,1.1446369,1.67415,0.1458597,0.17515814,0.6637182,0.6873211,0.10181349,-0.04659476,1.2801512,-0.14430274,-0.9702779,-0.28190482,1.525969,-0.46574846
-0.1,-0.2,0.6,-0.5235987755982988,0.5235987755982988,0,1.2888666,1.6662166,0.102740124,0.18477227,0.6949306,0.67967004,0.05578742,-0.098448515,1.2828406,-0.16826358,-0.8805253,-0.26428053,1.5162073,-0.3871868
-0.1,-0.2,0.6,-0.5235987755982988,0.5235987755982988,0,1.2048023,1.6582248,0.20329812,0.17195205,0.64443105,0.6226984,0.07899433,-0.056771573,1.2982849,-0.15948673,-0.931523,-0.30170855,1.5204035,-0.54318076
-0.1,-0.2,0.6,-0.5235987755982988,0.5235987755982988,0,1.1899107,1.6566647,0.18624936,0.18209983,0.564267,0.6527996,0.19779472,-0.051227313,1.3144779,-0.1818054,-0.93554866,-0.26392645,1.5509561,-0.45351797
-0.1,-0.2,0.6,-0.5235987755982988,0.5235987755982988,0,1.2208409,1.6540076,0.19398883,0.1736357,0.7079357,0.66282314,0.004509135,-0.102957085,1.3015617,-0.15305899,-0.8686329,-0.30458018,1.5140764,-0.5860395
-0.1,-0.2,0.6,-0.5235987755982988,0.5235987755982988,0,1.2202067,1.6330175,0.228723,0.1794088,0.628731,0.61159146,0.024556585,-0.0068144375,1.302043,-0.20064142,-0.92775095,-0.30958492,1.5244564,-0.5433991
-0.1,-0.2,0.6,-0.5235987755982988,0.5235987755982988,0,1.1959037,1.6586312,0.17332996,0.1973282,0.65100753,0.63266206,0.019649701,-0.10738681,1.3077744,-0.17815648,-0.9054207,-0.19359468,1.5221976,-0.4449937
-0.1,-0.2,0.6,-0.5235987755982988,0.5235987755982988,0,1.1662025,1.6629977,0.3145267,0.15719669,0.6691608,0.6853157,0.08176687,-0.08728999,1.29933,-0.16398233,-0.9062033,-0.22002545,1.5450991,-0.37139556
-0.1,-0.2,0.6,-0.5235987755982988,0.5235987755982988,0,1.2102528,1.6528335,0.1757018,0.21443322,0.63295346,0.6530993,0.041455977,-0.08207755,1.2970879,-0.13320199,-0.8096942,-0.26566985,1.511263,-0.47969425
-0.1,-0.2,0.6,-0.5235987755982988,0.5235987755982988,0,1.1080313,1.6375049,0.17472209,0.20310488,0.67659247,0.66845316,0.0517052,-0.027020771,1.2998245,-0.15131617,-0.8810127,-0.24839723,1.5149125,-0.8496633
-0.1,-0.2,0.6,-0.5235987755982988,0.5235987755982988,0,1.2117233,1.6634389,0.16263348,0.23075499,0.7148639,0.65749276,0.028852966,-0.114732645,1.2910779,-0.15108696,-0.8521152,-0.20981728,1.5601395,-0.36895967
-0.1,-0.2,0.6,-0.5235987755982988,0.5235987755982988,0,1.2148023,1.6410631,0.1921177,0.19330464,0.59369457,0.67668045,0.1202485,-0.077044085,1.296746,-0.12810767,-0.786382,-0.3023543,1.4928433,-0.45078218
-0.1,-0.2,0.6,-0.5235987755982988,0.5235987755982988,0,1.1778964,1.6695389,0.18716897,0.20467784,0.6166701,0.63635004,0.0647646,-0.041534096,1.295576,-0.16680983,-0.8956354,-0.26517153,1.5534633,-0.49280867
-0.1,-0.2,0.6,-0.5235987755982988,0.5235987755982988,0,1.2581192,1.7010986,0.19820684,0.17165777,0.68632567,0.6739306,-0.07364905,-0.05271444,1.2937165,-0.17711498,-0.77074075,-0.22786522,1.4972051,-0.34686503
-0.1,-0.2,0.6,-0.5235987755982988,0.5235987755982988,0,1.2676218,1.643795,0.19172166,0.21813396,0.6142436,0.66709036,0.11187377,-0.055434212,1.3008801,-0.17125973,-0.7528359,-0.26670647,1.5480773,-0.4791961
-0.1,-0.2,0.6,-0.5235987755982988,0.5235987755982988,0,1.1592729,1.6716393,0.2005688,0.1964633,0.6761438,0.6614488,0.06592008,-0.01477279,1.3113221,-0.15013784,-0.7838743,-0.24307634,1.5399603,-0.30534688
-0.1,-0.2,0.6,-0.5235987755982988,0.5235987755982988,0,1.1386577,1.6368376,0.33658537,0.14398408,0.7156622,0.68100685,0.038327876,-0.075943135,1.2762285,-0.1628093,-0.78130364,-0.1866338,1.4988799,-0.26055694
-0.1,-0.2,0.6,-0.5235987755982988,0.5235987755982988,0,1.2350342,1.6665603,0.20704731,0.21160577,0.6280984,0.6275295,0.05675337,-0.039570343,1.2902035,-0.23471954,-0.7953359,-0.24508448,1.5160003,-0.1439914
-0.1,-0.2,0.6,-0.5235987755982988,0.5235987755982988,0,1.2641068,1.6581767,0.21390334,0.27077568,0.69467247,0.63132864,0.008810273,-0.06013203,1.2850498,-0.16710328,-0.7380196,-0.24994828,1.5290523,-0.45215645
-0.1,-0.2,0.6,-0.5235987755982988,0.5235987755982988,0,1.1790901,1.6686686,0.18598111,0.24300086,0.6446462,0.63100326,0.18232562,-0.039459925,1.3116347,-0.2200634,-0.8560109,-0.317764,1.5427959,-0.67612153
-0.1,-0.2,0.6,-0.5235987755982988,0.5235987755982988,0,1.1806483,1.6722546,0.20993309,0.2208934,0.670607,0.67033106,0.09415801,-0.08018466,1.2987397,-0.20798928,-0.8156816,-0.28148812,1.536343,-0.44255197
-0.1,-0.2,0.6,-0.5235987755982988,0.5235987755982988,0,1.2468239,1.655841,0.18626925,0.22121567,0.70377344,0.6830178,0.023101548,-0.05608792,1.2904052,-0.14405288,-0.77839166,-0.2810009,1.5330657,-0.27149984
-0.1,-0.2,0.6,-0.5235987755982988,0.5235987755982988,0,1.152242,1.6564268,0.16860056,0.2455331,0.7789067,0.6667105,0.044770926,-0.08003311,1.2835307,-0.16730945,-0.7431997,-0.26819086,1.4825122,-0.5150748
-0.1,-0.2,0.6,-0.5235987755982988,0.5235987755982988,0,1.277115,1.6590601,0.20370956,0.20555648,0.68112683,0.6712046,-0.0106292395,-0.09568757,1.297199,-0.14790596,-0.76158595,-0.2565594,1.5086119,-0.46874985
-0.1,-0.2,0.6,-0.5235987755982988,0.5235987755982988,0,1.2479,1.6491318,0.2032315,0.22526555,0.6612334,0.6655717,-0.052371014,-0.05896856,1.3115085,-0.17696504,-0.7810784,-0.2418319,1.5493978,-0.3485465
-0.1,-0.2,0.6,-0.5235987755982988,0.5235987755982988,0,1.3088676,1.6395003,0.14992116,0.28328788,0.6624917,0.6768204,-0.018796848,-0.0893967,1.3064497,-0.1819081,-0.7765448,-0.24680264,1.5416603,-0.3870253
-0.1,-0.2,0.6,-0.5235987755982988,0.5235987755982988,0,1.1577923,1.6694864,0.20849316,0.14091708,0.73115706,0.6400855,0.07226868,-0.07138719,1.2879916,-0.21674424,-0.9475861,-0.2576451,1.4718343,-0.7947463
-0.1,-0.2,0.6,-0.5235987755982988,0.5235987755982988,0,1.1780766,1.651343,0.149749,0.14836966,0.64471245,0.6593659,0.114231855,-0.05703996,1.2835368,-0.173775,-0.88629884,-0.2249222,1.5155016,-0.53466374
-0.1,-0.2,0.6,-0.5235987755982988,0.5235987755982988,0,1.2258127,1.6594124,0.21321394,0.17202528,0.7258929,0.62375915,-0.032862373,-0.07867555,1.3106818,-0.16906185,-1.1538353,-0.27731398,1.5637001,-0.56170154
-0.1,-0.2,0.6,-0.5235987755982988,0.5235987755982988,0,1.1664131,1.6697239,0.17629504,0.19786797,0.7037224,0.6287438,0.07081797,-0.093111955,1.30768,-0.14849505,-1.0271012,-0.30750403,1.4855988,-0.568848
-0.1,-0.2,0.6,-0.5235987755982988,0.5235987755982988,0,1.1517212,1.6698905,0.16515954,0.15743183,0.60166764,0.6476182,-0.07299861,-0.08818959,1.3094076,-0.1779433,-1.0450008,-0.24060597,1.5213102,-0.3903609
-0.1,-0.2,0.6,-0.5235987755982988,0.5235987755982988,0,1.2098107,1.6832747,0.30686143,0.1711378,0.58799505,0.6531216,0.0049266564,-0.08020836,1.2913647,-0.13452944,-0.92005527,-0.28340128,1.5366291,-0.6817623
-0.1,-0.2,0.6,-0.5235987755982988,0.5235987755982988,0,1.1806515,1.6528147,0.17289722,0.18269464,0.5292401,0.6479649,-0.032722905,-0.11042933,1.2836362,-0.19489042,-1.0244957,-0.24113667,1.5580844,-0.55353725
-0.1,-0.2,0.6,-0.5235987755982988,0.5235987755982988,0,1.1757106,1.6840754,0.182438,0.16010739,0.6353308,0.65478337,0.14981225,-0.076517455,1.2833973,-0.11365797,-0.8730842,-0.27471372,1.509222,-0.48620057
-0.1,-0.2,0.6,-0.5235987755982988,0.5235987755982988,0,1.2211956,1.6515598,0.15404005,0.17079967,0.57930195,0.6632365,0.006910701,-0.055952165,1.3089889,-0.1822935,-0.94124943,-0.24372509,1.4879148,-0.81979346
-0.1,-0.2,0.6,-0.5235987755982988,0.5235987755982988,0,1.1598825,1.6696537,0.20063756,0.20631339,0.6580874,0.64655006,-0.0023371913,-0.0889717,1.281961,-0.14546207,-0.8564952,-0.190999,1.5430878,-0.52579147
-0.1,-0.2,0.6,-0.5235987755982988,0.5235987755982988,0,1.1618819,1.6682835,0.25003725,0.21295448,0.6267515,0.65911263,0.055022907,-0.09501581,1.2922652,-0.18851383,-0.88352704,-0.24839495,1.5115403,-0.43351024
-0.1,-0.2,0.6,-0.5235987755982988,0.5235987755982988,0,1.1178541,1.6767857,0.3853159,0.15347046,0.6184519,0.63105375,0.07704685,-0.03843182,1.2837349,-0.12555304,-0.8511239,-0.25682768,1.5470408,-0.3195437
-0.1,-0.2,0.6,-0.5235987755982988,0.5235987755982988,0,1.1815063,1.676267,0.17812055,0.30781785,0.68326473,0.5985701,-0.099364266,-0.081440546,1.2998358,-0.20830914,-0.84082305,-0.22206895,1.5183635,-0.48337033
-0.1,-0.2,0.6,-0.5235987755982988,0.5235987755982988,0,1.1946584,1.634756,0.15955897,0.1482368,0.6442983,0.70062286,0.15932818,-0.069079235,1.3031971,-0.15629368,-0.9050505,-0.20258212,1.5295415,-0.4233438
-0.1,-0.2,0.6,-0.5235987755982988,0.5235987755982988,0,1.2236284,1.6732576,0.18798858,0.19360086,0.7073376,0.6357106,0.029925954,-0.056463204,1.2923704,-0.14349766,-0.85251874,-0.22780024,1.5022757,-0.48431072
-0.1,-0.2,0.6,-0.5235987755982988,0.5235987755982988,0,1.1906341,1.6419487,0.18671434,0.20377044,0.6124866,0.65639883,0.010642452,-0.08203576,1.2912164,-0.16493237,-0.84865826,-0.21332677,1.5264703,-0.15230882
-0.1,-0.2,0.6,-0.5235987755982988,0.5235987755982988,0,1.2616893,1.6236229,0.24871309,0.1680059,0.68151593,0.6840715,-0.003932813,-0.04928062,1.2887176,-0.17461011,-0.78152376,-0.3081981,1.5206966,-0.44389638
-0.1,-0.2,0.6,-0.5235987755982988,0.5235987755982988,0,1.2502865,1.6875769,0.18745387,0.20912087,0.6675338,0.6757553,-0.07623735,-0.06265325,1.3155428,-0.19036266,-0.83864856,-0.2392734,1.5257611,-0.4565699
-0.1,-0.2,0.6,-0.5235987755982988,0.5235987755982988,0,1.1695111,1.6356659,0.20572287,0.21378663,0.714566,0.6687736,0.06519681,-0.041807067,1.288258,-0.18730107,-0.7385946,-0.28015077,1.5403374,-0.17554808
-0.1,-0.2,0.6,-0.5235987755982988,0.5235987755982988,0,1.1649399,1.6235217,0.23797223,0.2673224,0.63477606,0.6167706,0.079788,-0.034163862,1.2963649,-0.14208843,-0.75065327,-0.31040287,1.5496508,-0.39504477
-0.1,-0.2,0.6,-0.5235987755982988,0.5235987755982988,0,1.2130225,1.6717038,0.13355415,0.1769499,0.67169005,0.64535546,0.032802034,-0.046190925,1.2827985,-0.17261963,-0.8551516,-0.23800157,1.4913301,-0.47156796
-0.1,-0.2,0.6,-0.5235987755982988,0.5235987755982988,0,1.1883358,1.6878847,0.094504565,0.24428196,0.74756056,0.61908716,0.09169592,-0.087566465,1.2906035,-0.21447022,-0.9167781,-0.23349577,1.5477226,-0.26388913
-0.1,-0.2,0.6,-0.5235987755982988,0.5235987755982988,0,1.1743308,1.6713873,0.14679861,0.17289677,0.67654294,0.6694046,-0.004490953,-0.09352775,1.2921773,-0.16891257,-1.0499231,-0.24498257,1.5477941,-0.5186285
-0.1,-0.2,0.6,-0.5235987755982988,0.5235987755982988,0,1.1992244,1.6166291,0.13560377,0.2326137,0.6868082,0.6700553,-0.024627836,-0.043499097,1.3045536,-0.17226958,-1.0135381,-0.24825053,1.5122905,-0.29517147
-0.1,-0.2,0.6,-0.5235987755982988,0.5235987755982988,0,1.1577606,1.7088565,0.19958833,0.14977646,0.65835553,0.6291448,0.00043559994,-0.045676693,1.2995305,-0.16736908,-0.9780765,-0.18915975,1.5396053,-0.8209851
-0.1,-0.2,0.6,-0.5235987755982988,0.5235987755982988,0,1.2140296,1.6445699,0.1481794,0.22145347,0.7100792,0.6299073,-0.020995565,-0.08770528,1.2885568,-0.12022017,-0.77973276,-0.25867423,1.5072519,-0.35974634
-0.1,-0.2,0.6,-0.5235987755982988,0.5235987755982988,0,1.1684278,1.6699876,0.20685582,0.19070445,0.5525347,0.6926409,-0.017699307,-0.022504384,1.2842904,-0.15348402,-0.9656179,-0.24963512,1.5360888,-0.53862
-0.1,-0.2,0.6,-0.5235987755982988,0.5235987755982988,0,1.15416,1.6419877,0.1961186,0.20963988,0.61902213,0.63791054,-0.039031487,-0.07775638,1.2845914,-0.11446859,-1.0077082,-0.20960622,1.541486,-0.18550819
-0.1,-0.2,0.6,-0.5235987755982988,0.5235987755982988,0,1.2348541,1.6687428,0.26202282,0.14272666,0.6594799,0.662393,0.13227713,-0.0513121,1.3036332,-0.14686835,-1.0653604,-0.2685882,1.5490656,-0.57380384
-0.1,-0.2,0.6,-0.5235987755982988,0.5235987755982988,0,1.1832643,1.6690514,0.2354029,0.16802111,0.6684391,0.6597141,0.07719992,-0.05852295,1.284942,-0.18414895,-0.96908486,-0.28193212,1.4923543,-0.38414237
-0.1,-0.2,0.6,-0.5235987755982988,0.5235987755982988,0,1.2046613,1.6510357,0.1628656,0.20332518,0.5432724,0.69099253,0.08585334,-0.073983364,1.2890756,-0.1814111,-0.8813692,-0.26399451,1.5479913,-0.043840487
-0.1,-0.2,0.6,-0.5235987755982988,0.5235987755982988,0,1.2323681,1.6334037,0.10535194,0.22967844,0.6753876,0.6397289,0.04891256,-0.06865384,1.2910993,-0.17108043,-0.89404786,-0.2575079,1.5454977,-0.49798065
-0.1,-0.2,0.6,-0.5235987755982988,0.5235987755982988,0,1.2340708,1.7126247,0.17823122,0.21290849,0.64315426,0.659341,0.012607232,-0.07434062,1.3093299,-0.19572684,-0.83521575,-0.256889,1.5243474,-0.5338252
-0.1,-0.2,0.6,-0.5235987755982988,0.5235987755982988,0,1.1474161,1.6719394,0.10855817,0.16755006,0.6150321,0.6590647,0.12771744,-0.042120334,1.2857631,-0.16213728,-0.95105577,-0.26610827,1.5140008,-0.3235474
-0.1,-0.2,0.6,-0.5235987755982988,0.5235987755982988,0,1.205852,1.6482961,0.16213633,0.27472463,0.6321403,0.5809673,0.07983408,-0.07957791,1.3064684,-0.15453091,-0.9522149,-0.24788007,1.5407146,-0.48469606
-0.1,-0.2,0.6,-0.5235987755982988,0.5235987755982988,0,1.2178516,1.6576303,0.2007959,0.19629052,0.66908157,0.6493198,-0.0046550618,-0.0634115,1.3010472,-0.17722881,-0.71996176,-0.2569646,1.4969583,-0.23893523
-0.1,-0.2,0.6,-0.5235987755982988,0.5235987755982988,0,1.1681448,1.672028,0.21340942,0.23430313,0.6900984,0.6572873,-0.026793161,-0.08296422,1.2840372,-0.17472528,-0.84723085,-0.28960583,1.5487902,-0.566295
-0.1,-0.2,0.6,-0.5235987755982988,0.5235987755982988,0,1.1316175,1.649928,0.24040487,0.16507792,0.67395866,0.6471784,-0.0158843,-0.027184075,1.3018631,-0.15988718,-0.9419069,-0.2819796,1.5449458,0.1617724
-0.1,-0.2,0.6,-0.5235987755982988,0.5235987755982988,0,1.1838621,1.6281273,0.26960832,0.20080884,0.7036213,0.65453744,0.16142027,-0.06548537,1.2965567,-0.19561537,-0.889361,-0.26128533,1.5170425,-0.57723546
