sanky1234/BimanualDexCatch/isaacgymenvs/cem_results/football_pose_-0.1_0.1_1.1999999999999997_0.0_0.5235987755982988_0_2025-05-26.csv
x,y,z,roll,pitch,yaw,robot1/joint1,robot1/joint2,robot1/joint3,robot1/joint4,robot1/joint5,robot1/joint6,robot1/joint7,robot2/joint1,robot2/joint2,robot2/joint3,robot2/joint4,robot2/joint5,robot2/joint6,robot2/joint7
-0.1,0.1,1.1999999999999997,0.0,0.5235987755982988,0,0.88739824,-0.3726694,1.1174141,0.66425836,0.71468806,0.28202286,0.94629586,0.1392917,-1.3924505,-0.0061973925,-0.03932876,0.11443294,1.1565852,1.0142245
-0.1,0.1,1.1999999999999997,0.0,0.5235987755982988,0,0.88620126,-0.37140608,1.1184542,0.66322356,0.7235645,0.2717252,0.65271014,0.13302737,-1.3920586,-0.040216666,-0.08364246,0.056224275,1.0234653,0.668369
-0.1,0.1,1.1999999999999997,0.0,0.5235987755982988,0,0.8868999,-0.37177408,1.11716,0.6635629,0.7419182,0.2471313,0.09980998,0.13661133,-1.3917136,-0.052311342,0.01708469,-0.026015393,1.1806232,0.848828
-0.1,0.1,1.1999999999999997,0.0,0.5235987755982988,0,0.88969326,-0.3728044,1.1179299,0.66393816,0.7284442,0.26500282,0.90892035,0.13777624,-1.3912718,-0.022846673,-0.12051067,0.19708006,1.0511807,-0.5920153
-0.1,0.1,1.1999999999999997,0.0,0.5235987755982988,0,0.8891056,-0.37164888,1.117261,0.6636991,0.708246,0.26626995,0.35048267,0.13475132,-1.3931477,-0.036879364,0.011116492,0.03170635,1.0340049,0.5546544
-0.1,0.1,1.1999999999999997,0.0,0.5235987755982988,0,0.8917128,-0.37307808,1.1167666,0.66407114,0.71199095,0.25082514,0.037634682,0.13209943,-1.3913157,-0.03938278,-0.016951764,0.18284959,1.2524219,0.16391872
-0.1,0.1,1.1999999999999997,0.0,0.5235987755982988,0,0.8904954,-0.37193605,1.1169286,0.6698477,0.7196902,0.26797146,0.123091616,0.1382479,-1.3915224,-0.038149573,-0.029646717,0.056264672,1.1550783,0.048975486
-0.1,0.1,1.1999999999999997,0.0,0.5235987755982988,0,0.89146763,-0.37246615,1.1172413,0.66501266,0.71267116,0.2776574,0.90431947,0.13819338,-1.3925092,-0.027259737,0.04702753,0.11615511,1.1257482,0.27598697
-0.1,0.1,1.1999999999999997,0.0,0.5235987755982988,0,0.8886733,-0.372708,1.1176363,0.66366756,0.69807225,0.23604393,0.66634077,0.13734616,-1.3924843,-0.0059236404,0.00465431,-0.049869422,0.96392304,-0.07083021
-0.1,0.1,1.1999999999999997,0.0,0.5235987755982988,0,0.8890109,-0.37108892,1.1167629,0.6680117,0.72323066,0.2726226,0.9794233,0.13051502,-1.391645,-0.024780119,-0.04126684,0.08870532,1.1954812,0.5307714
-0.1,0.1,1.1999999999999997,0.0,0.5235987755982988,0,0.88585854,-0.373388,1.118511,0.66875464,0.72981304,0.2828782,-0.46416515,0.13596302,-1.3914291,-0.020141033,-0.05022087,0.026147975,1.1741054,-0.20962851
-0.1,0.1,1.1999999999999997,0.0,0.5235987755982988,0,0.88795376,-0.3736353,1.1168178,0.66414535,0.7127694,0.26141813,0.9516391,0.13038182,-1.3914684,-0.010409227,-0.01297356,-0.20006166,1.1312668,0.41781986
-0.1,0.1,1.1999999999999997,0.0,0.5235987755982988,0,0.88748074,-0.37261006,1.1169319,0.66591954,0.71168864,0.2678655,-0.6301335,0.13378598,-1.3919294,-0.036711458,-0.0684715,-0.07098821,1.1910983,1.4003805
-0.1,0.1,1.1999999999999997,0.0,0.5235987755982988,0,0.8849392,-0.37363017,1.1177093,0.66262984,0.7111229,0.2898742,1.0966804,0.13540022,-1.3914824,-0.030296773,-0.12260708,-0.099410154,1.010271,-0.09196528
-0.1,0.1,1.1999999999999997,0.0,0.5235987755982988,0,0.8884744,-0.37152123,1.1184613,0.66464907,0.72883326,0.25889933,1.2737731,0.13526018,-1.3909125,-0.042360812,-0.105213076,0.077988125,1.085399,-0.03541193
-0.1,0.1,1.1999999999999997,0.0,0.5235987755982988,0,0.89063865,-0.37105277,1.1164286,0.65923804,0.7398852,0.27418435,-0.85857147,0.13687527,-1.3925087,-0.022073166,-0.050250083,-0.2500697,1.0642396,2.100275
-0.1,0.1,1.1999999999999997,0.0,0.5235987755982988,0,0.8892644,-0.37167537,1.1162124,0.6598609,0.7025581,0.2692422,1.1662222,0.13625312,-1.392403,-0.0125755565,-0.018485995,0.16776195,1.1186328,1.9310868
-0.1,0.1,1.1999999999999997,0.0,0.5235987755982988,0,0.8869401,-0.37237576,1.1179248,0.6606354,0.71769017,0.25915772,-0.31445438,0.14034744,-1.3930255,-0.02128919,-0.0028845512,-0.15510997,1.2493411,0.08816089
-0.1,0.1,1.1999999999999997,0.0,0.5235987755982988,0,0.89082086,-0.37323192,1.1185571,0.66174096,0.7129018,0.28080118,-0.3904428,0.14141151,-1.3911337,-0.035288982,-0.055675514,0.10434468,1.111482,0.5588568
-0.1,0.1,1.1999999999999997,0.0,0.5235987755982988,0,0.8912181,-0.3723661,1.1183183,0.66023463,0.7286497,0.2744722,-0.38635886,0.13951115,-1.3925676,-0.03156733,-0.08159154,0.030439356,1.1044863,-0.26945996
-0.1,0.1,1.1999999999999997,0.0,0.5235987755982988,0,0.88362944,-0.37135693,1.1180905,0.667645,0.71617186,0.28592035,-0.15977648,0.13862672,-1.3910192,-0.037669778,-0.108464174,-0.06604967,1.2254635,0.5541678
-0.1,0.1,1.1999999999999997,0.0,0.5235987755982988,0,0.89067125,-0.37268537,1.1175758,0.6634027,0.73283774,0.2677906,1.1549773,0.13813724,-1.3910654,-0.027837824,-0.052038055,-0.067944355,1.0953923,-0.75271
-0.1,0.1,1.1999999999999997,0.0,0.5235987755982988,0,0.8875134,-0.373071,1.1186779,0.6650702,0.7200275,0.28061947,0.8512341,0.13739432,-1.3919585,-0.013598037,-0.0022684857,-0.03062937,1.2021135,-0.29943544
-0.1,0.1,1.1999999999999997,0.0,0.5235987755982988,0,0.8865386,-0.37322885,1.1153755,0.66328216,0.7206,0.26495957,-0.90602505,0.13619684,-1.3924141,-0.041196506,0.00967301,-0.1997135,1.1714982,0.46133626
-0.1,0.1,1.1999999999999997,0.0,0.5235987755982988,0,0.88998294,-0.37133402,1.1184856,0.66745305,0.70927525,0.27701998,-0.32056937,0.13191521,-1.3927321,-0.0068344856,-0.044402823,-0.06987816,0.9587191,0.8402885
-0.1,0.1,1.1999999999999997,0.0,0.5235987755982988,0,0.887884,-0.37263328,1.117835,0.66415006,0.72252095,0.27004328,0.1710067,0.13600056,-1.3917643,-0.037329085,-0.101379186,0.15704677,1.1033462,0.10248058
-0.1,0.1,1.1999999999999997,0.0,0.5235987755982988,0,0.8885524,-0.37226716,1.1162989,0.66736054,0.7291212,0.253115,1.2245681,0.1312675,-1.3916614,-0.02305774,-0.026380084,0.16797945,1.1546173,0.8646883
-0.1,0.1,1.1999999999999997,0.0,0.5235987755982988,0,0.8877202,-0.3736872,1.1184912,0.66515493,0.7233388,0.25638968,1.070587,0.13703173,-1.3917898,-0.031413224,-0.032641277,-0.12374081,1.1115322,0.32518694
-0.1,0.1,1.1999999999999997,0.0,0.5235987755982988,0,0.8891816,-0.37132743,1.1157827,0.66291606,0.7302496,0.25988498,0.7646138,0.13078703,-1.393067,-0.023444684,-0.07193913,0.045829006,1.0949639,0.74438745
-0.1,0.1,1.1999999999999997,0.0,0.5235987755982988,0,0.889313,-0.37225458,1.1171451,0.6637225,0.7177379,0.2577102,0.10412158,0.12990834,-1.3918573,-0.04582226,-0.090857886,-0.020827472,1.3406507,1.380435
-0.1,0.1,1.1999999999999997,0.0,0.5235987755982988,0,0.8812099,-0.37199605,1.1177794,0.66391784,0.72635394,0.27381334,-0.08502713,0.12998731,-1.3917702,-0.025631297,-0.052482832,-0.045217946,1.1666915,0.9286408
-0.1,0.1,1.1999999999999997,0.0,0.5235987755982988,0,0.8868456,-0.37234047,1.1184891,0.66536784,0.7233287,0.26336518,0.34101892,0.13736816,-1.3921624,-0.0024869991,-0.15917073,0.20486858,0.986187,-0.07369862
-0.1,0.1,1.1999999999999997,0.0,0.5235987755982988,0,0.8916579,-0.37255636,1.116346,0.66310394,0.70037067,0.2601797,1.4397943,0.13724369,-1.3917625,-0.04142115,-0.07847279,-0.09933205,1.1647885,0.4361912
-0.1,0.1,1.1999999999999997,0.0,0.5235987755982988,0,0.88667315,-0.37357163,1.117447,0.663469,0.72129697,0.2803366,-0.46506566,0.13468702,-1.3914512,-0.037819143,0.0220392,0.08965312,1.0469402,0.40608415
-0.1,0.1,1.1999999999999997,0.0,0.5235987755982988,0,0.88860923,-0.37226918,1.1167667,0.6675907,0.7010518,0.2479002,0.111234754,0.12796342,-1.3905866,-0.029884933,-0.16923007,0.10419778,1.2487686,0.13981548
-0.1,0.1,1.1999999999999997,0.0,0.5235987755982988,0,0.8854283,-0.37305692,1.1164018,0.66362643,0.71594226,0.25363296,0.6240579,0.1352352,-1.3910146,-0.039424926,-0.13012758,0.025913967,1.0507268,0.39731935
-0.1,0.1,1.1999999999999997,0.0,0.5235987755982988,0,0.8880496,-0.3744224,1.1162336,0.6674744,0.72720313,0.2648811,1.3182044,0.13394353,-1.3915293,-0.021764232,-0.046546556,-0.07226715,1.2376323,0.16554514
-0.1,0.1,1.1999999999999997,0.0,0.5235987755982988,0,0.88469917,-0.3717445,1.1190491,0.66578174,0.7226041,0.28611848,-0.5015643,0.13179503,-1.3918158,-0.05192143,-0.112725854,-0.2529499,1.0700655,-0.19830486
-0.1,0.1,1.1999999999999997,0.0,0.5235987755982988,0,0.8887371,-0.37437946,1.1185644,0.6628951,0.70988005,0.2636871,0.5299723,0.13641438,-1.3903056,-0.034231026,0.023443691,-0.0026071055,0.97746557,-0.07997276
-0.1,0.1,1.1999999999999997,0.0,0.5235987755982988,0,0.88736796,-0.373262,1.1173786,0.66788036,0.7388454,0.25443688,0.6450786,0.1381445,-1.3930221,-0.014594474,0.03891756,-0.0738117,1.179485,0.17634425
-0.1,0.1,1.1999999999999997,0.0,0.5235987755982988,0,0.89026606,-0.3720168,1.1191449,0.662072,0.7348829,0.26793423,0.59442586,0.13622153,-1.3921658,-0.030463168,-0.1339173,-0.2030418,1.1297754,0.6229458
-0.1,0.1,1.1999999999999997,0.0,0.5235987755982988,0,0.8918235,-0.37196282,1.1179749,0.6651112,0.72045296,0.27312988,0.5210723,0.13933176,-1.3911624,-0.060725965,-0.0034761766,-0.15945625,1.1733798,1.3618978
-0.1,0.1,1.1999999999999997,0.0,0.5235987755982988,0,0.88776994,-0.37393042,1.1177793,0.6640794,0.7111944,0.27055517,0.57433486,0.13988778,-1.3924417,-0.014616439,-0.04245794,0.2604197,1.2640367,0.27357635
-0.1,0.1,1.1999999999999997,0.0,0.5235987755982988,0,0.89090466,-0.37121737,1.1182235,0.66417277,0.738803,0.26439777,-0.23828109,0.13578741,-1.3915236,-0.046688143,-0.004658236,-0.08296839,1.1675888,0.5367899
-0.1,0.1,1.1999999999999997,0.0,0.5235987755982988,0,0.888779,-0.37317812,1.1171082,0.6642383,0.72484577,0.25969106,1.5036321,0.13262022,-1.392222,-0.030016853,-0.058247387,-0.27220455,1.0565901,0.7136966
-0.1,0.1,1.1999999999999997,0.0,0.5235987755982988,0,0.8918027,-0.37313005,1.1169266,0.66393065,0.7179592,0.23970066,0.37553,0.13369147,-1.3913355,-0.048695326,-0.0634654,-0.0069785966,1.2453891,0.5352908
-0.1,0.1,1.1999999999999997,0.0,0.5235987755982988,0,0.88833195,-0.3731972,1.1179968,0.66780454,0.7184608,0.25656432,0.9876351,0.13703156,-1.3913364,-0.05587252,0.016155144,0.020555988,1.0753456,0.62742245
-0.1,0.1,1.1999999999999997,0.0,0.5235987755982988,0,0.89029413,-0.3723251,1.115867,0.6626371,0.7204818,0.2470533,0.093882136,0.13194612,-1.3906159,-0.03595132,-0.032856885,-0.045781918,1.1724026,0.15517491
-0.1,0.1,1.1999999999999997,0.0,0.5235987755982988,0,0.89076126,-0.3723415,1.1170319,0.6619218,0.74289703,0.26284254,0.38907856,0.13751532,-1.3924842,-0.003910333,-0.11007477,-0.0684302,1.0557668,0.9419184
-0.1,0.1,1.1999999999999997,0.0,0.5235987755982988,0,0.8842025,-0.3731326,1.1159213,0.6658807,0.70726806,0.26354006,0.95923346,0.13724773,-1.392672,-0.013521635,-0.012696934,-0.07322644,1.1794544,0.72217023
-0.1,0.1,1.1999999999999997,0.0,0.5235987755982988,0,0.89034635,-0.3705745,1.1169678,0.6641401,0.728268,0.29745167,0.63928074,0.13512701,-1.391585,-0.019969769,-0.006799448,0.030903555,1.0084641,0.29858997
-0.1,0.1,1.1999999999999997,0.0,0.5235987755982988,0,0.88846225,-0.37147644,1.1162865,0.66390526,0.7261099,0.2806356,0.1367722,0.13440809,-1.3902885,-0.033555448,-0.041818988,0.13398588,1.2529658,0.10894178
-0.1,0.1,1.1999999999999997,0.0,0.5235987755982988,0,0.88938725,-0.37132263,1.1170993,0.65911335,0.729583,0.26159853,-0.84082,0.13528483,-1.3907547,-0.033722058,0.004199733,0.09912115,1.1248088,0.56947607
-0.1,0.1,1.1999999999999997,0.0,0.5235987755982988,0,0.889568,-0.3722955,1.1180155,0.6644176,0.71287185,0.2982913,-0.5050602,0.13260037,-1.3916346,-0.046770558,-0.005842263,-0.1761419,1.2292995,0.2950653
-0.1,0.1,1.1999999999999997,0.0,0.5235987755982988,0,0.89224565,-0.3709317,1.1171055,0.66131216,0.70665,0.2977942,-0.69016975,0.13052174,-1.3920282,-0.015939105,-0.14860262,-0.058822952,1.1000652,-0.4937809
-0.1,0.1,1.1999999999999997,0.0,0.5235987755982988,0,0.88978684,-0.37184438,1.1187904,0.6642001,0.7433314,0.25010464,0.27196047,0.13650547,-1.3917637,-0.019117892,-0.065299146,-0.23414484,1.1177194,0.62781334
-0.1,0.1,1.1999999999999997,0.0,0.5235987755982988,0,0.8897262,-0.3727255,1.1180738,0.66565377,0.73390085,0.2848462,0.99483496,0.13588329,-1.3922565,-0.040304888,-0.12995914,0.024118332,1.2008524,0.7646533
-0.1,0.1,1.1999999999999997,0.0,0.5235987755982988,0,0.89302826,-0.3720815,1.1183743,0.66966265,0.7149388,0.25673145,0.8263789,0.13091351,-1.3914037,-0.01913966,0.008281713,-0.027859276,0.9976535,0.35549334
-0.1,0.1,1.1999999999999997,0.0,0.5235987755982988,0,0.88874996,-0.37242028,1.1192981,0.6673098,0.72047895,0.2939869,0.32317534,0.13696535,-1.3912562,-0.02305575,-0.04450065,-0.054798312,1.1436512,1.011051
-0.1,0.1,1.1999999999999997,0.0,0.5235987755982988,0,0.88986194,-0.370851,1.1170814,0.6623698,0.72116387,0.27820513,0.70720625,0.12999693,-1.3915358,-0.00399039,-0.051988073,-0.039251704,1.2244554,-0.70953655
-0.1,0.1,1.1999999999999997,0.0,0.5235987755982988,0,0.89435244,-0.37223798,1.1186333,0.66443706,0.7075135,0.30103603,0.5437139,0.13284479,-1.3911254,-0.03112516,-0.042221885,0.08044617,1.0109932,0.73645985
-0.1,0.1,1.1999999999999997,0.0,0.5235987755982988,0,0.89026535,-0.37164685,1.1175994,0.6661324,0.72364837,0.2983447,0.52351683,0.13698417,-1.3913327,-0.02696589,-0.16445804,-0.0054743225,1.1120837,1.133544
-0.1,0.1,1.1999999999999997,0.0,0.5235987755982988,0,0.88585925,-0.37132555,1.117569,0.66279876,0.7279175,0.23865591,0.28877187,0.13779825,-1.3919028,-0.020425541,-0.06583225,0.046091225,1.1725092,-0.48873934
-0.1,0.1,1.1999999999999997,0.0,0.5235987755982988,0,0.89475167,-0.37193817,1.1178275,0.6632412,0.71951324,0.2798192,-0.075773545,0.13899887,-1.3914014,-0.03228105,0.06773585,-0.04083249,1.1006913,1.1412703
-0.1,0.1,1.1999999999999997,0.0,0.5235987755982988,0,0.8875996,-0.37276143,1.1173215,0.6639127,0.7150516,0.29531273,0.2339141,0.13325961,-1.3911483,0.00070364465,-0.075465225,0.1631854,1.107589,0.0934964
-0.1,0.1,1.1999999999999997,0.0,0.5235987755982988,0,0.88738364,-0.37384623,1.116686,0.665413,0.7248835,0.2971855,-0.29741699,0.14036916,-1.3918704,-0.01875547,-0.11388484,0.34145775,1.3118787,1.1832887
-0.1,0.1,1.1999999999999997,0.0,0.5235987755982988,0,0.8925631,-0.3720847,1.119528,0.6641197,0.7323839,0.27335545,0.14502105,0.13570729,-1.3920279,-0.025119651,-0.06468679,-0.003186324,1.1927727,1.1155665
-0.1,0.1,1.1999999999999997,0.0,0.5235987755982988,0,0.88763535,-0.37261286,1.1170197,0.6647165,0.71842384,0.26774886,0.65131444,0.1383386,-1.3921885,-0.036139622,-0.013948709,-0.14577353,1.1272495,1.0398641
-0.1,0.1,1.1999999999999997,0.0,0.5235987755982988,0,0.8885815,-0.37291375,1.1180573,0.66436917,0.71411604,0.30072162,1.3185596,0.13269097,-1.3925021,-0.018960757,-0.07164707,0.01147658,1.1471766,0.7098393
-0.1,0.1,1.1999999999999997,0.0,0.5235987755982988,0,0.8894083,-0.37075692,1.1192164,0.66224617,0.7368383,0.29118323,0.50440264,0.145085,-1.3911337,-0.020183949,-0.061774157,0.20238622,1.2416369,0.50122
-0.1,0.1,1.1999999999999997,0.0,0.5235987755982988,0,0.8897772,-0.3705437,1.1174561,0.6614041,0.73667854,0.27605054,-1.5075192,0.13658413,-1.3918606,-0.008099451,-0.08042609,0.052348398,1.1174128,1.4171493
-0.1,0.1,1.1999999999999997,0.0,0.5235987755982988,0,0.88974935,-0.37025553,1.117945,0.6627636,0.7372842,0.263977,-0.34960935,0.1355356,-1.3905414,-0.022429775,0.034863625,0.15347435,1.1892627,0.3013746
-0.1,0.1,1.1999999999999997,0.0,0.5235987755982988,0,0.89139754,-0.37302148,1.1180897,0.66185486,0.7173409,0.2808375,0.76211685,0.13102154,-1.3923045,-0.009004862,-0.054751806,0.3466048,1.1071957,0.27566117
-0.1,0.1,1.1999999999999997,0.0,0.5235987755982988,0,0.8865101,-0.37441877,1.1184367,0.66382045,0.7096317,0.2904124,-0.3038596,0.13498351,-1.3918505,-0.016208822,-0.0725201,-0.006987819,1.1891745,1.3869939
-0.1,0.1,1.1999999999999997,0.0,0.5235987755982988,0,0.8924293,-0.37334248,1.1184256,0.6646889,0.7098943,0.2795505,-0.33573058,0.13679633,-1.392381,-0.05172349,-0.02893359,-0.09902464,1.0766419,-0.59469676
-0.1,0.1,1.1999999999999997,0.0,0.5235987755982988,0,0.8893854,-0.3723528,1.1186917,0.66525257,0.70558506,0.2784887,0.25953594,0.1336658,-1.3915682,-0.040478528,-0.09495521,0.0054955017,1.1141065,0.5303276
-0.1,0.1,1.1999999999999997,0.0,0.5235987755982988,0,0.89004356,-0.37198278,1.117097,0.66910136,0.7140383,0.2699706,-0.040785883,0.1321186,-1.3920485,-0.02532793,-0.1112246,-0.1224823,1.1882114,0.2971462
-0.1,0.1,1.1999999999999997,0.0,0.5235987755982988,0,0.8897228,-0.3721874,1.1173761,0.6610248,0.71663004,0.29165855,0.35797194,0.14089642,-1.3907446,-0.010378495,-0.06486921,-0.16392551,1.1531867,0.3700123
-0.1,0.1,1.1999999999999997,0.0,0.5235987755982988,0,0.8889579,-0.37180004,1.1177312,0.66350436,0.73578763,0.2860409,1.7604316,0.13638085,-1.3914719,-0.03679634,0.0031522054,-0.0724931,1.1596661,1.2465686
-0.1,0.1,1.1999999999999997,0.0,0.5235987755982988,0,0.8914939,-0.37297943,1.1184437,0.6667349,0.72499603,0.2617183,0.67995924,0.13490123,-1.3917475,-0.025098024,-0.17581661,-0.08110217,1.109766,-0.2191114
-0.1,0.1,1.1999999999999997,0.0,0.5235987755982988,0,0.89047,-0.37510726,1.1182181,0.6632847,0.7216347,0.27637136,-0.19054654,0.13168415,-1.3909147,-0.0054088808,0.00845902,-0.00026840813,1.1372539,1.0386204
-0.1,0.1,1.1999999999999997,0.0,0.5235987755982988,0,0.89030904,-0.37183818,1.1182275,0.66314614,0.7197033,0.28362703,-0.11903316,0.13956212,-1.3926396,-0.019846225,0.0050572013,-0.0057281284,1.1963705,0.38302797
-0.1,0.1,1.1999999999999997,0.0,0.5235987755982988,0,0.89015144,-0.3725043,1.1171801,0.6648513,0.7150099,0.27882862,0.25177136,0.13336822,-1.391728,-0.019434381,0.11569255,-0.07361216,1.1048856,0.5815943
-0.1,0.1,1.1999999999999997,0.0,0.5235987755982988,0,0.8859481,-0.3732736,1.1165932,0.66366625,0.73412424,0.27674747,0.9036044,0.13265327,-1.392152,-0.049314737,-0.10251151,0.041942,1.0888181,0.3672903
-0.1,0.1,1.1999999999999997,0.0,0.5235987755982988,0,0.8875132,-0.37247458,1.1173902,0.6652038,0.7207838,0.27153432,0.17170449,0.13268147,-1.3916149,-0.036619525,-0.06801573,-0.40123102,1.1920741,1.0652988
-0.1,0.1,1.1999999999999997,0.0,0.5235987755982988,0,0.88941264,-0.3721049,1.1170336,0.66342497,0.71504027,0.29448035,0.48989367,0.12651308,-1.391579,-0.0020288166,-0.07333397,-0.16366829,1.1777129,0.3252849
-0.1,0.1,1.1999999999999997,0.0,0.5235987755982988,0,0.8924151,-0.3721496,1.1183072,0.6636113,0.7378041,0.26872566,0.5388651,0.1346544,-1.3922615,-0.008207634,-0.045902725,-0.13783243,1.1819804,0.37152672
-0.1,0.1,1.1999999999999997,0.0,0.5235987755982988,0,0.8865976,-0.37278566,1.1172333,0.66136,0.7233114,0.27259833,0.48514137,0.13252217,-1.3918799,0.0014125417,-0.084058166,-0.02539366,1.1306381,1.7591093
-0.1,0.1,1.1999999999999997,0.0,0.5235987755982988,0,0.88791776,-0.37295923,1.116576,0.6632838,0.7212705,0.2836307,-0.35730076,0.13347833,-1.3919632,-0.030831223,0.047263127,-0.02559786,1.0552404,0.60310525
-0.1,0.1,1.1999999999999997,0.0,0.5235987755982988,0,0.88509995,-0.37172934,1.1175673,0.66580844,0.71687883,0.26009682,1.0375211,0.1353765,-1.3924922,-0.014171863,-0.09642245,0.1523981,0.9757247,1.567307
-0.1,0.1,1.1999999999999997,0.0,0.5235987755982988,0,0.89464766,-0.37336063,1.1169553,0.66465443,0.7097453,0.27037823,1.0750299,0.13497704,-1.3911672,-0.015579733,0.0640227,-0.0136073725,1.1193368,1.3401428
-0.1,0.1,1.1999999999999997,0.0,0.5235987755982988,0,0.89314187,-0.37252247,1.1165928,0.66463166,0.7122959,0.26830345,-0.027451787,0.13479927,-1.3912851,-0.012987865,-0.06056891,0.12959136,1.1575977,-0.22888282
-0.1,0.1,1.1999999999999997,0.0,0.5235987755982988,0,0.88737875,-0.37151837,1.1175096,0.6623794,0.72619045,0.26963532,-0.22067732,0.13658938,-1.393627,-0.052056458,0.05420275,0.054534063,1.2555352,1.4239367
-0.1,0.1,1.1999999999999997,0.0,0.5235987755982988,0,0.8843276,-0.37212765,1.1182235,0.6656267,0.71324915,0.26354855,0.27925444,0.13554941,-1.3928498,-0.0070835473,-0.09448519,-0.014806545,1.014302,0.52905536
-0.1,0.1,1.1999999999999997,0.0,0.5235987755982988,0,0.88724273,-0.37183943,1.1170744,0.6669583,0.72829926,0.2821004,0.12530279,0.13161397,-1.3927374,-0.018912794,-0.018574594,0.064047344,1.1578641,1.1501013
-0.1,0.1,1.1999999999999997,0.0,0.5235987755982988,0,0.8883767,-0.37408033,1.1175635,0.6627761,0.7475813,0.2813317,-0.5630686,0.13462283,-1.392138,-0.037668314,-0.15177386,-0.23520508,1.1059641,-0.26179177
-0.1,0.1,1.1999999999999997,0.0,0.5235987755982988,0,0.8904762,-0.37330875,1.1183099,0.66304606,0.72472566,0.30118534,0.9883997,0.1359342,-1.390774,-0.02261003,-0.11903282,0.07289116,1.0185611,0.6808344
-0.1,0.1,1.1999999999999997,0.0,0.5235987755982988,0,0.8852949,-0.3732109,1.1172101,0.6662142,0.71986455,0.2940067,1.0464946,0.13315916,-1.3922068,-0.020167058,-0.08212306,-0.07412164,1.1559324,0.2913161
-0.1,0.1,1.1999999999999997,0.0,0.5235987755982988,0,0.8921002,-0.37219328,1.117894,0.6636846,0.7094178,0.25997645,-0.105727896,0.13615316,-1.3922415,-0.044776056,-0.060271326,-0.19606109,1.1225535,-0.06168144
-0.1,0.1,1.1999999999999997,0.0,0.5235987755982988,0,0.88428235,-0.37328607,1.1187795,0.66395164,0.712132,0.28131348,0.17821832,0.13877943,-1.3918186,-0.014991722,-0.04808262,0.1167569,1.1653079,1.5581136
-0.1,0.1,1.1999999999999997,0.0,0.5235987755982988,0,0.89151835,-0.37289858,1.1179359,0.66079533,0.73014694,0.27583772,0.17516953,0.13544872,-1.3918408,-0.05058257,-0.045168687,-0.080115885,1.2716255,0.12635541
-0.1,0.1,1.1999999999999997,0.0,0.5235987755982988,0,0.8897473,-0.3723786,1.1174343,0.66369325,0.7444914,0.26882654,0.046992376,0.13312015,-1.3908256,-0.02350306,-0.091420814,-0.043064695,1.1450673,-0.13738255
-0.1,0.1,1.1999999999999997,0.0,0.5235987755982988,0,0.8893308,-0.37298158,1.1177968,0.66452134,0.719773,0.2738519,0.5742003,0.13132891,-1.3928338,-0.008752334,-0.106033996,0.08905665,1.1992671,1.1235937
-0.1,0.1,1.1999999999999997,0.0,0.5235987755982988,0,0.8886674,-0.37398466,1.1180125,0.66179365,0.7319504,0.26288804,-0.5744627,0.13109106,-1.3906974,-0.018987976,0.036925673,0.04451679,1.0776926,0.4618336
-0.1,0.1,1.1999999999999997,0.0,0.5235987755982988,0,0.8879479,-0.37127265,1.1195692,0.66137946,0.71761554,0.25383395,0.27698216,0.13456832,-1.3908746,-0.039159972,-0.076073006,0.0797095,1.2309811,-0.97301024
-0.1,0.1,1.1999999999999997,0.0,0.5235987755982988,0,0.8953706,-0.3708556,1.1177267,0.66253644,0.7380195,0.27010813,1.1159171,0.13518786,-1.3911053,-0.020761931,-0.05203548,-0.090099126,1.1530412,0.14976141
-0.1,0.1,1.1999999999999997,0.0,0.5235987755982988,0,0.8854813,-0.3735521,1.1184077,0.6682308,0.70708275,0.29401192,1.6517498,0.1318899,-1.3912601,-0.025152354,-0.011120207,0.10173656,1.1857502,0.69617313
-0.1,0.1,1.1999999999999997,0.0,0.5235987755982988,0,0.8898917,-0.37211323,1.1180902,0.6612735,0.7244134,0.25712174,-0.01961711,0.13930757,-1.3921223,-0.013754427,-0.040721077,-0.18714315,1.3056407,1.0462466
-0.1,0.1,1.1999999999999997,0.0,0.5235987755982988,0,0.88869303,-0.37182912,1.1174519,0.66134685,0.7077025,0.2603631,-0.76573235,0.13374206,-1.3912468,-0.0364799,-0.060924705,-0.114193976,1.1215178,1.4150482
-0.1,0.1,1.1999999999999997,0.0,0.5235987755982988,0,0.8894403,-0.3721192,1.1183218,0.66460454,0.7048703,0.2746413,-0.37365967,0.13202375,-1.3914807,-0.027343787,-0.04061266,0.084109634,1.2435127,1.1478525
-0.1,0.1,1.1999999999999997,0.0,0.5235987755982988,0,0.88983625,-0.37228608,1.1191888,0.6612772,0.71820045,0.2597568,-0.6246858,0.1367102,-1.3917059,-0.052400846,-0.034184895,0.16679686,1.0394402,0.99221927
-0.1,0.1,1.1999999999999997,0.0,0.5235987755982988,0,0.8893065,-0.37271258,1.117478,0.66582924,0.713107,0.25880852,0.5030114,0.13330783,-1.3914715,-0.04811295,-0.10704576,0.058162816,1.178285,0.9563937
-0.1,0.1,1.1999999999999997,0.0,0.5235987755982988,0,0.89392394,-0.37305957,1.1170684,0.666792,0.73384565,0.267178,0.6415407,0.1312448,-1.390726,-0.019396076,-0.09658696,-0.26652393,1.1985582,-0.1056754
-0.1,0.1,1.1999999999999997,0.0,0.5235987755982988,0,0.89240545,-0.37401226,1.1175538,0.66656005,0.74233925,0.29069328,0.37929097,0.13458012,-1.3926928,-0.028996797,-0.0068950336,-0.017502299,1.2288406,0.1411887
-0.1,0.1,1.1999999999999997,0.0,0.5235987755982988,0,0.8902039,-0.37072742,1.1178036,0.6640744,0.7222169,0.2691005,0.4250844,0.13720706,-1.3915962,-0.029257275,-0.0046767597,-0.17065121,1.185278,1.1969312
-0.1,0.1,1.1999999999999997,0.0,0.5235987755982988,0,0.8897852,-0.3748364,1.1173338,0.6659532,0.7114908,0.27957186,1.3610569,0.13142174,-1.390511,0.0028521644,-0.0744116,-0.09628662,1.0969971,0.5515351
-0.1,0.1,1.1999999999999997,0.0,0.5235987755982988,0,0.8843994,-0.3720668,1.1183254,0.66445565,0.7186689,0.28717548,0.34211355,0.13702375,-1.3922126,-0.035233118,-0.049237523,0.02110776,1.0185785,0.02191071
-0.1,0.1,1.1999999999999997,0.0,0.5235987755982988,0,0.88800806,-0.3729066,1.1173689,0.66902196,0.7129134,0.27173212,0.39571613,0.1341295,-1.392598,-0.014653611,-0.11207253,0.16436975,1.2186192,0.08056972
-0.1,0.1,1.1999999999999997,0.0,0.5235987755982988,0,0.8918865,-0.37154028,1.1187232,0.65956014,0.7217411,0.27774674,-0.24473941,0.13242294,-1.3916346,-0.002064628,-0.08800614,0.18004127,1.0391816,1.4236717
-0.1,0.1,1.1999999999999997,0.0,0.5235987755982988,0,0.89233625,-0.37218136,1.117138,0.6658244,0.7373784,0.2705454,-0.81056964,0.1364455,-1.3912923,-0.0620255,-0.028354745,0.043268964,1.1939406,1.7610961
-0.1,0.1,1.1999999999999997,0.0,0.5235987755982988,0,0.892722,-0.37358984,1.1184535,0.6655209,0.7127161,0.26319215,0.49341288,0.13869512,-1.3917824,-0.0067212433,-0.03356809,0.10356965,1.0364,-0.11577371
-0.1,0.1,1.1999999999999997,0.0,0.5235987755982988,0,0.88875175,-0.3717205,1.1174484,0.6629996,0.73181486,0.27333227,-0.61990505,0.13268395,-1.3925656,-0.01770136,-0.04090551,-0.14532293,1.0844443,0.8882247
-0.1,0.1,1.1999999999999997,0.0,0.5235987755982988,0,0.8906547,-0.3725787,1.1200378,0.6640515,0.71126825,0.26092437,0.702707,0.13698898,-1.3924404,-0.019402206,-0.0358515,-0.3230261,0.96338075,0.08244841
-0.1,0.1,1.1999999999999997,0.0,0.5235987755982988,0,0.8891763,-0.37153882,1.1189954,0.66091055,0.7244062,0.26255134,-0.19481845,0.13716437,-1.3914282,-0.055893317,-0.0042468472,0.07292731,1.09112,0.5809281
-0.1,0.1,1.1999999999999997,0.0,0.5235987755982988,0,0.8899339,-0.3720679,1.1168092,0.66395,0.6982359,0.2853803,-1.1138209,0.13119975,-1.391272,-0.021227678,0.029900273,-0.06262245,1.1109121,0.39689395
-0.1,0.1,1.1999999999999997,0.0,0.5235987755982988,0,0.8949762,-0.3735085,1.1185644,0.6631468,0.7268135,0.29964435,-0.03723038,0.13528001,-1.3914992,-0.03971266,-0.13104187,0.08519523,1.2955449,0.06773577
-0.1,0.1,1.1999999999999997,0.0,0.5235987755982988,0,0.8896699,-0.3730367,1.1174048,0.6642278,0.7100903,0.2959684,-0.2832814,0.13693734,-1.3901842,-0.038550835,-0.036184058,-0.08262095,1.2106904,0.8820007
-0.1,0.1,1.1999999999999997,0.0,0.5235987755982988,0,0.8925195,-0.37290505,1.1182153,0.66559684,0.74859095,0.27063254,0.57640934,0.13217582,-1.3922839,-0.021599103,-0.011436251,0.047464397,1.1315316,0.2794551
-0.1,0.1,1.1999999999999997,0.0,0.5235987755982988,0,0.8842814,-0.37401977,1.1181371,0.6635363,0.70504713,0.27877405,-0.43227318,0.13653181,-1.3924763,-0.03572618,0.01829782,-0.15850678,1.2962161,1.453737
-0.1,0.1,1.1999999999999997,0.0,0.5235987755982988,0,0.88842267,-0.37444523,1.1178585,0.66078466,0.7205152,0.2865766,-0.486304,0.14007643,-1.3924936,-0.04939047,-0.06263506,-0.06832415,1.0680195,0.90994793
-0.1,0.1,1.1999999999999997,0.0,0.5235987755982988,0,0.89065516,-0.37251124,1.1178732,0.6676441,0.70907146,0.27597526,0.5274045,0.13105565,-1.3906616,-0.017772054,-0.03682686,0.0144131705,1.2095716,0.16380486
-0.1,0.1,1.1999999999999997,0.0,0.5235987755982988,0,0.89137363,-0.37266493,1.1169671,0.66582227,0.7237212,0.2859446,0.95666564,0.12849225,-1.3918691,-0.03359595,-0.059573468,0.07541844,1.0609275,1.0360276
-0.1,0.1,1.1999999999999997,0.0,0.5235987755982988,0,0.8885441,-0.37058175,1.1163712,0.6673689,0.71221924,0.25618556,1.0918636,0.13388744,-1.3921974,-0.047361776,-0.08882798,-0.01347542,1.0746902,1.0659307
-0.1,0.1,1.1999999999999997,0.0,0.5235987755982988,0,0.88969207,-0.3715717,1.1182885,0.663933,0.7377591,0.27180657,0.92170715,0.1370148,-1.3931875,-0.01990301,-0.042703748,-0.14342473,1.0528386,0.9126158
-0.1,0.1,1.1999999999999997,0.0,0.5235987755982988,0,0.8892295,-0.3720773,1.1182412,0.6646652,0.71794987,0.277126,0.14828402,0.1301299,-1.3931546,-0.030065771,-0.17796187,-0.24846654,1.0778459,-0.046128727
-0.1,0.1,1.1999999999999997,0.0,0.5235987755982988,0,0.8897499,-0.37154126,1.1177264,0.6601369,0.7111157,0.2739796,-0.026978606,0.13004911,-1.3926023,-0.04591035,0.074139275,0.15316918,1.060285,1.3424455
-0.1,0.1,1.1999999999999997,0.0,0.5235987755982988,0,0.8896366,-0.3706763,1.1163859,0.6626152,0.69238293,0.2638022,0.87514436,0.13189542,-1.3919173,-0.041981287,-0.004773089,0.17905158,1.1970985,0.70645523
-0.1,0.1,1.1999999999999997,0.0,0.5235987755982988,0,0.8917105,-0.37274992,1.1168154,0.6643293,0.7174831,0.275197,0.41051725,0.13961098,-1.3925672,-0.016667986,-0.06865449,-0.200669,1.211482,0.526359
-0.1,0.1,1.1999999999999997,0.0,0.5235987755982988,0,0.88913107,-0.37160718,1.1181053,0.66367036,0.72672707,0.26879016,0.72857153,0.13358738,-1.391911,-0.053059347,-0.13886884,-0.12970454,1.0892869,0.6426004
-0.1,0.1,1.1999999999999997,0.0,0.5235987755982988,0,0.8866302,-0.37203002,1.118037,0.658911,0.7413965,0.25497186,-0.089714505,0.13273415,-1.3923215,-0.01729288,0.005952862,0.0069987774,1.1231334,-0.41731802
-0.1,0.1,1.1999999999999997,0.0,0.5235987755982988,0,0.89449143,-0.37058425,1.118451,0.66078967,0.74228394,0.26860175,-0.38370606,0.13928017,-1.3927972,-0.018647967,0.10873361,0.037242796,1.1407951,0.30547157
-0.1,0.1,1.1999999999999997,0.0,0.5235987755982988,0,0.8907873,-0.37396666,1.1194556,0.664829,0.7018542,0.26764652,0.74984086,0.13799761,-1.3916029,-0.009873291,-0.09831684,-0.07306746,0.91999733,-0.43893492
-0.1,0.1,1.1999999999999997,0.0,0.5235987755982988,0,0.889569,-0.37355182,1.1180062,0.66091424,0.72078216,0.2758773,0.079307996,0.13621847,-1.392771,-0.030164422,-0.10121315,-0.040647436,1.2736677,0.29744154
-0.1,0.1,1.1999999999999997,0.0,0.5235987755982988,0,0.8841085,-0.3734722,1.1186335,0.6633892,0.7143509,0.28810978,0.051920723,0.13536899,-1.3921936,-0.04442107,-0.0848202,0.027164582,1.0277894,-0.6135998
-0.1,0.1,1.1999999999999997,0.0,0.5235987755982988,0,0.8899964,-0.37199748,1.1193194,0.66755104,0.7032534,0.25106412,0.34890354,0.13951127,-1.3922046,-0.014809426,-0.06264844,-0.1037892,1.2714552,0.76101184
-0.1,0.1,1.1999999999999997,0.0,0.5235987755982988,0,0.89144623,-0.372458,1.1177924,0.6660108,0.7111602,0.24949114,0.14247912,0.13756284,-1.3912388,-0.056389403,-0.039475746,0.17998824,1.113239,0.22201669
-0.1,0.1,1.1999999999999997,0.0,0.5235987755982988,0,0.8870706,-0.37274596,1.118068,0.66343373,0.72143126,0.2798742,0.18791947,0.13224405,-1.3919711,-0.05058472,-0.10186604,0.0077489098,1.1554157,0.64206016
-0.1,0.1,1.1999999999999997,0.0,0.5235987755982988,0,0.8902992,-0.371694,1.1182903,0.66768557,0.7228788,0.2770495,1.5035864,0.13439326,-1.393085,-0.030904988,-0.054327305,-0.14761102,1.1671346,-0.37716427
-0.1,0.1,1.1999999999999997,0.0,0.5235987755982988,0,0.8870612,-0.3730525,1.1181033,0.6628801,0.721414,0.27775797,0.4454448,0.13373236,-1.392559,-0.0406744,-0.06943729,0.115724966,1.1726435,0.6747676
-0.1,0.1,1.1999999999999997,0.0,0.5235987755982988,0,0.8897546,-0.373428,1.1182415,0.66431326,0.7062377,0.2597058,0.20534329,0.1424163,-1.3928434,-0.06569124,-0.00426575,0.0017054303,1.0533714,1.7792214
-0.1,0.1,1.1999999999999997,0.0,0.5235987755982988,0,0.8915282,-0.3713449,1.11863,0.66591096,0.7074203,0.26314038,0.08149802,0.13208038,-1.3914251,-0.03889654,0.026812991,-0.010416942,1.2250055,0.42399967
-0.1,0.1,1.1999999999999997,0.0,0.5235987755982988,0,0.8898375,-0.37283054,1.117701,0.66923773,0.7223706,0.26760373,0.11069865,0.1357204,-1.3920631,-0.030645363,-0.007137562,-0.048526675,1.1574316,0.07556711
-0.1,0.1,1.1999999999999997,0.0,0.5235987755982988,0,0.88931715,-0.3730071,1.1177839,0.6644105,0.71271086,0.2977136,0.9458603,0.13677382,-1.3910115,-0.045571625,-0.03240273,-0.0725766,1.1799783,1.164971
-0.1,0.1,1.1999999999999997,0.0,0.5235987755982988,0,0.8928636,-0.3737004,1.1174756,0.66186154,0.7144303,0.2847754,0.21226117,0.13069013,-1.3904972,-0.015084914,-0.11908744,-0.24343552,1.1876984,-0.14347374
-0.1,0.1,1.1999999999999997,0.0,0.5235987755982988,0,0.8894509,-0.36975363,1.1182243,0.6645168,0.7256341,0.25822508,-0.6439527,0.13451603,-1.3921211,-0.06937603,-0.09903204,-0.01599559,1.1712914,0.24008207
-0.1,0.1,1.1999999999999997,0.0,0.5235987755982988,0,0.88580275,-0.37268376,1.1175896,0.66539663,0.71870446,0.289009,0.24044071,0.1321284,-1.3913682,-0.026428271,-0.04768827,-0.17627028,1.0674784,0.45191202
-0.1,0.1,1.1999999999999997,0.0,0.5235987755982988,0,0.8845161,-0.37338153,1.117834,0.6686923,0.72176206,0.25520474,0.17411873,0.13702519,-1.3925261,-0.048652656,0.023003897,-0.029167628,1.1520611,1.3313713
-0.1,0.1,1.1999999999999997,0.0,0.5235987755982988,0,0.8908833,-0.37237284,1.1172197,0.6644441,0.7222373,0.2573949,0.5409708,0.13220924,-1.3906372,-0.006094318,-0.07350691,-0.30864215,1.1779021,0.39214346
-0.1,0.1,1.1999999999999997,0.0,0.5235987755982988,0,0.8890454,-0.3714367,1.1177757,0.66577697,0.71906644,0.28382802,-0.6766392,0.13501047,-1.39213,-0.023655774,0.034484338,-0.030129036,1.2260473,0.62958544
-0.1,0.1,1.1999999999999997,0.0,0.5235987755982988,0,0.88325787,-0.36944753,1.115553,0.6653891,0.7160599,0.2522666,0.06710305,0.13607465,-1.390836,-0.016192472,-0.033635028,0.20812012,1.0177119,0.065096855
-0.1,0.1,1.1999999999999997,0.0,0.5235987755982988,0,0.89195526,-0.3707803,1.1163735,0.6647396,0.7055329,0.2688489,0.24662645,0.13420764,-1.3925598,-0.013337975,-0.052503876,-0.022899538,1.1765239,0.2100935
-0.1,0.1,1.1999999999999997,0.0,0.5235987755982988,0,0.88495064,-0.37274775,1.1156443,0.66428244,0.7217356,0.26319465,0.11281107,0.13643065,-1.391899,-0.02520012,-0.09925617,0.034594327,1.1072371,0.8648304
-0.1,0.1,1.1999999999999997,0.0,0.5235987755982988,0,0.88575244,-0.37159756,1.1171074,0.6653615,0.716733,0.2667558,-0.04060691,0.13396874,-1.3909461,-0.014450792,-0.14206372,-0.07004931,1.0527513,0.0029166923
-0.1,0.1,1.1999999999999997,0.0,0.5235987755982988,0,0.8841092,-0.37144977,1.1169077,0.6640823,0.7267047,0.2884691,0.5238985,0.12865466,-1.39168,-0.012395819,-0.053050682,0.15940674,1.1740214,-0.28908142
-0.1,0.1,1.1999999999999997,0.0,0.5235987755982988,0,0.88978857,-0.3718994,1.1171232,0.6671071,0.7244981,0.2813858,-0.43068942,0.13817924,-1.3912344,-0.007975622,-0.053798184,0.16166727,1.22265,1.0719857
-0.1,0.1,1.1999999999999997,0.0,0.5235987755982988,0,0.88796425,-0.37339017,1.1155767,0.6646149,0.7175275,0.25489318,0.058124434,0.1369355,-1.3910831,-0.043288313,-0.0845467,-0.03283701,1.1474439,0.3093039
-0.1,0.1,1.1999999999999997,0.0,0.5235987755982988,0,0.8890134,-0.3697577,1.1172125,0.6655299,0.718449,0.2824716,0.09825334,0.13405906,-1.3917359,-0.00050483976,-0.069480345,0.075701445,1.0443077,0.37514102
-0.1,0.1,1.1999999999999997,0.0,0.5235987755982988,0,0.8829803,-0.37188634,1.1170701,0.6638055,0.7047875,0.2678148,-0.019771915,0.13193993,-1.39025,-0.033712983,-0.046751615,-0.0942717,1.1372699,-0.026763787
-0.1,0.1,1.1999999999999997,0.0,0.5235987755982988,0,0.8857017,-0.37237352,1.1168433,0.66391444,0.7340055,0.2511411,0.5173504,0.13852786,-1.3918517,-0.022110343,-0.076075666,-0.09767539,1.0520672,-0.39805102
-0.1,0.1,1.1999999999999997,0.0,0.5235987755982988,0,0.887596,-0.37271622,1.1155478,0.6618167,0.73650455,0.26352146,0.40791085,0.1384257,-1.3914211,-0.039731015,-0.033867545,-0.0951603,1.2201842,0.91796666
-0.1,0.1,1.1999999999999997,0.0,0.5235987755982988,0,0.88683826,-0.37238237,1.1169146,0.66301495,0.7387519,0.25855893,0.49379984,0.1370481,-1.3919582,-0.034961384,0.013325014,-0.008253588,1.0985175,-0.20893417
-0.1,0.1,1.1999999999999997,0.0,0.5235987755982988,0,0.8867465,-0.37060738,1.1182319,0.66467804,0.72345924,0.25633714,0.013788336,0.13682404,-1.3919272,-0.01362034,-0.085610546,-0.012673531,1.0182371,0.33983958
-0.1,0.1,1.1999999999999997,0.0,0.5235987755982988,0,0.8892371,-0.36923227,1.117286,0.66066617,0.7140284,0.2639091,-0.7528229,0.13687645,-1.3919519,-0.03583267,-0.06043957,-0.019056022,1.1305273,-0.017764982
-0.1,0.1,1.1999999999999997,0.0,0.5235987755982988,0,0.8905805,-0.37119663,1.1174206,0.6625984,0.7163902,0.26316366,0.35202172,0.1338759,-1.3921034,-0.024360305,-0.10767879,-0.1731031,1.088647,0.6716632
-0.1,0.1,1.1999999999999997,0.0,0.5235987755982988,0,0.88557315,-0.37289214,1.1174895,0.6607937,0.72212136,0.25137737,1.3830533,0.13703366,-1.3904265,-0.03752659,-0.03141717,0.049151987,1.2064173,0.73749727
-0.1,0.1,1.1999999999999997,0.0,0.5235987755982988,0,0.8901837,-0.3715343,1.1169982,0.66244483,0.70951605,0.28425723,0.12731218,0.13717762,-1.3917834,-0.038835395,-0.0834352,-0.062151562,1.1257064,0.8707961
-0.1,0.1,1.1999999999999997,0.0,0.5235987755982988,0,0.8881373,-0.372092,1.1165097,0.6640793,0.7146888,0.2715213,0.4979698,0.13425387,-1.392386,-0.0104604,-0.011267102,-0.23904745,1.2134736,-0.4321531
-0.1,0.1,1.1999999999999997,0.0,0.5235987755982988,0,0.8881376,-0.37173638,1.1180052,0.66600144,0.72470146,0.27559873,1.2446942,0.13330767,-1.3913206,-0.01658708,-0.06953671,0.033946663,1.2281908,0.89442015
-0.1,0.1,1.1999999999999997,0.0,0.5235987755982988,0,0.8914189,-0.37318736,1.1156942,0.6616859,0.7375204,0.2511607,-1.3096542,0.13470899,-1.3922687,-0.011031733,-0.03422528,0.13590626,1.0690039,0.08199797
-0.1,0.1,1.1999999999999997,0.0,0.5235987755982988,0,0.89132273,-0.37109745,1.116915,0.66391844,0.73184794,0.25154242,0.13822372,0.13698854,-1.3905195,-0.057998993,-0.08758909,-0.05565103,1.0198351,0.16299506
-0.1,0.1,1.1999999999999997,0.0,0.5235987755982988,0,0.8878905,-0.37337887,1.1187751,0.6616561,0.72230935,0.2787968,-0.5799679,0.13727184,-1.3912818,-0.030216802,-0.007116776,0.022230111,1.2336059,-0.282955
-0.1,0.1,1.1999999999999997,0.0,0.5235987755982988,0,0.8901456,-0.37312406,1.1166577,0.66559064,0.72439927,0.26942435,-0.6431641,0.13267937,-1.3904485,-0.026943216,-0.011673524,0.014052358,1.1588328,0.14196017
-0.1,0.1,1.1999999999999997,0.0,0.5235987755982988,0,0.8864546,-0.3723964,1.1167631,0.66339755,0.71912485,0.2585684,0.6963904,0.13994013,-1.3916546,-0.038277097,-0.026957912,-0.019808874,1.1673661,0.045337733
-0.1,0.1,1.1999999999999997,0.0,0.5235987755982988,0,0.88769394,-0.37345967,1.117713,0.6671074,0.73507863,0.27741554,-0.06525317,0.13333955,-1.3904827,-0.003076509,-0.009307948,-0.11054281,1.1493425,1.6871266
-0.1,0.1,1.1999999999999997,0.0,0.5235987755982988,0,0.8861429,-0.37168282,1.1166047,0.66445273,0.7231059,0.265093,-0.13185036,0.13547361,-1.3917205,-0.034230445,-0.0840443,0.008867908,1.1496387,0.048639365
-0.1,0.1,1.1999999999999997,0.0,0.5235987755982988,0,0.88744813,-0.37037402,1.1187828,0.66361004,0.7392843,0.26615706,0.74476486,0.13075078,-1.3911684,-0.039530586,-0.0535048,-0.0867835,1.1541313,0.47333944
-0.1,0.1,1.1999999999999997,0.0,0.5235987755982988,0,0.89040303,-0.37172008,1.1165377,0.66227806,0.7100716,0.2858075,0.6054342,0.1349876,-1.3929102,-0.041532014,-0.11707553,0.2163818,1.012154,0.5900453
-0.1,0.1,1.1999999999999997,0.0,0.5235987755982988,0,0.887958,-0.37342018,1.116876,0.6646591,0.73437876,0.25976762,0.18531807,0.13470872,-1.3909833,-0.048309777,-0.018059714,-0.16855079,1.2798359,-0.35553685
-0.1,0.1,1.1999999999999997,0.0,0.5235987755982988,0,0.89107305,-0.37100998,1.1192071,0.66464627,0.7030631,0.2939201,0.4134726,0.12957598,-1.3910679,-0.02706154,0.040335167,0.18389443,1.1163607,-0.050399914
-0.1,0.1,1.1999999999999997,0.0,0.5235987755982988,0,0.8881311,-0.37146384,1.116402,0.6656344,0.7124571,0.26391685,-0.34029698,0.13411497,-1.3915013,-0.053487923,-0.08766338,-0.08633487,1.1098439,0.17097855
-0.1,0.1,1.1999999999999997,0.0,0.5235987755982988,0,0.89059174,-0.37106648,1.117716,0.6609249,0.70260406,0.27675465,0.42631865,0.13442715,-1.3916296,-0.05264946,0.00011633402,0.14306977,1.2443303,1.1065007
-0.1,0.1,1.1999999999999997,0.0,0.5235987755982988,0,0.8884458,-0.37245592,1.1177677,0.66597205,0.73373264,0.28096122,0.21735719,0.125867,-1.3908603,-0.04105051,-0.05757107,0.09145823,1.1686187,0.3578578
-0.1,0.1,1.1999999999999997,0.0,0.5235987755982988,0,0.8866249,-0.37232247,1.1161529,0.667017,0.7097686,0.27908376,-0.07688392,0.13733682,-1.3916434,-0.012427872,0.009744887,0.016031612,1.2565606,0.22235225
-0.1,0.1,1.1999999999999997,0.0,0.5235987755982988,0,0.88552624,-0.37276706,1.1168697,0.66394836,0.720639,0.27111903,0.39966467,0.14029123,-1.3928837,-0.017468926,0.03930012,0.15899362,1.1101472,0.76287925
-0.1,0.1,1.1999999999999997,0.0,0.5235987755982988,0,0.89002633,-0.37130556,1.1171688,0.6628273,0.7103693,0.28138617,-0.16055694,0.1339495,-1.3913147,-0.017268676,-0.067052566,0.018646428,1.2477938,-0.26927355
-0.1,0.1,1.1999999999999997,0.0,0.5235987755982988,0,0.8883938,-0.37360036,1.1161137,0.6656899,0.7352249,0.2553202,-0.53817356,0.12911418,-1.390778,-0.042529404,-0.17495582,0.023786582,1.1571783,0.84899515
-0.1,0.1,1.1999999999999997,0.0,0.5235987755982988,0,0.8898649,-0.37318525,1.1168014,0.6687502,0.74292195,0.25802228,0.3447129,0.1386649,-1.3921882,-0.0115421675,0.03388815,0.04355366,1.0369995,0.58028203
-0.1,0.1,1.1999999999999997,0.0,0.5235987755982988,0,0.8823393,-0.37147558,1.1191385,0.66982573,0.7178316,0.26872787,0.64051306,0.13717854,-1.3914177,0.005146457,-0.01718167,-0.008310408,1.0934744,-0.23791319
-0.1,0.1,1.1999999999999997,0.0,0.5235987755982988,0,0.88686836,-0.37151307,1.117731,0.6634926,0.7199802,0.27206153,-0.29659703,0.13631839,-1.390854,-0.022447415,-0.06386897,0.13441774,1.3423778,0.49497822
-0.1,0.1,1.1999999999999997,0.0,0.5235987755982988,0,0.8880299,-0.37188175,1.1189328,0.6649941,0.717552,0.27115375,0.17802475,0.12960006,-1.3916271,-0.019776117,-0.1159,-0.051974222,1.3162423,1.1289244
-0.1,0.1,1.1999999999999997,0.0,0.5235987755982988,0,0.88892454,-0.37225053,1.1181023,0.66298115,0.7154186,0.29311112,0.84103906,0.13661017,-1.3932381,-0.023216702,-0.12452379,-0.11388988,1.1049126,-0.5875067
-0.1,0.1,1.1999999999999997,0.0,0.5235987755982988,0,0.8904237,-0.37371865,1.1171604,0.66122675,0.7270826,0.25823024,0.46226558,0.13575266,-1.3912083,-0.04751387,-0.019399958,0.045838922,1.0484334,0.37524393
-0.1,0.1,1.1999999999999997,0.0,0.5235987755982988,0,0.886186,-0.371165,1.1153742,0.6699925,0.71408135,0.27145305,-0.5832666,0.13438827,-1.3919841,-0.018603634,-0.013642985,0.036485877,1.3262931,0.7916454
-0.1,0.1,1.1999999999999997,0.0,0.5235987755982988,0,0.88809234,-0.37232032,1.1155522,0.6633189,0.730246,0.2855331,-0.5170404,0.13863987,-1.3907003,-0.024548328,-0.020950703,0.19684723,1.0739244,1.2274905
-0.1,0.1,1.1999999999999997,0.0,0.5235987755982988,0,0.8875863,-0.3721279,1.1170739,0.6662087,0.6916637,0.30462557,-0.2279732,0.13546303,-1.3908865,-0.026451211,0.01047159,-0.11817475,1.0921791,-0.17564851
-0.1,0.1,1.1999999999999997,0.0,0.5235987755982988,0,0.88375854,-0.37150124,1.1183068,0.6628427,0.714184,0.24932519,0.42852262,0.13730776,-1.3905367,-0.042000465,-0.05518625,-0.02336666,1.1696727,0.7030651
-0.1,0.1,1.1999999999999997,0.0,0.5235987755982988,0,0.88767797,-0.37096417,1.1199107,0.6631967,0.718493,0.2936155,0.41983402,0.1405151,-1.3917996,-0.013105636,-0.011133596,0.020375418,1.0775467,0.81564736
-0.1,0.1,1.1999999999999997,0.0,0.5235987755982988,0,0.88478833,-0.37197116,1.1181363,0.66440237,0.7296535,0.28226796,0.33650354,0.13258193,-1.3916444,-0.03281991,-0.0011543572,0.07652775,1.1949093,0.44497254
-0.1,0.1,1.1999999999999997,0.0,0.5235987755982988,0,0.8882487,-0.37171265,1.1182567,0.66652405,0.720129,0.2517787,-0.6762621,0.1335933,-1.3913946,-0.033219438,-0.0020096435,-0.22930332,1.0849969,0.40733773
-0.1,0.1,1.1999999999999997,0.0,0.5235987755982988,0,0.8893161,-0.3730114,1.1161996,0.6632721,0.71691376,0.2539306,0.3946801,0.1326109,-1.3927422,-0.034255635,-0.011850443,0.008231513,1.1944194,0.25630054
-0.1,0.1,1.1999999999999997,0.0,0.5235987755982988,0,0.8849729,-0.37379277,1.1174687,0.66590184,0.71572757,0.2560349,0.2831239,0.13810922,-1.3906716,-0.024322314,-0.09383216,0.10845878,1.1587859,0.3517049
-0.1,0.1,1.1999999999999997,0.0,0.5235987755982988,0,0.8861935,-0.37289533,1.118647,0.6601717,0.750278,0.27689785,0.742498,0.13639356,-1.392447,-0.027636468,-0.012512086,-0.11013792,1.0873138,0.55579066
-0.1,0.1,1.1999999999999997,0.0,0.5235987755982988,0,0.88867056,-0.3711753,1.1161395,0.6682255,0.72359407,0.2463114,-0.32649624,0.13321388,-1.3918933,-0.023951596,-0.021604817,-0.20848937,1.2219362,0.76943856
-0.1,0.1,1.1999999999999997,0.0,0.5235987755982988,0,0.89441985,-0.3727009,1.1166589,0.66577625,0.72025007,0.28717387,-0.64860755,0.13830213,-1.3910706,-0.039375745,-0.084174894,0.2559849,0.8989201,0.1532998
-0.1,0.1,1.1999999999999997,0.0,0.5235987755982988,0,0.8854596,-0.3715823,1.116729,0.6624133,0.72601604,0.2665963,-0.009876148,0.1317381,-1.392237,-0.044229228,0.029976575,-0.017214071,1.3233565,1.2975866
-0.1,0.1,1.1999999999999997,0.0,0.5235987755982988,0,0.8903374,-0.37210712,1.1173508,0.65893537,0.71978796,0.24569511,-1.3760535,0.13985448,-1.3919759,-0.022276718,-0.0026709517,-0.054305498,1.1580982,0.60017467
-0.1,0.1,1.1999999999999997,0.0,0.5235987755982988,0,0.88956106,-0.37004048,1.119306,0.66809535,0.7275518,0.27893615,-0.0030694574,0.14048222,-1.391809,-0.028813796,-0.015481524,0.15474905,1.0308628,0.10504765
-0.1,0.1,1.1999999999999997,0.0,0.5235987755982988,0,0.88821334,-0.37338427,1.1167334,0.66403574,0.72296786,0.26647046,0.4854162,0.13814329,-1.3921207,-0.033142153,-0.02904988,0.037105814,1.1511332,-0.49922395
-0.1,0.1,1.1999999999999997,0.0,0.5235987755982988,0,0.88604945,-0.37286818,1.1176292,0.66482747,0.7130094,0.2778512,-0.23756209,0.13882639,-1.392096,-0.01645542,-0.07773325,0.0096356105,1.105551,0.6755355
-0.1,0.1,1.1999999999999997,0.0,0.5235987755982988,0,0.8902603,-0.37243778,1.1187693,0.6653014,0.7325749,0.26522115,0.3391879,0.13432388,-1.3910718,-0.01701562,-0.1506793,-0.31729943,1.1917589,0.959173
-0.1,0.1,1.1999999999999997,0.0,0.5235987755982988,0,0.8859244,-0.371082,1.1181085,0.6648501,0.7252665,0.28890723,0.4862712,0.13679212,-1.3921682,-0.031198688,-0.036428444,-0.23565747,1.108584,1.8001142
-0.1,0.1,1.1999999999999997,0.0,0.5235987755982988,0,0.8884505,-0.36981452,1.1185278,0.6600394,0.72309315,0.2756657,0.18757458,0.13466711,-1.390349,-0.009682761,-0.035596024,-0.07026809,1.1630142,-0.18495628
-0.1,0.1,1.1999999999999997,0.0,0.5235987755982988,0,0.8869866,-0.37144494,1.1179794,0.66416967,0.72838986,0.27200505,0.12057108,0.14010605,-1.3918638,-0.045905165,-0.008186475,0.23753092,1.1296057,1.152139
-0.1,0.1,1.1999999999999997,0.0,0.5235987755982988,0,0.88867295,-0.3732185,1.1189088,0.66301113,0.71754265,0.24876018,-0.18199232,0.12964833,-1.3910074,-0.014562664,-0.09815141,0.052458167,1.125131,-0.047463235
-0.1,0.1,1.1999999999999997,0.0,0.5235987755982988,0,0.8910819,-0.3720599,1.1169862,0.6625354,0.71863335,0.2834323,-0.06653403,0.14219363,-1.3913509,-0.020709,-0.016377194,0.043094743,1.0081028,0.39248982
-0.1,0.1,1.1999999999999997,0.0,0.5235987755982988,0,0.8915128,-0.3726391,1.1179751,0.6641983,0.7203697,0.29236135,0.42338645,0.1358145,-1.3920035,-0.02965404,-0.03790086,-0.03156636,1.1835781,0.3917293
-0.1,0.1,1.1999999999999997,0.0,0.5235987755982988,0,0.8860672,-0.37198734,1.1161506,0.6664419,0.72241676,0.26491293,0.2876432,0.13444309,-1.3925745,-0.03567119,-0.052669458,-0.11117717,1.1466646,0.8611928
-0.1,0.1,1.1999999999999997,0.0,0.5235987755982988,0,0.89051795,-0.37265533,1.1177286,0.6622919,0.72477645,0.25999346,0.32532343,0.13585387,-1.3922311,-0.014121979,0.05908629,0.2033983,1.1532776,0.5933411
-0.1,0.1,1.1999999999999997,0.0,0.5235987755982988,0,0.8884128,-0.37244847,1.117363,0.6630595,0.74066365,0.2710493,-0.12676047,0.13478144,-1.3908249,-0.026715953,-0.10699235,-0.2101408,1.0408273,0.39993685
-0.1,0.1,1.1999999999999997,0.0,0.5235987755982988,0,0.8889452,-0.3726079,1.1188507,0.6604512,0.7195752,0.2970276,-0.061182845,0.13899097,-1.391478,-0.0046538524,0.09006083,-0.04137606,1.3455799,-0.12364585
-0.1,0.1,1.1999999999999997,0.0,0.5235987755982988,0,0.88862294,-0.37236914,1.1193209,0.6650127,0.7377598,0.2638372,0.2300824,0.13818613,-1.3921003,-0.02970938,-0.089096725,0.08808362,1.0784227,0.28062254
-0.1,0.1,1.1999999999999997,0.0,0.5235987755982988,0,0.89102876,-0.37406233,1.1173285,0.6624805,0.70867884,0.27207944,0.5787741,0.13648291,-1.3920553,-0.01989616,-0.12793994,-0.12549709,1.0487655,0.39764208
-0.1,0.1,1.1999999999999997,0.0,0.5235987755982988,0,0.8888391,-0.37313548,1.1176112,0.65913343,0.718389,0.2611862,-0.74834913,0.13736913,-1.3921424,-0.046000574,-0.12360955,-0.068190135,1.1334404,1.3922615
-0.1,0.1,1.1999999999999997,0.0,0.5235987755982988,0,0.89028555,-0.37340268,1.1182102,0.6670952,0.7274197,0.2861982,0.5921737,0.13529947,-1.3923556,-0.017214337,-0.08794816,-0.029914776,1.0588535,1.2582805
-0.1,0.1,1.1999999999999997,0.0,0.5235987755982988,0,0.8902182,-0.37172785,1.1175793,0.66288465,0.748219,0.2549749,0.43288475,0.12812388,-1.391407,-0.025421284,-0.061145514,-0.12721747,1.1284198,0.19379513
-0.1,0.1,1.1999999999999997,0.0,0.5235987755982988,0,0.88808167,-0.37379223,1.1179067,0.66760945,0.7282502,0.2751788,0.5907287,0.13637525,-1.3918846,-0.027021596,-0.008294838,0.13179962,1.1555176,0.042512834
-0.1,0.1,1.1999999999999997,0.0,0.5235987755982988,0,0.8930389,-0.37267953,1.1187216,0.6643572,0.72884166,0.26519617,-0.639642,0.1373475,-1.3910812,-0.019718027,0.071553394,-0.17029113,1.1321416,0.39576852
-0.1,0.1,1.1999999999999997,0.0,0.5235987755982988,0,0.89204764,-0.37144157,1.1175108,0.6646638,0.72738844,0.26873204,0.5319688,0.1309305,-1.390963,-0.018883053,-0.0037817731,-0.12239348,1.0613825,-0.3201537
-0.1,0.1,1.1999999999999997,0.0,0.5235987755982988,0,0.888099,-0.37351206,1.1158477,0.66321534,0.72472954,0.28172076,1.4871168,0.13640895,-1.391586,-0.0124366665,-0.10408546,-0.017753966,1.2105178,0.85794467
-0.1,0.1,1.1999999999999997,0.0,0.5235987755982988,0,0.89002377,-0.37342057,1.1144617,0.6621658,0.7090307,0.2529305,0.011850448,0.12834376,-1.3918434,-0.032037888,-0.034641452,-0.14113884,1.2022095,1.4950393
-0.1,0.1,1.1999999999999997,0.0,0.5235987755982988,0,0.88902974,-0.37246758,1.1169181,0.6629733,0.7205481,0.2717627,-0.1668453,0.12526248,-1.3915932,-0.051369626,-0.09504448,0.057448022,1.1625135,1.1616205
-0.1,0.1,1.1999999999999997,0.0,0.5235987755982988,0,0.8875885,-0.3735434,1.1166112,0.66184837,0.7022163,0.26424327,0.0059858668,0.12858853,-1.3919196,-0.03334527,-0.022751644,-0.08444101,1.0306684,0.37409094
-0.1,0.1,1.1999999999999997,0.0,0.5235987755982988,0,0.89162505,-0.37276053,1.1166874,0.66264117,0.71449596,0.288529,-0.75462115,0.14135033,-1.3916398,-0.0074008144,-0.0785536,0.19987178,1.1730686,0.88158745
-0.1,0.1,1.1999999999999997,0.0,0.5235987755982988,0,0.8911949,-0.3713217,1.1167115,0.6666908,0.71787167,0.2704704,0.114059865,0.13835165,-1.3930339,-0.030588884,-0.08291676,0.202239,1.2013682,1.7002783
-0.1,0.1,1.1999999999999997,0.0,0.5235987755982988,0,0.89055735,-0.37410232,1.1186116,0.6635817,0.7289155,0.2921824,0.2499389,0.13396265,-1.3920124,-0.029493017,-0.097925775,-0.003929939,1.1935695,0.62955284
-0.1,0.1,1.1999999999999997,0.0,0.5235987755982988,0,0.88738805,-0.37269354,1.1178297,0.66476685,0.7069297,0.29023054,-0.3749024,0.1367045,-1.3926258,-0.038122628,-0.07137507,0.34701964,1.152322,0.76881367
-0.1,0.1,1.1999999999999997,0.0,0.5235987755982988,0,0.88829154,-0.3720756,1.1176429,0.6646102,0.7130225,0.27968475,-0.076401934,0.13699098,-1.3920211,-0.078911,-0.008127447,0.120479636,1.1915499,1.3677489
-0.1,0.1,1.1999999999999997,0.0,0.5235987755982988,0,0.8869728,-0.37142202,1.1182495,0.668681,0.73759055,0.26088953,-0.65194553,0.13667949,-1.391429,0.0017769536,-0.057827074,-0.01681554,1.0386893,0.06460368
-0.1,0.1,1.1999999999999997,0.0,0.5235987755982988,0,0.88897836,-0.3719836,1.1180372,0.6630721,0.712802,0.27561876,0.41018274,0.1366135,-1.3918879,-0.03317338,0.012756087,-0.063528866,1.1921476,1.1802894
-0.1,0.1,1.1999999999999997,0.0,0.5235987755982988,0,0.88593566,-0.3719795,1.1172717,0.6618654,0.724211,0.27363265,0.38194695,0.13583422,-1.3915912,-0.014130581,-0.050763745,0.057151902,1.2689215,1.5559906
-0.1,0.1,1.1999999999999997,0.0,0.5235987755982988,0,0.88228184,-0.37373212,1.1180837,0.66378266,0.7283386,0.27042213,0.56143105,0.13599364,-1.3918164,-0.0053298613,-0.09439471,-0.089665115,1.0768844,-0.25650007
-0.1,0.1,1.1999999999999997,0.0,0.5235987755982988,0,0.88836277,-0.3723353,1.1178714,0.66463137,0.7280086,0.25286293,0.16621555,0.13658422,-1.3916833,-0.026434824,0.07206957,-0.113317855,1.1192607,0.920729
-0.1,0.1,1.1999999999999997,0.0,0.5235987755982988,0,0.88933736,-0.3717979,1.1195058,0.66343045,0.72773683,0.25384885,0.45127454,0.12973109,-1.3908107,-0.028703628,-0.047496993,0.07815946,1.098719,-0.0024155134
-0.1,0.1,1.1999999999999997,0.0,0.5235987755982988,0,0.8895631,-0.37341857,1.1174961,0.6635026,0.7124045,0.26796517,-0.5010568,0.13631742,-1.3919377,-0.013769792,-0.023355294,0.12646608,1.1362355,0.46845686
-0.1,0.1,1.1999999999999997,0.0,0.5235987755982988,0,0.8912436,-0.370996,1.1175712,0.664545,0.73040956,0.26662254,0.28155878,0.13251676,-1.3927332,-0.02369671,0.012117519,-0.13522543,1.140755,0.23436451
-0.1,0.1,1.1999999999999997,0.0,0.5235987755982988,0,0.89215285,-0.3691005,1.1164278,0.6700879,0.701758,0.29260573,0.84782916,0.13928215,-1.3917239,-0.032101177,-0.11348833,0.10623674,1.2401247,-0.112753905
