sanky1234/BimanualDexCatch/isaacgymenvs/cem_results/football_pose_-0.1_-0.2_0.8999999999999999_0.5235987755982988_0.0_0_2025-05-25.csv
x,y,z,roll,pitch,yaw,robot1/joint1,robot1/joint2,robot1/joint3,robot1/joint4,robot1/joint5,robot1/joint6,robot1/joint7,robot2/joint1,robot2/joint2,robot2/joint3,robot2/joint4,robot2/joint5,robot2/joint6,robot2/joint7
-0.1,-0.2,0.8999999999999999,0.5235987755982988,0.0,0,-0.69598997,-1.3604466,1.519543,0.0013294616,0.23078202,1.183196,0.20059562,-0.42235518,1.0093788,-2.2546737,-0.13946787,-0.012864046,1.5412003,-0.83942527
-0.1,-0.2,0.8999999999999999,0.5235987755982988,0.0,0,-0.6923967,-1.3697852,1.4760238,0.0667078,-0.35550234,0.95820284,-0.7144282,-0.4027637,0.97549,-2.2253618,-0.122348785,0.008667576,1.5589588,-0.73874027
-0.1,-0.2,0.8999999999999999,0.5235987755982988,0.0,0,-0.6842003,-1.3556722,1.4995272,-0.21454683,0.16109475,1.0719815,-1.0080189,-0.410545,1.0059879,-2.2579305,-0.114626795,-0.0017820897,1.5568701,-0.80842173
-0.1,-0.2,0.8999999999999999,0.5235987755982988,0.0,0,-0.7166028,-1.3570218,1.4729395,0.07418779,-0.08908854,1.1796414,-0.5959342,-0.40040472,0.9963008,-2.266921,-0.15087938,0.00047778166,1.553677,-0.74018365
-0.1,-0.2,0.8999999999999999,0.5235987755982988,0.0,0,-0.7109678,-1.3642802,1.5770751,-0.24294563,0.07263009,0.9137347,-0.5263515,-0.41280368,0.9922972,-2.2626686,-0.16983788,-0.012329872,1.5673766,-0.69485277
-0.1,-0.2,0.8999999999999999,0.5235987755982988,0.0,0,-0.6705578,-1.3589983,1.5513939,-0.40726793,-0.048763562,1.2696536,0.483001,-0.4242684,0.984192,-2.2509904,-0.10398884,-0.049925875,1.5490848,-0.7907086
-0.1,-0.2,0.8999999999999999,0.5235987755982988,0.0,0,-0.7229104,-1.3655499,1.5390741,-0.14462265,-0.105363965,1.1008918,-0.7992118,-0.39647338,1.0020407,-2.2401717,-0.11377394,-0.007025648,1.5452564,-0.821868
-0.1,-0.2,0.8999999999999999,0.5235987755982988,0.0,0,-0.7142271,-1.3701384,1.5418373,-0.12385687,-0.2535392,0.92396116,-0.77956444,-0.41870454,0.99585575,-2.2842264,-0.14710413,0.015561942,1.550307,-0.7640654
-0.1,-0.2,0.8999999999999999,0.5235987755982988,0.0,0,-0.7085778,-1.359577,1.472429,-0.03705156,-0.034616843,1.0666546,-0.78920615,-0.40577453,0.9978972,-2.2234328,-0.107108384,-0.021137547,1.5405017,-0.78710955
-0.1,-0.2,0.8999999999999999,0.5235987755982988,0.0,0,-0.7245702,-1.3722941,1.5498565,-0.084356904,-0.6040667,1.0171751,-0.0538645,-0.40682313,0.9958439,-2.2551293,-0.14907902,-0.0056309793,1.5483003,-0.7316444
-0.1,-0.2,0.8999999999999999,0.5235987755982988,0.0,0,-0.69319427,-1.3641417,1.553982,0.16957225,0.25381503,1.0604143,-1.6571281,-0.42398357,0.9924725,-2.261475,-0.14145163,-0.034065638,1.5491276,-0.7250958
-0.1,-0.2,0.8999999999999999,0.5235987755982988,0.0,0,-0.6802537,-1.3619889,1.5105261,-0.17842093,-0.14714533,1.0847943,-0.9111377,-0.41457388,0.991945,-2.2604496,-0.16127984,0.021136904,1.5567882,-0.83284146
-0.1,-0.2,0.8999999999999999,0.5235987755982988,0.0,0,-0.70162636,-1.3601962,1.4915103,-0.17356707,-0.047163233,1.1097797,-0.35982206,-0.41406897,1.0038937,-2.2504473,-0.1338409,-0.053775698,1.5405488,-0.7390904
-0.1,-0.2,0.8999999999999999,0.5235987755982988,0.0,0,-0.6952844,-1.3636574,1.489548,-0.07567794,0.028329575,0.98665166,-0.8169061,-0.40640843,0.992359,-2.2733867,-0.15314384,-0.021871174,1.5570594,-0.7812125
-0.1,-0.2,0.8999999999999999,0.5235987755982988,0.0,0,-0.72197765,-1.3550366,1.4672589,-0.09287441,-0.5852353,1.1519958,-1.9840868,-0.40828454,0.9849525,-2.2414558,-0.13941209,-0.014604818,1.5502018,-0.77567565
-0.1,-0.2,0.8999999999999999,0.5235987755982988,0.0,0,-0.7273561,-1.3586695,1.4510429,-0.021114426,-0.04525152,1.3705987,-0.9354664,-0.42156973,1.0013065,-2.2303221,-0.14423311,-0.029825937,1.543492,-0.7777196
-0.1,-0.2,0.8999999999999999,0.5235987755982988,0.0,0,-0.70165455,-1.3593425,1.4748114,-0.03758899,-0.056365155,1.2066202,-0.6552519,-0.41920462,0.9968888,-2.2856464,-0.13804998,-0.027412303,1.5459081,-0.8353759
-0.1,-0.2,0.8999999999999999,0.5235987755982988,0.0,0,-0.7086051,-1.3557662,1.5342959,-0.09363661,-0.16088746,1.2456471,-0.56009626,-0.41517526,1.0086161,-2.2690563,-0.1355204,0.0028221393,1.53404,-0.8523631
-0.1,-0.2,0.8999999999999999,0.5235987755982988,0.0,0,-0.70910853,-1.3711785,1.4881886,-0.22586147,-0.07154522,1.0789281,-1.0626315,-0.41109386,0.9861507,-2.2491271,-0.15018344,-0.044595744,1.559494,-0.72527516
-0.1,-0.2,0.8999999999999999,0.5235987755982988,0.0,0,-0.7018072,-1.3572963,1.4703877,-0.16374144,-0.027439632,1.1096655,-1.3393652,-0.39989492,1.0102893,-2.253329,-0.1365674,-0.0055274637,1.537316,-0.7302185
-0.1,-0.2,0.8999999999999999,0.5235987755982988,0.0,0,-0.7064651,-1.3724082,1.5247391,-0.11037188,-0.062318012,1.3480946,-0.95550275,-0.40040356,1.0113893,-2.2796202,-0.13141927,-0.008271011,1.5508296,-0.8671925
-0.1,-0.2,0.8999999999999999,0.5235987755982988,0.0,0,-0.7178095,-1.3640095,1.4559778,-0.021915894,-0.15155268,1.0364683,-1.5622339,-0.4229911,0.98895055,-2.2668424,-0.14326796,-0.03124815,1.5564711,-0.7622775
-0.1,-0.2,0.8999999999999999,0.5235987755982988,0.0,0,-0.7031164,-1.3557678,1.4846855,-0.09995971,-0.17024992,0.9317074,-0.47745138,-0.42535248,1.0010598,-2.2489254,-0.12784304,0.03052929,1.5448912,-0.8089435
-0.1,-0.2,0.8999999999999999,0.5235987755982988,0.0,0,-0.7310235,-1.3636453,1.5162528,0.019791879,-0.05043791,1.2356282,-1.3872235,-0.4024816,1.0196743,-2.2561018,-0.153326,-0.034230668,1.5572169,-0.7262687
-0.1,-0.2,0.8999999999999999,0.5235987755982988,0.0,0,-0.73446065,-1.3692718,1.5314101,-0.1903222,-0.2326982,1.0622978,-1.1117692,-0.41950256,1.0025789,-2.267312,-0.1472057,-0.02907776,1.5520622,-0.7743063
-0.1,-0.2,0.8999999999999999,0.5235987755982988,0.0,0,-0.6711622,-1.355907,1.5639569,0.071564525,-0.11237253,1.2408773,0.20233394,-0.41341245,0.9926288,-2.2627504,-0.14078698,0.0024160407,1.5648592,-0.7652378
-0.1,-0.2,0.8999999999999999,0.5235987755982988,0.0,0,-0.67815024,-1.3607693,1.5058242,-0.016864143,0.59212095,0.97387725,-0.6667542,-0.42130005,1.0018016,-2.268521,-0.15190682,0.02310712,1.5505248,-0.79126513
-0.1,-0.2,0.8999999999999999,0.5235987755982988,0.0,0,-0.7291512,-1.3633113,1.5282273,0.03657934,0.36006156,0.99458826,0.02056558,-0.42297798,1.0031307,-2.2769833,-0.15189655,-0.012689896,1.5593399,-0.82457554
-0.1,-0.2,0.8999999999999999,0.5235987755982988,0.0,0,-0.68960315,-1.3590059,1.5264621,-0.089794286,-0.287004,0.691442,-0.7506336,-0.43506306,0.99978834,-2.291319,-0.11131523,-0.01922581,1.5508591,-0.7120934
-0.1,-0.2,0.8999999999999999,0.5235987755982988,0.0,0,-0.73461694,-1.37065,1.4889015,0.03352184,-0.21439922,1.0233943,-1.2127895,-0.4030051,0.98852015,-2.26714,-0.13968287,-0.05319253,1.5444442,-0.7358314
-0.1,-0.2,0.8999999999999999,0.5235987755982988,0.0,0,-0.6982299,-1.3690869,1.5166812,-0.17929454,-0.24889213,1.1508417,-0.51410973,-0.4128261,1.0048219,-2.2738883,-0.1386488,0.030705389,1.5541128,-0.91382927
-0.1,-0.2,0.8999999999999999,0.5235987755982988,0.0,0,-0.7049654,-1.3609596,1.5025108,-0.14856988,-0.40816724,0.9499355,-1.0533493,-0.42935798,1.0090036,-2.2819114,-0.113250785,-0.02999347,1.5450375,-0.8609595
-0.1,-0.2,0.8999999999999999,0.5235987755982988,0.0,0,-0.6897158,-1.3698207,1.5191418,-0.1814098,-0.41776434,1.0029346,-0.92188233,-0.42026186,0.97961795,-2.2544694,-0.160917,-0.0010410444,1.5590367,-0.7611241
-0.1,-0.2,0.8999999999999999,0.5235987755982988,0.0,0,-0.7095268,-1.3613776,1.5276749,-0.13694943,-0.13022242,1.0425466,-0.48241663,-0.43813324,0.9930498,-2.2954893,-0.12764478,-0.07488201,1.5568926,-0.73440987
-0.1,-0.2,0.8999999999999999,0.5235987755982988,0.0,0,-0.70305574,-1.3698007,1.5832864,0.14105083,0.11009913,1.1226605,-1.4594792,-0.40398204,0.9843834,-2.2464662,-0.13566308,-0.050436847,1.5382202,-0.80649865
-0.1,-0.2,0.8999999999999999,0.5235987755982988,0.0,0,-0.7227965,-1.3664051,1.4986353,-0.007238392,0.4799385,1.0234474,-0.05523126,-0.39595267,0.9896116,-2.2484944,-0.13909146,-0.036956217,1.5399076,-0.79815286
-0.1,-0.2,0.8999999999999999,0.5235987755982988,0.0,0,-0.695562,-1.3560011,1.5022116,-0.12109398,0.20693158,1.325364,-0.5364653,-0.39618325,0.9858738,-2.2635891,-0.13130829,-0.019370921,1.5316391,-0.81926733
-0.1,-0.2,0.8999999999999999,0.5235987755982988,0.0,0,-0.6985535,-1.3658841,1.527207,-0.030321894,0.102228045,1.0250971,0.47407836,-0.4133483,1.0038025,-2.2659218,-0.15449974,0.039714877,1.5534879,-0.85822314
-0.1,-0.2,0.8999999999999999,0.5235987755982988,0.0,0,-0.7127218,-1.3636631,1.5078363,-0.0027366602,-0.16059665,1.0253431,-0.564879,-0.43013424,0.99043006,-2.247505,-0.10141057,-0.025842406,1.5601707,-0.7935583
-0.1,-0.2,0.8999999999999999,0.5235987755982988,0.0,0,-0.71019876,-1.3672869,1.4998939,0.05424358,0.047185227,1.1903197,-1.4832308,-0.40366042,0.991532,-2.275056,-0.11995384,-0.028620914,1.5557921,-0.75490946
-0.1,-0.2,0.8999999999999999,0.5235987755982988,0.0,0,-0.6836964,-1.3591611,1.5890126,0.120512985,-0.22794735,1.094074,-1.3086945,-0.41644928,1.0019737,-2.24342,-0.12979107,-0.00925811,1.5335984,-0.755394
-0.1,-0.2,0.8999999999999999,0.5235987755982988,0.0,0,-0.7228817,-1.3614076,1.5012181,-0.29126433,-0.023390742,0.9979395,-0.34296766,-0.40450782,0.9950458,-2.26052,-0.14421457,-0.046274584,1.5604451,-0.8098654
-0.1,-0.2,0.8999999999999999,0.5235987755982988,0.0,0,-0.69366187,-1.3511366,1.5770346,-0.19889732,-0.04467329,1.3273343,-1.5990998,-0.44616106,1.0058336,-2.260931,-0.120306574,-0.05113352,1.5496662,-0.78078437
-0.1,-0.2,0.8999999999999999,0.5235987755982988,0.0,0,-0.709262,-1.3655186,1.5452386,0.040038865,-0.35657793,1.2653869,-0.16949272,-0.3992431,0.99804705,-2.2149057,-0.15078944,-0.010552967,1.5465782,-0.71018773
-0.1,-0.2,0.8999999999999999,0.5235987755982988,0.0,0,-0.70034164,-1.349857,1.456379,-0.21298863,0.056744933,1.148339,-1.5239017,-0.41011578,0.9861632,-2.2554312,-0.13297896,-0.032324713,1.5460076,-0.8067387
-0.1,-0.2,0.8999999999999999,0.5235987755982988,0.0,0,-0.6896617,-1.3614777,1.5460465,-0.063267164,-0.16308144,1.3711265,-0.894438,-0.42183545,0.9939072,-2.2287526,-0.1341487,-0.01363317,1.5369611,-0.8167954
-0.1,-0.2,0.8999999999999999,0.5235987755982988,0.0,0,-0.6866379,-1.3637307,1.4956961,-0.20755908,-0.22395283,0.89014494,-0.5891555,-0.40951157,1.0017725,-2.2642806,-0.12250707,-0.0054260986,1.5457848,-0.7739536
-0.1,-0.2,0.8999999999999999,0.5235987755982988,0.0,0,-0.70241624,-1.3631963,1.5177889,-0.11445532,-0.34504613,1.2431986,-1.0278094,-0.4208414,0.99672335,-2.2385404,-0.12581378,-0.04425905,1.5375273,-0.73294455
-0.1,-0.2,0.8999999999999999,0.5235987755982988,0.0,0,-0.70108765,-1.3602133,1.544055,-0.1962353,-0.24669418,1.1403905,0.36280164,-0.42214364,0.99357146,-2.2658856,-0.1481237,-0.02487861,1.5598866,-0.8357822
-0.1,-0.2,0.8999999999999999,0.5235987755982988,0.0,0,-0.6990636,-1.3671023,1.6089859,-0.13979344,-0.30550602,0.8749323,-1.2492322,-0.4147978,0.998541,-2.2353208,-0.11736776,-0.02806847,1.5612872,-0.7346575
-0.1,-0.2,0.8999999999999999,0.5235987755982988,0.0,0,-0.7122527,-1.3697,1.605371,-0.08083879,-0.18973553,1.0695181,-1.016532,-0.41229048,0.9996419,-2.2750175,-0.13198301,-0.04408221,1.5411218,-0.8662102
-0.1,-0.2,0.8999999999999999,0.5235987755982988,0.0,0,-0.7061513,-1.3672271,1.4383026,0.010173531,-0.2459139,0.7955687,-0.4836023,-0.4369669,0.9944031,-2.2485013,-0.12434468,-0.03146929,1.557153,-0.7865777
-0.1,-0.2,0.8999999999999999,0.5235987755982988,0.0,0,-0.7073576,-1.3539543,1.5323415,-0.09044593,-0.22673768,1.0015721,-1.5683821,-0.4255163,1.0014157,-2.2632446,-0.15147823,-0.01732304,1.5569489,-0.75213695
-0.1,-0.2,0.8999999999999999,0.5235987755982988,0.0,0,-0.7208675,-1.3589288,1.5739036,-0.109449506,-0.64815646,0.9467281,-1.4752463,-0.40485218,0.99683493,-2.253263,-0.14054865,-0.026603978,1.5426533,-0.8134072
-0.1,-0.2,0.8999999999999999,0.5235987755982988,0.0,0,-0.6935393,-1.3637167,1.5016371,-0.0826352,-0.1811289,0.9345849,-0.5821218,-0.4138984,1.0096033,-2.254075,-0.13692272,0.015764993,1.5390352,-0.7024673
-0.1,-0.2,0.8999999999999999,0.5235987755982988,0.0,0,-0.7054735,-1.3643711,1.5301722,-0.071750656,-0.11093944,1.2607136,-0.08718,-0.42311728,1.0032874,-2.2835412,-0.1392749,-0.021551358,1.5454924,-0.85758376
-0.1,-0.2,0.8999999999999999,0.5235987755982988,0.0,0,-0.70133543,-1.3541323,1.5262475,-0.08010426,-0.12701453,0.8469042,-1.0807534,-0.40124935,1.0141678,-2.2456372,-0.12887235,-0.051470235,1.5304481,-0.806913
-0.1,-0.2,0.8999999999999999,0.5235987755982988,0.0,0,-0.7144808,-1.3642887,1.4990382,-0.21311383,-0.33335406,1.2597873,-0.1086329,-0.41888544,1.0056268,-2.280431,-0.13106002,-0.022098694,1.5527107,-0.88821644
-0.1,-0.2,0.8999999999999999,0.5235987755982988,0.0,0,-0.7021575,-1.3743362,1.4871039,-0.1309426,0.11361027,1.0419981,-1.0562389,-0.41173053,0.98971945,-2.257407,-0.115236126,-0.050439198,1.5525815,-0.7049957
-0.1,-0.2,0.8999999999999999,0.5235987755982988,0.0,0,-0.6986015,-1.3616121,1.5286444,-0.037758693,-0.15890764,1.116073,-0.25169805,-0.40839556,0.9726784,-2.257599,-0.117316276,0.011833479,1.5428866,-0.75433403
-0.1,-0.2,0.8999999999999999,0.5235987755982988,0.0,0,-0.7427147,-1.3687013,1.4836555,0.024441475,0.25189486,1.2159026,-0.6589228,-0.4116381,0.98906493,-2.249382,-0.15097322,-0.04399944,1.561616,-0.7363796
-0.1,-0.2,0.8999999999999999,0.5235987755982988,0.0,0,-0.69719833,-1.3684927,1.4766953,-0.14793171,0.27484155,0.9545865,-0.14266856,-0.4129128,1.0252632,-2.2668867,-0.13068517,-0.031695668,1.5424758,-0.7006601
-0.1,-0.2,0.8999999999999999,0.5235987755982988,0.0,0,-0.68278277,-1.363046,1.6438457,-0.124955736,-0.08867648,1.1006787,0.17746232,-0.39183217,1.001276,-2.2081568,-0.1432054,-0.030469995,1.5563271,-0.76961076
-0.1,-0.2,0.8999999999999999,0.5235987755982988,0.0,0,-0.70627576,-1.3690768,1.5116999,-0.13627851,-0.0845857,0.9412379,-0.018967021,-0.41614923,1.0102509,-2.2536857,-0.15227103,-0.032983165,1.5651736,-0.95410436
-0.1,-0.2,0.8999999999999999,0.5235987755982988,0.0,0,-0.69863355,-1.3672782,1.536139,-0.08152074,-0.172983,1.0922543,-1.565219,-0.4028706,1.01,-2.2389073,-0.1021878,-0.07444253,1.5535735,-0.86673814
-0.1,-0.2,0.8999999999999999,0.5235987755982988,0.0,0,-0.7073034,-1.354548,1.5429791,-0.3168734,0.085638836,0.89822006,-1.2592849,-0.41175687,1.0206991,-2.2487886,-0.14248326,-0.03170327,1.5441359,-0.8103371
-0.1,-0.2,0.8999999999999999,0.5235987755982988,0.0,0,-0.7332434,-1.3728325,1.4232035,-0.15023059,-0.1998562,1.115655,-0.5295825,-0.40384936,1.0006772,-2.2184727,-0.15814357,-0.011635723,1.5546588,-0.7919346
-0.1,-0.2,0.8999999999999999,0.5235987755982988,0.0,0,-0.69783145,-1.3696786,1.5277687,-0.26060197,0.1447497,1.1019357,0.17594212,-0.41742665,0.9863445,-2.2584615,-0.12690082,-0.0006105864,1.5615252,-0.67508966
-0.1,-0.2,0.8999999999999999,0.5235987755982988,0.0,0,-0.6959217,-1.369877,1.581957,-0.12644838,0.16540313,1.0138935,-0.6205495,-0.40704894,1.0065708,-2.2888072,-0.14124544,0.020288114,1.5497574,-0.84783405
-0.1,-0.2,0.8999999999999999,0.5235987755982988,0.0,0,-0.704658,-1.361479,1.4859557,-0.22652462,0.09168551,1.1540798,-0.47055542,-0.42567265,1.0071105,-2.2475924,-0.13651924,-0.046572287,1.5536013,-0.81199414
-0.1,-0.2,0.8999999999999999,0.5235987755982988,0.0,0,-0.68401116,-1.3706247,1.5513195,-0.267911,-0.018138932,0.99540657,-0.65010136,-0.40824875,1.014704,-2.2492006,-0.14905454,-0.0090486575,1.5458313,-0.8376832
-0.1,-0.2,0.8999999999999999,0.5235987755982988,0.0,0,-0.6814252,-1.3677739,1.5288718,-0.12477932,-0.011463358,0.987727,-0.011238923,-0.4131374,1.0105836,-2.2466264,-0.14380525,-0.053260285,1.5646359,-0.629014
-0.1,-0.2,0.8999999999999999,0.5235987755982988,0.0,0,-0.7088123,-1.3603743,1.4932213,-0.113344066,-0.4257194,1.052862,-0.34236935,-0.40809324,1.0051752,-2.2449527,-0.11671154,-0.017223049,1.5511042,-0.76470286
-0.1,-0.2,0.8999999999999999,0.5235987755982988,0.0,0,-0.7083006,-1.3702767,1.5281396,-0.09858694,-0.28633553,1.2922791,-1.8844689,-0.407289,0.99974227,-2.2408757,-0.14897953,-0.0068923463,1.5559753,-0.7780874
-0.1,-0.2,0.8999999999999999,0.5235987755982988,0.0,0,-0.7120623,-1.3721905,1.4794893,-0.072265096,0.112986006,0.98602265,-0.6832342,-0.3900452,0.9940848,-2.2154598,-0.15130636,-0.03321602,1.5575514,-0.75950575
-0.1,-0.2,0.8999999999999999,0.5235987755982988,0.0,0,-0.7119007,-1.3536385,1.4361432,-0.09865731,-0.07374499,1.3208796,-0.74803805,-0.407413,0.9964125,-2.2420235,-0.14054815,-0.015226551,1.5604225,-0.745523
-0.1,-0.2,0.8999999999999999,0.5235987755982988,0.0,0,-0.72801024,-1.3688605,1.5851728,-0.17386775,0.14397262,1.3211042,-0.24734664,-0.41455382,1.0000747,-2.2782218,-0.14989518,0.0033944724,1.5580806,-0.7964394
-0.1,-0.2,0.8999999999999999,0.5235987755982988,0.0,0,-0.6974138,-1.3668238,1.5117893,-0.028948363,0.07123355,1.0623695,-0.5314659,-0.41676864,1.0038925,-2.2676706,-0.08699921,0.0306031,1.5511911,-0.8849703
-0.1,-0.2,0.8999999999999999,0.5235987755982988,0.0,0,-0.7075528,-1.3578978,1.4416803,0.09448847,-0.14615904,1.0017716,-0.8136198,-0.41435266,1.0151815,-2.2553236,-0.15554257,-0.01012469,1.5489029,-0.78648674
-0.1,-0.2,0.8999999999999999,0.5235987755982988,0.0,0,-0.6977407,-1.3645829,1.5607114,-0.04377309,0.010992242,1.233542,-0.86735064,-0.40699965,0.99642164,-2.268546,-0.12586312,0.0011690923,1.536841,-0.6692125
-0.1,-0.2,0.8999999999999999,0.5235987755982988,0.0,0,-0.7267877,-1.3555868,1.5906771,0.012901794,0.016609028,1.0514902,-0.95080715,-0.39999998,1.0141578,-2.2677617,-0.14695033,0.0044536563,1.5463585,-0.7396787
-0.1,-0.2,0.8999999999999999,0.5235987755982988,0.0,0,-0.70633227,-1.3660462,1.5866518,-0.16793135,-0.32623404,0.9135622,0.23726745,-0.38795447,1.0166527,-2.2578573,-0.1641342,0.0038044578,1.559155,-0.822086
-0.1,-0.2,0.8999999999999999,0.5235987755982988,0.0,0,-0.7154506,-1.3533661,1.5050867,0.14503585,-0.50154614,1.1365166,-1.4174571,-0.4224624,1.0081933,-2.2725067,-0.13894098,-0.03279816,1.5600803,-0.7912334
-0.1,-0.2,0.8999999999999999,0.5235987755982988,0.0,0,-0.69839424,-1.3669293,1.4997247,-0.10324634,-0.21633023,1.1657335,-0.4161818,-0.40624398,1.0017011,-2.2527795,-0.16807057,-0.03197976,1.5689753,-0.7679029
-0.1,-0.2,0.8999999999999999,0.5235987755982988,0.0,0,-0.69092095,-1.3691119,1.4017676,-0.108737,0.053039398,0.92153364,-0.38520306,-0.40926832,1.0121307,-2.2515287,-0.13772953,-0.0139427995,1.5459759,-0.7640841
-0.1,-0.2,0.8999999999999999,0.5235987755982988,0.0,0,-0.69362247,-1.3548664,1.5206891,-0.08133319,-0.15135597,0.9128238,-0.89934826,-0.42323104,0.9938665,-2.2599926,-0.12630872,-0.074715704,1.5570266,-0.69782025
-0.1,-0.2,0.8999999999999999,0.5235987755982988,0.0,0,-0.6986735,-1.3627366,1.490595,-0.2536093,0.055432305,0.8800058,0.29630768,-0.41854757,0.9954423,-2.2556505,-0.11851195,-0.01568251,1.561619,-0.715424
-0.1,-0.2,0.8999999999999999,0.5235987755982988,0.0,0,-0.72009087,-1.3648463,1.5030804,-0.10361442,0.090051666,0.93576586,-0.8753657,-0.4063088,1.0018619,-2.2771485,-0.13433564,-0.060914237,1.5554503,-0.827195
-0.1,-0.2,0.8999999999999999,0.5235987755982988,0.0,0,-0.7241487,-1.3593463,1.463851,-0.09236456,-0.26591313,1.1263208,-0.6806673,-0.3993253,1.0006146,-2.2500725,-0.14959359,-0.06432086,1.5577062,-0.75995135
-0.1,-0.2,0.8999999999999999,0.5235987755982988,0.0,0,-0.71835196,-1.3504583,1.4652044,-0.082645,-0.40983194,1.1522866,-1.4448907,-0.41699556,1.0294712,-2.2612135,-0.10941527,-0.005013391,1.5278865,-0.75270545
-0.1,-0.2,0.8999999999999999,0.5235987755982988,0.0,0,-0.6796388,-1.3456335,1.4806987,-0.124665156,-0.7057775,1.158305,0.18521895,-0.4182126,1.002979,-2.2499385,-0.151861,-0.059041727,1.564307,-0.7220205
-0.1,-0.2,0.8999999999999999,0.5235987755982988,0.0,0,-0.7057794,-1.3753144,1.5064344,0.1522232,0.09842115,1.2283838,-0.3022774,-0.42740247,1.0274189,-2.2488651,-0.13536488,-0.07602992,1.548249,-0.8168504
-0.1,-0.2,0.8999999999999999,0.5235987755982988,0.0,0,-0.70519614,-1.3605587,1.5598476,0.029297287,-0.358888,1.2233719,-0.50502986,-0.42365956,1.0109936,-2.2525778,-0.1269024,-0.024828637,1.5458801,-0.83106446
-0.1,-0.2,0.8999999999999999,0.5235987755982988,0.0,0,-0.72585833,-1.3587325,1.5468069,-0.016869724,0.06503398,1.1157379,-0.7969397,-0.41901332,0.99080616,-2.2609584,-0.10653607,0.0006946244,1.5465297,-0.7398931
-0.1,-0.2,0.8999999999999999,0.5235987755982988,0.0,0,-0.6796205,-1.3580819,1.5843999,-0.020336673,0.175382,1.0088305,-0.8625889,-0.41452584,0.9904692,-2.2453122,-0.13539031,-0.010137943,1.556245,-0.8634963
-0.1,-0.2,0.8999999999999999,0.5235987755982988,0.0,0,-0.7017236,-1.3763323,1.5343939,0.12041044,0.009863938,0.913051,-0.22283426,-0.40547866,1.0200119,-2.2750072,-0.12574893,-0.0410129,1.5481843,-0.76924413
-0.1,-0.2,0.8999999999999999,0.5235987755982988,0.0,0,-0.68540597,-1.3612605,1.5773809,-0.0727591,-0.29899156,1.2966646,-0.4128434,-0.4070872,0.99836886,-2.279047,-0.11636673,0.019405589,1.5344487,-0.8189465
-0.1,-0.2,0.8999999999999999,0.5235987755982988,0.0,0,-0.6858582,-1.365037,1.531946,-0.036375534,-0.24893157,1.1836638,-0.13653015,-0.3944508,0.9982983,-2.2578077,-0.12033837,-0.031510495,1.5481744,-0.8121746
-0.1,-0.2,0.8999999999999999,0.5235987755982988,0.0,0,-0.7093656,-1.3547919,1.5260025,0.005765389,-0.23297913,0.9995076,-0.066045456,-0.4220748,0.9926667,-2.2390242,-0.12383485,-0.0063428856,1.5613749,-0.8407381
-0.1,-0.2,0.8999999999999999,0.5235987755982988,0.0,0,-0.7227674,-1.3613119,1.5764817,-0.11747274,-0.10462385,1.2411768,-0.8716465,-0.40324104,1.0169444,-2.28378,-0.1396336,-0.0311866,1.5458589,-0.8042593
-0.1,-0.2,0.8999999999999999,0.5235987755982988,0.0,0,-0.66399443,-1.3613033,1.5401591,-0.026706386,0.22190288,1.087741,-0.6753083,-0.39576596,0.98474145,-2.2368681,-0.12835616,-0.017079191,1.530789,-0.73815686
-0.1,-0.2,0.8999999999999999,0.5235987755982988,0.0,0,-0.6988038,-1.3672011,1.5106715,0.007987783,-0.03817574,1.0832452,-1.8878902,-0.4120733,1.0035621,-2.2553647,-0.13387653,-0.010517251,1.5573901,-0.7771361
-0.1,-0.2,0.8999999999999999,0.5235987755982988,0.0,0,-0.6909361,-1.3610436,1.4916348,0.0386044,0.42065397,1.0204362,-1.3815325,-0.41592023,1.0078454,-2.2744963,-0.1299017,-0.014441996,1.538724,-0.8148513
-0.1,-0.2,0.8999999999999999,0.5235987755982988,0.0,0,-0.69808394,-1.3645977,1.6436298,-0.13588072,-0.1557055,1.0362481,-0.93866336,-0.42170504,1.0057874,-2.2651372,-0.12076576,-0.019660082,1.5521932,-0.7690866
-0.1,-0.2,0.8999999999999999,0.5235987755982988,0.0,0,-0.71338004,-1.3734154,1.4831507,-0.0906481,-0.28661773,1.0903676,-1.690115,-0.4086563,0.9950419,-2.256973,-0.116550654,-0.009094479,1.5399768,-0.7992083
-0.1,-0.2,0.8999999999999999,0.5235987755982988,0.0,0,-0.71603996,-1.3669298,1.5219971,-0.09310356,-0.13358447,1.0610746,-0.99072635,-0.42476538,0.9806221,-2.260372,-0.11254227,-0.0029634668,1.5553155,-0.74188375
-0.1,-0.2,0.8999999999999999,0.5235987755982988,0.0,0,-0.7087426,-1.3686041,1.469274,0.1031113,-0.24791326,1.018417,0.3304292,-0.41297483,0.9958917,-2.26747,-0.11601214,-0.027176771,1.5393493,-0.6721106
-0.1,-0.2,0.8999999999999999,0.5235987755982988,0.0,0,-0.6866029,-1.3596951,1.5256473,-0.20890473,-0.031860482,0.809177,0.21577395,-0.42238498,1.0201997,-2.2548234,-0.12735209,0.028012142,1.540193,-0.7375592
-0.1,-0.2,0.8999999999999999,0.5235987755982988,0.0,0,-0.68997854,-1.3712257,1.5211116,0.06613852,-0.14349616,1.1650499,-0.7050784,-0.43967432,1.0017761,-2.257141,-0.10022087,0.025462426,1.5594145,-0.88548756
-0.1,-0.2,0.8999999999999999,0.5235987755982988,0.0,0,-0.70587474,-1.3705257,1.5577435,-0.14383854,-0.08043548,1.1265452,-0.039597623,-0.40749586,1.0170451,-2.2766478,-0.134666,-0.007709357,1.5410075,-0.7841871
-0.1,-0.2,0.8999999999999999,0.5235987755982988,0.0,0,-0.70757985,-1.366867,1.4847826,-0.19833383,-0.042465527,0.99405575,-1.4811013,-0.40915784,0.9947475,-2.2471778,-0.13036226,0.021159563,1.5375818,-0.78871477
-0.1,-0.2,0.8999999999999999,0.5235987755982988,0.0,0,-0.7018327,-1.3683302,1.488433,0.041915532,-0.066384494,1.0893989,-0.23433512,-0.39041916,1.0152118,-2.2275565,-0.15760927,-0.0042948937,1.5581305,-0.8272415
-0.1,-0.2,0.8999999999999999,0.5235987755982988,0.0,0,-0.7030092,-1.3583136,1.4867984,-0.032913152,0.20117272,1.1104139,-0.18507305,-0.39130747,0.9850293,-2.2381213,-0.14253314,-0.0263702,1.5582076,-0.8223561
-0.1,-0.2,0.8999999999999999,0.5235987755982988,0.0,0,-0.7020836,-1.3632576,1.4754106,-0.10399961,-0.5094283,1.2820889,-1.1628335,-0.41238433,1.0080963,-2.2379339,-0.11377528,-0.010799952,1.5441318,-0.71176195
-0.1,-0.2,0.8999999999999999,0.5235987755982988,0.0,0,-0.6887984,-1.362944,1.5640929,0.016986584,-0.05635576,1.0609674,-0.69307894,-0.41424048,1.0021038,-2.260343,-0.14154062,-0.035049316,1.5546826,-0.7022067
-0.1,-0.2,0.8999999999999999,0.5235987755982988,0.0,0,-0.6866257,-1.3670579,1.5132496,-0.07944698,0.03719166,0.9509647,-0.21534786,-0.41829377,0.9843119,-2.2694905,-0.11047531,0.039909296,1.5480219,-0.7548839
-0.1,-0.2,0.8999999999999999,0.5235987755982988,0.0,0,-0.6792103,-1.3617221,1.4625257,-0.15389964,-0.46280447,1.1839123,-2.095473,-0.39670798,0.99806076,-2.250285,-0.1431581,-0.071062416,1.5652184,-0.68338346
-0.1,-0.2,0.8999999999999999,0.5235987755982988,0.0,0,-0.7117636,-1.3599839,1.4790595,-0.14651331,-0.2749266,1.2865219,0.8088636,-0.4268882,0.9991087,-2.2663994,-0.122209296,-0.03543509,1.5511017,-0.6887072
-0.1,-0.2,0.8999999999999999,0.5235987755982988,0.0,0,-0.71146244,-1.3725845,1.4578949,-0.11459533,0.13338627,1.1692709,-1.1163154,-0.40268105,0.99251866,-2.2443874,-0.1467157,0.009037337,1.565613,-0.7937356
-0.1,-0.2,0.8999999999999999,0.5235987755982988,0.0,0,-0.70272166,-1.3625464,1.4874002,0.018553544,-0.34879547,0.92713356,-0.91007644,-0.4151284,1.0000604,-2.275201,-0.11998113,-0.009866733,1.538678,-0.7362594
-0.1,-0.2,0.8999999999999999,0.5235987755982988,0.0,0,-0.7079147,-1.3631691,1.5456251,-0.2571566,-0.56078166,1.0326905,-1.4074489,-0.40820003,0.999202,-2.2736118,-0.114802495,0.0029038494,1.5547054,-0.7782975
-0.1,-0.2,0.8999999999999999,0.5235987755982988,0.0,0,-0.7102387,-1.3654487,1.5562382,-0.0069588367,-0.06961837,1.0266376,-0.97777176,-0.42874798,1.0059446,-2.25736,-0.13236117,-0.020172784,1.5597768,-0.6402043
-0.1,-0.2,0.8999999999999999,0.5235987755982988,0.0,0,-0.6963161,-1.3744012,1.5457627,-0.24798289,-0.49531958,1.0321434,-1.2472435,-0.41712236,1.0223204,-2.2652621,-0.12990652,-0.024066713,1.560051,-0.84252554
-0.1,-0.2,0.8999999999999999,0.5235987755982988,0.0,0,-0.6805023,-1.3525034,1.5002514,-0.009321625,-0.05167173,0.9429914,-0.10023538,-0.41553047,1.0017049,-2.2596576,-0.106747866,-0.017216036,1.5485421,-0.8410884
-0.1,-0.2,0.8999999999999999,0.5235987755982988,0.0,0,-0.7187596,-1.3539175,1.5437276,-0.10082455,0.034171198,0.84214795,0.098079294,-0.41947484,1.0166925,-2.2730327,-0.15623693,0.011802159,1.5526861,-0.75382566
-0.1,-0.2,0.8999999999999999,0.5235987755982988,0.0,0,-0.70894974,-1.3626435,1.6285837,-0.039151505,-0.3859986,1.0939765,-2.2485716,-0.4373904,1.0117661,-2.271132,-0.10750465,-0.047391973,1.5570233,-0.7901667
-0.1,-0.2,0.8999999999999999,0.5235987755982988,0.0,0,-0.7189447,-1.3690513,1.5248581,-0.23485665,-0.047584683,1.1822075,-0.7710711,-0.4249033,0.9969244,-2.2471325,-0.115361825,-0.021708842,1.5524203,-0.714481
-0.1,-0.2,0.8999999999999999,0.5235987755982988,0.0,0,-0.7013963,-1.3632027,1.4941645,-0.2415271,0.3220402,0.90655994,-2.4521427,-0.40956953,0.99791104,-2.2447584,-0.13401124,0.001830044,1.5555578,-0.7771439
-0.1,-0.2,0.8999999999999999,0.5235987755982988,0.0,0,-0.7286416,-1.370746,1.5404805,-0.02187641,-0.1721657,1.2912021,-1.3948903,-0.39935237,1.0164279,-2.2600582,-0.11118879,-0.018888824,1.5576752,-0.90596175
-0.1,-0.2,0.8999999999999999,0.5235987755982988,0.0,0,-0.7241481,-1.3654617,1.5138297,-0.18901454,-0.15571144,0.9883601,-0.57375354,-0.4117353,1.0090967,-2.2671688,-0.12228732,-0.0023564822,1.5436138,-0.8108862
-0.1,-0.2,0.8999999999999999,0.5235987755982988,0.0,0,-0.70037186,-1.3702143,1.5126147,-0.09054467,-0.008538261,0.915319,-0.71131414,-0.41750708,1.0170608,-2.2460659,-0.08101179,-0.010370853,1.5410681,-0.80031973
-0.1,-0.2,0.8999999999999999,0.5235987755982988,0.0,0,-0.7154951,-1.3570795,1.4780971,-0.007828901,-0.03243517,1.0709211,-1.3664443,-0.4083964,0.99493176,-2.2759056,-0.12504089,0.008948271,1.5564823,-0.80911344
-0.1,-0.2,0.8999999999999999,0.5235987755982988,0.0,0,-0.6930065,-1.363861,1.4690412,-0.011046346,-0.020740038,1.2018503,-0.063221835,-0.43010336,1.0061705,-2.2336688,-0.10366044,-0.03418555,1.5453471,-0.8216694
-0.1,-0.2,0.8999999999999999,0.5235987755982988,0.0,0,-0.7048573,-1.366547,1.4747838,-0.044848807,0.0353886,1.0672305,-0.6084338,-0.39829293,1.0009465,-2.2573326,-0.14233695,0.03243999,1.5628614,-0.8206642
-0.1,-0.2,0.8999999999999999,0.5235987755982988,0.0,0,-0.7238457,-1.3707428,1.6019304,0.038884334,0.26749605,1.157839,-0.5876387,-0.40878603,1.0031103,-2.2574615,-0.12579815,-0.00044505563,1.5547729,-0.64931184
-0.1,-0.2,0.8999999999999999,0.5235987755982988,0.0,0,-0.716099,-1.3623104,1.5445586,0.08367714,-0.14107482,0.81833905,-0.97245735,-0.41160783,1.0062901,-2.2582989,-0.11015664,-0.0031101962,1.5427802,-0.7329414
-0.1,-0.2,0.8999999999999999,0.5235987755982988,0.0,0,-0.7045096,-1.3646324,1.4370003,0.022404235,-0.20161316,0.97165143,-1.5250745,-0.39583364,1.0339055,-2.2642741,-0.115351915,-0.028297326,1.5484855,-0.7196607
-0.1,-0.2,0.8999999999999999,0.5235987755982988,0.0,0,-0.7163443,-1.3732849,1.5628405,-0.26884627,-0.11893065,1.1984807,-0.9938852,-0.42157978,1.0004302,-2.2507954,-0.11066684,0.011559426,1.5316914,-0.8009527
-0.1,-0.2,0.8999999999999999,0.5235987755982988,0.0,0,-0.7019571,-1.3563628,1.5021877,-0.039679747,-0.06887732,1.104836,-0.22421409,-0.41524753,0.98986906,-2.2658393,-0.117588885,0.006994167,1.5622494,-0.7528504
-0.1,-0.2,0.8999999999999999,0.5235987755982988,0.0,0,-0.69546896,-1.3656188,1.5037934,-0.17970555,0.15862294,1.0524962,-0.9113727,-0.4095664,1.0041133,-2.2666712,-0.13265672,-0.01798516,1.5558614,-0.8320771
-0.1,-0.2,0.8999999999999999,0.5235987755982988,0.0,0,-0.7413033,-1.3709095,1.4921358,-0.026052438,0.060734488,0.9120059,-0.053335447,-0.39491415,1.013891,-2.2398584,-0.14297238,-0.0074462993,1.5480542,-0.812469
-0.1,-0.2,0.8999999999999999,0.5235987755982988,0.0,0,-0.7000703,-1.360807,1.5080175,-0.045494575,-0.018948648,0.93114024,-0.7999317,-0.41105953,1.0130974,-2.2630804,-0.1144009,-0.022458328,1.5576396,-0.8234999
-0.1,-0.2,0.8999999999999999,0.5235987755982988,0.0,0,-0.7191032,-1.3657845,1.5225255,-0.061031606,-0.12433077,1.2332566,-1.5418711,-0.41339108,0.9977026,-2.245178,-0.12945776,-0.01255195,1.558667,-0.81457496
-0.1,-0.2,0.8999999999999999,0.5235987755982988,0.0,0,-0.69671744,-1.3628299,1.4970076,-0.21423802,-0.12154456,1.0950211,-1.078228,-0.42195532,1.0095143,-2.25604,-0.11723916,-0.03593203,1.5482424,-0.841883
-0.1,-0.2,0.8999999999999999,0.5235987755982988,0.0,0,-0.68851644,-1.3580838,1.4756888,-0.19115102,0.25598234,1.170878,-1.1135452,-0.39421695,1.0148315,-2.2771692,-0.12771091,-0.011675012,1.5509315,-0.7676778
-0.1,-0.2,0.8999999999999999,0.5235987755982988,0.0,0,-0.6951661,-1.3613772,1.5543321,0.043286417,-0.079838,1.2284765,-0.8313547,-0.41722336,1.003396,-2.2838783,-0.12922058,0.020891463,1.5596393,-0.9194714
-0.1,-0.2,0.8999999999999999,0.5235987755982988,0.0,0,-0.70713806,-1.3602576,1.4850781,-0.02509847,0.16261637,1.0595924,0.052014004,-0.4000358,0.9955684,-2.2644482,-0.12464698,-0.0040683155,1.559594,-0.78300077
-0.1,-0.2,0.8999999999999999,0.5235987755982988,0.0,0,-0.70320433,-1.3650409,1.55883,-0.04370948,-0.053608034,1.0121369,-0.79060525,-0.3863164,0.99116635,-2.24494,-0.14238855,0.005251584,1.5485045,-0.8256463
-0.1,-0.2,0.8999999999999999,0.5235987755982988,0.0,0,-0.7244651,-1.358357,1.5876061,-0.020510506,-0.3714071,1.2250853,-1.1192927,-0.4160707,1.0045611,-2.2914958,-0.12027596,0.005879155,1.5588815,-0.79144764
-0.1,-0.2,0.8999999999999999,0.5235987755982988,0.0,0,-0.7232094,-1.3663234,1.5502208,-0.1240668,-0.019146554,1.0781442,-2.822344,-0.40637878,0.9919268,-2.269982,-0.115020156,-0.01637216,1.5439998,-0.80569196
-0.1,-0.2,0.8999999999999999,0.5235987755982988,0.0,0,-0.7087862,-1.3627548,1.4960196,-0.18484235,0.2556539,1.0381896,-0.79510915,-0.42369264,1.0158248,-2.2583585,-0.120288536,-0.050674114,1.5556382,-0.7165072
-0.1,-0.2,0.8999999999999999,0.5235987755982988,0.0,0,-0.7031609,-1.3669271,1.4750028,-0.13342379,0.3816371,1.2118108,-1.7886168,-0.40117654,0.99791265,-2.2341173,-0.13841517,-0.0032728408,1.5452425,-0.84811133
-0.1,-0.2,0.8999999999999999,0.5235987755982988,0.0,0,-0.7010969,-1.3643438,1.5277591,-0.14819099,-0.13251665,1.1512284,-0.5761631,-0.39923903,1.0124809,-2.2681482,-0.12919705,-0.05484615,1.5436193,-0.77861357
-0.1,-0.2,0.8999999999999999,0.5235987755982988,0.0,0,-0.7088662,-1.3693306,1.5317498,-0.001993638,-0.16828595,0.93764645,-0.0037963046,-0.4135926,1.0060322,-2.2515016,-0.120980226,-0.03645051,1.5534964,-0.6680234
-0.1,-0.2,0.8999999999999999,0.5235987755982988,0.0,0,-0.70002174,-1.3665618,1.4960492,-0.0802842,-0.42310065,1.1893144,-0.75589645,-0.40835392,1.0017829,-2.2415986,-0.1406366,-0.026859004,1.5513628,-0.782071
-0.1,-0.2,0.8999999999999999,0.5235987755982988,0.0,0,-0.6975653,-1.3612462,1.4725791,0.04985906,0.022762224,1.1260108,-1.142166,-0.41105363,0.99680275,-2.2566028,-0.11656649,-0.013671843,1.5446507,-0.6786014
-0.1,-0.2,0.8999999999999999,0.5235987755982988,0.0,0,-0.7069033,-1.3549116,1.4735925,-0.17601618,0.117964186,1.1898872,0.2905956,-0.41744223,1.0239055,-2.2581482,-0.13384831,-0.04321147,1.5691868,-0.79124105
-0.1,-0.2,0.8999999999999999,0.5235987755982988,0.0,0,-0.7198152,-1.3633771,1.5077294,-0.10166994,0.14141192,0.80256003,-0.3026514,-0.38858387,0.9858604,-2.2507017,-0.11725879,-0.05308289,1.5591989,-0.8225448
-0.1,-0.2,0.8999999999999999,0.5235987755982988,0.0,0,-0.6913084,-1.3625234,1.4988894,-0.13912572,-0.25204173,1.0028872,-1.2836972,-0.4103326,1.0031589,-2.276787,-0.12191777,-0.030621411,1.5490512,-0.8184959
-0.1,-0.2,0.8999999999999999,0.5235987755982988,0.0,0,-0.7093082,-1.371613,1.4664824,-0.27007467,-0.12050541,0.99820894,-1.487501,-0.405648,1.0047877,-2.2446449,-0.11161859,-0.02633786,1.5480514,-0.7111026
-0.1,-0.2,0.8999999999999999,0.5235987755982988,0.0,0,-0.7054019,-1.3589242,1.5675042,0.061802853,0.022330258,1.2033423,-1.6009445,-0.40081573,1.003843,-2.2661507,-0.11033394,-0.010605746,1.5435978,-0.8058211
-0.1,-0.2,0.8999999999999999,0.5235987755982988,0.0,0,-0.68673253,-1.3598062,1.5809151,-0.058446564,-0.2840461,0.84791714,0.0399855,-0.3965496,1.0071434,-2.2471015,-0.116050504,-0.003587194,1.5457194,-0.8199081
-0.1,-0.2,0.8999999999999999,0.5235987755982988,0.0,0,-0.6755556,-1.3608563,1.540804,-0.20416482,-0.04503757,0.8827651,-0.24317808,-0.41750887,0.9938375,-2.2569711,-0.106127314,-0.017332999,1.5600076,-0.76186585
-0.1,-0.2,0.8999999999999999,0.5235987755982988,0.0,0,-0.69522095,-1.3558177,1.5686468,0.035570327,-0.43705934,0.95829314,0.79714113,-0.3979151,1.0103737,-2.2824893,-0.120515436,0.007822283,1.5393622,-0.78731495
-0.1,-0.2,0.8999999999999999,0.5235987755982988,0.0,0,-0.7185157,-1.3674632,1.5404071,-0.10602437,-0.4056184,1.0222288,-1.0870827,-0.4064454,1.0001888,-2.2605605,-0.12582217,-0.026038183,1.549055,-0.80629486
-0.1,-0.2,0.8999999999999999,0.5235987755982988,0.0,0,-0.69174397,-1.3571177,1.5122873,-0.12791573,0.07020527,1.1656107,0.20864531,-0.39683613,0.988277,-2.2645748,-0.1019089,-0.056806277,1.5422045,-0.7685776
-0.1,-0.2,0.8999999999999999,0.5235987755982988,0.0,0,-0.7259371,-1.3637257,1.5055873,-0.07180653,-0.124802634,1.1186358,-0.0253402,-0.40262562,1.0053315,-2.262081,-0.14504202,-0.007847748,1.5487428,-0.70703775
-0.1,-0.2,0.8999999999999999,0.5235987755982988,0.0,0,-0.70226663,-1.3624225,1.500964,-0.16265799,-0.33590215,1.207081,-0.7085147,-0.41133484,0.9935427,-2.2481472,-0.11433549,0.011018064,1.5497948,-0.8076179
-0.1,-0.2,0.8999999999999999,0.5235987755982988,0.0,0,-0.69271207,-1.3571824,1.4502776,-0.14951152,-0.12751411,1.2318506,-1.2368811,-0.40129033,0.9903695,-2.2440426,-0.11770786,0.007985864,1.5497509,-0.72899014
-0.1,-0.2,0.8999999999999999,0.5235987755982988,0.0,0,-0.743064,-1.3608978,1.4591177,-0.11369039,0.37869737,1.01905,-0.40973935,-0.41659918,1.0116496,-2.2647302,-0.12717824,-0.012603503,1.554226,-0.69402146
-0.1,-0.2,0.8999999999999999,0.5235987755982988,0.0,0,-0.71457475,-1.3698269,1.427952,-0.1921781,-0.13466308,1.0250592,-0.702049,-0.40053385,1.0006263,-2.2465057,-0.10441502,-0.001871778,1.5446849,-0.58080894
-0.1,-0.2,0.8999999999999999,0.5235987755982988,0.0,0,-0.71340203,-1.3672931,1.5203472,0.016499663,0.26576486,0.9769481,-1.6386287,-0.39309075,1.0134321,-2.2328176,-0.13837023,-0.081884086,1.5578794,-0.73360354
-0.1,-0.2,0.8999999999999999,0.5235987755982988,0.0,0,-0.72245806,-1.3654298,1.4870304,0.0017039934,-0.008825916,0.95589817,-1.3929459,-0.42202628,1.0013893,-2.2507925,-0.117825784,-0.0016937978,1.5515018,-0.8400382
-0.1,-0.2,0.8999999999999999,0.5235987755982988,0.0,0,-0.71985936,-1.3581225,1.487038,-0.002052098,-0.23368691,0.8969142,-1.0832512,-0.4322305,1.0098311,-2.2470276,-0.12047854,-0.030618157,1.5534716,-0.77255297
-0.1,-0.2,0.8999999999999999,0.5235987755982988,0.0,0,-0.6992537,-1.3648099,1.5419537,-0.10179083,0.13231273,1.1835412,-0.57057476,-0.39970288,1.0089087,-2.2740314,-0.1323821,-0.017571945,1.5459398,-0.77554953
-0.1,-0.2,0.8999999999999999,0.5235987755982988,0.0,0,-0.720218,-1.3642449,1.557815,0.023437852,-0.36920846,1.1680746,0.18589416,-0.4003861,1.0018342,-2.253294,-0.13865292,-0.015973995,1.5593684,-0.68556786
-0.1,-0.2,0.8999999999999999,0.5235987755982988,0.0,0,-0.7076374,-1.3465383,1.4999688,-0.01341103,-0.6201278,0.9767346,-0.7055788,-0.40914413,1.0057418,-2.2503922,-0.13698244,-0.05150886,1.5575889,-0.7098936
-0.1,-0.2,0.8999999999999999,0.5235987755982988,0.0,0,-0.70086884,-1.3599076,1.4281368,-0.11034844,-0.38098222,0.9890816,-0.57905227,-0.40183103,1.002737,-2.2657301,-0.12500449,0.0042051664,1.5546082,-0.79895884
-0.1,-0.2,0.8999999999999999,0.5235987755982988,0.0,0,-0.71910226,-1.3586969,1.4855185,-0.1201807,-0.12877849,0.96068436,-1.7568114,-0.42555118,1.0222471,-2.2650588,-0.12854007,-0.00532967,1.545292,-0.77276033
-0.1,-0.2,0.8999999999999999,0.5235987755982988,0.0,0,-0.693028,-1.3634533,1.5354474,-0.08799005,-0.028106062,1.0328566,-0.6399242,-0.41886425,0.9900172,-2.2443526,-0.119472995,-0.010190496,1.552541,-0.8582171
-0.1,-0.2,0.8999999999999999,0.5235987755982988,0.0,0,-0.70093864,-1.3701727,1.4575087,-0.1207202,-0.3429255,1.1589279,-0.93647516,-0.41480604,1.0292376,-2.2921007,-0.113502234,0.005000372,1.5490035,-0.77413505
-0.1,-0.2,0.8999999999999999,0.5235987755982988,0.0,0,-0.71295834,-1.3569673,1.5621061,-0.19376305,-0.39260814,1.0807627,-0.1200264,-0.39889887,1.0202928,-2.2915487,-0.13120334,-0.0049336716,1.5564134,-0.7106583
-0.1,-0.2,0.8999999999999999,0.5235987755982988,0.0,0,-0.6979709,-1.3590311,1.4697998,-0.17014113,-0.07249081,1.3610241,-0.7459645,-0.40129066,1.0023181,-2.2601795,-0.13611381,-0.02165792,1.5490527,-0.76579714
-0.1,-0.2,0.8999999999999999,0.5235987755982988,0.0,0,-0.69836,-1.3683064,1.5431333,-0.02293231,-0.10513096,1.1451,-0.42180738,-0.39861178,0.9805703,-2.217614,-0.1169216,0.014932161,1.5430578,-0.7699807
-0.1,-0.2,0.8999999999999999,0.5235987755982988,0.0,0,-0.69577414,-1.3627737,1.5857015,0.042406067,-0.027010793,1.0827348,0.124987364,-0.38050047,0.9953952,-2.2735417,-0.084641546,-0.050753307,1.5511386,-0.7729635
-0.1,-0.2,0.8999999999999999,0.5235987755982988,0.0,0,-0.7005508,-1.3727944,1.5030069,-0.079591736,-0.27644667,1.1378801,-0.6865895,-0.40092465,1.0117193,-2.246249,-0.13666818,-0.0209164,1.5514716,-0.7411809
-0.1,-0.2,0.8999999999999999,0.5235987755982988,0.0,0,-0.691117,-1.3634881,1.53576,-0.14258432,0.07404878,1.0236602,-0.96265596,-0.40139118,1.0023081,-2.2742887,-0.11657181,0.04028964,1.5504638,-0.63449174
-0.1,-0.2,0.8999999999999999,0.5235987755982988,0.0,0,-0.7264694,-1.3624455,1.5169795,-0.036439124,-0.40555263,1.0359968,-1.0137221,-0.41055465,1.024337,-2.2470934,-0.12678196,-0.0057534208,1.5591793,-0.6954686
-0.1,-0.2,0.8999999999999999,0.5235987755982988,0.0,0,-0.70080435,-1.362177,1.5738707,-0.15904893,0.070574485,1.161174,-1.039024,-0.40769294,0.990667,-2.258632,-0.11336706,0.004341192,1.5441502,-0.82988435
-0.1,-0.2,0.8999999999999999,0.5235987755982988,0.0,0,-0.6808208,-1.3761683,1.5368924,0.013792785,-0.087150164,1.1822894,-0.7930487,-0.4213394,0.9870956,-2.288607,-0.10139409,-0.014134166,1.5462166,-0.8502654
-0.1,-0.2,0.8999999999999999,0.5235987755982988,0.0,0,-0.7052398,-1.361299,1.4808652,0.071788974,-0.38466194,0.96828425,-0.70190936,-0.38658983,1.0031855,-2.2659461,-0.12563467,-0.0781889,1.5562755,-0.68814355
-0.1,-0.2,0.8999999999999999,0.5235987755982988,0.0,0,-0.70762986,-1.3595679,1.4958639,0.15043204,0.32955945,0.8137808,-0.4104608,-0.41602275,1.0053279,-2.2846584,-0.13196379,-0.041253794,1.562448,-0.8033408
-0.1,-0.2,0.8999999999999999,0.5235987755982988,0.0,0,-0.6989395,-1.3617827,1.4870231,0.06406495,-0.2255673,1.0006013,-1.1908339,-0.3974616,1.0117484,-2.2824478,-0.11903539,-0.016047252,1.5433496,-0.8087489
-0.1,-0.2,0.8999999999999999,0.5235987755982988,0.0,0,-0.68752366,-1.3612478,1.4895087,0.08323456,-0.13038822,1.0048966,-0.7893783,-0.42106146,1.0009272,-2.2392116,-0.10708277,-0.03812092,1.5487108,-0.78558594
-0.1,-0.2,0.8999999999999999,0.5235987755982988,0.0,0,-0.6944311,-1.3617682,1.5302943,-0.009725588,-0.18686546,1.2085029,0.40694654,-0.39768118,0.9963764,-2.248214,-0.1097986,-0.033681367,1.5522261,-0.7987918
-0.1,-0.2,0.8999999999999999,0.5235987755982988,0.0,0,-0.7076484,-1.3523645,1.4891164,0.08008496,0.2732765,1.0178962,0.1230384,-0.40298748,1.010446,-2.2698023,-0.14046635,-0.001984548,1.5521017,-0.79623395
-0.1,-0.2,0.8999999999999999,0.5235987755982988,0.0,0,-0.704025,-1.3625892,1.4508325,-0.01699266,-0.0045350483,0.8877091,0.33058092,-0.42299545,1.0209054,-2.2652986,-0.10864376,-0.032882564,1.5361984,-0.90229845
-0.1,-0.2,0.8999999999999999,0.5235987755982988,0.0,0,-0.70067424,-1.3676523,1.5352105,-0.36493117,-0.045727678,1.0366299,-0.40526557,-0.41795754,0.99274117,-2.2615557,-0.117850766,0.009715764,1.554968,-0.7580526
-0.1,-0.2,0.8999999999999999,0.5235987755982988,0.0,0,-0.70556456,-1.3592017,1.5199294,-0.041722443,0.21225329,0.9674269,0.0823495,-0.40029854,0.9951604,-2.2743258,-0.10915782,0.00042038248,1.5419875,-0.7779868
-0.1,-0.2,0.8999999999999999,0.5235987755982988,0.0,0,-0.70146465,-1.374075,1.5307862,-0.16970327,0.26920244,1.2677917,-0.63521683,-0.396411,0.9966405,-2.2423933,-0.1021347,-0.030385286,1.5483828,-0.7698092
-0.1,-0.2,0.8999999999999999,0.5235987755982988,0.0,0,-0.7027906,-1.3636382,1.5576191,-0.059898496,-0.1250251,1.1428726,-0.2021639,-0.3889645,0.9993105,-2.290934,-0.13806993,0.0063359253,1.5569007,-0.82308817
-0.1,-0.2,0.8999999999999999,0.5235987755982988,0.0,0,-0.68361574,-1.3675439,1.5128849,-0.16075076,-0.42754593,0.92619836,-0.42922974,-0.4170088,1.0026562,-2.2586038,-0.10810854,-0.060211122,1.5674396,-0.7701556
-0.1,-0.2,0.8999999999999999,0.5235987755982988,0.0,0,-0.6824772,-1.3614948,1.5080012,0.036966283,0.38089648,1.0001148,-0.63548046,-0.4029611,1.0240136,-2.2627738,-0.121273935,-0.013151101,1.5461942,-0.8105175
-0.1,-0.2,0.8999999999999999,0.5235987755982988,0.0,0,-0.6759046,-1.3726206,1.5660074,-0.029669581,-0.30855897,0.8610936,-1.2550501,-0.4192509,1.0207702,-2.2554948,-0.07393187,0.012822253,1.5398163,-0.8473104
-0.1,-0.2,0.8999999999999999,0.5235987755982988,0.0,0,-0.71905154,-1.3575398,1.5426408,0.0128470985,0.065579504,1.344896,-0.4233165,-0.40945286,0.9964055,-2.2420952,-0.12307362,-0.008103121,1.5643909,-0.71557885
-0.1,-0.2,0.8999999999999999,0.5235987755982988,0.0,0,-0.6981585,-1.3618654,1.5092232,-0.08132447,0.075512774,1.0938315,-0.7111543,-0.42993206,1.0151175,-2.279987,-0.1266481,-0.006113853,1.5572965,-0.8244506
-0.1,-0.2,0.8999999999999999,0.5235987755982988,0.0,0,-0.6827851,-1.3649248,1.4451759,-0.23211978,-0.17891325,0.9717849,-0.6584542,-0.40650067,0.9978175,-2.2361681,-0.11364924,-0.0137626035,1.555284,-0.75700563
-0.1,-0.2,0.8999999999999999,0.5235987755982988,0.0,0,-0.72737485,-1.3598794,1.4890312,0.055264562,-0.36305186,1.0130398,-0.6400535,-0.43038887,0.99452746,-2.2259994,-0.11953086,0.015244876,1.5572755,-0.73806953
-0.1,-0.2,0.8999999999999999,0.5235987755982988,0.0,0,-0.7167497,-1.3683282,1.4853745,-0.059539825,-0.25003952,1.0308784,0.15700954,-0.41763544,1.0154345,-2.2621102,-0.10171871,-0.037356302,1.553511,-0.8156234
-0.1,-0.2,0.8999999999999999,0.5235987755982988,0.0,0,-0.7039199,-1.3585925,1.5742737,-0.08500414,0.15056038,1.5322896,0.71772444,-0.40844557,1.0174195,-2.2387848,-0.10672722,-0.03792035,1.5523573,-0.736544
-0.1,-0.2,0.8999999999999999,0.5235987755982988,0.0,0,-0.6853191,-1.37108,1.4618655,-0.09549222,-0.38748866,1.1646632,0.81723076,-0.40547428,0.9989332,-2.2235098,-0.112244874,-0.040080655,1.5632658,-0.8356274
-0.1,-0.2,0.8999999999999999,0.5235987755982988,0.0,0,-0.7204884,-1.3637452,1.4462558,-0.012866475,-0.031096008,1.15232,-1.6610945,-0.42487052,1.0140836,-2.2429469,-0.118493035,-0.012402386,1.5482811,-0.8767412
-0.1,-0.2,0.8999999999999999,0.5235987755982988,0.0,0,-0.6746579,-1.3604575,1.5184637,0.08657076,-0.1815454,0.8656823,-0.35304105,-0.41500184,1.0104635,-2.250563,-0.10150981,-0.020525789,1.5557318,-0.7689076
-0.1,-0.2,0.8999999999999999,0.5235987755982988,0.0,0,-0.7131506,-1.3579216,1.5449967,-0.30308688,-0.13141014,1.0873787,-0.35234842,-0.41533855,1.0211297,-2.2396464,-0.12293942,-0.0054102377,1.5583143,-0.6717517
-0.1,-0.2,0.8999999999999999,0.5235987755982988,0.0,0,-0.71116215,-1.349356,1.4982686,-0.10633602,-0.14244458,0.95407075,-0.41468862,-0.39902264,0.9969135,-2.2528021,-0.11015701,-0.0021817076,1.5578347,-0.8308962
-0.1,-0.2,0.8999999999999999,0.5235987755982988,0.0,0,-0.71793824,-1.3645117,1.4670223,0.012612711,0.2920267,1.048112,-0.5340048,-0.40925792,1.0046928,-2.222181,-0.13084465,-0.035125453,1.5553613,-0.7414037
-0.1,-0.2,0.8999999999999999,0.5235987755982988,0.0,0,-0.71234345,-1.3590102,1.4922619,-0.09823067,-0.018460948,1.0621319,-0.5095752,-0.40509158,1.0104586,-2.2595444,-0.13892081,-0.02383884,1.5584542,-0.8683795
-0.1,-0.2,0.8999999999999999,0.5235987755982988,0.0,0,-0.73734504,-1.3612814,1.4756819,-0.21663822,-0.20848857,0.9686334,-1.3357452,-0.3974793,1.0001111,-2.238316,-0.108818285,-0.00861222,1.5572342,-0.8204029
-0.1,-0.2,0.8999999999999999,0.5235987755982988,0.0,0,-0.6970123,-1.3637863,1.5020949,-0.033068642,0.07119093,0.9597413,0.08852779,-0.42029214,1.0286914,-2.2636428,-0.12348618,0.037899345,1.5518944,-0.80667883
-0.1,-0.2,0.8999999999999999,0.5235987755982988,0.0,0,-0.71095866,-1.3722548,1.5208616,-0.0051492904,-0.32651356,1.2972236,-1.1107388,-0.4128353,0.99380046,-2.2536948,-0.09783176,-0.017115625,1.5553148,-0.7847783
-0.1,-0.2,0.8999999999999999,0.5235987755982988,0.0,0,-0.6712387,-1.3545015,1.5453377,-0.064926475,-0.30031174,1.0052296,-1.0116543,-0.39452752,1.0175303,-2.258291,-0.13360356,-0.0046902667,1.5509543,-0.7702186
-0.1,-0.2,0.8999999999999999,0.5235987755982988,0.0,0,-0.70288205,-1.361636,1.4392124,0.034330927,-0.48242956,0.9650217,-1.5538245,-0.3970998,0.9944061,-2.2392054,-0.10418025,-0.0049310313,1.5487913,-0.81739026
-0.1,-0.2,0.8999999999999999,0.5235987755982988,0.0,0,-0.6971889,-1.3527762,1.4961479,-0.1161472,0.16142045,1.1124972,-0.6486198,-0.41543317,1.0003778,-2.2469306,-0.100581005,-0.044488873,1.544971,-0.79301864
-0.1,-0.2,0.8999999999999999,0.5235987755982988,0.0,0,-0.7196971,-1.3519958,1.5658481,-0.16043068,-0.06090617,0.8858287,-0.24402823,-0.41554114,1.0156499,-2.2369967,-0.10405819,-0.009707337,1.5458579,-0.7564266
-0.1,-0.2,0.8999999999999999,0.5235987755982988,0.0,0,-0.6650762,-1.3578281,1.4656336,-0.00039946023,-0.32524347,1.0808591,-0.85103905,-0.4144331,1.0314715,-2.281072,-0.11604633,-0.03483091,1.5598603,-0.7249312
-0.1,-0.2,0.8999999999999999,0.5235987755982988,0.0,0,-0.6894256,-1.3550369,1.6112701,-0.10528778,0.07140296,1.0163907,-0.143772,-0.39577764,0.98569274,-2.234074,-0.10966215,0.003003479,1.5459915,-0.74875
-0.1,-0.2,0.8999999999999999,0.5235987755982988,0.0,0,-0.70728934,-1.3682654,1.5726801,0.0399863,0.20562004,1.0321184,-1.5049696,-0.38244203,1.0326422,-2.2658381,-0.10815084,0.008936537,1.5636477,-0.81173366
-0.1,-0.2,0.8999999999999999,0.5235987755982988,0.0,0,-0.70840144,-1.3638765,1.4908459,-0.20464306,-0.62572294,1.2215097,-1.012664,-0.4180445,1.0019134,-2.2319932,-0.14805683,-0.014807984,1.55418,-0.78810215
-0.1,-0.2,0.8999999999999999,0.5235987755982988,0.0,0,-0.7204072,-1.3668889,1.5285717,-0.16670546,-0.108187295,1.0722609,-1.0508873,-0.41178066,0.9982079,-2.2731113,-0.14343497,-0.031848375,1.5361043,-0.8143247
-0.1,-0.2,0.8999999999999999,0.5235987755982988,0.0,0,-0.7227069,-1.366816,1.5132066,-0.24602696,-0.0795939,1.25847,-0.7395443,-0.41718504,1.0089527,-2.2366853,-0.10772189,0.023953097,1.555159,-0.8440766
-0.1,-0.2,0.8999999999999999,0.5235987755982988,0.0,0,-0.6978769,-1.3593926,1.511075,0.051672522,-0.25132805,1.1904347,-1.5550523,-0.41513848,1.0024762,-2.2390928,-0.11148067,0.03286368,1.5486765,-0.8060231
-0.1,-0.2,0.8999999999999999,0.5235987755982988,0.0,0,-0.7192015,-1.3585492,1.4473989,-0.007113448,-0.2454999,1.2133355,-0.93521166,-0.42661026,1.0045462,-2.251231,-0.1330656,-0.067462526,1.5470552,-0.74062735
-0.1,-0.2,0.8999999999999999,0.5235987755982988,0.0,0,-0.69755864,-1.3543272,1.5297943,-0.110250026,-0.23364224,1.1581765,0.46026567,-0.42220947,1.0068573,-2.2490687,-0.12070756,-0.009086034,1.5601339,-0.74448836
-0.1,-0.2,0.8999999999999999,0.5235987755982988,0.0,0,-0.7120906,-1.3643835,1.512508,-0.1485886,0.26267305,0.80737805,-0.20148242,-0.39015034,0.9943925,-2.2829263,-0.1458706,-0.029432166,1.5444808,-0.73951447
-0.1,-0.2,0.8999999999999999,0.5235987755982988,0.0,0,-0.7024105,-1.3682736,1.4191267,-0.23354317,-0.3119904,1.23505,-0.40947485,-0.39755064,1.0022097,-2.2612689,-0.12720318,-0.06324781,1.5538602,-0.890565
-0.1,-0.2,0.8999999999999999,0.5235987755982988,0.0,0,-0.70047724,-1.3656119,1.4772259,-0.053398326,-0.4122762,1.1515017,-1.764566,-0.41448253,1.0050011,-2.2682204,-0.13054764,-0.048827074,1.5615833,-0.76689875
-0.1,-0.2,0.8999999999999999,0.5235987755982988,0.0,0,-0.6809297,-1.36517,1.4324341,-0.11191021,0.08289772,0.995647,-0.96257937,-0.42594185,1.0041598,-2.2775087,-0.13374689,0.003445936,1.539815,-0.8362689
-0.1,-0.2,0.8999999999999999,0.5235987755982988,0.0,0,-0.7247833,-1.3592352,1.5766584,-0.2358513,0.26199752,0.9132671,-1.2760745,-0.40268797,1.0160809,-2.2283075,-0.10332146,-0.033817235,1.5496747,-0.8386733
-0.1,-0.2,0.8999999999999999,0.5235987755982988,0.0,0,-0.7176949,-1.3705462,1.4969015,-0.050105363,-0.35023752,0.8693556,0.466273,-0.40810215,1.0003568,-2.2853553,-0.123443305,0.008544139,1.5456492,-0.76390743
-0.1,-0.2,0.8999999999999999,0.5235987755982988,0.0,0,-0.73454106,-1.3552116,1.5687208,-0.12381419,0.064479165,1.1446483,-1.1782918,-0.41286033,1.015473,-2.2348635,-0.12811257,-0.049168073,1.5350094,-0.77446336
-0.1,-0.2,0.8999999999999999,0.5235987755982988,0.0,0,-0.70926595,-1.3632511,1.4943388,-0.081159726,-0.058731437,1.141961,-0.25679815,-0.42824623,0.9985643,-2.275548,-0.12562053,0.02207258,1.5455054,-0.91381866
-0.1,-0.2,0.8999999999999999,0.5235987755982988,0.0,0,-0.72829163,-1.3620378,1.5557885,-0.17560968,-0.062778465,1.0115834,-1.2179424,-0.410683,0.9995785,-2.24017,-0.14577158,-0.03300187,1.5517335,-0.84888786
-0.1,-0.2,0.8999999999999999,0.5235987755982988,0.0,0,-0.71631503,-1.3693812,1.5336293,-0.32251486,0.014405259,1.0243508,-0.6556893,-0.41387966,1.0046339,-2.2644541,-0.13294572,-0.050337873,1.5589294,-0.8510061
-0.1,-0.2,0.8999999999999999,0.5235987755982988,0.0,0,-0.70374674,-1.3707823,1.5255775,-0.1904417,0.028265813,0.9586576,-1.5536382,-0.3922004,0.9908177,-2.2725322,-0.10508678,-0.0014819459,1.5631977,-0.78032196
-0.1,-0.2,0.8999999999999999,0.5235987755982988,0.0,0,-0.7028283,-1.3601092,1.4877378,-0.028564205,0.21766807,1.2227943,-0.24485587,-0.41976827,0.9938032,-2.2340388,-0.12103584,-0.004040728,1.5555698,-0.89112514
-0.1,-0.2,0.8999999999999999,0.5235987755982988,0.0,0,-0.7171233,-1.3585484,1.522732,-0.09880618,0.04103294,0.85181105,-0.3219329,-0.43005335,1.0198182,-2.2669103,-0.14741893,-0.015333693,1.5667219,-0.7656105
-0.1,-0.2,0.8999999999999999,0.5235987755982988,0.0,0,-0.6817238,-1.3700011,1.5119536,-0.043925975,-0.13129105,1.041703,-0.7372653,-0.42119196,0.98978364,-2.2471178,-0.12683155,0.015445701,1.5302081,-0.79703695
-0.1,-0.2,0.8999999999999999,0.5235987755982988,0.0,0,-0.7187048,-1.3673196,1.4500884,-0.13410273,-0.29729065,1.3165432,-0.18506171,-0.39157325,0.9995551,-2.2230985,-0.17250304,-0.031308994,1.566057,-0.8429424
-0.1,-0.2,0.8999999999999999,0.5235987755982988,0.0,0,-0.6976776,-1.3571151,1.5428205,0.10732944,-0.4770517,0.83481395,-0.9989408,-0.4353545,0.9962318,-2.2335634,-0.1275272,0.027059786,1.5520815,-0.8788661
-0.1,-0.2,0.8999999999999999,0.5235987755982988,0.0,0,-0.7234023,-1.3549343,1.4884914,-0.13789678,0.6188143,1.1466311,-1.0274087,-0.39284435,0.9973355,-2.2649398,-0.15587321,-0.012354643,1.557335,-0.84527045
-0.1,-0.2,0.8999999999999999,0.5235987755982988,0.0,0,-0.70214224,-1.363923,1.5301903,0.03666304,-0.074386224,1.0308393,-0.06863376,-0.40193337,0.9886019,-2.2436259,-0.12258925,-0.035233967,1.5332383,-0.8238767
-0.1,-0.2,0.8999999999999999,0.5235987755982988,0.0,0,-0.7142326,-1.3526795,1.5573862,0.19646819,-0.27234158,1.0541307,-0.88423854,-0.3959995,0.9994148,-2.236386,-0.1092276,-0.020287544,1.5502416,-0.8739735
-0.1,-0.2,0.8999999999999999,0.5235987755982988,0.0,0,-0.71108097,-1.369897,1.5336504,0.06989092,0.26936495,1.1549265,-1.3517171,-0.41371572,1.0042397,-2.2711995,-0.12546037,-0.04101283,1.565878,-0.8359444
-0.1,-0.2,0.8999999999999999,0.5235987755982988,0.0,0,-0.70698303,-1.3573011,1.5412396,-0.07837841,-0.11058313,1.1735834,-0.3436397,-0.409935,1.0034469,-2.2547607,-0.116382726,0.0011784425,1.5511833,-0.89578116
-0.1,-0.2,0.8999999999999999,0.5235987755982988,0.0,0,-0.7202477,-1.3623694,1.5319932,-0.19846548,-0.45697597,1.1151434,0.23263218,-0.40287346,1.0157498,-2.2507062,-0.1246344,-0.02698789,1.5664289,-0.79950476
-0.1,-0.2,0.8999999999999999,0.5235987755982988,0.0,0,-0.72498035,-1.3596268,1.4687997,-0.09685734,-0.45062673,1.1281188,-2.1418612,-0.39562535,1.0165029,-2.2856622,-0.12602963,0.003488079,1.559474,-0.91209674
