sanky1234/BimanualDexCatch/isaacgymenvs/cem_results/football_pose_0.0_0.1_1.0999999999999999_0.5235987755982988_0.5235987755982988_0_2025-05-26.csv
x,y,z,roll,pitch,yaw,robot1/joint1,robot1/joint2,robot1/joint3,robot1/joint4,robot1/joint5,robot1/joint6,robot1/joint7,robot2/joint1,robot2/joint2,robot2/joint3,robot2/joint4,robot2/joint5,robot2/joint6,robot2/joint7
0.0,0.1,1.0999999999999999,0.5235987755982988,0.5235987755982988,0,0.03595475,-0.33595824,-2.1738794,0.03172879,0.2755097,1.3773339,-0.8244171,1.1011605,-1.8364681,-0.040678855,0.009252438,-0.08560989,1.2420282,0.78664243
0.0,0.1,1.0999999999999999,0.5235987755982988,0.5235987755982988,0,0.033953134,-0.33741257,-2.171802,0.031183328,0.11183331,1.338144,-0.31682333,1.1303657,-1.8360363,-0.067971274,-0.07327151,-0.025537701,1.245276,0.33148557
0.0,0.1,1.0999999999999999,0.5235987755982988,0.5235987755982988,0,0.03705574,-0.33686864,-2.1726186,0.03184798,0.20450774,1.2991736,-0.1735126,1.1035566,-1.8323126,-0.028308652,-0.037029225,0.0025290698,1.233443,-0.83482444
0.0,0.1,1.0999999999999999,0.5235987755982988,0.5235987755982988,0,0.03601145,-0.33734784,-2.1734087,0.034298573,0.16555735,1.3381912,1.2392373,1.1262214,-1.8403908,0.15502751,-0.060431737,0.026091877,1.2252768,-1.2434657
0.0,0.1,1.0999999999999999,0.5235987755982988,0.5235987755982988,0,0.036487147,-0.33751705,-2.1722548,0.033240985,0.21915914,1.3400513,-0.31542382,1.1432507,-1.8599852,-0.17342263,-0.08528129,-0.3681319,1.2463818,-1.3817337
0.0,0.1,1.0999999999999999,0.5235987755982988,0.5235987755982988,0,0.035104588,-0.3389616,-2.174552,0.036843725,0.30038217,1.3451543,0.7655909,1.1054764,-1.8529733,-0.03950887,-0.074840106,-0.2039768,1.3046366,-0.679569
0.0,0.1,1.0999999999999999,0.5235987755982988,0.5235987755982988,0,0.03512396,-0.338476,-2.1759827,0.037082095,0.2531622,1.3115202,-0.5526574,1.1203456,-1.8689594,-0.059070885,-0.13501705,-0.14050326,1.2369173,0.08864731
0.0,0.1,1.0999999999999999,0.5235987755982988,0.5235987755982988,0,0.03591185,-0.33606535,-2.1736608,0.03445781,0.2104597,1.403825,-1.4005091,1.1046381,-1.8398646,0.09065786,-0.07338144,-0.31110525,1.2134446,-0.31661978
0.0,0.1,1.0999999999999999,0.5235987755982988,0.5235987755982988,0,0.035119753,-0.33844802,-2.175376,0.039709426,0.21277778,1.311408,-1.2934076,1.1377786,-1.846408,-0.02995528,-0.053230733,-0.19094755,1.2360319,-1.1181431
0.0,0.1,1.0999999999999999,0.5235987755982988,0.5235987755982988,0,0.036320448,-0.33782652,-2.1765637,0.035390005,0.30164883,1.3599564,0.0017320298,1.1404961,-1.8501083,-0.090743914,-0.058527652,-0.072949015,1.269239,-0.3435432
0.0,0.1,1.0999999999999999,0.5235987755982988,0.5235987755982988,0,0.035700113,-0.33648223,-2.1738832,0.030303271,0.16034888,1.3315014,-0.5980334,1.1481576,-1.8356216,-0.07018888,-0.08211769,-0.056473125,1.260901,-0.8361997
0.0,0.1,1.0999999999999999,0.5235987755982988,0.5235987755982988,0,0.03389462,-0.33746248,-2.1746724,0.03749783,0.2672769,1.3199662,-0.18314348,1.0957781,-1.8410087,-0.026923466,-0.06407656,-0.22474517,1.2387526,0.67557
0.0,0.1,1.0999999999999999,0.5235987755982988,0.5235987755982988,0,0.0375534,-0.33579496,-2.1770203,0.02498174,0.2636486,1.280076,0.7072963,1.1056124,-1.8563708,-0.03686473,-0.053253494,-0.09936904,1.2733277,0.38059613
0.0,0.1,1.0999999999999999,0.5235987755982988,0.5235987755982988,0,0.035710804,-0.33632642,-2.1762502,0.03979216,0.18301862,1.3817382,0.21521635,1.1148229,-1.8328573,0.035894543,-0.053835876,0.12099909,1.2414076,-0.34064013
0.0,0.1,1.0999999999999999,0.5235987755982988,0.5235987755982988,0,0.03444163,-0.3372452,-2.1731963,0.03403996,0.18424168,1.3580074,-0.6427822,1.1187134,-1.8446776,-0.122013085,-0.07551209,-0.06839775,1.2579566,-0.3496826
0.0,0.1,1.0999999999999999,0.5235987755982988,0.5235987755982988,0,0.03480735,-0.33896756,-2.1745906,0.0309269,0.25916702,1.3476423,-0.1315286,1.1220474,-1.8516515,-0.08005402,-0.08201686,-0.053821407,1.2587631,0.033154998
0.0,0.1,1.0999999999999999,0.5235987755982988,0.5235987755982988,0,0.035946872,-0.3378093,-2.1740673,0.025100566,0.22421385,1.391302,-0.37381047,1.1265101,-1.8404,0.12496005,-0.059730507,0.014272552,1.2306876,-0.043486897
0.0,0.1,1.0999999999999999,0.5235987755982988,0.5235987755982988,0,0.03709266,-0.33721656,-2.1751692,0.03370414,0.30165273,1.2737787,-0.017458348,1.1228124,-1.8623126,-0.0470204,-0.056291714,0.1132474,1.2638121,-0.6979345
0.0,0.1,1.0999999999999999,0.5235987755982988,0.5235987755982988,0,0.03721837,-0.33829042,-2.1769557,0.03833734,0.20608026,1.342687,-0.62451655,1.1126179,-1.8574464,0.005033261,-0.0546205,-0.11866355,1.299648,-0.9457254
0.0,0.1,1.0999999999999999,0.5235987755982988,0.5235987755982988,0,0.03549747,-0.33800256,-2.1749346,0.038174756,0.24691324,1.3592086,0.17470987,1.1121246,-1.8511446,-0.06278777,-0.0396522,-0.12687053,1.2371778,-0.29788053
0.0,0.1,1.0999999999999999,0.5235987755982988,0.5235987755982988,0,0.03512734,-0.33622903,-2.1759863,0.031639952,0.3160635,1.3639796,-1.4391707,1.1295007,-1.8536447,-0.08977315,-0.077511415,-0.022718986,1.1985291,-0.8877283
0.0,0.1,1.0999999999999999,0.5235987755982988,0.5235987755982988,0,0.037396736,-0.33690682,-2.1739357,0.032842223,0.19107668,1.3753353,-1.3224134,1.13553,-1.8206725,-0.01649637,-0.09306135,-0.021615066,1.1903036,-0.17928438
0.0,0.1,1.0999999999999999,0.5235987755982988,0.5235987755982988,0,0.03596889,-0.33714294,-2.1734896,0.032230176,0.34668684,1.3648572,0.3071825,1.1073196,-1.8577781,0.06954284,-0.076380804,0.1612379,1.2831252,-1.3289449
0.0,0.1,1.0999999999999999,0.5235987755982988,0.5235987755982988,0,0.035870053,-0.33690915,-2.1738908,0.038376495,0.16253126,1.3493129,-0.16688634,1.104288,-1.8496826,0.035256613,-0.06543173,-0.016213952,1.2688878,-1.2746065
0.0,0.1,1.0999999999999999,0.5235987755982988,0.5235987755982988,0,0.03504703,-0.33679998,-2.175692,0.046005566,0.23285079,1.3572624,-0.048434388,1.1235875,-1.8664052,0.067705855,-0.085139245,0.07124107,1.2580109,-0.058986083
0.0,0.1,1.0999999999999999,0.5235987755982988,0.5235987755982988,0,0.036275543,-0.3358428,-2.1794224,0.033021703,0.20276344,1.3104017,0.040794794,1.1314709,-1.8479745,-0.0321089,-0.06947048,-0.13812171,1.2763762,0.3320306
0.0,0.1,1.0999999999999999,0.5235987755982988,0.5235987755982988,0,0.03583724,-0.33732522,-2.172966,0.033203494,0.30555844,1.3258044,-0.63890207,1.125116,-1.8443258,0.15241209,-0.059789598,-0.23374568,1.2241886,-0.49330148
0.0,0.1,1.0999999999999999,0.5235987755982988,0.5235987755982988,0,0.03529484,-0.3363092,-2.1739485,0.03812949,0.26596984,1.3690034,0.66763514,1.1320089,-1.8449774,-0.04091746,-0.09512424,-0.16654518,1.2689811,-0.45835078
0.0,0.1,1.0999999999999999,0.5235987755982988,0.5235987755982988,0,0.036083177,-0.337635,-2.1759973,0.0401497,0.2222312,1.3841736,-0.4647172,1.1506035,-1.8499653,-0.0042898604,-0.07361626,-0.06988172,1.270806,-0.69731575
0.0,0.1,1.0999999999999999,0.5235987755982988,0.5235987755982988,0,0.03673337,-0.3370261,-2.1770334,0.029456148,0.21510749,1.3175013,-1.353315,1.131839,-1.8517123,-0.0100003285,-0.06040401,0.037090473,1.2936187,-0.54677093
0.0,0.1,1.0999999999999999,0.5235987755982988,0.5235987755982988,0,0.034146488,-0.3366452,-2.174107,0.030815015,0.33247483,1.3820863,-0.53899515,1.1184336,-1.834786,0.03560438,-0.058022276,-0.2582049,1.2626345,-0.6809857
0.0,0.1,1.0999999999999999,0.5235987755982988,0.5235987755982988,0,0.034111667,-0.33764496,-2.1737907,0.04008864,0.30606246,1.377376,-1.0087559,1.1106806,-1.8451018,-0.046193704,-0.051569488,-0.024590842,1.2482752,0.06232045
0.0,0.1,1.0999999999999999,0.5235987755982988,0.5235987755982988,0,0.035601635,-0.33630642,-2.1753998,0.036929686,0.27619007,1.3513665,0.41188356,1.132107,-1.8526901,-0.013534281,-0.07411683,-0.0106375115,1.2529914,-0.5174462
0.0,0.1,1.0999999999999999,0.5235987755982988,0.5235987755982988,0,0.03559411,-0.3363762,-2.1750703,0.03190711,0.3421057,1.2860855,0.9311715,1.1194489,-1.8626657,0.06267093,-0.08820302,-0.1036789,1.2509191,0.042956594
0.0,0.1,1.0999999999999999,0.5235987755982988,0.5235987755982988,0,0.036071625,-0.33717227,-2.1736944,0.026765672,0.281944,1.3921225,-0.10630744,1.1350194,-1.846179,-0.016588548,-0.06727323,-0.06959291,1.2656002,-2.2275352
0.0,0.1,1.0999999999999999,0.5235987755982988,0.5235987755982988,0,0.034693904,-0.3371077,-2.1732972,0.029531438,0.23641089,1.3325586,0.25442213,1.1121715,-1.8641201,-0.10503331,-0.110610045,-0.04909269,1.2691865,-1.0155417
0.0,0.1,1.0999999999999999,0.5235987755982988,0.5235987755982988,0,0.03661946,-0.33849218,-2.1783988,0.038716383,0.17665312,1.3385931,0.5665245,1.1086177,-1.860641,-0.032925215,-0.113673784,-0.36433056,1.3146259,0.13264507
0.0,0.1,1.0999999999999999,0.5235987755982988,0.5235987755982988,0,0.03582876,-0.3384477,-2.1766405,0.027462302,0.20749651,1.3896825,0.29131317,1.1064477,-1.8589009,0.085809946,-0.07327164,-0.24960996,1.195303,-1.2871951
0.0,0.1,1.0999999999999999,0.5235987755982988,0.5235987755982988,0,0.037536524,-0.3370511,-2.1753469,0.033399045,0.2220597,1.3878454,-0.40580496,1.1138381,-1.8583375,-0.010027442,-0.05673614,-0.18318221,1.2582368,-1.5178206
0.0,0.1,1.0999999999999999,0.5235987755982988,0.5235987755982988,0,0.03411798,-0.33793163,-2.177799,0.038919248,0.2106409,1.3691119,-0.59302866,1.1372607,-1.8497567,-0.036472064,-0.04248325,-0.20851344,1.2907733,0.06602006
0.0,0.1,1.0999999999999999,0.5235987755982988,0.5235987755982988,0,0.034751967,-0.338442,-2.176139,0.037012048,0.20535494,1.3406869,-0.08023246,1.144896,-1.855497,-0.17378989,-0.017597219,-0.18068309,1.2145666,-0.87413037
0.0,0.1,1.0999999999999999,0.5235987755982988,0.5235987755982988,0,0.034888826,-0.33819962,-2.1746356,0.03991042,0.24768792,1.4022715,-0.5172283,1.0977008,-1.8444403,-0.046713512,-0.04323899,-0.14447805,1.2899168,0.359395
0.0,0.1,1.0999999999999999,0.5235987755982988,0.5235987755982988,0,0.03447699,-0.33782548,-2.1786437,0.039465226,0.25430945,1.3847525,-1.0635651,1.1156638,-1.8558481,-0.11494355,-0.08174963,-0.03405376,1.2298204,0.27522165
0.0,0.1,1.0999999999999999,0.5235987755982988,0.5235987755982988,0,0.034352496,-0.3374655,-2.1746173,0.043089923,0.162423,1.3372729,0.27276197,1.0976821,-1.8412217,-0.028052809,-0.0654226,-0.08843086,1.2794721,-0.30459744
0.0,0.1,1.0999999999999999,0.5235987755982988,0.5235987755982988,0,0.03477452,-0.33848065,-2.175386,0.0388759,0.20548323,1.354642,0.4879038,1.1097289,-1.8548872,0.028523266,-0.057218585,0.0435362,1.292596,-0.857844
0.0,0.1,1.0999999999999999,0.5235987755982988,0.5235987755982988,0,0.03639882,-0.3365453,-2.1736581,0.04312278,0.21784693,1.3786942,-0.46145225,1.1191114,-1.8420306,0.0015163106,-0.0430317,-0.06512653,1.2256029,-1.4191958
0.0,0.1,1.0999999999999999,0.5235987755982988,0.5235987755982988,0,0.035673272,-0.33735847,-2.1707838,0.035456248,0.24219319,1.3123168,0.9284459,1.1349596,-1.8550544,-0.0425539,-0.036788844,0.03869885,1.2111542,-0.23752794
0.0,0.1,1.0999999999999999,0.5235987755982988,0.5235987755982988,0,0.036633,-0.33742392,-2.1787694,0.03684051,0.20695385,1.2915741,0.5268232,1.1167694,-1.8475966,-0.060213093,-0.074528985,-0.028536612,1.2212853,-0.8884868
0.0,0.1,1.0999999999999999,0.5235987755982988,0.5235987755982988,0,0.036353506,-0.3381059,-2.175844,0.03704446,0.22816652,1.3633491,-0.073906325,1.1204834,-1.8454111,0.09092716,-0.059305143,-0.05537443,1.2074229,-1.2308867
0.0,0.1,1.0999999999999999,0.5235987755982988,0.5235987755982988,0,0.03454214,-0.33625296,-2.174515,0.03110411,0.26343617,1.3241305,-0.52588564,1.0988723,-1.8626622,0.047291804,-0.03471711,-0.044210277,1.2757432,-0.16392177
0.0,0.1,1.0999999999999999,0.5235987755982988,0.5235987755982988,0,0.035631772,-0.33602375,-2.174661,0.03628811,0.17408781,1.3025446,1.1514063,1.15494,-1.8580704,-0.05223207,-0.06379056,-0.10300402,1.2754912,-0.1838297
0.0,0.1,1.0999999999999999,0.5235987755982988,0.5235987755982988,0,0.035507876,-0.33802274,-2.1761515,0.042253427,0.24131733,1.3393295,0.25179687,1.1279006,-1.840897,0.021160092,-0.02828763,0.23339385,1.1869664,-0.5887844
0.0,0.1,1.0999999999999999,0.5235987755982988,0.5235987755982988,0,0.0349453,-0.33696595,-2.1785667,0.045199584,0.2810583,1.2883292,0.08371143,1.1149603,-1.85649,-0.09335274,-0.07152794,-0.0650749,1.1751264,-0.4937586
0.0,0.1,1.0999999999999999,0.5235987755982988,0.5235987755982988,0,0.036706984,-0.33714902,-2.1772459,0.04549538,0.31518808,1.3352368,-1.1521003,1.1113602,-1.8365154,-0.000431003,-0.07517225,-0.2327439,1.2171408,-1.2869158
0.0,0.1,1.0999999999999999,0.5235987755982988,0.5235987755982988,0,0.0340567,-0.3373291,-2.174714,0.04366085,0.18810004,1.3307599,-0.662942,1.1268576,-1.8330442,0.078957595,-0.051207032,-0.1958916,1.2458837,-0.5908269
0.0,0.1,1.0999999999999999,0.5235987755982988,0.5235987755982988,0,0.03507843,-0.33832908,-2.1774542,0.02835185,0.25144944,1.3370287,-0.058127355,1.1277547,-1.8566551,-0.065607816,-0.102309555,-0.24483341,1.2010105,-0.55970037
0.0,0.1,1.0999999999999999,0.5235987755982988,0.5235987755982988,0,0.037198827,-0.33643046,-2.1732302,0.037058238,0.28214225,1.2679877,0.963059,1.1129664,-1.8432697,-0.010121883,-0.065808915,0.00034385227,1.3098098,-0.23107737
0.0,0.1,1.0999999999999999,0.5235987755982988,0.5235987755982988,0,0.03475502,-0.33742934,-2.1766498,0.043190494,0.2891347,1.3685002,0.19766434,1.1076869,-1.8532171,-0.028547727,0.009552251,0.18765843,1.1983186,-0.10534783
0.0,0.1,1.0999999999999999,0.5235987755982988,0.5235987755982988,0,0.035713885,-0.33808956,-2.1751387,0.043532923,0.26437655,1.4037395,0.15036002,1.1252571,-1.8406304,-0.039924964,-0.050352205,-0.2592477,1.2597139,-1.0065147
0.0,0.1,1.0999999999999999,0.5235987755982988,0.5235987755982988,0,0.036067348,-0.33903906,-2.1749022,0.038112234,0.20151885,1.3993771,0.5557375,1.1205808,-1.8400311,0.16213465,-0.057183966,0.0844431,1.2684085,-0.11981895
0.0,0.1,1.0999999999999999,0.5235987755982988,0.5235987755982988,0,0.034552075,-0.33606103,-2.1734393,0.03330929,0.16439112,1.3536378,0.37394568,1.1262178,-1.8462266,-0.020763194,-0.046407733,-0.02725861,1.2166939,-0.41363814
0.0,0.1,1.0999999999999999,0.5235987755982988,0.5235987755982988,0,0.036125686,-0.3372005,-2.176589,0.04469563,0.34711942,1.3110516,0.52158076,1.1130587,-1.847922,-0.09212502,-0.08095857,-0.3717858,1.2476447,0.18410231
0.0,0.1,1.0999999999999999,0.5235987755982988,0.5235987755982988,0,0.03450536,-0.33804396,-2.175205,0.042526267,0.30844915,1.3506479,0.44672933,1.1209903,-1.8447179,-0.05550515,-0.10754834,-0.074959844,1.2419194,-0.029595058
0.0,0.1,1.0999999999999999,0.5235987755982988,0.5235987755982988,0,0.03598959,-0.33781004,-2.1794288,0.034976516,0.22432368,1.2893462,-0.51090395,1.0981166,-1.8412169,0.0564639,-0.065947294,0.015938492,1.206315,-1.2208393
0.0,0.1,1.0999999999999999,0.5235987755982988,0.5235987755982988,0,0.03459301,-0.3382791,-2.1746485,0.035617694,0.1909831,1.3405579,-0.37237448,1.1222712,-1.8719804,0.056773543,-0.04137114,-0.034816682,1.2831599,-1.549777
0.0,0.1,1.0999999999999999,0.5235987755982988,0.5235987755982988,0,0.03432561,-0.3377724,-2.1758895,0.043813035,0.26549113,1.3903372,0.72356457,1.1005208,-1.8445141,0.080381595,-0.085361026,-0.064905666,1.1855779,-2.1672473
0.0,0.1,1.0999999999999999,0.5235987755982988,0.5235987755982988,0,0.03477482,-0.33652732,-2.1776714,0.045475826,0.4108135,1.3428365,-0.6084482,1.1219771,-1.8421502,-0.04812724,-0.05038896,-0.013692544,1.2374063,-0.6844352
0.0,0.1,1.0999999999999999,0.5235987755982988,0.5235987755982988,0,0.035510253,-0.33734396,-2.1802292,0.035602733,0.27388245,1.2880119,-0.37013528,1.1321944,-1.8358791,0.041434158,-0.048759993,-0.121639006,1.2596047,-0.34536722
0.0,0.1,1.0999999999999999,0.5235987755982988,0.5235987755982988,0,0.035298266,-0.33768064,-2.1782627,0.031716034,0.26766184,1.3382778,0.078234926,1.1072389,-1.8395908,-0.045894198,-0.06522774,-0.15874037,1.242403,-0.70836174
0.0,0.1,1.0999999999999999,0.5235987755982988,0.5235987755982988,0,0.035402343,-0.33738765,-2.1790326,0.033447843,0.15602446,1.3346118,-0.10057336,1.1099467,-1.8668742,0.0385554,-0.053679347,-0.113996856,1.1706907,0.9488022
0.0,0.1,1.0999999999999999,0.5235987755982988,0.5235987755982988,0,0.032821678,-0.33658025,-2.1789486,0.03260396,0.18399774,1.4047621,0.7742483,1.1173209,-1.8558208,0.025451958,-0.040596873,-0.1733924,1.1780329,-0.31708804
0.0,0.1,1.0999999999999999,0.5235987755982988,0.5235987755982988,0,0.034849625,-0.3372976,-2.175583,0.042447016,0.2484982,1.3360592,-1.3339536,1.1047895,-1.8626345,0.046509445,-0.061650895,-0.097533,1.2435107,-1.6771854
0.0,0.1,1.0999999999999999,0.5235987755982988,0.5235987755982988,0,0.03325857,-0.33712575,-2.1751275,0.04036887,0.20887327,1.3707976,0.085053846,1.0998446,-1.8395314,-0.11230376,-0.068710074,-0.27800363,1.2983351,-1.7485516
0.0,0.1,1.0999999999999999,0.5235987755982988,0.5235987755982988,0,0.036315497,-0.3365804,-2.1782029,0.0490869,0.17229018,1.3288198,0.129388,1.1440147,-1.8431144,-0.05426974,-0.06781949,0.028250944,1.2325938,-1.1215534
0.0,0.1,1.0999999999999999,0.5235987755982988,0.5235987755982988,0,0.035209537,-0.3377804,-2.1762593,0.041328028,0.2734953,1.3559575,-0.8694927,1.1171247,-1.8406613,-0.009867917,-0.07246485,0.054684676,1.3163602,-0.42380857
0.0,0.1,1.0999999999999999,0.5235987755982988,0.5235987755982988,0,0.03607607,-0.33626658,-2.173619,0.03603103,0.2254061,1.3796318,-0.42234108,1.1146137,-1.8462192,0.028315015,-0.077328525,-0.25020048,1.2648414,-0.8944144
0.0,0.1,1.0999999999999999,0.5235987755982988,0.5235987755982988,0,0.0370217,-0.33579385,-2.1783485,0.031225692,0.23952287,1.358045,0.21877095,1.1335591,-1.8643088,-0.06043562,-0.078739926,-0.15628251,1.2432034,-0.52920276
0.0,0.1,1.0999999999999999,0.5235987755982988,0.5235987755982988,0,0.034174148,-0.33734673,-2.1774147,0.038075387,0.1898221,1.3989236,0.3163093,1.1076772,-1.8543688,-0.014151101,-0.05247305,-0.019187383,1.3143377,-1.7463727
0.0,0.1,1.0999999999999999,0.5235987755982988,0.5235987755982988,0,0.03543265,-0.33731332,-2.1772246,0.04249707,0.14499286,1.3377517,-0.08944322,1.1279414,-1.8598232,0.01375524,-0.059593286,0.014484589,1.2569296,-0.9109278
0.0,0.1,1.0999999999999999,0.5235987755982988,0.5235987755982988,0,0.03635247,-0.3368267,-2.1675017,0.038395975,0.23462163,1.3182988,-0.04523107,1.1204116,-1.8538784,-0.2775171,-0.09848811,-0.01590833,1.2307225,0.7458929
0.0,0.1,1.0999999999999999,0.5235987755982988,0.5235987755982988,0,0.036405325,-0.33844975,-2.1720889,0.035289288,0.1691326,1.3237762,0.07254835,1.132919,-1.8480368,0.006023386,-0.0338506,-0.14432974,1.2312278,-0.122393824
0.0,0.1,1.0999999999999999,0.5235987755982988,0.5235987755982988,0,0.035119854,-0.3375515,-2.174829,0.038946573,0.21877274,1.3403,-0.14074917,1.1377373,-1.854928,-0.09884226,-0.048038952,-0.21089236,1.2280661,-0.53058153
0.0,0.1,1.0999999999999999,0.5235987755982988,0.5235987755982988,0,0.03457859,-0.33805567,-2.1730416,0.036591902,0.27139813,1.314476,-0.05927536,1.1110845,-1.8610225,-0.1679632,-0.06634755,-0.26408258,1.2471619,-1.0819213
0.0,0.1,1.0999999999999999,0.5235987755982988,0.5235987755982988,0,0.035536956,-0.33656278,-2.1761203,0.04115262,0.33795714,1.2188065,-0.084119804,1.1156622,-1.8480799,-0.13391541,-0.03073443,-0.101132795,1.2537562,-0.87350315
0.0,0.1,1.0999999999999999,0.5235987755982988,0.5235987755982988,0,0.033958223,-0.3379732,-2.1743975,0.030223228,0.21588837,1.3771467,-0.1985689,1.134258,-1.837827,-0.05283339,-0.022266801,-0.2298156,1.2843119,0.008259858
0.0,0.1,1.0999999999999999,0.5235987755982988,0.5235987755982988,0,0.031965792,-0.33656627,-2.177776,0.023895677,0.25961787,1.3647621,-0.12531932,1.1139832,-1.8551497,0.0077120275,-0.117455065,0.05027601,1.2665646,-1.5596341
0.0,0.1,1.0999999999999999,0.5235987755982988,0.5235987755982988,0,0.035347454,-0.33838508,-2.1755962,0.026036197,0.30167094,1.3393236,-1.1266979,1.1099131,-1.856677,-0.104050875,-0.024166262,-0.18166591,1.2640169,-1.1655264
0.0,0.1,1.0999999999999999,0.5235987755982988,0.5235987755982988,0,0.03595524,-0.33782503,-2.1742287,0.0368024,0.34172243,1.3468233,-0.11128129,1.1377294,-1.8596054,-0.0786178,-0.06896265,-0.029254548,1.2568085,-0.12487258
0.0,0.1,1.0999999999999999,0.5235987755982988,0.5235987755982988,0,0.035348248,-0.33789992,-2.1743727,0.03642084,0.24704987,1.3739138,-0.5920586,1.1354585,-1.8441377,0.0045245695,-0.05792446,-0.18073267,1.247524,-0.89377373
0.0,0.1,1.0999999999999999,0.5235987755982988,0.5235987755982988,0,0.035963792,-0.33816475,-2.1749825,0.029548105,0.31426176,1.3225262,-0.32617405,1.1472528,-1.8503151,0.050091162,-0.07429031,0.060017247,1.2663558,-0.13828808
0.0,0.1,1.0999999999999999,0.5235987755982988,0.5235987755982988,0,0.035053257,-0.3374312,-2.1751435,0.038697693,0.31211603,1.4389697,0.79054564,1.1019766,-1.8661155,-0.12856907,-0.056355346,-0.20174274,1.1888233,-0.73935425
0.0,0.1,1.0999999999999999,0.5235987755982988,0.5235987755982988,0,0.036514137,-0.33817792,-2.1720135,0.031669945,0.25790456,1.3267963,-1.7482576,1.1194432,-1.8476238,0.074625336,-0.05129023,-0.14643551,1.228954,-1.4088031
0.0,0.1,1.0999999999999999,0.5235987755982988,0.5235987755982988,0,0.03341375,-0.33643898,-2.1757112,0.040764164,0.34370422,1.3350824,-0.8979523,1.1163622,-1.844242,-0.045944456,-0.060099177,0.1341735,1.2182765,-0.4673583
0.0,0.1,1.0999999999999999,0.5235987755982988,0.5235987755982988,0,0.03389065,-0.33751267,-2.175552,0.030523492,0.16721153,1.3765413,0.16400528,1.1156305,-1.8621403,-0.021961913,-0.074687615,0.14990029,1.1957592,-0.83378834
0.0,0.1,1.0999999999999999,0.5235987755982988,0.5235987755982988,0,0.036635455,-0.3379445,-2.1752422,0.03596023,0.23997314,1.3536202,-0.2953724,1.1246274,-1.8553962,-0.10963281,-0.058973927,-0.30397037,1.2953492,-0.96663433
0.0,0.1,1.0999999999999999,0.5235987755982988,0.5235987755982988,0,0.034494225,-0.3376934,-2.1737993,0.02765547,0.14117949,1.3688009,0.24406283,1.1064073,-1.8294793,0.035643693,-0.07895553,0.2211784,1.1325231,-0.3551712
0.0,0.1,1.0999999999999999,0.5235987755982988,0.5235987755982988,0,0.034393255,-0.33757493,-2.172934,0.04081172,0.22332592,1.3671942,-0.48284826,1.1326251,-1.8529743,0.011157817,-0.08009343,-0.04206053,1.2395694,-1.5808741
0.0,0.1,1.0999999999999999,0.5235987755982988,0.5235987755982988,0,0.03762643,-0.33809152,-2.174739,0.03281421,0.26875913,1.3593079,0.6991002,1.1260198,-1.8543057,0.044573147,0.0013384477,-0.29597917,1.2751379,-1.3931245
0.0,0.1,1.0999999999999999,0.5235987755982988,0.5235987755982988,0,0.035308693,-0.33728042,-2.176687,0.03358912,0.33486027,1.3831512,0.77365756,1.1277958,-1.8547931,-0.052483518,-0.06034795,-0.06482702,1.2608489,-0.77931577
0.0,0.1,1.0999999999999999,0.5235987755982988,0.5235987755982988,0,0.036149703,-0.33706534,-2.1771698,0.038571298,0.33425003,1.3723732,0.4059766,1.1442297,-1.8524373,-0.05199803,-0.022361813,-0.32954428,1.2531763,-0.14045063
0.0,0.1,1.0999999999999999,0.5235987755982988,0.5235987755982988,0,0.036637638,-0.33815876,-2.1744723,0.030762898,0.124386616,1.3711137,0.27421492,1.1255606,-1.8505969,0.014544098,-0.065675564,-0.20146929,1.2783762,0.28573608
0.0,0.1,1.0999999999999999,0.5235987755982988,0.5235987755982988,0,0.036311306,-0.33770016,-2.1740065,0.039189856,0.09743687,1.3365438,-0.10251341,1.1130952,-1.8652222,0.038835067,-0.07069384,-0.11384188,1.179047,-1.218188
0.0,0.1,1.0999999999999999,0.5235987755982988,0.5235987755982988,0,0.034632068,-0.33726162,-2.1774797,0.030387389,0.21248053,1.3766137,-0.075498596,1.159596,-1.8484925,-0.024954846,-0.049182214,-0.04422447,1.2509034,-1.3594676
0.0,0.1,1.0999999999999999,0.5235987755982988,0.5235987755982988,0,0.035393488,-0.3361534,-2.178741,0.039574854,0.19698891,1.4004409,0.19410083,1.1220894,-1.842708,-0.14869237,-0.07715055,-0.19157645,1.2235545,-0.14960417
0.0,0.1,1.0999999999999999,0.5235987755982988,0.5235987755982988,0,0.03624418,-0.3366091,-2.1781318,0.03998668,0.3177693,1.3870274,0.020872055,1.1199774,-1.8457968,-0.19012037,-0.07311047,-0.079961665,1.247359,-1.1390692
0.0,0.1,1.0999999999999999,0.5235987755982988,0.5235987755982988,0,0.03622732,-0.33732516,-2.1768062,0.03354475,0.1460686,1.2928711,-1.0841128,1.1262978,-1.8624176,0.00508008,-0.05224528,-0.010205194,1.26053,0.0144990245
0.0,0.1,1.0999999999999999,0.5235987755982988,0.5235987755982988,0,0.037140913,-0.3374657,-2.1760354,0.042615276,0.24345534,1.4058858,-0.31526214,1.1206537,-1.8424125,-0.05858061,-0.06405951,-0.20161091,1.2851899,-0.50890315
0.0,0.1,1.0999999999999999,0.5235987755982988,0.5235987755982988,0,0.03788146,-0.33685026,-2.1786501,0.035701733,0.24830121,1.3720562,0.56815857,1.1114173,-1.8516225,-0.039853893,-0.045359563,-0.01212174,1.2207956,-1.266682
0.0,0.1,1.0999999999999999,0.5235987755982988,0.5235987755982988,0,0.03563243,-0.33680636,-2.1762056,0.04376191,0.24262626,1.3974988,0.9376184,1.1434301,-1.8453476,-0.015156557,-0.0697518,-0.22980589,1.2385546,-1.8244015
0.0,0.1,1.0999999999999999,0.5235987755982988,0.5235987755982988,0,0.036124818,-0.33798748,-2.1772475,0.027610198,0.17359018,1.377853,0.040339984,1.1267768,-1.8397174,-0.08564967,-0.07022402,-0.18123938,1.2481455,-0.43508884
0.0,0.1,1.0999999999999999,0.5235987755982988,0.5235987755982988,0,0.036323823,-0.3367926,-2.1770303,0.042391792,0.22536711,1.3260025,0.3322149,1.1212344,-1.8412565,0.050733887,-0.074757785,0.0531904,1.2466879,0.09149831
0.0,0.1,1.0999999999999999,0.5235987755982988,0.5235987755982988,0,0.034461252,-0.33718053,-2.1773527,0.036133256,0.4326585,1.3370558,-1.1031047,1.1090369,-1.8522868,0.10439847,-0.09620763,-0.10515159,1.2188337,-1.2346745
0.0,0.1,1.0999999999999999,0.5235987755982988,0.5235987755982988,0,0.036969595,-0.3383694,-2.1753669,0.030425392,0.22346048,1.3489566,-0.5331074,1.1208775,-1.8458494,-0.017462047,-0.057805806,-0.06698249,1.1874722,-0.028754238
0.0,0.1,1.0999999999999999,0.5235987755982988,0.5235987755982988,0,0.03549356,-0.3370759,-2.1730475,0.046013407,0.2558029,1.2875229,0.1184785,1.1231289,-1.8517545,-0.069391884,-0.023902407,0.0069303047,1.2403594,-1.5661564
0.0,0.1,1.0999999999999999,0.5235987755982988,0.5235987755982988,0,0.035691984,-0.337319,-2.175584,0.03638654,0.28208265,1.360839,-1.2518651,1.1329657,-1.854086,-0.040551774,-0.06839259,0.067728564,1.2558938,-0.86888224
0.0,0.1,1.0999999999999999,0.5235987755982988,0.5235987755982988,0,0.036480665,-0.33758032,-2.173816,0.04248577,0.25416163,1.3873383,0.26162902,1.1243391,-1.8392717,-0.017083917,-0.05266655,-0.11188171,1.2692528,-0.6512847
0.0,0.1,1.0999999999999999,0.5235987755982988,0.5235987755982988,0,0.036229942,-0.33758494,-2.1738865,0.03889421,0.26993257,1.37062,-0.16930905,1.1190877,-1.8626493,0.038893882,-0.07203224,-0.099389665,1.2543342,-1.2918065
0.0,0.1,1.0999999999999999,0.5235987755982988,0.5235987755982988,0,0.034886178,-0.33732668,-2.173346,0.038886983,0.31392807,1.394497,-0.5997894,1.1477498,-1.8393842,0.025696361,-0.026562689,-0.08455482,1.2427015,-0.81460553
0.0,0.1,1.0999999999999999,0.5235987755982988,0.5235987755982988,0,0.036845073,-0.3368505,-2.1766405,0.041891545,0.33593953,1.3779237,-0.94017124,1.1214259,-1.8504969,-0.024603304,-0.04784243,-0.13032833,1.2447804,-1.5742652
0.0,0.1,1.0999999999999999,0.5235987755982988,0.5235987755982988,0,0.036086626,-0.33694428,-2.1754422,0.04167704,0.29860047,1.3412324,-0.07246827,1.1350791,-1.8469721,-0.05667067,-0.06499729,-0.24202582,1.2680649,-0.06884929
0.0,0.1,1.0999999999999999,0.5235987755982988,0.5235987755982988,0,0.036372438,-0.3383904,-2.1727161,0.025015868,0.23102508,1.3882622,-0.2200432,1.1202683,-1.8472052,0.058526278,-0.10371879,0.01613407,1.291308,-0.6431327
0.0,0.1,1.0999999999999999,0.5235987755982988,0.5235987755982988,0,0.035460263,-0.33718562,-2.176527,0.027545052,0.28844792,1.3147702,0.46997654,1.1014341,-1.8524647,-0.060562022,-0.060748525,-0.25091115,1.2445452,0.085885905
0.0,0.1,1.0999999999999999,0.5235987755982988,0.5235987755982988,0,0.035861354,-0.3376526,-2.1748943,0.02907852,0.17838742,1.3078985,-0.04102216,1.1381961,-1.8501577,-0.22816165,-0.056096084,0.04057184,1.2210661,-1.3599776
0.0,0.1,1.0999999999999999,0.5235987755982988,0.5235987755982988,0,0.03715118,-0.33757913,-2.1738682,0.0334322,0.3296242,1.3356113,0.5824234,1.1315802,-1.8508055,0.060467478,-0.04596137,-0.018114671,1.263775,-0.25846455
0.0,0.1,1.0999999999999999,0.5235987755982988,0.5235987755982988,0,0.035927627,-0.33888626,-2.173851,0.03181632,0.25441262,1.3242701,-0.05901552,1.1120793,-1.8615165,-0.06101285,-0.042611744,-0.0696097,1.2522869,-1.3803097
0.0,0.1,1.0999999999999999,0.5235987755982988,0.5235987755982988,0,0.034158178,-0.3372622,-2.1732416,0.036822554,0.32842532,1.3960872,0.76993716,1.1376768,-1.8572633,0.020431891,-0.039416183,-0.028242603,1.3108473,-0.95008177
0.0,0.1,1.0999999999999999,0.5235987755982988,0.5235987755982988,0,0.035015427,-0.3372265,-2.1727943,0.042230144,0.16516952,1.3254491,-0.71342695,1.1213855,-1.8565503,-0.034236293,-0.09030044,0.095838584,1.2126694,-1.4617598
0.0,0.1,1.0999999999999999,0.5235987755982988,0.5235987755982988,0,0.03592043,-0.3372244,-2.1770978,0.037397478,0.25297543,1.352697,0.17890538,1.1313056,-1.8520123,0.09245227,-0.043899365,0.15878867,1.2257435,-0.1793245
0.0,0.1,1.0999999999999999,0.5235987755982988,0.5235987755982988,0,0.0332968,-0.33686426,-2.1744976,0.034257006,0.26692334,1.3691978,-1.1013603,1.1378589,-1.8591528,-0.04240641,-0.041769944,-0.22524245,1.2276174,-0.92827207
0.0,0.1,1.0999999999999999,0.5235987755982988,0.5235987755982988,0,0.035087097,-0.33684778,-2.1761959,0.037221987,0.2780216,1.4064505,-0.933904,1.123076,-1.8534937,-0.090895064,-0.059779096,-0.11573441,1.2758771,-0.37805033
0.0,0.1,1.0999999999999999,0.5235987755982988,0.5235987755982988,0,0.03497057,-0.3358995,-2.1771748,0.046359945,0.3243864,1.3795456,-1.2843806,1.1222428,-1.8558239,-0.066033445,-0.10283122,-0.26475778,1.2473037,-0.14377816
0.0,0.1,1.0999999999999999,0.5235987755982988,0.5235987755982988,0,0.034834597,-0.3370314,-2.1741452,0.039341766,0.25608888,1.3315153,-0.255772,1.127403,-1.8553325,-0.092359096,-0.09662594,0.01028124,1.3070712,-1.3968815
0.0,0.1,1.0999999999999999,0.5235987755982988,0.5235987755982988,0,0.03712401,-0.33851758,-2.1756287,0.023935186,0.27569917,1.4082646,0.3682965,1.0959363,-1.8477783,-0.0023837965,-0.034101803,-0.09259802,1.3184143,-0.102668345
0.0,0.1,1.0999999999999999,0.5235987755982988,0.5235987755982988,0,0.03641314,-0.33768758,-2.1747978,0.040546034,0.3469173,1.3639555,-0.123779,1.1337935,-1.85645,-0.107350715,-0.07431799,-0.07283236,1.2254881,-1.2066972
0.0,0.1,1.0999999999999999,0.5235987755982988,0.5235987755982988,0,0.03645247,-0.33720705,-2.1730056,0.046324875,0.25816607,1.3896017,-0.7096041,1.1081283,-1.8494996,-0.08759025,-0.08111729,-0.12967572,1.2268806,-0.3966616
0.0,0.1,1.0999999999999999,0.5235987755982988,0.5235987755982988,0,0.035297323,-0.33729997,-2.1757874,0.029950676,0.13205938,1.3879243,-1.1182107,1.136135,-1.8449153,-0.11188768,-0.051396307,-0.15860896,1.234395,-0.63776416
0.0,0.1,1.0999999999999999,0.5235987755982988,0.5235987755982988,0,0.035005234,-0.337285,-2.172468,0.03600394,0.17422704,1.3535473,1.116552,1.1082578,-1.8487914,0.053854905,-0.06017994,-0.23639846,1.3255678,0.80158937
0.0,0.1,1.0999999999999999,0.5235987755982988,0.5235987755982988,0,0.036469538,-0.33684584,-2.1754885,0.040568482,0.20956127,1.3325381,0.3874389,1.1163427,-1.8750906,0.0036062065,-0.04690097,0.036258657,1.2598865,-1.1110119
0.0,0.1,1.0999999999999999,0.5235987755982988,0.5235987755982988,0,0.03346663,-0.33658352,-2.1750298,0.03626279,0.24261877,1.3506101,1.599763,1.1164706,-1.8533497,0.010329436,-0.055440627,-0.14524873,1.2586758,-1.2931306
0.0,0.1,1.0999999999999999,0.5235987755982988,0.5235987755982988,0,0.036273107,-0.3370781,-2.1755552,0.03986628,0.23845878,1.3330785,-0.7935918,1.1348838,-1.8374292,0.0670942,-0.06724343,-0.030635068,1.2324957,-0.3580235
0.0,0.1,1.0999999999999999,0.5235987755982988,0.5235987755982988,0,0.03567279,-0.33800438,-2.1755323,0.033793647,0.27063552,1.3627968,0.40037885,1.1526117,-1.8594007,-0.048081923,-0.07706479,0.1344217,1.3069429,-1.1878933
0.0,0.1,1.0999999999999999,0.5235987755982988,0.5235987755982988,0,0.03641661,-0.33714598,-2.176635,0.037266638,0.23910359,1.4077575,-1.039926,1.1157278,-1.8501619,0.0064768614,-0.057848457,-0.09342437,1.2182151,-0.20468712
0.0,0.1,1.0999999999999999,0.5235987755982988,0.5235987755982988,0,0.034929212,-0.3373216,-2.173049,0.040107805,0.30372158,1.3983456,0.045957305,1.1196588,-1.8463022,0.07604968,-0.07006671,-0.001961192,1.2542917,-0.88774127
0.0,0.1,1.0999999999999999,0.5235987755982988,0.5235987755982988,0,0.03603607,-0.3376226,-2.1748476,0.031145545,0.3103059,1.2942096,-0.53027654,1.133904,-1.8399872,0.038219146,-0.069034785,0.021273628,1.2342567,-0.31386906
0.0,0.1,1.0999999999999999,0.5235987755982988,0.5235987755982988,0,0.036225386,-0.33628795,-2.181631,0.026077945,0.20016979,1.2918645,0.37178397,1.12852,-1.8639328,-0.097460665,-0.047950316,0.13638777,1.2740979,-2.2657907
0.0,0.1,1.0999999999999999,0.5235987755982988,0.5235987755982988,0,0.03669015,-0.33672968,-2.1760204,0.042603202,0.21290639,1.3524761,-0.13018733,1.1242251,-1.8396859,0.110129915,-0.06681759,-0.095417336,1.1929568,-0.45193753
0.0,0.1,1.0999999999999999,0.5235987755982988,0.5235987755982988,0,0.035600793,-0.33758235,-2.1737726,0.031561926,0.25835988,1.2976764,0.31639907,1.1289526,-1.8217281,0.05069257,-0.061074812,0.058526542,1.3231683,-0.5167635
0.0,0.1,1.0999999999999999,0.5235987755982988,0.5235987755982988,0,0.03543555,-0.33651546,-2.178431,0.028784942,0.16658492,1.2922322,-0.5102319,1.1088064,-1.8417753,-0.10004397,-0.118758745,-0.088583104,1.1928508,-1.3670557
0.0,0.1,1.0999999999999999,0.5235987755982988,0.5235987755982988,0,0.036098026,-0.3368585,-2.1709063,0.028430166,0.39885655,1.3966246,0.013726628,1.1209563,-1.8504661,0.1281634,-0.09221645,0.03651462,1.2140442,-0.1364845
0.0,0.1,1.0999999999999999,0.5235987755982988,0.5235987755982988,0,0.035370532,-0.3368619,-2.1771545,0.035024375,0.33238047,1.3512725,-0.2633666,1.1281389,-1.8326029,0.060885545,-0.060673736,0.006669496,1.231707,-1.2094462
0.0,0.1,1.0999999999999999,0.5235987755982988,0.5235987755982988,0,0.036834225,-0.3365482,-2.1760828,0.042861093,0.19689274,1.3877481,0.16250035,1.1259083,-1.8475345,0.030347684,-0.043684106,-0.105468884,1.2656151,0.4734974
0.0,0.1,1.0999999999999999,0.5235987755982988,0.5235987755982988,0,0.035777736,-0.33643073,-2.178687,0.031725783,0.30547804,1.3621707,-1.0243533,1.1174234,-1.8513132,0.12826031,-0.08690683,-0.101874694,1.2342206,-1.2643931
0.0,0.1,1.0999999999999999,0.5235987755982988,0.5235987755982988,0,0.036151487,-0.33753118,-2.1695404,0.031106438,0.21694478,1.3397036,-0.17136528,1.1052625,-1.8520999,0.11141797,-0.0814814,-0.0042243726,1.287918,1.4075621
0.0,0.1,1.0999999999999999,0.5235987755982988,0.5235987755982988,0,0.036008917,-0.33739278,-2.176768,0.036911704,0.21640263,1.36568,0.9482164,1.1374757,-1.8595948,-0.08962187,-0.09319333,-0.06609172,1.2840039,-1.9169834
0.0,0.1,1.0999999999999999,0.5235987755982988,0.5235987755982988,0,0.03604675,-0.33745188,-2.1743956,0.031102685,0.22465485,1.4058824,-0.6517246,1.1278442,-1.8517002,-0.0644915,-0.10420653,-0.11278278,1.2764695,-0.64860755
0.0,0.1,1.0999999999999999,0.5235987755982988,0.5235987755982988,0,0.035288036,-0.3372304,-2.1701667,0.029013721,0.24284804,1.3298023,-0.9890408,1.0952095,-1.8485115,-0.078619376,-0.005251902,-0.053424533,1.2888854,-0.8404671
0.0,0.1,1.0999999999999999,0.5235987755982988,0.5235987755982988,0,0.03503969,-0.33782074,-2.1761932,0.030673604,0.22231686,1.2763339,-0.3884043,1.1541145,-1.8473456,0.021782199,-0.091965236,-0.14629301,1.178191,-2.0449674
0.0,0.1,1.0999999999999999,0.5235987755982988,0.5235987755982988,0,0.03703042,-0.33757666,-2.172588,0.034304798,0.17865202,1.3369914,0.25378573,1.1249818,-1.8536687,0.10605207,-0.0381076,0.10140223,1.2700312,-1.2257916
0.0,0.1,1.0999999999999999,0.5235987755982988,0.5235987755982988,0,0.033320256,-0.33712265,-2.1747532,0.03928892,0.27174616,1.3185891,1.3872463,1.118506,-1.8404036,0.09044676,-0.038301107,-0.081295624,1.2195545,0.21099015
0.0,0.1,1.0999999999999999,0.5235987755982988,0.5235987755982988,0,0.03601551,-0.33712882,-2.1764169,0.042088807,0.2585758,1.3832242,-1.0752001,1.1048828,-1.8585144,0.01636088,-0.06547535,-0.21950342,1.2796564,-1.1845105
0.0,0.1,1.0999999999999999,0.5235987755982988,0.5235987755982988,0,0.035209253,-0.33596274,-2.1737041,0.029840443,0.26349434,1.3786159,-1.3793879,1.1206204,-1.8496851,0.07671332,-0.06481238,0.02822933,1.2856098,-1.3601822
0.0,0.1,1.0999999999999999,0.5235987755982988,0.5235987755982988,0,0.036557104,-0.3373635,-2.1736395,0.035638805,0.24551405,1.3558596,-0.36211142,1.1068668,-1.8471171,0.090846196,-0.059998177,0.07543039,1.2226676,-1.8599945
0.0,0.1,1.0999999999999999,0.5235987755982988,0.5235987755982988,0,0.03451642,-0.33745638,-2.172444,0.031781048,0.2094443,1.3310162,1.1649865,1.1207362,-1.8512987,-0.06388465,-0.06193532,-0.24464338,1.204905,-1.364417
0.0,0.1,1.0999999999999999,0.5235987755982988,0.5235987755982988,0,0.035918552,-0.33814546,-2.1746984,0.039903343,0.18636116,1.318169,0.76109284,1.0986539,-1.8707565,-0.05648038,-0.04631133,-0.08639588,1.1808505,-0.75485843
0.0,0.1,1.0999999999999999,0.5235987755982988,0.5235987755982988,0,0.037073538,-0.33766484,-2.1724436,0.03902212,0.32387814,1.3103079,0.9983906,1.105956,-1.8637646,-0.050946668,-0.061536957,-0.06903414,1.2744845,-0.7653781
0.0,0.1,1.0999999999999999,0.5235987755982988,0.5235987755982988,0,0.035438795,-0.33835095,-2.1741972,0.04197268,0.17460276,1.3091016,0.3378072,1.1097425,-1.8624643,-0.022421176,0.010583604,-0.132913,1.2348742,-1.1600972
0.0,0.1,1.0999999999999999,0.5235987755982988,0.5235987755982988,0,0.035424083,-0.33670115,-2.174498,0.03399739,0.23398735,1.3025756,0.34062576,1.1274594,-1.8506483,0.08300314,-0.015524274,-0.09787495,1.3077002,-1.1878932
0.0,0.1,1.0999999999999999,0.5235987755982988,0.5235987755982988,0,0.035825185,-0.33701527,-2.175844,0.030843364,0.24712332,1.3484272,-0.107518345,1.1218535,-1.861463,-0.13739774,-0.035684824,-0.22089002,1.2847829,-0.1102887
0.0,0.1,1.0999999999999999,0.5235987755982988,0.5235987755982988,0,0.037166715,-0.33717555,-2.171606,0.0385279,0.23539232,1.3727778,0.32074562,1.1286665,-1.8786246,-0.09626441,-0.018801663,0.045578554,1.189138,0.8834246
0.0,0.1,1.0999999999999999,0.5235987755982988,0.5235987755982988,0,0.03517241,-0.33724287,-2.1734445,0.0288796,0.28105184,1.3082058,-0.37919864,1.1301177,-1.8588332,-0.07977359,-0.040924292,-0.24007264,1.2112999,-0.6919752
0.0,0.1,1.0999999999999999,0.5235987755982988,0.5235987755982988,0,0.03712055,-0.33764467,-2.1716678,0.032865893,0.27144265,1.3383873,1.2163743,1.1095554,-1.8444072,-0.059602164,-0.042845897,0.004873967,1.263779,-0.33364958
0.0,0.1,1.0999999999999999,0.5235987755982988,0.5235987755982988,0,0.035752002,-0.3387228,-2.1784976,0.034834344,0.3084499,1.2815341,0.0043596425,1.1108947,-1.8487109,0.13410793,-0.040039778,-0.10227876,1.2593505,-0.37467334
0.0,0.1,1.0999999999999999,0.5235987755982988,0.5235987755982988,0,0.03614059,-0.3379449,-2.1726646,0.028546548,0.22830687,1.378009,0.99709046,1.10763,-1.8367678,0.02966765,-0.12349361,-0.09881491,1.2568847,-1.0643616
0.0,0.1,1.0999999999999999,0.5235987755982988,0.5235987755982988,0,0.036540322,-0.337595,-2.1749318,0.030947609,0.2440813,1.3642594,-1.6479832,1.114928,-1.8678192,-0.07284011,-0.041704495,-0.0074933874,1.2329229,-0.48879308
0.0,0.1,1.0999999999999999,0.5235987755982988,0.5235987755982988,0,0.036549047,-0.3366373,-2.17381,0.041620675,0.19080073,1.3772535,-0.78289104,1.0955466,-1.8572258,-0.025766239,-0.10713288,-0.12597586,1.2332954,-1.0534004
0.0,0.1,1.0999999999999999,0.5235987755982988,0.5235987755982988,0,0.035574578,-0.3372454,-2.17257,0.036581554,0.31969202,1.3524452,-0.17725134,1.1031631,-1.859649,0.07986498,-0.08458386,-0.03406393,1.2289194,0.19641337
0.0,0.1,1.0999999999999999,0.5235987755982988,0.5235987755982988,0,0.03436185,-0.33745122,-2.1721883,0.02815373,0.22153667,1.377981,-0.010076175,1.1268673,-1.8436146,0.012753539,-0.064093105,-0.15119751,1.1939328,-0.42189977
0.0,0.1,1.0999999999999999,0.5235987755982988,0.5235987755982988,0,0.035203237,-0.3359409,-2.1781898,0.034961563,0.21158157,1.3793521,-1.1464101,1.1045576,-1.8418989,0.054893862,-0.07236053,-0.16485883,1.2267551,0.4042702
0.0,0.1,1.0999999999999999,0.5235987755982988,0.5235987755982988,0,0.036454175,-0.337228,-2.1707528,0.03506636,0.3677984,1.316545,-0.8775161,1.0943497,-1.8707255,0.032885656,-0.10783869,-0.21675503,1.2502109,-1.1247199
0.0,0.1,1.0999999999999999,0.5235987755982988,0.5235987755982988,0,0.03581948,-0.3375123,-2.1734118,0.030414242,0.27442706,1.3571349,0.46302003,1.1077812,-1.8683337,0.008128788,-0.09098999,-0.25143206,1.2425746,-0.13918096
0.0,0.1,1.0999999999999999,0.5235987755982988,0.5235987755982988,0,0.035434887,-0.3359856,-2.1759307,0.039675847,0.23340626,1.3175057,-0.47439227,1.1362776,-1.8525367,-0.0014802737,-0.082004696,-0.14410833,1.1859164,-0.4826099
0.0,0.1,1.0999999999999999,0.5235987755982988,0.5235987755982988,0,0.03492738,-0.3382342,-2.1735258,0.039786067,0.27728277,1.321761,-0.5132701,1.090637,-1.8450607,-0.061624084,-0.10324958,-0.2388749,1.3141882,-0.608914
0.0,0.1,1.0999999999999999,0.5235987755982988,0.5235987755982988,0,0.035078336,-0.33660764,-2.1743062,0.03466795,0.29261407,1.3802924,-0.53080416,1.1145142,-1.8417856,0.007853874,-0.043385595,0.019795721,1.2722505,-0.7387405
0.0,0.1,1.0999999999999999,0.5235987755982988,0.5235987755982988,0,0.034377813,-0.3376021,-2.1775167,0.04641517,0.19627541,1.3103411,0.5535697,1.1216968,-1.8740995,-0.027103262,-0.11449055,-0.13175195,1.2485442,-0.92942744
0.0,0.1,1.0999999999999999,0.5235987755982988,0.5235987755982988,0,0.035336696,-0.33615118,-2.1738217,0.044083606,0.20574817,1.3884494,-0.023642382,1.121732,-1.85859,-0.08464586,-0.06801173,-0.051401988,1.2121043,-0.19388804
0.0,0.1,1.0999999999999999,0.5235987755982988,0.5235987755982988,0,0.034880206,-0.33678597,-2.172162,0.037948336,0.23545505,1.3748038,-0.5912305,1.1253669,-1.8452065,-0.02569703,-0.042210337,-0.13262887,1.1525644,-1.1285945
0.0,0.1,1.0999999999999999,0.5235987755982988,0.5235987755982988,0,0.03605468,-0.3385362,-2.1745949,0.032110322,0.20434028,1.3572963,0.6472741,1.1194818,-1.8614206,-0.17446694,-0.07191274,0.084039666,1.2129657,-0.4609999
0.0,0.1,1.0999999999999999,0.5235987755982988,0.5235987755982988,0,0.035017405,-0.3381587,-2.1748152,0.038857315,0.18835478,1.3586372,-0.043396037,1.1217035,-1.8491364,0.038011145,-0.07702535,-0.08757892,1.248797,0.058394816
0.0,0.1,1.0999999999999999,0.5235987755982988,0.5235987755982988,0,0.034351755,-0.33666474,-2.1733472,0.030482365,0.22738758,1.2709107,-0.7529967,1.1056817,-1.8562605,-0.01748825,-0.048363786,-0.10673872,1.2149796,-0.38763294
0.0,0.1,1.0999999999999999,0.5235987755982988,0.5235987755982988,0,0.03542246,-0.3367738,-2.1755967,0.049120065,0.2869906,1.3151959,-1.3670404,1.1032404,-1.8515083,-0.0774263,-0.09087971,-0.245615,1.2600197,0.12755716
0.0,0.1,1.0999999999999999,0.5235987755982988,0.5235987755982988,0,0.035297062,-0.33553952,-2.1773095,0.031450465,0.18701442,1.2672806,0.103185765,1.1315786,-1.8451685,-0.06282533,-0.075222224,0.048944443,1.2545556,-0.78201014
0.0,0.1,1.0999999999999999,0.5235987755982988,0.5235987755982988,0,0.035517856,-0.33832645,-2.1773083,0.027100312,0.22519527,1.4125831,-0.94721055,1.1223788,-1.8492906,-0.090474,-0.092724256,-0.11442173,1.2194562,-0.9387775
0.0,0.1,1.0999999999999999,0.5235987755982988,0.5235987755982988,0,0.03472119,-0.33846578,-2.1729982,0.035312135,0.1859345,1.3228638,-0.2132651,1.1438186,-1.8540983,-0.04853635,-0.06920198,0.06527392,1.234936,-0.8951559
0.0,0.1,1.0999999999999999,0.5235987755982988,0.5235987755982988,0,0.03400047,-0.33752832,-2.1747131,0.041398417,0.15373717,1.3105085,0.67073387,1.1255054,-1.8545641,-0.10582498,-0.060192175,-0.36063898,1.2965714,-1.5023531
0.0,0.1,1.0999999999999999,0.5235987755982988,0.5235987755982988,0,0.037386905,-0.33679634,-2.1757185,0.028753737,0.2470112,1.3408899,-0.7199573,1.1215568,-1.8436582,-0.08318192,-0.044890493,-0.084951274,1.222232,-0.7110564
0.0,0.1,1.0999999999999999,0.5235987755982988,0.5235987755982988,0,0.034042753,-0.33749,-2.176868,0.046093132,0.19801112,1.3363643,0.58897245,1.1196529,-1.8334646,-0.023145104,-0.059688907,-0.12837732,1.2445561,-1.9436506
0.0,0.1,1.0999999999999999,0.5235987755982988,0.5235987755982988,0,0.036130834,-0.33641624,-2.1754615,0.03367484,0.31200883,1.3804474,-0.7820466,1.1179138,-1.8673886,-0.040904574,-0.05528278,-0.23786452,1.1511909,-0.73955756
0.0,0.1,1.0999999999999999,0.5235987755982988,0.5235987755982988,0,0.034630902,-0.3385258,-2.1752656,0.032748014,0.2806014,1.3243369,-0.026785133,1.1223062,-1.8458841,-0.059706204,-0.042644806,-0.14905077,1.2186974,-1.6467389
0.0,0.1,1.0999999999999999,0.5235987755982988,0.5235987755982988,0,0.03447256,-0.33870113,-2.1750576,0.03864968,0.30588412,1.402186,-0.23844151,1.1293336,-1.8546143,-0.13916665,-0.034278862,0.016091213,1.2659817,-0.29953906
0.0,0.1,1.0999999999999999,0.5235987755982988,0.5235987755982988,0,0.03518955,-0.3381179,-2.177352,0.038934045,0.29443246,1.2559986,-0.85385,1.1261029,-1.8571402,0.06605339,-0.085474074,-0.13570425,1.2721345,-0.30426008
0.0,0.1,1.0999999999999999,0.5235987755982988,0.5235987755982988,0,0.035371855,-0.33737075,-2.1754775,0.050524227,0.1518036,1.356517,-0.64296055,1.1271281,-1.8476872,-0.119587764,-0.043404076,0.05016482,1.206724,-0.115095995
0.0,0.1,1.0999999999999999,0.5235987755982988,0.5235987755982988,0,0.033817187,-0.3381851,-2.174365,0.03922957,0.29465577,1.351595,-0.38196647,1.1276171,-1.8516198,0.0633209,-0.098624036,-0.1479348,1.1993409,-0.96828955
0.0,0.1,1.0999999999999999,0.5235987755982988,0.5235987755982988,0,0.035640128,-0.3367424,-2.1736493,0.030474486,0.17663877,1.2989541,0.30590308,1.1052498,-1.8455102,-0.12879391,-0.052543536,-0.25646707,1.2433274,0.043775298
0.0,0.1,1.0999999999999999,0.5235987755982988,0.5235987755982988,0,0.03544352,-0.33717337,-2.1788435,0.04502171,0.31809273,1.3009638,0.5956599,1.123488,-1.8440111,-0.09156134,-0.08640427,0.057470668,1.2754632,-1.1327138
0.0,0.1,1.0999999999999999,0.5235987755982988,0.5235987755982988,0,0.03612925,-0.33895245,-2.177511,0.030634895,0.26985338,1.3486578,-0.33322328,1.1339364,-1.864141,-0.07257217,-0.026377115,-0.04537853,1.2279185,-1.2714252
0.0,0.1,1.0999999999999999,0.5235987755982988,0.5235987755982988,0,0.03625554,-0.33751008,-2.1795456,0.038911622,0.23661858,1.335254,-0.1650166,1.1252455,-1.8397523,-0.11583827,-0.0534462,-0.034291465,1.2148852,-0.9029468
0.0,0.1,1.0999999999999999,0.5235987755982988,0.5235987755982988,0,0.03684379,-0.337502,-2.1784089,0.04277828,0.15598941,1.3560436,0.34713835,1.1310875,-1.8477596,-0.022372937,-0.066721745,-0.31217563,1.3225477,-0.5531143
0.0,0.1,1.0999999999999999,0.5235987755982988,0.5235987755982988,0,0.03498103,-0.33820647,-2.1761296,0.03900475,0.24611194,1.4242746,0.060612615,1.1318932,-1.8490391,-0.2124748,-0.028347233,0.03529185,1.2541267,-0.63217735
0.0,0.1,1.0999999999999999,0.5235987755982988,0.5235987755982988,0,0.035479788,-0.33756134,-2.1757557,0.03898269,0.24784791,1.3788232,-0.04301211,1.1336281,-1.8605938,0.059660584,-0.080946,-0.19493848,1.2839222,-1.8384043
0.0,0.1,1.0999999999999999,0.5235987755982988,0.5235987755982988,0,0.035911195,-0.3366965,-2.1771872,0.05240713,0.19544972,1.3263583,0.31775331,1.139812,-1.8365276,-0.070263654,-0.015456686,-0.24519666,1.2190661,-0.75907767
0.0,0.1,1.0999999999999999,0.5235987755982988,0.5235987755982988,0,0.034592617,-0.33772725,-2.1744163,0.04237046,0.22522661,1.3702164,0.66104674,1.0899588,-1.8522137,0.076623864,-0.053754292,-0.05011486,1.2782793,-0.8649105
0.0,0.1,1.0999999999999999,0.5235987755982988,0.5235987755982988,0,0.03510558,-0.33727574,-2.179678,0.031813987,0.22656317,1.2799002,0.30634758,1.1221746,-1.8472444,-0.051764246,-0.024169527,-0.20807719,1.2666783,-1.4618363
0.0,0.1,1.0999999999999999,0.5235987755982988,0.5235987755982988,0,0.036200307,-0.336434,-2.1757185,0.029110672,0.26945668,1.3540668,-1.42908,1.12371,-1.846941,-0.003650041,-0.046839673,0.00088296965,1.2433751,0.028801378
0.0,0.1,1.0999999999999999,0.5235987755982988,0.5235987755982988,0,0.035890456,-0.3383519,-2.1780117,0.033394173,0.33648726,1.3800061,1.4627572,1.1167438,-1.8499241,-0.012670109,-0.10990254,-0.24159884,1.2435476,-0.41895762
0.0,0.1,1.0999999999999999,0.5235987755982988,0.5235987755982988,0,0.035373997,-0.33796728,-2.177702,0.03612092,0.26129317,1.3722509,0.006312821,1.121167,-1.8353947,-0.08842228,-0.114988096,-0.22918081,1.1541066,-0.9939417
0.0,0.1,1.0999999999999999,0.5235987755982988,0.5235987755982988,0,0.03603091,-0.33799237,-2.177653,0.04136439,0.26472554,1.3902996,0.8995368,1.1370001,-1.8645673,-0.033373382,-0.047935657,0.13999006,1.2755928,-0.5541755
0.0,0.1,1.0999999999999999,0.5235987755982988,0.5235987755982988,0,0.035785027,-0.33747962,-2.1776075,0.037354663,0.18189308,1.3820449,0.80174345,1.0912329,-1.850623,-0.017858058,-0.046220455,-0.2434586,1.2540625,-0.788374
0.0,0.1,1.0999999999999999,0.5235987755982988,0.5235987755982988,0,0.035857745,-0.33818397,-2.177336,0.03584644,0.19366872,1.4022108,0.104999974,1.1263598,-1.8559157,-0.026371708,-0.059948895,-0.09627097,1.2243074,-0.7484302
0.0,0.1,1.0999999999999999,0.5235987755982988,0.5235987755982988,0,0.035365816,-0.3364659,-2.181315,0.041676395,0.30204046,1.3616875,-0.53434795,1.1119233,-1.8564993,-0.09864652,-0.03704709,-0.105182774,1.3273702,-0.95196885
0.0,0.1,1.0999999999999999,0.5235987755982988,0.5235987755982988,0,0.034990482,-0.33742484,-2.1798549,0.029352887,0.29370427,1.324767,-0.041146886,1.089748,-1.8446305,-0.10532508,-0.08011671,-0.12103243,1.2513405,-1.8484588
0.0,0.1,1.0999999999999999,0.5235987755982988,0.5235987755982988,0,0.036559213,-0.33761364,-2.1776109,0.045923896,0.28602886,1.3327806,-0.37222737,1.1217542,-1.8550183,-0.028999608,-0.084458515,-0.06446713,1.2786057,0.6678321
0.0,0.1,1.0999999999999999,0.5235987755982988,0.5235987755982988,0,0.036837198,-0.338101,-2.1779897,0.039115824,0.25708348,1.3725172,0.056299508,1.1016525,-1.8420669,0.016594054,-0.07868577,0.038981702,1.2589105,-0.11161096
0.0,0.1,1.0999999999999999,0.5235987755982988,0.5235987755982988,0,0.03548808,-0.337426,-2.178083,0.0417969,0.31129867,1.3953629,1.0461223,1.1428131,-1.8517219,-0.055255376,-0.033373326,-0.0491324,1.2490252,-1.0665189
0.0,0.1,1.0999999999999999,0.5235987755982988,0.5235987755982988,0,0.034781933,-0.33713582,-2.1783223,0.038312532,0.31343,1.4056735,-1.0311745,1.1176054,-1.8560456,0.0058885897,-0.07839303,0.010636336,1.2829396,0.024835372
0.0,0.1,1.0999999999999999,0.5235987755982988,0.5235987755982988,0,0.036486033,-0.33763087,-2.177808,0.042350076,0.25251183,1.3631709,-0.31959817,1.129932,-1.8513907,0.03390882,-0.043559548,-0.1140024,1.3024542,-1.1501096
0.0,0.1,1.0999999999999999,0.5235987755982988,0.5235987755982988,0,0.03558028,-0.33827284,-2.1708794,0.04226872,0.19126886,1.3204826,0.42789698,1.1241829,-1.8358363,-0.00901138,-0.050577894,0.04937833,1.2683418,-0.65493196
0.0,0.1,1.0999999999999999,0.5235987755982988,0.5235987755982988,0,0.036947507,-0.33749083,-2.1764846,0.03672295,0.22867502,1.2901939,0.2771007,1.1141112,-1.8461025,-0.12563635,-0.052100886,0.015624948,1.1856463,-0.7852147
0.0,0.1,1.0999999999999999,0.5235987755982988,0.5235987755982988,0,0.034832805,-0.3371142,-2.1770484,0.031122647,0.2506516,1.3286831,0.7831593,1.109483,-1.84635,0.07163376,-0.051893115,-0.14241067,1.2557182,-0.6597231
0.0,0.1,1.0999999999999999,0.5235987755982988,0.5235987755982988,0,0.035457168,-0.3379143,-2.1760707,0.029898087,0.16702913,1.3961719,-0.6216567,1.1194062,-1.8370763,0.024325032,-0.042368468,0.019497558,1.2223861,-0.89076096
0.0,0.1,1.0999999999999999,0.5235987755982988,0.5235987755982988,0,0.035763584,-0.3368275,-2.1774154,0.038198724,0.2345059,1.3475642,-0.2680642,1.1393343,-1.8372821,-0.07350617,-0.10658596,-0.1931207,1.2276157,-0.21299228
0.0,0.1,1.0999999999999999,0.5235987755982988,0.5235987755982988,0,0.03626742,-0.33846948,-2.172848,0.028994283,0.3469018,1.3101741,0.32957298,1.1071651,-1.8597591,-0.12836137,-0.070189096,-0.14576223,1.3238837,-0.67802113
0.0,0.1,1.0999999999999999,0.5235987755982988,0.5235987755982988,0,0.03645709,-0.33765212,-2.1755042,0.03422314,0.17658445,1.3974173,0.81626976,1.10065,-1.8523058,-0.0072623403,-0.08173389,-0.16849633,1.2754192,-0.99685055
0.0,0.1,1.0999999999999999,0.5235987755982988,0.5235987755982988,0,0.03733028,-0.33845553,-2.1755395,0.02598011,0.29909056,1.4103081,0.5654581,1.0994248,-1.8430444,0.0139818005,-0.06391073,-0.13414136,1.2145358,-1.1160074
0.0,0.1,1.0999999999999999,0.5235987755982988,0.5235987755982988,0,0.035073705,-0.337418,-2.1765282,0.031150734,0.102669075,1.3845211,-0.5229998,1.1393372,-1.841496,0.07242406,-0.059743635,-0.037138868,1.2017236,0.4049209
0.0,0.1,1.0999999999999999,0.5235987755982988,0.5235987755982988,0,0.03700016,-0.33794567,-2.173499,0.032941487,0.23135054,1.309834,-0.5649719,1.1233026,-1.8509183,-0.033710323,-0.0626131,-0.15159707,1.2571967,-1.0150095
0.0,0.1,1.0999999999999999,0.5235987755982988,0.5235987755982988,0,0.03415407,-0.33786336,-2.1747823,0.032969154,0.20290416,1.2897207,-0.57822114,1.1427265,-1.8473685,0.037515555,-0.055235643,0.07078515,1.2816452,-0.23819648
0.0,0.1,1.0999999999999999,0.5235987755982988,0.5235987755982988,0,0.036196563,-0.33755395,-2.1746182,0.032221437,0.25388026,1.3810501,0.17928115,1.1163671,-1.8315107,-0.08082048,-0.07763078,0.05021847,1.2216597,-1.0881089
0.0,0.1,1.0999999999999999,0.5235987755982988,0.5235987755982988,0,0.035380565,-0.33701873,-2.1707752,0.028716503,0.34009424,1.3394482,-0.6983511,1.1476871,-1.849703,0.021138461,-0.040998727,-0.26404744,1.1899136,-0.42120135
0.0,0.1,1.0999999999999999,0.5235987755982988,0.5235987755982988,0,0.034688096,-0.33706,-2.17499,0.03499111,0.27682412,1.3472441,0.60926807,1.1242888,-1.848207,-0.03632062,-0.11139638,-0.16405565,1.2433001,-1.0070308
0.0,0.1,1.0999999999999999,0.5235987755982988,0.5235987755982988,0,0.03506579,-0.33707628,-2.172436,0.038382966,0.22319795,1.3074023,0.84669596,1.1085052,-1.8461351,0.02997242,-0.0833603,-0.1405005,1.2374582,-0.12461637
0.0,0.1,1.0999999999999999,0.5235987755982988,0.5235987755982988,0,0.035969816,-0.33716464,-2.175685,0.03549618,0.23373611,1.3560507,-0.47422346,1.1375772,-1.8512881,-0.12096425,-0.060532402,-0.1323161,1.2762612,0.8574343
0.0,0.1,1.0999999999999999,0.5235987755982988,0.5235987755982988,0,0.035245296,-0.33819795,-2.1737611,0.039254557,0.21906844,1.3117609,0.79594594,1.1289734,-1.8558769,-0.060433794,-0.089280814,-0.11849093,1.1977193,-0.41814643
0.0,0.1,1.0999999999999999,0.5235987755982988,0.5235987755982988,0,0.03510718,-0.33735922,-2.1723993,0.029069768,0.24023248,1.3634931,0.8330791,1.1101049,-1.8533734,-0.12314505,-0.05717524,-0.14570051,1.2882836,-1.0384171
0.0,0.1,1.0999999999999999,0.5235987755982988,0.5235987755982988,0,0.034738306,-0.33778048,-2.1762006,0.032395512,0.20305485,1.3264786,-1.266978,1.1214488,-1.8623471,-0.066977985,-0.10896575,-0.12848768,1.1999947,-0.84471935
0.0,0.1,1.0999999999999999,0.5235987755982988,0.5235987755982988,0,0.035996422,-0.3369324,-2.17427,0.031094281,0.22703797,1.3925598,0.6617707,1.1372579,-1.8479526,-0.0369855,-0.075575225,-0.1456452,1.2191181,-1.9697529
0.0,0.1,1.0999999999999999,0.5235987755982988,0.5235987755982988,0,0.036017593,-0.3379502,-2.175996,0.03562538,0.29214856,1.3528684,-0.03985013,1.1099306,-1.8494511,0.0627375,-0.04745018,-0.2108868,1.2908976,0.3684198
0.0,0.1,1.0999999999999999,0.5235987755982988,0.5235987755982988,0,0.03569947,-0.33765146,-2.176513,0.03667291,0.3688519,1.3826249,0.30127195,1.1171706,-1.848142,-0.06764623,-0.06931829,-0.104925685,1.2503085,-0.9659528
0.0,0.1,1.0999999999999999,0.5235987755982988,0.5235987755982988,0,0.03558437,-0.3366235,-2.174779,0.035545643,0.15003963,1.341539,-0.569329,1.1152036,-1.8525543,-0.07433507,-0.049546342,-0.15339641,1.2024266,-0.1785417
0.0,0.1,1.0999999999999999,0.5235987755982988,0.5235987755982988,0,0.033370256,-0.3370702,-2.1751454,0.040043317,0.23776826,1.2621276,-0.03529396,1.1294572,-1.849422,-0.07752457,-0.059737574,-0.21405701,1.2638777,-1.7151347
0.0,0.1,1.0999999999999999,0.5235987755982988,0.5235987755982988,0,0.035741266,-0.3386389,-2.1760252,0.03362994,0.26674,1.3852793,1.2170193,1.1338335,-1.8631963,0.020032726,-0.09121554,-0.19125134,1.301526,-0.31807393
0.0,0.1,1.0999999999999999,0.5235987755982988,0.5235987755982988,0,0.034894645,-0.33753324,-2.1778903,0.04174569,0.23057753,1.3552446,0.5333998,1.1231424,-1.8379247,0.00040841,-0.07032239,0.00086425507,1.256502,-0.92084867
0.0,0.1,1.0999999999999999,0.5235987755982988,0.5235987755982988,0,0.035485785,-0.33836773,-2.177788,0.03644802,0.27354383,1.314165,-0.08290324,1.1254886,-1.8449187,-0.048673294,-0.03454459,-0.15967788,1.2798693,-0.48775625
0.0,0.1,1.0999999999999999,0.5235987755982988,0.5235987755982988,0,0.0343849,-0.33780634,-2.1776025,0.04076238,0.23209135,1.3032367,-0.9937685,1.1282951,-1.8423362,-0.0431464,-0.05576836,-0.062294275,1.2415181,-1.0338854
0.0,0.1,1.0999999999999999,0.5235987755982988,0.5235987755982988,0,0.03589454,-0.33819827,-2.1778023,0.033579476,0.30439818,1.3536966,0.37239683,1.1079167,-1.8431938,-0.040435947,-0.07695231,-0.047417026,1.2832888,-0.33311662
0.0,0.1,1.0999999999999999,0.5235987755982988,0.5235987755982988,0,0.03554405,-0.3374151,-2.1748588,0.04677301,0.2561319,1.3559915,1.2820909,1.1140321,-1.8505465,-0.07372331,-0.055732008,0.062629536,1.2458508,-1.1235187
0.0,0.1,1.0999999999999999,0.5235987755982988,0.5235987755982988,0,0.03653982,-0.3376332,-2.1736882,0.03826785,0.18440284,1.4118706,-0.89781994,1.0935988,-1.8392502,0.04097987,-0.065206654,-0.090273015,1.2678846,-1.1874235
