sanky1234/BimanualDexCatch/isaacgymenvs/cem_results/football_pose_0.1_0.0_0.9999999999999999_-0.5235987755982988_-0.5235987755982988_0_2025-05-26.csv
x,y,z,roll,pitch,yaw,robot1/joint1,robot1/joint2,robot1/joint3,robot1/joint4,robot1/joint5,robot1/joint6,robot1/joint7,robot2/joint1,robot2/joint2,robot2/joint3,robot2/joint4,robot2/joint5,robot2/joint6,robot2/joint7
0.1,0.0,0.9999999999999999,-0.5235987755982988,-0.5235987755982988,0,-1.578433,1.3075844,-0.6197636,0.45023575,-0.39781076,1.2866199,-2.6092339,1.9268354,1.4005303,-0.05541107,-0.10896618,0.19831094,1.2812912,-0.18002304
0.1,0.0,0.9999999999999999,-0.5235987755982988,-0.5235987755982988,0,-1.5790793,1.310552,-0.61943674,0.4498859,-0.39841363,1.2877884,-2.601593,1.9175152,1.4223914,-0.033764865,-0.044885673,0.22321163,1.1978621,-0.9198646
0.1,0.0,0.9999999999999999,-0.5235987755982988,-0.5235987755982988,0,-1.5796642,1.3087503,-0.6198981,0.4498917,-0.3988229,1.2869798,-2.6079907,1.8807963,1.4166414,-0.1018418,-0.12780389,0.09106877,1.0776457,-0.32349947
0.1,0.0,0.9999999999999999,-0.5235987755982988,-0.5235987755982988,0,-1.5789051,1.3091557,-0.61951464,0.45052186,-0.4001266,1.2875524,-2.6009805,1.9211065,1.4808137,-0.19664735,-0.03230593,0.2624703,1.2107775,-1.588993
0.1,0.0,0.9999999999999999,-0.5235987755982988,-0.5235987755982988,0,-1.5793223,1.3088751,-0.6189299,0.45009714,-0.39783335,1.2880971,-2.6092496,1.9226376,1.4553826,-0.10402492,-0.112485744,-0.03428714,1.1970283,-0.20979764
0.1,0.0,0.9999999999999999,-0.5235987755982988,-0.5235987755982988,0,-1.57919,1.308824,-0.6191346,0.44986737,-0.3973779,1.2888138,-2.6100087,1.9028305,1.4191045,-0.05847483,-0.0043995976,0.019209368,1.0989999,-0.92548424
0.1,0.0,0.9999999999999999,-0.5235987755982988,-0.5235987755982988,0,-1.579056,1.3087547,-0.61895394,0.45028964,-0.3973763,1.2878882,-2.6072516,1.9072589,1.431878,-0.2105329,-0.101879366,-0.1565199,1.2931814,-1.318482
0.1,0.0,0.9999999999999999,-0.5235987755982988,-0.5235987755982988,0,-1.5795034,1.3095942,-0.61968184,0.45022765,-0.39739504,1.2870615,-2.6110797,1.8918321,1.3852783,0.086889096,-0.066073045,0.24496268,1.0584985,-0.41713822
0.1,0.0,0.9999999999999999,-0.5235987755982988,-0.5235987755982988,0,-1.578694,1.3079069,-0.6188856,0.45048144,-0.39863598,1.2880628,-2.610494,1.8904817,1.3852181,-0.028079037,-0.10111807,0.3009317,1.1342759,-0.40985602
0.1,0.0,0.9999999999999999,-0.5235987755982988,-0.5235987755982988,0,-1.5796789,1.308447,-0.6187978,0.450018,-0.3979122,1.2874854,-2.6032796,1.9077408,1.4401087,-0.026731748,-0.058886167,-0.15861936,1.1456996,-1.3613462
0.1,0.0,0.9999999999999999,-0.5235987755982988,-0.5235987755982988,0,-1.5794615,1.3093772,-0.61926705,0.4503256,-0.39837524,1.2878485,-2.603772,1.8935006,1.3952681,-0.062088832,-0.084224746,-0.30671564,1.0689338,-1.0820562
0.1,0.0,0.9999999999999999,-0.5235987755982988,-0.5235987755982988,0,-1.580498,1.3085834,-0.61903435,0.4492874,-0.40000883,1.2871937,-2.6049805,1.9286318,1.4108201,-0.3362738,-0.0392503,-0.0335797,1.2069823,-0.556543
0.1,0.0,0.9999999999999999,-0.5235987755982988,-0.5235987755982988,0,-1.5786986,1.3100119,-0.6195914,0.4506029,-0.39809263,1.2869875,-2.6026464,1.9034601,1.4155161,-0.14764552,-0.0919881,-0.13798214,1.1881715,-1.0426197
0.1,0.0,0.9999999999999999,-0.5235987755982988,-0.5235987755982988,0,-1.5782559,1.3083017,-0.6197819,0.45002526,-0.40029836,1.2887676,-2.6142871,1.9165745,1.4061149,0.04372811,-0.012211384,0.053220473,1.1313593,-1.313346
0.1,0.0,0.9999999999999999,-0.5235987755982988,-0.5235987755982988,0,-1.5790495,1.3087932,-0.6186412,0.4504927,-0.39679962,1.2875243,-2.597658,1.8892921,1.4358966,-0.13388777,-0.0017884274,0.120243266,1.1289814,-0.5128666
0.1,0.0,0.9999999999999999,-0.5235987755982988,-0.5235987755982988,0,-1.5784723,1.3089013,-0.61999506,0.4499504,-0.39761743,1.2877997,-2.6115048,1.9197824,1.4083169,-0.016454704,-0.07608643,-0.04838703,1.2402874,-0.71544987
0.1,0.0,0.9999999999999999,-0.5235987755982988,-0.5235987755982988,0,-1.5785055,1.3097183,-0.6199905,0.4503136,-0.39895475,1.2877719,-2.5913537,1.9128069,1.4485775,-0.016337525,0.014743529,0.015538947,1.049606,-0.44989055
0.1,0.0,0.9999999999999999,-0.5235987755982988,-0.5235987755982988,0,-1.5794538,1.30935,-0.62069774,0.44970277,-0.39808837,1.2871971,-2.6169078,1.9173726,1.459763,-0.17425656,-0.0690964,0.12016421,1.2326626,-1.5250329
0.1,0.0,0.9999999999999999,-0.5235987755982988,-0.5235987755982988,0,-1.578783,1.3081293,-0.619428,0.45062366,-0.399005,1.2874696,-2.6141243,1.9146435,1.4232234,-0.19756018,-0.0093440125,-0.008429617,1.1738445,-1.1900136
0.1,0.0,0.9999999999999999,-0.5235987755982988,-0.5235987755982988,0,-1.5786787,1.309381,-0.61885136,0.45081407,-0.39837292,1.2883114,-2.600176,1.8921916,1.4005407,-0.13537034,-0.05143813,0.22860406,1.0252932,-1.134989
0.1,0.0,0.9999999999999999,-0.5235987755982988,-0.5235987755982988,0,-1.5784693,1.3082865,-0.6197646,0.44978866,-0.3990513,1.288369,-2.6051874,1.9133025,1.4392327,-0.109878354,-0.08035752,-0.04676507,1.1527579,-1.2203846
0.1,0.0,0.9999999999999999,-0.5235987755982988,-0.5235987755982988,0,-1.5797474,1.3086795,-0.6197378,0.45016488,-0.39925104,1.2875959,-2.616217,1.906442,1.4199524,-0.03391829,-0.0027163557,0.24070849,1.2883335,-1.2459925
0.1,0.0,0.9999999999999999,-0.5235987755982988,-0.5235987755982988,0,-1.5788249,1.3098301,-0.62002224,0.45019472,-0.3964231,1.2875245,-2.605132,1.9007043,1.4271475,-0.14872247,-0.011720658,-0.020860095,1.2331914,-0.7736321
0.1,0.0,0.9999999999999999,-0.5235987755982988,-0.5235987755982988,0,-1.5797491,1.3081622,-0.62029266,0.44931832,-0.3968689,1.2886513,-2.6094627,1.9204351,1.456154,-0.24328099,-0.048269596,0.17280623,1.078486,-0.6007254
0.1,0.0,0.9999999999999999,-0.5235987755982988,-0.5235987755982988,0,-1.578687,1.3098788,-0.6187702,0.45055947,-0.39649504,1.2875342,-2.5991404,1.9304621,1.41914,0.08778113,-0.08137832,-0.08282575,1.2322272,-0.9044793
0.1,0.0,0.9999999999999999,-0.5235987755982988,-0.5235987755982988,0,-1.5795006,1.3073566,-0.6188576,0.45047823,-0.40053982,1.2878377,-2.6113079,1.9218347,1.4295386,-0.1035268,-0.073780514,-0.087844454,1.0588462,-0.485545
0.1,0.0,0.9999999999999999,-0.5235987755982988,-0.5235987755982988,0,-1.5785915,1.3078855,-0.61971074,0.45032158,-0.39744523,1.2878126,-2.6140559,1.9138079,1.3999355,-0.15837221,-0.053801395,-0.111041486,1.1232206,-0.75668913
0.1,0.0,0.9999999999999999,-0.5235987755982988,-0.5235987755982988,0,-1.5794652,1.3096206,-0.620049,0.4499508,-0.39804202,1.2876573,-2.6137025,1.9191498,1.4216503,-0.21743846,-0.04445192,0.14368989,1.10212,-1.3764191
0.1,0.0,0.9999999999999999,-0.5235987755982988,-0.5235987755982988,0,-1.5795531,1.3078198,-0.6192061,0.44994143,-0.40083215,1.2876189,-2.5964258,1.9094276,1.4432474,-0.011489048,-0.04990742,0.27563328,1.123037,-0.6741265
0.1,0.0,0.9999999999999999,-0.5235987755982988,-0.5235987755982988,0,-1.5802113,1.3088292,-0.6187199,0.45069933,-0.3981459,1.2876,-2.6050353,1.9187635,1.4814047,-0.01973508,0.016207548,0.21865693,1.2536266,-1.1796774
0.1,0.0,0.9999999999999999,-0.5235987755982988,-0.5235987755982988,0,-1.5791833,1.3079399,-0.6192967,0.4504272,-0.39861965,1.2873311,-2.599487,1.9062246,1.4127717,-0.17797191,-0.020888088,-0.16971257,1.2774159,-0.637554
0.1,0.0,0.9999999999999999,-0.5235987755982988,-0.5235987755982988,0,-1.5799658,1.3093187,-0.6200816,0.45009637,-0.39988565,1.2872876,-2.599129,1.9293758,1.4151987,-0.1838346,-0.015120246,0.15284252,1.140446,-0.90283066
0.1,0.0,0.9999999999999999,-0.5235987755982988,-0.5235987755982988,0,-1.579136,1.3074229,-0.6193441,0.4502788,-0.3973224,1.2880094,-2.6057496,1.9179713,1.4282641,-0.13363184,0.007400481,-0.1782304,1.2745003,-1.0344496
0.1,0.0,0.9999999999999999,-0.5235987755982988,-0.5235987755982988,0,-1.5787073,1.3094571,-0.61932224,0.45047227,-0.39785364,1.2873116,-2.5972593,1.9188405,1.4160029,-0.07444036,-0.067100056,0.060018726,1.1566445,-0.7070617
0.1,0.0,0.9999999999999999,-0.5235987755982988,-0.5235987755982988,0,-1.5796019,1.3090618,-0.6202221,0.4495787,-0.39716825,1.2877345,-2.6139936,1.8931129,1.4275806,-0.17532152,-0.062936604,-0.024866367,1.1356897,-0.9517579
0.1,0.0,0.9999999999999999,-0.5235987755982988,-0.5235987755982988,0,-1.5786427,1.3103817,-0.61992204,0.45071983,-0.4001366,1.287645,-2.606272,1.9063419,1.402807,0.17579643,-0.040788617,0.21720494,1.2467387,-1.43451
0.1,0.0,0.9999999999999999,-0.5235987755982988,-0.5235987755982988,0,-1.5795444,1.3095917,-0.6195211,0.45079303,-0.39927733,1.2871808,-2.6093137,1.9165937,1.4296423,0.11528612,-0.0016124852,-0.0031332439,1.2110652,-0.97571445
0.1,0.0,0.9999999999999999,-0.5235987755982988,-0.5235987755982988,0,-1.5794357,1.3086936,-0.61963934,0.45026416,-0.39854363,1.2871376,-2.5953221,1.892023,1.4173251,-0.32983348,-0.016961025,0.059022274,1.3353919,-1.2461292
0.1,0.0,0.9999999999999999,-0.5235987755982988,-0.5235987755982988,0,-1.5792468,1.3096061,-0.61975145,0.4501415,-0.39618757,1.2880756,-2.6004474,1.8901993,1.466035,-0.080888085,-0.05983393,0.15950873,1.131959,-0.6028326
0.1,0.0,0.9999999999999999,-0.5235987755982988,-0.5235987755982988,0,-1.5798126,1.307992,-0.6192265,0.45028493,-0.39664268,1.287474,-2.60744,1.9057842,1.4197747,-0.057163905,-0.07166977,0.10739741,1.1165192,-1.7785711
0.1,0.0,0.9999999999999999,-0.5235987755982988,-0.5235987755982988,0,-1.5791013,1.3091279,-0.61954147,0.4508451,-0.39903215,1.2880231,-2.605967,1.9227337,1.4255524,-0.18305029,-0.030357804,-0.1653668,1.0349385,-0.028547024
0.1,0.0,0.9999999999999999,-0.5235987755982988,-0.5235987755982988,0,-1.5789218,1.3087523,-0.6186563,0.45067364,-0.399944,1.288208,-2.6036625,1.90613,1.412209,-0.18606073,-0.08900878,-0.009850189,1.2239864,-1.7228234
0.1,0.0,0.9999999999999999,-0.5235987755982988,-0.5235987755982988,0,-1.5794326,1.3096077,-0.6201548,0.4498977,-0.3985929,1.2878524,-2.6031115,1.8911966,1.4592372,-0.044851728,-0.049218208,0.10318284,1.2018106,-1.607172
0.1,0.0,0.9999999999999999,-0.5235987755982988,-0.5235987755982988,0,-1.5785729,1.3076793,-0.61993265,0.4501864,-0.39712843,1.2881802,-2.6137266,1.9169722,1.4039645,0.08121598,-0.12923627,-0.18273994,1.2463504,-1.7269553
0.1,0.0,0.9999999999999999,-0.5235987755982988,-0.5235987755982988,0,-1.5798044,1.3083453,-0.62012684,0.44977593,-0.39692962,1.2876936,-2.6068392,1.9117333,1.432747,0.010734858,-0.088011205,-0.11910749,1.1223528,-1.4960002
0.1,0.0,0.9999999999999999,-0.5235987755982988,-0.5235987755982988,0,-1.5797176,1.3089736,-0.6194053,0.4498365,-0.3980551,1.2879367,-2.604136,1.9141933,1.3816012,-0.17380562,-0.05514973,-0.03993042,1.2596538,-0.5914438
0.1,0.0,0.9999999999999999,-0.5235987755982988,-0.5235987755982988,0,-1.5794642,1.3095869,-0.62001187,0.45043474,-0.39830646,1.2878559,-2.6024132,1.9046631,1.4127415,-0.08430258,0.071678706,0.12745352,1.2293378,-1.3373119
0.1,0.0,0.9999999999999999,-0.5235987755982988,-0.5235987755982988,0,-1.5798391,1.3099759,-0.6192692,0.4510372,-0.39747965,1.2877015,-2.6050735,1.9162208,1.4469647,-0.08138651,-0.036013808,0.18068878,1.0678214,-0.8025995
0.1,0.0,0.9999999999999999,-0.5235987755982988,-0.5235987755982988,0,-1.5795864,1.3088502,-0.61927664,0.44995123,-0.39559466,1.2878926,-2.602641,1.9055296,1.4279276,-0.12519632,-0.109995596,0.1525862,1.2300732,-0.806996
0.1,0.0,0.9999999999999999,-0.5235987755982988,-0.5235987755982988,0,-1.5797864,1.308541,-0.6190197,0.44999197,-0.3979234,1.2882856,-2.6027606,1.9151775,1.4004966,-0.1411159,-0.087008804,0.015096268,1.1760725,-0.8656965
0.1,0.0,0.9999999999999999,-0.5235987755982988,-0.5235987755982988,0,-1.5799927,1.3076837,-0.61936766,0.45015755,-0.39822185,1.2875785,-2.6123295,1.9031771,1.4397337,-0.13682461,-0.071086094,0.11125113,1.2439576,-0.5422362
0.1,0.0,0.9999999999999999,-0.5235987755982988,-0.5235987755982988,0,-1.5795028,1.309684,-0.61993223,0.45061088,-0.39834943,1.2875843,-2.606441,1.9446449,1.4320853,-0.12129764,-0.10873537,0.26829222,1.1820489,-0.2273137
0.1,0.0,0.9999999999999999,-0.5235987755982988,-0.5235987755982988,0,-1.5792724,1.3087645,-0.62024724,0.45069513,-0.39593196,1.2867357,-2.602908,1.9166739,1.4454142,-0.263273,-0.055934936,0.11268501,1.1174804,-1.00679
0.1,0.0,0.9999999999999999,-0.5235987755982988,-0.5235987755982988,0,-1.5795555,1.3088979,-0.6198603,0.45020074,-0.3998491,1.2876878,-2.6027527,1.9004325,1.4293231,-0.06364073,-0.07430035,-0.05559658,1.1270196,-1.3299978
0.1,0.0,0.9999999999999999,-0.5235987755982988,-0.5235987755982988,0,-1.5788537,1.30844,-0.6200894,0.45030564,-0.39985412,1.2879373,-2.6061702,1.9299378,1.4523706,-0.1719106,-0.088620454,0.15263829,1.2072293,-1.1899618
0.1,0.0,0.9999999999999999,-0.5235987755982988,-0.5235987755982988,0,-1.5783721,1.3068962,-0.6195496,0.45102304,-0.39920637,1.2872844,-2.605232,1.9107293,1.4111527,-0.102576695,-0.00767953,0.009497237,1.1377667,-0.67609733
0.1,0.0,0.9999999999999999,-0.5235987755982988,-0.5235987755982988,0,-1.5802652,1.3085483,-0.6192566,0.44979286,-0.40012282,1.2881864,-2.6041913,1.9046739,1.3961467,0.005778538,-0.0707254,-0.019644551,1.1374388,-1.611064
0.1,0.0,0.9999999999999999,-0.5235987755982988,-0.5235987755982988,0,-1.5799066,1.3098308,-0.6193892,0.45077905,-0.39607647,1.2875855,-2.6050801,1.9117638,1.4380814,-0.07552337,-0.048560668,-0.17478329,1.3216907,-0.10150584
0.1,0.0,0.9999999999999999,-0.5235987755982988,-0.5235987755982988,0,-1.5794488,1.3089083,-0.620396,0.45019713,-0.39818296,1.2879735,-2.6103141,1.9041606,1.4039218,-0.036401343,0.034434248,-0.047133483,1.20718,-0.33738983
0.1,0.0,0.9999999999999999,-0.5235987755982988,-0.5235987755982988,0,-1.5797625,1.3091352,-0.6188921,0.45061874,-0.39998382,1.288497,-2.6025584,1.9047142,1.4330076,0.046742633,-0.099436685,0.2542376,1.1631548,-0.08307
0.1,0.0,0.9999999999999999,-0.5235987755982988,-0.5235987755982988,0,-1.5793334,1.3078537,-0.6191096,0.45087925,-0.39577997,1.2878618,-2.6017404,1.9056215,1.4358667,-0.046101753,-0.15292208,-0.2276824,1.1961018,-1.0484422
0.1,0.0,0.9999999999999999,-0.5235987755982988,-0.5235987755982988,0,-1.5801039,1.3089586,-0.619633,0.44991806,-0.39829612,1.2881716,-2.6096551,1.9080343,1.4097667,-0.18341321,-0.05574947,-0.1390311,1.1377828,-1.1577607
0.1,0.0,0.9999999999999999,-0.5235987755982988,-0.5235987755982988,0,-1.5791768,1.3095064,-0.61993575,0.45070273,-0.39847374,1.2872133,-2.5970936,1.9211947,1.3887041,-0.22883819,-0.03482688,0.12441214,1.2282988,-1.0243433
0.1,0.0,0.9999999999999999,-0.5235987755982988,-0.5235987755982988,0,-1.5788927,1.3085825,-0.6202735,0.45024905,-0.396645,1.2874235,-2.5967917,1.8962412,1.4130117,-0.072857216,-0.04005826,-0.09511032,1.1403824,-0.6902772
0.1,0.0,0.9999999999999999,-0.5235987755982988,-0.5235987755982988,0,-1.5801532,1.3085785,-0.61880374,0.45044506,-0.39904496,1.288284,-2.6024787,1.9091092,1.4248146,-0.09348248,-0.06386482,-0.11964369,1.1833878,-1.4144919
0.1,0.0,0.9999999999999999,-0.5235987755982988,-0.5235987755982988,0,-1.5796139,1.3081298,-0.61971575,0.45007327,-0.39990973,1.2881564,-2.605802,1.9059935,1.43023,-0.13505965,-0.028394353,-0.08827181,1.1888866,-1.9765692
0.1,0.0,0.9999999999999999,-0.5235987755982988,-0.5235987755982988,0,-1.5785835,1.307825,-0.6200366,0.4506952,-0.39837828,1.2876433,-2.60554,1.8959674,1.3939873,-0.26578817,-0.06743988,-0.020800622,1.1495948,-0.9573201
0.1,0.0,0.9999999999999999,-0.5235987755982988,-0.5235987755982988,0,-1.578775,1.3086923,-0.62096024,0.450215,-0.39942715,1.2873465,-2.6069944,1.8994938,1.3888092,-0.13588075,-0.06349007,-0.08275345,1.2181104,-0.8095958
0.1,0.0,0.9999999999999999,-0.5235987755982988,-0.5235987755982988,0,-1.5785567,1.3078394,-0.61996716,0.45110267,-0.39811668,1.2873564,-2.6000721,1.9086214,1.4574964,-0.10147516,-0.12840183,0.09250942,1.289453,-1.5762928
0.1,0.0,0.9999999999999999,-0.5235987755982988,-0.5235987755982988,0,-1.5800124,1.3092446,-0.6207467,0.44997814,-0.4000729,1.2876686,-2.5978854,1.9030559,1.4285377,-0.1359841,-0.053676285,0.43561018,1.1686074,-1.68418
0.1,0.0,0.9999999999999999,-0.5235987755982988,-0.5235987755982988,0,-1.5798794,1.309281,-0.62006545,0.45040032,-0.39841473,1.2878398,-2.6121626,1.914298,1.4300919,-0.14680652,-0.076439634,-0.039638586,1.1788845,-0.7102747
0.1,0.0,0.9999999999999999,-0.5235987755982988,-0.5235987755982988,0,-1.5789477,1.3094428,-0.62094486,0.45050904,-0.39717683,1.2880796,-2.6100843,1.9220376,1.3721734,-0.047529083,0.0016654741,-0.25155896,1.2583582,-0.8546228
0.1,0.0,0.9999999999999999,-0.5235987755982988,-0.5235987755982988,0,-1.5799179,1.30886,-0.61918634,0.45072883,-0.40038192,1.2877756,-2.6024516,1.9063964,1.4193547,-0.083630286,-0.04715726,-0.17381114,1.2347074,-0.9020366
0.1,0.0,0.9999999999999999,-0.5235987755982988,-0.5235987755982988,0,-1.5795292,1.3083293,-0.61999214,0.4503003,-0.40034172,1.2878402,-2.5993402,1.9087714,1.4526682,-0.002940972,-0.13055296,0.16213731,1.1924177,-0.5280332
0.1,0.0,0.9999999999999999,-0.5235987755982988,-0.5235987755982988,0,-1.5800993,1.3079522,-0.62078106,0.4502578,-0.39928436,1.2873317,-2.6078532,1.9192404,1.4313734,-0.08354501,-0.005093826,-0.04878397,1.209528,-1.3952391
0.1,0.0,0.9999999999999999,-0.5235987755982988,-0.5235987755982988,0,-1.5800507,1.3083665,-0.6202784,0.45014378,-0.39830747,1.2881457,-2.5978687,1.925357,1.4563956,-0.05557376,-0.068909034,-0.039636116,1.285193,-0.68563205
0.1,0.0,0.9999999999999999,-0.5235987755982988,-0.5235987755982988,0,-1.580149,1.3094891,-0.62097925,0.45060596,-0.40034518,1.2874174,-2.6128528,1.9176788,1.4019746,0.06146233,-0.09027441,-0.09024442,1.2145088,-0.79392743
0.1,0.0,0.9999999999999999,-0.5235987755982988,-0.5235987755982988,0,-1.5788187,1.3080249,-0.62083006,0.45078692,-0.39900222,1.2878994,-2.5915458,1.8848147,1.4465474,-0.17163154,-0.15721762,0.027874352,1.1530888,-0.88378865
0.1,0.0,0.9999999999999999,-0.5235987755982988,-0.5235987755982988,0,-1.5799133,1.3092936,-0.61983675,0.45017025,-0.3978471,1.2865274,-2.6140964,1.9297962,1.4295058,0.031141156,-0.18018487,-0.26495668,1.1559277,-1.6848416
0.1,0.0,0.9999999999999999,-0.5235987755982988,-0.5235987755982988,0,-1.5788386,1.3089526,-0.61858153,0.45042643,-0.3998068,1.2872174,-2.608862,1.9087943,1.4155356,-0.14398903,-0.04055513,0.48007885,1.1028032,-1.1309915
0.1,0.0,0.9999999999999999,-0.5235987755982988,-0.5235987755982988,0,-1.5785645,1.3096477,-0.61817056,0.44999158,-0.39813295,1.2876937,-2.6069443,1.9121772,1.4436752,-0.21879669,-0.07131991,-0.10136919,1.2082098,-0.65875024
0.1,0.0,0.9999999999999999,-0.5235987755982988,-0.5235987755982988,0,-1.5787394,1.3100302,-0.61905545,0.4495111,-0.398166,1.2876552,-2.606139,1.8908997,1.4336073,-0.061823674,-0.037644204,-0.33581024,1.2324293,-1.1177522
0.1,0.0,0.9999999999999999,-0.5235987755982988,-0.5235987755982988,0,-1.5786589,1.3096445,-0.6184928,0.4500495,-0.3987129,1.2870961,-2.5996134,1.8986554,1.4200155,-0.058130063,-0.07866641,0.047416378,1.1006651,-0.8116641
0.1,0.0,0.9999999999999999,-0.5235987755982988,-0.5235987755982988,0,-1.5781587,1.3091651,-0.6191075,0.45041096,-0.39988863,1.2883515,-2.6172462,1.9038072,1.3925271,-0.14826271,0.00970834,0.30468756,1.1148987,-1.5315205
0.1,0.0,0.9999999999999999,-0.5235987755982988,-0.5235987755982988,0,-1.5777094,1.3081628,-0.6193453,0.4502262,-0.398844,1.288192,-2.612483,1.8995881,1.4758672,-0.07774744,-0.10731493,0.09577494,1.1254908,-1.3305866
0.1,0.0,0.9999999999999999,-0.5235987755982988,-0.5235987755982988,0,-1.5780423,1.3079863,-0.6196212,0.45004284,-0.39781135,1.2877263,-2.6160414,1.9171222,1.3994042,-0.2059419,0.019977938,0.14737488,1.1289388,-0.9374366
0.1,0.0,0.9999999999999999,-0.5235987755982988,-0.5235987755982988,0,-1.5790138,1.3090519,-0.6197191,0.4493468,-0.39740974,1.2872443,-2.612185,1.9083691,1.4361798,-0.21576665,-0.12643446,0.22082664,1.2194144,-0.73572534
0.1,0.0,0.9999999999999999,-0.5235987755982988,-0.5235987755982988,0,-1.5792642,1.309568,-0.61950284,0.45029894,-0.40006122,1.2876089,-2.6056724,1.9008887,1.4436299,-0.19432634,-0.0063151447,0.21039766,1.0983112,-1.5290422
0.1,0.0,0.9999999999999999,-0.5235987755982988,-0.5235987755982988,0,-1.5783421,1.3087128,-0.61860204,0.4505607,-0.39920476,1.2880393,-2.6058507,1.9084363,1.4788206,-0.16736186,-0.06402369,0.079235025,1.2667611,-1.0241505
0.1,0.0,0.9999999999999999,-0.5235987755982988,-0.5235987755982988,0,-1.5794331,1.3090004,-0.61944044,0.44950342,-0.3987658,1.2872044,-2.6039,1.8920594,1.4572318,-0.039467797,-0.048387464,-0.32840765,1.2224581,-0.85078543
0.1,0.0,0.9999999999999999,-0.5235987755982988,-0.5235987755982988,0,-1.5791274,1.3085762,-0.619092,0.450265,-0.3983057,1.2873169,-2.6162827,1.9184166,1.4624484,-0.0017439733,-0.017679457,0.14129744,1.1462197,-0.632596
0.1,0.0,0.9999999999999999,-0.5235987755982988,-0.5235987755982988,0,-1.5789238,1.3086919,-0.6196686,0.44942236,-0.39893246,1.2872177,-2.6106732,1.920968,1.4322641,-0.20855539,-0.05617646,-0.11058232,1.1689891,-0.5949212
0.1,0.0,0.9999999999999999,-0.5235987755982988,-0.5235987755982988,0,-1.5787089,1.309514,-0.62040657,0.45033327,-0.39811826,1.2869961,-2.600631,1.9031937,1.411904,-0.032770414,-0.11213826,-0.15592134,0.9721,-1.3346567
0.1,0.0,0.9999999999999999,-0.5235987755982988,-0.5235987755982988,0,-1.5780269,1.3097186,-0.6199071,0.45053115,-0.39857793,1.2874935,-2.613744,1.9283353,1.4275135,-0.19033216,0.008059269,0.12432286,1.131106,-0.8612767
0.1,0.0,0.9999999999999999,-0.5235987755982988,-0.5235987755982988,0,-1.578217,1.3093054,-0.6192375,0.45058626,-0.3999062,1.2873842,-2.6084323,1.9470541,1.3909054,-0.2708669,0.0045584026,0.11330236,1.173361,-1.7834122
0.1,0.0,0.9999999999999999,-0.5235987755982988,-0.5235987755982988,0,-1.5793834,1.3077304,-0.61994946,0.4495374,-0.3984234,1.2878,-2.618715,1.9071808,1.4283112,-0.19959112,0.006577009,-0.012685862,1.2104949,-1.181441
0.1,0.0,0.9999999999999999,-0.5235987755982988,-0.5235987755982988,0,-1.5795693,1.30805,-0.61885834,0.4492519,-0.3969979,1.28776,-2.6065953,1.8877834,1.4243267,-0.13175912,-0.049927466,0.2676282,1.325554,-1.3963909
0.1,0.0,0.9999999999999999,-0.5235987755982988,-0.5235987755982988,0,-1.5781807,1.3079863,-0.61965704,0.44985622,-0.39652917,1.2872285,-2.6105437,1.9109161,1.4137498,-0.076336876,-0.07737534,0.054835804,1.1756916,-1.3851701
0.1,0.0,0.9999999999999999,-0.5235987755982988,-0.5235987755982988,0,-1.5784246,1.3096092,-0.6199528,0.4499248,-0.39961514,1.2873755,-2.6087816,1.9130752,1.4153486,-0.17989962,-0.12772034,0.2006422,1.1786971,-0.056580305
0.1,0.0,0.9999999999999999,-0.5235987755982988,-0.5235987755982988,0,-1.5793041,1.3078332,-0.61869466,0.4499903,-0.39852557,1.2880467,-2.6034706,1.9060614,1.4303192,-0.07411535,0.031208035,0.22856736,1.246065,-0.58126205
0.1,0.0,0.9999999999999999,-0.5235987755982988,-0.5235987755982988,0,-1.5787462,1.3084091,-0.61958003,0.45011097,-0.39780307,1.2867846,-2.6148438,1.8898486,1.4076561,-0.05428379,-0.069504686,0.030010942,1.3003709,-1.5282747
0.1,0.0,0.9999999999999999,-0.5235987755982988,-0.5235987755982988,0,-1.5789838,1.3085588,-0.619787,0.44945106,-0.39649504,1.2870485,-2.607517,1.9041222,1.4040537,-0.11399874,-0.014369869,-0.14391519,1.1896938,-1.9470952
0.1,0.0,0.9999999999999999,-0.5235987755982988,-0.5235987755982988,0,-1.5784713,1.3099426,-0.62005854,0.45001498,-0.39855215,1.2877856,-2.60778,1.9010502,1.4214582,-0.096834816,-0.066425204,0.18372639,1.1292603,-0.7342492
0.1,0.0,0.9999999999999999,-0.5235987755982988,-0.5235987755982988,0,-1.5790541,1.3102185,-0.6195097,0.44991323,-0.39869118,1.2879325,-2.6096218,1.9139934,1.4167123,-0.1588059,-0.032225553,0.081920564,1.1239614,-0.86890376
0.1,0.0,0.9999999999999999,-0.5235987755982988,-0.5235987755982988,0,-1.5790606,1.3097461,-0.6196447,0.4503347,-0.3992699,1.2869401,-2.6066728,1.8961612,1.4621216,0.0453204,-0.095426105,0.06166191,1.1047213,-0.8333873
0.1,0.0,0.9999999999999999,-0.5235987755982988,-0.5235987755982988,0,-1.5784401,1.3091099,-0.6192518,0.45044515,-0.39610523,1.2877368,-2.601444,1.918356,1.4159851,0.018631352,-0.029816769,0.3040655,1.1190199,-1.4306413
0.1,0.0,0.9999999999999999,-0.5235987755982988,-0.5235987755982988,0,-1.5799311,1.3094236,-0.61978155,0.4501474,-0.40020308,1.2875284,-2.6091251,1.9002268,1.4283178,-0.17838722,-0.13737832,-0.37207618,1.1060092,-0.71390486
0.1,0.0,0.9999999999999999,-0.5235987755982988,-0.5235987755982988,0,-1.5787255,1.3083006,-0.6202756,0.45011508,-0.397991,1.2875061,-2.6166196,1.8954384,1.4096191,-0.2446099,-0.06447646,-0.28065017,1.1510782,-1.0257276
0.1,0.0,0.9999999999999999,-0.5235987755982988,-0.5235987755982988,0,-1.5794536,1.3091503,-0.6195781,0.44952688,-0.39866647,1.2875047,-2.611699,1.921629,1.3913434,-0.0038217201,-0.002994281,-0.07401909,1.1778291,-0.8437554
0.1,0.0,0.9999999999999999,-0.5235987755982988,-0.5235987755982988,0,-1.5789223,1.3083135,-0.61871594,0.45036352,-0.39786234,1.2880863,-2.6151206,1.9003121,1.415893,-0.02898025,-0.035482366,0.10574664,1.1597167,-1.2388939
0.1,0.0,0.9999999999999999,-0.5235987755982988,-0.5235987755982988,0,-1.5787225,1.3091913,-0.61853284,0.45022967,-0.39945757,1.288416,-2.6046195,1.9148043,1.4079332,-0.0046649966,-0.14370324,0.14435601,1.1485596,-0.75695914
0.1,0.0,0.9999999999999999,-0.5235987755982988,-0.5235987755982988,0,-1.5786878,1.3087833,-0.61975014,0.44996524,-0.40026405,1.2874626,-2.6032603,1.9247314,1.4348216,-0.25630662,-0.031395357,0.04913848,1.0862298,-0.4451374
0.1,0.0,0.9999999999999999,-0.5235987755982988,-0.5235987755982988,0,-1.5779175,1.3089471,-0.6196287,0.45017883,-0.39938465,1.2880403,-2.6048095,1.8938783,1.4326752,0.05974558,-0.07998143,0.040037118,1.1288627,0.08466357
0.1,0.0,0.9999999999999999,-0.5235987755982988,-0.5235987755982988,0,-1.5790968,1.3088899,-0.61863744,0.45029274,-0.3994748,1.2874119,-2.607056,1.8942599,1.4206265,-0.028300047,-0.088427,0.22662035,1.2404037,-1.555962
0.1,0.0,0.9999999999999999,-0.5235987755982988,-0.5235987755982988,0,-1.5784371,1.3073541,-0.61904466,0.4496101,-0.39861333,1.2877729,-2.5929885,1.947188,1.4165087,-0.15382683,-0.09741528,-0.15663515,1.1987469,-1.1783233
0.1,0.0,0.9999999999999999,-0.5235987755982988,-0.5235987755982988,0,-1.578811,1.3086034,-0.61965513,0.4499729,-0.3991981,1.2875644,-2.6042001,1.9191867,1.3991323,-0.119587325,-0.044899948,-0.25907883,1.0942705,-0.28964356
0.1,0.0,0.9999999999999999,-0.5235987755982988,-0.5235987755982988,0,-1.579032,1.3077568,-0.61946976,0.45039245,-0.39821398,1.2882643,-2.6287599,1.9182699,1.449487,-0.02685809,-0.05363305,0.048760526,1.188382,-0.864896
0.1,0.0,0.9999999999999999,-0.5235987755982988,-0.5235987755982988,0,-1.5787863,1.3080246,-0.6199511,0.44997042,-0.39902458,1.287494,-2.6109884,1.9202365,1.4272971,0.010981289,-0.0018711579,0.10509264,1.283502,-1.4938458
0.1,0.0,0.9999999999999999,-0.5235987755982988,-0.5235987755982988,0,-1.5782908,1.3091388,-0.62010217,0.45043293,-0.39918712,1.2873368,-2.6031651,1.9115522,1.4114158,-0.2133682,-0.062139325,0.07308177,1.270742,-0.5209878
0.1,0.0,0.9999999999999999,-0.5235987755982988,-0.5235987755982988,0,-1.5784603,1.309984,-0.61892533,0.45074356,-0.39981186,1.2876794,-2.6035874,1.932904,1.3933364,-0.12548149,-0.022508414,0.021367894,1.2205709,-1.0939705
0.1,0.0,0.9999999999999999,-0.5235987755982988,-0.5235987755982988,0,-1.5791546,1.3078067,-0.6197751,0.45016292,-0.39614466,1.2874182,-2.6226888,1.9171102,1.4427459,0.080130115,-0.052916024,-0.056649085,1.177453,-1.138999
0.1,0.0,0.9999999999999999,-0.5235987755982988,-0.5235987755982988,0,-1.5798218,1.3078043,-0.6184857,0.4496248,-0.39829043,1.2881439,-2.602356,1.9154909,1.4103085,-0.25037497,-0.062209025,0.09923655,1.1054571,-1.2097604
0.1,0.0,0.9999999999999999,-0.5235987755982988,-0.5235987755982988,0,-1.5782634,1.3089811,-0.619304,0.45070618,-0.3981008,1.287702,-2.6063018,1.9163612,1.4416317,-0.09608286,-0.093711376,0.10575209,1.1651918,-0.47154066
0.1,0.0,0.9999999999999999,-0.5235987755982988,-0.5235987755982988,0,-1.5794921,1.3091335,-0.6191951,0.44967946,-0.398756,1.2877165,-2.603331,1.9066758,1.4533427,-0.07176948,-0.083261125,-0.021083502,1.2753708,-1.1854025
0.1,0.0,0.9999999999999999,-0.5235987755982988,-0.5235987755982988,0,-1.5787392,1.3087548,-0.62005043,0.44965392,-0.39826608,1.2879102,-2.6037292,1.9015138,1.4310727,0.08847374,0.0035717322,0.07846815,1.2529255,-0.89859295
0.1,0.0,0.9999999999999999,-0.5235987755982988,-0.5235987755982988,0,-1.5789909,1.3086944,-0.61895573,0.45065343,-0.39984524,1.2874534,-2.6014295,1.9054112,1.4371825,-0.09969634,0.0064061307,0.038755435,1.2174488,-0.045756858
0.1,0.0,0.9999999999999999,-0.5235987755982988,-0.5235987755982988,0,-1.5792052,1.3083935,-0.62011427,0.45009992,-0.39936113,1.2872758,-2.614426,1.9122593,1.4051597,-0.10773744,0.002132221,0.2037837,1.2788594,-1.3007567
0.1,0.0,0.9999999999999999,-0.5235987755982988,-0.5235987755982988,0,-1.5793546,1.3076812,-0.6185858,0.45035443,-0.39907157,1.2879943,-2.6016693,1.9083707,1.4549545,-0.29619455,0.0054220934,0.17400235,1.1811267,-0.7804596
0.1,0.0,0.9999999999999999,-0.5235987755982988,-0.5235987755982988,0,-1.5789912,1.3097788,-0.6197181,0.44994327,-0.3995785,1.2872636,-2.5972557,1.9161221,1.3982816,-0.25036138,-0.06921541,-0.10762494,1.1802943,-1.3473486
0.1,0.0,0.9999999999999999,-0.5235987755982988,-0.5235987755982988,0,-1.5796164,1.3087591,-0.6193723,0.45027202,-0.39727184,1.2870966,-2.6141715,1.9033103,1.3958052,-0.17443846,-0.11589293,0.2897617,1.2219896,-0.7509746
0.1,0.0,0.9999999999999999,-0.5235987755982988,-0.5235987755982988,0,-1.5792553,1.3092995,-0.6191738,0.45034188,-0.39830717,1.287927,-2.60837,1.8929685,1.4006528,-0.20253405,-0.06606879,0.25705242,1.2163464,-2.6073527
0.1,0.0,0.9999999999999999,-0.5235987755982988,-0.5235987755982988,0,-1.578789,1.309641,-0.6196498,0.4509663,-0.39732122,1.2876981,-2.6086376,1.89767,1.4192069,-0.029380422,-0.09507938,0.23868486,1.0685214,-0.22078732
0.1,0.0,0.9999999999999999,-0.5235987755982988,-0.5235987755982988,0,-1.5796686,1.308472,-0.6192318,0.44980425,-0.39809704,1.2874085,-2.6064992,1.8821188,1.3954144,-0.20930219,-0.057752628,0.07479984,1.1548917,-0.83583355
0.1,0.0,0.9999999999999999,-0.5235987755982988,-0.5235987755982988,0,-1.5787481,1.3086902,-0.6200628,0.45090902,-0.39987597,1.2864686,-2.6037617,1.9035193,1.4466206,-0.13372831,-0.06943144,0.316618,1.1594158,-0.19943264
0.1,0.0,0.9999999999999999,-0.5235987755982988,-0.5235987755982988,0,-1.5791385,1.3087603,-0.6195677,0.45000076,-0.3988435,1.2875948,-2.6011682,1.9160504,1.4148852,0.08421171,-0.034258272,0.05752198,1.2511221,-0.36189136
0.1,0.0,0.9999999999999999,-0.5235987755982988,-0.5235987755982988,0,-1.579268,1.3087819,-0.61924034,0.4507401,-0.3995826,1.2874013,-2.6090412,1.9083949,1.4089928,-0.27418983,-0.06334889,0.22370267,1.1535354,-1.5053388
0.1,0.0,0.9999999999999999,-0.5235987755982988,-0.5235987755982988,0,-1.5796716,1.3087691,-0.6191759,0.45058352,-0.3980022,1.2869302,-2.6047108,1.9319757,1.4597721,-0.06971015,-0.08383766,0.14930466,1.1353867,0.32708848
0.1,0.0,0.9999999999999999,-0.5235987755982988,-0.5235987755982988,0,-1.5792835,1.3097905,-0.61975706,0.4504004,-0.3974878,1.2873011,-2.601338,1.9229618,1.3801084,-0.13156776,-0.14708132,0.04045095,1.0722347,-1.0016677
0.1,0.0,0.9999999999999999,-0.5235987755982988,-0.5235987755982988,0,-1.580529,1.309699,-0.6194272,0.4499153,-0.39833465,1.2874175,-2.6086597,1.9339509,1.430347,-0.02025003,-0.042367842,0.25625435,1.1933019,-0.58633053
0.1,0.0,0.9999999999999999,-0.5235987755982988,-0.5235987755982988,0,-1.5796309,1.3086977,-0.61957735,0.45003974,-0.4000237,1.2878288,-2.6066055,1.9214845,1.3992556,-0.12244852,-0.08176472,-0.051582713,1.22819,-1.1787667
0.1,0.0,0.9999999999999999,-0.5235987755982988,-0.5235987755982988,0,-1.5785296,1.3076841,-0.61972654,0.45003834,-0.39877298,1.2879956,-2.6050107,1.9088906,1.4025306,-0.058244716,-0.15837194,0.13903959,1.2873613,-0.13494591
0.1,0.0,0.9999999999999999,-0.5235987755982988,-0.5235987755982988,0,-1.578652,1.3074596,-0.6196943,0.4501372,-0.39797604,1.2879082,-2.608656,1.9193187,1.4253683,-0.2657948,-0.060300287,0.15952194,1.2727398,-0.7211375
0.1,0.0,0.9999999999999999,-0.5235987755982988,-0.5235987755982988,0,-1.5795465,1.3076422,-0.61912507,0.45031527,-0.40084887,1.2874978,-2.6060264,1.9253165,1.4047008,-0.24993408,0.0034487331,0.22755465,1.1617968,-0.15800568
0.1,0.0,0.9999999999999999,-0.5235987755982988,-0.5235987755982988,0,-1.578356,1.3095742,-0.62022513,0.4502081,-0.3983071,1.2884947,-2.5995126,1.9035537,1.4232686,-0.16929111,0.01952806,0.05132937,1.2022254,-1.3663952
0.1,0.0,0.9999999999999999,-0.5235987755982988,-0.5235987755982988,0,-1.5786383,1.3083265,-0.62001306,0.45004085,-0.39943367,1.288148,-2.6040905,1.904011,1.4105517,0.06685744,-0.109077394,-0.13468054,1.1165121,-1.0238836
0.1,0.0,0.9999999999999999,-0.5235987755982988,-0.5235987755982988,0,-1.5792818,1.3082646,-0.61980325,0.4498605,-0.4004895,1.28757,-2.598265,1.9133497,1.4211301,-0.18390039,-0.057404853,0.1015603,1.1493345,-1.4100083
0.1,0.0,0.9999999999999999,-0.5235987755982988,-0.5235987755982988,0,-1.57958,1.3088136,-0.619939,0.4507726,-0.39682862,1.2871064,-2.6121192,1.9139972,1.422743,0.057707172,0.041633222,-0.006737551,1.2602099,-2.0019946
0.1,0.0,0.9999999999999999,-0.5235987755982988,-0.5235987755982988,0,-1.5794455,1.3078353,-0.6194034,0.45001653,-0.39753798,1.2879055,-2.6088717,1.930334,1.4435556,-0.27323517,-0.09375172,0.046890866,1.1360446,-1.226798
0.1,0.0,0.9999999999999999,-0.5235987755982988,-0.5235987755982988,0,-1.5783595,1.308437,-0.620742,0.45057097,-0.39834943,1.288312,-2.6176982,1.9112115,1.4018992,-0.19079638,-0.11050805,0.0687565,1.130578,-1.2089608
0.1,0.0,0.9999999999999999,-0.5235987755982988,-0.5235987755982988,0,-1.5785235,1.309271,-0.6202227,0.4501922,-0.39894444,1.288164,-2.600954,1.894803,1.4120572,-0.0765575,-0.037095662,-0.09334968,1.1165407,-1.7896646
0.1,0.0,0.9999999999999999,-0.5235987755982988,-0.5235987755982988,0,-1.5793445,1.3081429,-0.6198413,0.4504338,-0.39957073,1.2874696,-2.615106,1.9070215,1.4296231,-0.14005542,-0.0785039,-0.06880691,1.2352746,-0.7600023
0.1,0.0,0.9999999999999999,-0.5235987755982988,-0.5235987755982988,0,-1.5787661,1.3090966,-0.62027884,0.45047677,-0.39798096,1.2880968,-2.614608,1.913937,1.4284039,-0.22744179,-0.014074293,-0.07161886,1.2639476,-1.4364017
0.1,0.0,0.9999999999999999,-0.5235987755982988,-0.5235987755982988,0,-1.579908,1.3087401,-0.61903274,0.4499724,-0.39910382,1.2886012,-2.6012397,1.9288278,1.4548713,-0.018056713,-0.101994105,0.15131676,1.2220527,-0.093249835
0.1,0.0,0.9999999999999999,-0.5235987755982988,-0.5235987755982988,0,-1.5792023,1.3082262,-0.6194753,0.45004553,-0.39826527,1.2874805,-2.5942786,1.9034301,1.4055337,-0.106973685,-0.082461506,-0.047060266,1.2521179,-0.5737225
0.1,0.0,0.9999999999999999,-0.5235987755982988,-0.5235987755982988,0,-1.579652,1.3083428,-0.61962235,0.45024353,-0.39888877,1.2874932,-2.6037705,1.9215063,1.4042754,-0.057259385,-0.08069813,0.12902494,1.2044908,-1.5865937
0.1,0.0,0.9999999999999999,-0.5235987755982988,-0.5235987755982988,0,-1.5792668,1.3090212,-0.6199708,0.45028758,-0.39864603,1.2883532,-2.613166,1.9129584,1.4231633,-0.12072336,-0.06736816,0.26097432,1.1938987,-2.1238556
0.1,0.0,0.9999999999999999,-0.5235987755982988,-0.5235987755982988,0,-1.5792066,1.3083303,-0.61965203,0.4508475,-0.3982243,1.2867819,-2.6048257,1.9229337,1.3987156,-0.14515048,-0.089536056,-0.02346384,1.1772857,0.09246751
0.1,0.0,0.9999999999999999,-0.5235987755982988,-0.5235987755982988,0,-1.5796528,1.3085504,-0.6200014,0.45003784,-0.39558944,1.2872448,-2.6120942,1.913891,1.3772596,-0.066002175,-0.041569427,0.084328204,1.2226319,0.32949197
0.1,0.0,0.9999999999999999,-0.5235987755982988,-0.5235987755982988,0,-1.579845,1.308378,-0.61894435,0.4503562,-0.3961382,1.2885993,-2.610013,1.9220505,1.4013951,-0.061250694,-0.06268029,0.16468744,1.2725091,0.008621842
0.1,0.0,0.9999999999999999,-0.5235987755982988,-0.5235987755982988,0,-1.5795579,1.3097724,-0.61936665,0.45042387,-0.39872476,1.2877847,-2.5973063,1.9053923,1.4163716,-0.2507933,-0.07043947,0.057531014,1.2055441,-0.7814778
0.1,0.0,0.9999999999999999,-0.5235987755982988,-0.5235987755982988,0,-1.579601,1.3098643,-0.6203003,0.4500319,-0.3991118,1.2885885,-2.6110737,1.8956796,1.4119678,-0.049570736,-0.024969596,0.079335876,1.0777841,-0.7677313
0.1,0.0,0.9999999999999999,-0.5235987755982988,-0.5235987755982988,0,-1.5800785,1.3091326,-0.6198117,0.45053974,-0.3975364,1.286601,-2.6117206,1.8987241,1.3978515,-0.02263184,-0.1043295,-0.042427354,1.1752017,-1.7144899
0.1,0.0,0.9999999999999999,-0.5235987755982988,-0.5235987755982988,0,-1.5798523,1.3077478,-0.61886585,0.4506088,-0.39846432,1.2881286,-2.6088564,1.9106302,1.4078411,-0.081659555,-0.09051779,-0.09661587,1.1830586,-1.0210506
0.1,0.0,0.9999999999999999,-0.5235987755982988,-0.5235987755982988,0,-1.5806221,1.3085785,-0.6192939,0.45011768,-0.4001648,1.2876123,-2.6123474,1.9229664,1.3938046,-0.054526262,-0.08434395,-0.15453577,1.1786994,-1.2305857
0.1,0.0,0.9999999999999999,-0.5235987755982988,-0.5235987755982988,0,-1.5798413,1.3087145,-0.6199799,0.45045143,-0.39828876,1.2878295,-2.6102748,1.9145694,1.4112357,-0.19002745,-0.13422228,0.23040287,1.1523508,-1.4046414
0.1,0.0,0.9999999999999999,-0.5235987755982988,-0.5235987755982988,0,-1.5798137,1.3086445,-0.62036353,0.45031548,-0.4008125,1.2872792,-2.6020997,1.923973,1.4287629,-0.17144465,-0.04018082,-0.025128553,1.1943774,-2.0353973
0.1,0.0,0.9999999999999999,-0.5235987755982988,-0.5235987755982988,0,-1.5800005,1.3088028,-0.62057525,0.4501556,-0.39882183,1.2876998,-2.5942326,1.9146425,1.411689,0.053356282,0.013477439,0.01577826,1.2639762,-0.5952309
0.1,0.0,0.9999999999999999,-0.5235987755982988,-0.5235987755982988,0,-1.5794983,1.3075222,-0.6205602,0.45055854,-0.39959663,1.2865896,-2.6012065,1.9068533,1.4156076,-0.054790847,-0.096098274,0.0384339,1.2061493,-1.1344068
0.1,0.0,0.9999999999999999,-0.5235987755982988,-0.5235987755982988,0,-1.5784271,1.3098272,-0.6186761,0.4501493,-0.3974865,1.2872896,-2.600461,1.9073294,1.4620322,0.06875938,0.03268869,-0.16751218,1.0256436,-0.77226055
0.1,0.0,0.9999999999999999,-0.5235987755982988,-0.5235987755982988,0,-1.5777348,1.3090067,-0.61944264,0.45022166,-0.39762583,1.2875544,-2.607217,1.8979561,1.4347748,0.055690292,-0.009631594,0.024299482,0.97805184,-0.7999878
0.1,0.0,0.9999999999999999,-0.5235987755982988,-0.5235987755982988,0,-1.5784378,1.309746,-0.620494,0.44949484,-0.398058,1.2869775,-2.6119668,1.9254619,1.4224365,-0.13736345,-0.08109959,-0.24708855,1.0653734,-1.3338004
0.1,0.0,0.9999999999999999,-0.5235987755982988,-0.5235987755982988,0,-1.5785159,1.308308,-0.61864245,0.45008603,-0.40001565,1.2874309,-2.6018693,1.9105136,1.4410082,-0.15399481,-0.13851373,-0.19663696,1.1012092,-0.85687566
0.1,0.0,0.9999999999999999,-0.5235987755982988,-0.5235987755982988,0,-1.5788335,1.3085601,-0.61858964,0.45015565,-0.39910978,1.2874339,-2.6118736,1.896133,1.4148822,-0.09907435,-0.05653006,-0.2417339,1.0633531,-1.1676853
0.1,0.0,0.9999999999999999,-0.5235987755982988,-0.5235987755982988,0,-1.5789837,1.3093647,-0.6193092,0.4497735,-0.39844093,1.2877543,-2.60159,1.9270414,1.4628934,-0.025736762,-0.024254745,-0.029052742,0.98626745,-1.0184399
0.1,0.0,0.9999999999999999,-0.5235987755982988,-0.5235987755982988,0,-1.5794078,1.3085474,-0.6183868,0.4499162,-0.3981531,1.287762,-2.6145182,1.938031,1.4302055,0.0017906529,-0.033204477,-0.17430808,1.1174407,-1.1246201
0.1,0.0,0.9999999999999999,-0.5235987755982988,-0.5235987755982988,0,-1.5787375,1.309333,-0.61881286,0.4500887,-0.40013203,1.2866883,-2.6049473,1.9288445,1.4117519,-0.015612991,-0.09584044,-0.015342102,1.2726393,0.2342701
0.1,0.0,0.9999999999999999,-0.5235987755982988,-0.5235987755982988,0,-1.5785245,1.3093787,-0.619469,0.45043093,-0.4002132,1.2870883,-2.6115716,1.9291831,1.437764,-0.11493403,-0.15608983,-0.006528534,1.186579,-1.205982
0.1,0.0,0.9999999999999999,-0.5235987755982988,-0.5235987755982988,0,-1.5782204,1.3085629,-0.6192255,0.44997233,-0.3990997,1.2877916,-2.6020808,1.9035467,1.4153682,-0.093498245,-0.060600605,0.0048618964,1.115802,-0.47806507
0.1,0.0,0.9999999999999999,-0.5235987755982988,-0.5235987755982988,0,-1.5782881,1.3086472,-0.61942595,0.44977227,-0.39872625,1.2872239,-2.595072,1.9304881,1.4229609,0.09499254,-0.00987212,-0.1946028,1.2604314,0.57842165
0.1,0.0,0.9999999999999999,-0.5235987755982988,-0.5235987755982988,0,-1.5786147,1.3086652,-0.61889946,0.45041913,-0.3987302,1.2881718,-2.6079373,1.9108273,1.4629058,0.006167827,0.0082489345,-0.021272315,1.1490464,-0.9444067
0.1,0.0,0.9999999999999999,-0.5235987755982988,-0.5235987755982988,0,-1.57861,1.3096178,-0.6196037,0.44957855,-0.398515,1.2876557,-2.602258,1.921592,1.4034182,-0.116160564,-0.117362894,-0.19279289,1.2051306,-1.1516584
0.1,0.0,0.9999999999999999,-0.5235987755982988,-0.5235987755982988,0,-1.5787313,1.3096879,-0.6196186,0.44983354,-0.39826182,1.287472,-2.5989594,1.9046195,1.4395368,-0.060510498,-0.03105356,-0.21481317,1.3042173,-1.1929842
0.1,0.0,0.9999999999999999,-0.5235987755982988,-0.5235987755982988,0,-1.5789793,1.3087977,-0.61963713,0.45019424,-0.398921,1.2872627,-2.6113899,1.900332,1.4343449,-0.22749048,0.01777678,0.13139765,1.1429353,-0.96818703
0.1,0.0,0.9999999999999999,-0.5235987755982988,-0.5235987755982988,0,-1.578639,1.3085766,-0.6199365,0.4495872,-0.3983968,1.2876942,-2.603888,1.9016222,1.4504309,-0.058831405,-0.08456219,0.22972183,1.1437808,-0.8922691
0.1,0.0,0.9999999999999999,-0.5235987755982988,-0.5235987755982988,0,-1.5792371,1.3083948,-0.6186594,0.45030916,-0.39866248,1.2882226,-2.608731,1.9090463,1.4194499,-0.229519,-0.055740055,-0.030634923,1.1697792,-1.1939228
0.1,0.0,0.9999999999999999,-0.5235987755982988,-0.5235987755982988,0,-1.5787668,1.308783,-0.61929417,0.45002812,-0.40000847,1.2883438,-2.6096587,1.8955287,1.4655901,-0.20091344,-0.14368439,-0.15143606,1.3206534,-0.02962099
0.1,0.0,0.9999999999999999,-0.5235987755982988,-0.5235987755982988,0,-1.5790371,1.3092036,-0.619138,0.44959557,-0.39736697,1.287779,-2.5949905,1.8767506,1.454072,-0.36177835,-0.07875042,-0.18968494,1.1406636,-0.19387503
0.1,0.0,0.9999999999999999,-0.5235987755982988,-0.5235987755982988,0,-1.5787979,1.308934,-0.6180589,0.45062253,-0.39806443,1.2879765,-2.6050797,1.931493,1.3967625,-0.23082644,-0.08339099,0.0335388,1.145632,-1.3720902
0.1,0.0,0.9999999999999999,-0.5235987755982988,-0.5235987755982988,0,-1.5802163,1.3089255,-0.61956203,0.4500591,-0.4001867,1.2871937,-2.601478,1.9028308,1.4361104,-0.2426898,-0.034609593,0.23130603,1.0669702,-0.51917154
0.1,0.0,0.9999999999999999,-0.5235987755982988,-0.5235987755982988,0,-1.5794991,1.3089128,-0.6191921,0.44994128,-0.39677024,1.2869511,-2.60315,1.9146404,1.403158,-0.053638365,-0.07834324,0.19293329,1.1330866,-1.7692442
0.1,0.0,0.9999999999999999,-0.5235987755982988,-0.5235987755982988,0,-1.5798398,1.3096218,-0.61922234,0.44981387,-0.3982133,1.2878757,-2.6170785,1.8732809,1.4210587,-0.123532206,-0.078015134,-0.16325706,1.1624008,-1.2139859
0.1,0.0,0.9999999999999999,-0.5235987755982988,-0.5235987755982988,0,-1.5795792,1.3084856,-0.6200182,0.44953617,-0.39851925,1.2869835,-2.602022,1.9067695,1.4090788,-0.049731135,-0.0115563655,0.15747458,1.1783153,-0.90894574
0.1,0.0,0.9999999999999999,-0.5235987755982988,-0.5235987755982988,0,-1.5787771,1.309464,-0.6198374,0.4507025,-0.3984811,1.2870814,-2.6086104,1.928021,1.3928639,-0.18306814,-0.11210576,-0.09038976,1.0893643,-1.5713495
0.1,0.0,0.9999999999999999,-0.5235987755982988,-0.5235987755982988,0,-1.5790439,1.3093108,-0.6193953,0.45049217,-0.39844143,1.2877188,-2.6053858,1.9220821,1.4198322,-0.19517584,-0.11739125,0.28466824,1.1446649,-1.610899
0.1,0.0,0.9999999999999999,-0.5235987755982988,-0.5235987755982988,0,-1.5782245,1.3082409,-0.6195195,0.45025846,-0.3986028,1.2877197,-2.6081984,1.9219496,1.4085388,-0.098320514,-0.060616314,-0.22147857,1.2314354,-0.26870233
0.1,0.0,0.9999999999999999,-0.5235987755982988,-0.5235987755982988,0,-1.5792996,1.3081101,-0.6195883,0.44981045,-0.39785925,1.288085,-2.6142633,1.9286798,1.4270687,-0.07447704,-0.01033123,-0.040917445,1.1056368,-0.91369057
0.1,0.0,0.9999999999999999,-0.5235987755982988,-0.5235987755982988,0,-1.5784554,1.3087854,-0.61944485,0.4507838,-0.39853805,1.2873448,-2.6030645,1.8971819,1.4133548,-0.14355178,-0.061335433,-0.37992203,1.259925,-0.54376334
0.1,0.0,0.9999999999999999,-0.5235987755982988,-0.5235987755982988,0,-1.5787299,1.3079872,-0.61881006,0.4505575,-0.39679557,1.287737,-2.607906,1.9230728,1.4278378,-0.20588008,-0.0368488,-0.07084187,1.193795,0.038213003
0.1,0.0,0.9999999999999999,-0.5235987755982988,-0.5235987755982988,0,-1.5788485,1.3076131,-0.61912066,0.45040438,-0.399405,1.2876221,-2.6065648,1.9380418,1.4344167,0.06030409,-0.0040003257,0.058562018,1.1623706,-0.6044555
0.1,0.0,0.9999999999999999,-0.5235987755982988,-0.5235987755982988,0,-1.5791003,1.3082557,-0.6206889,0.44999456,-0.39667642,1.2867342,-2.6013799,1.9092766,1.4367651,-0.0029042072,-0.19036427,-0.11350425,1.1728914,-0.43628883
0.1,0.0,0.9999999999999999,-0.5235987755982988,-0.5235987755982988,0,-1.579292,1.307815,-0.61924815,0.45032164,-0.3987615,1.2873276,-2.6117737,1.9269712,1.4387119,-0.18392469,-0.07544916,0.11341353,1.1883532,-1.2170103
0.1,0.0,0.9999999999999999,-0.5235987755982988,-0.5235987755982988,0,-1.579288,1.3100926,-0.6193837,0.4502419,-0.39874187,1.2876521,-2.5979254,1.9020239,1.438343,-0.11228439,-0.10486642,0.008102462,1.1074632,-0.9591276
0.1,0.0,0.9999999999999999,-0.5235987755982988,-0.5235987755982988,0,-1.5797666,1.3085212,-0.61841536,0.45014483,-0.4004173,1.2880443,-2.6017547,1.9122608,1.4010969,-0.030814936,-0.017984556,-0.15943407,1.2376055,-1.0275769
0.1,0.0,0.9999999999999999,-0.5235987755982988,-0.5235987755982988,0,-1.578952,1.3085538,-0.61879736,0.45052186,-0.40041262,1.2881314,-2.6059718,1.9144602,1.4199908,-0.118044384,-0.09534424,0.12899959,1.2443664,-1.3700508
0.1,0.0,0.9999999999999999,-0.5235987755982988,-0.5235987755982988,0,-1.5792886,1.3080688,-0.619241,0.45006186,-0.3975819,1.2874801,-2.606102,1.9185387,1.3949673,-0.02678206,-0.051812716,0.006804079,1.2127358,-1.0113729
0.1,0.0,0.9999999999999999,-0.5235987755982988,-0.5235987755982988,0,-1.5790824,1.3092291,-0.61965024,0.45008975,-0.39747617,1.2881289,-2.6022918,1.9167788,1.382942,0.033302534,-0.03983602,0.2856358,1.2025379,-0.9600419
0.1,0.0,0.9999999999999999,-0.5235987755982988,-0.5235987755982988,0,-1.5789925,1.3095429,-0.61896753,0.4508373,-0.39944786,1.2872587,-2.5968695,1.8893836,1.4562486,0.015271874,-0.07628088,0.025604645,1.2475306,-1.372887
0.1,0.0,0.9999999999999999,-0.5235987755982988,-0.5235987755982988,0,-1.5775094,1.3076801,-0.62044203,0.4507,-0.39773673,1.2872137,-2.6058989,1.9134331,1.4421511,-0.12691459,-0.05509039,0.13570064,1.22595,-1.056036
0.1,0.0,0.9999999999999999,-0.5235987755982988,-0.5235987755982988,0,-1.5798782,1.3087901,-0.61955535,0.45031828,-0.3973808,1.2866149,-2.61055,1.9003701,1.3851502,-0.06250566,-0.07925388,-0.1694599,1.2067937,-0.5771218
0.1,0.0,0.9999999999999999,-0.5235987755982988,-0.5235987755982988,0,-1.5793592,1.3085357,-0.6190957,0.45104071,-0.3996994,1.2869607,-2.605072,1.9022374,1.4030894,-0.17210862,0.00010508058,0.087551355,1.170674,-1.0675297
0.1,0.0,0.9999999999999999,-0.5235987755982988,-0.5235987755982988,0,-1.5801355,1.308949,-0.6201652,0.45007086,-0.3986268,1.2861514,-2.611947,1.9089752,1.4110366,-0.09003432,-0.14988057,0.29136744,1.2397314,-1.3905674
0.1,0.0,0.9999999999999999,-0.5235987755982988,-0.5235987755982988,0,-1.5794386,1.3081453,-0.61896914,0.45050722,-0.39932668,1.2882657,-2.609996,1.9078982,1.4402012,-0.15610115,-0.06882418,-0.02488237,1.3277214,-1.274209
0.1,0.0,0.9999999999999999,-0.5235987755982988,-0.5235987755982988,0,-1.5791373,1.3090183,-0.61910397,0.45032957,-0.399972,1.2879214,-2.5957704,1.8991365,1.4182086,-0.119524784,-0.040929515,-0.14856811,1.240857,-1.8980354
0.1,0.0,0.9999999999999999,-0.5235987755982988,-0.5235987755982988,0,-1.5799984,1.3087494,-0.6198799,0.44977084,-0.39813215,1.2877269,-2.5922523,1.900665,1.4405959,-0.16291483,0.005392446,-0.08215036,1.3013248,-1.0550696
0.1,0.0,0.9999999999999999,-0.5235987755982988,-0.5235987755982988,0,-1.579634,1.3092105,-0.61994797,0.4499492,-0.3987594,1.2872229,-2.592229,1.9254138,1.4069889,0.022039218,-0.001158497,0.1292216,1.265168,-1.955988
0.1,0.0,0.9999999999999999,-0.5235987755982988,-0.5235987755982988,0,-1.579524,1.3093351,-0.6189798,0.45020956,-0.39858466,1.2876803,-2.5952468,1.9097639,1.4122292,-0.0063804956,-0.091139115,0.022995744,1.1747819,-0.7675009
0.1,0.0,0.9999999999999999,-0.5235987755982988,-0.5235987755982988,0,-1.580505,1.309101,-0.6194838,0.45077866,-0.3982983,1.2871557,-2.6020823,1.9220933,1.4277437,-0.088731065,-0.029665148,0.2728312,1.0308558,-0.16066822
0.1,0.0,0.9999999999999999,-0.5235987755982988,-0.5235987755982988,0,-1.5786437,1.3104098,-0.62026054,0.4508814,-0.39788905,1.2876625,-2.6074538,1.9009268,1.366461,-0.17879269,-0.10629661,0.19432172,1.1799661,-2.1147563
0.1,0.0,0.9999999999999999,-0.5235987755982988,-0.5235987755982988,0,-1.5793552,1.3089371,-0.6192472,0.4504855,-0.39849535,1.287871,-2.6050246,1.8987535,1.3922591,-0.10191237,-0.06818238,0.041594815,1.2251254,-1.4159104
0.1,0.0,0.9999999999999999,-0.5235987755982988,-0.5235987755982988,0,-1.5787947,1.3090544,-0.6198355,0.4505423,-0.39938736,1.2880886,-2.592599,1.894846,1.4213786,-0.15704492,-0.051183984,-0.112597354,1.1133188,-1.4839901
0.1,0.0,0.9999999999999999,-0.5235987755982988,-0.5235987755982988,0,-1.5796958,1.3093127,-0.61947215,0.4501285,-0.39883783,1.2885541,-2.5932207,1.910451,1.4040475,-0.17116329,-0.05856768,0.05671661,1.2283646,-2.486083
0.1,0.0,0.9999999999999999,-0.5235987755982988,-0.5235987755982988,0,-1.5798392,1.3076438,-0.62026656,0.45043087,-0.39776155,1.2873952,-2.6029599,1.9303281,1.4264408,0.036784697,-0.0110414885,-0.22865923,1.152838,-0.19531684
0.1,0.0,0.9999999999999999,-0.5235987755982988,-0.5235987755982988,0,-1.5790242,1.3070226,-0.6199023,0.45079324,-0.39898765,1.2882086,-2.6083531,1.900563,1.3896922,-0.085023105,-0.016685158,0.05235736,1.1155454,-1.677016
0.1,0.0,0.9999999999999999,-0.5235987755982988,-0.5235987755982988,0,-1.5798199,1.3083347,-0.620091,0.45061007,-0.39936036,1.2875113,-2.6019173,1.921759,1.4055259,-0.028682655,-0.047639642,0.08660797,1.1133537,-1.1095657
0.1,0.0,0.9999999999999999,-0.5235987755982988,-0.5235987755982988,0,-1.5781407,1.308045,-0.6189512,0.4496681,-0.39781338,1.2870283,-2.6098154,1.9234878,1.4533485,-0.12849818,-0.09743782,0.29990345,1.1007221,-1.2272468
0.1,0.0,0.9999999999999999,-0.5235987755982988,-0.5235987755982988,0,-1.5787593,1.3094507,-0.6188086,0.44957525,-0.39733005,1.287874,-2.6106029,1.8986514,1.4467343,-0.12483878,-0.08239146,0.23342597,1.236658,-1.9182409
0.1,0.0,0.9999999999999999,-0.5235987755982988,-0.5235987755982988,0,-1.5780902,1.3085616,-0.6195087,0.45080492,-0.40090367,1.2871695,-2.599028,1.9137748,1.4096923,0.00053675834,-0.012052119,-0.052927844,1.012277,-1.5231268
0.1,0.0,0.9999999999999999,-0.5235987755982988,-0.5235987755982988,0,-1.5785319,1.3103793,-0.619279,0.4500545,-0.39726913,1.2874277,-2.6134984,1.9006288,1.4284115,-0.35435432,-0.08093594,-0.031786364,1.1823733,-1.3334819
0.1,0.0,0.9999999999999999,-0.5235987755982988,-0.5235987755982988,0,-1.5792103,1.3084944,-0.6194592,0.44982544,-0.3996031,1.2866497,-2.6067133,1.9148977,1.4267303,-0.15791108,0.04035792,0.078664854,1.1147919,-0.53131366
0.1,0.0,0.9999999999999999,-0.5235987755982988,-0.5235987755982988,0,-1.579019,1.3087425,-0.618404,0.4499745,-0.39727363,1.2884865,-2.6130116,1.9085354,1.4349295,-0.0821936,-0.07712024,0.17092948,1.0936127,-0.44996768
0.1,0.0,0.9999999999999999,-0.5235987755982988,-0.5235987755982988,0,-1.5787992,1.3100529,-0.61875457,0.45032334,-0.39831775,1.2864625,-2.5968614,1.9200228,1.4039111,-0.24655376,-0.087306514,-0.07826116,1.1752849,-1.3827996
0.1,0.0,0.9999999999999999,-0.5235987755982988,-0.5235987755982988,0,-1.5789449,1.309433,-0.6197921,0.4494184,-0.3999706,1.2873222,-2.611859,1.9051667,1.4265422,0.09724857,-0.06578758,-0.15593237,1.1954432,-0.95041287
0.1,0.0,0.9999999999999999,-0.5235987755982988,-0.5235987755982988,0,-1.5789343,1.3082359,-0.61946464,0.44979298,-0.39869067,1.2871891,-2.6120563,1.8961142,1.4178455,-0.21270868,-0.13686253,0.035246965,1.1286415,-1.411937
0.1,0.0,0.9999999999999999,-0.5235987755982988,-0.5235987755982988,0,-1.5797559,1.3084711,-0.6189505,0.44972837,-0.39888123,1.2871001,-2.6064498,1.9192967,1.4020786,-0.1665928,-0.02219942,0.34659296,1.1003411,-0.8590317
0.1,0.0,0.9999999999999999,-0.5235987755982988,-0.5235987755982988,0,-1.5786581,1.3094469,-0.62016946,0.44985214,-0.39919326,1.2873068,-2.6013718,1.9196359,1.4360831,0.06103458,-0.1170328,0.20195772,1.1479899,-1.1020484
0.1,0.0,0.9999999999999999,-0.5235987755982988,-0.5235987755982988,0,-1.5781472,1.3095193,-0.6204232,0.44981325,-0.39928463,1.2875738,-2.5994408,1.9044229,1.4140829,-0.028834842,-0.038528625,-0.07635363,1.239038,-1.6919711
0.1,0.0,0.9999999999999999,-0.5235987755982988,-0.5235987755982988,0,-1.5795047,1.3086513,-0.61949265,0.44999328,-0.3981533,1.2877678,-2.6063924,1.9019135,1.4402086,-0.019820264,-0.07946454,0.1762257,1.191862,-0.3135318
0.1,0.0,0.9999999999999999,-0.5235987755982988,-0.5235987755982988,0,-1.578618,1.3084834,-0.6200821,0.4499776,-0.39803007,1.2879974,-2.5971408,1.9157572,1.3960094,-0.08248344,-0.056067377,0.080261834,1.2999027,-0.49147013
0.1,0.0,0.9999999999999999,-0.5235987755982988,-0.5235987755982988,0,-1.579689,1.3092475,-0.619968,0.44973353,-0.3977808,1.2876524,-2.6029654,1.9232858,1.4387339,-0.29031634,-0.07501548,-0.06611885,1.247285,-0.8918113
0.1,0.0,0.9999999999999999,-0.5235987755982988,-0.5235987755982988,0,-1.5792332,1.3076253,-0.6197388,0.45008734,-0.40015107,1.2879132,-2.6093533,1.9070923,1.4647896,-0.23115009,-0.07021342,0.08663915,1.1023227,-0.9519253
0.1,0.0,0.9999999999999999,-0.5235987755982988,-0.5235987755982988,0,-1.5788239,1.3086153,-0.61943585,0.45044997,-0.39925998,1.2878039,-2.6094606,1.9062058,1.4115927,0.099754006,-0.1057202,0.03731295,1.2529215,-0.2862563
0.1,0.0,0.9999999999999999,-0.5235987755982988,-0.5235987755982988,0,-1.5793537,1.3097175,-0.6193621,0.45038995,-0.39761648,1.2876512,-2.6031427,1.9084376,1.4104484,0.038760066,-0.05351092,0.017854815,1.1998688,-0.3271108
0.1,0.0,0.9999999999999999,-0.5235987755982988,-0.5235987755982988,0,-1.5789423,1.3083218,-0.6195207,0.4502961,-0.40017498,1.287442,-2.5919375,1.892741,1.4510839,-0.12678273,-0.047845174,-0.13292244,1.2015076,0.04187988
0.1,0.0,0.9999999999999999,-0.5235987755982988,-0.5235987755982988,0,-1.5784904,1.3083067,-0.62073916,0.45013964,-0.4003495,1.2876383,-2.6081996,1.910047,1.4144684,-0.14067577,-0.09746433,0.09673422,1.155484,-0.010272964
0.1,0.0,0.9999999999999999,-0.5235987755982988,-0.5235987755982988,0,-1.5796183,1.3094339,-0.6197067,0.45028916,-0.3987837,1.2882594,-2.603689,1.9008406,1.4392625,-0.25537977,-0.08867553,0.022519896,1.072738,-2.01442
0.1,0.0,0.9999999999999999,-0.5235987755982988,-0.5235987755982988,0,-1.5797586,1.3078623,-0.6193244,0.45032632,-0.39739582,1.2876806,-2.5998156,1.8909415,1.4563801,-0.055506717,-0.14085516,0.17541438,1.198234,-1.4677215
0.1,0.0,0.9999999999999999,-0.5235987755982988,-0.5235987755982988,0,-1.5793545,1.3095713,-0.6201488,0.45020035,-0.39833668,1.2884805,-2.5997503,1.9074125,1.442492,0.031442042,-0.00969267,0.28979072,1.141358,-0.70988774
0.1,0.0,0.9999999999999999,-0.5235987755982988,-0.5235987755982988,0,-1.5798614,1.3085343,-0.61962545,0.45066446,-0.39896277,1.2873908,-2.6035132,1.9068782,1.4404101,-0.1343465,-0.10084494,0.105580635,1.1900011,-1.1544921
0.1,0.0,0.9999999999999999,-0.5235987755982988,-0.5235987755982988,0,-1.5797076,1.3092532,-0.6197862,0.4507721,-0.39901316,1.287514,-2.602706,1.9259384,1.4190862,-0.041919217,-0.026198778,-0.10612465,1.2320657,-1.4543285
0.1,0.0,0.9999999999999999,-0.5235987755982988,-0.5235987755982988,0,-1.5792567,1.3081241,-0.6181652,0.45060012,-0.39909205,1.2874899,-2.597031,1.8868321,1.4211822,0.026592629,0.02320289,-0.08853274,1.101731,0.5378247
0.1,0.0,0.9999999999999999,-0.5235987755982988,-0.5235987755982988,0,-1.5788568,1.3089292,-0.6198325,0.44999474,-0.3970626,1.2881287,-2.6213713,1.930609,1.431206,-0.027412964,-0.077928595,0.27279067,1.2420642,-0.42082983
0.1,0.0,0.9999999999999999,-0.5235987755982988,-0.5235987755982988,0,-1.5798988,1.3089112,-0.6200684,0.44987443,-0.39806712,1.2874839,-2.6045554,1.9154024,1.4176886,-0.21834308,-0.09589153,-0.16490285,1.1737236,-1.4904053
0.1,0.0,0.9999999999999999,-0.5235987755982988,-0.5235987755982988,0,-1.57894,1.3095386,-0.6203657,0.4505708,-0.39784274,1.287693,-2.5993855,1.9239712,1.40579,0.0090830345,-0.04583454,0.09476832,1.265251,-1.1521876
0.1,0.0,0.9999999999999999,-0.5235987755982988,-0.5235987755982988,0,-1.5796664,1.3090576,-0.61991376,0.45078638,-0.40001366,1.287445,-2.603652,1.9131632,1.4261609,-0.22802468,-0.061869178,-0.22618072,1.1992913,-1.2555059
0.1,0.0,0.9999999999999999,-0.5235987755982988,-0.5235987755982988,0,-1.5788344,1.3097727,-0.61962724,0.4504266,-0.39821732,1.2876588,-2.6076195,1.882598,1.4581151,-0.053750668,-0.14189215,0.15967695,1.234548,-1.1693085
0.1,0.0,0.9999999999999999,-0.5235987755982988,-0.5235987755982988,0,-1.5793437,1.3082813,-0.6201494,0.45004898,-0.39979756,1.2878473,-2.5959852,1.871005,1.3729115,-0.05683719,-0.06726993,0.0071356846,1.0962574,-0.82227486
