sanky1234/BimanualDexCatch/isaacgymenvs/cem_results/football_pose_0.0_0.1_0.6_0.0_0.5235987755982988_0_2025-05-26.csv
x,y,z,roll,pitch,yaw,robot1/joint1,robot1/joint2,robot1/joint3,robot1/joint4,robot1/joint5,robot1/joint6,robot1/joint7,robot2/joint1,robot2/joint2,robot2/joint3,robot2/joint4,robot2/joint5,robot2/joint6,robot2/joint7
0.0,0.1,0.6,0.0,0.5235987755982988,0,-0.10007212,1.5527267,0.058460616,-0.15332013,-0.08755686,1.4313252,-0.42529902,0.16545573,1.4417005,-0.08074789,0.27219355,0.106707044,1.1378877,0.52371645
0.0,0.1,0.6,0.0,0.5235987755982988,0,-0.08723526,1.5588709,0.03379396,-0.23441163,-0.078826465,1.4311018,-0.31901792,-0.028419184,1.4386958,-0.09570553,0.25631925,0.110405006,1.1551337,0.48628563
0.0,0.1,0.6,0.0,0.5235987755982988,0,-0.08277712,1.5489118,0.037093975,-0.20536919,-0.072932936,1.437303,-0.53169316,-0.04648526,1.4338981,-0.09476789,0.25698796,0.08336841,1.121629,0.77506965
0.0,0.1,0.6,0.0,0.5235987755982988,0,-0.0805227,1.5537138,0.038053643,-0.16755304,-0.07683045,1.4563695,-0.5637022,0.12071628,1.430172,-0.082043625,0.27328807,0.053288918,1.1370938,0.4299744
0.0,0.1,0.6,0.0,0.5235987755982988,0,-0.1026008,1.5521122,0.048678212,-0.20913477,-0.08776824,1.4482465,-0.46748284,-0.03542852,1.4321102,-0.076471336,0.26151893,0.12972087,1.1436344,0.6810539
0.0,0.1,0.6,0.0,0.5235987755982988,0,-0.09344897,1.5458549,0.07216076,-0.15992184,-0.038522013,1.4349533,-0.46641397,0.12846363,1.4351535,-0.07237132,0.26539913,0.11062826,1.158698,0.817244
0.0,0.1,0.6,0.0,0.5235987755982988,0,-0.10270086,1.5366813,0.06735824,-0.17651758,-0.047983505,1.4301168,-0.37208283,0.15904683,1.4260608,-0.08231728,0.23585215,0.090155,1.1094846,0.5511189
0.0,0.1,0.6,0.0,0.5235987755982988,0,-0.073324904,1.5399443,0.023981126,-0.19117105,-0.06993426,1.4237956,-0.464332,0.33049405,1.4216999,-0.09011824,0.2562541,0.12529868,1.1359872,0.67253304
0.0,0.1,0.6,0.0,0.5235987755982988,0,-0.09542371,1.5478377,0.04105679,-0.19699761,-0.08768149,1.4264488,-0.5388351,-0.116160356,1.4301859,-0.10754121,0.2594592,0.094554104,1.1592795,0.93163556
0.0,0.1,0.6,0.0,0.5235987755982988,0,-0.09854581,1.5483421,0.057038285,-0.16043988,-0.10292513,1.4391221,-0.40694812,0.2411553,1.4291526,-0.07346918,0.28818712,0.09743971,1.1272546,0.8954911
0.0,0.1,0.6,0.0,0.5235987755982988,0,-0.08807196,1.5374955,0.051744547,-0.15831377,-0.058550768,1.4382309,-0.48405653,0.08714492,1.4375448,-0.091816604,0.26210755,0.11203954,1.1471138,0.6739016
0.0,0.1,0.6,0.0,0.5235987755982988,0,-0.111041956,1.5562636,0.032884512,-0.21927035,-0.06002742,1.4468473,-0.5845733,0.06190971,1.428146,-0.07653942,0.23599127,0.07304146,1.1456697,0.56249326
0.0,0.1,0.6,0.0,0.5235987755982988,0,-0.107368685,1.5475837,0.055244196,-0.210321,-0.103277385,1.4269713,-0.58606035,0.02125645,1.4289111,-0.094890945,0.25573292,0.087429635,1.1265572,0.68188196
0.0,0.1,0.6,0.0,0.5235987755982988,0,-0.10787108,1.5443637,0.060167506,-0.1966893,-0.038939785,1.4295167,-0.5119882,0.14415222,1.4411937,-0.07365353,0.25779197,0.05930444,1.1509771,0.5763846
0.0,0.1,0.6,0.0,0.5235987755982988,0,-0.07887167,1.5592933,0.048227657,-0.22220857,-0.05640544,1.4368397,-0.55842483,0.18308358,1.435702,-0.08275987,0.2517615,0.10185083,1.152251,0.666095
0.0,0.1,0.6,0.0,0.5235987755982988,0,-0.11148864,1.5435296,0.076143235,-0.1797183,-0.05710191,1.4495353,-0.5229525,0.04706576,1.4394196,-0.077268384,0.22612518,0.07005637,1.1104559,0.6087292
0.0,0.1,0.6,0.0,0.5235987755982988,0,-0.10782124,1.5437402,0.05011732,-0.18843627,-0.019323204,1.4424686,-0.54594433,0.08647252,1.4371107,-0.08061134,0.25001103,0.10931461,1.1449004,0.9162904
0.0,0.1,0.6,0.0,0.5235987755982988,0,-0.08424822,1.5535343,0.052469026,-0.2186238,-0.09840349,1.4477534,-0.43681726,0.02931791,1.442996,-0.06635514,0.26197496,0.13559985,1.1357422,0.5677311
0.0,0.1,0.6,0.0,0.5235987755982988,0,-0.09976922,1.5438627,0.049993627,-0.17484151,-0.028449163,1.4538162,-0.39787483,0.28547052,1.4528724,-0.07833518,0.26670086,0.07674062,1.1305505,0.6479724
0.0,0.1,0.6,0.0,0.5235987755982988,0,-0.092284344,1.5459672,0.062993504,-0.20425329,-0.10320619,1.4294683,-0.4431741,0.02255858,1.4383686,-0.08452031,0.22889076,0.09873396,1.1221043,0.7391475
0.0,0.1,0.6,0.0,0.5235987755982988,0,-0.117435746,1.5409337,0.06301901,-0.17562294,-0.12435575,1.4422811,-0.38563594,0.32088584,1.4257112,-0.08409115,0.25924295,0.078148246,1.1321652,0.86246055
0.0,0.1,0.6,0.0,0.5235987755982988,0,-0.10295736,1.5467516,0.058182325,-0.1950258,-0.063293934,1.4378879,-0.4853573,0.06973469,1.4100695,-0.07612258,0.22699672,0.07609963,1.1280086,0.74394804
0.0,0.1,0.6,0.0,0.5235987755982988,0,-0.102879696,1.5417511,0.05141882,-0.19725569,-0.08083682,1.4382803,-0.4101833,0.17743288,1.4259315,-0.10046576,0.23958075,0.08217519,1.1389287,0.57047695
0.0,0.1,0.6,0.0,0.5235987755982988,0,-0.082931064,1.5472412,0.048095856,-0.18263918,-0.04762945,1.4291625,-0.6554808,0.060084846,1.4312094,-0.105953015,0.2782823,0.06581523,1.1151494,0.51138365
0.0,0.1,0.6,0.0,0.5235987755982988,0,-0.10771668,1.552487,0.058013473,-0.2000434,-0.06769925,1.4368234,-0.5200402,-0.04021621,1.4225398,-0.105432324,0.25666803,0.07472044,1.1359861,0.57769114
0.0,0.1,0.6,0.0,0.5235987755982988,0,-0.1287159,1.55067,0.04152694,-0.20326515,-0.047732364,1.4285387,-0.5347289,-0.014628285,1.4215776,-0.103643425,0.24370992,0.10050664,1.1442767,0.5050461
0.0,0.1,0.6,0.0,0.5235987755982988,0,-0.08293447,1.553613,0.06401078,-0.19428541,-0.08317219,1.4436426,-0.49677354,0.13550715,1.4289883,-0.08079196,0.26573315,0.114589095,1.1250812,0.46965915
0.0,0.1,0.6,0.0,0.5235987755982988,0,-0.09095187,1.5409306,0.07164494,-0.16160978,-0.07976771,1.4247648,-0.55691266,0.14236592,1.4311332,-0.0719535,0.2675536,0.08980395,1.1408445,0.72089803
0.0,0.1,0.6,0.0,0.5235987755982988,0,-0.118082464,1.5444762,0.08612923,-0.19869368,-0.044573333,1.4120716,-0.430802,0.018045072,1.4279232,-0.07564152,0.23830932,0.083975255,1.1326767,0.66580564
0.0,0.1,0.6,0.0,0.5235987755982988,0,-0.08457403,1.5387152,0.04219675,-0.16482507,-0.06309395,1.427172,-0.4961317,0.13306233,1.429511,-0.091444895,0.25763524,0.11693843,1.1186813,0.64442456
0.0,0.1,0.6,0.0,0.5235987755982988,0,-0.07691753,1.5388396,0.03843627,-0.1777953,-0.03737557,1.4199045,-0.41800007,-0.1233565,1.4149379,-0.073710665,0.25438014,0.09924144,1.1244437,0.6066842
0.0,0.1,0.6,0.0,0.5235987755982988,0,-0.08814133,1.5348359,0.067397796,-0.18098506,-0.08921552,1.4160868,-0.32547805,-0.028562428,1.42191,-0.082428426,0.26489317,0.087769896,1.1439192,0.6263625
0.0,0.1,0.6,0.0,0.5235987755982988,0,-0.08909348,1.5465696,0.02188713,-0.17159227,-0.06550561,1.4411157,-0.47254065,0.19224013,1.4457043,-0.075673416,0.2927624,0.112355836,1.1268559,0.7630289
0.0,0.1,0.6,0.0,0.5235987755982988,0,-0.08795027,1.5561458,0.03575849,-0.19860667,-0.03929375,1.4447936,-0.56280166,-0.041988935,1.4339542,-0.108354785,0.2538692,0.083929785,1.130982,0.53683275
0.0,0.1,0.6,0.0,0.5235987755982988,0,-0.11656296,1.5531768,0.0647922,-0.20623587,-0.05964969,1.4392592,-0.52016383,0.041472495,1.4469136,-0.07763681,0.2370568,0.10598863,1.1001753,0.5569445
0.0,0.1,0.6,0.0,0.5235987755982988,0,-0.0933009,1.5555631,0.043314137,-0.19875462,-0.025473189,1.4459028,-0.5682455,0.2771535,1.438617,-0.087796465,0.24457292,0.102183945,1.1673172,0.50768584
0.0,0.1,0.6,0.0,0.5235987755982988,0,-0.09662316,1.5443491,0.050247896,-0.18606038,0.024292016,1.4475698,-0.5160023,0.06097832,1.4419641,-0.06925638,0.2601917,0.11802598,1.1450983,0.706168
0.0,0.1,0.6,0.0,0.5235987755982988,0,-0.092304744,1.5428832,0.055063628,-0.17932785,-0.007796969,1.4320416,-0.57216513,0.27545556,1.4366552,-0.082276255,0.25950274,0.09914346,1.1412369,0.73025954
0.0,0.1,0.6,0.0,0.5235987755982988,0,-0.09746647,1.5427423,0.048557974,-0.18622084,-0.07427617,1.428682,-0.41482788,0.12153052,1.434015,-0.095079646,0.2288582,0.12675324,1.1584889,0.5827008
0.0,0.1,0.6,0.0,0.5235987755982988,0,-0.102245905,1.5531064,0.0610027,-0.20120014,-0.047385737,1.4314826,-0.44101295,0.2901486,1.44205,-0.08912628,0.2733854,0.09517048,1.1558316,0.69081885
0.0,0.1,0.6,0.0,0.5235987755982988,0,-0.068565965,1.5515165,0.04693309,-0.18641439,-0.043583512,1.443599,-0.5583123,0.013899318,1.4515473,-0.09428253,0.22269715,0.07818572,1.152419,0.4886172
0.0,0.1,0.6,0.0,0.5235987755982988,0,-0.15246688,1.5421102,0.053811718,-0.1810302,-0.04931023,1.4201368,-0.45232153,0.050763804,1.4373779,-0.077797875,0.24620077,0.095717795,1.1518453,0.5204179
0.0,0.1,0.6,0.0,0.5235987755982988,0,-0.06694291,1.552615,0.011085068,-0.18028612,-0.024579339,1.4376174,-0.4942437,0.038275138,1.4313955,-0.068555444,0.2530415,0.07441973,1.138308,0.45843223
0.0,0.1,0.6,0.0,0.5235987755982988,0,-0.09641559,1.5521717,0.058614556,-0.16206256,-0.090361305,1.4242601,-0.3490657,0.114681914,1.4302669,-0.06756861,0.24848051,0.13102907,1.1635786,0.7610879
0.0,0.1,0.6,0.0,0.5235987755982988,0,-0.08914395,1.5469335,0.06988149,-0.17694567,-0.04328843,1.4299096,-0.42537135,-0.04636916,1.4416788,-0.06945716,0.25027654,0.09847749,1.1383439,0.5900067
0.0,0.1,0.6,0.0,0.5235987755982988,0,-0.11735049,1.5421925,0.032606438,-0.14550567,-0.0029393763,1.4298459,-0.4872839,0.053829916,1.4460365,-0.08031138,0.26370415,0.077870905,1.1339763,0.5080443
0.0,0.1,0.6,0.0,0.5235987755982988,0,-0.083650045,1.5490429,0.034748014,-0.19032754,-0.08281195,1.4309174,-0.4398132,-0.13430224,1.4329263,-0.08486824,0.27317724,0.12593551,1.1302572,0.4879925
0.0,0.1,0.6,0.0,0.5235987755982988,0,-0.091514856,1.5425932,0.05868071,-0.16856334,-0.08736951,1.4253775,-0.4210458,0.17860326,1.4345037,-0.08310827,0.2569197,0.13258298,1.1314234,0.77401847
0.0,0.1,0.6,0.0,0.5235987755982988,0,-0.09975435,1.5575012,0.068444,-0.1886723,-0.09932681,1.44337,-0.52128965,0.17000966,1.4273851,-0.08527962,0.252462,0.11455609,1.1290716,0.82608783
0.0,0.1,0.6,0.0,0.5235987755982988,0,-0.09304786,1.5517641,0.02897494,-0.20647347,-0.10096774,1.4398324,-0.3695143,0.12864299,1.4326065,-0.07957339,0.25517157,0.087760426,1.141784,0.69856566
0.0,0.1,0.6,0.0,0.5235987755982988,0,-0.11293949,1.5705462,0.048731152,-0.22827955,-0.09934843,1.4369934,-0.53580046,0.13016017,1.4369025,-0.08261347,0.23787129,0.10652757,1.1490201,0.60449964
0.0,0.1,0.6,0.0,0.5235987755982988,0,-0.13607892,1.5582122,0.039715935,-0.22947927,-0.0698202,1.4331697,-0.49656796,0.055083394,1.4364277,-0.08135836,0.23922265,0.108727686,1.1773397,0.6536342
0.0,0.1,0.6,0.0,0.5235987755982988,0,-0.11148494,1.5482408,0.05623388,-0.14327851,0.026685856,1.4442128,-0.31522563,0.34921432,1.4376359,-0.06853149,0.22185056,0.061048854,1.1772001,0.6595109
0.0,0.1,0.6,0.0,0.5235987755982988,0,-0.10238466,1.5471295,0.060612652,-0.17904328,-0.06490192,1.4471657,-0.3683949,-0.05359078,1.4373507,-0.089748375,0.26725492,0.08828131,1.1335931,0.64216155
0.0,0.1,0.6,0.0,0.5235987755982988,0,-0.1095292,1.5426683,0.052842572,-0.1976737,-0.10079824,1.4431332,-0.5542916,0.23545478,1.4343339,-0.079707146,0.25622958,0.10411028,1.1268901,0.44402105
0.0,0.1,0.6,0.0,0.5235987755982988,0,-0.1170572,1.5497998,0.05365856,-0.19551714,-0.09602144,1.4382225,-0.46681616,0.33637294,1.4240227,-0.087013274,0.22763439,0.099827066,1.137753,0.62639767
0.0,0.1,0.6,0.0,0.5235987755982988,0,-0.098801285,1.5547019,0.05129772,-0.19883162,-0.07200615,1.418451,-0.45978263,0.04586164,1.4340051,-0.11509817,0.26014754,0.09047803,1.1567098,0.6685175
0.0,0.1,0.6,0.0,0.5235987755982988,0,-0.070776954,1.562847,0.065080345,-0.15541826,-0.054244347,1.421485,-0.4073882,0.17630754,1.4328357,-0.061970282,0.28300214,0.065370984,1.1590701,0.6374622
0.0,0.1,0.6,0.0,0.5235987755982988,0,-0.09514557,1.5568795,0.05297395,-0.20359051,-0.084829524,1.4627923,-0.56287724,0.049242232,1.4248271,-0.07327771,0.26046222,0.09069477,1.1152703,0.6882586
0.0,0.1,0.6,0.0,0.5235987755982988,0,-0.12640835,1.5510269,0.049583167,-0.21026956,-0.029209005,1.4297917,-0.5222443,0.36258695,1.4192203,-0.09642677,0.22165458,0.116928816,1.1509699,0.7537179
0.0,0.1,0.6,0.0,0.5235987755982988,0,-0.10685365,1.5580665,0.06588814,-0.2001353,-0.06880776,1.4433539,-0.44271538,-0.117367886,1.410999,-0.07493342,0.24549115,0.08687454,1.1377858,0.77305746
0.0,0.1,0.6,0.0,0.5235987755982988,0,-0.07760161,1.5482061,0.0444997,-0.16731384,-0.098184966,1.4296691,-0.49187636,0.08695327,1.4256675,-0.07535463,0.24477245,0.103392065,1.1594303,0.86028785
0.0,0.1,0.6,0.0,0.5235987755982988,0,-0.08107001,1.542498,0.03268234,-0.18425609,-0.022393141,1.4321471,-0.44951075,0.28342813,1.4377929,-0.07396831,0.26848498,0.10561793,1.1558121,0.6308471
0.0,0.1,0.6,0.0,0.5235987755982988,0,-0.10625734,1.554373,0.034431186,-0.20000854,-0.047652923,1.431547,-0.49768937,0.17253539,1.4241164,-0.104079254,0.22948685,0.0732184,1.126631,0.47288617
0.0,0.1,0.6,0.0,0.5235987755982988,0,-0.113329455,1.5454267,0.04528385,-0.17102171,-0.07863764,1.433944,-0.31427148,0.18352611,1.4459798,-0.07190412,0.21931347,0.10719825,1.1480362,0.63758576
0.0,0.1,0.6,0.0,0.5235987755982988,0,-0.09057483,1.5337297,0.058467235,-0.14290299,-0.06309583,1.422343,-0.48752102,-0.04282149,1.4294822,-0.09046299,0.24373561,0.118218616,1.1347295,0.5672274
0.0,0.1,0.6,0.0,0.5235987755982988,0,-0.09772203,1.5549496,0.09183424,-0.20603085,-0.05720176,1.4212332,-0.47287834,-0.045944594,1.4439948,-0.088593386,0.2501264,0.09407802,1.1429621,0.69636244
0.0,0.1,0.6,0.0,0.5235987755982988,0,-0.11197827,1.5613762,0.02854761,-0.20012857,-0.045116827,1.4468361,-0.5656298,0.00024945004,1.4355234,-0.11071947,0.26611924,0.109677665,1.1510053,0.6534934
0.0,0.1,0.6,0.0,0.5235987755982988,0,-0.11014752,1.5364366,0.037691284,-0.19761711,-0.004222903,1.4360827,-0.4753331,0.05778248,1.447748,-0.10549814,0.24622457,0.10453169,1.1495342,0.80017155
0.0,0.1,0.6,0.0,0.5235987755982988,0,-0.096515775,1.5689274,0.03676764,-0.21623595,-0.1039762,1.4433708,-0.36470917,-0.0016236156,1.4267548,-0.06502469,0.27361134,0.07188184,1.1516078,0.7024159
0.0,0.1,0.6,0.0,0.5235987755982988,0,-0.11413446,1.5697906,0.057022713,-0.17025335,-0.18620105,1.4202427,-0.37608355,-0.09404821,1.4293448,-0.089368396,0.25238547,0.12623756,1.1368746,0.70346844
0.0,0.1,0.6,0.0,0.5235987755982988,0,-0.10369329,1.554172,0.044266276,-0.1997985,-0.054506205,1.4253283,-0.44051737,0.12777868,1.4228191,-0.07692434,0.2549477,0.0882885,1.1380007,0.6203825
0.0,0.1,0.6,0.0,0.5235987755982988,0,-0.10240855,1.5579631,0.03891513,-0.17683685,-0.08825572,1.43354,-0.5304956,-0.031564303,1.4415139,-0.08658529,0.25886595,0.1065689,1.1576033,0.7017241
0.0,0.1,0.6,0.0,0.5235987755982988,0,-0.11073473,1.551321,0.049781527,-0.17551205,-0.08377656,1.4462351,-0.32763535,-0.12028079,1.443287,-0.070112884,0.27248055,0.10156825,1.1474344,0.7124508
0.0,0.1,0.6,0.0,0.5235987755982988,0,-0.09988181,1.5616508,0.05456109,-0.22274007,-0.098086886,1.430428,-0.38505766,-0.13342834,1.4213274,-0.065199815,0.25845602,0.118883975,1.1228737,0.7272852
0.0,0.1,0.6,0.0,0.5235987755982988,0,-0.11116428,1.5556139,0.051169932,-0.19286104,-0.04667617,1.419081,-0.5046526,0.13378072,1.4421835,-0.08032728,0.24855885,0.07847122,1.131624,0.6186022
0.0,0.1,0.6,0.0,0.5235987755982988,0,-0.10834463,1.5511999,0.047558293,-0.16757366,-0.06406821,1.4406085,-0.44398922,0.14286178,1.4513153,-0.070253536,0.23763674,0.0822635,1.1527812,0.73780274
0.0,0.1,0.6,0.0,0.5235987755982988,0,-0.11094319,1.5457672,0.052920073,-0.17971118,-0.07004924,1.4278268,-0.29499224,0.11023449,1.4344285,-0.07101555,0.23565353,0.12944376,1.1299397,0.76367307
0.0,0.1,0.6,0.0,0.5235987755982988,0,-0.11358078,1.5521021,0.042220533,-0.19174139,-0.02949834,1.4359503,-0.5377619,0.014626362,1.4386942,-0.08344924,0.26833552,0.089826934,1.1581206,0.73000294
0.0,0.1,0.6,0.0,0.5235987755982988,0,-0.095431596,1.5566812,0.053681105,-0.16758735,-0.03689099,1.4270837,-0.39772803,0.10158789,1.4391779,-0.097443044,0.2887746,0.06850899,1.1148853,0.5551159
0.0,0.1,0.6,0.0,0.5235987755982988,0,-0.085406914,1.549256,0.05325149,-0.17997271,-0.02521486,1.4255164,-0.39147833,0.19531567,1.4337972,-0.08823738,0.22435741,0.1231741,1.1310694,0.63169295
0.0,0.1,0.6,0.0,0.5235987755982988,0,-0.110413246,1.526296,0.060411666,-0.15707679,-0.06456828,1.4512583,-0.43832737,0.00044905746,1.446679,-0.09862621,0.21364583,0.09411899,1.1433169,0.6443956
0.0,0.1,0.6,0.0,0.5235987755982988,0,-0.103992455,1.5633426,0.029583666,-0.21200313,-0.088591576,1.4280782,-0.56982785,-0.014083754,1.4158318,-0.07840496,0.23968498,0.09571103,1.1128118,0.6833054
0.0,0.1,0.6,0.0,0.5235987755982988,0,-0.116752036,1.5671049,0.043905873,-0.21478392,-0.02094056,1.4228806,-0.51409644,0.0479199,1.4305155,-0.074985616,0.23750696,0.061845887,1.1566563,0.63991535
0.0,0.1,0.6,0.0,0.5235987755982988,0,-0.07162858,1.561106,0.046369262,-0.19125955,-0.09720755,1.434274,-0.4812599,0.013633263,1.4338698,-0.060618225,0.25012535,0.10955963,1.1555631,0.6980992
0.0,0.1,0.6,0.0,0.5235987755982988,0,-0.14254609,1.5602459,0.04002801,-0.20993526,-0.026376078,1.4239879,-0.48460555,0.045054793,1.4429809,-0.10146928,0.25931156,0.078620926,1.1500499,0.4137631
0.0,0.1,0.6,0.0,0.5235987755982988,0,-0.0688376,1.568029,0.03534522,-0.21529499,-0.05133465,1.4269177,-0.42554632,-0.10107379,1.4196395,-0.07752806,0.23809186,0.10810778,1.1494552,0.6284254
0.0,0.1,0.6,0.0,0.5235987755982988,0,-0.09640041,1.5511196,0.06287811,-0.18451475,-0.035208497,1.4377123,-0.4173665,0.13058132,1.4164487,-0.09419445,0.24538864,0.1163552,1.1370761,0.62597966
0.0,0.1,0.6,0.0,0.5235987755982988,0,-0.114618205,1.5410393,0.043708015,-0.15522924,-0.01773236,1.4210132,-0.3936126,-0.008641427,1.4220808,-0.06556437,0.23304999,0.08317066,1.1667784,0.5842517
0.0,0.1,0.6,0.0,0.5235987755982988,0,-0.12966496,1.5477831,0.04328771,-0.1502448,-0.106718995,1.418058,-0.3586533,0.037474412,1.4283782,-0.10493135,0.25562683,0.07134272,1.1460537,0.632874
0.0,0.1,0.6,0.0,0.5235987755982988,0,-0.11100693,1.5554401,0.052775364,-0.17903619,-0.10822604,1.4227314,-0.40799618,-0.018146044,1.4309102,-0.07352428,0.25621155,0.07219044,1.1498793,0.70726484
0.0,0.1,0.6,0.0,0.5235987755982988,0,-0.08384064,1.5466788,0.045834,-0.16379829,-0.0018356788,1.4225718,-0.46558225,0.06947471,1.440741,-0.09138059,0.25526798,0.114108905,1.1583483,0.62951964
0.0,0.1,0.6,0.0,0.5235987755982988,0,-0.10262645,1.5684001,0.056030046,-0.1993013,-0.09148712,1.439922,-0.47800645,-0.06725157,1.4558222,-0.06670126,0.27705538,0.115258895,1.1246028,0.8137344
0.0,0.1,0.6,0.0,0.5235987755982988,0,-0.09359934,1.5683072,0.06414257,-0.21188542,-0.099296324,1.4346973,-0.52296686,-0.00424452,1.4320042,-0.08273033,0.2638274,0.08008319,1.1641275,0.46030843
0.0,0.1,0.6,0.0,0.5235987755982988,0,-0.0964898,1.5549062,0.041283205,-0.17143394,-0.05909677,1.4278878,-0.46549106,-0.042284254,1.4212992,-0.09767835,0.23107266,0.06921358,1.1167502,0.526892
0.0,0.1,0.6,0.0,0.5235987755982988,0,-0.11889832,1.5567272,0.04919384,-0.18654133,-0.030720703,1.4329125,-0.48546898,0.13202529,1.4453588,-0.07074404,0.24407943,0.11038833,1.1685003,0.6166533
0.0,0.1,0.6,0.0,0.5235987755982988,0,-0.05069542,1.5549755,0.057768464,-0.16827598,-0.076581925,1.4447919,-0.42000636,-0.012107351,1.4282513,-0.06850302,0.26060453,0.03597773,1.1516327,0.6120709
0.0,0.1,0.6,0.0,0.5235987755982988,0,-0.100280814,1.534625,0.030940332,-0.18596281,-0.09381534,1.4328976,-0.3990588,-0.004624322,1.4154285,-0.08763433,0.23150203,0.08388561,1.1540077,0.6537041
0.0,0.1,0.6,0.0,0.5235987755982988,0,-0.09750256,1.5639638,0.071679905,-0.18606463,-0.029069146,1.4441311,-0.3013544,-0.00977606,1.4509903,-0.077687286,0.24549866,0.107277915,1.1424708,0.6910772
0.0,0.1,0.6,0.0,0.5235987755982988,0,-0.1152504,1.5376546,0.04958828,-0.17136241,-0.03403479,1.4318584,-0.3903975,0.12967432,1.4415693,-0.08681015,0.26722148,0.089015976,1.1269494,0.71708494
0.0,0.1,0.6,0.0,0.5235987755982988,0,-0.09832743,1.5304167,0.067155436,-0.14660214,-0.059825286,1.4268734,-0.5368393,0.20626846,1.4380369,-0.07512764,0.25395703,0.06909126,1.1198963,0.76059455
0.0,0.1,0.6,0.0,0.5235987755982988,0,-0.10429136,1.5395353,0.04044249,-0.17078227,0.030930733,1.4430046,-0.57243294,0.07750439,1.4491059,-0.07458733,0.25098124,0.07545338,1.1510581,0.5712006
0.0,0.1,0.6,0.0,0.5235987755982988,0,-0.097618364,1.5755461,0.050296515,-0.20662953,-0.084520906,1.4459028,-0.43945596,0.09304635,1.4287882,-0.08383061,0.2454864,0.11659142,1.1568671,0.52519256
0.0,0.1,0.6,0.0,0.5235987755982988,0,-0.08871384,1.5244652,0.049858216,-0.13618542,-0.08848385,1.4316473,-0.4925085,-0.2495607,1.4333965,-0.090980865,0.24197625,0.08578954,1.124689,0.37420264
0.0,0.1,0.6,0.0,0.5235987755982988,0,-0.09753532,1.5454975,0.055347778,-0.15540093,-0.11386969,1.4357611,-0.4177066,0.21412608,1.4483695,-0.09015128,0.23767069,0.11799624,1.1545904,0.80076677
0.0,0.1,0.6,0.0,0.5235987755982988,0,-0.07583735,1.576336,0.044666708,-0.16430137,-0.038549036,1.4353591,-0.53970295,0.09044507,1.4331044,-0.09462895,0.26548973,0.14169483,1.1307007,0.7365805
0.0,0.1,0.6,0.0,0.5235987755982988,0,-0.09745116,1.5414749,0.050448705,-0.19298412,-0.069957145,1.4378277,-0.6663057,0.084358476,1.4174175,-0.100791864,0.25045267,0.084192306,1.1517087,0.97002345
0.0,0.1,0.6,0.0,0.5235987755982988,0,-0.09952153,1.5416429,0.030046146,-0.18332686,-0.04161648,1.4223994,-0.5169546,-0.056581855,1.4312456,-0.06394616,0.2654449,0.10709461,1.1565837,0.7330041
0.0,0.1,0.6,0.0,0.5235987755982988,0,-0.10029815,1.5406154,0.052142717,-0.18371841,-0.049314056,1.4310808,-0.51051617,0.1266244,1.4379449,-0.07936378,0.27760962,0.070315875,1.1503252,0.6870914
0.0,0.1,0.6,0.0,0.5235987755982988,0,-0.08256332,1.5532701,0.060418043,-0.18224126,-0.06029284,1.4477957,-0.4048169,0.06904658,1.4385724,-0.10286252,0.2555074,0.13344163,1.1466819,0.8399716
0.0,0.1,0.6,0.0,0.5235987755982988,0,-0.09106239,1.5299186,0.056068834,-0.19009356,-0.09279194,1.4420989,-0.3990526,0.115973555,1.4318461,-0.07281122,0.25161693,0.09016021,1.1330054,0.8642877
0.0,0.1,0.6,0.0,0.5235987755982988,0,-0.099552765,1.5381935,0.055564646,-0.19015186,-0.061326303,1.4442697,-0.41034478,-0.044689383,1.4327554,-0.09855476,0.24497825,0.06921669,1.132241,0.6932552
0.0,0.1,0.6,0.0,0.5235987755982988,0,-0.10734091,1.5552129,0.06347411,-0.18511446,-0.08077509,1.4375257,-0.48568743,0.14089803,1.4385086,-0.096542545,0.26431888,0.11503977,1.1127195,0.6122441
0.0,0.1,0.6,0.0,0.5235987755982988,0,-0.061609335,1.5462574,0.06498622,-0.17831144,-0.02951151,1.4395401,-0.41006398,-0.032703348,1.4436756,-0.09804668,0.2538717,0.075421,1.1749381,0.7404019
0.0,0.1,0.6,0.0,0.5235987755982988,0,-0.11668313,1.5573792,0.03820826,-0.18804851,-0.035656907,1.438075,-0.46401143,0.19034341,1.4234164,-0.081922844,0.24335279,0.09372546,1.136289,0.5810274
0.0,0.1,0.6,0.0,0.5235987755982988,0,-0.049698476,1.5439297,0.047303606,-0.14362977,-0.105226435,1.4300773,-0.46629417,-0.033043858,1.4193045,-0.08775015,0.24914417,0.085524805,1.1280733,0.64443403
0.0,0.1,0.6,0.0,0.5235987755982988,0,-0.08421375,1.5462137,0.004475328,-0.18483591,-0.09397913,1.4445977,-0.5251103,-0.051000413,1.437894,-0.07136482,0.27112365,0.0699208,1.1602129,0.75566894
0.0,0.1,0.6,0.0,0.5235987755982988,0,-0.10230973,1.5418237,0.04752819,-0.17796907,-0.07739425,1.4422175,-0.5136345,0.043741718,1.4348598,-0.101253405,0.24386801,0.073625155,1.1301085,0.53614336
0.0,0.1,0.6,0.0,0.5235987755982988,0,-0.075291045,1.5683208,0.06875874,-0.17654178,-0.08073082,1.4331475,-0.4730393,0.14154027,1.4344054,-0.08497455,0.26609185,0.11432172,1.1329304,0.6100354
0.0,0.1,0.6,0.0,0.5235987755982988,0,-0.08715597,1.5558958,0.054245804,-0.18610683,-0.09413585,1.4325414,-0.30831537,0.06765803,1.4344108,-0.0762162,0.27353984,0.10093633,1.1384021,0.42162594
0.0,0.1,0.6,0.0,0.5235987755982988,0,-0.06472546,1.5567523,0.059729103,-0.14726363,-0.07073279,1.4373956,-0.6185328,-0.008695371,1.4442457,-0.10522669,0.235586,0.087826364,1.129167,0.55443066
0.0,0.1,0.6,0.0,0.5235987755982988,0,-0.12175634,1.5511092,0.065413356,-0.15994853,-0.060696572,1.4593648,-0.52041614,-0.06925883,1.4292645,-0.07857862,0.24953307,0.10111041,1.110068,0.72701526
0.0,0.1,0.6,0.0,0.5235987755982988,0,-0.11189037,1.559327,0.045706872,-0.16789846,-0.06326452,1.4513829,-0.58842194,0.058984336,1.4229332,-0.08492494,0.2810634,0.09560024,1.1051277,0.5546748
0.0,0.1,0.6,0.0,0.5235987755982988,0,-0.08903502,1.5445521,0.039786033,-0.16394351,-0.07512347,1.4456816,-0.45860016,0.066379756,1.4390819,-0.08463421,0.2566368,0.12199491,1.1633041,0.6129635
0.0,0.1,0.6,0.0,0.5235987755982988,0,-0.12810402,1.541127,0.01713596,-0.14637527,-0.06990094,1.4575598,-0.5683371,-0.052584518,1.4418085,-0.093566015,0.2414473,0.08714343,1.1420794,0.6598337
0.0,0.1,0.6,0.0,0.5235987755982988,0,-0.10231659,1.550991,0.08245244,-0.2185815,-0.097160414,1.4452527,-0.55020905,0.018194068,1.4394345,-0.087940164,0.23907281,0.118677646,1.1256586,0.56538814
0.0,0.1,0.6,0.0,0.5235987755982988,0,-0.097256735,1.5468177,0.05918798,-0.1507151,-0.036634084,1.4464104,-0.43864635,0.022989735,1.4283512,-0.08128755,0.25579247,0.13004592,1.1346133,0.731378
0.0,0.1,0.6,0.0,0.5235987755982988,0,-0.06924818,1.5388299,0.033245064,-0.13537246,-0.11372283,1.4178472,-0.45515606,0.06407152,1.4397568,-0.09948226,0.2611239,0.09782243,1.143064,0.6358237
0.0,0.1,0.6,0.0,0.5235987755982988,0,-0.07415225,1.5357335,0.08094999,-0.16128515,-0.07934779,1.4295939,-0.34040788,0.13052976,1.4249952,-0.066718884,0.25454426,0.06867505,1.1374931,0.76233727
0.0,0.1,0.6,0.0,0.5235987755982988,0,-0.10692247,1.5690067,0.037132476,-0.20663258,-0.09838546,1.4292586,-0.50707823,0.14183216,1.4288496,-0.10158541,0.2275709,0.080136605,1.151065,0.70403695
0.0,0.1,0.6,0.0,0.5235987755982988,0,-0.086255714,1.5485076,0.040767483,-0.17198221,-0.058781512,1.439492,-0.48534662,0.13178502,1.4331349,-0.092646495,0.29307348,0.08235734,1.1363928,0.57635325
0.0,0.1,0.6,0.0,0.5235987755982988,0,-0.11205462,1.5498441,0.08953871,-0.1936807,-0.10451653,1.4363761,-0.3579591,0.023956342,1.4486351,-0.08504234,0.26110366,0.08615479,1.1243798,0.79399884
0.0,0.1,0.6,0.0,0.5235987755982988,0,-0.07684776,1.5344265,0.08491555,-0.17938222,-0.097996905,1.4242727,-0.3826527,-0.009162139,1.4363503,-0.08270723,0.2287485,0.09635897,1.1466464,0.5929825
0.0,0.1,0.6,0.0,0.5235987755982988,0,-0.12966278,1.5448503,0.05228856,-0.17279623,-0.03576623,1.4250652,-0.4155287,0.0461442,1.4240308,-0.08548397,0.23312877,0.08741509,1.1393331,0.6463976
0.0,0.1,0.6,0.0,0.5235987755982988,0,-0.12359772,1.5542637,0.06028085,-0.1599051,-0.11619078,1.4328994,-0.4157138,-0.10220799,1.424426,-0.06677962,0.25857708,0.07659185,1.1702034,0.72489256
0.0,0.1,0.6,0.0,0.5235987755982988,0,-0.10168172,1.5350406,0.041829083,-0.18367094,-0.04767825,1.4318553,-0.42470884,0.14525746,1.4396468,-0.079718426,0.23016517,0.09658206,1.1375066,0.8150264
0.0,0.1,0.6,0.0,0.5235987755982988,0,-0.093390286,1.5494792,0.06453594,-0.17653556,-0.039513744,1.4426713,-0.34855232,0.008262321,1.4251221,-0.0760707,0.2623485,0.11968738,1.1458826,0.7968726
0.0,0.1,0.6,0.0,0.5235987755982988,0,-0.1067119,1.5427339,0.05038435,-0.1929105,-0.06649557,1.4467533,-0.5545634,0.09478072,1.4442306,-0.084309764,0.24168807,0.13002141,1.1511899,0.7041546
0.0,0.1,0.6,0.0,0.5235987755982988,0,-0.10949306,1.5314181,0.06504778,-0.16133834,-0.10200754,1.4423884,-0.5284724,0.15952308,1.4379969,-0.080634385,0.26814073,0.10520097,1.1654595,0.65063715
0.0,0.1,0.6,0.0,0.5235987755982988,0,-0.11625992,1.5312202,0.042342596,-0.1645668,0.008713732,1.4405692,-0.5386476,0.084904715,1.4357693,-0.08544848,0.24227841,0.107869826,1.1394061,0.6059221
0.0,0.1,0.6,0.0,0.5235987755982988,0,-0.10516702,1.5356597,0.04846967,-0.18025371,-0.055802416,1.426145,-0.3865395,0.10597433,1.4318358,-0.092086546,0.24958614,0.08203621,1.1535995,0.5802569
0.0,0.1,0.6,0.0,0.5235987755982988,0,-0.09672708,1.5468446,0.042122837,-0.19052766,-0.04308644,1.4280258,-0.58449435,0.111928046,1.4287529,-0.08984157,0.25009826,0.112529665,1.1193227,0.50637406
0.0,0.1,0.6,0.0,0.5235987755982988,0,-0.10656702,1.5514868,0.040251862,-0.21254608,-0.033513337,1.4425862,-0.5944767,0.21741095,1.4309993,-0.087596275,0.24007693,0.10153325,1.1297572,0.5559003
0.0,0.1,0.6,0.0,0.5235987755982988,0,-0.09847705,1.550227,0.05673028,-0.20158961,-0.063653514,1.4287981,-0.44343564,0.22110385,1.435035,-0.070590116,0.2523036,0.098425016,1.1601468,0.67843306
0.0,0.1,0.6,0.0,0.5235987755982988,0,-0.10005366,1.5340002,0.02910121,-0.16703244,-0.07296235,1.4381102,-0.44008747,0.20283823,1.4172372,-0.08120991,0.24499156,0.12026784,1.1220025,0.69037527
0.0,0.1,0.6,0.0,0.5235987755982988,0,-0.08379178,1.5351859,0.062682696,-0.18469602,-0.0033982059,1.4378461,-0.5416502,-0.22605394,1.4290245,-0.07915272,0.24587128,0.08423305,1.1279058,0.79832166
0.0,0.1,0.6,0.0,0.5235987755982988,0,-0.09613833,1.5570067,0.03733951,-0.2008631,-0.059989385,1.4472567,-0.39831313,0.060333803,1.4219279,-0.07332613,0.25777787,0.081191994,1.1342255,0.45617908
0.0,0.1,0.6,0.0,0.5235987755982988,0,-0.052114636,1.5664563,0.05273285,-0.20073675,-0.0454187,1.4294889,-0.46543902,0.12395661,1.4308302,-0.08642435,0.25830844,0.08015053,1.1632656,0.756072
0.0,0.1,0.6,0.0,0.5235987755982988,0,-0.12987202,1.5466585,0.0640921,-0.19577917,-0.035193663,1.4387952,-0.42977822,0.1835149,1.4307259,-0.083336785,0.24942638,0.09134431,1.1237969,0.8485948
0.0,0.1,0.6,0.0,0.5235987755982988,0,-0.1095434,1.5350364,0.06111311,-0.19441754,-0.027997505,1.4324346,-0.40189213,0.18492086,1.4388365,-0.059372142,0.24090828,0.065861225,1.1371739,0.49313763
0.0,0.1,0.6,0.0,0.5235987755982988,0,-0.116618045,1.5498695,0.026773699,-0.20234413,-0.07591176,1.4308555,-0.61487365,-0.06868354,1.4486796,-0.09617635,0.2559826,0.11186721,1.1353266,0.571347
0.0,0.1,0.6,0.0,0.5235987755982988,0,-0.11978629,1.541468,0.041143958,-0.1837429,-0.12520233,1.4264027,-0.47083062,0.15545136,1.4271865,-0.09203359,0.25386962,0.14440791,1.1578104,0.7519264
0.0,0.1,0.6,0.0,0.5235987755982988,0,-0.090193525,1.5476013,0.02321658,-0.15918534,0.0048587327,1.4357338,-0.5097325,0.04747271,1.4271568,-0.091137886,0.25731707,0.1142716,1.1425486,0.7849477
0.0,0.1,0.6,0.0,0.5235987755982988,0,-0.0659547,1.5361917,0.022398379,-0.19805144,-0.047375627,1.4411193,-0.57519895,0.07643244,1.4258425,-0.09738189,0.25337595,0.077413455,1.1371884,0.61910826
0.0,0.1,0.6,0.0,0.5235987755982988,0,-0.09306261,1.540565,0.054386634,-0.20008865,-0.07838195,1.4351728,-0.41248164,0.23272215,1.4423356,-0.0733816,0.26607105,0.13028486,1.1233991,0.69904345
0.0,0.1,0.6,0.0,0.5235987755982988,0,-0.123073176,1.5298059,0.06398703,-0.1839116,-0.05190255,1.4301751,-0.5005901,0.005330455,1.4442028,-0.068399236,0.26031077,0.09708363,1.1167545,0.7141807
0.0,0.1,0.6,0.0,0.5235987755982988,0,-0.09857247,1.5435098,0.028453559,-0.17077373,-0.081059106,1.4545861,-0.6052491,-0.028357957,1.4479371,-0.07528327,0.24361153,0.1169472,1.11405,0.66197413
0.0,0.1,0.6,0.0,0.5235987755982988,0,-0.086142056,1.5254439,0.04353329,-0.13326602,-0.038419817,1.4266334,-0.44667196,0.22346368,1.4354074,-0.09253305,0.24694501,0.08929829,1.1324939,0.5017061
0.0,0.1,0.6,0.0,0.5235987755982988,0,-0.111558184,1.5518812,0.032860994,-0.17551745,-0.06101163,1.4238938,-0.4356556,-0.028838718,1.4201419,-0.082584165,0.26962534,0.1052801,1.0958202,0.34918627
0.0,0.1,0.6,0.0,0.5235987755982988,0,-0.05733011,1.5514461,0.05291681,-0.1695113,-0.07962941,1.4291239,-0.44047362,0.048043985,1.4367169,-0.085095875,0.24109255,0.10047886,1.1369426,0.84070283
0.0,0.1,0.6,0.0,0.5235987755982988,0,-0.11344255,1.5287871,0.052385587,-0.15274611,-0.076514386,1.4376296,-0.5401155,0.08840874,1.4268191,-0.06962369,0.2753296,0.105703205,1.1184744,0.72757655
0.0,0.1,0.6,0.0,0.5235987755982988,0,-0.070072405,1.5544978,0.08263575,-0.17577064,0.009151016,1.4254403,-0.45618886,0.23387688,1.4160713,-0.07237085,0.2557831,0.07910502,1.141165,0.5906742
0.0,0.1,0.6,0.0,0.5235987755982988,0,-0.063381895,1.5488281,0.029599484,-0.1679091,-0.07793769,1.4483856,-0.4529989,-0.10621406,1.4298517,-0.10674671,0.25758004,0.079180405,1.1606656,0.7738092
0.0,0.1,0.6,0.0,0.5235987755982988,0,-0.05085577,1.5372334,0.035896346,-0.15063745,-0.08803904,1.4318397,-0.5464586,0.12013377,1.4227806,-0.09636956,0.25312564,0.10611983,1.1244888,0.8510485
0.0,0.1,0.6,0.0,0.5235987755982988,0,-0.08630629,1.5326447,0.059364352,-0.18069272,0.011573346,1.4439635,-0.48217535,0.025310548,1.4229252,-0.09010907,0.22873431,0.07240751,1.1055571,0.6516133
0.0,0.1,0.6,0.0,0.5235987755982988,0,-0.12520364,1.5527056,0.06687138,-0.16811918,-0.10317718,1.4504902,-0.58718187,0.11428406,1.4298602,-0.09627983,0.26495853,0.096344374,1.1453669,0.78800327
0.0,0.1,0.6,0.0,0.5235987755982988,0,-0.0831898,1.5479681,0.050585587,-0.17255408,-0.020269452,1.4371663,-0.675426,0.050488647,1.4257799,-0.09163625,0.26813734,0.089946955,1.1336913,0.6492884
0.0,0.1,0.6,0.0,0.5235987755982988,0,-0.086634554,1.5645338,0.044641756,-0.18901345,-0.0919068,1.445026,-0.53397554,0.11731228,1.4194667,-0.07275257,0.2612662,0.07292085,1.1270812,0.6678979
0.0,0.1,0.6,0.0,0.5235987755982988,0,-0.07666341,1.5442085,0.050662678,-0.2064233,-0.08338207,1.4551458,-0.52878535,0.14076738,1.4567385,-0.09339222,0.23200093,0.06315015,1.1198547,1.0072423
0.0,0.1,0.6,0.0,0.5235987755982988,0,-0.107511915,1.4825455,0.04231764,-0.14713524,-0.02408621,1.457681,-0.64996916,0.2973638,1.4403796,-0.10056605,0.25440884,0.117579855,1.1322402,0.7170911
0.0,0.1,0.6,0.0,0.5235987755982988,0,-0.07902876,1.5482228,0.067109324,-0.17072125,-0.06721697,1.4369892,-0.49868453,0.011904004,1.438923,-0.08034642,0.25794038,0.09432694,1.1396642,0.89375854
0.0,0.1,0.6,0.0,0.5235987755982988,0,-0.136584,1.5299288,0.039013624,-0.18289915,-0.07369204,1.4199448,-0.5172799,0.03820878,1.4220319,-0.08384075,0.24699472,0.10768445,1.1554012,0.6948298
0.0,0.1,0.6,0.0,0.5235987755982988,0,-0.09444281,1.5357531,0.053755168,-0.17201722,0.01039613,1.4461598,-0.37356767,0.18953417,1.437046,-0.08608553,0.2542801,0.107113004,1.1308135,0.44594082
0.0,0.1,0.6,0.0,0.5235987755982988,0,-0.0877748,1.5428662,0.060749434,-0.15919027,-0.102362655,1.4351758,-0.41481832,0.17728788,1.4291626,-0.096577585,0.24233904,0.07668262,1.129731,0.57002425
0.0,0.1,0.6,0.0,0.5235987755982988,0,-0.08377252,1.5485675,0.04836828,-0.15629409,-0.054913092,1.4305888,-0.48030302,-0.06344398,1.4312737,-0.08497075,0.26905346,0.076369576,1.134532,0.6925892
0.0,0.1,0.6,0.0,0.5235987755982988,0,-0.088930935,1.5506696,0.04688482,-0.1768506,-0.02650742,1.4397398,-0.464503,0.04330601,1.4229093,-0.08327076,0.25163186,0.11994301,1.1743481,0.68814385
0.0,0.1,0.6,0.0,0.5235987755982988,0,-0.08935278,1.5413045,0.057762314,-0.16448472,0.029050333,1.4319,-0.47039217,0.2051403,1.4242153,-0.08362225,0.2581219,0.0836942,1.1323636,0.39193523
0.0,0.1,0.6,0.0,0.5235987755982988,0,-0.11725596,1.5556725,0.05351274,-0.1731796,-0.07300772,1.4313061,-0.40287364,0.05344871,1.4342718,-0.08652031,0.2584615,0.10292171,1.1258184,0.7207881
0.0,0.1,0.6,0.0,0.5235987755982988,0,-0.11277069,1.5391959,0.08399627,-0.16616343,-0.11326045,1.4536147,-0.539364,-0.0203326,1.4431336,-0.09038342,0.2342484,0.07989748,1.1677214,0.7929289
0.0,0.1,0.6,0.0,0.5235987755982988,0,-0.10651222,1.526537,0.050110087,-0.19806239,-0.039353803,1.4369696,-0.54819787,0.1115998,1.4390528,-0.07324132,0.24868444,0.09936642,1.1507478,0.8042195
0.0,0.1,0.6,0.0,0.5235987755982988,0,-0.124533795,1.5604767,0.054822728,-0.19929807,-0.07820223,1.4369168,-0.50711066,0.18360288,1.4238104,-0.07484283,0.23158304,0.07132647,1.1104838,0.69342613
0.0,0.1,0.6,0.0,0.5235987755982988,0,-0.10382728,1.5454712,0.083194524,-0.16883332,-0.05742843,1.4155576,-0.3498755,0.025195437,1.4420949,-0.08046982,0.24494036,0.07215989,1.1351368,0.6484712
0.0,0.1,0.6,0.0,0.5235987755982988,0,-0.101719595,1.5603901,0.063662186,-0.18546745,-0.10438399,1.4323204,-0.49101594,0.20507869,1.4083333,-0.08466037,0.2593388,0.11426907,1.1340023,0.77532244
0.0,0.1,0.6,0.0,0.5235987755982988,0,-0.10079323,1.552739,0.049654007,-0.1749119,-0.080721915,1.4313557,-0.47463793,0.0050607226,1.435505,-0.070210904,0.2432702,0.1040995,1.1120241,0.7526279
0.0,0.1,0.6,0.0,0.5235987755982988,0,-0.09341637,1.5365418,0.031729005,-0.14619781,-0.10217218,1.4153038,-0.4672695,-0.11622944,1.4258201,-0.072928935,0.24735366,0.11971019,1.1534336,0.677092
0.0,0.1,0.6,0.0,0.5235987755982988,0,-0.09337943,1.5588064,0.06477947,-0.19440135,-0.034565024,1.4289829,-0.35606265,-0.06886876,1.4293144,-0.087846726,0.23647754,0.114057854,1.1192359,0.9265507
0.0,0.1,0.6,0.0,0.5235987755982988,0,-0.09454785,1.5451711,0.02488853,-0.18615058,-0.016828466,1.4306079,-0.47343117,0.13478632,1.4400461,-0.093716644,0.27414265,0.08389823,1.1354889,0.46113548
0.0,0.1,0.6,0.0,0.5235987755982988,0,-0.094595395,1.5487732,0.03836607,-0.17556974,-0.06843128,1.4441713,-0.4109846,-0.043446552,1.4349425,-0.08758269,0.22956762,0.09681412,1.1344606,0.5590075
0.0,0.1,0.6,0.0,0.5235987755982988,0,-0.08810007,1.5369476,0.05018995,-0.15220363,-0.08766301,1.4410912,-0.479383,0.097004384,1.4568874,-0.08543735,0.24971648,0.10409199,1.1386601,0.6088985
0.0,0.1,0.6,0.0,0.5235987755982988,0,-0.102857225,1.5349585,0.0470449,-0.15040646,-0.055133376,1.4334817,-0.5081204,-0.102502376,1.4299477,-0.08528397,0.25963283,0.08498665,1.1221442,0.4602966
0.0,0.1,0.6,0.0,0.5235987755982988,0,-0.07396999,1.5312343,0.054894403,-0.1582279,-0.09187725,1.4433898,-0.5501811,-0.0066253347,1.4228851,-0.11058773,0.25463095,0.081963964,1.1195983,0.7386899
0.0,0.1,0.6,0.0,0.5235987755982988,0,-0.10413389,1.5466917,0.055105284,-0.1694214,-0.07894197,1.4511821,-0.43024385,0.044367444,1.4549718,-0.09285281,0.25902146,0.04835238,1.1442243,0.36885113
0.0,0.1,0.6,0.0,0.5235987755982988,0,-0.120814525,1.5411738,0.04004352,-0.14521776,-0.11198816,1.4408697,-0.52712935,-0.0095114615,1.4347653,-0.07153667,0.25534442,0.08631179,1.1437942,0.5146445
0.0,0.1,0.6,0.0,0.5235987755982988,0,-0.12426862,1.5659329,0.055660143,-0.19008726,-0.056990866,1.4500631,-0.3858324,0.13976264,1.4222485,-0.09772699,0.25631738,0.09485691,1.151006,0.60360134
0.0,0.1,0.6,0.0,0.5235987755982988,0,-0.11588328,1.5561768,0.043436505,-0.1742559,0.030566972,1.4242057,-0.43513694,-0.0788197,1.4393617,-0.09075249,0.24313743,0.11831501,1.1433755,0.78458714
0.0,0.1,0.6,0.0,0.5235987755982988,0,-0.09578957,1.5416201,0.05966582,-0.16272338,-0.06462212,1.4364036,-0.56634456,-0.021246191,1.4359055,-0.08481924,0.2550724,0.11905802,1.148328,0.89624196
0.0,0.1,0.6,0.0,0.5235987755982988,0,-0.113492616,1.541789,0.075230256,-0.16227178,-0.02160296,1.4245858,-0.46552765,0.075991206,1.4219599,-0.10008786,0.26019672,0.07091527,1.1429456,0.508618
0.0,0.1,0.6,0.0,0.5235987755982988,0,-0.097047426,1.5448978,0.0384405,-0.17226748,-0.051559433,1.4281638,-0.5235187,-0.006601682,1.4364583,-0.07539736,0.23700182,0.11964385,1.1361313,0.6714098
0.0,0.1,0.6,0.0,0.5235987755982988,0,-0.13197872,1.5568686,0.036335014,-0.18110251,-0.035926495,1.4347636,-0.3862101,8.7067914e-05,1.4198796,-0.06494235,0.23641923,0.112634785,1.1299316,0.5310024
0.0,0.1,0.6,0.0,0.5235987755982988,0,-0.1201371,1.551995,0.06282752,-0.17545427,-0.123697154,1.4402783,-0.5142318,0.20474756,1.4237502,-0.08176893,0.23186861,0.109139636,1.1391139,0.5973334
0.0,0.1,0.6,0.0,0.5235987755982988,0,-0.107825525,1.5612111,0.03481906,-0.200005,-0.03997983,1.4274586,-0.45077202,0.112710714,1.4310268,-0.07148315,0.2454953,0.09353538,1.1379669,0.53876615
0.0,0.1,0.6,0.0,0.5235987755982988,0,-0.12082172,1.5428561,0.043153744,-0.1564702,-0.010457859,1.4367372,-0.5396742,0.14773497,1.4351535,-0.079562634,0.22875644,0.099063106,1.1113855,0.57740766
0.0,0.1,0.6,0.0,0.5235987755982988,0,-0.07364474,1.5296885,0.06412783,-0.187232,-0.004787582,1.4598716,-0.4215897,0.18795265,1.4501495,-0.090625286,0.26958486,0.07236807,1.1392115,0.77218354
0.0,0.1,0.6,0.0,0.5235987755982988,0,-0.11683428,1.532343,0.040446106,-0.17818159,-0.029650489,1.441481,-0.41191512,0.24440283,1.4549645,-0.074992746,0.25558385,0.088112235,1.1344615,0.73991436
0.0,0.1,0.6,0.0,0.5235987755982988,0,-0.0962128,1.547319,0.06327817,-0.16771199,-0.033711437,1.4371005,-0.48150212,0.16668892,1.4330093,-0.075030565,0.25115973,0.09549829,1.1415702,0.6613764
0.0,0.1,0.6,0.0,0.5235987755982988,0,-0.11706387,1.5485121,0.059605364,-0.16624679,-0.022813627,1.4512212,-0.45624566,0.063099995,1.4342304,-0.094006106,0.23652524,0.081339605,1.0893941,0.65387577
0.0,0.1,0.6,0.0,0.5235987755982988,0,-0.09227568,1.5402247,0.041170653,-0.17624013,-0.064136505,1.4234695,-0.41502443,0.25592616,1.4388704,-0.08162768,0.24055178,0.07988041,1.1602006,0.5178407
0.0,0.1,0.6,0.0,0.5235987755982988,0,-0.09573096,1.5443078,0.047939263,-0.17480156,0.011423988,1.4460025,-0.41505247,0.17151889,1.4390186,-0.09073859,0.2275619,0.10758137,1.1333812,0.6071911
0.0,0.1,0.6,0.0,0.5235987755982988,0,-0.10650937,1.5501986,0.059493944,-0.17765714,-0.06313304,1.4058725,-0.41808507,0.1304272,1.4435034,-0.0663309,0.25969228,0.08401841,1.1501707,0.7881654
0.0,0.1,0.6,0.0,0.5235987755982988,0,-0.09025633,1.5426801,0.06034184,-0.17776544,-0.11001778,1.4514415,-0.53703064,0.15306291,1.4305718,-0.081130154,0.25801453,0.087240316,1.1204078,0.517482
0.0,0.1,0.6,0.0,0.5235987755982988,0,-0.11117488,1.5600826,0.046247277,-0.21351932,-0.0035055268,1.429042,-0.36359426,-0.05444805,1.4150039,-0.10476574,0.25192297,0.05229936,1.1325182,0.78999984
0.0,0.1,0.6,0.0,0.5235987755982988,0,-0.10387326,1.5326693,0.06080946,-0.15397474,-0.032231174,1.4275184,-0.42327452,0.24624765,1.4262534,-0.10134941,0.25759715,0.080551244,1.1386191,0.7147924
0.0,0.1,0.6,0.0,0.5235987755982988,0,-0.11887953,1.5420338,0.043860596,-0.21445528,-0.051411703,1.4261632,-0.47606418,0.31721509,1.451429,-0.092600845,0.21403976,0.07694837,1.1222861,0.68696517
0.0,0.1,0.6,0.0,0.5235987755982988,0,-0.086207315,1.5341343,0.050602347,-0.20314877,-0.00826208,1.4542663,-0.47566086,0.18024705,1.433536,-0.10395025,0.28119332,0.08294973,1.1377263,0.90231264
0.0,0.1,0.6,0.0,0.5235987755982988,0,-0.09327297,1.5165902,0.05176432,-0.1655664,-0.07492135,1.4357314,-0.46074992,0.18814245,1.4465581,-0.08374123,0.25235218,0.048624467,1.0982382,0.7016669
0.0,0.1,0.6,0.0,0.5235987755982988,0,-0.08117955,1.546758,0.047780406,-0.18882738,0.003872991,1.4276938,-0.3781707,0.2982908,1.4209725,-0.094844244,0.28189537,0.07386756,1.1365079,0.5940228
0.0,0.1,0.6,0.0,0.5235987755982988,0,-0.113158755,1.5483562,0.059004683,-0.18186434,-0.09321674,1.4401807,-0.44135076,0.166686,1.4617245,-0.08550207,0.2617331,0.14410128,1.1296029,0.8163451
0.0,0.1,0.6,0.0,0.5235987755982988,0,-0.07703198,1.54362,0.033330932,-0.1946457,-0.07295098,1.4502106,-0.5423524,0.02312812,1.438423,-0.085220255,0.25575274,0.06719932,1.1457458,0.9477917
0.0,0.1,0.6,0.0,0.5235987755982988,0,-0.08563006,1.505997,0.04449121,-0.17151265,-0.080606796,1.4235837,-0.51360255,0.20110862,1.4355884,-0.0856833,0.24918328,0.080842875,1.1318692,0.8469339
0.0,0.1,0.6,0.0,0.5235987755982988,0,-0.10056165,1.5400767,0.051785093,-0.17427662,-0.07313066,1.4378852,-0.5165247,-0.04102286,1.4249356,-0.07719618,0.27418247,0.060402934,1.1144482,0.8441608
0.0,0.1,0.6,0.0,0.5235987755982988,0,-0.0906116,1.5382099,0.04778215,-0.20119908,-0.056890544,1.4433817,-0.40244356,0.17126839,1.4434521,-0.09018475,0.24490008,0.08102198,1.1231529,0.6650617
0.0,0.1,0.6,0.0,0.5235987755982988,0,-0.08639174,1.5574672,0.049193967,-0.21577667,-0.043675527,1.4232088,-0.51095176,-0.014250575,1.4500911,-0.08714616,0.25631034,0.05233248,1.1657828,0.77384764
0.0,0.1,0.6,0.0,0.5235987755982988,0,-0.0772427,1.5327108,0.05692923,-0.17565615,-0.079140835,1.4402182,-0.45992506,0.10281505,1.4351971,-0.08253347,0.26585692,0.09433149,1.1327732,0.82639265
0.0,0.1,0.6,0.0,0.5235987755982988,0,-0.11796958,1.5312214,0.05084393,-0.17762306,-0.06372355,1.4456785,-0.4559346,0.04985585,1.4349506,-0.103585266,0.24438244,0.082370624,1.1308959,0.68709064
0.0,0.1,0.6,0.0,0.5235987755982988,0,-0.11638872,1.5367142,0.040129106,-0.20126756,-0.07300801,1.4232129,-0.42977232,0.0323635,1.4489605,-0.09123298,0.22669707,0.11184844,1.1407583,0.4891622
0.0,0.1,0.6,0.0,0.5235987755982988,0,-0.09141973,1.5365428,0.05129978,-0.19785783,-0.0012357808,1.4404345,-0.4622786,-0.0054928474,1.4265603,-0.06264754,0.27070302,0.10053362,1.1499131,0.7953985
0.0,0.1,0.6,0.0,0.5235987755982988,0,-0.09011149,1.5246334,0.043763954,-0.17360985,0.0125218835,1.4341688,-0.41179854,0.18431485,1.4357852,-0.08922976,0.25558603,0.08811926,1.096445,0.6106341
0.0,0.1,0.6,0.0,0.5235987755982988,0,-0.09914431,1.5586871,0.054192226,-0.21943907,0.0041357186,1.4502426,-0.49488947,0.20938322,1.4404395,-0.0809266,0.24113247,0.08034762,1.1337833,0.89611226
0.0,0.1,0.6,0.0,0.5235987755982988,0,-0.112323225,1.5322207,0.03238919,-0.15057054,-0.05262863,1.4284962,-0.48740596,0.19277951,1.4294461,-0.1003923,0.25299817,0.09755155,1.1173061,0.76007444
0.0,0.1,0.6,0.0,0.5235987755982988,0,-0.11643879,1.5486342,0.05212991,-0.18309847,-0.05498696,1.443914,-0.38939434,0.03694802,1.432833,-0.079586,0.2547,0.07160044,1.12131,0.7400345
0.0,0.1,0.6,0.0,0.5235987755982988,0,-0.10415103,1.5477887,0.04405206,-0.19380666,-0.05111813,1.4439245,-0.4806508,0.22124183,1.424703,-0.096014544,0.2812638,0.12302637,1.1423143,0.8397328
0.0,0.1,0.6,0.0,0.5235987755982988,0,-0.099802196,1.5317886,0.036768965,-0.1648368,-0.008303011,1.435916,-0.39659864,0.22190373,1.4260544,-0.08889999,0.27011073,0.09830194,1.1173611,0.7360653
0.0,0.1,0.6,0.0,0.5235987755982988,0,-0.08036446,1.5373696,0.04467045,-0.17769869,-0.054210164,1.4487001,-0.57150763,-0.03506196,1.4350001,-0.09088231,0.25547498,0.10176381,1.1356429,0.83523965
0.0,0.1,0.6,0.0,0.5235987755982988,0,-0.10691455,1.5437784,0.045992527,-0.19143376,-0.08068083,1.441157,-0.4987746,0.033229344,1.4247653,-0.1044661,0.26545498,0.0906771,1.0993053,0.55241275
0.0,0.1,0.6,0.0,0.5235987755982988,0,-0.08556581,1.5285846,0.019699356,-0.17965437,-0.05110809,1.4275749,-0.4663454,0.25987968,1.4363623,-0.09624399,0.2738558,0.09788555,1.1107477,0.96348554
0.0,0.1,0.6,0.0,0.5235987755982988,0,-0.09541849,1.5344669,0.022312501,-0.19381635,-0.110163264,1.4309328,-0.37997165,0.19562823,1.4450996,-0.10118946,0.24457277,0.09966782,1.1324178,0.48330027
0.0,0.1,0.6,0.0,0.5235987755982988,0,-0.07991524,1.5267982,0.05926912,-0.18221034,-0.01757916,1.4279996,-0.41442916,0.23471065,1.4499125,-0.09465124,0.2511926,0.14194481,1.1497726,0.6347922
0.0,0.1,0.6,0.0,0.5235987755982988,0,-0.10959294,1.5405581,0.07618157,-0.1867021,-0.10098877,1.4348551,-0.5979919,0.29381263,1.4349914,-0.06738858,0.26365826,0.07157701,1.1428756,0.7854052
0.0,0.1,0.6,0.0,0.5235987755982988,0,-0.098060176,1.5202124,0.070814565,-0.16797173,-0.05590919,1.4413077,-0.4962195,0.19819418,1.4375001,-0.08368947,0.25312194,0.11230439,1.0901018,0.82773274
0.0,0.1,0.6,0.0,0.5235987755982988,0,-0.1241137,1.5354447,0.053131487,-0.17443112,-0.07043537,1.4415045,-0.44366834,-0.0058646174,1.4396197,-0.07767338,0.26542756,0.06573691,1.1320224,0.78022695
0.0,0.1,0.6,0.0,0.5235987755982988,0,-0.07470186,1.5308958,0.043980464,-0.18431163,-0.082056135,1.4478433,-0.4306903,0.15642472,1.4494029,-0.09111835,0.24862479,0.08696923,1.1358101,0.55281764
0.0,0.1,0.6,0.0,0.5235987755982988,0,-0.08165967,1.5402741,0.060205482,-0.20402804,-0.046715494,1.4390228,-0.4828786,0.124692395,1.4475557,-0.06918855,0.25294265,0.0888551,1.109059,0.7811178
0.0,0.1,0.6,0.0,0.5235987755982988,0,-0.09624039,1.5424939,0.048321877,-0.21568817,-0.04391725,1.4547597,-0.4153098,0.018391335,1.4229107,-0.08702983,0.28208965,0.08517,1.1101565,0.7091321
0.0,0.1,0.6,0.0,0.5235987755982988,0,-0.10241677,1.5264984,0.040601425,-0.18238458,-0.03741454,1.4354784,-0.34316558,0.09657279,1.4404751,-0.082376674,0.25016752,0.112420544,1.1005653,0.83774
0.0,0.1,0.6,0.0,0.5235987755982988,0,-0.08539592,1.5195067,0.05054477,-0.18839769,-0.08662636,1.4397566,-0.40835807,0.19960882,1.4299718,-0.087477036,0.26005936,0.07851154,1.1215706,0.56049067
0.0,0.1,0.6,0.0,0.5235987755982988,0,-0.11791221,1.5314019,0.06258096,-0.17812426,-0.015258207,1.4299003,-0.60022897,0.019223802,1.4360614,-0.077429235,0.22772802,0.10392844,1.1106466,1.026278
0.0,0.1,0.6,0.0,0.5235987755982988,0,-0.109577574,1.5384048,0.061416563,-0.19876075,-0.037513126,1.4219359,-0.4730232,0.09077602,1.438765,-0.07661851,0.24052921,0.07630272,1.1214143,0.7111832
0.0,0.1,0.6,0.0,0.5235987755982988,0,-0.064892866,1.5308443,0.055156924,-0.18837972,-0.09823574,1.4539603,-0.3955444,0.21485221,1.4581498,-0.087639324,0.25026107,0.11250256,1.1728612,0.71418464
0.0,0.1,0.6,0.0,0.5235987755982988,0,-0.08377048,1.544278,0.045291018,-0.22010952,-0.065886095,1.4572812,-0.64191896,-0.019395927,1.4365224,-0.08398409,0.250124,0.080419436,1.1287181,0.8747907
0.0,0.1,0.6,0.0,0.5235987755982988,0,-0.07410046,1.5361431,0.049549118,-0.1950703,-0.13474831,1.4381632,-0.478983,0.03871045,1.4325081,-0.07934106,0.25193214,0.10074012,1.1358689,0.6320722
0.0,0.1,0.6,0.0,0.5235987755982988,0,-0.11279089,1.5658361,0.050837256,-0.20596151,-0.026154587,1.4459748,-0.382461,0.22984517,1.4331475,-0.07919971,0.27448034,0.099963695,1.1325742,0.721988
0.0,0.1,0.6,0.0,0.5235987755982988,0,-0.10896266,1.5449225,0.04960887,-0.19663034,-0.07824895,1.4380642,-0.4793712,0.06972843,1.4342024,-0.08232947,0.24339084,0.06620148,1.1309475,0.59566957
0.0,0.1,0.6,0.0,0.5235987755982988,0,-0.11101672,1.5630074,0.028166635,-0.19981961,0.004819748,1.450023,-0.44664562,0.041291215,1.4209542,-0.10389473,0.23638113,0.08193085,1.1251961,0.7050621
0.0,0.1,0.6,0.0,0.5235987755982988,0,-0.08744947,1.5397426,0.031122416,-0.16551562,-0.0970127,1.4307334,-0.48640928,0.10121529,1.4249027,-0.08830932,0.25937063,0.09274819,1.1244946,0.56890875
0.0,0.1,0.6,0.0,0.5235987755982988,0,-0.09858511,1.541271,0.040983792,-0.17131963,-0.036492582,1.4355,-0.3878119,-0.07868414,1.4534863,-0.08397235,0.25754926,0.10281205,1.1342506,0.54763955
0.0,0.1,0.6,0.0,0.5235987755982988,0,-0.06819711,1.5363516,0.03650206,-0.19253752,-0.08316498,1.4409006,-0.4071358,0.15385455,1.4353424,-0.08715916,0.26771098,0.08327802,1.1441,0.6440375
