sanky1234/BimanualDexCatch/isaacgymenvs/cem_results/football_pose_-0.2_0.10000000000000003_0.6_0.5235987755982988_-0.5235987755982988_0_2025-05-25.csv
x,y,z,roll,pitch,yaw,robot1/joint1,robot1/joint2,robot1/joint3,robot1/joint4,robot1/joint5,robot1/joint6,robot1/joint7,robot2/joint1,robot2/joint2,robot2/joint3,robot2/joint4,robot2/joint5,robot2/joint6,robot2/joint7
-0.2,0.10000000000000003,0.6,0.5235987755982988,-0.5235987755982988,0,0.31467372,1.6909149,0.27277696,-0.7239545,0.34025332,1.4096478,-2.089405,-0.50806725,1.5534264,-0.11646652,-0.19015047,-0.31188118,0.76585656,-0.8539608
-0.2,0.10000000000000003,0.6,0.5235987755982988,-0.5235987755982988,0,0.3158967,1.6733758,0.2876872,-0.7139022,0.32012272,1.3991354,-2.232541,-0.508393,1.5134737,-0.07618852,-0.1348729,-0.2161477,0.73174894,3.1192796
-0.2,0.10000000000000003,0.6,0.5235987755982988,-0.5235987755982988,0,0.33659875,1.6692467,0.2803961,-0.72409,0.3192464,1.4056137,-2.0757382,-0.48335555,1.5395341,-0.074804746,-0.12958777,-0.29108858,0.77000964,-1.6433363
-0.2,0.10000000000000003,0.6,0.5235987755982988,-0.5235987755982988,0,0.30590472,1.6739849,0.2991194,-0.70961726,0.3339335,1.4068303,-1.9718121,-0.47355244,1.5454003,-0.10069571,-0.13865763,-0.25233805,0.8411913,-0.58818656
-0.2,0.10000000000000003,0.6,0.5235987755982988,-0.5235987755982988,0,0.33229136,1.6981454,0.27948052,-0.70448506,0.32926032,1.4181391,-2.019948,-0.45108134,1.5245726,-0.10528002,-0.11222304,-0.18832399,0.81441444,2.1421523
-0.2,0.10000000000000003,0.6,0.5235987755982988,-0.5235987755982988,0,0.32641533,1.6975604,0.27345636,-0.72319317,0.3641162,1.407323,-2.020458,-0.4676564,1.556083,-0.060811706,-0.113619566,-0.22993009,0.7546419,-0.74397403
-0.2,0.10000000000000003,0.6,0.5235987755982988,-0.5235987755982988,0,0.32573652,1.6759936,0.282875,-0.71683013,0.3278267,1.411162,-1.9413772,-0.4551618,1.5749762,-0.11272364,-0.16263686,-0.2733621,0.6932433,2.7979753
-0.2,0.10000000000000003,0.6,0.5235987755982988,-0.5235987755982988,0,0.32536796,1.673275,0.2748863,-0.72266895,0.30678344,1.4194987,-1.9436009,-0.4222292,1.5674019,-0.08182172,-0.12732622,-0.19931936,0.8062881,1.3515267
-0.2,0.10000000000000003,0.6,0.5235987755982988,-0.5235987755982988,0,0.32792935,1.6844044,0.28969818,-0.7337352,0.3197604,1.4088122,-1.9640166,-0.50464255,1.5469229,-0.1328486,-0.1825558,-0.23619904,0.84739405,2.2996352
-0.2,0.10000000000000003,0.6,0.5235987755982988,-0.5235987755982988,0,0.31680188,1.6833154,0.28440338,-0.7229426,0.34564,1.40754,-2.05189,-0.4135145,1.5383881,-0.097576916,-0.056658905,-0.127741,0.74798363,2.5181174
-0.2,0.10000000000000003,0.6,0.5235987755982988,-0.5235987755982988,0,0.3239751,1.6997145,0.2796599,-0.7052522,0.27791235,1.3859121,-2.0927265,-0.48438993,1.5389804,-0.085894056,-0.11518953,-0.15985191,0.78205365,1.7219906
-0.2,0.10000000000000003,0.6,0.5235987755982988,-0.5235987755982988,0,0.3129499,1.7006563,0.2994373,-0.7198969,0.2842231,1.3968964,-1.8746197,-0.46158803,1.5093471,-0.08010017,-0.122848704,-0.18664674,0.808163,-1.1915464
-0.2,0.10000000000000003,0.6,0.5235987755982988,-0.5235987755982988,0,0.3065719,1.6868653,0.2861813,-0.7061038,0.3202512,1.4052249,-1.9713821,-0.49964195,1.5454195,-0.1060446,-0.12446768,-0.1956909,0.7097895,-0.34571707
-0.2,0.10000000000000003,0.6,0.5235987755982988,-0.5235987755982988,0,0.32978722,1.6795506,0.2650052,-0.7134923,0.33830595,1.3962215,-2.1775737,-0.50238144,1.5449705,-0.09666798,-0.14214636,-0.23387131,0.7518413,2.7857056
-0.2,0.10000000000000003,0.6,0.5235987755982988,-0.5235987755982988,0,0.32882243,1.6752532,0.2870702,-0.71957237,0.29091048,1.4024435,-2.011579,-0.4831331,1.5259187,-0.10376807,-0.1465412,-0.21757329,0.8060675,1.3926022
-0.2,0.10000000000000003,0.6,0.5235987755982988,-0.5235987755982988,0,0.31462654,1.6776665,0.26839495,-0.7043676,0.29560223,1.4103514,-2.113567,-0.49671382,1.5759704,-0.010233852,-0.118610404,-0.1919609,0.83240914,-1.2853273
-0.2,0.10000000000000003,0.6,0.5235987755982988,-0.5235987755982988,0,0.31592315,1.68081,0.27882674,-0.7229683,0.28844237,1.4178786,-2.0691533,-0.44780397,1.5378481,-0.07990367,-0.11617509,-0.27215633,0.7603184,-1.0378871
-0.2,0.10000000000000003,0.6,0.5235987755982988,-0.5235987755982988,0,0.3489609,1.6864125,0.27894223,-0.73298806,0.26963583,1.3986043,-2.2318888,-0.49700505,1.5675145,-0.03602719,-0.13270925,-0.26935267,0.82797605,-0.92917144
-0.2,0.10000000000000003,0.6,0.5235987755982988,-0.5235987755982988,0,0.33936453,1.6951876,0.28605086,-0.717141,0.31313735,1.3919829,-2.0930116,-0.5031628,1.5844367,-0.039109007,-0.18192682,-0.19848691,0.82599884,-1.2325428
-0.2,0.10000000000000003,0.6,0.5235987755982988,-0.5235987755982988,0,0.3328046,1.6937996,0.26782772,-0.69809836,0.34804082,1.3996084,-2.07699,-0.49102262,1.5799557,-0.073835805,-0.15908118,-0.30921727,0.7947487,-1.3555548
-0.2,0.10000000000000003,0.6,0.5235987755982988,-0.5235987755982988,0,0.31755874,1.6995738,0.26173794,-0.7214897,0.2972078,1.3983724,-1.9924726,-0.4046297,1.5630845,-0.08726342,-0.084456325,-0.33152568,0.77062476,-0.5105631
-0.2,0.10000000000000003,0.6,0.5235987755982988,-0.5235987755982988,0,0.33317533,1.6962192,0.27211162,-0.6898726,0.29468212,1.4035591,-1.9218366,-0.4976679,1.5720587,-0.051017664,-0.1801193,-0.4368705,0.81681305,1.3828388
-0.2,0.10000000000000003,0.6,0.5235987755982988,-0.5235987755982988,0,0.3180254,1.6851531,0.27812913,-0.7047463,0.31374067,1.407909,-2.2150445,-0.4784715,1.5693499,-0.13714604,-0.14021878,-0.35281187,0.7567458,-0.5366105
-0.2,0.10000000000000003,0.6,0.5235987755982988,-0.5235987755982988,0,0.31341797,1.6909839,0.295359,-0.73220474,0.34010553,1.4055313,-1.7627414,-0.45968252,1.5376252,-0.09061363,-0.061478633,-0.42810884,0.77542627,-0.291697
-0.2,0.10000000000000003,0.6,0.5235987755982988,-0.5235987755982988,0,0.30856785,1.6843411,0.2711869,-0.71069956,0.29762676,1.4136904,-2.1283503,-0.46180204,1.5498207,-0.128297,-0.10387762,-0.21108335,0.7306182,1.6766171
-0.2,0.10000000000000003,0.6,0.5235987755982988,-0.5235987755982988,0,0.3289742,1.6810389,0.26771238,-0.70270973,0.28916052,1.4322549,-2.0574057,-0.47304308,1.5938852,-0.10897526,-0.15085742,-0.2856659,0.80634224,1.8433148
-0.2,0.10000000000000003,0.6,0.5235987755982988,-0.5235987755982988,0,0.32303357,1.6936214,0.28674927,-0.71952116,0.31086975,1.3989966,-2.0225732,-0.46791676,1.562009,-0.10063688,-0.09131187,-0.1728002,0.8158718,-0.7922109
-0.2,0.10000000000000003,0.6,0.5235987755982988,-0.5235987755982988,0,0.31915003,1.6855263,0.30984324,-0.70616,0.25852534,1.395191,-2.2210295,-0.4862665,1.5489707,-0.16222371,-0.11658927,-0.23029132,0.77926993,1.6620045
-0.2,0.10000000000000003,0.6,0.5235987755982988,-0.5235987755982988,0,0.33278817,1.6813817,0.28028914,-0.7248748,0.3052975,1.417891,-2.1547842,-0.50687915,1.5493181,-0.094823904,-0.09830027,-0.33516395,0.777519,-0.8579528
-0.2,0.10000000000000003,0.6,0.5235987755982988,-0.5235987755982988,0,0.31366315,1.6917083,0.302475,-0.71641344,0.32447028,1.4189216,-2.2026203,-0.4872141,1.5530595,-0.14552954,-0.10141998,-0.33307913,0.80981654,0.6774178
-0.2,0.10000000000000003,0.6,0.5235987755982988,-0.5235987755982988,0,0.34983468,1.6804804,0.29190436,-0.7008338,0.27201462,1.4105214,-1.8502467,-0.50307447,1.6112971,-0.13170725,-0.07271897,-0.23563907,0.69266796,1.7257221
-0.2,0.10000000000000003,0.6,0.5235987755982988,-0.5235987755982988,0,0.31552726,1.7059294,0.2862229,-0.6742431,0.30626428,1.3847443,-2.0971513,-0.5027643,1.5596558,-0.10105642,-0.068910055,-0.27013433,0.74802744,2.1324916
-0.2,0.10000000000000003,0.6,0.5235987755982988,-0.5235987755982988,0,0.3345512,1.6893445,0.28966957,-0.73299456,0.32456788,1.4006288,-2.1212208,-0.46316725,1.6167618,-0.06251439,-0.07403567,-0.2708453,0.77929306,1.5063337
-0.2,0.10000000000000003,0.6,0.5235987755982988,-0.5235987755982988,0,0.34182423,1.6837913,0.27222303,-0.71842,0.3032209,1.418896,-2.1022856,-0.5588479,1.5824537,-0.11971707,-0.15490042,-0.19483653,0.717376,-0.7822045
-0.2,0.10000000000000003,0.6,0.5235987755982988,-0.5235987755982988,0,0.31818,1.689683,0.28694692,-0.6905334,0.2932781,1.4023367,-2.086323,-0.5178298,1.5793408,-0.1033637,-0.11800656,-0.27216303,0.6440137,0.17427953
-0.2,0.10000000000000003,0.6,0.5235987755982988,-0.5235987755982988,0,0.336783,1.6973611,0.2937496,-0.73803985,0.2929351,1.403323,-1.9092841,-0.49838015,1.5927936,-0.1535164,-0.17140657,-0.29001138,0.71046644,-1.2133667
-0.2,0.10000000000000003,0.6,0.5235987755982988,-0.5235987755982988,0,0.32811558,1.6875067,0.29625675,-0.7341054,0.27234092,1.408035,-2.1397011,-0.51559436,1.5190971,-0.09786667,-0.11572663,-0.24850294,0.71452165,-2.4608846
-0.2,0.10000000000000003,0.6,0.5235987755982988,-0.5235987755982988,0,0.3228766,1.6840396,0.27839288,-0.7207456,0.27557337,1.400766,-2.2332036,-0.56038904,1.5644741,-0.09617094,-0.15197834,-0.13300875,0.7572898,-0.1757656
-0.2,0.10000000000000003,0.6,0.5235987755982988,-0.5235987755982988,0,0.31672415,1.6830773,0.29408613,-0.7205281,0.32911488,1.3979038,-2.086444,-0.4964002,1.5321653,-0.076557346,-0.101224266,-0.4439753,0.79491967,2.826614
-0.2,0.10000000000000003,0.6,0.5235987755982988,-0.5235987755982988,0,0.34244043,1.683614,0.28626046,-0.74276036,0.35150135,1.4080197,-2.233354,-0.5017691,1.5794646,-0.05767739,-0.11751081,-0.23299734,0.7930191,0.09136527
-0.2,0.10000000000000003,0.6,0.5235987755982988,-0.5235987755982988,0,0.33775803,1.6943517,0.28454086,-0.71350336,0.31742752,1.4042336,-2.0701432,-0.45604467,1.5631781,-0.1275779,-0.1110774,-0.3844686,0.7662535,2.6025512
-0.2,0.10000000000000003,0.6,0.5235987755982988,-0.5235987755982988,0,0.30919176,1.7010716,0.27759162,-0.7068148,0.28146127,1.4153771,-2.048437,-0.4577943,1.5487679,-0.0710949,-0.12663895,-0.24282427,0.72374964,2.233012
-0.2,0.10000000000000003,0.6,0.5235987755982988,-0.5235987755982988,0,0.32622558,1.7059318,0.27803528,-0.72301453,0.2805686,1.3990868,-2.139711,-0.49364543,1.5675025,-0.061808787,-0.18153791,-0.42900687,0.7772448,-0.83059865
-0.2,0.10000000000000003,0.6,0.5235987755982988,-0.5235987755982988,0,0.3275439,1.6763518,0.27426928,-0.72549933,0.3102381,1.4046142,-2.0134928,-0.5532876,1.5312465,-0.0921049,-0.1408321,-0.30287227,0.7142018,-1.1765308
-0.2,0.10000000000000003,0.6,0.5235987755982988,-0.5235987755982988,0,0.33516464,1.6773139,0.2879877,-0.7378491,0.29132372,1.4026489,-2.0246499,-0.5100439,1.5767082,-0.046234336,-0.10584071,-0.22214164,0.68036544,1.3404131
-0.2,0.10000000000000003,0.6,0.5235987755982988,-0.5235987755982988,0,0.3634947,1.6924561,0.27742583,-0.76264405,0.32324174,1.3992802,-2.0733535,-0.4343589,1.5701475,-0.079028204,-0.09609312,-0.26453507,0.81212306,0.24462548
-0.2,0.10000000000000003,0.6,0.5235987755982988,-0.5235987755982988,0,0.33521163,1.6887916,0.285433,-0.7264431,0.2908858,1.414809,-2.0900152,-0.49994558,1.5297098,-0.14497618,-0.12194803,-0.27507696,0.752331,-2.4531553
-0.2,0.10000000000000003,0.6,0.5235987755982988,-0.5235987755982988,0,0.3109214,1.6826805,0.29463577,-0.7227513,0.32199386,1.4101788,-2.022286,-0.4556072,1.5635691,-0.11511505,-0.11217726,-0.18939875,0.66418284,-0.6568722
-0.2,0.10000000000000003,0.6,0.5235987755982988,-0.5235987755982988,0,0.30171028,1.6885481,0.2891494,-0.7155388,0.36240542,1.3957341,-2.124991,-0.47827032,1.538553,-0.1351039,-0.1333859,-0.28947017,0.7937895,2.4448962
-0.2,0.10000000000000003,0.6,0.5235987755982988,-0.5235987755982988,0,0.29191867,1.6751809,0.28605917,-0.7015036,0.2770833,1.4126984,-2.0698907,-0.48584485,1.5763804,-0.030735113,-0.09436727,-0.19958085,0.7095771,-0.7081788
-0.2,0.10000000000000003,0.6,0.5235987755982988,-0.5235987755982988,0,0.3167971,1.6917117,0.29349527,-0.729679,0.32667562,1.4010372,-2.0787153,-0.46998408,1.579346,-0.043039817,-0.13001154,-0.3140415,0.78000146,-0.041192047
-0.2,0.10000000000000003,0.6,0.5235987755982988,-0.5235987755982988,0,0.30766848,1.6989808,0.29426232,-0.7264539,0.29485092,1.4052566,-2.002783,-0.5374837,1.549345,-0.009857046,-0.1386075,-0.25967696,0.81634,1.3834132
-0.2,0.10000000000000003,0.6,0.5235987755982988,-0.5235987755982988,0,0.34028307,1.6867049,0.2744266,-0.72481424,0.31372246,1.4045979,-1.9873699,-0.42390275,1.572981,-0.10158814,-0.16931249,-0.19771689,0.8000635,1.7399015
-0.2,0.10000000000000003,0.6,0.5235987755982988,-0.5235987755982988,0,0.336019,1.7021736,0.28870204,-0.7429875,0.31006658,1.4001093,-1.9446566,-0.4793796,1.5531948,-0.13413112,-0.14330645,-0.24154654,0.7219851,0.8603372
-0.2,0.10000000000000003,0.6,0.5235987755982988,-0.5235987755982988,0,0.32639915,1.661902,0.27513278,-0.7083878,0.28473926,1.4049531,-2.1122887,-0.39144498,1.5766611,-0.1054351,-0.12505932,-0.28090757,0.7760354,1.5957294
-0.2,0.10000000000000003,0.6,0.5235987755982988,-0.5235987755982988,0,0.33526447,1.6584628,0.28653467,-0.7261091,0.32622448,1.4115422,-2.0583148,-0.46241033,1.574665,-0.11308137,-0.15419431,-0.21664384,0.76538205,1.0991706
-0.2,0.10000000000000003,0.6,0.5235987755982988,-0.5235987755982988,0,0.32045287,1.68614,0.28049022,-0.7277637,0.34291977,1.4106314,-1.9843237,-0.49303237,1.5515643,-0.0756381,-0.14210162,-0.23468207,0.79172385,1.4929818
-0.2,0.10000000000000003,0.6,0.5235987755982988,-0.5235987755982988,0,0.326998,1.6816725,0.2694046,-0.7230961,0.30064532,1.4099542,-2.047963,-0.5437942,1.533022,-0.077248864,-0.13244297,-0.30867618,0.7689939,2.392735
-0.2,0.10000000000000003,0.6,0.5235987755982988,-0.5235987755982988,0,0.3133194,1.6779363,0.28074455,-0.69835746,0.30982304,1.411386,-2.0977867,-0.4829916,1.5276878,-0.08498675,-0.07835562,-0.34225208,0.7163076,-1.6822963
-0.2,0.10000000000000003,0.6,0.5235987755982988,-0.5235987755982988,0,0.33711097,1.6845278,0.275079,-0.6925478,0.2842418,1.414472,-2.0675411,-0.5454062,1.5201101,-0.07170705,-0.090925306,-0.23444274,0.77930814,-0.84200615
-0.2,0.10000000000000003,0.6,0.5235987755982988,-0.5235987755982988,0,0.33756307,1.6869955,0.295944,-0.69818485,0.3218984,1.3994286,-2.013652,-0.48957235,1.5880088,-0.090674795,-0.114679836,-0.48304656,0.6648303,1.0031117
-0.2,0.10000000000000003,0.6,0.5235987755982988,-0.5235987755982988,0,0.37169358,1.6960732,0.26851985,-0.7659307,0.3596376,1.4024185,-2.21591,-0.54591733,1.5486306,-0.088253744,-0.118019365,-0.23648587,0.7397615,0.055794835
-0.2,0.10000000000000003,0.6,0.5235987755982988,-0.5235987755982988,0,0.32634905,1.678073,0.3071142,-0.7260163,0.3773959,1.3963728,-2.0919657,-0.50166297,1.5465465,-0.14671174,-0.14155024,-0.17084146,0.7498525,1.1856331
-0.2,0.10000000000000003,0.6,0.5235987755982988,-0.5235987755982988,0,0.33462593,1.6798507,0.3142181,-0.7519299,0.30983096,1.4230504,-2.07937,-0.54578835,1.5713501,-0.08967835,-0.11013631,-0.21983148,0.63842076,1.4043953
-0.2,0.10000000000000003,0.6,0.5235987755982988,-0.5235987755982988,0,0.31425428,1.6908791,0.28370646,-0.7236927,0.31014922,1.412486,-2.237003,-0.4955438,1.5749854,-0.09565254,-0.15226053,-0.24141847,0.7248603,0.10781337
-0.2,0.10000000000000003,0.6,0.5235987755982988,-0.5235987755982988,0,0.3241296,1.6843915,0.29176998,-0.7279209,0.32980824,1.4047059,-2.1992593,-0.50818694,1.5632617,-0.10849569,-0.14885472,-0.31290773,0.6783193,0.52119714
-0.2,0.10000000000000003,0.6,0.5235987755982988,-0.5235987755982988,0,0.31013206,1.6835648,0.27948907,-0.7082002,0.31549287,1.4053713,-2.0607479,-0.44829142,1.5765105,-0.055697583,-0.11431137,-0.28926274,0.73585516,1.8171283
-0.2,0.10000000000000003,0.6,0.5235987755982988,-0.5235987755982988,0,0.32712874,1.6874937,0.2870912,-0.7303671,0.32734436,1.402121,-2.182239,-0.49299553,1.5291923,-0.13627587,-0.12840779,-0.30521056,0.72701836,-0.94295996
-0.2,0.10000000000000003,0.6,0.5235987755982988,-0.5235987755982988,0,0.29461575,1.6761931,0.28459847,-0.70077705,0.29483935,1.4096304,-2.12126,-0.48832896,1.5363346,-0.11667906,-0.13866463,-0.25856075,0.93348473,2.6970916
-0.2,0.10000000000000003,0.6,0.5235987755982988,-0.5235987755982988,0,0.33227545,1.6769692,0.2682007,-0.7130653,0.2944375,1.3959398,-2.125028,-0.5193961,1.5817946,-0.060313415,-0.13240793,-0.24625576,0.7043615,-0.23454387
-0.2,0.10000000000000003,0.6,0.5235987755982988,-0.5235987755982988,0,0.3287154,1.6797926,0.29100177,-0.73782367,0.3645034,1.4179683,-2.0978377,-0.46675807,1.5508622,-0.051323112,-0.09079993,-0.20924614,0.81022024,-1.7344158
-0.2,0.10000000000000003,0.6,0.5235987755982988,-0.5235987755982988,0,0.31598842,1.6817218,0.29301414,-0.71194005,0.38252893,1.4045826,-1.905466,-0.5100954,1.5504117,-0.074872084,-0.110885784,-0.21086305,0.7186498,-0.41341218
-0.2,0.10000000000000003,0.6,0.5235987755982988,-0.5235987755982988,0,0.3105675,1.6694859,0.2913592,-0.71849155,0.29124802,1.4343598,-2.0315468,-0.47412518,1.5800946,-0.07698937,-0.13584617,-0.22090085,0.7317865,-0.31116524
-0.2,0.10000000000000003,0.6,0.5235987755982988,-0.5235987755982988,0,0.34627533,1.6717252,0.27280486,-0.72018266,0.30447203,1.3922362,-1.9052653,-0.483028,1.5657756,-0.10013573,-0.14449506,-0.31923577,0.7327454,0.1833733
-0.2,0.10000000000000003,0.6,0.5235987755982988,-0.5235987755982988,0,0.29990783,1.686969,0.29335162,-0.7027788,0.31405267,1.3986832,-1.9244446,-0.44831634,1.55211,-0.053695865,-0.14995372,-0.2895934,0.8713347,2.1067126
-0.2,0.10000000000000003,0.6,0.5235987755982988,-0.5235987755982988,0,0.3267557,1.6951036,0.28718975,-0.7272836,0.28855988,1.4069117,-2.1514878,-0.5113251,1.5487096,-0.04862034,-0.10064945,-0.2321501,0.7289608,0.38517344
-0.2,0.10000000000000003,0.6,0.5235987755982988,-0.5235987755982988,0,0.30984673,1.6788621,0.2961985,-0.71704274,0.30917,1.4123919,-2.0786424,-0.4920733,1.549996,-0.075175345,-0.09010484,-0.18022321,0.79170585,-0.30940104
-0.2,0.10000000000000003,0.6,0.5235987755982988,-0.5235987755982988,0,0.31687692,1.694795,0.274475,-0.71156025,0.3127839,1.399588,-1.9344361,-0.5088386,1.5519631,-0.08230507,-0.13726816,-0.18147245,0.758432,-0.9272306
-0.2,0.10000000000000003,0.6,0.5235987755982988,-0.5235987755982988,0,0.31925946,1.6860223,0.29481962,-0.7196123,0.32883045,1.3990369,-2.1459062,-0.48738995,1.5668075,-0.0283066,-0.12872298,-0.3355824,0.79279166,1.4293777
-0.2,0.10000000000000003,0.6,0.5235987755982988,-0.5235987755982988,0,0.33306164,1.6836264,0.2993617,-0.7269954,0.28579438,1.3931363,-2.0816712,-0.5149515,1.5762953,-0.064687215,-0.09803395,-0.04947875,0.78703755,-0.43348557
-0.2,0.10000000000000003,0.6,0.5235987755982988,-0.5235987755982988,0,0.31954098,1.6851391,0.2767001,-0.70506364,0.27902788,1.3894043,-2.079603,-0.48765415,1.5396726,-0.093177445,-0.118061885,-0.17253156,0.8017953,-0.60873437
-0.2,0.10000000000000003,0.6,0.5235987755982988,-0.5235987755982988,0,0.33675686,1.6889277,0.27961805,-0.695376,0.25574675,1.4162726,-1.9807645,-0.46621743,1.6067699,-0.08385845,-0.15465213,-0.14957286,0.8346193,0.31632173
-0.2,0.10000000000000003,0.6,0.5235987755982988,-0.5235987755982988,0,0.35779762,1.6964376,0.30263025,-0.756965,0.3158274,1.4151015,-2.058,-0.54658985,1.5510156,-0.085341476,-0.14886,-0.286389,0.81289065,-0.08310916
-0.2,0.10000000000000003,0.6,0.5235987755982988,-0.5235987755982988,0,0.3310426,1.7071354,0.27330878,-0.71311665,0.3330368,1.3979785,-2.117901,-0.4890401,1.552378,-0.15310666,-0.1576551,-0.25464317,0.775565,-0.63586223
-0.2,0.10000000000000003,0.6,0.5235987755982988,-0.5235987755982988,0,0.34125945,1.6692374,0.28722745,-0.71292436,0.31495684,1.400058,-2.213052,-0.4887411,1.531858,-0.09585433,-0.10870986,-0.30044514,0.79748684,-0.12219717
-0.2,0.10000000000000003,0.6,0.5235987755982988,-0.5235987755982988,0,0.34069034,1.6784123,0.28453276,-0.7351409,0.3176555,1.4045945,-2.0349638,-0.49355906,1.5646658,-0.09328146,-0.13748182,-0.18760619,0.7888149,-0.2358294
-0.2,0.10000000000000003,0.6,0.5235987755982988,-0.5235987755982988,0,0.32675567,1.6907471,0.2951826,-0.71331763,0.32148775,1.4176389,-2.1354795,-0.50942075,1.5318338,-0.04511283,-0.10606664,-0.310101,0.7824309,1.2347156
-0.2,0.10000000000000003,0.6,0.5235987755982988,-0.5235987755982988,0,0.31513497,1.6938666,0.27668554,-0.7170014,0.33161226,1.4030976,-2.2284646,-0.49837983,1.5536318,-0.023174128,-0.096653186,-0.27120084,0.73669827,-1.6915649
-0.2,0.10000000000000003,0.6,0.5235987755982988,-0.5235987755982988,0,0.32017937,1.6841958,0.27800524,-0.71815836,0.29123533,1.4072171,-2.1240842,-0.53192437,1.5412532,-0.04961149,-0.10627337,-0.20041011,0.79276776,0.06387619
-0.2,0.10000000000000003,0.6,0.5235987755982988,-0.5235987755982988,0,0.3454058,1.6904812,0.27727598,-0.7240916,0.3439413,1.4065224,-2.0954125,-0.47671023,1.5592368,-0.098099716,-0.14398262,-0.30948082,0.7983273,0.36984485
-0.2,0.10000000000000003,0.6,0.5235987755982988,-0.5235987755982988,0,0.33976763,1.691843,0.2702054,-0.7109482,0.285776,1.4039456,-2.20623,-0.53607017,1.5679607,-0.03533,-0.083231546,-0.22605775,0.77165836,-1.4552426
-0.2,0.10000000000000003,0.6,0.5235987755982988,-0.5235987755982988,0,0.3359615,1.7027348,0.29870203,-0.7231163,0.34826955,1.4114858,-2.2401898,-0.56569165,1.5810115,-0.053882297,-0.1810255,-0.37808317,0.7523677,-1.2028033
-0.2,0.10000000000000003,0.6,0.5235987755982988,-0.5235987755982988,0,0.33912432,1.7141198,0.29288414,-0.7288536,0.34180558,1.4032673,-1.9631215,-0.5387735,1.5717078,-0.060668614,-0.1653186,-0.37840793,0.8054524,1.3790039
-0.2,0.10000000000000003,0.6,0.5235987755982988,-0.5235987755982988,0,0.32753333,1.6958523,0.2900313,-0.7105584,0.32025602,1.4115058,-2.0419133,-0.5085596,1.5601355,-0.11166837,-0.1626306,-0.34286225,0.7844213,1.6935123
-0.2,0.10000000000000003,0.6,0.5235987755982988,-0.5235987755982988,0,0.31635684,1.6849587,0.28255272,-0.71366525,0.30181658,1.3928477,-2.1278372,-0.47343516,1.5593821,-0.102077425,-0.12989517,-0.35277766,0.7138916,0.088349506
-0.2,0.10000000000000003,0.6,0.5235987755982988,-0.5235987755982988,0,0.33155885,1.688214,0.28254077,-0.7317225,0.30251795,1.3873643,-2.156644,-0.47494122,1.5448171,-0.0925416,-0.062380847,-0.35101426,0.73516643,1.5246521
-0.2,0.10000000000000003,0.6,0.5235987755982988,-0.5235987755982988,0,0.34417555,1.676449,0.26281023,-0.71777624,0.29646263,1.4062227,-2.2998784,-0.4118944,1.5682544,-0.060065564,-0.14234881,-0.3433611,0.8004684,-1.2224382
-0.2,0.10000000000000003,0.6,0.5235987755982988,-0.5235987755982988,0,0.3209095,1.6912416,0.280935,-0.7290695,0.30947357,1.4069729,-1.9535674,-0.5363707,1.5662967,-0.08000429,-0.13384548,-0.283046,0.7785099,0.78825736
-0.2,0.10000000000000003,0.6,0.5235987755982988,-0.5235987755982988,0,0.30598298,1.6981481,0.2918021,-0.7100913,0.2835181,1.4013855,-2.0412545,-0.5130116,1.5702337,-0.05947309,-0.16715914,-0.27386767,0.80960685,-1.6443601
-0.2,0.10000000000000003,0.6,0.5235987755982988,-0.5235987755982988,0,0.3192929,1.6828587,0.26269254,-0.70146,0.32618627,1.3944857,-2.032732,-0.48699802,1.5699346,-0.12216145,-0.0957614,-0.23100801,0.7869683,1.1874354
-0.2,0.10000000000000003,0.6,0.5235987755982988,-0.5235987755982988,0,0.3427367,1.6794667,0.28335696,-0.70906734,0.33293808,1.4014956,-2.2339494,-0.48682347,1.5881912,-0.12286137,-0.101903245,-0.25243536,0.8171625,-0.6595922
-0.2,0.10000000000000003,0.6,0.5235987755982988,-0.5235987755982988,0,0.35025886,1.6658492,0.29388264,-0.7433817,0.29658663,1.4073677,-2.0322795,-0.50855666,1.5835497,-0.075108916,-0.13909732,-0.2790886,0.8190864,1.248736
-0.2,0.10000000000000003,0.6,0.5235987755982988,-0.5235987755982988,0,0.3124017,1.6888855,0.28492516,-0.70777637,0.31999552,1.3967,-2.0627248,-0.50111085,1.5170013,-0.09456267,-0.06339043,-0.2016946,0.74570054,-0.064981565
-0.2,0.10000000000000003,0.6,0.5235987755982988,-0.5235987755982988,0,0.34597507,1.707042,0.28849128,-0.7481442,0.2943902,1.3925782,-1.9473975,-0.47076488,1.5857031,-0.11151398,-0.13813965,-0.2870845,0.74228704,0.4456784
-0.2,0.10000000000000003,0.6,0.5235987755982988,-0.5235987755982988,0,0.31788003,1.6837761,0.27167755,-0.7139434,0.31893003,1.4037056,-2.068443,-0.48844036,1.5541154,-0.09664867,-0.13375828,-0.26561752,0.65199065,3.135984
-0.2,0.10000000000000003,0.6,0.5235987755982988,-0.5235987755982988,0,0.3311528,1.6984941,0.28910968,-0.75549924,0.31870413,1.4116998,-2.1736398,-0.44311467,1.5786438,-0.08749098,-0.13265315,-0.28623936,0.77556777,0.45391092
-0.2,0.10000000000000003,0.6,0.5235987755982988,-0.5235987755982988,0,0.33829597,1.6795821,0.3030854,-0.74411654,0.29268298,1.406766,-2.128046,-0.53100985,1.5397227,-0.10628468,-0.10227364,-0.35796106,0.7709697,2.299472
-0.2,0.10000000000000003,0.6,0.5235987755982988,-0.5235987755982988,0,0.33574274,1.6878703,0.282146,-0.74927425,0.33464357,1.4081006,-2.088981,-0.53349704,1.5763587,-0.09719044,-0.14488825,-0.18084042,0.817575,-1.0297155
-0.2,0.10000000000000003,0.6,0.5235987755982988,-0.5235987755982988,0,0.3089315,1.6791555,0.27868876,-0.7148241,0.29696372,1.4073304,-2.1259544,-0.51274085,1.5742862,-0.091418825,-0.12356755,-0.2927359,0.78148276,-0.4149518
-0.2,0.10000000000000003,0.6,0.5235987755982988,-0.5235987755982988,0,0.32989627,1.6876745,0.30372393,-0.73858356,0.2858443,1.3873461,-2.1445508,-0.4415849,1.5815345,-0.10029503,-0.124327235,-0.23938821,0.7151366,2.5837536
-0.2,0.10000000000000003,0.6,0.5235987755982988,-0.5235987755982988,0,0.31424773,1.6978033,0.3039231,-0.7210535,0.31354615,1.3929985,-2.0513864,-0.5318878,1.6205766,-0.028441893,-0.17587093,-0.22449693,0.8163331,1.4566666
-0.2,0.10000000000000003,0.6,0.5235987755982988,-0.5235987755982988,0,0.33318344,1.6808933,0.27915835,-0.7159424,0.29419127,1.4078737,-1.9355855,-0.5103912,1.5480955,-0.053747237,-0.11056849,-0.25695205,0.75304425,-1.5171894
-0.2,0.10000000000000003,0.6,0.5235987755982988,-0.5235987755982988,0,0.31879872,1.6839969,0.27224696,-0.71822906,0.29570985,1.3973142,-1.9348898,-0.48419803,1.5508736,-0.10537118,-0.102265485,-0.31343257,0.76846707,2.9375184
-0.2,0.10000000000000003,0.6,0.5235987755982988,-0.5235987755982988,0,0.30111605,1.6875105,0.2823354,-0.7129553,0.3498145,1.3991159,-2.1145449,-0.5336179,1.5686264,-0.07500107,-0.15914856,-0.30665925,0.7214529,-0.5416415
-0.2,0.10000000000000003,0.6,0.5235987755982988,-0.5235987755982988,0,0.32456696,1.704939,0.27181256,-0.738059,0.31868142,1.4075321,-1.90167,-0.43712223,1.5670712,-0.108481236,-0.10345744,-0.13032025,0.7741561,-0.07104721
-0.2,0.10000000000000003,0.6,0.5235987755982988,-0.5235987755982988,0,0.33747736,1.6916658,0.2657379,-0.73968804,0.31740493,1.3993651,-2.1357005,-0.49842685,1.5817444,-0.065130346,-0.17376137,-0.26096523,0.8170655,-1.1772834
-0.2,0.10000000000000003,0.6,0.5235987755982988,-0.5235987755982988,0,0.33412775,1.677024,0.2756492,-0.73283535,0.28183666,1.408603,-2.0889285,-0.5081028,1.588891,-0.10980548,-0.16700923,-0.19862993,0.79381377,-0.9687657
-0.2,0.10000000000000003,0.6,0.5235987755982988,-0.5235987755982988,0,0.33667165,1.6912041,0.2963332,-0.71515435,0.2901809,1.3993852,-1.9291167,-0.5119452,1.5610057,-0.08396574,-0.11096343,-0.2586655,0.7163746,-0.5714183
-0.2,0.10000000000000003,0.6,0.5235987755982988,-0.5235987755982988,0,0.3441362,1.680735,0.28430647,-0.73753965,0.3173293,1.3905917,-2.1587455,-0.52467746,1.5637524,-0.081322014,-0.13025205,-0.34461766,0.7691431,-1.047153
-0.2,0.10000000000000003,0.6,0.5235987755982988,-0.5235987755982988,0,0.3270877,1.6851774,0.28895196,-0.7362833,0.34443307,1.4105234,-2.0448468,-0.5017537,1.5842824,-0.0929282,-0.13363956,-0.23902854,0.7564036,0.021552118
-0.2,0.10000000000000003,0.6,0.5235987755982988,-0.5235987755982988,0,0.32534596,1.6851618,0.28710717,-0.7279787,0.297663,1.3916123,-2.014546,-0.5220307,1.5592583,-0.03505256,-0.10592829,-0.2175725,0.76446986,2.299161
-0.2,0.10000000000000003,0.6,0.5235987755982988,-0.5235987755982988,0,0.32460278,1.6992128,0.27279976,-0.72627366,0.3175114,1.4147071,-2.0136518,-0.56467617,1.5820867,-0.09785518,-0.16124427,-0.25478086,0.7549346,-1.642736
-0.2,0.10000000000000003,0.6,0.5235987755982988,-0.5235987755982988,0,0.33176595,1.6655303,0.2682651,-0.7179324,0.3295695,1.4018829,-2.1338036,-0.5105805,1.5511707,-0.11464244,-0.09814826,-0.23372641,0.64281017,1.3015999
-0.2,0.10000000000000003,0.6,0.5235987755982988,-0.5235987755982988,0,0.32323107,1.6802678,0.29718956,-0.7305815,0.32564637,1.4012842,-2.0388186,-0.49463415,1.5852503,-0.054479033,-0.11927718,-0.35379383,0.7325049,-0.3551615
-0.2,0.10000000000000003,0.6,0.5235987755982988,-0.5235987755982988,0,0.33690923,1.6853306,0.2972618,-0.7414495,0.3269792,1.3967601,-2.0532777,-0.45774192,1.5936686,-0.09607901,-0.12216568,-0.24650975,0.78968793,0.70514315
-0.2,0.10000000000000003,0.6,0.5235987755982988,-0.5235987755982988,0,0.3046322,1.7021003,0.2889424,-0.70478386,0.32430568,1.3920904,-2.1773875,-0.51006067,1.569901,-0.06618907,-0.103649504,-0.16865787,0.74435747,0.60233504
-0.2,0.10000000000000003,0.6,0.5235987755982988,-0.5235987755982988,0,0.3380112,1.6783898,0.28704673,-0.7364938,0.33849815,1.4007299,-2.0023067,-0.5172882,1.5574207,-0.09346154,-0.14176948,-0.31338984,0.66825986,1.4749615
-0.2,0.10000000000000003,0.6,0.5235987755982988,-0.5235987755982988,0,0.33419245,1.6819261,0.29312733,-0.740317,0.29279453,1.4059143,-2.0569623,-0.5368493,1.5864567,-0.027184712,-0.099197865,-0.16962823,0.7443485,-0.39086175
-0.2,0.10000000000000003,0.6,0.5235987755982988,-0.5235987755982988,0,0.3284426,1.6779652,0.26513758,-0.7179062,0.32472473,1.4084897,-2.054275,-0.5373842,1.5718367,-0.10207345,-0.17312384,-0.23740688,0.80937576,2.1812165
-0.2,0.10000000000000003,0.6,0.5235987755982988,-0.5235987755982988,0,0.32584873,1.686341,0.30455273,-0.7457556,0.33307627,1.4164342,-2.050867,-0.49703392,1.5512238,-0.097281575,-0.12647009,-0.23934476,0.7854141,1.1475786
-0.2,0.10000000000000003,0.6,0.5235987755982988,-0.5235987755982988,0,0.3172557,1.6887271,0.27709,-0.7129721,0.29142228,1.4062285,-2.0436459,-0.46171945,1.574913,-0.104263864,-0.13844614,-0.2875272,0.6852569,2.3153038
-0.2,0.10000000000000003,0.6,0.5235987755982988,-0.5235987755982988,0,0.32603112,1.6810921,0.29774398,-0.71796626,0.33368012,1.398222,-1.9839988,-0.53737825,1.554701,-0.08486029,-0.13577908,-0.3201372,0.74952716,-1.6370612
-0.2,0.10000000000000003,0.6,0.5235987755982988,-0.5235987755982988,0,0.30971956,1.6853927,0.2832318,-0.72356874,0.31404942,1.4230356,-2.0430954,-0.48661354,1.5572194,-0.09509348,-0.11718816,-0.22127232,0.836577,2.134795
-0.2,0.10000000000000003,0.6,0.5235987755982988,-0.5235987755982988,0,0.3415274,1.6721253,0.284453,-0.7322248,0.2927156,1.4058691,-1.9724809,-0.48252416,1.5459094,-0.13820621,-0.067705676,-0.1811302,0.6745363,2.4525406
-0.2,0.10000000000000003,0.6,0.5235987755982988,-0.5235987755982988,0,0.31805447,1.6805726,0.2924905,-0.7254234,0.3344674,1.4039773,-2.0867753,-0.5501827,1.5612504,-0.056451365,-0.1651869,-0.29326463,0.78593063,1.3780332
-0.2,0.10000000000000003,0.6,0.5235987755982988,-0.5235987755982988,0,0.3321547,1.6817734,0.2808949,-0.73729515,0.30343303,1.4214675,-1.976496,-0.49746498,1.5455816,-0.112720616,-0.11354552,-0.18985681,0.7558517,-0.43489364
-0.2,0.10000000000000003,0.6,0.5235987755982988,-0.5235987755982988,0,0.33793214,1.6804692,0.28148028,-0.73432785,0.3284841,1.4057255,-1.9932224,-0.5168923,1.5729885,-0.120558694,-0.14670123,-0.3491917,0.7328829,1.5890857
-0.2,0.10000000000000003,0.6,0.5235987755982988,-0.5235987755982988,0,0.32431296,1.6828641,0.31099948,-0.73628706,0.31037995,1.4059424,-2.115648,-0.47333968,1.609225,-0.09763471,-0.052041326,-0.048057355,0.78769094,2.7340615
-0.2,0.10000000000000003,0.6,0.5235987755982988,-0.5235987755982988,0,0.32075527,1.6886919,0.29232106,-0.7227888,0.3027806,1.4045626,-2.0904665,-0.47874665,1.5653737,-0.10956045,-0.13166122,-0.31777793,0.7511113,-1.1390326
-0.2,0.10000000000000003,0.6,0.5235987755982988,-0.5235987755982988,0,0.32114008,1.6933728,0.30382392,-0.73064655,0.31317386,1.4002243,-1.8259248,-0.4789832,1.5398426,-0.09126002,-0.09781406,-0.34195757,0.7659761,1.9800751
-0.2,0.10000000000000003,0.6,0.5235987755982988,-0.5235987755982988,0,0.33830792,1.6768626,0.2830567,-0.726566,0.33464918,1.4047043,-2.0528169,-0.47391582,1.5795033,-0.07763257,-0.12235352,-0.26587915,0.79946464,0.1893764
-0.2,0.10000000000000003,0.6,0.5235987755982988,-0.5235987755982988,0,0.31651187,1.6816353,0.29505596,-0.7118302,0.25081435,1.3959432,-1.9668118,-0.52747124,1.5702268,-0.11667026,-0.14741977,-0.2257557,0.74223113,1.2232023
-0.2,0.10000000000000003,0.6,0.5235987755982988,-0.5235987755982988,0,0.31402847,1.6865063,0.28647885,-0.72314763,0.34222198,1.4179214,-2.152461,-0.4878709,1.5736642,-0.11659607,-0.15343846,-0.25983337,0.702714,-0.52264243
-0.2,0.10000000000000003,0.6,0.5235987755982988,-0.5235987755982988,0,0.31055498,1.6816021,0.27351552,-0.7049183,0.315636,1.406198,-1.9793282,-0.4380263,1.5572757,-0.12734446,-0.10298292,-0.3602105,0.6947977,-0.1064214
-0.2,0.10000000000000003,0.6,0.5235987755982988,-0.5235987755982988,0,0.32168326,1.689552,0.2977985,-0.72898555,0.30175292,1.4028232,-2.023054,-0.53728884,1.563353,-0.12395305,-0.1376174,-0.07696291,0.82138485,-0.25383523
-0.2,0.10000000000000003,0.6,0.5235987755982988,-0.5235987755982988,0,0.32440102,1.6846528,0.3085555,-0.72584283,0.27288347,1.3953702,-2.1873953,-0.48621726,1.5909305,-0.04700136,-0.11272966,-0.36533204,0.72001344,2.4343479
-0.2,0.10000000000000003,0.6,0.5235987755982988,-0.5235987755982988,0,0.3230049,1.6829344,0.28048614,-0.71970797,0.33122674,1.3976415,-1.9485044,-0.5647671,1.5474442,-0.088150874,-0.08304261,-0.009344888,0.7187856,1.5665591
-0.2,0.10000000000000003,0.6,0.5235987755982988,-0.5235987755982988,0,0.34366068,1.6799772,0.28230762,-0.7358144,0.3543207,1.4066261,-2.1035223,-0.49655506,1.5720143,-0.12343772,-0.1275451,-0.19751902,0.7384451,0.9505525
-0.2,0.10000000000000003,0.6,0.5235987755982988,-0.5235987755982988,0,0.310379,1.6941617,0.29365274,-0.7189487,0.33825243,1.4106644,-1.9291848,-0.5337383,1.5667868,-0.059551205,-0.13169432,-0.2920238,0.8149765,-0.024810947
-0.2,0.10000000000000003,0.6,0.5235987755982988,-0.5235987755982988,0,0.3275583,1.6834345,0.2776929,-0.7192269,0.34694594,1.3996643,-2.07531,-0.4607391,1.5714011,-0.07578352,-0.10854609,-0.29791388,0.80347604,-0.19463928
-0.2,0.10000000000000003,0.6,0.5235987755982988,-0.5235987755982988,0,0.32617977,1.6907308,0.2757947,-0.7252164,0.31198806,1.4110252,-1.8852447,-0.43270406,1.5784351,-0.06942421,-0.08367772,-0.24373147,0.70562196,-0.72458553
-0.2,0.10000000000000003,0.6,0.5235987755982988,-0.5235987755982988,0,0.30838856,1.676711,0.3130746,-0.7116409,0.28295958,1.4064025,-1.9855605,-0.49086714,1.5533017,-0.04934621,-0.06164285,-0.35244587,0.76149225,-0.9891189
-0.2,0.10000000000000003,0.6,0.5235987755982988,-0.5235987755982988,0,0.31897786,1.6758683,0.2730326,-0.7155013,0.2871682,1.4208394,-2.0864964,-0.4877723,1.5825148,-0.10653726,-0.13741517,-0.38668573,0.67643654,-0.75297654
-0.2,0.10000000000000003,0.6,0.5235987755982988,-0.5235987755982988,0,0.30271202,1.7000048,0.30437306,-0.72340554,0.32562688,1.4260548,-2.256247,-0.5083883,1.5772028,-0.102262884,-0.090336904,-0.1394563,0.6548316,1.1809312
-0.2,0.10000000000000003,0.6,0.5235987755982988,-0.5235987755982988,0,0.31612107,1.6819053,0.28061622,-0.710219,0.279699,1.4020596,-1.9814446,-0.4831801,1.5754014,-0.12968162,-0.14596833,-0.14519994,0.79662794,-0.89238477
-0.2,0.10000000000000003,0.6,0.5235987755982988,-0.5235987755982988,0,0.32165343,1.674504,0.28572303,-0.7132837,0.32817966,1.4042972,-2.109164,-0.52136135,1.5434917,-0.13216214,-0.12407458,-0.15349062,0.80621284,-0.78639483
-0.2,0.10000000000000003,0.6,0.5235987755982988,-0.5235987755982988,0,0.31774163,1.6811993,0.27643782,-0.7195949,0.3338181,1.4140893,-2.1063402,-0.44986266,1.5978922,-0.06092753,-0.15414107,-0.31716216,0.8013069,1.425144
-0.2,0.10000000000000003,0.6,0.5235987755982988,-0.5235987755982988,0,0.30506665,1.6728101,0.28044832,-0.6892594,0.32583788,1.3923393,-1.9096973,-0.5010164,1.5481538,-0.11933279,-0.09635716,-0.28297165,0.6505911,0.95247483
-0.2,0.10000000000000003,0.6,0.5235987755982988,-0.5235987755982988,0,0.32642463,1.663406,0.2735124,-0.71016365,0.34699765,1.4016749,-2.0159326,-0.52228266,1.5634116,-0.08570291,-0.117520705,-0.16017708,0.8010074,2.5156043
-0.2,0.10000000000000003,0.6,0.5235987755982988,-0.5235987755982988,0,0.3292297,1.6753229,0.29690522,-0.7240973,0.32541516,1.3944588,-2.0213733,-0.4827851,1.5593486,-0.093815975,-0.11070029,-0.24558839,0.7255048,2.8487387
-0.2,0.10000000000000003,0.6,0.5235987755982988,-0.5235987755982988,0,0.32357666,1.6853756,0.2722101,-0.7196363,0.32282057,1.4045104,-2.113027,-0.56385946,1.5682327,-0.059111938,-0.13233724,-0.22510178,0.78519446,0.17989393
-0.2,0.10000000000000003,0.6,0.5235987755982988,-0.5235987755982988,0,0.3378961,1.6797829,0.28175172,-0.72607416,0.29714468,1.4002305,-2.115646,-0.49404648,1.5834211,-0.08078929,-0.12518974,-0.24494962,0.76752096,2.3193913
-0.2,0.10000000000000003,0.6,0.5235987755982988,-0.5235987755982988,0,0.33027375,1.6752023,0.26212898,-0.71019053,0.31290826,1.4093331,-2.0412192,-0.4882322,1.5717399,-0.09132371,-0.117808685,-0.27940986,0.6863882,-0.7730929
-0.2,0.10000000000000003,0.6,0.5235987755982988,-0.5235987755982988,0,0.2954428,1.6838454,0.28063163,-0.6928623,0.3222502,1.4001566,-1.9992727,-0.48920754,1.5435269,-0.07635258,-0.103470184,-0.26974407,0.7313496,0.19108343
-0.2,0.10000000000000003,0.6,0.5235987755982988,-0.5235987755982988,0,0.315028,1.6825082,0.2840852,-0.71535885,0.31499532,1.400944,-2.1180308,-0.46589836,1.569471,-0.088968635,-0.12819898,-0.25092843,0.79278594,1.5123576
-0.2,0.10000000000000003,0.6,0.5235987755982988,-0.5235987755982988,0,0.33018863,1.6954411,0.2704739,-0.70838064,0.32051578,1.4075555,-2.2001288,-0.5060241,1.5730277,-0.07742111,-0.09982498,-0.07274054,0.80681896,-0.063695066
-0.2,0.10000000000000003,0.6,0.5235987755982988,-0.5235987755982988,0,0.34320748,1.6886507,0.2930889,-0.7375225,0.32400364,1.4058664,-1.9688706,-0.49664244,1.5862175,-0.07466663,-0.15719503,-0.39786184,0.8024959,-1.033558
-0.2,0.10000000000000003,0.6,0.5235987755982988,-0.5235987755982988,0,0.30122477,1.6732694,0.27895683,-0.69594014,0.35593113,1.3984932,-2.1494923,-0.4516346,1.556708,-0.12399351,-0.07048272,-0.15208541,0.7699062,1.9293548
-0.2,0.10000000000000003,0.6,0.5235987755982988,-0.5235987755982988,0,0.30920887,1.6751916,0.28113973,-0.6969807,0.31924376,1.4018013,-2.0405242,-0.49237615,1.5896105,-0.07282373,-0.09290619,-0.16138427,0.6693834,1.8740988
-0.2,0.10000000000000003,0.6,0.5235987755982988,-0.5235987755982988,0,0.3204982,1.6742314,0.26104814,-0.7043944,0.33094352,1.4152582,-1.9594259,-0.4571569,1.5742173,-0.13233107,-0.12500937,-0.1579312,0.7775955,2.4958158
-0.2,0.10000000000000003,0.6,0.5235987755982988,-0.5235987755982988,0,0.34457347,1.663425,0.27680075,-0.712343,0.33390048,1.395956,-1.935994,-0.517989,1.5527321,-0.1343484,-0.16767833,-0.10181902,0.8782277,-1.4029565
-0.2,0.10000000000000003,0.6,0.5235987755982988,-0.5235987755982988,0,0.35819852,1.6834388,0.2836289,-0.7303522,0.28744856,1.4023267,-2.0791156,-0.53346056,1.5776782,-0.09925259,-0.09809787,-0.25090066,0.7484009,0.93149096
-0.2,0.10000000000000003,0.6,0.5235987755982988,-0.5235987755982988,0,0.30552176,1.6740303,0.29443666,-0.70520586,0.29001614,1.41203,-2.306542,-0.5656548,1.5550433,-0.070683956,-0.10217878,-0.39223108,0.71028864,-0.8612002
-0.2,0.10000000000000003,0.6,0.5235987755982988,-0.5235987755982988,0,0.32448277,1.6788878,0.27855864,-0.71392256,0.29405922,1.4002088,-2.1131434,-0.49696484,1.5566248,-0.08678957,-0.08525819,-0.28932387,0.70232606,0.46810344
-0.2,0.10000000000000003,0.6,0.5235987755982988,-0.5235987755982988,0,0.33983648,1.6909212,0.27774864,-0.72593135,0.30040792,1.3960911,-1.9618188,-0.51418054,1.5639235,-0.10169463,-0.14972208,-0.2171232,0.7731444,0.31465435
-0.2,0.10000000000000003,0.6,0.5235987755982988,-0.5235987755982988,0,0.34046057,1.6780051,0.28513578,-0.72203034,0.36061108,1.4095521,-2.0094938,-0.4668688,1.558278,-0.13830988,-0.1269917,-0.2566703,0.7813329,-0.6882141
-0.2,0.10000000000000003,0.6,0.5235987755982988,-0.5235987755982988,0,0.33198106,1.6884061,0.2916012,-0.7279581,0.3404009,1.4050887,-2.0466897,-0.5675357,1.5370874,-0.05340858,-0.09334684,-0.2687654,0.77733576,2.848492
-0.2,0.10000000000000003,0.6,0.5235987755982988,-0.5235987755982988,0,0.31287137,1.6945724,0.28568113,-0.7107148,0.3104307,1.3987575,-2.0329792,-0.45153886,1.5634221,-0.09738765,-0.13275051,-0.16173138,0.81545556,-0.14359534
-0.2,0.10000000000000003,0.6,0.5235987755982988,-0.5235987755982988,0,0.30631033,1.6838994,0.29597735,-0.7148415,0.29891598,1.4179572,-2.1893053,-0.5457156,1.5619533,-0.12803325,-0.14671503,-0.09725421,0.73906964,0.2525418
-0.2,0.10000000000000003,0.6,0.5235987755982988,-0.5235987755982988,0,0.3570338,1.6753993,0.26230136,-0.7256556,0.31066203,1.4034386,-1.9693,-0.52674145,1.5487595,-0.09383628,-0.12525764,-0.098621085,0.7676503,-0.9662602
-0.2,0.10000000000000003,0.6,0.5235987755982988,-0.5235987755982988,0,0.33259925,1.6691488,0.30464652,-0.7176163,0.30107647,1.3909652,-2.0413272,-0.48825622,1.5607437,-0.11581002,-0.1491233,-0.32168806,0.7774674,1.423102
-0.2,0.10000000000000003,0.6,0.5235987755982988,-0.5235987755982988,0,0.33953694,1.6936241,0.28637505,-0.7091942,0.31369317,1.4038303,-1.8966329,-0.4809425,1.5854542,-0.123531684,-0.1604228,-0.4670687,0.8045967,-0.3547904
-0.2,0.10000000000000003,0.6,0.5235987755982988,-0.5235987755982988,0,0.31053773,1.6880145,0.27168828,-0.7127829,0.33254635,1.4041194,-2.1386938,-0.49502605,1.5605265,-0.1023685,-0.11811715,-0.21539599,0.72475463,-0.5080765
-0.2,0.10000000000000003,0.6,0.5235987755982988,-0.5235987755982988,0,0.3218395,1.6863892,0.28190342,-0.7104512,0.27574363,1.4082489,-1.9756953,-0.4573299,1.5595868,-0.09364645,-0.079332106,-0.40214387,0.665773,0.5658795
-0.2,0.10000000000000003,0.6,0.5235987755982988,-0.5235987755982988,0,0.3266434,1.6799457,0.28201336,-0.7232366,0.3388827,1.4001479,-2.0695856,-0.47366187,1.5699861,-0.077994384,-0.14200823,-0.24536404,0.8145714,2.112882
-0.2,0.10000000000000003,0.6,0.5235987755982988,-0.5235987755982988,0,0.31428903,1.6858485,0.2931198,-0.7013408,0.33333302,1.3996418,-2.03376,-0.5363119,1.5817033,-0.1109166,-0.1615497,-0.29254073,0.74539304,0.088953525
-0.2,0.10000000000000003,0.6,0.5235987755982988,-0.5235987755982988,0,0.34258756,1.6862062,0.2802649,-0.7234167,0.32761657,1.4041926,-1.938455,-0.5030486,1.5898077,-0.09913431,-0.16106343,-0.2961727,0.78755176,0.095623024
-0.2,0.10000000000000003,0.6,0.5235987755982988,-0.5235987755982988,0,0.33839095,1.6916242,0.2830661,-0.72581816,0.32762897,1.4109169,-2.066307,-0.4883526,1.5559396,-0.08614937,-0.13002025,-0.22038586,0.82384145,0.96322596
-0.2,0.10000000000000003,0.6,0.5235987755982988,-0.5235987755982988,0,0.33258134,1.6734754,0.29224876,-0.7144135,0.3110009,1.4090782,-1.9482254,-0.51176965,1.5605278,-0.065306365,-0.11891228,-0.3363056,0.799914,0.23256333
-0.2,0.10000000000000003,0.6,0.5235987755982988,-0.5235987755982988,0,0.30797932,1.6731328,0.27497318,-0.68327266,0.2832613,1.3936249,-2.1405149,-0.5126379,1.579087,-0.084852,-0.15606378,-0.23980549,0.8118379,0.0088234935
-0.2,0.10000000000000003,0.6,0.5235987755982988,-0.5235987755982988,0,0.32160407,1.6822155,0.27885818,-0.71307546,0.32644764,1.4084839,-2.0170054,-0.47379795,1.5519209,-0.11410979,-0.112630464,-0.25928316,0.759403,2.5257423
-0.2,0.10000000000000003,0.6,0.5235987755982988,-0.5235987755982988,0,0.32176453,1.6715301,0.26766694,-0.71514493,0.3398262,1.4181925,-2.4451559,-0.46732128,1.578862,-0.076511696,-0.13419543,-0.2813065,0.8079596,-0.6437825
-0.2,0.10000000000000003,0.6,0.5235987755982988,-0.5235987755982988,0,0.3200145,1.6643287,0.29421762,-0.7197006,0.3128993,1.4201901,-2.1456223,-0.46959335,1.5486636,-0.12563494,-0.1268635,-0.34110466,0.72837,-0.37132013
-0.2,0.10000000000000003,0.6,0.5235987755982988,-0.5235987755982988,0,0.33594704,1.6829175,0.27794644,-0.70131063,0.314741,1.4115754,-1.9676508,-0.4353557,1.5711033,-0.123429656,-0.09221472,-0.24464452,0.7202337,0.1958401
-0.2,0.10000000000000003,0.6,0.5235987755982988,-0.5235987755982988,0,0.35228604,1.6916764,0.2733457,-0.72873557,0.30883682,1.4119984,-1.9788395,-0.43848962,1.5921885,-0.1150197,-0.16566567,-0.28228065,0.8201793,0.42610472
-0.2,0.10000000000000003,0.6,0.5235987755982988,-0.5235987755982988,0,0.34988764,1.7057197,0.28082278,-0.7166677,0.30910861,1.4003737,-1.895161,-0.51831424,1.5541878,-0.1120448,-0.15920128,-0.26233816,0.8074889,-0.49783614
-0.2,0.10000000000000003,0.6,0.5235987755982988,-0.5235987755982988,0,0.34590605,1.6859039,0.28879192,-0.70503366,0.32457215,1.4078069,-2.1614983,-0.46446422,1.5783412,-0.16074699,-0.1708586,-0.31624407,0.742292,1.4275241
-0.2,0.10000000000000003,0.6,0.5235987755982988,-0.5235987755982988,0,0.31721032,1.6928031,0.26961014,-0.71102214,0.26999348,1.3886541,-2.0655427,-0.46107405,1.5691363,-0.13317613,-0.08569947,-0.22371052,0.7733602,1.271065
-0.2,0.10000000000000003,0.6,0.5235987755982988,-0.5235987755982988,0,0.34722006,1.6951678,0.2871878,-0.71622854,0.30027652,1.3996041,-1.9506537,-0.480641,1.5645736,-0.110889316,-0.12785016,-0.21557744,0.78798944,-0.5692446
-0.2,0.10000000000000003,0.6,0.5235987755982988,-0.5235987755982988,0,0.3240211,1.6783137,0.27594578,-0.69608295,0.2617549,1.4084054,-2.1140783,-0.4794776,1.5772496,-0.10798455,-0.14683285,-0.34227237,0.84285927,1.4411728
-0.2,0.10000000000000003,0.6,0.5235987755982988,-0.5235987755982988,0,0.33337778,1.683527,0.29770344,-0.7062374,0.2818043,1.4014844,-2.02706,-0.5544554,1.5662677,-0.075589634,-0.1318315,-0.21842225,0.8729821,-0.7749988
-0.2,0.10000000000000003,0.6,0.5235987755982988,-0.5235987755982988,0,0.31523648,1.6895553,0.27990997,-0.71342,0.30496627,1.4119048,-2.0136166,-0.50930923,1.5685444,-0.13532847,-0.14714445,-0.28706703,0.70655626,1.4920678
-0.2,0.10000000000000003,0.6,0.5235987755982988,-0.5235987755982988,0,0.32849422,1.7127985,0.27992636,-0.7505245,0.35400346,1.3983041,-2.03317,-0.5537103,1.5577395,-0.10327706,-0.12554714,-0.26764476,0.71325475,-0.6188999
-0.2,0.10000000000000003,0.6,0.5235987755982988,-0.5235987755982988,0,0.33614382,1.687376,0.28316614,-0.7349958,0.27730468,1.4050548,-1.893443,-0.49135512,1.5918181,-0.07528178,-0.13193978,-0.41857448,0.71530247,1.0058737
-0.2,0.10000000000000003,0.6,0.5235987755982988,-0.5235987755982988,0,0.32897642,1.6985815,0.28509435,-0.73955125,0.34207392,1.3984121,-2.0863936,-0.46270478,1.5532111,-0.12667355,-0.062060542,-0.35517684,0.7080786,1.8875059
-0.2,0.10000000000000003,0.6,0.5235987755982988,-0.5235987755982988,0,0.3242352,1.7015125,0.2735378,-0.7238354,0.28204155,1.4041792,-1.988403,-0.44520843,1.5794381,-0.08848618,-0.08910973,-0.27071613,0.776401,-0.79356116
-0.2,0.10000000000000003,0.6,0.5235987755982988,-0.5235987755982988,0,0.3158281,1.6913347,0.274629,-0.7270665,0.3165307,1.4108312,-2.015315,-0.4575116,1.5921959,-0.098164886,-0.11996515,-0.2230845,0.73239505,0.848982
-0.2,0.10000000000000003,0.6,0.5235987755982988,-0.5235987755982988,0,0.31738678,1.7078689,0.28857654,-0.71668464,0.29108518,1.4037625,-2.2034795,-0.48883867,1.5878356,-0.060066808,-0.12989251,-0.32943183,0.8210484,-0.42403626
-0.2,0.10000000000000003,0.6,0.5235987755982988,-0.5235987755982988,0,0.32335126,1.6840183,0.27475053,-0.7179234,0.3198339,1.3937309,-2.0057955,-0.5204764,1.5622834,-0.069629215,-0.115156196,-0.2056998,0.75361836,2.5731137
-0.2,0.10000000000000003,0.6,0.5235987755982988,-0.5235987755982988,0,0.33395424,1.6679542,0.2815539,-0.72700304,0.2859921,1.403433,-2.2226486,-0.48449916,1.5955852,-0.07691675,-0.08846439,-0.16220799,0.7282816,-1.4464194
-0.2,0.10000000000000003,0.6,0.5235987755982988,-0.5235987755982988,0,0.30989617,1.6925257,0.27426225,-0.7161525,0.33368656,1.4021696,-1.9817091,-0.492799,1.5588226,-0.11359259,-0.13289332,-0.2796242,0.778905,1.8674523
-0.2,0.10000000000000003,0.6,0.5235987755982988,-0.5235987755982988,0,0.3291111,1.671303,0.26688725,-0.7138216,0.30226594,1.4012932,-2.0831158,-0.503191,1.58657,-0.112935394,-0.12688117,-0.20622267,0.7520134,-0.8160904
-0.2,0.10000000000000003,0.6,0.5235987755982988,-0.5235987755982988,0,0.3354565,1.6843877,0.2588505,-0.71877885,0.34833354,1.3910888,-1.9448382,-0.5096319,1.5616707,-0.10264394,-0.10801291,-0.3620173,0.76872873,3.0008678
-0.2,0.10000000000000003,0.6,0.5235987755982988,-0.5235987755982988,0,0.31400657,1.6879922,0.2777543,-0.7221566,0.31658867,1.4116862,-2.1781049,-0.4916326,1.5727971,-0.10453225,-0.08661923,-0.19272044,0.730322,-1.4866482
-0.2,0.10000000000000003,0.6,0.5235987755982988,-0.5235987755982988,0,0.30070564,1.6842165,0.29878744,-0.70668113,0.29909366,1.3913674,-2.1106656,-0.52480596,1.5789309,-0.06806357,-0.06910665,-0.26110327,0.749163,-0.6002642
-0.2,0.10000000000000003,0.6,0.5235987755982988,-0.5235987755982988,0,0.32017094,1.6864531,0.29612088,-0.72569245,0.29584646,1.4011706,-1.8858021,-0.52927995,1.6075058,-0.09278566,-0.13822627,-0.33126816,0.6874368,1.617422
-0.2,0.10000000000000003,0.6,0.5235987755982988,-0.5235987755982988,0,0.31056246,1.6898844,0.2741193,-0.7123882,0.30318472,1.3966887,-2.0459073,-0.52567494,1.5562133,-0.08391072,-0.15128066,-0.3381381,0.7632145,2.3903565
-0.2,0.10000000000000003,0.6,0.5235987755982988,-0.5235987755982988,0,0.32053074,1.6778941,0.29932722,-0.73347324,0.3130747,1.4110514,-2.0978029,-0.48034132,1.5867184,-0.0825073,-0.10215541,-0.26315874,0.78698385,1.6462004
-0.2,0.10000000000000003,0.6,0.5235987755982988,-0.5235987755982988,0,0.32786193,1.6870027,0.28803313,-0.7179709,0.28149402,1.4016491,-1.9798324,-0.46082044,1.5771897,-0.09639511,-0.11475736,-0.2692338,0.75355303,2.0165386
-0.2,0.10000000000000003,0.6,0.5235987755982988,-0.5235987755982988,0,0.31407318,1.693145,0.29992104,-0.7205179,0.29460403,1.3950391,-1.8883682,-0.4628493,1.5666423,-0.15335083,-0.13759002,-0.24364595,0.72740537,-2.611564
-0.2,0.10000000000000003,0.6,0.5235987755982988,-0.5235987755982988,0,0.32321975,1.6956362,0.28517464,-0.7343018,0.2803601,1.4200823,-2.0143936,-0.48528153,1.5708668,-0.10000164,-0.13476014,-0.23879163,0.76298565,-0.26304266
-0.2,0.10000000000000003,0.6,0.5235987755982988,-0.5235987755982988,0,0.32424656,1.6850424,0.30133072,-0.7222457,0.33013317,1.396681,-2.0341036,-0.5576261,1.5921477,-0.034919016,-0.10287528,-0.2761448,0.797842,-0.92687166
-0.2,0.10000000000000003,0.6,0.5235987755982988,-0.5235987755982988,0,0.33702925,1.6986902,0.2756617,-0.73480415,0.2939849,1.4043063,-1.896591,-0.548731,1.5551819,-0.024499457,-0.08399445,-0.29357153,0.75256497,0.92402947
-0.2,0.10000000000000003,0.6,0.5235987755982988,-0.5235987755982988,0,0.3195804,1.6983486,0.2853731,-0.71975386,0.30574054,1.4093909,-1.7815919,-0.51917577,1.5636392,-0.14207123,-0.16080531,-0.15718909,0.7847775,1.551012
-0.2,0.10000000000000003,0.6,0.5235987755982988,-0.5235987755982988,0,0.33169407,1.6777453,0.3004674,-0.7272098,0.30673888,1.3930498,-2.1221237,-0.51573044,1.56587,-0.071024545,-0.090346344,-0.2785555,0.7781949,1.3092847
-0.2,0.10000000000000003,0.6,0.5235987755982988,-0.5235987755982988,0,0.31735846,1.6998751,0.2821226,-0.7246125,0.32777387,1.4189411,-2.052025,-0.47936565,1.5484197,-0.11524654,-0.09610384,-0.097109124,0.80817676,2.2685845
-0.2,0.10000000000000003,0.6,0.5235987755982988,-0.5235987755982988,0,0.32998303,1.6863192,0.27929986,-0.7139921,0.3109005,1.3927666,-1.969444,-0.45501167,1.5815033,-0.05404267,-0.12097989,-0.28867623,0.7618398,1.681232
-0.2,0.10000000000000003,0.6,0.5235987755982988,-0.5235987755982988,0,0.34016535,1.693124,0.28653976,-0.729197,0.30685773,1.406918,-1.8501682,-0.50701153,1.5587658,-0.09310128,-0.14295793,-0.30858305,0.80296886,1.9492584
-0.2,0.10000000000000003,0.6,0.5235987755982988,-0.5235987755982988,0,0.32812148,1.701989,0.2881041,-0.72708005,0.31715462,1.4072714,-2.0016158,-0.5009809,1.5494095,-0.07014491,-0.119303375,-0.2703358,0.8083769,-1.7046499
-0.2,0.10000000000000003,0.6,0.5235987755982988,-0.5235987755982988,0,0.34109536,1.6947511,0.26567715,-0.72723734,0.3070794,1.4089197,-1.9407128,-0.513354,1.5680536,-0.09393115,-0.11788689,-0.21880881,0.77306265,2.3989847
-0.2,0.10000000000000003,0.6,0.5235987755982988,-0.5235987755982988,0,0.34296748,1.6970567,0.2811041,-0.7298001,0.31658274,1.3966074,-1.9755188,-0.48978266,1.5502465,-0.1076823,-0.1240155,-0.27744564,0.76965415,1.5803943
-0.2,0.10000000000000003,0.6,0.5235987755982988,-0.5235987755982988,0,0.3351835,1.6921688,0.28324124,-0.73695576,0.34212393,1.398578,-1.9258564,-0.4837076,1.5750258,-0.08023355,-0.095067345,-0.34038284,0.7188476,-0.3540359
-0.2,0.10000000000000003,0.6,0.5235987755982988,-0.5235987755982988,0,0.3253589,1.7056181,0.29018694,-0.73791623,0.35714528,1.4101689,-2.1651404,-0.46370757,1.5510578,-0.12125569,-0.09156967,-0.347615,0.71618694,1.525355
-0.2,0.10000000000000003,0.6,0.5235987755982988,-0.5235987755982988,0,0.3201945,1.6860955,0.2897144,-0.7105371,0.33491462,1.4135486,-2.051202,-0.53053266,1.5833751,-0.05822289,-0.124203734,-0.2569354,0.8054637,-1.8411916
-0.2,0.10000000000000003,0.6,0.5235987755982988,-0.5235987755982988,0,0.31919938,1.6927695,0.29156268,-0.7320671,0.3045485,1.4054809,-2.080228,-0.5371018,1.5852962,-0.08095455,-0.14480484,-0.26761317,0.7399252,0.9735214
-0.2,0.10000000000000003,0.6,0.5235987755982988,-0.5235987755982988,0,0.32993692,1.6850038,0.27003253,-0.7128457,0.31796995,1.3958858,-2.0862694,-0.5463514,1.5451406,-0.09271567,-0.10579661,-0.22455205,0.75991446,1.3047011
-0.2,0.10000000000000003,0.6,0.5235987755982988,-0.5235987755982988,0,0.3072692,1.6988206,0.29383484,-0.7164139,0.30939177,1.4046879,-2.065214,-0.5131944,1.5677507,-0.060009446,-0.10388543,-0.22615707,0.7971857,0.7171421
-0.2,0.10000000000000003,0.6,0.5235987755982988,-0.5235987755982988,0,0.3401201,1.6993008,0.30022988,-0.7283792,0.3175225,1.4156517,-2.233504,-0.4373767,1.55149,-0.096673645,-0.07153085,-0.25810173,0.80237955,-0.68295395
-0.2,0.10000000000000003,0.6,0.5235987755982988,-0.5235987755982988,0,0.33027697,1.6587675,0.28312436,-0.701164,0.25632474,1.4101218,-2.1526961,-0.5213368,1.5838478,-0.13993967,-0.1183333,-0.19905607,0.72072846,-0.91893166
-0.2,0.10000000000000003,0.6,0.5235987755982988,-0.5235987755982988,0,0.3100246,1.6754266,0.2787934,-0.71576726,0.31710735,1.4209026,-2.1419199,-0.50920767,1.5871338,-0.13001533,-0.11436852,-0.26317418,0.7036413,2.2766452
-0.2,0.10000000000000003,0.6,0.5235987755982988,-0.5235987755982988,0,0.3305431,1.6803559,0.29986843,-0.707574,0.32684556,1.4034349,-2.1065226,-0.5068781,1.5735166,-0.097311296,-0.100235835,-0.36315936,0.7330537,-0.5064422
-0.2,0.10000000000000003,0.6,0.5235987755982988,-0.5235987755982988,0,0.32257292,1.672423,0.31293318,-0.7012746,0.3417316,1.4126327,-2.2372763,-0.508939,1.5818684,-0.13576083,-0.15199564,-0.24445187,0.77513015,-0.50927204
-0.2,0.10000000000000003,0.6,0.5235987755982988,-0.5235987755982988,0,0.32938704,1.6832632,0.29310653,-0.7326416,0.34020564,1.4053366,-2.1037116,-0.50547004,1.5770689,-0.150364,-0.115179494,-0.2564986,0.7750152,2.778245
-0.2,0.10000000000000003,0.6,0.5235987755982988,-0.5235987755982988,0,0.31898412,1.6842302,0.26710495,-0.68581206,0.2900789,1.3979197,-2.1052988,-0.4931515,1.5326794,-0.0897041,-0.08690157,-0.25636044,0.7961598,-0.06475698
-0.2,0.10000000000000003,0.6,0.5235987755982988,-0.5235987755982988,0,0.31192484,1.6938468,0.2693943,-0.7055056,0.261785,1.4102858,-2.0746014,-0.5735946,1.5443554,-0.09481745,-0.08951885,-0.38502023,0.72000426,2.307582
-0.2,0.10000000000000003,0.6,0.5235987755982988,-0.5235987755982988,0,0.30810603,1.6889541,0.28475904,-0.71915406,0.30120456,1.4114411,-2.1432562,-0.49922237,1.5556657,-0.09001783,-0.06504657,-0.1834633,0.77588946,1.9863391
-0.2,0.10000000000000003,0.6,0.5235987755982988,-0.5235987755982988,0,0.3011046,1.6847364,0.27236792,-0.69864744,0.317766,1.3951759,-2.038121,-0.4785764,1.5975798,-0.093874685,-0.11067971,-0.20742041,0.7856229,-0.3878827
-0.2,0.10000000000000003,0.6,0.5235987755982988,-0.5235987755982988,0,0.31072453,1.6954548,0.27963418,-0.71713525,0.29753456,1.4195869,-1.9612709,-0.49229687,1.592009,-0.10584849,-0.13586709,-0.312674,0.7154597,-1.1549243
-0.2,0.10000000000000003,0.6,0.5235987755982988,-0.5235987755982988,0,0.31850016,1.6943698,0.28255123,-0.7255875,0.3438225,1.4048316,-2.224054,-0.51570785,1.614845,-0.1180607,-0.10534954,-0.21316174,0.7593424,1.8179817
-0.2,0.10000000000000003,0.6,0.5235987755982988,-0.5235987755982988,0,0.3269545,1.6850895,0.27344579,-0.71768403,0.28480893,1.4130975,-1.9592483,-0.53494775,1.5652988,-0.0847782,-0.09941939,-0.18750048,0.6674934,-0.4309809
-0.2,0.10000000000000003,0.6,0.5235987755982988,-0.5235987755982988,0,0.30912977,1.6967986,0.30831188,-0.72875416,0.34212762,1.4072726,-2.0707703,-0.46317565,1.5895007,-0.064466685,-0.053754266,-0.33704558,0.7469451,1.4335155
-0.2,0.10000000000000003,0.6,0.5235987755982988,-0.5235987755982988,0,0.34844,1.694714,0.2767484,-0.7384404,0.31641448,1.4136724,-2.0975337,-0.5436933,1.5616757,-0.066660136,-0.06635687,-0.3164597,0.73662025,-0.35578534
-0.2,0.10000000000000003,0.6,0.5235987755982988,-0.5235987755982988,0,0.3227836,1.6909778,0.28744105,-0.70510375,0.31977707,1.4017712,-1.9851612,-0.53637975,1.6039946,-0.058121394,-0.0928336,-0.24302192,0.8031835,2.6277072
-0.2,0.10000000000000003,0.6,0.5235987755982988,-0.5235987755982988,0,0.32768714,1.6927497,0.2868983,-0.7238841,0.34507477,1.4055041,-1.9929037,-0.46794158,1.5749799,-0.12869175,-0.08743472,-0.123565964,0.74139684,1.2229798
-0.2,0.10000000000000003,0.6,0.5235987755982988,-0.5235987755982988,0,0.34673285,1.6888099,0.28033122,-0.7119124,0.28194636,1.4031969,-2.0836666,-0.53209645,1.6146793,-0.10493045,-0.17801546,-0.2776059,0.7498132,1.0806911
-0.2,0.10000000000000003,0.6,0.5235987755982988,-0.5235987755982988,0,0.31369916,1.7010356,0.30437857,-0.719988,0.34234372,1.3949559,-2.1598835,-0.51074475,1.5618584,-0.10293261,-0.08216409,-0.19041973,0.77152705,-0.7342071
