sanky1234/BimanualDexCatch/isaacgymenvs/cem_results/football_pose_0.0_0.0_0.7_0.0_0.0_0_2025-05-26.csv
x,y,z,roll,pitch,yaw,robot1/joint1,robot1/joint2,robot1/joint3,robot1/joint4,robot1/joint5,robot1/joint6,robot1/joint7,robot2/joint1,robot2/joint2,robot2/joint3,robot2/joint4,robot2/joint5,robot2/joint6,robot2/joint7
0.0,0.0,0.7,0.0,0.0,0,-0.1293036,1.9840572,0.034794256,-0.56304485,-0.12239672,1.4041297,-0.82318896,-0.13113566,1.5055999,0.056038484,-0.32329732,0.04467093,1.2793204,0.6514075
0.0,0.0,0.7,0.0,0.0,0,-0.08760057,1.9836034,0.026565783,-0.54762095,-0.06801404,1.3936535,-0.8103684,-0.17683575,1.512064,0.06333564,-0.31916195,0.07584216,1.2776935,0.5512066
0.0,0.0,0.7,0.0,0.0,0,-0.10350731,1.9751586,0.039516624,-0.5613086,-0.031724356,1.3939625,-0.6809392,-0.13347597,1.5055909,0.07460882,-0.315792,0.073418304,1.2691389,0.6477102
0.0,0.0,0.7,0.0,0.0,0,-0.06829887,1.9808788,0.049355354,-0.5557852,-0.06535907,1.3972946,-0.7723212,-0.18580486,1.508531,0.07174559,-0.31944028,0.05727066,1.2839702,0.5970803
0.0,0.0,0.7,0.0,0.0,0,-0.056486245,1.9760116,0.043775506,-0.55962443,-0.055054635,1.3996289,-0.81217897,-0.14069916,1.50517,0.044826783,-0.31742027,0.05169181,1.2758551,0.6106773
0.0,0.0,0.7,0.0,0.0,0,-0.057261962,1.9738723,0.027732281,-0.5465022,-0.06041023,1.3960489,-0.72116387,-0.14902121,1.5063529,0.08023699,-0.31858408,0.033617232,1.2882618,0.68207955
0.0,0.0,0.7,0.0,0.0,0,-0.10328395,1.9865433,0.0367786,-0.5598416,-0.014298888,1.3960776,-0.73434085,-0.2106336,1.5070878,0.05671383,-0.32209486,0.066131085,1.2875541,0.6569014
0.0,0.0,0.7,0.0,0.0,0,-0.11315194,1.9742134,0.02996913,-0.558716,-0.044887505,1.380539,-0.7850287,-0.17964374,1.5055028,0.047977813,-0.31598595,0.052046534,1.2793046,0.5180346
0.0,0.0,0.7,0.0,0.0,0,-0.115432866,1.983254,0.036114957,-0.5519036,-0.021116355,1.3924197,-0.76211816,-0.22152844,1.5063673,0.051007766,-0.3153214,0.031563047,1.2821025,0.6003243
0.0,0.0,0.7,0.0,0.0,0,-0.14438812,1.9729621,0.01561652,-0.56219393,-0.0188057,1.4027138,-0.78455025,-0.16385901,1.5029539,0.072732866,-0.31399155,0.0601548,1.2801914,0.70680225
0.0,0.0,0.7,0.0,0.0,0,-0.07297315,1.9855423,0.04108413,-0.5456624,-0.07764856,1.3995419,-0.77880055,-0.15299438,1.503641,0.037737958,-0.32150838,0.06414453,1.2908102,0.5297838
0.0,0.0,0.7,0.0,0.0,0,-0.0776533,1.9745927,0.031580504,-0.5649702,-0.036746252,1.3999671,-0.82210076,-0.17493302,1.5040237,0.048240326,-0.3241821,0.04513057,1.2771297,0.74049443
0.0,0.0,0.7,0.0,0.0,0,-0.104523905,1.9804273,0.027224462,-0.5662152,-0.054111104,1.3809062,-0.8268788,-0.17603688,1.5047826,0.07840026,-0.31776035,0.007398282,1.2783732,0.6962148
0.0,0.0,0.7,0.0,0.0,0,-0.10005105,1.983188,0.045229383,-0.572607,-0.050963525,1.3868396,-0.86401516,-0.1861711,1.5049447,0.08228481,-0.317895,0.032083075,1.2820379,0.532892
0.0,0.0,0.7,0.0,0.0,0,-0.084675334,1.9739226,0.018165542,-0.5501586,-0.048034623,1.3945775,-0.743387,-0.19537625,1.5031197,0.057504296,-0.3124351,0.08712021,1.271327,0.7946506
0.0,0.0,0.7,0.0,0.0,0,-0.0850284,1.9896823,0.013715898,-0.5679399,-0.050878286,1.3944854,-0.7618512,-0.15643197,1.5065222,0.054324105,-0.32511827,0.05561474,1.2847595,0.74593365
0.0,0.0,0.7,0.0,0.0,0,-0.10891842,1.9813465,0.028636884,-0.5702514,-0.075905606,1.3958606,-0.80594313,-0.17064297,1.5056056,0.061363436,-0.31936857,0.030420763,1.2811539,0.57456857
0.0,0.0,0.7,0.0,0.0,0,-0.069135964,1.9725249,0.028023575,-0.56178993,-0.07416442,1.4040504,-0.7645416,-0.19221908,1.5043104,0.0740979,-0.31540614,0.056212932,1.2808251,0.727692
0.0,0.0,0.7,0.0,0.0,0,-0.13945381,1.9834244,0.0045474097,-0.54338104,-0.06109708,1.3949682,-0.7275111,-0.2040212,1.5030084,0.065632425,-0.3183953,0.02660471,1.2883735,0.6399309
0.0,0.0,0.7,0.0,0.0,0,-0.09242044,1.9783179,0.042336598,-0.55275136,-0.09220895,1.3999844,-0.7554577,-0.19379793,1.5068016,0.07108152,-0.3175655,0.04352904,1.2745129,0.5869667
0.0,0.0,0.7,0.0,0.0,0,-0.024307264,1.9704633,0.02101555,-0.5576433,-0.05403564,1.3955182,-0.74157864,-0.17943959,1.5074927,0.07291833,-0.31840542,0.07517386,1.2748955,0.7620893
0.0,0.0,0.7,0.0,0.0,0,-0.087963484,1.9885875,0.03287182,-0.54563355,-0.02495389,1.397588,-0.76351935,-0.14833516,1.5002717,0.06278904,-0.31587347,0.066084795,1.2911766,0.6176678
0.0,0.0,0.7,0.0,0.0,0,-0.092628516,1.9818039,0.0321709,-0.5506302,-0.05175228,1.3843052,-0.75293535,-0.2343555,1.5061393,0.068509646,-0.3153978,0.07747072,1.2806073,0.6274824
0.0,0.0,0.7,0.0,0.0,0,-0.034300152,1.994006,0.04708641,-0.5680789,-0.071776494,1.3921539,-0.8003434,-0.2030176,1.5106529,0.044513732,-0.31962174,0.058205124,1.2821974,0.67522067
0.0,0.0,0.7,0.0,0.0,0,-0.07575975,1.9817677,0.034367643,-0.56174284,-0.058416903,1.4052556,-0.7826919,-0.20639648,1.5037241,0.05942675,-0.3138479,0.0458567,1.2780452,0.49724847
0.0,0.0,0.7,0.0,0.0,0,-0.123922646,1.9840279,0.026423976,-0.56129104,-0.043565195,1.408019,-0.8465805,-0.18084429,1.4997177,0.074097104,-0.31873718,0.05401197,1.2838072,0.7003925
0.0,0.0,0.7,0.0,0.0,0,-0.13445216,1.9876498,0.0070708785,-0.55704004,-0.025956504,1.402392,-0.7991305,-0.16483797,1.5042588,0.06273791,-0.31868073,0.07489894,1.2837633,0.6036753
0.0,0.0,0.7,0.0,0.0,0,-0.13624468,1.9812286,0.025280865,-0.5531557,-0.024728257,1.3912984,-0.789095,-0.21712607,1.5073009,0.0530981,-0.31687707,-0.016672492,1.2707802,0.6305502
0.0,0.0,0.7,0.0,0.0,0,-0.085321784,1.9884444,0.027882673,-0.55955535,-0.0629385,1.4025238,-0.7522436,-0.16805588,1.5052223,0.0578695,-0.32104707,0.04011979,1.2845154,0.6106362
0.0,0.0,0.7,0.0,0.0,0,-0.093646124,1.9775424,0.026797326,-0.5532317,-0.041003726,1.3751305,-0.70872843,-0.16138794,1.5036491,0.061319374,-0.31508338,0.07258255,1.2758564,0.5970496
0.0,0.0,0.7,0.0,0.0,0,-0.08890256,1.9823445,0.02903783,-0.5463567,-0.06552518,1.3854175,-0.78648347,-0.15795918,1.509196,0.08942039,-0.32215506,0.029608237,1.2762312,0.6523528
0.0,0.0,0.7,0.0,0.0,0,-0.051991675,1.9800487,0.023889953,-0.55654794,-0.054218985,1.4064283,-0.85110873,-0.19858116,1.5093656,0.07216288,-0.31615,0.01597486,1.2778176,0.54176456
0.0,0.0,0.7,0.0,0.0,0,-0.050277837,1.9717836,0.03047033,-0.55788803,-0.056631703,1.4014164,-0.7220794,-0.22459534,1.5047385,0.043676138,-0.31775826,0.06311585,1.2834095,0.57053083
0.0,0.0,0.7,0.0,0.0,0,-0.066703595,1.982521,0.0238757,-0.5440614,-0.07080995,1.4005227,-0.8076911,-0.17685513,1.5034354,0.04524873,-0.31908995,0.05126248,1.2858965,0.5905029
0.0,0.0,0.7,0.0,0.0,0,-0.07729609,1.9775566,0.034571256,-0.5636385,-0.05700923,1.4052727,-0.74844867,-0.2022581,1.5082543,0.061047096,-0.3200986,0.07667364,1.2750596,0.55220634
0.0,0.0,0.7,0.0,0.0,0,-0.11241455,1.9744786,0.048088856,-0.56256104,-0.031359676,1.3897674,-0.66774714,-0.14942479,1.5022888,0.045945324,-0.3199546,0.05510302,1.2788823,0.74272114
0.0,0.0,0.7,0.0,0.0,0,-0.04819487,1.9860698,0.043982424,-0.54751545,-0.03477968,1.394678,-0.75475085,-0.1752835,1.5040268,0.06807045,-0.31435734,0.03593405,1.2758331,0.66173095
0.0,0.0,0.7,0.0,0.0,0,-0.08609409,1.9737031,0.018853012,-0.5555702,-0.055585213,1.3939561,-0.885153,-0.143197,1.5095941,0.041070394,-0.31962672,0.08001939,1.2791281,0.5411854
0.0,0.0,0.7,0.0,0.0,0,0.01098228,1.9781594,0.005488443,-0.5668596,-0.018205104,1.3874574,-0.6728818,-0.15934408,1.5041604,0.057077255,-0.3170959,0.041098107,1.2765559,0.5902278
0.0,0.0,0.7,0.0,0.0,0,-0.014755187,1.9895838,0.03881316,-0.55020964,-0.0054525007,1.4061704,-0.6698768,-0.16738836,1.5062724,0.051232632,-0.31329587,0.053256586,1.2770565,0.5132393
0.0,0.0,0.7,0.0,0.0,0,-0.044387046,1.9849019,0.036544498,-0.54431283,-0.09552124,1.3847767,-0.7356325,-0.18414158,1.5029417,0.06716237,-0.31369084,0.09511188,1.2778132,0.5198325
0.0,0.0,0.7,0.0,0.0,0,-0.08004775,1.9823226,0.003672008,-0.56689674,-0.06984963,1.3993888,-0.83379334,-0.1864302,1.5074245,0.054774664,-0.31542912,0.064904645,1.280478,0.4534431
0.0,0.0,0.7,0.0,0.0,0,-0.08664412,1.9750625,0.028353838,-0.5565057,-0.08584575,1.3922845,-0.85825104,-0.18355787,1.5036916,0.069771685,-0.3230196,0.04980306,1.2874075,0.7134683
0.0,0.0,0.7,0.0,0.0,0,-0.10382139,1.9946834,0.048364427,-0.54093736,-0.03531416,1.396279,-0.7760763,-0.18220691,1.5031989,0.070456006,-0.31579438,0.024150848,1.2755716,0.42889473
0.0,0.0,0.7,0.0,0.0,0,-0.089765534,1.980345,0.03839021,-0.55114144,-0.0174336,1.3869542,-0.7905117,-0.15887891,1.5087343,0.06521649,-0.32418168,0.01718829,1.2894387,0.55997634
0.0,0.0,0.7,0.0,0.0,0,-0.052036848,1.989945,0.026927456,-0.5500876,-0.04751019,1.3971294,-0.7656145,-0.18433599,1.5098807,0.06540252,-0.3209112,0.070368506,1.2802545,0.63843685
0.0,0.0,0.7,0.0,0.0,0,-0.0328697,1.9786247,0.021884082,-0.5498907,-0.058920857,1.3942237,-0.8352813,-0.18439864,1.5039898,0.09251229,-0.31571576,0.072054446,1.2718736,0.6914974
0.0,0.0,0.7,0.0,0.0,0,-0.032427058,1.9754782,0.03898111,-0.56793714,-0.061181094,1.3935587,-0.80833673,-0.16724427,1.509023,0.06841591,-0.32139358,0.074127905,1.282808,0.6488067
0.0,0.0,0.7,0.0,0.0,0,-0.015488016,1.9808457,0.029928457,-0.5688394,-0.07301468,1.3959738,-0.7148587,-0.19113207,1.5069779,0.06714795,-0.3213028,0.057177916,1.2816628,0.670844
0.0,0.0,0.7,0.0,0.0,0,-0.040033292,1.9849781,0.04082673,-0.55880564,-0.098828286,1.3947366,-0.78045654,-0.16369675,1.5037085,0.05818122,-0.3194015,0.039740346,1.2814038,0.6285663
0.0,0.0,0.7,0.0,0.0,0,-0.016589472,1.9842849,0.023997268,-0.5555507,-0.012171567,1.4003446,-0.77690005,-0.19871254,1.5041869,0.0710626,-0.31691703,0.032821555,1.2747868,0.5410828
0.0,0.0,0.7,0.0,0.0,0,-0.112449765,1.9723372,0.03848778,-0.54097915,-0.077365905,1.3977904,-0.9650468,-0.16477916,1.506866,0.0553051,-0.3162135,0.025949318,1.277095,0.6398675
0.0,0.0,0.7,0.0,0.0,0,-0.089874275,1.9829106,0.04887264,-0.56089705,-0.07186669,1.3939921,-0.79206747,-0.1945159,1.5073538,0.087249234,-0.3188498,0.021514643,1.2806325,0.60176307
0.0,0.0,0.7,0.0,0.0,0,-0.06416333,1.979303,0.017925294,-0.54999334,-0.041755203,1.3943913,-0.6725824,-0.16534977,1.505997,0.056462776,-0.3192333,0.055559803,1.2731014,0.725888
0.0,0.0,0.7,0.0,0.0,0,-0.04251433,1.9800762,0.045068625,-0.55608904,-0.073855184,1.4035342,-0.7793473,-0.19539878,1.5055032,0.07493406,-0.31898358,0.047158495,1.2735025,0.6496009
0.0,0.0,0.7,0.0,0.0,0,-0.06703013,1.9867486,0.026034256,-0.5584352,-0.017537637,1.4010804,-0.80546737,-0.14766513,1.5100027,0.06825437,-0.31809786,0.06600207,1.2779939,0.5621996
0.0,0.0,0.7,0.0,0.0,0,-0.13088757,1.9764144,0.018326692,-0.54048926,-0.037666548,1.389809,-0.81786776,-0.16284946,1.5084689,0.0848844,-0.31871438,0.045734584,1.2789422,0.7487274
0.0,0.0,0.7,0.0,0.0,0,-0.075845815,1.9772339,0.03011869,-0.5587863,-0.00875395,1.3948982,-0.69922894,-0.17939721,1.508985,0.06800307,-0.32545698,0.06952617,1.2902182,0.5444708
0.0,0.0,0.7,0.0,0.0,0,-0.0916921,1.9799184,0.044504546,-0.55155295,-0.041617874,1.3998766,-0.7182977,-0.19503711,1.5053878,0.057938516,-0.31687066,0.05102396,1.2811252,0.6619899
0.0,0.0,0.7,0.0,0.0,0,-0.04546282,1.9816338,0.034067106,-0.54668736,-0.048007663,1.396872,-0.8487538,-0.19121392,1.5055006,0.06735017,-0.31642798,0.07481211,1.28048,0.5428402
0.0,0.0,0.7,0.0,0.0,0,-0.06431921,1.9737828,0.01928904,-0.5629886,-0.03286347,1.3857932,-0.77754366,-0.15145747,1.506898,0.061226945,-0.32328543,0.022396008,1.2856154,0.63046455
0.0,0.0,0.7,0.0,0.0,0,-0.07320389,1.9753733,0.01209147,-0.5593345,-0.08085547,1.4109724,-0.72573847,-0.16804677,1.5076104,0.09032312,-0.3226792,0.039647073,1.281003,0.580082
0.0,0.0,0.7,0.0,0.0,0,-0.07427727,1.9808637,0.033145804,-0.5573358,-0.029656423,1.3896947,-0.68880314,-0.20429686,1.5074728,0.08015031,-0.31524935,0.046714425,1.277266,0.52637607
0.0,0.0,0.7,0.0,0.0,0,-0.15282655,1.9807087,0.024897415,-0.5568571,-0.051462345,1.4059632,-0.78960794,-0.14757611,1.5073274,0.06943304,-0.3205578,0.060180817,1.284747,0.7163039
0.0,0.0,0.7,0.0,0.0,0,-0.024862047,1.979721,0.04082641,-0.5466068,-0.006090919,1.3996814,-0.8827585,-0.1878612,1.5129672,0.051103834,-0.32275853,0.07840639,1.2802207,0.5916667
0.0,0.0,0.7,0.0,0.0,0,-0.12549321,1.9898279,0.032899383,-0.5573841,-0.019121464,1.3913203,-0.77629477,-0.18636885,1.5079609,0.05975549,-0.32272673,0.06342396,1.2840191,0.66440314
0.0,0.0,0.7,0.0,0.0,0,-0.048405305,1.9835833,0.040515702,-0.5744219,-0.07644201,1.3978993,-0.73602766,-0.17586146,1.5057954,0.07886819,-0.31993258,0.07570318,1.2845689,0.65506643
0.0,0.0,0.7,0.0,0.0,0,-0.025340693,1.9879361,0.036323763,-0.552828,-0.06676553,1.3970712,-0.7043358,-0.1838064,1.5104215,0.067308046,-0.31477585,0.024615923,1.2712268,0.5608755
0.0,0.0,0.7,0.0,0.0,0,-0.08964043,1.98207,0.03044563,-0.5598501,-0.028875176,1.4050938,-0.77635944,-0.17748769,1.5044265,0.05498051,-0.31582054,0.039417498,1.2778593,0.68484366
0.0,0.0,0.7,0.0,0.0,0,-0.03485071,1.9803416,0.041034535,-0.5459915,-0.04976504,1.3969333,-0.7910332,-0.18264726,1.5085953,0.0727051,-0.31450403,0.08854285,1.278872,0.6351622
0.0,0.0,0.7,0.0,0.0,0,-0.057967328,1.9845351,0.021425312,-0.5685432,-0.07536733,1.4003912,-0.69448817,-0.15805505,1.506797,0.08659214,-0.32506922,0.039389387,1.2871215,0.63302374
0.0,0.0,0.7,0.0,0.0,0,-0.06523501,1.9972591,0.0487742,-0.5585639,-0.01905225,1.398739,-0.7862633,-0.18233402,1.506426,0.04894499,-0.32260135,0.045826696,1.2871494,0.7596291
0.0,0.0,0.7,0.0,0.0,0,-0.08657295,1.9781648,0.038939632,-0.56243837,-0.024648156,1.4092234,-0.7308475,-0.20088123,1.5074624,0.052001044,-0.31267065,0.04191171,1.278276,0.6566635
0.0,0.0,0.7,0.0,0.0,0,-0.075398944,1.9767115,0.043608386,-0.56410354,-0.07803338,1.3999767,-0.79916865,-0.17557277,1.5053806,0.06486174,-0.3176587,0.03965362,1.2825414,0.5535165
0.0,0.0,0.7,0.0,0.0,0,-0.06251464,1.9765698,0.032861363,-0.5689091,-0.100218005,1.3982558,-0.79968417,-0.19039552,1.5090673,0.07529398,-0.31835663,0.031841576,1.27615,0.67551225
0.0,0.0,0.7,0.0,0.0,0,-0.1229766,1.9860127,0.038450714,-0.54370666,-0.063740306,1.3968071,-0.75928545,-0.18652087,1.509402,0.057566892,-0.32312536,0.04738736,1.285336,0.686933
0.0,0.0,0.7,0.0,0.0,0,-0.08436565,1.9862235,0.005654936,-0.5625362,-0.06820704,1.3950385,-0.85128325,-0.1818322,1.5007645,0.07335623,-0.3172245,0.04260938,1.2892886,0.56735015
0.0,0.0,0.7,0.0,0.0,0,-0.09961547,1.9820588,0.034301378,-0.554321,-0.08452104,1.3956255,-0.69713056,-0.20377098,1.5059485,0.06468393,-0.31844276,0.08441163,1.285558,0.5247617
0.0,0.0,0.7,0.0,0.0,0,-0.07301123,1.9869651,0.030618018,-0.5507275,-0.049700603,1.4016039,-0.806687,-0.21281014,1.5054332,0.06428135,-0.314969,0.0698617,1.2694517,0.5678843
0.0,0.0,0.7,0.0,0.0,0,-0.06685326,1.9738588,0.039937183,-0.55261856,-0.012144105,1.380223,-0.7504408,-0.15486893,1.506014,0.058223385,-0.32446125,0.051816944,1.2892325,0.60673726
0.0,0.0,0.7,0.0,0.0,0,-0.087506905,1.9758879,0.0048067067,-0.5609386,-0.06326587,1.4032651,-0.89109206,-0.15183443,1.5060071,0.05748821,-0.32051268,0.045293856,1.2825897,0.6315368
0.0,0.0,0.7,0.0,0.0,0,-0.10360569,1.9797157,0.011126136,-0.5452659,-0.07321192,1.3928598,-0.79902023,-0.17089668,1.5056928,0.06662335,-0.3248658,0.053998698,1.2891649,0.69778734
0.0,0.0,0.7,0.0,0.0,0,-0.091853224,1.9754956,0.0182176,-0.55244875,-0.04534856,1.383885,-0.80271804,-0.19673455,1.5053897,0.07891513,-0.3188609,0.05410324,1.2840388,0.5931391
0.0,0.0,0.7,0.0,0.0,0,-0.0357616,1.9812795,0.039420344,-0.5517689,-0.06910795,1.3989445,-0.79026484,-0.15963057,1.5065173,0.07467962,-0.31519476,0.017662777,1.2771482,0.5747416
0.0,0.0,0.7,0.0,0.0,0,-0.06570577,1.9827505,0.035601247,-0.54536957,-0.047079474,1.4045664,-0.83936435,-0.1825268,1.5035594,0.05013199,-0.3090999,0.052444775,1.27685,0.59262407
0.0,0.0,0.7,0.0,0.0,0,-0.0509106,1.97883,0.014419799,-0.5387686,-0.07835297,1.4007813,-0.7113191,-0.16579582,1.5058666,0.07031216,-0.3192956,0.058439687,1.2748042,0.6928825
0.0,0.0,0.7,0.0,0.0,0,-0.07447225,1.9803537,0.03964416,-0.54490364,-0.029260457,1.3953679,-0.7688816,-0.179469,1.5088695,0.07720456,-0.31666186,0.05973091,1.2856275,0.57827836
0.0,0.0,0.7,0.0,0.0,0,-0.046537895,1.9794507,0.023916995,-0.55138016,-0.09303455,1.3943341,-0.76076937,-0.22317821,1.5054655,0.065849535,-0.31585994,0.06385426,1.2840717,0.5856878
0.0,0.0,0.7,0.0,0.0,0,-0.11026688,1.9814167,0.02178404,-0.55380774,-0.058261137,1.3993905,-0.8192294,-0.17541865,1.5057405,0.08409917,-0.31654292,0.014540966,1.2800877,0.5853867
0.0,0.0,0.7,0.0,0.0,0,-0.119215116,1.9795845,0.035349358,-0.54397213,-0.063886136,1.3969643,-0.7643222,-0.17512622,1.5100123,0.07626312,-0.32286793,0.07004428,1.2910256,0.48677787
0.0,0.0,0.7,0.0,0.0,0,-0.0435835,1.977437,0.021680532,-0.5569372,-0.04302797,1.4037814,-0.7957843,-0.18615334,1.5079917,0.059368584,-0.31167746,0.08683724,1.2738187,0.5017105
0.0,0.0,0.7,0.0,0.0,0,-0.08326144,1.9863096,0.04021285,-0.5486118,-0.062266022,1.3827095,-0.6537754,-0.17521428,1.504759,0.08980587,-0.32093918,0.07047682,1.2858777,0.56813926
0.0,0.0,0.7,0.0,0.0,0,-0.06715084,1.98644,0.00893659,-0.571071,-0.04535818,1.4040031,-0.7464542,-0.18120748,1.5093982,0.06269307,-0.321957,0.046789583,1.2869092,0.55475765
0.0,0.0,0.7,0.0,0.0,0,-0.08293574,1.9848017,0.03693396,-0.56120056,-0.09080501,1.3988781,-0.68692875,-0.19167642,1.5100825,0.054415785,-0.31759146,0.055145532,1.2807308,0.51736116
0.0,0.0,0.7,0.0,0.0,0,-0.118428916,1.9798958,0.050509963,-0.56995744,-0.061162297,1.3961846,-0.81321496,-0.14298989,1.5086088,0.055470385,-0.31608686,0.0345069,1.2729834,0.55940133
0.0,0.0,0.7,0.0,0.0,0,-0.16865493,1.9899482,0.020893043,-0.55038047,-0.030746205,1.3897872,-0.82812905,-0.18666323,1.5074303,0.046131883,-0.3202686,0.053130012,1.2830253,0.6372537
0.0,0.0,0.7,0.0,0.0,0,-0.050655413,1.9853643,0.03272382,-0.5577386,-0.08683158,1.3961418,-0.8030212,-0.17628267,1.5033737,0.06505429,-0.32090938,0.03971386,1.2871231,0.63713235
0.0,0.0,0.7,0.0,0.0,0,-0.10214012,1.9820247,0.022573458,-0.55607766,-0.03980282,1.389496,-0.7378812,-0.16411865,1.505243,0.060863767,-0.3157007,0.11481472,1.2776246,0.71722174
0.0,0.0,0.7,0.0,0.0,0,-0.026697643,1.9795254,0.013498359,-0.5731726,-0.04829395,1.4032335,-0.80616266,-0.20999397,1.5121615,0.053101856,-0.32240522,0.036528897,1.2862885,0.6533976
0.0,0.0,0.7,0.0,0.0,0,-0.069021344,1.9891258,0.02970931,-0.5582378,-0.056469433,1.3985683,-0.77087873,-0.2184164,1.5105817,0.0816502,-0.31597492,0.039400622,1.2781165,0.5710049
0.0,0.0,0.7,0.0,0.0,0,-0.07655322,1.9852104,0.010844887,-0.5670131,-0.052826036,1.3821671,-0.8294412,-0.16856855,1.5053929,0.06565337,-0.3222355,0.06116026,1.2831359,0.73888683
0.0,0.0,0.7,0.0,0.0,0,-0.11200508,1.9687738,0.022124004,-0.54912746,-0.051709156,1.4014,-0.7388426,-0.16453937,1.503772,0.051465612,-0.31515235,0.054191273,1.2838793,0.33821929
0.0,0.0,0.7,0.0,0.0,0,-0.13778654,1.9799308,0.03234508,-0.56132185,-0.07609035,1.3901069,-0.80054355,-0.16751084,1.507045,0.081427224,-0.3226092,0.030846497,1.2849007,0.6067154
0.0,0.0,0.7,0.0,0.0,0,-0.07675011,1.9861016,0.0028405564,-0.55518216,-0.032658443,1.4010984,-0.8353609,-0.13995829,1.5091001,0.04162406,-0.31973672,0.044150174,1.280039,0.5665555
0.0,0.0,0.7,0.0,0.0,0,-0.04887392,1.9818305,0.014287173,-0.5570687,-0.06371292,1.3966386,-0.8083744,-0.1813832,1.5037953,0.065778874,-0.32174543,0.017050259,1.2924407,0.64309514
0.0,0.0,0.7,0.0,0.0,0,-0.101202585,1.977949,0.018175127,-0.56427646,-0.020200765,1.4116948,-0.77444357,-0.12963612,1.5094889,0.0660484,-0.3171471,0.05367674,1.2740119,0.6261356
0.0,0.0,0.7,0.0,0.0,0,-0.04912899,1.9755117,0.030493839,-0.5478309,-0.1084976,1.3990678,-0.7101323,-0.19414179,1.50749,0.0762136,-0.3204407,0.06951121,1.2839698,0.63626003
0.0,0.0,0.7,0.0,0.0,0,-0.08107203,1.9764881,0.034007,-0.56449,-0.07201502,1.3889921,-0.7618951,-0.17838876,1.5045806,0.07012245,-0.31839707,0.057582114,1.2831506,0.61028373
0.0,0.0,0.7,0.0,0.0,0,-0.00931396,1.9821209,0.024092762,-0.5496707,-0.066291004,1.4064635,-0.79652905,-0.1496445,1.5044204,0.07908476,-0.31783587,0.007901919,1.2844878,0.60964847
0.0,0.0,0.7,0.0,0.0,0,-0.07886441,1.9773493,0.0045338883,-0.55736536,-0.08760799,1.4004439,-0.83045447,-0.16787887,1.5046531,0.051729996,-0.32108936,0.027062157,1.2868137,0.7264687
0.0,0.0,0.7,0.0,0.0,0,-0.033643182,1.9814142,0.032811634,-0.5434841,-0.03815028,1.3923008,-0.78496903,-0.18917671,1.5055076,0.059454933,-0.3135218,0.040747013,1.2744741,0.7342473
0.0,0.0,0.7,0.0,0.0,0,-0.057261337,1.9735621,0.025305409,-0.5675448,-0.051558275,1.4033552,-0.8222896,-0.15520793,1.5037619,0.051297944,-0.3170531,0.056715913,1.2815777,0.633528
0.0,0.0,0.7,0.0,0.0,0,-0.08875697,1.9760919,0.0134497555,-0.54665357,-0.054988496,1.40372,-0.7480147,-0.20125076,1.506626,0.06653092,-0.31427425,0.034440953,1.2835442,0.5781854
0.0,0.0,0.7,0.0,0.0,0,-0.059274547,1.9861192,0.022895934,-0.5530472,-0.064588,1.4063913,-0.7514023,-0.17864712,1.5067465,0.071829006,-0.31440285,0.09454953,1.2860228,0.52198815
0.0,0.0,0.7,0.0,0.0,0,-0.07621357,1.9798877,0.06438524,-0.5640648,-0.08066592,1.3886391,-0.70494765,-0.18610875,1.5057396,0.050925404,-0.3164747,0.062030353,1.282494,0.59511316
0.0,0.0,0.7,0.0,0.0,0,-0.0473122,1.9811404,0.035789933,-0.56357723,-0.061815307,1.3911399,-0.74292904,-0.16870178,1.5126389,0.053187054,-0.3222241,0.065951206,1.2736692,0.7469565
0.0,0.0,0.7,0.0,0.0,0,-0.05346882,1.9727947,0.03608383,-0.5588067,-0.07560211,1.3886486,-0.764729,-0.22330166,1.5066348,0.08250519,-0.3172725,0.06018903,1.2837504,0.6423957
0.0,0.0,0.7,0.0,0.0,0,-0.12415783,1.9794173,0.017074162,-0.5645539,-0.041573163,1.3931456,-0.7736539,-0.14561805,1.5070647,0.055144057,-0.31852895,0.0323205,1.2780057,0.61776036
0.0,0.0,0.7,0.0,0.0,0,-0.120459564,1.9711297,0.025115922,-0.5583094,-0.04653622,1.4002773,-0.8088323,-0.16070822,1.5103034,0.05207604,-0.32410032,0.01803043,1.2882588,0.6214632
0.0,0.0,0.7,0.0,0.0,0,-0.053278357,1.9832945,0.012037193,-0.55546325,-0.036143985,1.4090014,-0.75306714,-0.16214766,1.5051343,0.06773731,-0.31599143,0.033696588,1.2770095,0.64928305
0.0,0.0,0.7,0.0,0.0,0,-0.10382594,1.9835095,0.006096936,-0.55422324,-0.08916439,1.400442,-0.7594976,-0.13197164,1.5056826,0.056065213,-0.32194507,0.068253085,1.279622,0.6765598
0.0,0.0,0.7,0.0,0.0,0,-0.05048751,1.9791715,0.036147024,-0.54376745,-0.07840127,1.3941132,-0.7981801,-0.2105992,1.5061139,0.06723911,-0.31582463,0.02093109,1.2840621,0.7237925
0.0,0.0,0.7,0.0,0.0,0,-0.07953479,1.9803302,0.029501531,-0.5601222,-0.075723,1.3978335,-0.76931244,-0.15592082,1.5036739,0.0659404,-0.32148525,0.04835848,1.2859287,0.60433006
0.0,0.0,0.7,0.0,0.0,0,-0.102797076,1.9817077,0.033136457,-0.563203,-0.06795652,1.4057871,-0.71644884,-0.18602403,1.5047185,0.083218455,-0.3136456,0.057433017,1.2821662,0.43755552
0.0,0.0,0.7,0.0,0.0,0,-0.06778848,1.9817586,0.037451666,-0.54512435,-0.038981892,1.3952129,-0.7841612,-0.14027303,1.5068878,0.06381825,-0.3197906,0.03538036,1.2841688,0.54443485
0.0,0.0,0.7,0.0,0.0,0,-0.080364116,1.986922,0.007600602,-0.55920887,-0.034210306,1.405855,-0.79678625,-0.14058912,1.505701,0.06823338,-0.31520227,-0.0038370062,1.2744472,0.6467832
0.0,0.0,0.7,0.0,0.0,0,-0.067179464,1.9856094,0.03823951,-0.5419564,-0.049997408,1.3931412,-0.791468,-0.18248081,1.507161,0.065417916,-0.3157466,-0.003390977,1.2874631,0.5029402
0.0,0.0,0.7,0.0,0.0,0,-0.08137894,1.979383,0.023369351,-0.5619026,-0.06837574,1.393707,-0.68567324,-0.19122718,1.505912,0.069753796,-0.31682244,0.057308834,1.281927,0.6027343
0.0,0.0,0.7,0.0,0.0,0,-0.101199836,1.9855238,0.045246013,-0.5478703,-0.050582316,1.3952488,-0.8889194,-0.19705366,1.5064565,0.07706947,-0.31944618,0.023275757,1.2804942,0.6015849
0.0,0.0,0.7,0.0,0.0,0,-0.052151434,1.9774951,0.0328708,-0.55317676,-0.09148794,1.4010633,-0.82786244,-0.18193321,1.5098113,0.09118514,-0.3220121,0.042842623,1.2807127,0.60662985
0.0,0.0,0.7,0.0,0.0,0,-0.082077324,1.9856765,0.05233015,-0.54904795,-0.043162607,1.3976676,-0.8056453,-0.18745959,1.505318,0.06574621,-0.31405637,0.05441403,1.2813476,0.75583524
0.0,0.0,0.7,0.0,0.0,0,-0.06330015,1.9785992,0.024550444,-0.56405175,-0.038942114,1.3880346,-0.747242,-0.12581462,1.5055227,0.06276299,-0.32406414,0.07531979,1.2900677,0.547385
0.0,0.0,0.7,0.0,0.0,0,-0.0381797,1.9882661,0.020801717,-0.5622481,-0.021972349,1.395314,-0.7403859,-0.18307692,1.5066645,0.07308815,-0.31951055,0.015329613,1.2869793,0.58970946
0.0,0.0,0.7,0.0,0.0,0,-0.04015757,1.9825794,0.014055618,-0.5696495,-0.06252533,1.4021533,-0.7616991,-0.1721597,1.5072972,0.07498229,-0.3174119,0.04585153,1.2759144,0.6431659
0.0,0.0,0.7,0.0,0.0,0,-0.044677336,1.9837689,0.023414211,-0.56523645,-0.045651566,1.3919756,-0.78626883,-0.17061143,1.5045947,0.07881293,-0.32124612,0.048772797,1.2903837,0.52630246
0.0,0.0,0.7,0.0,0.0,0,-0.08322192,1.9733899,0.025420502,-0.55230945,-0.10241077,1.3886248,-0.7424652,-0.19578351,1.5068834,0.046237018,-0.32358274,0.06617544,1.3000692,0.6499155
0.0,0.0,0.7,0.0,0.0,0,-0.09351261,1.9753329,0.032384295,-0.56156254,-0.041658714,1.3951168,-0.81132317,-0.13034916,1.5060443,0.07860411,-0.32801595,0.029155299,1.2945763,0.59871393
0.0,0.0,0.7,0.0,0.0,0,-0.06900227,1.9894614,0.04000184,-0.5491997,-0.07274757,1.3976812,-0.71960974,-0.17586678,1.5081395,0.06870688,-0.31854984,0.062143456,1.2817657,0.52680063
0.0,0.0,0.7,0.0,0.0,0,-0.055416115,1.9774164,0.038006425,-0.5577358,-0.04818218,1.3978823,-0.77267325,-0.15793666,1.5069655,0.05306842,-0.32076946,0.095005244,1.2884192,0.48105985
0.0,0.0,0.7,0.0,0.0,0,-0.0841544,1.9816302,0.025819762,-0.5553195,-0.06320247,1.3959373,-0.8126879,-0.17747137,1.508082,0.06142328,-0.31793198,0.07872366,1.2791378,0.57556516
0.0,0.0,0.7,0.0,0.0,0,-0.07139424,1.9860392,0.021673363,-0.5446315,-0.044531107,1.3830098,-0.7682781,-0.15013868,1.5026302,0.058970474,-0.3167792,0.047320053,1.2804011,0.58457893
0.0,0.0,0.7,0.0,0.0,0,-0.0724688,1.9829009,0.044508148,-0.55621487,-0.07777259,1.3973886,-0.77966315,-0.15597694,1.5078056,0.035065558,-0.32365564,0.05728326,1.2859831,0.7053489
0.0,0.0,0.7,0.0,0.0,0,-0.11393283,1.9843851,0.018717386,-0.54189944,-0.060483504,1.3982439,-0.75794095,-0.1526903,1.5050576,0.061473425,-0.32001403,0.057610065,1.2856892,0.55535525
0.0,0.0,0.7,0.0,0.0,0,-0.06363688,1.9846756,0.014873127,-0.55136174,-0.008217218,1.3909252,-0.7391304,-0.18167034,1.5065802,0.054302204,-0.31752807,0.05959561,1.2750297,0.70718336
0.0,0.0,0.7,0.0,0.0,0,-0.03377236,1.9867413,0.011794127,-0.5610712,-0.06603958,1.3943092,-0.82901233,-0.17246728,1.5122099,0.055554885,-0.3194577,0.094598465,1.2752753,0.6172231
0.0,0.0,0.7,0.0,0.0,0,-0.11331399,1.9869707,0.035688642,-0.5584444,-0.06839683,1.3933923,-0.7533836,-0.17007707,1.5089122,0.069985926,-0.31595892,0.084202744,1.2740073,0.5313331
0.0,0.0,0.7,0.0,0.0,0,-0.003950626,1.9816265,0.029698577,-0.5611768,-0.071985595,1.4041331,-0.7390346,-0.12896991,1.5059745,0.062317032,-0.32338512,0.075067416,1.2895781,0.65755236
0.0,0.0,0.7,0.0,0.0,0,-0.15193075,1.9828877,0.046469536,-0.564839,-0.07804567,1.3876094,-0.79120255,-0.16362914,1.5102663,0.06596525,-0.32070175,0.023763264,1.2813025,0.63905865
0.0,0.0,0.7,0.0,0.0,0,-0.09379225,1.983831,0.022696514,-0.5555173,-0.07072107,1.4083987,-0.73912966,-0.17394842,1.511251,0.0491825,-0.3204784,0.053745028,1.2823682,0.5680437
0.0,0.0,0.7,0.0,0.0,0,-0.016075183,1.9848348,0.022282194,-0.55252194,-0.0650682,1.3941351,-0.75233775,-0.1794907,1.5004,0.055983655,-0.31591532,0.059413012,1.2808527,0.651707
0.0,0.0,0.7,0.0,0.0,0,-0.07209612,1.979819,0.028181776,-0.5499381,-0.019950274,1.3950859,-0.8003243,-0.17601156,1.5055931,0.03668145,-0.32180482,0.05864589,1.2964326,0.71111256
0.0,0.0,0.7,0.0,0.0,0,-0.047629796,1.981601,0.030718097,-0.5451235,-0.04047574,1.3927351,-0.73093045,-0.1656356,1.5075938,0.069652654,-0.3167649,0.059749827,1.2777785,0.5658172
0.0,0.0,0.7,0.0,0.0,0,-0.04374685,1.9830133,0.018525982,-0.5531402,-0.011452233,1.3867767,-0.665688,-0.13180679,1.508539,0.057070065,-0.32356215,0.024081083,1.2858682,0.5805489
0.0,0.0,0.7,0.0,0.0,0,-0.063159734,1.9832574,0.039060507,-0.5458719,-0.064249665,1.4041876,-0.9196692,-0.21064366,1.5083628,0.07369135,-0.31350985,0.053785007,1.2834256,0.58669376
0.0,0.0,0.7,0.0,0.0,0,-0.08207906,1.9835972,0.016447179,-0.5626777,-0.04392014,1.4080633,-0.75747895,-0.18936408,1.5047626,0.0592039,-0.3163814,0.066783816,1.2820699,0.62702775
0.0,0.0,0.7,0.0,0.0,0,-0.092741184,1.9734823,0.032793615,-0.5502849,-0.06428689,1.3907897,-0.64687526,-0.17820293,1.5055532,0.07921218,-0.32358435,0.062544785,1.289255,0.70450896
0.0,0.0,0.7,0.0,0.0,0,-0.06163142,1.9764212,0.02478149,-0.56827694,-0.017862879,1.4006095,-0.8175828,-0.1450754,1.5045229,0.057491936,-0.32276443,0.06478608,1.2955732,0.7854221
0.0,0.0,0.7,0.0,0.0,0,-0.0452907,1.9846193,0.032460406,-0.55459434,-0.05471161,1.3865288,-0.8169098,-0.17032535,1.5057898,0.064511426,-0.3156506,0.06000957,1.2803688,0.5218332
0.0,0.0,0.7,0.0,0.0,0,-0.087262586,1.9767202,0.056959495,-0.54950154,-0.039409745,1.3894739,-0.6698108,-0.18053988,1.5074428,0.050155267,-0.319535,0.057854354,1.2830052,0.62430173
0.0,0.0,0.7,0.0,0.0,0,-0.0913791,1.9795545,0.015887288,-0.54617083,-0.038748816,1.3851339,-0.7030932,-0.15552232,1.5056114,0.058672283,-0.3204718,0.06468662,1.2826262,0.630249
0.0,0.0,0.7,0.0,0.0,0,-0.056583036,1.9839994,0.03263064,-0.55009335,-0.038231574,1.4013338,-0.8766706,-0.19886664,1.5041542,0.06256259,-0.31727707,0.047816575,1.2864715,0.6784816
0.0,0.0,0.7,0.0,0.0,0,-0.07281728,1.9779174,0.042665258,-0.5429462,-0.059958648,1.3933765,-0.80548525,-0.18050045,1.508446,0.05563839,-0.31663567,0.06582407,1.281326,0.5689807
0.0,0.0,0.7,0.0,0.0,0,-0.09228554,1.9685161,0.030212699,-0.5504825,-0.03552138,1.3777845,-0.69966954,-0.15954517,1.5080466,0.04807928,-0.32256845,0.09622024,1.2842915,0.65011644
0.0,0.0,0.7,0.0,0.0,0,-0.074071124,1.9937521,0.042417854,-0.5519876,-0.06338891,1.3928678,-0.776372,-0.18378977,1.503903,0.0867818,-0.3121902,0.06968928,1.2764819,0.62492394
0.0,0.0,0.7,0.0,0.0,0,-0.06405147,1.9829043,0.026330285,-0.5514493,-0.03142328,1.3787888,-0.7617119,-0.1901853,1.5083424,0.09280132,-0.31504083,0.027707692,1.277654,0.5345477
0.0,0.0,0.7,0.0,0.0,0,-0.10308578,1.972902,0.0056988434,-0.53869647,-0.050521873,1.4020808,-0.7690868,-0.1737012,1.5032167,0.042594377,-0.31286123,0.06246345,1.2826108,0.5782824
0.0,0.0,0.7,0.0,0.0,0,-0.08278545,1.9886379,0.044341348,-0.555684,-0.04920768,1.3926774,-0.7585392,-0.14305842,1.5088333,0.05750357,-0.32724243,0.06338138,1.2843851,0.7879005
0.0,0.0,0.7,0.0,0.0,0,-0.056278054,1.9804903,0.030591343,-0.54730415,0.001215063,1.3874403,-0.72688687,-0.18998227,1.5073115,0.059370864,-0.3197228,0.055260327,1.2860513,0.6321936
0.0,0.0,0.7,0.0,0.0,0,-0.10273726,1.9816988,0.023116916,-0.54539645,-0.03395948,1.386566,-0.7491406,-0.15639359,1.5027673,0.03604622,-0.31650823,0.05555153,1.2807368,0.69769216
0.0,0.0,0.7,0.0,0.0,0,-0.08540083,1.9771098,0.037612967,-0.56045353,-0.03494826,1.3923019,-0.7576503,-0.14394023,1.5124097,0.057404146,-0.32663924,0.053963598,1.2810545,0.6508726
0.0,0.0,0.7,0.0,0.0,0,-0.03006911,1.9729589,0.018316442,-0.56035775,-0.039567288,1.3860834,-0.80483097,-0.17681792,1.5087328,0.07119653,-0.31979376,0.06966989,1.2802216,0.61510056
0.0,0.0,0.7,0.0,0.0,0,-0.086322516,1.9738456,0.032679737,-0.5555726,-0.092484675,1.3890954,-0.81820726,-0.17755678,1.5068359,0.09026987,-0.31833708,0.067142546,1.2833648,0.61627495
0.0,0.0,0.7,0.0,0.0,0,-0.022391004,1.9849888,0.028592475,-0.5672638,-0.0411255,1.4040093,-0.787681,-0.1503451,1.5084002,0.075275615,-0.3191403,0.0745165,1.2854061,0.57841164
0.0,0.0,0.7,0.0,0.0,0,-0.077684246,1.9859511,0.015471116,-0.55569136,-0.05192093,1.4032854,-0.80079573,-0.13589546,1.5049323,0.0584689,-0.32164702,0.05148071,1.2852379,0.62324286
0.0,0.0,0.7,0.0,0.0,0,-0.055387795,1.9769188,0.009974306,-0.5437404,0.0043258504,1.3938459,-0.7429131,-0.15416749,1.5061347,0.06980198,-0.32485923,0.032943536,1.2910427,0.5874997
0.0,0.0,0.7,0.0,0.0,0,-0.10680289,1.9739109,0.042449832,-0.5540535,-0.0060580447,1.386769,-0.81908935,-0.17647953,1.5035495,0.050153095,-0.31572515,0.06406618,1.2844656,0.57412785
0.0,0.0,0.7,0.0,0.0,0,-0.07370733,1.9807591,0.031172521,-0.5624595,-0.0305179,1.392165,-0.81457883,-0.16173732,1.5130359,0.055988982,-0.32037398,0.075244665,1.2789527,0.56682473
0.0,0.0,0.7,0.0,0.0,0,-0.050949395,1.9854031,-0.0013482239,-0.54972565,-0.08231712,1.395178,-0.852835,-0.1700436,1.5115445,0.07127776,-0.32257226,0.04983827,1.2766535,0.740108
0.0,0.0,0.7,0.0,0.0,0,-0.06327486,1.9723868,0.026425945,-0.54318416,-0.051287316,1.3850019,-0.6883424,-0.1757567,1.5043625,0.06568248,-0.31724584,0.07631197,1.2843312,0.5490417
0.0,0.0,0.7,0.0,0.0,0,-0.073868714,1.9843365,0.018893486,-0.5567635,-0.124714755,1.4129024,-0.8343358,-0.18912159,1.504587,0.07649868,-0.3153696,0.04371374,1.276393,0.5234545
0.0,0.0,0.7,0.0,0.0,0,-0.05489924,1.9843408,0.0248161,-0.55720186,-0.061435547,1.3930079,-0.7376242,-0.13234185,1.5085503,0.078614324,-0.31941608,0.07642454,1.2805223,0.6261411
0.0,0.0,0.7,0.0,0.0,0,-0.16024505,1.9794316,0.044244163,-0.5514327,-0.06360357,1.39934,-0.8107676,-0.12733044,1.5037949,0.071253106,-0.31866434,0.03206,1.2834918,0.6122916
0.0,0.0,0.7,0.0,0.0,0,-0.06375153,1.9880835,0.02590062,-0.5429507,-0.07113659,1.3904233,-0.81744653,-0.16579902,1.507039,0.05419312,-0.31914702,0.056589514,1.2862804,0.52342373
0.0,0.0,0.7,0.0,0.0,0,-0.10480103,1.9840605,0.023153193,-0.5550475,-0.0797082,1.4039539,-0.7825092,-0.12952098,1.5065756,0.058998525,-0.32306114,0.04372768,1.2816774,0.7503734
0.0,0.0,0.7,0.0,0.0,0,-0.10783024,1.9802684,0.036383726,-0.5436621,-0.06004399,1.4087149,-0.7582978,-0.17956895,1.5051748,0.047199577,-0.3138808,0.028799126,1.2866201,0.64333934
0.0,0.0,0.7,0.0,0.0,0,-0.07738655,1.9751607,0.045882553,-0.55006516,-0.1219215,1.3926551,-0.7184174,-0.14925615,1.5040861,0.07277478,-0.31506053,0.014793952,1.2737715,0.67889184
0.0,0.0,0.7,0.0,0.0,0,-0.04879305,1.9916662,0.029991563,-0.5470817,-0.054587312,1.4149587,-0.80315053,-0.16732357,1.5096028,0.059264615,-0.3163012,0.044103555,1.2801298,0.78955865
0.0,0.0,0.7,0.0,0.0,0,-0.05053817,1.9694364,0.02634946,-0.5666392,-0.051118147,1.4045247,-0.8242582,-0.15263864,1.5103695,0.059979383,-0.31407225,0.020268325,1.2787995,0.5231532
0.0,0.0,0.7,0.0,0.0,0,-0.08867215,1.9791118,0.011458853,-0.53993356,-0.03989998,1.394224,-0.80826265,-0.16038518,1.5098321,0.062153228,-0.3260379,0.051126994,1.2863001,0.7684596
0.0,0.0,0.7,0.0,0.0,0,-0.08927664,1.9814916,0.012361434,-0.56399304,-0.020938149,1.4044999,-0.79733646,-0.14087234,1.503422,0.037248265,-0.31204978,0.070073366,1.2721931,0.61742276
0.0,0.0,0.7,0.0,0.0,0,-0.08588316,1.9903003,0.015562464,-0.54928184,-0.053052727,1.3902986,-0.83247876,-0.16594927,1.5034977,0.089697644,-0.3195736,0.022591904,1.2839022,0.65217364
0.0,0.0,0.7,0.0,0.0,0,-0.12856826,1.9723654,0.035125326,-0.54514736,-0.041493293,1.39748,-0.79496384,-0.1680567,1.5040387,0.073757336,-0.31302518,0.06655512,1.2832001,0.54773545
0.0,0.0,0.7,0.0,0.0,0,-0.09523319,1.9751297,0.019375697,-0.5512589,-0.044264395,1.3792427,-0.73167074,-0.17371702,1.508736,0.08470525,-0.32074445,0.095850974,1.288148,0.70492154
0.0,0.0,0.7,0.0,0.0,0,-0.102122456,1.9821874,0.028842213,-0.5520651,-0.022867505,1.3917567,-0.7296298,-0.18619381,1.5133368,0.06070244,-0.32544577,0.06953314,1.2827091,0.7203773
0.0,0.0,0.7,0.0,0.0,0,0.015849967,1.9749478,0.029724246,-0.55138034,-0.09894268,1.3865932,-0.7561521,-0.16602208,1.5094047,0.06563643,-0.32087505,0.050322283,1.2786976,0.67077714
0.0,0.0,0.7,0.0,0.0,0,-0.076748565,1.9814583,0.028850444,-0.5552783,-0.049392123,1.3922591,-0.79796964,-0.16256069,1.5094,0.057462122,-0.3251981,0.054449197,1.2885193,0.68731195
0.0,0.0,0.7,0.0,0.0,0,-0.033500824,1.9731747,0.0183264,-0.5487803,-0.042280883,1.3939083,-0.80759114,-0.18026526,1.5091656,0.0828781,-0.31484964,0.07932363,1.2757475,0.64851916
0.0,0.0,0.7,0.0,0.0,0,-0.098368116,1.976407,0.019353151,-0.5512781,-0.061454136,1.3911841,-0.67275286,-0.17438821,1.5046452,0.067039974,-0.32146853,0.05868066,1.2877586,0.6931562
0.0,0.0,0.7,0.0,0.0,0,-0.076640755,1.9790938,0.03207506,-0.5634375,-0.063469484,1.3947434,-0.7610112,-0.16305247,1.5069834,0.07666509,-0.32035348,0.06989661,1.283667,0.69895154
0.0,0.0,0.7,0.0,0.0,0,-0.060574915,1.9787091,0.013146752,-0.5593971,-0.051882654,1.4121205,-0.78888804,-0.1523063,1.5035417,0.07626124,-0.31815377,0.019254578,1.2875792,0.6141373
0.0,0.0,0.7,0.0,0.0,0,-0.10886238,1.9766084,0.04578469,-0.553603,-0.039783936,1.4027923,-0.7510691,-0.17250738,1.5040951,0.07815287,-0.3171283,0.040938858,1.2850524,0.6805459
0.0,0.0,0.7,0.0,0.0,0,-0.14639802,1.984507,0.020451104,-0.56298226,-0.08268577,1.4071507,-0.7779278,-0.14011171,1.5056843,0.056281593,-0.3217454,0.06043977,1.282333,0.6476906
0.0,0.0,0.7,0.0,0.0,0,-0.033787426,1.9802485,0.029190315,-0.5434784,-0.085394874,1.405076,-0.8040707,-0.17353666,1.5070682,0.06330542,-0.32153594,0.052852616,1.2826576,0.6813367
0.0,0.0,0.7,0.0,0.0,0,-0.04498361,1.985587,0.02684011,-0.5465635,-0.035929568,1.389817,-0.80494213,-0.19705233,1.5085605,0.07602761,-0.32129386,0.04801745,1.284909,0.6775368
0.0,0.0,0.7,0.0,0.0,0,-0.084421225,1.9839954,0.025464127,-0.5418547,-0.07546422,1.3981538,-0.772823,-0.18506476,1.5084376,0.063443,-0.3129408,0.06594383,1.2767903,0.5190983
0.0,0.0,0.7,0.0,0.0,0,-0.072085105,1.9859624,0.021114683,-0.55496144,-0.07595979,1.4066136,-0.8591627,-0.15895866,1.5117308,0.0711405,-0.32743058,0.016502706,1.2909486,0.647046
0.0,0.0,0.7,0.0,0.0,0,-0.0656728,1.9724386,0.016032398,-0.5489737,-0.058554444,1.3924751,-0.7917198,-0.16252393,1.5139612,0.07789298,-0.32141468,0.02562719,1.279133,0.5766221
0.0,0.0,0.7,0.0,0.0,0,-0.13192302,1.9702677,0.015951008,-0.55669624,-0.07351193,1.4100225,-0.7997472,-0.16567686,1.5073905,0.057830658,-0.32037148,0.06038805,1.2714916,0.5026274
0.0,0.0,0.7,0.0,0.0,0,-0.03557702,1.9750417,0.05530678,-0.5490439,-0.0988619,1.397366,-0.78410834,-0.1970083,1.5060663,0.077563785,-0.31611848,0.026970854,1.2788025,0.4097395
0.0,0.0,0.7,0.0,0.0,0,-0.07984701,1.9828115,0.028354365,-0.54781854,-0.116654165,1.4007345,-0.7906006,-0.13612841,1.5064867,0.06386712,-0.32047743,0.05685751,1.281091,0.62117267
0.0,0.0,0.7,0.0,0.0,0,-0.053007875,1.9751673,0.042464096,-0.5586513,-0.027063726,1.4094487,-0.7174754,-0.16601393,1.5053957,0.07492819,-0.3129917,0.031808596,1.2800345,0.56315684
0.0,0.0,0.7,0.0,0.0,0,-0.10592639,1.973457,0.018955307,-0.53569806,-0.050889164,1.404916,-0.7282442,-0.19475979,1.5075538,0.08390789,-0.31437454,0.04259016,1.2824455,0.62371767
0.0,0.0,0.7,0.0,0.0,0,-0.06435948,1.9803848,0.043692976,-0.5504857,-0.05783553,1.3775903,-0.83322805,-0.16963944,1.5047503,0.071134426,-0.3201987,0.047064807,1.2838953,0.7256032
0.0,0.0,0.7,0.0,0.0,0,-0.1166273,1.9677379,0.018063424,-0.5463269,-0.004474038,1.3990706,-0.8187447,-0.190031,1.511454,0.051516682,-0.31583533,0.009781905,1.2725091,0.60425675
0.0,0.0,0.7,0.0,0.0,0,-0.042634632,1.9765193,0.024209397,-0.5631138,-0.12679581,1.4045295,-0.7951399,-0.17728147,1.5071313,0.07939927,-0.31769437,0.064245105,1.2793015,0.6335124
0.0,0.0,0.7,0.0,0.0,0,-0.0701901,1.9891368,0.03251631,-0.54967916,-0.04985797,1.4011829,-0.8411184,-0.18294612,1.5069191,0.061971948,-0.31767178,0.046587043,1.2841797,0.6272316
0.0,0.0,0.7,0.0,0.0,0,-0.05912578,1.9836046,0.033070423,-0.5607759,-0.040211238,1.3895112,-0.87495184,-0.13141587,1.50728,0.07443431,-0.32088104,0.062198367,1.2860222,0.54142463
0.0,0.0,0.7,0.0,0.0,0,-0.13543671,1.9831458,0.04261685,-0.5639478,-0.04108473,1.3956399,-0.72682726,-0.16095166,1.500934,0.06776858,-0.31482366,0.031498622,1.2970443,0.49979421
0.0,0.0,0.7,0.0,0.0,0,-0.06745089,1.9810164,0.011032713,-0.54748267,0.0055952994,1.3996606,-0.7498749,-0.18090594,1.5041701,0.045477957,-0.31393155,0.066595025,1.282945,0.58391243
0.0,0.0,0.7,0.0,0.0,0,-0.030638587,1.9783359,0.043310475,-0.5644251,-0.07851332,1.3963944,-0.7691989,-0.16082005,1.507855,0.08696221,-0.3267547,0.056430925,1.2957782,0.5549188
0.0,0.0,0.7,0.0,0.0,0,-0.051845048,1.9794267,0.02329952,-0.5457028,-0.015010825,1.3974568,-0.7607644,-0.18564516,1.5053034,0.058926005,-0.31943035,0.054593924,1.2922149,0.6480136
0.0,0.0,0.7,0.0,0.0,0,-0.033696096,1.9874834,0.04367109,-0.5483511,-0.11362167,1.402177,-0.87322533,-0.1773382,1.5034491,0.059349775,-0.31490067,0.044378597,1.2825692,0.6681881
0.0,0.0,0.7,0.0,0.0,0,-0.0590437,1.9873972,0.012711318,-0.5318206,-0.07271004,1.3987391,-0.7513104,-0.17306352,1.5095508,0.05804745,-0.32218072,0.027911399,1.2871627,0.61450475
0.0,0.0,0.7,0.0,0.0,0,-0.04432581,1.9773357,0.029922407,-0.5533072,-0.04093829,1.4020634,-0.8250021,-0.17702278,1.5053201,0.08852991,-0.3174768,0.08392198,1.2797552,0.56186754
0.0,0.0,0.7,0.0,0.0,0,-0.12507054,1.9798445,0.03942185,-0.55322385,-0.053384777,1.393475,-0.7524001,-0.13845165,1.5057442,0.060069345,-0.32064888,0.07104928,1.2847177,0.7296617
0.0,0.0,0.7,0.0,0.0,0,-0.06621682,1.9835846,0.004623021,-0.53948516,-0.06970726,1.3956492,-0.80698967,-0.14778093,1.5081005,0.041824058,-0.32180956,0.06908874,1.2838463,0.7108036
0.0,0.0,0.7,0.0,0.0,0,-0.062194895,1.9788616,0.028293164,-0.5502361,-0.073654965,1.4005848,-0.7749175,-0.13807864,1.5084637,0.05172511,-0.31714353,0.0629928,1.2759855,0.71995544
0.0,0.0,0.7,0.0,0.0,0,-0.13267645,1.9764087,0.049607974,-0.54744744,-0.08917724,1.3959934,-0.83132577,-0.15163049,1.5013317,0.07228008,-0.32047096,0.020030972,1.28846,0.6699843
0.0,0.0,0.7,0.0,0.0,0,-0.1056112,1.9786022,0.038458664,-0.54247946,-0.11356254,1.3934641,-0.74700546,-0.13116951,1.5087516,0.066649176,-0.31748715,0.08218609,1.2781049,0.62959903
0.0,0.0,0.7,0.0,0.0,0,-0.095124796,1.9821826,0.018704781,-0.5459058,-0.030136406,1.3916953,-0.7810983,-0.16860078,1.5059106,0.09570478,-0.31403586,0.041487277,1.2775292,0.57221806
0.0,0.0,0.7,0.0,0.0,0,-0.08762729,1.9833314,0.028974438,-0.539475,-0.075849034,1.3996955,-0.7883189,-0.15159282,1.5024717,0.06299939,-0.31923732,0.055859458,1.2904376,0.6629662
0.0,0.0,0.7,0.0,0.0,0,-0.041116897,1.9741426,0.00852266,-0.5409727,-0.052637234,1.3833178,-0.89166516,-0.16787137,1.5024114,0.090788186,-0.3169457,0.047897168,1.2901185,0.6043803
0.0,0.0,0.7,0.0,0.0,0,-0.03786463,1.9832226,0.03460356,-0.54509103,-0.09535006,1.3957049,-0.73421293,-0.13655418,1.5089499,0.07439496,-0.319362,0.037978414,1.2783697,0.58722705
0.0,0.0,0.7,0.0,0.0,0,-0.1337198,1.9777054,0.028483633,-0.5552373,-0.028209008,1.3990881,-0.9322634,-0.15247047,1.506797,0.06937127,-0.31900084,0.03984811,1.285035,0.625438
0.0,0.0,0.7,0.0,0.0,0,-0.007318678,1.9736079,0.033805195,-0.5421807,-0.0948844,1.4042383,-0.82534647,-0.1809949,1.5090828,0.06328271,-0.3132294,0.056601375,1.2879857,0.5398588
0.0,0.0,0.7,0.0,0.0,0,-0.1010515,1.9787463,0.030868378,-0.5304248,-0.060071863,1.3964201,-0.80004597,-0.16364805,1.5133879,0.062435877,-0.31743366,0.05137097,1.277918,0.610574
0.0,0.0,0.7,0.0,0.0,0,-0.06300902,1.9740283,0.016992455,-0.5406919,-0.052669615,1.4013014,-0.81611735,-0.18445915,1.5053416,0.056674704,-0.31696314,0.031462006,1.285556,0.7807568
0.0,0.0,0.7,0.0,0.0,0,-0.06784925,1.9812348,0.04708254,-0.5514037,-0.07145608,1.3940628,-0.79443705,-0.1385987,1.5093434,0.07566333,-0.31714174,0.047037873,1.2748213,0.61204636
0.0,0.0,0.7,0.0,0.0,0,-0.07315836,1.9810628,0.04225402,-0.54844964,-0.04447525,1.3949382,-0.76680964,-0.14026417,1.5069231,0.07302469,-0.3170409,0.05090674,1.2835822,0.6956175
0.0,0.0,0.7,0.0,0.0,0,-0.06839373,1.9779862,0.033571947,-0.5516621,-0.11179575,1.4025648,-0.79624623,-0.14975287,1.5045735,0.066242985,-0.31932455,0.055650543,1.2860968,0.68695855
0.0,0.0,0.7,0.0,0.0,0,-0.124018155,1.9839633,0.032236826,-0.5698434,-0.07432066,1.3983798,-0.8594548,-0.19581427,1.5033087,0.073182166,-0.3233647,0.08337238,1.2785244,0.6951114
0.0,0.0,0.7,0.0,0.0,0,-0.07816344,1.9774531,0.0334504,-0.5727732,-0.07672957,1.4070839,-0.71848845,-0.19841577,1.5075963,0.07360223,-0.31685075,0.046779566,1.2846476,0.62661886
0.0,0.0,0.7,0.0,0.0,0,-0.064655,1.9871156,0.010599388,-0.5702362,-0.086952165,1.3897735,-0.79636705,-0.19249281,1.5015985,0.053890478,-0.31572267,0.050926626,1.2850114,0.6786608
0.0,0.0,0.7,0.0,0.0,0,-0.040208243,1.9803264,0.029698957,-0.57100683,-0.06995433,1.3942425,-0.7656719,-0.17448954,1.5068902,0.04822702,-0.32412243,0.047948647,1.2838382,0.7065591
0.0,0.0,0.7,0.0,0.0,0,-0.10092019,1.9805272,0.037115153,-0.5551403,-0.02599291,1.3824053,-0.81612223,-0.19614702,1.5057425,0.073282465,-0.32229075,0.07114064,1.2880534,0.6052171
0.0,0.0,0.7,0.0,0.0,0,-0.13211547,1.9781395,0.0295604,-0.5523344,-0.050677903,1.4067336,-0.81036764,-0.20158437,1.5031803,0.061511513,-0.3092258,0.062701575,1.2783546,0.5020304
0.0,0.0,0.7,0.0,0.0,0,-0.086482204,1.9758836,0.023380954,-0.5582856,-0.04760606,1.3977767,-0.7409953,-0.18185984,1.5067781,0.05160768,-0.3216138,-0.0042806133,1.2900652,0.73272425
0.0,0.0,0.7,0.0,0.0,0,-0.13081461,1.9828788,0.026571082,-0.554768,-0.10038037,1.3934755,-0.7430934,-0.16025639,1.5099773,0.06364564,-0.33299887,0.09508801,1.2978665,0.65079015
0.0,0.0,0.7,0.0,0.0,0,-0.120180935,1.9755629,0.025411101,-0.5565093,-0.06566697,1.3937031,-0.7513993,-0.19297622,1.5028764,0.04926768,-0.31863502,0.06526892,1.2853762,0.65311503
0.0,0.0,0.7,0.0,0.0,0,-0.06433374,1.9855084,0.013978146,-0.55306834,-0.091756895,1.3891472,-0.7491564,-0.18115406,1.5035495,0.09006898,-0.31637585,0.04213314,1.2783232,0.61157304
0.0,0.0,0.7,0.0,0.0,0,-0.07829922,1.9896231,0.018560296,-0.5643956,-0.011749341,1.4018296,-0.69014716,-0.16924891,1.5065365,0.06746936,-0.32046756,0.047776755,1.2827334,0.61614823
0.0,0.0,0.7,0.0,0.0,0,0.0025459232,1.9782265,0.025683267,-0.5477655,-0.054415908,1.3855839,-0.8062585,-0.19282286,1.508512,0.06411343,-0.31966352,0.05395904,1.2843899,0.52422523
0.0,0.0,0.7,0.0,0.0,0,-0.14144143,1.9768159,0.033596635,-0.5653847,-0.06146675,1.391212,-0.6376266,-0.16155289,1.4998684,0.05903781,-0.31577376,0.06574777,1.2812383,0.7198824
0.0,0.0,0.7,0.0,0.0,0,-0.06591737,1.9804109,0.016031254,-0.56250495,-0.03591681,1.4020208,-0.74524146,-0.15061352,1.5010089,0.07862697,-0.31397375,0.05428831,1.2810309,0.7288966
0.0,0.0,0.7,0.0,0.0,0,-0.091767415,1.9830753,0.045381106,-0.5642487,-0.05477795,1.4032851,-0.7760948,-0.20529091,1.502359,0.06835973,-0.3139788,0.09749797,1.2780309,0.8074368
0.0,0.0,0.7,0.0,0.0,0,-0.03359292,1.9775072,0.042339154,-0.5629245,-0.03743878,1.4000533,-0.72977906,-0.19961874,1.5081493,0.051307324,-0.31912178,0.06122297,1.2890222,0.6331781
