sanky1234/BimanualDexCatch/isaacgymenvs/cem_results/football_pose_0.1_-0.1_1.2999999999999998_-0.5235987755982988_0.0_0_2025-05-26.csv
x,y,z,roll,pitch,yaw,robot1/joint1,robot1/joint2,robot1/joint3,robot1/joint4,robot1/joint5,robot1/joint6,robot1/joint7,robot2/joint1,robot2/joint2,robot2/joint3,robot2/joint4,robot2/joint5,robot2/joint6,robot2/joint7
0.1,-0.1,1.2999999999999998,-0.5235987755982988,0.0,0,-0.18473199,-0.7201894,-1.6425526,-0.011144819,-0.13451603,1.1201909,-0.29444018,-0.7172993,-1.5241977,2.5077355,-0.086728506,0.028027032,1.1737372,1.1156478
0.1,-0.1,1.2999999999999998,-0.5235987755982988,0.0,0,-0.18436565,-0.71990556,-1.6443479,-0.004783448,-0.100296006,1.1719483,0.024022616,-0.7168854,-1.5252641,2.5081546,-0.048466973,0.048655972,1.2145141,0.3785663
0.1,-0.1,1.2999999999999998,-0.5235987755982988,0.0,0,-0.17468259,-0.7193648,-1.6348891,0.012222358,0.16594313,1.0961916,0.41344708,-0.71797174,-1.5216564,2.515063,-0.03912607,-0.026853621,1.2001652,0.07159351
0.1,-0.1,1.2999999999999998,-0.5235987755982988,0.0,0,-0.18871409,-0.7196262,-1.6502863,-0.02470703,0.074216194,1.1669112,-0.9575889,-0.71707773,-1.5240332,2.5055628,-0.03547741,0.11103655,1.2178363,0.5668813
0.1,-0.1,1.2999999999999998,-0.5235987755982988,0.0,0,-0.176972,-0.7206449,-1.6429576,-0.076504976,-0.16592844,1.075829,-0.36234188,-0.71822083,-1.5232693,2.5111368,-0.04325852,-0.021438412,1.1396208,-0.35803148
0.1,-0.1,1.2999999999999998,-0.5235987755982988,0.0,0,-0.19064613,-0.7177316,-1.6442469,-0.040882487,0.13052867,1.1385294,1.0164673,-0.7160215,-1.5229492,2.5038574,-0.01691378,0.030636854,1.1641339,0.06287432
0.1,-0.1,1.2999999999999998,-0.5235987755982988,0.0,0,-0.17733806,-0.71992666,-1.657018,-0.0037398906,0.1044706,1.1663033,0.45035943,-0.71853334,-1.5247846,2.5084217,-0.045567136,-0.0750654,1.1735902,0.90046775
0.1,-0.1,1.2999999999999998,-0.5235987755982988,0.0,0,-0.17891946,-0.7195595,-1.6460733,-0.07086577,0.07664728,1.1366094,-0.34288424,-0.7172963,-1.5226377,2.5096307,-0.074078485,-0.009703706,1.1251719,-1.7890649
0.1,-0.1,1.2999999999999998,-0.5235987755982988,0.0,0,-0.17971897,-0.7201872,-1.6515697,-0.038392846,-0.0765329,1.1316947,-0.6867263,-0.71807957,-1.5240455,2.5104938,-0.023485396,-0.05495709,1.15598,0.43245378
0.1,-0.1,1.2999999999999998,-0.5235987755982988,0.0,0,-0.18319106,-0.71841776,-1.6586864,-0.05252106,-0.10743362,1.1201521,0.415535,-0.71696144,-1.5237575,2.505855,-0.050586216,-0.015116615,1.2018276,-0.815181
0.1,-0.1,1.2999999999999998,-0.5235987755982988,0.0,0,-0.1798293,-0.71827507,-1.6524478,-0.04006329,0.035868064,1.1985734,-0.63964415,-0.7176007,-1.5224086,2.5063303,-0.033005692,0.037346322,1.165648,-0.6232526
0.1,-0.1,1.2999999999999998,-0.5235987755982988,0.0,0,-0.18635944,-0.7204469,-1.6502805,-0.026627896,-0.040024955,1.1834499,-0.7995819,-0.7173734,-1.5235608,2.5051658,-0.032196287,0.062299944,1.1976397,-1.1227336
0.1,-0.1,1.2999999999999998,-0.5235987755982988,0.0,0,-0.18363948,-0.71890837,-1.6501578,-0.0802473,0.037646078,1.2549769,-1.2910523,-0.7167156,-1.5231767,2.503274,-0.046913672,-0.08048457,1.1136504,-0.90915287
0.1,-0.1,1.2999999999999998,-0.5235987755982988,0.0,0,-0.17582133,-0.71788347,-1.666704,-0.064676866,-0.029373342,1.1086215,0.041497968,-0.71756047,-1.5235809,2.5081706,-0.035488423,0.076456726,1.2320639,0.53129077
0.1,-0.1,1.2999999999999998,-0.5235987755982988,0.0,0,-0.17180598,-0.7205018,-1.6405126,-0.028297026,-0.08700474,1.1533904,0.9169636,-0.7174328,-1.5245776,2.5025644,-0.042718593,0.015588407,1.2800254,-0.6402724
0.1,-0.1,1.2999999999999998,-0.5235987755982988,0.0,0,-0.17814673,-0.7215671,-1.6370403,-0.057195153,-0.051169593,1.1870668,1.0021794,-0.71799517,-1.5247133,2.497492,-0.06410538,-0.018651472,1.1778212,2.128076
0.1,-0.1,1.2999999999999998,-0.5235987755982988,0.0,0,-0.18758972,-0.7208265,-1.659729,-0.06811454,-0.0061149755,1.1918713,-1.4467494,-0.7174882,-1.5247439,2.5062687,-0.01920819,-0.12680635,1.1835461,1.6404637
0.1,-0.1,1.2999999999999998,-0.5235987755982988,0.0,0,-0.18279098,-0.7192198,-1.6544818,-0.027516298,0.01675533,1.1182836,0.7745275,-0.71717834,-1.5235763,2.5099704,-0.0004353477,-0.01605852,1.2007126,0.67055374
0.1,-0.1,1.2999999999999998,-0.5235987755982988,0.0,0,-0.177081,-0.7195031,-1.6571292,-0.09188822,0.06986742,1.1675446,-0.22162451,-0.7179584,-1.5240656,2.5094395,-0.026922222,0.13656901,1.1478491,-1.530454
0.1,-0.1,1.2999999999999998,-0.5235987755982988,0.0,0,-0.17878063,-0.7180873,-1.6518852,-0.049616564,0.13794835,1.2159226,-0.27315044,-0.7176881,-1.5236884,2.5116303,-0.020590493,-0.10421801,1.154875,1.0639596
0.1,-0.1,1.2999999999999998,-0.5235987755982988,0.0,0,-0.1836474,-0.71767217,-1.6350825,-0.05439338,-0.033555076,1.1448028,-0.9944233,-0.71703553,-1.523684,2.5094872,-0.027128508,0.16715911,1.1519085,-2.1456866
0.1,-0.1,1.2999999999999998,-0.5235987755982988,0.0,0,-0.1753267,-0.7197893,-1.6501622,-0.040277414,0.16958272,1.135736,0.6419914,-0.7177879,-1.5241652,2.5038598,-0.05297047,0.007276979,1.1469805,-0.67595875
0.1,-0.1,1.2999999999999998,-0.5235987755982988,0.0,0,-0.17181899,-0.7231516,-1.6390291,-0.07299389,-0.010202041,1.1530932,1.1212687,-0.7175466,-1.5233312,2.5098274,-0.10400525,-0.01101424,1.1818784,-0.83421093
0.1,-0.1,1.2999999999999998,-0.5235987755982988,0.0,0,-0.18047749,-0.71825796,-1.6447507,-0.051923145,0.102544725,1.1365285,0.85493165,-0.71761614,-1.5243696,2.5109231,-0.05407057,0.028991528,1.1159537,0.89405465
0.1,-0.1,1.2999999999999998,-0.5235987755982988,0.0,0,-0.17894192,-0.7203878,-1.6331284,-0.035860483,-0.08784051,1.0908189,-0.6610781,-0.7178232,-1.5228031,2.5101786,-0.06543354,0.09410848,1.171123,-0.054552346
0.1,-0.1,1.2999999999999998,-0.5235987755982988,0.0,0,-0.1816965,-0.7196273,-1.6493614,-0.052948926,-0.03011094,1.1928718,0.1804934,-0.7186468,-1.5246042,2.5071688,0.004465895,-0.1693199,1.190176,0.31789693
0.1,-0.1,1.2999999999999998,-0.5235987755982988,0.0,0,-0.17834523,-0.7200492,-1.6547303,-0.026302895,-0.06711112,1.0734,-0.67585015,-0.71828204,-1.5247132,2.5042984,-0.07965316,0.01895304,1.1236155,-0.13653213
0.1,-0.1,1.2999999999999998,-0.5235987755982988,0.0,0,-0.17593832,-0.71942073,-1.6304482,-0.0536271,-0.11261328,1.186401,1.174289,-0.7173336,-1.5253634,2.5065362,-0.066500165,-0.026962688,1.1285074,-0.6617672
0.1,-0.1,1.2999999999999998,-0.5235987755982988,0.0,0,-0.18469585,-0.72027487,-1.6447746,-0.028278515,-0.060206424,1.2304361,-0.29868627,-0.7167613,-1.5231476,2.5106175,-0.0260644,0.059662312,1.1754943,1.3113376
0.1,-0.1,1.2999999999999998,-0.5235987755982988,0.0,0,-0.17944932,-0.7194681,-1.646874,-0.037602928,-0.028987197,1.2536843,-0.5470233,-0.7175891,-1.5238329,2.5043595,-0.046336435,-0.019010019,1.2132306,1.0509105
0.1,-0.1,1.2999999999999998,-0.5235987755982988,0.0,0,-0.18777364,-0.7212788,-1.6366813,-0.04903,-0.16451545,1.24775,0.5385547,-0.71742034,-1.5228149,2.511845,-0.0011566344,0.1112839,1.196484,-2.3285816
0.1,-0.1,1.2999999999999998,-0.5235987755982988,0.0,0,-0.18910606,-0.7219819,-1.6507992,-0.014686529,0.087988794,1.0954905,0.5032404,-0.7170815,-1.5244455,2.4969795,-0.0284078,-0.0441088,1.1720636,-0.46753418
0.1,-0.1,1.2999999999999998,-0.5235987755982988,0.0,0,-0.1814823,-0.7198647,-1.6559339,-0.040069293,-0.08202266,1.1963309,0.11525801,-0.7180414,-1.5245302,2.508562,-0.03237064,0.107774295,1.2162036,0.76513183
0.1,-0.1,1.2999999999999998,-0.5235987755982988,0.0,0,-0.18335941,-0.7203074,-1.6491394,-0.018885478,0.08749241,1.171705,0.40827462,-0.7183118,-1.5254416,2.5082178,-0.032662936,0.11857739,1.1442287,-0.13071091
0.1,-0.1,1.2999999999999998,-0.5235987755982988,0.0,0,-0.18266045,-0.7187813,-1.6549397,-0.025231712,0.0014154946,1.1857718,0.1678494,-0.71695983,-1.5232705,2.511013,-0.018340217,0.115687616,1.1357008,-1.105858
0.1,-0.1,1.2999999999999998,-0.5235987755982988,0.0,0,-0.17265637,-0.7201535,-1.6395645,-0.018496435,-0.06789656,1.2043643,-0.66119874,-0.7174202,-1.5244085,2.5132759,-0.07593131,0.12353358,1.1412053,-1.6778649
0.1,-0.1,1.2999999999999998,-0.5235987755982988,0.0,0,-0.17784019,-0.71896976,-1.656617,-0.03728455,-0.03735903,1.175277,-0.06530265,-0.7177309,-1.5247213,2.5119417,-0.051852662,0.11763453,1.179236,-0.97589433
0.1,-0.1,1.2999999999999998,-0.5235987755982988,0.0,0,-0.18581861,-0.72064763,-1.6305822,-0.046221387,-0.056520283,1.1433913,0.71912247,-0.71702224,-1.5221695,2.5111766,-0.06147664,0.076482944,1.1002632,-0.9457118
0.1,-0.1,1.2999999999999998,-0.5235987755982988,0.0,0,-0.18219371,-0.71869004,-1.6602113,-0.035882894,-0.116397195,1.1768477,0.5538103,-0.7180727,-1.525723,2.5119069,-0.026018295,-0.056641426,1.1891093,0.53073686
0.1,-0.1,1.2999999999999998,-0.5235987755982988,0.0,0,-0.18698102,-0.7192866,-1.657454,-0.04993126,-0.092828676,1.1627947,-0.42933145,-0.7178417,-1.5228996,2.509576,-0.04502744,0.22475035,1.1531228,0.34085926
0.1,-0.1,1.2999999999999998,-0.5235987755982988,0.0,0,-0.18702134,-0.72051644,-1.6494765,-0.027227707,0.12430578,1.1189215,0.2536118,-0.71742076,-1.5229548,2.5107863,-0.06490912,-0.0105616115,1.1947879,1.2372518
0.1,-0.1,1.2999999999999998,-0.5235987755982988,0.0,0,-0.18271726,-0.7191112,-1.6475767,-0.028536713,-0.016643653,1.166241,-0.019257862,-0.71780646,-1.522871,2.5057378,-0.008884236,0.008427171,1.2258707,0.18605469
0.1,-0.1,1.2999999999999998,-0.5235987755982988,0.0,0,-0.1758851,-0.7196179,-1.6450475,-0.0418617,-0.11240475,1.1860876,-1.1452248,-0.71730006,-1.5241929,2.514919,-0.030820219,0.20763762,1.144568,0.026136082
0.1,-0.1,1.2999999999999998,-0.5235987755982988,0.0,0,-0.18449596,-0.72000676,-1.6699425,-0.011486222,-0.03401695,1.132648,-0.23954365,-0.7179463,-1.5240016,2.5089834,-0.019937,0.19322157,1.1741394,-0.94575703
0.1,-0.1,1.2999999999999998,-0.5235987755982988,0.0,0,-0.17711636,-0.7206416,-1.6357592,-0.08201567,-0.015407517,1.198044,0.30047253,-0.717336,-1.5254731,2.5061812,-0.064259574,0.17609681,1.1419864,-1.1161898
0.1,-0.1,1.2999999999999998,-0.5235987755982988,0.0,0,-0.17511514,-0.7180422,-1.6488173,-0.018221047,-0.064025,1.1226624,-0.16281681,-0.71704483,-1.5240175,2.5106409,-0.06652156,-0.022777013,1.1533122,-0.53168374
0.1,-0.1,1.2999999999999998,-0.5235987755982988,0.0,0,-0.18537244,-0.71873343,-1.6500572,-0.0476173,0.0741648,1.2563516,-1.3191724,-0.7168922,-1.5232285,2.5182822,-0.031255756,0.003881816,1.1454866,-0.054979775
0.1,-0.1,1.2999999999999998,-0.5235987755982988,0.0,0,-0.17924991,-0.71931946,-1.6581198,-0.038487334,-0.05510274,1.0929965,1.0436814,-0.7178863,-1.5233738,2.508469,-0.06191638,0.02015012,1.1244245,0.51915956
0.1,-0.1,1.2999999999999998,-0.5235987755982988,0.0,0,-0.18360841,-0.7198495,-1.6421558,-0.045641128,0.09426168,1.1254426,-0.7591767,-0.71766496,-1.5236262,2.5118172,-0.04227332,0.07266637,1.146621,-0.9417327
0.1,-0.1,1.2999999999999998,-0.5235987755982988,0.0,0,-0.18033636,-0.7191109,-1.6529231,-0.02118341,0.050030746,1.1720451,-0.42767262,-0.71738374,-1.5234612,2.50629,-0.05962621,-0.07562822,1.1364634,-1.933311
0.1,-0.1,1.2999999999999998,-0.5235987755982988,0.0,0,-0.18292578,-0.7198631,-1.6678603,-0.085751586,-0.042496502,1.2103422,0.44758388,-0.7178238,-1.5250878,2.5159507,-0.028006861,0.036688566,1.2034802,0.59886086
0.1,-0.1,1.2999999999999998,-0.5235987755982988,0.0,0,-0.18022075,-0.719663,-1.6465907,-0.033443533,0.09067983,1.2225775,-0.14616635,-0.71772516,-1.5239835,2.5094252,-0.039382007,-0.004031379,1.1443405,1.628762
0.1,-0.1,1.2999999999999998,-0.5235987755982988,0.0,0,-0.18124264,-0.7193391,-1.6460282,-0.03706775,0.21347137,1.1854421,0.56455374,-0.7175501,-1.523071,2.50958,-0.024912573,0.16294813,1.1668316,-0.5555081
0.1,-0.1,1.2999999999999998,-0.5235987755982988,0.0,0,-0.18817092,-0.71940315,-1.6587894,-0.04526417,0.20841798,1.2489758,0.9156435,-0.71759504,-1.5249434,2.5067694,-0.072342396,-0.060329884,1.1838937,-2.145966
0.1,-0.1,1.2999999999999998,-0.5235987755982988,0.0,0,-0.1887938,-0.7207273,-1.6556098,-0.073154785,-0.057752334,1.2149317,0.9409461,-0.7176886,-1.522066,2.5079858,-0.03032726,0.023291444,1.1962057,1.2213885
0.1,-0.1,1.2999999999999998,-0.5235987755982988,0.0,0,-0.17917623,-0.71978074,-1.6410301,-0.046910357,0.07059664,1.1586901,-0.6635179,-0.71723264,-1.5238314,2.5107882,-0.053867113,-0.06373367,1.2282438,2.1516514
0.1,-0.1,1.2999999999999998,-0.5235987755982988,0.0,0,-0.17196995,-0.72053933,-1.6436657,-0.044667296,-0.07552464,1.2005372,-1.1152816,-0.71847284,-1.5233747,2.5039263,-0.04857943,-0.11445223,1.1354097,2.1655784
0.1,-0.1,1.2999999999999998,-0.5235987755982988,0.0,0,-0.17865765,-0.71998537,-1.6495106,-0.06501325,-0.061460476,1.2702376,-1.1752632,-0.71687007,-1.5230392,2.5097935,-0.030154744,-0.06010424,1.2547139,-0.22860704
0.1,-0.1,1.2999999999999998,-0.5235987755982988,0.0,0,-0.17852208,-0.71942264,-1.6406922,-0.0378545,0.09565802,1.1826284,-0.40547583,-0.7164145,-1.5226814,2.5050774,-0.072482474,-0.07524773,1.2009895,0.1699959
0.1,-0.1,1.2999999999999998,-0.5235987755982988,0.0,0,-0.17629597,-0.7198363,-1.6447399,-0.021222388,-0.10743357,1.1938761,0.84365517,-0.7175073,-1.5233207,2.5092125,-0.028334353,-0.03277402,1.1472301,-0.085643485
0.1,-0.1,1.2999999999999998,-0.5235987755982988,0.0,0,-0.18714349,-0.7201457,-1.6556727,-0.012079803,0.10280707,1.1442643,0.13061245,-0.71693283,-1.5226643,2.4989607,-0.059697144,0.13007416,1.1719702,-1.9711479
0.1,-0.1,1.2999999999999998,-0.5235987755982988,0.0,0,-0.18654145,-0.72018874,-1.6458206,-0.03665472,-0.07999431,1.1396322,-0.5954842,-0.71774346,-1.5224775,2.5107045,-0.042850688,0.035273205,1.1555618,0.25494134
0.1,-0.1,1.2999999999999998,-0.5235987755982988,0.0,0,-0.17940891,-0.72088814,-1.6589845,-0.07726092,0.070232965,1.1283866,-0.94247526,-0.718108,-1.5230936,2.5105102,-0.055687167,0.13552515,1.2262714,1.1884341
0.1,-0.1,1.2999999999999998,-0.5235987755982988,0.0,0,-0.17814521,-0.7191143,-1.6605049,-0.040644087,0.025955008,1.245266,0.48994285,-0.7183009,-1.5250282,2.5108752,-0.030622032,0.19494717,1.1947892,0.46529225
0.1,-0.1,1.2999999999999998,-0.5235987755982988,0.0,0,-0.19009931,-0.71877813,-1.6593101,-0.043783225,0.019258605,1.0623593,-0.73048896,-0.7174431,-1.5241456,2.5117974,0.00013509698,0.014380974,1.179396,1.2973235
0.1,-0.1,1.2999999999999998,-0.5235987755982988,0.0,0,-0.19188346,-0.7220264,-1.6287444,-0.03936877,-0.13278198,1.1311048,-0.15860826,-0.71771306,-1.5241321,2.5146313,-0.029595967,0.17076644,1.2341573,-0.084638074
0.1,-0.1,1.2999999999999998,-0.5235987755982988,0.0,0,-0.17931347,-0.72067374,-1.6615449,-0.016124735,0.07171923,1.1699493,-1.2856749,-0.71780545,-1.5233431,2.5068886,-0.015418357,-0.085032634,1.1771351,-0.45811838
0.1,-0.1,1.2999999999999998,-0.5235987755982988,0.0,0,-0.17518766,-0.71927595,-1.6665113,-0.072623946,0.082147844,1.1547282,-1.0749847,-0.71776164,-1.5236114,2.497133,-0.030935882,0.099605605,1.1343536,0.07684801
0.1,-0.1,1.2999999999999998,-0.5235987755982988,0.0,0,-0.17749818,-0.7193739,-1.6517864,-0.029490324,-0.1221307,1.1496977,-0.76296395,-0.717861,-1.5233637,2.5048785,-0.028829401,-0.05157959,1.1743087,-0.15760979
0.1,-0.1,1.2999999999999998,-0.5235987755982988,0.0,0,-0.18452372,-0.7197202,-1.6583722,-0.02066144,0.05750499,1.1706886,-1.2330409,-0.7173844,-1.5231508,2.5025332,-0.035491925,0.13113266,1.1411258,0.44864985
0.1,-0.1,1.2999999999999998,-0.5235987755982988,0.0,0,-0.17796579,-0.7188956,-1.673259,-0.06906729,0.10425789,1.1972605,-0.06493488,-0.7185699,-1.523384,2.5091598,-0.023948047,0.08891968,1.1220801,0.2026199
0.1,-0.1,1.2999999999999998,-0.5235987755982988,0.0,0,-0.18862227,-0.71984917,-1.6469054,-0.09455507,-0.07155381,1.1968988,0.7237642,-0.7171847,-1.522649,2.5014968,-0.025631646,0.060446005,1.1943647,-0.70319825
0.1,-0.1,1.2999999999999998,-0.5235987755982988,0.0,0,-0.17746364,-0.7201004,-1.6528913,-0.052807193,0.0044178083,1.1080918,-0.9587978,-0.7183634,-1.5248877,2.5153153,-0.0152078755,0.055522293,1.1995347,1.3730222
0.1,-0.1,1.2999999999999998,-0.5235987755982988,0.0,0,-0.1782874,-0.71880853,-1.6570061,-0.06572851,-0.21804287,1.1730658,1.0209626,-0.7180096,-1.5220457,2.504023,-0.062752776,-0.044540666,1.1708994,-0.873646
0.1,-0.1,1.2999999999999998,-0.5235987755982988,0.0,0,-0.18441541,-0.7197215,-1.6581869,-0.03839975,0.013709113,1.1909255,0.03459078,-0.71839386,-1.5238494,2.50478,-0.08735726,-0.0044811433,1.1695298,-0.60793805
0.1,-0.1,1.2999999999999998,-0.5235987755982988,0.0,0,-0.17533027,-0.71996284,-1.6388844,-0.015808996,-0.0945104,1.1054639,-0.4854127,-0.7173316,-1.5238185,2.5103571,-0.062005695,0.018613422,1.1794093,1.5351385
0.1,-0.1,1.2999999999999998,-0.5235987755982988,0.0,0,-0.18735337,-0.72148013,-1.6353469,-0.036165792,0.05911322,1.2150215,-1.3200451,-0.71751356,-1.523504,2.5085838,-0.031963106,-0.22488391,1.1531307,0.36164865
0.1,-0.1,1.2999999999999998,-0.5235987755982988,0.0,0,-0.18469849,-0.72078973,-1.6447589,-0.028892139,0.060653433,1.1636883,0.41149607,-0.71748346,-1.5225861,2.5097253,-0.059013378,0.07939603,1.1417989,-1.3496197
0.1,-0.1,1.2999999999999998,-0.5235987755982988,0.0,0,-0.17526531,-0.7191366,-1.6378385,-0.03476625,0.10527303,1.1639396,-0.7580786,-0.7177081,-1.524831,2.5114682,-0.02504969,0.04776543,1.1793152,0.03714453
0.1,-0.1,1.2999999999999998,-0.5235987755982988,0.0,0,-0.1706469,-0.71944743,-1.6492547,-0.0135242455,-0.07183161,1.1287187,-0.60162514,-0.7177893,-1.52309,2.4978795,-0.035718255,-0.03073379,1.1575817,-0.56356895
0.1,-0.1,1.2999999999999998,-0.5235987755982988,0.0,0,-0.17835942,-0.7198669,-1.6471821,-0.06062678,0.000703987,1.1371624,-0.15568765,-0.71725714,-1.5251095,2.5040276,-0.06823134,-0.032129217,1.1479932,0.120392755
0.1,-0.1,1.2999999999999998,-0.5235987755982988,0.0,0,-0.18218929,-0.71907425,-1.6445175,-0.03576257,-0.053817447,1.0949249,-0.42626318,-0.7178102,-1.5234317,2.5127046,-0.074843496,-0.0027437853,1.1889488,-1.3295715
0.1,-0.1,1.2999999999999998,-0.5235987755982988,0.0,0,-0.16833846,-0.71989024,-1.6506996,-0.061534442,-0.09178141,1.1218684,-1.6455784,-0.717347,-1.5226189,2.5110972,-0.08072045,0.039721377,1.1642264,-0.2758442
0.1,-0.1,1.2999999999999998,-0.5235987755982988,0.0,0,-0.17509574,-0.71888554,-1.6500841,-0.1111324,0.09791715,1.2367014,0.87728757,-0.7179594,-1.524446,2.5038579,-0.03138081,-0.0552932,1.1219879,-0.46565333
0.1,-0.1,1.2999999999999998,-0.5235987755982988,0.0,0,-0.1772598,-0.7193312,-1.6467127,-0.054824926,0.15663084,1.1165605,0.8022098,-0.7174631,-1.5250725,2.5048816,-0.037972163,0.0122932885,1.1805406,0.40559983
0.1,-0.1,1.2999999999999998,-0.5235987755982988,0.0,0,-0.17150335,-0.7201499,-1.649078,-0.026823748,-0.047727197,1.1737546,-0.58695203,-0.71791965,-1.5247793,2.498702,-0.036517538,-0.03361962,1.1835407,-0.43482697
0.1,-0.1,1.2999999999999998,-0.5235987755982988,0.0,0,-0.17553546,-0.7189473,-1.6449534,-0.08585991,-0.03277476,1.089736,-1.0770613,-0.71732605,-1.5248501,2.5043623,-0.056602232,0.057866808,1.1665169,0.40637565
0.1,-0.1,1.2999999999999998,-0.5235987755982988,0.0,0,-0.17253791,-0.7201459,-1.6369374,-0.029280927,-0.06868404,1.111746,-0.2343554,-0.71808165,-1.5247896,2.5109992,-0.053401046,0.025725992,1.2174733,-0.8258488
0.1,-0.1,1.2999999999999998,-0.5235987755982988,0.0,0,-0.18084086,-0.71994674,-1.6428279,-0.039077397,0.10875628,1.1423643,-0.58575606,-0.7186049,-1.5225291,2.5126936,-0.03316453,0.055797417,1.1200612,0.71672493
0.1,-0.1,1.2999999999999998,-0.5235987755982988,0.0,0,-0.16985323,-0.7175118,-1.6509337,-0.07827581,-0.03209494,1.0577645,0.32176316,-0.71841365,-1.5238588,2.5064204,-0.04870625,-0.041892294,1.1352093,0.8714447
0.1,-0.1,1.2999999999999998,-0.5235987755982988,0.0,0,-0.17406729,-0.71886367,-1.6301473,-0.02777885,0.04442511,1.1309407,-1.29301,-0.71729094,-1.5242256,2.5060716,-0.059851956,0.027443463,1.2074842,0.49402174
0.1,-0.1,1.2999999999999998,-0.5235987755982988,0.0,0,-0.18794756,-0.72018,-1.6390321,-0.04048623,-0.0016086826,1.161485,-1.8069127,-0.7173626,-1.5254154,2.5079932,-0.03772713,0.093598366,1.2072809,0.14029822
0.1,-0.1,1.2999999999999998,-0.5235987755982988,0.0,0,-0.17522773,-0.71989524,-1.6360512,-0.046542387,0.029751547,1.1925426,-0.3288486,-0.71700466,-1.5226182,2.5019732,-0.0330976,-0.008526645,1.1499144,-0.3456123
0.1,-0.1,1.2999999999999998,-0.5235987755982988,0.0,0,-0.17970768,-0.718767,-1.6635717,-0.06639489,0.06622518,1.167361,-1.0442169,-0.71889365,-1.5224004,2.5093427,-0.04350791,0.207913,1.1146823,0.1660046
0.1,-0.1,1.2999999999999998,-0.5235987755982988,0.0,0,-0.17445156,-0.7190051,-1.6371706,-0.067651935,0.1096794,1.1386522,-0.109288745,-0.71747667,-1.5222328,2.5054355,-0.0025902896,-0.03631963,1.1691401,-0.9460095
0.1,-0.1,1.2999999999999998,-0.5235987755982988,0.0,0,-0.18467338,-0.7203482,-1.6378676,-0.06840284,-0.028855719,1.141473,0.08747522,-0.7175392,-1.5240841,2.4987588,-0.028037865,-0.04743715,1.2107317,0.78417003
0.1,-0.1,1.2999999999999998,-0.5235987755982988,0.0,0,-0.17708306,-0.71971637,-1.6418047,-0.010386452,0.15646102,1.1761965,-0.80672854,-0.7175498,-1.5251285,2.5053873,-0.06350906,-0.06899771,1.1576463,0.34868097
0.1,-0.1,1.2999999999999998,-0.5235987755982988,0.0,0,-0.18699437,-0.7210931,-1.639075,-0.051087804,-0.08728206,1.1126778,-0.93174756,-0.71787125,-1.5247924,2.5024881,-0.07022618,-0.009444137,1.2369881,0.72846323
0.1,-0.1,1.2999999999999998,-0.5235987755982988,0.0,0,-0.17767012,-0.7163001,-1.6450828,-0.015385431,-0.028149422,1.1201476,0.4071182,-0.7159859,-1.5240402,2.5020952,-0.03239281,-0.015890172,1.1647902,-0.86806417
0.1,-0.1,1.2999999999999998,-0.5235987755982988,0.0,0,-0.17981392,-0.7201618,-1.651425,0.03621427,-0.035097245,1.2024227,-0.519348,-0.7189387,-1.5236068,2.5046597,-0.029042562,-0.06801015,1.1542269,0.42025483
0.1,-0.1,1.2999999999999998,-0.5235987755982988,0.0,0,-0.17780757,-0.7207594,-1.6318951,-0.025843218,-0.01246246,1.2220035,0.0654617,-0.71753937,-1.5235877,2.5056806,-0.06604935,0.079318725,1.16972,-0.5217766
0.1,-0.1,1.2999999999999998,-0.5235987755982988,0.0,0,-0.1727665,-0.71950805,-1.6206992,0.0052555865,-0.012122753,1.2178055,-0.1288559,-0.71712977,-1.5241249,2.5071049,-0.025142211,0.13298889,1.1377704,-1.1775533
0.1,-0.1,1.2999999999999998,-0.5235987755982988,0.0,0,-0.18131442,-0.720889,-1.6334952,-0.059077237,-0.05778813,1.0862681,-0.032246668,-0.71706295,-1.5240177,2.5046542,-0.010171836,-0.052279502,1.1739826,0.3040475
0.1,-0.1,1.2999999999999998,-0.5235987755982988,0.0,0,-0.18025471,-0.71974695,-1.6440341,-0.062880084,-0.13194102,1.1622838,0.07747979,-0.7171799,-1.5249915,2.5083532,-0.045302927,0.08056733,1.1474117,0.4661454
0.1,-0.1,1.2999999999999998,-0.5235987755982988,0.0,0,-0.17547868,-0.7190638,-1.6405708,-0.03783616,0.037941277,1.1930794,-1.8521883,-0.71768296,-1.5236659,2.5073452,-0.0032632211,-0.123009875,1.1994644,0.32433185
0.1,-0.1,1.2999999999999998,-0.5235987755982988,0.0,0,-0.18258426,-0.71881956,-1.6362908,-0.05707954,-0.049927976,1.1716379,-0.71115255,-0.71740216,-1.5232829,2.5057552,-0.039783828,0.07743671,1.0828462,-2.2211895
0.1,-0.1,1.2999999999999998,-0.5235987755982988,0.0,0,-0.1729597,-0.7206721,-1.6314619,-0.040821552,-0.045114297,1.1529155,-0.3690673,-0.71795136,-1.5235721,2.5065742,-0.015174132,0.017300034,1.2310629,0.71147865
0.1,-0.1,1.2999999999999998,-0.5235987755982988,0.0,0,-0.18179378,-0.7183542,-1.6329838,-0.0815757,-0.10958329,1.1724689,-0.889041,-0.71677977,-1.5235025,2.5026262,-0.0060803583,-0.037334185,1.158012,-0.7101813
0.1,-0.1,1.2999999999999998,-0.5235987755982988,0.0,0,-0.18018314,-0.719498,-1.6473285,-0.03014729,-0.012078699,1.1730086,0.7382189,-0.71744585,-1.5251563,2.5027728,-0.01977878,0.0049851444,1.2200048,0.40418854
0.1,-0.1,1.2999999999999998,-0.5235987755982988,0.0,0,-0.18258782,-0.71914935,-1.6294533,0.0077509335,0.045669246,1.1604903,1.0326381,-0.71647984,-1.5237287,2.5061283,-0.035646804,-0.0066245045,1.156685,-2.2207112
0.1,-0.1,1.2999999999999998,-0.5235987755982988,0.0,0,-0.17705302,-0.7189911,-1.6357938,-0.037389934,-0.03626205,1.1390779,0.018611107,-0.7165431,-1.5238254,2.5024147,-0.04006419,0.02406081,1.1465518,-0.740324
0.1,-0.1,1.2999999999999998,-0.5235987755982988,0.0,0,-0.19048885,-0.72033834,-1.6353588,-0.050652493,0.13056238,1.2159708,0.6375288,-0.71842295,-1.5222905,2.50365,-0.025982594,0.056297004,1.1680703,-0.81437814
0.1,-0.1,1.2999999999999998,-0.5235987755982988,0.0,0,-0.18763417,-0.72019887,-1.6331815,-0.042180497,0.10301918,1.1707153,-0.70998317,-0.71742,-1.5250373,2.5022476,-0.039116595,-0.038417287,1.1688037,-1.2184232
0.1,-0.1,1.2999999999999998,-0.5235987755982988,0.0,0,-0.18047918,-0.719779,-1.6459311,-0.070199125,0.061591662,1.1706578,-1.0929949,-0.71776867,-1.5245728,2.5055995,-0.018086566,0.0129421605,1.1386061,-0.06549347
0.1,-0.1,1.2999999999999998,-0.5235987755982988,0.0,0,-0.17498074,-0.7192635,-1.6422529,-0.06451001,0.12354903,1.1090233,-0.43158087,-0.71779025,-1.5238199,2.5013251,-0.022519797,-0.03075108,1.1375118,0.86621207
0.1,-0.1,1.2999999999999998,-0.5235987755982988,0.0,0,-0.1797363,-0.7187678,-1.6363562,-0.061347514,0.053641804,1.148243,-0.6286581,-0.7177253,-1.5241807,2.503167,-0.033463918,-0.23981287,1.1777326,1.3683211
0.1,-0.1,1.2999999999999998,-0.5235987755982988,0.0,0,-0.17779416,-0.7181326,-1.6523559,-0.07462469,0.055994526,1.2066532,-0.31076133,-0.71756256,-1.52388,2.50726,-0.0724792,-0.061609246,1.182209,-0.9695931
0.1,-0.1,1.2999999999999998,-0.5235987755982988,0.0,0,-0.18361908,-0.71946466,-1.6461656,-0.041823868,0.04172139,1.2125642,0.3502482,-0.7174688,-1.5235405,2.5015664,-0.06439055,0.03516601,1.1676933,0.9938805
0.1,-0.1,1.2999999999999998,-0.5235987755982988,0.0,0,-0.1820748,-0.71951,-1.6397524,-0.085492834,-0.003801468,1.1585485,0.91065496,-0.71795166,-1.5242357,2.5014844,-0.04790034,-0.05912101,1.1472337,0.1779986
0.1,-0.1,1.2999999999999998,-0.5235987755982988,0.0,0,-0.18319955,-0.7213864,-1.6240249,-0.055843633,-0.06833688,1.119683,-0.34792048,-0.717592,-1.5238997,2.5043387,-0.06620856,0.17851354,1.2078308,-1.1170557
0.1,-0.1,1.2999999999999998,-0.5235987755982988,0.0,0,-0.18129465,-0.7211517,-1.637671,-0.07173341,0.14601064,1.1358436,-1.5384958,-0.71818465,-1.5250146,2.504455,-0.042971823,0.13213147,1.1740977,-0.72702163
0.1,-0.1,1.2999999999999998,-0.5235987755982988,0.0,0,-0.18505032,-0.7177372,-1.6485952,-0.06299802,0.12866502,1.1265152,0.69782966,-0.7169356,-1.5239507,2.506009,-0.060756747,-0.017221559,1.1777257,-0.76656306
0.1,-0.1,1.2999999999999998,-0.5235987755982988,0.0,0,-0.18513513,-0.7182786,-1.6439296,-0.033819735,0.08916841,1.1072243,0.7140796,-0.7172061,-1.5244716,2.5081868,-0.015567064,-0.051037885,1.1455204,-0.13738692
0.1,-0.1,1.2999999999999998,-0.5235987755982988,0.0,0,-0.1778324,-0.71977377,-1.6446152,-0.08082299,0.0073864185,1.1771809,-0.8753365,-0.7176589,-1.5250242,2.5047207,-0.038092513,-0.010807377,1.0978286,-1.2877232
0.1,-0.1,1.2999999999999998,-0.5235987755982988,0.0,0,-0.17040586,-0.7213563,-1.6372734,-0.008009735,-0.13673575,1.1818233,-1.7420863,-0.7181782,-1.5241531,2.5189724,-0.048840974,0.02360004,1.1946545,-0.18646814
0.1,-0.1,1.2999999999999998,-0.5235987755982988,0.0,0,-0.17788178,-0.7166385,-1.6359416,-0.031452004,0.0007322061,1.1355885,-0.39630428,-0.71675605,-1.5235658,2.508007,-0.022245673,-0.10578646,1.1688284,-1.8041097
0.1,-0.1,1.2999999999999998,-0.5235987755982988,0.0,0,-0.18179283,-0.7175581,-1.6452849,-0.060173184,0.17891566,1.1428545,-1.0124631,-0.7176686,-1.524039,2.504942,-0.041114386,-0.11306053,1.1613775,-0.68716735
0.1,-0.1,1.2999999999999998,-0.5235987755982988,0.0,0,-0.18797381,-0.7178201,-1.6485199,-0.06640849,-0.00041592596,1.1587836,1.4404068,-0.7175551,-1.525171,2.5115678,-0.026869856,0.093374126,1.1733623,-0.69457644
0.1,-0.1,1.2999999999999998,-0.5235987755982988,0.0,0,-0.18668093,-0.71876657,-1.6410978,-0.08396729,-0.11176156,1.2090038,0.38774306,-0.7174326,-1.5248291,2.506052,-0.05442601,-0.14234553,1.1352742,-3.1147308
0.1,-0.1,1.2999999999999998,-0.5235987755982988,0.0,0,-0.17972025,-0.7193441,-1.6424643,-0.059840795,-0.10382249,1.1716201,-0.9662654,-0.71808034,-1.5235491,2.5082736,-0.034605574,-0.05262645,1.1004905,0.90237886
0.1,-0.1,1.2999999999999998,-0.5235987755982988,0.0,0,-0.1795157,-0.7188014,-1.626908,-0.04910667,0.11817511,1.1706313,-0.40972415,-0.716832,-1.5242735,2.5035439,-0.044990912,0.016282022,1.1471486,0.16659884
0.1,-0.1,1.2999999999999998,-0.5235987755982988,0.0,0,-0.17706886,-0.7186544,-1.630166,-0.04339708,-0.0076031736,1.1315706,-1.1235147,-0.7171706,-1.5247121,2.504282,-0.034888048,-0.02758157,1.194207,-0.78063464
0.1,-0.1,1.2999999999999998,-0.5235987755982988,0.0,0,-0.17261153,-0.7199448,-1.6350324,-0.0058942256,0.0049405596,1.1827655,-0.27138388,-0.71799904,-1.5241389,2.5000412,-0.063225016,-0.05005591,1.195532,1.5330733
0.1,-0.1,1.2999999999999998,-0.5235987755982988,0.0,0,-0.17910421,-0.71849704,-1.6356242,-0.037787076,-0.15962625,1.1785309,-0.8728626,-0.71800214,-1.523849,2.5075605,-0.055347748,0.052820716,1.1565845,0.5997001
0.1,-0.1,1.2999999999999998,-0.5235987755982988,0.0,0,-0.18525882,-0.7177188,-1.6380259,-0.010405509,-0.032771934,1.1243839,-0.23609345,-0.71641916,-1.522875,2.50488,-0.055130705,-0.059054144,1.1653968,-0.21093558
0.1,-0.1,1.2999999999999998,-0.5235987755982988,0.0,0,-0.18431003,-0.7195305,-1.6254921,-0.05489319,0.112050466,1.1264567,0.47091183,-0.7168437,-1.5230538,2.500233,-0.06711775,0.16665693,1.1709788,0.2705875
0.1,-0.1,1.2999999999999998,-0.5235987755982988,0.0,0,-0.18848893,-0.71934974,-1.6409016,-0.0277109,0.011266807,1.2349457,0.45584208,-0.71786535,-1.5244459,2.5057857,-0.04024453,0.0407739,1.1639745,-0.8008285
0.1,-0.1,1.2999999999999998,-0.5235987755982988,0.0,0,-0.1745176,-0.71616423,-1.6372997,-0.05672326,-0.0692296,1.0893059,1.4991592,-0.71768713,-1.5237404,2.5108643,-0.045275208,-0.038572975,1.2105535,0.10541405
0.1,-0.1,1.2999999999999998,-0.5235987755982988,0.0,0,-0.17785269,-0.7196349,-1.6491342,-0.043583028,0.11790328,1.1477097,-0.8258869,-0.7177792,-1.5233613,2.512593,-0.048321724,-0.011240124,1.1607345,-0.18946679
0.1,-0.1,1.2999999999999998,-0.5235987755982988,0.0,0,-0.18604332,-0.7201758,-1.6577277,-0.027972797,0.047490407,1.1066532,-0.704832,-0.7176224,-1.5230507,2.5098493,-0.037484914,0.09245103,1.2052104,-1.0768607
0.1,-0.1,1.2999999999999998,-0.5235987755982988,0.0,0,-0.18910006,-0.71996427,-1.666167,-0.03815953,-0.16065739,1.2134602,-0.11467601,-0.71623087,-1.5229015,2.5024266,0.011506721,0.092153534,1.1882743,1.455858
0.1,-0.1,1.2999999999999998,-0.5235987755982988,0.0,0,-0.18644355,-0.71847004,-1.6650836,-0.04047919,0.12946334,1.1502802,-1.008449,-0.71784276,-1.5232939,2.5005982,-0.06036802,-0.10144647,1.2047803,-2.0581641
0.1,-0.1,1.2999999999999998,-0.5235987755982988,0.0,0,-0.18371455,-0.7203777,-1.6382622,-0.035470385,-0.0768083,1.1284686,1.9850739,-0.7173036,-1.5261179,2.5057225,-0.046679996,0.11143741,1.2047163,2.1736443
0.1,-0.1,1.2999999999999998,-0.5235987755982988,0.0,0,-0.1942682,-0.7198664,-1.6472611,-0.09541969,0.23098484,1.1734431,-0.995296,-0.71737677,-1.5239614,2.4993584,0.016908966,0.059305403,1.2404662,1.2853098
0.1,-0.1,1.2999999999999998,-0.5235987755982988,0.0,0,-0.18560953,-0.7175554,-1.630958,-0.047251306,0.21458454,1.1794932,-0.47387823,-0.7176944,-1.5248266,2.5106173,-0.044376574,0.022655565,1.1872911,-0.10893893
0.1,-0.1,1.2999999999999998,-0.5235987755982988,0.0,0,-0.18301226,-0.71812797,-1.6352028,-0.0520227,-0.0067798076,1.1829884,-0.6620615,-0.7164102,-1.5233505,2.5090115,-0.06324342,0.097781055,1.1563019,0.5434931
0.1,-0.1,1.2999999999999998,-0.5235987755982988,0.0,0,-0.1820405,-0.7198914,-1.650341,-0.033750102,0.017333582,1.2042271,-0.5415152,-0.71622604,-1.5248786,2.5061324,-0.08409616,-0.082345344,1.1772405,-0.7358699
0.1,-0.1,1.2999999999999998,-0.5235987755982988,0.0,0,-0.19022012,-0.72028977,-1.6541324,-0.052625287,0.100580506,1.1702363,-0.67648095,-0.7175806,-1.5254933,2.5031471,-0.021973193,-0.06506354,1.1872522,0.109448865
0.1,-0.1,1.2999999999999998,-0.5235987755982988,0.0,0,-0.17128512,-0.72078216,-1.6273091,-0.036565863,0.06532263,1.0579797,-1.48393,-0.71800256,-1.5244745,2.5128136,-0.08025699,0.019808996,1.1657681,-1.097773
0.1,-0.1,1.2999999999999998,-0.5235987755982988,0.0,0,-0.18846853,-0.71941096,-1.628373,-0.06968666,0.036982395,1.210778,-0.23991063,-0.71759903,-1.5239928,2.5146263,-0.043979816,0.06486305,1.1761082,-0.60181
0.1,-0.1,1.2999999999999998,-0.5235987755982988,0.0,0,-0.1789343,-0.7220963,-1.6387848,-0.014303557,0.020350087,1.1123369,-1.3931065,-0.71733975,-1.5246909,2.5012763,0.008410614,0.14347716,1.2015536,-0.026372083
0.1,-0.1,1.2999999999999998,-0.5235987755982988,0.0,0,-0.17968418,-0.7205915,-1.6303687,0.011084752,0.053913012,1.1511642,0.7781984,-0.71810776,-1.5239091,2.5109613,-0.029301764,0.08902449,1.1279155,-2.139932
0.1,-0.1,1.2999999999999998,-0.5235987755982988,0.0,0,-0.1869189,-0.7171781,-1.6610719,-0.066584334,-0.018238846,1.1816207,-0.34119713,-0.7161223,-1.524129,2.5031,-0.010607724,-0.0902194,1.0962924,-0.09630323
0.1,-0.1,1.2999999999999998,-0.5235987755982988,0.0,0,-0.1821924,-0.71951133,-1.648463,-0.05784341,-0.11272688,1.2188096,-0.027193999,-0.71605945,-1.523835,2.5078511,-0.04465973,0.035458643,1.1202538,-1.5260755
0.1,-0.1,1.2999999999999998,-0.5235987755982988,0.0,0,-0.17632847,-0.7191656,-1.6381303,-0.03809292,0.19833621,1.1225407,-0.6669186,-0.71704316,-1.5237775,2.5109723,-0.05950021,-0.04109422,1.1938215,1.7234635
0.1,-0.1,1.2999999999999998,-0.5235987755982988,0.0,0,-0.18160431,-0.7196182,-1.6377581,-0.0009714339,0.0053996635,1.1520509,0.5375013,-0.71733814,-1.5243076,2.5056272,-0.07665912,0.024465816,1.1058496,-0.00951506
0.1,-0.1,1.2999999999999998,-0.5235987755982988,0.0,0,-0.18117532,-0.7205257,-1.6393826,-0.06885625,0.0077065947,1.1421165,-0.4208678,-0.7166096,-1.5226825,2.511423,-0.03629025,0.09630994,1.1507074,-0.087331876
0.1,-0.1,1.2999999999999998,-0.5235987755982988,0.0,0,-0.17606571,-0.7200425,-1.6404567,-0.032322597,0.05005866,1.0811466,-0.95653147,-0.7167014,-1.5238478,2.5066972,-0.022569332,0.11826035,1.1653992,-1.5711789
0.1,-0.1,1.2999999999999998,-0.5235987755982988,0.0,0,-0.1731854,-0.7213327,-1.6496097,-0.042070873,-0.022223577,1.2230417,1.0759786,-0.7165548,-1.5247341,2.5095432,-0.04499017,0.053633407,1.1983143,0.047453508
0.1,-0.1,1.2999999999999998,-0.5235987755982988,0.0,0,-0.18952112,-0.7187172,-1.6517049,-0.046506323,0.020463757,1.1295787,-0.16284482,-0.71713835,-1.522421,2.503818,-0.032767616,0.0859062,1.1970476,0.40625447
0.1,-0.1,1.2999999999999998,-0.5235987755982988,0.0,0,-0.18312356,-0.71894836,-1.637775,-0.056504685,0.024427142,1.1266495,-0.38650993,-0.7168191,-1.5228397,2.509692,-0.04265797,0.06271712,1.138789,-1.0320308
0.1,-0.1,1.2999999999999998,-0.5235987755982988,0.0,0,-0.17925355,-0.7199868,-1.6527628,-0.017591732,0.23917158,1.1476926,-0.405,-0.7165822,-1.5243965,2.5094516,-0.053669572,-0.084467426,1.1588941,1.2247351
0.1,-0.1,1.2999999999999998,-0.5235987755982988,0.0,0,-0.17598036,-0.7221663,-1.6415683,-0.020370934,0.045718957,1.1819711,-0.20041338,-0.71745837,-1.524654,2.5106714,-0.039795138,0.16961746,1.1606567,-0.13410379
0.1,-0.1,1.2999999999999998,-0.5235987755982988,0.0,0,-0.18390825,-0.7208859,-1.6420965,-0.001915323,0.013378948,1.1766832,0.36877266,-0.71741605,-1.5247201,2.5071673,-0.040372673,-0.051384494,1.1332989,-0.012308219
0.1,-0.1,1.2999999999999998,-0.5235987755982988,0.0,0,-0.18073486,-0.719727,-1.6491776,-0.06078181,0.013296675,1.179302,-0.49243805,-0.71661717,-1.5236765,2.5040822,-0.043662224,-0.03721276,1.1894461,1.7894255
0.1,-0.1,1.2999999999999998,-0.5235987755982988,0.0,0,-0.17869522,-0.72116107,-1.6491548,-0.0707347,0.21669821,1.1727619,-1.1176355,-0.71752393,-1.5231463,2.506144,-0.0422164,0.041921638,1.2207153,0.00882823
0.1,-0.1,1.2999999999999998,-0.5235987755982988,0.0,0,-0.16918884,-0.72013086,-1.6358813,-0.04254945,-0.16877335,1.1109605,-0.2440983,-0.7178192,-1.523218,2.5092025,-0.033750106,-0.14437313,1.1273998,-0.3064906
0.1,-0.1,1.2999999999999998,-0.5235987755982988,0.0,0,-0.18237872,-0.72006977,-1.6533074,-0.024411215,0.017804537,1.2331815,0.13617557,-0.716772,-1.5249295,2.5080762,-0.02931535,0.055921286,1.1859939,0.47546414
0.1,-0.1,1.2999999999999998,-0.5235987755982988,0.0,0,-0.17926636,-0.7208385,-1.6544048,-0.01924201,0.06361033,1.177343,-0.7251754,-0.71720165,-1.523147,2.5061731,-0.04426016,0.036796648,1.1472487,0.03714958
0.1,-0.1,1.2999999999999998,-0.5235987755982988,0.0,0,-0.18056314,-0.7211426,-1.6350287,-0.033917043,0.11192492,1.1686711,-0.3209234,-0.7171504,-1.5247649,2.5068133,-0.07356648,0.092269644,1.2288201,1.5160712
0.1,-0.1,1.2999999999999998,-0.5235987755982988,0.0,0,-0.18662384,-0.71884316,-1.6557586,-0.05272457,0.127028,1.1613681,0.01711303,-0.7178807,-1.5228281,2.5027862,-0.018279003,0.01832549,1.1587813,0.25118583
0.1,-0.1,1.2999999999999998,-0.5235987755982988,0.0,0,-0.17364591,-0.71774316,-1.6663642,-0.05227914,0.0207286,1.2103752,0.970886,-0.71751577,-1.5232542,2.5126622,-0.032596458,0.10323665,1.1692679,0.34091336
0.1,-0.1,1.2999999999999998,-0.5235987755982988,0.0,0,-0.16999905,-0.7222529,-1.6555088,-0.042658344,0.04900726,1.1131433,0.47614095,-0.71614873,-1.5234485,2.502621,-0.039936885,-0.27095783,1.199879,0.018943368
0.1,-0.1,1.2999999999999998,-0.5235987755982988,0.0,0,-0.17924656,-0.719515,-1.645386,-0.06599917,-0.07739924,1.2041982,-1.2364985,-0.7172463,-1.5244551,2.5119042,-0.030683113,-0.0029248348,1.1479542,-0.29585364
0.1,-0.1,1.2999999999999998,-0.5235987755982988,0.0,0,-0.17993893,-0.7192124,-1.6517864,-0.00015569964,0.031115795,1.091213,-1.0803809,-0.7172472,-1.5237393,2.5049677,-0.034611527,0.11279638,1.174098,-0.8749357
0.1,-0.1,1.2999999999999998,-0.5235987755982988,0.0,0,-0.1744091,-0.7206522,-1.6644176,-0.08209368,0.09834205,1.059844,0.5035629,-0.7173883,-1.5238332,2.505323,-0.046597634,0.12291813,1.1631305,-0.573023
0.1,-0.1,1.2999999999999998,-0.5235987755982988,0.0,0,-0.18111168,-0.71951747,-1.6532137,-0.053540584,0.023144767,1.2312486,0.9809317,-0.7172466,-1.5236161,2.5085254,0.0012247754,-0.12662628,1.1936646,-1.000126
0.1,-0.1,1.2999999999999998,-0.5235987755982988,0.0,0,-0.17990217,-0.72018397,-1.641792,-0.052207105,0.17209469,1.2145171,-1.1389303,-0.71721,-1.523354,2.5103002,-0.08447102,0.118147686,1.2309862,0.22262962
0.1,-0.1,1.2999999999999998,-0.5235987755982988,0.0,0,-0.17528851,-0.7189737,-1.6604676,-0.035363805,-0.09567345,1.1982925,-0.5920537,-0.7172925,-1.523088,2.5086648,-0.078733824,0.07707089,1.2335248,2.779592
0.1,-0.1,1.2999999999999998,-0.5235987755982988,0.0,0,-0.17666316,-0.7189105,-1.6534239,-0.038504627,-0.0041835224,1.2163186,0.65224135,-0.7164983,-1.5235207,2.5073774,-0.041363228,0.028741688,1.2476997,0.5784366
0.1,-0.1,1.2999999999999998,-0.5235987755982988,0.0,0,-0.17163405,-0.71997494,-1.641289,-0.0023479143,0.09666916,1.1531515,-1.0032457,-0.7168928,-1.523516,2.5012825,-0.054899734,0.035088312,1.0983601,1.7127852
0.1,-0.1,1.2999999999999998,-0.5235987755982988,0.0,0,-0.1695886,-0.7204339,-1.6654606,-0.06708666,0.085350946,1.1284013,0.044085145,-0.7181989,-1.52412,2.5126896,-0.05622804,-0.19047499,1.17148,-0.099572286
0.1,-0.1,1.2999999999999998,-0.5235987755982988,0.0,0,-0.16873342,-0.72001797,-1.626571,-0.05258179,0.118124604,1.130817,-0.5338229,-0.7170547,-1.5236424,2.5101714,-0.07420817,-0.03706245,1.1552746,0.4905439
0.1,-0.1,1.2999999999999998,-0.5235987755982988,0.0,0,-0.17588633,-0.72026247,-1.637253,-0.027006749,-0.11691041,1.1534851,-0.74093676,-0.71719325,-1.5245256,2.5077033,-0.039155956,0.07812313,1.1666437,-0.21616378
0.1,-0.1,1.2999999999999998,-0.5235987755982988,0.0,0,-0.18282895,-0.71992195,-1.6492152,-0.04187162,0.0818446,1.1396443,-0.44480312,-0.71728915,-1.5232896,2.5067098,-0.024352672,0.04008678,1.1201959,-1.5934575
0.1,-0.1,1.2999999999999998,-0.5235987755982988,0.0,0,-0.17070433,-0.7213066,-1.6331218,-0.05060884,-0.01504015,1.2271726,-0.8430186,-0.7189662,-1.5240873,2.5129573,-0.030258367,-0.0213173,1.1548718,0.7982725
0.1,-0.1,1.2999999999999998,-0.5235987755982988,0.0,0,-0.18693224,-0.7211916,-1.6472706,-0.052733213,0.09091107,1.191343,0.29211277,-0.71857136,-1.5242637,2.5088336,-0.063398145,-0.055145033,1.1667919,-0.29421186
0.1,-0.1,1.2999999999999998,-0.5235987755982988,0.0,0,-0.17848064,-0.71880144,-1.6375337,-0.07345509,-0.038506195,1.1369778,-0.12727846,-0.7176491,-1.5219471,2.5154953,-0.024384405,-0.08215839,1.1936258,-1.5776354
0.1,-0.1,1.2999999999999998,-0.5235987755982988,0.0,0,-0.17985621,-0.7185584,-1.6485424,0.0011435017,0.051336724,1.142341,0.32669932,-0.716888,-1.5236485,2.5054407,-0.056277044,-0.04125769,1.1065053,1.3892316
0.1,-0.1,1.2999999999999998,-0.5235987755982988,0.0,0,-0.18432313,-0.7209716,-1.652016,0.0020498913,0.05696864,1.1596155,-1.1105417,-0.7175573,-1.5253514,2.5105312,-0.041959632,-0.20378484,1.2193774,0.9523986
0.1,-0.1,1.2999999999999998,-0.5235987755982988,0.0,0,-0.17881285,-0.7201617,-1.6289746,-0.053086787,0.06408548,1.1986874,-0.68076736,-0.71813124,-1.524744,2.5131876,-0.035952847,0.0504614,1.2034653,0.58093023
0.1,-0.1,1.2999999999999998,-0.5235987755982988,0.0,0,-0.18539613,-0.7191718,-1.6469952,-0.04505729,0.040239986,1.1688008,0.64712334,-0.7175282,-1.5237536,2.5049062,-0.042033236,0.111880116,1.1967477,-0.61434084
0.1,-0.1,1.2999999999999998,-0.5235987755982988,0.0,0,-0.17793529,-0.71974367,-1.6505922,-0.06023221,0.15388107,1.1846528,-0.2507935,-0.7171576,-1.5232446,2.502412,-0.00343612,-0.063420914,1.1813375,0.3737674
0.1,-0.1,1.2999999999999998,-0.5235987755982988,0.0,0,-0.17332643,-0.7207189,-1.649687,-0.003951812,0.13918611,1.1349114,-0.5825943,-0.71772844,-1.524205,2.5048227,-0.08561052,0.027613295,1.1403304,-2.6180394
0.1,-0.1,1.2999999999999998,-0.5235987755982988,0.0,0,-0.17779571,-0.72127813,-1.646431,-0.02672677,0.03901694,1.1739084,-2.171579,-0.7168007,-1.5238642,2.5073497,-0.05448863,0.01849476,1.2184901,-0.4158138
0.1,-0.1,1.2999999999999998,-0.5235987755982988,0.0,0,-0.1721089,-0.72002137,-1.6539115,-0.04619807,0.10085041,1.120136,-0.35852084,-0.7165725,-1.5225551,2.5072567,-0.04058235,0.009632677,1.1131681,-1.9174507
0.1,-0.1,1.2999999999999998,-0.5235987755982988,0.0,0,-0.17876695,-0.72010255,-1.6453245,-0.048701867,0.084643625,1.1376636,0.21541966,-0.717746,-1.5216565,2.5056965,-0.04400168,-0.01940327,1.1531695,-1.1609573
0.1,-0.1,1.2999999999999998,-0.5235987755982988,0.0,0,-0.17552428,-0.71976507,-1.6272826,-0.035390817,0.048761588,1.1554917,0.57762754,-0.71706754,-1.5232575,2.5103717,-0.018364854,0.11594106,1.2130818,-0.5545136
0.1,-0.1,1.2999999999999998,-0.5235987755982988,0.0,0,-0.1947956,-0.7194388,-1.6406248,-0.032657888,0.016779942,1.1936864,-1.5984427,-0.71730447,-1.5235877,2.5144722,-0.010214094,0.12279238,1.2452539,-2.1636183
0.1,-0.1,1.2999999999999998,-0.5235987755982988,0.0,0,-0.17468004,-0.7182481,-1.6640388,-0.0097961975,0.12878694,1.1513928,0.25143445,-0.71697253,-1.5240575,2.506376,-0.05075023,0.013385737,1.0845689,-1.3616318
0.1,-0.1,1.2999999999999998,-0.5235987755982988,0.0,0,-0.17617826,-0.7208948,-1.6526014,-0.021211892,0.055926993,1.1246706,0.89604706,-0.71633404,-1.5247473,2.5079882,-0.017784514,0.04047055,1.1594833,-0.17538871
0.1,-0.1,1.2999999999999998,-0.5235987755982988,0.0,0,-0.16967382,-0.7206393,-1.6486448,-0.009577469,0.076671,1.1365759,-0.26633888,-0.7172894,-1.5250192,2.505815,-0.044944964,-0.08542245,1.2117099,1.6433514
0.1,-0.1,1.2999999999999998,-0.5235987755982988,0.0,0,-0.18059048,-0.72157174,-1.6433443,-0.041271202,-0.0006940286,1.1450021,0.95612097,-0.7175073,-1.5240666,2.504036,-0.02297455,-0.024289288,1.1416444,-0.38105088
0.1,-0.1,1.2999999999999998,-0.5235987755982988,0.0,0,-0.18034181,-0.72066706,-1.6476008,-0.06373658,0.12162278,1.1113658,1.3148892,-0.717312,-1.5228381,2.50644,-0.055427216,-0.013929289,1.1772605,1.1921021
0.1,-0.1,1.2999999999999998,-0.5235987755982988,0.0,0,-0.18736294,-0.7223905,-1.6607071,-0.009848309,-0.040290218,1.204438,0.20707594,-0.7173694,-1.5242447,2.5100722,-0.03493806,0.16732281,1.1744326,-0.65151364
0.1,-0.1,1.2999999999999998,-0.5235987755982988,0.0,0,-0.16588305,-0.72000766,-1.6402901,-0.02477574,0.026979964,1.1780026,-1.7215394,-0.71742195,-1.5238428,2.512348,-0.02117146,-0.018040746,1.1683817,0.861563
0.1,-0.1,1.2999999999999998,-0.5235987755982988,0.0,0,-0.18052697,-0.7168308,-1.6413721,-0.024281444,0.016157696,1.1330187,-1.0625246,-0.7170376,-1.5229807,2.5103548,-0.04179165,0.11388974,1.1644711,-0.9194401
0.1,-0.1,1.2999999999999998,-0.5235987755982988,0.0,0,-0.18125996,-0.7201517,-1.64292,-0.020938078,0.10784692,1.1631309,-0.201132,-0.71644807,-1.5234799,2.5107982,-0.029743785,0.100158,1.1156063,0.016824136
0.1,-0.1,1.2999999999999998,-0.5235987755982988,0.0,0,-0.1837236,-0.71888095,-1.6532323,-0.011058579,0.1952543,1.227574,-0.30070043,-0.71838444,-1.5243206,2.5098732,-0.029016478,-0.03629417,1.2524059,-1.4974444
0.1,-0.1,1.2999999999999998,-0.5235987755982988,0.0,0,-0.18320175,-0.71904695,-1.6498139,-0.025935404,0.16288479,1.1964546,-0.63255227,-0.71842545,-1.5235233,2.5084403,-0.050662044,0.174545,1.2203288,-1.196996
0.1,-0.1,1.2999999999999998,-0.5235987755982988,0.0,0,-0.18363526,-0.719001,-1.6422919,-0.011856073,0.18177705,1.0506263,0.84985983,-0.7168928,-1.5253958,2.5110261,-0.0117247095,-0.08686413,1.200422,-0.7253265
0.1,-0.1,1.2999999999999998,-0.5235987755982988,0.0,0,-0.17650437,-0.7193135,-1.6492871,-0.04752515,-0.058046337,1.1305737,-1.076725,-0.716873,-1.5230198,2.5100665,-0.039229725,-0.10489922,1.1502565,-0.33779788
0.1,-0.1,1.2999999999999998,-0.5235987755982988,0.0,0,-0.17639107,-0.7208568,-1.647131,-0.043032266,-0.054288715,1.1935463,-0.019845838,-0.7184842,-1.5227845,2.5110826,-0.04982892,0.07683525,1.1884505,-0.6337944
0.1,-0.1,1.2999999999999998,-0.5235987755982988,0.0,0,-0.1743787,-0.71944827,-1.6476145,0.008382266,0.09572002,1.1621839,0.4867983,-0.7170196,-1.5242729,2.5050788,-0.08483077,-0.06486631,1.1698762,0.65907055
0.1,-0.1,1.2999999999999998,-0.5235987755982988,0.0,0,-0.18185693,-0.7190972,-1.658512,-0.053507324,0.13306013,1.0674671,0.2623426,-0.7177028,-1.5250369,2.5122495,-0.025875112,0.077018656,1.2247672,0.24688531
0.1,-0.1,1.2999999999999998,-0.5235987755982988,0.0,0,-0.17345703,-0.7200068,-1.6427425,-0.03706107,0.007007752,1.144691,-1.1771015,-0.7172495,-1.5244763,2.5029097,-0.0048480127,0.01893284,1.2058964,0.31376648
0.1,-0.1,1.2999999999999998,-0.5235987755982988,0.0,0,-0.17209044,-0.7194139,-1.6392024,0.0049073584,-0.008662458,1.1781669,-0.012952778,-0.7174723,-1.5240538,2.506716,-0.01541877,0.026275843,1.0780782,-0.36454847
0.1,-0.1,1.2999999999999998,-0.5235987755982988,0.0,0,-0.18151195,-0.7197956,-1.6394475,-0.054985274,-0.13576727,1.1227275,-0.70499235,-0.7168156,-1.5226822,2.5046878,-0.023143718,-0.10559307,1.2272705,-0.6994795
0.1,-0.1,1.2999999999999998,-0.5235987755982988,0.0,0,-0.17971484,-0.72122717,-1.6342636,-0.057762124,-0.014602397,1.1381688,-0.44588423,-0.71754134,-1.523126,2.505593,-0.0005953622,-0.10177333,1.1134952,-2.3607426
0.1,-0.1,1.2999999999999998,-0.5235987755982988,0.0,0,-0.18024047,-0.71990085,-1.6619394,-0.050963655,0.22701211,1.1096034,-0.5937893,-0.7175077,-1.5231633,2.5015578,-0.031314433,0.054273725,1.1569449,0.3708885
0.1,-0.1,1.2999999999999998,-0.5235987755982988,0.0,0,-0.17704391,-0.7196286,-1.644008,-0.04452389,0.10518699,1.1969756,-1.7679073,-0.71853846,-1.5236285,2.512642,-0.022993967,0.11028208,1.1938028,-0.97441816
0.1,-0.1,1.2999999999999998,-0.5235987755982988,0.0,0,-0.17885913,-0.7181402,-1.6635449,-0.05203347,0.07282974,1.1510187,-0.65996915,-0.71685874,-1.5248349,2.501968,-0.047164463,0.05829097,1.1133332,-1.388915
0.1,-0.1,1.2999999999999998,-0.5235987755982988,0.0,0,-0.186599,-0.7191842,-1.6518883,-0.024815587,-0.06305968,1.0606028,0.01441971,-0.7182261,-1.5249716,2.5101595,-0.023374256,0.0238421,1.1338305,0.22401492
0.1,-0.1,1.2999999999999998,-0.5235987755982988,0.0,0,-0.18129937,-0.71922135,-1.6596134,-0.022472229,-0.03200424,1.182806,-0.19877331,-0.71832883,-1.5243443,2.5077713,0.0056194663,-0.081102535,1.1208694,-0.8524772
0.1,-0.1,1.2999999999999998,-0.5235987755982988,0.0,0,-0.18889418,-0.7172361,-1.674045,-0.004468806,0.1055362,1.1758598,-1.5853384,-0.7172799,-1.5238461,2.5064473,-0.064903185,-0.07960059,1.2201962,0.41502422
0.1,-0.1,1.2999999999999998,-0.5235987755982988,0.0,0,-0.18351334,-0.7206483,-1.6369612,-0.042861935,-0.011938296,1.2296188,0.7388126,-0.71726346,-1.5241743,2.5079112,0.010197348,-0.011004148,1.152512,-1.1383073
0.1,-0.1,1.2999999999999998,-0.5235987755982988,0.0,0,-0.17611028,-0.7181153,-1.648976,-0.02448566,-0.008407561,1.0645773,-0.25898203,-0.71750313,-1.5245557,2.5087855,-0.09536772,0.072551996,1.1808047,1.9089075
0.1,-0.1,1.2999999999999998,-0.5235987755982988,0.0,0,-0.18306829,-0.7212178,-1.6410172,-0.03078103,-0.064063825,1.2149026,0.40204686,-0.71685475,-1.5235096,2.502405,-0.02288529,0.071559705,1.1259708,-0.51664174
0.1,-0.1,1.2999999999999998,-0.5235987755982988,0.0,0,-0.17296708,-0.71813923,-1.6321558,-0.040446665,-0.0056164004,1.214882,-0.93856376,-0.71665025,-1.5243288,2.5096815,-0.051692534,-0.0067561436,1.1847692,0.002977235
0.1,-0.1,1.2999999999999998,-0.5235987755982988,0.0,0,-0.18763754,-0.71976703,-1.6551405,-0.021244919,-0.08108436,1.138656,-1.163536,-0.71759534,-1.5241544,2.501147,-0.051028583,0.10780876,1.121726,1.0102503
0.1,-0.1,1.2999999999999998,-0.5235987755982988,0.0,0,-0.17713785,-0.7183418,-1.6523668,-0.029673545,0.09628826,1.1643181,0.12371356,-0.71754485,-1.5233113,2.5058606,-0.03961958,-0.02034801,1.1078972,-1.6332555
0.1,-0.1,1.2999999999999998,-0.5235987755982988,0.0,0,-0.17662978,-0.7207134,-1.6366662,-0.062291387,-0.018607235,1.1302892,-0.1180968,-0.71692526,-1.5233355,2.5055933,-0.057963353,-0.03129466,1.1875947,-0.96515745
0.1,-0.1,1.2999999999999998,-0.5235987755982988,0.0,0,-0.18709779,-0.7211838,-1.6654959,-0.027685642,0.11830791,1.2141329,-0.21084139,-0.7175566,-1.5249962,2.5008793,-0.028829081,-0.07654797,1.1864792,-1.2701722
0.1,-0.1,1.2999999999999998,-0.5235987755982988,0.0,0,-0.1796757,-0.7217703,-1.6358502,-0.07273504,0.07172752,1.1643519,0.47825733,-0.7177301,-1.5217329,2.5076258,-0.013041471,0.018519443,1.1157917,-0.24134472
0.1,-0.1,1.2999999999999998,-0.5235987755982988,0.0,0,-0.18600114,-0.7190427,-1.6507499,-0.018478746,-0.08910973,1.2241188,0.35986876,-0.7182101,-1.5231832,2.5065663,-0.049541112,0.029579328,1.2079707,0.9462206
0.1,-0.1,1.2999999999999998,-0.5235987755982988,0.0,0,-0.17750004,-0.7198652,-1.641174,-0.064463824,0.0013367612,1.2152654,-1.9351838,-0.71714365,-1.5241044,2.5060275,-0.064619474,0.06043624,1.1459073,0.63401324
0.1,-0.1,1.2999999999999998,-0.5235987755982988,0.0,0,-0.18777202,-0.7191243,-1.6522712,-0.007916823,0.10425327,1.1387897,-1.1739722,-0.71747214,-1.5231432,2.509605,-0.015321435,0.027421845,1.1451328,-1.0234963
0.1,-0.1,1.2999999999999998,-0.5235987755982988,0.0,0,-0.18660794,-0.71947116,-1.6484063,-0.037229095,-0.07701652,1.1556154,-0.3198644,-0.71731156,-1.5235677,2.5096893,-0.020443719,0.04546497,1.1561166,-1.1767132
0.1,-0.1,1.2999999999999998,-0.5235987755982988,0.0,0,-0.17662932,-0.7193025,-1.6488295,-0.07034223,-0.060002487,1.1828928,-0.93191826,-0.7170591,-1.5231404,2.5055532,-0.03689949,0.008528273,1.2147464,-0.081543155
0.1,-0.1,1.2999999999999998,-0.5235987755982988,0.0,0,-0.17182715,-0.71967334,-1.635456,-0.059100263,0.043981325,1.1089877,-1.1360137,-0.71747214,-1.5245564,2.5064173,-0.054115478,0.1516904,1.1573677,1.7791739
0.1,-0.1,1.2999999999999998,-0.5235987755982988,0.0,0,-0.17557958,-0.71783584,-1.629107,-0.03062212,0.1320517,1.2196124,-1.1238909,-0.71783847,-1.5216684,2.5089123,-0.04684432,0.0073351045,1.2592332,-0.5935254
0.1,-0.1,1.2999999999999998,-0.5235987755982988,0.0,0,-0.18759964,-0.72067904,-1.6624078,-0.031368036,0.011526451,1.1917202,-0.65040123,-0.7174558,-1.5229132,2.5013492,-0.054877687,-0.023252921,1.1713597,-1.4175506
0.1,-0.1,1.2999999999999998,-0.5235987755982988,0.0,0,-0.1890382,-0.71944064,-1.654035,-0.011625688,-0.009455943,1.1604742,1.0399655,-0.71799266,-1.5233185,2.506169,-0.050382953,-0.06775319,1.1695149,-0.5482793
0.1,-0.1,1.2999999999999998,-0.5235987755982988,0.0,0,-0.19031939,-0.7202266,-1.6578993,-0.03145808,0.15585153,1.1676896,0.38514307,-0.7179871,-1.5234066,2.5070865,-0.0533424,0.012779845,1.2320454,0.024519173
0.1,-0.1,1.2999999999999998,-0.5235987755982988,0.0,0,-0.17622519,-0.71908206,-1.665764,-0.04988473,0.06337902,1.1457087,1.0103204,-0.7182921,-1.5236812,2.5020149,-0.051931486,0.033754766,1.1571251,1.2601866
0.1,-0.1,1.2999999999999998,-0.5235987755982988,0.0,0,-0.18424053,-0.71884274,-1.6540693,-0.025084555,-0.05467044,1.0893295,1.0725125,-0.7179704,-1.5238866,2.5128188,-0.08185206,-0.019267304,1.2043995,-0.013282651
0.1,-0.1,1.2999999999999998,-0.5235987755982988,0.0,0,-0.17690866,-0.71834606,-1.6430565,-0.033270452,0.07738906,1.1152772,0.33072588,-0.7173674,-1.5240191,2.4943066,-0.026952073,-0.10566998,1.1630076,0.10838268
0.1,-0.1,1.2999999999999998,-0.5235987755982988,0.0,0,-0.17584957,-0.7189389,-1.6427687,-0.040612824,-0.003892341,1.1593986,-0.10844464,-0.7175363,-1.5247338,2.4995162,-0.068708025,0.025597509,1.0900679,0.36538267
0.1,-0.1,1.2999999999999998,-0.5235987755982988,0.0,0,-0.1901443,-0.7202184,-1.6349598,-0.048950613,0.069754675,1.2164773,-0.8031994,-0.7171096,-1.5237287,2.5061474,-0.031826157,0.0039106472,1.1078496,-0.5329184
0.1,-0.1,1.2999999999999998,-0.5235987755982988,0.0,0,-0.19338113,-0.7205133,-1.6474935,-0.067429304,0.006793032,1.1088066,-1.7626942,-0.71807015,-1.5248092,2.5068038,-0.03834045,0.05885824,1.1524913,-0.7323307
0.1,-0.1,1.2999999999999998,-0.5235987755982988,0.0,0,-0.17490935,-0.7207541,-1.6504725,-0.07559325,0.09892271,1.2170643,-0.008654415,-0.7178663,-1.5244224,2.509607,-0.030673075,-0.045058925,1.1419432,-0.68193513
0.1,-0.1,1.2999999999999998,-0.5235987755982988,0.0,0,-0.18377046,-0.71923816,-1.647917,-0.055539,0.23537639,1.1933994,-0.55285215,-0.7168263,-1.5220991,2.5048537,-0.03042314,0.03042979,1.1927887,-0.16258258
0.1,-0.1,1.2999999999999998,-0.5235987755982988,0.0,0,-0.17512026,-0.7195188,-1.6364635,-0.05610478,0.04585241,1.0813019,-0.74672717,-0.7165544,-1.5235518,2.5139508,-0.07099584,0.15441032,1.1810917,-1.1374557
0.1,-0.1,1.2999999999999998,-0.5235987755982988,0.0,0,-0.18281433,-0.7194571,-1.6564424,-0.018704506,0.02686812,1.1522164,-0.622218,-0.7178272,-1.5248039,2.5117595,-0.023159921,-0.18085724,1.2154294,0.98742527
0.1,-0.1,1.2999999999999998,-0.5235987755982988,0.0,0,-0.17507252,-0.7199197,-1.6514374,-0.024241433,0.0042447657,1.2094041,1.0496451,-0.7172643,-1.5245628,2.501482,-0.02765878,-0.12431732,1.1897054,-0.46667662
0.1,-0.1,1.2999999999999998,-0.5235987755982988,0.0,0,-0.18500412,-0.71831065,-1.6626236,-0.03288622,0.15154701,1.2427514,0.53104776,-0.7167067,-1.5233047,2.5084972,-0.06333038,0.18956736,1.22298,-0.64327824
