sanky1234/BimanualDexCatch/isaacgymenvs/cem_results/football_pose_0.1_-0.1_0.7999999999999999_0.0_-0.5235987755982988_0_2025-05-26.csv
x,y,z,roll,pitch,yaw,robot1/joint1,robot1/joint2,robot1/joint3,robot1/joint4,robot1/joint5,robot1/joint6,robot1/joint7,robot2/joint1,robot2/joint2,robot2/joint3,robot2/joint4,robot2/joint5,robot2/joint6,robot2/joint7
0.1,-0.1,0.7999999999999999,0.0,-0.5235987755982988,0,-1.5654764,1.6772234,-0.4361471,-0.39340833,-0.21609981,1.4457922,-0.7546541,1.8098408,1.0749245,0.357994,-0.06762479,0.1206579,0.60703856,0.43267637
0.1,-0.1,0.7999999999999999,0.0,-0.5235987755982988,0,-1.596786,1.6075017,-0.42566085,-0.39015275,-0.21408206,1.4509265,-0.83717465,1.8283049,1.0330884,0.3690537,-0.07140599,-0.095025614,0.42233923,0.87523746
0.1,-0.1,0.7999999999999999,0.0,-0.5235987755982988,0,-1.6450613,1.6177808,-0.37981465,-0.33746493,-0.22936076,1.4514687,-0.75794786,1.8497813,1.0642008,0.41070712,-0.1601523,-0.32366726,0.89740205,0.1798518
0.1,-0.1,0.7999999999999999,0.0,-0.5235987755982988,0,-1.5650175,1.6904297,-0.45858395,-0.34929582,-0.2568744,1.455151,-0.78933614,1.8209677,1.0463432,0.46718726,-0.089770585,-0.20696734,0.52118564,0.28881264
0.1,-0.1,0.7999999999999999,0.0,-0.5235987755982988,0,-1.5441314,1.6399702,-0.45211026,-0.38174102,-0.23509604,1.4460347,-0.7158646,1.8239824,1.0104948,0.3687573,-0.10804453,-0.07713387,0.9950662,0.20220715
0.1,-0.1,0.7999999999999999,0.0,-0.5235987755982988,0,-1.5550606,1.617873,-0.40072143,-0.398737,-0.23697677,1.45859,-0.6717508,1.8200388,1.0408529,0.3326302,-0.010077889,0.37721115,0.6317542,0.5678467
0.1,-0.1,0.7999999999999999,0.0,-0.5235987755982988,0,-1.6106267,1.6268071,-0.4626463,-0.37399817,-0.27205893,1.4347188,-0.7595025,1.8649079,1.0868561,0.3225891,-0.20181048,-0.43326953,0.5158235,0.5623999
0.1,-0.1,0.7999999999999999,0.0,-0.5235987755982988,0,-1.5972979,1.6564327,-0.41789767,-0.3875623,-0.23220402,1.450215,-0.67642957,1.8279138,1.1101545,0.4177265,-0.040768154,-0.012726221,0.40970254,-0.28853104
0.1,-0.1,0.7999999999999999,0.0,-0.5235987755982988,0,-1.6238421,1.6131729,-0.4246449,-0.3594273,-0.22502127,1.419572,-0.7530378,1.8309848,0.9500447,0.35960552,-0.025813423,0.2372103,0.8248683,0.44685352
0.1,-0.1,0.7999999999999999,0.0,-0.5235987755982988,0,-1.5826283,1.6523674,-0.43604627,-0.38914552,-0.24198674,1.4514654,-0.7891865,1.8341054,1.0524104,0.447215,-0.12121833,-0.51894957,1.3704698,0.48825762
0.1,-0.1,0.7999999999999999,0.0,-0.5235987755982988,0,-1.6107885,1.6442351,-0.43070447,-0.37519574,-0.2403603,1.4326935,-0.7846394,1.8230665,1.0644791,0.46592513,-0.1818579,0.16730465,0.34677297,0.27497938
0.1,-0.1,0.7999999999999999,0.0,-0.5235987755982988,0,-1.5204802,1.6533548,-0.41363215,-0.37208036,-0.21173301,1.4304518,-0.8068441,1.8500865,1.0213987,0.42091984,-0.012416864,0.484824,1.1458884,0.5871297
0.1,-0.1,0.7999999999999999,0.0,-0.5235987755982988,0,-1.623457,1.6541923,-0.39006877,-0.35763675,-0.2299279,1.4513086,-0.7932259,1.8354942,1.0141275,0.37987942,-0.043937977,0.05936094,0.37919614,0.42444304
0.1,-0.1,0.7999999999999999,0.0,-0.5235987755982988,0,-1.5978593,1.6258695,-0.3998214,-0.40454885,-0.22701678,1.4393748,-0.7352168,1.8369502,1.0497946,0.5013643,-0.102963716,0.022427486,0.53736925,0.94378287
0.1,-0.1,0.7999999999999999,0.0,-0.5235987755982988,0,-1.6108469,1.6736357,-0.43754023,-0.38250312,-0.24362932,1.440897,-0.72347313,1.8445679,1.0219811,0.4833133,-0.06768087,0.033101022,0.480564,0.71271557
0.1,-0.1,0.7999999999999999,0.0,-0.5235987755982988,0,-1.5974844,1.6183572,-0.4649164,-0.35816908,-0.21312563,1.44837,-0.7311911,1.8318399,1.0773681,0.3603102,-0.14426458,0.011821449,0.70951796,0.11262153
0.1,-0.1,0.7999999999999999,0.0,-0.5235987755982988,0,-1.5975468,1.6466359,-0.39655784,-0.3867697,-0.21021822,1.4397242,-0.6791979,1.8187135,1.0376492,0.3955185,-0.038581822,-0.54707116,0.64055634,0.47636458
0.1,-0.1,0.7999999999999999,0.0,-0.5235987755982988,0,-1.6746825,1.6753765,-0.44339415,-0.3620162,-0.25434083,1.4759706,-0.77708954,1.8696136,1.009394,0.37239972,-0.11927119,-0.50937474,0.7418929,1.4981073
0.1,-0.1,0.7999999999999999,0.0,-0.5235987755982988,0,-1.605001,1.6283693,-0.4235157,-0.4069552,-0.21516559,1.4548477,-0.7743774,1.8256128,1.0443785,0.29205292,-0.017880594,-0.32528788,0.53186667,-0.107845575
0.1,-0.1,0.7999999999999999,0.0,-0.5235987755982988,0,-1.635145,1.6539855,-0.43260634,-0.36328417,-0.24145488,1.441911,-0.771169,1.8209893,1.0269508,0.38873604,-0.10678463,-0.014583633,-0.027557828,1.342651
0.1,-0.1,0.7999999999999999,0.0,-0.5235987755982988,0,-1.5743922,1.6373264,-0.4798302,-0.39736712,-0.22504233,1.4572183,-0.7894253,1.8255628,1.0660626,0.41339666,-0.10402893,0.1993898,0.74763805,1.0363295
0.1,-0.1,0.7999999999999999,0.0,-0.5235987755982988,0,-1.5800099,1.6072162,-0.4077002,-0.39305913,-0.23712955,1.4641052,-0.75651795,1.858948,1.073354,0.44042018,-0.061063386,-0.20464376,0.06942944,1.6644443
0.1,-0.1,0.7999999999999999,0.0,-0.5235987755982988,0,-1.5251938,1.6712915,-0.40408486,-0.33514968,-0.23319985,1.4560546,-0.7539619,1.8495904,1.0437607,0.38384026,-0.024917554,-0.4426639,0.5554326,0.7099235
0.1,-0.1,0.7999999999999999,0.0,-0.5235987755982988,0,-1.6330858,1.6166896,-0.4080951,-0.4155648,-0.23269096,1.4742782,-0.790165,1.8028032,1.0578308,0.33671385,-0.074537955,0.088785715,0.9459083,0.33121496
0.1,-0.1,0.7999999999999999,0.0,-0.5235987755982988,0,-1.5477657,1.6557711,-0.44901577,-0.37171274,-0.22984055,1.4393269,-0.7599707,1.8155062,1.02341,0.37218517,-0.13273752,0.056029182,0.66805977,0.22019155
0.1,-0.1,0.7999999999999999,0.0,-0.5235987755982988,0,-1.6218168,1.6520922,-0.44867224,-0.3976098,-0.2550109,1.4807185,-0.7391967,1.8442738,0.97771907,0.40082893,-0.025630593,0.08172217,-0.020113679,-0.1614773
0.1,-0.1,0.7999999999999999,0.0,-0.5235987755982988,0,-1.5332873,1.6266581,-0.43332338,-0.41622987,-0.2421213,1.4646189,-0.7130894,1.8459682,1.0411266,0.46012694,-0.098365165,-0.1251016,0.62944126,0.11586147
0.1,-0.1,0.7999999999999999,0.0,-0.5235987755982988,0,-1.5812423,1.6656039,-0.39381003,-0.39002362,-0.24370693,1.4471447,-0.8085117,1.8433299,0.9912759,0.49451768,-0.121800765,-0.2856299,0.9670511,0.849828
0.1,-0.1,0.7999999999999999,0.0,-0.5235987755982988,0,-1.6005311,1.6402984,-0.4070705,-0.3778453,-0.24700637,1.4504808,-0.7199109,1.8189956,1.0710133,0.35420853,-0.09239833,0.19293162,0.82524407,0.8134404
0.1,-0.1,0.7999999999999999,0.0,-0.5235987755982988,0,-1.611407,1.6790098,-0.4306961,-0.38910615,-0.23089118,1.4574249,-0.7343349,1.7834584,1.0119048,0.42159918,-0.062638566,0.074350536,0.75453913,-0.012812213
0.1,-0.1,0.7999999999999999,0.0,-0.5235987755982988,0,-1.6285923,1.6331979,-0.4385316,-0.3780969,-0.2286286,1.4270492,-0.7554419,1.8378878,1.0779687,0.50732607,-0.123085395,0.2640668,1.2209888,0.043437485
0.1,-0.1,0.7999999999999999,0.0,-0.5235987755982988,0,-1.5918511,1.631364,-0.4581272,-0.3822251,-0.22860193,1.4459652,-0.67127746,1.8440852,1.0376236,0.43744028,-0.08348969,-0.3025759,0.952369,0.4520472
0.1,-0.1,0.7999999999999999,0.0,-0.5235987755982988,0,-1.6405089,1.6521196,-0.40920174,-0.41647026,-0.24316065,1.4352093,-0.7597811,1.828344,1.0465851,0.41346335,-0.07454508,-0.3655338,0.78099895,0.8081856
0.1,-0.1,0.7999999999999999,0.0,-0.5235987755982988,0,-1.6211518,1.6310662,-0.39137197,-0.37086728,-0.23830518,1.4629947,-0.76558304,1.8611646,0.97166777,0.3756054,-0.059419367,0.35784858,1.2211783,0.1037543
0.1,-0.1,0.7999999999999999,0.0,-0.5235987755982988,0,-1.6190698,1.6417341,-0.43210334,-0.35194856,-0.24931182,1.4596558,-0.71646863,1.8637819,1.0437399,0.35095,-0.051947158,-0.070501044,0.6801348,0.14902072
0.1,-0.1,0.7999999999999999,0.0,-0.5235987755982988,0,-1.6554085,1.6662177,-0.4578835,-0.38651505,-0.26391914,1.4444531,-0.8089334,1.8180325,1.0030723,0.46278515,-0.080248505,0.040006198,0.3677702,0.4332189
0.1,-0.1,0.7999999999999999,0.0,-0.5235987755982988,0,-1.5779842,1.6477749,-0.4374725,-0.41994825,-0.23293072,1.473696,-0.72903746,1.7953607,1.0539092,0.34635273,-0.051158223,-0.054159664,0.26950878,0.45914298
0.1,-0.1,0.7999999999999999,0.0,-0.5235987755982988,0,-1.6390249,1.6364821,-0.39640164,-0.39980334,-0.245794,1.463829,-0.71055037,1.8383793,1.1020427,0.2895134,-0.03938764,-0.28831673,0.69492984,1.0522362
0.1,-0.1,0.7999999999999999,0.0,-0.5235987755982988,0,-1.5569049,1.6543084,-0.3894157,-0.39499867,-0.22922452,1.4543124,-0.7613083,1.8294865,1.0155255,0.41090822,-0.02632749,-0.41048786,0.40532368,-0.23024397
0.1,-0.1,0.7999999999999999,0.0,-0.5235987755982988,0,-1.5989949,1.6595653,-0.44304016,-0.38280967,-0.24688701,1.4532361,-0.7682276,1.823097,1.1073035,0.35965657,-0.04200525,0.06315378,0.696442,0.43456385
0.1,-0.1,0.7999999999999999,0.0,-0.5235987755982988,0,-1.5963367,1.6244553,-0.382877,-0.38168606,-0.22789426,1.4463006,-0.74903387,1.8224809,1.0414423,0.31770235,-0.122740254,0.17521492,0.24220635,0.3922985
0.1,-0.1,0.7999999999999999,0.0,-0.5235987755982988,0,-1.6368394,1.690678,-0.40285325,-0.3971266,-0.24658154,1.4384961,-0.7502277,1.7878377,1.0109308,0.38425085,-0.10632177,-0.3401645,0.14902544,0.86701566
0.1,-0.1,0.7999999999999999,0.0,-0.5235987755982988,0,-1.5956717,1.6648858,-0.4117094,-0.3601005,-0.21705374,1.4383876,-0.76194197,1.8422589,1.0513687,0.47306943,-0.17489521,-0.16339749,0.3196111,-0.07057968
0.1,-0.1,0.7999999999999999,0.0,-0.5235987755982988,0,-1.5457245,1.6716089,-0.4220607,-0.37910828,-0.2553008,1.4480733,-0.773485,1.8220264,1.0535783,0.33452922,-0.12906864,-0.6185642,1.07292,-0.033471417
0.1,-0.1,0.7999999999999999,0.0,-0.5235987755982988,0,-1.6054262,1.6838998,-0.46623296,-0.3798142,-0.24981669,1.4441848,-0.7242784,1.8406016,0.9964582,0.29912072,-0.16806631,0.2599471,0.6279009,0.44609493
0.1,-0.1,0.7999999999999999,0.0,-0.5235987755982988,0,-1.6032113,1.6520873,-0.40952325,-0.40668252,-0.24953382,1.4482872,-0.73850983,1.8297005,1.0077904,0.37901947,-0.0970702,-0.32009715,0.6458733,-0.16484109
0.1,-0.1,0.7999999999999999,0.0,-0.5235987755982988,0,-1.4883142,1.6576138,-0.43015185,-0.39853758,-0.20993201,1.4510658,-0.7524523,1.8291554,1.0624989,0.4074694,-0.068506934,0.11705365,0.04368176,-0.48858052
0.1,-0.1,0.7999999999999999,0.0,-0.5235987755982988,0,-1.5965431,1.6734108,-0.40723336,-0.34254736,-0.2400358,1.4431636,-0.6750515,1.8071699,1.0195671,0.33219934,-0.014922876,0.5771124,0.24913305,-0.26487732
0.1,-0.1,0.7999999999999999,0.0,-0.5235987755982988,0,-1.5877942,1.643694,-0.460278,-0.39100936,-0.23740089,1.450752,-0.728462,1.8690034,1.0287204,0.2825552,-0.08938122,-0.061038483,0.60280085,0.597139
0.1,-0.1,0.7999999999999999,0.0,-0.5235987755982988,0,-1.504598,1.6735885,-0.44180578,-0.43215322,-0.22218776,1.4698542,-0.74104154,1.8307906,1.0475134,0.42623705,-0.02157739,0.20389429,0.47660682,0.29290208
0.1,-0.1,0.7999999999999999,0.0,-0.5235987755982988,0,-1.5965655,1.644218,-0.43345922,-0.4112226,-0.23999946,1.4469798,-0.69648844,1.7833676,0.9785598,0.42210203,-0.036459267,-0.17064923,0.45679128,0.44473496
0.1,-0.1,0.7999999999999999,0.0,-0.5235987755982988,0,-1.5484862,1.6938897,-0.4239222,-0.42842656,-0.2504005,1.4453183,-0.77156395,1.8368909,1.0318877,0.3872875,-0.025369797,-0.3920626,0.9782781,0.2878517
0.1,-0.1,0.7999999999999999,0.0,-0.5235987755982988,0,-1.6196036,1.6689873,-0.44883057,-0.3641403,-0.23897886,1.4041162,-0.7851431,1.8239805,1.05958,0.43052807,-0.10360086,0.37595695,0.37798756,0.3631133
0.1,-0.1,0.7999999999999999,0.0,-0.5235987755982988,0,-1.5950929,1.6390046,-0.42999116,-0.36655033,-0.24128792,1.4320871,-0.7356926,1.8418002,1.0225163,0.41279823,-0.061230186,-0.17527305,0.29409543,0.79337263
0.1,-0.1,0.7999999999999999,0.0,-0.5235987755982988,0,-1.6389258,1.637867,-0.4207043,-0.40051517,-0.22663575,1.4516509,-0.778936,1.8091292,1.0207582,0.46313113,-0.08186793,-0.16790487,0.5492216,1.0203347
0.1,-0.1,0.7999999999999999,0.0,-0.5235987755982988,0,-1.5458637,1.6538991,-0.43323433,-0.43355846,-0.20774075,1.4510062,-0.75032526,1.8350028,1.0489563,0.44184813,-0.057805903,0.3345072,0.5947646,1.0497464
0.1,-0.1,0.7999999999999999,0.0,-0.5235987755982988,0,-1.6170459,1.6614398,-0.44009987,-0.3840049,-0.251922,1.4434549,-0.7638435,1.8329178,1.0573077,0.39546522,-0.13891456,0.4516106,0.6898098,0.4998727
0.1,-0.1,0.7999999999999999,0.0,-0.5235987755982988,0,-1.6098628,1.6785743,-0.43115672,-0.36714867,-0.24710244,1.4325782,-0.71324605,1.8391001,0.96113557,0.35267723,-0.080905534,-0.08801383,0.4408493,-0.35422063
0.1,-0.1,0.7999999999999999,0.0,-0.5235987755982988,0,-1.551291,1.6775725,-0.43884385,-0.44266868,-0.22006886,1.4694917,-0.73469913,1.8421714,1.0453233,0.37606394,-0.14054197,0.052159827,0.5442653,0.4139572
0.1,-0.1,0.7999999999999999,0.0,-0.5235987755982988,0,-1.5547823,1.6866566,-0.45436102,-0.42953718,-0.22744626,1.4430275,-0.7553205,1.839476,1.0208371,0.3691174,-0.13310985,-0.08570918,0.5969624,1.3285689
0.1,-0.1,0.7999999999999999,0.0,-0.5235987755982988,0,-1.6044061,1.6636897,-0.39400274,-0.37151173,-0.22163378,1.438426,-0.7596353,1.8159453,1.0536004,0.42688492,-0.01568157,-0.2686217,0.40919873,1.131504
0.1,-0.1,0.7999999999999999,0.0,-0.5235987755982988,0,-1.5838538,1.6773676,-0.42196912,-0.4055346,-0.25381926,1.4450972,-0.6936097,1.8345649,0.96557164,0.25341076,-0.15128177,0.116345435,0.47560894,0.36037233
0.1,-0.1,0.7999999999999999,0.0,-0.5235987755982988,0,-1.5377115,1.6736616,-0.4416712,-0.36606443,-0.21993342,1.4687716,-0.7027652,1.8298432,1.0244591,0.33013386,-0.14877972,-0.46505255,0.6119572,1.1548399
0.1,-0.1,0.7999999999999999,0.0,-0.5235987755982988,0,-1.6317015,1.6481485,-0.42245525,-0.35354558,-0.22409754,1.4815055,-0.75818324,1.8640581,0.97157156,0.3768803,-0.08855984,0.20345186,0.84889543,0.060649376
0.1,-0.1,0.7999999999999999,0.0,-0.5235987755982988,0,-1.6266142,1.6787658,-0.367828,-0.36072347,-0.22709832,1.4613205,-0.77524966,1.8279346,1.0818487,0.31757542,-0.17775099,0.34258434,0.8779192,-0.86840194
0.1,-0.1,0.7999999999999999,0.0,-0.5235987755982988,0,-1.5543625,1.6825179,-0.3987203,-0.3632438,-0.22976828,1.4401982,-0.765305,1.8230128,1.041497,0.3117862,-0.19116601,-0.12357204,0.4093846,0.9353063
0.1,-0.1,0.7999999999999999,0.0,-0.5235987755982988,0,-1.6210564,1.6470579,-0.4588456,-0.40838918,-0.22743343,1.4315832,-0.7123273,1.8151323,1.0626199,0.36634475,-0.1903258,0.101666145,0.5885197,-0.366955
0.1,-0.1,0.7999999999999999,0.0,-0.5235987755982988,0,-1.6137288,1.6608286,-0.41798794,-0.41623476,-0.221637,1.4394859,-0.7486965,1.8291618,1.0284965,0.36653432,-0.15168029,0.3129529,0.4022435,-0.12991221
0.1,-0.1,0.7999999999999999,0.0,-0.5235987755982988,0,-1.596285,1.6538129,-0.43030122,-0.37828037,-0.22582284,1.4393804,-0.76686496,1.8454036,1.0099707,0.40153536,-0.053960163,0.33873332,0.9364153,0.37712634
0.1,-0.1,0.7999999999999999,0.0,-0.5235987755982988,0,-1.5891486,1.6335853,-0.4179214,-0.3445157,-0.24600108,1.4344815,-0.73106766,1.8076506,1.0702722,0.3688176,-0.14753664,0.47573858,0.43730533,0.61960953
0.1,-0.1,0.7999999999999999,0.0,-0.5235987755982988,0,-1.5403141,1.6778543,-0.41359755,-0.36493507,-0.2593809,1.4687068,-0.74484587,1.8095819,1.0722499,0.37062293,-0.14620762,0.06142769,0.2609012,1.1354132
0.1,-0.1,0.7999999999999999,0.0,-0.5235987755982988,0,-1.5560154,1.688616,-0.43493953,-0.39146316,-0.23595065,1.457984,-0.7690498,1.8078411,1.0247322,0.34987226,-0.15062274,0.08947261,0.9274531,-0.020211719
0.1,-0.1,0.7999999999999999,0.0,-0.5235987755982988,0,-1.6250472,1.6371957,-0.41837668,-0.3667872,-0.22202502,1.4605789,-0.77433527,1.8305705,1.0341427,0.3791585,-0.1467023,0.04526472,0.429919,0.34490868
0.1,-0.1,0.7999999999999999,0.0,-0.5235987755982988,0,-1.5763693,1.6583079,-0.44692892,-0.3708049,-0.23457289,1.4394196,-0.76408076,1.8097737,1.0474343,0.35947078,-0.20529914,-0.16970155,1.0915539,0.81815994
0.1,-0.1,0.7999999999999999,0.0,-0.5235987755982988,0,-1.6115243,1.6708838,-0.40381292,-0.36019114,-0.22358075,1.4630079,-0.71535844,1.7870399,1.0389143,0.4240114,-0.19498427,0.30100915,0.46926904,0.1466551
0.1,-0.1,0.7999999999999999,0.0,-0.5235987755982988,0,-1.6158035,1.6403118,-0.45203674,-0.36527717,-0.21753606,1.4190685,-0.7573191,1.8142514,1.0379312,0.3441691,-0.17812535,-0.02535431,0.6295282,0.8897398
0.1,-0.1,0.7999999999999999,0.0,-0.5235987755982988,0,-1.6032972,1.6535615,-0.4410443,-0.37585747,-0.2305517,1.4354527,-0.71882594,1.8557434,1.0329401,0.2729021,-0.19624141,-0.16937336,1.193384,1.9217166
0.1,-0.1,0.7999999999999999,0.0,-0.5235987755982988,0,-1.5105315,1.6545671,-0.45687988,-0.36562097,-0.26105815,1.4447632,-0.6599903,1.8438376,1.030503,0.46119425,-0.14438172,0.8249582,0.1318196,0.41468826
0.1,-0.1,0.7999999999999999,0.0,-0.5235987755982988,0,-1.6035454,1.633876,-0.41800198,-0.3763082,-0.23156193,1.4545654,-0.6922581,1.845241,0.9850706,0.33441883,-0.102665395,0.21043132,0.68586206,1.0697249
0.1,-0.1,0.7999999999999999,0.0,-0.5235987755982988,0,-1.6256495,1.6705408,-0.41437873,-0.38141006,-0.24382877,1.4546666,-0.73073155,1.8607984,1.0152947,0.35891116,-0.14837088,-0.057887398,0.31810734,0.6606846
0.1,-0.1,0.7999999999999999,0.0,-0.5235987755982988,0,-1.583838,1.6484269,-0.44477266,-0.3705681,-0.2365059,1.444994,-0.7757773,1.8418816,1.0615457,0.39609557,-0.15022591,-0.2877356,0.9703589,0.788609
0.1,-0.1,0.7999999999999999,0.0,-0.5235987755982988,0,-1.5902331,1.6586249,-0.455213,-0.40384734,-0.22928828,1.468789,-0.7289131,1.8362787,1.0152192,0.38712153,-0.13369302,0.16979346,0.48022193,0.7224257
0.1,-0.1,0.7999999999999999,0.0,-0.5235987755982988,0,-1.6145577,1.6350005,-0.41543677,-0.39518142,-0.23544118,1.4726877,-0.75787485,1.8397064,1.008419,0.3454674,-0.107274845,0.33943588,0.43752483,0.98505133
0.1,-0.1,0.7999999999999999,0.0,-0.5235987755982988,0,-1.6066362,1.6291528,-0.42552695,-0.3751834,-0.23210545,1.4438636,-0.7564693,1.7838099,1.0505872,0.4766036,-0.16181041,0.23601343,0.7896224,0.9899203
0.1,-0.1,0.7999999999999999,0.0,-0.5235987755982988,0,-1.5987413,1.6712054,-0.3907965,-0.37567186,-0.26036742,1.4563395,-0.8116698,1.8629365,1.0529261,0.33816454,-0.18107525,-0.07630466,0.20419522,-0.23133607
0.1,-0.1,0.7999999999999999,0.0,-0.5235987755982988,0,-1.5821542,1.6533875,-0.44322464,-0.3727631,-0.24881993,1.4310081,-0.78116876,1.8513122,1.0127459,0.38597152,-0.086226314,-0.049840298,0.49808678,0.17275827
0.1,-0.1,0.7999999999999999,0.0,-0.5235987755982988,0,-1.5830139,1.6442803,-0.45776647,-0.3635191,-0.21110776,1.419556,-0.72811866,1.8233399,1.0187316,0.3707835,-0.1070876,0.073606916,0.8361437,0.045137957
0.1,-0.1,0.7999999999999999,0.0,-0.5235987755982988,0,-1.5742835,1.6452636,-0.40631035,-0.3817625,-0.24408247,1.4425125,-0.71819615,1.8365595,1.0314318,0.3974542,-0.107446484,0.2597633,0.43675926,0.7545573
0.1,-0.1,0.7999999999999999,0.0,-0.5235987755982988,0,-1.5878919,1.6367238,-0.42024225,-0.3900841,-0.2220982,1.4296353,-0.772713,1.8491482,0.98939514,0.4406494,-0.060641263,0.3546781,0.46957114,0.14745367
0.1,-0.1,0.7999999999999999,0.0,-0.5235987755982988,0,-1.6230279,1.6861597,-0.44072592,-0.3705239,-0.24895988,1.4241598,-0.7147414,1.8250097,1.0295842,0.40328342,-0.1487715,-0.41735435,0.27347866,0.80907273
0.1,-0.1,0.7999999999999999,0.0,-0.5235987755982988,0,-1.6576337,1.6280426,-0.41087475,-0.3797454,-0.21334228,1.4259093,-0.7534581,1.8493932,1.0321004,0.39310402,-0.113283895,-0.1828433,0.725741,1.1036116
0.1,-0.1,0.7999999999999999,0.0,-0.5235987755982988,0,-1.5728468,1.6950167,-0.44589782,-0.38429677,-0.22458674,1.4440765,-0.7310498,1.7996408,0.97223234,0.39196637,-0.123783514,0.44493395,0.71260494,0.072933905
0.1,-0.1,0.7999999999999999,0.0,-0.5235987755982988,0,-1.585517,1.6537311,-0.43328092,-0.38302287,-0.20984814,1.4330348,-0.7696709,1.8407472,1.0096335,0.34326437,-0.08592553,-0.08466115,0.8510419,0.82775563
0.1,-0.1,0.7999999999999999,0.0,-0.5235987755982988,0,-1.6040429,1.6330748,-0.43704733,-0.3843885,-0.23139459,1.4467932,-0.8342247,1.841745,1.0819701,0.41580215,-0.20250218,-0.07947042,0.77135915,1.1010689
0.1,-0.1,0.7999999999999999,0.0,-0.5235987755982988,0,-1.6410557,1.6319376,-0.3848781,-0.40492162,-0.22366126,1.4610428,-0.80507857,1.8340406,1.0028745,0.34737447,-0.11085947,-0.21308415,0.73600554,0.7732249
0.1,-0.1,0.7999999999999999,0.0,-0.5235987755982988,0,-1.5916064,1.6528139,-0.40893298,-0.37089738,-0.23920907,1.4548906,-0.73330367,1.8568606,1.0459135,0.41416204,-0.15133066,-0.09189642,0.49991724,0.5004631
0.1,-0.1,0.7999999999999999,0.0,-0.5235987755982988,0,-1.5723479,1.6659782,-0.42357665,-0.3901818,-0.24154449,1.4504215,-0.73678493,1.8591261,0.9876496,0.38781926,-0.087831624,-0.5020196,0.5163332,-0.01893041
0.1,-0.1,0.7999999999999999,0.0,-0.5235987755982988,0,-1.6108948,1.6692946,-0.39903143,-0.3484467,-0.25402558,1.4295514,-0.78853893,1.8415759,1.0624498,0.46573174,-0.13350643,0.14709735,0.4168088,0.8412527
0.1,-0.1,0.7999999999999999,0.0,-0.5235987755982988,0,-1.6196141,1.6411139,-0.46397266,-0.36011982,-0.2130174,1.4618136,-0.69836134,1.809187,1.0761385,0.34537694,-0.06545754,0.050041247,0.38059622,0.19705382
0.1,-0.1,0.7999999999999999,0.0,-0.5235987755982988,0,-1.5650047,1.678158,-0.4295543,-0.36318743,-0.25487745,1.428623,-0.72240394,1.8125616,1.0566181,0.4530634,-0.106862344,0.4840771,0.44815537,0.87393427
0.1,-0.1,0.7999999999999999,0.0,-0.5235987755982988,0,-1.6162424,1.6468803,-0.42532963,-0.36074287,-0.23727383,1.4413638,-0.6530576,1.8527231,1.0025184,0.37507758,-0.047499944,-0.009105314,0.76686245,-0.0702393
0.1,-0.1,0.7999999999999999,0.0,-0.5235987755982988,0,-1.5692426,1.6443939,-0.42777544,-0.35520878,-0.23206101,1.4744405,-0.7815975,1.8248953,1.0321572,0.34486076,-0.16348472,0.53586924,0.6757393,0.059192307
0.1,-0.1,0.7999999999999999,0.0,-0.5235987755982988,0,-1.5730169,1.620338,-0.4377884,-0.35120285,-0.23195405,1.4319429,-0.70837075,1.8511586,1.0559491,0.35446486,-0.04742141,0.18758474,0.5506477,-0.28175312
0.1,-0.1,0.7999999999999999,0.0,-0.5235987755982988,0,-1.5975696,1.6616068,-0.37879872,-0.34040612,-0.24675356,1.455571,-0.74541885,1.8505164,0.98419124,0.26024336,-0.1678699,0.53587914,0.3149464,0.5052815
0.1,-0.1,0.7999999999999999,0.0,-0.5235987755982988,0,-1.5937535,1.6149731,-0.44119737,-0.34251913,-0.23276255,1.4082731,-0.7049923,1.8463215,1.0634139,0.37543523,-0.15315764,0.42069587,0.97930527,1.0345883
0.1,-0.1,0.7999999999999999,0.0,-0.5235987755982988,0,-1.5737944,1.6558447,-0.4540067,-0.3727167,-0.23398644,1.4305251,-0.79316473,1.8163267,1.0473951,0.42546865,-0.1406932,-0.43048367,1.2318126,0.9061496
0.1,-0.1,0.7999999999999999,0.0,-0.5235987755982988,0,-1.6066082,1.6290711,-0.44251895,-0.36797795,-0.24965258,1.4605613,-0.82137054,1.8109881,1.0296121,0.41356358,-0.09956385,-0.04624965,0.41121373,0.1449689
0.1,-0.1,0.7999999999999999,0.0,-0.5235987755982988,0,-1.5655386,1.6502047,-0.4193678,-0.36788642,-0.24743645,1.4440914,-0.70803773,1.8251699,1.008861,0.35752913,-0.09267571,-0.6126934,0.54639405,0.9105482
0.1,-0.1,0.7999999999999999,0.0,-0.5235987755982988,0,-1.616025,1.6253284,-0.4304791,-0.37577057,-0.24602436,1.4451436,-0.6934846,1.8509902,0.9988848,0.37021497,-0.072175704,0.15020232,0.71905285,-0.13252313
0.1,-0.1,0.7999999999999999,0.0,-0.5235987755982988,0,-1.6144719,1.6411445,-0.48349002,-0.41801226,-0.23964794,1.471849,-0.7121032,1.8315341,1.0360085,0.38600174,-0.14733042,0.06655673,0.8214033,0.5755407
0.1,-0.1,0.7999999999999999,0.0,-0.5235987755982988,0,-1.7057811,1.6500381,-0.40415105,-0.397536,-0.2369497,1.4503039,-0.7599322,1.8208666,1.0006713,0.40329477,-0.10060586,0.30561936,0.90637714,-0.2850902
0.1,-0.1,0.7999999999999999,0.0,-0.5235987755982988,0,-1.5921626,1.6774791,-0.42875305,-0.35455722,-0.24447688,1.4621943,-0.7680154,1.8505002,1.0304345,0.39416042,-0.11021238,-0.4123366,0.7324281,0.7818827
0.1,-0.1,0.7999999999999999,0.0,-0.5235987755982988,0,-1.567362,1.6427944,-0.42214534,-0.37063098,-0.24695884,1.4650292,-0.80332273,1.8320283,1.0484868,0.3133438,-0.16935922,0.21100882,0.96261096,-0.4039406
0.1,-0.1,0.7999999999999999,0.0,-0.5235987755982988,0,-1.6151317,1.6550674,-0.42173737,-0.385157,-0.24626991,1.441976,-0.7142667,1.8638293,1.0472989,0.38194153,-0.11175084,0.16939218,0.3796772,0.1626167
0.1,-0.1,0.7999999999999999,0.0,-0.5235987755982988,0,-1.5858364,1.6754049,-0.44240603,-0.39109272,-0.20773233,1.4768758,-0.732342,1.819947,1.0379746,0.4175268,-0.13532126,-0.24203861,0.48371464,0.66924745
0.1,-0.1,0.7999999999999999,0.0,-0.5235987755982988,0,-1.6004504,1.6376485,-0.43953466,-0.3924954,-0.2495426,1.4477513,-0.7674132,1.8442227,1.0260918,0.4432346,-0.10961322,0.27601454,0.36651233,0.3212924
0.1,-0.1,0.7999999999999999,0.0,-0.5235987755982988,0,-1.5898514,1.6641897,-0.44777036,-0.38175225,-0.24532123,1.4540062,-0.742733,1.8271195,1.050218,0.2912659,-0.18203133,0.2544865,0.39553845,0.9979512
0.1,-0.1,0.7999999999999999,0.0,-0.5235987755982988,0,-1.6394621,1.6702923,-0.41191235,-0.3786332,-0.24338931,1.4473376,-0.7096985,1.834793,1.0205654,0.35186958,-0.11950769,-0.03663258,0.9883506,-0.19046797
0.1,-0.1,0.7999999999999999,0.0,-0.5235987755982988,0,-1.5550205,1.6816407,-0.45936593,-0.36941132,-0.2104289,1.4468199,-0.7619877,1.8351831,1.0329628,0.509455,-0.017193107,0.059620056,0.41352203,0.50567573
0.1,-0.1,0.7999999999999999,0.0,-0.5235987755982988,0,-1.6185434,1.6625029,-0.39053115,-0.34490752,-0.2354754,1.4409951,-0.6721316,1.8714916,1.0068464,0.3630007,-0.12809747,-0.0024001005,0.54540014,-0.104285665
0.1,-0.1,0.7999999999999999,0.0,-0.5235987755982988,0,-1.598969,1.6508712,-0.41162843,-0.37126932,-0.253502,1.4525036,-0.707969,1.8190284,0.9928255,0.46928555,-0.027111858,0.4369337,0.47898036,1.2666883
0.1,-0.1,0.7999999999999999,0.0,-0.5235987755982988,0,-1.5881023,1.6388282,-0.4345962,-0.32830304,-0.23419513,1.3995043,-0.7517701,1.8470719,1.0456762,0.45146722,-0.10438107,-0.0986105,0.032380633,-0.072186664
0.1,-0.1,0.7999999999999999,0.0,-0.5235987755982988,0,-1.6154746,1.6715536,-0.48765337,-0.3577565,-0.21328484,1.4404459,-0.74529034,1.7981969,1.0090247,0.3013544,-0.1083615,-0.25383413,0.09535428,-0.15845841
0.1,-0.1,0.7999999999999999,0.0,-0.5235987755982988,0,-1.5446299,1.6481876,-0.39532456,-0.3562078,-0.22769089,1.4632035,-0.79511786,1.8440353,1.0450469,0.41786262,-0.12570019,0.0053263213,0.5604448,0.326334
0.1,-0.1,0.7999999999999999,0.0,-0.5235987755982988,0,-1.5939832,1.6944648,-0.42844522,-0.37615088,-0.26988652,1.4253162,-0.7529807,1.8383881,1.0391433,0.45895395,-0.13654973,0.26528218,0.65480715,0.36686105
0.1,-0.1,0.7999999999999999,0.0,-0.5235987755982988,0,-1.6542739,1.6338952,-0.43987337,-0.39213225,-0.26688603,1.4493494,-0.7657482,1.8298835,0.9891715,0.36197996,-0.06544655,-0.21503179,0.8244356,0.62564665
0.1,-0.1,0.7999999999999999,0.0,-0.5235987755982988,0,-1.607961,1.6100558,-0.45958838,-0.35633487,-0.22491635,1.4322383,-0.75076896,1.827993,1.011379,0.4245784,-0.124608874,-0.0637787,0.3279062,0.5466039
0.1,-0.1,0.7999999999999999,0.0,-0.5235987755982988,0,-1.6020552,1.6382793,-0.4171298,-0.3923041,-0.2517758,1.4485394,-0.732124,1.8372058,1.0025498,0.41447172,-0.0648113,-0.5446368,0.5124209,0.27509624
0.1,-0.1,0.7999999999999999,0.0,-0.5235987755982988,0,-1.5795509,1.6623318,-0.428206,-0.37002802,-0.2203513,1.4474851,-0.7550193,1.8214532,1.0213858,0.40105635,-0.13474648,-0.22230288,0.92419964,-0.23563977
0.1,-0.1,0.7999999999999999,0.0,-0.5235987755982988,0,-1.5959654,1.6688005,-0.42674652,-0.375959,-0.22462301,1.4424633,-0.7013879,1.8365192,1.0141543,0.3554452,-0.12702739,0.19434862,1.2308692,1.0029062
0.1,-0.1,0.7999999999999999,0.0,-0.5235987755982988,0,-1.6138183,1.6538413,-0.40655583,-0.37776193,-0.24320523,1.4524224,-0.74007154,1.8509935,1.0104386,0.3690691,-0.09654246,0.3679419,0.53965896,1.2616837
0.1,-0.1,0.7999999999999999,0.0,-0.5235987755982988,0,-1.6666356,1.6396384,-0.39301607,-0.358588,-0.22551297,1.4768641,-0.688933,1.8289577,1.0599583,0.35159957,-0.1443417,-0.18863705,0.45576012,0.41678858
0.1,-0.1,0.7999999999999999,0.0,-0.5235987755982988,0,-1.6371343,1.6666028,-0.43497774,-0.37204558,-0.24502853,1.4244074,-0.7172303,1.8194056,1.0098118,0.39953354,-0.09704741,0.26455194,0.7395221,0.1586587
0.1,-0.1,0.7999999999999999,0.0,-0.5235987755982988,0,-1.5784818,1.6612871,-0.44093752,-0.371513,-0.23670954,1.4358162,-0.6939329,1.8359642,1.0084962,0.437003,-0.060999576,0.0019901076,0.39465535,0.69086176
0.1,-0.1,0.7999999999999999,0.0,-0.5235987755982988,0,-1.5666535,1.6676564,-0.42464396,-0.37174323,-0.22664697,1.4672104,-0.7437356,1.8035716,0.99044186,0.30807596,-0.065997064,-0.28410143,0.18399058,0.6140953
0.1,-0.1,0.7999999999999999,0.0,-0.5235987755982988,0,-1.5598998,1.656542,-0.42181867,-0.3779495,-0.24997094,1.4683133,-0.70712143,1.8374876,1.0865498,0.4578044,-0.1491844,0.38138336,0.3900401,0.5795532
0.1,-0.1,0.7999999999999999,0.0,-0.5235987755982988,0,-1.6542362,1.6538143,-0.42552185,-0.39280185,-0.2679695,1.4479878,-0.7715528,1.8367205,1.0626292,0.35466012,-0.19305673,0.06413559,0.6791602,0.52999264
0.1,-0.1,0.7999999999999999,0.0,-0.5235987755982988,0,-1.5625787,1.6742905,-0.41648126,-0.38080943,-0.2474425,1.4603511,-0.81674707,1.8002172,1.0471729,0.43159392,-0.11499358,0.14372176,0.19374688,0.29232576
0.1,-0.1,0.7999999999999999,0.0,-0.5235987755982988,0,-1.5958219,1.6341695,-0.4395556,-0.3747877,-0.2566977,1.4651357,-0.7413287,1.8307238,1.0473902,0.32704946,-0.1453429,-0.34891152,0.5929925,0.09356846
0.1,-0.1,0.7999999999999999,0.0,-0.5235987755982988,0,-1.5641001,1.6605887,-0.46626928,-0.37771764,-0.22361213,1.470551,-0.726553,1.8137009,1.0258623,0.35708222,-0.13101277,0.013659818,0.9321416,0.5689654
0.1,-0.1,0.7999999999999999,0.0,-0.5235987755982988,0,-1.5732344,1.6900569,-0.4302328,-0.35361424,-0.24332781,1.4510303,-0.79012185,1.8847994,1.0200377,0.41626415,-0.085077815,0.03817923,0.5609198,1.1381648
0.1,-0.1,0.7999999999999999,0.0,-0.5235987755982988,0,-1.6276267,1.6629186,-0.41987172,-0.36650464,-0.23914742,1.4449606,-0.73078614,1.8303273,1.0516884,0.2222145,-0.19564685,-0.12411468,0.8219971,0.22016281
0.1,-0.1,0.7999999999999999,0.0,-0.5235987755982988,0,-1.5879974,1.676701,-0.4182704,-0.35889515,-0.23545784,1.471791,-0.71590257,1.8462286,0.9791595,0.4367235,-0.07357124,-0.20176055,0.7919763,0.7683936
0.1,-0.1,0.7999999999999999,0.0,-0.5235987755982988,0,-1.6493795,1.6477327,-0.41048312,-0.3923786,-0.23053142,1.4562726,-0.7403528,1.8290528,1.0567502,0.3526079,-0.08363287,0.22355823,0.5518109,0.5087166
0.1,-0.1,0.7999999999999999,0.0,-0.5235987755982988,0,-1.6199088,1.6727883,-0.48319045,-0.35960492,-0.25395712,1.4495765,-0.7593894,1.8365163,1.0081216,0.41172183,-0.09450032,0.19390753,0.68483424,0.09532969
0.1,-0.1,0.7999999999999999,0.0,-0.5235987755982988,0,-1.5722206,1.6844376,-0.47424096,-0.35741755,-0.21484515,1.4283966,-0.6726093,1.8088326,0.9890472,0.41208753,-0.06478676,-0.1212664,1.0581517,0.294714
0.1,-0.1,0.7999999999999999,0.0,-0.5235987755982988,0,-1.6314452,1.6720575,-0.45192817,-0.38995555,-0.21933904,1.4295157,-0.7193429,1.8331765,1.0202137,0.39579162,-0.09662994,0.24083973,0.4333938,0.34846616
0.1,-0.1,0.7999999999999999,0.0,-0.5235987755982988,0,-1.6192135,1.662397,-0.3746739,-0.35635075,-0.23268154,1.466561,-0.74574924,1.8360567,1.0546912,0.36024144,-0.11212742,-0.28749746,0.5985273,0.040166862
0.1,-0.1,0.7999999999999999,0.0,-0.5235987755982988,0,-1.5773553,1.6888695,-0.42493767,-0.41043407,-0.24983448,1.4589986,-0.79065216,1.8550141,1.0027562,0.3763369,-0.08884897,-0.05953662,0.6099637,0.3380668
0.1,-0.1,0.7999999999999999,0.0,-0.5235987755982988,0,-1.5569669,1.686503,-0.4341368,-0.37091738,-0.24717738,1.4323902,-0.78018826,1.8325219,1.0267233,0.352975,-0.13957272,0.06414411,0.47668,1.0548695
0.1,-0.1,0.7999999999999999,0.0,-0.5235987755982988,0,-1.5624403,1.694165,-0.4578351,-0.38559982,-0.21276346,1.4375154,-0.7893849,1.8324088,1.0442449,0.4520819,-0.083830684,-0.060511455,0.5665362,0.024917161
0.1,-0.1,0.7999999999999999,0.0,-0.5235987755982988,0,-1.5867857,1.6485506,-0.39936274,-0.3874772,-0.2589745,1.4732908,-0.69732416,1.8602654,1.0159708,0.3921063,-0.03547859,0.06022911,0.5227181,0.9940247
0.1,-0.1,0.7999999999999999,0.0,-0.5235987755982988,0,-1.6390014,1.6458215,-0.3931149,-0.42400172,-0.23997979,1.4827003,-0.6932564,1.8696898,1.0282723,0.5058593,-0.07956121,0.06442832,0.64870137,0.43789664
0.1,-0.1,0.7999999999999999,0.0,-0.5235987755982988,0,-1.6110227,1.6563165,-0.4161624,-0.35774085,-0.23414029,1.4366994,-0.7491079,1.8100331,1.0193447,0.35429057,-0.119836956,-0.54520637,0.53323096,0.016568135
0.1,-0.1,0.7999999999999999,0.0,-0.5235987755982988,0,-1.6018099,1.6411729,-0.43815315,-0.38099897,-0.22035132,1.4499128,-0.75241506,1.8562263,1.0369468,0.35903794,-0.074573636,-0.24691473,0.699074,0.18447155
0.1,-0.1,0.7999999999999999,0.0,-0.5235987755982988,0,-1.5923336,1.6402266,-0.43932217,-0.3631817,-0.21516646,1.4383734,-0.7251754,1.8536321,1.0313466,0.3104544,-0.10061007,0.15961438,0.6007855,0.8635852
0.1,-0.1,0.7999999999999999,0.0,-0.5235987755982988,0,-1.5914353,1.6931981,-0.4106389,-0.39248085,-0.2322721,1.4677718,-0.8188066,1.8278116,1.0103657,0.37436497,-0.06554545,0.12147357,0.6613724,0.5034789
0.1,-0.1,0.7999999999999999,0.0,-0.5235987755982988,0,-1.5672184,1.659459,-0.469447,-0.342586,-0.21352518,1.4607582,-0.74497646,1.8419676,1.057702,0.37994322,-0.10705297,0.27825892,0.24088688,0.07158987
0.1,-0.1,0.7999999999999999,0.0,-0.5235987755982988,0,-1.6177866,1.6774172,-0.40467998,-0.3977928,-0.23753506,1.4491005,-0.89388454,1.8353009,1.0604529,0.40503302,-0.08943304,0.084513105,0.5280575,0.51860875
0.1,-0.1,0.7999999999999999,0.0,-0.5235987755982988,0,-1.6358877,1.6614399,-0.4471232,-0.41786528,-0.2503103,1.4306698,-0.7597129,1.8033793,1.031548,0.34726393,-0.04777102,0.6207401,0.43931842,-0.12264891
0.1,-0.1,0.7999999999999999,0.0,-0.5235987755982988,0,-1.5760212,1.637153,-0.45205793,-0.36728358,-0.2330221,1.450034,-0.73664737,1.8469837,1.0758444,0.4080133,-0.09759856,-0.2547171,0.40394324,0.46842697
0.1,-0.1,0.7999999999999999,0.0,-0.5235987755982988,0,-1.6089278,1.6880486,-0.4119386,-0.3547034,-0.23559958,1.4588783,-0.7135762,1.8467538,1.0439904,0.51554793,-0.062751554,0.07604667,0.8184,-0.23138517
0.1,-0.1,0.7999999999999999,0.0,-0.5235987755982988,0,-1.608385,1.6680679,-0.42758477,-0.36400482,-0.24316467,1.4443588,-0.75478834,1.8294249,1.1166328,0.3633214,-0.09656657,0.113740295,0.7928219,0.694006
0.1,-0.1,0.7999999999999999,0.0,-0.5235987755982988,0,-1.6099913,1.640806,-0.47151873,-0.3634671,-0.22577699,1.4388845,-0.7478589,1.8348832,1.0434244,0.40725362,-0.044352397,0.03755457,0.8134264,0.2314298
0.1,-0.1,0.7999999999999999,0.0,-0.5235987755982988,0,-1.656684,1.6344223,-0.43344647,-0.34463248,-0.24673578,1.4828835,-0.75609183,1.8605591,1.0658679,0.41572666,-0.14544885,-0.28651458,1.1204743,1.0251329
0.1,-0.1,0.7999999999999999,0.0,-0.5235987755982988,0,-1.5748962,1.6588289,-0.4174995,-0.37182862,-0.22870928,1.4673948,-0.73045903,1.8232986,1.0383006,0.33843604,-0.19694738,0.280021,0.6221448,0.15979281
0.1,-0.1,0.7999999999999999,0.0,-0.5235987755982988,0,-1.5581553,1.6703931,-0.40899426,-0.36433893,-0.22993153,1.4552174,-0.74255145,1.8105378,1.010193,0.34417003,-0.13552783,-0.0119042825,1.0949574,0.8923183
0.1,-0.1,0.7999999999999999,0.0,-0.5235987755982988,0,-1.5699192,1.6645107,-0.42404836,-0.37467313,-0.24963014,1.4450779,-0.7900928,1.8733734,1.055872,0.44647828,-0.13123278,0.12886094,1.0964185,0.27344513
0.1,-0.1,0.7999999999999999,0.0,-0.5235987755982988,0,-1.6182605,1.6348591,-0.42350122,-0.38613567,-0.2431145,1.4522216,-0.78421736,1.8635314,1.0213573,0.28937095,-0.071632646,0.25850442,1.2874365,0.5420677
0.1,-0.1,0.7999999999999999,0.0,-0.5235987755982988,0,-1.5855892,1.6543847,-0.40089223,-0.40439722,-0.21914706,1.4672728,-0.7871315,1.8038622,1.0014468,0.37100023,-0.14701344,-0.25725383,0.7300988,0.9114036
0.1,-0.1,0.7999999999999999,0.0,-0.5235987755982988,0,-1.6354115,1.6707495,-0.44262105,-0.38795352,-0.2192342,1.4442809,-0.7240159,1.8270324,0.9870423,0.36364836,-0.18694553,-0.19082835,0.75275356,0.3929595
0.1,-0.1,0.7999999999999999,0.0,-0.5235987755982988,0,-1.591079,1.6439488,-0.39070505,-0.33398715,-0.23525754,1.4716709,-0.80466014,1.805435,1.081332,0.42542434,-0.12061789,0.23435667,0.49976885,0.7287941
0.1,-0.1,0.7999999999999999,0.0,-0.5235987755982988,0,-1.5919924,1.6867625,-0.40600783,-0.37365216,-0.24208483,1.4420358,-0.69019544,1.8109319,1.0295943,0.4217288,-0.08337226,0.24727054,0.49287665,0.75617063
0.1,-0.1,0.7999999999999999,0.0,-0.5235987755982988,0,-1.5626067,1.6555377,-0.41647232,-0.35314512,-0.26227766,1.432882,-0.77820665,1.826144,0.9989024,0.38907763,-0.13252759,0.33883354,1.046244,-0.17749865
0.1,-0.1,0.7999999999999999,0.0,-0.5235987755982988,0,-1.5602275,1.6596053,-0.4472587,-0.37978598,-0.24015921,1.4498897,-0.73727745,1.7982527,0.9555833,0.39890075,-0.123478,0.08877198,0.31507748,-0.532181
0.1,-0.1,0.7999999999999999,0.0,-0.5235987755982988,0,-1.5655739,1.6598113,-0.41440195,-0.36301005,-0.237314,1.4364842,-0.7343595,1.8202493,1.013713,0.3106691,-0.13657087,-0.25818056,0.83230954,-0.263565
0.1,-0.1,0.7999999999999999,0.0,-0.5235987755982988,0,-1.6219566,1.6864663,-0.430292,-0.3799268,-0.25262788,1.457745,-0.70404905,1.841575,0.97645843,0.346218,-0.03485539,-0.03923402,0.42079982,0.52515066
0.1,-0.1,0.7999999999999999,0.0,-0.5235987755982988,0,-1.5334327,1.6250198,-0.41544086,-0.38233295,-0.20687695,1.4580337,-0.74589086,1.8198893,1.0064915,0.35513288,-0.08158583,-0.32102376,0.32545295,0.30202773
0.1,-0.1,0.7999999999999999,0.0,-0.5235987755982988,0,-1.6392413,1.6542628,-0.3863917,-0.39124027,-0.23507439,1.4616629,-0.76817536,1.8315598,1.0242894,0.4057003,-0.028380217,0.41048574,0.3252325,0.4943716
0.1,-0.1,0.7999999999999999,0.0,-0.5235987755982988,0,-1.5929629,1.640498,-0.3817701,-0.36617675,-0.24636894,1.438822,-0.77113855,1.8109022,0.96664006,0.33341593,-0.099302,0.38107684,0.59684634,-0.08119406
0.1,-0.1,0.7999999999999999,0.0,-0.5235987755982988,0,-1.5630043,1.6754663,-0.47020504,-0.36611062,-0.2832455,1.4258659,-0.7908984,1.8109583,0.9841014,0.29293093,-0.08133285,-0.32497483,0.18582189,0.32826266
0.1,-0.1,0.7999999999999999,0.0,-0.5235987755982988,0,-1.626135,1.6423527,-0.404161,-0.3902612,-0.2538249,1.4485314,-0.70040387,1.8238612,0.9939126,0.3398381,-0.11992095,0.14786677,0.8527892,0.8622498
0.1,-0.1,0.7999999999999999,0.0,-0.5235987755982988,0,-1.6366442,1.6518346,-0.44605672,-0.38217878,-0.23909977,1.5020913,-0.7644142,1.8312094,1.0515382,0.33517632,-0.049257327,-0.23633906,1.1063186,0.47232175
0.1,-0.1,0.7999999999999999,0.0,-0.5235987755982988,0,-1.574213,1.6660912,-0.40998957,-0.41065186,-0.23572606,1.4487795,-0.78410983,1.8208889,0.9877635,0.39134207,-0.061071113,0.15208364,1.0296388,0.5716931
0.1,-0.1,0.7999999999999999,0.0,-0.5235987755982988,0,-1.5889255,1.6885296,-0.45823035,-0.40265337,-0.2401127,1.439623,-0.7144982,1.8106042,1.0382383,0.30381963,-0.18106933,-0.5414636,0.4329606,1.1058354
0.1,-0.1,0.7999999999999999,0.0,-0.5235987755982988,0,-1.5940655,1.667643,-0.41727778,-0.39627814,-0.22857411,1.4528794,-0.69668454,1.828931,1.0358377,0.32813355,-0.17886001,-0.5923759,0.6574806,0.2587742
0.1,-0.1,0.7999999999999999,0.0,-0.5235987755982988,0,-1.5989531,1.6458561,-0.43998975,-0.42688712,-0.24954122,1.4412228,-0.7442252,1.8159226,1.021099,0.4244016,-0.1794169,0.45729202,0.51525617,0.68794113
0.1,-0.1,0.7999999999999999,0.0,-0.5235987755982988,0,-1.6468046,1.6361257,-0.44203022,-0.3668211,-0.23327728,1.4410952,-0.7464162,1.7969688,0.99968493,0.3886238,-0.13112196,-0.055493876,0.37316796,0.731221
0.1,-0.1,0.7999999999999999,0.0,-0.5235987755982988,0,-1.565348,1.6814083,-0.4502623,-0.4008425,-0.24191543,1.4359307,-0.7095375,1.8055065,0.995741,0.46636724,-0.099718675,-0.063099176,0.5366651,0.56714284
0.1,-0.1,0.7999999999999999,0.0,-0.5235987755982988,0,-1.576841,1.66624,-0.42951575,-0.4220301,-0.23186588,1.4396137,-0.76618683,1.8045595,1.0112002,0.43361852,-0.17192228,-0.47609657,0.8154096,0.18183064
0.1,-0.1,0.7999999999999999,0.0,-0.5235987755982988,0,-1.6435943,1.65948,-0.431536,-0.35518613,-0.24453464,1.462793,-0.78722227,1.8246166,0.94741327,0.41392288,-0.1055702,0.26720724,0.68628293,0.454233
0.1,-0.1,0.7999999999999999,0.0,-0.5235987755982988,0,-1.6593323,1.6461608,-0.42796957,-0.45326635,-0.2444937,1.4310812,-0.7028596,1.8411446,0.9819727,0.39915717,-0.145442,-0.22604515,1.0025293,1.3783767
0.1,-0.1,0.7999999999999999,0.0,-0.5235987755982988,0,-1.5941349,1.6351484,-0.41358098,-0.34091762,-0.23672497,1.4338455,-0.6581406,1.7978272,1.0008799,0.41051573,-0.20090753,0.056642186,1.1448095,0.24958757
0.1,-0.1,0.7999999999999999,0.0,-0.5235987755982988,0,-1.6407324,1.6529652,-0.42198467,-0.3668345,-0.23922032,1.4677855,-0.6894493,1.8438414,1.0428534,0.3641499,-0.12724139,-0.10777809,0.04354458,0.0066669174
0.1,-0.1,0.7999999999999999,0.0,-0.5235987755982988,0,-1.5887696,1.6761252,-0.42573854,-0.369773,-0.23728313,1.4663459,-0.69813156,1.8318684,1.0514969,0.33472928,-0.1356522,0.03732925,0.55812347,-0.014485231
0.1,-0.1,0.7999999999999999,0.0,-0.5235987755982988,0,-1.6333681,1.6805241,-0.3991432,-0.3832799,-0.22966015,1.4412847,-0.75207627,1.8371236,1.0637319,0.31250185,-0.066937275,-0.002238138,0.5043862,0.4949517
0.1,-0.1,0.7999999999999999,0.0,-0.5235987755982988,0,-1.6129332,1.6764356,-0.4023416,-0.39481315,-0.2359678,1.4632616,-0.7900863,1.7944074,1.0830907,0.37325862,-0.053441577,-0.003909828,0.81204903,1.0239341
0.1,-0.1,0.7999999999999999,0.0,-0.5235987755982988,0,-1.593824,1.6799035,-0.44099373,-0.40270647,-0.21735573,1.4307426,-0.75684553,1.8325331,1.0411223,0.43652344,-0.070931494,-0.0044730543,0.69329625,1.0624375
0.1,-0.1,0.7999999999999999,0.0,-0.5235987755982988,0,-1.6014689,1.6711024,-0.44421062,-0.3816214,-0.21515612,1.4567181,-0.7743533,1.839804,1.0603987,0.4172119,-0.06614393,-0.57188976,0.86951,0.39592886
0.1,-0.1,0.7999999999999999,0.0,-0.5235987755982988,0,-1.5646111,1.66482,-0.43971226,-0.35329124,-0.21435007,1.4559473,-0.7643664,1.8323671,1.0164461,0.38344103,-0.12577847,0.27155867,0.5208927,0.49282238
0.1,-0.1,0.7999999999999999,0.0,-0.5235987755982988,0,-1.625508,1.6466488,-0.44560933,-0.35804892,-0.2466304,1.4398273,-0.6731389,1.8330145,1.0814717,0.38199544,-0.11012957,0.34274593,0.27127346,0.42534965
0.1,-0.1,0.7999999999999999,0.0,-0.5235987755982988,0,-1.6264315,1.669544,-0.4010881,-0.35740754,-0.2309426,1.4453809,-0.6943975,1.8003266,1.0399784,0.35085306,-0.12908481,-0.7167744,0.410436,1.0607971
0.1,-0.1,0.7999999999999999,0.0,-0.5235987755982988,0,-1.5993098,1.6488365,-0.44155887,-0.33730292,-0.26333916,1.4212748,-0.8101869,1.8308437,1.0485206,0.3909592,-0.039634433,0.25885397,0.6594515,0.48448583
0.1,-0.1,0.7999999999999999,0.0,-0.5235987755982988,0,-1.6445732,1.6453781,-0.43543658,-0.34846884,-0.24638359,1.4313325,-0.77542174,1.817741,1.038832,0.44290805,-0.12475072,0.26146013,0.5176879,1.0204651
0.1,-0.1,0.7999999999999999,0.0,-0.5235987755982988,0,-1.6396325,1.6569163,-0.42082286,-0.34578666,-0.22906077,1.4604392,-0.6923141,1.8145651,1.0440403,0.34379137,-0.2166244,-0.041304536,0.26189935,0.6458281
0.1,-0.1,0.7999999999999999,0.0,-0.5235987755982988,0,-1.5838135,1.6824521,-0.45547187,-0.3713148,-0.22996238,1.4410886,-0.7755387,1.8460784,1.0272506,0.39893737,-0.014610725,0.4302923,0.37794566,0.8509292
0.1,-0.1,0.7999999999999999,0.0,-0.5235987755982988,0,-1.588479,1.6796958,-0.44391966,-0.3703943,-0.24512488,1.4763286,-0.72454107,1.8335848,1.0392481,0.35365212,-0.09758567,0.00086876744,0.6309432,0.5325826
0.1,-0.1,0.7999999999999999,0.0,-0.5235987755982988,0,-1.5835313,1.6532867,-0.4520616,-0.35055083,-0.24643542,1.452171,-0.809213,1.8244311,1.0251865,0.43517545,-0.051534653,-0.002900531,0.7326748,0.24289274
0.1,-0.1,0.7999999999999999,0.0,-0.5235987755982988,0,-1.6639832,1.6540508,-0.4281931,-0.39271745,-0.22552164,1.4455801,-0.73476166,1.8335935,1.0060374,0.4075976,0.0039935,-0.33381757,0.8874613,0.9506137
0.1,-0.1,0.7999999999999999,0.0,-0.5235987755982988,0,-1.625855,1.6204737,-0.46455443,-0.36191648,-0.23955496,1.4442577,-0.7406259,1.8411062,0.99733233,0.37746757,-0.008676075,0.016128212,0.6163638,0.23439512
0.1,-0.1,0.7999999999999999,0.0,-0.5235987755982988,0,-1.6000037,1.6783043,-0.47523418,-0.3512939,-0.23029505,1.4303751,-0.7528021,1.8494685,1.0351698,0.43516758,-0.060459394,-0.16440429,0.2908368,0.48130026
0.1,-0.1,0.7999999999999999,0.0,-0.5235987755982988,0,-1.6332539,1.6530439,-0.47084564,-0.36024672,-0.24582411,1.4286112,-0.77890843,1.847281,1.0579792,0.36335427,-0.09852948,-0.22703858,0.6798632,-0.11310734
0.1,-0.1,0.7999999999999999,0.0,-0.5235987755982988,0,-1.6395357,1.6502274,-0.43995836,-0.3886431,-0.23718153,1.4590142,-0.74621576,1.7960311,1.0174363,0.4186023,-0.006914308,0.1972746,0.63788104,0.3665144
0.1,-0.1,0.7999999999999999,0.0,-0.5235987755982988,0,-1.6487354,1.6728138,-0.43432003,-0.3748189,-0.2577186,1.4553281,-0.76899254,1.846302,1.0578698,0.38006577,-0.03714446,0.16003023,0.5282239,0.22459465
0.1,-0.1,0.7999999999999999,0.0,-0.5235987755982988,0,-1.5751147,1.6514392,-0.44079497,-0.36781096,-0.24479209,1.4225643,-0.75921226,1.8229487,1.0284956,0.4466286,-0.13897121,-0.07410403,0.5597903,-0.21040733
0.1,-0.1,0.7999999999999999,0.0,-0.5235987755982988,0,-1.6167578,1.682905,-0.42884728,-0.38460767,-0.23154894,1.4456189,-0.754036,1.815133,1.007562,0.31453317,-0.16270891,0.48608467,0.67996836,0.155185
0.1,-0.1,0.7999999999999999,0.0,-0.5235987755982988,0,-1.5931195,1.6596472,-0.41569605,-0.37133375,-0.23354153,1.4316094,-0.79332006,1.8070992,0.97956556,0.4280806,-0.10033481,0.055359423,0.7442572,0.4535071
0.1,-0.1,0.7999999999999999,0.0,-0.5235987755982988,0,-1.5878973,1.6783708,-0.459544,-0.38322064,-0.22572029,1.4574631,-0.73891324,1.7824662,0.9919194,0.42553887,-0.14735715,-0.09412357,1.1501205,0.64092404
0.1,-0.1,0.7999999999999999,0.0,-0.5235987755982988,0,-1.6205477,1.6432148,-0.4495773,-0.37739268,-0.22801305,1.4143643,-0.7545153,1.7986985,1.0091985,0.42809576,-0.17416884,-0.26154843,1.3149157,0.2981855
0.1,-0.1,0.7999999999999999,0.0,-0.5235987755982988,0,-1.5810066,1.651098,-0.48988616,-0.34675163,-0.21527001,1.4191351,-0.7321896,1.8178384,0.98622984,0.32111114,-0.14748769,-0.32439235,0.3722735,0.68287724
0.1,-0.1,0.7999999999999999,0.0,-0.5235987755982988,0,-1.6121515,1.6635677,-0.4721865,-0.38419732,-0.23980401,1.461781,-0.7567508,1.8101726,1.0158504,0.47608447,-0.14436384,-0.09465773,0.43249443,0.07475248
0.1,-0.1,0.7999999999999999,0.0,-0.5235987755982988,0,-1.6008669,1.6862525,-0.39194554,-0.39126024,-0.19751354,1.459146,-0.73145926,1.838266,1.0221646,0.4453309,-0.1097176,-0.24322599,0.5251368,-0.44987112
0.1,-0.1,0.7999999999999999,0.0,-0.5235987755982988,0,-1.5934445,1.687816,-0.415494,-0.41555965,-0.22605719,1.4445279,-0.72198445,1.8040605,1.0074868,0.41556,-0.120146915,-0.025398873,0.3344074,0.76197416
0.1,-0.1,0.7999999999999999,0.0,-0.5235987755982988,0,-1.6583365,1.6775231,-0.3686139,-0.44054314,-0.24215402,1.4647597,-0.77372235,1.8385403,1.0050224,0.3419174,-0.08950461,-0.31464088,0.39068097,0.3673473
0.1,-0.1,0.7999999999999999,0.0,-0.5235987755982988,0,-1.5627093,1.6633065,-0.39831477,-0.3767451,-0.22260946,1.4695551,-0.71783054,1.857148,1.0561546,0.46125776,-0.08953072,-0.3303807,0.5915953,0.004972444
0.1,-0.1,0.7999999999999999,0.0,-0.5235987755982988,0,-1.6097597,1.6678227,-0.4011465,-0.4220669,-0.22440296,1.4854491,-0.7344326,1.8120905,1.0384362,0.420033,-0.15387882,0.24098855,0.64004296,0.44926298
0.1,-0.1,0.7999999999999999,0.0,-0.5235987755982988,0,-1.5355452,1.6832328,-0.38898325,-0.34308615,-0.24276184,1.443626,-0.76331025,1.8136868,1.0646306,0.37553307,-0.21022607,-0.2964335,0.43746656,-0.420707
0.1,-0.1,0.7999999999999999,0.0,-0.5235987755982988,0,-1.560525,1.6943862,-0.39659867,-0.3343861,-0.24792048,1.4443264,-0.68369037,1.8319743,0.94249105,0.42929256,-0.021281587,0.17583796,0.8310625,-0.1265222
0.1,-0.1,0.7999999999999999,0.0,-0.5235987755982988,0,-1.6772878,1.6424651,-0.42400193,-0.40565494,-0.24929978,1.4582785,-0.7093572,1.8471302,0.9535171,0.39217186,-0.14093849,0.2440508,0.2562577,-0.277095
0.1,-0.1,0.7999999999999999,0.0,-0.5235987755982988,0,-1.6264181,1.6976994,-0.44640672,-0.41355515,-0.23530337,1.4770567,-0.6867594,1.8219657,0.95166284,0.33955154,-0.12586339,-0.1635438,0.22553512,-0.27149445
0.1,-0.1,0.7999999999999999,0.0,-0.5235987755982988,0,-1.5758528,1.7041409,-0.45474276,-0.35485935,-0.22960643,1.451282,-0.82384306,1.8314655,1.0565782,0.41253775,-0.12140535,-0.0780363,0.44001347,0.70060545
0.1,-0.1,0.7999999999999999,0.0,-0.5235987755982988,0,-1.6693245,1.6773931,-0.43793282,-0.41001692,-0.24050727,1.4437618,-0.71979326,1.8436476,1.0842321,0.42175955,-0.10586885,-0.015176576,0.6771904,0.86233354
0.1,-0.1,0.7999999999999999,0.0,-0.5235987755982988,0,-1.5873734,1.6647716,-0.46313164,-0.36824653,-0.23309359,1.458871,-0.7146325,1.8193315,1.0488319,0.41568828,-0.14679213,-0.28109667,0.43349317,1.0114062
0.1,-0.1,0.7999999999999999,0.0,-0.5235987755982988,0,-1.6483197,1.6536603,-0.40338764,-0.32122222,-0.2363441,1.4272304,-0.75486165,1.7907026,1.0359057,0.34618562,-0.048110843,-0.22998683,0.800789,0.32798296
0.1,-0.1,0.7999999999999999,0.0,-0.5235987755982988,0,-1.5854715,1.6778182,-0.42651957,-0.38184255,-0.2422875,1.443695,-0.7509761,1.8663176,1.0190787,0.36833015,-0.100429766,-0.47881505,0.77684975,0.47565165
0.1,-0.1,0.7999999999999999,0.0,-0.5235987755982988,0,-1.6389735,1.6939268,-0.4212679,-0.39380887,-0.21269608,1.4984288,-0.8165332,1.8059571,1.0129547,0.4280331,-0.09629848,-0.4411685,0.885271,0.57253754
0.1,-0.1,0.7999999999999999,0.0,-0.5235987755982988,0,-1.6619015,1.637022,-0.40354308,-0.3668466,-0.25477716,1.4343123,-0.72947204,1.8116199,1.0291207,0.38731673,-0.09003804,0.030194774,0.17435507,1.3035835
0.1,-0.1,0.7999999999999999,0.0,-0.5235987755982988,0,-1.6091462,1.6675842,-0.44414258,-0.35593632,-0.23054114,1.424853,-0.7740432,1.831467,1.0555507,0.29281273,-0.121002324,-0.2929498,0.71355325,0.4983837
0.1,-0.1,0.7999999999999999,0.0,-0.5235987755982988,0,-1.5678393,1.6783724,-0.45580262,-0.3627971,-0.24399415,1.4695648,-0.74126524,1.8123173,1.0372105,0.402457,-0.103189275,0.007429619,0.74487054,0.70264554
0.1,-0.1,0.7999999999999999,0.0,-0.5235987755982988,0,-1.5736922,1.6814346,-0.46198505,-0.3449937,-0.23904566,1.4536994,-0.7710047,1.8186576,1.045048,0.3683558,-0.11694839,0.22747515,0.91532,0.4119404
0.1,-0.1,0.7999999999999999,0.0,-0.5235987755982988,0,-1.6045473,1.682411,-0.44885275,-0.3829311,-0.23040338,1.4627626,-0.75185317,1.8413554,1.0631247,0.28582484,-0.07254105,0.008356794,1.0018506,0.11741397
0.1,-0.1,0.7999999999999999,0.0,-0.5235987755982988,0,-1.642855,1.6446023,-0.4418612,-0.35691538,-0.24041931,1.4263349,-0.7505059,1.8134753,1.0337821,0.2857097,-0.07041029,0.14941828,0.5766596,0.29044804
0.1,-0.1,0.7999999999999999,0.0,-0.5235987755982988,0,-1.6396018,1.6345059,-0.44435087,-0.36133057,-0.23438624,1.4615854,-0.79643977,1.8140104,0.90761864,0.3586392,-0.039830785,-0.19413309,0.82307875,0.44872436
0.1,-0.1,0.7999999999999999,0.0,-0.5235987755982988,0,-1.6020344,1.6630385,-0.43548232,-0.3781051,-0.23954293,1.4519689,-0.74618906,1.7993174,0.98618054,0.40153965,-0.07435397,-0.1781892,0.90065026,1.1534699
0.1,-0.1,0.7999999999999999,0.0,-0.5235987755982988,0,-1.6033584,1.6978722,-0.45275345,-0.383502,-0.2538989,1.4493237,-0.73649555,1.8219689,0.9744755,0.39319107,-0.031934265,-0.06360737,0.87926364,-0.29458767
0.1,-0.1,0.7999999999999999,0.0,-0.5235987755982988,0,-1.6066232,1.6552715,-0.3547375,-0.33227268,-0.2599133,1.4654379,-0.7275993,1.8325698,1.0502164,0.33471924,-0.2644018,-0.14056897,1.123365,0.6037757
0.1,-0.1,0.7999999999999999,0.0,-0.5235987755982988,0,-1.5809468,1.7200544,-0.40400028,-0.3596064,-0.2530034,1.4403881,-0.7210069,1.8584645,1.0379475,0.30745494,-0.15042606,-0.12735365,0.6269868,0.3393569
0.1,-0.1,0.7999999999999999,0.0,-0.5235987755982988,0,-1.6153877,1.6934623,-0.42162848,-0.39474863,-0.26410908,1.4248726,-0.82578707,1.8427742,0.9867719,0.40099344,-0.12926461,-0.23455055,0.11423911,0.17510606
0.1,-0.1,0.7999999999999999,0.0,-0.5235987755982988,0,-1.5755825,1.7054094,-0.42879683,-0.3724879,-0.24314198,1.4401673,-0.7496776,1.835551,0.9609892,0.42923325,-0.048079923,-0.718028,0.9630395,1.2141558
0.1,-0.1,0.7999999999999999,0.0,-0.5235987755982988,0,-1.5917487,1.6388208,-0.45929998,-0.36317062,-0.2255825,1.429839,-0.68975204,1.8108516,0.9997551,0.33304036,-0.19778694,-0.03585561,0.6293692,1.4242717
0.1,-0.1,0.7999999999999999,0.0,-0.5235987755982988,0,-1.6283615,1.6497293,-0.41118363,-0.3665117,-0.25867197,1.4598682,-0.7307341,1.8245044,0.9623622,0.45174035,-0.12537634,0.25876367,0.82731676,0.13012469
0.1,-0.1,0.7999999999999999,0.0,-0.5235987755982988,0,-1.6215233,1.6675493,-0.4151036,-0.33765852,-0.25390804,1.4601077,-0.7408132,1.818265,0.962697,0.34486216,-0.1675258,-0.33508146,0.6592791,0.6543713
0.1,-0.1,0.7999999999999999,0.0,-0.5235987755982988,0,-1.6284891,1.6637493,-0.41998023,-0.3559635,-0.24032788,1.4559909,-0.7775655,1.8118496,1.0498292,0.36315173,-0.17417341,-0.3315428,0.76071537,0.8868363
0.1,-0.1,0.7999999999999999,0.0,-0.5235987755982988,0,-1.6133913,1.6857358,-0.4080657,-0.35915524,-0.21790399,1.4596068,-0.79842407,1.823024,1.0400257,0.38730496,-0.13273078,0.64793694,1.1355252,0.07877618
0.1,-0.1,0.7999999999999999,0.0,-0.5235987755982988,0,-1.6115615,1.6892563,-0.45451215,-0.38210285,-0.23985302,1.481851,-0.77309084,1.8550929,1.022768,0.40196672,-0.11546368,-0.0033740764,0.468587,0.5856537
0.1,-0.1,0.7999999999999999,0.0,-0.5235987755982988,0,-1.6160978,1.6649843,-0.44404802,-0.37282914,-0.22818574,1.4563688,-0.82520556,1.842877,1.0276501,0.35991234,-0.053697456,-0.7943289,0.66628724,0.2278033
