sanky1234/BimanualDexCatch/isaacgymenvs/cem_results/football_pose_-0.2_-0.2_0.6_-0.5235987755982988_1.1102230246251565e-16_0.523598775598299.csv
x,y,z,roll,pitch,yaw,robot1/joint1,robot1/joint2,robot1/joint3,robot1/joint4,robot1/joint5,robot1/joint6,robot1/joint7,robot2/joint1,robot2/joint2,robot2/joint3,robot2/joint4,robot2/joint5,robot2/joint6,robot2/joint7
-0.2,-0.2,0.6,-0.5235987755982988,1.1102230246251565e-16,0.523598775598299,1.2432851,1.7095089,0.24358307,0.3268843,0.53776234,0.451263,0.10675849,-0.2719726,1.591445,-0.47729394,-0.73964214,-0.23964038,1.2950732,1.358861
-0.2,-0.2,0.6,-0.5235987755982988,1.1102230246251565e-16,0.523598775598299,1.2517037,1.7091415,0.24432194,0.32742214,0.4876502,0.45619175,0.09038116,-0.27297103,1.5929058,-0.4769861,-0.73639745,-0.24546972,1.295953,1.3587301
-0.2,-0.2,0.6,-0.5235987755982988,1.1102230246251565e-16,0.523598775598299,1.2560636,1.711262,0.24192056,0.33001944,0.505379,0.45479617,0.08802697,-0.27155885,1.5916928,-0.48039767,-0.7377667,-0.25048807,1.2942226,1.3395752
-0.2,-0.2,0.6,-0.5235987755982988,1.1102230246251565e-16,0.523598775598299,1.2405615,1.7101083,0.24527662,0.32931828,0.48789796,0.4533031,0.10891651,-0.27109984,1.5909145,-0.47880626,-0.7388238,-0.26355997,1.2962902,1.3113122
-0.2,-0.2,0.6,-0.5235987755982988,1.1102230246251565e-16,0.523598775598299,1.2465763,1.7113043,0.24153993,0.32851186,0.51037246,0.45324677,0.1537943,-0.27086213,1.5912584,-0.46557552,-0.7367345,-0.24104674,1.297288,1.2887015
-0.2,-0.2,0.6,-0.5235987755982988,1.1102230246251565e-16,0.523598775598299,1.247775,1.710809,0.24435543,0.32821217,0.47183913,0.4527654,0.022515764,-0.27208906,1.5914593,-0.47183895,-0.7377316,-0.21429792,1.2970098,1.4131233
-0.2,-0.2,0.6,-0.5235987755982988,1.1102230246251565e-16,0.523598775598299,1.2423825,1.7099897,0.24232489,0.328413,0.56419253,0.44925714,0.12446593,-0.27201328,1.5919703,-0.46428356,-0.7375039,-0.27110323,1.296579,1.4467574
-0.2,-0.2,0.6,-0.5235987755982988,1.1102230246251565e-16,0.523598775598299,1.2454756,1.7078568,0.24339995,0.330751,0.4858146,0.45433825,0.121443525,-0.27176479,1.5927926,-0.47028062,-0.7381929,-0.25282276,1.2943629,1.3206165
-0.2,-0.2,0.6,-0.5235987755982988,1.1102230246251565e-16,0.523598775598299,1.2413408,1.708939,0.2478076,0.3322348,0.5218615,0.4548998,0.116202906,-0.2732548,1.5920324,-0.47106653,-0.7369842,-0.25850686,1.2950176,1.3700947
-0.2,-0.2,0.6,-0.5235987755982988,1.1102230246251565e-16,0.523598775598299,1.2525615,1.707596,0.24637644,0.3302572,0.5111203,0.4529067,0.15051521,-0.27125102,1.591776,-0.4692516,-0.7370875,-0.26774976,1.2958766,1.4289813
-0.2,-0.2,0.6,-0.5235987755982988,1.1102230246251565e-16,0.523598775598299,1.2523369,1.7096695,0.24538386,0.33031705,0.50349826,0.45407495,0.06310183,-0.2713556,1.5925065,-0.47571567,-0.73916477,-0.26015353,1.2978593,1.4373322
-0.2,-0.2,0.6,-0.5235987755982988,1.1102230246251565e-16,0.523598775598299,1.2520269,1.7133796,0.24275136,0.32781056,0.49767354,0.45459372,0.13259992,-0.27214456,1.5912068,-0.4749949,-0.739791,-0.2538623,1.292746,1.3992388
-0.2,-0.2,0.6,-0.5235987755982988,1.1102230246251565e-16,0.523598775598299,1.2471486,1.7094578,0.24212033,0.32990596,0.48040086,0.4571477,0.13180566,-0.27105016,1.5910149,-0.46823648,-0.73768044,-0.26135686,1.2994047,1.2283818
-0.2,-0.2,0.6,-0.5235987755982988,1.1102230246251565e-16,0.523598775598299,1.2471243,1.7098664,0.24349658,0.32802835,0.4978588,0.4542449,0.16033675,-0.26957098,1.5916538,-0.47036314,-0.7389757,-0.25206625,1.2960728,1.3042142
-0.2,-0.2,0.6,-0.5235987755982988,1.1102230246251565e-16,0.523598775598299,1.2491235,1.7120556,0.24447204,0.3282694,0.5191867,0.4515564,0.08200734,-0.2714763,1.591406,-0.4694358,-0.7393588,-0.25778806,1.2953813,1.315654
-0.2,-0.2,0.6,-0.5235987755982988,1.1102230246251565e-16,0.523598775598299,1.2477151,1.709577,0.24280885,0.3272243,0.5136435,0.45563447,0.032792963,-0.271785,1.5918252,-0.4703207,-0.7369446,-0.23236798,1.296263,1.4046508
-0.2,-0.2,0.6,-0.5235987755982988,1.1102230246251565e-16,0.523598775598299,1.2457952,1.7091092,0.24357809,0.32713556,0.506861,0.45284438,0.1328531,-0.27143866,1.5909935,-0.47818068,-0.7389461,-0.2533085,1.2951322,1.2712111
-0.2,-0.2,0.6,-0.5235987755982988,1.1102230246251565e-16,0.523598775598299,1.2509183,1.7106307,0.24395114,0.32850575,0.53743464,0.45488623,0.08014436,-0.27009872,1.5919276,-0.4743576,-0.73623407,-0.26534763,1.2951589,1.2412171
-0.2,-0.2,0.6,-0.5235987755982988,1.1102230246251565e-16,0.523598775598299,1.2510489,1.7054049,0.24596307,0.32767957,0.5309223,0.45749253,0.16135104,-0.27102944,1.5925899,-0.47605577,-0.7379732,-0.24440612,1.2992948,1.3007168
-0.2,-0.2,0.6,-0.5235987755982988,1.1102230246251565e-16,0.523598775598299,1.246851,1.7119135,0.24557422,0.3264267,0.50846595,0.4569459,0.06822781,-0.27039763,1.5915678,-0.47580588,-0.7377894,-0.2450459,1.2949932,1.3975495
-0.2,-0.2,0.6,-0.5235987755982988,1.1102230246251565e-16,0.523598775598299,1.2446386,1.7094944,0.2434304,0.33002344,0.5060009,0.45391607,0.09699935,-0.2711968,1.5918872,-0.47384334,-0.739867,-0.2595782,1.2906812,1.2972438
-0.2,-0.2,0.6,-0.5235987755982988,1.1102230246251565e-16,0.523598775598299,1.2463098,1.7077,0.24568257,0.32779634,0.4745243,0.452637,0.02203962,-0.27129644,1.5915964,-0.47420824,-0.7385114,-0.2510285,1.2959602,1.2834051
-0.2,-0.2,0.6,-0.5235987755982988,1.1102230246251565e-16,0.523598775598299,1.244573,1.7121571,0.2428489,0.32687524,0.5226213,0.44988483,0.14802316,-0.27125275,1.5907348,-0.47293997,-0.7361036,-0.24608439,1.2909782,1.4086522
-0.2,-0.2,0.6,-0.5235987755982988,1.1102230246251565e-16,0.523598775598299,1.2369046,1.7106627,0.24294862,0.3268803,0.53320926,0.45183578,0.110432655,-0.27189344,1.591163,-0.47297058,-0.7378799,-0.24273165,1.2939136,1.349892
-0.2,-0.2,0.6,-0.5235987755982988,1.1102230246251565e-16,0.523598775598299,1.250169,1.7112415,0.24580935,0.32921356,0.51554906,0.4529606,0.08007197,-0.2707848,1.5914586,-0.47077927,-0.7384687,-0.26022887,1.295708,1.4020382
-0.2,-0.2,0.6,-0.5235987755982988,1.1102230246251565e-16,0.523598775598299,1.2394154,1.7108513,0.244451,0.327613,0.52738553,0.45027393,0.07272225,-0.27154914,1.5918573,-0.47446182,-0.7389249,-0.23686567,1.2981783,1.3984668
-0.2,-0.2,0.6,-0.5235987755982988,1.1102230246251565e-16,0.523598775598299,1.2413967,1.7082818,0.24507694,0.32886332,0.50449723,0.45062935,0.061759837,-0.27112013,1.5912281,-0.4773196,-0.7390435,-0.2640196,1.2979515,1.2349951
-0.2,-0.2,0.6,-0.5235987755982988,1.1102230246251565e-16,0.523598775598299,1.2465155,1.7093669,0.24321647,0.32996807,0.51073366,0.45145655,0.08910949,-0.2707014,1.5911982,-0.46396238,-0.739625,-0.2703101,1.296025,1.3794842
-0.2,-0.2,0.6,-0.5235987755982988,1.1102230246251565e-16,0.523598775598299,1.2388602,1.7125068,0.24382019,0.32702285,0.46482974,0.45826295,0.034967892,-0.27225143,1.5914637,-0.46819487,-0.7384963,-0.25322968,1.2917053,1.3940967
-0.2,-0.2,0.6,-0.5235987755982988,1.1102230246251565e-16,0.523598775598299,1.2452133,1.7110964,0.24373275,0.32590425,0.5400051,0.45321763,0.12507339,-0.27340382,1.5912312,-0.4721834,-0.7389483,-0.26687402,1.2969649,1.3317915
-0.2,-0.2,0.6,-0.5235987755982988,1.1102230246251565e-16,0.523598775598299,1.2455852,1.7076246,0.24508865,0.32908684,0.5088954,0.455454,0.10022692,-0.2729182,1.5929791,-0.4696759,-0.738582,-0.22573186,1.2962239,1.4425293
-0.2,-0.2,0.6,-0.5235987755982988,1.1102230246251565e-16,0.523598775598299,1.2441806,1.7123655,0.24614064,0.32896742,0.51740813,0.4504064,0.11434955,-0.27026516,1.5928906,-0.47415522,-0.73659796,-0.23587671,1.2960868,1.3317757
-0.2,-0.2,0.6,-0.5235987755982988,1.1102230246251565e-16,0.523598775598299,1.244993,1.7098637,0.24395843,0.32983536,0.5227318,0.45067868,0.07457953,-0.2720067,1.5922043,-0.4790425,-0.7383638,-0.23875186,1.2972012,1.25559
-0.2,-0.2,0.6,-0.5235987755982988,1.1102230246251565e-16,0.523598775598299,1.2503626,1.7093966,0.24177775,0.32874882,0.5271306,0.4574972,0.15420316,-0.27193254,1.5922486,-0.47408274,-0.73823804,-0.2563095,1.2947788,1.34991
-0.2,-0.2,0.6,-0.5235987755982988,1.1102230246251565e-16,0.523598775598299,1.2529894,1.711363,0.24664967,0.33023658,0.51751417,0.45224983,0.08816589,-0.27312014,1.5912318,-0.47661,-0.7371608,-0.26684177,1.2941239,1.3283552
-0.2,-0.2,0.6,-0.5235987755982988,1.1102230246251565e-16,0.523598775598299,1.2479879,1.7114445,0.24395183,0.32895225,0.5197063,0.4519568,0.06723199,-0.27151906,1.5928706,-0.4690948,-0.73943853,-0.23888902,1.296235,1.3559132
-0.2,-0.2,0.6,-0.5235987755982988,1.1102230246251565e-16,0.523598775598299,1.2588977,1.7125676,0.24519472,0.32664332,0.5003312,0.4497201,0.111124575,-0.27161694,1.5904615,-0.47947693,-0.7376789,-0.24284929,1.2948487,1.4604532
-0.2,-0.2,0.6,-0.5235987755982988,1.1102230246251565e-16,0.523598775598299,1.2356874,1.7095474,0.244219,0.32914117,0.51216364,0.4551376,0.14176382,-0.27128863,1.5913954,-0.4670073,-0.73790556,-0.24420552,1.2977196,1.3359649
-0.2,-0.2,0.6,-0.5235987755982988,1.1102230246251565e-16,0.523598775598299,1.2477802,1.7069271,0.2442853,0.32678473,0.5492911,0.4503671,0.06196701,-0.27236363,1.5913448,-0.46859586,-0.7380894,-0.2636786,1.2939636,1.4190941
-0.2,-0.2,0.6,-0.5235987755982988,1.1102230246251565e-16,0.523598775598299,1.2464958,1.7116742,0.24390003,0.32721013,0.49726117,0.45516476,0.13811821,-0.2714453,1.5911132,-0.47248802,-0.7378659,-0.24809653,1.295132,1.4256274
-0.2,-0.2,0.6,-0.5235987755982988,1.1102230246251565e-16,0.523598775598299,1.2499044,1.7100372,0.2436382,0.32852793,0.50907475,0.45380306,0.09939319,-0.2718569,1.5902269,-0.47026813,-0.73749936,-0.25313586,1.296144,1.3824896
-0.2,-0.2,0.6,-0.5235987755982988,1.1102230246251565e-16,0.523598775598299,1.2506372,1.7115568,0.24433795,0.32873264,0.52087116,0.45240417,0.10209829,-0.27327543,1.5911652,-0.46634153,-0.7371531,-0.25135437,1.2969191,1.2231705
-0.2,-0.2,0.6,-0.5235987755982988,1.1102230246251565e-16,0.523598775598299,1.2565361,1.7118105,0.24452338,0.32977718,0.54089546,0.44733322,0.14051822,-0.272318,1.59252,-0.47778562,-0.7396486,-0.25402796,1.2982913,1.3806963
-0.2,-0.2,0.6,-0.5235987755982988,1.1102230246251565e-16,0.523598775598299,1.2486526,1.7123563,0.24473776,0.32800198,0.50087136,0.4540255,0.13551365,-0.27055728,1.5918458,-0.4792417,-0.73801196,-0.25355878,1.2957461,1.352209
-0.2,-0.2,0.6,-0.5235987755982988,1.1102230246251565e-16,0.523598775598299,1.2492965,1.7098347,0.2476879,0.32777822,0.5160695,0.45077866,0.09541952,-0.2724761,1.5927399,-0.4737203,-0.7368517,-0.20777336,1.2975078,1.2872055
-0.2,-0.2,0.6,-0.5235987755982988,1.1102230246251565e-16,0.523598775598299,1.2569549,1.708819,0.24364524,0.3301863,0.51333374,0.45311588,0.039604533,-0.27091637,1.5920897,-0.47741517,-0.73709536,-0.26196176,1.2982038,1.4774398
-0.2,-0.2,0.6,-0.5235987755982988,1.1102230246251565e-16,0.523598775598299,1.2495713,1.7087492,0.24573968,0.32506156,0.4717543,0.45413014,0.046692904,-0.2706032,1.5914152,-0.46885866,-0.73594934,-0.26946476,1.293219,1.3489432
-0.2,-0.2,0.6,-0.5235987755982988,1.1102230246251565e-16,0.523598775598299,1.244158,1.7096149,0.24364811,0.32873216,0.473876,0.455443,0.1186132,-0.27040848,1.5928128,-0.47223777,-0.7383588,-0.24137789,1.2968104,1.3973602
-0.2,-0.2,0.6,-0.5235987755982988,1.1102230246251565e-16,0.523598775598299,1.2553447,1.7110701,0.24399847,0.3278248,0.5084656,0.4552071,0.10780699,-0.27156535,1.5917312,-0.46982372,-0.73895293,-0.2695585,1.2923684,1.3507643
-0.2,-0.2,0.6,-0.5235987755982988,1.1102230246251565e-16,0.523598775598299,1.2450507,1.7104566,0.2437508,0.32748708,0.49476492,0.44899613,0.09660296,-0.2723732,1.5921686,-0.46989283,-0.7392294,-0.2224271,1.296713,1.2863754
-0.2,-0.2,0.6,-0.5235987755982988,1.1102230246251565e-16,0.523598775598299,1.2481986,1.7076807,0.24446522,0.3261486,0.49022484,0.45110616,0.14214018,-0.2716476,1.592195,-0.46672505,-0.73854804,-0.2531851,1.2946365,1.3108927
-0.2,-0.2,0.6,-0.5235987755982988,1.1102230246251565e-16,0.523598775598299,1.2483741,1.7073803,0.24484749,0.32747677,0.51613545,0.45315027,0.09866776,-0.26983416,1.592133,-0.47207522,-0.73757833,-0.24163641,1.296176,1.385923
-0.2,-0.2,0.6,-0.5235987755982988,1.1102230246251565e-16,0.523598775598299,1.2501261,1.7091386,0.24236017,0.33013627,0.5257785,0.45643902,0.12042045,-0.27275845,1.5915339,-0.47805473,-0.7367678,-0.24837872,1.2946169,1.4096197
-0.2,-0.2,0.6,-0.5235987755982988,1.1102230246251565e-16,0.523598775598299,1.2486422,1.7089386,0.24227725,0.32858238,0.52776873,0.44600523,0.12094043,-0.27163276,1.5909766,-0.46614692,-0.7363932,-0.24843775,1.2967839,1.2998139
-0.2,-0.2,0.6,-0.5235987755982988,1.1102230246251565e-16,0.523598775598299,1.2495223,1.7112356,0.24504194,0.3284582,0.53264415,0.45453495,0.041532174,-0.27122298,1.591357,-0.47335663,-0.736877,-0.23584719,1.2955912,1.3719068
-0.2,-0.2,0.6,-0.5235987755982988,1.1102230246251565e-16,0.523598775598299,1.2467047,1.7100154,0.24382308,0.32888418,0.49272794,0.44918913,0.1266216,-0.27237058,1.5908029,-0.47412556,-0.7386672,-0.22379777,1.2988842,1.3829275
-0.2,-0.2,0.6,-0.5235987755982988,1.1102230246251565e-16,0.523598775598299,1.2455325,1.7130502,0.2439407,0.3253692,0.5058579,0.45451283,0.112869635,-0.27176985,1.5911891,-0.4716706,-0.7376271,-0.25522006,1.294635,1.4018347
-0.2,-0.2,0.6,-0.5235987755982988,1.1102230246251565e-16,0.523598775598299,1.2515721,1.7087458,0.24261925,0.3281999,0.5389705,0.45487583,0.13713841,-0.27038476,1.5919449,-0.47102123,-0.739003,-0.25293514,1.2955173,1.3643801
-0.2,-0.2,0.6,-0.5235987755982988,1.1102230246251565e-16,0.523598775598299,1.2493644,1.7083565,0.2431313,0.32861888,0.50550205,0.45426333,0.071391664,-0.27112424,1.5914464,-0.47078437,-0.73824215,-0.23305307,1.293211,1.3165009
-0.2,-0.2,0.6,-0.5235987755982988,1.1102230246251565e-16,0.523598775598299,1.2541243,1.7076255,0.24254978,0.32933772,0.5202201,0.45799944,0.13601385,-0.2710395,1.5919427,-0.47176808,-0.7380423,-0.26521552,1.2951149,1.322165
-0.2,-0.2,0.6,-0.5235987755982988,1.1102230246251565e-16,0.523598775598299,1.2435446,1.7108076,0.24405158,0.32887176,0.50479245,0.4504299,0.06533071,-0.27180064,1.5910914,-0.47775912,-0.73890436,-0.2502777,1.2966614,1.2676799
-0.2,-0.2,0.6,-0.5235987755982988,1.1102230246251565e-16,0.523598775598299,1.2484154,1.7091414,0.24484721,0.32836345,0.50478005,0.45018196,0.12157878,-0.27224174,1.5904914,-0.46996483,-0.73798877,-0.245673,1.2966098,1.3614583
-0.2,-0.2,0.6,-0.5235987755982988,1.1102230246251565e-16,0.523598775598299,1.256184,1.7107809,0.24447712,0.32858866,0.5279475,0.45226607,0.11451973,-0.2710255,1.5925121,-0.47522202,-0.7377488,-0.24739034,1.3011441,1.3261764
-0.2,-0.2,0.6,-0.5235987755982988,1.1102230246251565e-16,0.523598775598299,1.2482947,1.7125468,0.24148783,0.32785478,0.50584996,0.4516997,0.07895169,-0.2711855,1.5924734,-0.471429,-0.73947644,-0.24440129,1.2967211,1.3273753
-0.2,-0.2,0.6,-0.5235987755982988,1.1102230246251565e-16,0.523598775598299,1.2468455,1.7092263,0.24487968,0.32789385,0.5017823,0.45534942,0.0406901,-0.27230436,1.5923941,-0.46964633,-0.73822635,-0.26119262,1.2952765,1.4063964
-0.2,-0.2,0.6,-0.5235987755982988,1.1102230246251565e-16,0.523598775598299,1.2426106,1.7089959,0.24636647,0.32804346,0.519654,0.45740253,0.16499196,-0.2720014,1.5916071,-0.47772276,-0.7391358,-0.24608465,1.2960777,1.3644298
-0.2,-0.2,0.6,-0.5235987755982988,1.1102230246251565e-16,0.523598775598299,1.246357,1.709968,0.24589221,0.329576,0.48495722,0.4532116,0.072700016,-0.27205002,1.5907123,-0.4718557,-0.73714733,-0.26996303,1.2951155,1.3495196
-0.2,-0.2,0.6,-0.5235987755982988,1.1102230246251565e-16,0.523598775598299,1.2476358,1.7117202,0.24560477,0.33033487,0.4716258,0.44908047,0.09215124,-0.2728339,1.5916816,-0.4707241,-0.7392676,-0.25072765,1.2990654,1.241716
-0.2,-0.2,0.6,-0.5235987755982988,1.1102230246251565e-16,0.523598775598299,1.2411977,1.7105211,0.24568233,0.32710284,0.517984,0.45500174,0.13334145,-0.27106777,1.5924065,-0.47731757,-0.7378396,-0.26269692,1.2925575,1.474935
-0.2,-0.2,0.6,-0.5235987755982988,1.1102230246251565e-16,0.523598775598299,1.2561479,1.7101032,0.24267097,0.32730666,0.5302278,0.4564206,-0.003136961,-0.27258247,1.5922136,-0.46718204,-0.7376626,-0.23802134,1.2933618,1.3966182
-0.2,-0.2,0.6,-0.5235987755982988,1.1102230246251565e-16,0.523598775598299,1.2542531,1.7102307,0.24402915,0.3281018,0.52997816,0.45232597,-0.011742122,-0.2717457,1.5911506,-0.47296414,-0.7378083,-0.24840274,1.2960957,1.3273548
-0.2,-0.2,0.6,-0.5235987755982988,1.1102230246251565e-16,0.523598775598299,1.2449331,1.7142018,0.24596111,0.3265191,0.5283044,0.4498892,0.1135998,-0.27144495,1.5915285,-0.47219944,-0.7380848,-0.26080066,1.2937219,1.4031903
-0.2,-0.2,0.6,-0.5235987755982988,1.1102230246251565e-16,0.523598775598299,1.252563,1.7102987,0.24250314,0.32755724,0.48930132,0.44927838,0.06164575,-0.27150497,1.5919238,-0.4707255,-0.7380343,-0.23495676,1.2927276,1.3370206
-0.2,-0.2,0.6,-0.5235987755982988,1.1102230246251565e-16,0.523598775598299,1.251182,1.7107486,0.24351588,0.32761922,0.51638126,0.4519489,0.10575914,-0.27115288,1.5916876,-0.48384094,-0.73873466,-0.27098256,1.2980188,1.5136905
-0.2,-0.2,0.6,-0.5235987755982988,1.1102230246251565e-16,0.523598775598299,1.2539915,1.7103416,0.24396873,0.32777193,0.47747585,0.4541154,0.054046955,-0.27188724,1.5910388,-0.46687898,-0.7381546,-0.24396066,1.2940766,1.4318783
-0.2,-0.2,0.6,-0.5235987755982988,1.1102230246251565e-16,0.523598775598299,1.2504431,1.709649,0.24715963,0.3282328,0.5112772,0.4514195,0.11872453,-0.27285662,1.5915811,-0.47168335,-0.74012923,-0.2643282,1.2966181,1.3461543
-0.2,-0.2,0.6,-0.5235987755982988,1.1102230246251565e-16,0.523598775598299,1.2480497,1.7097777,0.24509896,0.32899037,0.50282097,0.4541181,0.07294713,-0.2712671,1.5911151,-0.46626082,-0.737754,-0.26949766,1.2971752,1.3609014
-0.2,-0.2,0.6,-0.5235987755982988,1.1102230246251565e-16,0.523598775598299,1.2480217,1.7080549,0.2439138,0.3258125,0.50522685,0.45391986,0.060677268,-0.2725909,1.590997,-0.46979782,-0.73887146,-0.23987485,1.2952614,1.276054
-0.2,-0.2,0.6,-0.5235987755982988,1.1102230246251565e-16,0.523598775598299,1.2510316,1.7101519,0.24362536,0.32535595,0.48256725,0.45857355,0.15133959,-0.270906,1.5907117,-0.46959803,-0.7380877,-0.24605976,1.2925483,1.3572322
-0.2,-0.2,0.6,-0.5235987755982988,1.1102230246251565e-16,0.523598775598299,1.2463659,1.7136722,0.24374102,0.32715753,0.5029702,0.4535494,0.06488542,-0.2716538,1.5916561,-0.47892022,-0.7390416,-0.2513596,1.2944427,1.4008344
-0.2,-0.2,0.6,-0.5235987755982988,1.1102230246251565e-16,0.523598775598299,1.2497793,1.7104957,0.24424294,0.32697058,0.51440984,0.45973474,0.09183015,-0.27144307,1.5925046,-0.4715752,-0.738243,-0.24711889,1.2971971,1.3606201
-0.2,-0.2,0.6,-0.5235987755982988,1.1102230246251565e-16,0.523598775598299,1.2480282,1.7086183,0.2453775,0.33196956,0.5064402,0.44820097,0.11513365,-0.27079824,1.591169,-0.46823436,-0.7382367,-0.24322641,1.2945344,1.4165963
-0.2,-0.2,0.6,-0.5235987755982988,1.1102230246251565e-16,0.523598775598299,1.2513511,1.7106564,0.24535786,0.3287404,0.47190055,0.45478305,0.106902264,-0.27075472,1.592247,-0.47028372,-0.7374084,-0.24727811,1.296945,1.3805128
-0.2,-0.2,0.6,-0.5235987755982988,1.1102230246251565e-16,0.523598775598299,1.2483336,1.7096306,0.24561767,0.32766291,0.4937101,0.45518404,0.063658714,-0.2742624,1.5912557,-0.47477534,-0.73795587,-0.24742973,1.2969593,1.426999
-0.2,-0.2,0.6,-0.5235987755982988,1.1102230246251565e-16,0.523598775598299,1.2437917,1.7111853,0.24612847,0.32757542,0.53159684,0.45670897,0.0717136,-0.27120534,1.5910488,-0.4765043,-0.7382721,-0.2565511,1.2941347,1.2789706
-0.2,-0.2,0.6,-0.5235987755982988,1.1102230246251565e-16,0.523598775598299,1.2506034,1.7109869,0.24254185,0.3269663,0.52772635,0.4517392,0.07399409,-0.27373695,1.5923193,-0.46916398,-0.73792106,-0.24811317,1.2971426,1.2679853
-0.2,-0.2,0.6,-0.5235987755982988,1.1102230246251565e-16,0.523598775598299,1.251273,1.7096286,0.24203883,0.32818815,0.4809442,0.4582039,0.0017281362,-0.27116284,1.5918125,-0.4681128,-0.73816127,-0.24867962,1.292953,1.3364474
-0.2,-0.2,0.6,-0.5235987755982988,1.1102230246251565e-16,0.523598775598299,1.2437503,1.7104678,0.2444486,0.32820508,0.5466322,0.45864776,0.08486149,-0.27183345,1.5917375,-0.47013104,-0.73767066,-0.26454422,1.2979246,1.3927493
-0.2,-0.2,0.6,-0.5235987755982988,1.1102230246251565e-16,0.523598775598299,1.2458522,1.7103614,0.24196078,0.32541487,0.5106072,0.4586959,0.10160373,-0.27235392,1.591681,-0.47801834,-0.7379592,-0.2778018,1.2936537,1.3040336
-0.2,-0.2,0.6,-0.5235987755982988,1.1102230246251565e-16,0.523598775598299,1.2466934,1.7103871,0.2426238,0.32902917,0.46720234,0.45626065,0.14532869,-0.2714451,1.5920455,-0.46512353,-0.73650306,-0.2485026,1.297815,1.4228886
-0.2,-0.2,0.6,-0.5235987755982988,1.1102230246251565e-16,0.523598775598299,1.2512162,1.709863,0.24538289,0.32864755,0.50634634,0.45635992,0.059376046,-0.2722795,1.5920013,-0.4734113,-0.7379599,-0.22352156,1.2981743,1.3541434
-0.2,-0.2,0.6,-0.5235987755982988,1.1102230246251565e-16,0.523598775598299,1.240568,1.7097999,0.24479708,0.3288819,0.48526767,0.45671913,0.06946614,-0.26978007,1.5921543,-0.4693275,-0.73784,-0.2620976,1.2914002,1.3656222
-0.2,-0.2,0.6,-0.5235987755982988,1.1102230246251565e-16,0.523598775598299,1.246839,1.7139333,0.24270926,0.3276511,0.5271703,0.45146394,0.063393794,-0.27284747,1.591004,-0.4771068,-0.7371916,-0.2636929,1.2962319,1.4495281
-0.2,-0.2,0.6,-0.5235987755982988,1.1102230246251565e-16,0.523598775598299,1.2527099,1.7102985,0.24340123,0.32751474,0.48144847,0.4525264,0.07801118,-0.2716367,1.5912055,-0.4750575,-0.7394206,-0.2831859,1.29485,1.3183008
-0.2,-0.2,0.6,-0.5235987755982988,1.1102230246251565e-16,0.523598775598299,1.2472394,1.711136,0.2453227,0.3292278,0.49505004,0.4516335,0.08542614,-0.27178615,1.5915246,-0.46956173,-0.7377918,-0.24847917,1.2981776,1.3370674
-0.2,-0.2,0.6,-0.5235987755982988,1.1102230246251565e-16,0.523598775598299,1.2537005,1.7114586,0.24445358,0.3278099,0.51968247,0.45217398,0.14351119,-0.27194452,1.591528,-0.47478396,-0.7382209,-0.26477692,1.2971209,1.266143
-0.2,-0.2,0.6,-0.5235987755982988,1.1102230246251565e-16,0.523598775598299,1.2518758,1.7119691,0.24348219,0.32866102,0.4669991,0.45554215,0.08656063,-0.2726246,1.5911229,-0.47258833,-0.740286,-0.25045675,1.2960451,1.4383601
-0.2,-0.2,0.6,-0.5235987755982988,1.1102230246251565e-16,0.523598775598299,1.2464876,1.7088218,0.24312049,0.32669967,0.51011896,0.45276377,0.14440593,-0.27172896,1.5921087,-0.4665989,-0.7387566,-0.25659037,1.2954149,1.4340516
-0.2,-0.2,0.6,-0.5235987755982988,1.1102230246251565e-16,0.523598775598299,1.2462592,1.7105548,0.24346958,0.32729778,0.5462888,0.45309913,0.09969576,-0.27227572,1.5912242,-0.4699601,-0.7375137,-0.26547548,1.2970529,1.3905305
-0.2,-0.2,0.6,-0.5235987755982988,1.1102230246251565e-16,0.523598775598299,1.241926,1.7104627,0.24503742,0.3276567,0.49969298,0.45474994,0.008479846,-0.27165538,1.5908449,-0.47985527,-0.7391816,-0.24655454,1.2953997,1.3906885
-0.2,-0.2,0.6,-0.5235987755982988,1.1102230246251565e-16,0.523598775598299,1.2594315,1.7090739,0.2435551,0.32778347,0.5272766,0.45532456,0.12080475,-0.27279827,1.5914187,-0.47231272,-0.7371822,-0.24921136,1.2924384,1.3740438
-0.2,-0.2,0.6,-0.5235987755982988,1.1102230246251565e-16,0.523598775598299,1.248541,1.7074465,0.24348363,0.3274576,0.5489068,0.45145732,0.15427884,-0.2702267,1.5920694,-0.47878584,-0.73795915,-0.2304702,1.2936677,1.3661435
-0.2,-0.2,0.6,-0.5235987755982988,1.1102230246251565e-16,0.523598775598299,1.251045,1.7112647,0.2439215,0.3283268,0.47392878,0.4554246,0.07377501,-0.27214956,1.5913683,-0.47162277,-0.74005234,-0.26341766,1.2936211,1.3890023
-0.2,-0.2,0.6,-0.5235987755982988,1.1102230246251565e-16,0.523598775598299,1.2498372,1.7117192,0.2428051,0.32782105,0.51779103,0.45746034,0.068054885,-0.2724373,1.5919114,-0.4713998,-0.7368307,-0.23512496,1.2942965,1.3941246
-0.2,-0.2,0.6,-0.5235987755982988,1.1102230246251565e-16,0.523598775598299,1.2474093,1.7118821,0.2465685,0.3275183,0.50525886,0.45796192,0.10610703,-0.27233043,1.5914131,-0.46848965,-0.7380581,-0.27225995,1.2995597,1.4058911
-0.2,-0.2,0.6,-0.5235987755982988,1.1102230246251565e-16,0.523598775598299,1.2543497,1.708397,0.24383122,0.3289866,0.48060653,0.4453044,0.07985645,-0.27122045,1.5920136,-0.470177,-0.73847026,-0.2700935,1.2938867,1.305718
-0.2,-0.2,0.6,-0.5235987755982988,1.1102230246251565e-16,0.523598775598299,1.2464601,1.7122265,0.24576423,0.32685432,0.501603,0.45413366,0.03237282,-0.27141246,1.5906131,-0.4737458,-0.7360589,-0.266207,1.2915072,1.3348072
-0.2,-0.2,0.6,-0.5235987755982988,1.1102230246251565e-16,0.523598775598299,1.255799,1.7077806,0.24402116,0.32696176,0.50131935,0.4501828,0.07879658,-0.2720518,1.5901419,-0.4733592,-0.7369665,-0.24631356,1.2937797,1.4330581
-0.2,-0.2,0.6,-0.5235987755982988,1.1102230246251565e-16,0.523598775598299,1.2519352,1.711643,0.24426128,0.3256917,0.48295856,0.4554418,0.13470486,-0.27284613,1.5908395,-0.47611645,-0.7392394,-0.2598193,1.2945448,1.4424549
-0.2,-0.2,0.6,-0.5235987755982988,1.1102230246251565e-16,0.523598775598299,1.2480469,1.7098467,0.2450863,0.3281628,0.5483021,0.45061597,0.07970691,-0.27183524,1.5917956,-0.4728004,-0.73786736,-0.256497,1.2977561,1.3478261
-0.2,-0.2,0.6,-0.5235987755982988,1.1102230246251565e-16,0.523598775598299,1.248621,1.7094612,0.24336423,0.3286271,0.47951758,0.45022085,0.12821576,-0.27143002,1.5917696,-0.4758629,-0.7384735,-0.22950426,1.2957805,1.2767748
-0.2,-0.2,0.6,-0.5235987755982988,1.1102230246251565e-16,0.523598775598299,1.2429053,1.7081289,0.24470228,0.32738844,0.49638617,0.4539584,0.097233675,-0.2721434,1.5915737,-0.47373056,-0.73928666,-0.26349887,1.292814,1.4378535
-0.2,-0.2,0.6,-0.5235987755982988,1.1102230246251565e-16,0.523598775598299,1.2520877,1.7128615,0.24638607,0.32726696,0.4953136,0.45666552,0.0468353,-0.27102414,1.592098,-0.47199604,-0.73707205,-0.22556037,1.2955441,1.3182789
-0.2,-0.2,0.6,-0.5235987755982988,1.1102230246251565e-16,0.523598775598299,1.2513553,1.7100234,0.24545626,0.32999462,0.4909835,0.45482948,0.023745127,-0.27205414,1.5922853,-0.47343352,-0.7391518,-0.25358,1.29385,1.436107
-0.2,-0.2,0.6,-0.5235987755982988,1.1102230246251565e-16,0.523598775598299,1.2491807,1.709707,0.24227285,0.32989466,0.4788846,0.45651776,0.069383755,-0.26976818,1.5918345,-0.47896308,-0.7371461,-0.2617401,1.2982873,1.2847015
-0.2,-0.2,0.6,-0.5235987755982988,1.1102230246251565e-16,0.523598775598299,1.2435474,1.7071723,0.24588351,0.32888395,0.55051863,0.45759434,0.12560979,-0.27193004,1.5920674,-0.47095603,-0.7375717,-0.24318326,1.295953,1.3567069
-0.2,-0.2,0.6,-0.5235987755982988,1.1102230246251565e-16,0.523598775598299,1.2494172,1.7100105,0.24759774,0.32846782,0.5050776,0.45520276,0.08515172,-0.2706473,1.5915226,-0.47100544,-0.7378654,-0.2614621,1.2949035,1.4428967
-0.2,-0.2,0.6,-0.5235987755982988,1.1102230246251565e-16,0.523598775598299,1.2448285,1.7132179,0.24540064,0.32771307,0.4983024,0.45712894,0.124447055,-0.27195033,1.5911361,-0.46797934,-0.73620063,-0.23027627,1.296106,1.4338574
-0.2,-0.2,0.6,-0.5235987755982988,1.1102230246251565e-16,0.523598775598299,1.2550081,1.7102481,0.24610196,0.32644796,0.48679012,0.45776534,0.13993347,-0.2707659,1.5911368,-0.46763003,-0.7359606,-0.2336862,1.2952644,1.2885351
-0.2,-0.2,0.6,-0.5235987755982988,1.1102230246251565e-16,0.523598775598299,1.2448218,1.7095385,0.24533536,0.33089104,0.5031532,0.4561533,0.16584148,-0.2722503,1.5920488,-0.47268814,-0.73682237,-0.25663754,1.2929068,1.3506495
-0.2,-0.2,0.6,-0.5235987755982988,1.1102230246251565e-16,0.523598775598299,1.247402,1.709601,0.24391624,0.3301482,0.4689045,0.45430973,0.0036222585,-0.27153584,1.591457,-0.47375855,-0.7389103,-0.2563173,1.2933097,1.3361678
-0.2,-0.2,0.6,-0.5235987755982988,1.1102230246251565e-16,0.523598775598299,1.2599535,1.7126938,0.24506012,0.3269944,0.5069016,0.45046756,0.07070408,-0.27158165,1.5912049,-0.47472924,-0.73793924,-0.23682219,1.2933406,1.4439546
-0.2,-0.2,0.6,-0.5235987755982988,1.1102230246251565e-16,0.523598775598299,1.246513,1.7110273,0.24490932,0.32937217,0.47793567,0.454457,0.061718825,-0.27064425,1.5918905,-0.47009698,-0.7383947,-0.2393169,1.2973015,1.2920748
-0.2,-0.2,0.6,-0.5235987755982988,1.1102230246251565e-16,0.523598775598299,1.2472725,1.7128632,0.2467354,0.32820275,0.5051291,0.45245215,0.06928954,-0.2718629,1.5910745,-0.47435254,-0.73817873,-0.25310248,1.2950026,1.3514708
-0.2,-0.2,0.6,-0.5235987755982988,1.1102230246251565e-16,0.523598775598299,1.2512382,1.7089907,0.24393174,0.32857078,0.48820278,0.45845765,0.08770866,-0.27178204,1.5925859,-0.46926898,-0.73679304,-0.23388669,1.2945055,1.4635521
-0.2,-0.2,0.6,-0.5235987755982988,1.1102230246251565e-16,0.523598775598299,1.2446121,1.7088273,0.24243207,0.33078364,0.47417662,0.4547474,0.08520453,-0.2717201,1.5915642,-0.46899447,-0.7390811,-0.24512227,1.2980521,1.2518039
-0.2,-0.2,0.6,-0.5235987755982988,1.1102230246251565e-16,0.523598775598299,1.2469841,1.7099617,0.24236149,0.3287097,0.50826526,0.45009792,0.053934466,-0.2711155,1.5916196,-0.47239104,-0.7370096,-0.23152678,1.2917202,1.2682127
-0.2,-0.2,0.6,-0.5235987755982988,1.1102230246251565e-16,0.523598775598299,1.2435778,1.7129304,0.24413337,0.32792446,0.51107824,0.45216396,0.060033273,-0.27092972,1.5904632,-0.47868794,-0.73971283,-0.25838652,1.298343,1.348827
-0.2,-0.2,0.6,-0.5235987755982988,1.1102230246251565e-16,0.523598775598299,1.2509402,1.7086879,0.2449599,0.32825598,0.4658604,0.45245805,0.09264946,-0.27036414,1.5921171,-0.47474948,-0.7380577,-0.23281653,1.2938808,1.3560042
-0.2,-0.2,0.6,-0.5235987755982988,1.1102230246251565e-16,0.523598775598299,1.2418267,1.7085866,0.24694365,0.32893175,0.5089954,0.45535174,0.16525371,-0.27043435,1.5915673,-0.4678055,-0.73635554,-0.25059777,1.294845,1.2192212
-0.2,-0.2,0.6,-0.5235987755982988,1.1102230246251565e-16,0.523598775598299,1.2413193,1.7096877,0.24448667,0.32739437,0.5076499,0.45430848,0.10078022,-0.2721743,1.5923538,-0.47107387,-0.741071,-0.24797274,1.2979407,1.35935
-0.2,-0.2,0.6,-0.5235987755982988,1.1102230246251565e-16,0.523598775598299,1.248566,1.712933,0.24384812,0.32764438,0.50891805,0.45090082,0.10323821,-0.27196816,1.5909411,-0.46753296,-0.7367667,-0.2610666,1.299449,1.5324723
-0.2,-0.2,0.6,-0.5235987755982988,1.1102230246251565e-16,0.523598775598299,1.2428366,1.7096035,0.24645217,0.32848647,0.4802258,0.45444518,0.08667063,-0.27276397,1.5910052,-0.47840765,-0.7386188,-0.24311472,1.29789,1.3914675
-0.2,-0.2,0.6,-0.5235987755982988,1.1102230246251565e-16,0.523598775598299,1.2489486,1.7091203,0.24468622,0.3283121,0.4697082,0.4560602,0.0760456,-0.2717616,1.5912013,-0.4739871,-0.73883396,-0.23724897,1.2972155,1.4492332
-0.2,-0.2,0.6,-0.5235987755982988,1.1102230246251565e-16,0.523598775598299,1.254974,1.7129929,0.24558336,0.32854068,0.53916615,0.45332742,0.083351925,-0.27128953,1.5920027,-0.47489515,-0.7379684,-0.25323156,1.2951033,1.3815656
-0.2,-0.2,0.6,-0.5235987755982988,1.1102230246251565e-16,0.523598775598299,1.247457,1.7104722,0.24623564,0.32890436,0.52167577,0.45375195,0.06958325,-0.2721955,1.591083,-0.46773785,-0.7396115,-0.25291294,1.2949113,1.2753221
-0.2,-0.2,0.6,-0.5235987755982988,1.1102230246251565e-16,0.523598775598299,1.243992,1.7105702,0.2462387,0.32688332,0.47114584,0.45132995,0.08745975,-0.27156612,1.5916849,-0.46661517,-0.7371236,-0.24868819,1.2974093,1.4200904
-0.2,-0.2,0.6,-0.5235987755982988,1.1102230246251565e-16,0.523598775598299,1.2522315,1.7097337,0.24512818,0.32799786,0.50712794,0.45029798,0.13984686,-0.2717752,1.5924004,-0.47139505,-0.7401588,-0.26524702,1.297793,1.4432737
-0.2,-0.2,0.6,-0.5235987755982988,1.1102230246251565e-16,0.523598775598299,1.2489707,1.7078882,0.24544482,0.3267308,0.5125475,0.45207095,0.15786979,-0.2711878,1.5929763,-0.47413552,-0.73747754,-0.27184057,1.2976807,1.3926232
-0.2,-0.2,0.6,-0.5235987755982988,1.1102230246251565e-16,0.523598775598299,1.2462524,1.7084348,0.2428445,0.32818902,0.5446858,0.45369765,0.09252886,-0.2714502,1.5918635,-0.47286734,-0.73605907,-0.25514033,1.294777,1.3725532
-0.2,-0.2,0.6,-0.5235987755982988,1.1102230246251565e-16,0.523598775598299,1.259942,1.7097144,0.24421632,0.32813898,0.5130011,0.4507528,0.15861371,-0.27038157,1.5915978,-0.47175178,-0.7366684,-0.24220547,1.2955383,1.3446982
-0.2,-0.2,0.6,-0.5235987755982988,1.1102230246251565e-16,0.523598775598299,1.2451899,1.710779,0.24464092,0.32690728,0.5127294,0.4561158,0.15072443,-0.27131864,1.5914289,-0.46999568,-0.7373211,-0.27057895,1.2947953,1.3282671
-0.2,-0.2,0.6,-0.5235987755982988,1.1102230246251565e-16,0.523598775598299,1.248085,1.7097074,0.24363275,0.32699877,0.5407685,0.4536166,0.070866555,-0.27165225,1.5910872,-0.4693588,-0.73782384,-0.24491048,1.2953312,1.3901671
-0.2,-0.2,0.6,-0.5235987755982988,1.1102230246251565e-16,0.523598775598299,1.2498513,1.7095903,0.2428272,0.3281353,0.51101404,0.4598018,0.10581812,-0.27243456,1.5900987,-0.4719494,-0.7368004,-0.26009196,1.29266,1.3687075
-0.2,-0.2,0.6,-0.5235987755982988,1.1102230246251565e-16,0.523598775598299,1.2452661,1.7102038,0.24407588,0.32790193,0.48067334,0.45842445,0.11435044,-0.27156997,1.5905879,-0.46816432,-0.736844,-0.23384638,1.2958488,1.2634933
-0.2,-0.2,0.6,-0.5235987755982988,1.1102230246251565e-16,0.523598775598299,1.2486194,1.7109834,0.24205622,0.33130345,0.51789975,0.45088533,0.12499151,-0.27270755,1.5922216,-0.47494933,-0.73839813,-0.25358865,1.2987171,1.3467317
-0.2,-0.2,0.6,-0.5235987755982988,1.1102230246251565e-16,0.523598775598299,1.2411326,1.7082411,0.24391069,0.32870337,0.48432744,0.45734876,0.1612977,-0.27185082,1.59211,-0.47900417,-0.7412583,-0.27752995,1.295446,1.3550988
-0.2,-0.2,0.6,-0.5235987755982988,1.1102230246251565e-16,0.523598775598299,1.2450441,1.707145,0.24408104,0.32949385,0.5181523,0.45987037,0.07362608,-0.27256858,1.592096,-0.46787533,-0.73697543,-0.25148046,1.2926154,1.3385987
-0.2,-0.2,0.6,-0.5235987755982988,1.1102230246251565e-16,0.523598775598299,1.2389475,1.711014,0.24623546,0.3290417,0.5056456,0.45085496,0.116463296,-0.2714994,1.5912324,-0.47370866,-0.73799545,-0.24191943,1.2939974,1.4289013
-0.2,-0.2,0.6,-0.5235987755982988,1.1102230246251565e-16,0.523598775598299,1.2431178,1.708164,0.2471624,0.32867673,0.5137042,0.45249853,0.12742443,-0.27165243,1.5920815,-0.46957573,-0.7390568,-0.25284937,1.2981296,1.250464
-0.2,-0.2,0.6,-0.5235987755982988,1.1102230246251565e-16,0.523598775598299,1.255285,1.7110995,0.24352723,0.32917848,0.5269535,0.45338416,0.06666003,-0.271774,1.5923493,-0.4663723,-0.7374661,-0.2590146,1.2950771,1.4592274
-0.2,-0.2,0.6,-0.5235987755982988,1.1102230246251565e-16,0.523598775598299,1.2517012,1.7100478,0.2440678,0.32494035,0.50402427,0.45436582,0.09551129,-0.27206275,1.5920231,-0.46890578,-0.7382859,-0.2717346,1.2955937,1.296653
-0.2,-0.2,0.6,-0.5235987755982988,1.1102230246251565e-16,0.523598775598299,1.2476002,1.7109488,0.24712616,0.328026,0.5154211,0.45008367,0.10198853,-0.2720722,1.5911835,-0.46973905,-0.73895395,-0.24101055,1.2973527,1.3680416
-0.2,-0.2,0.6,-0.5235987755982988,1.1102230246251565e-16,0.523598775598299,1.2556844,1.713107,0.24498577,0.32816082,0.52155423,0.45101675,0.088790335,-0.27299026,1.5910449,-0.46922338,-0.73719525,-0.2778362,1.2979716,1.3759036
-0.2,-0.2,0.6,-0.5235987755982988,1.1102230246251565e-16,0.523598775598299,1.2477883,1.7097985,0.24585456,0.32817528,0.55424434,0.4525404,0.09754135,-0.27051914,1.5915263,-0.46767592,-0.7371856,-0.25169495,1.2953423,1.4411876
-0.2,-0.2,0.6,-0.5235987755982988,1.1102230246251565e-16,0.523598775598299,1.2571025,1.7096316,0.24339014,0.3283673,0.5030192,0.449353,0.12101833,-0.27154398,1.5916258,-0.4717255,-0.7386454,-0.26123476,1.2932419,1.3182362
-0.2,-0.2,0.6,-0.5235987755982988,1.1102230246251565e-16,0.523598775598299,1.2462429,1.7091855,0.24469662,0.3281406,0.5068446,0.452726,0.042691678,-0.27214253,1.5909195,-0.46933335,-0.7377879,-0.25993186,1.2946547,1.3095962
-0.2,-0.2,0.6,-0.5235987755982988,1.1102230246251565e-16,0.523598775598299,1.255725,1.7087265,0.24653527,0.32611805,0.53386253,0.45743835,0.12672903,-0.2720372,1.5917494,-0.47941732,-0.7387975,-0.25960907,1.2966377,1.235157
-0.2,-0.2,0.6,-0.5235987755982988,1.1102230246251565e-16,0.523598775598299,1.2559463,1.7094313,0.24681748,0.3290349,0.504474,0.4552816,0.03966076,-0.27078247,1.5917048,-0.47223482,-0.7377342,-0.2425413,1.2965505,1.3341655
-0.2,-0.2,0.6,-0.5235987755982988,1.1102230246251565e-16,0.523598775598299,1.23672,1.7101614,0.24606524,0.3285497,0.53995085,0.45375392,0.06315695,-0.27249682,1.5919864,-0.47664174,-0.7363296,-0.24799176,1.2952784,1.3655156
-0.2,-0.2,0.6,-0.5235987755982988,1.1102230246251565e-16,0.523598775598299,1.2531332,1.7074301,0.24391343,0.32798314,0.4959939,0.45474195,0.061629407,-0.27049133,1.5922625,-0.47445455,-0.7386323,-0.24345212,1.2976332,1.376983
-0.2,-0.2,0.6,-0.5235987755982988,1.1102230246251565e-16,0.523598775598299,1.2510499,1.709808,0.24259241,0.32674664,0.4841285,0.45627978,0.078607455,-0.27208862,1.5915769,-0.46689573,-0.7388308,-0.26425195,1.2968647,1.3247223
-0.2,-0.2,0.6,-0.5235987755982988,1.1102230246251565e-16,0.523598775598299,1.2530447,1.7103548,0.24347377,0.32949343,0.50083536,0.4551701,0.15050785,-0.2728654,1.5910316,-0.47356728,-0.738773,-0.27416295,1.2951998,1.4173098
-0.2,-0.2,0.6,-0.5235987755982988,1.1102230246251565e-16,0.523598775598299,1.2469462,1.712573,0.24570182,0.3288778,0.53913766,0.45001048,0.120064676,-0.27187055,1.592387,-0.47447228,-0.7374013,-0.21983166,1.2953961,1.4242421
-0.2,-0.2,0.6,-0.5235987755982988,1.1102230246251565e-16,0.523598775598299,1.2523602,1.7093968,0.24159443,0.3268694,0.519972,0.45480472,0.15099129,-0.27055848,1.5920277,-0.4743818,-0.7376948,-0.25848547,1.292114,1.4315531
-0.2,-0.2,0.6,-0.5235987755982988,1.1102230246251565e-16,0.523598775598299,1.2456015,1.7080632,0.24567372,0.32758877,0.5391564,0.45473984,0.12825266,-0.27220565,1.5913082,-0.4774326,-0.73846495,-0.26239192,1.2910508,1.3654749
-0.2,-0.2,0.6,-0.5235987755982988,1.1102230246251565e-16,0.523598775598299,1.2414572,1.7082491,0.24259049,0.32929182,0.4956382,0.4551135,0.16353993,-0.27204955,1.5917907,-0.4659229,-0.73837954,-0.2692828,1.2960494,1.3031863
-0.2,-0.2,0.6,-0.5235987755982988,1.1102230246251565e-16,0.523598775598299,1.246479,1.7109091,0.24159619,0.32897282,0.5443649,0.45049503,0.08591474,-0.2728581,1.5909745,-0.47050068,-0.7374235,-0.25353014,1.2953463,1.2922794
-0.2,-0.2,0.6,-0.5235987755982988,1.1102230246251565e-16,0.523598775598299,1.2368157,1.7132239,0.24580574,0.3290318,0.4987807,0.45629108,0.1280251,-0.27101862,1.5921677,-0.46894267,-0.7393589,-0.25094163,1.2932011,1.2887927
-0.2,-0.2,0.6,-0.5235987755982988,1.1102230246251565e-16,0.523598775598299,1.2563075,1.7060467,0.24342354,0.32874227,0.52929485,0.4564277,0.07162895,-0.2720732,1.5918407,-0.46539438,-0.7383948,-0.26455414,1.2946885,1.3954029
-0.2,-0.2,0.6,-0.5235987755982988,1.1102230246251565e-16,0.523598775598299,1.2476939,1.7104099,0.24280702,0.32874838,0.49859348,0.451646,0.14009564,-0.27263173,1.5925691,-0.46868482,-0.73793864,-0.28161162,1.2939676,1.5011486
-0.2,-0.2,0.6,-0.5235987755982988,1.1102230246251565e-16,0.523598775598299,1.2503802,1.7101556,0.24594767,0.32664427,0.52662724,0.4514095,0.042444214,-0.2701242,1.5905938,-0.46882448,-0.73892236,-0.26201913,1.296743,1.349416
-0.2,-0.2,0.6,-0.5235987755982988,1.1102230246251565e-16,0.523598775598299,1.2458882,1.7106363,0.2440869,0.32794255,0.48295903,0.45142138,0.15550391,-0.27288347,1.5917187,-0.47048885,-0.73681426,-0.25466964,1.2976524,1.2125523
-0.2,-0.2,0.6,-0.5235987755982988,1.1102230246251565e-16,0.523598775598299,1.2426362,1.7113531,0.24533774,0.32698816,0.4958248,0.4565565,0.09078819,-0.27175644,1.5908314,-0.47777748,-0.7373732,-0.26794007,1.2925476,1.3393952
-0.2,-0.2,0.6,-0.5235987755982988,1.1102230246251565e-16,0.523598775598299,1.24749,1.7136339,0.2457591,0.3283488,0.51159805,0.45327598,0.06170794,-0.27159917,1.5917221,-0.47627404,-0.73879594,-0.24672003,1.29588,1.4242593
-0.2,-0.2,0.6,-0.5235987755982988,1.1102230246251565e-16,0.523598775598299,1.2610705,1.7091151,0.24656475,0.3296739,0.47462317,0.4505389,0.09870208,-0.2723114,1.5917132,-0.47224858,-0.7396055,-0.24571806,1.3004128,1.3502169
-0.2,-0.2,0.6,-0.5235987755982988,1.1102230246251565e-16,0.523598775598299,1.2447824,1.7126801,0.24252822,0.32912818,0.5220345,0.45428044,0.10515251,-0.27181768,1.5917257,-0.47594437,-0.7395916,-0.24352199,1.2946546,1.3027593
-0.2,-0.2,0.6,-0.5235987755982988,1.1102230246251565e-16,0.523598775598299,1.2496194,1.7103522,0.24722362,0.3255507,0.48686668,0.4525283,0.098375335,-0.27332273,1.5912102,-0.47611663,-0.7391102,-0.23902719,1.2979084,1.3368738
-0.2,-0.2,0.6,-0.5235987755982988,1.1102230246251565e-16,0.523598775598299,1.2430031,1.7125708,0.2442967,0.32643536,0.5150278,0.45883948,0.0755821,-0.27126902,1.5910205,-0.47434676,-0.7378957,-0.25245136,1.2966437,1.2386818
-0.2,-0.2,0.6,-0.5235987755982988,1.1102230246251565e-16,0.523598775598299,1.2522155,1.7087839,0.24552421,0.32829222,0.54461306,0.45365956,0.05631813,-0.27151403,1.5928174,-0.4742887,-0.7379681,-0.25278935,1.2973777,1.2977794
-0.2,-0.2,0.6,-0.5235987755982988,1.1102230246251565e-16,0.523598775598299,1.248291,1.7093784,0.24639577,0.3276496,0.52140975,0.45534533,0.04971409,-0.27116838,1.5919526,-0.4695412,-0.73781264,-0.26451614,1.2952267,1.2938054
-0.2,-0.2,0.6,-0.5235987755982988,1.1102230246251565e-16,0.523598775598299,1.2464492,1.7104318,0.24508938,0.32848337,0.5474771,0.45317492,0.030789107,-0.27226827,1.5919715,-0.47293425,-0.7389286,-0.23806378,1.2932144,1.3499001
-0.2,-0.2,0.6,-0.5235987755982988,1.1102230246251565e-16,0.523598775598299,1.2451328,1.7111521,0.24309745,0.32861084,0.49677482,0.45851213,0.10618849,-0.27110583,1.5912673,-0.47546348,-0.73954755,-0.27649912,1.2967362,1.4311807
-0.2,-0.2,0.6,-0.5235987755982988,1.1102230246251565e-16,0.523598775598299,1.2535174,1.7109447,0.2471056,0.3303346,0.47939995,0.4525744,0.08758709,-0.2724086,1.591995,-0.4734804,-0.7397206,-0.25145635,1.2986153,1.3354207
-0.2,-0.2,0.6,-0.5235987755982988,1.1102230246251565e-16,0.523598775598299,1.2515198,1.7116923,0.24424745,0.32899535,0.53173804,0.44462708,0.048135925,-0.2708987,1.5924177,-0.47095126,-0.737918,-0.25914067,1.2950908,1.3887477
-0.2,-0.2,0.6,-0.5235987755982988,1.1102230246251565e-16,0.523598775598299,1.2406919,1.7121915,0.24525206,0.32969975,0.44986042,0.45195493,0.093013465,-0.27104828,1.5918279,-0.4782179,-0.73601246,-0.24371324,1.2949414,1.274309
-0.2,-0.2,0.6,-0.5235987755982988,1.1102230246251565e-16,0.523598775598299,1.2398607,1.709173,0.2425143,0.3301252,0.47578555,0.45795187,0.088471204,-0.27376828,1.5906556,-0.46679264,-0.7394927,-0.27873263,1.2935557,1.377449
-0.2,-0.2,0.6,-0.5235987755982988,1.1102230246251565e-16,0.523598775598299,1.2388073,1.7122209,0.24463052,0.3278691,0.47888973,0.45421565,0.14914703,-0.27207494,1.5913224,-0.46874636,-0.73647,-0.24764813,1.2942259,1.4239354
-0.2,-0.2,0.6,-0.5235987755982988,1.1102230246251565e-16,0.523598775598299,1.2523913,1.711467,0.24372421,0.32738894,0.52218586,0.4500881,0.0737547,-0.27320075,1.5921574,-0.47773102,-0.7379999,-0.25990793,1.2935305,1.4475282
-0.2,-0.2,0.6,-0.5235987755982988,1.1102230246251565e-16,0.523598775598299,1.2417691,1.709585,0.24426907,0.328604,0.50013775,0.45625743,0.058978852,-0.2710817,1.5918959,-0.47374332,-0.73877835,-0.24396804,1.2929176,1.3737024
-0.2,-0.2,0.6,-0.5235987755982988,1.1102230246251565e-16,0.523598775598299,1.2553264,1.7108849,0.2443792,0.32910776,0.49556562,0.4515566,0.009322221,-0.27137724,1.5917246,-0.46906623,-0.7387992,-0.24253011,1.2965697,1.3653529
-0.2,-0.2,0.6,-0.5235987755982988,1.1102230246251565e-16,0.523598775598299,1.2487986,1.7111214,0.24396706,0.32909894,0.48938885,0.4521062,0.112209335,-0.27145126,1.5911016,-0.47424647,-0.73766685,-0.24483657,1.2978766,1.237437
-0.2,-0.2,0.6,-0.5235987755982988,1.1102230246251565e-16,0.523598775598299,1.2506173,1.7096603,0.24407087,0.32814148,0.48139337,0.4515782,0.11995947,-0.27161616,1.5936934,-0.46866563,-0.73956484,-0.24886335,1.2944357,1.3872429
-0.2,-0.2,0.6,-0.5235987755982988,1.1102230246251565e-16,0.523598775598299,1.2465839,1.7075987,0.24367955,0.3274683,0.5216943,0.45306817,0.089081675,-0.27080867,1.5917745,-0.46954954,-0.73693067,-0.26256242,1.2899528,1.3333809
-0.2,-0.2,0.6,-0.5235987755982988,1.1102230246251565e-16,0.523598775598299,1.2433002,1.7119286,0.24377942,0.3286929,0.5146266,0.45585188,0.069521986,-0.27186695,1.5917879,-0.47925237,-0.738244,-0.23140858,1.2940888,1.2834247
-0.2,-0.2,0.6,-0.5235987755982988,1.1102230246251565e-16,0.523598775598299,1.2418456,1.7113347,0.24469209,0.32800817,0.49279144,0.45172662,0.05820727,-0.2709986,1.5921441,-0.46895137,-0.73802537,-0.25074175,1.2952679,1.3303051
-0.2,-0.2,0.6,-0.5235987755982988,1.1102230246251565e-16,0.523598775598299,1.2583699,1.7126207,0.24492286,0.32842728,0.4895897,0.45078686,0.09129851,-0.27207536,1.591096,-0.4779499,-0.7388781,-0.23727971,1.2934743,1.3617932
-0.2,-0.2,0.6,-0.5235987755982988,1.1102230246251565e-16,0.523598775598299,1.251089,1.7103858,0.2443255,0.32732907,0.5075162,0.4515438,-9.235266e-05,-0.2711553,1.5920286,-0.47010517,-0.7382061,-0.23713012,1.2961828,1.3700416
-0.2,-0.2,0.6,-0.5235987755982988,1.1102230246251565e-16,0.523598775598299,1.2537115,1.7096958,0.2464571,0.32644683,0.493993,0.45271793,0.06690054,-0.27158275,1.5910987,-0.4725664,-0.73778373,-0.2372909,1.2969161,1.2881505
-0.2,-0.2,0.6,-0.5235987755982988,1.1102230246251565e-16,0.523598775598299,1.2393423,1.7092377,0.2456854,0.3273286,0.4909696,0.4564323,0.09236469,-0.27245182,1.592254,-0.47584265,-0.7372726,-0.2703911,1.2957264,1.2443197
-0.2,-0.2,0.6,-0.5235987755982988,1.1102230246251565e-16,0.523598775598299,1.2493031,1.7087935,0.24438545,0.32844636,0.48689893,0.45199305,0.10030883,-0.2710589,1.5911887,-0.47634628,-0.7378456,-0.24542013,1.2954056,1.2342168
-0.2,-0.2,0.6,-0.5235987755982988,1.1102230246251565e-16,0.523598775598299,1.2567585,1.7085623,0.2438924,0.3258098,0.51661974,0.45565566,0.20229664,-0.27037778,1.5926878,-0.47079787,-0.7351334,-0.23363498,1.2959503,1.3431872
-0.2,-0.2,0.6,-0.5235987755982988,1.1102230246251565e-16,0.523598775598299,1.2420062,1.7117767,0.24513955,0.3294853,0.50348747,0.4573788,0.055705108,-0.2720934,1.5919955,-0.4745195,-0.73911685,-0.28084588,1.2947727,1.4357817
-0.2,-0.2,0.6,-0.5235987755982988,1.1102230246251565e-16,0.523598775598299,1.249834,1.7124645,0.24424773,0.32820466,0.5136216,0.4552746,0.13819453,-0.27190995,1.592405,-0.47011122,-0.7374813,-0.2472924,1.2936883,1.3520385
-0.2,-0.2,0.6,-0.5235987755982988,1.1102230246251565e-16,0.523598775598299,1.2392876,1.7108167,0.24355567,0.32793778,0.50394034,0.4591445,0.034474447,-0.27121302,1.5929507,-0.47742027,-0.740608,-0.2513329,1.2957622,1.4143001
-0.2,-0.2,0.6,-0.5235987755982988,1.1102230246251565e-16,0.523598775598299,1.2470651,1.7088215,0.24435838,0.32941782,0.4987271,0.4518109,0.088836,-0.27200785,1.5916477,-0.47468922,-0.73977065,-0.25402367,1.2958767,1.2710134
-0.2,-0.2,0.6,-0.5235987755982988,1.1102230246251565e-16,0.523598775598299,1.2411369,1.7101257,0.24389264,0.33000788,0.52614933,0.4530986,0.1272867,-0.27017748,1.5912908,-0.47240478,-0.7388444,-0.2596039,1.29737,1.2698026
-0.2,-0.2,0.6,-0.5235987755982988,1.1102230246251565e-16,0.523598775598299,1.2495804,1.7087737,0.24585134,0.3310159,0.5085873,0.45413405,0.120560355,-0.27158755,1.5924083,-0.47033894,-0.7378292,-0.23260635,1.2940369,1.3366029
-0.2,-0.2,0.6,-0.5235987755982988,1.1102230246251565e-16,0.523598775598299,1.2530873,1.7112634,0.24385315,0.3268698,0.51520133,0.45268738,0.13870472,-0.27117938,1.5921118,-0.47358626,-0.73887527,-0.24771838,1.2971567,1.5138894
-0.2,-0.2,0.6,-0.5235987755982988,1.1102230246251565e-16,0.523598775598299,1.2478591,1.7098656,0.24521257,0.3291177,0.49193203,0.45110434,0.09985117,-0.2719233,1.592084,-0.48127982,-0.7398795,-0.27818152,1.2925041,1.403539
-0.2,-0.2,0.6,-0.5235987755982988,1.1102230246251565e-16,0.523598775598299,1.249901,1.7134796,0.24403495,0.32682252,0.505469,0.4569603,0.08537815,-0.27076373,1.5920253,-0.47368258,-0.7372928,-0.25691903,1.2943606,1.345079
-0.2,-0.2,0.6,-0.5235987755982988,1.1102230246251565e-16,0.523598775598299,1.2475386,1.7127969,0.24418664,0.3263753,0.55991584,0.45235744,0.1170912,-0.2720152,1.5915662,-0.47027978,-0.7388533,-0.23697983,1.2962165,1.3262594
-0.2,-0.2,0.6,-0.5235987755982988,1.1102230246251565e-16,0.523598775598299,1.2532778,1.7095246,0.24594066,0.3279534,0.50942045,0.44810304,0.04764329,-0.27228156,1.5917236,-0.47024384,-0.7390017,-0.24462703,1.2988039,1.3756293
-0.2,-0.2,0.6,-0.5235987755982988,1.1102230246251565e-16,0.523598775598299,1.2455623,1.7106879,0.2440104,0.32834285,0.50197756,0.45084488,0.06896882,-0.2724753,1.5920608,-0.47279736,-0.737815,-0.2528372,1.2942058,1.4244016
-0.2,-0.2,0.6,-0.5235987755982988,1.1102230246251565e-16,0.523598775598299,1.2432364,1.7093428,0.24514674,0.3290626,0.47277942,0.45488328,0.107940055,-0.27066514,1.5917923,-0.47241658,-0.7369149,-0.25522995,1.2940291,1.2793899
-0.2,-0.2,0.6,-0.5235987755982988,1.1102230246251565e-16,0.523598775598299,1.2441078,1.7099774,0.24269556,0.33012363,0.5014431,0.45268518,0.15851624,-0.27186692,1.5914888,-0.47256485,-0.7384723,-0.24530643,1.2926553,1.383934
-0.2,-0.2,0.6,-0.5235987755982988,1.1102230246251565e-16,0.523598775598299,1.2510822,1.7096192,0.24388121,0.32681376,0.5104012,0.45383108,0.08981499,-0.271238,1.59163,-0.47432202,-0.73752004,-0.2343007,1.2964495,1.3510222
-0.2,-0.2,0.6,-0.5235987755982988,1.1102230246251565e-16,0.523598775598299,1.2456586,1.7102655,0.24600364,0.32933903,0.48470116,0.45466888,0.04854232,-0.2722693,1.5908067,-0.47008958,-0.7377561,-0.25133428,1.2966406,1.3240905
-0.2,-0.2,0.6,-0.5235987755982988,1.1102230246251565e-16,0.523598775598299,1.2547622,1.7108916,0.24527624,0.3266064,0.5469951,0.4539005,0.107184224,-0.27066028,1.5917966,-0.47351077,-0.73758954,-0.26989046,1.2938217,1.2718709
-0.2,-0.2,0.6,-0.5235987755982988,1.1102230246251565e-16,0.523598775598299,1.2555187,1.7075641,0.24310097,0.32850066,0.49891162,0.45321193,0.0884529,-0.27224088,1.590681,-0.46961212,-0.73830074,-0.2644695,1.2904155,1.3689361
-0.2,-0.2,0.6,-0.5235987755982988,1.1102230246251565e-16,0.523598775598299,1.2424284,1.7123369,0.24310637,0.32797834,0.49996713,0.45740747,0.1285167,-0.27100682,1.5902591,-0.47097299,-0.73831916,-0.27643004,1.297446,1.3479639
-0.2,-0.2,0.6,-0.5235987755982988,1.1102230246251565e-16,0.523598775598299,1.2481325,1.7097368,0.24784568,0.32736218,0.5160612,0.45583805,0.11108484,-0.27091545,1.5917145,-0.47575417,-0.736508,-0.24263732,1.2956998,1.4578205
-0.2,-0.2,0.6,-0.5235987755982988,1.1102230246251565e-16,0.523598775598299,1.2398229,1.7084126,0.24178396,0.33111376,0.50961024,0.45466408,0.12066865,-0.2736796,1.590762,-0.47675928,-0.73610204,-0.2561233,1.295581,1.3733624
-0.2,-0.2,0.6,-0.5235987755982988,1.1102230246251565e-16,0.523598775598299,1.2458389,1.7105283,0.24511756,0.3277617,0.51084155,0.4486002,0.031816103,-0.27316114,1.5911696,-0.4696207,-0.738034,-0.2349316,1.2967776,1.4022899
-0.2,-0.2,0.6,-0.5235987755982988,1.1102230246251565e-16,0.523598775598299,1.2472568,1.7111152,0.24467815,0.32777876,0.51433265,0.4565927,0.13486984,-0.27226794,1.5931278,-0.47281805,-0.7391994,-0.21721557,1.2986548,1.2817618
-0.2,-0.2,0.6,-0.5235987755982988,1.1102230246251565e-16,0.523598775598299,1.252819,1.7087854,0.24380329,0.32973582,0.4879901,0.44950995,0.10682224,-0.27212244,1.5914499,-0.4659486,-0.7386566,-0.2570615,1.2935545,1.2685483
-0.2,-0.2,0.6,-0.5235987755982988,1.1102230246251565e-16,0.523598775598299,1.250879,1.7115105,0.24431065,0.32821688,0.5479534,0.45078918,0.13208161,-0.27064654,1.5930331,-0.4754341,-0.73821217,-0.2651679,1.2952185,1.4090949
-0.2,-0.2,0.6,-0.5235987755982988,1.1102230246251565e-16,0.523598775598299,1.2572658,1.7099421,0.24016736,0.3286859,0.5051538,0.45964208,0.036129683,-0.27266863,1.5925379,-0.47206232,-0.7382604,-0.24119148,1.2952224,1.4338373
-0.2,-0.2,0.6,-0.5235987755982988,1.1102230246251565e-16,0.523598775598299,1.2457967,1.7083938,0.24682416,0.32744837,0.5170808,0.45934066,0.07609028,-0.27064815,1.5932529,-0.4736509,-0.7377837,-0.24069774,1.2954123,1.3600029
-0.2,-0.2,0.6,-0.5235987755982988,1.1102230246251565e-16,0.523598775598299,1.243743,1.7070068,0.24434005,0.32826257,0.5023386,0.45386407,0.030878665,-0.27220723,1.592504,-0.46688733,-0.7377836,-0.27532348,1.2950001,1.3264104
-0.2,-0.2,0.6,-0.5235987755982988,1.1102230246251565e-16,0.523598775598299,1.2459601,1.7109569,0.24550824,0.32972732,0.5326582,0.45393533,0.047531128,-0.27207527,1.591582,-0.46670455,-0.73659134,-0.25418335,1.2962788,1.2419732
-0.2,-0.2,0.6,-0.5235987755982988,1.1102230246251565e-16,0.523598775598299,1.2394481,1.708772,0.24306676,0.33101892,0.54431736,0.45409337,0.110197395,-0.27113008,1.5917861,-0.47887823,-0.7386098,-0.2534172,1.2951704,1.3627317
-0.2,-0.2,0.6,-0.5235987755982988,1.1102230246251565e-16,0.523598775598299,1.250557,1.7112653,0.24463277,0.32811937,0.4840974,0.45479554,0.12715283,-0.27193666,1.5912153,-0.4703674,-0.7383525,-0.23498815,1.2969813,1.292723
-0.2,-0.2,0.6,-0.5235987755982988,1.1102230246251565e-16,0.523598775598299,1.2440721,1.7098573,0.24410786,0.32782903,0.474785,0.45547763,0.084604084,-0.27137563,1.5913728,-0.4758093,-0.73756254,-0.22115894,1.2982683,1.2814627
-0.2,-0.2,0.6,-0.5235987755982988,1.1102230246251565e-16,0.523598775598299,1.2496878,1.7093782,0.24296145,0.32731947,0.52061516,0.45597312,0.13212514,-0.27287427,1.5919019,-0.47285312,-0.73764837,-0.25126356,1.2942375,1.3945898
-0.2,-0.2,0.6,-0.5235987755982988,1.1102230246251565e-16,0.523598775598299,1.2450327,1.7122895,0.24376005,0.32898346,0.4955992,0.4566727,0.042671163,-0.27148157,1.5919541,-0.4715841,-0.73947644,-0.2472116,1.2944102,1.3259269
-0.2,-0.2,0.6,-0.5235987755982988,1.1102230246251565e-16,0.523598775598299,1.2471073,1.709622,0.24455298,0.3277706,0.5137856,0.45606297,0.12641558,-0.27074435,1.5921503,-0.46465322,-0.7380118,-0.26742062,1.2938032,1.350704
-0.2,-0.2,0.6,-0.5235987755982988,1.1102230246251565e-16,0.523598775598299,1.2600589,1.7104615,0.24553913,0.327546,0.50506663,0.45145887,0.10527813,-0.27098647,1.591754,-0.46996102,-0.7382175,-0.24677521,1.2947385,1.4265302
-0.2,-0.2,0.6,-0.5235987755982988,1.1102230246251565e-16,0.523598775598299,1.2402579,1.7060983,0.24491514,0.32962275,0.5052028,0.4550962,0.15626304,-0.27152494,1.5909526,-0.4664235,-0.7373767,-0.24864638,1.2926097,1.3757008
-0.2,-0.2,0.6,-0.5235987755982988,1.1102230246251565e-16,0.523598775598299,1.2475641,1.7093865,0.24456908,0.32799134,0.4725616,0.45893547,0.110596344,-0.27301437,1.5911701,-0.47063863,-0.73988515,-0.26242813,1.2948809,1.3885278
-0.2,-0.2,0.6,-0.5235987755982988,1.1102230246251565e-16,0.523598775598299,1.2516193,1.7090473,0.24450846,0.32721645,0.51390296,0.44994473,0.12993181,-0.27082604,1.5927787,-0.4741517,-0.73879415,-0.24134235,1.2916765,1.278771
-0.2,-0.2,0.6,-0.5235987755982988,1.1102230246251565e-16,0.523598775598299,1.2500575,1.7095524,0.24516353,0.32939705,0.47364593,0.45205536,0.17309707,-0.27239728,1.5915229,-0.4711873,-0.73874384,-0.2506982,1.2969971,1.3056769
-0.2,-0.2,0.6,-0.5235987755982988,1.1102230246251565e-16,0.523598775598299,1.2505836,1.7102089,0.24335858,0.32947475,0.5433765,0.45266655,0.08968359,-0.27182356,1.5912384,-0.46889034,-0.7360098,-0.24568969,1.299758,1.382645
-0.2,-0.2,0.6,-0.5235987755982988,1.1102230246251565e-16,0.523598775598299,1.2496777,1.7099918,0.24376108,0.32862642,0.5268759,0.4561085,0.10244543,-0.27261558,1.5911199,-0.47187635,-0.7363937,-0.2468071,1.2974806,1.3598342
-0.2,-0.2,0.6,-0.5235987755982988,1.1102230246251565e-16,0.523598775598299,1.2475967,1.7067484,0.24629939,0.32769117,0.51359886,0.454416,0.1269499,-0.27215868,1.5909956,-0.47352883,-0.73709476,-0.2579097,1.2943487,1.3686945
-0.2,-0.2,0.6,-0.5235987755982988,1.1102230246251565e-16,0.523598775598299,1.2536424,1.7086214,0.24487738,0.32588902,0.50937855,0.4534162,0.109056,-0.27195355,1.5918524,-0.4657191,-0.7388095,-0.251673,1.2975352,1.300411
-0.2,-0.2,0.6,-0.5235987755982988,1.1102230246251565e-16,0.523598775598299,1.2538877,1.7119684,0.24532184,0.32820648,0.50122416,0.4541886,0.060566757,-0.2711811,1.5917242,-0.4721842,-0.73780626,-0.2586467,1.295858,1.2397451
-0.2,-0.2,0.6,-0.5235987755982988,1.1102230246251565e-16,0.523598775598299,1.2511702,1.7101848,0.24383375,0.33050165,0.48436782,0.45369214,0.12377334,-0.27159616,1.5916325,-0.47506365,-0.7377573,-0.25883278,1.2944647,1.311189
-0.2,-0.2,0.6,-0.5235987755982988,1.1102230246251565e-16,0.523598775598299,1.2452626,1.7101219,0.2453907,0.32761055,0.4778553,0.4539317,0.065808795,-0.27122754,1.5924948,-0.47380897,-0.73734367,-0.22820075,1.2929578,1.3412162
-0.2,-0.2,0.6,-0.5235987755982988,1.1102230246251565e-16,0.523598775598299,1.2503738,1.7098864,0.24660757,0.3277764,0.50137407,0.44908962,0.051434863,-0.27313164,1.5903171,-0.47323754,-0.7379245,-0.26018217,1.2966665,1.2671745
-0.2,-0.2,0.6,-0.5235987755982988,1.1102230246251565e-16,0.523598775598299,1.2503029,1.7098428,0.24451907,0.32675236,0.47806665,0.45884648,0.10724518,-0.27180544,1.5915549,-0.46747252,-0.7386599,-0.25057885,1.2972002,1.4224356
-0.2,-0.2,0.6,-0.5235987755982988,1.1102230246251565e-16,0.523598775598299,1.2445192,1.7071161,0.24562249,0.3279452,0.48789275,0.45643455,0.06278931,-0.27242124,1.5913999,-0.4759789,-0.73774445,-0.2487933,1.2964544,1.372279
-0.2,-0.2,0.6,-0.5235987755982988,1.1102230246251565e-16,0.523598775598299,1.2437009,1.7129618,0.24502073,0.32722726,0.5068147,0.457769,0.098702446,-0.2728401,1.5919474,-0.47164315,-0.73984736,-0.25972015,1.2977207,1.4199216
-0.2,-0.2,0.6,-0.5235987755982988,1.1102230246251565e-16,0.523598775598299,1.2465804,1.7099061,0.24382381,0.3289613,0.5102077,0.45246905,0.12779774,-0.27114522,1.5923724,-0.47032738,-0.7396375,-0.26203313,1.2955563,1.3601294
-0.2,-0.2,0.6,-0.5235987755982988,1.1102230246251565e-16,0.523598775598299,1.2459389,1.7098844,0.24690929,0.3288675,0.48542604,0.45419186,0.09539087,-0.2718469,1.59155,-0.47197217,-0.7396194,-0.2424563,1.2936381,1.3144287
-0.2,-0.2,0.6,-0.5235987755982988,1.1102230246251565e-16,0.523598775598299,1.2434906,1.7127645,0.24367045,0.32831463,0.5063489,0.449131,0.10535447,-0.27110356,1.5919355,-0.4684723,-0.73820335,-0.24005894,1.2968919,1.2206674
-0.2,-0.2,0.6,-0.5235987755982988,1.1102230246251565e-16,0.523598775598299,1.244852,1.7106543,0.24383111,0.32982057,0.4895205,0.45700362,0.095577136,-0.27304825,1.5916786,-0.4749029,-0.73902977,-0.25605464,1.296845,1.3424034
-0.2,-0.2,0.6,-0.5235987755982988,1.1102230246251565e-16,0.523598775598299,1.2580516,1.708966,0.24216157,0.32697445,0.5091557,0.4505874,0.044587955,-0.27212003,1.5915158,-0.46974772,-0.73755854,-0.25562847,1.2940563,1.4190764
-0.2,-0.2,0.6,-0.5235987755982988,1.1102230246251565e-16,0.523598775598299,1.2477549,1.709692,0.24159059,0.32786435,0.49240857,0.4560922,0.10721091,-0.27167937,1.5916762,-0.46576592,-0.7368837,-0.26386872,1.2916332,1.3898041
-0.2,-0.2,0.6,-0.5235987755982988,1.1102230246251565e-16,0.523598775598299,1.2461591,1.7100737,0.24365109,0.32915664,0.5022093,0.4592929,0.07652657,-0.27141926,1.5926058,-0.4724464,-0.7376291,-0.28242084,1.2962908,1.3739207
-0.2,-0.2,0.6,-0.5235987755982988,1.1102230246251565e-16,0.523598775598299,1.251169,1.7090499,0.2434526,0.32771677,0.50063854,0.45439628,0.090001024,-0.27095732,1.5920863,-0.48130584,-0.73931265,-0.23777951,1.2944278,1.2896754
-0.2,-0.2,0.6,-0.5235987755982988,1.1102230246251565e-16,0.523598775598299,1.2485149,1.7116928,0.24461742,0.3280103,0.49533764,0.45023552,0.09676155,-0.27132225,1.5904262,-0.47861692,-0.7369004,-0.2624302,1.295658,1.2796844
-0.2,-0.2,0.6,-0.5235987755982988,1.1102230246251565e-16,0.523598775598299,1.2471325,1.711522,0.24574614,0.3272254,0.5034715,0.4535177,0.07162197,-0.27171412,1.5919315,-0.47310033,-0.7391026,-0.23104818,1.2950618,1.3252155
-0.2,-0.2,0.6,-0.5235987755982988,1.1102230246251565e-16,0.523598775598299,1.2445066,1.7094436,0.2440203,0.32981646,0.51215875,0.44992018,0.050646573,-0.2719015,1.5925949,-0.4754227,-0.73796296,-0.25315982,1.2934446,1.3229103
-0.2,-0.2,0.6,-0.5235987755982988,1.1102230246251565e-16,0.523598775598299,1.2441913,1.7114992,0.24352026,0.32675678,0.49843234,0.45313326,0.05324504,-0.27216426,1.5917594,-0.4729903,-0.73693514,-0.24463703,1.2950892,1.3611406
-0.2,-0.2,0.6,-0.5235987755982988,1.1102230246251565e-16,0.523598775598299,1.2542614,1.7098551,0.24465244,0.32985488,0.49784625,0.45366347,0.048017967,-0.27169853,1.591681,-0.4656231,-0.7387381,-0.2686452,1.296269,1.2573122
-0.2,-0.2,0.6,-0.5235987755982988,1.1102230246251565e-16,0.523598775598299,1.2460531,1.7107273,0.24542682,0.3294245,0.53079367,0.45252678,0.098213404,-0.27221146,1.5926766,-0.47144997,-0.7385473,-0.22610804,1.2950519,1.2859718
-0.2,-0.2,0.6,-0.5235987755982988,1.1102230246251565e-16,0.523598775598299,1.2497902,1.7108794,0.24381694,0.32867497,0.49381217,0.45249835,0.07481685,-0.2727532,1.592251,-0.46678725,-0.7368347,-0.2558597,1.2953174,1.3826264
-0.2,-0.2,0.6,-0.5235987755982988,1.1102230246251565e-16,0.523598775598299,1.253755,1.7125366,0.2425364,0.33011287,0.5120304,0.4515563,0.08060815,-0.27148068,1.5922366,-0.47348318,-0.73802555,-0.2586615,1.2963135,1.391265
-0.2,-0.2,0.6,-0.5235987755982988,1.1102230246251565e-16,0.523598775598299,1.2490513,1.7127225,0.24313252,0.32893127,0.5208129,0.4618115,0.01845043,-0.27196962,1.5915493,-0.47407204,-0.73898,-0.24622457,1.2954491,1.294299
-0.2,-0.2,0.6,-0.5235987755982988,1.1102230246251565e-16,0.523598775598299,1.2390687,1.7056476,0.24503106,0.32948336,0.5244712,0.45766824,0.20221241,-0.27120787,1.5917171,-0.46740884,-0.7381741,-0.27182546,1.2949734,1.3536484
-0.2,-0.2,0.6,-0.5235987755982988,1.1102230246251565e-16,0.523598775598299,1.2527144,1.7131282,0.24390107,0.3289274,0.49662843,0.45554584,0.08719195,-0.2724376,1.5917116,-0.47387922,-0.7388313,-0.25918454,1.2958452,1.3860407
-0.2,-0.2,0.6,-0.5235987755982988,1.1102230246251565e-16,0.523598775598299,1.2465224,1.7121446,0.24549067,0.32795566,0.5292854,0.45444733,0.11888507,-0.2704719,1.590934,-0.4719013,-0.73669636,-0.26513678,1.2967615,1.315595
-0.2,-0.2,0.6,-0.5235987755982988,1.1102230246251565e-16,0.523598775598299,1.2461196,1.7094003,0.24069004,0.3304598,0.49382576,0.4529054,0.061878912,-0.27216184,1.5918012,-0.47029617,-0.7371423,-0.23631683,1.2957854,1.2938131
-0.2,-0.2,0.6,-0.5235987755982988,1.1102230246251565e-16,0.523598775598299,1.2419904,1.7113159,0.24210942,0.32846066,0.5010431,0.45655215,0.13118154,-0.27161977,1.5923718,-0.4712335,-0.73845714,-0.2586131,1.297967,1.3531891
-0.2,-0.2,0.6,-0.5235987755982988,1.1102230246251565e-16,0.523598775598299,1.2507815,1.7093998,0.24397439,0.32669577,0.5223928,0.45443952,0.0827101,-0.27169073,1.5917535,-0.4746739,-0.7385562,-0.23530746,1.2954649,1.331435
-0.2,-0.2,0.6,-0.5235987755982988,1.1102230246251565e-16,0.523598775598299,1.2521324,1.7082953,0.24484286,0.32853755,0.51969916,0.4557254,0.12254079,-0.2722409,1.5922827,-0.47331178,-0.7389604,-0.2522835,1.2984082,1.3514893
-0.2,-0.2,0.6,-0.5235987755982988,1.1102230246251565e-16,0.523598775598299,1.2470518,1.7094395,0.24334528,0.32911322,0.5076997,0.45894578,0.040395398,-0.2705705,1.5915935,-0.47020432,-0.73619086,-0.24388474,1.2957077,1.2593088
-0.2,-0.2,0.6,-0.5235987755982988,1.1102230246251565e-16,0.523598775598299,1.247394,1.7114296,0.24547878,0.32850626,0.48779383,0.456638,-0.025860801,-0.27283934,1.5915296,-0.4783022,-0.73761576,-0.25243193,1.2964469,1.3147434
-0.2,-0.2,0.6,-0.5235987755982988,1.1102230246251565e-16,0.523598775598299,1.2546377,1.7111827,0.24546067,0.32660475,0.54294276,0.45019844,0.15393886,-0.271131,1.5917069,-0.4685681,-0.7372349,-0.25604472,1.2972573,1.4546797
-0.2,-0.2,0.6,-0.5235987755982988,1.1102230246251565e-16,0.523598775598299,1.2488452,1.7090073,0.24602528,0.32575554,0.47785804,0.45596996,0.11849768,-0.27278876,1.590908,-0.46963677,-0.73880935,-0.2683946,1.295469,1.2701613
-0.2,-0.2,0.6,-0.5235987755982988,1.1102230246251565e-16,0.523598775598299,1.2520163,1.7118925,0.24613787,0.32881314,0.524018,0.4492052,0.07379241,-0.27323464,1.5916265,-0.4791272,-0.7373852,-0.24357635,1.2996529,1.3561593
-0.2,-0.2,0.6,-0.5235987755982988,1.1102230246251565e-16,0.523598775598299,1.251937,1.7140399,0.24500358,0.32755777,0.50704604,0.45309383,0.089786164,-0.27247846,1.5918196,-0.47564662,-0.7381037,-0.24709077,1.2967105,1.3550513
-0.2,-0.2,0.6,-0.5235987755982988,1.1102230246251565e-16,0.523598775598299,1.2466264,1.7111316,0.24499665,0.32798877,0.5209022,0.45362797,0.089336,-0.27257365,1.5920647,-0.47233793,-0.73958,-0.24618171,1.2974341,1.3595936
-0.2,-0.2,0.6,-0.5235987755982988,1.1102230246251565e-16,0.523598775598299,1.2541276,1.7116416,0.2446753,0.32929727,0.5191651,0.45804685,0.15602452,-0.27156577,1.5915643,-0.4719052,-0.7397002,-0.26466957,1.2957379,1.4321129
-0.2,-0.2,0.6,-0.5235987755982988,1.1102230246251565e-16,0.523598775598299,1.2439812,1.7088108,0.24550806,0.32789764,0.562535,0.45368463,0.13649507,-0.2718431,1.5923595,-0.47704667,-0.7386109,-0.2661372,1.2929056,1.3464745
-0.2,-0.2,0.6,-0.5235987755982988,1.1102230246251565e-16,0.523598775598299,1.2545685,1.7132186,0.2437386,0.32833606,0.5065157,0.4494245,0.11491957,-0.2718906,1.5928433,-0.47344273,-0.73964906,-0.24265265,1.2964365,1.3179616
-0.2,-0.2,0.6,-0.5235987755982988,1.1102230246251565e-16,0.523598775598299,1.2514325,1.7123399,0.24527524,0.3279982,0.5442135,0.45482963,0.098245025,-0.27269065,1.5922222,-0.46844697,-0.7382536,-0.24665566,1.2967743,1.3936043
-0.2,-0.2,0.6,-0.5235987755982988,1.1102230246251565e-16,0.523598775598299,1.2423768,1.7104142,0.24735093,0.3300366,0.5295033,0.45346746,0.14026567,-0.27204764,1.5914884,-0.4717689,-0.7371144,-0.24830867,1.2936082,1.3337929
-0.2,-0.2,0.6,-0.5235987755982988,1.1102230246251565e-16,0.523598775598299,1.2567616,1.7102643,0.24359788,0.33013794,0.4581603,0.4502953,0.06763013,-0.27264288,1.5916637,-0.47223586,-0.7374714,-0.25348926,1.2965295,1.3099773
-0.2,-0.2,0.6,-0.5235987755982988,1.1102230246251565e-16,0.523598775598299,1.2444903,1.7111515,0.24353833,0.3284564,0.49660146,0.45620304,0.06712866,-0.272818,1.5920107,-0.47228983,-0.7391613,-0.24913764,1.2968659,1.3689772
-0.2,-0.2,0.6,-0.5235987755982988,1.1102230246251565e-16,0.523598775598299,1.2505728,1.7114075,0.24632922,0.32852823,0.5212165,0.45420274,0.13557094,-0.27041447,1.5922025,-0.47268447,-0.73772514,-0.23102885,1.2982922,1.2936063
-0.2,-0.2,0.6,-0.5235987755982988,1.1102230246251565e-16,0.523598775598299,1.2429484,1.7134314,0.24434237,0.32880086,0.5142304,0.45386726,0.14448722,-0.27059352,1.5922266,-0.47522858,-0.736762,-0.23530394,1.2967179,1.3801246
-0.2,-0.2,0.6,-0.5235987755982988,1.1102230246251565e-16,0.523598775598299,1.2431449,1.7113183,0.2454553,0.32856572,0.50560987,0.45469588,0.06384975,-0.27140683,1.5920048,-0.47144997,-0.7366513,-0.25769734,1.2964871,1.3824068
-0.2,-0.2,0.6,-0.5235987755982988,1.1102230246251565e-16,0.523598775598299,1.2518504,1.7097951,0.24511018,0.32686296,0.5309347,0.45797983,0.09730528,-0.2716786,1.5927869,-0.4768651,-0.7373037,-0.26188126,1.29399,1.4071145
-0.2,-0.2,0.6,-0.5235987755982988,1.1102230246251565e-16,0.523598775598299,1.2491245,1.7087007,0.24400367,0.32815346,0.5062521,0.45661113,0.14454931,-0.2722635,1.5930187,-0.47298473,-0.7372748,-0.25090274,1.2918136,1.3584297
-0.2,-0.2,0.6,-0.5235987755982988,1.1102230246251565e-16,0.523598775598299,1.2465017,1.7116517,0.24308483,0.3300909,0.54750377,0.45460272,0.09852541,-0.27266008,1.5909415,-0.47097135,-0.7367082,-0.24690484,1.2949177,1.3627559
-0.2,-0.2,0.6,-0.5235987755982988,1.1102230246251565e-16,0.523598775598299,1.2573711,1.7098199,0.2448108,0.32709935,0.5240381,0.4525228,0.039311524,-0.27116144,1.591702,-0.46710512,-0.73746675,-0.24504256,1.2958356,1.3443651
-0.2,-0.2,0.6,-0.5235987755982988,1.1102230246251565e-16,0.523598775598299,1.247991,1.7117507,0.24517322,0.32845604,0.51205635,0.4534225,0.13881531,-0.27175033,1.5922801,-0.47542787,-0.737191,-0.2436008,1.2962713,1.3696427
-0.2,-0.2,0.6,-0.5235987755982988,1.1102230246251565e-16,0.523598775598299,1.2489052,1.7101648,0.2439052,0.33000955,0.49857438,0.4555598,0.14774823,-0.27242112,1.5909839,-0.47346738,-0.7391392,-0.23537388,1.297291,1.316532
-0.2,-0.2,0.6,-0.5235987755982988,1.1102230246251565e-16,0.523598775598299,1.2439194,1.7101108,0.2409969,0.32951146,0.54366666,0.45816234,0.0212877,-0.27151883,1.5929935,-0.46843708,-0.73638594,-0.2593855,1.2959683,1.2345043
-0.2,-0.2,0.6,-0.5235987755982988,1.1102230246251565e-16,0.523598775598299,1.2506974,1.7092866,0.24592505,0.3281979,0.49816212,0.45356065,0.097827636,-0.27278855,1.5916952,-0.473191,-0.7396031,-0.250633,1.295732,1.3417336
-0.2,-0.2,0.6,-0.5235987755982988,1.1102230246251565e-16,0.523598775598299,1.2458062,1.709761,0.24428234,0.3295394,0.5354707,0.4497252,0.07088071,-0.2724096,1.5919943,-0.4698668,-0.73972845,-0.2392639,1.2928357,1.2813654
-0.2,-0.2,0.6,-0.5235987755982988,1.1102230246251565e-16,0.523598775598299,1.2570125,1.7101594,0.24483363,0.3281965,0.51041734,0.45107907,0.043873385,-0.2711346,1.591822,-0.4671381,-0.7363956,-0.23856682,1.2964615,1.3757439
-0.2,-0.2,0.6,-0.5235987755982988,1.1102230246251565e-16,0.523598775598299,1.2500353,1.7100192,0.24380575,0.32705238,0.5055456,0.45682517,0.13007995,-0.27291027,1.5917305,-0.4688765,-0.7370789,-0.24516965,1.2945031,1.283137
-0.2,-0.2,0.6,-0.5235987755982988,1.1102230246251565e-16,0.523598775598299,1.2488198,1.7106677,0.2444557,0.32932216,0.49167603,0.4567253,0.08620893,-0.27426073,1.5918422,-0.47194755,-0.7365776,-0.2572186,1.2956156,1.3064741
-0.2,-0.2,0.6,-0.5235987755982988,1.1102230246251565e-16,0.523598775598299,1.2575604,1.710718,0.2449715,0.32947972,0.5120767,0.45167932,0.054568876,-0.27224144,1.5915413,-0.46486586,-0.7385764,-0.2639702,1.2958294,1.2707766
-0.2,-0.2,0.6,-0.5235987755982988,1.1102230246251565e-16,0.523598775598299,1.2482078,1.7094232,0.24457467,0.32678083,0.50099283,0.45730603,0.09994611,-0.27281597,1.5915254,-0.46775612,-0.7376201,-0.2540177,1.2964442,1.2910526
-0.2,-0.2,0.6,-0.5235987755982988,1.1102230246251565e-16,0.523598775598299,1.2443933,1.7099198,0.24509469,0.33055958,0.4831542,0.450028,0.0385077,-0.27228674,1.5909685,-0.47465205,-0.7375822,-0.27790684,1.2952875,1.2699133
-0.2,-0.2,0.6,-0.5235987755982988,1.1102230246251565e-16,0.523598775598299,1.2556734,1.7107301,0.24402656,0.32734412,0.5091366,0.45485383,0.04791587,-0.271498,1.592423,-0.47148094,-0.73921394,-0.24916887,1.2940562,1.3868443
-0.2,-0.2,0.6,-0.5235987755982988,1.1102230246251565e-16,0.523598775598299,1.250602,1.7135749,0.24532644,0.3276977,0.53060496,0.44893768,0.12877098,-0.27131006,1.5927947,-0.46513805,-0.73740464,-0.24125215,1.2975132,1.3750509
-0.2,-0.2,0.6,-0.5235987755982988,1.1102230246251565e-16,0.523598775598299,1.2407151,1.7120788,0.24346612,0.32956713,0.4916647,0.45774418,0.10888507,-0.27095217,1.5915058,-0.4706799,-0.7380332,-0.23809823,1.297998,1.2887925
-0.2,-0.2,0.6,-0.5235987755982988,1.1102230246251565e-16,0.523598775598299,1.2482969,1.7085507,0.24374332,0.32871684,0.5198838,0.45074698,0.11330343,-0.27258345,1.5917435,-0.47230121,-0.7376024,-0.26835367,1.295468,1.2616669
-0.2,-0.2,0.6,-0.5235987755982988,1.1102230246251565e-16,0.523598775598299,1.2494838,1.7073222,0.24401882,0.32909304,0.5138328,0.45380184,0.13206154,-0.27329126,1.5921217,-0.4737902,-0.73903805,-0.25349715,1.2964541,1.2918884
-0.2,-0.2,0.6,-0.5235987755982988,1.1102230246251565e-16,0.523598775598299,1.2542466,1.7117227,0.24493223,0.32957697,0.47525164,0.45124668,0.0901319,-0.2703693,1.59146,-0.47213918,-0.7377296,-0.23884761,1.2964519,1.2524387
-0.2,-0.2,0.6,-0.5235987755982988,1.1102230246251565e-16,0.523598775598299,1.2470863,1.7075787,0.24486588,0.32941386,0.5329823,0.4502432,0.05260934,-0.27216205,1.5917615,-0.47035888,-0.7389877,-0.2427915,1.295423,1.3833396
-0.2,-0.2,0.6,-0.5235987755982988,1.1102230246251565e-16,0.523598775598299,1.247121,1.7105057,0.24368516,0.3267614,0.48739535,0.45852306,0.102669515,-0.2711869,1.591868,-0.46869412,-0.7360451,-0.25552475,1.2963759,1.4075581
-0.2,-0.2,0.6,-0.5235987755982988,1.1102230246251565e-16,0.523598775598299,1.2542986,1.7069174,0.24357533,0.32803413,0.5160844,0.45482507,0.11548525,-0.27099675,1.5918014,-0.4705532,-0.73680323,-0.25311598,1.2960105,1.4099046
-0.2,-0.2,0.6,-0.5235987755982988,1.1102230246251565e-16,0.523598775598299,1.248269,1.7069943,0.24258398,0.32952535,0.5423843,0.4577106,0.11197702,-0.27223405,1.5920538,-0.47274154,-0.7380077,-0.26232347,1.2937472,1.3693149
-0.2,-0.2,0.6,-0.5235987755982988,1.1102230246251565e-16,0.523598775598299,1.2513247,1.7123476,0.244909,0.32779512,0.5409084,0.4543585,0.07351969,-0.27190137,1.5933914,-0.47509024,-0.7386104,-0.2609433,1.2939833,1.4491254
-0.2,-0.2,0.6,-0.5235987755982988,1.1102230246251565e-16,0.523598775598299,1.2476244,1.7119181,0.24457367,0.33021253,0.47918954,0.45314258,0.10054706,-0.2726758,1.5916104,-0.472842,-0.7381465,-0.23333204,1.2928631,1.2807853
-0.2,-0.2,0.6,-0.5235987755982988,1.1102230246251565e-16,0.523598775598299,1.2436006,1.7107003,0.2439617,0.32992247,0.53553396,0.4586391,0.11137395,-0.27199426,1.5919917,-0.47737566,-0.7371924,-0.25048798,1.2931783,1.369223
-0.2,-0.2,0.6,-0.5235987755982988,1.1102230246251565e-16,0.523598775598299,1.25704,1.710283,0.24373464,0.3273544,0.51323205,0.45076755,0.11079532,-0.27244762,1.590758,-0.47004437,-0.7369567,-0.25982678,1.2952722,1.2407982
-0.2,-0.2,0.6,-0.5235987755982988,1.1102230246251565e-16,0.523598775598299,1.2436808,1.7088677,0.2432117,0.32879537,0.52190554,0.45587295,0.051221773,-0.27220345,1.5913457,-0.4833177,-0.7388207,-0.26172498,1.2918247,1.3059562
-0.2,-0.2,0.6,-0.5235987755982988,1.1102230246251565e-16,0.523598775598299,1.2464533,1.7089376,0.244629,0.33022344,0.470345,0.45560822,0.096420266,-0.27147394,1.5917236,-0.47676745,-0.7388311,-0.24489287,1.292919,1.386729
-0.2,-0.2,0.6,-0.5235987755982988,1.1102230246251565e-16,0.523598775598299,1.2546004,1.7110528,0.24159388,0.32785743,0.5355138,0.4557103,0.08423011,-0.27181104,1.5926557,-0.4698562,-0.7379121,-0.2517996,1.2977322,1.2389233
-0.2,-0.2,0.6,-0.5235987755982988,1.1102230246251565e-16,0.523598775598299,1.2545947,1.7095845,0.24370515,0.32803184,0.49528775,0.4502894,0.106475376,-0.27067056,1.591598,-0.47591186,-0.73700106,-0.23481075,1.2948378,1.3135941
-0.2,-0.2,0.6,-0.5235987755982988,1.1102230246251565e-16,0.523598775598299,1.2522912,1.7091008,0.24486431,0.32772484,0.48603958,0.45601192,0.07024503,-0.27112803,1.5914761,-0.47006348,-0.7373794,-0.22470845,1.2955823,1.2503548
-0.2,-0.2,0.6,-0.5235987755982988,1.1102230246251565e-16,0.523598775598299,1.2431532,1.7099187,0.24523462,0.32702425,0.52378744,0.45511156,0.06837372,-0.2708763,1.5925826,-0.4691089,-0.73797137,-0.23090082,1.2982546,1.3870323
-0.2,-0.2,0.6,-0.5235987755982988,1.1102230246251565e-16,0.523598775598299,1.2511402,1.70858,0.2468839,0.32892355,0.52078825,0.4511208,0.060529985,-0.2733202,1.5919068,-0.4711628,-0.7372237,-0.23782651,1.2972771,1.3020102
-0.2,-0.2,0.6,-0.5235987755982988,1.1102230246251565e-16,0.523598775598299,1.2571776,1.7089146,0.24538665,0.32842416,0.51908135,0.45140898,0.16967563,-0.27156523,1.5924057,-0.47364083,-0.73854667,-0.25682002,1.2944351,1.3298953
-0.2,-0.2,0.6,-0.5235987755982988,1.1102230246251565e-16,0.523598775598299,1.2420812,1.711096,0.24640848,0.32840392,0.532582,0.45387167,0.13184722,-0.27189928,1.5924311,-0.47299698,-0.73940474,-0.22827926,1.2990607,1.3746417
-0.2,-0.2,0.6,-0.5235987755982988,1.1102230246251565e-16,0.523598775598299,1.2479146,1.7115803,0.24413653,0.3297234,0.5010949,0.45530722,0.1084028,-0.27372992,1.5910773,-0.4694173,-0.73788,-0.26641762,1.2942626,1.3675892
-0.2,-0.2,0.6,-0.5235987755982988,1.1102230246251565e-16,0.523598775598299,1.2495565,1.7091016,0.24523506,0.32895124,0.5228636,0.45288217,0.13029687,-0.2718905,1.5919151,-0.4733518,-0.7391526,-0.23819374,1.2963785,1.2891744
-0.2,-0.2,0.6,-0.5235987755982988,1.1102230246251565e-16,0.523598775598299,1.2459493,1.70738,0.24581072,0.3280649,0.5018809,0.45419335,0.075356066,-0.27058536,1.5925982,-0.46672893,-0.7374457,-0.24909817,1.2954417,1.3758188
-0.2,-0.2,0.6,-0.5235987755982988,1.1102230246251565e-16,0.523598775598299,1.2464955,1.7097639,0.24656922,0.32893276,0.5062106,0.4610991,0.0935637,-0.27289078,1.592423,-0.4807659,-0.73698884,-0.25955722,1.290849,1.3482393
-0.2,-0.2,0.6,-0.5235987755982988,1.1102230246251565e-16,0.523598775598299,1.2434208,1.7100557,0.24392125,0.33004782,0.5095541,0.4527497,0.115714975,-0.27105308,1.5928752,-0.4720228,-0.7379362,-0.22749668,1.2978355,1.3300472
-0.2,-0.2,0.6,-0.5235987755982988,1.1102230246251565e-16,0.523598775598299,1.2407476,1.7117912,0.24581516,0.32869163,0.49199498,0.4604978,0.11792661,-0.27045596,1.5925355,-0.47451848,-0.7370896,-0.26223454,1.2950788,1.2878456
-0.2,-0.2,0.6,-0.5235987755982988,1.1102230246251565e-16,0.523598775598299,1.2462336,1.709206,0.24428858,0.32711485,0.5289225,0.4555193,0.09060954,-0.27105194,1.5919529,-0.4709422,-0.7369283,-0.24761398,1.2946007,1.4357325
-0.2,-0.2,0.6,-0.5235987755982988,1.1102230246251565e-16,0.523598775598299,1.2537386,1.7103975,0.24489021,0.32896808,0.49025682,0.45160612,0.04868202,-0.27188677,1.5918435,-0.47621247,-0.7378886,-0.26530182,1.293241,1.3158287
-0.2,-0.2,0.6,-0.5235987755982988,1.1102230246251565e-16,0.523598775598299,1.2500255,1.7126286,0.24180466,0.327236,0.5085423,0.45371038,0.0254152,-0.27276698,1.5918958,-0.4722846,-0.7374816,-0.2708108,1.2963542,1.2860368
-0.2,-0.2,0.6,-0.5235987755982988,1.1102230246251565e-16,0.523598775598299,1.2445469,1.712344,0.2449049,0.3281655,0.5013882,0.4554767,0.12913553,-0.27238148,1.5917708,-0.47200894,-0.73769516,-0.22923839,1.2935705,1.3346157
-0.2,-0.2,0.6,-0.5235987755982988,1.1102230246251565e-16,0.523598775598299,1.2551663,1.7113044,0.24797729,0.3260653,0.49094197,0.4524287,0.10681773,-0.27111062,1.5922185,-0.4706186,-0.737064,-0.24663427,1.2963248,1.3235718
-0.2,-0.2,0.6,-0.5235987755982988,1.1102230246251565e-16,0.523598775598299,1.2496852,1.7088127,0.24544623,0.328116,0.4906322,0.45405,0.14239404,-0.27281407,1.5911281,-0.47299546,-0.73635125,-0.23374438,1.2965287,1.3694327
-0.2,-0.2,0.6,-0.5235987755982988,1.1102230246251565e-16,0.523598775598299,1.2566527,1.7101582,0.24422471,0.32880616,0.4951317,0.45266843,0.1348727,-0.27180752,1.5920658,-0.46818706,-0.7393269,-0.2309619,1.297355,1.320283
-0.2,-0.2,0.6,-0.5235987755982988,1.1102230246251565e-16,0.523598775598299,1.2502812,1.7105848,0.24380343,0.32776794,0.5240081,0.46090263,0.052818533,-0.27194235,1.5905143,-0.4736219,-0.7390146,-0.25948521,1.2930268,1.3500296
-0.2,-0.2,0.6,-0.5235987755982988,1.1102230246251565e-16,0.523598775598299,1.2604002,1.7091206,0.24315892,0.32792595,0.49616736,0.4534055,0.07932299,-0.2724677,1.5913433,-0.48306742,-0.73821896,-0.27256793,1.2960565,1.3518322
-0.2,-0.2,0.6,-0.5235987755982988,1.1102230246251565e-16,0.523598775598299,1.2515051,1.7094792,0.23997705,0.33110982,0.5334852,0.4527563,0.08984953,-0.2727012,1.5914325,-0.4802212,-0.7384022,-0.25569236,1.2985185,1.2667679
-0.2,-0.2,0.6,-0.5235987755982988,1.1102230246251565e-16,0.523598775598299,1.2431308,1.7128111,0.24430363,0.33083874,0.5272389,0.4565484,0.0953763,-0.27224132,1.591674,-0.4672646,-0.737697,-0.2571271,1.2953836,1.440275
-0.2,-0.2,0.6,-0.5235987755982988,1.1102230246251565e-16,0.523598775598299,1.2460024,1.710904,0.24392425,0.32819334,0.5305971,0.4559034,0.14456263,-0.2729065,1.5915067,-0.47185054,-0.73792636,-0.25098836,1.294053,1.39203
-0.2,-0.2,0.6,-0.5235987755982988,1.1102230246251565e-16,0.523598775598299,1.2506746,1.71232,0.24650714,0.32828093,0.51582867,0.45381236,0.06805105,-0.27317768,1.5916793,-0.4670786,-0.73949575,-0.2663137,1.2948543,1.3552136
-0.2,-0.2,0.6,-0.5235987755982988,1.1102230246251565e-16,0.523598775598299,1.2474537,1.7102277,0.24665059,0.32825366,0.5417532,0.451192,0.036128376,-0.27274698,1.5909009,-0.46630722,-0.73784953,-0.23436394,1.2977977,1.4215918
-0.2,-0.2,0.6,-0.5235987755982988,1.1102230246251565e-16,0.523598775598299,1.2478088,1.7103169,0.24448405,0.32955793,0.5406574,0.45264316,0.08654884,-0.27045283,1.5936342,-0.47238627,-0.738298,-0.25006425,1.2936072,1.3556012
-0.2,-0.2,0.6,-0.5235987755982988,1.1102230246251565e-16,0.523598775598299,1.2466741,1.7105328,0.24510272,0.32914943,0.48076463,0.4591866,0.12092079,-0.273156,1.5922385,-0.4786497,-0.73984367,-0.24485938,1.2960048,1.2912651
-0.2,-0.2,0.6,-0.5235987755982988,1.1102230246251565e-16,0.523598775598299,1.2524832,1.7090546,0.243161,0.3283502,0.5388795,0.45466325,0.120704435,-0.27239162,1.5925035,-0.4713678,-0.7388801,-0.23615877,1.2955469,1.2989364
-0.2,-0.2,0.6,-0.5235987755982988,1.1102230246251565e-16,0.523598775598299,1.2488511,1.7085587,0.24638611,0.32750526,0.5427721,0.45476216,0.06351917,-0.2726177,1.5921011,-0.47637874,-0.7384728,-0.24256104,1.2947323,1.3443384
-0.2,-0.2,0.6,-0.5235987755982988,1.1102230246251565e-16,0.523598775598299,1.2588505,1.7107856,0.24121633,0.329199,0.5206425,0.45520386,0.06966967,-0.27177528,1.5927193,-0.4723932,-0.73683864,-0.24613936,1.2967708,1.3263382
-0.2,-0.2,0.6,-0.5235987755982988,1.1102230246251565e-16,0.523598775598299,1.2497982,1.7111611,0.24648178,0.32800743,0.48459795,0.45565134,0.096920595,-0.27193242,1.5924144,-0.47580364,-0.73885536,-0.24598685,1.2963772,1.4160453
-0.2,-0.2,0.6,-0.5235987755982988,1.1102230246251565e-16,0.523598775598299,1.2503357,1.7127473,0.24420983,0.32932684,0.5260715,0.45283467,0.08372223,-0.27251968,1.5929344,-0.4663188,-0.73871946,-0.26719198,1.2945647,1.3166442
-0.2,-0.2,0.6,-0.5235987755982988,1.1102230246251565e-16,0.523598775598299,1.2520816,1.7115371,0.24773578,0.32736117,0.4833606,0.4557781,0.08866523,-0.27159488,1.5910127,-0.4711135,-0.7383913,-0.26488864,1.2955409,1.4058402
-0.2,-0.2,0.6,-0.5235987755982988,1.1102230246251565e-16,0.523598775598299,1.2481443,1.7119491,0.24231583,0.33102855,0.52745664,0.45513704,0.085615456,-0.27179018,1.592031,-0.46857125,-0.738291,-0.24661893,1.2950839,1.2831517
-0.2,-0.2,0.6,-0.5235987755982988,1.1102230246251565e-16,0.523598775598299,1.2435422,1.7102965,0.24621412,0.3314463,0.46944445,0.4560786,0.11466028,-0.2732397,1.5924017,-0.46529752,-0.7377712,-0.24130338,1.3001888,1.3420892
-0.2,-0.2,0.6,-0.5235987755982988,1.1102230246251565e-16,0.523598775598299,1.2553049,1.7109729,0.2428852,0.32864216,0.5318292,0.4516115,0.12589727,-0.27191246,1.5926347,-0.47404808,-0.73936546,-0.28024614,1.2945563,1.2875932
-0.2,-0.2,0.6,-0.5235987755982988,1.1102230246251565e-16,0.523598775598299,1.2504388,1.7127699,0.24534225,0.3281401,0.49663645,0.4569285,0.06333977,-0.27103606,1.5924516,-0.4713942,-0.7383047,-0.22199954,1.297001,1.3223734
-0.2,-0.2,0.6,-0.5235987755982988,1.1102230246251565e-16,0.523598775598299,1.24904,1.7113663,0.24627867,0.3283607,0.48618788,0.45510352,0.09587997,-0.27210137,1.5928816,-0.48310885,-0.7399825,-0.27425206,1.2956328,1.3182241
-0.2,-0.2,0.6,-0.5235987755982988,1.1102230246251565e-16,0.523598775598299,1.2518104,1.708219,0.2434111,0.3301217,0.49763054,0.45273802,0.15696609,-0.27218172,1.5917541,-0.47263062,-0.7371816,-0.26620552,1.2970556,1.2242377
-0.2,-0.2,0.6,-0.5235987755982988,1.1102230246251565e-16,0.523598775598299,1.2426422,1.7109314,0.24415171,0.32964864,0.50838554,0.45635542,0.109896794,-0.27166843,1.5927776,-0.475033,-0.73954177,-0.23303343,1.2924566,1.2763267
-0.2,-0.2,0.6,-0.5235987755982988,1.1102230246251565e-16,0.523598775598299,1.2420628,1.712609,0.24357572,0.3296456,0.50628567,0.45803338,0.05457973,-0.27018496,1.5919632,-0.47337672,-0.7359556,-0.27490407,1.2961851,1.243314
-0.2,-0.2,0.6,-0.5235987755982988,1.1102230246251565e-16,0.523598775598299,1.2500021,1.711735,0.2436462,0.3283684,0.5192655,0.4547181,0.06652325,-0.27227053,1.5913343,-0.47909546,-0.7381989,-0.26042703,1.2937033,1.2629681
-0.2,-0.2,0.6,-0.5235987755982988,1.1102230246251565e-16,0.523598775598299,1.2467127,1.7101073,0.24679068,0.32751164,0.53191763,0.4552724,0.15743372,-0.27132338,1.5928171,-0.47502503,-0.7375394,-0.2295412,1.2968886,1.4114977
-0.2,-0.2,0.6,-0.5235987755982988,1.1102230246251565e-16,0.523598775598299,1.2553276,1.710343,0.24257392,0.3276704,0.5080928,0.45807877,0.09525923,-0.2728264,1.5917054,-0.47337645,-0.7399922,-0.22443914,1.2941414,1.3043858
-0.2,-0.2,0.6,-0.5235987755982988,1.1102230246251565e-16,0.523598775598299,1.2519709,1.7091699,0.24470446,0.3296221,0.51218015,0.45299444,0.037533894,-0.27109697,1.5930603,-0.47766975,-0.7379254,-0.22697465,1.2959731,1.3260417
-0.2,-0.2,0.6,-0.5235987755982988,1.1102230246251565e-16,0.523598775598299,1.2509334,1.7111014,0.24135427,0.3304471,0.53452134,0.4574192,0.07080242,-0.27118024,1.5913423,-0.4713233,-0.73770994,-0.24308665,1.2955989,1.231303
-0.2,-0.2,0.6,-0.5235987755982988,1.1102230246251565e-16,0.523598775598299,1.2494332,1.7086204,0.24309583,0.3298097,0.5275956,0.4545395,0.14695483,-0.2724991,1.5912842,-0.47009796,-0.7382829,-0.22763403,1.2953564,1.2913353
-0.2,-0.2,0.6,-0.5235987755982988,1.1102230246251565e-16,0.523598775598299,1.2499005,1.7082661,0.24284007,0.3296964,0.49824375,0.45662767,0.12156051,-0.27308568,1.5917573,-0.4790899,-0.7384278,-0.2707355,1.2946616,1.3144795
-0.2,-0.2,0.6,-0.5235987755982988,1.1102230246251565e-16,0.523598775598299,1.2512935,1.7090144,0.24462737,0.32780746,0.5278739,0.45710894,0.042211395,-0.27160686,1.5936183,-0.47464976,-0.7406522,-0.25141236,1.2946597,1.3788832
-0.2,-0.2,0.6,-0.5235987755982988,1.1102230246251565e-16,0.523598775598299,1.2439276,1.71189,0.2449525,0.3286207,0.51091456,0.4575762,0.10588682,-0.27352402,1.5910788,-0.47772762,-0.73844755,-0.2827916,1.2969538,1.3357857
-0.2,-0.2,0.6,-0.5235987755982988,1.1102230246251565e-16,0.523598775598299,1.2569611,1.7092816,0.2439316,0.3272092,0.53834534,0.45535383,0.1688882,-0.2711232,1.5927774,-0.4737001,-0.73893434,-0.23530814,1.2949716,1.3895106
-0.2,-0.2,0.6,-0.5235987755982988,1.1102230246251565e-16,0.523598775598299,1.249067,1.7111124,0.24554487,0.33028996,0.5120229,0.45566627,0.09830163,-0.27133533,1.5926939,-0.4731328,-0.73805296,-0.24770801,1.2935781,1.3933874
-0.2,-0.2,0.6,-0.5235987755982988,1.1102230246251565e-16,0.523598775598299,1.2502507,1.7105156,0.24492912,0.32921487,0.48736218,0.45488256,0.1262461,-0.27091476,1.5920509,-0.47088054,-0.7364994,-0.22557835,1.2963277,1.3248097
-0.2,-0.2,0.6,-0.5235987755982988,1.1102230246251565e-16,0.523598775598299,1.2486911,1.7086055,0.24591407,0.32838717,0.49849942,0.45497125,0.0995765,-0.27159265,1.5924376,-0.47149923,-0.73930204,-0.24439865,1.2974657,1.435809
-0.2,-0.2,0.6,-0.5235987755982988,1.1102230246251565e-16,0.523598775598299,1.2432569,1.7098453,0.24498679,0.32823905,0.5447549,0.45453918,0.14340986,-0.27124485,1.5924584,-0.47199908,-0.73826504,-0.24261948,1.292593,1.2634978
-0.2,-0.2,0.6,-0.5235987755982988,1.1102230246251565e-16,0.523598775598299,1.2473788,1.7095537,0.24426624,0.3293105,0.48929393,0.4559704,0.10055232,-0.27189574,1.5910914,-0.47054216,-0.7373585,-0.23534676,1.2942126,1.3186687
-0.2,-0.2,0.6,-0.5235987755982988,1.1102230246251565e-16,0.523598775598299,1.2508879,1.7073779,0.24359758,0.32934862,0.48941657,0.45732626,0.14870337,-0.2725999,1.5915821,-0.46918038,-0.7385519,-0.22815242,1.2943166,1.3130574
-0.2,-0.2,0.6,-0.5235987755982988,1.1102230246251565e-16,0.523598775598299,1.2500334,1.7116265,0.24481706,0.32967183,0.5144577,0.4534732,0.06890141,-0.27174464,1.5921595,-0.47616062,-0.73882633,-0.24044001,1.2937495,1.4626137
-0.2,-0.2,0.6,-0.5235987755982988,1.1102230246251565e-16,0.523598775598299,1.2520357,1.7105968,0.24528979,0.32739028,0.515651,0.45669553,0.11492056,-0.2720494,1.5914142,-0.4738307,-0.73825115,-0.2760765,1.2943501,1.2568386
-0.2,-0.2,0.6,-0.5235987755982988,1.1102230246251565e-16,0.523598775598299,1.2454937,1.7087392,0.24398266,0.32991213,0.5055434,0.45642522,0.10141391,-0.27127424,1.5917716,-0.4770161,-0.7374732,-0.25705034,1.2916995,1.239388
-0.2,-0.2,0.6,-0.5235987755982988,1.1102230246251565e-16,0.523598775598299,1.2468449,1.7071382,0.24561593,0.3295352,0.50390434,0.45606044,0.062281106,-0.27176493,1.5916287,-0.47169715,-0.7380718,-0.2392325,1.2915506,1.3283302
-0.2,-0.2,0.6,-0.5235987755982988,1.1102230246251565e-16,0.523598775598299,1.2575248,1.7087183,0.24781296,0.3250937,0.5274852,0.4545468,0.11218537,-0.27291757,1.5923678,-0.47523227,-0.7384905,-0.26618415,1.2963313,1.2999259
-0.2,-0.2,0.6,-0.5235987755982988,1.1102230246251565e-16,0.523598775598299,1.2498949,1.7103866,0.24703068,0.3290774,0.5099512,0.45460117,0.14788128,-0.27274767,1.591952,-0.47542667,-0.7395985,-0.26683044,1.296969,1.2477406
-0.2,-0.2,0.6,-0.5235987755982988,1.1102230246251565e-16,0.523598775598299,1.2519294,1.7104216,0.24403791,0.32986328,0.49358937,0.45504713,0.09034052,-0.2706075,1.5919524,-0.47401488,-0.7352403,-0.25254416,1.2939459,1.2286332
-0.2,-0.2,0.6,-0.5235987755982988,1.1102230246251565e-16,0.523598775598299,1.2597541,1.7089059,0.244139,0.3276195,0.51135516,0.46082225,0.12354023,-0.27133676,1.5920218,-0.46869883,-0.7362495,-0.26035416,1.295944,1.4414469
-0.2,-0.2,0.6,-0.5235987755982988,1.1102230246251565e-16,0.523598775598299,1.2406,1.7103734,0.24588564,0.32786593,0.5512694,0.4533542,0.17349477,-0.27149782,1.5912306,-0.48174474,-0.7374449,-0.23347996,1.2939669,1.2769204
-0.2,-0.2,0.6,-0.5235987755982988,1.1102230246251565e-16,0.523598775598299,1.2516292,1.7116476,0.24347685,0.330347,0.5115567,0.4570775,-0.020009618,-0.2722537,1.5902172,-0.46934843,-0.74193865,-0.25037134,1.291822,1.3612447
-0.2,-0.2,0.6,-0.5235987755982988,1.1102230246251565e-16,0.523598775598299,1.2451195,1.7087573,0.24504484,0.32784343,0.55033696,0.4522062,0.06669655,-0.2713678,1.592764,-0.47559142,-0.73791957,-0.2275213,1.2938085,1.334713
-0.2,-0.2,0.6,-0.5235987755982988,1.1102230246251565e-16,0.523598775598299,1.2546271,1.7095098,0.24586555,0.32597932,0.5126607,0.457119,0.033519126,-0.2719098,1.5918875,-0.47661772,-0.73742104,-0.2436189,1.292186,1.3687236
-0.2,-0.2,0.6,-0.5235987755982988,1.1102230246251565e-16,0.523598775598299,1.2439151,1.7086748,0.24391338,0.32746896,0.49580842,0.44981334,0.05900712,-0.27359113,1.5913392,-0.46467227,-0.7388253,-0.23318583,1.2910905,1.2667979
-0.2,-0.2,0.6,-0.5235987755982988,1.1102230246251565e-16,0.523598775598299,1.2421995,1.708085,0.247113,0.32824388,0.49242863,0.44803143,0.123282194,-0.27166024,1.5928009,-0.4675948,-0.73999983,-0.2393387,1.2933909,1.3813452
-0.2,-0.2,0.6,-0.5235987755982988,1.1102230246251565e-16,0.523598775598299,1.2489998,1.7102374,0.2463822,0.32884094,0.48914942,0.45126548,0.08142817,-0.2706362,1.5915937,-0.4666849,-0.7369155,-0.25228098,1.2940705,1.326921
-0.2,-0.2,0.6,-0.5235987755982988,1.1102230246251565e-16,0.523598775598299,1.2465386,1.7095833,0.24340276,0.32722452,0.5209387,0.4519675,0.022138685,-0.27128,1.5918244,-0.48121548,-0.7388111,-0.25241596,1.2960278,1.3659834
-0.2,-0.2,0.6,-0.5235987755982988,1.1102230246251565e-16,0.523598775598299,1.2486404,1.7112839,0.2426427,0.32645804,0.5211847,0.4556803,0.07020867,-0.27101347,1.5910943,-0.47820064,-0.7373219,-0.26503846,1.2955967,1.3615692
-0.2,-0.2,0.6,-0.5235987755982988,1.1102230246251565e-16,0.523598775598299,1.251241,1.7087042,0.2463162,0.32807785,0.49006546,0.45401847,0.06903532,-0.27205938,1.5910575,-0.47881928,-0.73824453,-0.28211078,1.2956451,1.4750494
-0.2,-0.2,0.6,-0.5235987755982988,1.1102230246251565e-16,0.523598775598299,1.2389688,1.7100736,0.24495025,0.32781434,0.51846313,0.44976866,0.001558508,-0.27208447,1.5908777,-0.47556752,-0.73754966,-0.23274058,1.2932485,1.307937
-0.2,-0.2,0.6,-0.5235987755982988,1.1102230246251565e-16,0.523598775598299,1.2518568,1.7094628,0.24593246,0.3266138,0.517036,0.4518863,0.10727941,-0.27259836,1.5920333,-0.47480386,-0.73725134,-0.23092443,1.2955838,1.4265466
-0.2,-0.2,0.6,-0.5235987755982988,1.1102230246251565e-16,0.523598775598299,1.2468494,1.7078604,0.2436806,0.32799485,0.5018856,0.4569427,0.035931934,-0.2704773,1.5911838,-0.47472516,-0.73837847,-0.26654378,1.301076,1.3198757
-0.2,-0.2,0.6,-0.5235987755982988,1.1102230246251565e-16,0.523598775598299,1.2431073,1.7113268,0.24522546,0.3286052,0.541016,0.45468727,0.11454686,-0.2720651,1.5924187,-0.4686698,-0.73943233,-0.26597437,1.2972432,1.2202262
-0.2,-0.2,0.6,-0.5235987755982988,1.1102230246251565e-16,0.523598775598299,1.2469225,1.7104897,0.24484411,0.3275729,0.48354262,0.44900686,0.07999379,-0.27037695,1.5912519,-0.4742637,-0.7376173,-0.27735817,1.2967522,1.2367464
-0.2,-0.2,0.6,-0.5235987755982988,1.1102230246251565e-16,0.523598775598299,1.2470068,1.707522,0.24290752,0.32684493,0.52606374,0.45767996,0.096507676,-0.27132362,1.592331,-0.47048932,-0.7376659,-0.24239127,1.2946918,1.305898
-0.2,-0.2,0.6,-0.5235987755982988,1.1102230246251565e-16,0.523598775598299,1.2403504,1.7102889,0.24159947,0.3263585,0.50421166,0.45370892,0.073381245,-0.27103108,1.5899756,-0.4719125,-0.73904455,-0.2548461,1.2965555,1.3205783
-0.2,-0.2,0.6,-0.5235987755982988,1.1102230246251565e-16,0.523598775598299,1.2524278,1.7111825,0.24493013,0.3284798,0.53806025,0.44809633,0.09611592,-0.2725662,1.5917841,-0.4786979,-0.7382151,-0.24601872,1.2949312,1.450663
-0.2,-0.2,0.6,-0.5235987755982988,1.1102230246251565e-16,0.523598775598299,1.247697,1.7108681,0.24350868,0.32731035,0.51235354,0.45261055,0.12316944,-0.26996937,1.5905265,-0.46741846,-0.73663616,-0.25258493,1.2964318,1.4178282
-0.2,-0.2,0.6,-0.5235987755982988,1.1102230246251565e-16,0.523598775598299,1.2581137,1.709458,0.24541272,0.33041832,0.49957398,0.45326856,0.052355103,-0.27090806,1.5907843,-0.47471377,-0.7394254,-0.26118496,1.2946477,1.3661427
-0.2,-0.2,0.6,-0.5235987755982988,1.1102230246251565e-16,0.523598775598299,1.2486601,1.7096983,0.2446844,0.32808796,0.50884175,0.45241708,0.1292854,-0.27141404,1.5914067,-0.47312102,-0.73914856,-0.2616035,1.293406,1.4051721
-0.2,-0.2,0.6,-0.5235987755982988,1.1102230246251565e-16,0.523598775598299,1.2558172,1.709377,0.24541332,0.32812357,0.49869275,0.45760426,0.09251436,-0.27087438,1.5916997,-0.47610784,-0.7381048,-0.2577114,1.2974339,1.3922371
-0.2,-0.2,0.6,-0.5235987755982988,1.1102230246251565e-16,0.523598775598299,1.2495681,1.7113369,0.24471942,0.32617503,0.47344506,0.4520319,0.094579116,-0.27051103,1.5917726,-0.4805297,-0.73847115,-0.24599464,1.2937417,1.3918113
-0.2,-0.2,0.6,-0.5235987755982988,1.1102230246251565e-16,0.523598775598299,1.2450262,1.7100742,0.2417952,0.33108225,0.5087517,0.45320788,0.09434821,-0.27347484,1.5936193,-0.47700605,-0.7380805,-0.24244215,1.2962731,1.3034643
-0.2,-0.2,0.6,-0.5235987755982988,1.1102230246251565e-16,0.523598775598299,1.2492739,1.7080028,0.24539015,0.33142397,0.5235752,0.45320967,0.06615762,-0.27139977,1.5929282,-0.46736258,-0.7392683,-0.2584219,1.2963918,1.411247
-0.2,-0.2,0.6,-0.5235987755982988,1.1102230246251565e-16,0.523598775598299,1.2524059,1.7117926,0.24123682,0.32748887,0.52352285,0.45432743,0.14425924,-0.2700644,1.5909427,-0.4751565,-0.7389204,-0.2637643,1.2991796,1.2403389
-0.2,-0.2,0.6,-0.5235987755982988,1.1102230246251565e-16,0.523598775598299,1.2512794,1.7095661,0.24437948,0.3274776,0.5373422,0.45430365,0.06497202,-0.27149728,1.5908334,-0.46884683,-0.7385655,-0.25473723,1.2940474,1.4253513
-0.2,-0.2,0.6,-0.5235987755982988,1.1102230246251565e-16,0.523598775598299,1.2366558,1.7081733,0.24282861,0.32704642,0.49811167,0.4543812,0.062360145,-0.2711042,1.591349,-0.47493318,-0.7384713,-0.24734303,1.2931279,1.2590113
-0.2,-0.2,0.6,-0.5235987755982988,1.1102230246251565e-16,0.523598775598299,1.2427517,1.7087572,0.24492173,0.32556826,0.48517463,0.45194915,0.065309495,-0.2712792,1.5907162,-0.46782115,-0.7370071,-0.22938187,1.2966847,1.3328037
-0.2,-0.2,0.6,-0.5235987755982988,1.1102230246251565e-16,0.523598775598299,1.2551492,1.7096832,0.24492861,0.32771412,0.4924536,0.45118257,0.09812868,-0.27069858,1.5916448,-0.4724342,-0.73903435,-0.26001444,1.2962731,1.3849977
-0.2,-0.2,0.6,-0.5235987755982988,1.1102230246251565e-16,0.523598775598299,1.2515074,1.7093599,0.24637347,0.3301081,0.50828445,0.45617783,0.1273544,-0.27084863,1.5922,-0.47915247,-0.73741996,-0.2484909,1.2943604,1.3431287
-0.2,-0.2,0.6,-0.5235987755982988,1.1102230246251565e-16,0.523598775598299,1.2385523,1.7116427,0.24435748,0.32697827,0.55443496,0.4520669,0.16676162,-0.27057296,1.5913178,-0.4726653,-0.73706037,-0.24340506,1.2938006,1.3503654
-0.2,-0.2,0.6,-0.5235987755982988,1.1102230246251565e-16,0.523598775598299,1.2421458,1.7112333,0.24259011,0.32800046,0.5367483,0.45298746,0.02730289,-0.2713483,1.5907893,-0.47407928,-0.7381493,-0.26089737,1.2949228,1.3303001
-0.2,-0.2,0.6,-0.5235987755982988,1.1102230246251565e-16,0.523598775598299,1.2528805,1.7096895,0.24304679,0.3286938,0.5210277,0.45224363,0.092020474,-0.27127716,1.5908589,-0.4726276,-0.7379204,-0.26337576,1.2931596,1.3022869
-0.2,-0.2,0.6,-0.5235987755982988,1.1102230246251565e-16,0.523598775598299,1.2536747,1.7123158,0.24467055,0.32697836,0.52300805,0.45822397,0.061014052,-0.27130213,1.5926499,-0.47635928,-0.7381517,-0.2606758,1.2942203,1.2926047
-0.2,-0.2,0.6,-0.5235987755982988,1.1102230246251565e-16,0.523598775598299,1.2452064,1.711701,0.24269713,0.3302641,0.5211437,0.45100355,0.067632295,-0.2715469,1.5909996,-0.47469112,-0.7366689,-0.2576724,1.298122,1.2402229
-0.2,-0.2,0.6,-0.5235987755982988,1.1102230246251565e-16,0.523598775598299,1.247733,1.7102956,0.24296235,0.32909173,0.4818381,0.45770794,0.07435589,-0.27171594,1.5918593,-0.47894666,-0.7365836,-0.25723174,1.2935665,1.3757677
-0.2,-0.2,0.6,-0.5235987755982988,1.1102230246251565e-16,0.523598775598299,1.2442949,1.7096392,0.24388151,0.32955927,0.48035127,0.45126048,0.122703366,-0.27137798,1.5915464,-0.47139263,-0.73858887,-0.24205546,1.2949224,1.3298973
-0.2,-0.2,0.6,-0.5235987755982988,1.1102230246251565e-16,0.523598775598299,1.253169,1.7110357,0.24308965,0.3287166,0.50569355,0.4556585,0.08633411,-0.27094486,1.5922667,-0.47339675,-0.7388169,-0.251332,1.2961413,1.3543075
-0.2,-0.2,0.6,-0.5235987755982988,1.1102230246251565e-16,0.523598775598299,1.249224,1.7108861,0.24568048,0.32789403,0.5275085,0.45101327,0.08937941,-0.27111888,1.5905199,-0.4770104,-0.73700607,-0.25015843,1.2939324,1.3062948
-0.2,-0.2,0.6,-0.5235987755982988,1.1102230246251565e-16,0.523598775598299,1.242499,1.7104152,0.2431719,0.32936373,0.5486185,0.44844142,0.12811051,-0.27208138,1.5914489,-0.47361997,-0.73887473,-0.24574266,1.2936033,1.3381675
-0.2,-0.2,0.6,-0.5235987755982988,1.1102230246251565e-16,0.523598775598299,1.2537489,1.7098024,0.2422552,0.32814762,0.54664505,0.45476663,0.07191624,-0.27291298,1.5913633,-0.4692664,-0.74038875,-0.27187046,1.2944844,1.3475947
-0.2,-0.2,0.6,-0.5235987755982988,1.1102230246251565e-16,0.523598775598299,1.2512497,1.7111571,0.24434587,0.32887548,0.50745124,0.45166844,0.11266493,-0.27077943,1.5915252,-0.472348,-0.7381013,-0.2526538,1.2945783,1.2919563
-0.2,-0.2,0.6,-0.5235987755982988,1.1102230246251565e-16,0.523598775598299,1.2358397,1.7124215,0.24403708,0.32890502,0.4931798,0.45247254,0.13714708,-0.2725135,1.5908874,-0.4670358,-0.73824084,-0.24272478,1.295403,1.3609452
-0.2,-0.2,0.6,-0.5235987755982988,1.1102230246251565e-16,0.523598775598299,1.2442209,1.7107465,0.24290319,0.3277087,0.5151037,0.45507833,0.025513789,-0.2712547,1.5908855,-0.4699586,-0.7394613,-0.24276286,1.2948949,1.4519266
-0.2,-0.2,0.6,-0.5235987755982988,1.1102230246251565e-16,0.523598775598299,1.243644,1.7106063,0.2442593,0.32810837,0.49213034,0.45444044,0.17050695,-0.2725728,1.5925283,-0.4661771,-0.7398922,-0.23114261,1.2981458,1.3430612
-0.2,-0.2,0.6,-0.5235987755982988,1.1102230246251565e-16,0.523598775598299,1.2494841,1.7098688,0.24406393,0.32883453,0.5264828,0.45106342,0.13036841,-0.2709912,1.5907378,-0.46848592,-0.73795307,-0.2537006,1.2949476,1.3232813
-0.2,-0.2,0.6,-0.5235987755982988,1.1102230246251565e-16,0.523598775598299,1.2436165,1.7098154,0.24548793,0.32833645,0.51581895,0.4554073,0.07493174,-0.27238354,1.591194,-0.4731328,-0.73841727,-0.23667686,1.2973698,1.2479836
-0.2,-0.2,0.6,-0.5235987755982988,1.1102230246251565e-16,0.523598775598299,1.2429261,1.7122175,0.24449708,0.32656977,0.5154517,0.45639998,0.094073534,-0.27045214,1.590341,-0.48277166,-0.7387264,-0.26748937,1.2971697,1.364887
-0.2,-0.2,0.6,-0.5235987755982988,1.1102230246251565e-16,0.523598775598299,1.2567883,1.7085112,0.24340919,0.3281072,0.47127655,0.45150712,0.01610533,-0.27145,1.5903785,-0.47704488,-0.7368837,-0.2558811,1.2911417,1.3352525
-0.2,-0.2,0.6,-0.5235987755982988,1.1102230246251565e-16,0.523598775598299,1.252424,1.7126026,0.24412026,0.3303666,0.511995,0.44957715,0.12610237,-0.2707192,1.592083,-0.47480953,-0.73841214,-0.24348311,1.2944218,1.3964905
-0.2,-0.2,0.6,-0.5235987755982988,1.1102230246251565e-16,0.523598775598299,1.2506052,1.7089139,0.24376738,0.32983795,0.50493544,0.44902274,0.081861146,-0.27250218,1.5917516,-0.47736374,-0.73990095,-0.2615719,1.2952998,1.3079553
