sanky1234/BimanualDexCatch/isaacgymenvs/cem_results/football_pose_0.1_0.0_1.4_-0.5235987755982988_-0.5235987755982988_0_2025-05-26.csv
x,y,z,roll,pitch,yaw,robot1/joint1,robot1/joint2,robot1/joint3,robot1/joint4,robot1/joint5,robot1/joint6,robot1/joint7,robot2/joint1,robot2/joint2,robot2/joint3,robot2/joint4,robot2/joint5,robot2/joint6,robot2/joint7
0.1,0.0,1.4,-0.5235987755982988,-0.5235987755982988,0,-1.7262496,1.2227442,-0.5540781,0.40987247,-0.48646086,1.3469657,-2.5737123,1.2457169,-1.7175436,0.016317382,-0.13926338,0.03002816,1.1679058,-0.050609984
0.1,0.0,1.4,-0.5235987755982988,-0.5235987755982988,0,-1.7258035,1.2218486,-0.5568429,0.40900755,-0.48903635,1.3440242,-2.4983141,1.0893866,-1.6435782,-0.024048876,-0.023795824,-0.08062261,1.1191001,0.23049021
0.1,0.0,1.4,-0.5235987755982988,-0.5235987755982988,0,-1.7265432,1.2209817,-0.552194,0.4115268,-0.49376604,1.3451338,-2.508494,1.1482805,-1.6960636,-0.12959842,-0.07902849,0.09606755,1.0724221,0.6343971
0.1,0.0,1.4,-0.5235987755982988,-0.5235987755982988,0,-1.7250876,1.2213839,-0.5543792,0.40618068,-0.48488718,1.3482723,-2.49644,1.0817921,-1.6492755,0.009614737,-0.123666644,0.061034527,1.3332317,-1.4628844
0.1,0.0,1.4,-0.5235987755982988,-0.5235987755982988,0,-1.7291853,1.2219212,-0.5556207,0.40479752,-0.48516366,1.3465277,-2.5174983,1.3290423,-1.6337097,-0.18466578,-0.09749323,0.18769805,1.1009566,-0.13461123
0.1,0.0,1.4,-0.5235987755982988,-0.5235987755982988,0,-1.7279747,1.2208034,-0.55586934,0.40349844,-0.4847796,1.3481406,-2.4599113,1.2672688,-1.831175,-0.3582239,-0.09869242,-0.1355954,1.2168616,-0.99283725
0.1,0.0,1.4,-0.5235987755982988,-0.5235987755982988,0,-1.7262857,1.2203602,-0.55000025,0.39935082,-0.48119688,1.3412534,-2.4275608,1.1485937,-1.5664843,-0.4658871,-0.116493784,0.096810445,1.1588328,-0.43588978
0.1,0.0,1.4,-0.5235987755982988,-0.5235987755982988,0,-1.7216272,1.2221326,-0.5524119,0.4021835,-0.47545853,1.3453245,-2.4894903,1.0875646,-1.731375,-0.17839171,-0.030529207,-0.048348673,0.97681385,-0.7800418
0.1,0.0,1.4,-0.5235987755982988,-0.5235987755982988,0,-1.7254795,1.2227722,-0.55215657,0.4024688,-0.47846392,1.3379587,-2.5484672,1.1290631,-1.6259437,-0.082766704,-0.06775224,-0.18322423,1.2597486,-0.15795396
0.1,0.0,1.4,-0.5235987755982988,-0.5235987755982988,0,-1.7241592,1.2222844,-0.5520872,0.40273845,-0.48190188,1.3471634,-2.525264,1.0691231,-1.5062089,-0.09515175,-0.06028905,0.026980085,0.97500896,-0.3543975
0.1,0.0,1.4,-0.5235987755982988,-0.5235987755982988,0,-1.7235003,1.2191573,-0.5522526,0.40320143,-0.4771259,1.343438,-2.455173,1.1604353,-1.5190355,-0.36963853,-0.07390001,0.016938502,1.2070363,-1.4100938
0.1,0.0,1.4,-0.5235987755982988,-0.5235987755982988,0,-1.7231064,1.221413,-0.54899573,0.40214774,-0.48443446,1.3434497,-2.5349858,1.1018018,-1.7038227,-0.3316376,-0.09771085,-0.06496298,1.0657295,0.7234082
0.1,0.0,1.4,-0.5235987755982988,-0.5235987755982988,0,-1.7258193,1.2205311,-0.55386585,0.39906403,-0.48221806,1.3456802,-2.5672944,1.0135252,-1.4934648,-0.39493707,-0.076241255,0.20231622,1.2753457,-0.12652442
0.1,0.0,1.4,-0.5235987755982988,-0.5235987755982988,0,-1.7242559,1.2223173,-0.5559317,0.4015948,-0.4795466,1.3422102,-2.5043547,1.3330953,-1.5177791,-0.18539779,-0.064656906,0.15082492,1.0257492,-0.9581054
0.1,0.0,1.4,-0.5235987755982988,-0.5235987755982988,0,-1.7222923,1.2218463,-0.55285805,0.4006241,-0.48310852,1.3422198,-2.4657655,1.0697148,-1.6886778,-0.100291766,-0.13012305,0.03147488,1.1444094,0.22030461
0.1,0.0,1.4,-0.5235987755982988,-0.5235987755982988,0,-1.7242086,1.2219423,-0.5496535,0.40334088,-0.4836765,1.3456438,-2.4906259,1.0061213,-1.6764102,-0.3064496,-0.08891252,0.17039137,1.1593308,-1.0955478
0.1,0.0,1.4,-0.5235987755982988,-0.5235987755982988,0,-1.7248458,1.2226316,-0.5536282,0.39976636,-0.4934642,1.3456056,-2.488741,1.3558611,-1.5699466,-0.072757326,0.012815356,-0.17956968,1.1931663,0.70350504
0.1,0.0,1.4,-0.5235987755982988,-0.5235987755982988,0,-1.7244618,1.2205117,-0.5502761,0.4031533,-0.48330986,1.3449999,-2.5113513,0.88176924,-1.6376927,-0.103482276,-0.14066075,0.12148405,1.1829295,0.19809532
0.1,0.0,1.4,-0.5235987755982988,-0.5235987755982988,0,-1.7245666,1.2213627,-0.5543803,0.3997375,-0.4863353,1.3462299,-2.48744,1.1103271,-1.59307,0.17283078,-0.12029265,0.31395024,1.1487647,-0.3569104
0.1,0.0,1.4,-0.5235987755982988,-0.5235987755982988,0,-1.7229868,1.221487,-0.5520252,0.40079015,-0.48583522,1.3428254,-2.557472,1.0286613,-1.6549355,-0.30017513,-0.08378302,-0.073230475,1.2088294,0.3375314
0.1,0.0,1.4,-0.5235987755982988,-0.5235987755982988,0,-1.7225718,1.2198517,-0.55347055,0.4037169,-0.48119918,1.3436859,-2.4978511,1.1574962,-1.6003058,-0.2370394,0.007889549,-0.11628197,1.2010049,-1.0207332
0.1,0.0,1.4,-0.5235987755982988,-0.5235987755982988,0,-1.724679,1.2213235,-0.5514542,0.40471363,-0.4832831,1.3429315,-2.4975507,1.1476223,-1.7128824,-0.27747247,-0.112742186,0.31971416,1.1285108,-1.1559625
0.1,0.0,1.4,-0.5235987755982988,-0.5235987755982988,0,-1.7250819,1.219533,-0.5508603,0.4035838,-0.48311022,1.3474196,-2.483319,1.1190039,-1.5140176,-0.034016002,-0.095681936,-0.024395863,1.1833714,-1.4243289
0.1,0.0,1.4,-0.5235987755982988,-0.5235987755982988,0,-1.7233012,1.2223604,-0.55530393,0.4036704,-0.48118412,1.3394634,-2.5176773,1.2329756,-1.7831513,-0.21498743,-0.042243756,0.2366512,1.1018597,-1.2489872
0.1,0.0,1.4,-0.5235987755982988,-0.5235987755982988,0,-1.722945,1.222248,-0.55172676,0.4041642,-0.480512,1.344343,-2.5612433,1.0844674,-1.7518251,-0.18517701,-0.088325836,-0.14877285,1.1980913,-0.8405235
0.1,0.0,1.4,-0.5235987755982988,-0.5235987755982988,0,-1.7256922,1.2203304,-0.55153024,0.4016716,-0.48139837,1.3522329,-2.527457,1.1897345,-1.493141,-0.19398104,-0.013428174,-0.14593865,1.142541,0.53240925
0.1,0.0,1.4,-0.5235987755982988,-0.5235987755982988,0,-1.7241635,1.2200983,-0.5518127,0.40326503,-0.47911355,1.3444184,-2.514957,0.9899652,-1.7057762,-0.2145947,-0.12241715,-0.030630654,1.1805855,-1.1544893
0.1,0.0,1.4,-0.5235987755982988,-0.5235987755982988,0,-1.7266388,1.2202804,-0.5504932,0.40418816,-0.49023739,1.3429726,-2.4891665,1.042617,-1.6578342,-0.31690404,-0.14499593,-0.03137866,1.1066896,-0.7628171
0.1,0.0,1.4,-0.5235987755982988,-0.5235987755982988,0,-1.7253435,1.2219888,-0.5554304,0.40275872,-0.4826523,1.3416806,-2.5323045,1.0615942,-1.6625906,-0.33994377,-0.004863803,-0.36579686,1.1618257,-0.50687087
0.1,0.0,1.4,-0.5235987755982988,-0.5235987755982988,0,-1.7218727,1.2214631,-0.55360335,0.40594855,-0.47632074,1.3437552,-2.5384192,1.0952406,-1.6704752,-0.18797669,-0.032220136,0.23175731,1.2280223,1.160495
0.1,0.0,1.4,-0.5235987755982988,-0.5235987755982988,0,-1.7236462,1.2216511,-0.5544053,0.4021008,-0.48558465,1.3448906,-2.493045,1.0884119,-1.7384193,-0.33029968,-0.18084665,-0.056494053,1.1458237,-0.74457437
0.1,0.0,1.4,-0.5235987755982988,-0.5235987755982988,0,-1.7254859,1.2201283,-0.5506497,0.40264964,-0.48453626,1.3465378,-2.4652693,1.3194053,-1.7816726,-0.4816146,-0.09022914,-0.044195108,1.2021719,1.0561316
0.1,0.0,1.4,-0.5235987755982988,-0.5235987755982988,0,-1.7226176,1.2225947,-0.5532317,0.40458,-0.4822092,1.345736,-2.5269098,1.1861845,-1.7102612,0.043581124,-0.13865446,-0.08537614,1.0966047,0.9454767
0.1,0.0,1.4,-0.5235987755982988,-0.5235987755982988,0,-1.7277888,1.2226517,-0.55199695,0.4009789,-0.4868663,1.3452344,-2.4312584,1.2352005,-1.7493699,-0.2542983,-0.038953774,-0.081924394,1.1743367,0.16279963
0.1,0.0,1.4,-0.5235987755982988,-0.5235987755982988,0,-1.7271377,1.2234199,-0.5547106,0.4008334,-0.48318776,1.345541,-2.4599872,1.1659509,-1.6682485,-0.12290107,-0.06517491,-0.38347957,1.1130323,-1.8704001
0.1,0.0,1.4,-0.5235987755982988,-0.5235987755982988,0,-1.724345,1.2196729,-0.55394274,0.4047906,-0.481279,1.3385901,-2.5097055,1.1566457,-1.7402639,-0.021438377,-0.023821898,-0.056999534,1.2082425,0.92337507
0.1,0.0,1.4,-0.5235987755982988,-0.5235987755982988,0,-1.7241843,1.2217627,-0.5547485,0.40084782,-0.49104673,1.3429569,-2.526074,1.1719245,-1.7859062,-0.2786686,-0.13036586,0.051363394,1.2058227,-1.2106847
0.1,0.0,1.4,-0.5235987755982988,-0.5235987755982988,0,-1.7250121,1.2199138,-0.5521045,0.4035417,-0.48780718,1.3424802,-2.5137017,1.3260851,-1.7428403,-0.124001965,-0.09298385,0.07595247,1.1405735,-0.9995159
0.1,0.0,1.4,-0.5235987755982988,-0.5235987755982988,0,-1.7242044,1.2211051,-0.55229557,0.40608668,-0.48676312,1.3424871,-2.4941416,0.96488315,-1.6254894,-0.08081709,-0.14134984,0.055488072,1.1433668,1.6041366
0.1,0.0,1.4,-0.5235987755982988,-0.5235987755982988,0,-1.7254107,1.2212868,-0.5587868,0.40312058,-0.48150405,1.3416986,-2.5430608,1.2347746,-1.4664217,-0.28187826,-0.08298509,-0.16627921,1.3420644,0.5640528
0.1,0.0,1.4,-0.5235987755982988,-0.5235987755982988,0,-1.7270427,1.2216959,-0.55217206,0.4018034,-0.4829021,1.3454977,-2.5119834,0.9231886,-1.7566874,-0.04504397,-0.10452487,0.068704166,1.1132612,-0.8625606
0.1,0.0,1.4,-0.5235987755982988,-0.5235987755982988,0,-1.7217548,1.2200122,-0.55380493,0.403094,-0.484878,1.348644,-2.4916375,1.0159111,-1.7766273,-0.26101694,-0.059376847,-0.034845084,0.9539518,-0.6396447
0.1,0.0,1.4,-0.5235987755982988,-0.5235987755982988,0,-1.7229462,1.2239261,-0.55597043,0.40375826,-0.48150712,1.3452926,-2.5008628,1.0750823,-1.6056461,-0.19181329,-0.06284184,0.1834555,1.135022,-0.7770131
0.1,0.0,1.4,-0.5235987755982988,-0.5235987755982988,0,-1.7230425,1.2218033,-0.5539976,0.40394944,-0.4830871,1.344576,-2.5227447,1.1272655,-1.7491274,-0.23729011,-0.1409681,-0.08493089,1.20602,-0.53724873
0.1,0.0,1.4,-0.5235987755982988,-0.5235987755982988,0,-1.7277863,1.2215296,-0.55235493,0.403175,-0.48102754,1.3433646,-2.5381901,0.9992509,-1.6953391,-0.432843,-0.1286164,-0.012818196,1.1980071,0.35867813
0.1,0.0,1.4,-0.5235987755982988,-0.5235987755982988,0,-1.7235426,1.2203017,-0.5560595,0.40320763,-0.4737611,1.3452531,-2.4994462,1.2844696,-1.7020115,-0.053185347,-0.08647876,-0.10407452,0.9942921,-0.44988948
0.1,0.0,1.4,-0.5235987755982988,-0.5235987755982988,0,-1.7242974,1.2205124,-0.55285877,0.4073918,-0.48555735,1.3420405,-2.5083816,1.116329,-1.5464329,-0.022137783,-0.066162236,0.05697721,1.1963668,1.002501
0.1,0.0,1.4,-0.5235987755982988,-0.5235987755982988,0,-1.7214979,1.2214698,-0.55288064,0.40392435,-0.49036053,1.3447362,-2.5804846,1.2509496,-1.6557977,-0.3851774,-0.047313027,-0.055011004,1.1964217,-0.31166464
0.1,0.0,1.4,-0.5235987755982988,-0.5235987755982988,0,-1.7252579,1.2217214,-0.55389595,0.4038959,-0.48771024,1.3438475,-2.5619464,1.1702392,-1.5827205,-0.38147464,-0.07273467,-0.022263775,1.1436828,-1.0212693
0.1,0.0,1.4,-0.5235987755982988,-0.5235987755982988,0,-1.7262381,1.2199231,-0.55160683,0.4057059,-0.482168,1.3477882,-2.539576,1.0513026,-1.4959233,-0.03883629,-0.13229753,0.004898369,1.1508948,-0.97204137
0.1,0.0,1.4,-0.5235987755982988,-0.5235987755982988,0,-1.7233759,1.2222204,-0.5560448,0.4030654,-0.48965576,1.3469751,-2.4845908,1.2096639,-1.73449,-0.31101778,0.13624287,0.03243692,1.1722059,-0.18760207
0.1,0.0,1.4,-0.5235987755982988,-0.5235987755982988,0,-1.7230402,1.2213748,-0.5539494,0.40545338,-0.48927665,1.3432224,-2.5491393,0.96502924,-1.7648636,-0.52462983,0.013030509,0.16680032,1.1215767,-0.107241936
0.1,0.0,1.4,-0.5235987755982988,-0.5235987755982988,0,-1.7228297,1.2229344,-0.55555546,0.40401486,-0.47967386,1.3459686,-2.5133367,1.5113325,-1.6588701,-0.21385324,-0.03444936,-0.1163416,1.2948209,-1.2936608
0.1,0.0,1.4,-0.5235987755982988,-0.5235987755982988,0,-1.7262636,1.2201984,-0.5533309,0.40691024,-0.4778782,1.3378112,-2.5094283,1.1795452,-1.7080637,-0.22094172,-0.10801653,0.10030919,1.222729,0.48001653
0.1,0.0,1.4,-0.5235987755982988,-0.5235987755982988,0,-1.7250457,1.2220349,-0.55793893,0.3997431,-0.48415312,1.3431063,-2.550954,0.9484604,-1.7161905,-0.07480686,-0.12625201,0.071347766,1.3091878,-0.7368052
0.1,0.0,1.4,-0.5235987755982988,-0.5235987755982988,0,-1.7228638,1.2218112,-0.55354345,0.4037008,-0.48925328,1.3471781,-2.4838924,1.2136669,-1.6485269,-0.17880864,-0.048058126,0.09644955,1.1514655,-0.5620348
0.1,0.0,1.4,-0.5235987755982988,-0.5235987755982988,0,-1.7240444,1.2207623,-0.55283374,0.4046032,-0.48811886,1.3462933,-2.5004406,1.3232031,-1.6042725,-0.49891737,-0.078572944,-0.039211918,1.1312702,-0.3763858
0.1,0.0,1.4,-0.5235987755982988,-0.5235987755982988,0,-1.725112,1.2210385,-0.5546632,0.405107,-0.47908497,1.3410256,-2.5280526,1.2336957,-1.7835404,-0.11760338,-0.13688092,-0.30320504,1.1836691,1.6070205
0.1,0.0,1.4,-0.5235987755982988,-0.5235987755982988,0,-1.7268758,1.2200127,-0.5528805,0.4052189,-0.4837555,1.3443501,-2.5352945,1.016032,-1.5625973,-0.008774834,-0.094991736,-0.16877566,1.1134253,-0.9761101
0.1,0.0,1.4,-0.5235987755982988,-0.5235987755982988,0,-1.7245392,1.220924,-0.55292475,0.40122724,-0.48219022,1.3495069,-2.5819826,1.187999,-1.6525615,0.023549525,-0.00793822,0.10579242,1.1234889,0.58269686
0.1,0.0,1.4,-0.5235987755982988,-0.5235987755982988,0,-1.7246481,1.2217969,-0.55201244,0.40578038,-0.48495764,1.3461709,-2.4593654,1.046534,-1.6406928,-0.074229695,-0.07950709,0.080291815,1.228906,-0.48687443
0.1,0.0,1.4,-0.5235987755982988,-0.5235987755982988,0,-1.7256533,1.221061,-0.55352354,0.40497577,-0.4798763,1.3464737,-2.520047,1.2298801,-1.6059538,-0.36966276,-0.15740076,-0.16092877,1.194056,-0.8346325
0.1,0.0,1.4,-0.5235987755982988,-0.5235987755982988,0,-1.7239681,1.221387,-0.55380267,0.4063364,-0.48636985,1.349191,-2.4375327,1.1905566,-1.691808,-0.12888499,0.13736331,0.38347962,1.2903666,-0.5960309
0.1,0.0,1.4,-0.5235987755982988,-0.5235987755982988,0,-1.722,1.2214289,-0.55292314,0.40573332,-0.485883,1.3450825,-2.579984,1.0853748,-1.6999176,-0.2429101,-0.0062951674,-0.001157116,1.163614,0.9474036
0.1,0.0,1.4,-0.5235987755982988,-0.5235987755982988,0,-1.725347,1.2217813,-0.55482,0.4046032,-0.4880579,1.3428308,-2.4950078,1.1799976,-1.6836785,-0.11980363,-0.106416866,-0.01804888,1.1103879,0.5798942
0.1,0.0,1.4,-0.5235987755982988,-0.5235987755982988,0,-1.7232139,1.2218331,-0.5567235,0.40171102,-0.48044455,1.3475596,-2.5473638,1.0340215,-1.7634022,-0.19764408,-0.017839413,0.025038196,1.2075683,-0.6407176
0.1,0.0,1.4,-0.5235987755982988,-0.5235987755982988,0,-1.7231916,1.222134,-0.55246675,0.40617204,-0.4858185,1.3450097,-2.5420725,1.3113704,-1.6994741,-0.093573704,-0.043135375,0.06192666,1.1846977,-0.14550875
0.1,0.0,1.4,-0.5235987755982988,-0.5235987755982988,0,-1.7225233,1.221192,-0.55241907,0.4069176,-0.4904729,1.347272,-2.5566108,1.2790745,-1.6167014,-0.093554035,-0.017031075,-0.069713786,1.208483,-0.00079187274
0.1,0.0,1.4,-0.5235987755982988,-0.5235987755982988,0,-1.7251347,1.2207683,-0.55263567,0.40802234,-0.48675576,1.3461472,-2.5112257,1.0524884,-1.598131,0.0015602027,-0.11336547,0.42736056,1.380836,0.7496398
0.1,0.0,1.4,-0.5235987755982988,-0.5235987755982988,0,-1.7253397,1.2206253,-0.5537879,0.40407187,-0.48292702,1.345968,-2.4605374,0.85546815,-1.7173932,0.0026231443,-0.028948864,0.037329976,1.2409397,0.4458963
0.1,0.0,1.4,-0.5235987755982988,-0.5235987755982988,0,-1.7244849,1.2202117,-0.5507331,0.4051815,-0.48764557,1.350209,-2.5732055,1.1947834,-1.6895748,-0.24924186,-0.16632354,-0.061714828,1.2003461,-0.6340037
0.1,0.0,1.4,-0.5235987755982988,-0.5235987755982988,0,-1.7253449,1.2196797,-0.55258214,0.40693203,-0.48406968,1.3449605,-2.5279589,1.3370744,-1.615872,-0.22399785,-0.12596704,0.015352727,1.1998467,-0.21549137
0.1,0.0,1.4,-0.5235987755982988,-0.5235987755982988,0,-1.7236434,1.2194481,-0.55432355,0.4090277,-0.4792364,1.3449198,-2.4945426,1.2947985,-1.6382691,-0.49970996,-0.097823225,0.067123584,0.9517919,1.2513169
0.1,0.0,1.4,-0.5235987755982988,-0.5235987755982988,0,-1.7224754,1.2200989,-0.5544402,0.4100442,-0.48672232,1.3403798,-2.3870971,1.2926307,-1.5985476,-0.18269835,-0.11102485,-0.028570201,1.2482742,-0.20349471
0.1,0.0,1.4,-0.5235987755982988,-0.5235987755982988,0,-1.7239294,1.2216071,-0.5511199,0.40897232,-0.48893616,1.3475873,-2.4720926,1.10255,-1.8710711,0.081775784,-0.10031167,0.1644447,1.0201268,-0.22907656
0.1,0.0,1.4,-0.5235987755982988,-0.5235987755982988,0,-1.7256564,1.2212241,-0.553195,0.40719977,-0.47811028,1.3455044,-2.4402065,1.194803,-1.5968145,-0.078300014,-0.085998654,0.109097846,1.1762298,-0.44904372
0.1,0.0,1.4,-0.5235987755982988,-0.5235987755982988,0,-1.7248731,1.2202833,-0.553768,0.4055523,-0.48612162,1.3460238,-2.520742,0.99432045,-1.6619639,-0.12161578,-0.08926468,-0.2642077,1.3110236,0.571595
0.1,0.0,1.4,-0.5235987755982988,-0.5235987755982988,0,-1.725496,1.2207657,-0.55372924,0.40737274,-0.4797938,1.3463845,-2.4975612,1.1675383,-1.5780044,-0.3734013,-0.09672111,0.08210809,1.1981499,-1.9071649
0.1,0.0,1.4,-0.5235987755982988,-0.5235987755982988,0,-1.7287358,1.2221531,-0.55405134,0.40173143,-0.48670778,1.3452623,-2.43467,1.2528858,-1.7287759,-0.24614543,-0.14077377,0.27030486,1.1442808,1.1205667
0.1,0.0,1.4,-0.5235987755982988,-0.5235987755982988,0,-1.7242764,1.2212406,-0.55410194,0.4056809,-0.49049988,1.3456216,-2.568534,1.1035255,-1.5464606,0.07412517,-0.09629405,0.1935436,1.275887,0.42913386
0.1,0.0,1.4,-0.5235987755982988,-0.5235987755982988,0,-1.727877,1.2198731,-0.5545624,0.4016632,-0.48766392,1.3430725,-2.4536932,1.1373348,-1.6962702,0.03972337,-0.121045284,0.15994117,1.1863372,-1.1609534
0.1,0.0,1.4,-0.5235987755982988,-0.5235987755982988,0,-1.7265382,1.2217036,-0.5542911,0.4044913,-0.4818762,1.3471265,-2.536246,1.1031519,-1.6803386,-0.11398443,-0.077957705,0.019975055,1.3032633,-0.42639297
0.1,0.0,1.4,-0.5235987755982988,-0.5235987755982988,0,-1.7244987,1.2205031,-0.55324775,0.40523678,-0.48827857,1.3464515,-2.4970593,1.0075718,-1.7450485,-0.14919525,-0.09856954,0.109798975,1.2448852,-1.1248819
0.1,0.0,1.4,-0.5235987755982988,-0.5235987755982988,0,-1.7258494,1.2221376,-0.5544828,0.4052618,-0.4868311,1.3486724,-2.4907181,1.059775,-1.4559053,-0.17007223,-0.09492618,0.103555016,1.2924429,-1.1299273
0.1,0.0,1.4,-0.5235987755982988,-0.5235987755982988,0,-1.7265954,1.2217387,-0.5539691,0.40473518,-0.48286244,1.3482325,-2.486844,1.0939536,-1.7160829,-0.05369315,-0.15191562,-0.08141753,1.0461879,0.31971756
0.1,0.0,1.4,-0.5235987755982988,-0.5235987755982988,0,-1.7236965,1.2220143,-0.5545683,0.40593457,-0.48695987,1.3498756,-2.5191362,1.135953,-1.6639053,-0.005564764,-0.020653699,0.29542914,1.1558754,-1.1571437
0.1,0.0,1.4,-0.5235987755982988,-0.5235987755982988,0,-1.7278227,1.2188127,-0.55083007,0.40677622,-0.48907423,1.3460406,-2.435249,1.2817472,-1.6539989,-0.21900135,-0.13824145,0.20893104,1.2347202,0.14042784
0.1,0.0,1.4,-0.5235987755982988,-0.5235987755982988,0,-1.7238113,1.2221758,-0.55323225,0.4088168,-0.48478952,1.3502482,-2.4952877,1.0670221,-1.6017811,-0.26343307,-0.19481564,-0.16651219,1.0444278,-0.27142292
0.1,0.0,1.4,-0.5235987755982988,-0.5235987755982988,0,-1.7246857,1.220706,-0.55452216,0.40540084,-0.48365983,1.3486936,-2.4422507,1.2912493,-1.6196553,-0.04339109,-0.03828305,0.09521522,1.0865561,-0.32285267
0.1,0.0,1.4,-0.5235987755982988,-0.5235987755982988,0,-1.7263867,1.22055,-0.55249274,0.4063762,-0.47908837,1.347566,-2.5136948,1.1879241,-1.7284971,-0.093038715,-0.073428854,0.06730952,1.2504319,-0.07434068
0.1,0.0,1.4,-0.5235987755982988,-0.5235987755982988,0,-1.7261505,1.2206562,-0.5532972,0.40509927,-0.4890234,1.3464394,-2.5492785,1.160523,-1.7164146,-0.20030324,-0.071709186,-0.124045804,1.2815477,-1.041731
0.1,0.0,1.4,-0.5235987755982988,-0.5235987755982988,0,-1.7237637,1.2214336,-0.554094,0.4080576,-0.48118445,1.3455087,-2.5145438,1.1384214,-1.7240638,-0.06985181,-0.07019307,0.022349887,1.1999977,-1.3757383
0.1,0.0,1.4,-0.5235987755982988,-0.5235987755982988,0,-1.7239122,1.2217404,-0.55405504,0.40784797,-0.48821214,1.3489206,-2.4972515,1.1519444,-1.5768924,0.11035123,0.030999156,0.13566531,1.2271996,-0.1677144
0.1,0.0,1.4,-0.5235987755982988,-0.5235987755982988,0,-1.7276355,1.2221601,-0.55625075,0.40532422,-0.48845857,1.3410308,-2.5090592,1.1107831,-1.5813785,-0.23054041,-0.07606736,-0.0021856502,1.0685711,-0.11353092
0.1,0.0,1.4,-0.5235987755982988,-0.5235987755982988,0,-1.723398,1.2207929,-0.5572135,0.4054854,-0.48663667,1.3439503,-2.5250542,1.0572298,-1.7776655,-0.14658451,-0.14033459,-0.008544651,1.1740215,-1.099915
0.1,0.0,1.4,-0.5235987755982988,-0.5235987755982988,0,-1.7258707,1.2194375,-0.5528304,0.40656048,-0.4836129,1.3471563,-2.4900677,0.9841436,-1.8576415,0.037963986,-0.013599177,-0.20938171,1.2913644,0.13593183
0.1,0.0,1.4,-0.5235987755982988,-0.5235987755982988,0,-1.723523,1.220753,-0.5548188,0.40718213,-0.48997706,1.3461211,-2.4812274,1.1248225,-1.7017355,-0.1890163,-0.16582403,0.046416238,1.0744977,-0.121862985
0.1,0.0,1.4,-0.5235987755982988,-0.5235987755982988,0,-1.7269744,1.2208022,-0.5583736,0.40064263,-0.48741558,1.3469055,-2.5330489,0.9228496,-1.5488923,-0.3160372,-0.09590483,0.2190455,1.309283,0.4829964
0.1,0.0,1.4,-0.5235987755982988,-0.5235987755982988,0,-1.7242438,1.2207823,-0.5530584,0.40913787,-0.48525956,1.3448635,-2.4272456,1.068943,-1.714182,-0.10654902,-0.060610954,0.107885346,1.181776,0.9460861
0.1,0.0,1.4,-0.5235987755982988,-0.5235987755982988,0,-1.7260523,1.2195909,-0.55327666,0.40715092,-0.48321697,1.3475673,-2.521648,1.1606172,-1.7011034,-0.07346414,-0.07695385,0.21296118,1.2983592,-0.68250173
0.1,0.0,1.4,-0.5235987755982988,-0.5235987755982988,0,-1.7258087,1.2197533,-0.55352545,0.40803468,-0.47969997,1.3449078,-2.4627318,0.9936021,-1.7325704,-0.25338095,-0.07612457,0.087719895,1.2965201,-0.5050758
0.1,0.0,1.4,-0.5235987755982988,-0.5235987755982988,0,-1.7249563,1.2220713,-0.5534395,0.40541422,-0.4869718,1.3470867,-2.458203,1.3137724,-1.8001454,-0.14475805,-0.054150634,0.3585219,1.2589529,0.12503323
0.1,0.0,1.4,-0.5235987755982988,-0.5235987755982988,0,-1.7249172,1.219502,-0.5522544,0.4108506,-0.4878058,1.3465875,-2.4687402,0.94902855,-1.558014,-0.4905676,-0.038316477,0.018932266,1.0726715,-0.3134579
0.1,0.0,1.4,-0.5235987755982988,-0.5235987755982988,0,-1.7237836,1.2225267,-0.55613184,0.4056407,-0.4895207,1.3483149,-2.4472516,1.0237283,-1.650577,-0.15016828,-0.12361935,-0.15852924,1.2577788,-1.1975373
0.1,0.0,1.4,-0.5235987755982988,-0.5235987755982988,0,-1.7269115,1.2220309,-0.5537802,0.40827367,-0.48574695,1.3446916,-2.4558964,1.0620247,-1.7234586,0.008334022,-0.034060415,0.0032754107,1.1191604,-0.012223614
0.1,0.0,1.4,-0.5235987755982988,-0.5235987755982988,0,-1.7227467,1.2211132,-0.55512667,0.40605733,-0.48736364,1.3468349,-2.4609098,1.2088016,-1.6697713,-0.37827402,-0.051643547,-0.058689322,1.1574721,-1.4045109
0.1,0.0,1.4,-0.5235987755982988,-0.5235987755982988,0,-1.7269545,1.2226613,-0.55499727,0.40298882,-0.48240727,1.3477982,-2.4860477,1.0776168,-1.8125489,0.02620608,-0.13458104,-0.10874671,1.2333528,0.32562873
0.1,0.0,1.4,-0.5235987755982988,-0.5235987755982988,0,-1.7250628,1.220933,-0.55268526,0.41293293,-0.4800891,1.344805,-2.5204282,1.1111075,-1.6899015,-0.16558853,-0.08499614,0.3837059,1.163256,0.055564877
0.1,0.0,1.4,-0.5235987755982988,-0.5235987755982988,0,-1.7269928,1.2207973,-0.5549943,0.40682098,-0.4846321,1.3473499,-2.478623,1.1459988,-1.7044916,0.049024776,0.03126295,-0.05542145,1.2504631,0.12495253
0.1,0.0,1.4,-0.5235987755982988,-0.5235987755982988,0,-1.7258908,1.2209206,-0.5578509,0.405524,-0.49039963,1.3470744,-2.556884,1.2213639,-1.5686306,0.23859946,-0.025128061,0.2914411,1.3359675,-0.9021312
0.1,0.0,1.4,-0.5235987755982988,-0.5235987755982988,0,-1.7261044,1.2198306,-0.5518323,0.40942636,-0.48726875,1.348689,-2.4656942,1.2717029,-1.6400298,-0.05367105,-0.10269012,-0.050350506,1.132534,-0.5714364
0.1,0.0,1.4,-0.5235987755982988,-0.5235987755982988,0,-1.7233061,1.2220349,-0.5554366,0.41243926,-0.48682353,1.3423276,-2.5120633,1.1167303,-1.648906,0.035937224,-0.051333535,0.27504984,1.1713855,-1.0682387
0.1,0.0,1.4,-0.5235987755982988,-0.5235987755982988,0,-1.7271272,1.2217431,-0.5571567,0.40299693,-0.48449528,1.346879,-2.5064042,1.095691,-1.6746942,-0.014848658,-0.062186345,-0.017880442,1.2609637,-0.41194397
0.1,0.0,1.4,-0.5235987755982988,-0.5235987755982988,0,-1.726816,1.2216393,-0.55469084,0.40834618,-0.48536977,1.347287,-2.5810757,1.2779275,-1.6563969,-0.20739254,-0.0050947256,-0.29813927,1.2072916,0.6291697
0.1,0.0,1.4,-0.5235987755982988,-0.5235987755982988,0,-1.7234293,1.2214196,-0.55600524,0.40708053,-0.486236,1.3481524,-2.508238,1.3059108,-1.894738,-0.21062264,-0.12658346,0.10530394,1.026207,-1.6392379
0.1,0.0,1.4,-0.5235987755982988,-0.5235987755982988,0,-1.7259991,1.2202593,-0.55431074,0.40764683,-0.4958129,1.3447399,-2.5068643,1.0830246,-1.6047114,-0.07237096,-0.124183595,0.09412018,1.272581,-0.94455296
0.1,0.0,1.4,-0.5235987755982988,-0.5235987755982988,0,-1.7268734,1.220759,-0.5560263,0.40535164,-0.48573193,1.3443056,-2.6029239,1.1892452,-1.7412376,-0.24726106,-0.0838837,0.078921095,1.2805785,-1.0713408
0.1,0.0,1.4,-0.5235987755982988,-0.5235987755982988,0,-1.723898,1.2202128,-0.55728745,0.4053852,-0.48587114,1.3451023,-2.474152,1.0474176,-1.6976933,-0.12978949,-0.09523089,0.082586706,1.2685071,0.3660314
0.1,0.0,1.4,-0.5235987755982988,-0.5235987755982988,0,-1.7250965,1.2228848,-0.55532265,0.40615577,-0.48850292,1.3502562,-2.4908724,0.9386021,-1.7382241,-0.032185238,-0.06652898,0.24430317,1.179235,1.8748322
0.1,0.0,1.4,-0.5235987755982988,-0.5235987755982988,0,-1.7261275,1.2194145,-0.5545989,0.4080473,-0.49049062,1.344938,-2.5002213,0.9495323,-1.6847341,0.08490658,-0.11837788,-0.020661846,1.3353823,-1.2375
0.1,0.0,1.4,-0.5235987755982988,-0.5235987755982988,0,-1.7258701,1.2189462,-0.55743283,0.40756366,-0.4803018,1.3433423,-2.5299397,1.0451119,-1.6767889,-0.23627296,-0.11254254,0.027590035,1.1125584,0.28346118
0.1,0.0,1.4,-0.5235987755982988,-0.5235987755982988,0,-1.7246592,1.221264,-0.55800635,0.40924612,-0.47774458,1.3433194,-2.517251,1.0770768,-1.7040625,-0.049323253,-0.08286175,-0.06924813,1.2009395,0.0030640285
0.1,0.0,1.4,-0.5235987755982988,-0.5235987755982988,0,-1.7277753,1.2211986,-0.55494857,0.40383443,-0.48592398,1.3524314,-2.4946585,1.1642226,-1.62902,-0.11286285,-0.07358768,0.3488607,1.0116513,-0.7359641
0.1,0.0,1.4,-0.5235987755982988,-0.5235987755982988,0,-1.7242384,1.2195688,-0.55368704,0.40832508,-0.48086688,1.3509804,-2.5061026,1.0712194,-1.726501,-0.04707754,-0.13196898,0.26667866,1.0775167,0.61822283
0.1,0.0,1.4,-0.5235987755982988,-0.5235987755982988,0,-1.7270811,1.2214875,-0.5559759,0.40461767,-0.48587292,1.3493567,-2.550914,1.2541252,-1.7162775,-0.20294766,-0.15994984,0.089659296,1.30475,-1.762066
0.1,0.0,1.4,-0.5235987755982988,-0.5235987755982988,0,-1.7260356,1.2203406,-0.5557075,0.40752646,-0.48958108,1.3447794,-2.4806368,1.1219107,-1.6691654,-0.031741105,-0.06815157,0.0047590896,1.1082901,-0.4963984
0.1,0.0,1.4,-0.5235987755982988,-0.5235987755982988,0,-1.7252569,1.2216879,-0.55176955,0.40072104,-0.48264208,1.341908,-2.4937406,1.3432195,-1.5250416,0.01947375,-0.13927457,-0.21044748,1.0397234,-0.09740453
0.1,0.0,1.4,-0.5235987755982988,-0.5235987755982988,0,-1.7224994,1.2222227,-0.5550177,0.39713323,-0.48282835,1.3411222,-2.475085,1.2147051,-1.6786882,-0.18752097,-0.107155964,0.037072133,1.0287883,-1.1152122
0.1,0.0,1.4,-0.5235987755982988,-0.5235987755982988,0,-1.72335,1.2222006,-0.55295044,0.3970586,-0.4878814,1.3444154,-2.5225592,1.1619098,-1.6816622,0.1444316,-0.025847051,-0.107349746,1.1716543,-0.8173075
0.1,0.0,1.4,-0.5235987755982988,-0.5235987755982988,0,-1.7258242,1.2223965,-0.55284226,0.3968044,-0.48362634,1.3440728,-2.5105276,1.2717249,-1.6603087,0.019001171,-0.0929218,0.024943195,1.1714509,-0.9518133
0.1,0.0,1.4,-0.5235987755982988,-0.5235987755982988,0,-1.7252356,1.2216324,-0.5534509,0.39982742,-0.49040937,1.3432078,-2.5415013,1.1804025,-1.6108668,-0.18286297,-0.12662987,-0.077844486,1.1646312,0.061740402
0.1,0.0,1.4,-0.5235987755982988,-0.5235987755982988,0,-1.7221721,1.222613,-0.5533747,0.40662622,-0.48611367,1.3434701,-2.5385203,1.2882535,-1.6658531,-0.21223256,-0.18040194,-0.014182822,0.9131108,0.9646881
0.1,0.0,1.4,-0.5235987755982988,-0.5235987755982988,0,-1.7237396,1.2213646,-0.55309105,0.40021062,-0.48474,1.346176,-2.5188782,0.89616144,-1.6129352,-0.11628864,-0.101153396,0.07525112,1.2390712,0.11311232
0.1,0.0,1.4,-0.5235987755982988,-0.5235987755982988,0,-1.7255775,1.2219826,-0.5531527,0.40216583,-0.47756347,1.3417045,-2.5482562,1.2770573,-1.6258231,0.11141319,-0.031749822,0.08336383,1.2996378,-0.36075544
0.1,0.0,1.4,-0.5235987755982988,-0.5235987755982988,0,-1.7256656,1.2212427,-0.55367243,0.40353817,-0.48671734,1.340509,-2.4586465,1.0970875,-1.6219121,-0.17314893,-0.05718368,0.38738564,1.0962262,1.5824918
0.1,0.0,1.4,-0.5235987755982988,-0.5235987755982988,0,-1.7230905,1.220963,-0.5514427,0.40755227,-0.48561722,1.3422703,-2.4375882,1.361865,-1.5224638,-0.17706408,-0.13197462,0.13925253,1.1899929,-1.8735522
0.1,0.0,1.4,-0.5235987755982988,-0.5235987755982988,0,-1.7238667,1.2211566,-0.55112463,0.40551543,-0.48556668,1.3451903,-2.4555137,1.1393934,-1.539878,0.21388397,-0.074736826,0.0047113276,1.0763352,-0.74540085
0.1,0.0,1.4,-0.5235987755982988,-0.5235987755982988,0,-1.726473,1.2207289,-0.5530953,0.40364248,-0.47602034,1.3391832,-2.4333487,1.0186871,-1.6737889,-0.18941069,-0.033054914,0.17750496,1.1334549,0.7606487
0.1,0.0,1.4,-0.5235987755982988,-0.5235987755982988,0,-1.7222803,1.2206618,-0.5529214,0.40528873,-0.48449123,1.343822,-2.463549,1.0673395,-1.5402691,-0.22056116,-0.13442679,0.02237341,1.1824201,-0.052388474
0.1,0.0,1.4,-0.5235987755982988,-0.5235987755982988,0,-1.7255344,1.2207752,-0.551803,0.40717027,-0.484679,1.3437977,-2.5256941,0.92922163,-1.5801728,-0.2079672,-0.13168205,0.1669471,0.90069807,0.6900677
0.1,0.0,1.4,-0.5235987755982988,-0.5235987755982988,0,-1.7249119,1.2215717,-0.55225825,0.40311104,-0.48049182,1.347057,-2.5130565,1.2371578,-1.5995381,0.021623742,-0.15802126,0.008525768,1.2853978,-0.15160379
0.1,0.0,1.4,-0.5235987755982988,-0.5235987755982988,0,-1.7283887,1.2202455,-0.55089575,0.40402353,-0.48448306,1.3419623,-2.5238066,0.97449875,-1.6081388,0.119542696,-0.011844633,-0.26499596,1.1396015,-0.06807821
0.1,0.0,1.4,-0.5235987755982988,-0.5235987755982988,0,-1.7224724,1.2208809,-0.5506072,0.40556788,-0.48340625,1.3447895,-2.4963026,1.093754,-1.7218249,-0.009834737,-0.06460917,0.23432258,1.2480143,-0.3356832
0.1,0.0,1.4,-0.5235987755982988,-0.5235987755982988,0,-1.72433,1.2223336,-0.55217713,0.40414077,-0.48274827,1.3440928,-2.4744475,1.2395416,-1.7822777,-0.18753019,-0.0803288,0.008750936,1.0873088,0.16001932
0.1,0.0,1.4,-0.5235987755982988,-0.5235987755982988,0,-1.7247406,1.22019,-0.5519662,0.40280864,-0.48346764,1.3456945,-2.430954,0.92997414,-1.6702892,0.044713464,-0.15554488,-0.08473498,1.3028473,-0.9071529
0.1,0.0,1.4,-0.5235987755982988,-0.5235987755982988,0,-1.7270393,1.221281,-0.5509838,0.40388924,-0.48394307,1.3438443,-2.4682229,1.2033861,-1.6924433,-0.12804434,-0.15163094,0.29977503,1.2422776,0.13468844
0.1,0.0,1.4,-0.5235987755982988,-0.5235987755982988,0,-1.7262106,1.2213634,-0.5534541,0.4041016,-0.47991732,1.3410329,-2.5377495,0.9190732,-1.6292206,-0.12109449,-0.1049375,-0.09262017,1.2432108,0.9262786
0.1,0.0,1.4,-0.5235987755982988,-0.5235987755982988,0,-1.7237558,1.2211885,-0.5531902,0.40683082,-0.48241007,1.3445884,-2.4822218,1.0994077,-1.5720389,-0.20735136,-0.15830263,-0.31769246,1.0603713,-1.2658421
0.1,0.0,1.4,-0.5235987755982988,-0.5235987755982988,0,-1.7233205,1.2212766,-0.5518145,0.40346497,-0.48686847,1.3476621,-2.5646954,1.2254057,-1.6122066,-0.05488182,-0.08389741,0.103045925,1.2567894,-0.5853681
0.1,0.0,1.4,-0.5235987755982988,-0.5235987755982988,0,-1.7220695,1.221603,-0.55112773,0.4087688,-0.48021603,1.3457369,-2.5219684,1.3134246,-1.5886707,-0.123388164,-0.08608208,-0.046802156,1.0629797,-0.568722
0.1,0.0,1.4,-0.5235987755982988,-0.5235987755982988,0,-1.7275405,1.2195828,-0.55208784,0.4051432,-0.48051676,1.3447891,-2.5136223,1.0359479,-1.6472753,-0.09496926,-0.08779673,-0.13829353,0.91142964,-1.5211209
0.1,0.0,1.4,-0.5235987755982988,-0.5235987755982988,0,-1.7244517,1.2214582,-0.5530834,0.4045161,-0.48282522,1.3431374,-2.4998896,1.116461,-1.7342777,-0.045153003,-0.1560823,-0.2387618,1.2419198,0.8302203
0.1,0.0,1.4,-0.5235987755982988,-0.5235987755982988,0,-1.7245075,1.2207923,-0.55285275,0.40453857,-0.485731,1.3420709,-2.4219275,1.060055,-1.8024166,-0.10311145,-0.04411915,-0.2431796,1.1935574,-1.289371
0.1,0.0,1.4,-0.5235987755982988,-0.5235987755982988,0,-1.7254442,1.2214208,-0.5539979,0.4014868,-0.482596,1.3462703,-2.4856923,0.99568594,-1.6833644,-0.20612675,-0.03812222,0.1250905,1.2308869,-0.09466184
0.1,0.0,1.4,-0.5235987755982988,-0.5235987755982988,0,-1.7263409,1.222147,-0.55743986,0.39934936,-0.47969484,1.3433731,-2.4711063,1.1820519,-1.7120839,-0.019180965,-0.10844127,0.37746575,1.2865124,0.05542852
0.1,0.0,1.4,-0.5235987755982988,-0.5235987755982988,0,-1.7243829,1.2215295,-0.5555234,0.40007696,-0.4794848,1.3466804,-2.487292,1.3617511,-1.756884,-0.18685624,-0.120784,-0.090670645,1.2350092,-0.13740082
0.1,0.0,1.4,-0.5235987755982988,-0.5235987755982988,0,-1.7236117,1.2229948,-0.5526458,0.40721253,-0.4860284,1.343152,-2.5034306,1.2717913,-1.6402668,-0.1298872,-0.1102995,-0.087817766,1.1266611,-0.3787038
0.1,0.0,1.4,-0.5235987755982988,-0.5235987755982988,0,-1.722338,1.2212055,-0.55321187,0.4065917,-0.4831305,1.3461629,-2.4893084,1.2031198,-1.5559248,-0.2706716,-0.029806329,-0.05482472,1.1834638,-0.08658766
0.1,0.0,1.4,-0.5235987755982988,-0.5235987755982988,0,-1.7250731,1.2216527,-0.5533016,0.404188,-0.48484266,1.3447814,-2.4817727,1.2867393,-1.7461144,0.08503485,-0.1684024,0.0006064859,1.1072236,-0.16682614
0.1,0.0,1.4,-0.5235987755982988,-0.5235987755982988,0,-1.7230291,1.220408,-0.5544333,0.40547872,-0.4815865,1.3436978,-2.5021935,1.1017662,-1.6645676,-0.002645276,-0.10297997,0.11618716,1.0503317,0.29661742
0.1,0.0,1.4,-0.5235987755982988,-0.5235987755982988,0,-1.7242748,1.2212931,-0.5533435,0.40779,-0.48052612,1.3452497,-2.496427,1.2018728,-1.6111841,-0.19534723,-0.010681443,0.22296476,1.0042593,-0.6175495
0.1,0.0,1.4,-0.5235987755982988,-0.5235987755982988,0,-1.7254897,1.2214346,-0.55210274,0.4060931,-0.4879019,1.3449861,-2.5155025,0.8841086,-1.7369381,-0.19162604,-0.1539225,-0.03151431,1.035198,0.045240108
0.1,0.0,1.4,-0.5235987755982988,-0.5235987755982988,0,-1.7243285,1.221273,-0.5508393,0.40831676,-0.48561633,1.3450813,-2.537284,1.1596241,-1.7558366,-0.23846276,-0.14720152,-0.30122927,1.1119112,-0.87015
0.1,0.0,1.4,-0.5235987755982988,-0.5235987755982988,0,-1.7228591,1.2199078,-0.55436677,0.4042316,-0.47632885,1.3452526,-2.4960935,1.1349126,-1.7723929,-0.07401534,-0.021187168,-0.055332515,1.2135468,-0.98917747
0.1,0.0,1.4,-0.5235987755982988,-0.5235987755982988,0,-1.7249662,1.2202731,-0.55217826,0.4051818,-0.48111862,1.346252,-2.4623377,1.1822046,-1.7402883,0.0073246276,-0.09502437,0.21352911,1.0939364,-0.3832705
0.1,0.0,1.4,-0.5235987755982988,-0.5235987755982988,0,-1.724358,1.2221955,-0.5533928,0.40528777,-0.48838347,1.3435341,-2.4967785,0.9601862,-1.7151268,0.25111064,-0.09037332,0.12699941,1.2041004,0.17150448
0.1,0.0,1.4,-0.5235987755982988,-0.5235987755982988,0,-1.7243091,1.2210802,-0.5529088,0.40678573,-0.4776646,1.3473225,-2.538172,0.9749914,-1.5886505,-0.22281203,-0.16370258,-0.025873577,1.2963415,-0.10826889
0.1,0.0,1.4,-0.5235987755982988,-0.5235987755982988,0,-1.7236177,1.2204555,-0.55354714,0.404672,-0.48208445,1.3470532,-2.499332,1.0866845,-1.6366051,-0.10198273,-0.08110182,-0.17113084,1.2688991,-1.028762
0.1,0.0,1.4,-0.5235987755982988,-0.5235987755982988,0,-1.7237556,1.2212467,-0.5510452,0.40529343,-0.48383737,1.3482425,-2.4964237,0.94465446,-1.8034906,-0.0076651755,-0.0983198,0.24957354,1.2288501,-1.1272682
0.1,0.0,1.4,-0.5235987755982988,-0.5235987755982988,0,-1.7233305,1.2219622,-0.5563145,0.4047753,-0.47597018,1.3445044,-2.5459807,0.9375,-1.6807731,-0.05904079,-0.0143298395,-0.096799895,1.22529,0.1839152
0.1,0.0,1.4,-0.5235987755982988,-0.5235987755982988,0,-1.7246445,1.2201991,-0.5538552,0.4049472,-0.48137078,1.344772,-2.467878,1.2381587,-1.7177811,-0.04028933,-0.09749526,-0.14517502,1.0742515,-0.839939
0.1,0.0,1.4,-0.5235987755982988,-0.5235987755982988,0,-1.7232814,1.2201881,-0.55342174,0.40872326,-0.48228392,1.3412223,-2.5151396,0.92371297,-1.654159,-0.21200493,-0.12405212,-0.13738623,1.1454799,-0.49924535
0.1,0.0,1.4,-0.5235987755982988,-0.5235987755982988,0,-1.7239158,1.2216502,-0.5536913,0.40747285,-0.48092464,1.3426138,-2.5271091,1.2076155,-1.715377,-0.10330105,-0.03183969,-0.13714817,1.1466612,-0.6166516
0.1,0.0,1.4,-0.5235987755982988,-0.5235987755982988,0,-1.7264177,1.2213972,-0.5547508,0.40154755,-0.47920722,1.3473681,-2.4258683,0.91200966,-1.5433414,-0.041405316,-0.093065724,-0.026358677,1.2470719,-1.2744873
0.1,0.0,1.4,-0.5235987755982988,-0.5235987755982988,0,-1.7237499,1.2197758,-0.5526895,0.40884185,-0.48941112,1.3490793,-2.532613,1.2224616,-1.6250263,-0.39258578,-0.13241406,0.27927026,0.89830106,-0.52816373
0.1,0.0,1.4,-0.5235987755982988,-0.5235987755982988,0,-1.7244102,1.2215766,-0.551988,0.406443,-0.48261854,1.3491206,-2.4965596,1.1593808,-1.6786355,-0.1314017,-0.09204951,-0.10793022,1.4121164,-1.2265173
0.1,0.0,1.4,-0.5235987755982988,-0.5235987755982988,0,-1.72376,1.2202876,-0.55399036,0.40611723,-0.489134,1.3435472,-2.4908342,1.2980062,-1.646288,-0.031914506,-0.06683833,-0.09298795,1.1801176,-0.17036375
0.1,0.0,1.4,-0.5235987755982988,-0.5235987755982988,0,-1.7242825,1.2202971,-0.55350256,0.40499017,-0.48788857,1.3447669,-2.5238867,1.1628865,-1.7368269,-0.04134022,-0.08982838,-0.085139744,1.2093915,-1.1479431
0.1,0.0,1.4,-0.5235987755982988,-0.5235987755982988,0,-1.7221711,1.2214564,-0.5564816,0.4051037,-0.4855398,1.3430123,-2.4915504,1.203333,-1.7450752,-0.071099445,-0.09242714,0.18478021,1.182091,-0.3110823
0.1,0.0,1.4,-0.5235987755982988,-0.5235987755982988,0,-1.7259752,1.2217995,-0.55233353,0.40752366,-0.48414323,1.3446456,-2.493567,1.1154432,-1.7550266,-0.12265029,-0.07275362,-0.12455953,1.042363,0.23839898
0.1,0.0,1.4,-0.5235987755982988,-0.5235987755982988,0,-1.7262312,1.2190331,-0.5532553,0.40714294,-0.48328817,1.3393278,-2.4378,1.087196,-1.7216514,0.040948406,-0.078992255,0.014923666,1.1622096,-0.13839822
0.1,0.0,1.4,-0.5235987755982988,-0.5235987755982988,0,-1.7227714,1.2209862,-0.5548251,0.40679654,-0.48468655,1.3479034,-2.5809412,1.0118539,-1.6544322,-0.20524184,0.028775055,0.06586724,1.0645037,-0.70915645
0.1,0.0,1.4,-0.5235987755982988,-0.5235987755982988,0,-1.722403,1.221586,-0.5525957,0.4118895,-0.48400462,1.3459221,-2.508248,1.1554468,-1.604944,-0.01924302,-0.14217247,-0.038277615,1.0310787,-2.1575887
0.1,0.0,1.4,-0.5235987755982988,-0.5235987755982988,0,-1.724141,1.2207212,-0.55456525,0.40848154,-0.48110756,1.3438972,-2.5263221,0.8722527,-1.6154252,-0.28734934,-0.09426787,0.16368696,1.1106917,0.42905188
0.1,0.0,1.4,-0.5235987755982988,-0.5235987755982988,0,-1.7269711,1.2208703,-0.55620646,0.404394,-0.48206082,1.345645,-2.464024,1.3038821,-1.6341215,-0.08171529,-0.115922175,0.09869784,0.97225714,0.5521489
0.1,0.0,1.4,-0.5235987755982988,-0.5235987755982988,0,-1.7243434,1.2211634,-0.55313724,0.40937784,-0.4776601,1.3445071,-2.4142046,1.3786118,-1.8136868,-0.23819445,-0.09673555,0.23231299,1.0831375,0.38669357
0.1,0.0,1.4,-0.5235987755982988,-0.5235987755982988,0,-1.7248347,1.2212665,-0.55511504,0.40482312,-0.48048207,1.3461092,-2.4745257,1.2069396,-1.7803836,-0.05683593,-0.17122924,0.124715924,1.2205765,1.4430625
0.1,0.0,1.4,-0.5235987755982988,-0.5235987755982988,0,-1.7227405,1.2196457,-0.55476034,0.40628797,-0.48338547,1.3460273,-2.5237973,1.0462358,-1.7407,-0.018579572,-0.10127503,0.032530073,1.0928783,1.4622184
0.1,0.0,1.4,-0.5235987755982988,-0.5235987755982988,0,-1.7240905,1.2200109,-0.5518268,0.4092676,-0.49135184,1.3453509,-2.4435816,1.1620173,-1.5579593,-0.17793334,-0.095696315,-0.03447248,1.1821913,-0.64315873
0.1,0.0,1.4,-0.5235987755982988,-0.5235987755982988,0,-1.7229627,1.2201902,-0.553907,0.40712336,-0.4892106,1.3452665,-2.5393515,1.0796124,-1.6015406,-0.1975461,-0.16673225,-0.052929338,1.1897049,1.5765957
0.1,0.0,1.4,-0.5235987755982988,-0.5235987755982988,0,-1.7267603,1.2203553,-0.55250895,0.40539327,-0.4883513,1.3476894,-2.477562,1.3745196,-1.5148365,-0.13816205,-0.13521421,0.098809734,1.1139424,1.1097463
0.1,0.0,1.4,-0.5235987755982988,-0.5235987755982988,0,-1.7218518,1.2214601,-0.55545914,0.40627584,-0.48090082,1.3480189,-2.4580636,1.0851095,-1.7190156,-0.12120146,-0.06905401,0.14960974,1.2126282,0.5372682
0.1,0.0,1.4,-0.5235987755982988,-0.5235987755982988,0,-1.7256188,1.2207574,-0.5556145,0.4043594,-0.48733157,1.3463289,-2.4408088,1.3071046,-1.6469098,-0.19093496,-0.050420657,-0.17998293,1.1038314,-1.0541945
0.1,0.0,1.4,-0.5235987755982988,-0.5235987755982988,0,-1.7243325,1.221016,-0.55348325,0.40996993,-0.4804826,1.3460429,-2.5478146,1.209526,-1.5957615,0.0016658248,-0.08063576,0.11193289,1.0782793,-2.0503702
0.1,0.0,1.4,-0.5235987755982988,-0.5235987755982988,0,-1.7237452,1.2209277,-0.5534146,0.40953124,-0.48932526,1.3426169,-2.551975,1.1722673,-1.7527962,-0.25780758,-0.08429665,-0.009817337,1.1011757,0.60045135
0.1,0.0,1.4,-0.5235987755982988,-0.5235987755982988,0,-1.7220566,1.2200289,-0.553619,0.40804002,-0.48369393,1.348668,-2.4909592,1.0995613,-1.7427409,-0.21224242,-0.039713416,-0.28692558,1.171625,-0.6334197
0.1,0.0,1.4,-0.5235987755982988,-0.5235987755982988,0,-1.7235008,1.2211505,-0.5556249,0.40888405,-0.4833581,1.3461694,-2.4415646,1.1503971,-1.6147637,-0.23795745,-0.17620058,0.326715,1.3551222,-1.1629367
0.1,0.0,1.4,-0.5235987755982988,-0.5235987755982988,0,-1.7254136,1.2201134,-0.55519027,0.40625787,-0.47868174,1.3471948,-2.5023153,1.0269816,-1.6413767,-0.18878949,-0.10243404,0.2256704,1.2910279,-0.063914284
0.1,0.0,1.4,-0.5235987755982988,-0.5235987755982988,0,-1.726375,1.2204905,-0.5547234,0.4051849,-0.48729476,1.3448324,-2.4736674,1.2936975,-1.680696,-0.122782454,-0.18178289,-0.20428921,1.1404029,-0.3087235
0.1,0.0,1.4,-0.5235987755982988,-0.5235987755982988,0,-1.725575,1.2197642,-0.55673,0.40572903,-0.48350555,1.3438529,-2.5259006,1.1635954,-1.6409655,-0.1760906,-0.10590684,0.019192362,0.96786755,-0.8783012
0.1,0.0,1.4,-0.5235987755982988,-0.5235987755982988,0,-1.7258792,1.2198708,-0.5538294,0.40641218,-0.4832159,1.3501655,-2.469972,1.0180204,-1.6515275,-0.014247046,0.0034216552,0.33035004,1.243832,-1.2896688
0.1,0.0,1.4,-0.5235987755982988,-0.5235987755982988,0,-1.7271283,1.2187011,-0.5555324,0.40534946,-0.48433954,1.3461264,-2.490798,1.2635767,-1.6098177,-0.112950854,-0.055140715,-0.05847342,1.2003245,-1.010474
0.1,0.0,1.4,-0.5235987755982988,-0.5235987755982988,0,-1.725425,1.2198298,-0.5530298,0.4083048,-0.48030415,1.3491759,-2.5263767,1.0166317,-1.7042495,0.019907342,-0.060502093,0.070330195,1.2628983,-0.16495058
0.1,0.0,1.4,-0.5235987755982988,-0.5235987755982988,0,-1.7261465,1.2216243,-0.555614,0.4104658,-0.48780093,1.3406212,-2.5160532,0.9014667,-1.5748237,-0.4090798,-0.06550435,0.17765506,1.3338586,-0.65751815
0.1,0.0,1.4,-0.5235987755982988,-0.5235987755982988,0,-1.725099,1.2210655,-0.5547191,0.40920094,-0.48734984,1.3454436,-2.4234107,0.9732701,-1.7176564,-0.27898514,-0.11589433,-0.10820403,1.1886038,-0.36245853
0.1,0.0,1.4,-0.5235987755982988,-0.5235987755982988,0,-1.7252527,1.222048,-0.55653894,0.40464252,-0.48437566,1.3474666,-2.5907865,1.022808,-1.7020425,-0.18272781,-0.08489593,0.26612267,1.1896096,0.12513702
0.1,0.0,1.4,-0.5235987755982988,-0.5235987755982988,0,-1.7238408,1.219488,-0.55891705,0.40655136,-0.4867418,1.3429674,-2.517698,0.8688702,-1.621884,-0.062471934,-0.14232402,0.10961577,1.145221,-2.1533983
0.1,0.0,1.4,-0.5235987755982988,-0.5235987755982988,0,-1.7223424,1.2204283,-0.55445695,0.4049832,-0.4928874,1.3507826,-2.4567451,1.019107,-1.6651006,-0.33189592,-0.1650024,0.0926255,1.3098906,-0.74838775
0.1,0.0,1.4,-0.5235987755982988,-0.5235987755982988,0,-1.7241191,1.2214223,-0.55632734,0.40747824,-0.4817627,1.3494925,-2.5201874,1.3203355,-1.7625452,-0.042284597,-0.08885511,0.033588186,1.181722,-0.4762602
0.1,0.0,1.4,-0.5235987755982988,-0.5235987755982988,0,-1.7249359,1.2226366,-0.55109453,0.40224695,-0.4833963,1.3456341,-2.4856396,1.0868138,-1.6782395,-0.17281891,-0.1666779,5.0800623e-05,1.221605,-0.99874437
0.1,0.0,1.4,-0.5235987755982988,-0.5235987755982988,0,-1.7250133,1.22218,-0.55165076,0.4017873,-0.48050833,1.346425,-2.499547,1.1928144,-1.6713529,-0.26029524,-0.085124806,0.09054392,1.1015092,0.19728814
0.1,0.0,1.4,-0.5235987755982988,-0.5235987755982988,0,-1.726135,1.2197112,-0.5480974,0.40350667,-0.48419127,1.3455532,-2.5493062,1.3505262,-1.6905322,-0.12206168,-0.07207522,-0.013738409,1.0834059,-0.41509578
0.1,0.0,1.4,-0.5235987755982988,-0.5235987755982988,0,-1.7249646,1.2215697,-0.55237865,0.40375537,-0.4852233,1.3453566,-2.451076,0.9873928,-1.6494672,0.005554418,-0.18217015,0.011342044,1.1098374,-1.1100824
0.1,0.0,1.4,-0.5235987755982988,-0.5235987755982988,0,-1.7232906,1.2221185,-0.5537972,0.4043527,-0.49028155,1.342051,-2.5150015,1.2669742,-1.6461889,0.07748248,-0.06925111,-0.12470656,1.2020162,1.2459979
0.1,0.0,1.4,-0.5235987755982988,-0.5235987755982988,0,-1.7228903,1.2224247,-0.55230045,0.40566874,-0.48442245,1.3474351,-2.4858484,1.0767299,-1.5426195,-0.043846447,-0.04191545,-0.10301493,1.1904896,-0.77500105
0.1,0.0,1.4,-0.5235987755982988,-0.5235987755982988,0,-1.7236606,1.2199208,-0.5532482,0.40427,-0.48357356,1.3468492,-2.4970844,1.2722775,-1.6321373,-0.22246015,-0.106575474,-0.026789235,1.0337386,0.31462124
0.1,0.0,1.4,-0.5235987755982988,-0.5235987755982988,0,-1.7255542,1.2206254,-0.5530499,0.4039189,-0.48434147,1.3461648,-2.481995,1.142158,-1.5789541,-0.3678862,-0.08631992,-0.10147593,1.1147984,-0.3673336
0.1,0.0,1.4,-0.5235987755982988,-0.5235987755982988,0,-1.7230445,1.2207236,-0.5507536,0.40682358,-0.4864583,1.3470796,-2.433798,1.2635695,-1.6790874,-0.14587435,-0.11028447,-0.07260406,1.258307,-1.2572135
0.1,0.0,1.4,-0.5235987755982988,-0.5235987755982988,0,-1.7250025,1.2204735,-0.55280674,0.40596604,-0.48157677,1.3434516,-2.4922044,1.1012714,-1.7048298,-0.11058117,-0.042790364,0.102286994,1.1522342,-1.0488434
0.1,0.0,1.4,-0.5235987755982988,-0.5235987755982988,0,-1.72673,1.2206237,-0.5526503,0.40445727,-0.48124307,1.3439635,-2.5169437,1.2277412,-1.7603538,-0.14332432,-0.055984482,0.044228263,1.167023,1.0675641
0.1,0.0,1.4,-0.5235987755982988,-0.5235987755982988,0,-1.7230084,1.2211134,-0.5541705,0.4055078,-0.48824185,1.345753,-2.496259,0.97470945,-1.8773204,-0.35914242,-0.075487494,0.20979965,1.0563616,-0.54314893
0.1,0.0,1.4,-0.5235987755982988,-0.5235987755982988,0,-1.725804,1.2222174,-0.55138946,0.40687698,-0.48888278,1.345301,-2.5013657,1.0398061,-1.6353719,-0.25793526,-0.04094243,-0.13232262,1.2075962,-0.22157623
0.1,0.0,1.4,-0.5235987755982988,-0.5235987755982988,0,-1.7225857,1.2214808,-0.55449826,0.4015098,-0.48577183,1.3520457,-2.5075057,1.1908008,-1.687051,-0.25881147,-0.07058788,-0.053225365,1.116115,0.17918819
0.1,0.0,1.4,-0.5235987755982988,-0.5235987755982988,0,-1.7222311,1.2220384,-0.5543212,0.40514833,-0.4838208,1.346614,-2.5574384,1.1843307,-1.7238392,-0.15275808,-0.14023387,0.1114028,1.248859,-0.38036922
0.1,0.0,1.4,-0.5235987755982988,-0.5235987755982988,0,-1.7251407,1.2204082,-0.55409014,0.40868515,-0.4864795,1.3408269,-2.4310734,1.156303,-1.6610065,-0.09176441,-0.08544539,0.151558,0.9976472,-0.72041833
0.1,0.0,1.4,-0.5235987755982988,-0.5235987755982988,0,-1.7255222,1.221988,-0.5542401,0.4064657,-0.4830967,1.3416356,-2.4903028,1.2233711,-1.8042265,-0.094118,-0.07889625,0.123864345,1.1778822,-2.9856675
0.1,0.0,1.4,-0.5235987755982988,-0.5235987755982988,0,-1.7247982,1.2199678,-0.5560923,0.4026556,-0.47999316,1.3454126,-2.5433908,1.1001362,-1.8211434,-0.094556965,-0.036146842,-0.052653022,1.1738853,-0.37723845
0.1,0.0,1.4,-0.5235987755982988,-0.5235987755982988,0,-1.7252246,1.221188,-0.55204296,0.40709662,-0.48070434,1.3460903,-2.49534,1.2368993,-1.7654637,0.008604023,-0.0091869645,0.03651853,1.1641663,-0.14621095
0.1,0.0,1.4,-0.5235987755982988,-0.5235987755982988,0,-1.7234294,1.2208418,-0.5525401,0.40509686,-0.4861039,1.3497086,-2.4875898,1.2383608,-1.7930373,-0.03961875,-0.07187247,-0.09421439,1.0912595,-1.1467472
0.1,0.0,1.4,-0.5235987755982988,-0.5235987755982988,0,-1.7270654,1.2229382,-0.5526069,0.40677726,-0.47863314,1.3475187,-2.496641,1.2762849,-1.6395115,-0.2773557,-0.102399334,0.11311665,1.2552227,0.9929993
0.1,0.0,1.4,-0.5235987755982988,-0.5235987755982988,0,-1.7266427,1.2219098,-0.5559689,0.40522248,-0.48507643,1.3413447,-2.5080152,1.1476196,-1.5714821,0.10346274,-0.06549971,-0.1709553,1.2353749,0.20168537
0.1,0.0,1.4,-0.5235987755982988,-0.5235987755982988,0,-1.7254398,1.2213029,-0.55483663,0.40577576,-0.48357213,1.3434813,-2.5531237,1.3015915,-1.7560053,-0.19864285,-0.065460876,0.006624257,1.165699,-1.4551839
0.1,0.0,1.4,-0.5235987755982988,-0.5235987755982988,0,-1.7252644,1.2186354,-0.55344796,0.40795857,-0.48385856,1.3412089,-2.4987857,1.081191,-1.7708722,-0.18860115,-0.09610133,0.16937825,1.235005,-1.7500612
0.1,0.0,1.4,-0.5235987755982988,-0.5235987755982988,0,-1.7249396,1.2193164,-0.5544734,0.4066374,-0.48073837,1.3443533,-2.4749637,1.1162395,-1.7460973,-0.121876545,-0.07796949,0.09023622,1.1689179,-0.19950452
0.1,0.0,1.4,-0.5235987755982988,-0.5235987755982988,0,-1.7275692,1.2220126,-0.55405396,0.40609,-0.48219648,1.3477948,-2.4974127,1.1740746,-1.7365026,-0.044680938,-0.08928976,-0.019513035,1.0598876,0.19607988
0.1,0.0,1.4,-0.5235987755982988,-0.5235987755982988,0,-1.7255623,1.2221608,-0.5547182,0.40584296,-0.48330778,1.3503025,-2.5632055,1.2181314,-1.712919,-0.19442543,-0.12542638,0.018714868,1.1841125,-2.35281
0.1,0.0,1.4,-0.5235987755982988,-0.5235987755982988,0,-1.7271018,1.221532,-0.5549199,0.40778682,-0.48365325,1.344246,-2.5056317,1.0648082,-1.6844583,-0.025953628,-0.078304544,0.019477837,1.264361,-1.2694021
0.1,0.0,1.4,-0.5235987755982988,-0.5235987755982988,0,-1.7244897,1.2204692,-0.55407035,0.40691322,-0.48910466,1.3492126,-2.5284305,1.3044182,-1.6788474,-0.18723407,-0.087966494,0.025042182,1.2094896,-0.16357921
0.1,0.0,1.4,-0.5235987755982988,-0.5235987755982988,0,-1.7249972,1.2217774,-0.55086267,0.40020725,-0.47971892,1.3447859,-2.4390557,1.1950198,-1.7109256,-0.24842842,-0.041117206,0.120712414,1.0644913,-1.1997141
0.1,0.0,1.4,-0.5235987755982988,-0.5235987755982988,0,-1.7262146,1.2209549,-0.55003685,0.40028703,-0.48135012,1.3458328,-2.4936612,1.1222154,-1.7198709,0.008383231,-0.1369604,-0.0660483,1.0688971,-0.71863073
0.1,0.0,1.4,-0.5235987755982988,-0.5235987755982988,0,-1.7229215,1.2215362,-0.55282784,0.4039414,-0.48104268,1.3414073,-2.488595,0.9932975,-1.7348301,-0.13047774,-0.05982766,-0.056650817,1.3207018,-1.3124412
0.1,0.0,1.4,-0.5235987755982988,-0.5235987755982988,0,-1.7234411,1.2219224,-0.55388844,0.4057919,-0.489234,1.3417413,-2.5030317,1.1940104,-1.5318722,-0.025750568,0.011643154,-0.22493546,1.1542748,-0.678137
0.1,0.0,1.4,-0.5235987755982988,-0.5235987755982988,0,-1.7247809,1.2196367,-0.5509995,0.40585223,-0.47726727,1.3444097,-2.4653132,1.2594188,-1.6928214,0.006066289,-0.112792484,0.06020793,1.067735,-0.102234006
0.1,0.0,1.4,-0.5235987755982988,-0.5235987755982988,0,-1.7233855,1.220515,-0.5498033,0.40863588,-0.48215932,1.3440148,-2.505271,1.2175688,-1.7276171,-0.07818211,0.008182922,0.12879294,1.0316356,-1.1806812
0.1,0.0,1.4,-0.5235987755982988,-0.5235987755982988,0,-1.7260225,1.2208173,-0.5533322,0.40421253,-0.48250476,1.343448,-2.4773104,1.0478251,-1.6183816,-0.21778436,-0.057412133,-0.06685184,1.162826,-0.39806867
0.1,0.0,1.4,-0.5235987755982988,-0.5235987755982988,0,-1.7257802,1.221928,-0.55142176,0.4062532,-0.48469713,1.3434252,-2.5465984,0.9056718,-1.6111826,-0.041156046,-0.12273314,-0.04605316,1.325457,-0.8464907
0.1,0.0,1.4,-0.5235987755982988,-0.5235987755982988,0,-1.724221,1.2199725,-0.5546543,0.40512046,-0.48383623,1.3429458,-2.484133,1.1777711,-1.6076226,-0.2469006,-0.10611157,0.16451731,1.093924,-0.11163322
0.1,0.0,1.4,-0.5235987755982988,-0.5235987755982988,0,-1.7267977,1.2212955,-0.553692,0.40544918,-0.47807252,1.3395056,-2.5404701,1.1408038,-1.8043991,-0.080756135,-0.072022654,0.120625354,1.1627322,0.47678274
0.1,0.0,1.4,-0.5235987755982988,-0.5235987755982988,0,-1.7257679,1.221422,-0.55444914,0.40499458,-0.4780187,1.344152,-2.52076,1.2938403,-1.694087,-0.16644499,-0.028587462,-0.13900094,1.0755816,-0.02275145
0.1,0.0,1.4,-0.5235987755982988,-0.5235987755982988,0,-1.7237729,1.2205285,-0.55426925,0.40755492,-0.48289284,1.3427603,-2.5328898,1.0461917,-1.6996958,-0.1835637,-0.050036445,0.035288915,1.1855696,-0.88622934
0.1,0.0,1.4,-0.5235987755982988,-0.5235987755982988,0,-1.7242112,1.2197185,-0.553898,0.40752062,-0.48806188,1.3457288,-2.5182662,1.2033033,-1.6000575,-0.24013738,-0.14411838,-0.1795996,1.1930017,1.4555988
0.1,0.0,1.4,-0.5235987755982988,-0.5235987755982988,0,-1.7242591,1.2204388,-0.55277616,0.410467,-0.48467848,1.3445153,-2.5442598,1.0615668,-1.7363994,-0.11336482,-0.08088693,0.14004296,1.1244847,-0.9580653
0.1,0.0,1.4,-0.5235987755982988,-0.5235987755982988,0,-1.7267295,1.22113,-0.55014205,0.4089078,-0.49119714,1.3512592,-2.4850788,0.8995949,-1.6192175,-0.22638741,-0.11660723,0.066151,1.0369089,0.352847
0.1,0.0,1.4,-0.5235987755982988,-0.5235987755982988,0,-1.7260336,1.2215747,-0.5546368,0.40495855,-0.48802263,1.3519466,-2.5161598,1.2204759,-1.7261142,-0.23272188,-0.09401184,-0.28770924,1.2851809,0.25603932
0.1,0.0,1.4,-0.5235987755982988,-0.5235987755982988,0,-1.724779,1.2204992,-0.5526011,0.40676868,-0.4883343,1.3428226,-2.4598184,0.983165,-1.5686203,-0.041185178,-0.09457489,0.058631364,1.182074,-1.6248051
0.1,0.0,1.4,-0.5235987755982988,-0.5235987755982988,0,-1.7240076,1.2207232,-0.5547839,0.40671697,-0.48267108,1.3418998,-2.4742577,1.2259134,-1.7063746,0.17054695,-0.134645,0.1918813,1.0603051,-0.81981385
