sanky1234/BimanualDexCatch/isaacgymenvs/cem_results/football_pose_0.0_-0.1_1.0999999999999999_0.5235987755982988_0.5235987755982988_0_2025-05-26.csv
x,y,z,roll,pitch,yaw,robot1/joint1,robot1/joint2,robot1/joint3,robot1/joint4,robot1/joint5,robot1/joint6,robot1/joint7,robot2/joint1,robot2/joint2,robot2/joint3,robot2/joint4,robot2/joint5,robot2/joint6,robot2/joint7
0.0,-0.1,1.0999999999999999,0.5235987755982988,0.5235987755982988,0,-0.025103388,-1.4092178,-0.17647675,0.0072820983,0.112331636,0.991605,-0.49491647,-0.7814695,1.0708058,0.006031005,-0.0052365004,-0.114416584,1.238011,1.0846237
0.0,-0.1,1.0999999999999999,0.5235987755982988,0.5235987755982988,0,-0.025569355,-1.4094077,-0.17352381,0.028609449,-0.08535306,1.0166498,-0.22690943,-0.78317434,1.0679413,0.18647665,-0.17454623,-0.06455791,1.275168,0.12090186
0.0,-0.1,1.0999999999999999,0.5235987755982988,0.5235987755982988,0,-0.027733814,-1.409119,-0.17643802,-0.030099642,0.1584052,1.2188979,0.30681074,-0.78805274,1.0601205,0.3799281,-0.12876758,0.2783281,1.3071238,0.46934238
0.0,-0.1,1.0999999999999999,0.5235987755982988,0.5235987755982988,0,-0.026033439,-1.409171,-0.17713332,-0.079293616,0.067495055,1.1339363,0.64783496,-0.7882796,1.0484072,-0.06502427,0.04557481,-0.29799524,1.2367615,0.23918518
0.0,-0.1,1.0999999999999999,0.5235987755982988,0.5235987755982988,0,-0.02752554,-1.4090779,-0.17840332,-0.08554766,0.023739912,1.0496118,0.6610766,-0.78728735,1.0640222,-0.042887185,-0.03701811,-0.23598169,1.1021615,0.838236
0.0,-0.1,1.0999999999999999,0.5235987755982988,0.5235987755982988,0,-0.029048769,-1.4095554,-0.17502946,-0.013469434,0.0065702903,1.000263,0.66510504,-0.7857271,1.0684607,0.09190347,-0.08818768,-0.10899556,1.287224,1.6384484
0.0,-0.1,1.0999999999999999,0.5235987755982988,0.5235987755982988,0,-0.026660675,-1.4092017,-0.17510153,-0.04807458,0.004633606,0.97774935,1.0099859,-0.78966486,1.048469,0.26710606,-0.045912173,-0.061624024,1.3560947,0.66588444
0.0,-0.1,1.0999999999999999,0.5235987755982988,0.5235987755982988,0,-0.02542179,-1.4091272,-0.17597692,0.038388696,0.17626496,1.0589705,-0.07516759,-0.7835633,1.0869076,-0.19274667,-0.09112486,-0.012593992,1.2868338,0.5914708
0.0,-0.1,1.0999999999999999,0.5235987755982988,0.5235987755982988,0,-0.025576167,-1.4098078,-0.175922,-0.025231652,-0.0033475445,1.081173,0.18531892,-0.7878012,1.050142,0.30774194,-0.011735098,0.06355638,1.2921466,0.19303077
0.0,-0.1,1.0999999999999999,0.5235987755982988,0.5235987755982988,0,-0.027879871,-1.4092258,-0.17490396,-0.013879501,-0.07897798,1.2140224,0.47143984,-0.7885958,1.0643069,0.11713144,-0.04888478,-0.15981068,1.3299081,-0.2058661
0.0,-0.1,1.0999999999999999,0.5235987755982988,0.5235987755982988,0,-0.02651466,-1.4096628,-0.1739478,-0.018850924,-0.19110057,1.0891609,-0.5812925,-0.78989446,1.0617776,0.012973202,-0.1280061,0.005836563,1.2461836,1.6473627
0.0,-0.1,1.0999999999999999,0.5235987755982988,0.5235987755982988,0,-0.024996154,-1.40962,-0.17436422,-0.08241831,0.215934,0.99915767,0.12502441,-0.77751553,1.0552807,-0.33957562,0.009642093,0.19976485,1.3720295,0.15349437
0.0,-0.1,1.0999999999999999,0.5235987755982988,0.5235987755982988,0,-0.02717324,-1.4091685,-0.17866455,-0.048508793,-0.116525926,0.8432559,-0.64469993,-0.7777543,1.0609145,-0.31090873,-0.11682271,-0.07375533,1.1063683,0.62309885
0.0,-0.1,1.0999999999999999,0.5235987755982988,0.5235987755982988,0,-0.025883896,-1.409467,-0.17555526,-0.043469783,0.019852778,1.0874866,-0.7780249,-0.77628046,1.0563514,-0.086571716,-0.03209255,-0.14964788,1.214343,0.24026503
0.0,-0.1,1.0999999999999999,0.5235987755982988,0.5235987755982988,0,-0.024471814,-1.4095606,-0.17225589,-0.16849938,0.10879991,0.8808079,-0.06237582,-0.7850696,1.075985,-0.43850303,-0.065557525,-0.062675945,1.1359252,0.66682875
0.0,-0.1,1.0999999999999999,0.5235987755982988,0.5235987755982988,0,-0.027431177,-1.4092505,-0.17389737,-0.036408953,-0.061944664,1.03087,0.010475912,-0.77752787,1.0742229,0.09640696,-0.11285438,-0.13231969,1.1713985,1.3616139
0.0,-0.1,1.0999999999999999,0.5235987755982988,0.5235987755982988,0,-0.027094632,-1.40985,-0.17162901,0.041036233,0.17242694,0.9713981,1.4404674,-0.78148866,1.0678079,0.020153176,-0.15792406,0.48734576,1.2854959,1.1565418
0.0,-0.1,1.0999999999999999,0.5235987755982988,0.5235987755982988,0,-0.027201388,-1.4092964,-0.1752974,0.0074839257,-0.10013425,1.0006057,1.2191236,-0.77696186,1.0678767,0.080569915,-0.061901323,-0.0020167208,1.128275,0.79804766
0.0,-0.1,1.0999999999999999,0.5235987755982988,0.5235987755982988,0,-0.027546832,-1.4094173,-0.17477925,-0.029614568,-0.16021198,1.0119749,-0.32654133,-0.7785956,1.0667927,0.6480133,0.030395653,-0.077120006,1.2289357,0.82237697
0.0,-0.1,1.0999999999999999,0.5235987755982988,0.5235987755982988,0,-0.025636734,-1.4094431,-0.17517468,-0.055359606,0.046297796,1.011391,-0.93310845,-0.7784666,1.0678931,0.35541984,-0.031386033,0.29176393,1.2133491,1.6701807
0.0,-0.1,1.0999999999999999,0.5235987755982988,0.5235987755982988,0,-0.027379068,-1.409158,-0.17631643,-0.113561735,0.045138925,1.21134,-0.52752984,-0.7775032,1.0649512,0.38905236,-0.15305835,-0.23628977,1.2783308,0.6160792
0.0,-0.1,1.0999999999999999,0.5235987755982988,0.5235987755982988,0,-0.027024783,-1.409513,-0.17681701,-0.052913286,-0.098914355,1.0046104,0.577841,-0.77730244,1.057831,-0.11808743,-0.1750092,0.05980358,1.2396678,2.145691
0.0,-0.1,1.0999999999999999,0.5235987755982988,0.5235987755982988,0,-0.028509352,-1.4094031,-0.17668267,-0.064632006,0.16847381,1.3647107,0.40080935,-0.776889,1.057922,0.09148828,-0.10492413,0.4070583,1.2821553,1.0827452
0.0,-0.1,1.0999999999999999,0.5235987755982988,0.5235987755982988,0,-0.027923517,-1.4092429,-0.17674208,-0.013279742,-0.06192097,1.0563891,0.030007668,-0.77903634,1.0592772,0.48001057,-0.05907489,0.0765947,1.0780149,0.8540924
0.0,-0.1,1.0999999999999999,0.5235987755982988,0.5235987755982988,0,-0.027586123,-1.4093142,-0.17428541,-0.047295082,0.050339907,1.0418036,-0.6241848,-0.7778096,1.0860785,0.32639802,-0.029621465,0.05302041,1.4475132,1.1754732
0.0,-0.1,1.0999999999999999,0.5235987755982988,0.5235987755982988,0,-0.028209291,-1.4092056,-0.17482357,0.00569537,0.06222573,1.1910362,-0.07422124,-0.7796554,1.073206,-0.037829634,-0.16543476,-0.26071265,1.1269493,1.0723478
0.0,-0.1,1.0999999999999999,0.5235987755982988,0.5235987755982988,0,-0.024613358,-1.4095644,-0.17384201,-0.09972755,0.10350806,1.2387067,0.9979352,-0.7833028,1.0485114,0.20945527,-0.03936908,-0.14873815,1.1195843,-0.022530962
0.0,-0.1,1.0999999999999999,0.5235987755982988,0.5235987755982988,0,-0.027959352,-1.4091655,-0.17439252,0.022287335,0.15013734,1.0302026,0.1328782,-0.7784055,1.0749749,-0.09188689,-0.09648184,0.15041153,1.2754112,0.91694045
0.0,-0.1,1.0999999999999999,0.5235987755982988,0.5235987755982988,0,-0.02872615,-1.4091756,-0.17315514,-0.09133566,0.13757817,0.93803114,-1.2932898,-0.77960116,1.0512923,0.28951725,-0.0129550565,0.09591604,1.2065226,2.0049841
0.0,-0.1,1.0999999999999999,0.5235987755982988,0.5235987755982988,0,-0.027984135,-1.4092392,-0.17532462,0.0025371504,0.017882494,1.0943867,-0.10549152,-0.7813453,1.0579942,-0.3490263,-0.20222421,-0.22589868,1.2055472,0.2574826
0.0,-0.1,1.0999999999999999,0.5235987755982988,0.5235987755982988,0,-0.02660507,-1.4087936,-0.17344166,-0.008774385,0.06615618,1.3817369,0.6445046,-0.77519333,1.0484146,0.10553347,-0.097633354,0.20254329,1.2289218,0.44124967
0.0,-0.1,1.0999999999999999,0.5235987755982988,0.5235987755982988,0,-0.026973963,-1.4094429,-0.17406559,-0.105448104,-0.0068530072,1.0113032,-0.90895116,-0.7803308,1.0582671,0.37599385,-0.079517834,-0.17097192,1.1287994,1.1224437
0.0,-0.1,1.0999999999999999,0.5235987755982988,0.5235987755982988,0,-0.02755998,-1.4089487,-0.17481543,-0.021761458,0.047599677,1.087788,-0.8962582,-0.7817971,1.0720074,-0.04934493,-0.14275426,-0.21560669,1.309256,-0.30237398
0.0,-0.1,1.0999999999999999,0.5235987755982988,0.5235987755982988,0,-0.027732767,-1.4089296,-0.1750617,-0.08612505,0.015905177,1.053111,0.9360741,-0.7804658,1.0526001,-0.047870092,-0.17479922,-0.038684864,1.2532754,-0.15710466
0.0,-0.1,1.0999999999999999,0.5235987755982988,0.5235987755982988,0,-0.027067889,-1.4095751,-0.17672755,-0.054448575,0.050235394,1.0339197,-0.57600516,-0.77787447,1.0462246,0.34329233,-0.081852995,-0.21403736,1.4031959,1.1672393
0.0,-0.1,1.0999999999999999,0.5235987755982988,0.5235987755982988,0,-0.026044982,-1.4093512,-0.17402767,0.0074147983,-0.09938539,0.880876,0.9012512,-0.7846826,1.0539564,-0.31551003,0.028997097,-0.09078263,1.1950864,1.3956096
0.0,-0.1,1.0999999999999999,0.5235987755982988,0.5235987755982988,0,-0.02776313,-1.4095067,-0.17412272,-0.037326004,0.039159562,1.1552438,-1.3008742,-0.7791523,1.0646809,0.03094756,-0.13549106,0.105734095,1.2232345,0.016390843
0.0,-0.1,1.0999999999999999,0.5235987755982988,0.5235987755982988,0,-0.02751728,-1.4096051,-0.17132868,-0.071263574,0.11331303,1.1320777,0.09874006,-0.7842331,1.0589302,-0.4048769,-0.081441216,-0.2053757,1.2409014,1.3177977
0.0,-0.1,1.0999999999999999,0.5235987755982988,0.5235987755982988,0,-0.0264732,-1.4092314,-0.17450613,-0.007367059,0.20931661,0.9100966,0.8944632,-0.78363353,1.0763068,0.2170194,-0.13227585,0.2584269,1.4175366,0.67525655
0.0,-0.1,1.0999999999999999,0.5235987755982988,0.5235987755982988,0,-0.025461316,-1.4096143,-0.17399979,-0.07751634,-0.043464605,1.0008025,0.80592096,-0.7826576,1.0792903,0.02858641,-0.06159599,-0.07118571,1.3053596,0.76781446
0.0,-0.1,1.0999999999999999,0.5235987755982988,0.5235987755982988,0,-0.026272062,-1.4091121,-0.17451699,-0.050029084,0.1773513,1.0946473,-0.18761532,-0.78291625,1.0598191,-0.17598832,-0.058665916,0.12017079,1.1835575,0.21802679
0.0,-0.1,1.0999999999999999,0.5235987755982988,0.5235987755982988,0,-0.028725121,-1.4092734,-0.17575604,0.041915804,0.021465676,1.1782389,0.2020251,-0.7812431,1.0653774,0.5209332,-0.092307776,0.1474163,1.2264141,0.29711032
0.0,-0.1,1.0999999999999999,0.5235987755982988,0.5235987755982988,0,-0.02666161,-1.408876,-0.1759818,-0.060711265,0.070269115,1.0920684,-0.11705347,-0.7824782,1.0702851,0.03298199,-0.18242648,0.034983646,1.2663796,0.96292126
0.0,-0.1,1.0999999999999999,0.5235987755982988,0.5235987755982988,0,-0.026849603,-1.4094375,-0.17582011,-0.09047761,0.01593798,1.0017117,-0.28324533,-0.779535,1.0590475,0.011905715,-0.13253431,-0.33084303,1.3004742,0.83472145
0.0,-0.1,1.0999999999999999,0.5235987755982988,0.5235987755982988,0,-0.028086662,-1.4093902,-0.1742238,-0.024367463,-0.03773009,1.1339221,0.2302981,-0.78314304,1.0554581,-0.2811266,-0.1548839,0.19282706,1.1607364,0.10655228
0.0,-0.1,1.0999999999999999,0.5235987755982988,0.5235987755982988,0,-0.027285058,-1.4089259,-0.17421767,-0.031157771,0.21758178,0.98413944,-1.3327377,-0.78322667,1.0655813,0.08644991,-0.105740294,-0.23403016,1.4272583,1.768193
0.0,-0.1,1.0999999999999999,0.5235987755982988,0.5235987755982988,0,-0.027335122,-1.4092847,-0.1738622,0.0029366773,-0.07222356,0.9644768,0.17818569,-0.7836847,1.0620373,-0.1981296,-0.08716328,-0.2793878,1.1213775,0.8849274
0.0,-0.1,1.0999999999999999,0.5235987755982988,0.5235987755982988,0,-0.028370654,-1.4092697,-0.17622434,-0.07839942,0.11617432,0.86103797,0.6085906,-0.7813436,1.0593201,0.38001573,-0.04109625,0.41905147,1.3302912,0.32174957
0.0,-0.1,1.0999999999999999,0.5235987755982988,0.5235987755982988,0,-0.025337607,-1.4087968,-0.17384505,-0.0333616,0.08749,0.92634934,0.64050794,-0.7777848,1.088532,0.37713647,-0.056214835,0.031477463,1.2534704,0.8863749
0.0,-0.1,1.0999999999999999,0.5235987755982988,0.5235987755982988,0,-0.025983207,-1.4088899,-0.17344652,-0.025315274,0.0005576989,1.0104822,0.8307866,-0.77660894,1.0616246,-0.17388311,-0.031214556,-0.09693855,1.2804573,0.4207798
0.0,-0.1,1.0999999999999999,0.5235987755982988,0.5235987755982988,0,-0.026400903,-1.4090053,-0.17593741,-0.049222,-0.1969408,1.0513592,-0.07886693,-0.7834685,1.0612081,0.2926875,-0.08007908,0.34243697,1.2803683,0.5755091
0.0,-0.1,1.0999999999999999,0.5235987755982988,0.5235987755982988,0,-0.027685618,-1.4093443,-0.17391321,-0.049929276,-0.09330121,1.0831931,-0.1515939,-0.7820896,1.0479611,-0.08024957,-0.12111462,0.17356382,1.3142753,0.37027144
0.0,-0.1,1.0999999999999999,0.5235987755982988,0.5235987755982988,0,-0.027113954,-1.4089532,-0.17573544,-0.0030608592,0.034983445,0.9768638,-0.25897875,-0.78308207,1.0708853,4.5558223e-05,0.002449976,0.29069522,1.181937,0.22709163
0.0,-0.1,1.0999999999999999,0.5235987755982988,0.5235987755982988,0,-0.027478173,-1.409564,-0.17606975,0.043043103,0.23215793,1.0008982,0.76002204,-0.7802346,1.0543815,0.2732233,-0.16242874,-0.119071476,1.2341906,-0.30790251
0.0,-0.1,1.0999999999999999,0.5235987755982988,0.5235987755982988,0,-0.025983397,-1.409409,-0.17214422,-0.012873943,-0.06176574,1.1496618,-0.5758896,-0.7851106,1.0647595,0.006630233,-0.1075226,0.1898751,1.0742165,0.93253815
0.0,-0.1,1.0999999999999999,0.5235987755982988,0.5235987755982988,0,-0.026445448,-1.4092565,-0.17811352,-0.05597754,-0.0019561776,0.9724505,0.43312085,-0.78162074,1.0589572,0.23963813,-0.08220754,-0.33845916,1.098519,1.6465456
0.0,-0.1,1.0999999999999999,0.5235987755982988,0.5235987755982988,0,-0.027514573,-1.4094329,-0.17336352,-0.079592995,0.15001494,1.0534376,0.9877161,-0.7820237,1.0713375,0.5436229,-0.06939087,0.25024974,1.1708736,1.1038606
0.0,-0.1,1.0999999999999999,0.5235987755982988,0.5235987755982988,0,-0.02729713,-1.4097649,-0.17520837,-0.06464228,-0.0007274362,1.0143411,-0.35952485,-0.7790073,1.0532982,0.07444461,-0.021776568,0.36786157,1.4935589,1.1679212
0.0,-0.1,1.0999999999999999,0.5235987755982988,0.5235987755982988,0,-0.026949408,-1.4094868,-0.17540307,0.02342018,0.0017925674,1.110931,-0.88368917,-0.7817545,1.0529367,-0.21864665,-0.10649845,0.43784973,1.3240671,1.1587965
0.0,-0.1,1.0999999999999999,0.5235987755982988,0.5235987755982988,0,-0.025873307,-1.4093215,-0.17605986,-0.06931404,0.013260015,1.3232659,1.11332,-0.7812864,1.0539862,-0.06592759,-0.14096421,0.00047486255,1.3891516,0.53885525
0.0,-0.1,1.0999999999999999,0.5235987755982988,0.5235987755982988,0,-0.027076432,-1.4091249,-0.1744743,-0.07429971,-0.037505437,0.9779403,-0.8489506,-0.7830947,1.072669,0.011020348,0.017246515,-0.03660369,1.3039284,0.8197829
0.0,-0.1,1.0999999999999999,0.5235987755982988,0.5235987755982988,0,-0.026798062,-1.4093655,-0.17482619,-0.058341768,0.08723849,1.0681736,-1.4530734,-0.7811816,1.0670664,0.16859269,-0.07112065,-0.015029427,1.1966922,-1.2151318
0.0,-0.1,1.0999999999999999,0.5235987755982988,0.5235987755982988,0,-0.026320973,-1.4092301,-0.17706543,-0.046959724,0.09827377,0.9145928,-0.6709387,-0.7845424,1.0540252,-0.1862253,-0.18195474,0.25185108,1.2015588,2.0605648
0.0,-0.1,1.0999999999999999,0.5235987755982988,0.5235987755982988,0,-0.027132805,-1.4089024,-0.17661694,-0.035563495,0.050380737,1.0526154,-0.24516676,-0.78318155,1.058455,0.17946196,-0.04459848,0.06508541,1.1868256,1.3996012
0.0,-0.1,1.0999999999999999,0.5235987755982988,0.5235987755982988,0,-0.026234385,-1.4085933,-0.17649136,-0.030939665,0.2581693,1.1158595,1.775794,-0.7751336,1.0818697,-0.26200214,-0.0016012628,-0.17058088,1.1952971,0.4333271
0.0,-0.1,1.0999999999999999,0.5235987755982988,0.5235987755982988,0,-0.026169503,-1.4089669,-0.17782736,0.083628275,-0.05398794,0.8912703,0.38823318,-0.77652615,1.0547944,-0.24140096,-0.03616412,-0.38601282,1.2533517,0.9083821
0.0,-0.1,1.0999999999999999,0.5235987755982988,0.5235987755982988,0,-0.026353259,-1.4094698,-0.17397292,-0.03614588,-0.0053647347,0.8570517,1.1234742,-0.78431046,1.0697443,0.4152302,-0.10059289,-0.21404003,1.3749304,0.53055835
0.0,-0.1,1.0999999999999999,0.5235987755982988,0.5235987755982988,0,-0.028465735,-1.4084148,-0.17475672,0.04728366,0.09616832,0.9360927,-0.69760156,-0.77725554,1.0667583,0.1798248,-0.061958067,0.12376138,1.2676241,0.19186223
0.0,-0.1,1.0999999999999999,0.5235987755982988,0.5235987755982988,0,-0.027548965,-1.4091918,-0.17595957,-0.03975988,0.018341087,1.1315159,0.40085638,-0.78122956,1.075552,-0.034509018,-0.003814856,0.10668764,1.120305,0.06903341
0.0,-0.1,1.0999999999999999,0.5235987755982988,0.5235987755982988,0,-0.027321296,-1.4090793,-0.17380872,-0.026077678,-0.004581949,0.9967864,0.39506978,-0.7854987,1.0661899,-0.036742624,0.06016583,-0.29541168,1.1783242,-0.0015053665
0.0,-0.1,1.0999999999999999,0.5235987755982988,0.5235987755982988,0,-0.027787467,-1.4095095,-0.1730346,-0.071723886,0.058035057,0.89340156,-0.18984844,-0.7852299,1.054895,0.6594842,-0.088540524,-0.32262602,1.1776758,0.9239226
0.0,-0.1,1.0999999999999999,0.5235987755982988,0.5235987755982988,0,-0.0259172,-1.4092501,-0.17534262,-0.01226814,-0.16360465,1.0950826,0.79338914,-0.784258,1.0689164,0.07972369,-0.07908259,-0.32724175,1.2729061,0.90095747
0.0,-0.1,1.0999999999999999,0.5235987755982988,0.5235987755982988,0,-0.026016515,-1.4095536,-0.17346545,0.019911852,0.093775876,1.0936074,0.89536643,-0.78362817,1.0733161,0.14328843,0.0004182085,0.21976987,1.2765633,-0.09352535
0.0,-0.1,1.0999999999999999,0.5235987755982988,0.5235987755982988,0,-0.026640818,-1.4095111,-0.17443725,-0.037741836,0.018460039,0.958684,0.13625197,-0.78304803,1.0793936,0.23894034,-0.04997939,-0.12007068,1.2681329,-0.018916963
0.0,-0.1,1.0999999999999999,0.5235987755982988,0.5235987755982988,0,-0.025960155,-1.409493,-0.17555717,0.003667957,0.09170697,0.9838225,1.4093299,-0.78398526,1.0655593,0.46675995,-0.114600554,0.14631033,1.2675539,0.9485568
0.0,-0.1,1.0999999999999999,0.5235987755982988,0.5235987755982988,0,-0.02617161,-1.408756,-0.17750907,-0.02577368,0.2765034,0.9919904,-1.5478988,-0.7856629,1.048804,0.4645644,-0.09082356,0.1841137,1.1558356,0.98423725
0.0,-0.1,1.0999999999999999,0.5235987755982988,0.5235987755982988,0,-0.028519817,-1.4091982,-0.17503715,-0.018886209,0.0406658,0.978121,0.7185921,-0.78212225,1.0645639,0.22491485,-0.1261558,0.023099571,1.191126,0.6387413
0.0,-0.1,1.0999999999999999,0.5235987755982988,0.5235987755982988,0,-0.025250299,-1.4087119,-0.17359532,-0.03836176,0.10219256,1.0031067,0.032204084,-0.7819877,1.0639884,-0.4795379,0.05904354,-0.23730524,1.2147746,-0.18248124
0.0,-0.1,1.0999999999999999,0.5235987755982988,0.5235987755982988,0,-0.025707038,-1.4094337,-0.17886108,-0.010230539,-0.05227211,1.1595778,0.31981608,-0.7804573,1.0537539,-0.29859632,-0.10807208,0.07827466,1.2357736,1.0592713
0.0,-0.1,1.0999999999999999,0.5235987755982988,0.5235987755982988,0,-0.025971226,-1.4091,-0.17341127,0.10415201,0.08304335,1.0878924,0.21847662,-0.7803476,1.0707698,0.3525275,-0.05918362,-0.12499043,1.2686064,1.9259031
0.0,-0.1,1.0999999999999999,0.5235987755982988,0.5235987755982988,0,-0.026022758,-1.4088897,-0.17378284,0.01977953,0.18142365,1.1865321,0.09302241,-0.7804863,1.0857149,-0.541238,-0.105539806,-0.1260575,1.2674766,-0.57177836
0.0,-0.1,1.0999999999999999,0.5235987755982988,0.5235987755982988,0,-0.027363425,-1.4094665,-0.17529401,0.026625056,0.13978969,0.9421493,-0.41554123,-0.78427076,1.0554614,-0.14757524,0.018212672,-0.21290387,1.2204304,0.3043116
0.0,-0.1,1.0999999999999999,0.5235987755982988,0.5235987755982988,0,-0.028232994,-1.4087992,-0.17207122,-0.014579922,0.0045445794,1.0875131,-0.36129582,-0.77702916,1.0714337,-0.026004847,-0.01899255,0.03948207,1.1878619,0.42359078
0.0,-0.1,1.0999999999999999,0.5235987755982988,0.5235987755982988,0,-0.026213635,-1.4087425,-0.17205773,-0.06275652,0.06047765,1.1485747,-0.10932555,-0.78004396,1.0803373,0.15865795,-0.04138704,0.050742917,1.3228471,0.85169196
0.0,-0.1,1.0999999999999999,0.5235987755982988,0.5235987755982988,0,-0.026146274,-1.4098635,-0.17631578,0.009412231,0.02978141,1.1977652,-0.35598227,-0.78078824,1.063541,0.040743127,-0.03941114,-0.01834117,1.1728079,0.3166198
0.0,-0.1,1.0999999999999999,0.5235987755982988,0.5235987755982988,0,-0.027536577,-1.4087476,-0.1735045,-0.063226,-0.042058993,0.91938645,-0.33317813,-0.7866153,1.0634682,0.25217363,-0.14805934,-0.16584252,1.3734745,-0.57336926
0.0,-0.1,1.0999999999999999,0.5235987755982988,0.5235987755982988,0,-0.027738877,-1.4091057,-0.17543037,-0.04725674,-0.06046776,1.0797014,0.7608612,-0.7851021,1.0821937,-0.6248159,-0.023706868,-0.14972079,1.2678363,0.29607674
0.0,-0.1,1.0999999999999999,0.5235987755982988,0.5235987755982988,0,-0.026943492,-1.408654,-0.17451346,-0.071515515,0.44481263,1.0303391,-0.585632,-0.780317,1.0512211,0.3546112,-0.16508554,-0.06671846,1.113033,0.019170819
0.0,-0.1,1.0999999999999999,0.5235987755982988,0.5235987755982988,0,-0.027391518,-1.4091109,-0.17394964,-0.07848359,0.08821188,1.0117989,1.2736124,-0.7845365,1.058703,0.101588055,-0.10202841,-0.2658107,1.3537574,-0.31102043
0.0,-0.1,1.0999999999999999,0.5235987755982988,0.5235987755982988,0,-0.028767811,-1.4094092,-0.17286268,-0.029927114,-0.07700947,1.1779824,-0.24938048,-0.7835401,1.0783515,-0.36455035,-0.04357053,0.075225875,1.2623487,1.1701008
0.0,-0.1,1.0999999999999999,0.5235987755982988,0.5235987755982988,0,-0.027033957,-1.4094164,-0.1747927,-9.1763075e-05,-0.017026056,0.9705856,0.20377663,-0.78404206,1.0687371,0.3274415,-0.06814451,-0.17147961,1.2819207,-0.29769343
0.0,-0.1,1.0999999999999999,0.5235987755982988,0.5235987755982988,0,-0.028518233,-1.4096255,-0.17811047,-0.0048036524,-0.083486244,0.9304575,0.36746678,-0.7801602,1.0744457,0.0787499,0.049426593,-0.16111046,1.2540448,-0.6769872
0.0,-0.1,1.0999999999999999,0.5235987755982988,0.5235987755982988,0,-0.02675362,-1.4095682,-0.17868935,0.01565307,0.2707405,1.0969242,-1.3078027,-0.7829477,1.0619667,-0.14066607,-0.06196877,0.3435891,1.116795,0.3702051
0.0,-0.1,1.0999999999999999,0.5235987755982988,0.5235987755982988,0,-0.0263939,-1.4089868,-0.17677058,-0.039287496,0.2048734,0.9716083,0.52177,-0.7855021,1.0567269,-0.39389068,-0.08601227,0.013002514,1.2160882,0.66861653
0.0,-0.1,1.0999999999999999,0.5235987755982988,0.5235987755982988,0,-0.02694736,-1.4091511,-0.17612234,-0.07655309,0.07815497,1.1347592,0.08919144,-0.7827413,1.0654579,0.2465062,-0.013955726,-0.054170053,1.235554,0.8829066
0.0,-0.1,1.0999999999999999,0.5235987755982988,0.5235987755982988,0,-0.028461672,-1.4094543,-0.17682563,0.012649433,0.17560135,1.1217248,0.19342813,-0.7823415,1.0639735,0.47094858,-0.019439,0.067328066,1.231786,2.3909547
0.0,-0.1,1.0999999999999999,0.5235987755982988,0.5235987755982988,0,-0.026813228,-1.4087989,-0.1742473,-0.0116413,0.017149763,1.141088,0.17686729,-0.78792185,1.087708,0.076113716,-0.12632973,-0.029645279,1.1314266,0.10886481
0.0,-0.1,1.0999999999999999,0.5235987755982988,0.5235987755982988,0,-0.02768403,-1.4095515,-0.17640847,-0.056149825,0.08225177,1.0304157,-1.5554879,-0.78088015,1.0645772,-0.53051186,-0.1885163,-0.05402987,1.1665448,0.090530016
0.0,-0.1,1.0999999999999999,0.5235987755982988,0.5235987755982988,0,-0.025620492,-1.4087332,-0.17559761,0.008376347,0.06992657,1.0817144,-0.47063297,-0.7796412,1.054751,0.15892911,-0.048212856,0.23835167,1.1833622,-0.16999923
0.0,-0.1,1.0999999999999999,0.5235987755982988,0.5235987755982988,0,-0.026951656,-1.409435,-0.17513551,0.015790746,0.024616439,0.9789335,0.095962845,-0.7879926,1.0728267,-0.30602416,-0.15289114,0.12644123,1.125853,0.43245295
0.0,-0.1,1.0999999999999999,0.5235987755982988,0.5235987755982988,0,-0.027459087,-1.4082915,-0.1758649,-0.096950024,0.027866066,1.2638724,1.3227565,-0.7877551,1.0601293,-0.44772422,-0.17606477,-0.34579366,1.3416935,0.53031564
0.0,-0.1,1.0999999999999999,0.5235987755982988,0.5235987755982988,0,-0.027481329,-1.4086684,-0.17797679,-0.035489738,0.028843725,1.0803312,0.32581,-0.7825966,1.0392222,-0.05391548,-0.046718102,0.24256508,1.3085089,0.09375251
0.0,-0.1,1.0999999999999999,0.5235987755982988,0.5235987755982988,0,-0.026698085,-1.4095693,-0.1757253,-0.060832508,-0.06349513,1.065085,1.0583194,-0.78288317,1.0566373,0.09690302,-0.11367228,0.16074382,1.2024789,0.8919689
0.0,-0.1,1.0999999999999999,0.5235987755982988,0.5235987755982988,0,-0.026161015,-1.4092112,-0.17519757,-0.029583612,-0.037561286,1.0578288,0.54072094,-0.7856826,1.0733542,-0.1898926,-0.11264695,0.23164773,1.3726078,-0.010229563
0.0,-0.1,1.0999999999999999,0.5235987755982988,0.5235987755982988,0,-0.027355272,-1.4096074,-0.17336825,-0.121783346,-0.009518572,1.1288059,0.46873525,-0.7840748,1.0581619,0.030959187,-0.09318683,0.3649657,1.3274432,0.88570964
0.0,-0.1,1.0999999999999999,0.5235987755982988,0.5235987755982988,0,-0.027043134,-1.4095598,-0.17270777,0.052631013,0.19973782,1.2612653,0.21410218,-0.78680336,1.0637548,0.14417525,-0.09018348,0.123045325,1.2401417,0.45583257
0.0,-0.1,1.0999999999999999,0.5235987755982988,0.5235987755982988,0,-0.027084002,-1.409628,-0.17498718,0.03716253,0.05415167,1.0951529,1.3266832,-0.78406703,1.0730252,-0.08056464,-0.0675457,-0.11443273,1.3426574,1.8359925
0.0,-0.1,1.0999999999999999,0.5235987755982988,0.5235987755982988,0,-0.025915708,-1.4089091,-0.17745422,0.04181596,0.017709559,0.92699015,0.57981455,-0.77885044,1.0742359,0.09429656,-0.0027112805,0.1703662,1.216791,0.26272187
0.0,-0.1,1.0999999999999999,0.5235987755982988,0.5235987755982988,0,-0.028422207,-1.4090115,-0.17314425,-0.048138432,-0.012187904,1.1409873,-1.2796034,-0.77583605,1.0592196,-0.41915983,-0.095764786,-0.048091803,1.3128442,1.2406075
0.0,-0.1,1.0999999999999999,0.5235987755982988,0.5235987755982988,0,-0.027605122,-1.408962,-0.17672084,-0.021855805,0.08354477,1.0896976,0.9709461,-0.78761643,1.0419866,0.18644811,-0.1086872,-0.4456968,1.0859414,0.34148404
0.0,-0.1,1.0999999999999999,0.5235987755982988,0.5235987755982988,0,-0.026252788,-1.4087999,-0.16999857,-0.045031644,-0.07577943,1.0428395,-0.107668266,-0.7845831,1.061005,0.1870175,-0.07897959,0.31319842,1.2418892,-0.20756218
0.0,-0.1,1.0999999999999999,0.5235987755982988,0.5235987755982988,0,-0.026368616,-1.4090635,-0.17430088,0.00456742,0.1238674,0.8467294,1.6539867,-0.7827256,1.0577093,0.3595401,-0.10164164,-0.42280236,1.3699454,0.39700738
0.0,-0.1,1.0999999999999999,0.5235987755982988,0.5235987755982988,0,-0.026649863,-1.409007,-0.17444281,-0.02294998,0.32756552,0.9909898,0.8366078,-0.77851087,1.0569899,0.09275793,-0.06518679,0.16170122,1.3264135,0.030544229
0.0,-0.1,1.0999999999999999,0.5235987755982988,0.5235987755982988,0,-0.02737119,-1.4098561,-0.1748029,-0.09883848,-0.003507452,1.1116188,-0.8492903,-0.7819424,1.0711564,0.21770976,-0.02299974,0.28032246,1.2386248,0.8523234
0.0,-0.1,1.0999999999999999,0.5235987755982988,0.5235987755982988,0,-0.026893297,-1.4086106,-0.17470855,-0.01582947,0.12966383,0.95274067,-1.0279015,-0.7819897,1.0603306,-0.17219211,-0.16530284,-0.31505418,1.2473445,1.0930768
0.0,-0.1,1.0999999999999999,0.5235987755982988,0.5235987755982988,0,-0.027985113,-1.4094251,-0.17119709,-0.07868426,0.18203926,1.1002995,-0.11490418,-0.7885053,1.0691104,0.06805299,-0.18399367,0.2650226,1.4471436,0.785718
0.0,-0.1,1.0999999999999999,0.5235987755982988,0.5235987755982988,0,-0.026462745,-1.4089782,-0.17644548,-0.009466674,0.16622888,1.0425212,0.88550514,-0.78648305,1.0661256,-0.336526,-0.034005914,0.37798557,1.2972627,-0.19794153
0.0,-0.1,1.0999999999999999,0.5235987755982988,0.5235987755982988,0,-0.025512205,-1.4092045,-0.1772121,-0.032246392,-0.13657661,0.91130954,0.9055513,-0.7858903,1.0803947,-0.104996756,0.0047982265,-0.008575539,1.2851868,0.46278828
0.0,-0.1,1.0999999999999999,0.5235987755982988,0.5235987755982988,0,-0.025957694,-1.4094082,-0.1750983,-0.04163912,0.13027328,1.1530879,1.2954266,-0.7756053,1.0339597,0.33521128,-0.11316909,-0.37353852,1.2503029,-0.49890226
0.0,-0.1,1.0999999999999999,0.5235987755982988,0.5235987755982988,0,-0.027528986,-1.4092238,-0.17472956,0.036173295,-0.11322296,1.0628856,0.21685714,-0.7781431,1.0572671,0.25790402,0.0045500584,0.3879894,1.2786431,0.21421503
0.0,-0.1,1.0999999999999999,0.5235987755982988,0.5235987755982988,0,-0.027654344,-1.4088924,-0.17252657,-0.05272522,0.088071115,1.0982051,0.81594396,-0.7816914,1.0649496,0.40281108,-0.101878755,-0.074939094,1.1349326,0.6974708
0.0,-0.1,1.0999999999999999,0.5235987755982988,0.5235987755982988,0,-0.027048532,-1.4093438,-0.17899993,0.019084383,-0.06881982,0.8681631,0.005755886,-0.78470135,1.0577456,0.20866324,-0.050781626,0.12609954,1.2815485,0.45550963
0.0,-0.1,1.0999999999999999,0.5235987755982988,0.5235987755982988,0,-0.028516734,-1.4087293,-0.17208724,0.047314133,-0.06976918,0.9817743,0.007862902,-0.782728,1.0666419,0.05922011,-0.14335443,-0.16116875,1.2902998,0.82757413
0.0,-0.1,1.0999999999999999,0.5235987755982988,0.5235987755982988,0,-0.02646905,-1.4086767,-0.17006789,-0.09547831,-0.042113356,1.0375885,-0.10557296,-0.7856643,1.0666972,0.15388043,0.027079308,-0.2768333,1.2016971,0.31989348
0.0,-0.1,1.0999999999999999,0.5235987755982988,0.5235987755982988,0,-0.026083983,-1.4089304,-0.17570405,-0.0069478243,0.040976085,0.9916647,-1.7101692,-0.7806264,1.0807757,-0.06286907,-0.17153652,-0.019286491,1.1664435,0.0026554086
0.0,-0.1,1.0999999999999999,0.5235987755982988,0.5235987755982988,0,-0.028017731,-1.4089651,-0.17631127,0.008687339,0.020906739,1.1928549,1.2019054,-0.78508765,1.048973,0.097418964,-0.062054854,-0.1911059,1.4331722,0.59661144
0.0,-0.1,1.0999999999999999,0.5235987755982988,0.5235987755982988,0,-0.0264281,-1.4088807,-0.17456888,-0.013246649,-0.080140114,0.9817598,-0.4304796,-0.78850365,1.0669327,0.22816996,-0.069398604,0.3075039,1.3407341,0.41145864
0.0,-0.1,1.0999999999999999,0.5235987755982988,0.5235987755982988,0,-0.02569015,-1.4091015,-0.17453603,-0.025598086,0.042024087,0.9915071,-1.1965255,-0.7817044,1.0702581,0.21869153,-0.1478723,-0.15832546,1.186948,-0.08160998
0.0,-0.1,1.0999999999999999,0.5235987755982988,0.5235987755982988,0,-0.024129732,-1.4092088,-0.17630322,-0.0063348524,0.04670242,0.9616182,-1.0290605,-0.7814952,1.0561314,-0.068502516,-0.11335083,0.17622407,1.2535813,0.51376677
0.0,-0.1,1.0999999999999999,0.5235987755982988,0.5235987755982988,0,-0.030625986,-1.4089918,-0.17469318,-0.06300375,0.10027483,1.0691103,0.13497509,-0.7859615,1.0555675,0.5340017,-0.06344571,0.16304171,1.3249104,0.16311431
0.0,-0.1,1.0999999999999999,0.5235987755982988,0.5235987755982988,0,-0.026269956,-1.4092342,-0.17476249,0.041274674,0.16903344,1.0628456,0.7945134,-0.78183144,1.06269,0.4881719,-0.041647226,-0.095446154,1.1824018,0.93724746
0.0,-0.1,1.0999999999999999,0.5235987755982988,0.5235987755982988,0,-0.025782796,-1.4092153,-0.17226833,-0.048128866,0.03522355,1.2193389,0.91750395,-0.7820708,1.0519861,-0.16897383,-0.030402632,0.11830267,1.310246,1.7045888
0.0,-0.1,1.0999999999999999,0.5235987755982988,0.5235987755982988,0,-0.027503554,-1.409126,-0.17490456,-0.077496275,-0.072707616,0.98370534,1.0985225,-0.78752184,1.0717815,0.25760764,-0.16537926,0.56837696,1.2864673,0.78069586
0.0,-0.1,1.0999999999999999,0.5235987755982988,0.5235987755982988,0,-0.025639476,-1.4089633,-0.17382395,-0.024549289,-0.0020471711,0.99885577,0.50313795,-0.78344315,1.0682787,0.2285556,-0.09974085,-0.023495333,1.2334313,0.4926296
0.0,-0.1,1.0999999999999999,0.5235987755982988,0.5235987755982988,0,-0.027839614,-1.4097146,-0.17601158,-0.059135202,-0.0684104,0.9931772,-1.071587,-0.7832009,1.0869318,0.24328808,-0.09570645,-0.39420828,1.2934126,0.51544005
0.0,-0.1,1.0999999999999999,0.5235987755982988,0.5235987755982988,0,-0.026812699,-1.4094226,-0.17602888,0.033977408,0.16714743,1.0110774,1.8002598,-0.78699946,1.0635985,-0.39531264,0.023147875,0.14377339,1.3599153,0.060215887
0.0,-0.1,1.0999999999999999,0.5235987755982988,0.5235987755982988,0,-0.028176218,-1.4087945,-0.17620929,-0.042297665,-0.020910678,1.0667491,-0.061188463,-0.7870197,1.0796758,-0.06186766,-0.1119747,-0.098118305,1.14892,1.2614259
0.0,-0.1,1.0999999999999999,0.5235987755982988,0.5235987755982988,0,-0.029879589,-1.4091593,-0.1775262,-0.07814717,0.0097574275,1.2630365,0.5998875,-0.7840634,1.0620289,0.22067916,-0.08712313,-0.03194858,1.0460634,1.3389504
0.0,-0.1,1.0999999999999999,0.5235987755982988,0.5235987755982988,0,-0.025998093,-1.409056,-0.17914422,-0.037257522,0.07520482,1.0566971,0.02695165,-0.78638655,1.0615848,0.0058626244,-0.2234033,0.05481106,1.3324977,1.3687589
0.0,-0.1,1.0999999999999999,0.5235987755982988,0.5235987755982988,0,-0.027699832,-1.4089323,-0.17315853,0.018413179,0.20194,0.9731738,0.6812758,-0.78345156,1.0799127,0.2541942,0.03453418,-0.38419488,1.3202449,1.3432976
0.0,-0.1,1.0999999999999999,0.5235987755982988,0.5235987755982988,0,-0.026054246,-1.4093926,-0.1766982,0.04129908,-0.05215696,1.0720717,0.021756828,-0.78874856,1.0514336,0.43129113,-0.058994286,-0.18307492,1.1127164,1.1695644
0.0,-0.1,1.0999999999999999,0.5235987755982988,0.5235987755982988,0,-0.025053125,-1.409496,-0.17420854,-0.007850136,0.06669599,1.0481117,-0.23949888,-0.7802997,1.0519656,-0.11702501,-0.0821364,-0.09713811,1.2878292,0.8571323
0.0,-0.1,1.0999999999999999,0.5235987755982988,0.5235987755982988,0,-0.025764445,-1.4093783,-0.17295444,-0.04333286,-0.051943924,1.1210203,0.07270262,-0.7800057,1.073362,0.24599774,-0.08743089,-0.0030414418,1.2889704,0.8572022
0.0,-0.1,1.0999999999999999,0.5235987755982988,0.5235987755982988,0,-0.02430814,-1.4088382,-0.17400582,0.016262216,0.124530375,0.892659,0.49682528,-0.7869092,1.0787914,-0.22125985,-0.0593166,-0.20032075,1.261973,1.0226507
0.0,-0.1,1.0999999999999999,0.5235987755982988,0.5235987755982988,0,-0.024554841,-1.4087029,-0.17286244,-0.060569916,-0.01175109,1.0565679,0.23211858,-0.78655547,1.0574325,0.26370066,-0.17262831,0.10845712,1.306344,0.61395717
0.0,-0.1,1.0999999999999999,0.5235987755982988,0.5235987755982988,0,-0.025854925,-1.4093496,-0.17539777,0.03437038,-0.010537455,0.9984884,0.9343437,-0.7804534,1.0801021,-0.013033765,-0.01454104,-0.30302238,1.401961,0.77859354
0.0,-0.1,1.0999999999999999,0.5235987755982988,0.5235987755982988,0,-0.026430933,-1.4093844,-0.17674221,-0.03159037,0.25971308,1.0168843,-0.031189479,-0.7863318,1.0784013,0.03494398,0.028634775,0.14996007,1.3239402,1.2476559
0.0,-0.1,1.0999999999999999,0.5235987755982988,0.5235987755982988,0,-0.023919187,-1.4092,-0.1752386,0.043617904,0.11284608,1.0160801,1.0803729,-0.7849599,1.0738544,-0.4197397,-0.014445548,0.037446756,1.3022871,-0.85350436
0.0,-0.1,1.0999999999999999,0.5235987755982988,0.5235987755982988,0,-0.027371049,-1.4092901,-0.17841576,0.040404964,0.23386715,0.9192037,-0.49598756,-0.7855251,1.0651321,0.25051928,0.021372931,-0.1411834,1.2618827,0.62571037
0.0,-0.1,1.0999999999999999,0.5235987755982988,0.5235987755982988,0,-0.026806122,-1.4091305,-0.17443635,-0.029256158,-0.009802711,1.0194951,-0.5265383,-0.78756905,1.0674988,-0.11632626,-0.058753945,0.16019608,1.36886,-0.13143224
0.0,-0.1,1.0999999999999999,0.5235987755982988,0.5235987755982988,0,-0.027358552,-1.4093527,-0.17836478,-0.0515907,0.06107109,0.96544814,1.0013173,-0.7847916,1.064934,-0.0105976,-0.08531492,0.17807256,1.2426127,-0.032750115
0.0,-0.1,1.0999999999999999,0.5235987755982988,0.5235987755982988,0,-0.02847233,-1.4092046,-0.17958437,0.0140575105,-0.20403805,0.9693278,-2.1352744,-0.78357035,1.0653771,-0.17931755,-0.10679202,0.0656579,1.4092029,-0.06894681
0.0,-0.1,1.0999999999999999,0.5235987755982988,0.5235987755982988,0,-0.02733233,-1.4091325,-0.1761753,0.032479063,0.0070907716,1.0916228,-0.118524835,-0.78839445,1.0804422,0.053170674,-0.05017281,0.16399887,1.2239393,-0.012874801
0.0,-0.1,1.0999999999999999,0.5235987755982988,0.5235987755982988,0,-0.02601508,-1.4092511,-0.17103659,-0.007204069,0.057479937,1.1086235,-0.95598155,-0.7846645,1.0798761,-0.24891974,-0.09556959,0.1335579,1.34114,0.46399164
0.0,-0.1,1.0999999999999999,0.5235987755982988,0.5235987755982988,0,-0.025708126,-1.4091913,-0.17446053,-0.01369168,0.1034213,1.082988,0.82520515,-0.7825184,1.0506216,0.22869281,-0.08198326,-0.06996671,1.3688858,0.8932749
0.0,-0.1,1.0999999999999999,0.5235987755982988,0.5235987755982988,0,-0.028120762,-1.4093543,-0.1758812,-0.010598616,0.11096286,1.0948677,0.5971984,-0.786275,1.0660325,0.25967225,-0.049761217,0.102367945,1.2509882,0.19920489
0.0,-0.1,1.0999999999999999,0.5235987755982988,0.5235987755982988,0,-0.027482066,-1.4091963,-0.17509708,0.0012399079,-0.069659576,1.1514806,0.97066236,-0.78978246,1.050544,-0.32737443,-0.07724496,-0.13326025,1.187464,1.2360783
0.0,-0.1,1.0999999999999999,0.5235987755982988,0.5235987755982988,0,-0.026992086,-1.4091238,-0.174162,-0.015867261,0.074156426,1.1252525,0.4371354,-0.7894951,1.0648806,-0.101924635,-0.14604497,-0.26211193,1.3474537,1.8510076
0.0,-0.1,1.0999999999999999,0.5235987755982988,0.5235987755982988,0,-0.026266554,-1.4091864,-0.17393506,-0.009446564,-0.2830439,1.0287477,-0.9145968,-0.7911926,1.0542564,-0.17311484,-0.025080284,0.1204172,1.3138556,-0.53712356
0.0,-0.1,1.0999999999999999,0.5235987755982988,0.5235987755982988,0,-0.026888426,-1.4087107,-0.17571995,-0.0072037135,0.137734,1.0918977,-0.5525245,-0.78952986,1.0430086,-0.010294481,-0.06424433,0.20579837,1.2923403,0.7841966
0.0,-0.1,1.0999999999999999,0.5235987755982988,0.5235987755982988,0,-0.024731306,-1.4093201,-0.17365122,0.027781868,0.056475237,1.1920172,0.32883814,-0.78556067,1.0863291,0.20848198,-0.0594807,-0.15389366,1.2857966,0.5326326
0.0,-0.1,1.0999999999999999,0.5235987755982988,0.5235987755982988,0,-0.027154496,-1.4095951,-0.17651121,-0.0075779716,0.06020622,1.216759,0.71836174,-0.78686035,1.097892,-0.08039614,0.0032651608,-0.11836027,1.2419859,-0.2578896
0.0,-0.1,1.0999999999999999,0.5235987755982988,0.5235987755982988,0,-0.028003281,-1.4087584,-0.17616606,-0.019702995,-0.03576191,1.0850396,0.86042553,-0.78986216,1.0475693,0.09631478,-0.028478388,-0.056305394,1.1989958,0.8544933
0.0,-0.1,1.0999999999999999,0.5235987755982988,0.5235987755982988,0,-0.02446383,-1.4093422,-0.17536649,-0.050500803,0.13739444,1.1696243,-0.53604746,-0.7908411,1.0751671,0.1193331,-0.065726854,-0.43951344,1.3616819,0.4220452
0.0,-0.1,1.0999999999999999,0.5235987755982988,0.5235987755982988,0,-0.026392668,-1.4092246,-0.17637649,-0.07534167,0.06403631,1.0614674,-0.54280204,-0.7900294,1.0686574,-0.16598326,-0.059100192,-0.38891512,1.2182319,0.65076137
0.0,-0.1,1.0999999999999999,0.5235987755982988,0.5235987755982988,0,-0.026614757,-1.4092325,-0.17463526,-0.071709,0.1527869,0.97308964,-0.26220745,-0.77486306,1.0606041,0.13346976,-0.19932449,-0.21148793,1.1321447,0.96952295
0.0,-0.1,1.0999999999999999,0.5235987755982988,0.5235987755982988,0,-0.02597976,-1.4091202,-0.17489272,-0.10240053,0.18996616,0.98031807,0.99060476,-0.77928245,1.0450808,-0.3276579,-0.06908238,0.07857896,1.3375864,0.046051044
0.0,-0.1,1.0999999999999999,0.5235987755982988,0.5235987755982988,0,-0.027741123,-1.4098829,-0.17291121,-0.018959763,0.14995451,1.002352,1.0469198,-0.77957094,1.0824358,0.27078426,-0.056684136,0.090539545,1.3309177,0.39316246
0.0,-0.1,1.0999999999999999,0.5235987755982988,0.5235987755982988,0,-0.026289875,-1.4095939,-0.17742346,0.016450824,-0.06879762,0.94381464,0.74949855,-0.7799114,1.0668222,0.2361965,-0.23422112,0.4180911,1.227536,1.2164713
0.0,-0.1,1.0999999999999999,0.5235987755982988,0.5235987755982988,0,-0.027357822,-1.4093574,-0.17212601,-0.024671024,0.02987238,0.94679886,-0.04104483,-0.78326446,1.0552174,0.23095569,-0.0062772245,0.1283992,1.2369231,0.33820882
0.0,-0.1,1.0999999999999999,0.5235987755982988,0.5235987755982988,0,-0.026720848,-1.4094129,-0.17139865,-0.054186568,-0.0369083,1.1512088,-0.11683588,-0.78325355,1.058345,-0.20669486,-0.063109115,-0.09834499,1.1959261,0.06893476
0.0,-0.1,1.0999999999999999,0.5235987755982988,0.5235987755982988,0,-0.028292775,-1.4090135,-0.17409573,0.005945524,-0.062796794,1.0619372,0.78404206,-0.78009415,1.0444281,0.3046645,-0.11391311,-0.022451025,1.1463201,0.73880774
0.0,-0.1,1.0999999999999999,0.5235987755982988,0.5235987755982988,0,-0.028327676,-1.4088931,-0.1727901,-0.027774043,-0.17777765,1.1292523,0.08378331,-0.7826175,1.0486091,0.06419605,-0.10079396,-0.667638,1.3897666,1.5805094
0.0,-0.1,1.0999999999999999,0.5235987755982988,0.5235987755982988,0,-0.028327256,-1.4092681,-0.17407213,-0.067841366,-0.08691293,1.0237539,0.21748495,-0.7803457,1.0370091,0.033612084,-0.0060888696,-0.094613485,1.0894061,-0.33568653
0.0,-0.1,1.0999999999999999,0.5235987755982988,0.5235987755982988,0,-0.02721959,-1.4092047,-0.17559154,0.010928074,0.21445349,1.185854,-0.23257448,-0.7801197,1.0552843,0.1840627,-0.11879248,-0.14500327,1.3497647,1.6206852
0.0,-0.1,1.0999999999999999,0.5235987755982988,0.5235987755982988,0,-0.02543862,-1.4096056,-0.17776978,-0.07227305,0.029768426,1.0469764,0.29561532,-0.77916354,1.0745171,-0.110060364,-0.02087269,-0.13306692,1.1318058,-0.12052437
0.0,-0.1,1.0999999999999999,0.5235987755982988,0.5235987755982988,0,-0.026894258,-1.4094089,-0.17816974,-0.052279495,-0.062623,1.0166131,0.018394023,-0.77898747,1.0559895,-0.09746522,-0.10209882,0.051421322,1.1647109,1.5797211
0.0,-0.1,1.0999999999999999,0.5235987755982988,0.5235987755982988,0,-0.027599223,-1.409242,-0.17673825,0.03462462,-0.1526004,0.9136029,-0.71729684,-0.7802041,1.0643743,0.106592916,-0.11097432,-0.29688284,1.2979823,1.0716945
0.0,-0.1,1.0999999999999999,0.5235987755982988,0.5235987755982988,0,-0.026841234,-1.4094487,-0.17536129,-0.029446488,-0.029014109,1.2918175,0.47990784,-0.78046966,1.0504282,0.14003839,-0.11116428,0.21714006,1.325907,0.9608512
0.0,-0.1,1.0999999999999999,0.5235987755982988,0.5235987755982988,0,-0.026879037,-1.4088769,-0.17422554,-0.052851014,-0.04600325,1.0323364,0.47381473,-0.78382003,1.0564371,0.32522243,-0.034887273,-0.19179448,1.3339309,-0.42750397
0.0,-0.1,1.0999999999999999,0.5235987755982988,0.5235987755982988,0,-0.02616748,-1.4093164,-0.17395681,0.008145921,0.12986656,0.88273925,-0.7583751,-0.7843648,1.0611987,0.091195315,-0.083448835,0.022345541,1.2816446,1.6107609
0.0,-0.1,1.0999999999999999,0.5235987755982988,0.5235987755982988,0,-0.027252523,-1.4090921,-0.17715238,-0.028869098,-0.0729331,0.9507627,-0.80398935,-0.7799408,1.0756938,0.059817206,-0.13504522,0.18228361,1.3050665,1.134777
0.0,-0.1,1.0999999999999999,0.5235987755982988,0.5235987755982988,0,-0.02526088,-1.4092906,-0.17654184,-0.07272976,0.224619,1.0308392,-0.029900365,-0.7821129,1.0575719,-0.047001064,-0.003923166,-0.018466402,1.2508658,0.006439628
0.0,-0.1,1.0999999999999999,0.5235987755982988,0.5235987755982988,0,-0.026541151,-1.4093813,-0.17367187,-0.029880805,-0.058155775,0.99190336,-0.5048112,-0.7824301,1.0779637,0.16702902,-0.080900595,0.08827493,1.2229596,0.17553556
0.0,-0.1,1.0999999999999999,0.5235987755982988,0.5235987755982988,0,-0.025788883,-1.4095578,-0.17671579,-0.0508255,0.035296734,0.9204436,0.85561746,-0.781466,1.0692353,-0.2209248,0.06584362,0.104059026,1.2293491,0.252492
0.0,-0.1,1.0999999999999999,0.5235987755982988,0.5235987755982988,0,-0.025333093,-1.4093883,-0.17566651,-0.03594884,-0.093864515,1.1782379,-1.1860684,-0.7835281,1.0547881,0.29767883,-0.05156422,0.094192594,1.202216,0.15800045
0.0,-0.1,1.0999999999999999,0.5235987755982988,0.5235987755982988,0,-0.025323289,-1.4094512,-0.17421782,-0.13162066,0.039582092,1.1657615,0.23417835,-0.7836567,1.063794,0.08860385,-0.13683659,-0.057224713,1.1665894,0.27759653
0.0,-0.1,1.0999999999999999,0.5235987755982988,0.5235987755982988,0,-0.026439253,-1.4091042,-0.17700382,-0.027774613,-0.14626104,1.1723466,0.02815027,-0.7846323,1.0505674,-0.2715711,-0.12889741,-0.16584332,1.1495475,-0.11759821
0.0,-0.1,1.0999999999999999,0.5235987755982988,0.5235987755982988,0,-0.025878794,-1.409181,-0.17303248,-0.026466493,0.12348925,1.0998316,-0.46121722,-0.7843249,1.0691687,0.0852227,-0.043427866,0.06689418,1.108245,0.38413307
0.0,-0.1,1.0999999999999999,0.5235987755982988,0.5235987755982988,0,-0.026169324,-1.4093412,-0.17294557,0.028954178,0.119651794,1.0415883,1.1321605,-0.77671915,1.0876482,-0.28359535,-0.056952707,0.15044169,1.2089113,0.6823591
0.0,-0.1,1.0999999999999999,0.5235987755982988,0.5235987755982988,0,-0.026055565,-1.4093629,-0.1740899,-0.060787827,-0.104976684,1.0100379,-0.0039467383,-0.7834205,1.08788,-0.02430407,-0.1279147,-0.2936063,1.2171454,1.0458455
0.0,-0.1,1.0999999999999999,0.5235987755982988,0.5235987755982988,0,-0.026858734,-1.4088312,-0.17211345,-0.0071672252,-0.0298802,0.9890202,0.3096995,-0.780467,1.078559,0.35748455,-0.07612157,-0.15216142,1.1935117,-0.009714489
0.0,-0.1,1.0999999999999999,0.5235987755982988,0.5235987755982988,0,-0.026994823,-1.4092603,-0.17537837,0.07286539,0.08232717,1.0796483,-0.40895832,-0.7834552,1.0680609,-0.26344523,-0.006026985,-0.023568217,1.2394896,1.056207
0.0,-0.1,1.0999999999999999,0.5235987755982988,0.5235987755982988,0,-0.025384588,-1.4093175,-0.1749931,-0.14356129,0.051000044,1.0358968,0.09536127,-0.78269976,1.0686733,-0.13181119,-0.07081072,0.16435342,1.3204815,1.0074217
0.0,-0.1,1.0999999999999999,0.5235987755982988,0.5235987755982988,0,-0.027420146,-1.4092348,-0.176143,-0.006780003,0.11123214,0.96974784,1.8787373,-0.7817057,1.0562453,0.04214848,-0.13518931,-0.4643401,1.3446167,0.78707665
0.0,-0.1,1.0999999999999999,0.5235987755982988,0.5235987755982988,0,-0.027358674,-1.4093808,-0.17341764,-0.04562018,0.17953515,1.2293046,-0.7587501,-0.78429693,1.0745627,-0.008562662,-0.02552066,0.041928828,1.4089898,0.0105881905
0.0,-0.1,1.0999999999999999,0.5235987755982988,0.5235987755982988,0,-0.027606845,-1.4094657,-0.17361616,-0.006572375,-0.063684836,1.1893681,0.89746547,-0.7843482,1.0775646,-0.06498173,-0.10951816,0.10701793,1.3221782,1.2153364
0.0,-0.1,1.0999999999999999,0.5235987755982988,0.5235987755982988,0,-0.028032266,-1.4089,-0.17498407,-0.1115348,0.20259568,0.97123605,0.51776195,-0.7848506,1.0678202,0.14942542,-0.07307747,0.12882507,1.2566123,0.063723594
0.0,-0.1,1.0999999999999999,0.5235987755982988,0.5235987755982988,0,-0.027191412,-1.409047,-0.17610262,0.00043556697,0.28634948,0.9271756,0.17634544,-0.78613985,1.0528433,0.52379364,-0.07272923,-0.088181555,1.2429727,0.8762596
0.0,-0.1,1.0999999999999999,0.5235987755982988,0.5235987755982988,0,-0.027656458,-1.4092209,-0.17680645,-0.031376626,0.04812311,0.9504247,-0.05535802,-0.78144044,1.0738935,0.06684157,-0.03544808,-0.041477412,1.2930399,0.5079551
0.0,-0.1,1.0999999999999999,0.5235987755982988,0.5235987755982988,0,-0.02691002,-1.4089009,-0.17690088,0.052255962,-0.014588335,1.1246411,0.06686359,-0.78546196,1.0607584,0.25848433,-0.08747098,-0.36347163,1.2107861,-0.1842382
0.0,-0.1,1.0999999999999999,0.5235987755982988,0.5235987755982988,0,-0.027610434,-1.4091252,-0.17584023,-0.02536474,0.023402462,1.1228279,-1.0010817,-0.7845789,1.0522568,0.17971954,-0.04827173,0.15811355,1.1284256,1.463132
0.0,-0.1,1.0999999999999999,0.5235987755982988,0.5235987755982988,0,-0.02459711,-1.408545,-0.17418265,-0.0014559446,0.16877678,1.1257496,0.17507277,-0.7815592,1.0624686,0.008565513,0.0022373954,-0.17301072,1.1772759,0.87998813
0.0,-0.1,1.0999999999999999,0.5235987755982988,0.5235987755982988,0,-0.027759552,-1.4086913,-0.17560679,-0.08473437,0.102993995,1.0083224,-0.92352784,-0.78499657,1.064211,-0.008426531,-0.11219091,-0.1106485,1.306157,-0.21924552
0.0,-0.1,1.0999999999999999,0.5235987755982988,0.5235987755982988,0,-0.02722914,-1.4097998,-0.17839903,0.03604791,0.027132818,0.9873791,0.11733293,-0.78100866,1.0625498,-0.19265963,0.059213705,-0.11718384,1.1989965,0.20247273
0.0,-0.1,1.0999999999999999,0.5235987755982988,0.5235987755982988,0,-0.027770672,-1.4090717,-0.17371725,-0.013351083,-0.02135878,1.09914,-0.21800293,-0.78625643,1.0590236,0.33789113,-0.024364209,0.0654115,1.2634808,0.9664305
0.0,-0.1,1.0999999999999999,0.5235987755982988,0.5235987755982988,0,-0.027274111,-1.4094458,-0.1749715,-0.04363278,-0.021017728,1.1114589,-0.91445166,-0.7839673,1.0778139,0.32120082,-0.10429185,-0.0012172123,1.2838124,2.016308
0.0,-0.1,1.0999999999999999,0.5235987755982988,0.5235987755982988,0,-0.026380373,-1.4092046,-0.17137817,-0.021508316,0.099540494,0.998785,0.23715921,-0.7829749,1.0578427,0.11943475,-0.10251074,0.11239637,1.0380172,0.9071698
0.0,-0.1,1.0999999999999999,0.5235987755982988,0.5235987755982988,0,-0.02891391,-1.4095086,-0.17528577,-0.07047282,-0.07411504,0.9057888,-0.28113812,-0.78358674,1.0466244,-0.45187718,-0.014037529,-0.15375344,1.3396689,0.14601888
0.0,-0.1,1.0999999999999999,0.5235987755982988,0.5235987755982988,0,-0.026636442,-1.4095877,-0.17643717,0.0201364,0.06811377,1.1226537,0.1805764,-0.7831078,1.0723631,-0.0087782545,-0.1300934,0.060407735,1.3119072,-0.834513
0.0,-0.1,1.0999999999999999,0.5235987755982988,0.5235987755982988,0,-0.02720498,-1.408983,-0.17616612,-0.07509855,0.15410106,0.8624602,-0.00515265,-0.78701293,1.0740263,0.18799949,0.050069064,0.043948896,1.1776208,1.0575525
0.0,-0.1,1.0999999999999999,0.5235987755982988,0.5235987755982988,0,-0.028978214,-1.4086171,-0.17938319,-0.093833625,0.08044832,0.9135037,1.2074112,-0.7829598,1.0541857,0.09324,-0.07738426,0.11630957,1.1700156,0.6319239
0.0,-0.1,1.0999999999999999,0.5235987755982988,0.5235987755982988,0,-0.02583787,-1.4094287,-0.17340674,-0.004070643,0.012435696,1.0631915,0.9853551,-0.78064823,1.0829818,0.52581716,0.031465642,0.02206606,1.1530421,-0.23576291
0.0,-0.1,1.0999999999999999,0.5235987755982988,0.5235987755982988,0,-0.024578327,-1.4093306,-0.17638394,-0.088997655,0.14553596,1.1229267,1.0615261,-0.78544396,1.0570637,-0.1392761,-0.06519066,-0.17710215,1.3038347,0.3066362
0.0,-0.1,1.0999999999999999,0.5235987755982988,0.5235987755982988,0,-0.027188396,-1.4089696,-0.17445077,-0.08593217,0.0196696,1.2286091,-0.2825242,-0.7872063,1.0667812,-0.23994085,-0.04667692,0.027827578,1.4373217,0.87116796
0.0,-0.1,1.0999999999999999,0.5235987755982988,0.5235987755982988,0,-0.026608994,-1.4089288,-0.17355072,-0.028296666,-0.04798251,0.99173975,0.264654,-0.78159547,1.0519085,0.12228863,-0.061072566,-0.018027116,1.1071919,0.9272412
0.0,-0.1,1.0999999999999999,0.5235987755982988,0.5235987755982988,0,-0.02638007,-1.4086602,-0.17829202,-0.07972342,-0.05627663,1.190298,-0.26046577,-0.7859646,1.0470731,-0.1350403,0.02655735,0.2018581,1.2464565,0.6008674
0.0,-0.1,1.0999999999999999,0.5235987755982988,0.5235987755982988,0,-0.027229741,-1.4090899,-0.17714909,-0.04865664,-0.03024937,1.1115469,-0.5658502,-0.7832266,1.0644476,0.16134334,-0.08782035,0.197831,1.222975,0.9236412
0.0,-0.1,1.0999999999999999,0.5235987755982988,0.5235987755982988,0,-0.025571091,-1.409133,-0.1746345,0.048986122,-0.12476112,0.95665,0.4685169,-0.77978116,1.0587327,0.026727488,-0.10280129,0.10714045,1.2668551,1.75205
0.0,-0.1,1.0999999999999999,0.5235987755982988,0.5235987755982988,0,-0.028350707,-1.4087447,-0.17232238,-0.028621346,0.0755492,1.1114997,-0.7570722,-0.7887676,1.0678542,0.3147361,0.010235107,-0.46727613,1.1477733,0.5163388
0.0,-0.1,1.0999999999999999,0.5235987755982988,0.5235987755982988,0,-0.026580634,-1.409179,-0.17441756,-0.034871712,0.21241495,1.1588584,0.9532408,-0.7880013,1.0800786,0.29452458,-0.10166254,-0.047783677,1.1257776,0.23422052
0.0,-0.1,1.0999999999999999,0.5235987755982988,0.5235987755982988,0,-0.02603202,-1.4089968,-0.17635341,0.0036490366,0.08154894,0.89067763,-0.102280565,-0.7790253,1.0550543,0.18308811,-0.094278455,-0.23683141,1.3452395,0.34026176
0.0,-0.1,1.0999999999999999,0.5235987755982988,0.5235987755982988,0,-0.026469165,-1.4094118,-0.17704542,0.013021599,0.006137961,0.93576616,0.3265005,-0.7836209,1.0738816,-0.08504958,-0.0037602002,0.018006153,1.2481295,1.4947926
0.0,-0.1,1.0999999999999999,0.5235987755982988,0.5235987755982988,0,-0.02847134,-1.4094261,-0.17640582,-0.044570956,0.047986064,0.9300155,0.17985827,-0.784819,1.0685,-0.549125,-0.14661814,-0.16628456,1.2596067,0.9923633
0.0,-0.1,1.0999999999999999,0.5235987755982988,0.5235987755982988,0,-0.02499108,-1.4086691,-0.17357668,0.01722236,0.0036934773,1.0249648,-0.108111925,-0.7838182,1.0588698,-0.11720861,-0.025454655,0.039468132,1.2799698,0.31643316
0.0,-0.1,1.0999999999999999,0.5235987755982988,0.5235987755982988,0,-0.026806464,-1.4088886,-0.17427847,-0.005638704,0.13815778,1.0879424,-0.34602073,-0.7836004,1.0592327,0.3813816,-0.11246908,0.37760368,1.1627462,-0.17714459
0.0,-0.1,1.0999999999999999,0.5235987755982988,0.5235987755982988,0,-0.025951842,-1.4089351,-0.17491093,-0.0038430677,0.14937745,1.094603,1.6681985,-0.7805761,1.0728552,0.2187352,-0.12602654,-0.05219224,1.2939054,0.03120167
0.0,-0.1,1.0999999999999999,0.5235987755982988,0.5235987755982988,0,-0.026608704,-1.4089817,-0.17700787,-0.0077218236,0.18393508,1.0302941,0.9378434,-0.786028,1.0609541,0.025893392,-0.14865687,-0.20616867,1.2853069,0.18976463
0.0,-0.1,1.0999999999999999,0.5235987755982988,0.5235987755982988,0,-0.028429022,-1.4087577,-0.17551017,-0.015170707,0.1449599,0.9889107,1.1442835,-0.7870144,1.0480094,0.18858758,-0.17736301,0.11263701,1.3021332,0.8466995
0.0,-0.1,1.0999999999999999,0.5235987755982988,0.5235987755982988,0,-0.025650654,-1.4095213,-0.17703983,-0.09676963,0.12769605,1.1078348,0.014561786,-0.78423893,1.0580018,0.027609114,-0.05122447,-0.21689473,1.3346505,0.35129765
0.0,-0.1,1.0999999999999999,0.5235987755982988,0.5235987755982988,0,-0.027661277,-1.4094399,-0.17716193,0.0012336415,0.09310061,1.1466361,0.029830731,-0.78326964,1.0676527,-0.24028808,-0.06368413,0.0508246,1.3621669,0.14631459
0.0,-0.1,1.0999999999999999,0.5235987755982988,0.5235987755982988,0,-0.029961266,-1.409243,-0.17743936,0.025600744,-0.012472413,1.0990682,0.8963706,-0.78330743,1.0581409,-0.06774682,-0.033778366,-0.1842966,1.2754613,-0.6385538
0.0,-0.1,1.0999999999999999,0.5235987755982988,0.5235987755982988,0,-0.02924784,-1.4093636,-0.17205481,-0.017367978,0.015179144,1.0874422,-0.62422264,-0.7880101,1.0486473,-0.012882938,0.0050059296,-0.02040861,1.2358382,0.8007773
0.0,-0.1,1.0999999999999999,0.5235987755982988,0.5235987755982988,0,-0.02845894,-1.4093024,-0.17516766,-0.11163028,0.1178889,1.0128701,-0.12459744,-0.78713614,1.0488495,0.3862076,-0.05040452,0.17705321,1.2872486,0.74200785
0.0,-0.1,1.0999999999999999,0.5235987755982988,0.5235987755982988,0,-0.027660502,-1.409782,-0.17282148,-0.059109192,0.2281971,1.2441777,0.15924518,-0.78600144,1.042387,0.07152457,-0.06904693,0.25745377,1.3426008,0.5426619
0.0,-0.1,1.0999999999999999,0.5235987755982988,0.5235987755982988,0,-0.024884684,-1.409407,-0.17074089,-0.016550165,-0.019084414,1.1904259,0.61393744,-0.7849582,1.0583667,0.22541098,-0.11911285,0.041680377,1.2006307,0.7366678
0.0,-0.1,1.0999999999999999,0.5235987755982988,0.5235987755982988,0,-0.02848974,-1.4094399,-0.17560627,0.003497658,0.003957577,0.8279953,-0.51641583,-0.78711385,1.071237,0.26144776,-0.038358,-0.40709147,1.1544765,1.4630092
0.0,-0.1,1.0999999999999999,0.5235987755982988,0.5235987755982988,0,-0.027254263,-1.4095278,-0.17072085,-0.0067905616,0.025455454,1.0480436,-0.46869856,-0.7902749,1.0697526,0.18592288,-0.0058651716,-0.1520954,1.4294885,-0.17387702
0.0,-0.1,1.0999999999999999,0.5235987755982988,0.5235987755982988,0,-0.024629554,-1.4094999,-0.17392768,-0.050057445,0.018987508,0.9846391,0.6953762,-0.7818659,1.0774397,0.2775913,-0.12884012,-0.1430818,1.2930244,-0.58663106
0.0,-0.1,1.0999999999999999,0.5235987755982988,0.5235987755982988,0,-0.02566958,-1.4092531,-0.17445353,0.022738703,-0.24236557,1.107853,-1.2900138,-0.78483015,1.0576106,-0.023380797,-0.14300326,0.0044340324,1.1729931,0.5768716
0.0,-0.1,1.0999999999999999,0.5235987755982988,0.5235987755982988,0,-0.027651995,-1.4095092,-0.17857875,-0.004165277,-0.13428514,1.0575109,-0.9313954,-0.7838426,1.065683,0.22072476,-0.11101104,-0.38169745,1.2721806,1.1979811
0.0,-0.1,1.0999999999999999,0.5235987755982988,0.5235987755982988,0,-0.027780503,-1.4087677,-0.17404261,-0.018096406,0.040773712,0.98229754,-0.2445391,-0.78264475,1.0704054,-0.11404661,-0.078586765,0.07447244,1.2540299,0.39348945
0.0,-0.1,1.0999999999999999,0.5235987755982988,0.5235987755982988,0,-0.026608886,-1.409353,-0.17655687,-0.046768147,0.17090847,1.1463339,0.49152026,-0.7869575,1.0645746,0.24557133,-0.03594042,-0.28095376,1.1644768,-0.35207543
0.0,-0.1,1.0999999999999999,0.5235987755982988,0.5235987755982988,0,-0.025020275,-1.409297,-0.17461585,-0.023966674,-0.02180998,1.2396839,-0.31339958,-0.7832007,1.070418,0.066413336,-0.04268039,-0.32116756,1.2396172,0.28469372
0.0,-0.1,1.0999999999999999,0.5235987755982988,0.5235987755982988,0,-0.027154068,-1.4091375,-0.17786638,-0.07390231,0.13655494,1.0334963,0.4358376,-0.7870711,1.0830485,-0.28816655,-0.087815024,-0.06582299,1.3257092,0.6060856
0.0,-0.1,1.0999999999999999,0.5235987755982988,0.5235987755982988,0,-0.027919872,-1.4094788,-0.17898585,-0.040978234,0.10071941,0.88636416,0.17829047,-0.7839681,1.065827,0.04761557,-0.07031738,0.012291326,1.3806704,1.2900637
0.0,-0.1,1.0999999999999999,0.5235987755982988,0.5235987755982988,0,-0.024926523,-1.4093428,-0.17189357,-0.12373545,0.035094567,1.1503313,-0.51066184,-0.78256047,1.0765394,0.2032348,-0.08936088,0.08427805,1.1792016,0.8336577
0.0,-0.1,1.0999999999999999,0.5235987755982988,0.5235987755982988,0,-0.027513247,-1.4094821,-0.17418665,-0.11109575,0.033999786,1.165983,0.34502128,-0.78890014,1.0579288,0.2189246,-0.08285205,0.22414999,1.2405767,0.78133285
0.0,-0.1,1.0999999999999999,0.5235987755982988,0.5235987755982988,0,-0.028710745,-1.4096682,-0.1772321,-0.027013551,0.14273332,1.218185,-0.26610443,-0.7842755,1.0663207,-0.019840302,-0.07030649,-0.15913337,1.2849642,0.6693849
0.0,-0.1,1.0999999999999999,0.5235987755982988,0.5235987755982988,0,-0.026243825,-1.4094132,-0.17810294,-0.08127688,0.037664883,1.1541927,0.30594578,-0.7873839,1.0604439,-0.30934277,-0.04031071,-0.1921524,1.2463251,0.99095124
0.0,-0.1,1.0999999999999999,0.5235987755982988,0.5235987755982988,0,-0.027309462,-1.409516,-0.17489801,-0.0063066357,-0.12185964,0.9498027,1.4518143,-0.77799815,1.0676074,-0.011205832,-0.1326338,-0.25807875,1.2714967,0.24406393
0.0,-0.1,1.0999999999999999,0.5235987755982988,0.5235987755982988,0,-0.026624344,-1.4094297,-0.17459391,0.024941808,-0.17339572,1.0411929,-0.010936391,-0.785223,1.0511068,0.0339646,-0.035420075,-0.06233948,1.1350436,0.7563774
0.0,-0.1,1.0999999999999999,0.5235987755982988,0.5235987755982988,0,-0.02894699,-1.4091185,-0.17721486,-0.07912272,0.103603125,1.1875421,-0.70909506,-0.78114724,1.0731193,-0.2369145,-0.031626873,-0.61126715,1.3182638,-0.53532004
0.0,-0.1,1.0999999999999999,0.5235987755982988,0.5235987755982988,0,-0.029247146,-1.4092008,-0.17417398,-0.068162955,-0.020898875,1.2764398,0.33183494,-0.7825704,1.0598162,-0.19425781,-0.039185856,-0.30657238,1.2261043,1.0145923
0.0,-0.1,1.0999999999999999,0.5235987755982988,0.5235987755982988,0,-0.02621441,-1.4097887,-0.1758831,-0.119341105,-0.013455269,1.0405564,0.5441051,-0.7827179,1.077778,0.0448952,-0.07253875,0.10259366,1.1587847,0.846016
0.0,-0.1,1.0999999999999999,0.5235987755982988,0.5235987755982988,0,-0.026553597,-1.4095914,-0.17915344,-0.024964089,-0.13184446,0.968667,-0.1091062,-0.7836628,1.0733181,0.5330472,-0.0074947546,-0.2414632,1.193863,1.0368497
