sanky1234/BimanualDexCatch/isaacgymenvs/cem_results/football_pose_-0.2_0.10000000000000003_1.4999999999999998_-0.5235987755982988_0.5235987755982988_0_2025-05-25.csv
x,y,z,roll,pitch,yaw,robot1/joint1,robot1/joint2,robot1/joint3,robot1/joint4,robot1/joint5,robot1/joint6,robot1/joint7,robot2/joint1,robot2/joint2,robot2/joint3,robot2/joint4,robot2/joint5,robot2/joint6,robot2/joint7
-0.2,0.10000000000000003,1.4999999999999998,-0.5235987755982988,0.5235987755982988,0,0.84604853,0.6220758,1.3698314,0.4563599,0.080609016,0.52836233,0.1872264,-0.22962788,1.3907268,0.17813654,-0.2085086,0.013585673,1.1020885,0.11825836
-0.2,0.10000000000000003,1.4999999999999998,-0.5235987755982988,0.5235987755982988,0,0.84578454,0.6208182,1.3694098,0.4584578,0.08200256,0.5215844,0.27362928,-0.042503268,1.4137676,-0.018523308,-0.054364022,-0.41577256,1.1948649,-0.88902557
-0.2,0.10000000000000003,1.4999999999999998,-0.5235987755982988,0.5235987755982988,0,0.8465821,0.6224201,1.3698936,0.45765197,0.07395012,0.51713604,-0.31452298,-0.19326477,1.0759304,0.17958733,-0.1362424,-0.24824539,1.2514708,-0.119036116
-0.2,0.10000000000000003,1.4999999999999998,-0.5235987755982988,0.5235987755982988,0,0.8461801,0.6220039,1.3693415,0.45825598,0.079481944,0.5129744,0.6932236,0.17650855,1.34642,0.028697964,-0.21909583,0.45778567,1.1741911,-0.068764746
-0.2,0.10000000000000003,1.4999999999999998,-0.5235987755982988,0.5235987755982988,0,0.8459866,0.62233436,1.3688948,0.45885,0.08735243,0.52385956,0.094253466,-0.039241284,1.4650728,0.05190658,-0.08512514,0.26916087,1.2069067,-0.97004104
-0.2,0.10000000000000003,1.4999999999999998,-0.5235987755982988,0.5235987755982988,0,0.84549695,0.6215667,1.3688779,0.45854422,0.0799715,0.52361965,0.27254376,0.09288432,1.2439798,-0.06307591,-0.055809118,0.38847706,1.133728,0.5428636
-0.2,0.10000000000000003,1.4999999999999998,-0.5235987755982988,0.5235987755982988,0,0.84601957,0.6220282,1.3689086,0.45778745,0.076827414,0.51647085,0.8545337,0.69666433,1.4571692,-0.27736053,-0.19940485,-0.23729756,1.1490083,-0.3844329
-0.2,0.10000000000000003,1.4999999999999998,-0.5235987755982988,0.5235987755982988,0,0.8454558,0.62277865,1.3689705,0.45788017,0.08179655,0.52260786,-0.39592442,-0.28002116,1.3464208,-0.010037837,0.06735242,0.06849427,1.0315026,0.20845135
-0.2,0.10000000000000003,1.4999999999999998,-0.5235987755982988,0.5235987755982988,0,0.8454085,0.6202366,1.3691317,0.45741618,0.08564717,0.5282667,-0.8738077,-0.3469785,1.291018,0.22235265,-0.13097212,-0.09395489,1.1418114,-1.1090075
-0.2,0.10000000000000003,1.4999999999999998,-0.5235987755982988,0.5235987755982988,0,0.845022,0.6215114,1.3689181,0.45716667,0.085051104,0.52722293,-0.13269444,0.6045828,1.4141508,-0.22702771,0.058174197,0.19840942,1.1629944,-0.21556662
-0.2,0.10000000000000003,1.4999999999999998,-0.5235987755982988,0.5235987755982988,0,0.8463618,0.6211187,1.3700489,0.4575709,0.07207372,0.51895094,-0.03297421,-0.7941758,1.471685,-0.11181413,-0.065005116,-0.14147125,1.1866335,-0.2537499
-0.2,0.10000000000000003,1.4999999999999998,-0.5235987755982988,0.5235987755982988,0,0.8459189,0.6230078,1.3699225,0.45878047,0.086718224,0.50955904,0.8145622,0.24622479,1.2506691,-0.058590155,-0.09955958,-0.28087205,1.2064718,1.155593
-0.2,0.10000000000000003,1.4999999999999998,-0.5235987755982988,0.5235987755982988,0,0.8451646,0.62207705,1.3697381,0.45853338,0.07985593,0.51150924,0.4049755,-1.0768533,1.3553402,0.028370315,0.03528131,-0.21012637,1.1942834,0.15912086
-0.2,0.10000000000000003,1.4999999999999998,-0.5235987755982988,0.5235987755982988,0,0.8452047,0.62254584,1.3688651,0.4584586,0.08300796,0.5318798,-1.3031979,-1.1360859,1.343661,0.21894929,0.019828696,-0.16582264,1.2885525,1.9660959
-0.2,0.10000000000000003,1.4999999999999998,-0.5235987755982988,0.5235987755982988,0,0.8456775,0.62235045,1.3697207,0.4577209,0.07811903,0.51158893,-0.30541605,-0.93468255,1.4792322,0.018992737,0.057539668,0.2766639,1.1370035,0.03960049
-0.2,0.10000000000000003,1.4999999999999998,-0.5235987755982988,0.5235987755982988,0,0.84479415,0.62123054,1.3692794,0.4560977,0.08551428,0.5228241,0.94185245,-0.056553748,1.4372381,0.02128755,-0.08697531,-0.30323336,1.2079746,0.6473768
-0.2,0.10000000000000003,1.4999999999999998,-0.5235987755982988,0.5235987755982988,0,0.8457825,0.62193435,1.3694621,0.45806322,0.07924246,0.5272752,-1.1694845,0.250904,1.3722215,-0.041159842,-0.0463604,0.066905275,1.0723968,0.14254767
-0.2,0.10000000000000003,1.4999999999999998,-0.5235987755982988,0.5235987755982988,0,0.84582067,0.62043256,1.3695066,0.45788354,0.083130695,0.51495093,-0.72362363,-0.860895,1.2410787,0.05722832,0.003803885,0.14570494,1.3856727,-0.043102432
-0.2,0.10000000000000003,1.4999999999999998,-0.5235987755982988,0.5235987755982988,0,0.846451,0.6218337,1.3693608,0.4569462,0.088677086,0.5110817,-0.7866114,0.085625775,1.0970429,-0.20511992,-0.051723305,-0.5916686,1.0559787,-0.0469654
-0.2,0.10000000000000003,1.4999999999999998,-0.5235987755982988,0.5235987755982988,0,0.84601057,0.6205011,1.3692516,0.45724615,0.078390375,0.51903343,0.21963736,0.43413693,1.317649,0.27870217,-0.15272635,0.02333562,1.2075459,-0.39322022
-0.2,0.10000000000000003,1.4999999999999998,-0.5235987755982988,0.5235987755982988,0,0.84548736,0.6230493,1.3693721,0.4581378,0.07631986,0.5222618,0.40747544,-0.27589238,1.2473996,0.12037801,-0.024530476,-0.64425373,1.1606566,-0.36348167
-0.2,0.10000000000000003,1.4999999999999998,-0.5235987755982988,0.5235987755982988,0,0.84574014,0.6208436,1.3702772,0.45720127,0.07753125,0.5048368,-0.9251014,-0.86722803,1.1144544,0.14311267,-0.14269124,0.35949025,1.2239457,-0.09856302
-0.2,0.10000000000000003,1.4999999999999998,-0.5235987755982988,0.5235987755982988,0,0.8461423,0.6216963,1.3694896,0.45810807,0.07929693,0.51962745,1.17726,1.9381181,1.1451476,0.16204786,-0.11790446,-0.5336724,1.0796537,1.2422507
-0.2,0.10000000000000003,1.4999999999999998,-0.5235987755982988,0.5235987755982988,0,0.8451918,0.6213144,1.3687714,0.45695683,0.07510145,0.51213497,-0.04813053,0.13428855,1.4739624,-0.15065172,-0.048119687,-0.44050446,1.13343,-0.19278054
-0.2,0.10000000000000003,1.4999999999999998,-0.5235987755982988,0.5235987755982988,0,0.8459748,0.6201376,1.3688377,0.4576706,0.07886956,0.5305738,-0.4104644,0.21223053,1.4175271,0.07146201,-0.12952344,-0.53198475,1.0499712,-0.64469784
-0.2,0.10000000000000003,1.4999999999999998,-0.5235987755982988,0.5235987755982988,0,0.8454874,0.6218473,1.368554,0.4572537,0.08205199,0.51688075,-0.08773471,0.40177444,1.2980496,-0.26047125,-0.075984016,0.22319292,1.1640594,0.010573767
-0.2,0.10000000000000003,1.4999999999999998,-0.5235987755982988,0.5235987755982988,0,0.8464022,0.62268716,1.3703458,0.45883694,0.08338296,0.52659744,-0.34409216,0.56194067,1.2301744,-0.06922039,-0.018811723,-0.7418166,1.1242632,-0.18166184
-0.2,0.10000000000000003,1.4999999999999998,-0.5235987755982988,0.5235987755982988,0,0.84689194,0.6218687,1.3694738,0.4569761,0.07258672,0.5174268,0.35472107,-0.4042068,1.5579555,0.14794892,-0.026524726,-0.13356926,1.1695536,1.054015
-0.2,0.10000000000000003,1.4999999999999998,-0.5235987755982988,0.5235987755982988,0,0.84615546,0.62443763,1.3694662,0.45741814,0.083300926,0.5106442,0.107301265,-0.08849324,1.2987418,-0.016342765,-0.068031065,0.48557395,1.1593193,-0.25758514
-0.2,0.10000000000000003,1.4999999999999998,-0.5235987755982988,0.5235987755982988,0,0.8454818,0.62298083,1.3699439,0.45807463,0.07723327,0.5250419,-1.3382909,-0.2859349,1.171788,-0.028569378,-0.040468052,0.5094271,1.0520846,1.7612451
-0.2,0.10000000000000003,1.4999999999999998,-0.5235987755982988,0.5235987755982988,0,0.84641856,0.623056,1.3699532,0.4572371,0.07721496,0.53236663,-0.6328687,-0.79626995,1.3263115,0.098631196,-0.0769154,0.08129532,1.0558622,0.36398372
-0.2,0.10000000000000003,1.4999999999999998,-0.5235987755982988,0.5235987755982988,0,0.8458073,0.6214574,1.369523,0.4593784,0.08228404,0.52712834,-0.8385244,0.3704736,1.4295343,0.07090577,-0.12281476,0.568493,1.1131572,-0.24838288
-0.2,0.10000000000000003,1.4999999999999998,-0.5235987755982988,0.5235987755982988,0,0.84625226,0.62072206,1.3687142,0.45850736,0.08141519,0.5342788,1.2295164,-0.6878482,1.3735023,-0.093044214,-0.08061224,-0.16827399,1.0215081,0.80475223
-0.2,0.10000000000000003,1.4999999999999998,-0.5235987755982988,0.5235987755982988,0,0.8456381,0.6187662,1.3692917,0.4563923,0.0846106,0.5110649,1.1615353,-0.58630496,1.5218751,-0.016536312,-0.079525165,0.2972849,1.0622178,0.5460038
-0.2,0.10000000000000003,1.4999999999999998,-0.5235987755982988,0.5235987755982988,0,0.84546703,0.6212098,1.369276,0.45860755,0.08380388,0.5148801,-1.7671864,-0.18027945,1.3882093,0.38708255,0.014468898,-0.28107762,1.1485265,0.48141015
-0.2,0.10000000000000003,1.4999999999999998,-0.5235987755982988,0.5235987755982988,0,0.8464897,0.6211382,1.3691275,0.4587083,0.07916745,0.5262031,1.0018598,0.14654063,1.3471235,-0.3066395,-0.05121386,0.5550861,1.0871367,0.2185974
-0.2,0.10000000000000003,1.4999999999999998,-0.5235987755982988,0.5235987755982988,0,0.84552616,0.6208441,1.3692333,0.45942247,0.08298277,0.5107428,-0.22571619,-0.010474949,1.2639946,0.03994796,0.08616424,-0.12093673,1.2380761,-0.61875993
-0.2,0.10000000000000003,1.4999999999999998,-0.5235987755982988,0.5235987755982988,0,0.84614915,0.6207142,1.3694333,0.45953667,0.08149329,0.51883334,0.14871666,0.33787262,1.2464696,0.0063996934,-0.2121123,-0.09570121,1.1633726,0.2549621
-0.2,0.10000000000000003,1.4999999999999998,-0.5235987755982988,0.5235987755982988,0,0.84551066,0.6209827,1.3687544,0.45733312,0.07471468,0.53441966,-0.07881956,0.060588423,1.1924871,-0.16670741,-0.10651424,-0.16653982,1.2809371,0.61206836
-0.2,0.10000000000000003,1.4999999999999998,-0.5235987755982988,0.5235987755982988,0,0.8464871,0.61920726,1.3689994,0.45632344,0.074739195,0.51555634,-0.86763936,0.390825,1.2553827,-0.068493426,-0.002792019,0.2026438,1.1634272,-0.84669554
-0.2,0.10000000000000003,1.4999999999999998,-0.5235987755982988,0.5235987755982988,0,0.84532094,0.6214238,1.369392,0.4583123,0.07601566,0.51746064,0.05097654,-0.52100587,1.2175051,-0.19533774,-0.24483109,-0.11864328,1.1132038,-0.9273717
-0.2,0.10000000000000003,1.4999999999999998,-0.5235987755982988,0.5235987755982988,0,0.84581673,0.622218,1.3694226,0.45686632,0.08562644,0.5199806,0.51174027,-0.06705707,1.346028,0.2499837,-0.08746729,-0.44791517,1.0798104,-0.4313267
-0.2,0.10000000000000003,1.4999999999999998,-0.5235987755982988,0.5235987755982988,0,0.8467909,0.6206449,1.3688489,0.45702764,0.079124704,0.5235966,-0.8799445,0.104898155,0.9932277,0.24712355,-0.1420376,0.44428587,1.192201,0.3060204
-0.2,0.10000000000000003,1.4999999999999998,-0.5235987755982988,0.5235987755982988,0,0.84664845,0.62303364,1.3683981,0.45622775,0.087868616,0.5182839,0.2964722,1.2831823,1.0095015,-0.18337345,-0.050341014,-0.626423,1.3322289,0.32081205
-0.2,0.10000000000000003,1.4999999999999998,-0.5235987755982988,0.5235987755982988,0,0.84549123,0.6203548,1.3694663,0.45690975,0.08874616,0.51964647,-0.92716384,0.5627143,1.3705854,-0.028026836,-0.019123645,-0.12912194,1.076648,0.33785617
-0.2,0.10000000000000003,1.4999999999999998,-0.5235987755982988,0.5235987755982988,0,0.8459903,0.62344307,1.3692176,0.45740283,0.0808359,0.5225909,-0.30411538,-0.41245258,1.2518308,-0.13357922,0.018015496,0.75889605,1.1603085,0.06754272
-0.2,0.10000000000000003,1.4999999999999998,-0.5235987755982988,0.5235987755982988,0,0.8458297,0.62181497,1.3696284,0.45850068,0.06522764,0.51093745,-0.6536222,-0.11400024,1.1665776,0.026809178,0.04057005,0.68947273,1.1750695,0.0965525
-0.2,0.10000000000000003,1.4999999999999998,-0.5235987755982988,0.5235987755982988,0,0.8456658,0.6229723,1.3701571,0.45668328,0.085422434,0.52477014,-0.38072288,-0.15314806,1.5904076,0.13601133,-0.036613315,-0.5756761,1.2123923,-0.45869577
-0.2,0.10000000000000003,1.4999999999999998,-0.5235987755982988,0.5235987755982988,0,0.8465553,0.62104064,1.3689944,0.45676845,0.08062108,0.5175914,0.8457839,-0.253293,1.4328141,0.030474102,-0.11651753,0.6395056,1.0752586,0.24149492
-0.2,0.10000000000000003,1.4999999999999998,-0.5235987755982988,0.5235987755982988,0,0.84620816,0.6238105,1.3679992,0.45749068,0.07994025,0.5135599,-1.3173679,1.2422638,1.1338751,0.030283445,-0.12580884,-0.17900884,1.1141156,-0.3936712
-0.2,0.10000000000000003,1.4999999999999998,-0.5235987755982988,0.5235987755982988,0,0.8459595,0.6223253,1.3689817,0.45852497,0.08960436,0.5067142,0.3735435,-0.3081511,1.3109245,0.12671,-0.09634957,0.43567842,1.2792256,-1.806706
-0.2,0.10000000000000003,1.4999999999999998,-0.5235987755982988,0.5235987755982988,0,0.84533745,0.62034345,1.3695662,0.45608732,0.07851258,0.5100971,0.6277447,1.5920123,1.1753069,-0.22341068,-0.0012630459,-0.39163947,1.1539701,0.556915
-0.2,0.10000000000000003,1.4999999999999998,-0.5235987755982988,0.5235987755982988,0,0.84537756,0.6238552,1.3694682,0.45758596,0.08433274,0.5258733,0.3332455,0.26546922,1.2607415,-0.09109991,0.018884318,0.2052963,1.2147126,0.53890544
-0.2,0.10000000000000003,1.4999999999999998,-0.5235987755982988,0.5235987755982988,0,0.84586644,0.62182486,1.3691249,0.45773035,0.08889311,0.52096015,-0.65167826,-0.7188838,1.200821,-0.056599706,-0.058781177,-0.98763466,1.274697,0.61000484
-0.2,0.10000000000000003,1.4999999999999998,-0.5235987755982988,0.5235987755982988,0,0.8457304,0.621081,1.3692275,0.45786557,0.08265642,0.51319236,0.69244134,0.74926776,1.3975675,0.34764084,-0.12932113,0.4196121,1.1962131,0.42697853
-0.2,0.10000000000000003,1.4999999999999998,-0.5235987755982988,0.5235987755982988,0,0.8453096,0.62023157,1.3693129,0.45837626,0.08158625,0.5112903,0.55651855,-0.29362756,1.2397134,-0.05564505,-0.13358077,0.060583197,1.121849,-0.5734205
-0.2,0.10000000000000003,1.4999999999999998,-0.5235987755982988,0.5235987755982988,0,0.8461992,0.6208303,1.3684505,0.45726714,0.088691555,0.5136513,-1.1999978,-0.12070535,1.2554401,0.14678814,-0.10676419,0.4973889,1.0732869,0.51749873
-0.2,0.10000000000000003,1.4999999999999998,-0.5235987755982988,0.5235987755982988,0,0.8455477,0.62358755,1.3686608,0.4585648,0.08391359,0.53117436,0.09638064,0.5085889,1.1861447,0.048952073,-0.060127165,0.45462376,1.2722604,0.8109275
-0.2,0.10000000000000003,1.4999999999999998,-0.5235987755982988,0.5235987755982988,0,0.8461408,0.623571,1.3693846,0.45752358,0.080203116,0.5139544,-0.8324862,-0.39675584,1.2282271,0.041312415,-0.21608838,0.7330113,1.2433796,0.510592
-0.2,0.10000000000000003,1.4999999999999998,-0.5235987755982988,0.5235987755982988,0,0.8461489,0.62283856,1.3700007,0.45722952,0.08054121,0.5053283,-1.270087,-0.41369167,1.4924036,0.19004095,-0.07839058,0.35180405,1.0547994,1.0971837
-0.2,0.10000000000000003,1.4999999999999998,-0.5235987755982988,0.5235987755982988,0,0.845327,0.6214939,1.369385,0.45730406,0.07147613,0.51562864,0.52646935,0.18813504,1.3034263,0.013406884,-0.21467641,0.55518585,1.0657305,0.5781369
-0.2,0.10000000000000003,1.4999999999999998,-0.5235987755982988,0.5235987755982988,0,0.8459759,0.62190306,1.3680861,0.45745227,0.08012183,0.5235883,0.8133176,-1.0676445,1.4345577,0.22163104,-0.003257695,0.4030148,1.119793,0.7703004
-0.2,0.10000000000000003,1.4999999999999998,-0.5235987755982988,0.5235987755982988,0,0.8464798,0.6213256,1.3698003,0.4566484,0.08306951,0.51923513,1.0141901,-0.63373625,1.3682857,-0.047825262,-0.038195066,0.007978279,1.0846344,-0.2582517
-0.2,0.10000000000000003,1.4999999999999998,-0.5235987755982988,0.5235987755982988,0,0.845149,0.620654,1.3687415,0.4573432,0.08072868,0.52209437,0.810059,0.31642693,1.1094506,-0.03766296,0.06013405,-0.081737824,1.3369164,0.39398846
-0.2,0.10000000000000003,1.4999999999999998,-0.5235987755982988,0.5235987755982988,0,0.84583926,0.6225093,1.3692881,0.45722705,0.083912134,0.50472325,0.51460105,-0.80836934,1.2036719,0.25520602,0.00239114,0.31945395,1.1489516,0.20430534
-0.2,0.10000000000000003,1.4999999999999998,-0.5235987755982988,0.5235987755982988,0,0.8459796,0.6226761,1.3695675,0.45801446,0.07507047,0.52330256,0.650673,-0.46728045,1.3606744,0.08249368,-0.041847076,0.7324331,1.1534976,0.6523218
-0.2,0.10000000000000003,1.4999999999999998,-0.5235987755982988,0.5235987755982988,0,0.845777,0.62285024,1.3695884,0.45764816,0.09145772,0.5257282,0.20736319,-1.011657,1.0152447,0.07251533,0.00013892571,-0.30975473,1.1506562,0.9346899
-0.2,0.10000000000000003,1.4999999999999998,-0.5235987755982988,0.5235987755982988,0,0.84487695,0.62153125,1.3691363,0.45794216,0.080059305,0.5040194,-1.3511542,-0.3714375,1.3153527,-0.0420979,-0.11603156,0.72132236,1.1015886,0.57680684
-0.2,0.10000000000000003,1.4999999999999998,-0.5235987755982988,0.5235987755982988,0,0.8460398,0.62099177,1.3691334,0.45739287,0.08986655,0.53147846,-0.80306387,0.8081893,1.1264219,-0.065680295,-0.040285263,-0.2524166,1.1766697,0.33470836
-0.2,0.10000000000000003,1.4999999999999998,-0.5235987755982988,0.5235987755982988,0,0.8449716,0.6217035,1.3691796,0.4575487,0.08693751,0.52466464,-0.77646476,0.6387391,1.4373567,0.008199133,-0.13550043,-0.22233662,1.2117265,1.0249465
-0.2,0.10000000000000003,1.4999999999999998,-0.5235987755982988,0.5235987755982988,0,0.8454949,0.62196785,1.3692025,0.45732424,0.08498217,0.50751555,1.2709728,-0.1936893,1.3302084,-0.00082876516,-0.024298755,0.16022256,1.1866802,-0.13274851
-0.2,0.10000000000000003,1.4999999999999998,-0.5235987755982988,0.5235987755982988,0,0.84574914,0.6220705,1.3687358,0.4571484,0.06638568,0.5167814,-0.6548776,-0.96098965,1.2146714,0.039902393,-0.08147878,-0.40905973,1.1809318,0.3678367
-0.2,0.10000000000000003,1.4999999999999998,-0.5235987755982988,0.5235987755982988,0,0.8456533,0.620052,1.3695105,0.4576231,0.0858701,0.5106972,0.2360299,-0.06668172,1.2930713,0.40998042,-0.020578424,-0.25240257,1.0497519,0.5487704
-0.2,0.10000000000000003,1.4999999999999998,-0.5235987755982988,0.5235987755982988,0,0.8456623,0.61973673,1.3694631,0.45785403,0.07550065,0.519437,-0.1650487,-0.339254,1.2565928,0.4552326,-0.108039826,0.64754295,1.2036822,-0.10542974
-0.2,0.10000000000000003,1.4999999999999998,-0.5235987755982988,0.5235987755982988,0,0.84562737,0.6213511,1.3700451,0.45700467,0.085952036,0.51332206,1.7117934,-0.920711,1.4097214,0.003699489,-0.027437948,0.27352968,1.0765574,0.3114841
-0.2,0.10000000000000003,1.4999999999999998,-0.5235987755982988,0.5235987755982988,0,0.84563106,0.62370753,1.3690666,0.4577052,0.0746615,0.51861334,-1.8795842,0.8951076,1.4282695,0.08057654,0.07977532,-0.079184934,1.1580831,-1.4343783
-0.2,0.10000000000000003,1.4999999999999998,-0.5235987755982988,0.5235987755982988,0,0.84598273,0.623404,1.3687106,0.45793876,0.07929591,0.52570665,0.2637892,-0.49928516,1.5971211,-0.017246777,-0.06543288,0.022112044,1.1754775,-0.027848655
-0.2,0.10000000000000003,1.4999999999999998,-0.5235987755982988,0.5235987755982988,0,0.8456083,0.62243783,1.3686641,0.4569498,0.073057204,0.5278409,0.1101173,0.21769282,1.4328518,0.12542495,-0.11284047,0.6198589,1.0944296,0.4210601
-0.2,0.10000000000000003,1.4999999999999998,-0.5235987755982988,0.5235987755982988,0,0.845756,0.62230265,1.3694466,0.4570421,0.071888804,0.52411926,0.3833974,0.68999904,1.3829216,0.24766362,-0.13580804,0.04048878,1.209491,-1.5116106
-0.2,0.10000000000000003,1.4999999999999998,-0.5235987755982988,0.5235987755982988,0,0.8458679,0.6208604,1.3690977,0.4571746,0.083818145,0.5135543,-1.1866775,0.23721859,1.3964064,0.25740585,-0.07618804,-0.40637252,1.1497619,-0.17723882
-0.2,0.10000000000000003,1.4999999999999998,-0.5235987755982988,0.5235987755982988,0,0.8451883,0.6219698,1.3688848,0.45884237,0.07885343,0.52217734,-0.35284212,0.14484167,1.1234645,-0.22201674,-0.03901244,0.14682232,1.0950493,0.2955867
-0.2,0.10000000000000003,1.4999999999999998,-0.5235987755982988,0.5235987755982988,0,0.84620416,0.6225045,1.3693961,0.45690298,0.07207823,0.5260235,-1.019512,0.6027612,1.608282,0.1405136,-0.17370723,0.18123455,1.0757349,-1.2290492
-0.2,0.10000000000000003,1.4999999999999998,-0.5235987755982988,0.5235987755982988,0,0.8461749,0.62080634,1.3686714,0.4572983,0.0905847,0.5132932,0.27201143,-0.5920668,1.5287634,0.21889217,-0.08413474,0.61825144,1.0435252,0.15693896
-0.2,0.10000000000000003,1.4999999999999998,-0.5235987755982988,0.5235987755982988,0,0.84585017,0.6221297,1.3690236,0.45735142,0.08113447,0.5255531,0.1621835,-1.151072,1.4458697,-0.14203444,-0.0587147,0.04245895,1.022544,-0.51764286
-0.2,0.10000000000000003,1.4999999999999998,-0.5235987755982988,0.5235987755982988,0,0.8463572,0.6219677,1.3696136,0.45889255,0.08491531,0.5171821,-0.12677774,-0.05026476,1.167716,0.2135087,-0.12545596,0.74195385,1.2069176,1.3943534
-0.2,0.10000000000000003,1.4999999999999998,-0.5235987755982988,0.5235987755982988,0,0.84640056,0.62191826,1.3695738,0.45713344,0.07888263,0.5159264,0.65675473,-0.5332698,1.2461431,0.048423454,-0.23386908,-0.8552732,1.016411,0.18051282
-0.2,0.10000000000000003,1.4999999999999998,-0.5235987755982988,0.5235987755982988,0,0.84606975,0.62293303,1.3690866,0.45751765,0.08063817,0.52412975,-0.6866125,-0.09716894,1.3368481,0.11583259,0.081888594,-0.042256717,1.0292642,0.026694134
-0.2,0.10000000000000003,1.4999999999999998,-0.5235987755982988,0.5235987755982988,0,0.845928,0.6216883,1.3693796,0.45777258,0.07513431,0.5278224,-1.2878172,-0.42099267,1.3018285,0.07590622,-0.007969071,0.29127747,1.0497205,-0.7930697
-0.2,0.10000000000000003,1.4999999999999998,-0.5235987755982988,0.5235987755982988,0,0.84564894,0.62128425,1.3685712,0.45710316,0.0796027,0.5154233,-0.14217328,-0.26960555,1.4698249,0.24790272,-0.10830264,-0.57521635,1.0180392,0.05423089
-0.2,0.10000000000000003,1.4999999999999998,-0.5235987755982988,0.5235987755982988,0,0.84583104,0.6218703,1.3688785,0.45726696,0.08006314,0.52916294,0.23182335,-0.4264492,1.2922261,-0.0003913608,-0.042260304,-0.037782203,0.9177649,0.87607837
-0.2,0.10000000000000003,1.4999999999999998,-0.5235987755982988,0.5235987755982988,0,0.84565586,0.6227619,1.3694595,0.4577995,0.08000289,0.52914447,-0.43224877,-0.5510963,1.2107494,0.13010378,0.07969723,-0.23624182,1.1383216,0.79729784
-0.2,0.10000000000000003,1.4999999999999998,-0.5235987755982988,0.5235987755982988,0,0.8458578,0.62208605,1.3686308,0.4578707,0.07961802,0.51987064,-0.32296082,0.34716904,1.4564965,0.15483516,-0.15602471,-0.24382947,1.1910088,1.0391812
-0.2,0.10000000000000003,1.4999999999999998,-0.5235987755982988,0.5235987755982988,0,0.8461189,0.62143004,1.3693178,0.45747775,0.07564152,0.5246839,-0.59912163,0.20156375,1.4319015,0.19147722,0.016222944,0.6852082,1.1069397,-0.07117651
-0.2,0.10000000000000003,1.4999999999999998,-0.5235987755982988,0.5235987755982988,0,0.84613717,0.6213003,1.3691922,0.45861378,0.07167763,0.5223441,0.4923162,0.4376221,1.330828,0.20150603,-0.0069057113,-0.013824704,1.2453499,-1.5158238
-0.2,0.10000000000000003,1.4999999999999998,-0.5235987755982988,0.5235987755982988,0,0.8449518,0.62375975,1.3699057,0.45857167,0.09215248,0.53269166,-0.28038442,0.87146294,1.1847464,-0.34164047,-0.23813258,0.086929575,0.9925098,0.054010455
-0.2,0.10000000000000003,1.4999999999999998,-0.5235987755982988,0.5235987755982988,0,0.8454678,0.62381303,1.3696655,0.45830867,0.07791623,0.5251621,-0.35819826,0.44479305,1.0062792,0.2345257,0.0081269825,0.16958809,1.0641541,-0.3323945
-0.2,0.10000000000000003,1.4999999999999998,-0.5235987755982988,0.5235987755982988,0,0.8461668,0.62412816,1.3696368,0.4574052,0.07708699,0.52650625,0.14667828,0.08099785,1.0177616,-0.09492336,-0.07226869,0.69337475,1.1207379,-0.33463198
-0.2,0.10000000000000003,1.4999999999999998,-0.5235987755982988,0.5235987755982988,0,0.8461599,0.6198954,1.3687636,0.45803377,0.0709258,0.5280331,-0.64900196,-0.6080592,1.3381306,-0.025007395,-0.11022494,0.5132383,1.1159986,0.75880295
-0.2,0.10000000000000003,1.4999999999999998,-0.5235987755982988,0.5235987755982988,0,0.84652835,0.6244543,1.3690455,0.4571289,0.07163615,0.5308075,-0.5874701,1.3672162,1.4588977,0.20733203,-0.18832687,-0.16771252,1.0944742,-0.13790256
-0.2,0.10000000000000003,1.4999999999999998,-0.5235987755982988,0.5235987755982988,0,0.8456995,0.62374985,1.3688976,0.45847467,0.08997021,0.51409745,-0.8276743,0.8227248,1.3077297,-0.049427185,0.07409297,-0.059797518,1.1954149,0.07489885
-0.2,0.10000000000000003,1.4999999999999998,-0.5235987755982988,0.5235987755982988,0,0.8461017,0.6232356,1.3684025,0.45795313,0.08529956,0.5075058,-0.6247314,0.47976425,1.2312746,0.0051157437,0.010328216,-0.9640361,0.9908766,-0.10954199
-0.2,0.10000000000000003,1.4999999999999998,-0.5235987755982988,0.5235987755982988,0,0.8456557,0.62299186,1.3695052,0.4583415,0.08434605,0.5242518,-0.1413534,-0.27188054,1.2677971,0.28705984,-0.26129776,0.24032152,1.0682694,-0.48308036
-0.2,0.10000000000000003,1.4999999999999998,-0.5235987755982988,0.5235987755982988,0,0.84593636,0.6215174,1.3697153,0.45781282,0.0877538,0.5254394,-0.9579531,-0.53579307,1.3780583,0.20094855,-0.10873812,-0.08400221,1.2753943,0.2802853
-0.2,0.10000000000000003,1.4999999999999998,-0.5235987755982988,0.5235987755982988,0,0.8461336,0.6222023,1.3689289,0.45670187,0.077536926,0.5241638,-0.3519274,1.0950183,1.7264926,-0.21336198,-0.30196416,0.17893198,1.1019456,1.5707191
-0.2,0.10000000000000003,1.4999999999999998,-0.5235987755982988,0.5235987755982988,0,0.8461857,0.622592,1.3685873,0.45783842,0.08048779,0.5243622,0.0021162718,-0.65900797,1.1086801,0.033392545,0.02888738,0.8293302,1.1999315,-0.5055463
-0.2,0.10000000000000003,1.4999999999999998,-0.5235987755982988,0.5235987755982988,0,0.84604615,0.62260187,1.3691182,0.45729497,0.080787666,0.5310122,-0.1784624,-0.8392159,1.3332918,-0.13146855,0.08827849,-0.32447973,0.9191718,0.09172923
-0.2,0.10000000000000003,1.4999999999999998,-0.5235987755982988,0.5235987755982988,0,0.84570014,0.6228787,1.3692104,0.45875132,0.085795365,0.53510475,-0.12738721,0.107279606,1.1639402,-0.14025742,-0.10245769,-0.9117415,1.04448,1.0028661
-0.2,0.10000000000000003,1.4999999999999998,-0.5235987755982988,0.5235987755982988,0,0.845834,0.6221815,1.368888,0.45802814,0.08125379,0.5205081,-0.1706195,-0.33281684,1.3128957,0.18005683,-0.11963401,0.55100745,1.1846766,0.26978365
-0.2,0.10000000000000003,1.4999999999999998,-0.5235987755982988,0.5235987755982988,0,0.8455575,0.6207293,1.3690532,0.45751247,0.086634554,0.52957696,-0.12751567,-0.7278497,1.2827054,0.10430426,-0.24834044,0.11647773,1.1483744,-0.28809717
-0.2,0.10000000000000003,1.4999999999999998,-0.5235987755982988,0.5235987755982988,0,0.84621173,0.623563,1.3692102,0.45766443,0.081935,0.5217204,0.7199976,-0.18202373,1.345607,-0.005159714,-0.02369896,0.023420637,1.1782366,1.3371713
-0.2,0.10000000000000003,1.4999999999999998,-0.5235987755982988,0.5235987755982988,0,0.84554553,0.6232055,1.3691579,0.45793968,0.08190505,0.5137052,0.09066307,-0.092274584,1.1632336,0.13547698,-0.06452269,-0.00095625257,1.1312103,0.5858465
-0.2,0.10000000000000003,1.4999999999999998,-0.5235987755982988,0.5235987755982988,0,0.84596723,0.62142134,1.3696991,0.45608747,0.08549576,0.50461614,-0.32368228,0.23783387,1.2311381,0.10926694,-0.09448239,0.18124314,1.1045526,0.09531532
-0.2,0.10000000000000003,1.4999999999999998,-0.5235987755982988,0.5235987755982988,0,0.846798,0.6220456,1.3693093,0.45786542,0.088434614,0.5255436,0.5835594,-0.28005108,1.2822624,0.20151608,0.03318785,-0.4408078,1.1732802,1.3434455
-0.2,0.10000000000000003,1.4999999999999998,-0.5235987755982988,0.5235987755982988,0,0.84532374,0.61975145,1.3691224,0.4566954,0.08593001,0.51435226,0.3613897,-0.047496844,1.4751645,0.082621604,0.023762733,0.2611583,1.1116191,-0.5228195
-0.2,0.10000000000000003,1.4999999999999998,-0.5235987755982988,0.5235987755982988,0,0.84547925,0.6211411,1.3701667,0.45912853,0.07233028,0.52739704,-0.5801913,-0.2602397,1.1957563,-0.04855944,0.007662488,-0.14849052,1.037401,-0.23660043
-0.2,0.10000000000000003,1.4999999999999998,-0.5235987755982988,0.5235987755982988,0,0.8455688,0.6210678,1.3687326,0.45670462,0.078805946,0.5164201,1.1065205,0.035036128,1.0644495,-0.3170893,-0.26113904,-0.33075464,1.1995107,0.055654097
-0.2,0.10000000000000003,1.4999999999999998,-0.5235987755982988,0.5235987755982988,0,0.8463345,0.62091976,1.369065,0.45721915,0.08668318,0.5093016,0.03981355,0.9454823,1.3328813,0.12139416,-0.098580875,0.040573455,1.1754806,-0.777831
-0.2,0.10000000000000003,1.4999999999999998,-0.5235987755982988,0.5235987755982988,0,0.84688276,0.6215965,1.3691971,0.45640987,0.0941827,0.5339983,-0.48721018,-0.35473752,1.2896314,0.44761363,-0.099317595,-0.47749415,1.0684164,-1.6577754
-0.2,0.10000000000000003,1.4999999999999998,-0.5235987755982988,0.5235987755982988,0,0.84580886,0.6218429,1.3687972,0.45712796,0.08596154,0.52788806,0.4320954,-1.1405004,1.3640575,0.036616143,-0.0750885,0.48870283,1.1075128,0.41133204
-0.2,0.10000000000000003,1.4999999999999998,-0.5235987755982988,0.5235987755982988,0,0.84514415,0.62204725,1.3695232,0.45728785,0.08377448,0.5292886,-0.34248617,-0.55148965,1.303984,-0.048008412,0.007197737,-0.2739671,1.1997024,-1.8118255
-0.2,0.10000000000000003,1.4999999999999998,-0.5235987755982988,0.5235987755982988,0,0.84517866,0.6216671,1.369488,0.45754284,0.082775496,0.51965797,-1.5676215,0.31873304,1.2747197,-0.01929583,-0.026204504,0.32748234,1.1384468,-1.2061493
-0.2,0.10000000000000003,1.4999999999999998,-0.5235987755982988,0.5235987755982988,0,0.8456728,0.6221614,1.3687564,0.45831257,0.08178185,0.5181133,0.67261666,-0.3016959,1.3347449,0.3329641,-0.20590451,0.085727975,1.2955139,0.5087248
-0.2,0.10000000000000003,1.4999999999999998,-0.5235987755982988,0.5235987755982988,0,0.84594315,0.6222909,1.3690978,0.45782843,0.07867838,0.5296237,-0.87565976,-0.045959815,1.1983687,0.06288958,-0.016716737,0.12865159,1.1098365,0.545505
-0.2,0.10000000000000003,1.4999999999999998,-0.5235987755982988,0.5235987755982988,0,0.84589195,0.6221846,1.3693504,0.45750043,0.08581647,0.5242374,-0.051661473,-0.16474555,1.1755989,0.10166206,-0.06902536,0.44526002,1.2987691,0.9890736
-0.2,0.10000000000000003,1.4999999999999998,-0.5235987755982988,0.5235987755982988,0,0.8457588,0.621704,1.3698158,0.4582669,0.0829607,0.50987494,-1.9489399,0.78596836,1.2633345,-0.08889259,0.061226137,0.14254314,1.187287,0.26783234
-0.2,0.10000000000000003,1.4999999999999998,-0.5235987755982988,0.5235987755982988,0,0.8457393,0.62428534,1.3688174,0.4570726,0.079379186,0.5108654,0.12864193,-0.09327995,1.3286245,0.09637462,-0.23686552,-0.21256916,1.2509842,0.55525315
-0.2,0.10000000000000003,1.4999999999999998,-0.5235987755982988,0.5235987755982988,0,0.84595287,0.623528,1.3692898,0.4576622,0.083732195,0.52127194,-0.40829125,0.46557596,1.1125307,-0.18626791,-0.020893607,-0.40989846,1.2263979,-0.49530673
-0.2,0.10000000000000003,1.4999999999999998,-0.5235987755982988,0.5235987755982988,0,0.84617674,0.62347823,1.3691351,0.4580092,0.08292596,0.52581275,0.008183822,-0.502226,1.2565591,-0.07627473,-0.004658874,0.4376114,0.98339343,0.55542535
-0.2,0.10000000000000003,1.4999999999999998,-0.5235987755982988,0.5235987755982988,0,0.84584635,0.62303895,1.3690877,0.45642924,0.08561606,0.5218364,0.49470574,-0.44722036,1.282889,-0.033134233,0.050349947,-0.54458135,1.0557859,0.3096968
-0.2,0.10000000000000003,1.4999999999999998,-0.5235987755982988,0.5235987755982988,0,0.8458602,0.62047046,1.36974,0.45825082,0.082760066,0.50928956,-0.38957736,-0.902002,1.3239272,-0.042389672,-0.16078001,0.25086486,1.0960255,0.06684747
-0.2,0.10000000000000003,1.4999999999999998,-0.5235987755982988,0.5235987755982988,0,0.84504604,0.62360406,1.3693109,0.45842183,0.0920409,0.5090866,-0.61928797,-0.030600175,1.3490257,-0.0059159407,-0.18588835,0.15376796,1.1654572,-1.0379372
-0.2,0.10000000000000003,1.4999999999999998,-0.5235987755982988,0.5235987755982988,0,0.84596467,0.62086016,1.3689687,0.45783335,0.074119054,0.53112894,-0.6227843,-0.07857028,1.2857589,0.06021989,-0.13615969,-0.117186084,1.17036,-0.33705175
-0.2,0.10000000000000003,1.4999999999999998,-0.5235987755982988,0.5235987755982988,0,0.8460212,0.6226538,1.3690586,0.45693198,0.072469816,0.5168202,-1.0048002,-0.4071464,1.3032321,0.047652904,-0.007890485,0.21772082,1.0961586,0.28451744
-0.2,0.10000000000000003,1.4999999999999998,-0.5235987755982988,0.5235987755982988,0,0.84604865,0.6233098,1.3695704,0.45943484,0.08018846,0.5137662,-1.0428517,0.2821072,1.0079346,-0.005098579,0.05113546,0.03199114,1.1143634,0.5435467
-0.2,0.10000000000000003,1.4999999999999998,-0.5235987755982988,0.5235987755982988,0,0.8452812,0.62275845,1.3694177,0.45720088,0.08258352,0.53182423,1.255275,-0.49514124,1.1745737,-0.048908513,-0.0623544,0.52669483,1.1151179,0.83493197
-0.2,0.10000000000000003,1.4999999999999998,-0.5235987755982988,0.5235987755982988,0,0.84531325,0.619831,1.3692356,0.45758107,0.07999083,0.5143289,0.06577612,-0.3222407,1.14394,0.10857418,-0.010617044,0.16135298,1.1387067,0.95181704
-0.2,0.10000000000000003,1.4999999999999998,-0.5235987755982988,0.5235987755982988,0,0.8458159,0.62168753,1.3698976,0.4583006,0.07729987,0.5222731,-1.8177283,-0.7623121,1.389108,0.39943713,-0.022604214,0.26962918,1.0299702,-0.8199569
-0.2,0.10000000000000003,1.4999999999999998,-0.5235987755982988,0.5235987755982988,0,0.845403,0.6209962,1.3692149,0.45770696,0.091431394,0.5239591,-1.3091218,-0.43816602,1.1707655,0.14430667,-0.09504088,0.10231114,1.237582,0.35013464
-0.2,0.10000000000000003,1.4999999999999998,-0.5235987755982988,0.5235987755982988,0,0.8457983,0.6212035,1.3691576,0.45782477,0.08721341,0.5230468,-0.36550647,-0.6621396,1.423237,-0.05676852,-0.06870765,0.22046736,1.1199597,1.6542255
-0.2,0.10000000000000003,1.4999999999999998,-0.5235987755982988,0.5235987755982988,0,0.845825,0.62100595,1.3695261,0.45712394,0.08184386,0.52980846,-0.010879569,0.20419216,1.2293261,0.10437934,-0.14225832,-0.102885716,1.1991109,0.06291875
-0.2,0.10000000000000003,1.4999999999999998,-0.5235987755982988,0.5235987755982988,0,0.8452853,0.6205644,1.3698884,0.45652285,0.08290553,0.51527673,1.2707683,0.69874066,1.2079709,-0.011929559,-0.01747142,0.095510796,1.2457569,0.24404909
-0.2,0.10000000000000003,1.4999999999999998,-0.5235987755982988,0.5235987755982988,0,0.8454819,0.62054485,1.368883,0.45867437,0.08341246,0.52471477,-0.27959847,0.3802237,1.5823593,0.06422477,-0.18872254,-0.23776136,1.0395006,-0.3849672
-0.2,0.10000000000000003,1.4999999999999998,-0.5235987755982988,0.5235987755982988,0,0.8456988,0.6235407,1.3691012,0.45848343,0.077522434,0.51516825,-0.7280688,-0.62259316,1.3782785,0.033508718,-0.026694084,0.9120038,1.2297366,1.0049165
-0.2,0.10000000000000003,1.4999999999999998,-0.5235987755982988,0.5235987755982988,0,0.8453035,0.6214817,1.3698595,0.45728883,0.0799192,0.53004676,-0.031231314,-0.20820513,1.3711524,0.020774895,-0.12350738,0.05618341,1.1532172,1.2917635
-0.2,0.10000000000000003,1.4999999999999998,-0.5235987755982988,0.5235987755982988,0,0.84590316,0.6219643,1.3689344,0.45707318,0.08328066,0.51767254,-1.6032599,-0.30714697,1.1877713,0.16779438,-0.11862827,-0.21416228,1.0501791,-0.94484305
-0.2,0.10000000000000003,1.4999999999999998,-0.5235987755982988,0.5235987755982988,0,0.8455164,0.62342024,1.3693682,0.4585017,0.076944545,0.53215414,-0.8439125,0.14375365,1.2927649,0.027700312,-0.13802361,-0.27709302,1.113055,0.61724967
-0.2,0.10000000000000003,1.4999999999999998,-0.5235987755982988,0.5235987755982988,0,0.8460935,0.62086296,1.3692883,0.4568825,0.08269131,0.51067257,-0.37729132,0.1471172,1.213678,0.4767972,-0.080720015,-0.12335653,1.1899995,0.147573
-0.2,0.10000000000000003,1.4999999999999998,-0.5235987755982988,0.5235987755982988,0,0.84573793,0.62141836,1.3695989,0.45735502,0.08784159,0.5222887,0.0071092932,-0.3167117,1.2280245,0.06425506,-0.11313904,0.038221296,1.1522319,0.68158555
-0.2,0.10000000000000003,1.4999999999999998,-0.5235987755982988,0.5235987755982988,0,0.8456531,0.62429285,1.3695912,0.4586347,0.07685127,0.5228897,-0.2209016,-1.0905582,1.6085709,-0.15813375,-0.108079314,-0.41869947,1.1283609,0.7068928
-0.2,0.10000000000000003,1.4999999999999998,-0.5235987755982988,0.5235987755982988,0,0.8454178,0.623298,1.3689094,0.45698735,0.074501276,0.51283413,-0.1548487,-0.7950587,1.1714984,0.10867797,-0.16805069,0.60995597,1.1154596,0.85871
-0.2,0.10000000000000003,1.4999999999999998,-0.5235987755982988,0.5235987755982988,0,0.8454732,0.62342757,1.3693249,0.45825914,0.08635316,0.521168,0.1544959,-0.663642,1.2679995,0.15586373,0.08898054,0.01648641,1.1113083,-0.09756561
-0.2,0.10000000000000003,1.4999999999999998,-0.5235987755982988,0.5235987755982988,0,0.8459558,0.62136024,1.3696058,0.45716113,0.07740197,0.52031416,-0.7894807,0.4337701,1.4247901,-0.1311861,-0.16219988,0.5677271,1.2104553,-0.16679442
-0.2,0.10000000000000003,1.4999999999999998,-0.5235987755982988,0.5235987755982988,0,0.8454549,0.6219564,1.3694134,0.4576687,0.0836015,0.50229347,0.62440175,-0.48089862,1.1345521,0.071336076,0.08604646,0.32925865,1.2583649,-0.9814264
-0.2,0.10000000000000003,1.4999999999999998,-0.5235987755982988,0.5235987755982988,0,0.846999,0.6223988,1.3684614,0.45717788,0.08935546,0.5186055,-1.601765,0.92760515,1.5432676,0.13688998,-0.27950072,-0.19436994,1.2051481,-0.82968473
-0.2,0.10000000000000003,1.4999999999999998,-0.5235987755982988,0.5235987755982988,0,0.8465655,0.6214679,1.3692567,0.4573677,0.077823505,0.5169353,-0.16420509,0.2832538,1.10158,0.32151568,-0.16557914,0.7463616,1.1322201,-0.1526393
-0.2,0.10000000000000003,1.4999999999999998,-0.5235987755982988,0.5235987755982988,0,0.8455959,0.6210684,1.3693873,0.45771104,0.07652799,0.5333704,-1.1656216,-0.8199573,1.3354952,-0.12837394,-0.045494415,-0.574862,1.1486431,-0.11397304
-0.2,0.10000000000000003,1.4999999999999998,-0.5235987755982988,0.5235987755982988,0,0.84622794,0.6206048,1.368795,0.45838374,0.08600849,0.52159077,0.14378354,0.16160856,1.3774866,0.14088413,0.0294378,0.04451549,1.3588709,0.8868485
-0.2,0.10000000000000003,1.4999999999999998,-0.5235987755982988,0.5235987755982988,0,0.84576076,0.6205802,1.3698319,0.45749247,0.07325737,0.5227425,-1.0695927,0.031736992,1.3421688,0.39440408,-0.042998496,-0.07928706,0.9749655,0.4967779
-0.2,0.10000000000000003,1.4999999999999998,-0.5235987755982988,0.5235987755982988,0,0.8454194,0.62124264,1.3694963,0.45809668,0.08365047,0.5104027,0.878518,0.24185097,1.2756308,0.11622842,-0.09073382,-0.15610717,1.2141669,-0.6989149
-0.2,0.10000000000000003,1.4999999999999998,-0.5235987755982988,0.5235987755982988,0,0.8459406,0.62261796,1.3694907,0.45721605,0.08017911,0.51219493,-1.40079,-0.7712163,1.4434955,0.12806837,-0.08016258,-0.1770414,1.0130758,1.7056164
-0.2,0.10000000000000003,1.4999999999999998,-0.5235987755982988,0.5235987755982988,0,0.8456974,0.61993504,1.3691952,0.45581326,0.08273278,0.52333593,0.61247176,0.65199107,1.1739178,0.19704182,0.012973996,0.26628342,1.1495792,1.2217214
-0.2,0.10000000000000003,1.4999999999999998,-0.5235987755982988,0.5235987755982988,0,0.84613264,0.62172574,1.3690931,0.4579825,0.08794637,0.50587523,-0.9591512,0.99064434,1.2813413,-0.0070924168,-0.046189908,0.21053118,0.97614944,0.22052824
-0.2,0.10000000000000003,1.4999999999999998,-0.5235987755982988,0.5235987755982988,0,0.8460715,0.6208278,1.3686203,0.45742145,0.078253604,0.5193968,0.642005,-0.33430833,1.4648063,-0.22640565,-0.16058433,-0.25601977,1.0029587,0.16546088
-0.2,0.10000000000000003,1.4999999999999998,-0.5235987755982988,0.5235987755982988,0,0.84593296,0.62234205,1.3685235,0.4560125,0.0766131,0.5199974,-1.711232,-0.14277719,1.2679325,0.02399363,-0.12601978,0.08342752,1.164875,-0.82066244
-0.2,0.10000000000000003,1.4999999999999998,-0.5235987755982988,0.5235987755982988,0,0.845737,0.62265885,1.368702,0.45662153,0.07793155,0.5234097,-0.41014823,0.41612574,1.325121,0.009260819,-0.17897597,-0.09292352,1.2194239,0.17604136
-0.2,0.10000000000000003,1.4999999999999998,-0.5235987755982988,0.5235987755982988,0,0.8466413,0.621962,1.3691634,0.4582506,0.085994005,0.51933926,-0.79416054,-1.0060294,1.382708,0.15695398,-0.10637358,-0.007832056,1.0430604,1.2207406
-0.2,0.10000000000000003,1.4999999999999998,-0.5235987755982988,0.5235987755982988,0,0.845313,0.6225608,1.3689858,0.45774677,0.08955499,0.52058315,-1.5015464,-0.08018209,1.1697648,0.06254899,-0.042488083,0.20448293,1.2012225,-0.25853226
-0.2,0.10000000000000003,1.4999999999999998,-0.5235987755982988,0.5235987755982988,0,0.84597206,0.6216553,1.3697689,0.45763344,0.09003478,0.5120443,-1.2980593,1.4845862,1.1490552,0.028864091,-0.1789502,0.40284747,1.325312,-0.8874296
-0.2,0.10000000000000003,1.4999999999999998,-0.5235987755982988,0.5235987755982988,0,0.8457997,0.6218223,1.3688706,0.4575644,0.07192026,0.5258426,-0.2688673,-0.38083276,1.3339589,0.5072988,-0.24366845,-0.09708097,1.0827956,0.4664415
-0.2,0.10000000000000003,1.4999999999999998,-0.5235987755982988,0.5235987755982988,0,0.8460998,0.62150156,1.3690841,0.4569634,0.08604265,0.5070916,0.11905569,-0.23136026,1.4639089,0.0133497855,0.08835929,0.15448768,1.0801862,-0.7992302
-0.2,0.10000000000000003,1.4999999999999998,-0.5235987755982988,0.5235987755982988,0,0.8456955,0.6227103,1.3694717,0.45667958,0.082098335,0.51901644,-1.3402283,-0.017129164,1.4208592,-0.003837823,-0.0182777,-0.17962886,1.2344295,0.27196217
-0.2,0.10000000000000003,1.4999999999999998,-0.5235987755982988,0.5235987755982988,0,0.84524876,0.62109697,1.3701223,0.4574748,0.07312842,0.52188206,-0.28773192,0.6898009,1.263921,0.20106834,-0.08455946,0.7596683,0.9927764,-0.07262413
-0.2,0.10000000000000003,1.4999999999999998,-0.5235987755982988,0.5235987755982988,0,0.84477997,0.6222816,1.369008,0.45879602,0.08230848,0.5150691,-0.39154175,-1.368899,1.3908725,-0.23131344,-0.056959078,0.04008051,1.0942862,-0.7146403
-0.2,0.10000000000000003,1.4999999999999998,-0.5235987755982988,0.5235987755982988,0,0.84608114,0.6228023,1.3688453,0.45823857,0.07701668,0.5092603,-1.3148739,-0.50636464,1.4521912,0.3275228,-0.13806166,0.14017938,1.025404,0.012691131
-0.2,0.10000000000000003,1.4999999999999998,-0.5235987755982988,0.5235987755982988,0,0.84508526,0.62125874,1.369722,0.4595659,0.07484144,0.5135056,-2.5220308,-0.8875668,1.5147208,0.029758044,-0.0661465,0.036534745,1.0465559,0.44914618
-0.2,0.10000000000000003,1.4999999999999998,-0.5235987755982988,0.5235987755982988,0,0.8458114,0.6234998,1.3700669,0.4575107,0.084775366,0.5115373,-1.6008717,0.67484033,1.1045003,-0.119618736,-0.06809565,0.2766315,1.2507097,1.0282733
-0.2,0.10000000000000003,1.4999999999999998,-0.5235987755982988,0.5235987755982988,0,0.8463481,0.62078446,1.3690958,0.45769498,0.08628097,0.52211785,-1.4580271,0.28895935,1.5351112,0.026589008,-0.01062482,-0.14554942,1.2123964,0.3274929
-0.2,0.10000000000000003,1.4999999999999998,-0.5235987755982988,0.5235987755982988,0,0.8456453,0.6209623,1.3694394,0.4582877,0.08396176,0.5139916,-0.6874541,0.27559137,1.2607201,0.14824575,-0.098823026,-0.16612762,1.0901481,-0.4587964
-0.2,0.10000000000000003,1.4999999999999998,-0.5235987755982988,0.5235987755982988,0,0.84570783,0.62061447,1.3696108,0.45781702,0.077230014,0.5220598,-1.7012005,0.27979726,1.3815571,0.024932569,-0.10971151,0.59287125,1.0136919,0.51099986
-0.2,0.10000000000000003,1.4999999999999998,-0.5235987755982988,0.5235987755982988,0,0.84610444,0.62192035,1.3686885,0.45621556,0.07930832,0.52209735,0.92356634,0.8687462,1.1729367,0.3262865,0.06360359,-0.07675032,1.2173324,0.5378071
-0.2,0.10000000000000003,1.4999999999999998,-0.5235987755982988,0.5235987755982988,0,0.8458677,0.62235105,1.3694835,0.457567,0.08959354,0.51812243,-0.82184947,0.47935545,1.3450763,0.0404838,-0.017334439,-0.03456493,1.2552053,1.3524731
-0.2,0.10000000000000003,1.4999999999999998,-0.5235987755982988,0.5235987755982988,0,0.846181,0.6216751,1.369558,0.45793355,0.08285964,0.5175702,0.43107533,0.05915065,1.503621,-0.29022387,-0.08459247,-0.16283081,1.1878327,1.6132946
-0.2,0.10000000000000003,1.4999999999999998,-0.5235987755982988,0.5235987755982988,0,0.8460358,0.62080765,1.3696703,0.45800915,0.08305146,0.51845217,0.20589395,-0.8317083,1.3654325,0.040137004,0.02905947,0.52946466,1.111081,0.2813625
-0.2,0.10000000000000003,1.4999999999999998,-0.5235987755982988,0.5235987755982988,0,0.8455339,0.6204454,1.3691714,0.45809734,0.07656209,0.5155674,-0.24525051,-0.49779367,1.6073378,-0.008989117,-0.0950317,-0.040309865,1.2781453,1.1358399
-0.2,0.10000000000000003,1.4999999999999998,-0.5235987755982988,0.5235987755982988,0,0.845991,0.6217799,1.3701075,0.4561075,0.08839442,0.5189305,1.5313952,-1.2277199,1.4429705,0.14090773,0.1063211,0.11807767,0.9707455,0.48478997
-0.2,0.10000000000000003,1.4999999999999998,-0.5235987755982988,0.5235987755982988,0,0.8456969,0.6213663,1.3698624,0.4577073,0.080095544,0.5188208,-0.8329781,-0.0117609035,1.2304851,0.2748471,0.07221686,-0.10947964,1.256995,-0.3796112
-0.2,0.10000000000000003,1.4999999999999998,-0.5235987755982988,0.5235987755982988,0,0.84573114,0.6203905,1.3700433,0.4570371,0.07854147,0.5189961,0.1343991,-0.8441999,1.4672391,0.04616033,-0.04283032,0.16370815,1.1001338,0.04151608
-0.2,0.10000000000000003,1.4999999999999998,-0.5235987755982988,0.5235987755982988,0,0.84521884,0.6203391,1.3691701,0.4580045,0.09105474,0.5288656,-0.863564,0.40509427,1.091114,-0.0949227,0.015450887,0.056297515,1.190553,0.6584864
-0.2,0.10000000000000003,1.4999999999999998,-0.5235987755982988,0.5235987755982988,0,0.84562093,0.61969435,1.3682954,0.4577785,0.08573595,0.52411133,0.17893495,0.46695054,1.0032444,0.08859248,-0.19544467,0.2636577,1.144596,-0.5294997
-0.2,0.10000000000000003,1.4999999999999998,-0.5235987755982988,0.5235987755982988,0,0.8456598,0.6212313,1.3684686,0.45746145,0.079496585,0.5168917,-0.4189728,0.30536538,1.1096119,-0.1208157,-0.117527716,-0.039987396,1.1548688,-0.740785
-0.2,0.10000000000000003,1.4999999999999998,-0.5235987755982988,0.5235987755982988,0,0.8457252,0.6213811,1.3694575,0.45855528,0.083366826,0.51709855,1.2100457,-0.6905927,1.1641937,0.10590166,-0.030384293,0.084750235,1.136626,-0.4727349
-0.2,0.10000000000000003,1.4999999999999998,-0.5235987755982988,0.5235987755982988,0,0.8460632,0.62230015,1.3693994,0.45883277,0.07761665,0.51161784,0.6533609,-0.12702213,1.3198161,0.14227778,-0.13436218,0.31892297,1.0589049,-0.87609935
-0.2,0.10000000000000003,1.4999999999999998,-0.5235987755982988,0.5235987755982988,0,0.84600765,0.6204428,1.3689877,0.45784986,0.077741906,0.5171864,0.8860756,-0.2776378,1.217732,-0.108749636,-0.07008987,0.048515696,1.2098627,-0.027703565
-0.2,0.10000000000000003,1.4999999999999998,-0.5235987755982988,0.5235987755982988,0,0.8467054,0.62169635,1.3695155,0.4574188,0.08428339,0.5221184,-1.470558,-0.06487659,1.3532504,0.3035953,-0.07614715,0.32435217,1.0766344,-0.31631717
-0.2,0.10000000000000003,1.4999999999999998,-0.5235987755982988,0.5235987755982988,0,0.8469365,0.62088495,1.3691603,0.4564418,0.07601839,0.52635044,0.6484063,-0.40498528,1.2830114,0.26802292,0.0420086,-0.15400782,1.1676103,0.048727535
-0.2,0.10000000000000003,1.4999999999999998,-0.5235987755982988,0.5235987755982988,0,0.8459434,0.62184936,1.3698027,0.45740697,0.081028804,0.5119905,0.10728766,-0.38640812,1.4179684,-0.031043913,-0.124783464,-0.050252646,0.96704537,0.25240767
-0.2,0.10000000000000003,1.4999999999999998,-0.5235987755982988,0.5235987755982988,0,0.8456132,0.62052155,1.3688059,0.45746538,0.07569481,0.51720935,-0.57340276,-0.36162326,1.3223051,0.21086758,-0.0029199775,0.1931657,0.93572813,-0.5511119
-0.2,0.10000000000000003,1.4999999999999998,-0.5235987755982988,0.5235987755982988,0,0.8463113,0.6223513,1.3693115,0.4572386,0.08015083,0.5261157,0.9093944,-0.18037283,1.31033,0.21679534,-0.2758675,0.0040771617,1.187122,-0.97979856
-0.2,0.10000000000000003,1.4999999999999998,-0.5235987755982988,0.5235987755982988,0,0.84552866,0.62202984,1.3695898,0.45653868,0.08305185,0.51750165,0.64313626,-0.3242003,1.387969,0.08026777,0.019306082,-0.37681788,1.1516281,1.3054576
-0.2,0.10000000000000003,1.4999999999999998,-0.5235987755982988,0.5235987755982988,0,0.8463332,0.6204602,1.369436,0.45661208,0.073067985,0.523105,-1.1624938,0.30099884,1.2340709,-0.11830836,0.03802784,-0.26102236,1.0439589,0.30396476
-0.2,0.10000000000000003,1.4999999999999998,-0.5235987755982988,0.5235987755982988,0,0.84646654,0.6205895,1.3694106,0.45635757,0.083560586,0.5258986,-0.1700715,-0.4153269,1.2343566,-0.051126327,-0.081643894,-0.46717125,1.124093,-0.11122744
-0.2,0.10000000000000003,1.4999999999999998,-0.5235987755982988,0.5235987755982988,0,0.8463278,0.6217338,1.3690597,0.45705244,0.08856229,0.5076928,0.14709939,-0.27977756,1.5708634,0.28106216,-0.025507199,0.14247039,1.1327164,-0.7198952
-0.2,0.10000000000000003,1.4999999999999998,-0.5235987755982988,0.5235987755982988,0,0.8456104,0.6207597,1.3690048,0.45850694,0.079480894,0.51484585,0.27319428,-0.7002161,1.3524351,0.20697388,0.021949915,0.05059892,1.2094544,1.8227817
-0.2,0.10000000000000003,1.4999999999999998,-0.5235987755982988,0.5235987755982988,0,0.84662575,0.6212659,1.3693966,0.45739448,0.077553384,0.52444744,-1.4988666,0.01222591,1.3969506,0.19336945,0.044253293,-0.46333772,1.2227478,-0.7843455
-0.2,0.10000000000000003,1.4999999999999998,-0.5235987755982988,0.5235987755982988,0,0.8464468,0.62141365,1.3695205,0.45669433,0.07666356,0.5253208,-0.20557754,-0.45324516,1.5351491,0.07273516,-0.024803612,-0.0063971337,1.2582419,0.08682975
-0.2,0.10000000000000003,1.4999999999999998,-0.5235987755982988,0.5235987755982988,0,0.84612024,0.6218875,1.3697604,0.45847085,0.07491353,0.5165932,0.2519505,0.39047262,1.3464296,-0.07033949,-0.12192422,0.5845616,1.0159919,0.3411341
-0.2,0.10000000000000003,1.4999999999999998,-0.5235987755982988,0.5235987755982988,0,0.8457656,0.6221209,1.3698785,0.45852637,0.08095263,0.5151122,0.18563633,0.7800518,1.3162918,-0.0089065675,-0.14554466,-0.3232722,1.1167063,0.644624
-0.2,0.10000000000000003,1.4999999999999998,-0.5235987755982988,0.5235987755982988,0,0.84652954,0.62306464,1.3699843,0.4573372,0.07606113,0.5157338,-0.053052098,0.45724612,1.4854743,0.044556882,-0.016284633,0.020826327,1.0696465,-0.47062668
-0.2,0.10000000000000003,1.4999999999999998,-0.5235987755982988,0.5235987755982988,0,0.8452483,0.6218693,1.369339,0.45882338,0.07352315,0.5094843,0.2663684,-0.58373016,1.1929452,0.02303264,-0.101599835,0.2576894,1.231206,-0.65001905
-0.2,0.10000000000000003,1.4999999999999998,-0.5235987755982988,0.5235987755982988,0,0.8460481,0.62022805,1.3697042,0.45803425,0.0802413,0.52191764,-0.4055667,0.27235323,1.3231925,-0.018064735,-0.064451754,0.6651955,1.1812803,0.9950722
-0.2,0.10000000000000003,1.4999999999999998,-0.5235987755982988,0.5235987755982988,0,0.8466119,0.6215608,1.3700323,0.4569533,0.08154387,0.5248123,-0.41591048,-1.0566689,1.3607239,-0.014562139,-0.27867165,-0.027657412,1.2076812,1.4408345
-0.2,0.10000000000000003,1.4999999999999998,-0.5235987755982988,0.5235987755982988,0,0.8463184,0.62111527,1.3692815,0.45721713,0.082070254,0.5211909,-0.39560527,0.34030795,1.2116499,0.0274889,0.047591776,0.32638782,1.1747477,-0.26976845
-0.2,0.10000000000000003,1.4999999999999998,-0.5235987755982988,0.5235987755982988,0,0.8456662,0.62133104,1.3699318,0.45786652,0.0779977,0.5168642,0.28819484,-0.22837175,1.2591472,0.04452998,0.005746896,0.16876864,1.16375,-0.099156395
-0.2,0.10000000000000003,1.4999999999999998,-0.5235987755982988,0.5235987755982988,0,0.84615153,0.6214235,1.3692205,0.45789835,0.07955775,0.518566,0.14493342,0.24908759,1.1619489,0.072167344,-0.100595415,0.47394988,1.1058073,0.41223443
-0.2,0.10000000000000003,1.4999999999999998,-0.5235987755982988,0.5235987755982988,0,0.8457324,0.61990505,1.3700573,0.45727804,0.07480308,0.5228174,0.81973284,-0.8066749,1.5154699,0.024977371,-0.092921376,-0.274934,1.0631027,-0.23844504
-0.2,0.10000000000000003,1.4999999999999998,-0.5235987755982988,0.5235987755982988,0,0.84589463,0.6205353,1.3697836,0.45765796,0.07843169,0.52712625,-1.240575,-0.5824758,1.1751342,-0.23193286,-0.038240567,-0.38947883,1.1236304,-0.39211112
-0.2,0.10000000000000003,1.4999999999999998,-0.5235987755982988,0.5235987755982988,0,0.8457808,0.62102026,1.3694412,0.45851618,0.07383127,0.52170426,-0.9901505,-0.6015339,1.401771,-0.025080033,-0.26073933,0.35004687,1.0183945,0.5489674
-0.2,0.10000000000000003,1.4999999999999998,-0.5235987755982988,0.5235987755982988,0,0.845824,0.6215002,1.3700489,0.45769358,0.07852032,0.5186942,0.3983875,-0.3359464,1.3312299,-0.15217441,-0.073094554,-0.14930648,1.2822459,0.6395631
-0.2,0.10000000000000003,1.4999999999999998,-0.5235987755982988,0.5235987755982988,0,0.8459127,0.62024677,1.3696184,0.4567951,0.075939335,0.5248403,0.4198011,0.22602907,1.3748262,-0.15414001,-0.047946427,0.042499453,1.0883327,0.6395154
-0.2,0.10000000000000003,1.4999999999999998,-0.5235987755982988,0.5235987755982988,0,0.84595066,0.6216378,1.3691405,0.45744795,0.080478325,0.52173716,0.0794879,-0.8158205,1.1643133,0.06778924,0.012041463,-0.25366506,1.1742672,0.59658366
-0.2,0.10000000000000003,1.4999999999999998,-0.5235987755982988,0.5235987755982988,0,0.8460074,0.6203158,1.3693577,0.45705846,0.07877115,0.5315801,-0.7328577,0.57599664,1.5282122,-0.18955219,-0.09466702,0.1634863,1.0340798,0.20055813
-0.2,0.10000000000000003,1.4999999999999998,-0.5235987755982988,0.5235987755982988,0,0.84577733,0.62120485,1.3691351,0.45782763,0.07664182,0.5184917,-0.15914838,-0.11377565,1.3098266,-0.336728,-0.060581986,-0.2155513,1.0106843,0.23680675
-0.2,0.10000000000000003,1.4999999999999998,-0.5235987755982988,0.5235987755982988,0,0.84599924,0.61990404,1.3692542,0.45693028,0.0788001,0.52545387,-0.5732608,0.29426104,1.3861383,0.2655028,-0.14981969,0.29384652,1.0651523,0.5909041
-0.2,0.10000000000000003,1.4999999999999998,-0.5235987755982988,0.5235987755982988,0,0.8457395,0.62051886,1.3691801,0.45965806,0.08269091,0.5428109,0.5437033,-0.98943186,1.2790251,-0.19902365,0.040733453,0.45621765,0.9839738,-0.12965249
-0.2,0.10000000000000003,1.4999999999999998,-0.5235987755982988,0.5235987755982988,0,0.8461112,0.621358,1.3692696,0.45731026,0.076409064,0.52837366,-0.31291133,0.48094139,1.450764,-0.02858319,0.0045806775,0.5457294,1.2383224,-1.6031443
-0.2,0.10000000000000003,1.4999999999999998,-0.5235987755982988,0.5235987755982988,0,0.84529394,0.62082237,1.3697917,0.45883173,0.06860648,0.5177157,-0.90175974,0.08239248,1.5174247,0.121383004,-0.09559147,0.27019295,1.1485153,0.5051948
-0.2,0.10000000000000003,1.4999999999999998,-0.5235987755982988,0.5235987755982988,0,0.84482515,0.62232435,1.3698971,0.45817098,0.07463416,0.50879145,0.1379428,0.30471182,1.3543277,-0.17951211,-0.08812519,-0.11909946,1.1672114,0.17514628
-0.2,0.10000000000000003,1.4999999999999998,-0.5235987755982988,0.5235987755982988,0,0.846325,0.6218795,1.3698454,0.4577617,0.07340696,0.5170696,0.13817017,-0.95960546,1.2211909,-0.0860797,0.015187119,-0.3090433,1.2578741,-1.2011518
-0.2,0.10000000000000003,1.4999999999999998,-0.5235987755982988,0.5235987755982988,0,0.84607846,0.62228554,1.3694212,0.4584436,0.07700596,0.51826125,0.21541247,-0.46106955,1.3612689,-0.15730369,-0.24190816,0.12007089,1.1348983,0.21317025
-0.2,0.10000000000000003,1.4999999999999998,-0.5235987755982988,0.5235987755982988,0,0.8462844,0.6214933,1.3695701,0.4576092,0.08276133,0.52133775,0.4014292,0.48200083,1.243772,-0.022244299,-0.11742717,-0.067976356,1.2106061,-0.79508454
-0.2,0.10000000000000003,1.4999999999999998,-0.5235987755982988,0.5235987755982988,0,0.8463023,0.62153214,1.3690095,0.45779917,0.072237305,0.52375567,0.14902934,0.17185229,1.359234,0.30646774,-0.06777638,-0.2557919,1.273876,-0.64869004
-0.2,0.10000000000000003,1.4999999999999998,-0.5235987755982988,0.5235987755982988,0,0.8456593,0.62121713,1.3700598,0.45761067,0.07725657,0.516418,0.14412726,-0.10826605,1.237248,0.076395944,-0.11052515,-0.5707527,1.0771692,-0.13977297
-0.2,0.10000000000000003,1.4999999999999998,-0.5235987755982988,0.5235987755982988,0,0.845687,0.6213372,1.3691264,0.45780423,0.08849455,0.52868885,-1.0364555,0.55007905,1.3538215,0.09402737,-0.060739983,0.017928272,0.9649538,-0.56038207
-0.2,0.10000000000000003,1.4999999999999998,-0.5235987755982988,0.5235987755982988,0,0.84587735,0.619642,1.3695371,0.45637017,0.08442191,0.5172748,-0.73172104,-0.46757117,1.1424191,0.03277954,0.0045777718,0.11052107,1.1746218,0.22557311
-0.2,0.10000000000000003,1.4999999999999998,-0.5235987755982988,0.5235987755982988,0,0.8455991,0.62235445,1.3688602,0.4584156,0.08092964,0.51956654,-1.3415698,0.7630013,1.2731436,-0.29543117,-0.03365659,0.112837,1.1066242,0.832228
-0.2,0.10000000000000003,1.4999999999999998,-0.5235987755982988,0.5235987755982988,0,0.84454185,0.6222931,1.3694578,0.4560698,0.075622074,0.521952,-0.31228158,0.30370086,1.2529894,0.12896186,-0.06802438,0.16628653,1.0673593,-0.5286722
-0.2,0.10000000000000003,1.4999999999999998,-0.5235987755982988,0.5235987755982988,0,0.8461588,0.6229016,1.3687679,0.45780113,0.08503034,0.51896876,-1.2232107,0.6540385,1.539067,0.1993168,-0.16738535,-0.1369786,0.9800871,0.5142314
-0.2,0.10000000000000003,1.4999999999999998,-0.5235987755982988,0.5235987755982988,0,0.84545934,0.6221634,1.368813,0.4583042,0.08547897,0.51277757,-1.3249362,0.081314534,1.3653351,-0.029010644,-0.08341696,0.1460853,0.9975317,0.0014153458
-0.2,0.10000000000000003,1.4999999999999998,-0.5235987755982988,0.5235987755982988,0,0.8457943,0.62216616,1.3701217,0.45739925,0.08594273,0.5160667,-0.83296543,0.003956393,1.3142234,0.534938,-0.062710024,0.91796315,1.058703,0.7147128
-0.2,0.10000000000000003,1.4999999999999998,-0.5235987755982988,0.5235987755982988,0,0.84584314,0.6202441,1.3691051,0.4577017,0.083864205,0.5144586,0.19795111,-0.83450985,1.2314799,-0.009284786,-0.078393534,0.043909587,1.33307,0.42363626
-0.2,0.10000000000000003,1.4999999999999998,-0.5235987755982988,0.5235987755982988,0,0.84532946,0.62239206,1.3695803,0.4575549,0.07764282,0.5214375,0.52089244,0.6436324,1.1717737,0.11752356,-0.10029524,0.22234996,1.1257573,0.3937581
-0.2,0.10000000000000003,1.4999999999999998,-0.5235987755982988,0.5235987755982988,0,0.84621453,0.6232378,1.3688515,0.4573442,0.07655436,0.5114627,1.440759,0.026890354,1.394064,0.06205903,-0.10964997,-0.07475192,1.109854,-0.7979901
-0.2,0.10000000000000003,1.4999999999999998,-0.5235987755982988,0.5235987755982988,0,0.84594536,0.62145364,1.3700124,0.45689017,0.08356571,0.5168947,-0.4540341,-0.12232997,1.1320698,-0.2149993,-0.15707803,0.7340692,1.035856,-0.67951965
-0.2,0.10000000000000003,1.4999999999999998,-0.5235987755982988,0.5235987755982988,0,0.846179,0.6238651,1.3700011,0.45774817,0.07463049,0.5160216,0.39952838,0.9973581,1.2762599,0.22808963,-0.103773125,-0.053235795,1.1464427,0.773037
-0.2,0.10000000000000003,1.4999999999999998,-0.5235987755982988,0.5235987755982988,0,0.8457782,0.62056345,1.3694606,0.45802233,0.087619,0.5085729,0.6666959,0.37959734,1.0140786,0.23985237,-0.029998027,-0.2774201,1.2305559,0.045700148
-0.2,0.10000000000000003,1.4999999999999998,-0.5235987755982988,0.5235987755982988,0,0.84502023,0.6214461,1.3687356,0.45764112,0.08059883,0.5074188,-0.63662696,-0.21680403,1.0117813,0.15833877,-0.0659843,0.5593386,1.0738466,-1.2321353
-0.2,0.10000000000000003,1.4999999999999998,-0.5235987755982988,0.5235987755982988,0,0.8456598,0.62201685,1.3690759,0.45960957,0.078930564,0.5200193,0.1861624,0.5711439,1.3377136,-0.09119194,0.021012751,0.23627822,1.0521001,0.58039564
-0.2,0.10000000000000003,1.4999999999999998,-0.5235987755982988,0.5235987755982988,0,0.8459978,0.61994207,1.368599,0.45859128,0.079615936,0.50073284,0.64044803,-0.025290916,1.3345207,-0.08359893,-0.036919087,-0.35037425,1.0817977,-0.22907576
-0.2,0.10000000000000003,1.4999999999999998,-0.5235987755982988,0.5235987755982988,0,0.8463537,0.6232622,1.3694116,0.45732778,0.08035589,0.53063047,-1.3602216,0.86641544,1.0364859,0.42518306,0.10782892,0.17929293,1.0993925,-0.4919493
-0.2,0.10000000000000003,1.4999999999999998,-0.5235987755982988,0.5235987755982988,0,0.84614897,0.61992264,1.3689018,0.45781118,0.075051084,0.5131592,0.47561565,0.0015337798,1.195274,-0.13294077,-0.15613043,0.61424834,1.2341542,-0.75313777
-0.2,0.10000000000000003,1.4999999999999998,-0.5235987755982988,0.5235987755982988,0,0.84584373,0.62051207,1.368063,0.45792022,0.08856567,0.5237004,-1.0514184,0.08252472,1.3210287,0.08225284,-0.05261437,-0.30929422,1.1250616,-0.21766376
-0.2,0.10000000000000003,1.4999999999999998,-0.5235987755982988,0.5235987755982988,0,0.84549004,0.6219368,1.3699847,0.45653227,0.07207213,0.5193413,-0.58319974,-0.84198207,1.1517692,0.1130042,-0.007911171,0.36380312,1.0364523,-0.94080895
-0.2,0.10000000000000003,1.4999999999999998,-0.5235987755982988,0.5235987755982988,0,0.84531623,0.62085754,1.3697579,0.45864332,0.07000259,0.5189974,1.8435541,0.09917228,1.3373703,0.052026942,-0.18581851,0.018093033,1.1066978,0.26565933
-0.2,0.10000000000000003,1.4999999999999998,-0.5235987755982988,0.5235987755982988,0,0.84541243,0.6223396,1.3687779,0.4564227,0.0756263,0.516381,0.9482859,-0.30555403,1.102791,-0.00861884,-0.19846536,0.2974357,1.0771431,1.3096563
-0.2,0.10000000000000003,1.4999999999999998,-0.5235987755982988,0.5235987755982988,0,0.8460801,0.62091714,1.3696179,0.45823458,0.07741326,0.5151941,0.6673144,-0.45792398,1.041367,-0.054846752,-0.0077848253,0.5047752,1.2435156,0.18589371
-0.2,0.10000000000000003,1.4999999999999998,-0.5235987755982988,0.5235987755982988,0,0.845271,0.6213014,1.3705559,0.4557275,0.08174563,0.51997495,0.6295554,-0.6634343,1.1622977,0.116587125,-0.20761952,0.026278235,1.2554663,-1.2068913
