sanky1234/BimanualDexCatch/isaacgymenvs/cem_results/football_pose_-0.2_-0.2_1.1999999999999997_0.0_-0.5235987755982988_0_2025-05-24.csv
x,y,z,roll,pitch,yaw,robot1/joint1,robot1/joint2,robot1/joint3,robot1/joint4,robot1/joint5,robot1/joint6,robot1/joint7,robot2/joint1,robot2/joint2,robot2/joint3,robot2/joint4,robot2/joint5,robot2/joint6,robot2/joint7
-0.2,-0.2,1.1999999999999997,0.0,-0.5235987755982988,0,0.919532,1.1509825,-0.040655937,0.0021595994,0.023427848,0.91056764,-1.2465365,-1.1538454,0.4296887,-1.0662673,0.3521516,0.11016242,0.3330433,-0.18435118
-0.2,-0.2,1.1999999999999997,0.0,-0.5235987755982988,0,1.3242342,1.3398741,0.26495403,0.006279537,0.048864383,1.1700817,-0.62638056,-1.15196,0.4269556,-1.0678053,0.35181496,0.10515994,0.33539116,-0.20015389
-0.2,-0.2,1.1999999999999997,0.0,-0.5235987755982988,0,-0.15985613,1.1846067,-0.49637902,-0.06195664,-0.10684739,1.2194415,-0.7007241,-1.1520185,0.42643693,-1.0653692,0.35258618,0.113147736,0.33613253,-0.14548458
-0.2,-0.2,1.1999999999999997,0.0,-0.5235987755982988,0,0.5039728,1.5730257,-0.13025309,0.14769833,0.2031612,1.1128092,-0.1475995,-1.1522743,0.42630503,-1.0675629,0.3524332,0.11219379,0.3388729,-0.14175028
-0.2,-0.2,1.1999999999999997,0.0,-0.5235987755982988,0,0.99065316,0.99602145,-0.58815026,0.0075372853,-0.36671486,1.0611925,-0.3583027,-1.151664,0.4307123,-1.0671554,0.3545197,0.11460178,0.33647543,-0.19864641
-0.2,-0.2,1.1999999999999997,0.0,-0.5235987755982988,0,0.7822177,1.1593109,-0.032522153,-0.12961648,0.16704811,1.1143968,-0.45969206,-1.1531943,0.42902517,-1.0663093,0.35299364,0.112635255,0.33265755,-0.13814695
-0.2,-0.2,1.1999999999999997,0.0,-0.5235987755982988,0,-0.15060163,0.77477825,0.2021317,-0.098688126,0.5632296,0.99326205,-0.6641491,-1.151699,0.42803255,-1.0678341,0.35360962,0.114371136,0.33590537,-0.18008031
-0.2,-0.2,1.1999999999999997,0.0,-0.5235987755982988,0,0.7333733,1.2068567,0.15422153,0.17768663,-0.006116069,1.3940405,0.5666374,-1.1520283,0.42872867,-1.0660801,0.35274914,0.11059938,0.3323867,-0.12785615
-0.2,-0.2,1.1999999999999997,0.0,-0.5235987755982988,0,0.62290555,0.94666773,-0.15426187,-0.07741765,-0.12822631,1.3303807,-0.2424317,-1.1534115,0.42728743,-1.0646722,0.3529152,0.10956284,0.33691242,-0.14459215
-0.2,-0.2,1.1999999999999997,0.0,-0.5235987755982988,0,0.4761651,1.1568643,-0.24363226,-0.010570472,0.69278026,0.9577167,-1.2933476,-1.1528509,0.42765936,-1.0669584,0.3532445,0.11391299,0.3372973,-0.17134264
-0.2,-0.2,1.1999999999999997,0.0,-0.5235987755982988,0,0.3438518,1.133537,0.11418894,-0.01122881,-0.124774255,1.1438439,-1.0331334,-1.1519696,0.427924,-1.0677096,0.353235,0.114361405,0.3320454,-0.17593408
-0.2,-0.2,1.1999999999999997,0.0,-0.5235987755982988,0,0.2086805,1.638833,-0.34034005,0.14962041,-0.34665343,1.1866081,-0.8832648,-1.1520212,0.42849702,-1.0663863,0.3528717,0.10912804,0.33727977,-0.13783678
-0.2,-0.2,1.1999999999999997,0.0,-0.5235987755982988,0,-0.040144935,1.1273968,0.1968625,0.10491991,0.26846886,1.2001615,-0.5502878,-1.1523479,0.4294078,-1.0681013,0.35335544,0.108836494,0.33907294,-0.13744365
-0.2,-0.2,1.1999999999999997,0.0,-0.5235987755982988,0,-0.2998303,1.2258499,-0.0023915682,-0.045014337,-0.21546173,1.1176149,0.27634627,-1.1535598,0.42578968,-1.0673547,0.3530102,0.108438,0.3383551,-0.16691887
-0.2,-0.2,1.1999999999999997,0.0,-0.5235987755982988,0,0.111636564,1.2617495,-0.6677125,-0.03415494,0.1891148,1.2011517,0.6254934,-1.1519736,0.4281264,-1.0667901,0.35392988,0.110225186,0.33143014,-0.15843192
-0.2,-0.2,1.1999999999999997,0.0,-0.5235987755982988,0,0.59653836,1.2234097,-0.967392,-0.016529987,-0.04800095,1.2166334,-0.06743118,-1.1512115,0.42802918,-1.0679822,0.35357013,0.11319978,0.3357149,-0.17838496
-0.2,-0.2,1.1999999999999997,0.0,-0.5235987755982988,0,0.42725953,0.7912554,0.066439286,-0.13326196,0.31451902,1.0231813,0.83709055,-1.1526414,0.4274768,-1.0679734,0.35292828,0.111818336,0.3365266,-0.15405834
-0.2,-0.2,1.1999999999999997,0.0,-0.5235987755982988,0,0.09755153,1.2727401,-0.49505937,-0.11556853,0.3356577,0.8173052,-0.12173788,-1.1530347,0.42807162,-1.0671607,0.3529303,0.10332367,0.3343258,-0.1502429
-0.2,-0.2,1.1999999999999997,0.0,-0.5235987755982988,0,0.033144947,0.9156761,-0.34735692,-0.049012184,0.025149163,1.4166049,-0.5413216,-1.1516633,0.42687258,-1.0656309,0.3526719,0.11026132,0.33460662,-0.16694565
-0.2,-0.2,1.1999999999999997,0.0,-0.5235987755982988,0,0.88780695,0.8709524,0.09645888,0.0027691084,-0.06282635,1.2736999,-0.69604605,-1.152229,0.4279467,-1.0651629,0.35309494,0.113769956,0.3335534,-0.14657037
-0.2,-0.2,1.1999999999999997,0.0,-0.5235987755982988,0,-0.05936091,1.2164568,-0.19570616,-0.102521285,0.49622184,0.89645886,0.5241804,-1.152601,0.42655227,-1.0672053,0.35168004,0.11342335,0.3381024,-0.15617827
-0.2,-0.2,1.1999999999999997,0.0,-0.5235987755982988,0,0.23958084,1.2704709,-0.14114891,-0.14187297,-0.42684534,1.1789674,-0.37873235,-1.1513886,0.42629933,-1.0646074,0.35317856,0.11470684,0.33136007,-0.12720118
-0.2,-0.2,1.1999999999999997,0.0,-0.5235987755982988,0,0.34112486,1.200064,-0.3628522,0.01555539,0.19226031,1.1953288,0.010682729,-1.1512098,0.42670983,-1.0683374,0.3522647,0.11157186,0.33731493,-0.14332074
-0.2,-0.2,1.1999999999999997,0.0,-0.5235987755982988,0,0.52066714,1.1346675,-0.70714706,-0.086854465,0.18843877,0.8192352,-0.4089882,-1.1531746,0.4276317,-1.0665028,0.35272786,0.10816508,0.33517075,-0.1707572
-0.2,-0.2,1.1999999999999997,0.0,-0.5235987755982988,0,0.13590167,0.90461236,-0.30511585,0.17940426,0.027708557,1.2048994,0.55975395,-1.1528791,0.42569196,-1.0674359,0.35303962,0.11033889,0.3363411,-0.19133689
-0.2,-0.2,1.1999999999999997,0.0,-0.5235987755982988,0,0.4552872,1.2850679,-0.31897753,0.009575381,0.49608183,0.88193274,-0.5126675,-1.1523589,0.42950067,-1.065923,0.3525398,0.11179972,0.3370321,-0.12691657
-0.2,-0.2,1.1999999999999997,0.0,-0.5235987755982988,0,0.2627464,1.3671397,-0.34832096,-0.07717401,-0.017121924,1.0682962,-0.35224953,-1.1525846,0.4255718,-1.064916,0.35199803,0.1116839,0.3370331,-0.14309554
-0.2,-0.2,1.1999999999999997,0.0,-0.5235987755982988,0,0.3084166,1.4747505,-0.6134439,-0.086469725,0.093178414,1.0536805,-1.0580835,-1.1536143,0.4296365,-1.0682337,0.352056,0.109835505,0.33599165,-0.21971099
-0.2,-0.2,1.1999999999999997,0.0,-0.5235987755982988,0,0.92317754,1.2221352,-0.31652337,0.082926184,0.45573795,0.91375023,-0.09286215,-1.151762,0.42434132,-1.0661279,0.35194442,0.1144862,0.33833116,-0.14179024
-0.2,-0.2,1.1999999999999997,0.0,-0.5235987755982988,0,0.83692425,1.2662524,-0.66847754,-0.070819795,0.03070623,1.4177247,-0.69389313,-1.1518514,0.42970031,-1.0674233,0.35232097,0.11308213,0.33861345,-0.1382907
-0.2,-0.2,1.1999999999999997,0.0,-0.5235987755982988,0,0.2480501,1.2000958,-0.41718885,-0.021048648,0.40866995,1.3100628,-0.8171902,-1.151808,0.42644405,-1.0676789,0.35232994,0.111157715,0.33661738,-0.19461994
-0.2,-0.2,1.1999999999999997,0.0,-0.5235987755982988,0,0.64824444,1.0148879,-0.6078395,-0.021361683,-0.17138162,0.89339,-0.99011916,-1.1531045,0.4282982,-1.0662901,0.35321078,0.11321333,0.33397737,-0.15365899
-0.2,-0.2,1.1999999999999997,0.0,-0.5235987755982988,0,0.025129331,1.3399224,-0.5767005,-0.017780432,-0.097381786,0.98556596,0.2596224,-1.1536448,0.4300925,-1.0641805,0.35151386,0.112258874,0.3345337,-0.12039411
-0.2,-0.2,1.1999999999999997,0.0,-0.5235987755982988,0,0.69115263,1.5029042,-0.3751407,-0.059368737,0.57380545,1.3261883,-0.9600438,-1.1522286,0.42624936,-1.0655358,0.35192448,0.11083015,0.33346877,-0.1777915
-0.2,-0.2,1.1999999999999997,0.0,-0.5235987755982988,0,0.12796143,1.0678703,-0.7594673,-0.04734158,0.111411795,0.9122415,-0.86677533,-1.1521181,0.42741838,-1.06697,0.35333833,0.10871388,0.3354405,-0.15947942
-0.2,-0.2,1.1999999999999997,0.0,-0.5235987755982988,0,0.1732455,1.071909,-0.17450403,0.061246593,0.1860472,0.7274041,0.38987574,-1.152267,0.42606887,-1.0672727,0.35228175,0.10461838,0.33795166,-0.14413142
-0.2,-0.2,1.1999999999999997,0.0,-0.5235987755982988,0,0.5833274,1.3583808,0.27508333,-0.14125092,-0.4069055,0.96927017,0.5014189,-1.1510704,0.42678878,-1.0662847,0.3529394,0.11515171,0.33735284,-0.16697364
-0.2,-0.2,1.1999999999999997,0.0,-0.5235987755982988,0,0.47164068,1.1286476,-0.8685856,-0.11890847,0.44928935,1.0811733,-0.07056335,-1.1516268,0.42708597,-1.0675642,0.3526169,0.107219934,0.33716896,-0.12876524
-0.2,-0.2,1.1999999999999997,0.0,-0.5235987755982988,0,0.76376784,1.0840805,-0.15344676,0.12306188,0.24276154,1.186109,0.03510213,-1.1519243,0.42937198,-1.065876,0.35306716,0.11169156,0.33256602,-0.16129604
-0.2,-0.2,1.1999999999999997,0.0,-0.5235987755982988,0,-0.56926215,1.2974803,-0.4449845,-0.054585665,0.24039166,1.200107,-0.07983266,-1.1545272,0.4281059,-1.0664021,0.353073,0.11073079,0.33447188,-0.18076535
-0.2,-0.2,1.1999999999999997,0.0,-0.5235987755982988,0,0.14235592,1.105229,-0.46246997,0.022076517,-0.20404343,0.79492736,-0.89361143,-1.1528342,0.43023667,-1.0662372,0.3542137,0.11203537,0.33256292,-0.1934269
-0.2,-0.2,1.1999999999999997,0.0,-0.5235987755982988,0,0.75000423,1.2143052,-0.35508218,-0.009614638,-0.033995215,1.0978303,0.34207126,-1.1521436,0.42922544,-1.065091,0.35283157,0.11777599,0.33561775,-0.12615058
-0.2,-0.2,1.1999999999999997,0.0,-0.5235987755982988,0,0.2184974,1.1795778,-0.30002102,-0.22015594,0.4224127,1.0146072,-0.28703988,-1.1542274,0.428823,-1.0656826,0.35176864,0.107457794,0.3357852,-0.12764129
-0.2,-0.2,1.1999999999999997,0.0,-0.5235987755982988,0,0.14005674,0.9206754,0.13257639,-0.008178858,-0.46570432,1.2714039,-0.6071812,-1.152099,0.42736176,-1.066586,0.35172498,0.11575574,0.3348854,-0.14096874
-0.2,-0.2,1.1999999999999997,0.0,-0.5235987755982988,0,0.03570709,1.3467509,-0.25081566,-0.08090223,0.5107717,1.2661916,-0.6568652,-1.1517411,0.42833793,-1.0685558,0.35297608,0.115635045,0.33197072,-0.08835586
-0.2,-0.2,1.1999999999999997,0.0,-0.5235987755982988,0,0.3241623,1.0078603,-0.10953151,-0.06955852,-0.05464274,1.1052551,-0.15345061,-1.1517532,0.42878363,-1.0661669,0.35321712,0.11146196,0.33628693,-0.14512493
-0.2,-0.2,1.1999999999999997,0.0,-0.5235987755982988,0,0.784162,1.0778234,-0.09487272,-0.054701503,-0.3001518,0.7574168,-0.06565276,-1.1510185,0.42577505,-1.0664754,0.3522956,0.10823302,0.33962497,-0.1836549
-0.2,-0.2,1.1999999999999997,0.0,-0.5235987755982988,0,0.4611465,1.7238196,-0.16763882,-0.06090027,0.17210044,0.89658463,0.35141963,-1.1514361,0.42835978,-1.067587,0.35235247,0.11111222,0.33187574,-0.17587599
-0.2,-0.2,1.1999999999999997,0.0,-0.5235987755982988,0,0.71053064,1.5964949,0.025809774,-0.11053501,0.37226066,1.0177429,0.27033523,-1.152125,0.42839092,-1.0657803,0.35220802,0.11113164,0.33827123,-0.15294407
-0.2,-0.2,1.1999999999999997,0.0,-0.5235987755982988,0,0.8470249,1.1111184,-0.16636431,0.04704759,-0.1795783,1.178628,-0.15387745,-1.1536216,0.42825052,-1.0645465,0.35259956,0.106758475,0.332509,-0.16992174
-0.2,-0.2,1.1999999999999997,0.0,-0.5235987755982988,0,1.0376112,1.47619,-0.010161899,0.06867247,0.19467987,0.9212905,-0.44228235,-1.1529112,0.42783985,-1.0652425,0.3522962,0.11244816,0.33615136,-0.17109852
-0.2,-0.2,1.1999999999999997,0.0,-0.5235987755982988,0,-0.346651,1.4740802,-0.2432647,-0.0079491865,0.18245944,1.0072677,0.669459,-1.1525617,0.42815354,-1.0671506,0.35225126,0.11627316,0.3375604,-0.12681977
-0.2,-0.2,1.1999999999999997,0.0,-0.5235987755982988,0,-0.06956091,0.96716917,-0.26769772,-0.18480241,0.29681784,1.1153258,-0.35377973,-1.1532562,0.42535752,-1.0680294,0.35212103,0.11037176,0.33057725,-0.11473195
-0.2,-0.2,1.1999999999999997,0.0,-0.5235987755982988,0,0.7299107,1.1862239,-0.7049662,-0.041504376,-0.14033438,1.1618623,0.6488635,-1.1525223,0.42892832,-1.0670167,0.35378805,0.11087781,0.3354206,-0.10715648
-0.2,-0.2,1.1999999999999997,0.0,-0.5235987755982988,0,0.4170511,0.87304074,-0.15428281,-0.0027707967,0.16805187,1.2904525,0.032836027,-1.1500906,0.42709816,-1.0664431,0.3525286,0.11233775,0.33795404,-0.10093331
-0.2,-0.2,1.1999999999999997,0.0,-0.5235987755982988,0,0.81393516,1.3089807,-0.5025994,-0.022843007,-0.23574162,1.0195521,0.6724553,-1.1530433,0.4280964,-1.0671836,0.35288054,0.11004119,0.33669445,-0.15515698
-0.2,-0.2,1.1999999999999997,0.0,-0.5235987755982988,0,1.0727247,1.4126858,-0.059816297,-0.13472055,0.06128848,0.8777386,0.782091,-1.1524807,0.4283326,-1.0669008,0.35287008,0.11071431,0.3384618,-0.18554758
-0.2,-0.2,1.1999999999999997,0.0,-0.5235987755982988,0,0.13953546,1.1363171,-0.0002795161,0.046979398,0.12120991,0.9122828,-0.04838473,-1.1527561,0.42434776,-1.0673301,0.3523085,0.109175,0.3328078,-0.18587309
-0.2,-0.2,1.1999999999999997,0.0,-0.5235987755982988,0,0.83606136,1.1990179,-0.3536649,-0.06218728,0.39462262,1.2429054,-0.09526977,-1.1527916,0.42595765,-1.064556,0.35244164,0.11155907,0.3366172,-0.14377786
-0.2,-0.2,1.1999999999999997,0.0,-0.5235987755982988,0,0.7749687,1.2989501,0.07335577,0.07410775,0.41314757,1.3063633,0.02883863,-1.1526659,0.42796966,-1.0662675,0.35174793,0.11015161,0.3360482,-0.15262958
-0.2,-0.2,1.1999999999999997,0.0,-0.5235987755982988,0,1.1016868,1.103821,-0.41722345,-0.02841769,-0.11028584,1.1758112,-0.8223249,-1.1522151,0.42769843,-1.0685323,0.35174677,0.105781116,0.33655447,-0.15672731
-0.2,-0.2,1.1999999999999997,0.0,-0.5235987755982988,0,-0.10227464,0.9302772,-0.41789976,-0.07607722,-0.28657368,1.0478594,0.3912987,-1.1519961,0.42536643,-1.068043,0.35333937,0.11158166,0.33543614,-0.16491756
-0.2,-0.2,1.1999999999999997,0.0,-0.5235987755982988,0,0.4002414,1.2066116,0.49866164,0.11125902,0.26490146,1.0874906,-0.7205362,-1.1512406,0.42797238,-1.0669311,0.3527681,0.11171962,0.33495963,-0.12121949
-0.2,-0.2,1.1999999999999997,0.0,-0.5235987755982988,0,-0.0705971,1.2600665,-0.3158791,-0.028338822,-0.29652652,0.9399754,-1.0802548,-1.1520357,0.42905915,-1.0681589,0.35127816,0.11245887,0.33621797,-0.1665336
-0.2,-0.2,1.1999999999999997,0.0,-0.5235987755982988,0,0.1513853,0.9082989,-0.25572497,-0.009474163,-0.24324636,0.879085,-1.0918049,-1.1531633,0.42712796,-1.066936,0.3522626,0.11389826,0.33505785,-0.18949322
-0.2,-0.2,1.1999999999999997,0.0,-0.5235987755982988,0,0.55500406,1.057592,-0.035348088,-0.058545087,0.25832438,0.8036414,-0.025873426,-1.1520969,0.42799622,-1.0649875,0.35305408,0.11636875,0.33785197,-0.1568708
-0.2,-0.2,1.1999999999999997,0.0,-0.5235987755982988,0,0.625315,1.1366948,-0.27544126,0.042563964,-0.015085845,1.1476512,-0.77919436,-1.1522334,0.4285912,-1.0661443,0.35314837,0.11092213,0.33426842,-0.1683048
-0.2,-0.2,1.1999999999999997,0.0,-0.5235987755982988,0,0.7421162,1.501782,0.2377819,-0.059394836,0.04177307,0.88270146,-0.46531272,-1.150038,0.42704448,-1.0657152,0.35087904,0.11399986,0.33592862,-0.123685166
-0.2,-0.2,1.1999999999999997,0.0,-0.5235987755982988,0,1.2788866,0.83845335,-0.22160707,0.06107862,0.29546654,1.135047,0.43571737,-1.1524918,0.42869198,-1.0670675,0.35267133,0.11354873,0.33468765,-0.2097155
-0.2,-0.2,1.1999999999999997,0.0,-0.5235987755982988,0,0.94970393,1.0912509,-0.4734843,-0.038156096,-0.2400502,1.0514145,0.0705627,-1.1534203,0.42697096,-1.0663753,0.35303363,0.11303508,0.337756,-0.16025561
-0.2,-0.2,1.1999999999999997,0.0,-0.5235987755982988,0,0.21967295,1.3573672,0.04324258,-0.14428201,0.15226573,0.8168399,-0.16003251,-1.1538455,0.4298487,-1.0657572,0.3528284,0.11061551,0.33295384,-0.2192687
-0.2,-0.2,1.1999999999999997,0.0,-0.5235987755982988,0,0.38000977,1.0108478,0.59808695,-0.015993338,0.24180484,0.9856753,0.37100357,-1.154181,0.4280018,-1.0673305,0.3528328,0.11174356,0.33625358,-0.1393945
-0.2,-0.2,1.1999999999999997,0.0,-0.5235987755982988,0,0.6957656,1.166885,0.011189704,0.037809588,0.17731814,0.97019833,0.17350899,-1.1544871,0.42851126,-1.0678681,0.3517297,0.11159233,0.3356716,-0.106857255
-0.2,-0.2,1.1999999999999997,0.0,-0.5235987755982988,0,0.43766704,1.1838081,-0.5166528,-0.07056653,-0.119295396,1.2521334,0.22509186,-1.1526096,0.42931178,-1.0679194,0.35240334,0.10963374,0.33856246,-0.14504789
-0.2,-0.2,1.1999999999999997,0.0,-0.5235987755982988,0,0.3525854,0.9382417,-0.563933,-0.13920395,0.24789725,0.9481219,-1.1499107,-1.1518832,0.43050233,-1.0686388,0.35211903,0.1116234,0.33393598,-0.16236575
-0.2,-0.2,1.1999999999999997,0.0,-0.5235987755982988,0,-0.055365663,1.1317984,-0.34211358,-0.027182627,0.3465065,1.0450778,0.13149548,-1.1518271,0.43034077,-1.0670402,0.35305163,0.10763083,0.3374692,-0.15574975
-0.2,-0.2,1.1999999999999997,0.0,-0.5235987755982988,0,1.1719555,1.3021258,-0.4422701,-0.044947363,0.07252497,1.0764046,0.68973684,-1.1525773,0.42843074,-1.0663701,0.35386318,0.115070336,0.33621806,-0.1859879
-0.2,-0.2,1.1999999999999997,0.0,-0.5235987755982988,0,0.76775,1.5576224,-0.057476528,-0.008729488,0.0099040475,1.141611,-0.720015,-1.153414,0.4287906,-1.0659835,0.35355935,0.10644208,0.33243462,-0.22456041
-0.2,-0.2,1.1999999999999997,0.0,-0.5235987755982988,0,0.4676636,1.2381164,-0.32667163,-0.037734818,0.0035482724,0.82435584,-0.26373544,-1.1521465,0.42890662,-1.0669471,0.35312513,0.11360965,0.33576846,-0.15395115
-0.2,-0.2,1.1999999999999997,0.0,-0.5235987755982988,0,0.8062222,0.8825896,-0.28813186,0.0796681,0.1041081,1.1603272,-1.2663547,-1.1514362,0.4255411,-1.0656092,0.35270923,0.113662064,0.33270022,-0.19188744
-0.2,-0.2,1.1999999999999997,0.0,-0.5235987755982988,0,0.03911242,1.23451,0.038426224,2.3925326e-05,0.20714375,1.2550821,-0.06081815,-1.1538575,0.42812395,-1.0664482,0.35234034,0.10991049,0.33624908,-0.14583832
-0.2,-0.2,1.1999999999999997,0.0,-0.5235987755982988,0,0.11094977,1.2056689,-0.37785733,0.030863535,-0.057967,1.1189532,0.50974464,-1.1524553,0.42597193,-1.0669603,0.3518865,0.112838924,0.33662084,-0.14959823
-0.2,-0.2,1.1999999999999997,0.0,-0.5235987755982988,0,-0.0032053995,0.8112911,-0.22544965,0.017304692,0.0485747,1.3380849,-0.8919332,-1.1523138,0.42817998,-1.0663313,0.35101536,0.10901179,0.33776304,-0.1566038
-0.2,-0.2,1.1999999999999997,0.0,-0.5235987755982988,0,-0.50678647,1.2237424,-0.6327821,-0.06574996,0.67412513,1.0441712,0.43024695,-1.1514915,0.4298207,-1.0670847,0.35248673,0.113213435,0.33645612,-0.13833928
-0.2,-0.2,1.1999999999999997,0.0,-0.5235987755982988,0,1.330586,1.3023351,-0.14982896,-0.07824633,0.41714227,0.8428896,-0.6572722,-1.1516616,0.42815423,-1.0653192,0.3532339,0.10820157,0.33390388,-0.14773215
-0.2,-0.2,1.1999999999999997,0.0,-0.5235987755982988,0,0.116688825,1.6101199,-0.27966633,-0.039480492,0.059477277,1.120447,-0.048447937,-1.1528088,0.42707837,-1.0652168,0.35165668,0.1125246,0.33648244,-0.17952019
-0.2,-0.2,1.1999999999999997,0.0,-0.5235987755982988,0,0.94477665,1.1389978,0.12220577,0.046523836,0.34742966,1.1504439,-0.57487184,-1.1516166,0.42925954,-1.0662812,0.35268372,0.114342846,0.33587334,-0.19818878
-0.2,-0.2,1.1999999999999997,0.0,-0.5235987755982988,0,0.84927833,0.956785,-0.43860838,-0.08743699,0.20744358,1.0661306,0.5428289,-1.1543351,0.4275622,-1.0675279,0.3520386,0.111548014,0.33892557,-0.1638334
-0.2,-0.2,1.1999999999999997,0.0,-0.5235987755982988,0,0.1871268,1.352377,-0.76771057,-0.007789336,0.15594648,0.97265595,0.6860467,-1.1519641,0.4276385,-1.0672339,0.35251078,0.11250674,0.3328298,-0.15243389
-0.2,-0.2,1.1999999999999997,0.0,-0.5235987755982988,0,0.59665185,1.2638195,-0.6285317,-0.09466535,0.3947635,0.9875711,0.2486418,-1.1529871,0.42500338,-1.065791,0.35230646,0.11137527,0.3324405,-0.17348972
-0.2,-0.2,1.1999999999999997,0.0,-0.5235987755982988,0,0.16645584,1.3551676,0.1869123,-0.102244124,0.053546447,1.153828,0.36397648,-1.1527692,0.42693937,-1.0671172,0.35157135,0.11226275,0.3355296,-0.13325702
-0.2,-0.2,1.1999999999999997,0.0,-0.5235987755982988,0,0.90819377,1.2922833,-0.7208112,-0.101395264,-0.18248534,1.1055968,0.40970477,-1.1527106,0.4273663,-1.0675112,0.35281616,0.11376115,0.33825034,-0.16063641
-0.2,-0.2,1.1999999999999997,0.0,-0.5235987755982988,0,0.8404718,1.3834413,-0.39250493,-0.15985216,0.11193408,1.1778733,0.88689476,-1.1533691,0.42836913,-1.0677024,0.3532462,0.11269168,0.3335104,-0.16746308
-0.2,-0.2,1.1999999999999997,0.0,-0.5235987755982988,0,-0.117282726,1.0116127,-0.23112667,-0.0067685978,0.405522,0.75251365,-0.14622916,-1.1524692,0.42720664,-1.0661197,0.35310322,0.11764131,0.33499974,-0.16481924
-0.2,-0.2,1.1999999999999997,0.0,-0.5235987755982988,0,-0.27691877,1.4425583,-0.039452787,0.023487959,0.3547374,1.0205145,0.62216765,-1.1531799,0.42730883,-1.0661293,0.35221243,0.10946603,0.33717385,-0.15801507
-0.2,-0.2,1.1999999999999997,0.0,-0.5235987755982988,0,0.46684176,1.4363979,-0.40478244,-0.016845647,0.11847727,1.0225208,-0.12533742,-1.1525683,0.42715538,-1.0675054,0.35276675,0.111541495,0.3359838,-0.15366949
-0.2,-0.2,1.1999999999999997,0.0,-0.5235987755982988,0,0.22914256,1.4272064,0.08421156,0.049651403,0.044182245,1.1302375,-0.26222357,-1.1519752,0.42660874,-1.067188,0.35327163,0.109633625,0.33571005,-0.19475174
-0.2,-0.2,1.1999999999999997,0.0,-0.5235987755982988,0,1.1313138,1.2388091,0.07736526,-0.07710628,0.63814306,0.7582431,-0.6091721,-1.1519232,0.42488107,-1.0668614,0.35290122,0.11672789,0.34066868,-0.18019988
-0.2,-0.2,1.1999999999999997,0.0,-0.5235987755982988,0,0.28036362,1.024485,0.5400732,-0.12509958,0.17836809,1.1537328,1.3256996,-1.1527402,0.4285502,-1.0676234,0.35236326,0.109615065,0.33741674,-0.16024044
-0.2,-0.2,1.1999999999999997,0.0,-0.5235987755982988,0,0.37580195,1.0215322,-0.3443574,0.011664559,-0.15141036,1.0695549,-0.49315336,-1.1539356,0.42566335,-1.0653486,0.35049307,0.10527854,0.3370772,-0.1745418
-0.2,-0.2,1.1999999999999997,0.0,-0.5235987755982988,0,0.45018977,1.0749393,-0.49586296,-0.010958981,0.44235665,1.3008263,-1.2188777,-1.1539017,0.4274758,-1.0646075,0.35382253,0.10756743,0.33463427,-0.16896269
-0.2,-0.2,1.1999999999999997,0.0,-0.5235987755982988,0,0.46438277,1.1803479,0.07747948,-0.06619724,0.3453398,1.1659042,-0.7766031,-1.1524211,0.42752588,-1.0667945,0.3524689,0.1148896,0.33552036,-0.18004838
-0.2,-0.2,1.1999999999999997,0.0,-0.5235987755982988,0,0.86787283,1.2994701,-0.09275707,-0.116285756,0.403395,1.0112946,0.7191408,-1.153079,0.4285524,-1.0668488,0.35361642,0.11504854,0.3347674,-0.14545824
-0.2,-0.2,1.1999999999999997,0.0,-0.5235987755982988,0,0.19180752,1.3049009,0.04785971,0.082008794,0.19178997,1.0957396,-0.9968357,-1.1517221,0.42890733,-1.0686363,0.35177386,0.11613514,0.3406714,-0.1383161
-0.2,-0.2,1.1999999999999997,0.0,-0.5235987755982988,0,0.764952,1.2152184,-0.42233348,-0.03555852,-0.017003274,1.227513,-0.19495638,-1.1507918,0.42770907,-1.0662416,0.35301107,0.10927698,0.33368903,-0.15251653
-0.2,-0.2,1.1999999999999997,0.0,-0.5235987755982988,0,0.9080999,1.0545964,0.29538247,-0.014809559,0.1663284,0.79485935,0.0040034736,-1.1529948,0.426808,-1.0675219,0.35239747,0.11363736,0.3353145,-0.16094555
-0.2,-0.2,1.1999999999999997,0.0,-0.5235987755982988,0,0.13063,0.9262485,-0.066341035,-0.04667945,0.20383726,1.11184,-1.5652912,-1.1525245,0.4265468,-1.0657848,0.3531712,0.111894295,0.32964966,-0.13549905
-0.2,-0.2,1.1999999999999997,0.0,-0.5235987755982988,0,1.2429729,1.4466048,-0.057769783,-0.09334195,0.06910731,1.0016952,0.25594175,-1.1516671,0.4266833,-1.0658836,0.35249707,0.11105336,0.33218774,-0.16455086
-0.2,-0.2,1.1999999999999997,0.0,-0.5235987755982988,0,0.02697301,0.7741718,0.18424213,-0.019973146,0.4255968,1.0798619,0.7417818,-1.1527895,0.426521,-1.0664542,0.35301775,0.11255123,0.336435,-0.092881076
-0.2,-0.2,1.1999999999999997,0.0,-0.5235987755982988,0,0.42009774,1.150684,-0.17909098,0.14574057,0.2763973,1.2505308,0.28233877,-1.15272,0.429583,-1.0670644,0.3537108,0.11245309,0.33722436,-0.1397417
-0.2,-0.2,1.1999999999999997,0.0,-0.5235987755982988,0,0.90105003,0.99926805,-0.6030556,0.051066026,0.49502352,1.0274324,-0.4387431,-1.1531686,0.42609185,-1.0649425,0.35276872,0.108941525,0.33603066,-0.18291214
-0.2,-0.2,1.1999999999999997,0.0,-0.5235987755982988,0,0.13613863,1.3281806,-0.4239442,-0.086996384,0.19236536,1.0113901,0.01159287,-1.153214,0.4294357,-1.0645703,0.35289276,0.11262119,0.33561328,-0.16456331
-0.2,-0.2,1.1999999999999997,0.0,-0.5235987755982988,0,0.12781101,1.2461227,-0.45344564,-0.00015321633,0.030073725,0.75993156,-0.7249377,-1.1537178,0.42757687,-1.0651321,0.3536331,0.10728365,0.3341056,-0.20578255
-0.2,-0.2,1.1999999999999997,0.0,-0.5235987755982988,0,0.32547766,0.9227279,0.040367372,-0.07127769,0.36210567,1.1880331,-0.7847129,-1.1519035,0.42772582,-1.0665216,0.35307416,0.106270574,0.3334583,-0.16317815
-0.2,-0.2,1.1999999999999997,0.0,-0.5235987755982988,0,-0.017879916,1.2289253,0.066797584,-0.06614422,0.1598256,1.1899467,-0.28632757,-1.1529703,0.42710596,-1.0655931,0.351786,0.107653335,0.33013195,-0.14351796
-0.2,-0.2,1.1999999999999997,0.0,-0.5235987755982988,0,0.065830916,1.2093164,-0.42901394,-0.02073795,0.1869194,0.81598616,-0.9544623,-1.1516086,0.42514712,-1.0667753,0.3527104,0.113766424,0.33592394,-0.14828253
-0.2,-0.2,1.1999999999999997,0.0,-0.5235987755982988,0,0.035440043,1.4321252,-0.37354204,-0.21648654,-0.024490094,1.0247777,-1.0585685,-1.15291,0.4270316,-1.0670642,0.35370603,0.11352096,0.33162662,-0.13441175
-0.2,-0.2,1.1999999999999997,0.0,-0.5235987755982988,0,0.51096624,1.4040803,-0.33062106,-0.17496125,0.057118185,1.1648384,-0.5094264,-1.1532843,0.42786986,-1.0666933,0.3535495,0.11369002,0.33665562,-0.11755803
-0.2,-0.2,1.1999999999999997,0.0,-0.5235987755982988,0,0.22082949,1.229846,-0.3629379,-0.023676295,-0.13929237,0.9347052,-1.0014874,-1.1517768,0.42827576,-1.0649807,0.35134113,0.11492506,0.33292937,-0.19046572
-0.2,-0.2,1.1999999999999997,0.0,-0.5235987755982988,0,0.05245446,1.1265751,0.016951853,-0.056073874,0.14977488,1.0180215,-0.2051351,-1.1537837,0.42809853,-1.0648946,0.35180706,0.109658726,0.33563522,-0.13419667
-0.2,-0.2,1.1999999999999997,0.0,-0.5235987755982988,0,0.64811116,1.1087617,-0.7796195,-0.13222407,-0.18234028,1.0289078,-0.48257104,-1.1515929,0.4271166,-1.0664699,0.352989,0.108636014,0.33465296,-0.1727122
-0.2,-0.2,1.1999999999999997,0.0,-0.5235987755982988,0,0.120455734,1.4075313,-0.035362188,-0.092291124,0.06831556,1.0981972,-0.5218955,-1.1519686,0.42985454,-1.0663,0.35269362,0.110127375,0.3340403,-0.17422366
-0.2,-0.2,1.1999999999999997,0.0,-0.5235987755982988,0,-0.77352816,0.97206956,-0.12631258,0.13387701,-0.00497646,1.0547379,0.36168534,-1.153148,0.42716575,-1.0649327,0.3524594,0.10532961,0.332396,-0.17956966
-0.2,-0.2,1.1999999999999997,0.0,-0.5235987755982988,0,0.3780315,1.1545521,0.1187253,-0.18506014,-0.15531634,1.2492367,-0.14953879,-1.1516957,0.42932007,-1.0678952,0.35156167,0.10840065,0.33347148,-0.098867446
-0.2,-0.2,1.1999999999999997,0.0,-0.5235987755982988,0,1.3321961,1.2839874,-0.35429752,0.069262914,0.20903768,0.93973374,-0.6310862,-1.1517669,0.42683095,-1.0652411,0.35305193,0.11239147,0.33612192,-0.19432878
-0.2,-0.2,1.1999999999999997,0.0,-0.5235987755982988,0,0.49659777,1.4024937,0.054992102,-0.07839677,0.68157107,1.0641506,-0.39149278,-1.1513458,0.4264893,-1.0642341,0.353321,0.1137282,0.33316928,-0.15219437
-0.2,-0.2,1.1999999999999997,0.0,-0.5235987755982988,0,-0.048260484,1.1521156,-0.3322905,-0.019902956,-0.010248294,1.1941915,0.74049604,-1.1535523,0.4280621,-1.0653305,0.35429406,0.112662725,0.33874476,-0.1891681
-0.2,-0.2,1.1999999999999997,0.0,-0.5235987755982988,0,-0.24064521,1.1548072,-0.570985,-0.017714387,-0.15627272,1.0463775,-0.52165663,-1.1525365,0.4277474,-1.0668004,0.3523388,0.111546434,0.3352367,-0.055345338
-0.2,-0.2,1.1999999999999997,0.0,-0.5235987755982988,0,0.16134773,1.4809394,0.19446845,0.09434619,0.41817507,1.1488817,-0.34266177,-1.1519505,0.42583,-1.0668267,0.35316208,0.11503009,0.3387832,-0.13559313
-0.2,-0.2,1.1999999999999997,0.0,-0.5235987755982988,0,0.30382967,1.4886047,-0.19565831,0.062478267,0.21443923,1.055474,-0.76943976,-1.1525015,0.42815632,-1.0666392,0.3521932,0.11727192,0.33514306,-0.19632554
-0.2,-0.2,1.1999999999999997,0.0,-0.5235987755982988,0,0.67562413,0.9439193,0.23223762,0.025704298,0.24884811,1.0632252,-1.1653297,-1.1521745,0.42944425,-1.0663445,0.3526542,0.112967715,0.33770847,-0.1566105
-0.2,-0.2,1.1999999999999997,0.0,-0.5235987755982988,0,0.3485041,1.4175764,-0.3169989,-0.005201281,0.39233127,1.1503239,-0.30356902,-1.1527191,0.42870238,-1.0668572,0.35231212,0.11088148,0.34451535,-0.10772395
-0.2,-0.2,1.1999999999999997,0.0,-0.5235987755982988,0,-0.020760017,1.1319075,-0.25934607,0.02737927,-0.24350975,1.0178638,-0.3443538,-1.1515439,0.42702684,-1.0680473,0.35234976,0.11340173,0.33272415,-0.14403926
-0.2,-0.2,1.1999999999999997,0.0,-0.5235987755982988,0,0.750799,1.3575639,-0.40992492,-0.1219405,-0.13683033,0.8837702,0.31656784,-1.1524624,0.42912894,-1.0662159,0.35315546,0.11345739,0.33689275,-0.15179697
-0.2,-0.2,1.1999999999999997,0.0,-0.5235987755982988,0,0.45728472,0.9555489,-0.29610187,-0.026502678,0.66581947,1.3003465,-1.3057054,-1.1504775,0.4250737,-1.0673027,0.35437647,0.11094147,0.3366219,-0.1789456
-0.2,-0.2,1.1999999999999997,0.0,-0.5235987755982988,0,0.53165483,1.4385817,-0.38846254,-0.006373503,0.3319601,0.80094004,-0.43669245,-1.1519238,0.42943302,-1.0663266,0.3524671,0.11597817,0.33339158,-0.18920447
-0.2,-0.2,1.1999999999999997,0.0,-0.5235987755982988,0,0.53048736,1.0505134,-0.25501525,0.02394691,-0.25168142,1.0132275,0.20886554,-1.1519072,0.42840552,-1.0685886,0.35205373,0.114127256,0.33532426,-0.19535415
-0.2,-0.2,1.1999999999999997,0.0,-0.5235987755982988,0,0.16145085,1.4168285,-0.7988316,-0.10857715,0.084142245,0.9550982,-0.48174408,-1.1528413,0.4282131,-1.0678592,0.35291776,0.10608786,0.33342385,-0.18336363
-0.2,-0.2,1.1999999999999997,0.0,-0.5235987755982988,0,0.70463276,0.93548924,-0.1671107,0.06412664,-0.024200622,1.1666504,0.32619038,-1.1529924,0.42617264,-1.0654073,0.3514901,0.11320999,0.33557388,-0.13105696
-0.2,-0.2,1.1999999999999997,0.0,-0.5235987755982988,0,0.5581498,1.030319,0.10277967,0.0005199038,-0.023962535,1.1920669,-0.4563387,-1.1519452,0.42905185,-1.0680397,0.3530595,0.109664865,0.3353657,-0.14129773
-0.2,-0.2,1.1999999999999997,0.0,-0.5235987755982988,0,0.31476837,1.1669179,0.0988804,0.030526886,0.5581269,1.3855413,0.36092457,-1.1525897,0.42752942,-1.0685047,0.35256758,0.10759226,0.3323923,-0.17112394
-0.2,-0.2,1.1999999999999997,0.0,-0.5235987755982988,0,1.108001,1.3429786,-0.6013601,0.007255841,0.4903693,1.013832,-0.90427476,-1.1517943,0.42662156,-1.0661776,0.35220802,0.10815235,0.33688948,-0.1732627
-0.2,-0.2,1.1999999999999997,0.0,-0.5235987755982988,0,-0.63565016,1.3373712,-0.2676718,-0.1543478,0.015058356,1.3112185,-0.5802741,-1.151705,0.42758504,-1.0664544,0.354491,0.110999964,0.3334001,-0.1339795
-0.2,-0.2,1.1999999999999997,0.0,-0.5235987755982988,0,0.32423654,1.3640343,-0.33200195,-0.23088539,-0.102597415,1.0434532,-0.027313367,-1.1540805,0.42593077,-1.0670203,0.3524044,0.107758395,0.33527875,-0.20257217
-0.2,-0.2,1.1999999999999997,0.0,-0.5235987755982988,0,0.93248636,1.3828509,-0.40194014,-0.21103364,0.20418097,0.9608197,-0.41997167,-1.1525556,0.43125817,-1.0660802,0.35303277,0.1098156,0.33517012,-0.18463546
-0.2,-0.2,1.1999999999999997,0.0,-0.5235987755982988,0,0.9279634,1.7038436,-0.65614355,-0.06907037,0.017681293,0.9869007,0.2838248,-1.1525078,0.4240548,-1.065733,0.35235974,0.107717864,0.33398765,-0.16893032
-0.2,-0.2,1.1999999999999997,0.0,-0.5235987755982988,0,0.10650822,1.0710626,-0.5010357,-0.004763225,-0.23010424,1.1432317,-1.1183348,-1.1521205,0.43156448,-1.0663569,0.35241807,0.11547563,0.33421862,-0.18513294
-0.2,-0.2,1.1999999999999997,0.0,-0.5235987755982988,0,1.0023419,1.1849996,-0.30345336,0.027438689,0.2935544,1.021673,0.17093177,-1.1523093,0.42615095,-1.0663298,0.3528925,0.115860336,0.33767045,-0.20607968
-0.2,-0.2,1.1999999999999997,0.0,-0.5235987755982988,0,-0.36548328,1.3612673,-0.14037366,-0.075236395,0.5505359,0.915669,0.25899404,-1.1513679,0.4292886,-1.065996,0.3526089,0.11388137,0.33523896,-0.109847136
-0.2,-0.2,1.1999999999999997,0.0,-0.5235987755982988,0,-0.112488136,0.9899972,-0.022463448,0.10354029,0.51079947,1.0762367,0.22514556,-1.1530741,0.42840707,-1.0657231,0.35254344,0.11328491,0.33406588,-0.17698425
-0.2,-0.2,1.1999999999999997,0.0,-0.5235987755982988,0,-0.33650047,1.0887266,0.048330363,-0.09039273,0.19203745,1.2423388,-0.29441246,-1.1516773,0.42772436,-1.0655816,0.352636,0.11262369,0.33511937,-0.13304046
-0.2,-0.2,1.1999999999999997,0.0,-0.5235987755982988,0,-0.32550165,1.0256097,-0.056450546,0.098072186,-0.06088374,1.0685211,0.041489437,-1.1514758,0.42940888,-1.066955,0.3519792,0.11451895,0.3374192,-0.15529555
-0.2,-0.2,1.1999999999999997,0.0,-0.5235987755982988,0,0.5106616,1.3125502,0.31914446,0.08675349,-0.19809745,0.957271,-0.23463105,-1.1526954,0.4282323,-1.0674078,0.35315374,0.11714287,0.3368432,-0.21116029
-0.2,-0.2,1.1999999999999997,0.0,-0.5235987755982988,0,0.12509859,1.3185607,-0.9300829,-0.1158814,0.0984961,0.88087535,-0.44653124,-1.1534044,0.4299586,-1.0677698,0.35282317,0.11166889,0.33991796,-0.21189691
-0.2,-0.2,1.1999999999999997,0.0,-0.5235987755982988,0,-0.19823533,1.0218372,0.16479662,-0.07040842,0.18804136,1.0529925,-0.7193907,-1.1516942,0.42822218,-1.0673859,0.353149,0.11694785,0.3361203,-0.16997823
-0.2,-0.2,1.1999999999999997,0.0,-0.5235987755982988,0,0.28707302,1.0634894,-0.79582125,0.012190201,0.4633525,1.089859,-0.71552557,-1.1532339,0.42647374,-1.0665067,0.3531967,0.10966724,0.33780038,-0.16130583
-0.2,-0.2,1.1999999999999997,0.0,-0.5235987755982988,0,0.40669435,1.0550473,-0.089151956,-0.026761426,0.12378867,1.1849445,0.025548933,-1.1523318,0.42869312,-1.0663141,0.35364872,0.116253465,0.3384164,-0.14743507
-0.2,-0.2,1.1999999999999997,0.0,-0.5235987755982988,0,0.3420953,1.2681346,-0.5181808,0.020561889,0.37453973,1.036118,-0.25223655,-1.1530001,0.42680284,-1.0645998,0.35230818,0.11014174,0.3340624,-0.13954446
-0.2,-0.2,1.1999999999999997,0.0,-0.5235987755982988,0,0.35826677,1.189918,-0.653114,-0.07168506,0.45362812,1.094106,-0.099750124,-1.152575,0.42956164,-1.067404,0.35315138,0.11115622,0.33360186,-0.16066687
-0.2,-0.2,1.1999999999999997,0.0,-0.5235987755982988,0,-0.32246536,1.2259595,-0.29973322,0.049058486,0.102165736,1.0539116,-0.644195,-1.1536691,0.42939234,-1.0671157,0.35288942,0.10754378,0.33781102,-0.18359026
-0.2,-0.2,1.1999999999999997,0.0,-0.5235987755982988,0,0.557272,1.0573518,-0.3946855,0.13243403,0.2082884,1.2744235,0.09539589,-1.1524502,0.4263473,-1.0676548,0.35301855,0.11059504,0.33477515,-0.13196222
-0.2,-0.2,1.1999999999999997,0.0,-0.5235987755982988,0,0.8845527,1.0222822,-0.3962901,-0.080963954,0.17928201,0.85709417,-0.9331053,-1.1538365,0.42860886,-1.0643915,0.35336027,0.10927426,0.34240764,-0.13361777
-0.2,-0.2,1.1999999999999997,0.0,-0.5235987755982988,0,-0.011731841,1.2506628,-0.08022559,0.04412833,-0.12513399,0.9898817,-0.6173437,-1.1525939,0.4257875,-1.0680141,0.35369372,0.1132348,0.33473572,-0.14756173
-0.2,-0.2,1.1999999999999997,0.0,-0.5235987755982988,0,0.25869447,1.1272662,0.13304192,-0.014773651,0.19912377,1.0785786,0.7216778,-1.1534266,0.42752773,-1.0663123,0.35286608,0.11055453,0.33999828,-0.1413374
-0.2,-0.2,1.1999999999999997,0.0,-0.5235987755982988,0,0.5719289,1.1861738,-0.40031758,0.023818769,0.25903204,1.0737073,-0.4148449,-1.1532634,0.42708704,-1.0656009,0.35221264,0.11697955,0.33180475,-0.17080198
-0.2,-0.2,1.1999999999999997,0.0,-0.5235987755982988,0,1.3087394,1.0589638,-0.44801542,0.016144007,0.35612062,1.0318671,-0.4031488,-1.1523232,0.42554632,-1.0671923,0.35196188,0.10980622,0.33876413,-0.23580141
-0.2,-0.2,1.1999999999999997,0.0,-0.5235987755982988,0,0.7277726,1.1926556,-0.13881347,-0.013023888,-0.057158265,0.98216593,0.32685727,-1.1526698,0.42712522,-1.0653734,0.353613,0.10731843,0.33763593,-0.14269067
-0.2,-0.2,1.1999999999999997,0.0,-0.5235987755982988,0,-0.011075392,1.3414433,-0.2550215,-0.14757416,-0.13279662,1.0327699,-1.2404264,-1.1522515,0.4270431,-1.0675492,0.35273224,0.10917087,0.33683842,-0.14135098
-0.2,-0.2,1.1999999999999997,0.0,-0.5235987755982988,0,0.7395116,1.1078626,-0.06536596,-0.010245071,0.30926323,1.0372245,-0.9188469,-1.1523767,0.42698976,-1.06707,0.35199755,0.10745211,0.33955467,-0.16520196
-0.2,-0.2,1.1999999999999997,0.0,-0.5235987755982988,0,-0.12288487,1.234145,-0.89269155,-0.034091037,0.31745926,1.177579,0.25669935,-1.1530905,0.42415804,-1.0668248,0.35143167,0.11099994,0.33959678,-0.1472435
-0.2,-0.2,1.1999999999999997,0.0,-0.5235987755982988,0,-0.30311903,1.3950242,-0.24916376,0.10396368,0.30663288,0.8856392,0.79267204,-1.1533397,0.425624,-1.065121,0.35187918,0.113089696,0.33205828,-0.16773325
-0.2,-0.2,1.1999999999999997,0.0,-0.5235987755982988,0,0.5654065,1.3802426,-0.24643861,0.04536345,-0.025053006,0.8708217,0.0012221545,-1.1512039,0.4269188,-1.0664536,0.35423642,0.11801985,0.33677012,-0.15040872
-0.2,-0.2,1.1999999999999997,0.0,-0.5235987755982988,0,0.35635707,1.3573047,0.2831495,-0.02076041,0.17840682,1.0742084,-1.0331541,-1.1517968,0.4265645,-1.0656073,0.35328543,0.10869099,0.3382007,-0.1409455
-0.2,-0.2,1.1999999999999997,0.0,-0.5235987755982988,0,0.03311319,1.0905257,-0.09857265,-0.19137113,0.63021725,1.0449424,-0.23145005,-1.1513517,0.4276213,-1.0648892,0.3533551,0.11175669,0.33558106,-0.198258
-0.2,-0.2,1.1999999999999997,0.0,-0.5235987755982988,0,0.2379762,1.2754803,-0.96076846,-0.046565287,-0.049820818,1.0486876,-0.25932688,-1.1536012,0.4272911,-1.0677611,0.35207918,0.115650035,0.3378929,-0.11950383
-0.2,-0.2,1.1999999999999997,0.0,-0.5235987755982988,0,0.58737224,1.2061343,-0.15568253,-0.13127835,0.103927866,1.1201602,0.02235395,-1.1530899,0.42905885,-1.0658072,0.35332507,0.111979015,0.3395584,-0.16303794
-0.2,-0.2,1.1999999999999997,0.0,-0.5235987755982988,0,0.7671435,1.2592499,-0.24275626,-0.118127406,0.23563015,1.1920074,0.1360534,-1.1519893,0.42625412,-1.0650821,0.3520653,0.11537382,0.33551705,-0.188482
-0.2,-0.2,1.1999999999999997,0.0,-0.5235987755982988,0,1.0692155,1.2248378,-0.3446194,0.021282302,0.008816482,1.2800798,-0.90850145,-1.1520079,0.42800608,-1.0655715,0.3527763,0.11138061,0.33756545,-0.18513133
-0.2,-0.2,1.1999999999999997,0.0,-0.5235987755982988,0,0.47265902,1.3967322,-0.15928634,-0.10598692,-0.040275365,0.93676084,-0.9758366,-1.1521078,0.42774805,-1.0655013,0.35378796,0.11211311,0.3360624,-0.15746115
-0.2,-0.2,1.1999999999999997,0.0,-0.5235987755982988,0,0.2964062,1.0663048,-0.004927412,0.08523585,0.34877628,0.99698615,-0.012578622,-1.152055,0.4286964,-1.0667511,0.35328236,0.10882291,0.33602816,-0.15799156
-0.2,-0.2,1.1999999999999997,0.0,-0.5235987755982988,0,0.048286464,1.2864671,-0.74202377,-0.048695788,0.44052985,1.2187535,0.2864809,-1.1531684,0.428367,-1.0666682,0.3516838,0.11602524,0.33112928,-0.16938105
-0.2,-0.2,1.1999999999999997,0.0,-0.5235987755982988,0,1.0891166,1.355288,-0.38654527,0.113631375,0.458414,1.1111176,0.60246205,-1.151769,0.4258316,-1.0668175,0.35272768,0.11512725,0.33936492,-0.13531451
-0.2,-0.2,1.1999999999999997,0.0,-0.5235987755982988,0,0.31922907,1.0225922,-0.18742405,0.07315599,0.5553052,1.0843389,-0.5851601,-1.1517146,0.4285268,-1.0675634,0.35195577,0.11037676,0.33720165,-0.18133207
-0.2,-0.2,1.1999999999999997,0.0,-0.5235987755982988,0,0.18580718,1.1431829,-0.39547682,-0.13453826,0.31450588,1.2632143,-0.3158843,-1.1523961,0.42519432,-1.0639895,0.35139397,0.10684592,0.3376949,-0.11757151
-0.2,-0.2,1.1999999999999997,0.0,-0.5235987755982988,0,0.3139479,1.1133152,-0.06657452,0.019428518,0.17067873,0.97886294,0.25514418,-1.1541401,0.42701942,-1.0661587,0.35196507,0.11350815,0.3361122,-0.19299327
-0.2,-0.2,1.1999999999999997,0.0,-0.5235987755982988,0,0.027355853,1.3600425,-0.22982427,-0.1018005,0.1428209,1.449477,0.28278977,-1.1506226,0.4282687,-1.0646654,0.3509728,0.11307437,0.33620316,-0.12765795
-0.2,-0.2,1.1999999999999997,0.0,-0.5235987755982988,0,-0.20368169,1.2991136,-0.437823,0.011081003,0.2648469,1.1713569,-0.51301646,-1.1542202,0.4271199,-1.0658208,0.35240918,0.11059973,0.33845642,-0.13373232
-0.2,-0.2,1.1999999999999997,0.0,-0.5235987755982988,0,0.747904,1.1949794,-0.37030682,0.0041852263,0.1457291,1.1820769,0.51356506,-1.1518239,0.42650306,-1.0673847,0.352794,0.114185505,0.3371505,-0.13650948
-0.2,-0.2,1.1999999999999997,0.0,-0.5235987755982988,0,-0.07417018,1.3679854,-0.29181397,-0.24225357,0.72881764,1.0063984,0.32141238,-1.1509483,0.4259393,-1.0670841,0.3520477,0.11521202,0.33733717,-0.14475518
-0.2,-0.2,1.1999999999999997,0.0,-0.5235987755982988,0,1.2006819,1.0699254,0.40074492,-0.090105586,-0.58575046,1.2328591,-1.0720849,-1.1518914,0.4259488,-1.0669262,0.35231063,0.10841226,0.3369933,-0.16763103
-0.2,-0.2,1.1999999999999997,0.0,-0.5235987755982988,0,0.3227246,1.1084934,-0.78089654,0.01175645,0.43961972,0.9643747,0.21346772,-1.1513388,0.42639098,-1.0676025,0.35380948,0.110796645,0.3373795,-0.19841126
-0.2,-0.2,1.1999999999999997,0.0,-0.5235987755982988,0,0.5251325,1.0667208,-0.15467891,-0.11657628,0.13055679,1.1175845,0.05497037,-1.1511126,0.4268649,-1.0674071,0.35189018,0.11388726,0.33631876,-0.16896582
-0.2,-0.2,1.1999999999999997,0.0,-0.5235987755982988,0,0.57254785,1.1449081,-0.14311464,-0.08443553,-0.1345535,1.3223429,0.14231613,-1.1519873,0.42821902,-1.0673057,0.3524352,0.115044326,0.33363876,-0.17570466
-0.2,-0.2,1.1999999999999997,0.0,-0.5235987755982988,0,0.69301164,1.0627952,-0.45057756,-0.091002636,0.0820256,1.1328253,0.25268385,-1.1527821,0.42887884,-1.0662302,0.35394686,0.110748045,0.33441165,-0.1947691
-0.2,-0.2,1.1999999999999997,0.0,-0.5235987755982988,0,0.38950932,1.2245222,-0.4281252,0.14053221,0.20861799,0.957414,-1.2623982,-1.1520663,0.42981657,-1.0640242,0.35224313,0.112545334,0.33485842,-0.14433992
-0.2,-0.2,1.1999999999999997,0.0,-0.5235987755982988,0,0.41399625,1.2584409,-0.24032198,0.06540045,-0.48912093,1.3588015,-0.9874894,-1.1535244,0.42933846,-1.0675435,0.35168466,0.10912531,0.33710998,-0.16787958
-0.2,-0.2,1.1999999999999997,0.0,-0.5235987755982988,0,-0.52838236,0.9172279,0.12895654,-0.21552435,0.57617235,1.1314223,-0.04203924,-1.1520731,0.42890787,-1.0655072,0.35311833,0.11396822,0.33555993,-0.21661167
-0.2,-0.2,1.1999999999999997,0.0,-0.5235987755982988,0,0.6691031,1.586151,-0.7595132,-0.1290016,0.06869846,1.1574721,0.6983814,-1.1500905,0.42735305,-1.0661854,0.3517693,0.109078296,0.33592346,-0.16211812
-0.2,-0.2,1.1999999999999997,0.0,-0.5235987755982988,0,1.0693538,1.399371,-0.27732512,0.10926235,0.2969026,1.0498447,-1.300455,-1.1550425,0.4267708,-1.0666866,0.3527794,0.10995145,0.3355806,-0.13927342
-0.2,-0.2,1.1999999999999997,0.0,-0.5235987755982988,0,0.66135293,1.3587838,0.1723974,0.09287528,0.3430011,1.0295097,-0.4787157,-1.1527308,0.4264105,-1.0646905,0.35235006,0.1152103,0.33466503,-0.17748336
-0.2,-0.2,1.1999999999999997,0.0,-0.5235987755982988,0,0.8222349,1.5444977,-0.08140636,0.0061677424,0.09924,0.65641975,-0.22476132,-1.1531984,0.42691237,-1.0653946,0.35236612,0.110242195,0.34006688,-0.17384247
-0.2,-0.2,1.1999999999999997,0.0,-0.5235987755982988,0,0.4998341,1.121545,-0.26835436,-0.021170571,0.46495757,1.1086198,0.14035796,-1.1528035,0.428002,-1.0652595,0.3527801,0.10994657,0.3330378,-0.18807605
-0.2,-0.2,1.1999999999999997,0.0,-0.5235987755982988,0,0.7821564,1.1887312,0.157635,0.07495495,0.4778688,1.1090995,-0.5554822,-1.1524636,0.42699528,-1.0663418,0.35422856,0.10738912,0.3366644,-0.17952815
-0.2,-0.2,1.1999999999999997,0.0,-0.5235987755982988,0,0.28201324,0.8806486,-0.18815435,-0.109328575,0.063413866,1.1437262,-1.0874614,-1.1524712,0.4274367,-1.0675812,0.35310778,0.112088285,0.3357602,-0.15298575
-0.2,-0.2,1.1999999999999997,0.0,-0.5235987755982988,0,0.32751834,1.4356452,-0.56431985,-0.2786612,-0.11887184,0.9317666,-0.21945363,-1.1525615,0.42831537,-1.0666772,0.35265455,0.1059395,0.33419132,-0.1837826
-0.2,-0.2,1.1999999999999997,0.0,-0.5235987755982988,0,-0.4685438,1.3451141,-0.26334548,0.03252188,0.19355258,1.0399983,-0.6465212,-1.1522233,0.4282858,-1.0670581,0.35366246,0.10923595,0.33458447,-0.18487284
-0.2,-0.2,1.1999999999999997,0.0,-0.5235987755982988,0,0.46555278,1.035622,-0.21041463,-0.021912128,0.08378703,1.1140822,-0.5333804,-1.1509223,0.42914614,-1.0670749,0.3521123,0.11758698,0.33238235,-0.19703232
-0.2,-0.2,1.1999999999999997,0.0,-0.5235987755982988,0,1.0081458,1.550757,0.051817026,-0.16159713,-0.02969842,0.9245398,-0.83630514,-1.1515772,0.42568812,-1.0661497,0.3528118,0.10858027,0.33992866,-0.13896425
-0.2,-0.2,1.1999999999999997,0.0,-0.5235987755982988,0,0.99478865,0.9820011,0.16011676,0.023761827,0.013958184,0.9053222,-0.64361554,-1.1514477,0.42665717,-1.0672197,0.35317963,0.11541697,0.3358893,-0.13000587
-0.2,-0.2,1.1999999999999997,0.0,-0.5235987755982988,0,0.22869784,1.4221125,-0.4663145,0.08614021,0.36941078,1.0164663,-0.37513554,-1.1509995,0.4281221,-1.066875,0.35373098,0.10997137,0.3337122,-0.19284682
-0.2,-0.2,1.1999999999999997,0.0,-0.5235987755982988,0,0.2618503,1.2227196,-0.08826422,-0.022263078,-0.6428212,1.2580582,-0.8575568,-1.1521381,0.42943358,-1.0648652,0.3526266,0.1125955,0.33321962,-0.16026308
-0.2,-0.2,1.1999999999999997,0.0,-0.5235987755982988,0,0.5536334,0.91695106,-0.079873204,-0.021436915,0.027732521,1.1671797,-0.22279671,-1.1526315,0.42851752,-1.0674074,0.35303187,0.11440337,0.3356296,-0.16863208
-0.2,-0.2,1.1999999999999997,0.0,-0.5235987755982988,0,0.5022863,1.3219721,-0.48564935,-0.059504606,-0.22662075,1.209925,-1.2673846,-1.1523024,0.42887682,-1.0677836,0.35252786,0.11702199,0.33565974,-0.16573945
-0.2,-0.2,1.1999999999999997,0.0,-0.5235987755982988,0,0.29231247,1.083603,-0.0011387658,-0.22318138,0.11967371,1.0935359,0.89370453,-1.1517959,0.4273695,-1.0670022,0.353306,0.11085912,0.33565447,-0.18441224
-0.2,-0.2,1.1999999999999997,0.0,-0.5235987755982988,0,0.7971027,1.309555,-0.2727442,0.12243163,0.061989494,0.80577195,-1.2104963,-1.1532106,0.42845353,-1.0678045,0.3521723,0.115787596,0.33602345,-0.1588515
-0.2,-0.2,1.1999999999999997,0.0,-0.5235987755982988,0,0.74900454,0.9986332,-0.4999015,-0.063360415,0.37702605,1.447174,-1.3738406,-1.1526209,0.4269934,-1.067254,0.35247928,0.1106109,0.33462065,-0.17401883
-0.2,-0.2,1.1999999999999997,0.0,-0.5235987755982988,0,0.7779237,1.3303461,-0.0039620306,-0.044293057,0.19210434,1.3361347,0.11404607,-1.1518687,0.4291825,-1.0678515,0.3532815,0.113294184,0.3379273,-0.1771599
-0.2,-0.2,1.1999999999999997,0.0,-0.5235987755982988,0,0.19956899,1.302382,0.30450258,-0.03325298,0.3234297,1.2245986,-0.05721856,-1.1527107,0.4268326,-1.0679445,0.35287175,0.11289476,0.3404409,-0.18053977
-0.2,-0.2,1.1999999999999997,0.0,-0.5235987755982988,0,0.92728114,1.1529447,-0.40393624,0.017808327,0.12677893,1.2061422,0.31960437,-1.1524342,0.42829105,-1.0666975,0.35296178,0.10967371,0.33851793,-0.19817501
-0.2,-0.2,1.1999999999999997,0.0,-0.5235987755982988,0,1.1907508,1.6000032,-0.37707502,-0.20108862,-0.3520858,1.2504021,-0.30421388,-1.151531,0.42837065,-1.0652047,0.35298792,0.11449792,0.3362719,-0.16409914
-0.2,-0.2,1.1999999999999997,0.0,-0.5235987755982988,0,0.32706165,1.292275,-0.22061607,-0.09845303,0.20770782,1.0223416,-0.40224597,-1.1536282,0.43129957,-1.066436,0.3517388,0.116584785,0.33746162,-0.19376042
-0.2,-0.2,1.1999999999999997,0.0,-0.5235987755982988,0,1.0994536,1.2825142,-0.24195431,0.038265076,0.47489902,1.1853765,-0.15501583,-1.1503801,0.43055272,-1.0665675,0.35221896,0.11439478,0.3369481,-0.17039533
-0.2,-0.2,1.1999999999999997,0.0,-0.5235987755982988,0,0.1636669,1.4088813,-0.43662265,0.0630191,0.2710193,1.0039991,-0.55860025,-1.1518148,0.4259595,-1.065796,0.35394877,0.11018845,0.33512768,-0.1700341
-0.2,-0.2,1.1999999999999997,0.0,-0.5235987755982988,0,0.16471925,1.3300449,-0.32904083,-0.13584772,0.20863,1.0460248,-1.3572061,-1.1509233,0.42788097,-1.0643008,0.3537817,0.11212468,0.33531186,-0.21103263
-0.2,-0.2,1.1999999999999997,0.0,-0.5235987755982988,0,0.8311888,1.3738145,-0.40491873,-0.21915993,-0.031480603,1.2008692,-0.78617096,-1.1530286,0.42931822,-1.066741,0.35305825,0.109165035,0.33606634,-0.18941197
-0.2,-0.2,1.1999999999999997,0.0,-0.5235987755982988,0,0.02719622,1.2850372,-0.2194476,-0.14198841,0.34388578,1.175905,0.0978917,-1.1505065,0.42640212,-1.0669534,0.35196316,0.112873115,0.33297172,-0.1974937
-0.2,-0.2,1.1999999999999997,0.0,-0.5235987755982988,0,0.5053398,1.1937046,-0.15391882,-0.06326342,0.14591905,1.1022223,-0.009804331,-1.1535758,0.4277276,-1.0663161,0.35223645,0.115308814,0.334201,-0.13007525
-0.2,-0.2,1.1999999999999997,0.0,-0.5235987755982988,0,0.007686542,1.4805502,-0.66478914,-0.046870355,-0.035504825,1.1142063,-0.12121403,-1.1539394,0.4279229,-1.067126,0.35252434,0.112273626,0.33724982,-0.19977175
-0.2,-0.2,1.1999999999999997,0.0,-0.5235987755982988,0,-0.076199435,1.3304459,-0.44030565,0.008106365,0.15303163,1.1348178,-0.5300359,-1.1516377,0.42776898,-1.0670376,0.35415035,0.11092423,0.33902955,-0.11530893
-0.2,-0.2,1.1999999999999997,0.0,-0.5235987755982988,0,0.88284546,1.182059,-0.13862824,-0.16810928,0.20530921,1.3456893,-0.44546157,-1.1514711,0.42750427,-1.0663475,0.35216483,0.11594763,0.33852366,-0.2122252
-0.2,-0.2,1.1999999999999997,0.0,-0.5235987755982988,0,0.50742346,1.6796753,0.03512637,-0.023311703,0.11700937,1.0268799,0.029233564,-1.1526403,0.42644778,-1.0660348,0.35426986,0.11044542,0.33727252,-0.19468139
-0.2,-0.2,1.1999999999999997,0.0,-0.5235987755982988,0,0.4217594,1.0606595,-0.15412988,-0.03414579,-0.17559741,0.9844036,-0.62606204,-1.1530206,0.4266199,-1.0655657,0.3548118,0.10973599,0.3373196,-0.13117427
-0.2,-0.2,1.1999999999999997,0.0,-0.5235987755982988,0,0.19567451,0.81398535,0.104306445,-0.11994467,0.25539443,1.0023823,0.11109797,-1.1542696,0.42670405,-1.0671098,0.3545616,0.114946246,0.33280414,-0.14743535
-0.2,-0.2,1.1999999999999997,0.0,-0.5235987755982988,0,0.7526271,0.8378002,-0.2834821,-0.041932695,0.29207256,0.7519679,-0.30681938,-1.1527336,0.4262883,-1.0666043,0.35266262,0.110988505,0.33609322,-0.17660774
-0.2,-0.2,1.1999999999999997,0.0,-0.5235987755982988,0,0.5631279,1.1046004,-0.34159428,0.053019263,0.2806058,0.96300507,0.35372126,-1.1529499,0.4264219,-1.0669488,0.35234728,0.110237285,0.33113992,-0.1604741
-0.2,-0.2,1.1999999999999997,0.0,-0.5235987755982988,0,-0.3652733,1.012761,-0.40142846,0.14737286,-0.204163,1.4187165,-1.3155044,-1.1532916,0.42962515,-1.0669401,0.3524425,0.11496836,0.33121547,-0.1351298
-0.2,-0.2,1.1999999999999997,0.0,-0.5235987755982988,0,0.46720496,0.891532,0.40947148,-0.16122656,0.0559206,1.0243002,-0.6090047,-1.152456,0.4289834,-1.0666009,0.35421154,0.114328176,0.33338133,-0.14888442
-0.2,-0.2,1.1999999999999997,0.0,-0.5235987755982988,0,1.3703498,0.9667073,-0.5261637,-0.04483224,-0.2735911,1.016072,-0.41325822,-1.1528088,0.42959535,-1.065642,0.3530016,0.11503098,0.33116245,-0.13276638
-0.2,-0.2,1.1999999999999997,0.0,-0.5235987755982988,0,0.9508929,1.2347592,-0.46713856,0.1077909,0.07541679,1.1270341,-0.23333324,-1.1529521,0.4284631,-1.0655121,0.35391212,0.11303542,0.3308176,-0.15970974
-0.2,-0.2,1.1999999999999997,0.0,-0.5235987755982988,0,0.38538575,1.17487,-0.052965827,0.031117877,-0.17062812,1.1764094,0.61144084,-1.1525478,0.42904362,-1.0661815,0.35402748,0.114217386,0.33608583,-0.15670094
-0.2,-0.2,1.1999999999999997,0.0,-0.5235987755982988,0,-0.49751997,0.8424688,0.33551654,-0.08847798,0.30202463,1.0753671,-0.6411348,-1.1530051,0.42799315,-1.0652206,0.35512218,0.11180955,0.33822262,-0.16222422
-0.2,-0.2,1.1999999999999997,0.0,-0.5235987755982988,0,0.9543108,1.2046605,-0.34131002,-0.024012065,-0.18297064,0.8483461,0.8241952,-1.1530039,0.42729932,-1.0679624,0.35406163,0.11217455,0.33658722,-0.16214591
-0.2,-0.2,1.1999999999999997,0.0,-0.5235987755982988,0,0.77988815,1.2442616,-0.30207458,-0.18612215,0.042076472,1.03122,-0.8894464,-1.153796,0.429767,-1.0662953,0.35294446,0.11154241,0.33480883,-0.105812654
-0.2,-0.2,1.1999999999999997,0.0,-0.5235987755982988,0,0.64936423,1.0457562,-0.20044348,-0.10290995,0.0008833765,0.8706551,-0.9385519,-1.1537787,0.4298006,-1.0663842,0.35179287,0.11290559,0.335372,-0.09988802
-0.2,-0.2,1.1999999999999997,0.0,-0.5235987755982988,0,0.7223421,1.3048137,0.14031918,0.029844442,0.08088818,0.9358533,0.1820535,-1.1527847,0.42665544,-1.0656261,0.35264832,0.112176225,0.33697283,-0.14484783
-0.2,-0.2,1.1999999999999997,0.0,-0.5235987755982988,0,0.7782478,0.8954152,-0.285711,0.004919489,0.3927853,0.88597506,0.06528215,-1.1526413,0.42940518,-1.0666679,0.3524029,0.109485865,0.3375336,-0.22404516
-0.2,-0.2,1.1999999999999997,0.0,-0.5235987755982988,0,0.37279576,1.4481115,-0.198246,-0.0690301,-0.27995548,1.120134,0.31071973,-1.153722,0.42902756,-1.0662841,0.35256994,0.111920595,0.34012938,-0.14322942
-0.2,-0.2,1.1999999999999997,0.0,-0.5235987755982988,0,0.84327495,1.3787502,-0.5099938,0.002712187,-0.082633376,1.1514425,-0.60135895,-1.1504123,0.42957237,-1.0676682,0.353136,0.112494424,0.33211583,-0.17232813
-0.2,-0.2,1.1999999999999997,0.0,-0.5235987755982988,0,0.7444815,1.2263076,-0.688631,-0.14019223,-0.06003521,1.0258327,0.35484734,-1.150679,0.428142,-1.0674955,0.35170096,0.10925615,0.336543,-0.16158126
-0.2,-0.2,1.1999999999999997,0.0,-0.5235987755982988,0,0.2570631,0.8355444,0.31808367,0.08543191,0.17730254,1.0938532,-0.28199625,-1.1513474,0.42855918,-1.0641581,0.35267192,0.115171194,0.3377133,-0.16023512
-0.2,-0.2,1.1999999999999997,0.0,-0.5235987755982988,0,0.1751121,1.318345,-0.35024336,-0.046066165,0.18001589,1.0530088,-0.9898622,-1.1512457,0.4273913,-1.0672886,0.35334104,0.11148373,0.33753031,-0.14256494
-0.2,-0.2,1.1999999999999997,0.0,-0.5235987755982988,0,0.33040965,0.93567526,-0.3998972,-0.09361947,0.17425115,0.9536078,-0.2614542,-1.1528081,0.430892,-1.0646725,0.35218564,0.10875592,0.33503988,-0.18207775
-0.2,-0.2,1.1999999999999997,0.0,-0.5235987755982988,0,0.056083098,1.0164762,-0.17710231,-0.03089484,0.21181384,0.77396107,-1.1937201,-1.1516708,0.42513046,-1.0668544,0.35397902,0.11037142,0.33261442,-0.082972854
-0.2,-0.2,1.1999999999999997,0.0,-0.5235987755982988,0,-0.12163372,1.1997856,-1.0346007,0.1210651,-0.27612916,1.2938359,0.711193,-1.1530905,0.42626074,-1.0656127,0.35275304,0.11149938,0.33520755,-0.10895253
-0.2,-0.2,1.1999999999999997,0.0,-0.5235987755982988,0,-0.19169234,0.83695537,-0.27833474,-0.013476076,-0.31538886,1.1359175,-0.17519799,-1.1532704,0.42696017,-1.0651149,0.35251805,0.11050239,0.3387006,-0.13862506
-0.2,-0.2,1.1999999999999997,0.0,-0.5235987755982988,0,0.006928614,0.7830058,-0.08685392,0.11687197,-0.09035894,1.089411,-0.7932688,-1.1514779,0.43041572,-1.0658392,0.3516875,0.110107206,0.33399686,-0.1413278
