sanky1234/BimanualDexCatch/isaacgymenvs/cem_results/football_pose_-0.1_0.1_1.4999999999999998_0.5235987755982988_-0.5235987755982988_0_2025-05-26.csv
x,y,z,roll,pitch,yaw,robot1/joint1,robot1/joint2,robot1/joint3,robot1/joint4,robot1/joint5,robot1/joint6,robot1/joint7,robot2/joint1,robot2/joint2,robot2/joint3,robot2/joint4,robot2/joint5,robot2/joint6,robot2/joint7
-0.1,0.1,1.4999999999999998,0.5235987755982988,-0.5235987755982988,0,0.72914374,0.03692686,0.9696408,0.6122149,-1.2250428,-0.38916892,0.44372165,0.7228106,-1.7040327,-1.1533848,-0.04726035,0.16785766,1.0249413,-0.28109145
-0.1,0.1,1.4999999999999998,0.5235987755982988,-0.5235987755982988,0,0.73364216,0.047093373,0.9807833,0.6044657,-1.3428879,-0.26760998,-0.4846453,0.724748,-1.6924223,-1.1698704,-0.043431703,0.03726929,0.87079793,-0.054214694
-0.1,0.1,1.4999999999999998,0.5235987755982988,-0.5235987755982988,0,0.74479276,0.03674882,0.9659485,0.61363345,-1.2776557,-0.3159508,0.9606435,0.72866535,-1.6963955,-1.1306144,-0.27194393,-0.04274024,0.9311197,-0.687891
-0.1,0.1,1.4999999999999998,0.5235987755982988,-0.5235987755982988,0,0.7408764,0.036707394,0.9729495,0.6095928,-1.2858549,0.23816653,0.16399615,0.72603226,-1.6995962,-1.1250038,-0.14829928,0.10823452,0.9855573,-0.9063973
-0.1,0.1,1.4999999999999998,0.5235987755982988,-0.5235987755982988,0,0.7319496,0.035875812,0.9707891,0.60627985,-1.3981756,-0.19279973,-1.9361044,0.72603893,-1.6855671,-1.2033311,-0.2125468,0.4657939,0.9321681,-0.5437231
-0.1,0.1,1.4999999999999998,0.5235987755982988,-0.5235987755982988,0,0.73796177,0.031852543,0.97799855,0.607317,-1.407191,-0.23744673,1.1368053,0.72053313,-1.692752,-1.1434352,-0.080024764,0.35858825,0.8105929,0.39412022
-0.1,0.1,1.4999999999999998,0.5235987755982988,-0.5235987755982988,0,0.7378001,0.04701969,0.97651273,0.61369264,-1.2030396,0.062229425,-2.1941216,0.7243879,-1.6960365,-1.1894847,-0.11676416,-0.26706105,1.0263073,-0.27448064
-0.1,0.1,1.4999999999999998,0.5235987755982988,-0.5235987755982988,0,0.74135613,0.037600055,0.9734516,0.6153508,-1.3228552,-0.24039508,-0.6031017,0.72118473,-1.700083,-1.1653575,0.08481441,0.031897325,1.1645243,-0.9294619
-0.1,0.1,1.4999999999999998,0.5235987755982988,-0.5235987755982988,0,0.73179024,0.040597055,0.97513616,0.6132087,-1.3041365,-0.07945759,-0.6845207,0.72963667,-1.6950263,-1.1933055,-0.039768547,-0.18279828,1.011494,-0.044781603
-0.1,0.1,1.4999999999999998,0.5235987755982988,-0.5235987755982988,0,0.735126,0.04292022,0.9819298,0.6099811,-1.2466927,0.0027713438,0.3170582,0.7234948,-1.6921574,-1.1853119,-0.098445095,-0.08633765,1.0042735,-0.39765176
-0.1,0.1,1.4999999999999998,0.5235987755982988,-0.5235987755982988,0,0.7299752,0.037170246,0.9666636,0.6097044,-1.2736797,-0.09622115,-0.26426372,0.728073,-1.6863917,-1.189554,-0.22690457,0.21828564,1.1375679,-0.7004139
-0.1,0.1,1.4999999999999998,0.5235987755982988,-0.5235987755982988,0,0.74631184,0.035137355,0.9596455,0.6101949,-1.3667833,-0.092687644,-0.5686307,0.72988987,-1.7050703,-1.1869422,-0.28055245,0.43852812,0.9544549,-0.34095135
-0.1,0.1,1.4999999999999998,0.5235987755982988,-0.5235987755982988,0,0.740427,0.041399404,0.9799397,0.6133712,-1.3017718,-0.1867125,-1.4848737,0.7224006,-1.7023574,-1.1361369,-0.1404494,-0.03567418,1.1372851,-0.76236194
-0.1,0.1,1.4999999999999998,0.5235987755982988,-0.5235987755982988,0,0.7368049,0.0438215,0.98258275,0.6071072,-1.3995314,-0.09297554,-0.7810664,0.726745,-1.7053422,-1.164381,0.0052258456,0.29620728,0.968283,-0.2744976
-0.1,0.1,1.4999999999999998,0.5235987755982988,-0.5235987755982988,0,0.7332342,0.046806734,0.9710419,0.60806626,-1.3943202,-0.06858934,-1.2988856,0.7218714,-1.6912887,-1.1820953,0.0021016689,0.01913256,0.80337244,-0.37467802
-0.1,0.1,1.4999999999999998,0.5235987755982988,-0.5235987755982988,0,0.7177497,0.024271639,0.9594352,0.6142545,-1.4495268,-0.21957342,-1.5041959,0.7326941,-1.6957867,-1.210407,-0.12122109,0.22235201,1.2110626,-0.33931354
-0.1,0.1,1.4999999999999998,0.5235987755982988,-0.5235987755982988,0,0.74450076,0.045961946,0.97927296,0.61857986,-1.2373062,-0.32318917,-1.7563565,0.7273657,-1.6939541,-1.1959624,-0.22885902,0.27691528,0.9238352,-0.083890915
-0.1,0.1,1.4999999999999998,0.5235987755982988,-0.5235987755982988,0,0.7527567,0.048537776,0.97473365,0.6146777,-1.3691623,-0.21135327,1.1134579,0.726525,-1.7022773,-1.1635141,0.048752405,-0.09506575,1.0726132,-0.7559028
-0.1,0.1,1.4999999999999998,0.5235987755982988,-0.5235987755982988,0,0.7334572,0.04719149,0.964955,0.6118313,-1.3481839,-0.022748072,1.0427388,0.7225638,-1.7001182,-1.2042536,-0.039794337,-0.00763073,0.97366166,-1.4020337
-0.1,0.1,1.4999999999999998,0.5235987755982988,-0.5235987755982988,0,0.7499694,0.031278633,0.96913266,0.620922,-1.3142245,-0.13808958,-0.96244043,0.72139627,-1.7006582,-1.1564406,-0.16731389,0.3046582,1.066307,0.25838995
-0.1,0.1,1.4999999999999998,0.5235987755982988,-0.5235987755982988,0,0.75481033,0.044913936,0.9704968,0.61358,-1.2930495,-0.20676969,-0.53133756,0.72464824,-1.7073992,-1.210922,-0.14437656,-0.039099876,1.1256891,-1.4916431
-0.1,0.1,1.4999999999999998,0.5235987755982988,-0.5235987755982988,0,0.7573047,0.032543883,0.96501136,0.6042398,-1.3176554,-0.16815916,-0.9155064,0.722474,-1.7024338,-1.1180456,-0.034152057,-0.17592308,0.89274615,-1.252709
-0.1,0.1,1.4999999999999998,0.5235987755982988,-0.5235987755982988,0,0.74944365,0.042703886,0.97663546,0.6098546,-1.2658236,-0.026230428,2.8003209,0.722545,-1.6995162,-1.1898563,-0.007760338,0.33072996,1.0483856,-0.053514402
-0.1,0.1,1.4999999999999998,0.5235987755982988,-0.5235987755982988,0,0.73840106,0.03455248,0.97628933,0.61702377,-1.4412248,-0.13090387,-0.54090506,0.7251682,-1.6894207,-1.1762912,-0.039862603,0.06862851,0.93112403,-0.42423636
-0.1,0.1,1.4999999999999998,0.5235987755982988,-0.5235987755982988,0,0.73018676,0.043178175,0.9812441,0.61435765,-1.2876906,-0.18261534,-0.25453272,0.72050625,-1.6869175,-1.2041645,-0.13848054,0.2451939,1.0350926,-0.13714904
-0.1,0.1,1.4999999999999998,0.5235987755982988,-0.5235987755982988,0,0.7435455,0.050849304,0.9818277,0.6087703,-1.3173338,-0.064239025,-0.41262636,0.72716403,-1.7097027,-1.1574236,-0.16920494,0.090949774,1.0226545,-0.5227784
-0.1,0.1,1.4999999999999998,0.5235987755982988,-0.5235987755982988,0,0.72922426,0.03352034,0.98664665,0.6087789,-1.3570236,-0.09885385,-1.9767927,0.7257673,-1.6958059,-1.1740322,-0.109614536,-0.1171454,1.0705208,0.27454606
-0.1,0.1,1.4999999999999998,0.5235987755982988,-0.5235987755982988,0,0.74609923,0.040107917,0.96502435,0.61027277,-1.3287638,0.019349245,0.9856301,0.7207353,-1.6924955,-1.1765503,-0.09280146,-0.029845733,0.93603915,-1.0014043
-0.1,0.1,1.4999999999999998,0.5235987755982988,-0.5235987755982988,0,0.74311763,0.0345177,0.97097075,0.6162492,-1.2276446,-0.06434012,-0.19789153,0.7190381,-1.6882141,-1.2126738,-0.042062443,-0.019987842,1.1564058,-0.6429628
-0.1,0.1,1.4999999999999998,0.5235987755982988,-0.5235987755982988,0,0.74636626,0.03561243,0.96992064,0.61479086,-1.2950205,-0.3116082,0.5905415,0.71929264,-1.6966963,-1.1882643,-0.17315789,0.022844328,1.0151372,0.0626651
-0.1,0.1,1.4999999999999998,0.5235987755982988,-0.5235987755982988,0,0.74422973,0.037004303,0.978566,0.6102967,-1.3061311,0.09284924,2.1113868,0.7239574,-1.7024155,-1.179996,0.03925915,0.0089339465,1.1517327,-0.547944
-0.1,0.1,1.4999999999999998,0.5235987755982988,-0.5235987755982988,0,0.73045224,0.03412493,0.974136,0.61836344,-1.2401724,-0.1493286,0.4542493,0.7269207,-1.6804284,-1.1534517,-0.0772623,-0.061517905,0.8802347,-0.67555976
-0.1,0.1,1.4999999999999998,0.5235987755982988,-0.5235987755982988,0,0.739304,0.045528412,0.96594393,0.61020505,-1.3543742,-0.2762659,0.007334133,0.72255534,-1.6927867,-1.1755354,-0.045139864,0.14966652,1.0413007,-0.9298297
-0.1,0.1,1.4999999999999998,0.5235987755982988,-0.5235987755982988,0,0.73648965,0.03495786,0.97098815,0.6129578,-1.3788537,-0.212675,-0.9859123,0.72639674,-1.6885295,-1.1862912,-0.017215269,-0.089423604,1.0882713,-0.68568784
-0.1,0.1,1.4999999999999998,0.5235987755982988,-0.5235987755982988,0,0.7444165,0.03748351,0.98115575,0.60846126,-1.2763847,0.009713354,0.7104982,0.73264396,-1.6981766,-1.1850524,-0.09604155,0.21086457,0.9354735,-0.052901905
-0.1,0.1,1.4999999999999998,0.5235987755982988,-0.5235987755982988,0,0.7463297,0.035146028,0.96589106,0.6116697,-1.4549303,-0.25916266,0.9986765,0.7291313,-1.6904894,-1.1760427,-0.088460006,0.038391277,0.8251813,-0.4341905
-0.1,0.1,1.4999999999999998,0.5235987755982988,-0.5235987755982988,0,0.7416818,0.038015377,0.9806572,0.6062357,-1.1842514,-0.099455915,0.50199485,0.725562,-1.6968724,-1.1283339,-0.15121621,-0.1427166,0.9336875,-0.3584964
-0.1,0.1,1.4999999999999998,0.5235987755982988,-0.5235987755982988,0,0.7451536,0.056218054,0.96891534,0.6084824,-1.3101004,-0.015185188,-0.090177506,0.72598344,-1.700668,-1.1528995,-0.12108304,0.18290496,1.0268931,-0.7967607
-0.1,0.1,1.4999999999999998,0.5235987755982988,-0.5235987755982988,0,0.7499891,0.038007468,0.97787255,0.61026293,-1.3963554,-0.123724364,-0.5683801,0.72123986,-1.6937363,-1.1931499,-0.047591034,-0.12002053,1.1369516,-0.43293935
-0.1,0.1,1.4999999999999998,0.5235987755982988,-0.5235987755982988,0,0.74169505,0.04085381,0.979292,0.6038779,-1.2236773,-0.048192274,-1.0251848,0.7243279,-1.6916219,-1.1714348,-0.082438774,0.03388538,0.9213179,-1.1815346
-0.1,0.1,1.4999999999999998,0.5235987755982988,-0.5235987755982988,0,0.7343922,0.041966688,0.97715956,0.6102132,-1.2962384,-0.052148797,1.03749,0.7271888,-1.7010176,-1.1887882,-0.034557488,0.04202348,0.8827108,-0.27419516
-0.1,0.1,1.4999999999999998,0.5235987755982988,-0.5235987755982988,0,0.7403217,0.047658794,0.9693135,0.6044301,-1.352781,-0.09665055,0.72971964,0.7220359,-1.6940385,-1.1503197,-0.05230806,0.11204875,1.0827881,-0.866108
-0.1,0.1,1.4999999999999998,0.5235987755982988,-0.5235987755982988,0,0.75212693,0.040952608,0.97801495,0.60958004,-1.3462626,0.036449097,-1.8231162,0.7228291,-1.6886814,-1.1937776,-0.05354403,-0.09790761,1.0803467,-1.2127583
-0.1,0.1,1.4999999999999998,0.5235987755982988,-0.5235987755982988,0,0.75303423,0.04256741,0.9779922,0.61128736,-1.3837006,-0.04056276,1.5946577,0.72857875,-1.7049961,-1.2018017,-0.16120327,-0.124996215,1.0107971,-0.83003753
-0.1,0.1,1.4999999999999998,0.5235987755982988,-0.5235987755982988,0,0.74701494,0.03710143,0.97846353,0.61501753,-1.2117947,0.0054291906,1.99114,0.7229119,-1.7067187,-1.1873398,-0.1997574,-0.029866911,0.9947828,-0.11429443
-0.1,0.1,1.4999999999999998,0.5235987755982988,-0.5235987755982988,0,0.7534248,0.047005698,0.9693947,0.60675746,-1.2428607,-0.26661333,-1.9642254,0.71766156,-1.6956648,-1.1991092,-0.21785246,0.15251447,0.9645519,-0.9531587
-0.1,0.1,1.4999999999999998,0.5235987755982988,-0.5235987755982988,0,0.7443805,0.03649868,0.9870746,0.6119666,-1.3825587,0.029178882,1.0285208,0.7269939,-1.6921123,-1.1717453,-0.09890373,0.35083243,0.9924483,-1.5835238
-0.1,0.1,1.4999999999999998,0.5235987755982988,-0.5235987755982988,0,0.7387891,0.050730426,0.97019064,0.602649,-1.3207303,-0.23144759,-0.77728224,0.7203482,-1.6985545,-1.1701676,-0.1664964,0.2847295,0.852776,-0.9949024
-0.1,0.1,1.4999999999999998,0.5235987755982988,-0.5235987755982988,0,0.73929,0.03960696,0.9687333,0.60613704,-1.3088385,-0.27988833,0.6211767,0.72317815,-1.6930797,-1.1832306,-0.14320037,-0.08007707,1.0394036,-0.6792665
-0.1,0.1,1.4999999999999998,0.5235987755982988,-0.5235987755982988,0,0.7302021,0.046615638,0.9687665,0.60838777,-1.4258314,-0.14127785,-0.08547001,0.7176766,-1.690006,-1.1899109,-0.13552944,0.11297431,0.91621476,-0.25603744
-0.1,0.1,1.4999999999999998,0.5235987755982988,-0.5235987755982988,0,0.7334327,0.03287606,0.97733104,0.61224115,-1.3212456,-0.06334517,-0.5067878,0.7217332,-1.6957202,-1.1829234,-0.10205569,-0.089901395,1.2504214,-0.37093085
-0.1,0.1,1.4999999999999998,0.5235987755982988,-0.5235987755982988,0,0.7479572,0.043999486,0.9731744,0.612621,-1.2099664,-0.27017927,-1.2081293,0.71714556,-1.686332,-1.190639,-0.046139214,0.42161718,1.0385506,-0.3379127
-0.1,0.1,1.4999999999999998,0.5235987755982988,-0.5235987755982988,0,0.7394878,0.04116686,0.96100116,0.60886204,-1.2115135,0.08086417,-0.70931244,0.7204977,-1.7042344,-1.197041,-0.07682633,0.5716308,1.0915047,-0.1701362
-0.1,0.1,1.4999999999999998,0.5235987755982988,-0.5235987755982988,0,0.74764335,0.044630636,0.97386765,0.6163002,-1.240529,-0.23738612,-1.3071269,0.71691734,-1.6947355,-1.1578834,-0.04151036,-0.2994152,1.0169677,-1.1640232
-0.1,0.1,1.4999999999999998,0.5235987755982988,-0.5235987755982988,0,0.74430394,0.032535914,0.97231007,0.61007047,-1.3252163,-0.15900218,-1.3288555,0.7255534,-1.6974819,-1.1534728,0.012087275,0.5072074,0.9859495,0.4109498
-0.1,0.1,1.4999999999999998,0.5235987755982988,-0.5235987755982988,0,0.74154365,0.05270994,0.9685668,0.6190889,-1.3225383,-0.18395424,1.10716,0.72418135,-1.7101018,-1.1832222,-0.1910081,0.20354271,1.1087313,0.30379552
-0.1,0.1,1.4999999999999998,0.5235987755982988,-0.5235987755982988,0,0.74452597,0.041088343,0.96926904,0.61190426,-1.3806963,-0.17545703,-0.008167383,0.72488683,-1.6994724,-1.1876519,-0.011524129,0.2137012,1.0368497,-0.65673107
-0.1,0.1,1.4999999999999998,0.5235987755982988,-0.5235987755982988,0,0.7446251,0.04094301,0.9772013,0.6095469,-1.4372541,0.011854453,-0.61917484,0.7212672,-1.6782691,-1.1969739,0.009175459,0.048631985,1.0192218,0.34927404
-0.1,0.1,1.4999999999999998,0.5235987755982988,-0.5235987755982988,0,0.7279854,0.04326638,0.97483116,0.61259705,-1.2909796,0.06058186,-0.4884552,0.727168,-1.6936314,-1.1742567,-0.16284575,0.18952785,0.9167452,-0.11084009
-0.1,0.1,1.4999999999999998,0.5235987755982988,-0.5235987755982988,0,0.73985946,0.040936697,0.9767078,0.61284137,-1.389892,-0.16869661,-1.1298356,0.7277265,-1.6883818,-1.1873444,0.044562377,0.16205184,1.0276366,-0.38136026
-0.1,0.1,1.4999999999999998,0.5235987755982988,-0.5235987755982988,0,0.7154308,0.033625815,0.9758523,0.61801213,-1.1314251,-0.2402642,-0.44633007,0.72689706,-1.7018082,-1.1708056,-0.028071878,0.29105225,0.98936063,-0.98164105
-0.1,0.1,1.4999999999999998,0.5235987755982988,-0.5235987755982988,0,0.7355341,0.033349987,0.9660663,0.6096043,-1.3172817,-0.18380621,-2.6044304,0.7252686,-1.6903355,-1.1794533,-0.15665819,0.109269425,0.88256454,0.0019917043
-0.1,0.1,1.4999999999999998,0.5235987755982988,-0.5235987755982988,0,0.7452418,0.036591914,0.9713518,0.61712897,-1.3445591,-0.18018596,0.43341854,0.7225764,-1.6894064,-1.16855,0.04923598,-0.0351275,0.98837465,0.101739764
-0.1,0.1,1.4999999999999998,0.5235987755982988,-0.5235987755982988,0,0.7463354,0.034177877,0.9717586,0.61187506,-1.3185067,0.13859405,-0.5357488,0.7257443,-1.6875521,-1.1617365,-0.0040646703,0.51479053,1.03871,-0.36625972
-0.1,0.1,1.4999999999999998,0.5235987755982988,-0.5235987755982988,0,0.7345601,0.04771346,0.97412527,0.60711896,-1.3241278,-0.20143262,-1.6330875,0.7280653,-1.6993816,-1.2006534,-0.17301962,0.54816234,0.9325983,-0.12908672
-0.1,0.1,1.4999999999999998,0.5235987755982988,-0.5235987755982988,0,0.7376474,0.036364872,0.97833496,0.6090705,-1.3456829,-0.14122863,-0.5155529,0.72508216,-1.6897259,-1.1648415,-0.10513289,0.011176499,0.96040744,-0.862827
-0.1,0.1,1.4999999999999998,0.5235987755982988,-0.5235987755982988,0,0.74139565,0.046621557,0.9796824,0.606063,-1.3329685,-0.19020484,0.297354,0.7231137,-1.6964974,-1.1431204,-0.2503328,0.08373175,1.0636634,-0.87469953
-0.1,0.1,1.4999999999999998,0.5235987755982988,-0.5235987755982988,0,0.7448083,0.034708846,0.979041,0.61154634,-1.4013919,-0.16535343,1.3636395,0.726764,-1.693332,-1.1813388,0.028203228,0.40132686,1.0046828,-0.40611908
-0.1,0.1,1.4999999999999998,0.5235987755982988,-0.5235987755982988,0,0.7453104,0.040712148,0.96623486,0.60946125,-1.2911981,-0.23325536,-1.2387284,0.73026556,-1.6869458,-1.2005867,-0.15655977,0.29735944,1.0718082,-0.8250916
-0.1,0.1,1.4999999999999998,0.5235987755982988,-0.5235987755982988,0,0.75459146,0.035125658,0.9730459,0.5973684,-1.2708606,0.080864765,0.7509489,0.7202059,-1.7095054,-1.1770371,-0.16645938,0.11985568,1.106886,0.07194058
-0.1,0.1,1.4999999999999998,0.5235987755982988,-0.5235987755982988,0,0.75472665,0.0448467,0.97502553,0.6002092,-1.3683169,-0.2386823,-1.526422,0.7221604,-1.7055835,-1.1677438,-0.0928023,-0.18332592,0.89710987,-1.0038637
-0.1,0.1,1.4999999999999998,0.5235987755982988,-0.5235987755982988,0,0.7431302,0.043203726,0.9739656,0.60623497,-1.2164115,-0.21725796,-0.7247858,0.7259081,-1.7037891,-1.2035314,-0.05721901,0.27797958,0.9345221,-0.9088687
-0.1,0.1,1.4999999999999998,0.5235987755982988,-0.5235987755982988,0,0.72858506,0.039275985,0.98171884,0.6157838,-1.2445762,-0.09300997,-0.3520077,0.72668904,-1.6983633,-1.1579592,0.032267354,0.08542242,1.0874689,-0.8801204
-0.1,0.1,1.4999999999999998,0.5235987755982988,-0.5235987755982988,0,0.737365,0.0371424,0.96950245,0.60990417,-1.417937,0.10190771,0.55460334,0.7288057,-1.7004083,-1.1760072,0.013105396,-0.027064493,1.059042,-0.7260427
-0.1,0.1,1.4999999999999998,0.5235987755982988,-0.5235987755982988,0,0.7520438,0.034710698,0.97979945,0.6105151,-1.3107048,-0.044903763,0.15178645,0.7167936,-1.6898471,-1.1941774,-0.1329893,-0.0027918604,0.9560447,-0.7936083
-0.1,0.1,1.4999999999999998,0.5235987755982988,-0.5235987755982988,0,0.7466699,0.039020576,0.9737577,0.61142343,-1.3031023,0.08719693,1.0841851,0.72695863,-1.7024387,-1.1362257,-0.15423957,0.08111671,1.0601289,-0.62489855
-0.1,0.1,1.4999999999999998,0.5235987755982988,-0.5235987755982988,0,0.7362597,0.037610542,0.9839535,0.61426234,-1.136771,-0.22689582,-0.290069,0.72772783,-1.6986738,-1.1462924,-0.15139696,0.31030396,0.985718,-0.3090572
-0.1,0.1,1.4999999999999998,0.5235987755982988,-0.5235987755982988,0,0.738874,0.032733414,0.9689905,0.6108181,-1.3058783,0.16499801,-0.032863382,0.72912496,-1.7051575,-1.1703473,-0.19150293,0.32548246,1.030173,-0.51345026
-0.1,0.1,1.4999999999999998,0.5235987755982988,-0.5235987755982988,0,0.7403539,0.037610907,0.96377003,0.61456174,-1.2725627,-0.19426653,0.68219197,0.7252654,-1.7063909,-1.158314,-0.051910203,0.16840154,0.8476569,-1.5553973
-0.1,0.1,1.4999999999999998,0.5235987755982988,-0.5235987755982988,0,0.7505105,0.03473547,0.99040323,0.6008521,-1.2485723,-0.07610166,0.90296316,0.7290178,-1.7066272,-1.1805217,0.06512352,0.26143956,0.9790579,0.5461963
-0.1,0.1,1.4999999999999998,0.5235987755982988,-0.5235987755982988,0,0.73583233,0.04272074,0.97651345,0.60233444,-1.3359189,-0.08745373,-0.060743246,0.7255449,-1.6933764,-1.1755077,-0.0929283,-0.052546218,1.0372891,-1.3607056
-0.1,0.1,1.4999999999999998,0.5235987755982988,-0.5235987755982988,0,0.7370926,0.037149526,0.9800615,0.61625403,-1.2986585,-0.27975586,3.108488,0.7234346,-1.6992663,-1.1826389,0.035489623,-0.15605444,0.9439378,-0.7265755
-0.1,0.1,1.4999999999999998,0.5235987755982988,-0.5235987755982988,0,0.7451418,0.027764568,0.97644556,0.6018973,-1.2926158,-0.20586047,-1.5421718,0.7215812,-1.6912477,-1.1737007,-0.0028726715,-0.095984355,0.87039024,0.42505366
-0.1,0.1,1.4999999999999998,0.5235987755982988,-0.5235987755982988,0,0.7343464,0.0437056,0.98127383,0.6100181,-1.3532772,-0.13132718,-0.34086835,0.72824615,-1.6909578,-1.1759048,0.09114427,0.2544899,1.0115135,0.16500516
-0.1,0.1,1.4999999999999998,0.5235987755982988,-0.5235987755982988,0,0.73534805,0.044674292,0.9849673,0.6035384,-1.3633965,-0.020417862,-0.6694193,0.7250971,-1.709525,-1.2034832,0.073972955,0.54650956,0.88697135,-0.9043726
-0.1,0.1,1.4999999999999998,0.5235987755982988,-0.5235987755982988,0,0.74311453,0.03784951,0.9643382,0.6079368,-1.366494,0.041329406,1.0313182,0.72414,-1.6908718,-1.1552308,0.10498176,0.096403345,1.0616585,-1.1177446
-0.1,0.1,1.4999999999999998,0.5235987755982988,-0.5235987755982988,0,0.741192,0.048050802,0.9805803,0.6119145,-1.339004,-0.25699478,1.737972,0.72181726,-1.7035526,-1.1595913,-0.21192622,-0.14062029,0.92513055,-1.3484265
-0.1,0.1,1.4999999999999998,0.5235987755982988,-0.5235987755982988,0,0.73363936,0.03671193,0.9538081,0.61301726,-1.1923522,-0.09727252,-1.6701609,0.7227768,-1.6918907,-1.1841887,0.18654326,-0.013098212,0.9786131,-0.27317023
-0.1,0.1,1.4999999999999998,0.5235987755982988,-0.5235987755982988,0,0.7408511,0.022210434,0.9768201,0.6075465,-1.3516172,-0.28487933,0.44768387,0.7311673,-1.6982757,-1.1447432,0.13610592,0.256888,0.95722955,-1.1988063
-0.1,0.1,1.4999999999999998,0.5235987755982988,-0.5235987755982988,0,0.730776,0.038717754,0.96102065,0.61162823,-1.4724368,-0.25021398,-0.1600757,0.71653783,-1.6978831,-1.1473246,0.074286446,0.1144003,1.0975301,-0.49392042
-0.1,0.1,1.4999999999999998,0.5235987755982988,-0.5235987755982988,0,0.7363591,0.034849014,0.96690637,0.6173577,-1.4242374,0.107691884,0.5314633,0.727265,-1.699825,-1.1382353,0.00941755,0.42812258,1.0164732,-0.30443108
-0.1,0.1,1.4999999999999998,0.5235987755982988,-0.5235987755982988,0,0.7403233,0.033307552,0.98606765,0.6053718,-1.2504634,-0.017405285,-0.04949742,0.72701085,-1.6976781,-1.188754,0.023869589,-0.011151175,0.9369027,-1.0019609
-0.1,0.1,1.4999999999999998,0.5235987755982988,-0.5235987755982988,0,0.73850614,0.042912778,0.97075564,0.61592513,-1.3347765,0.045073427,0.54519606,0.7220293,-1.6968079,-1.1502839,-0.1852379,-0.02865479,0.8867095,-0.7341967
-0.1,0.1,1.4999999999999998,0.5235987755982988,-0.5235987755982988,0,0.74671173,0.037758738,0.9744114,0.61007714,-1.3698913,-0.021394214,1.5268725,0.7199615,-1.7072392,-1.171134,-0.053017683,0.24981546,1.0763501,-0.339265
-0.1,0.1,1.4999999999999998,0.5235987755982988,-0.5235987755982988,0,0.72368985,0.033211987,0.971902,0.6152008,-1.3205062,-0.0021062668,-0.7938296,0.71953624,-1.7014986,-1.1841847,0.009841583,-0.06709802,0.8865964,-0.6227586
-0.1,0.1,1.4999999999999998,0.5235987755982988,-0.5235987755982988,0,0.7643171,0.03911999,0.96024114,0.60975957,-1.2629306,-0.32686713,1.0569614,0.72649306,-1.6951791,-1.1578349,0.05440767,0.17460808,0.956099,-0.96275896
-0.1,0.1,1.4999999999999998,0.5235987755982988,-0.5235987755982988,0,0.73892176,0.03683124,0.9951018,0.60315335,-1.3649914,-0.07235959,0.6589475,0.7289049,-1.6945235,-1.1793474,-0.026493324,0.2947059,1.1315168,-0.7829423
-0.1,0.1,1.4999999999999998,0.5235987755982988,-0.5235987755982988,0,0.73541147,0.042632893,0.9764746,0.61793506,-1.3951006,0.1010587,0.26117626,0.72838295,-1.6794556,-1.1964617,-0.03642647,0.14397502,1.0076265,-0.93073446
-0.1,0.1,1.4999999999999998,0.5235987755982988,-0.5235987755982988,0,0.7249647,0.03836923,0.974931,0.6108934,-1.2718805,-0.12949468,1.0526652,0.72588384,-1.7012858,-1.1544081,-0.24103315,0.19376923,1.0188831,-0.57138896
-0.1,0.1,1.4999999999999998,0.5235987755982988,-0.5235987755982988,0,0.7311761,0.04245431,0.97306347,0.61101323,-1.3601432,-0.19398253,-1.5364195,0.7278381,-1.6960405,-1.1822462,-0.16217488,-0.06609905,0.9740721,-1.8255419
-0.1,0.1,1.4999999999999998,0.5235987755982988,-0.5235987755982988,0,0.7457993,0.034827776,0.9822108,0.6202103,-1.3035997,0.02800266,-1.1613117,0.7262922,-1.6895941,-1.1770587,-0.16635366,-0.111448966,1.088895,0.5346644
-0.1,0.1,1.4999999999999998,0.5235987755982988,-0.5235987755982988,0,0.74036777,0.0416762,0.9766098,0.61699873,-1.2364328,0.105766326,-1.274717,0.7289829,-1.6955088,-1.1711742,-0.15464383,0.039146844,0.9223,-0.8897478
-0.1,0.1,1.4999999999999998,0.5235987755982988,-0.5235987755982988,0,0.73528624,0.042779475,0.9937947,0.61044466,-1.2762632,-0.18892518,-0.08728723,0.7298803,-1.7041929,-1.155103,-0.24886473,0.1314573,1.0048143,-0.26784402
-0.1,0.1,1.4999999999999998,0.5235987755982988,-0.5235987755982988,0,0.72760904,0.035334487,0.982751,0.60668474,-1.2679199,-0.17647178,-0.87652487,0.72931296,-1.7144045,-1.1766208,-0.11927141,0.27618793,0.99753255,-1.1679747
-0.1,0.1,1.4999999999999998,0.5235987755982988,-0.5235987755982988,0,0.74807405,0.039187253,0.9697848,0.6047398,-1.3185134,-0.28367522,0.20918088,0.72315204,-1.7028376,-1.2079129,-0.006229556,0.07816371,0.9728472,-0.3954333
-0.1,0.1,1.4999999999999998,0.5235987755982988,-0.5235987755982988,0,0.7394953,0.042087443,0.97264594,0.61747813,-1.2743949,-0.23309004,-0.2848955,0.7181915,-1.6856166,-1.1582382,-0.039278578,0.017130999,0.93897307,-0.54567516
-0.1,0.1,1.4999999999999998,0.5235987755982988,-0.5235987755982988,0,0.74052525,0.044223923,0.9650662,0.60607934,-1.3097346,-0.06497585,-1.5221803,0.7232988,-1.7002274,-1.1697332,-0.22142869,0.3511632,0.7893751,0.2520921
-0.1,0.1,1.4999999999999998,0.5235987755982988,-0.5235987755982988,0,0.7424089,0.039647423,0.97717524,0.60205334,-1.3723505,0.056473684,-0.71915895,0.7266034,-1.7018213,-1.1854768,-0.036684293,-0.10916803,0.9614422,0.33996737
-0.1,0.1,1.4999999999999998,0.5235987755982988,-0.5235987755982988,0,0.7523772,0.04715221,0.9626458,0.60127676,-1.3990895,-0.09966811,0.82527214,0.726078,-1.7036512,-1.1700921,-0.008760817,-0.08446453,1.0096712,-0.45734835
-0.1,0.1,1.4999999999999998,0.5235987755982988,-0.5235987755982988,0,0.7505039,0.04529009,0.9902981,0.6048131,-1.3941778,0.07350579,1.4476981,0.72387344,-1.7035729,-1.1909705,0.04156513,-0.1387383,0.98782945,-0.46908343
-0.1,0.1,1.4999999999999998,0.5235987755982988,-0.5235987755982988,0,0.7505515,0.04551725,0.9737289,0.605801,-1.2798932,-0.009202575,-1.1506183,0.7270488,-1.7014045,-1.1351575,-0.067641065,0.13489543,0.8213544,-0.053287696
-0.1,0.1,1.4999999999999998,0.5235987755982988,-0.5235987755982988,0,0.7430426,0.033724245,0.9691613,0.60678226,-1.2853355,-0.07615129,-0.13756119,0.7259018,-1.6985339,-1.181562,0.015652306,-0.23434448,1.083967,-0.19972846
-0.1,0.1,1.4999999999999998,0.5235987755982988,-0.5235987755982988,0,0.7383839,0.042731848,0.9688923,0.6078541,-1.3489809,-0.0057328357,-0.09012246,0.7242813,-1.7061635,-1.1668323,-0.09736372,-0.1454015,1.0306133,-0.28385204
-0.1,0.1,1.4999999999999998,0.5235987755982988,-0.5235987755982988,0,0.7500196,0.04812147,0.9792542,0.6116138,-1.3747985,-0.17357087,-2.2267127,0.7241109,-1.6957734,-1.1476951,-0.07649932,0.06581912,0.88009346,-0.33816728
-0.1,0.1,1.4999999999999998,0.5235987755982988,-0.5235987755982988,0,0.7398997,0.043461114,0.97292876,0.6130313,-1.3304378,0.11917488,0.22692835,0.72968096,-1.6934426,-1.15387,-0.049525358,0.035359923,1.0503322,-0.33927017
-0.1,0.1,1.4999999999999998,0.5235987755982988,-0.5235987755982988,0,0.7474009,0.045473464,0.9729311,0.605885,-1.4645944,-0.0016101372,-1.0137575,0.7303043,-1.7065305,-1.174914,-0.2238895,-0.19530657,1.034717,-1.4098969
-0.1,0.1,1.4999999999999998,0.5235987755982988,-0.5235987755982988,0,0.7377,0.038820922,0.97152686,0.61530125,-1.1935414,-0.07770524,-1.0661955,0.7229606,-1.7004292,-1.1609209,-0.115821674,0.05196869,1.1318945,0.6674232
-0.1,0.1,1.4999999999999998,0.5235987755982988,-0.5235987755982988,0,0.7328031,0.03531493,0.9856661,0.6160674,-1.317739,-0.11013394,0.017318884,0.71911114,-1.6994742,-1.1815149,0.00567126,-0.009750968,1.0750926,-0.32586503
-0.1,0.1,1.4999999999999998,0.5235987755982988,-0.5235987755982988,0,0.72885746,0.04139971,0.9763661,0.6095394,-1.3225242,-0.10035098,0.44348276,0.7262146,-1.694955,-1.1635493,-0.12702765,0.24223092,0.9795395,-0.38454115
-0.1,0.1,1.4999999999999998,0.5235987755982988,-0.5235987755982988,0,0.7223103,0.033728287,0.97164285,0.6106207,-1.3952485,-0.07527579,0.16899617,0.7227924,-1.7025127,-1.179415,-0.004227889,-0.07677152,0.85006905,-0.33293492
-0.1,0.1,1.4999999999999998,0.5235987755982988,-0.5235987755982988,0,0.7342093,0.037100557,0.98259425,0.60877043,-1.2651796,-0.20830391,-0.1792942,0.720191,-1.6928653,-1.1922549,-0.046501532,-0.042058095,0.91389453,-0.79652077
-0.1,0.1,1.4999999999999998,0.5235987755982988,-0.5235987755982988,0,0.7350887,0.042914618,0.96133995,0.60964835,-1.2887474,0.15351419,-1.079201,0.7245031,-1.7016355,-1.1771537,0.025151782,-0.017741706,0.9326681,-0.49336264
-0.1,0.1,1.4999999999999998,0.5235987755982988,-0.5235987755982988,0,0.72832257,0.027670171,0.96362936,0.6118448,-1.2915201,-0.12877764,-0.21270667,0.7251336,-1.7068228,-1.1337276,-0.052115478,-0.08060725,1.000349,0.62266195
-0.1,0.1,1.4999999999999998,0.5235987755982988,-0.5235987755982988,0,0.73329896,0.031421825,0.9762825,0.61459947,-1.3403257,-0.21743062,-0.93890774,0.7377352,-1.7085447,-1.1755552,-0.010750982,0.17926912,0.908323,-0.48327297
-0.1,0.1,1.4999999999999998,0.5235987755982988,-0.5235987755982988,0,0.7384031,0.041114386,0.97510594,0.610346,-1.3568004,-0.055672355,-2.496986,0.7260863,-1.6945051,-1.1466544,-0.14014772,-0.15140156,1.0846096,-0.33635855
-0.1,0.1,1.4999999999999998,0.5235987755982988,-0.5235987755982988,0,0.7338202,0.048990037,0.97585946,0.60726815,-1.3391743,-0.1891652,0.3802165,0.7257492,-1.6983145,-1.165474,-0.08622264,-0.0022605266,0.8496283,-0.30718616
-0.1,0.1,1.4999999999999998,0.5235987755982988,-0.5235987755982988,0,0.7588885,0.03897178,0.969371,0.60552204,-1.29748,-0.24162783,1.512472,0.72362643,-1.70565,-1.1788005,-0.24036656,0.30477142,0.944007,-0.3760973
-0.1,0.1,1.4999999999999998,0.5235987755982988,-0.5235987755982988,0,0.74130064,0.036542244,0.97425133,0.6119854,-1.3856207,-0.16737048,0.31400248,0.7271368,-1.6969731,-1.2048942,0.040102087,-0.041502375,0.8745639,-1.0472728
-0.1,0.1,1.4999999999999998,0.5235987755982988,-0.5235987755982988,0,0.7396752,0.03631838,0.9752181,0.6063239,-1.3142186,-0.15091258,1.5988435,0.73018795,-1.7137917,-1.1737307,-0.05378403,0.21741472,1.0713332,-0.037574194
-0.1,0.1,1.4999999999999998,0.5235987755982988,-0.5235987755982988,0,0.739455,0.029974313,0.9785321,0.6043275,-1.3068489,-0.30790034,-0.91006416,0.7186881,-1.6941396,-1.159658,-0.08218954,0.44678387,1.0415404,0.9004493
-0.1,0.1,1.4999999999999998,0.5235987755982988,-0.5235987755982988,0,0.74094325,0.039196968,0.97614217,0.6087364,-1.3316171,-0.2577359,0.15764792,0.72467506,-1.6919754,-1.206678,-0.15599386,0.1606375,1.1008576,-0.36894873
-0.1,0.1,1.4999999999999998,0.5235987755982988,-0.5235987755982988,0,0.753331,0.04074579,0.95300204,0.60837936,-1.3508474,0.05287602,0.15851249,0.72536427,-1.709683,-1.180982,0.036161005,0.25899002,1.0739298,-1.5964391
-0.1,0.1,1.4999999999999998,0.5235987755982988,-0.5235987755982988,0,0.731685,0.036962155,0.97090584,0.6154278,-1.2398788,-0.3275153,0.025874851,0.7277741,-1.6982566,-1.1572218,-0.0019901544,0.28792137,0.96983916,-1.220228
-0.1,0.1,1.4999999999999998,0.5235987755982988,-0.5235987755982988,0,0.73340917,0.04063698,0.95922905,0.612478,-1.3717719,-0.3081116,0.052877206,0.7220286,-1.7023256,-1.1653116,-0.10330381,0.15838,0.8329991,-0.06126447
-0.1,0.1,1.4999999999999998,0.5235987755982988,-0.5235987755982988,0,0.74543524,0.04144237,0.9631512,0.6105909,-1.3199369,0.19200192,-1.72316,0.7237225,-1.6958346,-1.1691694,-0.07469543,0.07068793,0.900664,0.28389034
-0.1,0.1,1.4999999999999998,0.5235987755982988,-0.5235987755982988,0,0.7410211,0.03906477,0.9796427,0.6100443,-1.2582012,-0.13983443,0.115081124,0.71899444,-1.6907508,-1.1956825,-0.22558872,-0.047165193,1.3200879,-0.49774078
-0.1,0.1,1.4999999999999998,0.5235987755982988,-0.5235987755982988,0,0.75297254,0.04445964,0.9673188,0.61049247,-1.2565038,-0.10925049,-0.7567787,0.7223004,-1.6968424,-1.1978818,-0.066358134,0.098364905,0.95061517,-0.97323936
-0.1,0.1,1.4999999999999998,0.5235987755982988,-0.5235987755982988,0,0.7369266,0.04969903,0.97396344,0.61509377,-1.3216705,-0.14141965,0.6359194,0.7247073,-1.6927084,-1.1838518,-0.16625765,0.12101012,0.9821777,-0.15362611
-0.1,0.1,1.4999999999999998,0.5235987755982988,-0.5235987755982988,0,0.7469404,0.03477598,0.9782381,0.60795885,-1.2813926,-0.2683214,1.1589464,0.72819155,-1.7032123,-1.1793506,0.07017644,0.2002535,0.9578538,-1.1846961
-0.1,0.1,1.4999999999999998,0.5235987755982988,-0.5235987755982988,0,0.7473711,0.032646544,0.9672705,0.60490906,-1.3708243,0.038116414,0.58206487,0.725143,-1.7039466,-1.1289678,-0.09555706,-0.15290448,0.93992233,-0.460856
-0.1,0.1,1.4999999999999998,0.5235987755982988,-0.5235987755982988,0,0.74184597,0.051109586,0.9768776,0.6093234,-1.3138514,-0.18049134,-0.5613331,0.7252435,-1.6987488,-1.2049772,0.026333315,-0.37404123,0.8860883,-0.23651527
-0.1,0.1,1.4999999999999998,0.5235987755982988,-0.5235987755982988,0,0.7487246,0.04047253,0.9754445,0.6103848,-1.326384,-0.14077654,-0.26980886,0.71731484,-1.6947545,-1.1706798,-0.0744037,0.08718873,1.0962353,-0.9567712
-0.1,0.1,1.4999999999999998,0.5235987755982988,-0.5235987755982988,0,0.74378365,0.03994642,0.9667206,0.60639757,-1.3341266,-0.21124241,-0.8065909,0.7237701,-1.6968223,-1.1859397,-0.15288988,0.15030715,1.1490964,0.39630505
-0.1,0.1,1.4999999999999998,0.5235987755982988,-0.5235987755982988,0,0.7334957,0.040740773,0.98039204,0.6056757,-1.3915696,-0.30071488,0.32447663,0.7272262,-1.6867595,-1.2209882,-0.15760903,-0.35470262,1.0111177,-0.69237566
-0.1,0.1,1.4999999999999998,0.5235987755982988,-0.5235987755982988,0,0.7181569,0.030495225,0.98019165,0.61941403,-1.3973327,0.13741381,0.40796822,0.7227029,-1.6971152,-1.1749017,-0.046220563,0.25808093,1.0670074,0.12100361
-0.1,0.1,1.4999999999999998,0.5235987755982988,-0.5235987755982988,0,0.7392529,0.037138563,0.9808539,0.61796117,-1.2911586,0.07172485,-0.32305884,0.7264188,-1.6953623,-1.1770864,0.10183815,-0.19634008,1.0206976,-0.97277623
-0.1,0.1,1.4999999999999998,0.5235987755982988,-0.5235987755982988,0,0.74694,0.034642573,0.9653075,0.6114199,-1.3612976,-0.35980153,-1.5143209,0.7367282,-1.7142892,-1.1875029,0.10967111,0.035038523,0.85761905,-0.3668567
-0.1,0.1,1.4999999999999998,0.5235987755982988,-0.5235987755982988,0,0.73215866,0.03311274,0.9696015,0.6098488,-1.3635535,0.03621768,1.3156049,0.72354853,-1.696885,-1.1451914,-0.102094516,0.21506102,0.9319654,-0.33720142
-0.1,0.1,1.4999999999999998,0.5235987755982988,-0.5235987755982988,0,0.7337213,0.045798115,0.98786736,0.6113082,-1.2618631,-0.1664259,-0.092765935,0.72282255,-1.6982527,-1.1921266,-0.14550902,0.06670433,0.89733016,-0.59619546
-0.1,0.1,1.4999999999999998,0.5235987755982988,-0.5235987755982988,0,0.75603753,0.049462292,0.97295296,0.60894316,-1.3242854,-0.08096991,-0.745765,0.7318534,-1.6988366,-1.1912667,-0.11365656,-0.10821343,0.92511535,-1.0230497
-0.1,0.1,1.4999999999999998,0.5235987755982988,-0.5235987755982988,0,0.74073076,0.02776721,0.96720815,0.60716945,-1.2730243,-0.08873647,-0.51011086,0.7211672,-1.6954045,-1.1625997,0.051958058,0.030724194,1.1215352,-0.8861786
-0.1,0.1,1.4999999999999998,0.5235987755982988,-0.5235987755982988,0,0.7481097,0.046617944,0.9838482,0.6099016,-1.3843228,-0.24938451,0.99500614,0.72302485,-1.6992123,-1.1921897,-0.15654103,0.2286273,1.1825469,0.41193688
-0.1,0.1,1.4999999999999998,0.5235987755982988,-0.5235987755982988,0,0.73104787,0.037603453,0.98738855,0.6129101,-1.3653014,-0.116814114,0.26563352,0.72342676,-1.7019129,-1.14954,-0.07567655,-0.3118247,0.98180234,-0.72282887
-0.1,0.1,1.4999999999999998,0.5235987755982988,-0.5235987755982988,0,0.7333262,0.03880601,0.9754549,0.6088646,-1.3464161,-0.14990637,-0.7369403,0.7208075,-1.6794704,-1.1724987,-0.013391185,-0.06124459,0.9062218,-0.4011573
-0.1,0.1,1.4999999999999998,0.5235987755982988,-0.5235987755982988,0,0.7475383,0.04763486,0.9676861,0.61534315,-1.3301939,-0.09048664,-0.47964695,0.7310895,-1.7065097,-1.1642321,-0.026436053,-0.031827334,1.0085291,-0.3493203
-0.1,0.1,1.4999999999999998,0.5235987755982988,-0.5235987755982988,0,0.73510826,0.03629132,0.9768305,0.610668,-1.2380085,-0.17128247,-0.15146951,0.7281953,-1.6952279,-1.1684117,-0.20993502,0.025225583,0.86394346,-0.56616145
-0.1,0.1,1.4999999999999998,0.5235987755982988,-0.5235987755982988,0,0.74305624,0.053126708,0.9762461,0.6079963,-1.363683,-0.09774019,-1.8251014,0.72298247,-1.7013674,-1.2088524,0.007378178,0.013944561,1.0872825,-0.49442315
-0.1,0.1,1.4999999999999998,0.5235987755982988,-0.5235987755982988,0,0.7440478,0.04666382,0.97965753,0.606616,-1.3879229,-0.22664821,0.35249874,0.72809,-1.7008226,-1.1989168,0.018957708,-0.23942009,1.0495892,-0.41802973
-0.1,0.1,1.4999999999999998,0.5235987755982988,-0.5235987755982988,0,0.740479,0.048947506,0.97243744,0.6132682,-1.2601869,-0.27485558,1.223316,0.729421,-1.6934234,-1.1764785,-0.061469633,-0.25661996,1.100214,-0.46381015
-0.1,0.1,1.4999999999999998,0.5235987755982988,-0.5235987755982988,0,0.73566884,0.041832116,0.9692991,0.61087686,-1.2710654,-0.05812105,-0.5387836,0.7225879,-1.6890962,-1.1674793,-0.07845989,0.24351093,1.027704,0.0024858494
-0.1,0.1,1.4999999999999998,0.5235987755982988,-0.5235987755982988,0,0.74431294,0.04531686,0.9784402,0.60897356,-1.2624277,-0.32532787,-1.8332531,0.72468907,-1.7025695,-1.185788,0.1311247,0.100649595,1.0990695,-0.26342508
-0.1,0.1,1.4999999999999998,0.5235987755982988,-0.5235987755982988,0,0.7469769,0.043177243,0.9869686,0.6111932,-1.2591407,-0.09385479,1.5025291,0.72395754,-1.6935359,-1.1680003,-0.11538132,-0.0793397,1.0765313,-0.51478356
-0.1,0.1,1.4999999999999998,0.5235987755982988,-0.5235987755982988,0,0.72958386,0.041481264,0.9782948,0.6070645,-1.2512406,-0.11008105,0.8034913,0.72602344,-1.6859847,-1.1973257,-0.011502128,0.05189192,0.93593365,0.04189554
-0.1,0.1,1.4999999999999998,0.5235987755982988,-0.5235987755982988,0,0.7244553,0.03789451,0.98073,0.6096259,-1.3411701,-0.2471628,0.06351848,0.72586375,-1.6915067,-1.1667945,-0.08476595,0.06409907,0.898236,0.083801985
-0.1,0.1,1.4999999999999998,0.5235987755982988,-0.5235987755982988,0,0.7561686,0.03945541,0.96769536,0.60790575,-1.275552,-0.22668335,-1.864606,0.72432953,-1.7069892,-1.1718808,-0.15693906,0.40679288,0.99324304,-0.51148576
-0.1,0.1,1.4999999999999998,0.5235987755982988,-0.5235987755982988,0,0.7324494,0.039123464,0.974639,0.61202514,-1.2571138,-0.11981644,-0.46309844,0.72474086,-1.699328,-1.1508871,-0.051176187,0.12206335,1.0345289,0.08203205
-0.1,0.1,1.4999999999999998,0.5235987755982988,-0.5235987755982988,0,0.73370427,0.026667925,0.96772695,0.6164214,-1.285219,-0.02724327,0.23872533,0.72100073,-1.700138,-1.1571957,-0.1453551,0.33584726,0.9084273,-0.20227425
-0.1,0.1,1.4999999999999998,0.5235987755982988,-0.5235987755982988,0,0.74045444,0.03903551,0.97506666,0.61122906,-1.2501584,-0.36191997,-1.2921792,0.7354501,-1.7039113,-1.1980652,-0.18024434,0.1540186,0.93141955,-0.748614
-0.1,0.1,1.4999999999999998,0.5235987755982988,-0.5235987755982988,0,0.7446076,0.046722665,0.96709794,0.6149417,-1.3291229,-0.2738456,0.9668484,0.7317483,-1.6967145,-1.1895595,-0.23951505,0.0030909257,1.1143998,-1.4645809
-0.1,0.1,1.4999999999999998,0.5235987755982988,-0.5235987755982988,0,0.7486288,0.039300386,0.9799454,0.6089723,-1.2683959,-0.1293451,0.61522007,0.7326341,-1.7017636,-1.1896245,-0.15242602,0.08788863,0.89164424,-0.89198977
-0.1,0.1,1.4999999999999998,0.5235987755982988,-0.5235987755982988,0,0.73843724,0.035095274,0.9727214,0.60776436,-1.3897986,-0.16831481,1.1980649,0.7223992,-1.693508,-1.1815145,-0.12604785,-0.17859587,0.9593011,-0.4796538
-0.1,0.1,1.4999999999999998,0.5235987755982988,-0.5235987755982988,0,0.7362095,0.03718212,0.9776075,0.5990564,-1.3846931,-0.09683376,1.1242744,0.7197574,-1.6974217,-1.1979055,-0.046584174,0.08986005,1.0434682,-0.8837252
-0.1,0.1,1.4999999999999998,0.5235987755982988,-0.5235987755982988,0,0.7399109,0.03842038,0.9710288,0.61093897,-1.3110185,-0.23712066,-0.56535727,0.71870035,-1.6809053,-1.166359,-0.10680251,0.07437538,0.91051286,-0.5048695
-0.1,0.1,1.4999999999999998,0.5235987755982988,-0.5235987755982988,0,0.741136,0.037528146,0.9762617,0.60983324,-1.3498479,-0.24559349,-0.37915587,0.7234404,-1.7050191,-1.1716412,-0.09475391,0.19833978,1.146517,-0.56288815
-0.1,0.1,1.4999999999999998,0.5235987755982988,-0.5235987755982988,0,0.73479426,0.030890018,0.97655976,0.6055679,-1.29547,-0.2333418,0.685473,0.7285502,-1.709583,-1.1448009,0.035239395,-0.09728032,0.9359665,-0.7650471
-0.1,0.1,1.4999999999999998,0.5235987755982988,-0.5235987755982988,0,0.7497277,0.043113045,0.9809806,0.6123384,-1.3749527,-0.3054567,-0.6707604,0.71951014,-1.6764057,-1.1829327,-0.19587131,0.37809506,0.77425665,0.355295
-0.1,0.1,1.4999999999999998,0.5235987755982988,-0.5235987755982988,0,0.7407565,0.046646412,0.97403777,0.61221164,-1.3705752,-0.09213798,-1.7114377,0.7234178,-1.6969218,-1.1693871,-0.09051892,0.020552555,0.8495169,-1.3690822
-0.1,0.1,1.4999999999999998,0.5235987755982988,-0.5235987755982988,0,0.748223,0.030538836,0.97506225,0.6105042,-1.3143573,-0.0030995938,0.1945401,0.72383595,-1.7054037,-1.1621789,-0.2007156,-0.27676544,1.0981485,-0.69216347
-0.1,0.1,1.4999999999999998,0.5235987755982988,-0.5235987755982988,0,0.7525475,0.03267127,0.9711706,0.61351484,-1.2998978,-0.17307836,-0.2393785,0.72498006,-1.7011213,-1.1887871,0.041632764,-0.39027578,0.9947405,-0.22307752
-0.1,0.1,1.4999999999999998,0.5235987755982988,-0.5235987755982988,0,0.73722446,0.047241125,0.9720588,0.6147541,-1.3061678,-0.11257405,-0.35040367,0.72828215,-1.6947356,-1.1992157,-0.1490066,0.27307084,1.1213839,-0.2869019
-0.1,0.1,1.4999999999999998,0.5235987755982988,-0.5235987755982988,0,0.73905826,0.040942274,0.98350865,0.6041173,-1.395241,0.10897748,1.3911884,0.7248251,-1.6967325,-1.1638639,-0.06466071,-0.14813879,0.9453641,-1.0416636
-0.1,0.1,1.4999999999999998,0.5235987755982988,-0.5235987755982988,0,0.7223089,0.036107887,0.9945941,0.60947347,-1.2828044,-0.14757107,-0.37315065,0.7205673,-1.6894958,-1.1732076,0.06895938,-0.19297552,1.0324532,-0.1439979
-0.1,0.1,1.4999999999999998,0.5235987755982988,-0.5235987755982988,0,0.7497506,0.04713178,0.9801847,0.6217598,-1.4046531,0.021692008,-0.434075,0.72234803,-1.6895573,-1.1625295,-0.14513214,0.118181504,0.9079952,-0.08163496
-0.1,0.1,1.4999999999999998,0.5235987755982988,-0.5235987755982988,0,0.753713,0.041594774,0.9662226,0.60932004,-1.2674954,-0.10345647,-2.2161765,0.72389567,-1.700551,-1.1847992,-0.13841683,0.0025689432,0.883897,-0.27302742
-0.1,0.1,1.4999999999999998,0.5235987755982988,-0.5235987755982988,0,0.7557993,0.04328371,0.97716147,0.60651535,-1.2888666,-0.21019967,-0.03194971,0.7209522,-1.703065,-1.2129503,-0.23506722,0.004900509,1.0358441,-0.57984424
-0.1,0.1,1.4999999999999998,0.5235987755982988,-0.5235987755982988,0,0.74591535,0.043032218,0.9726837,0.6126174,-1.2825451,-0.15554917,-0.3439365,0.7247812,-1.7019273,-1.1673356,0.044343792,-0.17775668,1.0083125,-0.7302549
-0.1,0.1,1.4999999999999998,0.5235987755982988,-0.5235987755982988,0,0.73954946,0.030753667,0.9784347,0.6083072,-1.3757958,-0.030299256,-0.7616429,0.7266886,-1.7025156,-1.1570413,-0.12152584,0.11290953,1.0677177,-0.5410553
-0.1,0.1,1.4999999999999998,0.5235987755982988,-0.5235987755982988,0,0.7372064,0.039877117,0.9835826,0.61210513,-1.292526,-0.37284622,0.86645305,0.72324264,-1.7065802,-1.1339865,-0.10684273,0.19642222,1.0625374,0.09286642
-0.1,0.1,1.4999999999999998,0.5235987755982988,-0.5235987755982988,0,0.734483,0.045037143,0.9843751,0.61799616,-1.317583,-0.12738025,-1.5436774,0.7251682,-1.6990538,-1.1704826,-0.18323079,-0.18211442,0.8855979,-0.17012618
-0.1,0.1,1.4999999999999998,0.5235987755982988,-0.5235987755982988,0,0.7509955,0.048271876,0.97261757,0.61660314,-1.2837114,-0.09109876,0.31274912,0.72296745,-1.6926847,-1.1773885,-0.050354075,-0.043826174,1.0407563,-0.5227308
-0.1,0.1,1.4999999999999998,0.5235987755982988,-0.5235987755982988,0,0.75505877,0.04319978,0.986496,0.6102809,-1.389591,0.027301433,1.1331112,0.7177066,-1.6923351,-1.1798134,-0.13744387,-0.1717512,0.98093,-1.1672674
-0.1,0.1,1.4999999999999998,0.5235987755982988,-0.5235987755982988,0,0.74229264,0.039950304,0.9813486,0.60602397,-1.2335241,0.06313452,-0.70514965,0.7229428,-1.7067163,-1.1710002,-0.21108079,0.19877987,0.9413641,-0.22427697
-0.1,0.1,1.4999999999999998,0.5235987755982988,-0.5235987755982988,0,0.7297196,0.03881411,0.9840344,0.6111148,-1.4025675,-0.13913922,-0.169094,0.7185887,-1.7026025,-1.1726917,-0.051599246,-0.07164901,1.0175079,-0.9864161
-0.1,0.1,1.4999999999999998,0.5235987755982988,-0.5235987755982988,0,0.7382151,0.042952225,0.9811326,0.6105424,-1.2484385,-0.13678907,0.31272647,0.7341878,-1.6894287,-1.1793619,-0.14579642,-0.32714528,0.77016306,-0.40876234
-0.1,0.1,1.4999999999999998,0.5235987755982988,-0.5235987755982988,0,0.74478066,0.038685687,0.97723377,0.6088209,-1.2733449,-0.062924184,1.5331215,0.73138404,-1.6822419,-1.2168912,-0.03950538,0.3038424,1.0079105,-0.12912971
-0.1,0.1,1.4999999999999998,0.5235987755982988,-0.5235987755982988,0,0.7336563,0.03710027,0.98650616,0.6047368,-1.2616317,-0.14485273,0.43539008,0.72396404,-1.6966884,-1.1859561,-0.058306925,0.19354434,1.1541353,0.049496993
-0.1,0.1,1.4999999999999998,0.5235987755982988,-0.5235987755982988,0,0.73228794,0.025361754,0.97989047,0.6092145,-1.2719219,-0.09077531,-0.6960205,0.7239314,-1.6955258,-1.1874558,-0.018734671,0.03742481,1.1828597,-0.70302445
-0.1,0.1,1.4999999999999998,0.5235987755982988,-0.5235987755982988,0,0.7456982,0.037670586,0.968314,0.61084,-1.4184394,-0.07810467,-0.9169997,0.72314113,-1.6930784,-1.1759326,-0.018724697,0.4164055,0.78410774,0.20968215
-0.1,0.1,1.4999999999999998,0.5235987755982988,-0.5235987755982988,0,0.73909795,0.03403112,0.97018325,0.6098825,-1.2614079,-0.3086997,-0.0011597457,0.7180642,-1.6861284,-1.145472,-0.1259982,-0.27656808,1.0475652,0.41562745
-0.1,0.1,1.4999999999999998,0.5235987755982988,-0.5235987755982988,0,0.7385474,0.043006342,0.9854152,0.59796923,-1.3672813,-0.18651833,-1.5764147,0.7301017,-1.6962128,-1.1845206,-0.14470595,0.19772777,1.21225,0.0684499
-0.1,0.1,1.4999999999999998,0.5235987755982988,-0.5235987755982988,0,0.7265988,0.032810736,0.97299474,0.6080031,-1.3831322,-0.083878644,-0.83055854,0.72296864,-1.6989677,-1.1613556,-0.05302749,0.14039874,1.0786293,0.238177
-0.1,0.1,1.4999999999999998,0.5235987755982988,-0.5235987755982988,0,0.74960345,0.03513826,0.9790752,0.6165594,-1.4095168,-0.39880192,0.99789494,0.7222373,-1.7028468,-1.203412,-0.12038913,0.16402987,0.9723727,0.03836561
-0.1,0.1,1.4999999999999998,0.5235987755982988,-0.5235987755982988,0,0.7483964,0.041195028,0.97530603,0.6078003,-1.3675277,-0.060452256,-0.16263203,0.7216246,-1.6966347,-1.1667407,-0.022819469,0.05428737,1.0055175,-0.48500073
-0.1,0.1,1.4999999999999998,0.5235987755982988,-0.5235987755982988,0,0.7528054,0.045830227,0.9835676,0.61441064,-1.3258034,0.009302911,1.6001016,0.7250148,-1.6918112,-1.1777525,-0.17491324,0.33658937,1.0323077,0.20814276
-0.1,0.1,1.4999999999999998,0.5235987755982988,-0.5235987755982988,0,0.739095,0.04284048,0.9795355,0.6109209,-1.4004155,-0.077021815,-1.464048,0.72056985,-1.7005966,-1.1852903,-0.083144404,0.095610194,1.2359698,-0.27503207
-0.1,0.1,1.4999999999999998,0.5235987755982988,-0.5235987755982988,0,0.7389335,0.032317065,0.97362566,0.6142007,-1.2394378,-0.05605411,-1.0870881,0.7265113,-1.6899487,-1.1887051,0.023484783,-0.13827099,0.8992567,-0.45000842
-0.1,0.1,1.4999999999999998,0.5235987755982988,-0.5235987755982988,0,0.7468349,0.03937284,0.97079104,0.6081195,-1.3143703,0.12154972,-1.6152552,0.7253317,-1.7112545,-1.1761711,-0.11814854,0.30486274,1.0923693,-0.35300437
-0.1,0.1,1.4999999999999998,0.5235987755982988,-0.5235987755982988,0,0.7380749,0.027493898,0.97060907,0.6057053,-1.2544271,-0.26242337,0.79649836,0.7254194,-1.7026561,-1.1603347,-0.21310768,0.122319564,0.98523635,0.02543602
-0.1,0.1,1.4999999999999998,0.5235987755982988,-0.5235987755982988,0,0.742469,0.04654873,0.9846946,0.6106174,-1.2838247,0.122504756,-0.15542495,0.72214425,-1.7051915,-1.170938,-0.18138088,-0.07552789,1.0613259,-0.8270125
-0.1,0.1,1.4999999999999998,0.5235987755982988,-0.5235987755982988,0,0.7583072,0.04491714,0.9794779,0.61029774,-1.2670215,-0.12601054,1.3773186,0.7295092,-1.7043535,-1.1440132,-0.17402366,-0.11670046,1.024131,-0.49602738
-0.1,0.1,1.4999999999999998,0.5235987755982988,-0.5235987755982988,0,0.74264205,0.04971639,0.978695,0.61652076,-1.272988,-0.12752639,0.3273087,0.72582316,-1.7030444,-1.1772399,-0.2501959,-0.097127326,0.9869061,-0.08969749
-0.1,0.1,1.4999999999999998,0.5235987755982988,-0.5235987755982988,0,0.7589959,0.050138492,0.977734,0.61128676,-1.2559407,-0.16072842,-0.20770551,0.73129123,-1.6930348,-1.198606,0.0144209,0.26143757,1.208458,-1.0534495
-0.1,0.1,1.4999999999999998,0.5235987755982988,-0.5235987755982988,0,0.74636286,0.043294854,0.9854775,0.61216915,-1.3907456,-0.19273804,-1.5690603,0.7258862,-1.6910441,-1.1733223,-0.14355755,-0.12272685,0.86611104,0.23005645
-0.1,0.1,1.4999999999999998,0.5235987755982988,-0.5235987755982988,0,0.7399628,0.047536634,0.9825361,0.6095213,-1.3479846,-0.14645557,-0.9722442,0.7252414,-1.6919544,-1.1811017,0.10547346,0.1670997,0.8589984,-0.97320276
-0.1,0.1,1.4999999999999998,0.5235987755982988,-0.5235987755982988,0,0.7397343,0.04163273,0.97163767,0.6121336,-1.2368968,-0.1460138,-0.89233357,0.72692025,-1.697877,-1.187814,-0.25135815,0.22808535,1.052701,-2.064758
-0.1,0.1,1.4999999999999998,0.5235987755982988,-0.5235987755982988,0,0.75579184,0.05034095,0.97593665,0.6139413,-1.3223416,-0.16034944,0.19566171,0.7262758,-1.6966792,-1.1518291,-0.13696513,-0.011198601,0.9548451,-1.405291
-0.1,0.1,1.4999999999999998,0.5235987755982988,-0.5235987755982988,0,0.73390764,0.03445679,0.9682657,0.60940135,-1.3277941,-0.16655998,1.0440025,0.72146887,-1.6870911,-1.1594231,-0.15442804,-0.43930402,0.938582,-0.20628424
-0.1,0.1,1.4999999999999998,0.5235987755982988,-0.5235987755982988,0,0.73393124,0.045062877,0.9831498,0.61751723,-1.3928157,0.13312311,0.123576604,0.7278702,-1.7124596,-1.1878829,-0.059736457,-0.17589556,0.99699795,-1.0630513
-0.1,0.1,1.4999999999999998,0.5235987755982988,-0.5235987755982988,0,0.73740923,0.029145572,0.9718287,0.610095,-1.2651161,-0.06424255,0.4815986,0.7259152,-1.6859388,-1.1810745,0.09010083,-0.07840999,0.9816179,-0.3292827
-0.1,0.1,1.4999999999999998,0.5235987755982988,-0.5235987755982988,0,0.73368967,0.040724505,0.9742174,0.6134072,-1.2808402,0.12087644,-2.0015495,0.722437,-1.6979138,-1.1703655,-0.08712041,0.14145792,1.1048515,-0.7251801
-0.1,0.1,1.4999999999999998,0.5235987755982988,-0.5235987755982988,0,0.7382709,0.032386422,0.9635027,0.6189437,-1.3022777,-0.25016037,-0.7587441,0.7200015,-1.6931396,-1.1616253,-0.06877045,0.4291308,1.0568974,-0.78952134
-0.1,0.1,1.4999999999999998,0.5235987755982988,-0.5235987755982988,0,0.73085815,0.03191143,0.97788674,0.61474407,-1.3397198,0.19241495,0.086043596,0.7240802,-1.6952227,-1.1601394,-0.12132022,-0.026052956,0.8325047,-1.5974786
-0.1,0.1,1.4999999999999998,0.5235987755982988,-0.5235987755982988,0,0.73886245,0.03306223,0.97744,0.6223562,-1.3475718,-0.051060274,-2.182406,0.72354484,-1.6911576,-1.1505256,-0.11341155,0.016835602,1.0795205,-0.45620754
-0.1,0.1,1.4999999999999998,0.5235987755982988,-0.5235987755982988,0,0.74281734,0.033446405,0.9791636,0.61214525,-1.327486,-0.32086495,0.06377955,0.7339497,-1.6990042,-1.1990836,0.0030882263,0.046688665,0.996934,-0.672373
-0.1,0.1,1.4999999999999998,0.5235987755982988,-0.5235987755982988,0,0.7418589,0.045980476,0.97266024,0.61126095,-1.2214524,-0.14062946,-1.2294619,0.71550477,-1.687385,-1.131267,-0.09390638,0.42681992,0.92709726,0.008623909
-0.1,0.1,1.4999999999999998,0.5235987755982988,-0.5235987755982988,0,0.73687243,0.036165085,0.9795812,0.61327296,-1.3983368,-0.01027642,-0.40685955,0.725867,-1.6963209,-1.1304774,-0.07200282,0.16585286,0.981695,-1.405816
-0.1,0.1,1.4999999999999998,0.5235987755982988,-0.5235987755982988,0,0.75167745,0.04928799,0.974963,0.6091281,-1.2762583,-0.2860106,-0.5286768,0.72509843,-1.6986582,-1.1440865,0.12057783,0.18702504,1.0505217,-0.1646322
-0.1,0.1,1.4999999999999998,0.5235987755982988,-0.5235987755982988,0,0.7421919,0.033973735,0.98052704,0.61219543,-1.261792,-0.27014753,2.5157387,0.7336113,-1.7006942,-1.1421736,0.11317707,0.20350544,1.0871185,-0.27509353
-0.1,0.1,1.4999999999999998,0.5235987755982988,-0.5235987755982988,0,0.75277,0.03869004,0.97590804,0.6049601,-1.3166668,-0.07726298,-1.4629747,0.72326356,-1.6870006,-1.1901066,-0.28545687,0.18993203,0.7749878,-0.78706235
-0.1,0.1,1.4999999999999998,0.5235987755982988,-0.5235987755982988,0,0.7516622,0.029599875,0.9708129,0.615486,-1.3315092,-0.0926733,-0.8336374,0.72508633,-1.7009491,-1.1754687,-0.14937997,0.16556604,0.94475096,-0.8549731
-0.1,0.1,1.4999999999999998,0.5235987755982988,-0.5235987755982988,0,0.73177373,0.041118216,0.9843815,0.6199461,-1.3905864,-0.050781038,0.56074774,0.72319716,-1.7109904,-1.16581,-0.10145493,0.1536694,1.1041323,-0.12771744
-0.1,0.1,1.4999999999999998,0.5235987755982988,-0.5235987755982988,0,0.75349414,0.040466126,0.980076,0.6079564,-1.2552937,-0.05135581,1.2525392,0.7288465,-1.7012047,-1.1393669,-0.08540039,-0.121880785,0.9846651,-0.1986781
-0.1,0.1,1.4999999999999998,0.5235987755982988,-0.5235987755982988,0,0.7535568,0.037401266,0.9714906,0.61374706,-1.2422203,-0.29338717,-0.6599473,0.7245365,-1.6982487,-1.1698145,-0.09825816,-0.14869146,0.8910085,-0.91664034
-0.1,0.1,1.4999999999999998,0.5235987755982988,-0.5235987755982988,0,0.76120025,0.045962665,0.9734009,0.613564,-1.4339409,-0.0034382502,0.9415694,0.72517604,-1.6988912,-1.1906978,-0.106162965,0.15021144,1.1447346,-0.7570264
-0.1,0.1,1.4999999999999998,0.5235987755982988,-0.5235987755982988,0,0.733317,0.036313035,0.98024833,0.61235535,-1.3205767,-0.17643566,-0.72106093,0.7262545,-1.7059149,-1.165852,-0.08630441,0.08542953,0.76955783,0.1228542
-0.1,0.1,1.4999999999999998,0.5235987755982988,-0.5235987755982988,0,0.74593896,0.045732033,0.9686252,0.6075825,-1.2651039,-0.22450474,0.35092622,0.73115677,-1.6986676,-1.1402347,0.013745488,-0.027302757,1.0528203,-0.8164123
-0.1,0.1,1.4999999999999998,0.5235987755982988,-0.5235987755982988,0,0.750273,0.040184516,0.9733667,0.6096393,-1.2952795,-0.07129807,0.7366258,0.7231881,-1.6885153,-1.1216664,-0.12431883,0.05359691,1.0574497,-0.20437631
-0.1,0.1,1.4999999999999998,0.5235987755982988,-0.5235987755982988,0,0.73362774,0.0398031,0.96709436,0.60781616,-1.2649195,-0.23037995,0.5027815,0.73167473,-1.7021389,-1.149271,-0.0050890683,0.022789923,1.0386417,-0.36007324
-0.1,0.1,1.4999999999999998,0.5235987755982988,-0.5235987755982988,0,0.74219126,0.04681201,0.9662347,0.60401034,-1.3734744,-0.23946363,-2.1401849,0.7208461,-1.695944,-1.1484121,-0.122041345,0.13484274,0.9065445,-0.20533824
-0.1,0.1,1.4999999999999998,0.5235987755982988,-0.5235987755982988,0,0.7417293,0.049541075,0.9639229,0.6062919,-1.3831325,-0.09113548,1.7101914,0.7246987,-1.7082244,-1.1962373,-0.10337023,0.05481068,0.85548794,0.054999705
-0.1,0.1,1.4999999999999998,0.5235987755982988,-0.5235987755982988,0,0.7419793,0.039584942,0.9712912,0.60085225,-1.2702885,-0.31815115,1.0566221,0.72669464,-1.7025081,-1.1922368,-0.12872408,0.010454883,0.87839615,-0.894177
-0.1,0.1,1.4999999999999998,0.5235987755982988,-0.5235987755982988,0,0.7371767,0.037081994,0.9779254,0.6183663,-1.36486,-0.033872172,-2.5723124,0.72322524,-1.6967773,-1.1782004,-0.16829258,-0.33055758,1.0091066,-0.3182719
-0.1,0.1,1.4999999999999998,0.5235987755982988,-0.5235987755982988,0,0.7418985,0.051074848,0.97783023,0.5966372,-1.3089684,0.0008583654,0.4478227,0.72383326,-1.7006301,-1.1759297,-0.08952056,0.037274886,0.95634556,-0.28824866
-0.1,0.1,1.4999999999999998,0.5235987755982988,-0.5235987755982988,0,0.73087436,0.04376769,0.9727272,0.6065155,-1.3484292,-0.11947617,0.78948814,0.72153187,-1.7089633,-1.1776177,-0.17635107,0.14299597,1.0029591,0.060694423
-0.1,0.1,1.4999999999999998,0.5235987755982988,-0.5235987755982988,0,0.7422921,0.034965467,0.9601563,0.6177198,-1.2609046,0.05288798,-1.1377397,0.7281866,-1.697196,-1.1506315,-0.009997208,0.025537347,0.9839622,-0.021538965
-0.1,0.1,1.4999999999999998,0.5235987755982988,-0.5235987755982988,0,0.7358122,0.04501205,0.9860264,0.6136714,-1.2948829,-0.23388225,-0.49677882,0.72556025,-1.6905063,-1.1725054,-0.15188344,-0.0219281,0.9750826,0.5722986
-0.1,0.1,1.4999999999999998,0.5235987755982988,-0.5235987755982988,0,0.74020183,0.05058303,0.9741774,0.60709745,-1.340868,-0.21493818,0.06047655,0.7246604,-1.6864475,-1.1807545,0.06843493,-0.030233838,0.94690317,0.6496337
-0.1,0.1,1.4999999999999998,0.5235987755982988,-0.5235987755982988,0,0.7379854,0.035122033,0.96394753,0.6100488,-1.3106221,0.12190607,0.6984066,0.7289978,-1.7034991,-1.1654134,-0.14341293,0.20650418,0.94462526,-0.9305205
-0.1,0.1,1.4999999999999998,0.5235987755982988,-0.5235987755982988,0,0.7397207,0.0419111,0.9798011,0.61501515,-1.4163997,-0.040183146,0.69755524,0.72908115,-1.686581,-1.1431335,-0.07332268,0.45771563,1.0007637,-1.2930884
-0.1,0.1,1.4999999999999998,0.5235987755982988,-0.5235987755982988,0,0.7453615,0.043030154,0.9724874,0.60905,-1.3125942,0.14168501,-0.0024377003,0.7233535,-1.7058849,-1.2079499,0.056197528,0.27201733,1.0355202,-1.2515168
-0.1,0.1,1.4999999999999998,0.5235987755982988,-0.5235987755982988,0,0.7507997,0.047945876,0.9819962,0.6008834,-1.3686719,-0.030897954,-0.96036077,0.726676,-1.7009768,-1.135759,-0.08733986,0.2494817,1.0513855,-0.5262745
-0.1,0.1,1.4999999999999998,0.5235987755982988,-0.5235987755982988,0,0.7397371,0.03631828,0.97286355,0.6087142,-1.3810202,-0.18372484,1.4497912,0.7186248,-1.7034894,-1.1657194,-0.020507177,0.22458063,1.0413386,0.17094731
-0.1,0.1,1.4999999999999998,0.5235987755982988,-0.5235987755982988,0,0.73293626,0.035230916,0.9749917,0.6048834,-1.2614577,0.0037624582,1.1919525,0.7252232,-1.6989679,-1.1497347,-0.002125348,-0.30142996,1.0070984,-1.1089973
-0.1,0.1,1.4999999999999998,0.5235987755982988,-0.5235987755982988,0,0.7428131,0.03987733,0.9684873,0.60478085,-1.3079026,0.012285278,-1.3653445,0.7236733,-1.6826398,-1.1760828,-0.121818565,0.18358162,0.9717479,-0.4541243
-0.1,0.1,1.4999999999999998,0.5235987755982988,-0.5235987755982988,0,0.72632945,0.03159472,0.97091043,0.612388,-1.2080688,-0.040492512,0.82477224,0.7263751,-1.693209,-1.1911076,-0.03644248,0.015026323,0.9484139,-0.68349385
-0.1,0.1,1.4999999999999998,0.5235987755982988,-0.5235987755982988,0,0.7402282,0.037191704,0.97976184,0.6039447,-1.2851962,-0.19615088,0.18236573,0.72316754,-1.702671,-1.1830894,-0.07454011,0.18925595,0.89110655,-1.2644905
