sanky1234/BimanualDexCatch/isaacgymenvs/cem_results/football_pose_-0.1_-0.1_0.7_-0.5235987755982988_-0.5235987755982988_0_2025-05-25.csv
x,y,z,roll,pitch,yaw,robot1/joint1,robot1/joint2,robot1/joint3,robot1/joint4,robot1/joint5,robot1/joint6,robot1/joint7,robot2/joint1,robot2/joint2,robot2/joint3,robot2/joint4,robot2/joint5,robot2/joint6,robot2/joint7
-0.1,-0.1,0.7,-0.5235987755982988,-0.5235987755982988,0,2.027595,1.7971491,-1.0200006,-0.013422185,0.8343528,1.5497551,2.0222924,-0.31808868,1.505811,-0.2631726,-0.3779452,0.83861005,1.5293612,-1.6943272
-0.1,-0.1,0.7,-0.5235987755982988,-0.5235987755982988,0,2.0083768,1.7965878,-1.0499201,-0.013325975,0.84925205,1.547872,2.0260465,-0.33346838,1.5242238,-0.16042452,-0.40052426,0.7424136,1.5514375,-1.6715862
-0.1,-0.1,0.7,-0.5235987755982988,-0.5235987755982988,0,2.0476902,1.8034155,-1.0452738,-0.02661834,0.82960886,1.547961,2.0068095,-0.28320885,1.5095967,-0.17334679,-0.39649057,0.69137603,1.5370102,-1.416291
-0.1,-0.1,0.7,-0.5235987755982988,-0.5235987755982988,0,2.0409718,1.7974306,-1.0666395,-0.017202657,0.83414847,1.5564779,2.0305655,-0.32576543,1.5325764,-0.12604296,-0.38936734,0.7301085,1.553054,-1.7249775
-0.1,-0.1,0.7,-0.5235987755982988,-0.5235987755982988,0,2.0266457,1.8103236,-1.0549526,-0.010141466,0.8502793,1.5501751,2.0477812,-0.35411304,1.5132571,-0.21244738,-0.41362974,0.7646245,1.5475998,-1.3671505
-0.1,-0.1,0.7,-0.5235987755982988,-0.5235987755982988,0,2.034574,1.815149,-1.0393379,-0.007302789,0.8484518,1.5605145,2.0328152,-0.3440307,1.5186085,-0.19257969,-0.39136147,0.7214472,1.5327952,-1.1885948
-0.1,-0.1,0.7,-0.5235987755982988,-0.5235987755982988,0,2.0029395,1.8013837,-1.039603,0.013830528,0.8510036,1.5517464,2.0075915,-0.32343367,1.5304255,-0.17380892,-0.3822734,0.71099687,1.5602282,-1.1019601
-0.1,-0.1,0.7,-0.5235987755982988,-0.5235987755982988,0,2.0353343,1.7969627,-1.0492538,0.009745964,0.84348035,1.5518417,2.0272248,-0.32876936,1.5244262,-0.14884815,-0.38884363,0.7080409,1.5459431,-1.4111332
-0.1,-0.1,0.7,-0.5235987755982988,-0.5235987755982988,0,2.0393064,1.796111,-1.0359035,0.012267299,0.83667624,1.5348892,1.9961045,-0.2936325,1.5421636,-0.20698564,-0.3675188,0.7982245,1.5562935,-1.5461209
-0.1,-0.1,0.7,-0.5235987755982988,-0.5235987755982988,0,2.0189054,1.8221098,-1.0497293,0.0016915204,0.83838034,1.5457975,1.984094,-0.41108832,1.5070977,-0.1990833,-0.43213674,0.7483252,1.5317203,-1.4369171
-0.1,-0.1,0.7,-0.5235987755982988,-0.5235987755982988,0,2.0402455,1.7962576,-1.0358204,0.0117373755,0.82014865,1.5489587,1.987685,-0.36531442,1.5267841,-0.17604025,-0.3819771,0.76277816,1.5317279,-1.4423292
-0.1,-0.1,0.7,-0.5235987755982988,-0.5235987755982988,0,2.0498588,1.8107581,-1.0450075,-0.00020202316,0.83070415,1.5381126,1.9973316,-0.3410247,1.5162982,-0.17890285,-0.3833171,0.70530766,1.5452157,-1.0198274
-0.1,-0.1,0.7,-0.5235987755982988,-0.5235987755982988,0,2.049487,1.7995588,-1.0522145,-0.015277271,0.8337745,1.5540895,2.019104,-0.38381797,1.5195687,-0.1993306,-0.38538527,0.7884285,1.5490707,-1.311002
-0.1,-0.1,0.7,-0.5235987755982988,-0.5235987755982988,0,2.0455775,1.8152544,-1.0297703,-0.017793812,0.83576953,1.5447681,2.031762,-0.2608637,1.549038,-0.19842933,-0.3925841,0.67986196,1.5691665,-1.4429368
-0.1,-0.1,0.7,-0.5235987755982988,-0.5235987755982988,0,2.0222366,1.8029912,-1.0659301,0.01576323,0.85123485,1.5531079,2.0127192,-0.35396478,1.5422891,-0.07729809,-0.35833642,0.7285104,1.5428259,-1.3297446
-0.1,-0.1,0.7,-0.5235987755982988,-0.5235987755982988,0,2.0423274,1.7949233,-1.0485654,-0.001374538,0.8289901,1.5394479,1.9914228,-0.33629435,1.5053214,-0.22095712,-0.3865844,0.7416083,1.5479149,-1.1730076
-0.1,-0.1,0.7,-0.5235987755982988,-0.5235987755982988,0,2.0193975,1.8017603,-1.0402832,-0.014752256,0.85855556,1.5460485,2.0079098,-0.32006192,1.5284787,-0.19173083,-0.41129252,0.66852504,1.5356406,-1.5590407
-0.1,-0.1,0.7,-0.5235987755982988,-0.5235987755982988,0,2.029864,1.801269,-1.0818164,0.0035986246,0.84373814,1.5525335,2.0258021,-0.31302348,1.5417048,-0.16368136,-0.3702434,0.76433146,1.5563207,-1.3715173
-0.1,-0.1,0.7,-0.5235987755982988,-0.5235987755982988,0,2.0562136,1.8065886,-1.028537,0.008482059,0.8287738,1.5489812,1.9801254,-0.35572618,1.5217311,-0.17855935,-0.41353393,0.68885475,1.524536,-1.3645217
-0.1,-0.1,0.7,-0.5235987755982988,-0.5235987755982988,0,2.0136821,1.7982506,-1.0518929,0.0139785325,0.8450239,1.5511876,1.9955939,-0.38326627,1.541699,-0.16643973,-0.4188222,0.716951,1.5595064,-1.3412532
-0.1,-0.1,0.7,-0.5235987755982988,-0.5235987755982988,0,2.0248547,1.8122743,-1.0205824,-0.017014049,0.82866085,1.5421047,2.0018961,-0.39047962,1.5249559,-0.076957196,-0.34916994,0.6985803,1.5362601,-1.4035122
-0.1,-0.1,0.7,-0.5235987755982988,-0.5235987755982988,0,2.0355222,1.8199483,-1.0873603,0.0077025746,0.84393483,1.5509964,2.000976,-0.3594382,1.5223403,-0.21539918,-0.44443393,0.71685004,1.5187917,-1.5961813
-0.1,-0.1,0.7,-0.5235987755982988,-0.5235987755982988,0,2.0169287,1.8043817,-1.0835195,-0.0048185107,0.83358747,1.5568926,2.0116525,-0.33722982,1.5386997,-0.1405344,-0.34747505,0.7437592,1.5247446,-1.4814228
-0.1,-0.1,0.7,-0.5235987755982988,-0.5235987755982988,0,2.0318067,1.8033714,-1.0698404,-0.0047517004,0.8350163,1.5494235,1.9913163,-0.3434641,1.5256357,-0.17263764,-0.37855574,0.7509326,1.5507818,-1.5850056
-0.1,-0.1,0.7,-0.5235987755982988,-0.5235987755982988,0,2.0342975,1.7960755,-1.0706098,0.025018599,0.84600717,1.5510149,2.0110176,-0.3176493,1.515658,-0.20892732,-0.43927658,0.6678582,1.5262218,-1.488431
-0.1,-0.1,0.7,-0.5235987755982988,-0.5235987755982988,0,2.0437858,1.8122543,-1.0853462,-0.0049211173,0.8623186,1.5453684,1.9914284,-0.36567065,1.5228095,-0.13312897,-0.36826235,0.71142036,1.5302004,-1.3639141
-0.1,-0.1,0.7,-0.5235987755982988,-0.5235987755982988,0,2.028588,1.814789,-1.0505345,-0.00018844276,0.8435468,1.5465776,2.005834,-0.34880313,1.522463,-0.21205932,-0.3924351,0.72431964,1.5363501,-1.1942539
-0.1,-0.1,0.7,-0.5235987755982988,-0.5235987755982988,0,2.0208783,1.801143,-1.0446079,-0.0011985461,0.83261806,1.5510072,2.0165744,-0.29587686,1.5389315,-0.14141475,-0.35218787,0.6979899,1.562379,-1.4334033
-0.1,-0.1,0.7,-0.5235987755982988,-0.5235987755982988,0,2.0337818,1.818487,-1.0350307,-0.01188387,0.83915144,1.5448223,2.0554254,-0.33210048,1.5241032,-0.20237325,-0.40608498,0.73687696,1.5296676,-1.742206
-0.1,-0.1,0.7,-0.5235987755982988,-0.5235987755982988,0,2.0268893,1.7959417,-1.0539733,0.005993486,0.83633685,1.5498143,1.9682595,-0.28998205,1.524063,-0.21235947,-0.3562919,0.7603811,1.550693,-1.4331936
-0.1,-0.1,0.7,-0.5235987755982988,-0.5235987755982988,0,2.0177104,1.8011518,-1.0723853,0.017609179,0.84060854,1.5472091,2.0323772,-0.33784512,1.5313289,-0.20355606,-0.33978385,0.80024636,1.5226555,-1.5831118
-0.1,-0.1,0.7,-0.5235987755982988,-0.5235987755982988,0,2.026685,1.8094285,-1.0336103,-0.0063909036,0.8477395,1.5365978,2.0334237,-0.34945294,1.5029539,-0.13600896,-0.4183516,0.60694253,1.5308306,-1.3939592
-0.1,-0.1,0.7,-0.5235987755982988,-0.5235987755982988,0,2.0461235,1.8193288,-1.0403737,-0.006785358,0.83881027,1.5408207,1.990116,-0.32646915,1.5310036,-0.15384698,-0.34348953,0.7160689,1.5446156,-1.4202492
-0.1,-0.1,0.7,-0.5235987755982988,-0.5235987755982988,0,2.0252097,1.8245189,-1.0350572,-0.0056687472,0.8470785,1.5412179,2.046815,-0.3080045,1.5267389,-0.20679818,-0.39134088,0.73837364,1.562742,-1.5757761
-0.1,-0.1,0.7,-0.5235987755982988,-0.5235987755982988,0,2.0355775,1.7982391,-1.0482045,-0.0118317865,0.84723294,1.5395428,2.007531,-0.29241568,1.5227363,-0.23249449,-0.38134488,0.734683,1.5480185,-1.4660977
-0.1,-0.1,0.7,-0.5235987755982988,-0.5235987755982988,0,2.0136962,1.8067958,-1.0453026,-0.027893258,0.82310283,1.5490307,2.0374403,-0.33762154,1.5277259,-0.1933489,-0.4026616,0.7098025,1.5536312,-1.3876594
-0.1,-0.1,0.7,-0.5235987755982988,-0.5235987755982988,0,2.047685,1.8071165,-1.0619282,0.00518577,0.8435748,1.540237,2.0061524,-0.34352183,1.5164398,-0.17199822,-0.38381013,0.6981598,1.5202004,-1.5139639
-0.1,-0.1,0.7,-0.5235987755982988,-0.5235987755982988,0,2.0281432,1.7972294,-1.0630854,-0.004379483,0.8281856,1.5504612,1.9958488,-0.35542944,1.5353111,-0.14716248,-0.3560616,0.75302607,1.5404197,-1.6256282
-0.1,-0.1,0.7,-0.5235987755982988,-0.5235987755982988,0,2.0377774,1.8231554,-1.0462402,-0.001738832,0.82880217,1.5467718,2.0202367,-0.38680497,1.5486511,-0.11678699,-0.3515812,0.7379552,1.5461423,-1.4364254
-0.1,-0.1,0.7,-0.5235987755982988,-0.5235987755982988,0,2.0334976,1.802543,-1.0499698,0.007322776,0.8308226,1.54368,2.0024328,-0.3493862,1.5119007,-0.1261114,-0.41075504,0.6080281,1.537044,-1.3552744
-0.1,-0.1,0.7,-0.5235987755982988,-0.5235987755982988,0,2.026572,1.7989992,-1.0518374,-0.024176579,0.83218473,1.554044,1.988597,-0.4067361,1.5271623,-0.15023558,-0.37865344,0.7533679,1.5363792,-1.4588046
-0.1,-0.1,0.7,-0.5235987755982988,-0.5235987755982988,0,2.0296695,1.8174027,-1.0692189,0.013197437,0.83851403,1.5563005,2.0177877,-0.33932787,1.5286878,-0.1419817,-0.37743968,0.683882,1.5401509,-1.4615498
-0.1,-0.1,0.7,-0.5235987755982988,-0.5235987755982988,0,2.0536067,1.7998251,-1.073337,0.02091906,0.8380031,1.535454,2.0073283,-0.34833527,1.5251893,-0.19468266,-0.36750042,0.76260155,1.5318326,-1.5546685
-0.1,-0.1,0.7,-0.5235987755982988,-0.5235987755982988,0,2.0440578,1.810426,-1.0849994,0.010166122,0.8509491,1.5540928,2.0123305,-0.32327676,1.5242478,-0.1718586,-0.34843633,0.75646806,1.5673119,-1.4269569
-0.1,-0.1,0.7,-0.5235987755982988,-0.5235987755982988,0,2.025997,1.8173548,-1.0657856,0.02026325,0.83681124,1.5628338,1.9998593,-0.30483475,1.5315986,-0.16700113,-0.39894688,0.6765634,1.5499821,-1.5863538
-0.1,-0.1,0.7,-0.5235987755982988,-0.5235987755982988,0,2.0285668,1.8116666,-1.0557445,0.010473671,0.83801097,1.5444825,2.0032744,-0.31464806,1.5077375,-0.13770427,-0.3524445,0.69333637,1.565171,-1.3465677
-0.1,-0.1,0.7,-0.5235987755982988,-0.5235987755982988,0,2.008986,1.8025057,-1.0667367,0.022787271,0.82927823,1.550139,1.990052,-0.36570752,1.5421249,-0.21662048,-0.36808887,0.7896934,1.5484538,-1.3222964
-0.1,-0.1,0.7,-0.5235987755982988,-0.5235987755982988,0,2.0215654,1.8127052,-1.0657858,0.012144245,0.85119224,1.5574319,2.0189242,-0.40174356,1.5233185,-0.19857141,-0.4210141,0.74027634,1.5405937,-1.3788935
-0.1,-0.1,0.7,-0.5235987755982988,-0.5235987755982988,0,2.0243633,1.8120583,-1.0671716,0.010888554,0.83651614,1.5600202,1.9887083,-0.28859338,1.5284141,-0.20328958,-0.3542182,0.74786174,1.5553224,-1.4494894
-0.1,-0.1,0.7,-0.5235987755982988,-0.5235987755982988,0,2.033174,1.8084369,-1.0464969,0.042990826,0.83319116,1.539072,2.028905,-0.31751803,1.5232407,-0.21223594,-0.41424906,0.6926312,1.5353148,-1.4115967
-0.1,-0.1,0.7,-0.5235987755982988,-0.5235987755982988,0,2.0199003,1.8028965,-1.0612563,0.0076478943,0.84160286,1.5448061,1.9865813,-0.3903569,1.5140777,-0.17243506,-0.3696689,0.75064975,1.5462087,-1.2998596
-0.1,-0.1,0.7,-0.5235987755982988,-0.5235987755982988,0,2.031309,1.8015876,-1.0570035,0.01835519,0.8241624,1.552645,2.0155063,-0.34873065,1.5209682,-0.18993346,-0.41370714,0.656846,1.5335159,-1.1623435
-0.1,-0.1,0.7,-0.5235987755982988,-0.5235987755982988,0,2.0373578,1.8113401,-1.0472958,0.026628416,0.8367254,1.537813,2.0391378,-0.32545844,1.5266697,-0.18996468,-0.3473353,0.7769724,1.5341014,-1.6710405
-0.1,-0.1,0.7,-0.5235987755982988,-0.5235987755982988,0,2.0250924,1.8174349,-1.0647695,-0.02042566,0.84437096,1.5568084,2.0480793,-0.34346697,1.5148596,-0.18829933,-0.4009967,0.68696904,1.5232042,-1.3602108
-0.1,-0.1,0.7,-0.5235987755982988,-0.5235987755982988,0,2.0084057,1.8191432,-1.0600973,0.014981909,0.83589286,1.5448371,1.9844781,-0.37211725,1.5193565,-0.11938723,-0.31488025,0.7169186,1.517396,-1.2246419
-0.1,-0.1,0.7,-0.5235987755982988,-0.5235987755982988,0,2.0043328,1.8080158,-1.0697081,0.023999497,0.8528741,1.5549101,2.0482712,-0.37772152,1.5397284,-0.13366212,-0.409501,0.66463804,1.546664,-1.3515879
-0.1,-0.1,0.7,-0.5235987755982988,-0.5235987755982988,0,2.003096,1.8009546,-1.0479624,0.018882217,0.82631445,1.556063,2.0334804,-0.36780524,1.5341853,-0.15794481,-0.36576998,0.7355563,1.5369935,-1.4608063
-0.1,-0.1,0.7,-0.5235987755982988,-0.5235987755982988,0,2.0136719,1.821109,-1.0542314,0.0105292285,0.85016686,1.5474428,1.9693143,-0.35952714,1.5291423,-0.14529385,-0.3529729,0.7123709,1.5392078,-1.2647991
-0.1,-0.1,0.7,-0.5235987755982988,-0.5235987755982988,0,1.9956005,1.796183,-1.0712006,-0.0047659,0.8651949,1.5512341,2.011898,-0.3497992,1.5265976,-0.1973503,-0.3676491,0.8069906,1.565891,-1.6663756
-0.1,-0.1,0.7,-0.5235987755982988,-0.5235987755982988,0,2.020192,1.8030767,-1.0361668,0.0021028921,0.8281741,1.5382,2.0140193,-0.3384107,1.5202196,-0.18114014,-0.35346624,0.76700497,1.5401342,-1.6242027
-0.1,-0.1,0.7,-0.5235987755982988,-0.5235987755982988,0,2.0344422,1.8182548,-1.0664328,0.01678984,0.8124688,1.554731,2.0363584,-0.3518824,1.5161822,-0.22652502,-0.42227754,0.69457924,1.5424075,-1.2024239
-0.1,-0.1,0.7,-0.5235987755982988,-0.5235987755982988,0,2.0241573,1.8079388,-1.0584468,0.020358955,0.8487968,1.5530372,1.9453496,-0.34432045,1.5386511,-0.19489542,-0.37904614,0.755392,1.5184968,-1.6514521
-0.1,-0.1,0.7,-0.5235987755982988,-0.5235987755982988,0,2.0268157,1.817975,-1.0395234,-0.011253211,0.8403208,1.5389366,2.003873,-0.37259758,1.5188446,-0.22608201,-0.38746157,0.78495425,1.5430931,-1.4240557
-0.1,-0.1,0.7,-0.5235987755982988,-0.5235987755982988,0,2.0527408,1.8236285,-1.0577186,0.020728514,0.8372372,1.5491067,2.0141292,-0.30876267,1.5115017,-0.15040113,-0.3793067,0.6439852,1.5651215,-1.2002628
-0.1,-0.1,0.7,-0.5235987755982988,-0.5235987755982988,0,2.017628,1.8056406,-1.0741016,0.037952464,0.8571527,1.5561546,2.0322683,-0.37642717,1.5253906,-0.14989123,-0.38165817,0.6808252,1.5364299,-1.1899924
-0.1,-0.1,0.7,-0.5235987755982988,-0.5235987755982988,0,2.0399828,1.8283079,-1.0486505,0.009955112,0.84171844,1.5430872,2.0238242,-0.30434176,1.5262394,-0.1755693,-0.38193575,0.6586722,1.5513351,-1.371496
-0.1,-0.1,0.7,-0.5235987755982988,-0.5235987755982988,0,2.0245705,1.803131,-1.0609299,0.021407422,0.83265287,1.5478407,1.9874935,-0.35726836,1.5424976,-0.18343511,-0.42411396,0.69561285,1.536206,-1.5676395
-0.1,-0.1,0.7,-0.5235987755982988,-0.5235987755982988,0,2.0532057,1.8007678,-1.0700245,0.0046209097,0.8440632,1.5449252,1.9854342,-0.30537573,1.5221671,-0.21908626,-0.3673077,0.7289165,1.5322785,-1.3524634
-0.1,-0.1,0.7,-0.5235987755982988,-0.5235987755982988,0,2.046027,1.8065584,-1.0507107,-0.0071950867,0.8116367,1.5455328,2.0146763,-0.32212347,1.5298166,-0.21092266,-0.3567378,0.7710188,1.5342637,-1.5776156
-0.1,-0.1,0.7,-0.5235987755982988,-0.5235987755982988,0,2.0606666,1.8032796,-1.0825424,0.010582231,0.8323706,1.5485467,2.002841,-0.37882873,1.5391821,-0.12505515,-0.40653053,0.62540925,1.5272509,-1.2557908
-0.1,-0.1,0.7,-0.5235987755982988,-0.5235987755982988,0,2.0200975,1.8028367,-1.0691353,0.014785767,0.84812325,1.5491112,1.990632,-0.34437636,1.5209463,-0.14071393,-0.360354,0.6886926,1.5566399,-1.2506173
-0.1,-0.1,0.7,-0.5235987755982988,-0.5235987755982988,0,2.0177236,1.796922,-1.0727679,0.02157933,0.8292077,1.5469488,1.9962398,-0.35631642,1.4980693,-0.21599004,-0.41981918,0.70838666,1.5477719,-1.3946387
-0.1,-0.1,0.7,-0.5235987755982988,-0.5235987755982988,0,2.012724,1.8200289,-1.056831,0.008752488,0.8483061,1.5490406,2.0101914,-0.32641584,1.5326871,-0.15839794,-0.35985404,0.70269305,1.5437582,-1.3917502
-0.1,-0.1,0.7,-0.5235987755982988,-0.5235987755982988,0,2.01852,1.8094705,-1.0519438,-0.008846554,0.84227425,1.5529392,1.9934124,-0.372402,1.5120544,-0.17338805,-0.37684968,0.72361594,1.5461979,-1.3221309
-0.1,-0.1,0.7,-0.5235987755982988,-0.5235987755982988,0,2.0309281,1.8094653,-1.0840241,6.40397e-05,0.8523998,1.5506548,1.9652448,-0.273984,1.5321125,-0.16988882,-0.35124648,0.7180286,1.5476341,-1.7391181
-0.1,-0.1,0.7,-0.5235987755982988,-0.5235987755982988,0,2.0256872,1.7988364,-1.0550408,-0.015380824,0.8283088,1.5402086,2.0228205,-0.35251874,1.5484483,-0.14638202,-0.3638344,0.6813614,1.5351707,-1.2381972
-0.1,-0.1,0.7,-0.5235987755982988,-0.5235987755982988,0,2.0062563,1.8203133,-1.0318066,-0.0095757665,0.8357389,1.5467043,2.025828,-0.35171402,1.4784865,-0.15322568,-0.44759223,0.59892374,1.5347748,-1.3925135
-0.1,-0.1,0.7,-0.5235987755982988,-0.5235987755982988,0,2.0217643,1.8124317,-1.0511588,0.010671882,0.8144111,1.5460063,2.0357008,-0.36374015,1.5310317,-0.13795891,-0.38534868,0.6908057,1.5421238,-1.500078
-0.1,-0.1,0.7,-0.5235987755982988,-0.5235987755982988,0,2.016431,1.8036635,-1.0635701,0.01174577,0.8679788,1.5519683,2.0236688,-0.34535363,1.5260983,-0.2411794,-0.3672535,0.8150566,1.537669,-1.6538433
-0.1,-0.1,0.7,-0.5235987755982988,-0.5235987755982988,0,2.0202498,1.806789,-1.074435,-0.0017136158,0.8517172,1.5584656,1.9953817,-0.3009052,1.5337186,-0.1963081,-0.37916347,0.67070854,1.5386267,-1.207155
-0.1,-0.1,0.7,-0.5235987755982988,-0.5235987755982988,0,2.0165489,1.8110247,-1.0396727,0.00828467,0.8221128,1.53404,1.9875007,-0.33774835,1.5262053,-0.14978087,-0.36254436,0.68897176,1.5426971,-1.3407133
-0.1,-0.1,0.7,-0.5235987755982988,-0.5235987755982988,0,2.0129309,1.8059688,-1.091926,0.014757355,0.86022747,1.5550808,2.0368607,-0.41566363,1.5115277,-0.12790333,-0.38577425,0.7316804,1.5441778,-1.5339082
-0.1,-0.1,0.7,-0.5235987755982988,-0.5235987755982988,0,2.011164,1.8113195,-1.0632379,0.017838858,0.82726467,1.554164,1.996957,-0.36881825,1.51097,-0.14380687,-0.4270313,0.6451896,1.5542747,-1.3590816
-0.1,-0.1,0.7,-0.5235987755982988,-0.5235987755982988,0,2.038503,1.8062662,-1.0736492,-0.0044166013,0.8353917,1.5441132,2.0203779,-0.32304963,1.517645,-0.19478899,-0.41675532,0.66308814,1.5508419,-1.3055178
-0.1,-0.1,0.7,-0.5235987755982988,-0.5235987755982988,0,2.0265648,1.7989819,-1.0705303,-0.0039184797,0.8400753,1.5447398,1.9929665,-0.36959857,1.5265318,-0.12785195,-0.37904242,0.6824334,1.5472795,-1.4761089
-0.1,-0.1,0.7,-0.5235987755982988,-0.5235987755982988,0,1.9969397,1.8185251,-1.0431125,-0.0014057432,0.837733,1.5440215,2.0070698,-0.352303,1.5082886,-0.1780666,-0.37804288,0.7136138,1.5296347,-1.4567605
-0.1,-0.1,0.7,-0.5235987755982988,-0.5235987755982988,0,2.017776,1.8004882,-1.0445879,-0.01760247,0.8426831,1.5481828,2.0378468,-0.35901907,1.5254964,-0.1876161,-0.3622441,0.777175,1.5550041,-1.4983345
-0.1,-0.1,0.7,-0.5235987755982988,-0.5235987755982988,0,2.0152197,1.8126976,-1.0612807,-0.0071279756,0.8422499,1.5449452,1.961746,-0.32275388,1.5266002,-0.17934215,-0.35220987,0.7146176,1.5349697,-1.4020487
-0.1,-0.1,0.7,-0.5235987755982988,-0.5235987755982988,0,2.0166235,1.8152931,-1.0720043,0.005300529,0.85099083,1.5533415,1.9860259,-0.35678354,1.5195202,-0.16412751,-0.36986396,0.7048815,1.5082186,-1.5821114
-0.1,-0.1,0.7,-0.5235987755982988,-0.5235987755982988,0,2.0354352,1.8092464,-1.0805746,0.00959957,0.8227699,1.5526184,2.028497,-0.29587364,1.540386,-0.16772401,-0.34697655,0.7232778,1.54426,-1.7015144
-0.1,-0.1,0.7,-0.5235987755982988,-0.5235987755982988,0,2.023709,1.8065305,-1.0485516,-0.028326346,0.85439885,1.5425795,2.0041435,-0.38135183,1.5175171,-0.14058763,-0.38154793,0.68966544,1.564342,-1.2320161
-0.1,-0.1,0.7,-0.5235987755982988,-0.5235987755982988,0,2.0247195,1.80363,-1.056932,-0.012925571,0.8380902,1.5445791,1.9933912,-0.37625682,1.5441071,-0.20287433,-0.40679103,0.7477484,1.5362608,-1.4634062
-0.1,-0.1,0.7,-0.5235987755982988,-0.5235987755982988,0,2.036669,1.8009428,-1.0799654,0.01491547,0.83361006,1.5451866,2.0338318,-0.32197767,1.5140668,-0.18149608,-0.34875953,0.7142771,1.5401925,-1.373201
-0.1,-0.1,0.7,-0.5235987755982988,-0.5235987755982988,0,2.024007,1.8125587,-1.0805166,0.0030935474,0.8411462,1.5637709,2.0134594,-0.34962204,1.5449625,-0.11433769,-0.34503406,0.6531194,1.5322055,-1.3181992
-0.1,-0.1,0.7,-0.5235987755982988,-0.5235987755982988,0,2.044452,1.7994988,-1.0667273,0.01738971,0.8295722,1.5433257,2.0173476,-0.36217335,1.5317974,-0.14168096,-0.38114148,0.6651491,1.5313433,-1.368659
-0.1,-0.1,0.7,-0.5235987755982988,-0.5235987755982988,0,2.0408673,1.820595,-1.0651788,-0.016955681,0.8413764,1.5460538,2.0050938,-0.29338202,1.525401,-0.1967718,-0.4131307,0.64139646,1.5608886,-1.3160471
-0.1,-0.1,0.7,-0.5235987755982988,-0.5235987755982988,0,2.0408099,1.813003,-1.0417205,-0.010869548,0.8176729,1.5545187,1.978587,-0.3034027,1.5133415,-0.25999618,-0.40391988,0.72568434,1.5358449,-1.396072
-0.1,-0.1,0.7,-0.5235987755982988,-0.5235987755982988,0,2.0397,1.8005676,-1.0674894,-0.0018078699,0.83648914,1.5499197,1.9709637,-0.3676913,1.4923959,-0.21064425,-0.3841849,0.7534985,1.5470988,-1.4398401
-0.1,-0.1,0.7,-0.5235987755982988,-0.5235987755982988,0,2.003861,1.8125796,-1.0674813,0.013889603,0.8520978,1.547259,1.9971294,-0.30090332,1.5102261,-0.15295412,-0.3795534,0.6105734,1.5417061,-1.330029
-0.1,-0.1,0.7,-0.5235987755982988,-0.5235987755982988,0,2.04265,1.8064477,-1.0628175,-0.0038792426,0.8343454,1.5520465,2.0506613,-0.34992537,1.5010877,-0.22025786,-0.33970633,0.7984176,1.5133834,-1.6481079
-0.1,-0.1,0.7,-0.5235987755982988,-0.5235987755982988,0,2.0364063,1.8150333,-1.0572959,0.0122483745,0.84485847,1.5511769,1.9790013,-0.32441032,1.5352502,-0.24209656,-0.3334181,0.8365444,1.552956,-1.5462573
-0.1,-0.1,0.7,-0.5235987755982988,-0.5235987755982988,0,2.0452833,1.8037208,-1.0500504,0.016369622,0.8233171,1.5524758,1.9997287,-0.35398155,1.5034125,-0.23742491,-0.4012976,0.7459467,1.5657135,-1.4019719
-0.1,-0.1,0.7,-0.5235987755982988,-0.5235987755982988,0,2.002553,1.7964909,-1.0663893,0.0023242438,0.8445535,1.5497702,1.95108,-0.36719474,1.513957,-0.2240357,-0.37073088,0.77783436,1.5558205,-1.3413904
-0.1,-0.1,0.7,-0.5235987755982988,-0.5235987755982988,0,2.014748,1.8001621,-1.0514051,-0.00014738063,0.8476282,1.5413489,2.0271676,-0.35295737,1.5268621,-0.23331386,-0.39016202,0.7758341,1.5456772,-1.5279447
-0.1,-0.1,0.7,-0.5235987755982988,-0.5235987755982988,0,2.0115657,1.8026772,-1.0415457,0.025281707,0.8302772,1.547102,1.9784691,-0.38361335,1.5434904,-0.26521128,-0.35968867,0.83796227,1.5633117,-1.310536
-0.1,-0.1,0.7,-0.5235987755982988,-0.5235987755982988,0,2.0197613,1.8020545,-1.0615733,0.007870185,0.8310901,1.5507418,2.014901,-0.39095762,1.5265182,-0.18752913,-0.38805637,0.72737265,1.5118891,-1.5157415
-0.1,-0.1,0.7,-0.5235987755982988,-0.5235987755982988,0,2.0118327,1.8043948,-1.0538403,-0.019829057,0.8407474,1.5521472,2.0072849,-0.31615153,1.5363122,-0.1495334,-0.4042895,0.64712083,1.5674667,-1.6688571
-0.1,-0.1,0.7,-0.5235987755982988,-0.5235987755982988,0,2.0600371,1.8017515,-1.06602,-0.026841348,0.82639706,1.5369884,1.9994267,-0.39692464,1.4991658,-0.17816234,-0.3799227,0.70910126,1.5274185,-1.3753979
-0.1,-0.1,0.7,-0.5235987755982988,-0.5235987755982988,0,2.057394,1.7901698,-1.0597227,0.009816932,0.82854086,1.5430967,2.0137846,-0.30364537,1.529875,-0.2270511,-0.3600956,0.7032637,1.5322634,-1.340172
-0.1,-0.1,0.7,-0.5235987755982988,-0.5235987755982988,0,2.031031,1.8051747,-1.0428407,0.020144153,0.8328887,1.5545514,1.979661,-0.3718765,1.5304787,-0.20380351,-0.39978647,0.7131928,1.5427303,-1.4227693
-0.1,-0.1,0.7,-0.5235987755982988,-0.5235987755982988,0,2.0307028,1.8131908,-1.07068,-0.014458213,0.8490339,1.5530385,2.0167933,-0.38793415,1.4967815,-0.18276094,-0.38828817,0.71710485,1.5458604,-1.4523369
-0.1,-0.1,0.7,-0.5235987755982988,-0.5235987755982988,0,2.018498,1.7951357,-1.0615873,0.03719501,0.84043413,1.5414704,2.0059984,-0.37913004,1.5281227,-0.16539186,-0.40185016,0.6794679,1.5322937,-1.581141
-0.1,-0.1,0.7,-0.5235987755982988,-0.5235987755982988,0,1.975424,1.7976305,-1.0538166,0.027281707,0.850376,1.5425947,1.9972432,-0.36927527,1.523213,-0.15320173,-0.38725844,0.6965475,1.5654135,-1.5465674
-0.1,-0.1,0.7,-0.5235987755982988,-0.5235987755982988,0,2.040939,1.8032304,-1.0724363,0.012936338,0.83360136,1.5418158,1.988432,-0.33916315,1.521816,-0.17370068,-0.41931072,0.6450932,1.5360875,-1.6164526
-0.1,-0.1,0.7,-0.5235987755982988,-0.5235987755982988,0,2.025492,1.7904886,-1.054031,-0.008688459,0.8283687,1.5400132,2.019969,-0.35680255,1.5040398,-0.20289104,-0.3999139,0.69324696,1.5472947,-1.4144255
-0.1,-0.1,0.7,-0.5235987755982988,-0.5235987755982988,0,2.0410535,1.7986783,-1.0692722,-0.0020295256,0.8278601,1.5483487,2.0129714,-0.35207897,1.487449,-0.1790403,-0.4293405,0.6239221,1.5420359,-1.4812506
-0.1,-0.1,0.7,-0.5235987755982988,-0.5235987755982988,0,2.0424197,1.8028182,-1.0584466,-0.012144504,0.8172691,1.5468702,2.0019062,-0.36455232,1.5266336,-0.20986491,-0.3718742,0.7423976,1.5374228,-1.5030978
-0.1,-0.1,0.7,-0.5235987755982988,-0.5235987755982988,0,2.0670521,1.8078258,-1.0632223,0.0017081026,0.836892,1.5428381,1.9589895,-0.3276213,1.5234556,-0.17617169,-0.40790007,0.65352565,1.5586034,-1.6346798
-0.1,-0.1,0.7,-0.5235987755982988,-0.5235987755982988,0,2.0097272,1.8020401,-1.0404673,0.0034437564,0.8281913,1.5486015,1.9792596,-0.39431667,1.5017397,-0.22180308,-0.3414005,0.74865466,1.549969,-1.6562115
-0.1,-0.1,0.7,-0.5235987755982988,-0.5235987755982988,0,2.0180247,1.8100275,-1.0433193,-0.0019123378,0.83883375,1.5456386,2.023401,-0.3240395,1.5296804,-0.16348353,-0.45263028,0.6579879,1.5251923,-1.1883991
-0.1,-0.1,0.7,-0.5235987755982988,-0.5235987755982988,0,2.0126257,1.8067908,-1.024082,0.0109824175,0.83612174,1.5547953,2.0145905,-0.3772464,1.5343392,-0.09679006,-0.41946808,0.7502936,1.5377738,-1.1342287
-0.1,-0.1,0.7,-0.5235987755982988,-0.5235987755982988,0,2.0124664,1.8029486,-1.0433654,-0.009287757,0.8409594,1.5486664,1.9786026,-0.33282697,1.5146295,-0.1430913,-0.39395878,0.7099715,1.5495098,-1.4581071
-0.1,-0.1,0.7,-0.5235987755982988,-0.5235987755982988,0,2.0314455,1.8093622,-1.0459962,-0.018598527,0.83297133,1.5441663,2.0113862,-0.3285408,1.5319378,-0.1437325,-0.3922504,0.7177141,1.5251012,-1.5939714
-0.1,-0.1,0.7,-0.5235987755982988,-0.5235987755982988,0,2.0194056,1.8007666,-1.0435891,-0.01397086,0.84948575,1.543622,2.0029368,-0.33544666,1.5283546,-0.12493273,-0.34737995,0.7639322,1.5267571,-1.4455882
-0.1,-0.1,0.7,-0.5235987755982988,-0.5235987755982988,0,2.0167618,1.8027235,-1.031942,-0.0020595482,0.8172128,1.5492547,2.0358129,-0.3473785,1.4932681,-0.1895303,-0.43783358,0.73274904,1.5580633,-1.3180994
-0.1,-0.1,0.7,-0.5235987755982988,-0.5235987755982988,0,2.0385873,1.8158898,-1.0550151,0.005275724,0.84864366,1.5485824,2.0147266,-0.3370937,1.5313964,-0.1504353,-0.40007573,0.7408269,1.5272312,-1.4353529
-0.1,-0.1,0.7,-0.5235987755982988,-0.5235987755982988,0,2.0427577,1.8045394,-1.0579404,-0.0007912404,0.84322447,1.5520161,2.004341,-0.37749487,1.5291276,-0.13787217,-0.39058188,0.7523867,1.5547706,-1.4154961
-0.1,-0.1,0.7,-0.5235987755982988,-0.5235987755982988,0,2.0115905,1.799416,-1.0499392,0.007013278,0.8531999,1.5508412,2.065288,-0.28900534,1.522672,-0.19468641,-0.3820378,0.7829761,1.5370554,-1.5352573
-0.1,-0.1,0.7,-0.5235987755982988,-0.5235987755982988,0,2.0477245,1.8067483,-1.0531806,-0.0041474546,0.8459896,1.5464967,1.988162,-0.35371816,1.5187758,-0.23703061,-0.44435218,0.72205406,1.5205686,-1.464467
-0.1,-0.1,0.7,-0.5235987755982988,-0.5235987755982988,0,2.0069284,1.8111649,-1.0409639,-0.0023556685,0.8263015,1.5505105,2.0196793,-0.26259598,1.5088686,-0.20785066,-0.40873677,0.6718615,1.5299062,-1.3257778
-0.1,-0.1,0.7,-0.5235987755982988,-0.5235987755982988,0,2.0601664,1.8039376,-1.0297976,0.012952861,0.84175754,1.5572377,2.0195646,-0.36037534,1.5117501,-0.19578803,-0.35501188,0.8365135,1.5363604,-1.3684009
-0.1,-0.1,0.7,-0.5235987755982988,-0.5235987755982988,0,2.0521708,1.7988282,-1.0409828,-0.008363129,0.8412324,1.5387706,1.9911741,-0.3749515,1.5335683,-0.1966547,-0.41647807,0.76780087,1.5353115,-1.3948863
-0.1,-0.1,0.7,-0.5235987755982988,-0.5235987755982988,0,2.0122828,1.80052,-1.0128425,-0.0030943728,0.83189553,1.5510709,1.9855306,-0.3525541,1.4991076,-0.23365752,-0.4107468,0.7764514,1.5455116,-1.3267206
-0.1,-0.1,0.7,-0.5235987755982988,-0.5235987755982988,0,2.019319,1.8093604,-1.0396812,0.0051728482,0.8281385,1.5476129,2.026866,-0.3072029,1.5379463,-0.22346085,-0.42306367,0.72024715,1.543409,-1.3928481
-0.1,-0.1,0.7,-0.5235987755982988,-0.5235987755982988,0,2.0148985,1.793935,-1.0362165,-0.0040356964,0.83894956,1.5442358,1.9748731,-0.38066226,1.510709,-0.1485358,-0.40468717,0.67828536,1.5383635,-1.376685
-0.1,-0.1,0.7,-0.5235987755982988,-0.5235987755982988,0,2.032198,1.8023095,-1.0357764,0.0043503297,0.8257465,1.5609995,2.0049875,-0.27803344,1.5218002,-0.15541147,-0.4075752,0.72164357,1.5533235,-1.5513463
-0.1,-0.1,0.7,-0.5235987755982988,-0.5235987755982988,0,2.0128257,1.7991153,-1.0321076,0.0052339043,0.84917784,1.5437392,2.015307,-0.3558255,1.5396324,-0.14156382,-0.38159117,0.7544469,1.5629369,-1.2509606
-0.1,-0.1,0.7,-0.5235987755982988,-0.5235987755982988,0,2.0471613,1.8027025,-1.0354309,0.005179345,0.8296108,1.5590024,2.0222676,-0.3369485,1.5113357,-0.117747836,-0.35838434,0.74733764,1.5485282,-1.422339
-0.1,-0.1,0.7,-0.5235987755982988,-0.5235987755982988,0,2.0657802,1.80513,-1.0403891,0.0023301744,0.8320433,1.5601434,2.0440238,-0.3297489,1.5113357,-0.2292138,-0.37474343,0.85204214,1.5663611,-1.5293943
-0.1,-0.1,0.7,-0.5235987755982988,-0.5235987755982988,0,2.030849,1.8172814,-1.020183,-0.007505438,0.8254691,1.5400252,1.9774688,-0.38255388,1.5252959,-0.14309396,-0.3917753,0.7652394,1.5379738,-1.5719106
-0.1,-0.1,0.7,-0.5235987755982988,-0.5235987755982988,0,2.0286496,1.8262447,-1.0347636,-0.035129413,0.8225314,1.5572704,2.0404398,-0.4029927,1.5200922,-0.12895027,-0.36004183,0.76581675,1.5175319,-1.3548943
-0.1,-0.1,0.7,-0.5235987755982988,-0.5235987755982988,0,2.0283751,1.7966455,-1.0272645,-0.008601382,0.8363175,1.5517598,1.993738,-0.30037278,1.5296718,-0.21092123,-0.3848709,0.77279204,1.5470247,-1.3687073
-0.1,-0.1,0.7,-0.5235987755982988,-0.5235987755982988,0,2.0218246,1.8069363,-1.0483743,-0.008019478,0.8439368,1.5418754,1.9806502,-0.35115314,1.5273776,-0.1318426,-0.37276176,0.6953221,1.539043,-1.2550304
-0.1,-0.1,0.7,-0.5235987755982988,-0.5235987755982988,0,2.0266705,1.805769,-1.0522444,0.01677839,0.8489021,1.5449877,1.9893451,-0.34584203,1.5244437,-0.16927955,-0.41155657,0.706071,1.5435578,-1.3727783
-0.1,-0.1,0.7,-0.5235987755982988,-0.5235987755982988,0,2.0529127,1.8080244,-1.0512888,-0.021015763,0.8339323,1.5424815,2.0517972,-0.37881884,1.5247786,-0.17549282,-0.36336076,0.80129427,1.5504484,-1.3259485
-0.1,-0.1,0.7,-0.5235987755982988,-0.5235987755982988,0,2.0336118,1.7889383,-1.062196,-0.0053859926,0.83843654,1.5529037,2.0168436,-0.32230097,1.5414066,-0.21221589,-0.39896345,0.7654762,1.5614223,-1.2469562
-0.1,-0.1,0.7,-0.5235987755982988,-0.5235987755982988,0,2.0084448,1.7991806,-1.0669948,-0.0023577968,0.85500574,1.5571959,2.0205233,-0.374928,1.5437758,-0.14708197,-0.3909122,0.7248196,1.5518922,-1.2213236
-0.1,-0.1,0.7,-0.5235987755982988,-0.5235987755982988,0,2.0305302,1.8016275,-1.0479931,0.021321176,0.8427137,1.5558968,2.0214546,-0.39076033,1.528097,-0.18750592,-0.41114268,0.76381207,1.5473773,-1.346904
-0.1,-0.1,0.7,-0.5235987755982988,-0.5235987755982988,0,2.0063925,1.8145208,-1.0438288,0.0020272487,0.84866667,1.5536578,2.0061402,-0.29531488,1.5376136,-0.21063702,-0.40680113,0.7537589,1.5622803,-1.4875556
-0.1,-0.1,0.7,-0.5235987755982988,-0.5235987755982988,0,2.031495,1.7977206,-1.0357987,-0.00026120633,0.8313507,1.5549347,2.013945,-0.35153338,1.5098792,-0.19111635,-0.3682748,0.8100865,1.5505276,-1.5801382
-0.1,-0.1,0.7,-0.5235987755982988,-0.5235987755982988,0,2.0294752,1.7929548,-1.0466864,0.013411298,0.84606516,1.5558791,2.0040853,-0.37919006,1.533205,-0.1693411,-0.39291283,0.7326079,1.5223955,-1.2365535
-0.1,-0.1,0.7,-0.5235987755982988,-0.5235987755982988,0,2.0039105,1.7961875,-1.0282252,0.006100704,0.8317675,1.5470567,2.0172873,-0.34730646,1.5082617,-0.15269226,-0.3955888,0.7070997,1.5432706,-1.3804494
-0.1,-0.1,0.7,-0.5235987755982988,-0.5235987755982988,0,2.0299315,1.8203323,-1.0315647,-0.033305712,0.8299402,1.5594927,1.9830487,-0.3687377,1.5226144,-0.22682914,-0.39349633,0.81889266,1.5629413,-1.4137087
-0.1,-0.1,0.7,-0.5235987755982988,-0.5235987755982988,0,2.0155053,1.7977991,-1.0364381,-0.0107644135,0.84601915,1.5487791,1.984622,-0.34447193,1.5252306,-0.120629385,-0.42128336,0.6712058,1.5604944,-1.3611172
-0.1,-0.1,0.7,-0.5235987755982988,-0.5235987755982988,0,2.0295954,1.8035159,-1.0535539,0.020953733,0.8310687,1.5528473,1.9939831,-0.3517673,1.5374742,-0.17383914,-0.4051887,0.7150807,1.5450813,-1.45124
-0.1,-0.1,0.7,-0.5235987755982988,-0.5235987755982988,0,2.0172951,1.8117865,-1.0573559,-0.0094167935,0.8369402,1.5474695,2.000174,-0.403604,1.5205485,-0.14559129,-0.4291151,0.7471073,1.564345,-1.6102595
-0.1,-0.1,0.7,-0.5235987755982988,-0.5235987755982988,0,2.045327,1.8032019,-1.04631,0.0122034475,0.8356578,1.5484016,2.0140169,-0.33319995,1.4993366,-0.18961957,-0.3799038,0.7364032,1.5441673,-1.3404683
-0.1,-0.1,0.7,-0.5235987755982988,-0.5235987755982988,0,2.0198767,1.8042012,-1.0314742,0.005310877,0.8270059,1.5451188,2.0025175,-0.37975273,1.5161209,-0.18614747,-0.38702503,0.77426755,1.5498234,-1.3854275
-0.1,-0.1,0.7,-0.5235987755982988,-0.5235987755982988,0,2.0220213,1.8130252,-1.0303462,-0.009553605,0.83562165,1.5415968,2.0449991,-0.45230758,1.5298727,-0.13358392,-0.39730564,0.7644336,1.5670707,-1.2166637
-0.1,-0.1,0.7,-0.5235987755982988,-0.5235987755982988,0,2.0389445,1.7966015,-1.0780289,-0.015992392,0.8561712,1.5539799,2.0271242,-0.3420942,1.5321233,-0.158276,-0.40873566,0.73217916,1.5544485,-1.5340146
-0.1,-0.1,0.7,-0.5235987755982988,-0.5235987755982988,0,2.0159624,1.8202684,-1.0661162,-0.021332793,0.8203891,1.5463425,1.9923683,-0.35111305,1.5242989,-0.18071704,-0.41107273,0.76617646,1.5515332,-1.6636558
-0.1,-0.1,0.7,-0.5235987755982988,-0.5235987755982988,0,2.0421755,1.7934196,-1.0496292,0.025493277,0.82095486,1.5467273,2.0399382,-0.3318733,1.5135332,-0.18460654,-0.3910954,0.6940056,1.5371696,-1.2747302
-0.1,-0.1,0.7,-0.5235987755982988,-0.5235987755982988,0,2.0116527,1.8026503,-1.0607737,-0.01967964,0.8304701,1.5413234,1.969287,-0.34612146,1.5255231,-0.14352328,-0.41060203,0.639187,1.5343288,-1.1605977
-0.1,-0.1,0.7,-0.5235987755982988,-0.5235987755982988,0,2.0387423,1.8123965,-1.0631645,-0.029094731,0.8426708,1.5573349,2.0272555,-0.3638497,1.5046015,-0.19405489,-0.40262708,0.74117,1.5528213,-1.275177
-0.1,-0.1,0.7,-0.5235987755982988,-0.5235987755982988,0,2.032675,1.7989882,-1.0762812,0.013765424,0.8460637,1.5512862,1.9843055,-0.36597306,1.5105466,-0.19986522,-0.3619279,0.8043346,1.5500685,-1.4125689
-0.1,-0.1,0.7,-0.5235987755982988,-0.5235987755982988,0,2.0195882,1.7965598,-1.0730793,0.022369007,0.8499365,1.536795,2.0419414,-0.30709693,1.5064114,-0.20930074,-0.35974252,0.75090855,1.5365533,-1.3662504
-0.1,-0.1,0.7,-0.5235987755982988,-0.5235987755982988,0,2.0201035,1.7960898,-1.0701808,-0.007463339,0.85644275,1.5501673,1.9959345,-0.3704376,1.5348334,-0.16045763,-0.4207217,0.6742992,1.5199898,-1.3481009
-0.1,-0.1,0.7,-0.5235987755982988,-0.5235987755982988,0,2.030463,1.8083483,-1.0658369,0.0084812315,0.830921,1.538432,2.0074222,-0.368979,1.519414,-0.17941351,-0.4310267,0.6806261,1.5472107,-1.1974282
-0.1,-0.1,0.7,-0.5235987755982988,-0.5235987755982988,0,2.0271456,1.7932929,-1.0801595,-0.00067150325,0.83821696,1.5450649,1.9990964,-0.32188496,1.5134567,-0.14157236,-0.35676807,0.75731045,1.5468336,-1.6093953
-0.1,-0.1,0.7,-0.5235987755982988,-0.5235987755982988,0,2.023394,1.7985729,-1.0643978,0.021880385,0.8351753,1.549822,2.0156686,-0.31423992,1.5253018,-0.19527806,-0.35039854,0.7652012,1.5413556,-1.2641977
-0.1,-0.1,0.7,-0.5235987755982988,-0.5235987755982988,0,2.0288386,1.8105168,-1.061086,-0.009452852,0.8461961,1.5382324,2.0028377,-0.3586629,1.5064073,-0.13702492,-0.38870424,0.692361,1.5414684,-1.4082835
-0.1,-0.1,0.7,-0.5235987755982988,-0.5235987755982988,0,2.065392,1.8085617,-1.0719869,-0.03812383,0.83510375,1.551263,1.9996464,-0.3843364,1.5311983,-0.19918478,-0.39222518,0.76178366,1.5438509,-1.2690789
-0.1,-0.1,0.7,-0.5235987755982988,-0.5235987755982988,0,2.0536573,1.802762,-1.0742038,0.00551871,0.84183514,1.5527009,2.0372453,-0.32290652,1.5204136,-0.21221931,-0.39409956,0.7384321,1.5424035,-1.4530576
-0.1,-0.1,0.7,-0.5235987755982988,-0.5235987755982988,0,2.0158668,1.8061534,-1.0451891,-0.021313142,0.8524622,1.5456808,1.9964668,-0.4056133,1.4901776,-0.13557321,-0.35580528,0.7510344,1.5317649,-1.356567
-0.1,-0.1,0.7,-0.5235987755982988,-0.5235987755982988,0,2.0493503,1.8040926,-1.0570467,-0.024358911,0.83011925,1.5491986,1.9932505,-0.33247364,1.5416132,-0.13817388,-0.34824994,0.73611325,1.5555739,-1.2173139
-0.1,-0.1,0.7,-0.5235987755982988,-0.5235987755982988,0,2.030338,1.7974527,-1.0602183,0.002866752,0.8450505,1.5418253,2.0352435,-0.35156766,1.5320008,-0.17183709,-0.40059343,0.73435086,1.550018,-1.5701504
-0.1,-0.1,0.7,-0.5235987755982988,-0.5235987755982988,0,2.0388124,1.8085777,-1.0742633,-1.0683969e-05,0.8284757,1.5481789,2.0197601,-0.34761012,1.5371491,-0.15775532,-0.3956184,0.70045865,1.5435206,-1.4820864
-0.1,-0.1,0.7,-0.5235987755982988,-0.5235987755982988,0,2.037159,1.8025259,-1.0663455,0.0008029927,0.83993924,1.5488741,1.9916853,-0.32853433,1.5262053,-0.17410965,-0.37806988,0.7235716,1.5504528,-1.4651368
-0.1,-0.1,0.7,-0.5235987755982988,-0.5235987755982988,0,2.0454535,1.8092993,-1.068085,-0.0062996508,0.82746196,1.5517776,2.0481465,-0.29055235,1.5134028,-0.23411278,-0.35751134,0.76030195,1.5452498,-1.3355353
-0.1,-0.1,0.7,-0.5235987755982988,-0.5235987755982988,0,2.0307405,1.7936794,-1.084211,0.015781667,0.83971703,1.5599008,2.0164561,-0.31401232,1.5412985,-0.17790148,-0.38199988,0.71811783,1.568813,-1.267222
-0.1,-0.1,0.7,-0.5235987755982988,-0.5235987755982988,0,2.0196626,1.8049978,-1.0653629,-0.014512328,0.8451999,1.5590805,2.0195198,-0.38377064,1.5452502,-0.15522097,-0.38381103,0.7404985,1.5331274,-1.4250236
-0.1,-0.1,0.7,-0.5235987755982988,-0.5235987755982988,0,2.0345747,1.8027757,-1.0741754,0.028301278,0.8448023,1.5500687,2.0184171,-0.3202973,1.516058,-0.198206,-0.42325667,0.6899517,1.5517926,-1.4287546
-0.1,-0.1,0.7,-0.5235987755982988,-0.5235987755982988,0,2.029224,1.8010161,-1.0551882,-0.019641057,0.84066975,1.5484724,1.9607192,-0.3504559,1.5286472,-0.1933967,-0.4059151,0.71320677,1.5351057,-1.3479371
-0.1,-0.1,0.7,-0.5235987755982988,-0.5235987755982988,0,2.0046108,1.7985464,-1.0290867,0.0070315264,0.83847,1.558634,2.0226724,-0.308111,1.508414,-0.18377917,-0.36204773,0.73002905,1.5339597,-1.53993
-0.1,-0.1,0.7,-0.5235987755982988,-0.5235987755982988,0,2.021863,1.8077202,-1.0604483,-0.0074054464,0.8234864,1.556646,2.0083048,-0.37367192,1.5245622,-0.1690352,-0.40213814,0.6942002,1.5317448,-1.2997421
-0.1,-0.1,0.7,-0.5235987755982988,-0.5235987755982988,0,2.0110679,1.8010104,-1.0474821,-0.006577711,0.8533243,1.5284157,2.0173814,-0.41250557,1.5092162,-0.20005262,-0.3785759,0.7945426,1.536598,-1.3770256
-0.1,-0.1,0.7,-0.5235987755982988,-0.5235987755982988,0,2.0330186,1.8020616,-1.0781782,0.014466811,0.8297082,1.5510218,2.0043585,-0.34211424,1.5227414,-0.19902824,-0.38976288,0.7439706,1.5588635,-1.3984758
-0.1,-0.1,0.7,-0.5235987755982988,-0.5235987755982988,0,2.0216014,1.7928579,-1.0726514,0.013073205,0.8312929,1.556556,2.0125272,-0.35699254,1.5312086,-0.22005591,-0.36314386,0.7831593,1.5357431,-1.2962096
-0.1,-0.1,0.7,-0.5235987755982988,-0.5235987755982988,0,2.021396,1.8029737,-1.0530318,0.010323365,0.83382326,1.5483086,1.9968927,-0.32785326,1.5412413,-0.20828645,-0.40919974,0.6979098,1.554156,-1.1824112
-0.1,-0.1,0.7,-0.5235987755982988,-0.5235987755982988,0,2.0235257,1.8074725,-1.0707576,-0.0044887797,0.84146935,1.5578762,2.0070817,-0.37272695,1.5092684,-0.14274023,-0.3520453,0.7549893,1.5558232,-1.3827599
-0.1,-0.1,0.7,-0.5235987755982988,-0.5235987755982988,0,2.0316336,1.806277,-1.0522391,0.015734417,0.8062139,1.5564034,2.0430176,-0.42740855,1.5192266,-0.121845506,-0.4008627,0.72162956,1.5491157,-1.4921755
-0.1,-0.1,0.7,-0.5235987755982988,-0.5235987755982988,0,2.0094984,1.7987069,-1.0658313,-0.001074352,0.8462762,1.5491025,1.9637583,-0.36343756,1.5207107,-0.18595336,-0.38841578,0.723534,1.539535,-1.290066
-0.1,-0.1,0.7,-0.5235987755982988,-0.5235987755982988,0,2.0338655,1.8040249,-1.0743711,0.00098527,0.8300363,1.5596997,2.0295005,-0.36183405,1.535404,-0.17671123,-0.4124623,0.693588,1.5508909,-1.2445998
-0.1,-0.1,0.7,-0.5235987755982988,-0.5235987755982988,0,2.0262344,1.7902968,-1.0737933,-0.00090423884,0.8580294,1.5457753,1.9827918,-0.33781546,1.5508704,-0.18635948,-0.40232363,0.6973232,1.56966,-1.1097552
-0.1,-0.1,0.7,-0.5235987755982988,-0.5235987755982988,0,2.0142028,1.8063331,-1.0657349,0.030341886,0.8331193,1.5554417,1.9988472,-0.35680127,1.5070997,-0.19759913,-0.37677124,0.7516029,1.5536544,-1.3435439
-0.1,-0.1,0.7,-0.5235987755982988,-0.5235987755982988,0,2.0535367,1.7957318,-1.072957,-0.005685312,0.8350525,1.5391172,2.0057735,-0.3400425,1.5209278,-0.22704953,-0.3941747,0.75175685,1.5260386,-1.4968865
-0.1,-0.1,0.7,-0.5235987755982988,-0.5235987755982988,0,2.0113857,1.8024213,-1.0660708,-0.012468298,0.83601314,1.5501046,1.9950083,-0.3404945,1.5208117,-0.16206793,-0.39873597,0.67134947,1.5263586,-1.4909055
-0.1,-0.1,0.7,-0.5235987755982988,-0.5235987755982988,0,2.0265207,1.8128915,-1.0737659,-0.01976194,0.82264555,1.5593183,1.9959661,-0.3616256,1.5200839,-0.191007,-0.41950446,0.70141625,1.5435226,-1.4273467
-0.1,-0.1,0.7,-0.5235987755982988,-0.5235987755982988,0,1.991623,1.8015987,-1.0645624,0.010898765,0.8521893,1.5550507,2.023561,-0.33181036,1.5370054,-0.18404128,-0.42252535,0.6781334,1.5519702,-1.3667457
-0.1,-0.1,0.7,-0.5235987755982988,-0.5235987755982988,0,2.013858,1.8095549,-1.0405797,0.006113454,0.8404587,1.5557644,1.999051,-0.3393434,1.5213456,-0.110297814,-0.3827834,0.6633058,1.5517321,-1.5492173
-0.1,-0.1,0.7,-0.5235987755982988,-0.5235987755982988,0,2.0046961,1.8031005,-1.04616,0.008447369,0.84610045,1.5426508,2.028293,-0.35646605,1.5174564,-0.2074123,-0.4105823,0.7358259,1.5615754,-1.3654776
-0.1,-0.1,0.7,-0.5235987755982988,-0.5235987755982988,0,2.050923,1.8017001,-1.083431,0.0027949063,0.833716,1.5535916,2.00877,-0.375288,1.5395343,-0.17548215,-0.4165131,0.738498,1.5549346,-1.5727899
-0.1,-0.1,0.7,-0.5235987755982988,-0.5235987755982988,0,2.0201058,1.8054162,-1.0640324,0.015931405,0.8257785,1.5482391,2.019775,-0.30087483,1.5163007,-0.20231298,-0.38703862,0.7041985,1.5342736,-1.5478802
-0.1,-0.1,0.7,-0.5235987755982988,-0.5235987755982988,0,2.0374434,1.797338,-1.0802633,-0.0015849025,0.8500363,1.543464,1.9868115,-0.3815404,1.5242351,-0.2179636,-0.44194475,0.6988995,1.5337228,-1.3357655
-0.1,-0.1,0.7,-0.5235987755982988,-0.5235987755982988,0,2.0297441,1.7970784,-1.0580825,-0.0038362232,0.8391523,1.5459366,2.012344,-0.37985107,1.5230972,-0.18526107,-0.39717397,0.7267345,1.5358815,-1.3417783
-0.1,-0.1,0.7,-0.5235987755982988,-0.5235987755982988,0,2.0318503,1.8070359,-1.076049,0.045170557,0.8331845,1.5531771,2.0285587,-0.38398919,1.5043921,-0.15346932,-0.3276131,0.7549047,1.5475006,-1.1980939
-0.1,-0.1,0.7,-0.5235987755982988,-0.5235987755982988,0,1.9968758,1.7921705,-1.0579512,-0.0060324757,0.8249228,1.550046,2.0141346,-0.34330598,1.5236887,-0.1810756,-0.3876282,0.6962577,1.5416865,-1.2879897
-0.1,-0.1,0.7,-0.5235987755982988,-0.5235987755982988,0,2.0244467,1.8013896,-1.0471919,-0.0142985005,0.82964694,1.5465081,2.004608,-0.34884748,1.5390909,-0.17610645,-0.41979855,0.6756951,1.54097,-1.4530355
-0.1,-0.1,0.7,-0.5235987755982988,-0.5235987755982988,0,2.0131922,1.8100252,-1.0712658,-0.0075215246,0.8447955,1.5576298,2.0218146,-0.37045664,1.5263011,-0.21039915,-0.394774,0.7691506,1.5686789,-1.3483449
-0.1,-0.1,0.7,-0.5235987755982988,-0.5235987755982988,0,2.005672,1.8063687,-1.0694408,0.026965454,0.8367562,1.5445105,2.0242162,-0.37221697,1.514055,-0.17402613,-0.35862482,0.75386155,1.5354942,-1.4432178
-0.1,-0.1,0.7,-0.5235987755982988,-0.5235987755982988,0,2.0391593,1.8133657,-1.0655826,0.03455054,0.8244096,1.5450668,2.0237062,-0.35501635,1.5214946,-0.1389961,-0.41967538,0.6171347,1.5490755,-1.2218144
-0.1,-0.1,0.7,-0.5235987755982988,-0.5235987755982988,0,1.9970695,1.7907265,-1.0762489,-0.0029390843,0.84831023,1.5520138,1.9899454,-0.31139952,1.5444881,-0.20406774,-0.388212,0.713652,1.555205,-1.2759488
-0.1,-0.1,0.7,-0.5235987755982988,-0.5235987755982988,0,2.0211058,1.8073492,-1.0754613,0.0057508377,0.85026807,1.5473608,2.0153534,-0.34857583,1.5186855,-0.15914826,-0.40282708,0.67718196,1.5526628,-1.4128155
-0.1,-0.1,0.7,-0.5235987755982988,-0.5235987755982988,0,2.0298212,1.8030578,-1.0620234,-0.005237836,0.8348783,1.5482279,1.9883376,-0.32031518,1.5044022,-0.1897541,-0.36873,0.7184274,1.5442886,-1.4690756
-0.1,-0.1,0.7,-0.5235987755982988,-0.5235987755982988,0,2.0435088,1.79014,-1.0799538,0.012081735,0.83178914,1.5524354,2.0165255,-0.34173456,1.5317404,-0.16903947,-0.38572937,0.7056659,1.5513612,-1.4921863
-0.1,-0.1,0.7,-0.5235987755982988,-0.5235987755982988,0,2.0181968,1.8112134,-1.0822769,-0.007200064,0.8617581,1.5442669,2.0122607,-0.35664198,1.5213027,-0.13954493,-0.34853798,0.69616187,1.5089222,-1.4429734
-0.1,-0.1,0.7,-0.5235987755982988,-0.5235987755982988,0,2.0233912,1.8033934,-1.0634772,0.0032599447,0.8308451,1.5468218,2.0035357,-0.34201127,1.5239713,-0.18921766,-0.38163838,0.70539725,1.5205079,-1.4315696
-0.1,-0.1,0.7,-0.5235987755982988,-0.5235987755982988,0,1.9966657,1.8147284,-1.0687118,0.029915769,0.8400314,1.5486021,1.9785793,-0.34960005,1.523596,-0.17985453,-0.39935863,0.70560884,1.5433763,-1.5412931
-0.1,-0.1,0.7,-0.5235987755982988,-0.5235987755982988,0,2.046065,1.8241088,-1.074063,0.025874013,0.84247935,1.5375158,1.985701,-0.343664,1.5333164,-0.10819461,-0.34822235,0.7162926,1.5616515,-1.5469072
-0.1,-0.1,0.7,-0.5235987755982988,-0.5235987755982988,0,2.0445473,1.8036332,-1.0807995,0.009107476,0.8394927,1.563341,2.016242,-0.33202386,1.5202419,-0.13189918,-0.38714972,0.65054953,1.5457057,-1.5452738
-0.1,-0.1,0.7,-0.5235987755982988,-0.5235987755982988,0,2.0424862,1.820971,-1.0743157,0.020070696,0.8531362,1.5568975,1.9666001,-0.38576797,1.5201366,-0.2404971,-0.36487883,0.8151456,1.5584319,-1.3032213
-0.1,-0.1,0.7,-0.5235987755982988,-0.5235987755982988,0,2.0246093,1.8026359,-1.0576836,0.016874768,0.84474826,1.5430238,2.0261447,-0.35325256,1.5095501,-0.20440385,-0.38692167,0.7247542,1.5563515,-1.2539303
-0.1,-0.1,0.7,-0.5235987755982988,-0.5235987755982988,0,2.0152903,1.7942548,-1.0488043,0.028636817,0.8358718,1.5579671,2.009353,-0.35054097,1.5073054,-0.19994396,-0.39505145,0.7216776,1.5628778,-1.3473666
-0.1,-0.1,0.7,-0.5235987755982988,-0.5235987755982988,0,2.0001347,1.8156193,-1.0722444,0.034289297,0.8373421,1.5460932,1.9760972,-0.36539572,1.5236541,-0.15551116,-0.3611752,0.7209678,1.5458448,-1.3744653
-0.1,-0.1,0.7,-0.5235987755982988,-0.5235987755982988,0,2.0107582,1.800066,-1.0533552,-0.0041877353,0.85117805,1.5418396,2.0027652,-0.3613532,1.5069101,-0.18668477,-0.37872654,0.6950286,1.5317165,-1.2191578
-0.1,-0.1,0.7,-0.5235987755982988,-0.5235987755982988,0,2.0177784,1.7926536,-1.0484837,0.016441341,0.85411465,1.5427309,2.0339687,-0.35315764,1.5284115,-0.18095453,-0.38433334,0.71783125,1.5446137,-1.516415
-0.1,-0.1,0.7,-0.5235987755982988,-0.5235987755982988,0,2.04106,1.7970576,-1.0442128,0.047923893,0.8294153,1.5560795,2.0510862,-0.3517111,1.5287466,-0.18995127,-0.38439533,0.7294524,1.5548362,-1.5658603
-0.1,-0.1,0.7,-0.5235987755982988,-0.5235987755982988,0,2.0373344,1.8064363,-1.0407921,-0.01037157,0.816804,1.5491092,1.9805241,-0.3910157,1.5284603,-0.24136461,-0.4115067,0.7482524,1.5431246,-1.4668919
-0.1,-0.1,0.7,-0.5235987755982988,-0.5235987755982988,0,2.0138202,1.7882637,-1.0472986,0.003320834,0.8264435,1.54741,1.9799372,-0.34510338,1.4987594,-0.15307878,-0.38275734,0.66540277,1.5430412,-1.4819626
-0.1,-0.1,0.7,-0.5235987755982988,-0.5235987755982988,0,2.0282462,1.8018564,-1.0504409,0.00010350761,0.8560936,1.552631,1.9961917,-0.38084003,1.5169214,-0.25332987,-0.37150517,0.7973204,1.5405186,-1.5607622
-0.1,-0.1,0.7,-0.5235987755982988,-0.5235987755982988,0,2.021727,1.8014922,-1.0164622,0.0073415115,0.8272463,1.5462583,1.9696441,-0.36261404,1.5435551,-0.10918727,-0.42763308,0.7361127,1.5628829,-1.3424776
-0.1,-0.1,0.7,-0.5235987755982988,-0.5235987755982988,0,2.0408554,1.8074075,-1.0420171,-0.00051697216,0.8334625,1.5550038,2.0404608,-0.32438537,1.52945,-0.19976531,-0.37718055,0.8361314,1.5452048,-1.259564
-0.1,-0.1,0.7,-0.5235987755982988,-0.5235987755982988,0,2.0313904,1.8068663,-1.0323288,0.0009302855,0.83910185,1.5508388,2.0349758,-0.36587852,1.5285978,-0.18521702,-0.38915727,0.83727425,1.5417789,-1.4286232
-0.1,-0.1,0.7,-0.5235987755982988,-0.5235987755982988,0,2.019014,1.7973291,-1.0281708,-0.00013654075,0.8331947,1.547501,2.0214338,-0.34191242,1.5028994,-0.129819,-0.40649894,0.69301075,1.5522029,-1.1704173
-0.1,-0.1,0.7,-0.5235987755982988,-0.5235987755982988,0,2.0171578,1.8135694,-1.0447332,-0.0047916793,0.8398391,1.5496318,2.0463004,-0.3201707,1.5166514,-0.18087904,-0.42197976,0.68931544,1.5390115,-1.372537
-0.1,-0.1,0.7,-0.5235987755982988,-0.5235987755982988,0,2.0242157,1.7997065,-1.0608602,0.016040182,0.85464185,1.557967,1.989945,-0.30855834,1.5219938,-0.22047085,-0.35953915,0.7857434,1.5542355,-1.1586219
-0.1,-0.1,0.7,-0.5235987755982988,-0.5235987755982988,0,2.0184937,1.7981223,-1.0660173,-0.013035635,0.8506136,1.5595456,2.0138047,-0.39069918,1.4998046,-0.19436216,-0.35298535,0.7820932,1.5241627,-1.136539
-0.1,-0.1,0.7,-0.5235987755982988,-0.5235987755982988,0,2.0325258,1.786769,-1.0758734,0.026896175,0.8422998,1.547179,2.0254023,-0.34762862,1.5253391,-0.22072002,-0.42166325,0.7337873,1.5429634,-1.285272
-0.1,-0.1,0.7,-0.5235987755982988,-0.5235987755982988,0,2.0305686,1.7908087,-1.0810418,0.0016805112,0.8255789,1.5541002,2.0139554,-0.37083483,1.5350899,-0.16865024,-0.42655748,0.7356268,1.5458782,-1.5750657
-0.1,-0.1,0.7,-0.5235987755982988,-0.5235987755982988,0,2.0544574,1.8148893,-1.0883615,0.024441406,0.84283334,1.5601038,1.9865719,-0.35551718,1.523558,-0.14853431,-0.37141305,0.71769094,1.5216923,-1.2901368
-0.1,-0.1,0.7,-0.5235987755982988,-0.5235987755982988,0,2.0420148,1.8036896,-1.0698617,0.013004671,0.84015805,1.5521206,2.0079217,-0.4026978,1.5187963,-0.17667605,-0.4036448,0.76495385,1.5382133,-1.5413646
-0.1,-0.1,0.7,-0.5235987755982988,-0.5235987755982988,0,2.0610325,1.8071028,-1.0905241,0.02356832,0.84407526,1.5527555,2.0260754,-0.35183448,1.5029838,-0.16988127,-0.37408412,0.7383658,1.5472157,-1.2142483
-0.1,-0.1,0.7,-0.5235987755982988,-0.5235987755982988,0,2.013703,1.8129804,-1.0842208,-0.0012684215,0.8442803,1.549549,2.0060825,-0.31180677,1.4988338,-0.14409414,-0.39974153,0.66093856,1.5518973,-1.2668414
-0.1,-0.1,0.7,-0.5235987755982988,-0.5235987755982988,0,2.0318227,1.7891243,-1.074213,0.001307869,0.8311774,1.5600792,2.016272,-0.33795717,1.5305973,-0.16320316,-0.38266566,0.75337034,1.538676,-1.6236311
-0.1,-0.1,0.7,-0.5235987755982988,-0.5235987755982988,0,2.0419524,1.8199782,-1.0992881,0.0063912687,0.8375066,1.5489358,2.0114899,-0.31792763,1.5052449,-0.19259961,-0.4108434,0.6633019,1.5603194,-0.99856645
-0.1,-0.1,0.7,-0.5235987755982988,-0.5235987755982988,0,2.0282705,1.7941636,-1.069736,0.0026068902,0.8460658,1.5462699,2.0223393,-0.3440478,1.5115808,-0.20317557,-0.39145607,0.7273976,1.5570664,-1.186017
-0.1,-0.1,0.7,-0.5235987755982988,-0.5235987755982988,0,2.007837,1.8027322,-1.0632186,-0.016997535,0.84571636,1.5514554,1.9675744,-0.46686676,1.5248189,-0.12577699,-0.40511867,0.72918266,1.5372448,-1.296213
-0.1,-0.1,0.7,-0.5235987755982988,-0.5235987755982988,0,2.032495,1.7893932,-1.072607,0.014017884,0.83817,1.5332155,2.024599,-0.3926069,1.5304642,-0.1857096,-0.41073546,0.75778466,1.5441545,-1.556929
-0.1,-0.1,0.7,-0.5235987755982988,-0.5235987755982988,0,2.026085,1.8018146,-1.1094087,0.026053103,0.8457106,1.5591775,1.9792769,-0.34888107,1.4813551,-0.09842297,-0.31643164,0.71312684,1.5333176,-1.4214777
-0.1,-0.1,0.7,-0.5235987755982988,-0.5235987755982988,0,2.036956,1.7969083,-1.0799011,0.008372995,0.84569806,1.5407631,2.0112205,-0.4028096,1.5252194,-0.13799527,-0.38072556,0.7029212,1.534556,-1.3059338
-0.1,-0.1,0.7,-0.5235987755982988,-0.5235987755982988,0,2.0173972,1.8034786,-1.036837,-0.019481491,0.8302492,1.555517,2.041896,-0.3888301,1.4908301,-0.17620093,-0.3724188,0.69079095,1.5292424,-1.5127673
-0.1,-0.1,0.7,-0.5235987755982988,-0.5235987755982988,0,2.043154,1.7966682,-1.0506545,0.0052838316,0.83081484,1.5486509,2.0441628,-0.32758102,1.5107143,-0.23365742,-0.36776486,0.71741605,1.5365969,-1.5070494
-0.1,-0.1,0.7,-0.5235987755982988,-0.5235987755982988,0,2.030696,1.8069972,-1.0411911,-0.0056344927,0.8539973,1.5396969,2.0300405,-0.300012,1.535121,-0.17902856,-0.43099147,0.80429983,1.5370967,-1.2534441
-0.1,-0.1,0.7,-0.5235987755982988,-0.5235987755982988,0,2.0207174,1.8160326,-1.0597054,0.0013769461,0.84601516,1.5367709,2.0520494,-0.3809231,1.4940634,-0.16329134,-0.453879,0.7695061,1.5461881,-1.3123828
-0.1,-0.1,0.7,-0.5235987755982988,-0.5235987755982988,0,2.0435908,1.7967082,-1.0811712,0.011240164,0.83462566,1.5424939,1.9836117,-0.415653,1.5069153,-0.1892325,-0.40529993,0.75053275,1.5364667,-1.2442312
-0.1,-0.1,0.7,-0.5235987755982988,-0.5235987755982988,0,2.016603,1.809994,-1.0808407,0.030284535,0.8351125,1.5424486,1.9986306,-0.36685193,1.5158842,-0.18483688,-0.36443183,0.7795733,1.5468931,-1.3444095
