sanky1234/BimanualDexCatch/isaacgymenvs/cem_results/football_pose_-0.2_-0.2_0.9999999999999999_-0.5235987755982988_0.5235987755982988_0_2025-05-24.csv
x,y,z,roll,pitch,yaw,robot1/joint1,robot1/joint2,robot1/joint3,robot1/joint4,robot1/joint5,robot1/joint6,robot1/joint7,robot2/joint1,robot2/joint2,robot2/joint3,robot2/joint4,robot2/joint5,robot2/joint6,robot2/joint7
-0.2,-0.2,0.9999999999999999,-0.5235987755982988,0.5235987755982988,0,0.2601479,1.3262753,-0.28317833,-0.07289962,-0.2345942,1.1797279,-0.35572785,-0.89069545,1.1608738,-1.3424296,-0.0797992,0.53565204,0.2956227,-0.2586754
-0.2,-0.2,0.9999999999999999,-0.5235987755982988,0.5235987755982988,0,0.24492061,1.2236804,0.06083278,-0.097316965,0.1252987,1.2307854,0.982916,-0.89066416,1.1614594,-1.3436677,-0.08004771,0.56637096,0.310459,-0.6944663
-0.2,-0.2,0.9999999999999999,-0.5235987755982988,0.5235987755982988,0,-0.123229854,1.2838331,-0.13040908,-0.10375666,-0.035208553,1.2861977,0.3254795,-0.89045876,1.1606615,-1.346161,-0.08014967,0.5557865,0.29785547,-1.0001824
-0.2,-0.2,0.9999999999999999,-0.5235987755982988,0.5235987755982988,0,-0.4510339,1.248269,-0.05565086,-0.090684555,0.10843253,1.2552382,0.56456894,-0.89062214,1.1610247,-1.3445524,-0.08015077,0.55371773,0.31326678,-0.64614475
-0.2,-0.2,0.9999999999999999,-0.5235987755982988,0.5235987755982988,0,0.25280878,1.2460989,-0.15468591,-0.14920166,0.047498498,1.1705194,0.07659193,-0.8909582,1.1597017,-1.3422529,-0.07958729,0.5552127,0.28495768,0.45084518
-0.2,-0.2,0.9999999999999999,-0.5235987755982988,0.5235987755982988,0,-0.736128,1.2839601,-0.13140951,-0.114910066,0.01663508,1.1190768,0.7235779,-0.89036876,1.1615524,-1.346213,-0.080204934,0.547542,0.30830792,-1.085399
-0.2,-0.2,0.9999999999999999,-0.5235987755982988,0.5235987755982988,0,0.32289448,1.267114,0.064853564,-0.048304863,0.11654183,1.2473959,0.09777694,-0.8905715,1.1607538,-1.3472751,-0.080409676,0.56333375,0.2964058,-0.59896505
-0.2,-0.2,0.9999999999999999,-0.5235987755982988,0.5235987755982988,0,0.8281955,1.2759265,-0.012765719,-0.052108433,0.02024076,1.237234,-0.7344374,-0.8905528,1.1616695,-1.3448331,-0.080175325,0.55660003,0.3154544,-0.57396996
-0.2,-0.2,0.9999999999999999,-0.5235987755982988,0.5235987755982988,0,0.4743287,1.2398221,-0.47388294,-0.0987259,0.13445993,1.3003168,0.0707782,-0.8902496,1.1617472,-1.345305,-0.0799627,0.5621503,0.30269834,-0.8378466
-0.2,-0.2,0.9999999999999999,-0.5235987755982988,0.5235987755982988,0,-0.07987476,1.338793,0.023043957,-0.08737315,0.08545739,1.2721648,-1.2337246,-0.8898875,1.1607012,-1.3442844,-0.07977009,0.55328536,0.30513313,-0.77037185
-0.2,-0.2,0.9999999999999999,-0.5235987755982988,0.5235987755982988,0,0.26240432,1.3228685,0.18735196,-0.06116636,-0.04017123,1.2531718,1.2485892,-0.89023715,1.1615984,-1.3437197,-0.07953501,0.5502133,0.3065089,0.9535137
-0.2,-0.2,0.9999999999999999,-0.5235987755982988,0.5235987755982988,0,0.09417348,1.2700472,-0.107098855,-0.08257947,0.056466088,1.3165936,0.7714369,-0.89034516,1.1612711,-1.344073,-0.07941395,0.55112725,0.31849778,-0.7771377
-0.2,-0.2,0.9999999999999999,-0.5235987755982988,0.5235987755982988,0,0.575161,1.2836933,0.06993879,-0.058433253,-0.13766918,1.2851652,-0.15815957,-0.89043975,1.162008,-1.3420745,-0.07985599,0.5632784,0.2946166,0.37600744
-0.2,-0.2,0.9999999999999999,-0.5235987755982988,0.5235987755982988,0,-0.42185298,1.2899231,-0.06969222,-0.094933175,0.0013462432,1.2847317,1.0732969,-0.88975775,1.1610539,-1.3419201,-0.07950027,0.5566619,0.29370776,-0.760976
-0.2,-0.2,0.9999999999999999,-0.5235987755982988,0.5235987755982988,0,0.45290697,1.3579079,0.07427863,-0.08103355,0.1960949,1.3202198,-0.54642045,-0.89008194,1.1613567,-1.3438474,-0.08031892,0.55468124,0.30164272,-1.245486
-0.2,-0.2,0.9999999999999999,-0.5235987755982988,0.5235987755982988,0,0.005558646,1.2089978,-0.37167227,-0.15219136,-0.014266463,1.2447549,0.23710667,-0.89021707,1.1619966,-1.3428276,-0.08060593,0.5456147,0.3105203,-0.8297067
-0.2,-0.2,0.9999999999999999,-0.5235987755982988,0.5235987755982988,0,0.12429728,1.3813316,-0.35793862,-0.1041122,-0.056456268,1.1896455,0.88489676,-0.89038575,1.1598171,-1.3424146,-0.08030641,0.54811513,0.27646363,0.005325714
-0.2,-0.2,0.9999999999999999,-0.5235987755982988,0.5235987755982988,0,-0.29392084,1.2736933,0.033680514,-0.09350071,-0.046973485,1.2434204,1.1850104,-0.89021903,1.1606659,-1.3458523,-0.08013562,0.5709643,0.28351885,-0.92520213
-0.2,-0.2,0.9999999999999999,-0.5235987755982988,0.5235987755982988,0,0.39441743,1.3328757,0.066801675,-0.063931815,-0.075567216,1.214854,-0.5729595,-0.8910466,1.1617125,-1.3437159,-0.08036187,0.5565423,0.304156,-1.6078718
-0.2,-0.2,0.9999999999999999,-0.5235987755982988,0.5235987755982988,0,0.9675644,1.346148,0.43035683,-0.10324374,-0.1804588,1.2208256,0.08059228,-0.89013267,1.1609241,-1.34462,-0.07971879,0.5411419,0.28227893,-0.8597791
-0.2,-0.2,0.9999999999999999,-0.5235987755982988,0.5235987755982988,0,0.7559638,1.2976296,-0.015556217,-0.08206408,0.015902026,1.2057502,1.1865206,-0.89038694,1.1610663,-1.3434263,-0.07978648,0.55574006,0.31040046,-0.5243747
-0.2,-0.2,0.9999999999999999,-0.5235987755982988,0.5235987755982988,0,-0.34073156,1.4094129,0.05536804,-0.11773577,0.13291271,1.1846379,0.093968555,-0.8898697,1.1607567,-1.3453835,-0.08058175,0.552904,0.30573472,-0.8505
-0.2,-0.2,0.9999999999999999,-0.5235987755982988,0.5235987755982988,0,-0.11210163,1.3299743,0.052669335,-0.06909914,0.23534073,1.2272358,-0.2987082,-0.89024955,1.16092,-1.3461145,-0.07950576,0.54274046,0.3090411,0.39201096
-0.2,-0.2,0.9999999999999999,-0.5235987755982988,0.5235987755982988,0,-1.1535171,1.3331347,0.055699628,-0.12917256,0.049709,1.2007107,0.3181843,-0.8902868,1.1605519,-1.3447629,-0.08038779,0.5492277,0.28723425,-0.7182992
-0.2,-0.2,0.9999999999999999,-0.5235987755982988,0.5235987755982988,0,-0.03736343,1.2918321,0.25833264,-0.04495662,-0.057276756,1.2590231,0.00036984938,-0.889798,1.1600718,-1.3414412,-0.079672255,0.5418611,0.2914387,-0.92248994
-0.2,-0.2,0.9999999999999999,-0.5235987755982988,0.5235987755982988,0,-0.21012518,1.3764744,0.22154751,-0.10995654,0.07172095,1.2059563,0.5658745,-0.88987607,1.1620814,-1.3441707,-0.08015465,0.55474585,0.3018279,-1.0208446
-0.2,-0.2,0.9999999999999999,-0.5235987755982988,0.5235987755982988,0,0.22533916,1.3205074,-0.019852338,-0.028229767,-0.14002456,1.2812855,0.28501114,-0.89056045,1.1621557,-1.3421757,-0.07964643,0.5538513,0.29736444,-0.0050746533
-0.2,-0.2,0.9999999999999999,-0.5235987755982988,0.5235987755982988,0,-0.45182577,1.3013803,-0.11224896,-0.11677804,-0.15519066,1.1583593,1.053741,-0.89021415,1.1619701,-1.3419943,-0.07997384,0.5565484,0.2898619,0.2199542
-0.2,-0.2,0.9999999999999999,-0.5235987755982988,0.5235987755982988,0,0.8599068,1.2097098,-0.21553014,-0.11689858,-0.06340331,1.3204844,0.99286443,-0.8903077,1.1602789,-1.3441327,-0.07901644,0.554462,0.29430014,-0.94222426
-0.2,-0.2,0.9999999999999999,-0.5235987755982988,0.5235987755982988,0,0.62465304,1.3016132,-0.10259002,-0.14115295,0.1482246,1.2348692,1.1130297,-0.89029175,1.1615725,-1.3434423,-0.0799125,0.5526585,0.3075138,-0.9849794
-0.2,-0.2,0.9999999999999999,-0.5235987755982988,0.5235987755982988,0,0.35565943,1.2476602,0.016619036,-0.13376495,-0.14882809,1.229106,0.39615336,-0.88966686,1.1605577,-1.3455275,-0.08021621,0.53699744,0.2929629,-0.29657882
-0.2,-0.2,0.9999999999999999,-0.5235987755982988,0.5235987755982988,0,0.88127995,1.3135242,0.31548497,-0.18061182,0.065464936,1.1922324,-0.1468981,-0.8903512,1.1604539,-1.3431133,-0.07973557,0.54882354,0.30680025,-0.15755908
-0.2,-0.2,0.9999999999999999,-0.5235987755982988,0.5235987755982988,0,0.16874532,1.2645526,0.12654614,-0.03254573,-0.11209074,1.1760713,-0.08507556,-0.8902901,1.1610366,-1.3437389,-0.08008908,0.5507705,0.27977538,-0.26570973
-0.2,-0.2,0.9999999999999999,-0.5235987755982988,0.5235987755982988,0,0.22879916,1.3038822,0.015158929,-0.12253093,-0.0752081,1.2724106,0.20070802,-0.89026535,1.1606201,-1.3463937,-0.08012443,0.5412172,0.28334603,-0.18525645
-0.2,-0.2,0.9999999999999999,-0.5235987755982988,0.5235987755982988,0,0.4310897,1.315851,0.37228763,-0.04265809,0.025474055,1.2946993,-0.16806206,-0.89037544,1.1603655,-1.3439064,-0.08052653,0.5374196,0.2893091,-0.6357586
-0.2,-0.2,0.9999999999999999,-0.5235987755982988,0.5235987755982988,0,-0.42584994,1.1731514,-0.0271066,-0.035562105,0.11153686,1.2510643,-0.94699097,-0.8904765,1.1595093,-1.3454295,-0.08043551,0.5585814,0.2923874,-0.4047262
-0.2,-0.2,0.9999999999999999,-0.5235987755982988,0.5235987755982988,0,-0.7016861,1.2835114,-0.23458391,-0.07872062,-0.18531398,1.1728699,0.19439991,-0.8905268,1.1605412,-1.345179,-0.08040399,0.54465497,0.28234258,-1.1323321
-0.2,-0.2,0.9999999999999999,-0.5235987755982988,0.5235987755982988,0,0.7275131,1.3121456,-0.23888619,-0.12120036,0.5370994,1.2393004,2.0326183,-0.88971037,1.161303,-1.34397,-0.078831956,0.5415355,0.30058348,0.2598154
-0.2,-0.2,0.9999999999999999,-0.5235987755982988,0.5235987755982988,0,0.8145114,1.2924855,0.0799819,-0.004527776,0.14876501,1.1991264,-0.5093877,-0.8902647,1.158934,-1.343872,-0.079756156,0.5602109,0.283948,-0.89462584
-0.2,-0.2,0.9999999999999999,-0.5235987755982988,0.5235987755982988,0,0.033424288,1.3667287,-0.09612534,-0.055689592,-0.12605993,1.2651005,-1.3954644,-0.89049166,1.1613759,-1.3471434,-0.079938784,0.5486965,0.30683455,0.11755923
-0.2,-0.2,0.9999999999999999,-0.5235987755982988,0.5235987755982988,0,0.54428095,1.3191485,-0.3158796,-0.05934757,0.094786055,1.2672375,-1.1598672,-0.89107555,1.1601763,-1.343709,-0.08044297,0.56039506,0.30921957,0.5459826
-0.2,-0.2,0.9999999999999999,-0.5235987755982988,0.5235987755982988,0,0.33539975,1.3555032,-0.120695315,-0.06154785,0.18405396,1.1686002,0.94236153,-0.8911859,1.1606463,-1.3450296,-0.080019094,0.5659142,0.286504,-1.0478687
-0.2,-0.2,0.9999999999999999,-0.5235987755982988,0.5235987755982988,0,0.34342018,1.3330973,-0.13653122,-0.06233878,-0.22593969,1.3164127,-1.1602374,-0.89128923,1.1598526,-1.3451109,-0.08030112,0.563638,0.29067153,-0.92572397
-0.2,-0.2,0.9999999999999999,-0.5235987755982988,0.5235987755982988,0,-0.6133958,1.3153459,-0.1787026,-0.08938207,0.076396585,1.2472184,0.06977807,-0.89025855,1.1614438,-1.3468549,-0.079550065,0.5495275,0.298696,-1.5239553
-0.2,-0.2,0.9999999999999999,-0.5235987755982988,0.5235987755982988,0,-0.5965421,1.3148227,-0.06291268,-0.11885914,-0.100766644,1.1789862,-0.3492323,-0.89034015,1.1612937,-1.3460164,-0.08047005,0.54822296,0.3071369,0.49263
-0.2,-0.2,0.9999999999999999,-0.5235987755982988,0.5235987755982988,0,0.8222689,1.2939702,-0.17602243,-0.058440976,-0.20244104,1.2821046,0.48332402,-0.89061517,1.1615782,-1.3423792,-0.079780005,0.55683625,0.30240536,-0.92257696
-0.2,-0.2,0.9999999999999999,-0.5235987755982988,0.5235987755982988,0,-0.18188943,1.234254,-0.19371267,-0.13097644,-0.03779226,1.2010096,0.52079564,-0.8900475,1.1611485,-1.3458476,-0.079978995,0.5631661,0.28883156,-0.5908408
-0.2,-0.2,0.9999999999999999,-0.5235987755982988,0.5235987755982988,0,0.15267116,1.2827258,-0.23980321,-0.06849307,-0.042177983,1.3127586,-0.20983148,-0.8903653,1.1617186,-1.345276,-0.07999708,0.5531541,0.2836392,-2.0579576
-0.2,-0.2,0.9999999999999999,-0.5235987755982988,0.5235987755982988,0,0.13193683,1.2721587,-0.18293756,-0.07222216,0.065951936,1.2003434,0.31815082,-0.8906579,1.1624653,-1.345112,-0.080049805,0.55501556,0.29709816,-0.2484096
-0.2,-0.2,0.9999999999999999,-0.5235987755982988,0.5235987755982988,0,0.09438326,1.2949184,-0.2147373,-0.13311669,0.014158356,1.2063055,0.03268572,-0.890472,1.1607945,-1.343309,-0.07986997,0.5581038,0.28664732,-1.0657173
-0.2,-0.2,0.9999999999999999,-0.5235987755982988,0.5235987755982988,0,-0.7655146,1.3419908,-0.08300057,-0.054761734,0.1950925,1.2548782,0.04196797,-0.89028454,1.1606499,-1.3440341,-0.080352664,0.5426121,0.30655265,-0.7736741
-0.2,-0.2,0.9999999999999999,-0.5235987755982988,0.5235987755982988,0,0.06074587,1.3511461,0.104653746,-0.14664164,0.060289413,1.243731,0.9412127,-0.88979733,1.160693,-1.342056,-0.080074966,0.5469216,0.30256313,0.36535653
-0.2,-0.2,0.9999999999999999,-0.5235987755982988,0.5235987755982988,0,-0.8356589,1.3163795,0.14672065,-0.03266027,-0.08961898,1.2096703,0.9058177,-0.8906147,1.1596634,-1.3447402,-0.08012379,0.5486032,0.3047172,-1.0759846
-0.2,-0.2,0.9999999999999999,-0.5235987755982988,0.5235987755982988,0,0.55890316,1.39534,-0.28183007,-0.082433,0.19400789,1.1930488,-0.43785304,-0.89004457,1.1612749,-1.3449813,-0.07953631,0.5516353,0.31036916,-0.09078011
-0.2,-0.2,0.9999999999999999,-0.5235987755982988,0.5235987755982988,0,0.2505231,1.2819669,-0.00948212,-0.10517123,0.1939177,1.2352831,1.5868082,-0.8901152,1.1615591,-1.3429451,-0.08026247,0.5520548,0.31394488,0.40574142
-0.2,-0.2,0.9999999999999999,-0.5235987755982988,0.5235987755982988,0,-0.019272767,1.3135316,-0.16240335,-0.114180125,-0.23531988,1.2758995,0.50072473,-0.8903769,1.1584493,-1.3445014,-0.080541804,0.54094785,0.31583327,-0.68319434
-0.2,-0.2,0.9999999999999999,-0.5235987755982988,0.5235987755982988,0,0.8379745,1.3014796,0.050299466,-0.08666121,0.08187769,1.2733464,0.1809688,-0.89012825,1.1593841,-1.3442621,-0.08006719,0.5455497,0.31115237,-0.47347137
-0.2,-0.2,0.9999999999999999,-0.5235987755982988,0.5235987755982988,0,0.59240294,1.3623387,-0.33252522,-0.037231658,-0.05508116,1.216178,0.20745967,-0.89089787,1.1588267,-1.3432704,-0.08048082,0.5473778,0.3051671,-1.2190337
-0.2,-0.2,0.9999999999999999,-0.5235987755982988,0.5235987755982988,0,0.3071223,1.3031358,-0.36885548,-0.072267376,0.06418601,1.2461591,0.47556633,-0.8902808,1.1599652,-1.3436873,-0.079379365,0.5453628,0.31303552,-0.9684342
-0.2,-0.2,0.9999999999999999,-0.5235987755982988,0.5235987755982988,0,0.09341176,1.3966084,-0.19132976,-0.09029692,0.12373869,1.2848794,1.9672207,-0.8899416,1.1613181,-1.3418329,-0.07969534,0.55696,0.31374985,-0.38997546
-0.2,-0.2,0.9999999999999999,-0.5235987755982988,0.5235987755982988,0,0.030598069,1.3757945,-0.031577766,-0.10589214,0.013562158,1.2747966,0.14593312,-0.890291,1.1598523,-1.3450637,-0.08007232,0.5473026,0.30744135,0.5819986
-0.2,-0.2,0.9999999999999999,-0.5235987755982988,0.5235987755982988,0,-0.25350553,1.3439938,0.09370214,-0.07045237,0.0068218876,1.1677878,0.39291573,-0.8909643,1.1603167,-1.3439698,-0.079995304,0.5544025,0.3001523,-1.2667986
-0.2,-0.2,0.9999999999999999,-0.5235987755982988,0.5235987755982988,0,0.48632294,1.3763436,-0.16357511,-0.0780597,0.25799993,1.150442,-0.1625148,-0.8909297,1.161267,-1.3448492,-0.07962444,0.5351067,0.28387472,-1.9951389
-0.2,-0.2,0.9999999999999999,-0.5235987755982988,0.5235987755982988,0,0.33891454,1.3406957,-0.032661498,-0.0589909,0.045438323,1.2350782,-1.1272691,-0.8908343,1.1605531,-1.347315,-0.07976955,0.5535995,0.31659526,-0.6357731
-0.2,-0.2,0.9999999999999999,-0.5235987755982988,0.5235987755982988,0,0.27437556,1.2729923,0.025718909,-0.047803998,0.18396075,1.2526897,-0.34472826,-0.8903657,1.1602507,-1.3473142,-0.07967265,0.5611508,0.30959478,-0.20087822
-0.2,-0.2,0.9999999999999999,-0.5235987755982988,0.5235987755982988,0,0.093751326,1.3786907,0.009943726,-0.112373054,-0.21840854,1.220762,-0.053896584,-0.8899168,1.160218,-1.3450707,-0.08009831,0.5594197,0.31041813,0.23865187
-0.2,-0.2,0.9999999999999999,-0.5235987755982988,0.5235987755982988,0,0.54957926,1.2946615,0.37841818,-0.11682394,-0.4236767,1.1783116,0.5782435,-0.8901023,1.1613598,-1.345464,-0.07978391,0.5413917,0.3025995,0.19995107
-0.2,-0.2,0.9999999999999999,-0.5235987755982988,0.5235987755982988,0,0.18952534,1.2978947,0.038243517,-0.048464414,0.26318586,1.2008126,-0.7542347,-0.89066315,1.1585984,-1.344325,-0.08033752,0.5457836,0.31213987,-1.2065685
-0.2,-0.2,0.9999999999999999,-0.5235987755982988,0.5235987755982988,0,0.0003576842,1.3400307,0.018354764,-0.1057494,-0.046728313,1.263998,1.3673449,-0.8892251,1.161203,-1.3411372,-0.08045917,0.54497945,0.29825523,-0.02167291
-0.2,-0.2,0.9999999999999999,-0.5235987755982988,0.5235987755982988,0,-0.57265294,1.3259896,-0.112584546,-0.08698815,-0.29497516,1.1901311,0.3575933,-0.8904155,1.160148,-1.342753,-0.080117635,0.5577438,0.31544143,-0.95423794
-0.2,-0.2,0.9999999999999999,-0.5235987755982988,0.5235987755982988,0,-0.40725863,1.293918,0.059642065,-0.032239724,0.10859214,1.2814431,1.0253716,-0.8909245,1.1616242,-1.3458071,-0.08050087,0.5454885,0.28811336,-1.4060117
-0.2,-0.2,0.9999999999999999,-0.5235987755982988,0.5235987755982988,0,0.32884628,1.2435522,-0.35531825,-0.12739928,0.033326685,1.2366453,-0.7823293,-0.8896612,1.1595776,-1.3447917,-0.08011032,0.56171864,0.2966092,-0.4216086
-0.2,-0.2,0.9999999999999999,-0.5235987755982988,0.5235987755982988,0,-0.0906633,1.319323,-0.068743646,-0.026789095,-0.20257047,1.2170445,-0.09305243,-0.8913123,1.1595763,-1.3407788,-0.08016833,0.5382275,0.30643824,-0.5407444
-0.2,-0.2,0.9999999999999999,-0.5235987755982988,0.5235987755982988,0,0.58757496,1.3619634,-0.34128368,-0.11862595,-0.18744656,1.270202,-0.0041255737,-0.8912586,1.1607031,-1.3436142,-0.07953212,0.55699855,0.29908627,-0.9678899
-0.2,-0.2,0.9999999999999999,-0.5235987755982988,0.5235987755982988,0,-0.32042965,1.2821412,-0.22450532,-0.16049132,0.14385676,1.346111,-0.0009434826,-0.89084405,1.1605022,-1.3442812,-0.08039506,0.53608066,0.294604,-0.28393015
-0.2,-0.2,0.9999999999999999,-0.5235987755982988,0.5235987755982988,0,0.6261552,1.3844255,-0.2526029,-0.12026849,0.15986708,1.3467606,0.50136566,-0.89023316,1.1590095,-1.3448929,-0.07977245,0.55489504,0.29256198,-0.61204916
-0.2,-0.2,0.9999999999999999,-0.5235987755982988,0.5235987755982988,0,-0.5684991,1.2920328,-0.47548208,-0.091568746,-0.28711984,1.3139063,0.21198964,-0.8905169,1.1608169,-1.3423063,-0.079934254,0.55850756,0.29484916,-1.1396277
-0.2,-0.2,0.9999999999999999,-0.5235987755982988,0.5235987755982988,0,0.1697288,1.2837816,0.47187206,-0.062347934,-0.10810367,1.1720991,0.18423751,-0.890372,1.161019,-1.3441218,-0.080531724,0.55723447,0.29536375,-0.5031452
-0.2,-0.2,0.9999999999999999,-0.5235987755982988,0.5235987755982988,0,-0.4779686,1.274607,-0.13510767,-0.1617736,-0.06344929,1.270012,-1.163426,-0.8902257,1.1604869,-1.3469363,-0.08015343,0.5495006,0.3115986,0.14801559
-0.2,-0.2,0.9999999999999999,-0.5235987755982988,0.5235987755982988,0,0.2955464,1.326069,-0.22051524,-0.030782316,-0.22956112,1.2135361,-0.69528615,-0.8909938,1.1611125,-1.347074,-0.07995916,0.5315124,0.29296562,-1.6246233
-0.2,-0.2,0.9999999999999999,-0.5235987755982988,0.5235987755982988,0,0.23346746,1.3015027,-0.3244797,-0.1455232,-0.01383504,1.2196984,0.45232055,-0.89043975,1.160688,-1.3441836,-0.080164604,0.54400474,0.3123794,-1.9168254
-0.2,-0.2,0.9999999999999999,-0.5235987755982988,0.5235987755982988,0,0.32500002,1.3036399,0.08413342,-0.094345465,0.077707745,1.1245288,-1.1233015,-0.8906888,1.1605562,-1.3444474,-0.07983195,0.5647922,0.3160254,-1.5687313
-0.2,-0.2,0.9999999999999999,-0.5235987755982988,0.5235987755982988,0,0.10850556,1.2269747,-0.0001779186,0.0010913159,0.2459348,1.2683979,-0.34220952,-0.89033794,1.1610433,-1.3436763,-0.07994763,0.5458053,0.2997418,-0.89543945
-0.2,-0.2,0.9999999999999999,-0.5235987755982988,0.5235987755982988,0,0.18554945,1.3667063,0.10661715,-0.07759148,-0.019245312,1.1569872,-0.93300253,-0.89052117,1.1607968,-1.3457385,-0.07981387,0.5456482,0.30637866,-0.3017852
-0.2,-0.2,0.9999999999999999,-0.5235987755982988,0.5235987755982988,0,1.2047913,1.2890872,-0.0076509947,-0.008969611,-0.019363279,1.2033519,-0.5685314,-0.88993627,1.1590405,-1.3452867,-0.08058193,0.5369171,0.29952675,-0.026033245
-0.2,-0.2,0.9999999999999999,-0.5235987755982988,0.5235987755982988,0,0.5685716,1.3414905,-0.06705401,-0.036029484,0.06709349,1.1799358,1.4535018,-0.89061123,1.161834,-1.3415425,-0.08012502,0.54068404,0.3026513,0.49745032
-0.2,-0.2,0.9999999999999999,-0.5235987755982988,0.5235987755982988,0,-0.0044857273,1.3175163,0.18199807,-0.092537165,-0.017158184,1.1837803,0.79140455,-0.8904093,1.159981,-1.3426704,-0.08048199,0.54816616,0.30174428,-0.2390854
-0.2,-0.2,0.9999999999999999,-0.5235987755982988,0.5235987755982988,0,0.2347725,1.3321214,-0.17579831,-0.106559105,-0.111184634,1.2317393,-0.663571,-0.88997245,1.1616195,-1.3444594,-0.07974365,0.5496252,0.29906395,0.45575708
-0.2,-0.2,0.9999999999999999,-0.5235987755982988,0.5235987755982988,0,-0.040969003,1.3124418,0.2677015,-0.07135297,0.080028854,1.2377911,-0.55315167,-0.8910327,1.1608433,-1.3448172,-0.0794548,0.5671274,0.314255,-1.8534018
-0.2,-0.2,0.9999999999999999,-0.5235987755982988,0.5235987755982988,0,-1.0117443,1.3671012,0.027330015,-0.13957557,-0.24310978,1.2549397,-0.91940856,-0.8908044,1.1597931,-1.3440269,-0.08064733,0.544379,0.29659304,0.3013717
-0.2,-0.2,0.9999999999999999,-0.5235987755982988,0.5235987755982988,0,-0.8392315,1.3019031,0.027952204,-0.118640356,0.013393064,1.2174795,0.037213363,-0.8902021,1.16094,-1.3445137,-0.080998085,0.5539308,0.3132469,0.77322286
-0.2,-0.2,0.9999999999999999,-0.5235987755982988,0.5235987755982988,0,0.18240637,1.288802,0.2159405,-0.08796997,0.20256887,1.2315928,-0.46025747,-0.88985217,1.1604817,-1.3450872,-0.0800674,0.55245185,0.2940678,-1.9554505
-0.2,-0.2,0.9999999999999999,-0.5235987755982988,0.5235987755982988,0,1.0358571,1.3652228,-0.5347431,-0.11247816,-0.08269675,1.2677286,-0.50352937,-0.8906268,1.1608406,-1.3443359,-0.07961469,0.5398394,0.30294195,0.69811165
-0.2,-0.2,0.9999999999999999,-0.5235987755982988,0.5235987755982988,0,-0.27005386,1.3119138,-0.39440778,-0.026299499,0.16515249,1.2022728,0.12773952,-0.8898553,1.159495,-1.3440602,-0.08022076,0.5558157,0.3107794,-0.28950232
-0.2,-0.2,0.9999999999999999,-0.5235987755982988,0.5235987755982988,0,-0.030937057,1.3519503,-0.01872702,-0.13826357,-0.07147677,1.2190912,0.20366241,-0.89064384,1.1611187,-1.3442001,-0.08011363,0.5556657,0.293193,-0.9118009
-0.2,-0.2,0.9999999999999999,-0.5235987755982988,0.5235987755982988,0,-0.06675844,1.2880516,-0.19936119,-0.107246555,0.024540892,1.2877821,1.3759574,-0.8908208,1.1595999,-1.3424788,-0.08022918,0.54502577,0.31878033,-0.9486341
-0.2,-0.2,0.9999999999999999,-0.5235987755982988,0.5235987755982988,0,0.24520178,1.2842976,-0.33240435,-0.114969544,-0.050320722,1.2253935,-0.3809237,-0.8906719,1.1608407,-1.3444389,-0.08016746,0.5394338,0.30054504,-0.49073756
-0.2,-0.2,0.9999999999999999,-0.5235987755982988,0.5235987755982988,0,0.14000432,1.2789233,-0.13681877,-0.04856818,-0.25826287,1.2432299,0.8796198,-0.89029,1.1603323,-1.3425106,-0.07998536,0.5431591,0.3053932,0.43366668
-0.2,-0.2,0.9999999999999999,-0.5235987755982988,0.5235987755982988,0,-0.83026266,1.4035664,-0.57444936,-0.0648591,0.1335054,1.2201581,-0.24608335,-0.89026016,1.160852,-1.3420252,-0.080478385,0.5540673,0.29800484,0.08713567
-0.2,-0.2,0.9999999999999999,-0.5235987755982988,0.5235987755982988,0,-0.4413406,1.2492032,-0.016928509,-0.068224765,-0.34839347,1.2880403,-1.3518125,-0.89079946,1.1605183,-1.3452604,-0.079262294,0.546776,0.31909314,-0.029222097
-0.2,-0.2,0.9999999999999999,-0.5235987755982988,0.5235987755982988,0,0.32924953,1.3058599,-0.26671457,-0.07848214,0.18407805,1.2175282,-0.7088468,-0.89085597,1.1605359,-1.3443658,-0.08046342,0.54948133,0.3171976,-1.6696864
-0.2,-0.2,0.9999999999999999,-0.5235987755982988,0.5235987755982988,0,0.725591,1.3321853,0.14061782,-0.11828105,0.05464797,1.2384145,1.5210509,-0.89032525,1.1600654,-1.3453376,-0.08004557,0.542286,0.28614572,-0.9921544
-0.2,-0.2,0.9999999999999999,-0.5235987755982988,0.5235987755982988,0,0.20897228,1.2134614,-0.069954306,-0.11167906,0.0094772745,1.3051319,0.21710402,-0.8903345,1.1610322,-1.3429557,-0.079548836,0.55641776,0.30426493,-1.3857243
-0.2,-0.2,0.9999999999999999,-0.5235987755982988,0.5235987755982988,0,0.8018022,1.3148909,0.024648745,-0.14660227,0.28136498,1.2648717,1.1248529,-0.89062613,1.160181,-1.3451256,-0.080178775,0.5454473,0.2912183,-0.42529544
-0.2,-0.2,0.9999999999999999,-0.5235987755982988,0.5235987755982988,0,0.22459444,1.2239243,-0.20221235,-0.052255645,-0.16308811,1.2768493,-0.7021789,-0.8898127,1.1598728,-1.3438754,-0.080244355,0.5468514,0.28964686,-0.3953339
-0.2,-0.2,0.9999999999999999,-0.5235987755982988,0.5235987755982988,0,-0.33546856,1.304535,-0.08348547,-0.017557012,0.06568642,1.1681556,-1.1838039,-0.8901525,1.1601043,-1.3465416,-0.080343895,0.5627289,0.30898532,-0.28097934
-0.2,-0.2,0.9999999999999999,-0.5235987755982988,0.5235987755982988,0,0.15659152,1.328885,-0.48752376,-0.07331754,-0.20252895,1.2823651,0.39841574,-0.89060396,1.1607131,-1.344429,-0.079800926,0.538119,0.30078515,-0.8604175
-0.2,-0.2,0.9999999999999999,-0.5235987755982988,0.5235987755982988,0,0.0062763505,1.3851881,0.15066272,-0.04553269,-0.058546774,1.3075432,-0.14237957,-0.891295,1.1610695,-1.3459829,-0.07969685,0.54653144,0.3159189,-0.5995445
-0.2,-0.2,0.9999999999999999,-0.5235987755982988,0.5235987755982988,0,-0.26186848,1.3302106,-0.19196472,-0.102576174,0.034358576,1.2087437,-0.082919545,-0.88914096,1.159691,-1.3431543,-0.079733916,0.55813175,0.3015008,-0.66501004
-0.2,-0.2,0.9999999999999999,-0.5235987755982988,0.5235987755982988,0,-0.6348514,1.2410312,-0.071794264,-0.06488104,0.05826275,1.3049889,0.312747,-0.89085937,1.1604642,-1.3450612,-0.08009928,0.5658375,0.31377015,-1.4827054
-0.2,-0.2,0.9999999999999999,-0.5235987755982988,0.5235987755982988,0,0.074599415,1.3003507,-0.13629961,-0.10036075,-0.13357769,1.1509113,-0.26734284,-0.8896658,1.1595091,-1.3442953,-0.079648,0.5510845,0.30668175,-1.5207199
-0.2,-0.2,0.9999999999999999,-0.5235987755982988,0.5235987755982988,0,0.24453458,1.3446068,0.42255613,-0.046727214,0.197838,1.2330966,1.0556124,-0.89007306,1.1600417,-1.3425825,-0.079591036,0.53460646,0.2916582,-1.1225258
-0.2,-0.2,0.9999999999999999,-0.5235987755982988,0.5235987755982988,0,0.2428101,1.3505899,-0.09685858,-0.14300685,0.05514949,1.2229464,-0.5656997,-0.8908361,1.1609044,-1.3433952,-0.07993977,0.53791094,0.2992682,-0.23805459
-0.2,-0.2,0.9999999999999999,-0.5235987755982988,0.5235987755982988,0,0.16947404,1.2945435,-0.09871143,-0.08558545,-0.05406885,1.2894922,0.3745452,-0.8908028,1.1589499,-1.3443391,-0.07967363,0.55290097,0.31134066,-0.94694924
-0.2,-0.2,0.9999999999999999,-0.5235987755982988,0.5235987755982988,0,-0.62998074,1.3939812,0.17653,-0.11156433,0.18314536,1.2702641,-0.24294999,-0.8910748,1.1601921,-1.3444947,-0.08007528,0.5423205,0.30862853,-0.0546859
-0.2,-0.2,0.9999999999999999,-0.5235987755982988,0.5235987755982988,0,0.2062137,1.3916775,-0.35480186,-0.10757185,0.044562053,1.1878313,0.7239712,-0.88993245,1.161262,-1.3450811,-0.08026078,0.540072,0.28956005,-1.3462651
-0.2,-0.2,0.9999999999999999,-0.5235987755982988,0.5235987755982988,0,-0.10789672,1.3221458,-0.055675317,-0.035694044,-0.04270733,1.3174196,-0.65167385,-0.8906085,1.161059,-1.3439491,-0.08004592,0.55315876,0.31223387,0.6358607
-0.2,-0.2,0.9999999999999999,-0.5235987755982988,0.5235987755982988,0,-0.6389776,1.2491568,-0.24092601,-0.04301011,-0.06705152,1.1867753,-0.5215875,-0.88998586,1.1603419,-1.3453122,-0.07932348,0.5467386,0.303151,-0.080913894
-0.2,-0.2,0.9999999999999999,-0.5235987755982988,0.5235987755982988,0,-0.73175484,1.3983957,-0.028245054,-0.046078898,0.34229785,1.1893884,0.81824833,-0.8904249,1.1604056,-1.3425748,-0.07930374,0.55431485,0.30826885,-0.48040655
-0.2,-0.2,0.9999999999999999,-0.5235987755982988,0.5235987755982988,0,0.065269396,1.3236629,-0.074440755,-0.05740634,-0.16412558,1.2023882,0.4410493,-0.88986117,1.1609991,-1.3432115,-0.080472454,0.55282074,0.31401584,-1.3024487
-0.2,-0.2,0.9999999999999999,-0.5235987755982988,0.5235987755982988,0,0.3473339,1.2606437,-0.39233306,-0.10372079,-0.33256996,1.2110531,-0.12596188,-0.8904619,1.1605761,-1.3415556,-0.07988013,0.5406685,0.3078555,-0.6697533
-0.2,-0.2,0.9999999999999999,-0.5235987755982988,0.5235987755982988,0,0.24892592,1.3041636,-0.11851206,-0.14136131,-0.017636567,1.30953,-0.19646822,-0.89050114,1.1598421,-1.3426257,-0.08023251,0.55629,0.3131845,-0.42809832
-0.2,-0.2,0.9999999999999999,-0.5235987755982988,0.5235987755982988,0,-0.29956827,1.2390946,-0.18511346,-0.033963062,-0.08335407,1.3088346,0.4658241,-0.89062834,1.1599493,-1.3446219,-0.079307,0.54793996,0.30954218,-0.36332127
-0.2,-0.2,0.9999999999999999,-0.5235987755982988,0.5235987755982988,0,-0.36504325,1.2272841,-0.38179144,-0.056968406,-0.19781072,1.2954293,-0.6625106,-0.890634,1.1607431,-1.3457892,-0.08005946,0.5475409,0.30852365,-0.50762844
-0.2,-0.2,0.9999999999999999,-0.5235987755982988,0.5235987755982988,0,1.209092,1.2766104,-0.13079117,-0.14233659,-0.1848222,1.1287403,1.2864978,-0.89056975,1.161335,-1.3427162,-0.07971539,0.5525348,0.30458802,-0.63672876
-0.2,-0.2,0.9999999999999999,-0.5235987755982988,0.5235987755982988,0,0.44939956,1.3590648,-0.12683262,-0.028978342,0.17109835,1.2006236,-0.86984,-0.8904148,1.1608458,-1.3445202,-0.079821125,0.5423461,0.3116838,0.0150296185
-0.2,-0.2,0.9999999999999999,-0.5235987755982988,0.5235987755982988,0,-0.45012242,1.2878517,-0.3000694,-0.05322103,0.05051191,1.1336583,-0.04985499,-0.89013046,1.160046,-1.345736,-0.0804898,0.5631474,0.29962745,-0.69630283
-0.2,-0.2,0.9999999999999999,-0.5235987755982988,0.5235987755982988,0,-0.30390972,1.3943086,-0.050040644,-0.10700205,-0.16698718,1.1670098,-0.9213107,-0.8897386,1.1609063,-1.3454181,-0.08032968,0.550639,0.304757,-0.811158
-0.2,-0.2,0.9999999999999999,-0.5235987755982988,0.5235987755982988,0,0.29701227,1.2595302,-0.12952213,-0.11530956,-0.09491316,1.2937561,-0.6249373,-0.8904584,1.1587635,-1.3452098,-0.0802244,0.54512435,0.2882147,-0.56061745
-0.2,-0.2,0.9999999999999999,-0.5235987755982988,0.5235987755982988,0,0.2689615,1.3265437,-0.08610514,-0.10139684,0.11156423,1.2367877,1.0253737,-0.89009917,1.1604301,-1.3453059,-0.08002139,0.55127853,0.29570255,-0.85482967
-0.2,-0.2,0.9999999999999999,-0.5235987755982988,0.5235987755982988,0,1.3784205,1.228494,0.16619332,-0.12130577,-0.024545109,1.2100604,1.5367213,-0.8904593,1.1611428,-1.3422817,-0.079921804,0.5488644,0.31163764,-1.3618551
-0.2,-0.2,0.9999999999999999,-0.5235987755982988,0.5235987755982988,0,0.10616989,1.3180406,-0.13801879,-0.05957588,-0.048896443,1.2683746,0.82773334,-0.8901941,1.1604077,-1.3463053,-0.079717815,0.5532499,0.2931062,-0.55112195
-0.2,-0.2,0.9999999999999999,-0.5235987755982988,0.5235987755982988,0,0.20729354,1.2773381,-0.16252078,-0.053708106,0.14061321,1.2474414,0.55581236,-0.89144975,1.1614485,-1.3431741,-0.07970243,0.56066597,0.2905038,-1.4528905
-0.2,-0.2,0.9999999999999999,-0.5235987755982988,0.5235987755982988,0,-0.6088657,1.2733867,-0.19199976,-0.0685481,0.03515419,1.2573832,0.70263857,-0.8907043,1.1584735,-1.3432868,-0.08029921,0.5590989,0.3074388,0.19229166
-0.2,-0.2,0.9999999999999999,-0.5235987755982988,0.5235987755982988,0,0.22599134,1.3014842,0.11266894,-0.08299611,-0.43730015,1.2532673,-0.8321321,-0.8908601,1.1605192,-1.3436382,-0.07999609,0.5442827,0.2999324,-0.009056656
-0.2,-0.2,0.9999999999999999,-0.5235987755982988,0.5235987755982988,0,0.2823924,1.2796106,-0.18758287,-0.053805362,0.10053691,1.2396572,0.09690906,-0.8901427,1.1616133,-1.3443921,-0.079830505,0.54072917,0.3022116,-0.9371217
-0.2,-0.2,0.9999999999999999,-0.5235987755982988,0.5235987755982988,0,0.107648656,1.3053844,-0.405078,-0.046896283,-0.13650775,1.1980432,-0.13099803,-0.89172304,1.1593405,-1.3471818,-0.08038717,0.5483612,0.31142312,-1.5947788
-0.2,-0.2,0.9999999999999999,-0.5235987755982988,0.5235987755982988,0,0.6299977,1.2816359,-0.03092662,-0.109129235,0.33376107,1.2220592,0.06732405,-0.89003074,1.1603535,-1.3456194,-0.079699904,0.5578386,0.30885383,-0.34395692
-0.2,-0.2,0.9999999999999999,-0.5235987755982988,0.5235987755982988,0,-0.08729645,1.2754045,-0.1116756,-0.09447296,0.14453351,1.2314152,0.48079634,-0.8903029,1.159692,-1.3436992,-0.07990606,0.54049224,0.31289166,-0.5194483
-0.2,-0.2,0.9999999999999999,-0.5235987755982988,0.5235987755982988,0,-0.82471,1.3370235,-0.086976826,-0.083399214,-0.032653123,1.232168,0.19926067,-0.89076364,1.1594422,-1.3461403,-0.079009935,0.5555492,0.304653,-1.2038575
-0.2,-0.2,0.9999999999999999,-0.5235987755982988,0.5235987755982988,0,0.578749,1.2780962,0.14702995,0.005674459,-0.24868388,1.2917384,1.0771196,-0.8897738,1.1606164,-1.3471684,-0.08000944,0.5403398,0.29524922,-0.09506683
-0.2,-0.2,0.9999999999999999,-0.5235987755982988,0.5235987755982988,0,-1.219423,1.3012514,-0.48000157,-0.085280545,-0.043974362,1.2532232,1.1289845,-0.89009756,1.1610082,-1.342518,-0.08016749,0.53842926,0.28698662,-1.1713358
-0.2,-0.2,0.9999999999999999,-0.5235987755982988,0.5235987755982988,0,0.5822979,1.2955616,-0.16603775,-0.08524104,-0.35516453,1.2304758,0.60205126,-0.8901703,1.1612024,-1.3429104,-0.08029095,0.54585683,0.29192978,-0.8717451
-0.2,-0.2,0.9999999999999999,-0.5235987755982988,0.5235987755982988,0,0.38060015,1.3260609,0.019899253,-0.09121419,0.08138736,1.3030057,0.4223432,-0.8907527,1.1595256,-1.342877,-0.07967528,0.5657626,0.30827978,-0.21781504
-0.2,-0.2,0.9999999999999999,-0.5235987755982988,0.5235987755982988,0,0.53274626,1.260654,0.27070814,-0.083817914,0.18884064,1.2086823,1.0245582,-0.89034164,1.1603653,-1.3441676,-0.080214895,0.53858304,0.29580873,-0.2728295
-0.2,-0.2,0.9999999999999999,-0.5235987755982988,0.5235987755982988,0,0.50502574,1.2979918,-0.467197,-0.11802909,-0.081301466,1.1899225,0.011472059,-0.89041775,1.1604611,-1.3451413,-0.07947611,0.5420673,0.30601925,0.025841089
-0.2,-0.2,0.9999999999999999,-0.5235987755982988,0.5235987755982988,0,0.43402436,1.3301492,0.18606919,-0.14120103,-0.017506871,1.2812814,-0.12697612,-0.8900113,1.1597143,-1.3479329,-0.08055937,0.5487563,0.3041941,0.177653
-0.2,-0.2,0.9999999999999999,-0.5235987755982988,0.5235987755982988,0,-0.8612965,1.3225256,-0.102722265,-0.08477304,-0.002361027,1.3159227,0.5865103,-0.8905842,1.1605111,-1.3464417,-0.0799661,0.5562907,0.29129374,-0.13490956
-0.2,-0.2,0.9999999999999999,-0.5235987755982988,0.5235987755982988,0,0.5338649,1.2711793,-0.2748468,-0.079542264,-0.0483733,1.262709,-0.79891443,-0.89109766,1.1610123,-1.3448492,-0.08005828,0.5471141,0.30193818,-1.4699352
-0.2,-0.2,0.9999999999999999,-0.5235987755982988,0.5235987755982988,0,-0.3899898,1.3346779,-0.10160291,-0.14183493,0.20143934,1.2111942,-0.8244236,-0.89101255,1.1608304,-1.3420676,-0.07996031,0.54695475,0.30764955,-0.55711555
-0.2,-0.2,0.9999999999999999,-0.5235987755982988,0.5235987755982988,0,0.03761815,1.3052471,-0.035114557,-0.09890385,-0.1117056,1.2529509,-0.2325232,-0.89008963,1.1599988,-1.3441741,-0.07992575,0.5466367,0.3014791,0.35935047
-0.2,-0.2,0.9999999999999999,-0.5235987755982988,0.5235987755982988,0,0.8209512,1.366409,-0.06601331,-0.033639167,0.053792242,1.2212497,-0.12065847,-0.8901826,1.1617285,-1.3456001,-0.079682514,0.55710614,0.304903,-1.2475591
-0.2,-0.2,0.9999999999999999,-0.5235987755982988,0.5235987755982988,0,-0.7439722,1.2642558,-0.07207598,-0.11662317,-0.013772826,1.2625839,0.7797898,-0.89063156,1.1604598,-1.3433301,-0.08007319,0.5604874,0.2989027,-0.42079592
-0.2,-0.2,0.9999999999999999,-0.5235987755982988,0.5235987755982988,0,0.1238187,1.3133627,0.0687833,-0.14950426,0.050584633,1.2857342,-1.2425262,-0.8908046,1.1604986,-1.3454365,-0.08007108,0.5577383,0.31630775,-0.84877187
-0.2,-0.2,0.9999999999999999,-0.5235987755982988,0.5235987755982988,0,-0.9641183,1.2429297,-0.022907536,-0.04668802,0.14355412,1.2464241,-0.2854245,-0.89082444,1.1606683,-1.3462458,-0.079790436,0.5609209,0.30818516,-1.7442297
-0.2,-0.2,0.9999999999999999,-0.5235987755982988,0.5235987755982988,0,1.6097677,1.37483,-0.48489738,-0.11827129,-0.340396,1.2520634,0.3239834,-0.8905141,1.1608791,-1.3462889,-0.08014103,0.54816365,0.30450767,-0.9104952
-0.2,-0.2,0.9999999999999999,-0.5235987755982988,0.5235987755982988,0,0.15794961,1.2755464,-0.1697283,-0.123322286,-0.008629947,1.2890592,1.2280396,-0.8904486,1.1607869,-1.3456475,-0.08055592,0.5438422,0.3006839,-0.68517244
-0.2,-0.2,0.9999999999999999,-0.5235987755982988,0.5235987755982988,0,-0.09944745,1.3423071,-0.151173,-0.11994818,-0.077460915,1.1520377,-1.6053734,-0.8898602,1.1601524,-1.3465134,-0.0800944,0.55080557,0.3029058,0.024369707
-0.2,-0.2,0.9999999999999999,-0.5235987755982988,0.5235987755982988,0,-0.1877216,1.4076142,0.038678233,-0.037574627,-0.14522812,1.1247687,-0.22850196,-0.89046055,1.1606908,-1.3470275,-0.07972971,0.5415648,0.30017948,-0.4430597
-0.2,-0.2,0.9999999999999999,-0.5235987755982988,0.5235987755982988,0,-0.46205705,1.3432857,0.17634636,-0.1080311,-0.2058645,1.2219658,0.788379,-0.89042544,1.1588655,-1.345204,-0.079745166,0.53862137,0.30865812,0.30897504
-0.2,-0.2,0.9999999999999999,-0.5235987755982988,0.5235987755982988,0,-0.2839875,1.3332118,-0.07506358,-0.08510375,0.017112352,1.2574271,-0.061694622,-0.8906825,1.1599891,-1.3460826,-0.07984744,0.54134756,0.2946119,-1.2536583
-0.2,-0.2,0.9999999999999999,-0.5235987755982988,0.5235987755982988,0,-0.8298552,1.3374366,-0.36832818,-0.11413486,0.07074116,1.2345426,-1.1508586,-0.8904103,1.1608233,-1.3439407,-0.07979159,0.5578111,0.3120183,-0.0250311
-0.2,-0.2,0.9999999999999999,-0.5235987755982988,0.5235987755982988,0,0.5893929,1.4255648,-0.25637734,-0.103413865,0.08767479,1.2641445,0.806245,-0.890312,1.1598727,-1.3457847,-0.080410086,0.54338,0.2989149,-0.3921243
-0.2,-0.2,0.9999999999999999,-0.5235987755982988,0.5235987755982988,0,-0.13307957,1.310724,-0.11241189,-0.06563612,0.040082578,1.2273543,0.62392133,-0.8903682,1.1599473,-1.3444917,-0.07926209,0.5353125,0.2901908,-1.0945823
-0.2,-0.2,0.9999999999999999,-0.5235987755982988,0.5235987755982988,0,0.6889873,1.3214678,-0.030297272,-0.08940356,-0.008984666,1.2017341,-0.43244153,-0.89132345,1.1599599,-1.3421018,-0.079669096,0.5530324,0.3093617,-0.92375696
-0.2,-0.2,0.9999999999999999,-0.5235987755982988,0.5235987755982988,0,-0.7734568,1.3486489,-0.28462854,-0.10091031,0.13706566,1.2524221,0.6449524,-0.89004993,1.1598543,-1.3444281,-0.08012505,0.5718903,0.30781347,0.4330311
-0.2,-0.2,0.9999999999999999,-0.5235987755982988,0.5235987755982988,0,-0.085750334,1.3314062,-0.064249076,-0.10732573,0.11878701,1.2478167,1.1189756,-0.8910375,1.1602019,-1.345774,-0.079948865,0.55000734,0.29294208,-0.604693
-0.2,-0.2,0.9999999999999999,-0.5235987755982988,0.5235987755982988,0,0.057484556,1.309169,-0.12116911,-0.09863663,-0.012362425,1.3018557,-0.04610786,-0.890905,1.1625581,-1.3446432,-0.07959653,0.56250817,0.31729177,-1.1541691
-0.2,-0.2,0.9999999999999999,-0.5235987755982988,0.5235987755982988,0,-0.30834427,1.364301,-0.19516225,-0.095907845,0.0030644992,1.1690714,1.181485,-0.8905643,1.1607094,-1.345534,-0.07993913,0.53983027,0.30617008,-1.9026369
-0.2,-0.2,0.9999999999999999,-0.5235987755982988,0.5235987755982988,0,1.0502715,1.3078699,0.11051166,-0.08084982,-0.2943799,1.2039297,0.82855195,-0.89139473,1.1614622,-1.3433743,-0.080202445,0.56228745,0.29877478,-0.8263255
-0.2,-0.2,0.9999999999999999,-0.5235987755982988,0.5235987755982988,0,-0.82571113,1.167885,-0.0073602707,-0.06890341,0.03395301,1.2715677,0.5974697,-0.8898008,1.1615548,-1.343248,-0.07922196,0.5677651,0.30368203,-0.007484877
-0.2,-0.2,0.9999999999999999,-0.5235987755982988,0.5235987755982988,0,0.75745696,1.3152654,-0.20939574,-0.03339568,-0.29142016,1.2375978,0.90584856,-0.8908732,1.1607417,-1.3419223,-0.08086655,0.5555691,0.30963552,-0.0759843
-0.2,-0.2,0.9999999999999999,-0.5235987755982988,0.5235987755982988,0,0.43977493,1.3907465,0.16835596,-0.06672282,0.10077689,1.2622075,-0.5566299,-0.89052355,1.1604086,-1.3437947,-0.0795466,0.55639565,0.3023114,-0.33761168
-0.2,-0.2,0.9999999999999999,-0.5235987755982988,0.5235987755982988,0,0.3089136,1.3634046,-0.005819722,-0.021508982,0.004090082,1.2005689,0.25700933,-0.89021784,1.1598545,-1.3451378,-0.07999553,0.55360496,0.3090148,-0.38498625
-0.2,-0.2,0.9999999999999999,-0.5235987755982988,0.5235987755982988,0,-0.010348375,1.2487823,-0.11178648,-0.062523015,0.033493828,1.2439005,0.5584393,-0.8900653,1.1604211,-1.3456774,-0.07913683,0.5563454,0.31124055,0.19325641
-0.2,-0.2,0.9999999999999999,-0.5235987755982988,0.5235987755982988,0,0.73304725,1.2910137,-0.027331198,-0.04711758,-0.2346868,1.2892958,-0.9990499,-0.890229,1.1601706,-1.3427749,-0.07990423,0.54917467,0.294668,-0.707014
-0.2,-0.2,0.9999999999999999,-0.5235987755982988,0.5235987755982988,0,0.2704211,1.2781938,-0.031796724,-0.061973047,-0.09558385,1.1618512,-1.3145083,-0.8904332,1.1611847,-1.3431062,-0.08002432,0.5510056,0.29897642,-1.5080706
-0.2,-0.2,0.9999999999999999,-0.5235987755982988,0.5235987755982988,0,0.9189389,1.3263314,0.007347441,-0.093331486,-0.03233135,1.2325697,0.87641335,-0.8904691,1.1595721,-1.3447253,-0.07987348,0.5602066,0.3000057,-0.5538678
-0.2,-0.2,0.9999999999999999,-0.5235987755982988,0.5235987755982988,0,0.14239167,1.261441,-0.23073274,-0.10144213,0.09056318,1.2331944,0.32438233,-0.8902753,1.160753,-1.3443489,-0.07962047,0.54678345,0.30096117,-0.73400533
-0.2,-0.2,0.9999999999999999,-0.5235987755982988,0.5235987755982988,0,1.1739607,1.314316,-0.009769953,-0.18393801,-0.14170808,1.1932843,0.79860187,-0.8894808,1.1605593,-1.3442854,-0.08047617,0.55193317,0.31520072,-0.66109145
-0.2,-0.2,0.9999999999999999,-0.5235987755982988,0.5235987755982988,0,0.8312778,1.2855346,-0.071163505,-0.10658796,-0.012959663,1.1731191,-0.24022911,-0.89069515,1.1602353,-1.3440028,-0.079272486,0.5511923,0.29768407,0.0022103663
-0.2,-0.2,0.9999999999999999,-0.5235987755982988,0.5235987755982988,0,-0.4082489,1.3236015,-0.028406968,-0.0701771,-0.05870863,1.2867082,-0.4082078,-0.88990474,1.15988,-1.3453587,-0.07952426,0.5605366,0.30487376,-0.34082237
-0.2,-0.2,0.9999999999999999,-0.5235987755982988,0.5235987755982988,0,-0.33559382,1.312861,-0.026026718,-0.15063863,0.082026206,1.2353785,0.2568812,-0.8899212,1.1602995,-1.3457592,-0.08010505,0.5529548,0.31407994,-1.0361083
-0.2,-0.2,0.9999999999999999,-0.5235987755982988,0.5235987755982988,0,0.29559308,1.2786976,-0.1369999,-0.068575874,-0.018784247,1.3841715,-0.8763216,-0.89021254,1.1606785,-1.3443406,-0.081217825,0.54082453,0.3086677,-0.8593289
-0.2,-0.2,0.9999999999999999,-0.5235987755982988,0.5235987755982988,0,0.6111958,1.3238102,-0.03709095,-0.017036062,-0.0235935,1.2539217,0.20744342,-0.8904488,1.1599091,-1.3447477,-0.08043389,0.56585604,0.30406785,-0.9948378
-0.2,-0.2,0.9999999999999999,-0.5235987755982988,0.5235987755982988,0,0.4215997,1.3681822,0.07512939,-0.059362695,0.0132367015,1.347116,-0.1610534,-0.89058685,1.1589599,-1.3449788,-0.0796994,0.54537016,0.30003536,-1.719262
-0.2,-0.2,0.9999999999999999,-0.5235987755982988,0.5235987755982988,0,-0.8415113,1.4198403,-0.1534915,-0.05671698,0.13747704,1.2482361,0.82062817,-0.89072526,1.1601844,-1.3463931,-0.080551386,0.564022,0.29528198,-0.6543666
-0.2,-0.2,0.9999999999999999,-0.5235987755982988,0.5235987755982988,0,-0.1852235,1.3432888,0.015335888,0.0050086817,-0.122778796,1.1737915,-0.17569089,-0.8907955,1.1603215,-1.3445716,-0.0799484,0.5380913,0.29324272,-1.0498512
-0.2,-0.2,0.9999999999999999,-0.5235987755982988,0.5235987755982988,0,0.26958817,1.273797,-0.11543535,-0.13494264,-0.17575286,1.2026821,-0.09448692,-0.89043456,1.1592045,-1.3448274,-0.08014803,0.5508699,0.29124495,-0.80012846
-0.2,-0.2,0.9999999999999999,-0.5235987755982988,0.5235987755982988,0,0.061862115,1.3128757,0.10460636,-0.07743293,-0.06141587,1.246482,-0.44686875,-0.8907556,1.158498,-1.3445685,-0.080206685,0.5579769,0.30308086,0.09538222
-0.2,-0.2,0.9999999999999999,-0.5235987755982988,0.5235987755982988,0,0.4758692,1.3153288,-0.0128767025,-0.14242285,-0.059784383,1.2917008,-1.1851461,-0.8902037,1.1604677,-1.3448359,-0.079920374,0.5518726,0.32960734,-1.0779923
-0.2,-0.2,0.9999999999999999,-0.5235987755982988,0.5235987755982988,0,0.9254956,1.3485129,0.13266765,-0.10546466,-0.054089915,1.2829373,0.30825177,-0.8908733,1.1594838,-1.3438954,-0.07918529,0.54668164,0.32150415,-1.6749913
-0.2,-0.2,0.9999999999999999,-0.5235987755982988,0.5235987755982988,0,-0.41654828,1.2735718,0.20033759,-0.1840325,-0.063077405,1.1101393,0.4843968,-0.88980097,1.1593385,-1.3449539,-0.07989258,0.54923373,0.30780846,-0.3550356
-0.2,-0.2,0.9999999999999999,-0.5235987755982988,0.5235987755982988,0,0.5229492,1.2659376,0.047784783,-0.1524835,-0.106894754,1.2532605,0.22530183,-0.8906206,1.1602658,-1.3444756,-0.080688655,0.55410886,0.2907839,-0.24573494
-0.2,-0.2,0.9999999999999999,-0.5235987755982988,0.5235987755982988,0,-0.091115706,1.3406289,-0.075281635,-0.09589806,0.05368622,1.2758372,1.2399335,-0.8903156,1.1612273,-1.3452145,-0.08014082,0.5652939,0.28482217,0.3756913
-0.2,-0.2,0.9999999999999999,-0.5235987755982988,0.5235987755982988,0,0.3265191,1.237364,-0.011080435,-0.08423893,0.031323303,1.2558982,0.118463635,-0.8901267,1.1590995,-1.3459747,-0.08001916,0.561035,0.31368124,-0.5117475
-0.2,-0.2,0.9999999999999999,-0.5235987755982988,0.5235987755982988,0,0.18176427,1.2814701,0.04700469,-0.11382913,-0.0075027402,1.251799,0.8265417,-0.89040536,1.1597434,-1.3433027,-0.08001496,0.569161,0.309534,-0.3699902
-0.2,-0.2,0.9999999999999999,-0.5235987755982988,0.5235987755982988,0,0.38015985,1.2473489,0.16090296,-0.012799491,0.09293115,1.248867,-0.004503467,-0.8902064,1.1595734,-1.3444623,-0.08032845,0.540099,0.30165958,-0.9551003
-0.2,-0.2,0.9999999999999999,-0.5235987755982988,0.5235987755982988,0,-0.23702426,1.3357338,0.13816601,-0.101968236,-0.3415603,1.2013721,0.5931387,-0.8904282,1.1599042,-1.3425498,-0.079810634,0.54340893,0.2990423,-0.9655947
-0.2,-0.2,0.9999999999999999,-0.5235987755982988,0.5235987755982988,0,0.07056255,1.3542362,-0.33133465,-0.022613818,0.023023833,1.2580298,0.9375467,-0.89004636,1.1600554,-1.3453133,-0.080008805,0.560616,0.32288486,-1.1724654
-0.2,-0.2,0.9999999999999999,-0.5235987755982988,0.5235987755982988,0,-0.747908,1.2524468,-0.40384975,-0.06361344,-0.120191395,1.2762133,0.6865048,-0.89063996,1.160372,-1.3447974,-0.08051058,0.5530462,0.30199528,-0.5400072
-0.2,-0.2,0.9999999999999999,-0.5235987755982988,0.5235987755982988,0,0.7861372,1.1658092,-0.39252472,-0.019381382,0.08854557,1.140095,-0.9001708,-0.89044946,1.1598355,-1.3463839,-0.080131166,0.55301404,0.30811137,-0.4397148
-0.2,-0.2,0.9999999999999999,-0.5235987755982988,0.5235987755982988,0,0.30213913,1.3024029,0.044837445,-0.11061796,0.073585406,1.2115285,-1.1367695,-0.8905719,1.1603117,-1.3448527,-0.07962379,0.5540989,0.29058337,-0.83635616
-0.2,-0.2,0.9999999999999999,-0.5235987755982988,0.5235987755982988,0,0.11659821,1.3532833,-0.11655881,-0.07621029,-0.018893981,1.3102859,-0.78772795,-0.88980436,1.1602395,-1.3439441,-0.07978904,0.5476321,0.30149558,-0.6042397
-0.2,-0.2,0.9999999999999999,-0.5235987755982988,0.5235987755982988,0,-1.0475935,1.2373781,-0.354766,-0.09541106,0.335031,1.3284254,-0.022966089,-0.8905951,1.1595858,-1.342235,-0.080202565,0.5391455,0.31146675,-0.1213266
-0.2,-0.2,0.9999999999999999,-0.5235987755982988,0.5235987755982988,0,-0.12977758,1.3304969,-0.21259476,-0.1101683,-0.0045319768,1.258422,-0.23241338,-0.8908746,1.1592629,-1.3449993,-0.07970843,0.5528772,0.30095226,0.029431697
-0.2,-0.2,0.9999999999999999,-0.5235987755982988,0.5235987755982988,0,-0.7406558,1.3059269,-0.04972636,-0.041818846,0.021915805,1.2059426,-0.029292941,-0.88979673,1.1588413,-1.3430688,-0.07994049,0.5414501,0.30388966,-1.197877
-0.2,-0.2,0.9999999999999999,-0.5235987755982988,0.5235987755982988,0,-0.5221021,1.32715,-0.31510532,-0.09052961,0.20118725,1.1453017,0.44037688,-0.89057726,1.1596277,-1.3439732,-0.079186596,0.5534664,0.28788608,0.5120826
-0.2,-0.2,0.9999999999999999,-0.5235987755982988,0.5235987755982988,0,-0.052349668,1.3774964,-0.05145988,-0.07574971,-0.017581254,1.1271943,-0.7424342,-0.88990504,1.1600951,-1.3449471,-0.08012339,0.545939,0.31465495,-0.4301588
-0.2,-0.2,0.9999999999999999,-0.5235987755982988,0.5235987755982988,0,0.49487925,1.3299255,-0.07086562,-0.06449636,0.026261427,1.2255658,1.1287761,-0.8904493,1.1600432,-1.3428423,-0.080372214,0.54519486,0.28412455,-0.005168557
-0.2,-0.2,0.9999999999999999,-0.5235987755982988,0.5235987755982988,0,1.0977236,1.3508633,0.05420046,-0.09697939,0.30700234,1.2596965,-0.45625448,-0.8901114,1.1599163,-1.3453872,-0.0796146,0.5505826,0.29385594,-1.2917192
-0.2,-0.2,0.9999999999999999,-0.5235987755982988,0.5235987755982988,0,-0.013035035,1.2792829,-0.009997223,-0.12024172,0.07620904,1.1739358,0.022098068,-0.89071774,1.1604261,-1.3422636,-0.08040278,0.53650296,0.29408863,-0.1437416
-0.2,-0.2,0.9999999999999999,-0.5235987755982988,0.5235987755982988,0,-0.8319789,1.282316,0.14790364,-0.12277062,-0.2725102,1.261316,0.23567994,-0.8903323,1.160219,-1.3427526,-0.0800661,0.5661914,0.29078373,-0.42823333
-0.2,-0.2,0.9999999999999999,-0.5235987755982988,0.5235987755982988,0,0.7399326,1.2510434,0.13703898,-0.04919501,0.05718683,1.2244542,-0.4207507,-0.89073086,1.1600288,-1.3437375,-0.08063833,0.5559767,0.29266125,-0.6010857
-0.2,-0.2,0.9999999999999999,-0.5235987755982988,0.5235987755982988,0,0.81710595,1.3653473,0.06947478,-0.076791085,0.32225284,1.3354505,-0.9631819,-0.890206,1.1603352,-1.3446789,-0.08024674,0.54618037,0.3142489,-1.4088454
-0.2,-0.2,0.9999999999999999,-0.5235987755982988,0.5235987755982988,0,-0.81561404,1.3835888,-0.20188913,-0.0626669,-0.15285896,1.2452326,0.7750698,-0.8904187,1.1586556,-1.3455169,-0.07950794,0.5550151,0.300844,-0.74602836
-0.2,-0.2,0.9999999999999999,-0.5235987755982988,0.5235987755982988,0,-0.06886979,1.3138754,-0.34968296,-0.08674913,0.10611745,1.2111124,0.6973428,-0.8898364,1.1606555,-1.3442667,-0.0798199,0.53129405,0.30120802,-1.8348612
-0.2,-0.2,0.9999999999999999,-0.5235987755982988,0.5235987755982988,0,0.92154557,1.2695,-0.372407,-0.107558526,0.05556182,1.2788088,0.45749384,-0.8901656,1.1599215,-1.343472,-0.08012046,0.5469989,0.30558172,-0.62570894
-0.2,-0.2,0.9999999999999999,-0.5235987755982988,0.5235987755982988,0,-0.8953158,1.3424712,0.12380291,-0.13262782,-0.005284299,1.168687,0.1910701,-0.89063144,1.1602182,-1.3463717,-0.08009068,0.55442864,0.30235094,-0.9931213
-0.2,-0.2,0.9999999999999999,-0.5235987755982988,0.5235987755982988,0,0.67154825,1.2271811,0.017392311,-0.1063573,-0.19983217,1.2360215,-0.0036248905,-0.8904815,1.1610128,-1.3461275,-0.08036626,0.5436145,0.29799253,-0.95929354
-0.2,-0.2,0.9999999999999999,-0.5235987755982988,0.5235987755982988,0,0.5795167,1.3073667,0.015556997,-0.07674407,-0.12371856,1.1877955,-0.018323813,-0.8906111,1.1602739,-1.3440953,-0.08027742,0.5479384,0.29349872,-1.1188368
-0.2,-0.2,0.9999999999999999,-0.5235987755982988,0.5235987755982988,0,-0.28939825,1.3326553,-0.12966062,-0.07032773,-0.21713603,1.1867768,0.67953545,-0.8912282,1.1597276,-1.3438052,-0.08001416,0.5375725,0.29750216,0.2395045
-0.2,-0.2,0.9999999999999999,-0.5235987755982988,0.5235987755982988,0,0.32482383,1.3018907,-0.25384572,-0.03745421,0.14752537,1.2503525,-0.33671477,-0.8896776,1.1602099,-1.3441851,-0.07907634,0.5551608,0.31471473,-0.27135605
-0.2,-0.2,0.9999999999999999,-0.5235987755982988,0.5235987755982988,0,-0.05295984,1.2450502,0.047290307,-0.06280111,0.2281697,1.2334211,0.35097867,-0.89023167,1.1592818,-1.3441395,-0.079581805,0.55204076,0.3145645,-1.521214
-0.2,-0.2,0.9999999999999999,-0.5235987755982988,0.5235987755982988,0,-0.1843857,1.2445313,0.15366119,-0.09433592,-0.18809232,1.2653028,0.012499101,-0.89046365,1.1598786,-1.3437704,-0.08056124,0.5541291,0.3197879,-0.9858596
-0.2,-0.2,0.9999999999999999,-0.5235987755982988,0.5235987755982988,0,0.65237105,1.296139,-0.22398882,-0.03403235,-0.010378444,1.2958609,-0.22098622,-0.89042526,1.1605337,-1.346887,-0.07978353,0.57063603,0.3145161,-0.6569218
-0.2,-0.2,0.9999999999999999,-0.5235987755982988,0.5235987755982988,0,-0.24586312,1.3826097,0.3146701,-0.094731264,-0.092307135,1.2655486,-1.4966654,-0.89000666,1.160408,-1.3454089,-0.08035011,0.53794765,0.3124975,-1.2901305
-0.2,-0.2,0.9999999999999999,-0.5235987755982988,0.5235987755982988,0,-1.0399626,1.2081032,-0.17871705,-0.100479186,0.0015449602,1.3037726,-0.18045956,-0.8907615,1.15977,-1.3430731,-0.08032969,0.5467717,0.309415,-0.04213696
-0.2,-0.2,0.9999999999999999,-0.5235987755982988,0.5235987755982988,0,1.0294123,1.3347126,-0.06446375,-0.05645766,-0.13113166,1.2796725,-0.22158712,-0.8907265,1.1598724,-1.3450462,-0.07972334,0.5585093,0.3103296,-0.06708026
-0.2,-0.2,0.9999999999999999,-0.5235987755982988,0.5235987755982988,0,-0.06008934,1.3400673,-0.08450677,-0.15317549,-0.2124306,1.1647562,-0.14715831,-0.8910275,1.1603764,-1.345461,-0.07933468,0.5581987,0.2885749,-0.8669454
-0.2,-0.2,0.9999999999999999,-0.5235987755982988,0.5235987755982988,0,0.23606986,1.3698217,-0.42208326,-0.0078094844,0.228567,1.1816698,0.14128119,-0.8894582,1.1603546,-1.3435717,-0.07958418,0.5519021,0.31312966,-1.3531553
-0.2,-0.2,0.9999999999999999,-0.5235987755982988,0.5235987755982988,0,0.7221401,1.2985917,-0.24521948,-0.03556334,-0.17672943,1.2039542,-0.24940705,-0.89063835,1.1611186,-1.3423053,-0.08015655,0.5483744,0.319594,-0.10463985
-0.2,-0.2,0.9999999999999999,-0.5235987755982988,0.5235987755982988,0,0.9343214,1.2818041,0.053457275,-0.033096563,0.19929197,1.2287027,-0.5201324,-0.89078975,1.16033,-1.3444813,-0.07929355,0.5409132,0.301087,0.026280098
-0.2,-0.2,0.9999999999999999,-0.5235987755982988,0.5235987755982988,0,0.151432,1.3091823,0.1963934,-0.08055394,0.09656118,1.2852063,0.13163237,-0.8908462,1.1611902,-1.3453101,-0.080375925,0.55263156,0.30600455,-1.5331726
-0.2,-0.2,0.9999999999999999,-0.5235987755982988,0.5235987755982988,0,-0.13925846,1.2852218,0.28920278,-0.06390667,-0.14974883,1.2431003,-0.2799392,-0.89089066,1.1597942,-1.3453552,-0.079064555,0.55328715,0.30468675,-1.2451531
-0.2,-0.2,0.9999999999999999,-0.5235987755982988,0.5235987755982988,0,0.97074205,1.4005334,-0.06533761,-0.08997174,0.3143032,1.2986822,-0.0020384649,-0.89052904,1.1605397,-1.3461009,-0.07946651,0.545271,0.2939033,-0.2793901
-0.2,-0.2,0.9999999999999999,-0.5235987755982988,0.5235987755982988,0,-0.22266924,1.2624133,-0.021545023,-0.06028229,-0.15981393,1.1475251,0.36129975,-0.89111537,1.1604424,-1.3424976,-0.08012928,0.5518414,0.32768035,-1.0082853
-0.2,-0.2,0.9999999999999999,-0.5235987755982988,0.5235987755982988,0,0.431663,1.2937914,0.06995399,-0.053094726,-0.06972247,1.3238643,0.5474552,-0.8901197,1.1610129,-1.3456427,-0.08012181,0.5456545,0.29796484,-1.054877
-0.2,-0.2,0.9999999999999999,-0.5235987755982988,0.5235987755982988,0,0.5083861,1.3591568,-0.1368046,-0.055725653,0.14525104,1.2946858,1.0060028,-0.8912475,1.1600596,-1.3454884,-0.07973404,0.548354,0.30294138,-0.5669004
-0.2,-0.2,0.9999999999999999,-0.5235987755982988,0.5235987755982988,0,-1.1681467,1.2932845,0.16345614,-0.12399482,-0.34676918,1.3333275,-0.27165872,-0.8910125,1.1599857,-1.340999,-0.079222,0.5544087,0.3110909,-0.09635959
-0.2,-0.2,0.9999999999999999,-0.5235987755982988,0.5235987755982988,0,-0.5495085,1.2569902,-0.2030943,0.010959238,-0.09809539,1.3003747,0.7876899,-0.8908859,1.1605858,-1.3455873,-0.07916822,0.5590546,0.32246184,-1.4918618
-0.2,-0.2,0.9999999999999999,-0.5235987755982988,0.5235987755982988,0,0.45238575,1.2214172,0.2743358,-0.09559763,0.13251129,1.2469792,-0.05825727,-0.8897686,1.1605629,-1.3480526,-0.08034935,0.556724,0.3045163,-0.95784146
-0.2,-0.2,0.9999999999999999,-0.5235987755982988,0.5235987755982988,0,0.8064665,1.3338325,-0.2539012,-0.12483996,-0.010157796,1.1946559,0.5567353,-0.8908785,1.1612458,-1.3438591,-0.08002999,0.5515131,0.30132997,-0.6954587
-0.2,-0.2,0.9999999999999999,-0.5235987755982988,0.5235987755982988,0,0.45622337,1.2717425,-0.27247307,-0.04068394,0.037356094,1.2172365,0.8113954,-0.89079833,1.160462,-1.3402377,-0.07927666,0.5571979,0.32226506,-0.312934
-0.2,-0.2,0.9999999999999999,-0.5235987755982988,0.5235987755982988,0,-0.356003,1.2949474,-0.059795875,-0.15155245,-0.124468654,1.1666309,0.94437265,-0.89090866,1.1600641,-1.3452238,-0.079584874,0.5442927,0.30236295,-0.6620868
-0.2,-0.2,0.9999999999999999,-0.5235987755982988,0.5235987755982988,0,0.53278184,1.3491814,-0.15864371,-0.06428061,-0.122396216,1.2347733,0.48871902,-0.8904774,1.1606299,-1.3439913,-0.08016244,0.5437587,0.2887972,-0.53001636
-0.2,-0.2,0.9999999999999999,-0.5235987755982988,0.5235987755982988,0,-0.36574996,1.2661598,-0.1697184,-0.14413506,0.0043282644,1.292187,0.49555996,-0.8908666,1.1607841,-1.3445808,-0.0798106,0.5330366,0.2932522,-1.5720524
-0.2,-0.2,0.9999999999999999,-0.5235987755982988,0.5235987755982988,0,0.29574838,1.3769737,-0.009616929,-0.063388325,-0.077130996,1.1860605,0.69298834,-0.89005864,1.1618026,-1.3432866,-0.07958135,0.54952955,0.29328603,-0.25609148
-0.2,-0.2,0.9999999999999999,-0.5235987755982988,0.5235987755982988,0,0.101541765,1.3429339,-0.04666721,-0.051204883,-0.108341776,1.2151152,-0.6233719,-0.8903962,1.1606853,-1.3482684,-0.08107903,0.56147677,0.30505404,-1.3873059
-0.2,-0.2,0.9999999999999999,-0.5235987755982988,0.5235987755982988,0,-0.30613053,1.2564458,-0.020267628,-0.06387917,0.0324217,1.1645068,0.8566094,-0.89002275,1.1609777,-1.3445874,-0.079836555,0.54638654,0.29647675,-0.8583139
-0.2,-0.2,0.9999999999999999,-0.5235987755982988,0.5235987755982988,0,-0.21774918,1.2939031,-0.25573584,-0.08584756,-0.26761317,1.2076875,-0.61013395,-0.8912954,1.1610098,-1.3457849,-0.079366,0.5500987,0.29581282,-0.18893139
-0.2,-0.2,0.9999999999999999,-0.5235987755982988,0.5235987755982988,0,0.024911402,1.3004221,0.025613189,-0.03941201,-0.20862156,1.2114319,0.13935854,-0.8909825,1.1609626,-1.3442832,-0.08028325,0.55874616,0.3050802,-0.4162512
-0.2,-0.2,0.9999999999999999,-0.5235987755982988,0.5235987755982988,0,0.19148566,1.265547,0.009198421,-0.114881724,-0.08098099,1.263844,-0.08747245,-0.89031667,1.1600474,-1.3452754,-0.080105945,0.5574438,0.3075341,-0.13164231
-0.2,-0.2,0.9999999999999999,-0.5235987755982988,0.5235987755982988,0,-0.18659024,1.232175,-0.08878029,-0.075845264,-0.1644331,1.2362803,0.1910485,-0.89099,1.1606499,-1.3449427,-0.07940666,0.5436139,0.3126049,0.5831882
-0.2,-0.2,0.9999999999999999,-0.5235987755982988,0.5235987755982988,0,0.23652357,1.3146671,-0.09051255,-0.04427938,-0.26189086,1.3309826,-0.7562988,-0.8905587,1.1603254,-1.3459065,-0.080033995,0.5562331,0.30719462,-0.7771823
-0.2,-0.2,0.9999999999999999,-0.5235987755982988,0.5235987755982988,0,1.198438,1.3102015,0.20325156,-0.045735892,-0.06492011,1.2147434,0.37176034,-0.8902073,1.1599455,-1.3437068,-0.07996457,0.5556421,0.3244544,0.0070395903
