sanky1234/BimanualDexCatch/isaacgymenvs/cem_results/football_pose_-0.1_0.0_1.4_0.5235987755982988_0.5235987755982988_0_2025-05-25.csv
x,y,z,roll,pitch,yaw,robot1/joint1,robot1/joint2,robot1/joint3,robot1/joint4,robot1/joint5,robot1/joint6,robot1/joint7,robot2/joint1,robot2/joint2,robot2/joint3,robot2/joint4,robot2/joint5,robot2/joint6,robot2/joint7
-0.1,0.0,1.4,0.5235987755982988,0.5235987755982988,0,-0.65941805,-1.2555442,1.0676519,-0.11412942,0.2716778,1.2682258,-0.7765411,-1.9194248,1.6917646,-1.0530572,-0.13286747,0.09220889,0.99037784,0.23924251
-0.1,0.0,1.4,0.5235987755982988,0.5235987755982988,0,-0.65939796,-1.2563295,1.0688055,-0.09371198,0.018625243,1.1127986,-0.57780266,-1.9188373,1.6847932,-0.9342569,-0.137992,-0.14353535,1.1491692,0.17814626
-0.1,0.0,1.4,0.5235987755982988,0.5235987755982988,0,-0.66154045,-1.2562726,1.0675192,-0.09699498,-0.007485103,1.1074592,0.24275069,-1.9183999,1.6846149,-0.97143686,0.015550191,0.101736136,1.2328677,-0.32394242
-0.1,0.0,1.4,0.5235987755982988,0.5235987755982988,0,-0.659339,-1.2562262,1.0663122,-0.12560862,-0.15633428,1.1632293,-1.1092745,-1.920841,1.6722842,-0.96852976,-0.044879626,-0.06316016,1.1511284,0.8077268
-0.1,0.0,1.4,0.5235987755982988,0.5235987755982988,0,-0.6610811,-1.2557564,1.0716156,-0.0869676,-0.15338495,1.2284355,-1.0625986,-1.9205654,1.6865727,-0.89335096,-0.0078642685,0.15842144,1.1593827,-0.03907116
-0.1,0.0,1.4,0.5235987755982988,0.5235987755982988,0,-0.6605811,-1.2561486,1.0720049,-0.11287642,-0.059824854,1.1965971,0.08442031,-1.9184104,1.6967152,-1.1339828,-0.07958766,0.17466919,1.2049133,0.9418199
-0.1,0.0,1.4,0.5235987755982988,0.5235987755982988,0,-0.6597434,-1.2570325,1.0682662,-0.10050806,-0.01667593,1.1858295,-0.64328617,-1.9183614,1.6539183,-0.9634362,-0.11884982,0.047574118,1.0749509,0.07521259
-0.1,0.0,1.4,0.5235987755982988,0.5235987755982988,0,-0.66147935,-1.2562449,1.0668113,-0.09095965,-0.20183723,1.1666176,-0.93285924,-1.9178642,1.6870929,-1.0533379,-0.029762868,-0.032726455,1.0922171,1.44249
-0.1,0.0,1.4,0.5235987755982988,0.5235987755982988,0,-0.6619867,-1.2567592,1.0679301,-0.0711294,-0.09906648,1.1721535,0.35734382,-1.9213082,1.6744287,-1.0873659,-0.0014294208,-0.05899819,1.0692624,1.8324468
-0.1,0.0,1.4,0.5235987755982988,0.5235987755982988,0,-0.6612499,-1.2565651,1.0699389,-0.095215306,-0.30743486,1.1663213,-0.35895666,-1.9182878,1.6719979,-1.0664777,-0.10162593,0.16957563,1.1634088,-0.33432582
-0.1,0.0,1.4,0.5235987755982988,0.5235987755982988,0,-0.6610647,-1.2569355,1.0697368,-0.08987219,0.22235413,1.1345104,-0.17042018,-1.9195926,1.6646974,-1.0890484,-0.09216626,-0.025293378,1.2029471,0.8602206
-0.1,0.0,1.4,0.5235987755982988,0.5235987755982988,0,-0.6616969,-1.2568704,1.0685811,-0.10467589,-0.2267247,1.2020253,0.09727314,-1.9206858,1.6615658,-1.0015397,-0.06708348,0.079734914,1.0820497,0.1896077
-0.1,0.0,1.4,0.5235987755982988,0.5235987755982988,0,-0.6591189,-1.2563136,1.066676,-0.08709188,-0.2596311,1.1216587,-0.04157792,-1.9197007,1.6760482,-1.0683076,-0.105181925,0.07310915,1.1083947,1.4264928
-0.1,0.0,1.4,0.5235987755982988,0.5235987755982988,0,-0.6585509,-1.2565818,1.068623,-0.08896041,0.023382183,1.2565684,-0.047593746,-1.9183149,1.6668202,-0.9751194,-0.029572148,-0.16619322,1.144913,1.5080143
-0.1,0.0,1.4,0.5235987755982988,0.5235987755982988,0,-0.66009706,-1.2561448,1.0670897,-0.094046384,-0.16984732,1.2515994,0.8323846,-1.9176757,1.6859226,-1.1523534,-0.0738629,0.08742339,1.183111,-0.21954589
-0.1,0.0,1.4,0.5235987755982988,0.5235987755982988,0,-0.66150695,-1.2557572,1.0672015,-0.098220855,0.18974663,1.1037582,0.49028596,-1.921236,1.6762803,-1.0222197,-0.03536652,0.096651606,1.1746361,1.9714699
-0.1,0.0,1.4,0.5235987755982988,0.5235987755982988,0,-0.6615966,-1.2563199,1.0678682,-0.101453364,-0.1153226,1.1100367,0.062338363,-1.9194896,1.6796068,-0.95342493,-0.11892584,-0.06740162,1.0641192,0.4782324
-0.1,0.0,1.4,0.5235987755982988,0.5235987755982988,0,-0.6605445,-1.256235,1.0707856,-0.10571269,0.098604865,1.0487822,-0.08003013,-1.9186554,1.677152,-1.0750078,-0.09136674,-0.053737625,1.172995,0.62411976
-0.1,0.0,1.4,0.5235987755982988,0.5235987755982988,0,-0.6613611,-1.2568237,1.0709032,-0.111380644,-0.19707334,1.2119248,-0.5260096,-1.9169359,1.6733705,-0.92723745,-0.09042138,-0.045579426,1.1307375,-0.2414649
-0.1,0.0,1.4,0.5235987755982988,0.5235987755982988,0,-0.6602447,-1.2568543,1.0698833,-0.10711003,-0.10332641,1.1514621,-0.8636269,-1.9184139,1.6810223,-0.9678245,-0.069146216,-0.026868396,1.0543745,0.27862313
-0.1,0.0,1.4,0.5235987755982988,0.5235987755982988,0,-0.65977216,-1.2554952,1.0681831,-0.11675034,0.22542529,1.2793747,0.13835664,-1.9210256,1.6712017,-0.9475649,-0.08534499,0.016057286,1.2554176,0.17397387
-0.1,0.0,1.4,0.5235987755982988,0.5235987755982988,0,-0.65821844,-1.256217,1.0673691,-0.08664787,-0.029598348,1.4391893,-0.93468183,-1.9189749,1.675926,-0.9950171,-0.029282149,0.016380271,1.0433106,0.06180971
-0.1,0.0,1.4,0.5235987755982988,0.5235987755982988,0,-0.66036534,-1.2560625,1.0654347,-0.1170021,0.08215891,1.1574938,-0.0015955735,-1.9207668,1.6764336,-1.0343338,-0.05581002,0.085836016,1.3180476,0.6883318
-0.1,0.0,1.4,0.5235987755982988,0.5235987755982988,0,-0.65991706,-1.2564207,1.0697083,-0.12489916,-0.004125692,1.2989475,0.8297947,-1.9205153,1.6766374,-1.0106175,-0.19172473,-0.14822498,1.0827851,0.0355961
-0.1,0.0,1.4,0.5235987755982988,0.5235987755982988,0,-0.6604396,-1.255978,1.0678059,-0.10698373,-0.11962739,1.132097,0.77141166,-1.9216259,1.6786942,-1.1450078,-0.062483,-0.039570145,1.0167425,0.7300932
-0.1,0.0,1.4,0.5235987755982988,0.5235987755982988,0,-0.65960866,-1.2566322,1.0721737,-0.10166085,-0.17841803,1.1695846,-0.014394849,-1.918472,1.6646029,-1.1632321,-0.14943102,-0.07447532,1.2786777,0.10579881
-0.1,0.0,1.4,0.5235987755982988,0.5235987755982988,0,-0.6601842,-1.2559642,1.0748333,-0.08383832,-0.12669046,1.1296102,-0.6202156,-1.9194704,1.6831759,-1.0110574,-0.12663841,-0.23572531,1.1924386,-0.77936804
-0.1,0.0,1.4,0.5235987755982988,0.5235987755982988,0,-0.6601423,-1.2565807,1.0667524,-0.11440806,0.18546866,1.2041179,-0.79521066,-1.9188088,1.6620351,-1.0003866,-0.0038064986,-0.061815675,1.1412243,0.8138471
-0.1,0.0,1.4,0.5235987755982988,0.5235987755982988,0,-0.66031045,-1.2570963,1.0686041,-0.12798376,-0.27347472,1.2033644,-0.35520425,-1.9147084,1.6715163,-1.1001197,-0.11479655,-0.030265218,1.1899371,0.7998049
-0.1,0.0,1.4,0.5235987755982988,0.5235987755982988,0,-0.66051006,-1.2561857,1.0694218,-0.112835795,-0.23913078,1.0378367,-0.39696923,-1.9199194,1.6753048,-1.0828229,-0.099027,-0.14193337,1.09456,0.05444283
-0.1,0.0,1.4,0.5235987755982988,0.5235987755982988,0,-0.6609991,-1.2560107,1.0633034,-0.10614485,0.06375542,1.1229608,-0.07047336,-1.9202209,1.6733747,-1.1035814,-0.08483606,-0.08301717,1.0970426,-0.7280887
-0.1,0.0,1.4,0.5235987755982988,0.5235987755982988,0,-0.66006005,-1.2560452,1.062815,-0.07991687,0.0618588,1.1573852,-0.1526549,-1.9135146,1.68068,-1.0733445,-0.084634796,0.15492527,1.1021532,-0.09995998
-0.1,0.0,1.4,0.5235987755982988,0.5235987755982988,0,-0.6618773,-1.2571846,1.0700346,-0.115097195,-0.054972786,1.1528983,0.29304925,-1.9182725,1.6774608,-1.0306151,-0.040600013,0.09716675,1.2679709,0.6794628
-0.1,0.0,1.4,0.5235987755982988,0.5235987755982988,0,-0.66083574,-1.256668,1.0688875,-0.11951236,0.07085414,1.2309946,-0.45547906,-1.9245803,1.6706133,-0.9516966,-0.07367535,-0.057488408,0.9682751,0.050795425
-0.1,0.0,1.4,0.5235987755982988,0.5235987755982988,0,-0.66032094,-1.2559124,1.0666984,-0.14463197,-0.22355305,1.3118311,-0.41782877,-1.9214516,1.6765682,-1.1447396,-0.13220596,-0.005826671,1.1067618,1.1977036
-0.1,0.0,1.4,0.5235987755982988,0.5235987755982988,0,-0.6594524,-1.2562647,1.0705749,-0.0978659,0.18401036,1.1813878,-0.5516093,-1.9212037,1.6742423,-1.1857817,-0.16225798,0.014619095,1.0222001,0.62126327
-0.1,0.0,1.4,0.5235987755982988,0.5235987755982988,0,-0.659783,-1.2565839,1.0680724,-0.08960997,0.09767455,1.0822089,-0.21964122,-1.9181983,1.6826674,-0.9359923,0.007667451,0.035273485,1.1933328,-0.25728866
-0.1,0.0,1.4,0.5235987755982988,0.5235987755982988,0,-0.65980333,-1.2562151,1.0711466,-0.07474575,-0.14545892,1.2665831,0.09651056,-1.9147842,1.6848178,-0.98592883,-0.07864276,-0.10249042,1.1650066,-0.24947928
-0.1,0.0,1.4,0.5235987755982988,0.5235987755982988,0,-0.6605252,-1.2555548,1.0621822,-0.11213854,-0.07600107,1.2532564,-0.37619725,-1.9213187,1.677052,-0.96023816,-0.083373606,-0.03462676,1.1227255,0.76975137
-0.1,0.0,1.4,0.5235987755982988,0.5235987755982988,0,-0.6585893,-1.2572657,1.07396,-0.14244963,0.08538044,1.2166393,-0.09217306,-1.9181997,1.6851453,-0.92873496,-0.17840548,0.015718425,1.1068714,0.10827073
-0.1,0.0,1.4,0.5235987755982988,0.5235987755982988,0,-0.65959877,-1.2565339,1.068324,-0.10545401,-0.13006818,1.1086363,-0.53795743,-1.9213465,1.6702696,-0.94321936,-0.086080596,0.076218925,1.1157495,-0.5367438
-0.1,0.0,1.4,0.5235987755982988,0.5235987755982988,0,-0.66018385,-1.2566692,1.0683129,-0.14198066,-0.061280895,1.1186278,-0.04933894,-1.9182101,1.6741998,-1.0345137,-0.101283684,0.04551042,0.9808072,0.11788793
-0.1,0.0,1.4,0.5235987755982988,0.5235987755982988,0,-0.65896153,-1.2555034,1.0678694,-0.121844456,0.08584134,1.2277195,0.33721054,-1.9199448,1.6465747,-0.9275096,-0.08105126,0.11347357,1.1514512,0.13233037
-0.1,0.0,1.4,0.5235987755982988,0.5235987755982988,0,-0.6581781,-1.2560543,1.0726273,-0.12397873,-0.28500944,1.1281315,-0.39771128,-1.9234054,1.6682695,-1.0566479,-0.05771744,-0.025484964,1.2233598,1.5871241
-0.1,0.0,1.4,0.5235987755982988,0.5235987755982988,0,-0.65957487,-1.2559899,1.0685264,-0.123091064,0.0059679146,1.2557132,0.75826347,-1.9213914,1.6652437,-1.0517912,-0.11430672,-0.008614141,1.0145278,1.0967426
-0.1,0.0,1.4,0.5235987755982988,0.5235987755982988,0,-0.659781,-1.2557375,1.0662856,-0.122677654,-0.0153778745,1.0785153,0.20717561,-1.9220867,1.6720535,-0.9737092,-0.06867221,-0.012919929,1.2800148,0.95019615
-0.1,0.0,1.4,0.5235987755982988,0.5235987755982988,0,-0.6611816,-1.2571223,1.0692602,-0.122483514,-0.0657017,1.20753,-0.5873272,-1.9158088,1.6687403,-0.9562236,-0.02411738,0.016673578,1.0471911,0.29076385
-0.1,0.0,1.4,0.5235987755982988,0.5235987755982988,0,-0.66080683,-1.2550573,1.0645217,-0.09981376,0.014505409,1.163592,0.10893456,-1.917211,1.6712642,-1.0548203,-0.090581976,0.252643,1.2197765,0.25976378
-0.1,0.0,1.4,0.5235987755982988,0.5235987755982988,0,-0.66099966,-1.2557383,1.0663857,-0.077115335,-0.19829403,1.2351485,-0.5390514,-1.9214052,1.6689742,-1.08816,-0.090176284,0.09536915,1.2871437,1.7005252
-0.1,0.0,1.4,0.5235987755982988,0.5235987755982988,0,-0.6605085,-1.2564849,1.0687597,-0.06488005,-0.14191028,1.135431,0.3957395,-1.9177243,1.6721233,-1.1538262,-0.06943411,-0.0642346,1.0138069,1.0018806
-0.1,0.0,1.4,0.5235987755982988,0.5235987755982988,0,-0.66142964,-1.2566962,1.0696487,-0.12687685,-0.15450083,1.1750963,-1.1708853,-1.9250338,1.66548,-0.9501472,-0.15035245,-0.10321129,1.1764021,-0.25361776
-0.1,0.0,1.4,0.5235987755982988,0.5235987755982988,0,-0.6620383,-1.2556498,1.0732867,-0.15149686,0.0023591204,1.1457514,0.17271002,-1.9173875,1.6764095,-1.0981612,-0.11101681,-0.04531113,1.0844165,1.0760206
-0.1,0.0,1.4,0.5235987755982988,0.5235987755982988,0,-0.6624104,-1.2553769,1.0701777,-0.12189024,-0.26539466,1.2043054,-0.39796945,-1.9172047,1.6958292,-0.8610383,-0.060605757,0.045393724,1.0076667,-0.18517336
-0.1,0.0,1.4,0.5235987755982988,0.5235987755982988,0,-0.66161877,-1.2556148,1.0758256,-0.13180143,-0.06511814,1.1491834,-0.5280684,-1.9210249,1.6704615,-0.9804796,-0.07488107,0.06098927,1.1426301,0.31013423
-0.1,0.0,1.4,0.5235987755982988,0.5235987755982988,0,-0.6598045,-1.2559328,1.0641232,-0.12427987,-0.44430825,0.9741169,-0.6757471,-1.9170376,1.6633219,-1.1362357,-0.19448726,0.13440537,1.1968555,-0.37886187
-0.1,0.0,1.4,0.5235987755982988,0.5235987755982988,0,-0.6613463,-1.2555729,1.0744905,-0.095027834,-0.08829445,1.1104246,-0.82715404,-1.9136262,1.6826056,-0.94266963,-0.03693521,-0.0065826112,1.2049866,0.39171916
-0.1,0.0,1.4,0.5235987755982988,0.5235987755982988,0,-0.66124827,-1.2549117,1.0695465,-0.100514285,-0.067781314,0.9600968,-0.30514526,-1.9217039,1.6922159,-0.9349768,-0.15675329,-0.028386362,1.1721615,-0.7982679
-0.1,0.0,1.4,0.5235987755982988,0.5235987755982988,0,-0.66353685,-1.2557455,1.0693886,-0.07488449,-0.17381465,1.1829184,0.2068566,-1.9193715,1.6802715,-1.0093012,-0.09741224,0.025037983,1.2459953,-0.5376885
-0.1,0.0,1.4,0.5235987755982988,0.5235987755982988,0,-0.66187495,-1.2549673,1.075577,-0.15231614,-0.11368288,1.1469412,0.08374842,-1.9162889,1.6701288,-0.88805133,-0.009554945,-0.00456346,1.1672376,0.7009413
-0.1,0.0,1.4,0.5235987755982988,0.5235987755982988,0,-0.66113776,-1.2553518,1.0675169,-0.07645313,0.048346393,1.2015661,-0.230584,-1.9154739,1.6658247,-1.1355295,-0.16515425,-0.12726966,0.9686475,0.39497954
-0.1,0.0,1.4,0.5235987755982988,0.5235987755982988,0,-0.6595979,-1.2553195,1.0661392,-0.13783294,-0.056722503,1.2342527,-0.7464685,-1.920899,1.6668669,-1.0464331,-0.062277965,-0.20337221,1.1567702,-0.071605526
-0.1,0.0,1.4,0.5235987755982988,0.5235987755982988,0,-0.66139936,-1.256246,1.0706463,-0.11814409,-0.1655199,1.3202657,0.064659275,-1.9226161,1.6587648,-1.0738761,-0.04243035,-0.0039461404,1.2171166,-0.19713606
-0.1,0.0,1.4,0.5235987755982988,0.5235987755982988,0,-0.66024685,-1.2560279,1.0752788,-0.12145111,-0.27178326,1.2557726,-0.21257614,-1.91431,1.6841363,-0.91629076,-0.107875116,0.39691168,1.1655202,0.12058957
-0.1,0.0,1.4,0.5235987755982988,0.5235987755982988,0,-0.65947855,-1.2548263,1.0703971,-0.14866267,-0.09572786,1.1208186,0.15612201,-1.9184853,1.6771376,-1.1266645,-0.06574582,0.19012958,1.0277582,0.8086149
-0.1,0.0,1.4,0.5235987755982988,0.5235987755982988,0,-0.66202897,-1.2554057,1.0712966,-0.09587241,-0.09860212,1.1386552,-0.37951562,-1.9214932,1.6782228,-1.0241703,-0.12998994,0.18419686,1.177794,-0.9140553
-0.1,0.0,1.4,0.5235987755982988,0.5235987755982988,0,-0.6615058,-1.2560276,1.0695153,-0.13038623,-0.2670497,1.1616269,-0.48124695,-1.9183992,1.6751764,-0.98621637,-0.056687925,-0.012946487,1.1044012,0.34658176
-0.1,0.0,1.4,0.5235987755982988,0.5235987755982988,0,-0.66064376,-1.2552476,1.0616529,-0.08548789,-0.24609996,1.1352464,0.82296073,-1.9128239,1.6806098,-1.0588176,-0.09859044,-0.009828904,1.0171077,0.10742349
-0.1,0.0,1.4,0.5235987755982988,0.5235987755982988,0,-0.66163707,-1.255684,1.0711123,-0.11592577,-0.20495652,1.2626425,-0.577594,-1.9170824,1.6676593,-0.86349744,-0.1198514,-0.13544725,1.2352303,0.12794727
-0.1,0.0,1.4,0.5235987755982988,0.5235987755982988,0,-0.65921515,-1.2553328,1.0681382,-0.15399967,0.013257533,1.1362247,-0.90363395,-1.9182633,1.6803771,-0.90793926,-0.089754224,-0.16307858,1.0975399,0.60546476
-0.1,0.0,1.4,0.5235987755982988,0.5235987755982988,0,-0.6603572,-1.2555609,1.075995,-0.05786525,-0.05280145,1.229439,-0.99971914,-1.9169792,1.6594156,-1.2433631,-0.11804463,-0.07994387,0.993124,-0.39258894
-0.1,0.0,1.4,0.5235987755982988,0.5235987755982988,0,-0.6620314,-1.2564381,1.0644621,-0.1578924,-0.34115964,1.1403646,-0.7154248,-1.9218465,1.6727185,-1.0304525,-0.081996776,-0.15899773,1.2543547,-0.14541787
-0.1,0.0,1.4,0.5235987755982988,0.5235987755982988,0,-0.66070986,-1.2561547,1.0662112,-0.07945806,-0.061220814,1.2404953,-0.36725488,-1.9119027,1.6617004,-0.9678167,-0.073335804,-0.083551444,1.1499616,-0.23632537
-0.1,0.0,1.4,0.5235987755982988,0.5235987755982988,0,-0.66059875,-1.2561504,1.0673559,-0.12814754,-0.38344446,1.2216681,-0.47122297,-1.9157728,1.6770871,-1.0806793,-0.12703414,-0.18163064,1.3212506,0.7299616
-0.1,0.0,1.4,0.5235987755982988,0.5235987755982988,0,-0.66017365,-1.2552043,1.0695292,-0.079653,0.44800082,1.1578773,0.47420698,-1.9198316,1.6700091,-0.9136653,-0.133053,-0.013887428,1.0994718,-0.16717787
-0.1,0.0,1.4,0.5235987755982988,0.5235987755982988,0,-0.6610908,-1.2552024,1.0699853,-0.13314833,0.018025396,1.125356,-0.41044033,-1.9177519,1.6661419,-1.0830002,-0.028278926,0.046915047,1.0699494,0.07585614
-0.1,0.0,1.4,0.5235987755982988,0.5235987755982988,0,-0.66037124,-1.2561092,1.0708386,-0.1296191,-0.12618874,1.1589743,-0.24597572,-1.9150673,1.6699275,-0.888094,-0.09446907,0.05354319,1.0012946,1.2584084
-0.1,0.0,1.4,0.5235987755982988,0.5235987755982988,0,-0.6603301,-1.2562406,1.0716795,-0.135399,-0.021018054,1.1217328,0.3412324,-1.9155332,1.6820085,-0.9781814,-0.062290817,0.09103521,1.3584107,0.31519434
-0.1,0.0,1.4,0.5235987755982988,0.5235987755982988,0,-0.66115665,-1.256353,1.0709965,-0.07814549,-0.27232096,1.2012664,-0.3507884,-1.9163256,1.6821066,-1.0165616,-0.021635106,-0.06229102,1.0990273,0.20106184
-0.1,0.0,1.4,0.5235987755982988,0.5235987755982988,0,-0.6598379,-1.2552452,1.0660627,-0.112311386,-0.10925358,1.105754,0.4454538,-1.9169319,1.6547422,-0.9459797,-0.02890118,0.103445604,1.1653386,0.40920603
-0.1,0.0,1.4,0.5235987755982988,0.5235987755982988,0,-0.65936416,-1.2569445,1.0665878,-0.061920375,-0.19313292,1.3433031,-0.051385123,-1.9206179,1.667205,-1.0758611,-0.07524128,0.004017487,1.2479763,1.0061264
-0.1,0.0,1.4,0.5235987755982988,0.5235987755982988,0,-0.6598303,-1.2564404,1.0665464,-0.14574927,-0.22452493,1.2288705,-0.5997018,-1.9162892,1.6794368,-0.8278192,0.008149611,-0.005546264,1.1914376,0.171677
-0.1,0.0,1.4,0.5235987755982988,0.5235987755982988,0,-0.66005284,-1.2561406,1.062569,-0.14221536,0.04593406,1.1911595,-0.69880754,-1.9145848,1.6845391,-1.0897397,-0.12783317,-0.16324669,1.0880312,0.8335973
-0.1,0.0,1.4,0.5235987755982988,0.5235987755982988,0,-0.6595531,-1.2562748,1.0737699,-0.1398152,-0.056632996,1.1910455,1.2108519,-1.9167738,1.6764938,-1.0428405,-0.06875129,-0.046005435,1.2553972,0.66485393
-0.1,0.0,1.4,0.5235987755982988,0.5235987755982988,0,-0.6617379,-1.255608,1.064078,-0.08974167,-0.42884347,1.0845199,-0.8991597,-1.9137132,1.6752536,-0.9316716,-0.0069859433,0.0788685,1.2726865,0.22487806
-0.1,0.0,1.4,0.5235987755982988,0.5235987755982988,0,-0.6606501,-1.2562797,1.0671122,-0.12071787,-0.14424913,1.0266557,-0.5701971,-1.9178975,1.6697059,-0.9728692,-0.0071673607,0.18646465,0.9872842,1.8700676
-0.1,0.0,1.4,0.5235987755982988,0.5235987755982988,0,-0.6620919,-1.2571096,1.0720407,-0.12458831,0.06633962,1.2387142,-1.5214657,-1.9218165,1.671992,-1.0200503,-0.089487605,-0.16334584,1.1798534,0.6182355
-0.1,0.0,1.4,0.5235987755982988,0.5235987755982988,0,-0.6617322,-1.2560714,1.0656921,-0.056281578,-0.25421885,1.1170002,-0.09774637,-1.9182582,1.6781766,-1.0763491,-0.081411354,0.0062000905,1.1550552,0.62904096
-0.1,0.0,1.4,0.5235987755982988,0.5235987755982988,0,-0.6613325,-1.2560693,1.0672328,-0.068705134,-0.091285914,1.2622955,-0.9923193,-1.9189366,1.6697159,-0.9213623,-0.090164125,0.17633225,1.0914499,-0.6403533
-0.1,0.0,1.4,0.5235987755982988,0.5235987755982988,0,-0.6619257,-1.2562166,1.0663582,-0.18645278,0.08436044,1.1540271,-0.6763241,-1.9181887,1.6653297,-1.1174141,-0.12155032,0.06159906,1.1926887,0.06674996
-0.1,0.0,1.4,0.5235987755982988,0.5235987755982988,0,-0.65974385,-1.2561222,1.066572,-0.08002118,-0.17094159,1.2784259,0.08072283,-1.9159918,1.6707523,-1.0513982,-0.048652507,0.14833231,1.0918657,-0.47745475
-0.1,0.0,1.4,0.5235987755982988,0.5235987755982988,0,-0.6608077,-1.256184,1.066847,-0.061284333,-0.14102435,1.1414214,-0.4887506,-1.9173806,1.6699365,-1.1344829,-0.1050559,0.11372473,1.0598289,0.2022747
-0.1,0.0,1.4,0.5235987755982988,0.5235987755982988,0,-0.66102535,-1.2555336,1.0675989,-0.11005532,-0.18420014,1.1044823,-0.19932944,-1.919073,1.6684077,-0.94734997,-0.07102486,-0.17906147,1.2165433,0.07819119
-0.1,0.0,1.4,0.5235987755982988,0.5235987755982988,0,-0.660525,-1.2558728,1.0626881,-0.08832008,-0.24611269,1.145612,0.18041125,-1.9146322,1.6733679,-0.85479784,-0.04671579,0.1572315,1.07081,-1.388379
-0.1,0.0,1.4,0.5235987755982988,0.5235987755982988,0,-0.66061574,-1.2555596,1.0678197,-0.095075876,0.119675756,1.2714561,-1.1812173,-1.9150492,1.6716231,-1.0124847,-0.08760561,0.09316632,1.053669,0.713141
-0.1,0.0,1.4,0.5235987755982988,0.5235987755982988,0,-0.6591859,-1.2556676,1.0686102,-0.0776689,0.1040124,1.2086055,-0.1731935,-1.9179276,1.6738627,-1.1029762,-0.06594195,0.008391508,0.99502236,-0.29363587
-0.1,0.0,1.4,0.5235987755982988,0.5235987755982988,0,-0.661189,-1.2563727,1.0743117,-0.12121323,-0.0021035532,1.245899,0.39187506,-1.9156233,1.6777707,-0.90700006,-0.07044632,0.3088842,1.1689578,0.47964993
-0.1,0.0,1.4,0.5235987755982988,0.5235987755982988,0,-0.66125697,-1.255686,1.0640763,-0.08053304,-0.15385818,1.3306868,-0.6373787,-1.9172752,1.6791251,-1.0433338,-0.06488981,-0.09088645,1.0171419,-0.8556259
-0.1,0.0,1.4,0.5235987755982988,0.5235987755982988,0,-0.65990496,-1.2556554,1.066182,-0.07995252,0.07037122,1.2661214,-0.48068526,-1.9195539,1.6807127,-1.094846,-0.05765832,0.19373809,1.0921241,0.8343466
-0.1,0.0,1.4,0.5235987755982988,0.5235987755982988,0,-0.6605349,-1.2559141,1.0727563,-0.08861852,-0.20136216,1.1252892,-0.72861385,-1.9181814,1.6809065,-0.8797667,-0.07132077,0.27908164,0.90596056,0.50499517
-0.1,0.0,1.4,0.5235987755982988,0.5235987755982988,0,-0.65919846,-1.2566273,1.0721933,-0.15643877,-0.27065426,1.029222,-1.1400151,-1.9188505,1.6791842,-0.96060026,-0.05924102,-0.23979399,1.2477218,-0.25908998
-0.1,0.0,1.4,0.5235987755982988,0.5235987755982988,0,-0.65966105,-1.2549937,1.0679752,-0.10106901,0.11248075,1.1802121,-1.601956,-1.9166633,1.6794139,-0.99457514,-0.14391728,0.020272808,0.97305983,-0.2581474
-0.1,0.0,1.4,0.5235987755982988,0.5235987755982988,0,-0.66091645,-1.256402,1.0661691,-0.08712951,0.14119895,1.1049457,-0.78716135,-1.9142224,1.693098,-0.84593636,-0.056989897,0.01836358,1.2454606,0.16990893
-0.1,0.0,1.4,0.5235987755982988,0.5235987755982988,0,-0.66059047,-1.255584,1.0723181,-0.10645684,-0.17991833,1.3390422,-0.32865843,-1.9140815,1.6753702,-1.033137,-0.09176918,-0.11091171,1.1417063,-0.092665344
-0.1,0.0,1.4,0.5235987755982988,0.5235987755982988,0,-0.65797067,-1.2564989,1.0676657,-0.09177849,0.0075427676,1.0461801,-0.05692156,-1.9222867,1.6786128,-0.98247147,-0.060321856,0.025125468,0.9481574,1.5827285
-0.1,0.0,1.4,0.5235987755982988,0.5235987755982988,0,-0.66040224,-1.256481,1.0729926,-0.07007651,-0.16002275,1.2607305,0.5013465,-1.9171059,1.6667973,-1.1581105,-0.1405348,-0.0783775,1.1321119,0.05341447
-0.1,0.0,1.4,0.5235987755982988,0.5235987755982988,0,-0.6598651,-1.2566427,1.0652313,-0.06259198,0.2104976,1.2198313,0.379609,-1.916586,1.6672406,-0.9310865,-0.074239835,0.06949051,1.2308016,1.230691
-0.1,0.0,1.4,0.5235987755982988,0.5235987755982988,0,-0.6600881,-1.2555246,1.06712,-0.07566868,0.14667562,1.154986,-0.4879803,-1.9190114,1.6800922,-0.98272395,0.013031209,0.13006787,1.0983654,0.6398601
-0.1,0.0,1.4,0.5235987755982988,0.5235987755982988,0,-0.66000247,-1.2560278,1.0687126,-0.09143562,-0.18160692,0.9746456,-0.3741632,-1.9140421,1.6729703,-1.0131431,-0.067975104,0.077096514,1.132564,0.19524866
-0.1,0.0,1.4,0.5235987755982988,0.5235987755982988,0,-0.66130084,-1.2559456,1.0681924,-0.11580544,-0.116086185,1.0405167,0.16416891,-1.9201525,1.6737977,-0.9818526,-0.10046627,0.121740155,1.1672859,1.109254
-0.1,0.0,1.4,0.5235987755982988,0.5235987755982988,0,-0.6577525,-1.2555152,1.0696595,-0.112000994,-0.073200665,1.1494032,0.35195524,-1.9167132,1.6738079,-1.0904814,-0.097713284,-0.053191103,1.0972024,-0.71722555
-0.1,0.0,1.4,0.5235987755982988,0.5235987755982988,0,-0.6601708,-1.2551228,1.0669924,-0.058333606,0.09588884,1.174236,0.59295297,-1.9180025,1.676687,-1.2010804,-0.14435296,0.15960318,1.0129772,-0.5052512
-0.1,0.0,1.4,0.5235987755982988,0.5235987755982988,0,-0.6617538,-1.2559643,1.0650139,-0.07284011,-0.11962442,1.234632,-0.8865674,-1.9206594,1.6641073,-1.0552715,-0.10205131,-0.14221977,1.1699561,-0.1755419
-0.1,0.0,1.4,0.5235987755982988,0.5235987755982988,0,-0.66053176,-1.2556802,1.0656304,-0.07856149,-0.26786458,1.234433,1.4955827,-1.9170018,1.6694553,-0.9681192,-0.09157437,0.052734517,1.1758864,0.2657136
-0.1,0.0,1.4,0.5235987755982988,0.5235987755982988,0,-0.6598573,-1.2555673,1.0726335,-0.103367746,-0.068991855,1.221186,-0.10353185,-1.9194059,1.6766062,-1.1137307,-0.04966579,-0.043683276,1.2448589,0.2951965
-0.1,0.0,1.4,0.5235987755982988,0.5235987755982988,0,-0.6590333,-1.2562395,1.0716579,-0.11436948,0.17304717,1.1179318,-0.96748596,-1.9152298,1.6741982,-0.9829929,-0.11242103,0.26507428,1.1703819,0.27737713
-0.1,0.0,1.4,0.5235987755982988,0.5235987755982988,0,-0.66028786,-1.2553053,1.0711615,-0.11176961,-0.23418644,1.2827153,0.085719556,-1.9132863,1.6715897,-0.8584032,-0.071163505,0.14947197,1.2140274,0.49730474
-0.1,0.0,1.4,0.5235987755982988,0.5235987755982988,0,-0.660744,-1.2564081,1.0669565,-0.08787325,0.10874856,1.3671961,-0.13298526,-1.9229344,1.6671617,-0.9560086,-0.079318166,-0.060876556,1.0777351,-0.31088293
-0.1,0.0,1.4,0.5235987755982988,0.5235987755982988,0,-0.6619522,-1.2560964,1.0649241,-0.07871032,0.024629803,1.1707563,0.31895334,-1.9163934,1.670018,-0.9977063,-0.10894531,0.0007806339,1.1281893,1.013135
-0.1,0.0,1.4,0.5235987755982988,0.5235987755982988,0,-0.66137075,-1.2565092,1.0683597,-0.14950593,0.10707122,1.1881022,-1.4589105,-1.9205779,1.666126,-0.99458086,-0.08925195,-0.23150922,1.2828429,-0.61921555
-0.1,0.0,1.4,0.5235987755982988,0.5235987755982988,0,-0.6617772,-1.2553443,1.0671301,-0.096935354,-0.31952238,1.2826767,-0.051951498,-1.9180241,1.6690876,-1.1156793,-0.088571854,0.035937276,0.9768471,0.61890113
-0.1,0.0,1.4,0.5235987755982988,0.5235987755982988,0,-0.66178614,-1.2553893,1.066748,-0.08275068,-0.22972949,1.0141977,-0.6258858,-1.9182893,1.6798778,-1.149037,-0.033133224,-0.21217433,1.240043,0.050154414
-0.1,0.0,1.4,0.5235987755982988,0.5235987755982988,0,-0.6611539,-1.2559853,1.0641129,-0.07784056,0.15126464,1.0651157,0.37510622,-1.9163007,1.6857924,-1.0166775,-0.0139938,0.08403115,1.1640991,0.09773805
-0.1,0.0,1.4,0.5235987755982988,0.5235987755982988,0,-0.65948796,-1.2560104,1.068446,-0.09788725,-0.24303934,1.1375774,-0.6406844,-1.9149642,1.6727749,-0.9637301,-0.045338243,-0.03377969,1.1020175,0.4353803
-0.1,0.0,1.4,0.5235987755982988,0.5235987755982988,0,-0.66135603,-1.2554113,1.074981,-0.052245684,-0.25424704,1.2907877,-0.55015975,-1.919082,1.6757246,-1.1779045,-0.009326579,-0.098492526,1.1132932,-0.5341722
-0.1,0.0,1.4,0.5235987755982988,0.5235987755982988,0,-0.6600877,-1.2562326,1.0675516,-0.102555014,-0.15470551,1.2172037,-0.13120306,-1.9135097,1.6705303,-1.116624,-0.07175444,-0.10716334,1.1828325,0.79185706
-0.1,0.0,1.4,0.5235987755982988,0.5235987755982988,0,-0.65917677,-1.2552674,1.0673604,-0.11243162,0.030405123,1.3034937,-0.7682269,-1.9260492,1.6844698,-1.0169811,-0.035887215,-0.14551976,1.0600749,0.1722901
-0.1,0.0,1.4,0.5235987755982988,0.5235987755982988,0,-0.6593726,-1.2554018,1.0687412,-0.10559224,-0.20595224,1.1316211,-0.44448715,-1.9185286,1.665828,-0.99930817,-0.10931826,0.05890174,1.1921558,1.1700163
-0.1,0.0,1.4,0.5235987755982988,0.5235987755982988,0,-0.6600327,-1.2560675,1.0664904,-0.084270254,0.0623523,1.0457212,0.040355198,-1.9172385,1.6841509,-1.0454627,-0.016412476,0.17500867,0.99054,1.0084273
-0.1,0.0,1.4,0.5235987755982988,0.5235987755982988,0,-0.66005975,-1.2559351,1.0672665,-0.11015431,-0.06577717,1.259245,-1.1660978,-1.919319,1.6832445,-1.0330479,-0.037103035,0.10310653,1.2953234,-0.002431708
-0.1,0.0,1.4,0.5235987755982988,0.5235987755982988,0,-0.66134316,-1.2566633,1.0696062,-0.13517605,0.089729294,1.1019045,-0.5906387,-1.9210498,1.6712995,-1.0294653,-0.09807878,-0.046371944,1.247947,0.3618385
-0.1,0.0,1.4,0.5235987755982988,0.5235987755982988,0,-0.6604215,-1.2555878,1.0682505,-0.11566198,-0.2187761,1.1813476,-0.09912086,-1.9166621,1.6884933,-0.94308674,-0.08293615,-0.058778733,1.0092266,-0.031930603
-0.1,0.0,1.4,0.5235987755982988,0.5235987755982988,0,-0.660103,-1.2561753,1.0695806,-0.17471264,-0.30276245,1.1003355,-0.25289917,-1.9172938,1.6814024,-1.0293287,-0.002382364,0.064651534,1.2435911,0.370941
-0.1,0.0,1.4,0.5235987755982988,0.5235987755982988,0,-0.66112804,-1.2554799,1.0703449,-0.11903989,-0.1403062,1.0388719,0.010031729,-1.9207745,1.6703997,-0.94932926,-0.12656188,0.25929293,1.223476,0.18548466
-0.1,0.0,1.4,0.5235987755982988,0.5235987755982988,0,-0.66098243,-1.2559669,1.0679687,-0.0894402,-0.25606883,1.2364497,0.082520716,-1.9211303,1.6753216,-1.1614021,-0.059018698,-0.113348715,0.89540124,1.7277946
-0.1,0.0,1.4,0.5235987755982988,0.5235987755982988,0,-0.6602773,-1.2553318,1.0695727,-0.09716754,-0.2761341,1.2904576,0.12098002,-1.9198703,1.6710811,-0.92109096,-0.14005527,-0.09517782,1.1215452,-0.3760845
-0.1,0.0,1.4,0.5235987755982988,0.5235987755982988,0,-0.6613267,-1.2561896,1.0654576,-0.08611128,-0.15954414,1.2188905,-0.17043188,-1.9171011,1.6872492,-0.90394557,-0.060682435,-0.121491596,1.2057221,0.36644953
-0.1,0.0,1.4,0.5235987755982988,0.5235987755982988,0,-0.6615281,-1.2550479,1.0652888,-0.13040411,0.0970615,1.1847327,-0.2894725,-1.9208905,1.6765283,-1.0877,-0.05604485,-0.11733231,1.0338877,0.5847835
-0.1,0.0,1.4,0.5235987755982988,0.5235987755982988,0,-0.66130114,-1.2559777,1.0640575,-0.11969244,-0.041903608,1.1674223,-0.9440322,-1.9196059,1.6754388,-1.2076926,-0.10629799,-0.13146985,1.0968299,0.49027982
-0.1,0.0,1.4,0.5235987755982988,0.5235987755982988,0,-0.6599728,-1.2557933,1.0643947,-0.123581804,0.020178445,0.9957104,-0.6540206,-1.9173028,1.6790396,-1.0096581,-0.07791748,-0.26068625,1.1693666,0.18717556
-0.1,0.0,1.4,0.5235987755982988,0.5235987755982988,0,-0.65943134,-1.2560222,1.0697732,-0.08435416,-0.038637828,1.1421889,-0.4279983,-1.9157215,1.6625847,-0.9546434,-0.07914794,0.18228574,1.1013304,0.68691874
-0.1,0.0,1.4,0.5235987755982988,0.5235987755982988,0,-0.6610917,-1.2559669,1.0715387,-0.11275759,0.01066784,1.28603,0.25038508,-1.9150285,1.6755084,-0.8965352,-0.121163465,0.042767905,1.2357446,0.76824546
-0.1,0.0,1.4,0.5235987755982988,0.5235987755982988,0,-0.6598377,-1.2559357,1.073327,-0.10885628,-0.17120436,1.0736418,0.4984168,-1.9227793,1.6803427,-1.1847895,-0.06212351,-0.15509577,1.0822023,0.15559332
-0.1,0.0,1.4,0.5235987755982988,0.5235987755982988,0,-0.6596924,-1.2555451,1.0652542,-0.0946645,0.1416617,1.2829555,-0.29148865,-1.9177976,1.6647983,-1.0282167,-0.043695565,-0.09438852,1.1557639,0.50198185
-0.1,0.0,1.4,0.5235987755982988,0.5235987755982988,0,-0.659819,-1.2557136,1.0632377,-0.09967871,0.2567718,1.083968,-0.3084432,-1.9161643,1.6698791,-1.1243231,-0.004504454,0.037510432,1.1545978,0.3379717
-0.1,0.0,1.4,0.5235987755982988,0.5235987755982988,0,-0.65963197,-1.256594,1.0682889,-0.08078669,-0.2623203,1.1862897,0.8072278,-1.9187653,1.6725165,-1.0692263,-0.05686348,0.0015645523,0.9716313,2.1342096
-0.1,0.0,1.4,0.5235987755982988,0.5235987755982988,0,-0.65965647,-1.2554777,1.0703027,-0.1091324,-0.10439853,1.2465049,0.06786609,-1.91571,1.6770422,-1.0344776,-0.09622541,-0.06837884,1.1436682,1.193033
-0.1,0.0,1.4,0.5235987755982988,0.5235987755982988,0,-0.6603264,-1.2563759,1.0703511,-0.13122007,0.061312754,1.1215233,-0.15646134,-1.9196236,1.6650889,-1.0988581,-0.107837096,-0.023500491,1.1031883,0.59742665
-0.1,0.0,1.4,0.5235987755982988,0.5235987755982988,0,-0.66102064,-1.2572868,1.070736,-0.14081264,-0.10780135,1.1818365,0.891466,-1.917646,1.6804165,-1.1211598,-0.07380217,-0.12716274,1.0142156,-1.1703337
-0.1,0.0,1.4,0.5235987755982988,0.5235987755982988,0,-0.66056883,-1.2556744,1.0715501,-0.080326706,-0.019727124,1.2481791,-0.20155133,-1.9180219,1.6783985,-0.9875229,-0.12403168,-0.014155277,1.0640489,0.6568193
-0.1,0.0,1.4,0.5235987755982988,0.5235987755982988,0,-0.6619196,-1.2565919,1.0685363,-0.09352064,-0.26216882,1.1837475,-0.4307938,-1.9190892,1.6770468,-1.1221521,0.021484269,0.14439598,1.059576,0.01029215
-0.1,0.0,1.4,0.5235987755982988,0.5235987755982988,0,-0.6605769,-1.2551641,1.0652632,-0.10093199,0.087975875,1.0532713,0.6380918,-1.9174817,1.6647794,-1.0708934,-0.12755865,-0.07262594,1.1482066,1.4712322
-0.1,0.0,1.4,0.5235987755982988,0.5235987755982988,0,-0.6603808,-1.2570531,1.067029,-0.13656257,0.0159691,1.2102598,1.4980599,-1.9180893,1.6610243,-1.0186094,-0.19286826,0.14780825,1.1856065,-0.8876844
-0.1,0.0,1.4,0.5235987755982988,0.5235987755982988,0,-0.66005373,-1.256035,1.0673954,-0.10883238,0.009899445,1.3052844,0.47139636,-1.9184717,1.6836311,-0.8094421,-0.15453249,0.3143235,1.1426786,0.43365198
-0.1,0.0,1.4,0.5235987755982988,0.5235987755982988,0,-0.65939313,-1.2565057,1.0678577,-0.06534406,-0.111826554,1.1610134,-0.34353217,-1.9208447,1.6870933,-0.994858,-0.047402848,-0.03589659,1.0515206,-0.2282453
-0.1,0.0,1.4,0.5235987755982988,0.5235987755982988,0,-0.66189617,-1.2558566,1.0644981,-0.1369656,0.049862154,1.2030772,0.19314364,-1.9174086,1.6533697,-0.99736947,-0.14225814,0.32164016,0.9521994,0.8763714
-0.1,0.0,1.4,0.5235987755982988,0.5235987755982988,0,-0.6605799,-1.2549721,1.0693805,-0.07308228,-0.23252964,1.292069,-0.98145133,-1.9192803,1.6824838,-0.97591,4.456992e-05,-0.18348105,1.2168131,0.660394
-0.1,0.0,1.4,0.5235987755982988,0.5235987755982988,0,-0.6595801,-1.256943,1.067538,-0.07249025,-0.076371066,1.2913066,-0.69350874,-1.9196146,1.6900681,-0.96259403,-0.032307502,0.15901458,1.1643368,0.3040015
-0.1,0.0,1.4,0.5235987755982988,0.5235987755982988,0,-0.6598965,-1.2559683,1.065864,-0.10252823,0.029982673,1.1874343,-0.09584098,-1.9198233,1.6714077,-0.995928,-0.14361386,-0.2597061,1.0513517,0.45149752
-0.1,0.0,1.4,0.5235987755982988,0.5235987755982988,0,-0.6611287,-1.2559084,1.0674393,-0.08745248,-0.12131694,1.2158471,-0.8462193,-1.920893,1.6600723,-0.97007763,-0.12615989,-0.09944271,1.1062973,0.36540526
-0.1,0.0,1.4,0.5235987755982988,0.5235987755982988,0,-0.6608448,-1.2570933,1.0685666,-0.09821578,-0.13480893,0.95026755,0.27707502,-1.9163325,1.6723033,-0.94254416,-0.081321344,0.14354603,1.1660073,0.99597305
-0.1,0.0,1.4,0.5235987755982988,0.5235987755982988,0,-0.66051966,-1.2560768,1.0684631,-0.11359653,-0.046203803,1.2252797,0.7528891,-1.9186871,1.673763,-0.8741217,0.05364518,-0.08944493,1.0395032,1.3117071
-0.1,0.0,1.4,0.5235987755982988,0.5235987755982988,0,-0.65962106,-1.2567967,1.0687608,-0.09392391,-0.28734785,1.1808335,0.827682,-1.9213008,1.6655177,-1.0886338,-0.051990822,0.07917422,1.1133568,0.2907782
-0.1,0.0,1.4,0.5235987755982988,0.5235987755982988,0,-0.6607904,-1.2565386,1.0672425,-0.09001363,-0.053280063,1.1773416,-0.84694123,-1.919393,1.676989,-1.123145,-0.044897128,0.10239823,1.3583511,0.790603
-0.1,0.0,1.4,0.5235987755982988,0.5235987755982988,0,-0.6596336,-1.2559706,1.0663154,-0.13679047,0.3658915,1.1697613,-0.27855608,-1.9178194,1.6874369,-1.093944,-0.1196404,-0.23333065,1.2111999,-0.054691695
-0.1,0.0,1.4,0.5235987755982988,0.5235987755982988,0,-0.66064966,-1.2556616,1.0701097,-0.113109805,-0.12743028,1.2274734,0.0061844857,-1.9200877,1.6825129,-1.0772039,-0.08604332,0.11217689,1.0378735,0.1721167
-0.1,0.0,1.4,0.5235987755982988,0.5235987755982988,0,-0.6593233,-1.2564183,1.0690107,-0.10529292,0.061993867,1.0384485,-0.37959486,-1.9183275,1.6695079,-0.8032757,-0.16862194,0.081184454,1.1042622,0.6781665
-0.1,0.0,1.4,0.5235987755982988,0.5235987755982988,0,-0.6605625,-1.2563517,1.0665027,-0.0841171,-0.12979412,1.0747653,0.47755957,-1.9208155,1.6723629,-0.99697095,-0.013932432,0.031037405,1.2122192,0.21134356
-0.1,0.0,1.4,0.5235987755982988,0.5235987755982988,0,-0.65950733,-1.2564664,1.0658207,-0.1150388,-0.091250785,1.2652974,0.19587271,-1.9148744,1.685207,-0.97552526,-0.12656744,0.25564036,1.1484646,1.5064585
-0.1,0.0,1.4,0.5235987755982988,0.5235987755982988,0,-0.65942097,-1.2559507,1.0714387,-0.101443715,-0.24951252,1.1258787,-0.6621931,-1.9197004,1.6841536,-1.1952566,-0.033679336,0.055657048,1.087488,0.3617277
-0.1,0.0,1.4,0.5235987755982988,0.5235987755982988,0,-0.66133726,-1.2566077,1.0697268,-0.086864896,-0.01692835,1.1632229,-0.18536489,-1.9186553,1.6780752,-1.0602732,-0.03177166,-0.14060156,1.2027172,0.40610188
-0.1,0.0,1.4,0.5235987755982988,0.5235987755982988,0,-0.66089845,-1.2561437,1.0645497,-0.10387656,-0.2217849,1.1798848,-0.03161538,-1.9186169,1.6711755,-1.1087021,-0.10085868,0.003351273,1.0523237,0.46521047
-0.1,0.0,1.4,0.5235987755982988,0.5235987755982988,0,-0.6605368,-1.2561051,1.0649782,-0.13820128,-0.009723963,1.1207025,-0.80218005,-1.9180075,1.6643455,-0.9708477,-0.1014163,-0.07415571,1.0933725,-0.46195692
-0.1,0.0,1.4,0.5235987755982988,0.5235987755982988,0,-0.66074276,-1.2554979,1.0726624,-0.106600896,-0.20691903,1.1906794,0.019278841,-1.9208987,1.6753509,-0.9743067,-0.021744734,0.06022286,1.0983609,0.7303861
-0.1,0.0,1.4,0.5235987755982988,0.5235987755982988,0,-0.6612712,-1.2569449,1.0676397,-0.081197634,-0.002749034,1.2134788,-0.099503726,-1.9195299,1.6651696,-1.0164739,-0.1252922,-0.16294946,1.139446,0.82508165
-0.1,0.0,1.4,0.5235987755982988,0.5235987755982988,0,-0.6602589,-1.2558337,1.0676364,-0.08958219,-0.038043942,1.0799663,0.19799748,-1.9206733,1.6794304,-0.90573585,-0.10201768,0.113319606,1.130848,1.5551673
-0.1,0.0,1.4,0.5235987755982988,0.5235987755982988,0,-0.6601804,-1.255496,1.067138,-0.09847574,-0.28641236,1.1019052,0.45274135,-1.9199575,1.6699452,-1.0607795,-0.08734416,-0.04558411,1.2888339,-0.5517414
-0.1,0.0,1.4,0.5235987755982988,0.5235987755982988,0,-0.6594262,-1.2565928,1.0643594,-0.10088776,-0.32231733,1.3390063,-0.5707286,-1.9198321,1.6711581,-0.8520658,-0.026941735,0.05753221,1.0694443,-0.17427681
-0.1,0.0,1.4,0.5235987755982988,0.5235987755982988,0,-0.66038287,-1.2565937,1.0653616,-0.08827622,-0.06604909,1.2857455,-0.25417024,-1.9185159,1.6821284,-1.1042366,-0.09151273,0.2254878,1.3043824,-0.29692063
-0.1,0.0,1.4,0.5235987755982988,0.5235987755982988,0,-0.6588445,-1.2556665,1.0747522,-0.08780058,-0.040954836,1.2820067,0.31940493,-1.9225323,1.6574957,-0.9876263,-0.15749915,-0.10537878,1.1691487,0.6969637
-0.1,0.0,1.4,0.5235987755982988,0.5235987755982988,0,-0.6588237,-1.2562075,1.0729175,-0.09767721,-0.1756521,1.2062173,-0.5324532,-1.9185373,1.6715528,-1.1560538,-0.12426034,-0.016060797,1.1268891,1.3689171
-0.1,0.0,1.4,0.5235987755982988,0.5235987755982988,0,-0.6602406,-1.2566367,1.0723729,-0.08582176,0.110204354,1.1486984,-0.71954477,-1.9212518,1.671085,-1.0576934,-0.12232694,-0.20999052,1.335135,1.2463758
-0.1,0.0,1.4,0.5235987755982988,0.5235987755982988,0,-0.6607835,-1.2567481,1.0709482,-0.0940065,0.071964584,1.2707361,0.38363662,-1.9197034,1.679722,-0.8470322,-0.038647138,-0.11382677,1.1557555,1.2909962
-0.1,0.0,1.4,0.5235987755982988,0.5235987755982988,0,-0.6609184,-1.2567345,1.0673244,-0.10172103,-0.16495755,1.3031642,0.2365027,-1.9192423,1.6738362,-1.0121695,-0.10769843,-0.07654977,1.1798519,1.1933353
-0.1,0.0,1.4,0.5235987755982988,0.5235987755982988,0,-0.66073513,-1.2559267,1.0689139,-0.10087953,-0.18022312,1.274386,-0.47929746,-1.9240444,1.6780372,-1.007334,-0.019587202,0.132422,1.2239,-0.3786689
-0.1,0.0,1.4,0.5235987755982988,0.5235987755982988,0,-0.66060585,-1.2564106,1.0661057,-0.09380002,-0.16032748,1.1596153,0.17864032,-1.9210227,1.6718088,-1.0349452,-0.074621715,0.07479234,1.2252711,-0.5857932
-0.1,0.0,1.4,0.5235987755982988,0.5235987755982988,0,-0.6589709,-1.2555735,1.0657322,-0.12581603,-0.018652977,1.124456,-1.400888,-1.9179562,1.6788688,-0.992027,-0.02806098,0.07632199,1.2065125,-0.033507034
-0.1,0.0,1.4,0.5235987755982988,0.5235987755982988,0,-0.66026086,-1.256375,1.0672467,-0.089309305,-0.08142485,1.1448159,-0.7085573,-1.9208286,1.6676639,-0.9992928,-0.13271774,-0.17115398,1.210713,-0.95893115
-0.1,0.0,1.4,0.5235987755982988,0.5235987755982988,0,-0.66087264,-1.25577,1.0637722,-0.11807735,0.07033043,1.0489665,-0.077423826,-1.9203409,1.6759845,-0.90984607,-0.08185709,-0.0243504,1.0001746,0.47081593
-0.1,0.0,1.4,0.5235987755982988,0.5235987755982988,0,-0.661314,-1.255989,1.0667826,-0.10375372,-0.08171823,1.1283455,0.1096316,-1.920473,1.6802552,-1.0484772,-0.042935,-0.06942002,1.124521,-0.45767802
-0.1,0.0,1.4,0.5235987755982988,0.5235987755982988,0,-0.6597561,-1.2561923,1.0683075,-0.09977858,-0.07011397,1.033064,-1.196453,-1.9264493,1.6658036,-0.9644378,-0.062901385,-0.12456785,1.0724654,-0.4461656
-0.1,0.0,1.4,0.5235987755982988,0.5235987755982988,0,-0.6596945,-1.2561992,1.0717589,-0.12658587,-0.25422418,1.1980422,-0.35517076,-1.9212973,1.655541,-1.106088,-0.069085,0.15283929,1.2132492,0.513336
-0.1,0.0,1.4,0.5235987755982988,0.5235987755982988,0,-0.66040653,-1.2556955,1.0679497,-0.108328,-0.05583606,1.1627177,-1.6567261,-1.9198773,1.6746382,-1.0548679,-0.017437227,0.0879583,1.1645962,1.0724082
-0.1,0.0,1.4,0.5235987755982988,0.5235987755982988,0,-0.6600403,-1.2572355,1.0671108,-0.10830335,-0.14976011,1.0262924,-0.92347425,-1.9199755,1.6689163,-1.0668253,-0.1338296,0.032988228,1.0908139,-0.6921299
-0.1,0.0,1.4,0.5235987755982988,0.5235987755982988,0,-0.6592494,-1.2565376,1.0686125,-0.13694388,0.18480423,1.2550056,-0.23175922,-1.9180351,1.6729426,-1.0529364,-0.12940517,0.052006315,1.0330595,0.6986423
-0.1,0.0,1.4,0.5235987755982988,0.5235987755982988,0,-0.6603155,-1.2565601,1.0685287,-0.11541083,-0.16307159,1.2122507,-0.008843488,-1.9205447,1.6650797,-1.0776083,-0.09858297,0.20610434,1.1649783,0.3369218
-0.1,0.0,1.4,0.5235987755982988,0.5235987755982988,0,-0.6601355,-1.2560025,1.0704964,-0.13656113,-0.09278257,1.069384,-1.0749651,-1.9244043,1.6710889,-1.1084104,-0.12153293,0.18659918,1.0665298,0.13518822
-0.1,0.0,1.4,0.5235987755982988,0.5235987755982988,0,-0.65898746,-1.2563833,1.0689037,-0.12843812,-0.015324891,1.0785236,0.026974248,-1.919062,1.6805366,-0.9299123,-0.033064898,-0.044317007,1.0939887,0.2885378
-0.1,0.0,1.4,0.5235987755982988,0.5235987755982988,0,-0.66053605,-1.256435,1.0635097,-0.1384227,-0.061074764,1.1654987,0.4642761,-1.9209061,1.6743,-0.98276424,0.0015500464,0.01732822,1.1746866,0.041006207
-0.1,0.0,1.4,0.5235987755982988,0.5235987755982988,0,-0.6609759,-1.256121,1.0669751,-0.098126955,-0.12886907,1.1535381,0.0076165316,-1.9240814,1.6815861,-1.050897,-0.10186941,0.14018854,1.2449304,0.41883495
-0.1,0.0,1.4,0.5235987755982988,0.5235987755982988,0,-0.6625418,-1.2559456,1.0734949,-0.089560896,-0.19576366,0.92398566,0.0420308,-1.918993,1.6751187,-1.1876544,-0.11378596,0.21661648,1.1051531,0.4324501
-0.1,0.0,1.4,0.5235987755982988,0.5235987755982988,0,-0.6622238,-1.2552845,1.0707369,-0.09580163,-0.031190047,1.1819532,-1.0092512,-1.9167747,1.6653912,-1.0134121,-0.090081915,-0.012092393,1.144358,-0.56525445
-0.1,0.0,1.4,0.5235987755982988,0.5235987755982988,0,-0.66204435,-1.2557299,1.0630805,-0.13393159,-0.014271082,1.1217566,-0.27369517,-1.9166576,1.6712776,-0.9901436,0.0041957134,-0.027966777,1.0288213,0.52801204
-0.1,0.0,1.4,0.5235987755982988,0.5235987755982988,0,-0.6608838,-1.2557966,1.0667347,-0.10271663,-0.27759373,1.0067775,-0.8586997,-1.9150754,1.6563041,-1.1219993,-0.18785508,-0.06957344,1.1808885,1.120491
-0.1,0.0,1.4,0.5235987755982988,0.5235987755982988,0,-0.6607086,-1.2561017,1.0687768,-0.058775682,-0.17631394,1.0582792,-0.96975774,-1.9158596,1.665768,-1.1021936,-0.14437385,0.13740101,1.0213224,0.26082534
-0.1,0.0,1.4,0.5235987755982988,0.5235987755982988,0,-0.6612073,-1.2558795,1.0697603,-0.12921984,0.0034399664,1.051822,-0.50308716,-1.9226308,1.6875831,-1.0562147,-0.09212081,-0.2132781,1.0009743,0.59037626
-0.1,0.0,1.4,0.5235987755982988,0.5235987755982988,0,-0.66084504,-1.2564579,1.0719978,-0.13386576,0.16618703,1.2458538,0.31962502,-1.9144374,1.6756827,-0.8570586,-0.081311114,0.13911429,1.2956939,1.3538675
-0.1,0.0,1.4,0.5235987755982988,0.5235987755982988,0,-0.66054994,-1.2563796,1.069082,-0.093804754,0.06539757,1.2726985,-0.45636472,-1.914077,1.6868904,-1.0195458,-0.0015471551,0.016702952,0.9959232,0.33764893
-0.1,0.0,1.4,0.5235987755982988,0.5235987755982988,0,-0.66190755,-1.2562015,1.0734622,-0.106969506,-0.08982148,1.0223087,0.10088139,-1.9243252,1.6862735,-1.0403134,-0.08426895,-0.057277735,1.1676949,0.9044978
-0.1,0.0,1.4,0.5235987755982988,0.5235987755982988,0,-0.65946513,-1.2556045,1.0675452,-0.07172308,-0.17270486,1.2786576,-0.6575926,-1.9193641,1.6612302,-0.9740257,-0.11635854,0.05462224,0.95623165,-0.70502937
-0.1,0.0,1.4,0.5235987755982988,0.5235987755982988,0,-0.6628577,-1.2557889,1.0675017,-0.12422655,-0.08225291,1.0566205,-1.0108813,-1.9203289,1.6579568,-0.961898,-0.19553964,0.07738546,0.9856568,-0.9377687
-0.1,0.0,1.4,0.5235987755982988,0.5235987755982988,0,-0.6604192,-1.2557577,1.0682894,-0.05445362,-0.14220345,1.1655285,-0.51023805,-1.9174397,1.6740159,-0.834611,-0.10115632,0.24590254,1.1683172,0.7854673
-0.1,0.0,1.4,0.5235987755982988,0.5235987755982988,0,-0.66040087,-1.2547182,1.0629394,-0.105283484,0.024003502,1.073047,0.4617163,-1.9205875,1.685231,-0.9526765,-0.06202017,0.19775859,1.1284437,0.5555454
-0.1,0.0,1.4,0.5235987755982988,0.5235987755982988,0,-0.6621758,-1.255604,1.0659921,-0.06351299,-0.036909238,1.1927931,-0.29998073,-1.914114,1.6765002,-1.0960499,-0.17475165,0.06737904,1.2116982,-0.039979644
-0.1,0.0,1.4,0.5235987755982988,0.5235987755982988,0,-0.6603718,-1.2562234,1.063991,-0.06774526,-0.2547626,1.1710172,-0.35530242,-1.9231806,1.6638957,-0.9656825,-0.105788685,0.25765666,1.2592413,0.67891407
-0.1,0.0,1.4,0.5235987755982988,0.5235987755982988,0,-0.66124815,-1.255558,1.0704178,-0.14711568,0.020903748,1.1407585,0.49906757,-1.9203508,1.6760378,-1.0103757,-0.047173407,0.0805361,1.1684471,0.34966794
-0.1,0.0,1.4,0.5235987755982988,0.5235987755982988,0,-0.6597704,-1.2562569,1.0651116,-0.12793967,0.027147885,1.0286795,0.43485785,-1.9166466,1.6770536,-0.9113313,-0.08816548,0.17231967,1.3023026,0.3381388
-0.1,0.0,1.4,0.5235987755982988,0.5235987755982988,0,-0.66263527,-1.2557406,1.0643611,-0.085058756,-0.030577676,1.3636045,-0.29233462,-1.9194452,1.6724495,-0.9792764,0.017458819,0.056922883,1.144387,-0.06106541
-0.1,0.0,1.4,0.5235987755982988,0.5235987755982988,0,-0.6597449,-1.2559692,1.0656017,-0.076057434,0.28227326,0.93535894,0.13001333,-1.918592,1.6805332,-0.9824532,-0.020467743,0.007604181,0.90236485,1.3224146
-0.1,0.0,1.4,0.5235987755982988,0.5235987755982988,0,-0.6612178,-1.256238,1.0702457,-0.11475209,0.07522051,1.1472331,-0.6418184,-1.9191117,1.6761441,-0.98482597,-0.030540306,0.24284239,1.0819247,0.87071174
-0.1,0.0,1.4,0.5235987755982988,0.5235987755982988,0,-0.6605876,-1.2557614,1.0704541,-0.09689943,0.011040595,1.1645087,-0.21206015,-1.9221079,1.6742711,-1.0570433,-0.029359492,0.017162735,0.9553273,0.0065532974
-0.1,0.0,1.4,0.5235987755982988,0.5235987755982988,0,-0.6590937,-1.2566568,1.0735326,-0.13960771,-0.31544265,1.1554898,-0.10791718,-1.9200921,1.6795269,-1.1019181,-0.07688781,-0.068515375,1.1540235,0.5838443
-0.1,0.0,1.4,0.5235987755982988,0.5235987755982988,0,-0.65943736,-1.255897,1.068925,-0.10303624,-0.23790073,1.1379665,0.5211397,-1.9155995,1.6727316,-0.95984906,-0.037882246,-0.01546896,1.1103327,1.8413094
-0.1,0.0,1.4,0.5235987755982988,0.5235987755982988,0,-0.65892386,-1.2554911,1.0583755,-0.11766485,0.035704345,1.2661206,0.04802587,-1.9136806,1.6823003,-0.9272554,-0.09444593,0.16684468,1.1643572,0.6732082
-0.1,0.0,1.4,0.5235987755982988,0.5235987755982988,0,-0.66087717,-1.256276,1.0637385,-0.103066124,-0.12534454,1.2764094,0.981724,-1.9155673,1.6628969,-0.87734133,-0.112960525,-0.07055016,1.0221041,-0.22890495
-0.1,0.0,1.4,0.5235987755982988,0.5235987755982988,0,-0.6622041,-1.2569809,1.0704576,-0.1444478,0.0015574988,1.1782194,-1.4372683,-1.9167652,1.6569898,-1.0378351,-0.07200502,0.0018708332,1.0445569,0.20737755
-0.1,0.0,1.4,0.5235987755982988,0.5235987755982988,0,-0.66045517,-1.2560781,1.0703585,-0.07614509,-0.27355888,1.0824554,-0.101432934,-1.9172175,1.6790832,-1.1404217,-0.15346727,-0.048718795,1.0908861,1.3617755
-0.1,0.0,1.4,0.5235987755982988,0.5235987755982988,0,-0.65960646,-1.2560983,1.0703137,-0.15634927,-0.047222827,1.219624,-0.03682668,-1.919745,1.6716692,-0.9584586,-0.084831834,-0.042095616,1.1253934,0.34954706
-0.1,0.0,1.4,0.5235987755982988,0.5235987755982988,0,-0.66051364,-1.2571442,1.0711117,-0.103261374,-0.04448456,1.2508961,0.29510185,-1.9137305,1.6793612,-0.93757766,-0.11434555,-0.25659353,1.1236843,-1.0097125
-0.1,0.0,1.4,0.5235987755982988,0.5235987755982988,0,-0.660681,-1.2562981,1.0648843,-0.08421468,-0.12495948,1.1407032,-0.6808252,-1.918836,1.6710322,-0.8766361,-0.027619727,-0.19630691,0.99686384,0.7668999
-0.1,0.0,1.4,0.5235987755982988,0.5235987755982988,0,-0.66177857,-1.2565415,1.0707178,-0.07076772,-0.03066408,1.1866642,-0.5489423,-1.9194832,1.6698344,-0.9440198,-0.05703462,-0.1303674,1.0800225,1.5340358
-0.1,0.0,1.4,0.5235987755982988,0.5235987755982988,0,-0.66088945,-1.255411,1.0644405,-0.12067838,0.045104276,1.218658,-0.7507012,-1.9220848,1.6818258,-1.0849723,-0.058266185,0.17067045,0.96043724,0.8463807
-0.1,0.0,1.4,0.5235987755982988,0.5235987755982988,0,-0.65948194,-1.25623,1.0656252,-0.08479279,0.041379016,1.0893465,-0.8613058,-1.9188911,1.6707025,-0.96379155,-0.087978415,0.16649204,1.3116887,-0.74178946
-0.1,0.0,1.4,0.5235987755982988,0.5235987755982988,0,-0.6611558,-1.2560145,1.0652952,-0.15514457,-0.1613793,1.1354313,-0.23658401,-1.9196719,1.6744388,-1.1395432,-0.015235769,-0.08333103,1.2705858,-0.9296898
-0.1,0.0,1.4,0.5235987755982988,0.5235987755982988,0,-0.6588431,-1.2566923,1.0725008,-0.07788589,-0.28139296,1.1525513,-0.5122308,-1.9173648,1.679468,-0.96814096,-0.05508026,-0.010513936,1.0375104,0.53491265
-0.1,0.0,1.4,0.5235987755982988,0.5235987755982988,0,-0.65941036,-1.256071,1.0679706,-0.104914255,-0.036403723,1.2758582,-0.98996437,-1.9186819,1.6823453,-0.9194904,-0.08844728,-0.014290428,1.0120102,0.20437784
-0.1,0.0,1.4,0.5235987755982988,0.5235987755982988,0,-0.6614901,-1.2560558,1.0671328,-0.113256656,0.1682024,1.2237139,0.10449476,-1.9180262,1.6817825,-0.976151,-0.023752175,-0.047111154,1.2738688,-0.67197686
-0.1,0.0,1.4,0.5235987755982988,0.5235987755982988,0,-0.66106725,-1.2568519,1.0704228,-0.09003939,0.023973264,1.1455102,-0.6289229,-1.918174,1.687548,-0.90729517,-0.10179987,-0.06097569,1.1149869,0.1256882
-0.1,0.0,1.4,0.5235987755982988,0.5235987755982988,0,-0.6603651,-1.2557691,1.0688642,-0.12552471,0.1417161,1.1871822,0.26640946,-1.9176937,1.6733823,-1.0288397,-0.11729623,0.101945266,1.1765907,0.9661873
-0.1,0.0,1.4,0.5235987755982988,0.5235987755982988,0,-0.66217864,-1.2568933,1.0658405,-0.13384613,-0.006031113,1.229348,0.14620799,-1.9180833,1.66986,-1.1656787,-0.12629107,0.0016118264,1.0401437,0.24441704
-0.1,0.0,1.4,0.5235987755982988,0.5235987755982988,0,-0.65954036,-1.2558248,1.0656315,-0.124724135,0.0968984,1.0472896,0.17951657,-1.9176066,1.6862969,-1.036564,-0.08742301,0.048216067,1.1917709,0.9324239
-0.1,0.0,1.4,0.5235987755982988,0.5235987755982988,0,-0.6602327,-1.2560067,1.0645217,-0.11654867,-0.12001049,1.2884588,-0.7337466,-1.9196231,1.6703283,-0.9501988,-0.007416579,-0.11574572,1.1156048,0.40918815
-0.1,0.0,1.4,0.5235987755982988,0.5235987755982988,0,-0.6614793,-1.256042,1.0671717,-0.096932806,0.08763313,1.0617105,-0.7507276,-1.9226483,1.6723042,-1.0117698,-0.120169744,-0.026777467,1.2077451,-0.36929014
-0.1,0.0,1.4,0.5235987755982988,0.5235987755982988,0,-0.6604722,-1.2560825,1.070913,-0.11800326,0.18203548,1.2722722,-0.48753574,-1.9206326,1.6760226,-0.97424304,-0.07079223,0.044790495,1.0046171,0.0075201066
-0.1,0.0,1.4,0.5235987755982988,0.5235987755982988,0,-0.6608047,-1.2558792,1.0669284,-0.08894577,-0.0034580042,1.0763417,-0.92608744,-1.9225881,1.6709533,-1.0187273,-0.092057236,-0.06617701,1.191156,0.21481578
-0.1,0.0,1.4,0.5235987755982988,0.5235987755982988,0,-0.6612812,-1.2557318,1.0695275,-0.110870086,0.2361447,1.0725517,0.3183066,-1.9169153,1.6843983,-0.96944124,-0.11909321,0.14541925,1.0344156,0.2374854
-0.1,0.0,1.4,0.5235987755982988,0.5235987755982988,0,-0.6602371,-1.2561518,1.0661036,-0.11671707,-0.2582296,1.0591791,0.5162714,-1.9157163,1.6784519,-1.0005596,-0.12404942,0.06258259,1.0135711,1.1729088
-0.1,0.0,1.4,0.5235987755982988,0.5235987755982988,0,-0.66091454,-1.2559816,1.0676444,-0.09166656,0.12084675,1.3007483,-0.7973198,-1.9142787,1.6687529,-1.0012895,0.043941546,0.19568686,1.2663215,0.26087207
-0.1,0.0,1.4,0.5235987755982988,0.5235987755982988,0,-0.66091776,-1.256301,1.0703506,-0.12719353,-0.19162406,1.0632384,0.55433613,-1.9182374,1.6881759,-1.0238525,-0.061151683,-0.26478904,1.2243177,1.1289324
-0.1,0.0,1.4,0.5235987755982988,0.5235987755982988,0,-0.6596028,-1.2557877,1.0720022,-0.11184628,0.04391888,1.0299447,-0.49418136,-1.9217843,1.6803422,-1.0743356,-0.058756936,-0.15732646,1.0791434,0.95580095
-0.1,0.0,1.4,0.5235987755982988,0.5235987755982988,0,-0.6618905,-1.2556803,1.0678675,-0.092936836,0.08079743,1.1019925,0.12713748,-1.9146985,1.6786624,-1.0031402,-0.08300362,-0.059196915,1.1212555,0.94885373
-0.1,0.0,1.4,0.5235987755982988,0.5235987755982988,0,-0.6622277,-1.2562864,1.0675657,-0.077179044,-0.038527496,1.1409028,0.5682032,-1.9197072,1.6779064,-1.0381579,-0.21791519,0.14278236,1.1592078,0.32748818
-0.1,0.0,1.4,0.5235987755982988,0.5235987755982988,0,-0.6591476,-1.2555273,1.0662822,-0.10979096,0.21177839,0.96968603,0.33576557,-1.9175665,1.675135,-0.928464,-0.123916194,0.090704,1.1004229,0.4113285
-0.1,0.0,1.4,0.5235987755982988,0.5235987755982988,0,-0.6587668,-1.2561053,1.0652243,-0.10089392,-0.09650551,1.1324329,0.3267596,-1.9134858,1.6665351,-0.96037877,-0.004379966,-0.010815881,1.2484213,0.791175
-0.1,0.0,1.4,0.5235987755982988,0.5235987755982988,0,-0.66067415,-1.2561795,1.0702659,-0.13739784,0.07140363,1.2562623,-1.251899,-1.9154999,1.6643397,-1.0565841,0.0040608626,0.13487433,1.305257,0.7586805
-0.1,0.0,1.4,0.5235987755982988,0.5235987755982988,0,-0.6606799,-1.2554258,1.0641724,-0.09515444,-0.1617015,1.074853,-0.63494706,-1.9195573,1.6792734,-1.0977708,-0.124824576,0.015215893,1.2207836,-0.64882
-0.1,0.0,1.4,0.5235987755982988,0.5235987755982988,0,-0.658848,-1.2559342,1.0734749,-0.16127053,0.007587558,1.2243313,-0.19296311,-1.9196947,1.6808677,-1.0474291,-0.110765606,0.010068922,0.9879222,0.89831364
