sanky1234/BimanualDexCatch/isaacgymenvs/cem_results/football_pose_-0.2_-0.2_0.7999999999999999_-0.5235987755982988_0.0_0_2025-05-24.csv
x,y,z,roll,pitch,yaw,robot1/joint1,robot1/joint2,robot1/joint3,robot1/joint4,robot1/joint5,robot1/joint6,robot1/joint7,robot2/joint1,robot2/joint2,robot2/joint3,robot2/joint4,robot2/joint5,robot2/joint6,robot2/joint7
-0.2,-0.2,0.7999999999999999,-0.5235987755982988,0.0,0,0.48509648,1.2269572,0.09177286,-0.057911284,-0.09451533,1.1952306,1.3726318,-0.6772485,0.93748283,-0.74855036,-0.086457685,-0.020581605,1.0887761,0.30950344
-0.2,-0.2,0.7999999999999999,-0.5235987755982988,0.0,0,0.75033045,1.2607557,-0.09736075,-0.06348114,0.21246494,1.2961107,1.5177023,-0.6782015,0.93756855,-0.7470481,-0.086235784,0.07628924,1.0830965,0.8049468
-0.2,-0.2,0.7999999999999999,-0.5235987755982988,0.0,0,-0.038652588,1.3786424,-0.03033445,-0.062541075,0.01649778,1.2636113,1.267702,-0.6778852,0.93845135,-0.7494827,-0.08834576,-0.00807907,1.1001124,-0.07251599
-0.2,-0.2,0.7999999999999999,-0.5235987755982988,0.0,0,0.122121565,1.2156186,-0.08248953,-0.06655283,-0.14492202,1.2869718,-0.21065128,-0.6774564,0.9366815,-0.745405,-0.08574684,0.011133333,1.0899026,0.09251186
-0.2,-0.2,0.7999999999999999,-0.5235987755982988,0.0,0,0.5925067,1.3034973,0.05394905,-0.042584877,-0.02619486,1.3085444,0.21373162,-0.6763774,0.9363711,-0.7463778,-0.08452913,-0.008819137,1.079027,0.28952032
-0.2,-0.2,0.7999999999999999,-0.5235987755982988,0.0,0,-0.18562602,1.226575,0.05667428,-0.037355848,0.18166384,1.3558719,0.9690701,-0.6787022,0.93718404,-0.7471973,-0.08709151,0.046299975,1.098537,0.05116523
-0.2,-0.2,0.7999999999999999,-0.5235987755982988,0.0,0,0.0043785134,1.1808002,0.015623492,-0.035657223,-0.022574482,1.2371492,-0.587293,-0.6771002,0.9364201,-0.7492738,-0.08494165,0.0651082,1.0917013,-0.19967648
-0.2,-0.2,0.7999999999999999,-0.5235987755982988,0.0,0,0.14690126,1.3613684,-0.07202542,-0.07177768,0.056428075,1.2621894,-0.20021133,-0.6772185,0.9358389,-0.748266,-0.08462996,-0.021412272,1.1088592,-0.16252336
-0.2,-0.2,0.7999999999999999,-0.5235987755982988,0.0,0,0.27777904,1.2524769,0.051013067,-0.05777231,0.049404923,1.2652715,-0.09437209,-0.6772322,0.9371657,-0.75019413,-0.08616948,0.069450416,1.0930737,-1.0452579
-0.2,-0.2,0.7999999999999999,-0.5235987755982988,0.0,0,0.9080262,1.320247,-0.0866414,-0.100867,-0.09966275,1.25307,1.4234102,-0.677955,0.93570125,-0.7475002,-0.08500614,0.020983523,1.0904772,0.43766162
-0.2,-0.2,0.7999999999999999,-0.5235987755982988,0.0,0,0.4085786,1.2764227,0.07949211,-0.061341774,-0.075393036,1.2915294,0.771408,-0.679165,0.93655574,-0.7461811,-0.0868203,-0.010927276,1.0872592,-0.28446814
-0.2,-0.2,0.7999999999999999,-0.5235987755982988,0.0,0,0.44620287,1.1723578,-0.040852644,-0.05422984,0.101018585,1.2563447,0.6588831,-0.6774652,0.93594265,-0.7479591,-0.08444355,0.0964192,1.0894116,0.12261031
-0.2,-0.2,0.7999999999999999,-0.5235987755982988,0.0,0,-0.20670174,1.2516129,0.1567689,-0.03582936,0.10344125,1.274263,0.9271494,-0.6792696,0.93741816,-0.7468874,-0.087720536,-0.03481662,1.095912,0.09457349
-0.2,-0.2,0.7999999999999999,-0.5235987755982988,0.0,0,-0.34248552,1.2325675,0.026398035,-0.08707897,-0.10053575,1.215778,-0.37380424,-0.6764184,0.9399695,-0.7471967,-0.08533897,0.07324017,1.092078,-0.66662115
-0.2,-0.2,0.7999999999999999,-0.5235987755982988,0.0,0,-0.002222936,1.1511528,0.0034086632,-0.04890854,0.09454657,1.28372,-0.5626587,-0.67698586,0.93879724,-0.7488728,-0.08754183,0.034041584,1.0914418,0.17044114
-0.2,-0.2,0.7999999999999999,-0.5235987755982988,0.0,0,0.28866643,1.3922585,0.12979609,-0.052841906,0.033632375,1.2358829,0.5159432,-0.6777667,0.9352585,-0.74550086,-0.083870254,0.074680306,1.094093,-0.45070985
-0.2,-0.2,0.7999999999999999,-0.5235987755982988,0.0,0,0.23860739,1.3374095,0.037911814,-0.08336021,0.16638058,1.1936011,0.5580949,-0.6788757,0.93933475,-0.7452652,-0.08703206,0.017975586,1.0674556,0.38225088
-0.2,-0.2,0.7999999999999999,-0.5235987755982988,0.0,0,-0.1947483,1.2774211,0.1433319,-0.027563555,-0.20398934,1.3034748,0.3002715,-0.67709935,0.9376123,-0.7508543,-0.08589057,-0.044190295,1.0825771,0.08885148
-0.2,-0.2,0.7999999999999999,-0.5235987755982988,0.0,0,0.24682309,1.2909495,0.021955263,-0.019045739,0.17937349,1.3129396,-0.5248154,-0.6757323,0.9373545,-0.74978566,-0.08464313,0.047436807,1.0838624,-0.2962327
-0.2,-0.2,0.7999999999999999,-0.5235987755982988,0.0,0,0.0761497,1.1836592,0.12827313,-0.08743256,-0.12120485,1.2513176,-0.52685213,-0.67593795,0.9364057,-0.7454477,-0.083504565,-0.009326117,1.0934049,-0.28665394
-0.2,-0.2,0.7999999999999999,-0.5235987755982988,0.0,0,-0.028755419,1.308792,-0.02646116,-0.04972824,-0.0676026,1.2611005,0.62093234,-0.6785559,0.9363459,-0.7474083,-0.085900635,0.050588552,1.0994474,-0.40739003
-0.2,-0.2,0.7999999999999999,-0.5235987755982988,0.0,0,-0.06182515,1.2915646,0.091460146,-0.08577687,0.091339305,1.19137,0.5867732,-0.6777083,0.9367889,-0.74869776,-0.0850772,-0.113391496,1.1060832,-0.36084044
-0.2,-0.2,0.7999999999999999,-0.5235987755982988,0.0,0,0.117068246,1.2144641,-0.055581965,-0.04936469,-0.06015513,1.282825,0.5781485,-0.67786497,0.9371464,-0.74783695,-0.08605379,0.047637407,1.0921443,0.3448293
-0.2,-0.2,0.7999999999999999,-0.5235987755982988,0.0,0,0.2802677,1.1577789,-0.08056807,-0.00065963174,-0.05557493,1.2486917,0.5827812,-0.67570424,0.9364363,-0.7483888,-0.08290019,-0.0022112126,1.0932425,0.24501124
-0.2,-0.2,0.7999999999999999,-0.5235987755982988,0.0,0,0.6149866,1.2870092,0.06518283,-0.0569025,-0.05432031,1.2929087,-0.7185058,-0.6773801,0.93620735,-0.7475516,-0.08467829,0.07091744,1.1084003,-0.14161056
-0.2,-0.2,0.7999999999999999,-0.5235987755982988,0.0,0,0.79839027,1.2660128,-0.10830348,-0.07990075,0.03596364,1.2663503,0.10802191,-0.6765926,0.93648493,-0.7464394,-0.08427655,0.007828824,1.0826479,-0.55546385
-0.2,-0.2,0.7999999999999999,-0.5235987755982988,0.0,0,0.83688694,1.188285,-0.15812235,-0.04535111,0.16511256,1.2598586,-0.44299394,-0.67548263,0.9367558,-0.748579,-0.08337868,0.021298515,1.0831586,-0.9697216
-0.2,-0.2,0.7999999999999999,-0.5235987755982988,0.0,0,0.38970086,1.2836636,-0.1399154,-0.041433677,0.1607557,1.2029386,-0.038108617,-0.67787915,0.937717,-0.749085,-0.08635385,-0.093523525,1.0820649,-0.13577695
-0.2,-0.2,0.7999999999999999,-0.5235987755982988,0.0,0,0.32288033,1.2757751,0.061242983,-0.03977592,0.035489287,1.2473994,0.22085762,-0.67771053,0.93625927,-0.74752337,-0.084962055,0.017939912,1.0974554,-0.50449044
-0.2,-0.2,0.7999999999999999,-0.5235987755982988,0.0,0,0.20480207,1.2559512,0.05734812,-0.07664235,0.073884994,1.34116,-0.2656358,-0.67817444,0.9364409,-0.74518883,-0.08542497,0.009184575,1.0922321,-0.23723756
-0.2,-0.2,0.7999999999999999,-0.5235987755982988,0.0,0,0.30917746,1.2980171,0.06122615,-0.078754246,0.13935734,1.2035604,0.07879247,-0.67777944,0.9363747,-0.74804884,-0.08480963,-0.018933946,1.0742912,0.3623921
-0.2,-0.2,0.7999999999999999,-0.5235987755982988,0.0,0,0.22491474,1.3308116,0.06433684,-0.060440313,0.18906523,1.2409251,0.9468292,-0.67885387,0.9368569,-0.7474757,-0.08607517,-0.025438542,1.0797015,-0.13015535
-0.2,-0.2,0.7999999999999999,-0.5235987755982988,0.0,0,-0.44587144,1.2288389,-0.030174455,-0.07182604,0.06090923,1.2567213,1.0952727,-0.6757016,0.9359831,-0.7440487,-0.08633231,0.0032890602,1.0818,-0.5096237
-0.2,-0.2,0.7999999999999999,-0.5235987755982988,0.0,0,-0.009861473,1.3031193,-0.10146464,-0.048260447,-0.14559083,1.2458782,0.24977592,-0.6789534,0.9383934,-0.74441326,-0.08701159,0.08271055,1.0978626,0.25005198
-0.2,-0.2,0.7999999999999999,-0.5235987755982988,0.0,0,-0.21517171,1.1883006,-0.110454,-0.029784037,-0.06143116,1.2944423,0.863489,-0.6773714,0.9367342,-0.74759644,-0.08471536,0.018652245,1.101471,1.1478139
-0.2,-0.2,0.7999999999999999,-0.5235987755982988,0.0,0,-0.07089985,1.2941693,0.09492533,-0.08540251,-0.066058,1.2224634,-0.6261001,-0.6791612,0.9364942,-0.7478744,-0.086135976,0.013212486,1.0956523,-0.07793699
-0.2,-0.2,0.7999999999999999,-0.5235987755982988,0.0,0,0.6592962,1.2658811,-0.0678953,-0.01875963,0.065490596,1.3067468,-0.50905484,-0.67689174,0.93873626,-0.74741197,-0.08677442,0.017760597,1.0837688,0.09728888
-0.2,-0.2,0.7999999999999999,-0.5235987755982988,0.0,0,-0.3540095,1.2995826,0.0049894797,-0.061190028,0.096523896,1.28285,0.033665534,-0.6782678,0.9355933,-0.74675095,-0.08429035,-0.0033015616,1.0782466,-0.41389856
-0.2,-0.2,0.7999999999999999,-0.5235987755982988,0.0,0,0.28385174,1.3488537,-0.02410871,-0.040735044,-0.19262074,1.2529559,0.8511021,-0.6756995,0.93751895,-0.74799216,-0.08422355,-0.016922344,1.0869248,0.25844324
-0.2,-0.2,0.7999999999999999,-0.5235987755982988,0.0,0,0.057870027,1.2270927,-0.04336813,-0.054328956,-0.099866055,1.270836,0.56934196,-0.67759424,0.9367609,-0.74731654,-0.085086584,-0.047386456,1.1022972,0.2410724
-0.2,-0.2,0.7999999999999999,-0.5235987755982988,0.0,0,0.15692638,1.3162892,-0.07176637,-0.038533565,-0.18378495,1.2478182,1.5145309,-0.6761108,0.9386739,-0.74764186,-0.0859648,-0.052847493,1.0971208,-0.422396
-0.2,-0.2,0.7999999999999999,-0.5235987755982988,0.0,0,0.21579604,1.3366855,-0.030549526,-0.05336793,0.09195367,1.2696095,-0.36622435,-0.67740506,0.9364457,-0.7461853,-0.0846602,0.022337444,1.1031332,-0.25572735
-0.2,-0.2,0.7999999999999999,-0.5235987755982988,0.0,0,0.23316558,1.3232963,0.12046932,-0.04266631,-0.0975487,1.2755998,0.64018446,-0.6770911,0.93746644,-0.7484916,-0.08544502,0.042882062,1.1037219,-0.34705356
-0.2,-0.2,0.7999999999999999,-0.5235987755982988,0.0,0,0.45953083,1.2675222,-0.03825133,-0.09729457,0.16323517,1.2723068,1.240163,-0.67850065,0.93773276,-0.7486569,-0.08547438,0.016845686,1.0725927,0.5856245
-0.2,-0.2,0.7999999999999999,-0.5235987755982988,0.0,0,0.3762655,1.268569,-0.048055563,-0.042593718,0.019157339,1.1946189,0.08252206,-0.677933,0.93676716,-0.7464392,-0.0848699,0.121353604,1.0705844,-1.1129886
-0.2,-0.2,0.7999999999999999,-0.5235987755982988,0.0,0,0.11583384,1.3236914,-0.09133715,-0.06585884,0.14472577,1.2367119,1.0569108,-0.6793055,0.93800545,-0.7454238,-0.08638135,0.01858481,1.0889398,-0.18510321
-0.2,-0.2,0.7999999999999999,-0.5235987755982988,0.0,0,0.478333,1.2492789,-0.07861873,-0.054967124,0.12667139,1.2464867,1.3380314,-0.6766563,0.9390753,-0.74526644,-0.08669298,0.04888989,1.070512,0.9011659
-0.2,-0.2,0.7999999999999999,-0.5235987755982988,0.0,0,0.20065683,1.3286713,0.11675304,-0.08460711,0.06603718,1.249689,1.008023,-0.67764014,0.9381691,-0.7468159,-0.08532511,0.036970474,1.0794401,1.0686435
-0.2,-0.2,0.7999999999999999,-0.5235987755982988,0.0,0,0.210764,1.2707326,-0.124889776,-0.062000774,0.09662859,1.3495265,0.03529646,-0.6767832,0.9370748,-0.7494435,-0.08419929,0.033184983,1.0809114,0.40796947
-0.2,-0.2,0.7999999999999999,-0.5235987755982988,0.0,0,0.9022876,1.2789062,0.019147761,-0.045902546,0.068319574,1.325315,-0.22905576,-0.676106,0.93948436,-0.75043184,-0.084166445,-0.0067864875,1.0818456,-0.45787638
-0.2,-0.2,0.7999999999999999,-0.5235987755982988,0.0,0,-0.102132194,1.2958091,-0.1078681,-0.07578256,-0.004074202,1.2677158,0.5125004,-0.67766464,0.9369035,-0.7498043,-0.08485514,-0.0049825856,1.0794067,0.92200863
-0.2,-0.2,0.7999999999999999,-0.5235987755982988,0.0,0,0.116676144,1.3194464,-0.03724518,-0.06318646,-0.055270247,1.3062674,-1.5852121,-0.6759417,0.9397298,-0.7463225,-0.08680601,0.051738862,1.0838717,0.4031309
-0.2,-0.2,0.7999999999999999,-0.5235987755982988,0.0,0,0.7277649,1.2829216,0.08719756,-0.039501928,-0.031493064,1.2634242,0.51755834,-0.6784718,0.9373422,-0.7476107,-0.08565398,0.013841566,1.0751157,-0.38266248
-0.2,-0.2,0.7999999999999999,-0.5235987755982988,0.0,0,-0.12657472,1.2713742,-0.03478855,-0.057619702,-0.059832297,1.2275537,-0.06180248,-0.67713815,0.9366448,-0.75009185,-0.08401464,-0.08587516,1.0885125,-0.4932303
-0.2,-0.2,0.7999999999999999,-0.5235987755982988,0.0,0,-0.039736293,1.3434873,0.018879373,-0.07439735,-0.08161336,1.2688599,0.403514,-0.67841405,0.93608654,-0.74645203,-0.08424825,0.024305765,1.0810736,-0.25301772
-0.2,-0.2,0.7999999999999999,-0.5235987755982988,0.0,0,0.26653734,1.2301506,0.17054264,-0.06651327,0.018021706,1.2349871,-0.23207515,-0.67612404,0.9386137,-0.7493321,-0.08548383,0.034649286,1.0973268,0.6745702
-0.2,-0.2,0.7999999999999999,-0.5235987755982988,0.0,0,0.27692854,1.2307497,0.12068068,-0.051759977,0.16330878,1.2035885,0.079795524,-0.6780016,0.93716484,-0.7463512,-0.084724665,-0.08863751,1.0880334,0.18916392
-0.2,-0.2,0.7999999999999999,-0.5235987755982988,0.0,0,-0.08065054,1.2610513,0.13675117,-0.066123046,-0.24139304,1.2706668,-0.3785841,-0.67815286,0.93685097,-0.7471978,-0.08465499,-0.02960474,1.0937996,-0.11497216
-0.2,-0.2,0.7999999999999999,-0.5235987755982988,0.0,0,0.2498,1.1626475,0.025805717,-0.07123021,0.20786244,1.2256922,0.62347436,-0.6791291,0.9389702,-0.74029225,-0.08669926,0.013233204,1.1032114,-0.5971649
-0.2,-0.2,0.7999999999999999,-0.5235987755982988,0.0,0,0.26353794,1.2987646,-0.16938314,-0.06938855,-0.0932544,1.2523701,1.8158978,-0.678121,0.9363138,-0.74667007,-0.084138125,-0.011072206,1.0964625,-1.0005252
-0.2,-0.2,0.7999999999999999,-0.5235987755982988,0.0,0,-0.060283557,1.1762375,0.076693825,-0.0846907,-0.04875025,1.2447292,0.6300896,-0.6766744,0.9396816,-0.74916804,-0.086451285,-0.04415523,1.0651892,-0.28986597
-0.2,-0.2,0.7999999999999999,-0.5235987755982988,0.0,0,0.4165339,1.2161813,0.0127132395,-0.03923571,0.15106748,1.2552037,0.9826511,-0.67599046,0.93703705,-0.7485714,-0.08318753,0.042480484,1.0823779,-0.16144408
-0.2,-0.2,0.7999999999999999,-0.5235987755982988,0.0,0,0.067461,1.318909,-0.082763866,-0.04695341,0.027576743,1.3307196,1.445001,-0.67724353,0.93764865,-0.74741316,-0.08488284,-0.0135831935,1.0983204,0.5850307
-0.2,-0.2,0.7999999999999999,-0.5235987755982988,0.0,0,0.78781825,1.2106084,0.048264064,-0.084504426,-0.09777217,1.2468578,0.684292,-0.6769411,0.93757033,-0.7451213,-0.08456575,-0.012602826,1.0912323,-0.40570763
-0.2,-0.2,0.7999999999999999,-0.5235987755982988,0.0,0,0.09551723,1.3166761,0.032688852,-0.07284883,0.029094635,1.3314447,0.115852915,-0.6774706,0.93856937,-0.74566823,-0.08579942,-0.006760613,1.0658123,-0.36787167
-0.2,-0.2,0.7999999999999999,-0.5235987755982988,0.0,0,-0.010771756,1.2894634,0.013010524,-0.07759302,0.044105526,1.2022597,-0.6928927,-0.67736113,0.93750054,-0.750156,-0.08468749,-0.0077345213,1.089445,-0.5532868
-0.2,-0.2,0.7999999999999999,-0.5235987755982988,0.0,0,0.6766137,1.3042271,-0.18109834,-0.032352846,-0.03551543,1.2428957,0.42684186,-0.6771881,0.9386714,-0.75084025,-0.08575654,0.015891349,1.0982643,-0.51935065
-0.2,-0.2,0.7999999999999999,-0.5235987755982988,0.0,0,0.5262409,1.2716434,0.12697573,-0.054022178,0.09342272,1.2871108,-0.27214184,-0.6784139,0.93714064,-0.7428373,-0.08513281,-0.03884447,1.086233,0.24919023
-0.2,-0.2,0.7999999999999999,-0.5235987755982988,0.0,0,0.60218775,1.333565,0.17007667,-0.07831029,-0.08762652,1.2311765,0.1152486,-0.67839724,0.93768847,-0.7465527,-0.08546849,-0.023925524,1.0880263,-0.5423317
-0.2,-0.2,0.7999999999999999,-0.5235987755982988,0.0,0,0.9032856,1.196903,0.13856998,-0.09268974,-0.22220857,1.2050223,-1.3563862,-0.67695785,0.93840027,-0.7455765,-0.08499657,0.03715013,1.0989988,0.10910771
-0.2,-0.2,0.7999999999999999,-0.5235987755982988,0.0,0,-0.038266964,1.161473,-0.09258993,-0.010762737,-0.13493982,1.2704518,-0.18050027,-0.67637515,0.9397329,-0.75066316,-0.085959546,-0.04085876,1.0886245,0.23841867
-0.2,-0.2,0.7999999999999999,-0.5235987755982988,0.0,0,0.13455404,1.1694793,0.16782705,-0.015363436,-0.03244726,1.3004079,-0.7879927,-0.676987,0.9381225,-0.7505191,-0.08442478,-0.022929426,1.0990833,-0.49382004
-0.2,-0.2,0.7999999999999999,-0.5235987755982988,0.0,0,-0.09688719,1.2395549,-0.08078019,-0.080557644,-0.024527451,1.2156154,0.2500431,-0.6766728,0.938448,-0.7463634,-0.08513391,0.00071447453,1.1005491,-0.37454122
-0.2,-0.2,0.7999999999999999,-0.5235987755982988,0.0,0,0.5493809,1.2755446,-0.01892662,-0.023220034,-0.081323706,1.2613084,1.057312,-0.67565995,0.93983555,-0.74500525,-0.08552813,0.070706606,1.081637,-0.45115557
-0.2,-0.2,0.7999999999999999,-0.5235987755982988,0.0,0,-0.44964218,1.1431305,-0.13667913,-0.057248306,0.02674702,1.3143256,1.1030403,-0.6746036,0.9403149,-0.75105345,-0.085155874,0.0018383662,1.084655,-0.07457516
-0.2,-0.2,0.7999999999999999,-0.5235987755982988,0.0,0,0.6745548,1.357617,0.034403626,-0.058508053,-0.045859847,1.264389,1.2778236,-0.67594206,0.93947685,-0.74868155,-0.08548216,0.00016458232,1.0870173,-0.059090618
-0.2,-0.2,0.7999999999999999,-0.5235987755982988,0.0,0,0.35581535,1.2072954,-0.14711817,-0.08657374,0.01576716,1.2707434,0.7905159,-0.6769993,0.9390536,-0.74674255,-0.08578136,0.051694784,1.0988805,-0.5193445
-0.2,-0.2,0.7999999999999999,-0.5235987755982988,0.0,0,0.44805238,1.2865132,0.08705713,-0.042066623,-0.06755727,1.2796911,1.6562461,-0.6763267,0.9415607,-0.7469679,-0.08810313,0.025971353,1.0914079,0.17392436
-0.2,-0.2,0.7999999999999999,-0.5235987755982988,0.0,0,-0.22142845,1.2968245,-0.001919617,-0.08707459,0.012115105,1.3184447,0.29724625,-0.6784136,0.9385036,-0.74840504,-0.08584737,0.00554667,1.0697858,0.11208347
-0.2,-0.2,0.7999999999999999,-0.5235987755982988,0.0,0,0.25916773,1.2997893,-0.015530544,-0.08936337,-0.2443494,1.2369943,-0.48290676,-0.6780584,0.93861735,-0.7505873,-0.085786894,0.016545817,1.1067495,0.028250305
-0.2,-0.2,0.7999999999999999,-0.5235987755982988,0.0,0,-0.34264994,1.1909424,0.08884791,-0.049743112,0.08033537,1.2867268,0.011678207,-0.67852145,0.93781245,-0.7435978,-0.08500578,0.049303517,1.0776805,0.40997803
-0.2,-0.2,0.7999999999999999,-0.5235987755982988,0.0,0,0.2056152,1.2779334,0.15350842,-0.07865233,-0.022222556,1.2906086,2.1979268,-0.67678225,0.9404847,-0.74724334,-0.08418223,0.04026287,1.0877268,0.2531009
-0.2,-0.2,0.7999999999999999,-0.5235987755982988,0.0,0,0.49354258,1.3329226,-0.061597325,-0.08739467,-0.022737375,1.3354566,1.2445016,-0.67568,0.932207,-0.7475193,-0.08619571,0.054761387,1.0944887,-0.8491978
-0.2,-0.2,0.7999999999999999,-0.5235987755982988,0.0,0,0.40657464,1.3076417,0.09865509,-0.07032117,-0.14551751,1.3070271,-0.3074567,-0.6778898,0.9338429,-0.75190806,-0.08697323,0.03798573,1.0833904,-0.21089642
-0.2,-0.2,0.7999999999999999,-0.5235987755982988,0.0,0,-0.32470584,1.3588507,-0.25399792,-0.041957147,0.018390393,1.2476914,1.0980558,-0.676367,0.93487436,-0.7551796,-0.08593878,0.08953668,1.0826925,0.5596155
-0.2,-0.2,0.7999999999999999,-0.5235987755982988,0.0,0,0.80305886,1.2429707,0.0016213151,-0.059505373,0.20101562,1.2847124,-0.4588639,-0.67559147,0.93658084,-0.75207275,-0.08866272,0.0004384778,1.0765007,-0.31727323
-0.2,-0.2,0.7999999999999999,-0.5235987755982988,0.0,0,0.17067227,1.270825,0.02829976,-0.052614648,-0.195145,1.3232147,-0.96877086,-0.67361534,0.9366883,-0.74993986,-0.08662675,-0.040548842,1.0749987,0.20585603
-0.2,-0.2,0.7999999999999999,-0.5235987755982988,0.0,0,0.35468778,1.3041474,0.022531154,-0.073127404,-0.14175576,1.3368483,0.18710881,-0.6759553,0.9379558,-0.7455791,-0.08502939,0.048848547,1.0842369,-0.475323
-0.2,-0.2,0.7999999999999999,-0.5235987755982988,0.0,0,-0.3880448,1.2283499,-0.0678881,-0.048256155,-0.09650164,1.2314022,0.73358953,-0.6764833,0.93515563,-0.74909985,-0.086612105,0.03551458,1.0842798,-0.1759934
-0.2,-0.2,0.7999999999999999,-0.5235987755982988,0.0,0,0.3125758,1.275891,-0.06652658,-0.06757313,0.17021658,1.299329,0.11947773,-0.6754474,0.9373055,-0.75374365,-0.086474925,0.007584863,1.0637982,0.04601009
-0.2,-0.2,0.7999999999999999,-0.5235987755982988,0.0,0,0.9499741,1.3066177,-0.13179268,-0.046757013,0.023092095,1.3081198,-0.6395693,-0.67546767,0.9365667,-0.7493052,-0.08625158,0.05208047,1.0921484,-0.07695626
-0.2,-0.2,0.7999999999999999,-0.5235987755982988,0.0,0,-0.10565319,1.2794287,-0.28078225,-0.04444847,0.016825907,1.2855121,1.482189,-0.6764996,0.93742234,-0.74775153,-0.08714361,-0.05527587,1.0808372,-0.30754226
-0.2,-0.2,0.7999999999999999,-0.5235987755982988,0.0,0,0.6311985,1.3937589,-0.043996204,-0.02728941,0.18745393,1.2582368,0.38169977,-0.6766394,0.93647027,-0.7465736,-0.085413724,0.007878949,1.1011996,0.03361535
-0.2,-0.2,0.7999999999999999,-0.5235987755982988,0.0,0,0.5416287,1.3356175,-0.0050384244,-0.076962024,-0.021464497,1.2916902,-0.24431838,-0.67779523,0.9352642,-0.74451387,-0.08477873,0.017423764,1.0835733,-0.26244578
-0.2,-0.2,0.7999999999999999,-0.5235987755982988,0.0,0,-0.11596427,1.2092972,0.13358828,-0.04865763,0.01926747,1.2881166,-0.43240008,-0.67957515,0.93717504,-0.7441962,-0.0864903,0.028758703,1.0885708,-0.048236705
-0.2,-0.2,0.7999999999999999,-0.5235987755982988,0.0,0,0.49436274,1.305369,-0.00063286297,-0.04038108,-0.011885924,1.3086376,0.8319838,-0.67738223,0.9384403,-0.7483037,-0.0871862,0.036319032,1.0848972,-0.76428646
-0.2,-0.2,0.7999999999999999,-0.5235987755982988,0.0,0,0.5990699,1.2494986,0.16550681,-0.039832845,0.1593954,1.2476399,0.96824604,-0.67831665,0.93692416,-0.7489492,-0.08476532,0.0140804965,1.0801669,-0.9714185
-0.2,-0.2,0.7999999999999999,-0.5235987755982988,0.0,0,0.61156267,1.3208464,-0.010323207,-0.061169963,-0.07917004,1.254692,0.21760419,-0.6780472,0.9380413,-0.74887455,-0.086987585,0.012036988,1.0876608,0.15023509
-0.2,-0.2,0.7999999999999999,-0.5235987755982988,0.0,0,-0.595815,1.2587972,0.02991323,-0.039363474,-0.12354271,1.3347421,-1.3385682,-0.6761066,0.93991274,-0.74399865,-0.087184586,0.008014068,1.0863078,0.016635653
-0.2,-0.2,0.7999999999999999,-0.5235987755982988,0.0,0,-0.21629211,1.2088803,0.047529675,-0.08890351,0.020707691,1.281628,-0.36067584,-0.68104297,0.9383048,-0.75196105,-0.086712204,0.059020158,1.0913384,-0.090999596
-0.2,-0.2,0.7999999999999999,-0.5235987755982988,0.0,0,0.042183593,1.3218966,-0.041213572,-0.05895768,-0.0075489767,1.2985959,1.6688675,-0.67781174,0.9305494,-0.74513,-0.086038575,0.043333776,1.0969907,0.41870838
-0.2,-0.2,0.7999999999999999,-0.5235987755982988,0.0,0,0.32609066,1.3796191,0.037022892,-0.032927632,0.03115256,1.2367492,-0.16337948,-0.6770622,0.93225074,-0.74779886,-0.08866902,0.0624883,1.1001581,0.09666903
-0.2,-0.2,0.7999999999999999,-0.5235987755982988,0.0,0,0.21982855,1.2494804,0.06270648,-0.022253536,0.16575992,1.2021841,-0.23256096,-0.67500365,0.9364382,-0.7490726,-0.08539521,-0.022283278,1.0758345,0.45607322
-0.2,-0.2,0.7999999999999999,-0.5235987755982988,0.0,0,0.8049591,1.2955558,0.008251898,-0.07365035,0.124448866,1.3166535,-0.40492204,-0.6776198,0.92955613,-0.7495418,-0.0890883,-0.015472543,1.0865451,-0.013642139
-0.2,-0.2,0.7999999999999999,-0.5235987755982988,0.0,0,0.06310698,1.3546764,-0.017523129,-0.05607028,0.061804846,1.2987506,-0.28249416,-0.67797714,0.9309442,-0.7504521,-0.08957865,0.061183345,1.09298,-0.10029985
-0.2,-0.2,0.7999999999999999,-0.5235987755982988,0.0,0,0.016453387,1.1957122,0.0391558,-0.058995664,-0.1343574,1.2983656,1.3789266,-0.67834103,0.9365009,-0.74496955,-0.08329545,0.016150149,1.104679,-0.10890298
-0.2,-0.2,0.7999999999999999,-0.5235987755982988,0.0,0,0.15771535,1.196767,-0.093886055,-0.10111048,0.01685109,1.2938799,0.514515,-0.6791341,0.93832743,-0.7480984,-0.08620445,-0.018454583,1.086693,-0.23245254
-0.2,-0.2,0.7999999999999999,-0.5235987755982988,0.0,0,0.07430054,1.2232499,-0.07255678,-0.07415021,0.13449332,1.2850903,1.3673692,-0.67891985,0.93709916,-0.74329007,-0.08611318,0.024560543,1.0904965,0.19379722
-0.2,-0.2,0.7999999999999999,-0.5235987755982988,0.0,0,0.41612536,1.302912,0.020265602,-0.06644229,-0.12981327,1.2732164,-0.11342148,-0.67999274,0.9356191,-0.74878424,-0.08646418,0.02213728,1.0675762,-0.20921203
-0.2,-0.2,0.7999999999999999,-0.5235987755982988,0.0,0,0.58263016,1.2833648,-0.2752948,-0.06001273,0.19038337,1.1961343,0.07829146,-0.6781223,0.9352494,-0.74782413,-0.08486701,-0.0068660015,1.0912495,0.52428085
-0.2,-0.2,0.7999999999999999,-0.5235987755982988,0.0,0,0.5756013,1.2707857,-0.052089356,-0.028370338,0.105366014,1.3095978,0.35131553,-0.6782361,0.9335199,-0.7469612,-0.085262984,-0.011208529,1.0804439,-0.092240736
-0.2,-0.2,0.7999999999999999,-0.5235987755982988,0.0,0,0.76144725,1.2027329,-0.041189272,-0.042205833,-0.07912086,1.2480963,-0.31809932,-0.6757782,0.93784165,-0.7504398,-0.08639412,-0.020302156,1.0656798,0.09478696
-0.2,-0.2,0.7999999999999999,-0.5235987755982988,0.0,0,-0.12979823,1.2990037,0.087571435,-0.067562744,0.099702984,1.2970325,0.5004447,-0.6782814,0.9324045,-0.74770606,-0.087422565,-0.034180205,1.074583,-0.45262676
-0.2,-0.2,0.7999999999999999,-0.5235987755982988,0.0,0,-0.10835757,1.2614896,0.09938314,-0.06330992,-0.034132257,1.27572,1.303857,-0.6767448,0.9317496,-0.75099725,-0.08427442,0.010909828,1.0590981,-0.8856565
-0.2,-0.2,0.7999999999999999,-0.5235987755982988,0.0,0,0.047342826,1.291074,0.06536085,-0.024654752,-0.047210924,1.2259828,-0.25023773,-0.67444104,0.9377399,-0.7475496,-0.08657594,-0.06130248,1.0862702,0.26528272
-0.2,-0.2,0.7999999999999999,-0.5235987755982988,0.0,0,0.3318449,1.1957757,-0.053649485,-0.06812559,-0.027003493,1.2728747,0.92231053,-0.6794906,0.9312312,-0.7452024,-0.08650599,0.041211,1.1002252,-0.019627038
-0.2,-0.2,0.7999999999999999,-0.5235987755982988,0.0,0,-0.3570762,1.1966354,-0.12444938,-0.0326816,-0.07703973,1.2264974,0.91369957,-0.6766328,0.9340208,-0.7477538,-0.0882882,-0.041181214,1.0903926,-0.21239114
-0.2,-0.2,0.7999999999999999,-0.5235987755982988,0.0,0,0.5790031,1.185575,0.16983254,-0.046151813,0.1437443,1.3125534,0.098134704,-0.6793857,0.9357619,-0.7436367,-0.085421205,0.06738639,1.0992212,-0.3443537
-0.2,-0.2,0.7999999999999999,-0.5235987755982988,0.0,0,0.42254686,1.2291853,-0.114204824,-0.08115642,0.2785491,1.2081537,-0.6840282,-0.6777191,0.9373447,-0.7465528,-0.08549524,0.0112596415,1.0878085,-0.07723417
-0.2,-0.2,0.7999999999999999,-0.5235987755982988,0.0,0,0.64295185,1.2224164,0.09860942,-0.011380923,0.019063246,1.3018041,0.9975371,-0.6785285,0.9352761,-0.74614024,-0.085826345,0.08149883,1.0972027,0.09235123
-0.2,-0.2,0.7999999999999999,-0.5235987755982988,0.0,0,-0.03758847,1.3045689,0.020382581,-0.018402064,-0.21365893,1.2198173,-0.1643753,-0.678675,0.9363749,-0.7468316,-0.08765445,0.008285507,1.0934778,0.27778187
-0.2,-0.2,0.7999999999999999,-0.5235987755982988,0.0,0,-0.34916332,1.1849136,-0.06706788,-0.060375594,-0.1919112,1.3387636,1.244504,-0.67863744,0.93748313,-0.7449024,-0.08586429,0.02228943,1.0844641,-0.53031254
-0.2,-0.2,0.7999999999999999,-0.5235987755982988,0.0,0,1.1908393,1.2377045,0.092748754,-0.018341659,0.060259227,1.2639364,-0.50318074,-0.6743817,0.9380746,-0.7433238,-0.08596979,-0.0076055336,1.0791544,0.07161277
-0.2,-0.2,0.7999999999999999,-0.5235987755982988,0.0,0,-0.19503243,1.2339388,-0.12100166,-0.03965645,-0.19954458,1.3196245,-0.13447411,-0.6775524,0.9357639,-0.7501277,-0.08604944,0.060014762,1.0723329,-0.8894758
-0.2,-0.2,0.7999999999999999,-0.5235987755982988,0.0,0,0.0961757,1.2485627,-0.087215826,-0.028594662,0.075263046,1.2617161,-1.1407174,-0.6789896,0.93393296,-0.7445846,-0.08638004,0.0685817,1.1030638,0.24838835
-0.2,-0.2,0.7999999999999999,-0.5235987755982988,0.0,0,-0.1557424,1.2199918,0.080564514,-0.052992035,0.04741621,1.3142617,1.5037032,-0.6780287,0.93446463,-0.7520786,-0.0873903,-0.07279511,1.0727746,-0.65703887
-0.2,-0.2,0.7999999999999999,-0.5235987755982988,0.0,0,0.2864599,1.2063175,-0.22711445,-0.072202906,-0.13876906,1.2659726,2.1066344,-0.67648643,0.9356776,-0.7457552,-0.08690171,0.062070545,1.094037,0.32108954
-0.2,-0.2,0.7999999999999999,-0.5235987755982988,0.0,0,0.1371664,1.3415078,-0.077469826,-0.046538267,-0.09218363,1.2816718,0.34960338,-0.6786831,0.93775266,-0.745161,-0.08679434,-0.041240804,1.0748765,-0.23499025
-0.2,-0.2,0.7999999999999999,-0.5235987755982988,0.0,0,0.51125526,1.30074,-0.017746381,-0.04461578,-0.14299892,1.290118,0.6128059,-0.6773502,0.9355666,-0.74883765,-0.0845311,-0.036754243,1.0834304,0.10759865
-0.2,-0.2,0.7999999999999999,-0.5235987755982988,0.0,0,0.093301676,1.3032354,0.08611954,-0.04588238,0.10728998,1.2644292,0.7090807,-0.6779541,0.93339336,-0.74530834,-0.08621998,0.107569814,1.0931963,-0.82275444
-0.2,-0.2,0.7999999999999999,-0.5235987755982988,0.0,0,0.6924574,1.2814449,0.030009903,-0.049716946,-0.18023744,1.3176436,0.038666032,-0.6770958,0.9329409,-0.7450905,-0.084709786,-0.037046984,1.0891814,-0.6710886
-0.2,-0.2,0.7999999999999999,-0.5235987755982988,0.0,0,0.20553376,1.212399,-0.070358925,-0.05916198,0.026788048,1.3393505,1.2866343,-0.67824554,0.93652666,-0.7443756,-0.08306792,0.042643998,1.0998565,0.29806253
-0.2,-0.2,0.7999999999999999,-0.5235987755982988,0.0,0,0.19019742,1.2491058,-0.04637481,-0.064602666,0.018468358,1.2636893,-0.56385887,-0.6794683,0.938657,-0.7442426,-0.08548305,-0.050930846,1.0951232,-0.25044566
-0.2,-0.2,0.7999999999999999,-0.5235987755982988,0.0,0,0.05559967,1.2530173,-0.1783827,-0.026528055,0.12919985,1.250369,0.7807936,-0.67902774,0.9374287,-0.7476942,-0.085277595,0.039770745,1.0824673,0.20698515
-0.2,-0.2,0.7999999999999999,-0.5235987755982988,0.0,0,0.12594251,1.24234,-0.04131332,-0.08036359,-0.09070552,1.2363281,0.63507164,-0.67804784,0.93680084,-0.7474279,-0.08671444,0.022523185,1.0897403,0.1387002
-0.2,-0.2,0.7999999999999999,-0.5235987755982988,0.0,0,-0.013258701,1.2410514,-0.12819844,-0.05045645,-0.12092181,1.2841134,-0.38474888,-0.6780226,0.9353353,-0.74488837,-0.0867966,0.039818376,1.1003507,-0.6104746
-0.2,-0.2,0.7999999999999999,-0.5235987755982988,0.0,0,0.45785272,1.290018,0.20690517,-0.051326342,0.016983455,1.1855612,0.72111887,-0.6761223,0.93410546,-0.7475873,-0.08623033,0.011381208,1.0880483,0.37921405
-0.2,-0.2,0.7999999999999999,-0.5235987755982988,0.0,0,0.49159548,1.2629635,0.07623883,-0.013474797,0.03870897,1.2266928,-1.0357214,-0.6805655,0.9368245,-0.7440095,-0.083697416,0.044323955,1.0938288,-0.115147464
-0.2,-0.2,0.7999999999999999,-0.5235987755982988,0.0,0,-0.16323674,1.2505872,0.018595042,-0.030813782,-0.032689363,1.2529421,0.34255177,-0.67854863,0.93415916,-0.74331486,-0.08479986,0.022811173,1.0987171,0.33648574
-0.2,-0.2,0.7999999999999999,-0.5235987755982988,0.0,0,0.2813945,1.2537127,0.13153191,-0.07906978,0.04749838,1.2763649,1.0651338,-0.67846566,0.93716776,-0.744919,-0.08726007,0.10799122,1.1018984,0.52548915
-0.2,-0.2,0.7999999999999999,-0.5235987755982988,0.0,0,-0.22916436,1.2572109,0.14579399,-0.060570654,-0.08342078,1.3077215,0.3982846,-0.67758894,0.9349201,-0.74212617,-0.08541666,-0.0010381074,1.0926894,-0.024617756
-0.2,-0.2,0.7999999999999999,-0.5235987755982988,0.0,0,0.26713192,1.2457252,-0.019750588,-0.039426684,-0.08861179,1.2629086,-0.3489704,-0.67641693,0.93445647,-0.75386244,-0.086069636,-0.009677699,1.077659,-0.8101763
-0.2,-0.2,0.7999999999999999,-0.5235987755982988,0.0,0,-0.21298479,1.2765965,0.12643735,-0.046913054,-0.037464764,1.306314,-1.0124874,-0.6777995,0.9347805,-0.747388,-0.08808505,0.038783222,1.0967883,-1.1139257
-0.2,-0.2,0.7999999999999999,-0.5235987755982988,0.0,0,0.5595814,1.2191024,0.12605697,-0.10370998,0.077495016,1.2728888,-0.66298026,-0.6771342,0.93448424,-0.74675626,-0.087353565,-0.031333342,1.0873487,0.19331369
-0.2,-0.2,0.7999999999999999,-0.5235987755982988,0.0,0,0.2957561,1.2262474,0.13438536,-0.061728943,0.10470893,1.2637275,1.2995048,-0.67759615,0.9337078,-0.7465226,-0.08716459,0.0021022696,1.094292,-0.3419793
-0.2,-0.2,0.7999999999999999,-0.5235987755982988,0.0,0,0.84823513,1.2987103,0.01007167,-0.08058669,-0.1289645,1.2287085,0.6806828,-0.6779705,0.9329721,-0.74445575,-0.08853019,0.032786883,1.0909703,0.015147441
-0.2,-0.2,0.7999999999999999,-0.5235987755982988,0.0,0,0.1424935,1.285765,-0.15203145,-0.057774052,-0.006770884,1.2401109,-0.26005664,-0.67668664,0.93367565,-0.75224274,-0.08806063,-0.015683008,1.0823529,0.09824688
-0.2,-0.2,0.7999999999999999,-0.5235987755982988,0.0,0,-0.07426555,1.2358294,0.07939896,-0.06113777,-0.08082701,1.2282902,-0.56646806,-0.677094,0.9319487,-0.749545,-0.0864386,-0.029247718,1.0792537,-0.16424815
-0.2,-0.2,0.7999999999999999,-0.5235987755982988,0.0,0,-0.22234288,1.239659,-0.0398917,-0.07229339,-0.13724789,1.2682142,0.45663616,-0.6790703,0.9331894,-0.747241,-0.087865174,-0.014696679,1.0942391,-0.82838094
-0.2,-0.2,0.7999999999999999,-0.5235987755982988,0.0,0,-0.18672672,1.194131,-0.09164002,-0.044118598,0.03876441,1.2734714,-0.34046897,-0.6755265,0.93719757,-0.7523688,-0.08795129,0.0727939,1.0670986,-0.38216612
-0.2,-0.2,0.7999999999999999,-0.5235987755982988,0.0,0,-0.40344113,1.2645036,0.011244983,-0.07642102,-0.011953931,1.2905122,-0.40354493,-0.6763782,0.9336074,-0.74736816,-0.087416545,-0.0053487197,1.0926324,0.18629178
-0.2,-0.2,0.7999999999999999,-0.5235987755982988,0.0,0,0.65206075,1.2265179,0.059796043,-0.088922895,-0.039716467,1.2808713,-0.44250613,-0.6759338,0.93334764,-0.75059116,-0.08588865,-0.08544109,1.0738795,-0.29613677
-0.2,-0.2,0.7999999999999999,-0.5235987755982988,0.0,0,0.047426917,1.274356,-0.019658381,-0.057489198,-0.04668532,1.3362887,0.30112857,-0.67718774,0.9306959,-0.7436449,-0.08586935,-0.00049387425,1.0989904,0.14300843
-0.2,-0.2,0.7999999999999999,-0.5235987755982988,0.0,0,0.088395424,1.282283,0.0702436,-0.040087763,-0.076614395,1.3181996,-0.62549245,-0.676589,0.9366811,-0.7479113,-0.08768191,0.023732567,1.0986019,0.43267453
-0.2,-0.2,0.7999999999999999,-0.5235987755982988,0.0,0,0.54253626,1.277377,0.037766278,-0.08549232,-0.08915547,1.3137859,2.6142805,-0.67700523,0.9321363,-0.7471106,-0.08792374,0.08346765,1.0844494,0.08328048
-0.2,-0.2,0.7999999999999999,-0.5235987755982988,0.0,0,0.40629444,1.3120989,0.045160186,-0.044522922,-0.23876147,1.2899494,0.2601216,-0.6739921,0.9339935,-0.7488066,-0.08664863,0.021502445,1.0732567,-0.7229953
-0.2,-0.2,0.7999999999999999,-0.5235987755982988,0.0,0,0.8170415,1.2494116,0.05508474,-0.04098116,0.116618015,1.2694219,-0.6148083,-0.6760918,0.9311567,-0.7425497,-0.08402257,0.026503786,1.1100453,0.09049857
-0.2,-0.2,0.7999999999999999,-0.5235987755982988,0.0,0,0.80013293,1.1750067,0.1322855,-0.019204114,0.21623768,1.2626796,0.556035,-0.67677677,0.93262583,-0.74798995,-0.08677525,0.03441632,1.0777254,1.1819481
-0.2,-0.2,0.7999999999999999,-0.5235987755982988,0.0,0,0.16365702,1.265328,0.09200397,-0.042751644,0.003259346,1.2463808,-0.488243,-0.6779063,0.9315482,-0.74213684,-0.087677896,0.0016083183,1.0968797,-0.7356829
-0.2,-0.2,0.7999999999999999,-0.5235987755982988,0.0,0,0.69935435,1.3588401,0.13938813,-0.09537501,0.05293877,1.2830933,-0.6538201,-0.6767093,0.9332603,-0.74444926,-0.087679535,0.008448838,1.0969087,-0.09121768
-0.2,-0.2,0.7999999999999999,-0.5235987755982988,0.0,0,0.44393,1.1992408,-0.072847076,-0.06718906,-0.06462962,1.2495424,-0.95821196,-0.67748606,0.9357383,-0.745494,-0.08732474,-0.037254136,1.0903021,-0.1713947
-0.2,-0.2,0.7999999999999999,-0.5235987755982988,0.0,0,0.2082305,1.25479,0.12574588,-0.034167092,0.053042103,1.2957643,1.3186759,-0.6785829,0.93407595,-0.74337023,-0.08589825,0.040266685,1.0853047,-0.21370894
-0.2,-0.2,0.7999999999999999,-0.5235987755982988,0.0,0,0.5604146,1.310571,0.059920892,-0.044731356,-0.02162449,1.2826791,0.014682807,-0.67593384,0.9333756,-0.7521707,-0.08776188,-0.06748488,1.0750253,0.37716857
-0.2,-0.2,0.7999999999999999,-0.5235987755982988,0.0,0,0.25833526,1.2115278,-0.08142334,-0.054538906,0.18611461,1.2483858,-0.07452317,-0.67383724,0.93308944,-0.7479353,-0.084782936,-0.019178944,1.0849179,0.049994603
-0.2,-0.2,0.7999999999999999,-0.5235987755982988,0.0,0,0.4477148,1.2649195,0.13916062,-0.05332446,0.07980412,1.2744944,-0.68744624,-0.6799143,0.93467563,-0.7526334,-0.08591354,0.021850137,1.0852526,-0.28102878
-0.2,-0.2,0.7999999999999999,-0.5235987755982988,0.0,0,-0.06741973,1.2481614,0.042475056,-0.06058997,-0.15539095,1.2716333,0.88486934,-0.6770911,0.9332265,-0.7484838,-0.08759127,-0.01309359,1.0899587,0.16178335
-0.2,-0.2,0.7999999999999999,-0.5235987755982988,0.0,0,-0.27755484,1.2609754,-0.025217436,-0.0407969,0.013537318,1.2946731,-0.3525925,-0.67860395,0.93318385,-0.7495975,-0.08837037,0.037829265,1.0903343,-0.2127825
-0.2,-0.2,0.7999999999999999,-0.5235987755982988,0.0,0,-0.6807663,1.2813209,0.05424697,-0.044372708,-0.07699631,1.2386408,-2.0178347,-0.67766416,0.9326634,-0.7462732,-0.08712428,0.015193714,1.0869565,-0.68080187
-0.2,-0.2,0.7999999999999999,-0.5235987755982988,0.0,0,0.5334745,1.1792024,-0.14847067,-0.044710834,0.04216076,1.2262764,0.7299567,-0.6778895,0.93359333,-0.74393255,-0.08621892,0.08110597,1.0998921,-0.14580612
-0.2,-0.2,0.7999999999999999,-0.5235987755982988,0.0,0,0.19995986,1.2803069,0.03702886,-0.06425812,0.051935393,1.2785243,0.24421068,-0.6790161,0.9323907,-0.7462964,-0.0874259,0.0015316522,1.0897821,-0.9398131
-0.2,-0.2,0.7999999999999999,-0.5235987755982988,0.0,0,0.1880859,1.2564492,0.028229905,-0.05158446,-0.02222759,1.2964365,1.205553,-0.6755152,0.9339011,-0.747672,-0.08723585,0.043165036,1.0871848,-0.15087783
-0.2,-0.2,0.7999999999999999,-0.5235987755982988,0.0,0,0.2030672,1.1679813,-0.032110907,-0.058121484,-0.09440156,1.2461023,0.031486765,-0.6777785,0.9336273,-0.74528867,-0.08808454,0.07470221,1.0827461,-0.7775848
-0.2,-0.2,0.7999999999999999,-0.5235987755982988,0.0,0,0.79898155,1.2268206,0.07725338,-0.0581375,0.045712333,1.2402829,0.38007516,-0.6777327,0.93098974,-0.7478185,-0.084969535,-0.03378658,1.0928802,0.0929602
-0.2,-0.2,0.7999999999999999,-0.5235987755982988,0.0,0,-0.22299056,1.2069274,-0.058812253,-0.057878662,-0.041812185,1.2104802,-0.3351312,-0.6778806,0.9346766,-0.7450466,-0.087191515,0.0129874265,1.0958866,-0.0067650727
-0.2,-0.2,0.7999999999999999,-0.5235987755982988,0.0,0,-0.36420065,1.3301404,-0.067719705,-0.036014013,-0.0039133327,1.2989997,0.46516997,-0.6767513,0.93442285,-0.7454539,-0.08841531,0.03228207,1.0776176,-0.43435723
-0.2,-0.2,0.7999999999999999,-0.5235987755982988,0.0,0,0.6555711,1.3243808,-0.12577093,-0.07000857,0.01758717,1.2319187,-0.096950695,-0.6779407,0.9332222,-0.74545103,-0.087939195,0.079392575,1.0935174,-0.23741876
-0.2,-0.2,0.7999999999999999,-0.5235987755982988,0.0,0,-0.20511603,1.3303565,0.2071537,-0.048801888,-0.14873388,1.1938181,1.0115999,-0.6757388,0.933494,-0.7485774,-0.08548575,0.017797848,1.0757064,-0.480383
-0.2,-0.2,0.7999999999999999,-0.5235987755982988,0.0,0,0.48370415,1.2389127,-0.1338423,-0.05803136,0.0068266494,1.3951209,0.30520996,-0.6793457,0.9331811,-0.74982685,-0.0872436,0.027999578,1.0936687,-0.7651646
-0.2,-0.2,0.7999999999999999,-0.5235987755982988,0.0,0,0.5837703,1.2775797,0.025168495,-0.05861593,-0.24907783,1.2499253,-0.57490283,-0.67685306,0.9351266,-0.74844134,-0.084883116,0.08078108,1.0706443,-0.41323966
-0.2,-0.2,0.7999999999999999,-0.5235987755982988,0.0,0,-0.032782316,1.2824485,-0.013847343,-0.07502522,0.23108764,1.2148802,0.19303524,-0.67871237,0.933083,-0.7466837,-0.0868931,-0.0011405819,1.0933496,-0.37619665
-0.2,-0.2,0.7999999999999999,-0.5235987755982988,0.0,0,0.8716322,1.3685738,0.12588237,-0.063699566,-0.2777938,1.340819,1.6370604,-0.6783181,0.93672115,-0.7466187,-0.08655066,0.009816327,1.0835626,-0.8008307
-0.2,-0.2,0.7999999999999999,-0.5235987755982988,0.0,0,0.27786863,1.2922393,-0.033393435,-0.027075376,-0.017570203,1.305802,0.65690833,-0.6773706,0.9328848,-0.744074,-0.08646587,-0.042130224,1.0891677,0.42365897
-0.2,-0.2,0.7999999999999999,-0.5235987755982988,0.0,0,0.03197978,1.2905701,0.039193522,-0.080785304,0.14017127,1.2461196,1.0468222,-0.67811304,0.93599117,-0.7467494,-0.08616483,-0.0015668158,1.096228,-0.23462689
-0.2,-0.2,0.7999999999999999,-0.5235987755982988,0.0,0,-0.079671375,1.3353057,-0.05043725,-0.032348324,-0.13318561,1.2934318,-0.4385014,-0.67699724,0.93362725,-0.7446655,-0.08677215,0.004660878,1.0932916,0.1881205
-0.2,-0.2,0.7999999999999999,-0.5235987755982988,0.0,0,-0.12488757,1.2003062,0.011490339,-0.047133047,0.067938454,1.2292352,0.04376262,-0.6768749,0.9351003,-0.7490079,-0.08494157,-0.042337995,1.0934278,-0.6277684
-0.2,-0.2,0.7999999999999999,-0.5235987755982988,0.0,0,0.040212844,1.3010526,-0.014429474,-0.048822865,0.055984136,1.2185277,0.54391253,-0.67754936,0.9373554,-0.7443056,-0.08906067,-0.029474327,1.09021,0.32316884
-0.2,-0.2,0.7999999999999999,-0.5235987755982988,0.0,0,-0.0060978923,1.2179205,0.061205808,-0.07881886,0.11062916,1.2942953,-1.3896207,-0.67633736,0.9347993,-0.748659,-0.08659211,0.019525772,1.0794152,-0.18875727
-0.2,-0.2,0.7999999999999999,-0.5235987755982988,0.0,0,0.5215837,1.359398,-0.099420406,-0.069750786,-0.14299783,1.1832031,1.0650824,-0.67653674,0.934942,-0.74409336,-0.08741716,0.026397688,1.0909555,-0.29611653
-0.2,-0.2,0.7999999999999999,-0.5235987755982988,0.0,0,0.11343172,1.2755969,-0.15459284,-0.0655115,0.08115067,1.2859933,0.04966934,-0.67559105,0.93573797,-0.749223,-0.08572089,0.05201926,1.0797704,0.46361572
-0.2,-0.2,0.7999999999999999,-0.5235987755982988,0.0,0,-0.6913003,1.2693031,0.010016971,-0.06924435,0.1370545,1.2635682,0.65377146,-0.67935973,0.9346853,-0.74819577,-0.08878553,0.018665968,1.0932462,-0.24163572
-0.2,-0.2,0.7999999999999999,-0.5235987755982988,0.0,0,0.3672595,1.2531283,-0.12071816,-0.080438316,-0.09207856,1.2820749,0.57157403,-0.67648095,0.93404055,-0.744667,-0.085374236,-0.10133843,1.0866942,0.06230693
-0.2,-0.2,0.7999999999999999,-0.5235987755982988,0.0,0,0.17949533,1.2046558,0.0034425072,-0.07639569,-0.08887568,1.2442615,0.12275625,-0.67602193,0.9371452,-0.7458843,-0.08739955,-0.026507538,1.1037942,0.67442554
-0.2,-0.2,0.7999999999999999,-0.5235987755982988,0.0,0,0.3353882,1.2571812,0.05954371,-0.055956986,-0.09569039,1.3123423,0.058756568,-0.6754786,0.93347406,-0.7466748,-0.083682805,-0.023206746,1.0903008,0.37652633
-0.2,-0.2,0.7999999999999999,-0.5235987755982988,0.0,0,0.6429689,1.3050538,0.04986457,-0.036410134,0.16930676,1.2700751,-0.4943595,-0.67689383,0.93394256,-0.74757445,-0.08593568,0.032671683,1.1065089,-0.4448295
-0.2,-0.2,0.7999999999999999,-0.5235987755982988,0.0,0,0.46638346,1.2967782,0.08129279,-0.04477513,-0.12200131,1.2630106,1.0832336,-0.6773925,0.9348137,-0.7425164,-0.08748042,0.04771615,1.1101712,0.037091188
-0.2,-0.2,0.7999999999999999,-0.5235987755982988,0.0,0,0.48173076,1.2928907,0.08449326,-0.06328021,0.14457378,1.2799189,-0.044425916,-0.67702854,0.9332925,-0.7422329,-0.08494263,0.057769254,1.0833783,-0.037402812
-0.2,-0.2,0.7999999999999999,-0.5235987755982988,0.0,0,0.48009554,1.336305,-0.0734518,-0.055891674,0.097002536,1.191181,0.75966203,-0.6790628,0.9348601,-0.7458407,-0.085421205,0.04341272,1.091499,-0.018178781
-0.2,-0.2,0.7999999999999999,-0.5235987755982988,0.0,0,-0.6244299,1.3109599,-0.15122,-0.055140734,0.032242488,1.2691517,-0.90038574,-0.67779756,0.9349017,-0.7478735,-0.085863575,-0.019665457,1.082293,0.56579465
-0.2,-0.2,0.7999999999999999,-0.5235987755982988,0.0,0,-0.0072259,1.1531512,0.19631155,-0.09133205,0.1684471,1.3207226,1.1627427,-0.6783984,0.9340637,-0.74581724,-0.08574437,-0.022571033,1.094399,-0.30831265
-0.2,-0.2,0.7999999999999999,-0.5235987755982988,0.0,0,0.2829932,1.3441163,0.11923262,-0.04752043,-0.018022781,1.2930022,-0.2588359,-0.67630476,0.9377036,-0.7474745,-0.08854841,-0.00020067394,1.0816417,-0.2278755
-0.2,-0.2,0.7999999999999999,-0.5235987755982988,0.0,0,0.5364618,1.2918733,0.18430962,-0.05591872,0.17406277,1.290619,1.1590824,-0.67805564,0.9393725,-0.7456994,-0.09058063,0.007923077,1.0826911,-0.11811598
-0.2,-0.2,0.7999999999999999,-0.5235987755982988,0.0,0,0.8116138,1.2475588,0.07387699,-0.021616584,0.059273202,1.2691087,0.24232708,-0.6735336,0.9376245,-0.74928445,-0.08509612,0.022125218,1.0933222,0.06466054
-0.2,-0.2,0.7999999999999999,-0.5235987755982988,0.0,0,0.49767134,1.2498796,-0.019643715,-0.0300027,0.042090606,1.2787277,0.86016977,-0.6766854,0.935345,-0.74525845,-0.08561571,0.0076894914,1.0768024,-0.8076816
-0.2,-0.2,0.7999999999999999,-0.5235987755982988,0.0,0,-0.10892491,1.3114371,0.030518549,-0.0764043,-0.23755439,1.3243908,0.40970856,-0.6759688,0.9356524,-0.7478932,-0.08533225,-0.025566509,1.0795164,-0.5868559
-0.2,-0.2,0.7999999999999999,-0.5235987755982988,0.0,0,-0.08072798,1.3120776,0.15346095,-0.054534957,-0.07202159,1.3395221,-0.3149184,-0.67773986,0.93527144,-0.7446058,-0.08609901,0.031889245,1.1087252,-0.38523194
-0.2,-0.2,0.7999999999999999,-0.5235987755982988,0.0,0,-0.30436885,1.3184755,0.068998665,-0.008122397,0.048637316,1.3391123,0.7041108,-0.67669314,0.93940675,-0.7451649,-0.08572629,-0.09420902,1.0824671,-0.32311505
-0.2,-0.2,0.7999999999999999,-0.5235987755982988,0.0,0,0.11766955,1.353691,0.03673957,-0.03974206,-0.32599533,1.2911242,-1.0130186,-0.6772344,0.936635,-0.7443678,-0.08552649,-0.06810026,1.0866767,-0.3819108
-0.2,-0.2,0.7999999999999999,-0.5235987755982988,0.0,0,0.48566428,1.2204508,-0.0060954774,-0.057343923,0.22314836,1.3075103,0.27415618,-0.676359,0.93580765,-0.7482928,-0.085375465,0.01908594,1.0979911,-0.045891378
-0.2,-0.2,0.7999999999999999,-0.5235987755982988,0.0,0,0.33392623,1.2195203,-0.041605208,-0.0322171,-0.19650348,1.2773261,0.48031557,-0.6794481,0.9338146,-0.7433999,-0.08523916,0.023541637,1.0948555,-0.20446704
-0.2,-0.2,0.7999999999999999,-0.5235987755982988,0.0,0,0.7697481,1.3936006,-0.0011115101,-0.025166487,-0.04797995,1.3312316,0.46441445,-0.6793848,0.93614817,-0.74416447,-0.08493521,-0.023859618,1.0952778,0.3915777
-0.2,-0.2,0.7999999999999999,-0.5235987755982988,0.0,0,-0.85799,1.2258303,-0.07836305,-0.08546487,0.10053065,1.3434488,0.14544074,-0.67753047,0.93496025,-0.7461841,-0.08503916,-0.06635104,1.095811,-0.34304917
-0.2,-0.2,0.7999999999999999,-0.5235987755982988,0.0,0,0.014001205,1.2370598,-0.010776622,-0.08116349,-0.09678208,1.2788482,-0.011237891,-0.6772502,0.93559015,-0.74630755,-0.085684925,0.060339436,1.0858735,-0.46815673
-0.2,-0.2,0.7999999999999999,-0.5235987755982988,0.0,0,-0.028263012,1.2877127,-0.031964228,-0.045660753,-0.0051120194,1.2758667,-0.30560654,-0.67872286,0.93442625,-0.7409238,-0.085270315,0.033928305,1.0938396,-0.1926248
-0.2,-0.2,0.7999999999999999,-0.5235987755982988,0.0,0,0.6826343,1.2588736,-0.04357085,-0.024372865,0.05497115,1.2113736,-0.1725293,-0.6766089,0.9368562,-0.7456102,-0.08627452,-0.0074232817,1.0894742,-1.0650758
-0.2,-0.2,0.7999999999999999,-0.5235987755982988,0.0,0,0.28800997,1.4651765,-0.19237813,-0.055092297,0.0548636,1.3074431,-0.81047183,-0.6786471,0.9369503,-0.7474713,-0.08598124,0.035359707,1.1068807,-0.073137484
-0.2,-0.2,0.7999999999999999,-0.5235987755982988,0.0,0,0.37681913,1.3299428,-0.021073116,-0.077921525,0.25579906,1.2664994,0.23641153,-0.6781554,0.9359697,-0.7477637,-0.08602776,0.11529721,1.0864989,-0.55541086
-0.2,-0.2,0.7999999999999999,-0.5235987755982988,0.0,0,-0.061171707,1.2802656,-0.15156811,-0.033758722,-0.054030348,1.3439416,0.79418755,-0.6768828,0.9338584,-0.7431919,-0.08258504,0.077816956,1.1044874,-0.6596241
-0.2,-0.2,0.7999999999999999,-0.5235987755982988,0.0,0,0.3014021,1.3298869,-0.031386446,-0.05823813,0.045000028,1.3024148,1.8261753,-0.67866474,0.93640405,-0.7432975,-0.08713192,-0.057558943,1.1008406,0.052495144
-0.2,-0.2,0.7999999999999999,-0.5235987755982988,0.0,0,0.44513035,1.3409348,0.10358237,-0.08913025,0.21128114,1.2933905,-0.31386644,-0.67711323,0.9372772,-0.7506726,-0.08645449,0.00059034955,1.0790151,-0.2184878
-0.2,-0.2,0.7999999999999999,-0.5235987755982988,0.0,0,-0.11142277,1.3554724,-0.022057364,-0.0465467,0.04000814,1.280976,-0.03501501,-0.6784482,0.9353733,-0.74690545,-0.08543814,0.05694294,1.0931967,-0.11439743
-0.2,-0.2,0.7999999999999999,-0.5235987755982988,0.0,0,-0.22916566,1.2649256,0.04823161,-0.011719559,0.021040946,1.2666148,0.8368399,-0.6777276,0.93722075,-0.7450584,-0.08686504,0.0016230923,1.0794325,0.47619414
-0.2,-0.2,0.7999999999999999,-0.5235987755982988,0.0,0,0.4001591,1.2610269,-0.0259068,-0.040128317,-0.04956388,1.2893419,-0.05092807,-0.67865807,0.9346251,-0.7458452,-0.08463354,0.059438463,1.0808955,-0.87948394
-0.2,-0.2,0.7999999999999999,-0.5235987755982988,0.0,0,-0.42779008,1.3179811,0.024641857,-0.07086818,0.24854656,1.2782845,-0.11806798,-0.6777289,0.93807185,-0.7452205,-0.087823145,0.028550228,1.0864824,-0.6375978
-0.2,-0.2,0.7999999999999999,-0.5235987755982988,0.0,0,0.058688883,1.2878803,0.116828725,-0.05178073,0.07764058,1.2845479,0.74690163,-0.67727715,0.937158,-0.7482885,-0.08670728,0.036669996,1.1057116,-0.4800118
-0.2,-0.2,0.7999999999999999,-0.5235987755982988,0.0,0,0.06411509,1.2513335,0.15159434,-0.081927314,0.02728391,1.2085656,-0.09952321,-0.6767348,0.9360557,-0.7441194,-0.08488191,0.015563308,1.0970312,-0.11825666
-0.2,-0.2,0.7999999999999999,-0.5235987755982988,0.0,0,0.46158734,1.2373165,-0.10530419,-0.11107996,-0.13850181,1.2859179,0.30301833,-0.6755687,0.9382511,-0.74955285,-0.08578362,0.0018736726,1.0791296,0.23295821
-0.2,-0.2,0.7999999999999999,-0.5235987755982988,0.0,0,0.039164193,1.3193493,-0.09443288,-0.04635062,-0.048218552,1.2568455,-0.72985995,-0.67625314,0.9364602,-0.74580586,-0.08436047,0.06918562,1.1004671,-0.2463144
-0.2,-0.2,0.7999999999999999,-0.5235987755982988,0.0,0,0.7352006,1.2029254,0.0404703,-0.031175839,0.13781634,1.2454743,0.4703735,-0.67617244,0.9389414,-0.74929655,-0.08683633,0.0010676937,1.0890605,-0.25503585
-0.2,-0.2,0.7999999999999999,-0.5235987755982988,0.0,0,0.012080912,1.3364811,-0.020464558,-0.05107486,-0.062090397,1.2509807,0.20382264,-0.6764778,0.937314,-0.74364865,-0.08530108,-0.044046402,1.0975147,0.5966923
-0.2,-0.2,0.7999999999999999,-0.5235987755982988,0.0,0,0.46291924,1.2785854,-0.063847795,-0.07580938,0.052640885,1.3614314,-0.2338932,-0.67824113,0.93620163,-0.7476214,-0.085072845,-0.044136077,1.1004697,0.41487044
-0.2,-0.2,0.7999999999999999,-0.5235987755982988,0.0,0,0.48041755,1.1691397,-0.042988267,-0.079209596,-0.11636205,1.2753224,0.7000273,-0.676905,0.93669236,-0.7463847,-0.084537946,-0.001189214,1.0918022,-0.45769194
-0.2,-0.2,0.7999999999999999,-0.5235987755982988,0.0,0,0.46194512,1.2646358,-0.16520166,-0.048877474,-0.1503545,1.2694964,-0.25818154,-0.6775575,0.93805695,-0.7445848,-0.086685516,-0.0050301235,1.0898819,0.3610895
-0.2,-0.2,0.7999999999999999,-0.5235987755982988,0.0,0,0.5324697,1.3242093,0.0036792469,-0.060185414,0.107509814,1.2042309,-1.1756507,-0.6767748,0.93822694,-0.7507,-0.08454105,0.05068149,1.074735,0.6208066
-0.2,-0.2,0.7999999999999999,-0.5235987755982988,0.0,0,0.10378654,1.2089065,-0.14057189,-0.057596542,0.0035311612,1.2457356,1.3246127,-0.6769096,0.93817157,-0.74833286,-0.085196525,0.017459461,1.081732,-0.17103101
-0.2,-0.2,0.7999999999999999,-0.5235987755982988,0.0,0,0.71183795,1.2695655,0.08226463,-0.06304167,0.02294584,1.2860847,-0.75372255,-0.67875946,0.9378217,-0.74767584,-0.08643336,-0.07273551,1.0767484,1.1966444
-0.2,-0.2,0.7999999999999999,-0.5235987755982988,0.0,0,0.5531506,1.2798123,-0.1286221,-0.077937834,-0.14559664,1.3303201,-1.4190066,-0.6764881,0.9388443,-0.7463527,-0.08579989,0.0072038993,1.0856433,-0.5996587
-0.2,-0.2,0.7999999999999999,-0.5235987755982988,0.0,0,0.10098242,1.2526171,-0.079436295,-0.071620256,-0.04225081,1.2414742,0.05834109,-0.6778717,0.9372718,-0.74618024,-0.08410759,0.06465361,1.087168,-0.26780418
-0.2,-0.2,0.7999999999999999,-0.5235987755982988,0.0,0,-0.309512,1.3341836,-0.043954607,-0.088780954,-0.07741183,1.2870878,-0.6645085,-0.67863643,0.9372306,-0.74884266,-0.08554381,-0.058410894,1.1099207,0.2453321
-0.2,-0.2,0.7999999999999999,-0.5235987755982988,0.0,0,0.18551183,1.1805105,0.05696389,-0.1034026,0.08581939,1.1841407,0.22331044,-0.6760076,0.9396315,-0.7500284,-0.08539252,-0.048383273,1.0973692,0.013799503
-0.2,-0.2,0.7999999999999999,-0.5235987755982988,0.0,0,-0.040303856,1.2698638,-0.15249352,-0.042379294,-0.13623017,1.3340002,0.04733235,-0.677226,0.9390176,-0.74541783,-0.08560134,-0.017561987,1.0985384,-0.40143937
-0.2,-0.2,0.7999999999999999,-0.5235987755982988,0.0,0,-0.11271794,1.2224779,0.056509417,-0.051255275,-0.040365927,1.2260458,0.4533846,-0.67715454,0.9337167,-0.74278075,-0.08529935,0.012093716,1.1081674,-0.012347592
-0.2,-0.2,0.7999999999999999,-0.5235987755982988,0.0,0,-0.26582518,1.24783,0.03812826,-0.052690018,-0.04879677,1.2909294,1.2639421,-0.6770865,0.9338725,-0.748217,-0.085956566,-0.0014464858,1.0831054,-0.3981323
-0.2,-0.2,0.7999999999999999,-0.5235987755982988,0.0,0,0.12994766,1.1833931,-0.024037737,-0.06513849,0.096177615,1.2802532,-0.65075743,-0.6776092,0.93165815,-0.74815106,-0.0869679,-0.07015363,1.0955706,-1.1580628
-0.2,-0.2,0.7999999999999999,-0.5235987755982988,0.0,0,-0.23097044,1.2383187,0.15996331,-0.05523088,0.21599083,1.2870632,0.17384472,-0.67946225,0.9340595,-0.74811435,-0.086738124,0.112758346,1.0919302,-0.2161736
-0.2,-0.2,0.7999999999999999,-0.5235987755982988,0.0,0,-0.09515289,1.2305899,0.052090924,-0.08702776,0.10667708,1.2727923,0.39010423,-0.67804754,0.9319731,-0.7460322,-0.0867068,0.0037841087,1.0951933,-0.49844766
-0.2,-0.2,0.7999999999999999,-0.5235987755982988,0.0,0,0.49683532,1.2815638,0.045313578,-0.0601557,0.10062771,1.302832,-0.669669,-0.67820346,0.93254066,-0.7469733,-0.08805576,0.06289783,1.095044,0.3797532
-0.2,-0.2,0.7999999999999999,-0.5235987755982988,0.0,0,-0.31839722,1.2370697,0.043050915,-0.05632265,-0.05272417,1.2876,0.17218764,-0.6782203,0.9321681,-0.7460995,-0.08440961,0.05204382,1.0964651,-0.9931314
-0.2,-0.2,0.7999999999999999,-0.5235987755982988,0.0,0,0.12443256,1.1885966,-0.07411161,-0.056166038,0.124978386,1.242372,0.34969783,-0.67670685,0.93594974,-0.74814564,-0.08695874,-0.06752088,1.0806527,0.18869266
-0.2,-0.2,0.7999999999999999,-0.5235987755982988,0.0,0,0.5365355,1.2580492,0.038919117,-0.08917782,0.103155285,1.2400326,1.5185161,-0.6780274,0.93070775,-0.74929905,-0.08535652,0.036694884,1.0796268,0.20674446
-0.2,-0.2,0.7999999999999999,-0.5235987755982988,0.0,0,0.9196314,1.3001399,0.11047278,-0.056642484,0.008191808,1.2403811,0.6220226,-0.6768249,0.9340141,-0.7438071,-0.08959504,0.007916961,1.0940254,0.3622533
-0.2,-0.2,0.7999999999999999,-0.5235987755982988,0.0,0,0.72498924,1.2199644,0.1350341,-0.07000198,-0.14641887,1.2637745,0.14460625,-0.6779713,0.9348275,-0.7469864,-0.086213335,0.010133143,1.1038928,-0.35952586
-0.2,-0.2,0.7999999999999999,-0.5235987755982988,0.0,0,0.046733707,1.2288327,0.17718148,-0.043693755,0.009533124,1.2887514,-0.87437975,-0.67688286,0.9334825,-0.74772453,-0.08698372,0.038327415,1.0823454,-0.30003414
-0.2,-0.2,0.7999999999999999,-0.5235987755982988,0.0,0,0.7014597,1.2639774,-0.02251224,-0.07729881,0.15373527,1.2544464,0.2167124,-0.6755312,0.9329431,-0.7457832,-0.085180186,0.04118406,1.0955781,-0.37959823
-0.2,-0.2,0.7999999999999999,-0.5235987755982988,0.0,0,0.28374138,1.2231766,0.064996205,-0.010677339,0.016064772,1.2693512,0.35847405,-0.6770852,0.935713,-0.7495754,-0.08457211,0.0034507008,1.0717868,-0.40065
-0.2,-0.2,0.7999999999999999,-0.5235987755982988,0.0,0,0.40667212,1.2334187,0.03739564,-0.047468323,-0.059825618,1.2948517,-0.31189638,-0.6780718,0.9372781,-0.7465465,-0.08981733,-0.007510447,1.0926024,-0.5383165
-0.2,-0.2,0.7999999999999999,-0.5235987755982988,0.0,0,-0.13733707,1.3384272,-0.057881344,-0.088372275,-0.20723641,1.2683706,-0.024195377,-0.67595124,0.9361229,-0.7467435,-0.086089514,0.009860879,1.1002619,-0.8272642
