sanky1234/BimanualDexCatch/isaacgymenvs/cem_results/football_pose_-0.1_-0.1_0.6_0.0_0.0_0_2025-05-25.csv
x,y,z,roll,pitch,yaw,robot1/joint1,robot1/joint2,robot1/joint3,robot1/joint4,robot1/joint5,robot1/joint6,robot1/joint7,robot2/joint1,robot2/joint2,robot2/joint3,robot2/joint4,robot2/joint5,robot2/joint6,robot2/joint7
-0.1,-0.1,0.6,0.0,0.0,0,0.68186253,1.5421505,0.21389829,0.7372378,0.40515527,0.043700714,0.16538437,-0.24059905,1.8985968,-0.16461582,-0.8404479,-0.012614767,1.4593776,-0.7307938
-0.1,-0.1,0.6,0.0,0.0,0,0.68740356,1.5435374,0.22263421,0.7294225,0.38431174,0.035713397,0.19249322,-0.23652051,1.8924011,-0.14932989,-0.8317691,-0.010580128,1.4514444,-0.7025392
-0.1,-0.1,0.6,0.0,0.0,0,0.7006371,1.5409323,0.24701817,0.7246612,0.46270984,0.027827468,0.16345482,-0.2452844,1.8910744,-0.16272017,-0.83498544,-0.022476315,1.4532957,-0.7459889
-0.1,-0.1,0.6,0.0,0.0,0,0.6604751,1.5378617,0.23317146,0.7245236,0.39941636,0.029147748,0.15450095,-0.23500964,1.8924268,-0.1686307,-0.8362123,-0.018320858,1.4528327,-0.8795563
-0.1,-0.1,0.6,0.0,0.0,0,0.70352405,1.5412791,0.23840384,0.7051418,0.4298626,0.031689197,0.19425692,-0.24477635,1.8889722,-0.1619799,-0.8384923,-0.0060968813,1.4633381,-0.7697556
-0.1,-0.1,0.6,0.0,0.0,0,0.6767463,1.5365202,0.22298758,0.719591,0.3643429,0.03647872,0.19045866,-0.2268478,1.89619,-0.15339948,-0.8472542,-0.053895507,1.4469004,-0.84905565
-0.1,-0.1,0.6,0.0,0.0,0,0.6770076,1.5442464,0.22338638,0.7264113,0.42035976,0.017062653,0.1373643,-0.23430511,1.8905855,-0.18211341,-0.83057904,0.0040485067,1.4476026,-0.81218815
-0.1,-0.1,0.6,0.0,0.0,0,0.6645589,1.5424566,0.22845607,0.71681446,0.4180067,0.021876208,0.1713998,-0.23224789,1.8976399,-0.14921032,-0.8355292,-0.033006884,1.45177,-0.89352524
-0.1,-0.1,0.6,0.0,0.0,0,0.71352077,1.539507,0.23186775,0.727104,0.4000109,0.02914362,0.1786159,-0.24626914,1.8910183,-0.1489087,-0.8304859,-0.04780976,1.4530889,-0.77040607
-0.1,-0.1,0.6,0.0,0.0,0,0.7128335,1.5369682,0.22311327,0.729343,0.39252675,0.014540173,0.209512,-0.22965145,1.8912953,-0.16324976,-0.8343454,-0.004413811,1.460844,-0.749283
-0.1,-0.1,0.6,0.0,0.0,0,0.6943101,1.541987,0.22855088,0.7245666,0.40957078,0.03887793,0.18680479,-0.23888463,1.8975555,-0.15732522,-0.8272427,0.02401431,1.4553156,-0.8668856
-0.1,-0.1,0.6,0.0,0.0,0,0.6681135,1.535879,0.2337885,0.7141607,0.42482483,0.04272245,0.17133874,-0.22715306,1.8971531,-0.17813581,-0.83476365,0.008040306,1.4586514,-0.7591794
-0.1,-0.1,0.6,0.0,0.0,0,0.65045935,1.5388457,0.22212744,0.72417915,0.40811983,0.03714587,0.2209977,-0.24573717,1.8947034,-0.1717053,-0.8252075,-0.029153451,1.450512,-0.80516344
-0.1,-0.1,0.6,0.0,0.0,0,0.6936916,1.5396847,0.22291076,0.7111527,0.40332183,0.012638674,0.23167239,-0.24143915,1.8927166,-0.16499326,-0.8355414,-0.010275099,1.458742,-0.8123697
-0.1,-0.1,0.6,0.0,0.0,0,0.6715827,1.5385647,0.22861497,0.7291027,0.41120592,0.010129845,0.19949163,-0.23170656,1.8917055,-0.16305035,-0.8390666,0.017727556,1.4623704,-0.79223675
-0.1,-0.1,0.6,0.0,0.0,0,0.6902627,1.5394299,0.23591988,0.72008264,0.4352254,0.019355023,0.1817124,-0.24232225,1.8930135,-0.15725054,-0.82785004,-0.03308076,1.4509252,-0.6952768
-0.1,-0.1,0.6,0.0,0.0,0,0.68968445,1.5350584,0.22529492,0.73258895,0.41047573,0.014597415,0.16064188,-0.24154627,1.8927006,-0.14098097,-0.8335212,-0.03883354,1.4549588,-0.76261973
-0.1,-0.1,0.6,0.0,0.0,0,0.67052925,1.5403899,0.22785096,0.7229155,0.3848307,0.01717976,0.17822544,-0.2316418,1.8953413,-0.16099642,-0.83502436,0.026466418,1.4580606,-0.7828554
-0.1,-0.1,0.6,0.0,0.0,0,0.6656391,1.54541,0.23097922,0.72266406,0.41811427,0.012077649,0.18072294,-0.2337078,1.8861302,-0.14032835,-0.8251284,0.0024653946,1.4512725,-0.6387202
-0.1,-0.1,0.6,0.0,0.0,0,0.6808981,1.5392336,0.22906628,0.7170877,0.42511746,0.012894346,0.22481978,-0.22756505,1.8969904,-0.16068707,-0.8405843,0.0020086076,1.4627693,-0.6990692
-0.1,-0.1,0.6,0.0,0.0,0,0.70179945,1.5391961,0.23874767,0.7156412,0.45225295,0.021645643,0.20453574,-0.23805171,1.8943764,-0.15701996,-0.8299128,-0.018772138,1.4567341,-0.6790224
-0.1,-0.1,0.6,0.0,0.0,0,0.70004594,1.5424181,0.22552952,0.7073862,0.39218107,0.034097504,0.18802503,-0.23848829,1.8957281,-0.15500423,-0.8387037,0.020347191,1.4460219,-0.88352937
-0.1,-0.1,0.6,0.0,0.0,0,0.7049325,1.5373048,0.22222586,0.7107453,0.42178136,0.012347388,0.21863382,-0.22818363,1.8927253,-0.15093318,-0.8230201,0.0035754053,1.4483265,-0.8020184
-0.1,-0.1,0.6,0.0,0.0,0,0.6995507,1.5374568,0.21662669,0.71046245,0.40116522,0.031368963,0.17620173,-0.2415881,1.8965122,-0.13009652,-0.82766515,-0.033825457,1.4514513,-0.7580377
-0.1,-0.1,0.6,0.0,0.0,0,0.7149827,1.5420932,0.22148314,0.7059563,0.41446385,0.040773895,0.20277753,-0.23453549,1.8916906,-0.15069753,-0.84256583,-0.03466709,1.4498221,-0.8138328
-0.1,-0.1,0.6,0.0,0.0,0,0.6993004,1.5295179,0.22257802,0.72023463,0.42496744,0.03673167,0.15687352,-0.24840578,1.892459,-0.15164873,-0.83698237,-0.024004705,1.4567084,-0.72746646
-0.1,-0.1,0.6,0.0,0.0,0,0.70924914,1.5400286,0.22454785,0.7291358,0.4338146,0.045055054,0.16093248,-0.2353053,1.8940182,-0.16581394,-0.82622874,0.0142713,1.4542747,-0.9052247
-0.1,-0.1,0.6,0.0,0.0,0,0.6714957,1.5384085,0.21114771,0.71809244,0.4335183,0.032597102,0.16727106,-0.25286344,1.8969332,-0.15564847,-0.8354514,0.011016319,1.4600178,-0.66416335
-0.1,-0.1,0.6,0.0,0.0,0,0.6928674,1.5381528,0.22330391,0.7288378,0.4248291,0.041079234,0.16344048,-0.24019474,1.890688,-0.1476593,-0.8335749,-0.0040911515,1.4629391,-0.72374874
-0.1,-0.1,0.6,0.0,0.0,0,0.649195,1.5431634,0.22693804,0.71943253,0.44754404,0.042642158,0.21836598,-0.23425972,1.8980172,-0.16417165,-0.8269208,-0.03054223,1.4427457,-0.75220656
-0.1,-0.1,0.6,0.0,0.0,0,0.6872395,1.5322852,0.22661479,0.7256879,0.4437436,0.043770377,0.17514579,-0.24339491,1.8889482,-0.1822581,-0.83601516,-0.018727554,1.4551755,-0.66726166
-0.1,-0.1,0.6,0.0,0.0,0,0.66973555,1.5430297,0.22407438,0.72757304,0.41454327,0.0075510605,0.2128753,-0.24153228,1.8890854,-0.15984192,-0.8382723,0.0055172406,1.4576175,-0.735125
-0.1,-0.1,0.6,0.0,0.0,0,0.65635353,1.5358102,0.22155526,0.7168762,0.38023522,0.024765158,0.18369131,-0.24354473,1.8934087,-0.14968114,-0.8319951,0.00803035,1.4479238,-0.7829442
-0.1,-0.1,0.6,0.0,0.0,0,0.67974484,1.5334898,0.22310816,0.72875595,0.38621655,0.045973215,0.1886282,-0.2461697,1.8846264,-0.14656177,-0.83463365,-0.0149579765,1.4528688,-0.8064639
-0.1,-0.1,0.6,0.0,0.0,0,0.6858109,1.5441674,0.22276478,0.722516,0.39983326,0.00497963,0.14111753,-0.23901471,1.8933115,-0.15008876,-0.8440991,-0.01977725,1.4573752,-0.78476244
-0.1,-0.1,0.6,0.0,0.0,0,0.67637956,1.5371833,0.22411367,0.7196564,0.38818726,0.028225703,0.17817046,-0.23423024,1.8917032,-0.16472475,-0.8417403,-0.022457877,1.4472455,-0.7852713
-0.1,-0.1,0.6,0.0,0.0,0,0.6895371,1.5459788,0.22420807,0.72159827,0.41137618,0.031228576,0.16359541,-0.23406099,1.8935378,-0.14553261,-0.8339227,-0.02493018,1.4586812,-0.7502827
-0.1,-0.1,0.6,0.0,0.0,0,0.70156777,1.5414342,0.21578258,0.73189795,0.43144828,0.012945818,0.18660404,-0.24517478,1.8988302,-0.14148965,-0.82396865,-0.007858289,1.447196,-0.66774464
-0.1,-0.1,0.6,0.0,0.0,0,0.6747358,1.5378755,0.22362666,0.7283927,0.43715796,0.034631647,0.20094405,-0.23245703,1.8926525,-0.1920275,-0.8409658,-0.009594427,1.4523073,-0.7827142
-0.1,-0.1,0.6,0.0,0.0,0,0.67841524,1.5343927,0.21727404,0.7171326,0.39900395,0.009508383,0.19448337,-0.23604989,1.8872172,-0.1661827,-0.8265726,-0.014235471,1.451546,-0.6661166
-0.1,-0.1,0.6,0.0,0.0,0,0.6474138,1.535262,0.22053464,0.7139156,0.41165224,0.015764033,0.18553193,-0.24309927,1.8989409,-0.15116112,-0.8353802,-0.019906355,1.4531388,-0.70854115
-0.1,-0.1,0.6,0.0,0.0,0,0.70485324,1.5435201,0.23357844,0.7203048,0.4026497,0.040831547,0.19090912,-0.24027555,1.8980606,-0.16535994,-0.8279105,0.0112481965,1.4519696,-0.84062505
-0.1,-0.1,0.6,0.0,0.0,0,0.6672704,1.5436091,0.22353335,0.72223955,0.38141912,0.017663326,0.15077132,-0.2452206,1.8921171,-0.1481529,-0.84045744,-0.0021726706,1.4510299,-0.79654807
-0.1,-0.1,0.6,0.0,0.0,0,0.70844805,1.5398268,0.21351321,0.71956414,0.40020669,0.0065227733,0.16405389,-0.23060697,1.8876495,-0.16675831,-0.83509415,-0.046146996,1.44909,-0.7271546
-0.1,-0.1,0.6,0.0,0.0,0,0.6475429,1.5398237,0.23301598,0.71346736,0.4001328,0.017268237,0.16059038,-0.23192541,1.892361,-0.14713892,-0.8325995,-0.021309074,1.44911,-0.7253333
-0.1,-0.1,0.6,0.0,0.0,0,0.65652966,1.5330439,0.2215225,0.72038966,0.44938466,0.014460435,0.14179517,-0.24025415,1.8968071,-0.17072582,-0.8352923,0.0038847295,1.4531349,-0.8310853
-0.1,-0.1,0.6,0.0,0.0,0,0.64780116,1.5373571,0.23189612,0.7219101,0.40560204,0.02950747,0.20080633,-0.2431302,1.895052,-0.15882106,-0.8360319,-0.028845567,1.4512401,-0.7001912
-0.1,-0.1,0.6,0.0,0.0,0,0.7184159,1.5391921,0.22347955,0.7201963,0.3980585,0.04712065,0.19123468,-0.23760234,1.8938761,-0.15733178,-0.8311968,-0.0127767185,1.4564397,-0.759216
-0.1,-0.1,0.6,0.0,0.0,0,0.69911104,1.5403416,0.22686863,0.72086143,0.41877553,0.0055332906,0.20038411,-0.24578413,1.8977613,-0.15922141,-0.82841897,-0.022810932,1.4521904,-0.7201112
-0.1,-0.1,0.6,0.0,0.0,0,0.67884016,1.5388047,0.2198647,0.7181453,0.32594886,0.03269796,0.1987018,-0.23710154,1.8968278,-0.150268,-0.8428257,0.00981855,1.4492017,-0.7431382
-0.1,-0.1,0.6,0.0,0.0,0,0.7069972,1.5406109,0.22601308,0.72723645,0.416284,0.034731846,0.21736981,-0.23671222,1.8956419,-0.16774288,-0.8327709,0.0075068776,1.4546812,-0.80085325
-0.1,-0.1,0.6,0.0,0.0,0,0.6693989,1.540756,0.23837791,0.7134657,0.38982707,0.043437935,0.155587,-0.23723923,1.8924595,-0.14144856,-0.83839875,-0.027058454,1.4565486,-0.7761299
-0.1,-0.1,0.6,0.0,0.0,0,0.65706784,1.5397416,0.23312344,0.70713884,0.373351,0.018299386,0.21251853,-0.23593184,1.8951908,-0.14540306,-0.83226633,-0.024272915,1.4531851,-0.8530115
-0.1,-0.1,0.6,0.0,0.0,0,0.6577241,1.5382395,0.2237535,0.7187485,0.39987192,0.02495264,0.1911804,-0.24316049,1.8983576,-0.15647437,-0.8405146,0.00716818,1.445363,-0.6486196
-0.1,-0.1,0.6,0.0,0.0,0,0.67087644,1.5453347,0.22639224,0.7247767,0.42325154,0.014425909,0.20568489,-0.23770812,1.8949258,-0.15131554,-0.8374097,-0.043440595,1.4515908,-0.7662347
-0.1,-0.1,0.6,0.0,0.0,0,0.6898184,1.543818,0.20754862,0.71969354,0.37402263,0.028462768,0.16172662,-0.23916335,1.896196,-0.1588742,-0.8339786,-0.0008727737,1.4423754,-0.78131497
-0.1,-0.1,0.6,0.0,0.0,0,0.6987683,1.5412728,0.2318949,0.7213779,0.3635383,0.023382595,0.2048633,-0.24631399,1.8925924,-0.15416554,-0.83476454,-0.018801508,1.4560888,-0.7687258
-0.1,-0.1,0.6,0.0,0.0,0,0.67044693,1.5351609,0.22321612,0.71743405,0.3912056,0.025793439,0.18759415,-0.24117899,1.888482,-0.15103407,-0.84207684,0.027634084,1.4530191,-0.82867837
-0.1,-0.1,0.6,0.0,0.0,0,0.64421445,1.5433747,0.22669059,0.72703296,0.40889704,0.009100676,0.1990074,-0.23498318,1.8941772,-0.16390511,-0.8359755,-0.012090858,1.4498774,-0.80913687
-0.1,-0.1,0.6,0.0,0.0,0,0.674647,1.5436487,0.22794239,0.71363336,0.4029074,0.012724265,0.16197354,-0.24190368,1.8858476,-0.16580129,-0.8401063,-0.015232947,1.4422257,-0.79722947
-0.1,-0.1,0.6,0.0,0.0,0,0.6701906,1.5483394,0.24240743,0.70828396,0.43374154,0.005517811,0.15436234,-0.24218057,1.8907439,-0.1609879,-0.8324714,-0.025832083,1.4481118,-0.79650587
-0.1,-0.1,0.6,0.0,0.0,0,0.6826798,1.5356283,0.22724418,0.7172619,0.438481,0.024578344,0.19302356,-0.24488923,1.8988583,-0.15551583,-0.84165835,0.009320409,1.451633,-0.7606238
-0.1,-0.1,0.6,0.0,0.0,0,0.68731403,1.52962,0.22926934,0.7160622,0.41311416,0.04011507,0.15117307,-0.23929481,1.8936034,-0.14873107,-0.8324923,-0.024315393,1.4594688,-0.7368408
-0.1,-0.1,0.6,0.0,0.0,0,0.70809036,1.5409933,0.21913452,0.7228156,0.3969822,0.041890223,0.18623742,-0.24767578,1.8947136,-0.14825626,-0.8310715,0.014897429,1.448514,-0.7515872
-0.1,-0.1,0.6,0.0,0.0,0,0.6920532,1.5313678,0.2188668,0.7295333,0.41207284,0.008162283,0.19671513,-0.23277275,1.8934666,-0.1446179,-0.8379616,-0.032491505,1.463041,-0.7737142
-0.1,-0.1,0.6,0.0,0.0,0,0.62755877,1.5443556,0.22886166,0.71295714,0.41799334,0.021047618,0.1971917,-0.24620177,1.8896953,-0.14027056,-0.8323464,0.007660962,1.4572581,-0.7410161
-0.1,-0.1,0.6,0.0,0.0,0,0.6785513,1.5385928,0.22399044,0.7187605,0.39570588,0.027550384,0.16926485,-0.24117288,1.89688,-0.14496642,-0.82551795,0.053995498,1.44897,-0.81540626
-0.1,-0.1,0.6,0.0,0.0,0,0.67432994,1.5364184,0.22348155,0.7144717,0.40703896,0.017611427,0.18525855,-0.24903399,1.897351,-0.16345724,-0.83602047,-0.048994455,1.4547225,-0.7400324
-0.1,-0.1,0.6,0.0,0.0,0,0.6770498,1.5415183,0.2305131,0.7209079,0.44188243,0.014294995,0.16070355,-0.2365258,1.8951344,-0.16302782,-0.8290132,0.004987829,1.4453676,-0.8049661
-0.1,-0.1,0.6,0.0,0.0,0,0.6813794,1.5310967,0.22882888,0.72515637,0.37644753,0.034545533,0.19234073,-0.23370738,1.8926834,-0.1599783,-0.82506466,-0.015957015,1.4542353,-0.6888291
-0.1,-0.1,0.6,0.0,0.0,0,0.69884485,1.5407388,0.23044832,0.7124044,0.40820667,0.026943116,0.1062513,-0.23201415,1.896316,-0.17914923,-0.8421155,0.017085599,1.4554151,-0.76678884
-0.1,-0.1,0.6,0.0,0.0,0,0.70805204,1.5372565,0.23013574,0.72181934,0.34476122,0.0031348024,0.16919272,-0.23530406,1.891692,-0.15567504,-0.8269782,-0.033122774,1.4620537,-0.7387416
-0.1,-0.1,0.6,0.0,0.0,0,0.69365466,1.5416819,0.23146208,0.7230047,0.3970558,0.007975006,0.18699056,-0.23964219,1.8977952,-0.15836914,-0.8276665,-0.016539214,1.4540954,-0.7970684
-0.1,-0.1,0.6,0.0,0.0,0,0.68272567,1.5387772,0.21271503,0.71457577,0.45345125,0.028835652,0.2034338,-0.24749088,1.8859414,-0.1592169,-0.8395836,-0.041606452,1.4510554,-0.77719796
-0.1,-0.1,0.6,0.0,0.0,0,0.7117321,1.5381488,0.23298433,0.7160631,0.36114505,0.009579922,0.2011499,-0.23560317,1.8929121,-0.16677573,-0.83566034,0.018312443,1.4541422,-0.81405747
-0.1,-0.1,0.6,0.0,0.0,0,0.67778003,1.5413767,0.22747128,0.7259963,0.419702,0.024434472,0.18905787,-0.23354635,1.8958285,-0.15997638,-0.8411598,-0.044876043,1.4529891,-0.84800243
-0.1,-0.1,0.6,0.0,0.0,0,0.66059,1.5462257,0.2269757,0.7248537,0.42553353,0.011945212,0.17227405,-0.23004273,1.8871844,-0.16873361,-0.84375197,-0.033063766,1.4535538,-0.78880537
-0.1,-0.1,0.6,0.0,0.0,0,0.66863394,1.5417519,0.22550757,0.72754586,0.41296813,0.032793798,0.16760078,-0.24636056,1.8878168,-0.16425548,-0.8386134,-0.01108265,1.4556434,-0.81457686
-0.1,-0.1,0.6,0.0,0.0,0,0.7283026,1.5350995,0.22346005,0.7270706,0.37146702,0.022644041,0.19616126,-0.22514388,1.8951125,-0.17071204,-0.8404213,-0.017640943,1.4594138,-0.8304007
-0.1,-0.1,0.6,0.0,0.0,0,0.6837296,1.5419643,0.23203725,0.71557534,0.39059702,0.021673054,0.20363614,-0.24722937,1.8947846,-0.14493312,-0.8390987,-0.010902727,1.4597291,-0.6955016
-0.1,-0.1,0.6,0.0,0.0,0,0.6823389,1.5443112,0.22736536,0.7173334,0.402602,0.015778938,0.20949379,-0.23456764,1.8857731,-0.1664625,-0.83684224,-0.019008873,1.4625713,-0.7248919
-0.1,-0.1,0.6,0.0,0.0,0,0.6659205,1.5488704,0.23384781,0.7176906,0.40864208,0.015801065,0.20599177,-0.2432669,1.8880446,-0.15530439,-0.83027196,-0.058172435,1.4459022,-0.77392125
-0.1,-0.1,0.6,0.0,0.0,0,0.70132226,1.5370085,0.2250287,0.7107351,0.4119813,0.023685135,0.18313435,-0.23658553,1.8931091,-0.18173052,-0.82975954,-0.028508617,1.457022,-0.75189126
-0.1,-0.1,0.6,0.0,0.0,0,0.7162586,1.530832,0.23584673,0.7199256,0.43833926,0.03883665,0.19032428,-0.23669778,1.8916303,-0.18105559,-0.8293474,0.00064041285,1.4534482,-0.8265337
-0.1,-0.1,0.6,0.0,0.0,0,0.70277536,1.5416653,0.22429013,0.7146013,0.38176897,0.006042578,0.20994602,-0.24097072,1.8935962,-0.15382344,-0.82346535,-0.022239074,1.4527489,-0.7194937
-0.1,-0.1,0.6,0.0,0.0,0,0.7042076,1.5375433,0.23463795,0.71588516,0.42149794,0.03960601,0.18552223,-0.23811507,1.8963717,-0.14529255,-0.84007394,0.011920726,1.4543391,-0.84397197
-0.1,-0.1,0.6,0.0,0.0,0,0.68229944,1.54573,0.2313493,0.7189335,0.41809553,0.046995983,0.18695673,-0.242545,1.8923362,-0.15684569,-0.83480537,0.002082942,1.4593154,-0.8344976
-0.1,-0.1,0.6,0.0,0.0,0,0.6739562,1.5465559,0.21685474,0.7179437,0.37478006,0.04835819,0.1724765,-0.2380293,1.8938408,-0.15304947,-0.8382579,-0.017026756,1.4605446,-0.8407555
-0.1,-0.1,0.6,0.0,0.0,0,0.6651118,1.5356419,0.2281914,0.7171086,0.41999522,0.034664,0.19050181,-0.24523708,1.8960137,-0.15856881,-0.83934337,-0.055706434,1.4614452,-0.7187582
-0.1,-0.1,0.6,0.0,0.0,0,0.660618,1.5376499,0.23366344,0.72375226,0.36624575,0.029913358,0.13000183,-0.23389708,1.8893502,-0.14112887,-0.82700443,0.015935633,1.4591104,-0.8009236
-0.1,-0.1,0.6,0.0,0.0,0,0.6461564,1.5419568,0.23001105,0.7108688,0.41911486,0.028660797,0.1907175,-0.23583776,1.8937116,-0.14476584,-0.83558524,0.01956244,1.4566997,-0.80254966
-0.1,-0.1,0.6,0.0,0.0,0,0.7071602,1.5449401,0.23195459,0.7152266,0.45554355,0.012053262,0.16634318,-0.24156263,1.891896,-0.14159708,-0.84425974,-0.023120435,1.45772,-0.86337155
-0.1,-0.1,0.6,0.0,0.0,0,0.6866637,1.5397924,0.23934473,0.7181027,0.39753732,0.030793855,0.17017736,-0.23847559,1.8939366,-0.16726938,-0.83603334,-0.03128311,1.4572306,-0.76761025
-0.1,-0.1,0.6,0.0,0.0,0,0.68177235,1.5504552,0.22817339,0.72533214,0.44373134,0.030067036,0.21027343,-0.2431384,1.8920056,-0.16192196,-0.83569676,-0.03834014,1.4508866,-0.8561865
-0.1,-0.1,0.6,0.0,0.0,0,0.6599101,1.5363467,0.2217691,0.7205867,0.35944343,0.025009064,0.19527327,-0.23898801,1.8917273,-0.14748988,-0.82509303,-0.045525193,1.4536988,-0.7336041
-0.1,-0.1,0.6,0.0,0.0,0,0.6984328,1.5405184,0.22689342,0.71471244,0.38118792,0.026693545,0.1947436,-0.23666514,1.8896656,-0.14728582,-0.83334863,-0.024851264,1.4597967,-0.7730946
-0.1,-0.1,0.6,0.0,0.0,0,0.65198296,1.5408765,0.22988705,0.7186266,0.39606053,0.041792832,0.22307153,-0.24407186,1.8887073,-0.16182148,-0.83517927,0.0070540393,1.4510885,-0.77533114
-0.1,-0.1,0.6,0.0,0.0,0,0.67175484,1.5393502,0.22802325,0.7162922,0.4191852,0.022979066,0.154664,-0.2464877,1.8925143,-0.15361086,-0.82655567,-0.038059108,1.4510399,-0.8404786
-0.1,-0.1,0.6,0.0,0.0,0,0.7221853,1.5425687,0.22639805,0.72087914,0.40051857,0.024663558,0.12817156,-0.25032791,1.8934613,-0.1495507,-0.83765167,-0.019318817,1.4578567,-0.7859603
-0.1,-0.1,0.6,0.0,0.0,0,0.7009202,1.5412291,0.23921071,0.7141236,0.38442925,0.014738968,0.18651249,-0.2389151,1.8917758,-0.17649247,-0.82469934,0.026914915,1.4667073,-0.721008
-0.1,-0.1,0.6,0.0,0.0,0,0.69169044,1.5397745,0.21536998,0.7321935,0.3907723,0.025274733,0.15350485,-0.24268216,1.8887345,-0.14880191,-0.82799554,-0.030784909,1.4517311,-0.835955
-0.1,-0.1,0.6,0.0,0.0,0,0.692846,1.5419391,0.2208041,0.7190922,0.38361675,0.01939029,0.19279411,-0.24445185,1.8951442,-0.14682628,-0.82853436,-0.013189406,1.4583056,-0.7812416
-0.1,-0.1,0.6,0.0,0.0,0,0.74763066,1.5422226,0.21807694,0.72483647,0.4358141,0.030937677,0.16422342,-0.24473682,1.8931477,-0.17260826,-0.83501065,-0.0026677342,1.4521598,-0.7830441
-0.1,-0.1,0.6,0.0,0.0,0,0.6699598,1.5433022,0.22215445,0.72555315,0.4071179,0.02779379,0.19169168,-0.23088041,1.8938931,-0.1625806,-0.82419276,-0.009365623,1.4534637,-0.7077357
-0.1,-0.1,0.6,0.0,0.0,0,0.6789993,1.531531,0.22945473,0.7312625,0.38641715,0.021503534,0.14562216,-0.2507152,1.8984413,-0.15521094,-0.83420485,-0.02262017,1.4553738,-0.75552696
-0.1,-0.1,0.6,0.0,0.0,0,0.67797196,1.5453179,0.23464242,0.72034127,0.37299946,0.022353325,0.20123406,-0.23789363,1.8916681,-0.14353345,-0.83639306,0.003293083,1.4657096,-0.8575801
-0.1,-0.1,0.6,0.0,0.0,0,0.6487429,1.5418342,0.2357001,0.72085655,0.4210808,0.042197987,0.21656328,-0.23782574,1.8929265,-0.16911171,-0.83534,-0.03554425,1.4652908,-0.7767182
-0.1,-0.1,0.6,0.0,0.0,0,0.6659536,1.5411589,0.2259916,0.73227197,0.40804788,0.026387263,0.18764487,-0.24371016,1.8940691,-0.15925844,-0.8269108,-0.07584661,1.4487507,-0.83167696
-0.1,-0.1,0.6,0.0,0.0,0,0.67007226,1.5474651,0.22427697,0.7224552,0.42183313,0.03306395,0.18064983,-0.23677585,1.8938057,-0.14371304,-0.83588225,-0.01993222,1.4540865,-0.8049967
-0.1,-0.1,0.6,0.0,0.0,0,0.6762219,1.5394212,0.22575292,0.733078,0.3922074,0.038401853,0.20440693,-0.23323438,1.896181,-0.15201472,-0.8369957,-0.029552665,1.4597824,-0.74275357
-0.1,-0.1,0.6,0.0,0.0,0,0.6931022,1.541475,0.23441899,0.7230901,0.38878983,0.018484745,0.16383618,-0.23445562,1.8883805,-0.14852619,-0.831299,-0.03655717,1.461333,-0.7308659
-0.1,-0.1,0.6,0.0,0.0,0,0.6607037,1.5387236,0.23231201,0.72210646,0.40873277,0.02881255,0.21823363,-0.2351564,1.8923719,-0.18825307,-0.82061243,-0.034758285,1.4577744,-0.8615739
-0.1,-0.1,0.6,0.0,0.0,0,0.6841038,1.5392826,0.22620937,0.71626896,0.3834768,0.046077605,0.20852041,-0.24059734,1.8907179,-0.13979095,-0.8371221,0.0009229989,1.4544019,-0.7846371
-0.1,-0.1,0.6,0.0,0.0,0,0.6693137,1.5438068,0.22230636,0.70950073,0.39770114,0.04513198,0.17039312,-0.23559396,1.8966635,-0.17870004,-0.8342965,0.022366352,1.4522961,-0.6412556
-0.1,-0.1,0.6,0.0,0.0,0,0.6263753,1.5495862,0.23400505,0.71615475,0.38427284,0.023428729,0.22586581,-0.24470685,1.8951681,-0.15673696,-0.8257509,-0.033143017,1.448504,-0.86286974
-0.1,-0.1,0.6,0.0,0.0,0,0.6894124,1.5423796,0.22032015,0.7103922,0.38295725,0.0383872,0.15237409,-0.24240841,1.8942055,-0.15121324,-0.8347788,-0.006870889,1.4540546,-0.7447349
-0.1,-0.1,0.6,0.0,0.0,0,0.7062622,1.5371239,0.2232092,0.7268773,0.37978226,0.02953857,0.18670659,-0.25257888,1.892718,-0.14306359,-0.8343573,-0.003051462,1.4663346,-0.8390707
-0.1,-0.1,0.6,0.0,0.0,0,0.6599221,1.5364189,0.23307203,0.7150051,0.37371913,0.045680694,0.14512247,-0.23692524,1.8947469,-0.1564082,-0.84055626,0.04753547,1.4555378,-0.7972214
-0.1,-0.1,0.6,0.0,0.0,0,0.6884087,1.5403978,0.23067673,0.7152948,0.4180587,0.035405893,0.18326582,-0.2313716,1.8957946,-0.15685445,-0.830828,-0.02066731,1.4526616,-0.77143747
-0.1,-0.1,0.6,0.0,0.0,0,0.68422455,1.5462921,0.22055241,0.71643364,0.39487943,0.010522916,0.14954543,-0.2300505,1.8900721,-0.17184275,-0.8306135,-0.0014046024,1.4555899,-0.7232483
-0.1,-0.1,0.6,0.0,0.0,0,0.6596746,1.5310434,0.23134251,0.7232685,0.37036026,0.037260175,0.17091426,-0.23866838,1.8890643,-0.14787032,-0.8303468,-0.003050023,1.4604292,-0.7054427
-0.1,-0.1,0.6,0.0,0.0,0,0.6999386,1.5439712,0.22943267,0.71778697,0.40250248,0.008995893,0.18143755,-0.23754671,1.8912262,-0.15224831,-0.84134305,-0.030424235,1.4490598,-0.8191607
-0.1,-0.1,0.6,0.0,0.0,0,0.69942683,1.5437369,0.21186024,0.72277457,0.3785188,0.04191553,0.16160169,-0.23988199,1.8955324,-0.13898663,-0.8396356,-0.016364003,1.4481201,-0.74332213
-0.1,-0.1,0.6,0.0,0.0,0,0.67902964,1.5395011,0.226964,0.7304275,0.4301269,0.023907455,0.16399167,-0.2322347,1.8914614,-0.15479007,-0.82747173,0.0020573866,1.4509578,-0.6857679
-0.1,-0.1,0.6,0.0,0.0,0,0.6644506,1.5344647,0.22935972,0.7184378,0.38017341,0.041455418,0.19289503,-0.23561262,1.8929555,-0.15571438,-0.8337057,-0.007082463,1.4483339,-0.7158676
-0.1,-0.1,0.6,0.0,0.0,0,0.72094077,1.5426617,0.23094338,0.71802723,0.44794244,0.022300141,0.15984412,-0.2450567,1.8907504,-0.159742,-0.84664893,0.027608825,1.4594685,-0.7616843
-0.1,-0.1,0.6,0.0,0.0,0,0.69786495,1.5413502,0.22205055,0.722606,0.37710306,0.040650703,0.2138223,-0.23323463,1.8946526,-0.16285932,-0.8404529,0.010579671,1.456239,-0.7408466
-0.1,-0.1,0.6,0.0,0.0,0,0.6804817,1.5365983,0.23010199,0.7148349,0.38805103,0.043344576,0.24199158,-0.23919277,1.8920796,-0.14993481,-0.83300596,-0.0063817394,1.4541891,-0.80215406
-0.1,-0.1,0.6,0.0,0.0,0,0.6740578,1.5405517,0.21720049,0.72599375,0.40102288,0.033769976,0.19252561,-0.25423148,1.8954054,-0.14605577,-0.8381409,0.0027110924,1.4538327,-0.755549
-0.1,-0.1,0.6,0.0,0.0,0,0.7142829,1.5365676,0.22101429,0.7179727,0.35417512,0.026163159,0.18925619,-0.24566735,1.8941565,-0.17229444,-0.8319237,-0.036780175,1.4518762,-0.6898046
-0.1,-0.1,0.6,0.0,0.0,0,0.6954229,1.5428556,0.23169354,0.72058123,0.4052669,0.020410458,0.1706911,-0.23292117,1.8909245,-0.15741727,-0.82897574,0.016272973,1.4561576,-0.7437676
-0.1,-0.1,0.6,0.0,0.0,0,0.72248924,1.5422254,0.21867354,0.7075433,0.37431514,0.04076346,0.19025801,-0.23838888,1.8949156,-0.16324903,-0.8277592,-0.014851354,1.4508932,-0.6943553
-0.1,-0.1,0.6,0.0,0.0,0,0.69172865,1.5505384,0.2304118,0.7278871,0.44377673,0.0010294808,0.15680535,-0.24967107,1.8942666,-0.16007012,-0.82347244,0.017918406,1.4483593,-0.790438
-0.1,-0.1,0.6,0.0,0.0,0,0.69477016,1.5411502,0.23159613,0.72166455,0.42394865,0.031409997,0.15951692,-0.24143673,1.8956143,-0.14654532,-0.8402692,-0.010364666,1.4477552,-0.7697553
-0.1,-0.1,0.6,0.0,0.0,0,0.72350514,1.5347134,0.21873139,0.7195431,0.39788136,0.024531482,0.14910476,-0.23500945,1.8938047,-0.14821368,-0.8354637,0.0027160803,1.4521581,-0.7363389
-0.1,-0.1,0.6,0.0,0.0,0,0.7103434,1.5390867,0.24343322,0.7318843,0.39916167,0.024109127,0.17707385,-0.23689348,1.8924234,-0.15334386,-0.8312331,-0.023690749,1.4615859,-0.75193423
-0.1,-0.1,0.6,0.0,0.0,0,0.70708823,1.5411245,0.2268163,0.7275455,0.36991394,0.036566507,0.2358836,-0.23072442,1.8950589,-0.12429269,-0.8341567,-0.039743114,1.4487281,-0.77119684
-0.1,-0.1,0.6,0.0,0.0,0,0.65061635,1.5429078,0.23745807,0.7226225,0.39570573,0.04309433,0.20463729,-0.23893803,1.9035646,-0.16338055,-0.83585876,-0.04143556,1.4521472,-0.675667
-0.1,-0.1,0.6,0.0,0.0,0,0.6712969,1.5434301,0.22485574,0.7299856,0.40420192,0.03096369,0.2007538,-0.23040994,1.8959645,-0.17114444,-0.8312318,0.03201368,1.4548353,-0.7936829
-0.1,-0.1,0.6,0.0,0.0,0,0.6756605,1.540259,0.23287554,0.71816313,0.42337394,0.020222796,0.21435624,-0.23410119,1.8969843,-0.12899649,-0.83262026,-0.012597742,1.4546399,-0.7515453
-0.1,-0.1,0.6,0.0,0.0,0,0.69770956,1.5358075,0.21212372,0.7276741,0.37018245,0.019922374,0.22220622,-0.23995374,1.892863,-0.14720741,-0.83944327,-0.016397992,1.4492569,-0.7267924
-0.1,-0.1,0.6,0.0,0.0,0,0.6832382,1.5489439,0.21816142,0.718152,0.40379244,0.017470917,0.16158187,-0.24160777,1.8908806,-0.14261314,-0.8307585,0.009472816,1.4557532,-0.7075295
-0.1,-0.1,0.6,0.0,0.0,0,0.6587937,1.5416626,0.23214765,0.73249364,0.38159946,0.019960733,0.18167374,-0.2379381,1.8907679,-0.14074886,-0.83140224,0.0066521913,1.455,-0.69559115
-0.1,-0.1,0.6,0.0,0.0,0,0.68497807,1.5430301,0.23634402,0.71758276,0.36800227,0.03285965,0.18649672,-0.22652023,1.8942653,-0.1622122,-0.8324418,-0.0069227037,1.4467446,-0.70057636
-0.1,-0.1,0.6,0.0,0.0,0,0.6747687,1.5439652,0.21394545,0.72607017,0.4258794,0.03824615,0.1844273,-0.23319766,1.8986951,-0.15008472,-0.83730763,0.011088136,1.4515035,-0.7129692
-0.1,-0.1,0.6,0.0,0.0,0,0.68903476,1.543389,0.22943605,0.7191446,0.4095698,0.04011335,0.19313978,-0.23963122,1.8917776,-0.15432379,-0.84427786,-0.0007469543,1.463933,-0.69545835
-0.1,-0.1,0.6,0.0,0.0,0,0.68292165,1.5527037,0.23541951,0.7235792,0.44065472,0.01617136,0.17396113,-0.22637127,1.8962218,-0.1438044,-0.827249,-0.03217016,1.4458177,-0.6306124
-0.1,-0.1,0.6,0.0,0.0,0,0.65635836,1.5429994,0.23279947,0.72785175,0.42505458,0.015968207,0.160963,-0.23577611,1.896108,-0.13751331,-0.83687425,0.005326655,1.452613,-0.7034461
-0.1,-0.1,0.6,0.0,0.0,0,0.6809451,1.534254,0.22725223,0.73096806,0.42467657,0.037096128,0.19108053,-0.24486108,1.8987956,-0.14813642,-0.8276436,-0.051107723,1.4521759,-0.6876953
-0.1,-0.1,0.6,0.0,0.0,0,0.69242823,1.5391256,0.23373124,0.72421557,0.39021403,0.013216367,0.18785474,-0.23734565,1.8957912,-0.15130976,-0.83636516,-0.011882122,1.4427949,-0.71421355
-0.1,-0.1,0.6,0.0,0.0,0,0.67184937,1.5474718,0.23579024,0.72267526,0.3796485,0.043204274,0.1794701,-0.23395126,1.8953276,-0.13153817,-0.83271354,0.017451892,1.4498423,-0.8260543
-0.1,-0.1,0.6,0.0,0.0,0,0.67498803,1.5359719,0.2267205,0.72248137,0.41670376,0.023383463,0.16136917,-0.22547428,1.8941295,-0.1536052,-0.83394116,-0.0024398114,1.4397818,-0.6154383
-0.1,-0.1,0.6,0.0,0.0,0,0.7214578,1.5402814,0.22215806,0.7226779,0.39455727,0.02621459,0.13947023,-0.23365481,1.890972,-0.17387412,-0.8294961,0.05830692,1.4471371,-0.6660311
-0.1,-0.1,0.6,0.0,0.0,0,0.7049736,1.5366628,0.23032989,0.7235949,0.42147407,0.038895562,0.1914405,-0.24089192,1.898092,-0.13563208,-0.8271559,-0.028059747,1.4507287,-0.7494926
-0.1,-0.1,0.6,0.0,0.0,0,0.6963,1.5346568,0.22758196,0.720723,0.38719645,0.049299702,0.19240987,-0.23973943,1.8997284,-0.136417,-0.8382747,-0.01563028,1.4507705,-0.7563104
-0.1,-0.1,0.6,0.0,0.0,0,0.66030616,1.5410972,0.22554126,0.7233976,0.4011482,0.03419645,0.18035556,-0.23805106,1.8919555,-0.1469831,-0.84068024,-0.01659274,1.4552078,-0.6801988
-0.1,-0.1,0.6,0.0,0.0,0,0.6508605,1.543445,0.23346071,0.71814495,0.39837986,0.03827775,0.16538225,-0.2357936,1.8949033,-0.15700705,-0.8330592,-0.019560957,1.4575372,-0.77828425
-0.1,-0.1,0.6,0.0,0.0,0,0.6829218,1.5418007,0.22285025,0.7326905,0.4067607,0.016695676,0.19679357,-0.23654559,1.8945711,-0.16183296,-0.8400589,-0.013248554,1.4535553,-0.67564404
-0.1,-0.1,0.6,0.0,0.0,0,0.6802307,1.5405172,0.23517312,0.7202094,0.42020288,0.036452573,0.1995443,-0.23609398,1.899526,-0.16352612,-0.8310001,0.0018214392,1.4516838,-0.672965
-0.1,-0.1,0.6,0.0,0.0,0,0.71532893,1.5351615,0.23716752,0.7251502,0.3926228,0.028227275,0.15049568,-0.24041416,1.89746,-0.1603685,-0.8331079,-0.0071437215,1.4482447,-0.73062193
-0.1,-0.1,0.6,0.0,0.0,0,0.67995334,1.5431914,0.22666574,0.71309555,0.40678757,0.024794573,0.18717562,-0.24652532,1.8936464,-0.15556493,-0.84490967,0.0027824584,1.4516556,-0.70054775
-0.1,-0.1,0.6,0.0,0.0,0,0.6736751,1.5402126,0.21951973,0.722684,0.3858442,0.037313364,0.17154507,-0.23485838,1.8935254,-0.17008422,-0.8410552,-0.011575152,1.4498942,-0.770747
-0.1,-0.1,0.6,0.0,0.0,0,0.686481,1.5367697,0.23609763,0.72037596,0.3707296,0.03213808,0.18089229,-0.24321838,1.8951614,-0.15009269,-0.83592695,-0.0050104563,1.4542148,-0.6769884
-0.1,-0.1,0.6,0.0,0.0,0,0.69175667,1.5489398,0.22789583,0.7201306,0.4144453,0.045115065,0.13504633,-0.25061834,1.8903943,-0.15264778,-0.8379815,0.0028819563,1.45704,-0.7373943
-0.1,-0.1,0.6,0.0,0.0,0,0.6622075,1.5388325,0.2273639,0.72008264,0.42242083,0.016699776,0.1798839,-0.24320696,1.8943207,-0.15101211,-0.83620185,-0.02632102,1.4482507,-0.69060475
-0.1,-0.1,0.6,0.0,0.0,0,0.6844889,1.5405952,0.22406583,0.7343285,0.3603852,0.019498933,0.15137765,-0.23427834,1.8908179,-0.16851173,-0.8245778,-0.00083416817,1.4492493,-0.6920001
-0.1,-0.1,0.6,0.0,0.0,0,0.6770993,1.5351212,0.22604795,0.71975535,0.37932223,0.037114285,0.22500932,-0.24512589,1.8928757,-0.1521525,-0.83310467,0.0015810045,1.4403679,-0.74037045
-0.1,-0.1,0.6,0.0,0.0,0,0.71193093,1.5350018,0.23739572,0.7191209,0.39321885,0.030921524,0.20441923,-0.23557349,1.8937266,-0.15558228,-0.8305298,-0.015123493,1.462471,-0.77541584
-0.1,-0.1,0.6,0.0,0.0,0,0.7080034,1.5379175,0.23120071,0.7208116,0.35311902,0.051628623,0.13184212,-0.24707426,1.8959965,-0.13546403,-0.83027613,-0.0052550975,1.4510052,-0.6996868
-0.1,-0.1,0.6,0.0,0.0,0,0.6974364,1.5375584,0.21722321,0.73557556,0.40553492,0.029918123,0.19310422,-0.23364612,1.8952947,-0.16253413,-0.8414931,-0.0010424803,1.4646595,-0.7707319
-0.1,-0.1,0.6,0.0,0.0,0,0.67278576,1.5384396,0.22884366,0.71810097,0.40438944,0.020956367,0.21631292,-0.23574232,1.8877109,-0.1583422,-0.840506,-0.021874597,1.4567914,-0.7809697
-0.1,-0.1,0.6,0.0,0.0,0,0.6537171,1.534382,0.23031953,0.72668076,0.3931247,0.027934743,0.17710288,-0.24365674,1.896526,-0.12795198,-0.83223695,-0.020026091,1.4603004,-0.75822055
-0.1,-0.1,0.6,0.0,0.0,0,0.71688426,1.5461032,0.22311184,0.7242531,0.41087818,0.040809173,0.18250918,-0.24802607,1.8935075,-0.1438533,-0.8316076,-0.0126887895,1.4546329,-0.67107165
-0.1,-0.1,0.6,0.0,0.0,0,0.6976184,1.543135,0.23796585,0.71560377,0.46156138,0.025336457,0.19196846,-0.23838471,1.8903952,-0.16622092,-0.8278063,-0.017927239,1.4591107,-0.721956
-0.1,-0.1,0.6,0.0,0.0,0,0.6907165,1.5452448,0.23164706,0.7113,0.4380941,0.02799859,0.16738807,-0.238546,1.8967391,-0.14639473,-0.83671814,-0.037400313,1.4624586,-0.7425549
-0.1,-0.1,0.6,0.0,0.0,0,0.7167978,1.5389498,0.22667973,0.7206019,0.40450406,0.03755417,0.17864561,-0.2364172,1.8925514,-0.15512323,-0.82728064,-0.026455866,1.4645535,-0.7262667
-0.1,-0.1,0.6,0.0,0.0,0,0.6732589,1.5437431,0.23174416,0.7176487,0.37125102,0.02979643,0.18297783,-0.23789023,1.8961267,-0.15677243,-0.84312034,-0.012517335,1.4537351,-0.6449992
-0.1,-0.1,0.6,0.0,0.0,0,0.707843,1.5445807,0.22727619,0.7217625,0.42172736,0.029845716,0.18270493,-0.24895917,1.8893604,-0.13408034,-0.8367414,0.0050495095,1.4626997,-0.7252288
-0.1,-0.1,0.6,0.0,0.0,0,0.67203385,1.5479087,0.22768499,0.7253515,0.37277687,0.023113051,0.2165283,-0.24490213,1.8927234,-0.13977498,-0.84583074,-0.011681332,1.4542884,-0.8213861
-0.1,-0.1,0.6,0.0,0.0,0,0.69305426,1.5375179,0.24005666,0.72442865,0.38597426,0.017299887,0.18717362,-0.24102584,1.8982931,-0.1734555,-0.8380526,-0.005244802,1.446928,-0.7305907
-0.1,-0.1,0.6,0.0,0.0,0,0.718679,1.5429766,0.22866815,0.72546583,0.38628757,0.021483429,0.15271609,-0.23877318,1.8910604,-0.1529034,-0.83397424,0.009789816,1.4494852,-0.79043746
-0.1,-0.1,0.6,0.0,0.0,0,0.67523164,1.5361769,0.23561423,0.717757,0.3856263,0.014691965,0.20643789,-0.24228221,1.886273,-0.1296638,-0.83308035,-0.014493925,1.4569442,-0.72634786
-0.1,-0.1,0.6,0.0,0.0,0,0.6803424,1.5411525,0.22468388,0.7295898,0.36517343,0.013402887,0.13096713,-0.24182405,1.8938833,-0.14554545,-0.8315277,0.0069480943,1.4537286,-0.77041584
-0.1,-0.1,0.6,0.0,0.0,0,0.6797203,1.5341713,0.22737396,0.72083175,0.41439942,0.03943431,0.16993956,-0.23874399,1.8954465,-0.13366738,-0.8404345,0.039030127,1.4571666,-0.7798907
-0.1,-0.1,0.6,0.0,0.0,0,0.665956,1.5334804,0.23223421,0.721928,0.38253674,0.00962534,0.1959995,-0.23947863,1.89404,-0.15746921,-0.8355073,0.012009086,1.4538443,-0.8726406
-0.1,-0.1,0.6,0.0,0.0,0,0.6881989,1.5452071,0.23226127,0.7226051,0.45188147,0.008458999,0.16206278,-0.24839936,1.8914864,-0.15275519,-0.833813,0.0006441504,1.4530839,-0.79541796
-0.1,-0.1,0.6,0.0,0.0,0,0.66922677,1.5436114,0.23676163,0.72477883,0.4025161,0.0341951,0.19526595,-0.24146318,1.8902483,-0.13574852,-0.84015405,-0.049334012,1.4573581,-0.7199708
-0.1,-0.1,0.6,0.0,0.0,0,0.6594682,1.5424173,0.22662255,0.7278181,0.3922157,0.021335142,0.20739937,-0.23240307,1.8974698,-0.15432404,-0.8352539,-0.039074976,1.4536628,-0.71196353
-0.1,-0.1,0.6,0.0,0.0,0,0.69498986,1.54332,0.22390977,0.726861,0.42862898,0.025102712,0.18445762,-0.23479573,1.8944836,-0.14012969,-0.8348107,0.022082666,1.4528415,-0.74574816
-0.1,-0.1,0.6,0.0,0.0,0,0.7023803,1.5395851,0.23334555,0.7108183,0.4020242,0.045624364,0.19629484,-0.23728141,1.89987,-0.17382362,-0.82423866,0.011892596,1.4433898,-0.63828284
-0.1,-0.1,0.6,0.0,0.0,0,0.68221915,1.5373124,0.21997885,0.7261271,0.37341654,0.020600338,0.1536649,-0.23122859,1.897797,-0.13712329,-0.8258713,-0.030245883,1.4466406,-0.8039064
-0.1,-0.1,0.6,0.0,0.0,0,0.6841788,1.5420461,0.23213227,0.7261558,0.44904986,0.058167458,0.18989596,-0.24938127,1.8963917,-0.16883507,-0.8322569,0.018896082,1.4502629,-0.7879731
-0.1,-0.1,0.6,0.0,0.0,0,0.6743406,1.540724,0.22669703,0.72558767,0.38107836,0.042917665,0.18156326,-0.23923838,1.8913597,-0.15235358,-0.83336824,0.0049446137,1.4524527,-0.82211906
-0.1,-0.1,0.6,0.0,0.0,0,0.68368036,1.5371133,0.23190868,0.72742856,0.44430614,0.026830524,0.15318018,-0.23174258,1.8951463,-0.1657999,-0.8343741,0.010187878,1.4616269,-0.7622968
-0.1,-0.1,0.6,0.0,0.0,0,0.70229053,1.5354408,0.21572582,0.7308591,0.43094355,0.025725147,0.22820468,-0.24236962,1.9009131,-0.15570585,-0.8410159,-0.0013108127,1.4516839,-0.72567385
-0.1,-0.1,0.6,0.0,0.0,0,0.6860015,1.5389456,0.23644964,0.7207883,0.42869428,0.06296305,0.19943088,-0.24091482,1.8897601,-0.14857031,-0.8310618,-0.026292067,1.450177,-0.7301767
-0.1,-0.1,0.6,0.0,0.0,0,0.64901775,1.5364996,0.22358985,0.73096454,0.38326877,0.033789355,0.1960215,-0.23831867,1.8975216,-0.14769758,-0.83599097,0.009792571,1.4467112,-0.7631863
-0.1,-0.1,0.6,0.0,0.0,0,0.6589229,1.5466337,0.22479059,0.7220014,0.37686223,0.012573756,0.15909615,-0.2348184,1.8952285,-0.15918276,-0.83743703,-0.013090469,1.4471153,-0.81584656
-0.1,-0.1,0.6,0.0,0.0,0,0.67176634,1.5494817,0.23179734,0.7228332,0.3899838,0.021907615,0.18613549,-0.2360104,1.8957614,-0.15692545,-0.83594126,-0.0077418904,1.4439481,-0.7807631
-0.1,-0.1,0.6,0.0,0.0,0,0.68744993,1.5413312,0.23778129,0.7163143,0.40329286,0.04174272,0.18495324,-0.23931418,1.8916444,-0.17044444,-0.8281849,-0.008872477,1.4529926,-0.7011622
-0.1,-0.1,0.6,0.0,0.0,0,0.6569489,1.5402352,0.23970485,0.7193909,0.415682,0.030657494,0.10655304,-0.24205905,1.8953207,-0.17650099,-0.83620834,-0.021799605,1.4539123,-0.75803375
-0.1,-0.1,0.6,0.0,0.0,0,0.7147968,1.5420928,0.22936037,0.7183626,0.44085354,0.029789602,0.14811872,-0.22349481,1.8945894,-0.14552772,-0.83086365,-0.026963769,1.4587722,-0.71029574
-0.1,-0.1,0.6,0.0,0.0,0,0.65508556,1.5407486,0.22571501,0.7220271,0.4002803,0.042520218,0.15737003,-0.2423152,1.8924171,-0.12612672,-0.8362256,0.009533175,1.4477818,-0.85462373
-0.1,-0.1,0.6,0.0,0.0,0,0.69852346,1.5390072,0.23465413,0.7122014,0.41205132,0.036890578,0.19312309,-0.23098728,1.8950654,-0.14838462,-0.8237351,-0.008811954,1.4536717,-0.7530208
-0.1,-0.1,0.6,0.0,0.0,0,0.68598366,1.5397184,0.23192409,0.7204892,0.43263412,0.04077473,0.20003636,-0.23469147,1.8961751,-0.15473126,-0.839751,-0.006785331,1.4576253,-0.73469126
-0.1,-0.1,0.6,0.0,0.0,0,0.68705016,1.5406442,0.22053805,0.7381848,0.37655348,0.015864065,0.2082938,-0.2405509,1.8937874,-0.15216684,-0.8405857,-0.018317698,1.459203,-0.7283357
-0.1,-0.1,0.6,0.0,0.0,0,0.7095878,1.5375637,0.22929348,0.7266205,0.3726264,0.045215916,0.18588603,-0.2305621,1.89305,-0.14417401,-0.82932156,0.00030354544,1.4656252,-0.683458
-0.1,-0.1,0.6,0.0,0.0,0,0.70945513,1.5386041,0.23084159,0.7202502,0.39362308,0.048060663,0.21046376,-0.23459594,1.899768,-0.15257524,-0.83672094,-0.043539748,1.4520323,-0.732866
-0.1,-0.1,0.6,0.0,0.0,0,0.70634466,1.5419348,0.21809581,0.7160313,0.3556911,0.014088402,0.19135614,-0.24672218,1.889103,-0.14659476,-0.83436346,-0.0037444406,1.4436564,-0.7363282
-0.1,-0.1,0.6,0.0,0.0,0,0.69852877,1.5379013,0.22416037,0.72082216,0.43445542,0.027761923,0.2387753,-0.2342881,1.8950845,-0.15460424,-0.83952945,-0.002780743,1.4527504,-0.7402515
-0.1,-0.1,0.6,0.0,0.0,0,0.671744,1.541319,0.2176014,0.7213966,0.4009182,0.026846664,0.18768725,-0.24894117,1.899834,-0.17004173,-0.8255914,0.01485843,1.4458681,-0.7233793
-0.1,-0.1,0.6,0.0,0.0,0,0.7025326,1.5409747,0.23062453,0.72451353,0.43853503,0.01372482,0.09948548,-0.24114221,1.8925015,-0.1772251,-0.83563733,-0.040006965,1.4581575,-0.76688415
-0.1,-0.1,0.6,0.0,0.0,0,0.68416,1.5407807,0.21838996,0.73349327,0.41260442,0.04328888,0.21095866,-0.23203763,1.895496,-0.17363018,-0.84015375,0.020453839,1.4602367,-0.7303018
-0.1,-0.1,0.6,0.0,0.0,0,0.7244282,1.5422713,0.23056473,0.723217,0.41013524,0.032989245,0.14311402,-0.23014528,1.8931729,-0.1418113,-0.8306216,-0.026852645,1.453661,-0.758434
-0.1,-0.1,0.6,0.0,0.0,0,0.70891505,1.5375693,0.2246646,0.723968,0.41958755,0.004435161,0.16187157,-0.23505223,1.8935333,-0.15918224,-0.8358977,0.003917729,1.4532318,-0.7850563
-0.1,-0.1,0.6,0.0,0.0,0,0.7466757,1.5416417,0.22248729,0.72725695,0.38535774,0.033418372,0.18665218,-0.2489566,1.8961533,-0.14237529,-0.83371234,-0.016279407,1.461749,-0.7873464
-0.1,-0.1,0.6,0.0,0.0,0,0.6754625,1.5417455,0.24025911,0.7298071,0.3977687,0.012921747,0.20587002,-0.2419014,1.8973345,-0.14684355,-0.83617616,-0.004770481,1.4554234,-0.8319582
-0.1,-0.1,0.6,0.0,0.0,0,0.659224,1.5327213,0.22800276,0.72815764,0.42490962,0.022778131,0.21411356,-0.2369498,1.8973061,-0.14875503,-0.83269393,-0.010213888,1.4623543,-0.66519135
-0.1,-0.1,0.6,0.0,0.0,0,0.67592174,1.5338353,0.23779814,0.7201575,0.3946322,0.024442688,0.20421521,-0.23365714,1.8975406,-0.13454486,-0.83003694,-0.008442703,1.4543781,-0.71660775
-0.1,-0.1,0.6,0.0,0.0,0,0.71457255,1.5472066,0.22860636,0.72574246,0.4020973,0.025436759,0.15834384,-0.2415243,1.8937697,-0.17281611,-0.8396261,-0.029847087,1.4581032,-0.7665915
-0.1,-0.1,0.6,0.0,0.0,0,0.6635588,1.5385402,0.23457068,0.72321105,0.40851003,0.029036868,0.19811982,-0.24097754,1.896482,-0.17104901,-0.82691586,-0.0015531195,1.4564643,-0.80687225
-0.1,-0.1,0.6,0.0,0.0,0,0.68071735,1.5350094,0.22314864,0.72936124,0.3970036,0.038980834,0.15160845,-0.23764177,1.8936352,-0.1480294,-0.83477306,-0.023157801,1.4561428,-0.81169754
-0.1,-0.1,0.6,0.0,0.0,0,0.67507994,1.547524,0.22200143,0.72715974,0.37775722,0.017091231,0.17730884,-0.23985028,1.8939484,-0.15875106,-0.82125634,-0.025263982,1.4505016,-0.7799592
-0.1,-0.1,0.6,0.0,0.0,0,0.6937707,1.544875,0.24169822,0.7250109,0.34390977,0.04509978,0.21404254,-0.23872922,1.8868381,-0.15157886,-0.8285981,-0.023047024,1.4514482,-0.8106604
-0.1,-0.1,0.6,0.0,0.0,0,0.7018116,1.540873,0.23618971,0.7094369,0.3843263,0.048784636,0.14708433,-0.24853665,1.8976128,-0.1751567,-0.838836,-0.00944836,1.4479675,-0.7022693
-0.1,-0.1,0.6,0.0,0.0,0,0.68890333,1.5449198,0.22851923,0.7235893,0.36719504,0.040111337,0.17615686,-0.23560064,1.8942664,-0.17359978,-0.83003676,-0.024104953,1.4498712,-0.6844618
-0.1,-0.1,0.6,0.0,0.0,0,0.68018734,1.5347568,0.22861637,0.72630805,0.3839147,0.031845897,0.18141979,-0.24066322,1.8958722,-0.15654466,-0.83639127,-0.017208064,1.4622749,-0.7819783
-0.1,-0.1,0.6,0.0,0.0,0,0.6772905,1.5433265,0.22017787,0.71919847,0.355469,0.040571984,0.19451517,-0.23670496,1.8926458,-0.15808943,-0.8330881,-0.047951438,1.4472488,-0.69008875
-0.1,-0.1,0.6,0.0,0.0,0,0.6332823,1.5357614,0.22863738,0.72624344,0.39496383,0.025067344,0.19597429,-0.24664447,1.8962221,-0.15086512,-0.8363258,0.0038534557,1.447423,-0.6879143
-0.1,-0.1,0.6,0.0,0.0,0,0.6901815,1.5399307,0.22701894,0.7194065,0.40765828,0.016650816,0.1588602,-0.22711739,1.8928124,-0.17341149,-0.8360216,0.025346762,1.4504887,-0.76854163
-0.1,-0.1,0.6,0.0,0.0,0,0.69684726,1.5445937,0.24023826,0.72279114,0.38801682,0.026170887,0.14709495,-0.23533121,1.8988439,-0.15587416,-0.836911,-0.021028263,1.4547136,-0.807697
-0.1,-0.1,0.6,0.0,0.0,0,0.68314755,1.5425138,0.23135921,0.7291313,0.39671957,0.02799775,0.17715272,-0.25984156,1.8936319,-0.16844563,-0.8341494,0.01399334,1.4405,-0.68462825
-0.1,-0.1,0.6,0.0,0.0,0,0.6779248,1.5337945,0.23410352,0.7250722,0.42079747,0.023903681,0.19882348,-0.23681922,1.8909771,-0.14899218,-0.82386005,-0.018461324,1.4518049,-0.70074815
-0.1,-0.1,0.6,0.0,0.0,0,0.69424415,1.5430012,0.2191983,0.7283215,0.36429816,0.012136554,0.22789751,-0.23086938,1.88878,-0.15343632,-0.8323126,-0.086201444,1.4554479,-0.6603019
-0.1,-0.1,0.6,0.0,0.0,0,0.69296736,1.5394789,0.22000211,0.7204715,0.42812505,0.031357225,0.17457524,-0.23772791,1.8950926,-0.1632026,-0.8334935,-0.013471609,1.4556935,-0.7032752
-0.1,-0.1,0.6,0.0,0.0,0,0.6646349,1.5469763,0.21699591,0.7263643,0.3778794,0.03190588,0.152858,-0.24165978,1.8871498,-0.16288511,-0.8334299,-0.028397102,1.4504453,-0.86509347
-0.1,-0.1,0.6,0.0,0.0,0,0.6711817,1.5466471,0.22592075,0.73159206,0.44055513,0.03506925,0.14277722,-0.24549425,1.8959,-0.15353253,-0.83678585,-0.0016038574,1.4560536,-0.7026709
-0.1,-0.1,0.6,0.0,0.0,0,0.64624006,1.5417242,0.22557174,0.71798813,0.39208338,0.039111648,0.19530849,-0.24022478,1.8953227,-0.14330637,-0.83445793,-0.023966163,1.4581103,-0.7080321
-0.1,-0.1,0.6,0.0,0.0,0,0.65094984,1.537307,0.24017574,0.72251564,0.43360883,0.035915025,0.1604849,-0.232728,1.890574,-0.1466805,-0.82346016,0.0043910686,1.4603126,-0.8048729
-0.1,-0.1,0.6,0.0,0.0,0,0.6869759,1.5396994,0.22039369,0.71064967,0.393731,0.029965322,0.15465419,-0.24234116,1.8897016,-0.15017778,-0.8406704,-0.017100941,1.445411,-0.72351825
-0.1,-0.1,0.6,0.0,0.0,0,0.7095032,1.5421375,0.22901501,0.72574955,0.4034509,0.035735115,0.16814254,-0.24557105,1.8914053,-0.16940536,-0.8417971,0.0038315582,1.4615098,-0.8101004
-0.1,-0.1,0.6,0.0,0.0,0,0.6476048,1.5340774,0.23928255,0.7299992,0.389257,0.022546476,0.18498552,-0.2452265,1.8908448,-0.15729454,-0.8463879,-0.033854425,1.4450954,-0.77890855
-0.1,-0.1,0.6,0.0,0.0,0,0.6631829,1.539974,0.23417915,0.72201693,0.39736083,0.059436392,0.15864444,-0.24508165,1.8893495,-0.14099649,-0.83333975,-0.025327668,1.4496214,-0.68784803
-0.1,-0.1,0.6,0.0,0.0,0,0.70491993,1.5434117,0.2375799,0.72006017,0.43000287,0.05092119,0.15920754,-0.24833044,1.895629,-0.14659584,-0.8319479,0.017312236,1.454784,-0.8051761
-0.1,-0.1,0.6,0.0,0.0,0,0.6798683,1.542865,0.22614436,0.7200675,0.4150574,0.012806119,0.17142498,-0.2336128,1.8959634,-0.1583697,-0.8292826,0.037396017,1.4618187,-0.76740295
-0.1,-0.1,0.6,0.0,0.0,0,0.6653492,1.5349005,0.23252174,0.7249886,0.42972887,0.02224777,0.19415332,-0.23818184,1.89415,-0.15150934,-0.8379793,-0.008845766,1.4495115,-0.85261756
-0.1,-0.1,0.6,0.0,0.0,0,0.68919003,1.5438412,0.23548228,0.72450536,0.4066482,0.026876356,0.1885831,-0.24297516,1.8938537,-0.15195954,-0.83662707,-0.010240722,1.45566,-0.88532436
-0.1,-0.1,0.6,0.0,0.0,0,0.6925484,1.5450844,0.217597,0.7215216,0.45402896,0.023027813,0.14516328,-0.24092187,1.8978364,-0.16295828,-0.82870775,0.0031480982,1.4574533,-0.7337805
-0.1,-0.1,0.6,0.0,0.0,0,0.68008983,1.5323975,0.234621,0.72782177,0.38458693,0.042594202,0.17727321,-0.24541658,1.8946837,-0.16825427,-0.8238113,0.019246558,1.4520465,-0.75872976
-0.1,-0.1,0.6,0.0,0.0,0,0.68803173,1.5401919,0.2229998,0.71721315,0.36618984,0.023714833,0.17178325,-0.23871052,1.9002668,-0.1712807,-0.8370513,-0.024710972,1.4378738,-0.6869857
-0.1,-0.1,0.6,0.0,0.0,0,0.70182264,1.5367639,0.23093699,0.7258479,0.39151087,0.01961038,0.1744066,-0.24183927,1.8956621,-0.1690047,-0.82961833,-0.007524378,1.4471134,-0.78867614
-0.1,-0.1,0.6,0.0,0.0,0,0.6557368,1.5321897,0.2164617,0.7228231,0.37987053,0.03785394,0.16475625,-0.23964226,1.891987,-0.14664389,-0.8256139,-0.016652944,1.4487294,-0.79893196
-0.1,-0.1,0.6,0.0,0.0,0,0.696539,1.5348227,0.21847284,0.72292894,0.39735845,0.04710771,0.16530326,-0.24871095,1.8905153,-0.15050367,-0.82975554,0.020346437,1.4579543,-0.80857396
-0.1,-0.1,0.6,0.0,0.0,0,0.7222543,1.5325607,0.23300137,0.72384316,0.44957882,0.023693684,0.17276767,-0.24087271,1.8915291,-0.16213274,-0.83816427,-0.04529525,1.449791,-0.78666085
-0.1,-0.1,0.6,0.0,0.0,0,0.70370996,1.5341016,0.24662586,0.7202912,0.40181598,0.022281844,0.20840055,-0.23288482,1.8971468,-0.15094966,-0.82299626,0.015666882,1.4489583,-0.7217114
-0.1,-0.1,0.6,0.0,0.0,0,0.70074856,1.5384966,0.22525434,0.72598225,0.39700514,0.044111673,0.17867695,-0.2439212,1.8882059,-0.14356734,-0.82670313,-0.00044650023,1.4549801,-0.7697701
