sanky1234/BimanualDexCatch/isaacgymenvs/cem_results/football_pose_0.1_0.1_0.8999999999999999_-0.5235987755982988_0.0_0_2025-05-27.csv
x,y,z,roll,pitch,yaw,robot1/joint1,robot1/joint2,robot1/joint3,robot1/joint4,robot1/joint5,robot1/joint6,robot1/joint7,robot2/joint1,robot2/joint2,robot2/joint3,robot2/joint4,robot2/joint5,robot2/joint6,robot2/joint7
0.1,0.1,0.8999999999999999,-0.5235987755982988,0.0,0,-0.6808344,0.372874,-0.8599408,0.7774279,-0.41484922,1.0804083,-0.83970326,1.13417,-0.16743223,1.1198136,0.82614446,0.033934996,0.7198869,-1.5971544
0.1,0.1,0.8999999999999999,-0.5235987755982988,0.0,0,-0.68176913,0.3843492,-0.8431614,0.7629808,-0.48354846,1.0827148,-0.8659175,1.1173718,-0.2274596,1.1556506,0.83637774,0.010476457,0.7159578,-1.4275857
0.1,0.1,0.8999999999999999,-0.5235987755982988,0.0,0,-0.6727144,0.40464184,-0.8546011,0.7873898,-0.42372128,1.0775933,-0.9076792,1.1088904,-0.18178828,1.1037161,0.8188831,0.0270807,0.6307907,-1.6799631
0.1,0.1,0.8999999999999999,-0.5235987755982988,0.0,0,-0.6821297,0.3704852,-0.84464294,0.7687963,-0.45060197,1.0820103,-0.840647,1.1083801,-0.13892303,1.1529809,0.83936185,0.088380374,0.6780071,-1.5382484
0.1,0.1,0.8999999999999999,-0.5235987755982988,0.0,0,-0.6741534,0.39338613,-0.8536836,0.770296,-0.43999007,1.0668935,-0.9163883,1.1179636,-0.24387982,1.1083741,0.817317,0.11959199,0.6455097,-1.2714952
0.1,0.1,0.8999999999999999,-0.5235987755982988,0.0,0,-0.6844612,0.39678332,-0.86101204,0.7885933,-0.47364888,1.0710543,-0.83397704,1.1003101,-0.17627288,1.1513507,0.8249487,0.12387311,0.61789006,-1.6847694
0.1,0.1,0.8999999999999999,-0.5235987755982988,0.0,0,-0.6928027,0.37049228,-0.8359894,0.7619532,-0.4668134,1.0747802,-0.83915496,1.1136448,-0.16261947,1.1113406,0.83661056,0.03614181,0.64484686,-1.4096032
0.1,0.1,0.8999999999999999,-0.5235987755982988,0.0,0,-0.6962216,0.3909883,-0.8509996,0.7838213,-0.42695948,1.0856122,-0.8592015,1.2015018,-0.16979149,1.0961245,0.8049449,0.017915098,0.5361847,-1.7232729
0.1,0.1,0.8999999999999999,-0.5235987755982988,0.0,0,-0.6706143,0.39372864,-0.86270404,0.7739405,-0.47081596,1.0689577,-0.8718058,1.1190817,-0.15408489,1.0919547,0.8353161,0.10084399,0.5236886,-1.6176804
0.1,0.1,0.8999999999999999,-0.5235987755982988,0.0,0,-0.69517195,0.38736957,-0.8589942,0.7671296,-0.47641364,1.093809,-0.85753083,1.1335284,-0.20762362,1.1412859,0.8083905,0.074742176,0.5624467,-1.58463
0.1,0.1,0.8999999999999999,-0.5235987755982988,0.0,0,-0.6830313,0.37808168,-0.8316564,0.7665734,-0.47783005,1.0715309,-0.85952556,1.1145478,-0.20632848,1.1174929,0.83600676,0.1088368,0.68566257,-1.3549105
0.1,0.1,0.8999999999999999,-0.5235987755982988,0.0,0,-0.69449437,0.35875958,-0.8343253,0.7808319,-0.46144578,1.0675839,-0.8546728,1.0903502,-0.12801613,1.1082008,0.8090875,0.027643517,0.6098456,-1.6963005
0.1,0.1,0.8999999999999999,-0.5235987755982988,0.0,0,-0.6857974,0.3782996,-0.8440697,0.78394926,-0.45445427,1.0720308,-0.85026205,1.1463932,-0.17249091,1.1238606,0.8186673,0.048463266,0.54414004,-1.560974
0.1,0.1,0.8999999999999999,-0.5235987755982988,0.0,0,-0.6906891,0.38634726,-0.83326703,0.76630455,-0.44431773,1.0756502,-0.897139,1.0915912,-0.17167668,1.0992831,0.8253295,0.046315707,0.57924956,-1.534152
0.1,0.1,0.8999999999999999,-0.5235987755982988,0.0,0,-0.68021554,0.38413316,-0.8418936,0.79071265,-0.4360852,1.0824919,-0.8481468,1.0980257,-0.17350888,1.1067644,0.8400278,0.06954442,0.6311117,-1.459431
0.1,0.1,0.8999999999999999,-0.5235987755982988,0.0,0,-0.68861383,0.38652727,-0.8364288,0.7593407,-0.4603552,1.0748599,-0.8796546,1.1242609,-0.15260072,1.0944654,0.8471483,0.08082926,0.5645156,-1.5033994
0.1,0.1,0.8999999999999999,-0.5235987755982988,0.0,0,-0.67884696,0.39478034,-0.85145915,0.7715607,-0.45353213,1.0959328,-0.86972725,1.0972984,-0.16294216,1.0924711,0.82443047,0.08808554,0.6362457,-1.6511488
0.1,0.1,0.8999999999999999,-0.5235987755982988,0.0,0,-0.67710364,0.39844787,-0.84674567,0.78691053,-0.4510581,1.0757335,-0.8618891,1.1131903,-0.21178967,1.1146193,0.83416426,0.08490146,0.524268,-1.6840637
0.1,0.1,0.8999999999999999,-0.5235987755982988,0.0,0,-0.7045587,0.38043436,-0.83980143,0.75819767,-0.45720887,1.0538499,-0.8746196,1.1242217,-0.18441202,1.0962696,0.8348122,0.12586859,0.6222432,-1.5689423
0.1,0.1,0.8999999999999999,-0.5235987755982988,0.0,0,-0.7087424,0.3497056,-0.8679998,0.7740295,-0.44993094,1.0755581,-0.8885329,1.1253759,-0.15996554,1.1358365,0.8247082,0.117202185,0.638983,-1.704452
0.1,0.1,0.8999999999999999,-0.5235987755982988,0.0,0,-0.6839153,0.37917942,-0.85499334,0.78166544,-0.44348964,1.0868726,-0.8311121,1.1100562,-0.18014726,1.1103735,0.83434707,0.121820964,0.6148718,-1.5965395
0.1,0.1,0.8999999999999999,-0.5235987755982988,0.0,0,-0.6914548,0.38856015,-0.8416311,0.7494237,-0.43945947,1.0731189,-0.8493005,1.1060678,-0.17806135,1.1141423,0.8347023,0.0748614,0.6033408,-1.4534484
0.1,0.1,0.8999999999999999,-0.5235987755982988,0.0,0,-0.68846023,0.40844473,-0.8480449,0.8039047,-0.47726655,1.0971174,-0.87235034,1.1282911,-0.15881896,1.1220844,0.8094502,0.1304214,0.5799029,-1.4629292
0.1,0.1,0.8999999999999999,-0.5235987755982988,0.0,0,-0.69010633,0.38772437,-0.8472165,0.7995342,-0.43934536,1.0741554,-0.8485934,1.139314,-0.20870301,1.0909394,0.8345095,0.09604517,0.5623606,-1.558075
0.1,0.1,0.8999999999999999,-0.5235987755982988,0.0,0,-0.68831843,0.39520502,-0.8442946,0.7803835,-0.40835023,1.0740824,-0.8566581,1.127774,-0.17185141,1.1014825,0.8293512,0.07257053,0.59680164,-1.7330943
0.1,0.1,0.8999999999999999,-0.5235987755982988,0.0,0,-0.69496214,0.37474,-0.8475086,0.7662649,-0.42497408,1.0593305,-0.8855107,1.1313782,-0.09214979,1.0804881,0.835623,0.1009128,0.596619,-1.5629206
0.1,0.1,0.8999999999999999,-0.5235987755982988,0.0,0,-0.69609195,0.40679404,-0.8625535,0.7697143,-0.43806723,1.0658283,-0.8348602,1.1248046,-0.13188748,1.1279036,0.82656384,0.11558938,0.56054705,-1.5109987
0.1,0.1,0.8999999999999999,-0.5235987755982988,0.0,0,-0.67328966,0.38457578,-0.85456717,0.79429036,-0.4452225,1.0715489,-0.868723,1.091073,-0.18511592,1.1025834,0.8313617,0.09394128,0.5743086,-1.5646236
0.1,0.1,0.8999999999999999,-0.5235987755982988,0.0,0,-0.6871838,0.38497248,-0.8479147,0.7670398,-0.42135468,1.0658327,-0.862044,1.1130979,-0.14231153,1.0887228,0.83534503,0.04209339,0.65468806,-1.5424045
0.1,0.1,0.8999999999999999,-0.5235987755982988,0.0,0,-0.6936968,0.3646534,-0.84649926,0.77757984,-0.42832965,1.073657,-0.8871985,1.0986396,-0.15761502,1.1010178,0.8273611,0.072075345,0.5433292,-1.6235193
0.1,0.1,0.8999999999999999,-0.5235987755982988,0.0,0,-0.690262,0.3841631,-0.8487213,0.7714236,-0.45454332,1.0665115,-0.87306064,1.1230564,-0.18625101,1.1270131,0.8402402,0.096007876,0.6044315,-1.6822288
0.1,0.1,0.8999999999999999,-0.5235987755982988,0.0,0,-0.6831776,0.39413747,-0.8514251,0.77601796,-0.45853376,1.0852858,-0.8803359,1.1313132,-0.1641358,1.0979288,0.8296171,0.09291876,0.65585494,-1.5939045
0.1,0.1,0.8999999999999999,-0.5235987755982988,0.0,0,-0.6821734,0.37453848,-0.84249073,0.7616966,-0.45592496,1.073614,-0.8613728,1.1288687,-0.17741485,1.081472,0.80784553,0.11731608,0.5564017,-1.6931511
0.1,0.1,0.8999999999999999,-0.5235987755982988,0.0,0,-0.7042893,0.38895702,-0.8449557,0.7774659,-0.46668658,1.0662878,-0.832848,1.1469936,-0.2305791,1.127815,0.82539296,0.11024461,0.6454132,-1.5167733
0.1,0.1,0.8999999999999999,-0.5235987755982988,0.0,0,-0.6873614,0.38483897,-0.84733117,0.7745632,-0.45679873,1.0850194,-0.8358148,1.0739557,-0.16005677,1.1371214,0.8167182,0.07580587,0.53114355,-1.5012774
0.1,0.1,0.8999999999999999,-0.5235987755982988,0.0,0,-0.6904234,0.39029264,-0.8343789,0.7616102,-0.4571584,1.0662262,-0.88639843,1.1492224,-0.195304,1.0858263,0.83012646,0.047256976,0.6386383,-1.5495496
0.1,0.1,0.8999999999999999,-0.5235987755982988,0.0,0,-0.69937915,0.4050568,-0.84905595,0.76865095,-0.40896744,1.0845544,-0.8631932,1.1452554,-0.17250362,1.0760045,0.83786607,0.12445826,0.62255543,-1.4531913
0.1,0.1,0.8999999999999999,-0.5235987755982988,0.0,0,-0.6903491,0.40375036,-0.84870625,0.7878857,-0.42796168,1.0754911,-0.8713159,1.0953817,-0.13235286,1.0990151,0.8430283,0.08130243,0.53232634,-1.5309656
0.1,0.1,0.8999999999999999,-0.5235987755982988,0.0,0,-0.667442,0.37740648,-0.85229695,0.7750434,-0.47254977,1.0769029,-0.85515994,1.1234843,-0.18299326,1.0907148,0.8176148,0.057372794,0.61009914,-1.6913366
0.1,0.1,0.8999999999999999,-0.5235987755982988,0.0,0,-0.6872321,0.40102854,-0.8455629,0.78658295,-0.43907577,1.0859834,-0.8254119,1.1387007,-0.14276661,1.1045657,0.8217912,0.063912146,0.5405599,-1.6998876
0.1,0.1,0.8999999999999999,-0.5235987755982988,0.0,0,-0.68729526,0.38108414,-0.83661354,0.7623512,-0.45825118,1.0909685,-0.9135794,1.1216979,-0.17125607,1.1229582,0.8321583,0.038040873,0.5987018,-1.705513
0.1,0.1,0.8999999999999999,-0.5235987755982988,0.0,0,-0.6672203,0.36791936,-0.858325,0.7814223,-0.44026825,1.0699772,-0.8544082,1.1401244,-0.20636863,1.1250737,0.80758065,0.02543745,0.6449183,-1.4803808
0.1,0.1,0.8999999999999999,-0.5235987755982988,0.0,0,-0.6866375,0.37542248,-0.840111,0.79282,-0.43501714,1.0886835,-0.8992407,1.1554751,-0.2131453,1.0740682,0.840632,0.12375722,0.64741296,-1.6529119
0.1,0.1,0.8999999999999999,-0.5235987755982988,0.0,0,-0.67621493,0.4210644,-0.84531856,0.77992105,-0.44677526,1.0690389,-0.86149406,1.1061444,-0.2564886,1.1418749,0.8497975,0.10989346,0.5584132,-1.5855175
0.1,0.1,0.8999999999999999,-0.5235987755982988,0.0,0,-0.68351257,0.3963703,-0.8447831,0.7817057,-0.4350102,1.0769106,-0.85032797,1.125138,-0.1878937,1.1389799,0.84123355,0.050270032,0.6765211,-1.4365454
0.1,0.1,0.8999999999999999,-0.5235987755982988,0.0,0,-0.6887313,0.36494905,-0.84658504,0.7887844,-0.46225196,1.0698899,-0.83879083,1.135696,-0.1766978,1.1102581,0.82599217,0.099925354,0.62531364,-1.6271176
0.1,0.1,0.8999999999999999,-0.5235987755982988,0.0,0,-0.6796194,0.37762666,-0.86427677,0.7676625,-0.4253825,1.0701109,-0.8430391,1.114501,-0.19266593,1.1112607,0.82279694,0.03360236,0.6054428,-1.6212976
0.1,0.1,0.8999999999999999,-0.5235987755982988,0.0,0,-0.6719244,0.38649482,-0.84474665,0.78858376,-0.45679367,1.0881304,-0.85685253,1.1181575,-0.2209149,1.0874019,0.82896936,0.089292556,0.637456,-1.332502
0.1,0.1,0.8999999999999999,-0.5235987755982988,0.0,0,-0.69768894,0.38903645,-0.83368826,0.7700497,-0.42100215,1.1080413,-0.86443764,1.1389134,-0.16031787,1.1016059,0.8462832,0.090639286,0.64762336,-1.5785073
0.1,0.1,0.8999999999999999,-0.5235987755982988,0.0,0,-0.6931123,0.3809318,-0.8497463,0.77636737,-0.4237084,1.0611951,-0.86058617,1.1405354,-0.18111718,1.1000259,0.83167225,0.07128157,0.6500544,-1.6747797
0.1,0.1,0.8999999999999999,-0.5235987755982988,0.0,0,-0.6896565,0.41454935,-0.8416992,0.779793,-0.41736796,1.07994,-0.89177334,1.131529,-0.18554014,1.0864317,0.80686253,0.14087039,0.5714535,-1.4765112
0.1,0.1,0.8999999999999999,-0.5235987755982988,0.0,0,-0.68930167,0.3652603,-0.84276813,0.7820526,-0.46328485,1.0765026,-0.8390236,1.1306684,-0.0947317,1.1194252,0.8362937,0.033186395,0.58767444,-1.7316712
0.1,0.1,0.8999999999999999,-0.5235987755982988,0.0,0,-0.66785216,0.3953203,-0.868033,0.7587378,-0.45765114,1.0699531,-0.8418381,1.1129991,-0.17160465,1.0848898,0.83546174,0.068587266,0.67586756,-1.6211102
0.1,0.1,0.8999999999999999,-0.5235987755982988,0.0,0,-0.69256645,0.38286883,-0.8523937,0.7683828,-0.4087521,1.0777825,-0.873996,1.0917064,-0.20428303,1.1151804,0.8312583,0.11090384,0.55984044,-1.5779126
0.1,0.1,0.8999999999999999,-0.5235987755982988,0.0,0,-0.6876589,0.4010474,-0.8461442,0.7834834,-0.45139214,1.0813081,-0.858228,1.1731546,-0.20164688,1.084017,0.83858323,0.031710625,0.54693437,-1.5428194
0.1,0.1,0.8999999999999999,-0.5235987755982988,0.0,0,-0.68594104,0.39423692,-0.84183735,0.78106105,-0.43182948,1.0769963,-0.85286874,1.1139532,-0.17515384,1.099235,0.8391167,0.040277652,0.5739795,-1.4767863
0.1,0.1,0.8999999999999999,-0.5235987755982988,0.0,0,-0.6855389,0.39065537,-0.8435497,0.77803105,-0.42997792,1.067028,-0.82406807,1.1211023,-0.1910366,1.1276937,0.8254475,0.051859666,0.6302733,-1.5056349
0.1,0.1,0.8999999999999999,-0.5235987755982988,0.0,0,-0.692997,0.40773118,-0.83901227,0.777085,-0.4261133,1.0660216,-0.8645394,1.1313707,-0.1823561,1.1040465,0.82409114,0.11159694,0.70720327,-1.6559286
0.1,0.1,0.8999999999999999,-0.5235987755982988,0.0,0,-0.7045209,0.4020109,-0.8515355,0.7789535,-0.45597488,1.0865829,-0.8259287,1.1303587,-0.12820022,1.1255951,0.80317485,0.08845689,0.6229418,-1.541415
0.1,0.1,0.8999999999999999,-0.5235987755982988,0.0,0,-0.6857715,0.38951898,-0.8501778,0.7593297,-0.43244624,1.0661466,-0.8723775,1.1244563,-0.14630818,1.0843523,0.83928484,0.111647375,0.5889647,-1.4587724
0.1,0.1,0.8999999999999999,-0.5235987755982988,0.0,0,-0.68103725,0.3933984,-0.8418658,0.78019214,-0.43523145,1.0856841,-0.82360494,1.1253322,-0.2466827,1.1106688,0.83267534,0.17238922,0.542037,-1.5135866
0.1,0.1,0.8999999999999999,-0.5235987755982988,0.0,0,-0.68438995,0.40831122,-0.84503025,0.77454495,-0.43283883,1.0925312,-0.88810104,1.1264293,-0.16443695,1.1208552,0.8191299,0.103604816,0.6097014,-1.6248872
0.1,0.1,0.8999999999999999,-0.5235987755982988,0.0,0,-0.6795202,0.38976043,-0.8521334,0.7839749,-0.46758753,1.0696251,-0.8325122,1.0998774,-0.15806718,1.1272779,0.8557337,0.09466363,0.5763418,-1.634299
0.1,0.1,0.8999999999999999,-0.5235987755982988,0.0,0,-0.6837517,0.3903601,-0.84773284,0.79024845,-0.4468563,1.093867,-0.870846,1.140425,-0.1931822,1.133587,0.82349735,0.0998129,0.6439788,-1.5251552
0.1,0.1,0.8999999999999999,-0.5235987755982988,0.0,0,-0.68566173,0.37490764,-0.85813993,0.77020025,-0.44817212,1.0868115,-0.8349783,1.1399353,-0.19243994,1.1033205,0.8206448,0.024936406,0.5751453,-1.4748479
0.1,0.1,0.8999999999999999,-0.5235987755982988,0.0,0,-0.69085854,0.41636884,-0.8342795,0.80874074,-0.41461316,1.0664737,-0.8530834,1.1300277,-0.22265604,1.1144667,0.8409263,0.09512279,0.6176286,-1.4424527
0.1,0.1,0.8999999999999999,-0.5235987755982988,0.0,0,-0.6796768,0.39853534,-0.85352635,0.7756358,-0.4384756,1.0782062,-0.8548952,1.1334826,-0.18580939,1.1095278,0.82971793,0.11249368,0.6366662,-1.7487866
0.1,0.1,0.8999999999999999,-0.5235987755982988,0.0,0,-0.70343566,0.38403714,-0.8666695,0.7651415,-0.44717577,1.0568391,-0.9070646,1.0969228,-0.23277986,1.0853884,0.8256733,0.14742973,0.5983278,-1.670287
0.1,0.1,0.8999999999999999,-0.5235987755982988,0.0,0,-0.684308,0.38890177,-0.84985274,0.7725998,-0.44378886,1.0828599,-0.89984924,1.0967785,-0.18157096,1.1422324,0.85189134,-0.009248238,0.51117814,-1.6425644
0.1,0.1,0.8999999999999999,-0.5235987755982988,0.0,0,-0.68208396,0.39855912,-0.8420865,0.7679629,-0.49003062,1.0728573,-0.8607186,1.1071217,-0.23147373,1.1059717,0.8405956,0.09351713,0.72003645,-1.532684
0.1,0.1,0.8999999999999999,-0.5235987755982988,0.0,0,-0.6863249,0.37224627,-0.8573629,0.7868893,-0.43484712,1.0607154,-0.86007494,1.1230961,-0.18996614,1.1284093,0.81776917,0.0669939,0.5298843,-1.5966754
0.1,0.1,0.8999999999999999,-0.5235987755982988,0.0,0,-0.6879324,0.37534705,-0.85069984,0.7851028,-0.429441,1.0723454,-0.86960584,1.1160129,-0.22498928,1.1297013,0.8216478,0.03599465,0.53172,-1.3891386
0.1,0.1,0.8999999999999999,-0.5235987755982988,0.0,0,-0.67886794,0.38885993,-0.85242534,0.773365,-0.46569145,1.0638005,-0.83333343,1.133339,-0.17956398,1.1152546,0.82854444,0.023546863,0.6243933,-1.7398385
0.1,0.1,0.8999999999999999,-0.5235987755982988,0.0,0,-0.6860962,0.41546965,-0.8514629,0.7709805,-0.46645504,1.0781012,-0.85299975,1.1251351,-0.17028531,1.1047897,0.83134776,0.116335094,0.59401315,-1.6196865
0.1,0.1,0.8999999999999999,-0.5235987755982988,0.0,0,-0.67921734,0.41143936,-0.8547889,0.7675792,-0.4384942,1.0824242,-0.85912067,1.1473094,-0.18548335,1.0994469,0.82764465,0.108918846,0.57667375,-1.682564
0.1,0.1,0.8999999999999999,-0.5235987755982988,0.0,0,-0.6894239,0.37940165,-0.8462963,0.7786443,-0.44205996,1.0890133,-0.8499919,1.1448065,-0.11426589,1.0923351,0.8171112,0.070928,0.6477501,-1.5170166
0.1,0.1,0.8999999999999999,-0.5235987755982988,0.0,0,-0.68843114,0.40686873,-0.83873945,0.7801177,-0.4383304,1.0861161,-0.8579351,1.1005155,-0.1788007,1.1208289,0.81909794,0.0584824,0.573849,-1.6897473
0.1,0.1,0.8999999999999999,-0.5235987755982988,0.0,0,-0.67631847,0.3789568,-0.84874046,0.7754444,-0.44679886,1.0947095,-0.8763372,1.1344512,-0.19084062,1.0658984,0.8259996,0.11518541,0.5915279,-1.7384402
0.1,0.1,0.8999999999999999,-0.5235987755982988,0.0,0,-0.68504494,0.3920701,-0.847097,0.7770164,-0.42496175,1.080091,-0.86242825,1.1307817,-0.18934287,1.1033629,0.8359967,0.03617886,0.5396557,-1.720278
0.1,0.1,0.8999999999999999,-0.5235987755982988,0.0,0,-0.6952597,0.38433436,-0.8562685,0.78911984,-0.43029103,1.0478603,-0.8734411,1.1047555,-0.12936547,1.1288679,0.82646906,0.07430698,0.60643,-1.5035635
0.1,0.1,0.8999999999999999,-0.5235987755982988,0.0,0,-0.6930548,0.42684773,-0.8473632,0.7869081,-0.45176283,1.052789,-0.85270476,1.0958706,-0.20762531,1.1121393,0.8154119,0.14035569,0.672728,-1.5365644
0.1,0.1,0.8999999999999999,-0.5235987755982988,0.0,0,-0.68105996,0.35550484,-0.85767597,0.770915,-0.4379344,1.073701,-0.87340146,1.1126884,-0.23401074,1.1110873,0.82318974,0.09600665,0.571086,-1.6635524
0.1,0.1,0.8999999999999999,-0.5235987755982988,0.0,0,-0.6991955,0.37266922,-0.84169143,0.771206,-0.42793787,1.0723838,-0.9212659,1.1253103,-0.24250026,1.1441306,0.8414408,0.04813019,0.558192,-1.4663545
0.1,0.1,0.8999999999999999,-0.5235987755982988,0.0,0,-0.6914186,0.38157684,-0.8420763,0.7770395,-0.43908542,1.0990962,-0.8259011,1.1257181,-0.18625475,1.1311898,0.8279676,0.058321252,0.6256909,-1.5746993
0.1,0.1,0.8999999999999999,-0.5235987755982988,0.0,0,-0.68293494,0.38664272,-0.8383347,0.7772846,-0.44575134,1.0971835,-0.8728071,1.1360774,-0.19175959,1.1133946,0.8322645,0.09058729,0.64000183,-1.7021043
0.1,0.1,0.8999999999999999,-0.5235987755982988,0.0,0,-0.67547554,0.379911,-0.85533583,0.78579366,-0.42940187,1.0987042,-0.90366477,1.1537108,-0.20956585,1.1063359,0.8192189,0.08938031,0.56042546,-1.5145047
0.1,0.1,0.8999999999999999,-0.5235987755982988,0.0,0,-0.66478217,0.35786977,-0.86285126,0.78829014,-0.4552285,1.0913112,-0.81430143,1.1444253,-0.16689065,1.1168609,0.81399035,0.11535451,0.6304089,-1.6224356
0.1,0.1,0.8999999999999999,-0.5235987755982988,0.0,0,-0.69423187,0.39774817,-0.8391597,0.77195,-0.42564544,1.05982,-0.9016693,1.1092485,-0.22844407,1.1284739,0.83407336,0.081664875,0.6447946,-1.5696635
0.1,0.1,0.8999999999999999,-0.5235987755982988,0.0,0,-0.67907506,0.38864046,-0.85808647,0.7605768,-0.4549186,1.0533454,-0.84422857,1.1512159,-0.17754515,1.0954463,0.82444906,0.025005532,0.603041,-1.6713417
0.1,0.1,0.8999999999999999,-0.5235987755982988,0.0,0,-0.6813025,0.40244716,-0.85226417,0.78547114,-0.44088575,1.0726798,-0.8383301,1.1140461,-0.18628095,1.1354716,0.8126994,0.04545623,0.6258567,-1.7606128
0.1,0.1,0.8999999999999999,-0.5235987755982988,0.0,0,-0.69433534,0.37577075,-0.8455981,0.76875836,-0.41763023,1.0497155,-0.8629901,1.096014,-0.1880894,1.1216942,0.8379877,0.051433202,0.63307625,-1.6063349
0.1,0.1,0.8999999999999999,-0.5235987755982988,0.0,0,-0.6811914,0.38543215,-0.8426561,0.783324,-0.4673928,1.0636034,-0.85331076,1.1095133,-0.21688469,1.1099386,0.8365135,0.10529541,0.654563,-1.5775354
0.1,0.1,0.8999999999999999,-0.5235987755982988,0.0,0,-0.6872602,0.37850064,-0.85340405,0.7930929,-0.41984153,1.0703617,-0.8632993,1.1475993,-0.23827851,1.0866133,0.8276643,0.08735962,0.5162554,-1.6371584
0.1,0.1,0.8999999999999999,-0.5235987755982988,0.0,0,-0.6786905,0.3951361,-0.8588267,0.7855088,-0.44372523,1.063773,-0.87015504,1.1085078,-0.15365149,1.1451795,0.8347376,0.033329394,0.6835562,-1.5758774
0.1,0.1,0.8999999999999999,-0.5235987755982988,0.0,0,-0.6870994,0.38496745,-0.8423306,0.78758144,-0.4315185,1.0833212,-0.87590975,1.1384509,-0.1945966,1.0960488,0.8391678,0.047681436,0.583825,-1.5788182
0.1,0.1,0.8999999999999999,-0.5235987755982988,0.0,0,-0.6863586,0.38063258,-0.8441824,0.76402944,-0.46155438,1.0668195,-0.8173784,1.105695,-0.1119076,1.0891783,0.85120165,0.08239918,0.5634433,-1.6277306
0.1,0.1,0.8999999999999999,-0.5235987755982988,0.0,0,-0.7113827,0.41453457,-0.8621781,0.7846768,-0.4598667,1.0858603,-0.8780214,1.1133099,-0.15482368,1.1509355,0.8351065,0.10676074,0.60167503,-1.3942279
0.1,0.1,0.8999999999999999,-0.5235987755982988,0.0,0,-0.6909693,0.37690017,-0.84987646,0.77915454,-0.46446222,1.0728128,-0.847416,1.1530309,-0.1648795,1.1325018,0.8407017,0.0514551,0.59379065,-1.3219341
0.1,0.1,0.8999999999999999,-0.5235987755982988,0.0,0,-0.7001916,0.36045215,-0.8529816,0.77837175,-0.4209985,1.0649043,-0.84401023,1.1345295,-0.18841925,1.0761815,0.84153795,0.092761956,0.7212628,-1.50452
0.1,0.1,0.8999999999999999,-0.5235987755982988,0.0,0,-0.66713643,0.372017,-0.8667574,0.7803888,-0.45464313,1.0645603,-0.8728343,1.1518112,-0.21732081,1.0786672,0.8186249,0.08464817,0.54342246,-1.5940645
0.1,0.1,0.8999999999999999,-0.5235987755982988,0.0,0,-0.68412155,0.37224203,-0.8472945,0.79590124,-0.41605937,1.0831373,-0.83376926,1.1461319,-0.28593132,1.1458008,0.81181496,0.08699093,0.6648865,-1.6365873
0.1,0.1,0.8999999999999999,-0.5235987755982988,0.0,0,-0.6835176,0.41446707,-0.8582897,0.7915531,-0.44072455,1.0570045,-0.85628754,1.1381418,-0.18279082,1.1146159,0.8317688,0.044488594,0.62753016,-1.6066206
0.1,0.1,0.8999999999999999,-0.5235987755982988,0.0,0,-0.68340683,0.39198747,-0.8475765,0.77239627,-0.46816242,1.1022196,-0.81704056,1.1200111,-0.27481395,1.129292,0.8125739,0.09210455,0.58712006,-1.4908355
0.1,0.1,0.8999999999999999,-0.5235987755982988,0.0,0,-0.6813131,0.41014382,-0.8608651,0.78306115,-0.42071423,1.0912557,-0.84714377,1.1219593,-0.1709009,1.1113256,0.83510256,0.05948145,0.55519617,-1.8281344
0.1,0.1,0.8999999999999999,-0.5235987755982988,0.0,0,-0.69951856,0.39472312,-0.8421328,0.7975115,-0.4559606,1.0699182,-0.8946127,1.1248571,-0.18520227,1.1608262,0.83015627,0.11075618,0.58370143,-1.5211146
0.1,0.1,0.8999999999999999,-0.5235987755982988,0.0,0,-0.6995281,0.4004834,-0.84324545,0.77572656,-0.47837472,1.0659915,-0.84935004,1.0830122,-0.14415658,1.135695,0.84690744,0.09228208,0.5654661,-1.575223
0.1,0.1,0.8999999999999999,-0.5235987755982988,0.0,0,-0.6927689,0.37979507,-0.84627056,0.7896977,-0.444001,1.0674762,-0.8304887,1.1130719,-0.18245113,1.085181,0.8295707,0.13323541,0.5759118,-1.4070365
0.1,0.1,0.8999999999999999,-0.5235987755982988,0.0,0,-0.6816641,0.392688,-0.8493704,0.7682989,-0.430968,1.0821064,-0.8468506,1.0943575,-0.2281336,1.1061527,0.83140254,0.119928956,0.5727935,-1.6367251
0.1,0.1,0.8999999999999999,-0.5235987755982988,0.0,0,-0.69046336,0.3843935,-0.838655,0.77540755,-0.47403622,1.0793171,-0.87236184,1.1178433,-0.17069155,1.1210392,0.8077898,0.1127666,0.6828374,-1.4398941
0.1,0.1,0.8999999999999999,-0.5235987755982988,0.0,0,-0.67717105,0.3854954,-0.85296106,0.76544046,-0.47914654,1.0636228,-0.89141446,1.1108693,-0.21914802,1.1125499,0.83063304,0.094816945,0.57925814,-1.493261
0.1,0.1,0.8999999999999999,-0.5235987755982988,0.0,0,-0.681232,0.4041974,-0.84809434,0.7794549,-0.43392524,1.0713278,-0.87949455,1.1257883,-0.23293461,1.130972,0.81075543,0.10863201,0.6409739,-1.518962
0.1,0.1,0.8999999999999999,-0.5235987755982988,0.0,0,-0.6785382,0.39788544,-0.8529275,0.7887643,-0.47186032,1.0632432,-0.82527596,1.1087791,-0.15271509,1.0865265,0.8303602,0.15242808,0.66631025,-1.3771058
0.1,0.1,0.8999999999999999,-0.5235987755982988,0.0,0,-0.68068576,0.4115,-0.84698915,0.77447873,-0.46058813,1.0936489,-0.8444517,1.1631871,-0.1435025,1.1161842,0.8182349,0.05711922,0.6520192,-1.5287397
0.1,0.1,0.8999999999999999,-0.5235987755982988,0.0,0,-0.68777704,0.3978548,-0.85141385,0.78834563,-0.4642058,1.0673487,-0.873748,1.1418287,-0.16219573,1.1134965,0.83319116,0.07512404,0.63621026,-1.515698
0.1,0.1,0.8999999999999999,-0.5235987755982988,0.0,0,-0.687194,0.3855777,-0.8555177,0.78048533,-0.43788257,1.0827291,-0.8206087,1.1177392,-0.20770055,1.1215117,0.83198637,0.06324352,0.66286504,-1.5525525
0.1,0.1,0.8999999999999999,-0.5235987755982988,0.0,0,-0.68631995,0.38522843,-0.84880996,0.76659167,-0.463524,1.0700035,-0.87834316,1.148971,-0.20748311,1.1065745,0.8533205,0.08836442,0.54347473,-1.471316
0.1,0.1,0.8999999999999999,-0.5235987755982988,0.0,0,-0.6797332,0.39834514,-0.84556806,0.75779754,-0.46297693,1.0937531,-0.81160337,1.1141658,-0.23955555,1.1054285,0.8339408,0.05572634,0.5310163,-1.7940859
0.1,0.1,0.8999999999999999,-0.5235987755982988,0.0,0,-0.6953313,0.38429904,-0.8364074,0.77579856,-0.45164493,1.0761093,-0.8948501,1.1572145,-0.18850587,1.1203464,0.8278498,0.025461879,0.66870636,-1.6305093
0.1,0.1,0.8999999999999999,-0.5235987755982988,0.0,0,-0.6857944,0.39674452,-0.8452972,0.76169807,-0.4563135,1.0723829,-0.8352665,1.0840228,-0.21803004,1.1147896,0.83819884,0.11534317,0.6439046,-1.5555305
0.1,0.1,0.8999999999999999,-0.5235987755982988,0.0,0,-0.709993,0.38597792,-0.8570567,0.76686203,-0.4249861,1.0466396,-0.86918604,1.1031085,-0.16085106,1.1219605,0.818747,0.06528214,0.64109236,-1.5500976
0.1,0.1,0.8999999999999999,-0.5235987755982988,0.0,0,-0.67840165,0.39817485,-0.8600655,0.78568536,-0.4471015,1.0595381,-0.83693075,1.1625938,-0.22938646,1.0845821,0.8262294,0.1445556,0.54537654,-1.5389888
0.1,0.1,0.8999999999999999,-0.5235987755982988,0.0,0,-0.68531215,0.3876811,-0.8586258,0.78132343,-0.4125575,1.0735506,-0.899394,1.1494466,-0.22134498,1.1203046,0.8388896,0.043138836,0.5847656,-1.4602877
0.1,0.1,0.8999999999999999,-0.5235987755982988,0.0,0,-0.68386334,0.40510848,-0.8623464,0.77027595,-0.43219814,1.0647329,-0.8766052,1.0760906,-0.21632111,1.1410601,0.8350771,0.04435955,0.5881399,-1.675938
0.1,0.1,0.8999999999999999,-0.5235987755982988,0.0,0,-0.6839705,0.3825076,-0.85939807,0.7811837,-0.43054387,1.0579472,-0.869711,1.1173006,-0.2519673,1.1486958,0.8406546,0.07756115,0.56894773,-1.6220084
0.1,0.1,0.8999999999999999,-0.5235987755982988,0.0,0,-0.67467827,0.39351577,-0.86213344,0.8012219,-0.4536771,1.0540701,-0.8144135,1.091824,-0.21951821,1.1281712,0.845495,0.074322015,0.5912544,-1.6390749
0.1,0.1,0.8999999999999999,-0.5235987755982988,0.0,0,-0.6878828,0.39933226,-0.85926455,0.7795384,-0.41419291,1.067415,-0.845733,1.1209295,-0.18321835,1.1340375,0.83558625,0.045968916,0.7055679,-1.4717538
0.1,0.1,0.8999999999999999,-0.5235987755982988,0.0,0,-0.6904845,0.37144774,-0.8550553,0.7815343,-0.43608215,1.0605124,-0.871765,1.1447365,-0.17956224,1.0958819,0.8203983,0.07253854,0.63184965,-1.7488855
0.1,0.1,0.8999999999999999,-0.5235987755982988,0.0,0,-0.67552507,0.37790716,-0.8543713,0.76527876,-0.42887256,1.0818634,-0.8603039,1.1319988,-0.29525566,1.1200554,0.8342662,0.00094795297,0.5466436,-1.5854101
0.1,0.1,0.8999999999999999,-0.5235987755982988,0.0,0,-0.67380124,0.39588946,-0.858683,0.78600484,-0.45740804,1.0788821,-0.8320801,1.1272066,-0.20966592,1.0979319,0.8253204,0.09505352,0.62918955,-1.5714704
0.1,0.1,0.8999999999999999,-0.5235987755982988,0.0,0,-0.6897813,0.36901188,-0.85221094,0.76420724,-0.45131084,1.0743597,-0.8724231,1.1485239,-0.17100309,1.0860151,0.823315,0.09668847,0.5731537,-1.5379139
0.1,0.1,0.8999999999999999,-0.5235987755982988,0.0,0,-0.6871857,0.3962469,-0.85377187,0.7854919,-0.43446565,1.0683339,-0.8397733,1.1103816,-0.18982096,1.1404227,0.8243416,0.09258546,0.57629615,-1.5506601
0.1,0.1,0.8999999999999999,-0.5235987755982988,0.0,0,-0.6838085,0.38856402,-0.86544377,0.77875096,-0.43895307,1.0581368,-0.88178194,1.1004409,-0.24015447,1.1326221,0.8234352,0.03757228,0.51853675,-1.5003381
0.1,0.1,0.8999999999999999,-0.5235987755982988,0.0,0,-0.69345945,0.3746784,-0.84169596,0.78745294,-0.44878742,1.0610236,-0.84614265,1.1283301,-0.18731655,1.1152923,0.8208085,0.0646815,0.6605854,-1.6165917
0.1,0.1,0.8999999999999999,-0.5235987755982988,0.0,0,-0.68289673,0.39780903,-0.85440797,0.76860917,-0.4480762,1.070999,-0.8750159,1.1262583,-0.18357123,1.091016,0.8240097,0.098805346,0.6072773,-1.572285
0.1,0.1,0.8999999999999999,-0.5235987755982988,0.0,0,-0.6885006,0.38681364,-0.83290154,0.8004012,-0.48028544,1.0599561,-0.8361802,1.0954124,-0.17426828,1.0923885,0.81978923,0.13786522,0.64584064,-1.4278558
0.1,0.1,0.8999999999999999,-0.5235987755982988,0.0,0,-0.68242264,0.3959354,-0.8523571,0.78978676,-0.4318579,1.0851165,-0.8494493,1.1258618,-0.23082463,1.1155186,0.82008046,0.12831758,0.6058046,-1.6670084
0.1,0.1,0.8999999999999999,-0.5235987755982988,0.0,0,-0.68453324,0.35926288,-0.8540283,0.7876108,-0.45335597,1.0686193,-0.83103275,1.1262846,-0.22616395,1.1556495,0.8328812,0.092930175,0.659854,-1.6764017
0.1,0.1,0.8999999999999999,-0.5235987755982988,0.0,0,-0.7042824,0.40506193,-0.8585394,0.7882321,-0.47098517,1.0723207,-0.8603249,1.1286635,-0.18311904,1.145264,0.82892823,0.06302633,0.7023388,-1.3729626
0.1,0.1,0.8999999999999999,-0.5235987755982988,0.0,0,-0.68415624,0.3698938,-0.8447609,0.80533993,-0.44789013,1.0754837,-0.8743465,1.1384591,-0.13400517,1.1190734,0.82081527,0.059595257,0.56923586,-1.2998823
0.1,0.1,0.8999999999999999,-0.5235987755982988,0.0,0,-0.69332004,0.39044046,-0.8413091,0.78000116,-0.48097548,1.057542,-0.8505616,1.1014794,-0.1554122,1.1019114,0.8389741,0.029149478,0.58521116,-1.5127503
0.1,0.1,0.8999999999999999,-0.5235987755982988,0.0,0,-0.6887966,0.40748084,-0.8422244,0.7693337,-0.43236655,1.0892695,-0.8455132,1.1043547,-0.21073623,1.0972558,0.827337,0.109639585,0.6580799,-1.6016722
0.1,0.1,0.8999999999999999,-0.5235987755982988,0.0,0,-0.6874886,0.41914433,-0.8622196,0.7836833,-0.45030048,1.0698245,-0.81523013,1.1284151,-0.1693191,1.1305274,0.83408016,0.07354285,0.67584753,-1.5264833
0.1,0.1,0.8999999999999999,-0.5235987755982988,0.0,0,-0.6883195,0.3753187,-0.8518919,0.7793045,-0.4459568,1.0793669,-0.83501196,1.1520219,-0.22104771,1.1583998,0.81883216,-0.017798508,0.72204477,-1.5292746
0.1,0.1,0.8999999999999999,-0.5235987755982988,0.0,0,-0.6992009,0.3883657,-0.8432322,0.79172003,-0.44369304,1.057704,-0.8236369,1.12024,-0.15253721,1.1174809,0.85007036,0.081424326,0.66470456,-1.6367075
0.1,0.1,0.8999999999999999,-0.5235987755982988,0.0,0,-0.68743783,0.38492927,-0.8420193,0.7665609,-0.4414544,1.0951738,-0.83305186,1.1417572,-0.1993861,1.1019974,0.81224686,-0.008602237,0.66248494,-1.4250578
0.1,0.1,0.8999999999999999,-0.5235987755982988,0.0,0,-0.69158685,0.38867474,-0.8599989,0.76405513,-0.46681046,1.0786799,-0.8697246,1.1083513,-0.20867391,1.1156223,0.83709264,0.12632836,0.5090701,-1.4519676
0.1,0.1,0.8999999999999999,-0.5235987755982988,0.0,0,-0.692864,0.36429107,-0.8475898,0.7683468,-0.44116965,1.076418,-0.88640773,1.1281798,-0.19331889,1.1176924,0.81817275,0.1112484,0.6759438,-1.4555151
0.1,0.1,0.8999999999999999,-0.5235987755982988,0.0,0,-0.6972078,0.36548677,-0.84277815,0.7642621,-0.47694355,1.0798131,-0.86872166,1.1379255,-0.19247434,1.0996865,0.8216999,0.07874112,0.6185364,-1.660244
0.1,0.1,0.8999999999999999,-0.5235987755982988,0.0,0,-0.6918534,0.3848035,-0.8423565,0.7763315,-0.43591282,1.0697232,-0.86270887,1.0991188,-0.21220371,1.1202548,0.8190379,0.08253097,0.5717583,-1.5257736
0.1,0.1,0.8999999999999999,-0.5235987755982988,0.0,0,-0.6909827,0.40945145,-0.8624014,0.753656,-0.43813583,1.0690951,-0.8202311,1.1000266,-0.15897487,1.1110469,0.8127585,0.026250849,0.51965076,-1.5066328
0.1,0.1,0.8999999999999999,-0.5235987755982988,0.0,0,-0.67920554,0.39558303,-0.8536321,0.75744885,-0.45471248,1.0848936,-0.8538585,1.1300954,-0.19692996,1.0784014,0.8192667,0.111378625,0.6153105,-1.5228984
0.1,0.1,0.8999999999999999,-0.5235987755982988,0.0,0,-0.7019453,0.39610565,-0.84133023,0.7564498,-0.45317918,1.0758216,-0.8223311,1.0988731,-0.14264931,1.1348101,0.8361558,0.0012087594,0.64359885,-1.4433122
0.1,0.1,0.8999999999999999,-0.5235987755982988,0.0,0,-0.69319093,0.41985723,-0.8498615,0.7742314,-0.4632913,1.0687935,-0.8341901,1.1208674,-0.1646679,1.1106553,0.8230496,0.06770503,0.6496908,-1.420525
0.1,0.1,0.8999999999999999,-0.5235987755982988,0.0,0,-0.6780416,0.38564697,-0.8571156,0.7741877,-0.4606842,1.0769231,-0.8384661,1.0920051,-0.23540318,1.1440337,0.83589816,0.17348212,0.54900765,-1.520035
0.1,0.1,0.8999999999999999,-0.5235987755982988,0.0,0,-0.69833714,0.39534315,-0.83512694,0.7855287,-0.44428325,1.0782027,-0.80526507,1.143512,-0.16130966,1.0668536,0.82235366,0.010114675,0.6217286,-1.730329
0.1,0.1,0.8999999999999999,-0.5235987755982988,0.0,0,-0.6890959,0.39904213,-0.8465663,0.7678288,-0.45885608,1.0875918,-0.87089527,1.11673,-0.18433133,1.1316893,0.80476,0.0038990502,0.54598516,-1.6455947
0.1,0.1,0.8999999999999999,-0.5235987755982988,0.0,0,-0.69942045,0.39068455,-0.84714,0.7709442,-0.4458285,1.0797322,-0.8379133,1.1333431,-0.1077127,1.1028692,0.814809,0.04897034,0.61313695,-1.6131732
0.1,0.1,0.8999999999999999,-0.5235987755982988,0.0,0,-0.682696,0.3885876,-0.85251725,0.7682558,-0.44410378,1.0801543,-0.87089443,1.143936,-0.20008697,1.1188844,0.8232651,0.029683251,0.6677752,-1.4706028
0.1,0.1,0.8999999999999999,-0.5235987755982988,0.0,0,-0.6802404,0.4022577,-0.8496277,0.78273153,-0.45795232,1.054449,-0.8453866,1.1477098,-0.24254753,1.1166775,0.82831603,0.029803637,0.662827,-1.3950766
0.1,0.1,0.8999999999999999,-0.5235987755982988,0.0,0,-0.69862854,0.4163991,-0.84936464,0.779174,-0.42844307,1.0675149,-0.8709741,1.1545831,-0.16930878,1.0775584,0.83446044,0.13454108,0.681438,-1.553092
0.1,0.1,0.8999999999999999,-0.5235987755982988,0.0,0,-0.6896496,0.39066443,-0.8567826,0.77235895,-0.44275472,1.0689207,-0.87305236,1.1380022,-0.1433762,1.1139797,0.84209603,0.059685964,0.595129,-1.4692166
0.1,0.1,0.8999999999999999,-0.5235987755982988,0.0,0,-0.69161016,0.37763077,-0.8651292,0.7633623,-0.42537838,1.0669223,-0.8762508,1.1364475,-0.23334067,1.091453,0.82934284,0.037085187,0.5261629,-1.5041639
0.1,0.1,0.8999999999999999,-0.5235987755982988,0.0,0,-0.68991077,0.42564887,-0.8516005,0.7665891,-0.42426774,1.0842501,-0.83644116,1.1102364,-0.20635918,1.1219778,0.83405995,0.029034818,0.5539564,-1.4484364
0.1,0.1,0.8999999999999999,-0.5235987755982988,0.0,0,-0.6975788,0.39054987,-0.8543281,0.76135087,-0.41870913,1.0602363,-0.83605725,1.146073,-0.19035931,1.1037744,0.8163721,0.0765597,0.66372615,-1.578805
0.1,0.1,0.8999999999999999,-0.5235987755982988,0.0,0,-0.68483675,0.39831418,-0.8626726,0.7998806,-0.44592625,1.0439333,-0.8938698,1.1077409,-0.26394057,1.1185797,0.8184249,0.07591788,0.64788777,-1.5876783
0.1,0.1,0.8999999999999999,-0.5235987755982988,0.0,0,-0.68133867,0.39911437,-0.85268253,0.7857285,-0.4612174,1.0634341,-0.8377878,1.1341469,-0.24574466,1.108597,0.8410092,0.045818668,0.5904861,-1.691073
0.1,0.1,0.8999999999999999,-0.5235987755982988,0.0,0,-0.6936822,0.38826582,-0.85961354,0.7512642,-0.41902474,1.0900522,-0.85799193,1.1311934,-0.18632385,1.0849051,0.83879447,0.07594376,0.6466288,-1.5516442
0.1,0.1,0.8999999999999999,-0.5235987755982988,0.0,0,-0.68350345,0.41027907,-0.8511364,0.76944846,-0.44589788,1.0778403,-0.87308705,1.1126229,-0.18312892,1.1032004,0.8101351,0.06259081,0.64099807,-1.3760351
0.1,0.1,0.8999999999999999,-0.5235987755982988,0.0,0,-0.6911819,0.3917791,-0.85058945,0.7707256,-0.45070782,1.0561323,-0.8409832,1.1338463,-0.15331721,1.0763084,0.793317,0.06321662,0.67049515,-1.3550417
0.1,0.1,0.8999999999999999,-0.5235987755982988,0.0,0,-0.6896964,0.39036503,-0.852851,0.76441467,-0.4780181,1.0778985,-0.86092734,1.1046582,-0.20563038,1.1388816,0.82664174,0.08709591,0.5899594,-1.5641706
0.1,0.1,0.8999999999999999,-0.5235987755982988,0.0,0,-0.6866844,0.38051122,-0.85568935,0.77535754,-0.45382413,1.0391319,-0.89982975,1.1035343,-0.23515765,1.1295031,0.81387657,0.09973617,0.65792143,-1.5834485
0.1,0.1,0.8999999999999999,-0.5235987755982988,0.0,0,-0.6882246,0.40404776,-0.84333736,0.79741347,-0.44682112,1.0547175,-0.84617895,1.1320107,-0.1712762,1.1580074,0.8431907,0.09754297,0.6155378,-1.579382
0.1,0.1,0.8999999999999999,-0.5235987755982988,0.0,0,-0.69287395,0.39225268,-0.8628798,0.769748,-0.45590183,1.0796481,-0.8861376,1.1385586,-0.20448563,1.1244365,0.8196199,0.121141985,0.6031072,-1.6430032
0.1,0.1,0.8999999999999999,-0.5235987755982988,0.0,0,-0.67931557,0.38922942,-0.85802203,0.76048267,-0.45364898,1.0765713,-0.8576096,1.1200477,-0.2277357,1.092605,0.8356015,0.16427962,0.689158,-1.4741356
0.1,0.1,0.8999999999999999,-0.5235987755982988,0.0,0,-0.6953716,0.40322685,-0.85233665,0.7786294,-0.45186594,1.0689956,-0.8285446,1.107551,-0.15951897,1.130025,0.82218623,0.0058769677,0.6250724,-1.5062454
0.1,0.1,0.8999999999999999,-0.5235987755982988,0.0,0,-0.69065106,0.39273685,-0.8534198,0.7968677,-0.41450462,1.0688573,-0.88911164,1.1303266,-0.22655478,1.139885,0.83050656,0.090675764,0.6312411,-1.6495525
0.1,0.1,0.8999999999999999,-0.5235987755982988,0.0,0,-0.6853533,0.3973217,-0.8531788,0.7846278,-0.43544078,1.0816137,-0.8807826,1.1283814,-0.18135434,1.1106284,0.82860434,0.07245697,0.6425285,-1.6242424
0.1,0.1,0.8999999999999999,-0.5235987755982988,0.0,0,-0.6945484,0.41533515,-0.8533914,0.78785473,-0.43227655,1.0499156,-0.81109434,1.161971,-0.19907717,1.0964756,0.8391486,0.07475326,0.654839,-1.5007001
0.1,0.1,0.8999999999999999,-0.5235987755982988,0.0,0,-0.6853226,0.40316138,-0.85532933,0.777862,-0.44823134,1.0830121,-0.8491679,1.126985,-0.15458596,1.0794308,0.84004945,0.083757974,0.6111465,-1.5425231
0.1,0.1,0.8999999999999999,-0.5235987755982988,0.0,0,-0.6777803,0.3882479,-0.8555051,0.7672224,-0.46135145,1.1007144,-0.8481392,1.1206341,-0.20054343,1.1077725,0.82125175,0.05141158,0.69363326,-1.6935118
0.1,0.1,0.8999999999999999,-0.5235987755982988,0.0,0,-0.66399246,0.39628553,-0.87115425,0.7765406,-0.43060994,1.0572326,-0.8234998,1.1450917,-0.1677174,1.1131959,0.83135575,0.11022273,0.58583796,-1.3734231
0.1,0.1,0.8999999999999999,-0.5235987755982988,0.0,0,-0.6872315,0.40044132,-0.8606228,0.7712894,-0.4384672,1.0822276,-0.8462348,1.1044947,-0.20713976,1.1118765,0.84640944,0.07582244,0.57346094,-1.4524368
0.1,0.1,0.8999999999999999,-0.5235987755982988,0.0,0,-0.69712096,0.36810613,-0.8347808,0.79509926,-0.43854785,1.0742878,-0.8747648,1.1140182,-0.21482748,1.1471306,0.83440804,0.13609876,0.64084303,-1.7006716
0.1,0.1,0.8999999999999999,-0.5235987755982988,0.0,0,-0.692051,0.39541844,-0.84717625,0.7636984,-0.4551008,1.0710254,-0.8421163,1.1116034,-0.22610089,1.1358571,0.8272817,0.115015104,0.62224734,-1.6052518
0.1,0.1,0.8999999999999999,-0.5235987755982988,0.0,0,-0.68579173,0.41124567,-0.8531656,0.768241,-0.45185563,1.0767366,-0.8595749,1.1474587,-0.2555381,1.0936484,0.8356868,0.022913413,0.54808426,-1.5942447
0.1,0.1,0.8999999999999999,-0.5235987755982988,0.0,0,-0.69167084,0.40193868,-0.8486024,0.76346886,-0.43211138,1.0610309,-0.9172288,1.1629193,-0.24231796,1.0909134,0.8202804,0.08820579,0.67427135,-1.4791291
0.1,0.1,0.8999999999999999,-0.5235987755982988,0.0,0,-0.69713247,0.40766388,-0.8479907,0.7670224,-0.42892864,1.0899336,-0.87885946,1.1208419,-0.24847837,1.12274,0.8500886,0.07520008,0.55809253,-1.6888664
0.1,0.1,0.8999999999999999,-0.5235987755982988,0.0,0,-0.6958672,0.40690485,-0.8445116,0.7883395,-0.43542078,1.0614889,-0.8553774,1.131124,-0.22855076,1.0900875,0.8146243,0.11223852,0.64375013,-1.4069879
0.1,0.1,0.8999999999999999,-0.5235987755982988,0.0,0,-0.70810145,0.39129314,-0.84360564,0.77559716,-0.4238257,1.0624964,-0.85591584,1.1039228,-0.2187726,1.1346934,0.8000445,0.06989987,0.59494126,-1.5381455
0.1,0.1,0.8999999999999999,-0.5235987755982988,0.0,0,-0.70285743,0.38149324,-0.8441496,0.7726722,-0.43788275,1.0763272,-0.905837,1.1087763,-0.1944461,1.1340122,0.8227365,0.08025257,0.7041955,-1.52642
0.1,0.1,0.8999999999999999,-0.5235987755982988,0.0,0,-0.69401646,0.4060201,-0.8509537,0.79373616,-0.42481297,1.0659225,-0.8193799,1.1464782,-0.17635682,1.104648,0.83261114,0.034687918,0.71625435,-1.4698595
0.1,0.1,0.8999999999999999,-0.5235987755982988,0.0,0,-0.6778768,0.3874363,-0.8627857,0.78200966,-0.46963215,1.0776135,-0.8619838,1.1163622,-0.17191145,1.1254619,0.83031446,0.15551478,0.6949782,-1.6978679
0.1,0.1,0.8999999999999999,-0.5235987755982988,0.0,0,-0.69486165,0.42045945,-0.857431,0.7641938,-0.4574444,1.0420296,-0.87479955,1.1287279,-0.20654936,1.0717595,0.82953715,0.08041804,0.6302261,-1.4545109
0.1,0.1,0.8999999999999999,-0.5235987755982988,0.0,0,-0.68209654,0.38713026,-0.8449303,0.7651888,-0.4787934,1.0652933,-0.8467655,1.1424255,-0.160571,1.1299504,0.8302199,0.091661945,0.62936413,-1.5059949
0.1,0.1,0.8999999999999999,-0.5235987755982988,0.0,0,-0.6832923,0.42558706,-0.83773756,0.7908743,-0.43955845,1.0754658,-0.8762151,1.1422696,-0.1581485,1.1318947,0.8414189,0.06519265,0.60324824,-1.5080596
0.1,0.1,0.8999999999999999,-0.5235987755982988,0.0,0,-0.6837259,0.39520153,-0.8510756,0.76500744,-0.4536011,1.0693899,-0.8452836,1.1274331,-0.0961447,1.1027759,0.80876416,0.10651734,0.5780296,-1.4671571
0.1,0.1,0.8999999999999999,-0.5235987755982988,0.0,0,-0.69610167,0.40410715,-0.85241246,0.7731394,-0.4454386,1.0575777,-0.841637,1.1425577,-0.2347601,1.0996486,0.8169734,0.12366375,0.65752375,-1.4346402
0.1,0.1,0.8999999999999999,-0.5235987755982988,0.0,0,-0.6988047,0.4111746,-0.85717756,0.77377206,-0.45368555,1.0549951,-0.85049605,1.1447735,-0.19901502,1.0990067,0.8273893,0.1173748,0.6218784,-1.4630513
0.1,0.1,0.8999999999999999,-0.5235987755982988,0.0,0,-0.69820565,0.4115602,-0.87127596,0.745509,-0.42441502,1.0701332,-0.8368634,1.0874771,-0.20535031,1.1301259,0.84241766,0.06687513,0.5824086,-1.4935232
0.1,0.1,0.8999999999999999,-0.5235987755982988,0.0,0,-0.68623257,0.40805504,-0.87211156,0.7425318,-0.45220533,1.0696892,-0.85469246,1.1168051,-0.23721153,1.1089001,0.83046174,0.08446951,0.6575077,-1.5109409
0.1,0.1,0.8999999999999999,-0.5235987755982988,0.0,0,-0.6899167,0.4164735,-0.84694046,0.78237545,-0.4424532,1.0867839,-0.88098764,1.1707792,-0.20622985,1.1189924,0.8322416,0.10358889,0.6256305,-1.5454938
0.1,0.1,0.8999999999999999,-0.5235987755982988,0.0,0,-0.66739744,0.35865787,-0.86527735,0.7905866,-0.45833892,1.0772734,-0.87567264,1.1401302,-0.214882,1.1419016,0.82264847,0.0883388,0.6477374,-1.7442472
0.1,0.1,0.8999999999999999,-0.5235987755982988,0.0,0,-0.6772892,0.42239913,-0.8589134,0.76350963,-0.46528098,1.0666642,-0.87859255,1.1868422,-0.1455282,1.0937142,0.81925863,0.081133574,0.5940231,-1.5116092
0.1,0.1,0.8999999999999999,-0.5235987755982988,0.0,0,-0.6823687,0.39246994,-0.8606455,0.78700256,-0.45872658,1.0620083,-0.86792344,1.1540179,-0.16508925,1.1246119,0.8118769,0.0669429,0.6435571,-1.3916728
0.1,0.1,0.8999999999999999,-0.5235987755982988,0.0,0,-0.68278146,0.39600515,-0.8416429,0.79745775,-0.4507849,1.0582837,-0.87108487,1.1019226,-0.19177052,1.1534691,0.83576345,0.113408975,0.6217499,-1.7314664
0.1,0.1,0.8999999999999999,-0.5235987755982988,0.0,0,-0.6994816,0.39942014,-0.85836965,0.7770194,-0.44842756,1.0596937,-0.8795305,1.1284184,-0.1431466,1.1060373,0.8267127,0.15294158,0.58361197,-1.487809
0.1,0.1,0.8999999999999999,-0.5235987755982988,0.0,0,-0.67797273,0.3831497,-0.8422872,0.78212214,-0.44167072,1.0579002,-0.86062765,1.0757325,-0.1962098,1.1644423,0.8400997,0.1525467,0.52858406,-1.5559843
0.1,0.1,0.8999999999999999,-0.5235987755982988,0.0,0,-0.6913288,0.40285158,-0.8600606,0.7678149,-0.45034215,1.0869212,-0.9237611,1.1413264,-0.15883464,1.1452575,0.8388237,0.04817684,0.64535767,-1.4008758
0.1,0.1,0.8999999999999999,-0.5235987755982988,0.0,0,-0.68044525,0.4361773,-0.83345014,0.8147277,-0.42810088,1.0715909,-0.8237671,1.1048012,-0.16202082,1.1275241,0.8155,0.15496753,0.6395447,-1.6603477
0.1,0.1,0.8999999999999999,-0.5235987755982988,0.0,0,-0.6790842,0.38822407,-0.85887355,0.80275536,-0.4506434,1.0878744,-0.8794187,1.1242878,-0.1916531,1.1483618,0.8153029,0.105295084,0.7165028,-1.5359596
0.1,0.1,0.8999999999999999,-0.5235987755982988,0.0,0,-0.67618734,0.39165124,-0.8368574,0.7827118,-0.44501412,1.0660249,-0.84114695,1.1121422,-0.16606921,1.1356906,0.834801,0.075340815,0.5529134,-1.4268825
0.1,0.1,0.8999999999999999,-0.5235987755982988,0.0,0,-0.6815364,0.4051822,-0.8446885,0.7908101,-0.46912035,1.0599284,-0.8522707,1.1113815,-0.15751165,1.1318846,0.8215288,0.108458206,0.60348284,-1.3981355
0.1,0.1,0.8999999999999999,-0.5235987755982988,0.0,0,-0.70414937,0.4030115,-0.8405112,0.7718288,-0.45751238,1.0660778,-0.914638,1.1136271,-0.1934326,1.1436135,0.8522683,0.13468991,0.64478314,-1.5870569
0.1,0.1,0.8999999999999999,-0.5235987755982988,0.0,0,-0.68530154,0.37520292,-0.85941184,0.7810069,-0.41435292,1.067862,-0.8630952,1.1248263,-0.19455488,1.1139319,0.82236636,0.18490312,0.61060387,-1.6471044
0.1,0.1,0.8999999999999999,-0.5235987755982988,0.0,0,-0.6827147,0.38945976,-0.86204463,0.7799,-0.4492244,1.0709783,-0.8463728,1.1501782,-0.24145545,1.1666533,0.85690933,0.045371383,0.6353518,-1.5453327
0.1,0.1,0.8999999999999999,-0.5235987755982988,0.0,0,-0.6946034,0.38507658,-0.83425856,0.7847009,-0.47080535,1.0450932,-0.91466147,1.1563356,-0.20012103,1.1320641,0.82507485,0.06639479,0.56435174,-1.4939812
0.1,0.1,0.8999999999999999,-0.5235987755982988,0.0,0,-0.69622767,0.4043261,-0.84020334,0.7701662,-0.4562231,1.0680392,-0.82547736,1.1156987,-0.19658159,1.1575897,0.8221737,0.070148595,0.533345,-1.3291434
0.1,0.1,0.8999999999999999,-0.5235987755982988,0.0,0,-0.6770639,0.41122708,-0.8572218,0.7883503,-0.4311614,1.0835154,-0.8694977,1.1175064,-0.15587877,1.1266041,0.82880807,0.17316654,0.5378705,-1.8290962
0.1,0.1,0.8999999999999999,-0.5235987755982988,0.0,0,-0.6932313,0.39440382,-0.84178364,0.78367674,-0.47943887,1.0640994,-0.8672654,1.1428584,-0.17277674,1.1350248,0.8448305,0.04298926,0.55200577,-1.4417825
0.1,0.1,0.8999999999999999,-0.5235987755982988,0.0,0,-0.67465055,0.4252832,-0.8592096,0.7913732,-0.43117115,1.0790771,-0.8851133,1.1085017,-0.19162054,1.1367307,0.84658575,0.15688613,0.6552555,-1.674289
0.1,0.1,0.8999999999999999,-0.5235987755982988,0.0,0,-0.6907484,0.40263602,-0.8564908,0.77624947,-0.44157773,1.0589001,-0.85182047,1.1751496,-0.15432556,1.0909309,0.8217651,0.053119373,0.58535594,-1.3814965
0.1,0.1,0.8999999999999999,-0.5235987755982988,0.0,0,-0.71138364,0.40941337,-0.83567154,0.78633547,-0.40828657,1.0621338,-0.8853488,1.1498289,-0.24046557,1.1178428,0.8363994,0.14559516,0.5667947,-1.5948974
0.1,0.1,0.8999999999999999,-0.5235987755982988,0.0,0,-0.6873118,0.37123466,-0.83537686,0.76742053,-0.44820586,1.0867465,-0.88320065,1.1625571,-0.23871802,1.1441505,0.8217212,0.081986755,0.5755452,-1.6871873
0.1,0.1,0.8999999999999999,-0.5235987755982988,0.0,0,-0.6931931,0.40333146,-0.860429,0.78323287,-0.4305256,1.0741878,-0.8712715,1.1703086,-0.19143574,1.1339443,0.825669,0.14450966,0.6186308,-1.3553207
0.1,0.1,0.8999999999999999,-0.5235987755982988,0.0,0,-0.6983608,0.40800354,-0.86489826,0.77102846,-0.44281068,1.0624722,-0.84472877,1.1304411,-0.16910395,1.147103,0.8299187,0.15996514,0.62253034,-1.4511436
0.1,0.1,0.8999999999999999,-0.5235987755982988,0.0,0,-0.67551553,0.39886612,-0.84249675,0.7793511,-0.46019837,1.0773089,-0.83958095,1.1223608,-0.20785485,1.1629204,0.8411843,0.08267199,0.5269299,-1.4200183
0.1,0.1,0.8999999999999999,-0.5235987755982988,0.0,0,-0.6882426,0.41250485,-0.85809916,0.7767709,-0.43022808,1.0709239,-0.8669914,1.1403065,-0.20179394,1.1583507,0.81768364,0.10326901,0.6579852,-1.464687
0.1,0.1,0.8999999999999999,-0.5235987755982988,0.0,0,-0.6771272,0.4119983,-0.83600414,0.7871745,-0.42309958,1.0700302,-0.8594806,1.1258895,-0.20311932,1.1249928,0.8356822,0.14248618,0.6411878,-1.4773669
0.1,0.1,0.8999999999999999,-0.5235987755982988,0.0,0,-0.6704616,0.36959404,-0.8454913,0.77289003,-0.47189802,1.092624,-0.85508597,1.1369189,-0.15115182,1.11043,0.81726986,0.1048968,0.6131876,-1.4932148
0.1,0.1,0.8999999999999999,-0.5235987755982988,0.0,0,-0.7002644,0.37571847,-0.8534317,0.798917,-0.46305254,1.0673805,-0.9284258,1.1243758,-0.22284977,1.107498,0.8275707,0.14705017,0.64815,-1.7723699
0.1,0.1,0.8999999999999999,-0.5235987755982988,0.0,0,-0.6855953,0.3638846,-0.8588317,0.78400487,-0.46399075,1.0574993,-0.87016743,1.1131973,-0.11780094,1.1137351,0.82721597,0.07283618,0.6698366,-1.338748
0.1,0.1,0.8999999999999999,-0.5235987755982988,0.0,0,-0.6857056,0.39227632,-0.85351616,0.785473,-0.4642554,1.0772369,-0.88359165,1.1159151,-0.16785242,1.1237079,0.8450759,0.068742946,0.5729688,-1.592291
0.1,0.1,0.8999999999999999,-0.5235987755982988,0.0,0,-0.69659865,0.38970923,-0.8553817,0.7865443,-0.42287484,1.0752902,-0.79858595,1.0990793,-0.21568291,1.0908631,0.83379894,0.12939249,0.5602083,-1.4216698
0.1,0.1,0.8999999999999999,-0.5235987755982988,0.0,0,-0.6876966,0.39490473,-0.8513397,0.77829313,-0.4743398,1.0835899,-0.8766833,1.1191382,-0.22973834,1.1204196,0.839332,0.080916554,0.577283,-1.719564
0.1,0.1,0.8999999999999999,-0.5235987755982988,0.0,0,-0.6793154,0.37773007,-0.8443416,0.77425283,-0.44646576,1.0600041,-0.8904373,1.130678,-0.14000176,1.1212133,0.806912,0.0702354,0.6460816,-1.6537138
0.1,0.1,0.8999999999999999,-0.5235987755982988,0.0,0,-0.67159724,0.4254437,-0.8605263,0.76993865,-0.44223952,1.0934653,-0.83481115,1.1216158,-0.18667318,1.1389171,0.82863057,0.05587398,0.6023577,-1.5985584
0.1,0.1,0.8999999999999999,-0.5235987755982988,0.0,0,-0.69523805,0.38769352,-0.83900726,0.74079293,-0.4414928,1.0558269,-0.8047102,1.1262915,-0.14352423,1.1183146,0.8424652,0.022131981,0.58383805,-1.5492252
0.1,0.1,0.8999999999999999,-0.5235987755982988,0.0,0,-0.711022,0.38155922,-0.84030515,0.76827955,-0.44652024,1.0753949,-0.83445585,1.1307683,-0.18528269,1.1246715,0.81466645,0.08669524,0.55644304,-1.4093547
0.1,0.1,0.8999999999999999,-0.5235987755982988,0.0,0,-0.6820894,0.38404754,-0.8519313,0.7804785,-0.39081842,1.0858978,-0.8644094,1.0818987,-0.19867943,1.1258602,0.8228644,0.13877562,0.5855211,-1.4776027
0.1,0.1,0.8999999999999999,-0.5235987755982988,0.0,0,-0.6781964,0.36759463,-0.8572052,0.7780797,-0.4517268,1.0756587,-0.85928553,1.1008972,-0.16152631,1.143359,0.7968709,0.036362365,0.5968015,-1.4693652
0.1,0.1,0.8999999999999999,-0.5235987755982988,0.0,0,-0.68992966,0.36627942,-0.84664655,0.7614667,-0.4182211,1.0722834,-0.84717536,1.0941055,-0.17955744,1.0916041,0.84209836,0.084506005,0.50593704,-1.7152976
0.1,0.1,0.8999999999999999,-0.5235987755982988,0.0,0,-0.673512,0.39955848,-0.84514606,0.8021325,-0.45014453,1.0575825,-0.8581345,1.1479095,-0.20614599,1.1064352,0.83974725,0.07082496,0.5875656,-1.498845
0.1,0.1,0.8999999999999999,-0.5235987755982988,0.0,0,-0.6894232,0.381323,-0.85292906,0.7805857,-0.41280788,1.056797,-0.90311015,1.1007758,-0.20105328,1.0959861,0.8148181,0.09015708,0.6114903,-1.5002575
0.1,0.1,0.8999999999999999,-0.5235987755982988,0.0,0,-0.688481,0.37183034,-0.8468471,0.7903903,-0.44750038,1.0667715,-0.8618107,1.1301409,-0.14392008,1.1344198,0.8257444,-0.0073649473,0.6742131,-1.5677407
0.1,0.1,0.8999999999999999,-0.5235987755982988,0.0,0,-0.69636786,0.40488246,-0.8504288,0.80079156,-0.43437406,1.0736709,-0.8119878,1.1471065,-0.16978689,1.1075153,0.83632547,0.11064935,0.5857507,-1.3955141
0.1,0.1,0.8999999999999999,-0.5235987755982988,0.0,0,-0.6875472,0.40632823,-0.8402568,0.79247373,-0.4381515,1.0747032,-0.87248534,1.1186182,-0.15210281,1.1093243,0.83526057,0.080186576,0.6636567,-1.4619476
0.1,0.1,0.8999999999999999,-0.5235987755982988,0.0,0,-0.68472266,0.38012153,-0.8543532,0.7790738,-0.45973265,1.0796005,-0.8961536,1.1468507,-0.1953111,1.1163785,0.8372257,0.079173714,0.7013884,-1.5064907
0.1,0.1,0.8999999999999999,-0.5235987755982988,0.0,0,-0.68548757,0.3849603,-0.8499941,0.7840582,-0.4302638,1.070199,-0.8727772,1.112939,-0.23701471,1.0962543,0.83407813,0.07339874,0.6017047,-1.4766588
0.1,0.1,0.8999999999999999,-0.5235987755982988,0.0,0,-0.6789838,0.38522077,-0.8525336,0.77729887,-0.44514632,1.0726542,-0.8401727,1.1179689,-0.2694196,1.1245244,0.8227396,0.06447194,0.5336491,-1.7264944
0.1,0.1,0.8999999999999999,-0.5235987755982988,0.0,0,-0.6883752,0.4022121,-0.8531035,0.7909088,-0.43102387,1.0690198,-0.8929796,1.1493441,-0.17481974,1.1137356,0.83444977,0.09467952,0.5861839,-1.4983392
0.1,0.1,0.8999999999999999,-0.5235987755982988,0.0,0,-0.68364406,0.38308436,-0.8420782,0.7630194,-0.4126155,1.0625929,-0.8517732,1.1244587,-0.18018858,1.1116301,0.807278,0.11532669,0.5526988,-1.588091
0.1,0.1,0.8999999999999999,-0.5235987755982988,0.0,0,-0.6663583,0.41194385,-0.8521452,0.7739903,-0.41418192,1.078626,-0.8563054,1.0940458,-0.18681864,1.1273338,0.8206411,0.04522925,0.50681144,-1.6456358
0.1,0.1,0.8999999999999999,-0.5235987755982988,0.0,0,-0.6845029,0.4046691,-0.8334977,0.7789828,-0.4787249,1.0880778,-0.8255403,1.1006373,-0.13302146,1.0929949,0.82184625,0.09687237,0.6346096,-1.4281693
0.1,0.1,0.8999999999999999,-0.5235987755982988,0.0,0,-0.6856134,0.40585664,-0.842463,0.78904635,-0.42442587,1.074778,-0.8526454,1.0847298,-0.21750389,1.1523948,0.83199763,0.029673254,0.57919824,-1.4486665
0.1,0.1,0.8999999999999999,-0.5235987755982988,0.0,0,-0.69844466,0.39808556,-0.85310763,0.7902106,-0.4538186,1.0522217,-0.8822995,1.1250987,-0.120559014,1.1083251,0.8074931,0.115120925,0.5872578,-1.7387723
0.1,0.1,0.8999999999999999,-0.5235987755982988,0.0,0,-0.6702026,0.43240666,-0.8673273,0.76981616,-0.44743583,1.0539579,-0.84585243,1.1390902,-0.15828255,1.1847692,0.82791203,0.087529376,0.57011163,-1.5355613
