sanky1234/BimanualDexCatch/isaacgymenvs/cem_results/football_pose_0.0_0.0_0.7999999999999999_-0.5235987755982988_-0.5235987755982988_0_2025-05-26.csv
x,y,z,roll,pitch,yaw,robot1/joint1,robot1/joint2,robot1/joint3,robot1/joint4,robot1/joint5,robot1/joint6,robot1/joint7,robot2/joint1,robot2/joint2,robot2/joint3,robot2/joint4,robot2/joint5,robot2/joint6,robot2/joint7
0.0,0.0,0.7999999999999999,-0.5235987755982988,-0.5235987755982988,0,-0.88864166,-0.99078846,0.22680105,-0.12470309,0.42902672,1.4263313,-0.1212866,-0.66897225,-1.1172471,2.7635722,-0.055883165,-0.04556067,1.3139747,-0.024603313
0.0,0.0,0.7999999999999999,-0.5235987755982988,-0.5235987755982988,0,-0.88518363,-0.99036855,0.25070912,-0.13078181,0.32563427,1.430757,0.10044995,-0.6976553,-1.1191013,2.8758366,-0.043769598,-0.026305774,1.302836,-0.009716319
0.0,0.0,0.7999999999999999,-0.5235987755982988,-0.5235987755982988,0,-0.88208467,-0.99259865,0.17753935,-0.119472876,0.36353853,1.4317878,0.09043699,-0.69326115,-1.1179042,2.9151142,-0.05537248,-0.0014299677,1.2388319,-0.14644395
0.0,0.0,0.7999999999999999,-0.5235987755982988,-0.5235987755982988,0,-0.9006953,-0.988101,0.22628957,-0.11571537,0.32421237,1.3845506,-0.16943365,-0.6755122,-1.1187456,2.8825595,-0.026615456,-0.042919304,1.3358792,-0.20670618
0.0,0.0,0.7999999999999999,-0.5235987755982988,-0.5235987755982988,0,-0.8817031,-0.992285,0.29988217,-0.1555836,0.41243756,1.3896979,0.17062372,-0.6876161,-1.1188734,2.8734715,-0.06538138,0.026770664,1.236337,0.11977366
0.0,0.0,0.7999999999999999,-0.5235987755982988,-0.5235987755982988,0,-0.8655841,-0.986966,0.21527241,-0.1340456,0.3952307,1.3941884,0.22074291,-0.69224626,-1.1195738,2.7740602,-0.07429778,-0.062551245,1.3502331,-0.6060805
0.0,0.0,0.7999999999999999,-0.5235987755982988,-0.5235987755982988,0,-0.9141923,-0.98404163,0.23887488,-0.14299929,0.38395146,1.3768333,0.8032605,-0.67780757,-1.117921,2.84179,-0.035899274,-0.05358978,1.2117311,0.33620754
0.0,0.0,0.7999999999999999,-0.5235987755982988,-0.5235987755982988,0,-0.88671273,-0.9833733,0.18895872,-0.16064449,0.4248928,1.4122353,0.40487394,-0.708738,-1.1194137,2.8788054,-0.05290457,-0.0845405,1.2853341,0.67628855
0.0,0.0,0.7999999999999999,-0.5235987755982988,-0.5235987755982988,0,-0.89163566,-0.9842072,0.22840115,-0.126904,0.49002826,1.4101541,0.5461658,-0.6908784,-1.11811,2.8364859,-0.08184231,-0.07291982,1.255661,-0.46469656
0.0,0.0,0.7999999999999999,-0.5235987755982988,-0.5235987755982988,0,-0.8898939,-0.99427265,0.2629981,-0.14755487,0.4173176,1.424704,0.6585566,-0.6956227,-1.1169157,2.8809955,-0.03668601,-0.0556956,1.3307647,0.3226478
0.0,0.0,0.7999999999999999,-0.5235987755982988,-0.5235987755982988,0,-0.900284,-0.9883185,0.21798715,-0.117814906,0.41785732,1.4306015,0.36128592,-0.668333,-1.1191516,2.8563006,-0.07005475,-0.07537051,1.2724248,-0.06830614
0.0,0.0,0.7999999999999999,-0.5235987755982988,-0.5235987755982988,0,-0.91761017,-0.98735833,0.20589255,-0.1286346,0.4300206,1.3931223,0.6063333,-0.71185684,-1.1186001,2.9183953,-0.048415817,0.0030645777,1.2128528,-0.21371028
0.0,0.0,0.7999999999999999,-0.5235987755982988,-0.5235987755982988,0,-0.8858031,-0.9886389,0.25626191,-0.102897875,0.56511754,1.43731,-0.0335078,-0.7029668,-1.1179537,2.7804828,-0.07049904,-0.094314136,1.3143588,0.1502564
0.0,0.0,0.7999999999999999,-0.5235987755982988,-0.5235987755982988,0,-0.86123055,-0.9884959,0.27670267,-0.15247226,0.41610128,1.392282,0.4235191,-0.68716985,-1.1169564,2.8231733,-0.09689021,0.106568284,1.2493294,0.12115223
0.0,0.0,0.7999999999999999,-0.5235987755982988,-0.5235987755982988,0,-0.89139086,-0.9887976,0.23686174,-0.12330359,0.5025682,1.3880713,0.18950064,-0.697629,-1.115911,2.8208158,-0.10280658,-0.067632586,1.28841,0.26049402
0.0,0.0,0.7999999999999999,-0.5235987755982988,-0.5235987755982988,0,-0.88029003,-0.98740447,0.24597198,-0.13048695,0.35992634,1.4112309,0.071387485,-0.6799104,-1.1202203,2.8773782,-0.061809823,0.018477857,1.3069011,0.1611306
0.0,0.0,0.7999999999999999,-0.5235987755982988,-0.5235987755982988,0,-0.88146645,-0.9907395,0.24618247,-0.13203728,0.44241902,1.4545199,-0.26169315,-0.6688836,-1.1175894,2.8180625,-0.079389244,-0.12935135,1.3411214,0.1932451
0.0,0.0,0.7999999999999999,-0.5235987755982988,-0.5235987755982988,0,-0.88431317,-0.98757803,0.35032135,-0.09134026,0.38297907,1.4499646,-0.13379975,-0.6705709,-1.1183044,2.8817482,-0.094410196,0.057121802,1.2930268,0.4819279
0.0,0.0,0.7999999999999999,-0.5235987755982988,-0.5235987755982988,0,-0.88745713,-0.98662734,0.21741723,-0.13747236,0.28397366,1.3994,0.673402,-0.70468515,-1.1191084,2.8789146,-0.087725796,0.09989504,1.3469998,0.021229444
0.0,0.0,0.7999999999999999,-0.5235987755982988,-0.5235987755982988,0,-0.8930431,-0.99194086,0.26695782,-0.1314027,0.31069973,1.4573319,0.78380966,-0.66576463,-1.1174501,2.8890543,-0.04273893,-0.16434018,1.3079292,1.2766514
0.0,0.0,0.7999999999999999,-0.5235987755982988,-0.5235987755982988,0,-0.90879273,-0.9952348,0.25809395,-0.112549655,0.34852672,1.4272013,-0.115766905,-0.6640345,-1.1166174,2.8116798,-0.06238809,-0.05995584,1.2964569,0.69766814
0.0,0.0,0.7999999999999999,-0.5235987755982988,-0.5235987755982988,0,-0.88270575,-0.98926413,0.23310639,-0.10203235,0.4907082,1.4127535,0.49402082,-0.68114793,-1.1213108,2.848839,-0.057353206,0.00042782057,1.3132683,-0.27066943
0.0,0.0,0.7999999999999999,-0.5235987755982988,-0.5235987755982988,0,-0.89995915,-0.9895994,0.25889057,-0.15578699,0.21877891,1.4091448,0.5133048,-0.6793985,-1.1198796,2.875216,-0.09923382,-0.021671206,1.2895045,-0.117519364
0.0,0.0,0.7999999999999999,-0.5235987755982988,-0.5235987755982988,0,-0.89410335,-0.98845136,0.24776383,-0.087848276,0.317982,1.4007578,0.4586099,-0.6709672,-1.1176139,2.9074962,-0.104167074,-0.14388509,1.3000696,0.7624193
0.0,0.0,0.7999999999999999,-0.5235987755982988,-0.5235987755982988,0,-0.88084906,-0.99176586,0.23212975,-0.09917851,0.3108093,1.3962942,-0.09027807,-0.67609745,-1.1180952,2.9409184,-0.070123844,-0.10450232,1.2780217,-0.28374815
0.0,0.0,0.7999999999999999,-0.5235987755982988,-0.5235987755982988,0,-0.86553246,-0.98369104,0.23465079,-0.17136122,0.41290763,1.3825706,0.7483402,-0.68393403,-1.1204497,2.8540108,-0.06419293,-0.018594693,1.3236207,0.35022637
0.0,0.0,0.7999999999999999,-0.5235987755982988,-0.5235987755982988,0,-0.866166,-0.9875255,0.21687588,-0.113688216,0.45239145,1.3841175,-0.01356675,-0.68643045,-1.1193879,2.84264,-0.061492767,-0.008847715,1.1790655,0.08731959
0.0,0.0,0.7999999999999999,-0.5235987755982988,-0.5235987755982988,0,-0.88195324,-0.98233616,0.21143122,-0.14919424,0.40581384,1.4370334,-0.11651954,-0.6913681,-1.1176302,2.9026606,-0.0740037,-0.05972637,1.3488802,0.09051804
0.0,0.0,0.7999999999999999,-0.5235987755982988,-0.5235987755982988,0,-0.8650825,-0.993206,0.2175919,-0.09742325,0.29970652,1.4306698,0.17401315,-0.68194824,-1.1186571,2.85898,-0.06731411,-0.03417188,1.2704145,0.85544074
0.0,0.0,0.7999999999999999,-0.5235987755982988,-0.5235987755982988,0,-0.8857584,-0.9837095,0.26583156,-0.089854226,0.3354951,1.3979332,0.4192394,-0.70343083,-1.1172875,2.8545794,-0.095204145,-0.053827703,1.3316141,-0.041104704
0.0,0.0,0.7999999999999999,-0.5235987755982988,-0.5235987755982988,0,-0.8761988,-0.9854518,0.20272912,-0.10757328,0.46807674,1.3946315,0.4825076,-0.680826,-1.1194365,2.847093,-0.10523091,-0.12299807,1.3245437,0.31871065
0.0,0.0,0.7999999999999999,-0.5235987755982988,-0.5235987755982988,0,-0.883941,-0.98957884,0.2203576,-0.14473964,0.34449378,1.4372985,-0.1608265,-0.696541,-1.1204174,2.7860425,-0.091321446,-0.025575727,1.2961202,0.623996
0.0,0.0,0.7999999999999999,-0.5235987755982988,-0.5235987755982988,0,-0.9018344,-0.9905042,0.2609851,-0.15025543,0.44145504,1.4278278,-0.08525436,-0.6863031,-1.1178988,2.820618,-0.05867855,-0.017224446,1.3300084,0.6702575
0.0,0.0,0.7999999999999999,-0.5235987755982988,-0.5235987755982988,0,-0.87406915,-0.99127185,0.1922743,-0.114595845,0.47460312,1.3701297,0.19777341,-0.68154114,-1.1187437,2.8717186,-0.04137229,0.020396987,1.2866348,0.685386
0.0,0.0,0.7999999999999999,-0.5235987755982988,-0.5235987755982988,0,-0.888334,-0.98801064,0.26806587,-0.10401926,0.4234998,1.4369484,0.7601728,-0.694631,-1.1194924,2.9061832,-0.10592512,0.00083412934,1.3255132,-0.19142859
0.0,0.0,0.7999999999999999,-0.5235987755982988,-0.5235987755982988,0,-0.8638573,-0.9917563,0.25858727,-0.12140537,0.30920908,1.4250213,0.28715843,-0.67132705,-1.1172913,2.843647,-0.08275435,0.1825002,1.2785447,0.47127867
0.0,0.0,0.7999999999999999,-0.5235987755982988,-0.5235987755982988,0,-0.85466915,-0.9850503,0.23977968,-0.12539528,0.26290616,1.4445852,0.18418604,-0.6899736,-1.1185024,2.8839865,-0.052444056,0.0277714,1.3252438,0.5109443
0.0,0.0,0.7999999999999999,-0.5235987755982988,-0.5235987755982988,0,-0.894771,-0.98536956,0.242289,-0.10665133,0.49533236,1.3972812,0.21588452,-0.6830975,-1.1215475,2.9184291,-0.08996006,-0.1770741,1.2087301,-0.080970176
0.0,0.0,0.7999999999999999,-0.5235987755982988,-0.5235987755982988,0,-0.86858755,-0.9886456,0.2203484,-0.103365876,0.39822647,1.4157121,0.5574701,-0.71258354,-1.1184613,2.8982606,-0.05820068,-0.13764857,1.2267195,0.42569682
0.0,0.0,0.7999999999999999,-0.5235987755982988,-0.5235987755982988,0,-0.9001569,-0.98994505,0.24228826,-0.118419826,0.288278,1.4055362,0.8374514,-0.6758566,-1.1182412,2.8646336,-0.063173935,-0.13088779,1.2186198,0.40209234
0.0,0.0,0.7999999999999999,-0.5235987755982988,-0.5235987755982988,0,-0.8674118,-0.98858833,0.26850647,-0.12635297,0.4180444,1.4459734,0.2436628,-0.6826043,-1.1170218,2.8464592,-0.061055157,0.036822632,1.2680047,-0.31954148
0.0,0.0,0.7999999999999999,-0.5235987755982988,-0.5235987755982988,0,-0.889914,-0.9868731,0.19737022,-0.11588831,0.37965775,1.4319211,0.45903286,-0.6649782,-1.1208127,2.8488693,-0.071856156,0.030339522,1.2664063,0.34947315
0.0,0.0,0.7999999999999999,-0.5235987755982988,-0.5235987755982988,0,-0.85905796,-0.98629415,0.28655174,-0.12527992,0.46777165,1.4672605,0.3296985,-0.67378664,-1.1171988,2.8872483,-0.07597688,-0.013236984,1.2479795,0.29550862
0.0,0.0,0.7999999999999999,-0.5235987755982988,-0.5235987755982988,0,-0.8856595,-0.9917974,0.28017503,-0.09147088,0.34103397,1.3680526,-0.15550187,-0.66532254,-1.1182857,2.8315663,-0.07952354,0.025932498,1.3573768,0.060465675
0.0,0.0,0.7999999999999999,-0.5235987755982988,-0.5235987755982988,0,-0.90034956,-0.98342144,0.23843896,-0.1289185,0.48735526,1.3883661,-0.09223167,-0.6984003,-1.1176499,2.902645,-0.10967846,-0.25732496,1.3099667,0.19333541
0.0,0.0,0.7999999999999999,-0.5235987755982988,-0.5235987755982988,0,-0.88894516,-0.9905357,0.21331377,-0.113405876,0.40159422,1.4060363,0.21638444,-0.66439533,-1.1200981,2.998822,-0.12817323,-0.015861413,1.2806838,0.0027059703
0.0,0.0,0.7999999999999999,-0.5235987755982988,-0.5235987755982988,0,-0.8810348,-0.98912734,0.33837825,-0.12622558,0.44523156,1.4278125,0.2773246,-0.66265553,-1.1180793,2.8799334,-0.058134045,0.1682768,1.2900367,-0.3170738
0.0,0.0,0.7999999999999999,-0.5235987755982988,-0.5235987755982988,0,-0.9008993,-0.98808795,0.21312965,-0.16180329,0.44412255,1.4395977,0.2435878,-0.69029015,-1.1140205,2.8620539,-0.09991453,-0.059621844,1.2394397,-0.2213052
0.0,0.0,0.7999999999999999,-0.5235987755982988,-0.5235987755982988,0,-0.8774208,-0.9862549,0.2269793,-0.10471898,0.43800527,1.3943139,-0.08528984,-0.6779843,-1.1188737,2.874263,-0.08403417,-0.050757285,1.2134422,0.099626765
0.0,0.0,0.7999999999999999,-0.5235987755982988,-0.5235987755982988,0,-0.8916264,-0.9877636,0.21748589,-0.09682775,0.46186325,1.4271611,0.15716417,-0.70082545,-1.12038,2.904786,-0.092513755,0.0069366135,1.3222558,0.49766842
0.0,0.0,0.7999999999999999,-0.5235987755982988,-0.5235987755982988,0,-0.8969919,-0.98895115,0.225634,-0.14875647,0.3734021,1.4142636,0.5078569,-0.68158054,-1.1165963,2.830216,-0.074765444,0.025863113,1.3689238,-0.2630125
0.0,0.0,0.7999999999999999,-0.5235987755982988,-0.5235987755982988,0,-0.9005238,-0.98889947,0.24543002,-0.14111671,0.46554494,1.4620181,-0.46584827,-0.6792576,-1.117672,2.9424338,-0.10823502,0.12744175,1.3156141,-0.6096464
0.0,0.0,0.7999999999999999,-0.5235987755982988,-0.5235987755982988,0,-0.8828993,-0.9889977,0.23599371,-0.12228401,0.42537165,1.4166542,0.3965023,-0.67969275,-1.1182996,2.8958075,-0.043267686,0.021412693,1.2996287,0.5455121
0.0,0.0,0.7999999999999999,-0.5235987755982988,-0.5235987755982988,0,-0.87300617,-0.987035,0.2923031,-0.12829779,0.36761716,1.4057125,0.50258565,-0.7085755,-1.1187184,2.973897,-0.06029191,0.06447954,1.2923044,0.47422582
0.0,0.0,0.7999999999999999,-0.5235987755982988,-0.5235987755982988,0,-0.86313194,-0.9909513,0.23007949,-0.14156605,0.39752117,1.3764344,0.31471512,-0.6825301,-1.1171341,2.7896385,-0.06712826,0.057587873,1.2930615,0.045908414
0.0,0.0,0.7999999999999999,-0.5235987755982988,-0.5235987755982988,0,-0.89653915,-0.9930689,0.24450584,-0.10128372,0.55049044,1.4148382,-0.31474376,-0.7040737,-1.1156961,2.9120464,-0.07879011,-0.0070123095,1.2002822,0.8721864
0.0,0.0,0.7999999999999999,-0.5235987755982988,-0.5235987755982988,0,-0.88119924,-0.98716706,0.21233232,-0.13255528,0.5177582,1.4135282,0.18301587,-0.67641747,-1.1188829,2.8626776,-0.045377586,0.05963029,1.3120974,0.2753658
0.0,0.0,0.7999999999999999,-0.5235987755982988,-0.5235987755982988,0,-0.8782175,-0.9876407,0.21354824,-0.13105677,0.37615898,1.4204149,0.9438525,-0.7090046,-1.1182926,2.915505,-0.10600348,-0.05356844,1.2727426,-0.29330096
0.0,0.0,0.7999999999999999,-0.5235987755982988,-0.5235987755982988,0,-0.91106284,-0.9883231,0.1746498,-0.13213293,0.44719774,1.4083985,0.07583493,-0.67243254,-1.121065,2.8168142,-0.11542703,-0.0061966386,1.3003849,0.16805276
0.0,0.0,0.7999999999999999,-0.5235987755982988,-0.5235987755982988,0,-0.8785749,-0.9924423,0.25249523,-0.1251568,0.38650978,1.394438,0.5904563,-0.6767654,-1.1182765,2.7114737,-0.08870188,0.004193976,1.3358911,0.39909768
0.0,0.0,0.7999999999999999,-0.5235987755982988,-0.5235987755982988,0,-0.8956263,-0.9902067,0.2461604,-0.13859881,0.42183125,1.4290994,-0.28634667,-0.6954179,-1.1168157,2.8419962,-0.07576442,-0.25106537,1.2602288,0.5622439
0.0,0.0,0.7999999999999999,-0.5235987755982988,-0.5235987755982988,0,-0.8964484,-0.9902274,0.22515878,-0.116583385,0.52215624,1.4250529,0.17150141,-0.67463386,-1.1170539,2.9308038,-0.05536784,-0.14249033,1.3268759,1.0395775
0.0,0.0,0.7999999999999999,-0.5235987755982988,-0.5235987755982988,0,-0.9059602,-0.99439913,0.2539375,-0.13931309,0.32345712,1.4070165,0.14210694,-0.67526853,-1.1191086,2.8816907,-0.09399199,0.045730963,1.1954471,0.5488138
0.0,0.0,0.7999999999999999,-0.5235987755982988,-0.5235987755982988,0,-0.8839246,-0.99190265,0.31520543,-0.1403606,0.35520747,1.4080364,0.8691154,-0.6921277,-1.1192657,2.9172268,-0.08183307,-0.059135538,1.3212692,-0.16059785
0.0,0.0,0.7999999999999999,-0.5235987755982988,-0.5235987755982988,0,-0.90392464,-0.9905147,0.23311362,-0.13161422,0.42936888,1.3718928,0.47272727,-0.70080066,-1.1169157,2.839628,-0.11292547,-0.042345095,1.2106968,0.12381423
0.0,0.0,0.7999999999999999,-0.5235987755982988,-0.5235987755982988,0,-0.86687213,-0.98927534,0.20275518,-0.13690314,0.4627505,1.4322438,0.7154993,-0.70328575,-1.1153928,2.8661468,-0.1045881,0.00701259,1.3426063,0.819665
0.0,0.0,0.7999999999999999,-0.5235987755982988,-0.5235987755982988,0,-0.89902896,-0.9907629,0.23615572,-0.15089785,0.48192608,1.39699,0.12604733,-0.66941845,-1.1183707,2.951145,-0.09844262,-0.046288,1.2248976,0.18376306
0.0,0.0,0.7999999999999999,-0.5235987755982988,-0.5235987755982988,0,-0.89254916,-0.9853565,0.32580268,-0.13294253,0.45042148,1.409814,0.6017709,-0.6686941,-1.115537,2.925478,-0.033656977,0.0129273115,1.2602471,0.78934497
0.0,0.0,0.7999999999999999,-0.5235987755982988,-0.5235987755982988,0,-0.86835456,-0.985251,0.29222822,-0.11867555,0.39434758,1.4073215,0.40685564,-0.69826406,-1.1186409,2.8723853,-0.055063553,-0.14731954,1.3126774,0.81342036
0.0,0.0,0.7999999999999999,-0.5235987755982988,-0.5235987755982988,0,-0.877425,-0.9873026,0.25579214,-0.15013619,0.2520169,1.4046937,0.10020206,-0.69841903,-1.1187373,2.8909779,-0.0822106,-0.045470625,1.3307388,0.11671009
0.0,0.0,0.7999999999999999,-0.5235987755982988,-0.5235987755982988,0,-0.89225084,-0.99099004,0.24134673,-0.115008555,0.51906234,1.393363,0.8727914,-0.68904215,-1.1154419,2.9239297,-0.09267196,-0.11904897,1.2801236,-0.35641536
0.0,0.0,0.7999999999999999,-0.5235987755982988,-0.5235987755982988,0,-0.8892439,-0.99056095,0.24073236,-0.13474771,0.4757961,1.4360708,0.43856004,-0.6811459,-1.1180214,2.9505706,-0.06522433,0.03561773,1.2898331,0.059578247
0.0,0.0,0.7999999999999999,-0.5235987755982988,-0.5235987755982988,0,-0.89559424,-0.98765415,0.26944104,-0.13787368,0.3664564,1.3881505,1.0593507,-0.6770405,-1.1185564,2.8524137,-0.059452523,-0.10414177,1.3131081,-0.27181852
0.0,0.0,0.7999999999999999,-0.5235987755982988,-0.5235987755982988,0,-0.8941997,-0.98849195,0.21881776,-0.1483301,0.3495656,1.4228742,0.3528324,-0.6982038,-1.1201569,3.0143657,-0.11926882,0.014555878,1.2778383,0.56335694
0.0,0.0,0.7999999999999999,-0.5235987755982988,-0.5235987755982988,0,-0.8688144,-0.9864776,0.25410908,-0.13545746,0.6379007,1.4088442,0.4477628,-0.7052719,-1.1190326,2.859439,-0.058104455,0.008607292,1.2211397,0.34281522
0.0,0.0,0.7999999999999999,-0.5235987755982988,-0.5235987755982988,0,-0.9090718,-0.9910494,0.27360454,-0.094699435,0.3771674,1.3932745,0.6252947,-0.6790844,-1.1160817,2.878158,-0.100397356,-0.10182919,1.3034396,0.1744736
0.0,0.0,0.7999999999999999,-0.5235987755982988,-0.5235987755982988,0,-0.878581,-0.9935423,0.28391877,-0.16050553,0.3812763,1.4226935,0.846751,-0.671773,-1.117283,2.9688022,-0.06849291,0.104427196,1.2967352,-0.2546274
0.0,0.0,0.7999999999999999,-0.5235987755982988,-0.5235987755982988,0,-0.8856079,-0.99209714,0.22522984,-0.12030558,0.436775,1.4157985,0.8878871,-0.6973724,-1.1158458,2.8998537,-0.08258095,0.03250946,1.2879466,-0.33428076
0.0,0.0,0.7999999999999999,-0.5235987755982988,-0.5235987755982988,0,-0.87468463,-0.9900933,0.2123405,-0.118563585,0.3041148,1.4128997,0.05933931,-0.6701963,-1.1211337,2.805997,-0.087544866,0.04039015,1.3042378,0.1925805
0.0,0.0,0.7999999999999999,-0.5235987755982988,-0.5235987755982988,0,-0.88700706,-0.9889078,0.2645445,-0.13557942,0.4475504,1.4215984,0.7109374,-0.6860813,-1.1154385,2.9305992,-0.048138175,-0.092008755,1.2908677,-0.96121967
0.0,0.0,0.7999999999999999,-0.5235987755982988,-0.5235987755982988,0,-0.8870601,-0.9852782,0.3233685,-0.1217412,0.42317727,1.4421033,-0.015788794,-0.668538,-1.120239,2.8906505,-0.09699125,-0.013303258,1.3511661,-0.32147938
0.0,0.0,0.7999999999999999,-0.5235987755982988,-0.5235987755982988,0,-0.88462925,-0.9892125,0.23109466,-0.12518217,0.40425584,1.3944674,0.027950948,-0.690198,-1.1158292,2.8311846,-0.061407357,0.075726174,1.2909815,0.42164966
0.0,0.0,0.7999999999999999,-0.5235987755982988,-0.5235987755982988,0,-0.8916123,-0.9876669,0.23900992,-0.13423327,0.42260325,1.4002362,-0.096851386,-0.7041425,-1.1202819,2.8792853,-0.07247658,-0.054610804,1.3149562,0.2731085
0.0,0.0,0.7999999999999999,-0.5235987755982988,-0.5235987755982988,0,-0.8834936,-0.99105763,0.24345362,-0.13596003,0.40987885,1.3808997,0.48075458,-0.6616874,-1.1183894,2.84165,-0.08712646,0.02764354,1.2024872,-0.37220135
0.0,0.0,0.7999999999999999,-0.5235987755982988,-0.5235987755982988,0,-0.9073262,-0.9937889,0.20877443,-0.10849803,0.45622543,1.4109312,-0.0060525476,-0.68475175,-1.1182716,2.8337412,-0.0718151,0.092922024,1.2597358,0.46829578
0.0,0.0,0.7999999999999999,-0.5235987755982988,-0.5235987755982988,0,-0.88729423,-0.98846287,0.27825063,-0.11900224,0.3735313,1.3591996,0.2660004,-0.6748764,-1.1187048,2.8684475,-0.065373644,-0.10510605,1.2527689,-0.15684962
0.0,0.0,0.7999999999999999,-0.5235987755982988,-0.5235987755982988,0,-0.87867916,-0.99258095,0.2653997,-0.11555319,0.3546678,1.3893682,0.4746906,-0.68608946,-1.1150134,2.811738,-0.12556311,-0.06128172,1.328841,0.16009402
0.0,0.0,0.7999999999999999,-0.5235987755982988,-0.5235987755982988,0,-0.86839545,-0.98545724,0.329798,-0.12886038,0.3657194,1.4002061,-0.05865585,-0.68406373,-1.1189563,2.864855,-0.084905334,-0.078365706,1.2033149,-0.61450225
0.0,0.0,0.7999999999999999,-0.5235987755982988,-0.5235987755982988,0,-0.8692823,-0.98608965,0.26597878,-0.1360586,0.42402142,1.3682861,0.6323662,-0.6660087,-1.1195661,2.8821316,-0.059379105,-0.036058743,1.28355,-0.27881873
0.0,0.0,0.7999999999999999,-0.5235987755982988,-0.5235987755982988,0,-0.91353756,-0.986882,0.23763204,-0.1175143,0.3214274,1.4498826,0.11720465,-0.670564,-1.1155152,2.8170643,-0.05031341,0.046419952,1.3445908,0.26043615
0.0,0.0,0.7999999999999999,-0.5235987755982988,-0.5235987755982988,0,-0.8886359,-0.9958433,0.25558257,-0.108868845,0.4192154,1.4315846,0.17035975,-0.6786928,-1.1197667,2.7954948,-0.100933865,0.090015404,1.2950311,-0.22224025
0.0,0.0,0.7999999999999999,-0.5235987755982988,-0.5235987755982988,0,-0.9057235,-0.9925261,0.3019376,-0.12260372,0.48007074,1.4548439,0.59655833,-0.6791722,-1.1185453,2.7840743,-0.06859796,0.08555087,1.3125175,0.14407949
0.0,0.0,0.7999999999999999,-0.5235987755982988,-0.5235987755982988,0,-0.8880058,-0.9903532,0.27239823,-0.16505763,0.4580396,1.3810388,0.4657079,-0.6745669,-1.1196586,2.930924,-0.07759424,0.07318953,1.266997,0.23591147
0.0,0.0,0.7999999999999999,-0.5235987755982988,-0.5235987755982988,0,-0.8981335,-0.9896542,0.28274974,-0.12394962,0.2973872,1.4225651,0.6610316,-0.66788983,-1.1180333,2.8303843,-0.057445887,0.038731165,1.3046553,0.5146303
0.0,0.0,0.7999999999999999,-0.5235987755982988,-0.5235987755982988,0,-0.88596463,-0.9865572,0.24629255,-0.1779858,0.39609268,1.3992066,0.2746072,-0.6748215,-1.1192482,2.832274,-0.06985857,0.17739423,1.2955874,0.6101172
0.0,0.0,0.7999999999999999,-0.5235987755982988,-0.5235987755982988,0,-0.8829879,-0.9849847,0.32218045,-0.14443073,0.4392192,1.4262859,0.50158215,-0.6839608,-1.1183871,2.8490906,-0.09976514,-0.07512086,1.3350942,-0.20127302
0.0,0.0,0.7999999999999999,-0.5235987755982988,-0.5235987755982988,0,-0.90007406,-0.9862887,0.24002604,-0.12937312,0.29673392,1.4106319,0.12179279,-0.6907843,-1.1206231,2.8300369,-0.09887397,-0.08955702,1.3265259,-0.97266555
0.0,0.0,0.7999999999999999,-0.5235987755982988,-0.5235987755982988,0,-0.89709693,-0.9878382,0.2692142,-0.14745069,0.38057,1.3988117,0.69444114,-0.686241,-1.1191301,2.9421341,-0.06850468,0.029393323,1.2724365,0.49363527
0.0,0.0,0.7999999999999999,-0.5235987755982988,-0.5235987755982988,0,-0.89732796,-0.98990947,0.2729373,-0.122635305,0.4320982,1.4429414,0.88954437,-0.7075724,-1.116902,2.828835,-0.08457942,-0.07055545,1.1741067,0.27072826
0.0,0.0,0.7999999999999999,-0.5235987755982988,-0.5235987755982988,0,-0.87525797,-0.9915447,0.25967702,-0.1122762,0.3933007,1.3652686,0.44195077,-0.680271,-1.1208438,2.8328497,-0.06522746,0.07361125,1.2845843,0.7771005
0.0,0.0,0.7999999999999999,-0.5235987755982988,-0.5235987755982988,0,-0.8819801,-0.98932266,0.21130273,-0.124519445,0.4011779,1.4176351,0.5268016,-0.6795383,-1.1179043,2.8513389,-0.02695574,0.011730335,1.2078104,-1.0059395
0.0,0.0,0.7999999999999999,-0.5235987755982988,-0.5235987755982988,0,-0.89146864,-0.99107057,0.26528573,-0.14355409,0.43059406,1.4292778,-0.4356613,-0.67914367,-1.1169043,2.85424,-0.09295173,-0.057680562,1.2801582,-0.09107545
0.0,0.0,0.7999999999999999,-0.5235987755982988,-0.5235987755982988,0,-0.86903524,-0.9871225,0.23837723,-0.105255894,0.28282833,1.4464812,0.42469814,-0.68773484,-1.1200181,2.7723804,-0.10694836,-0.07602359,1.3698065,0.14659554
0.0,0.0,0.7999999999999999,-0.5235987755982988,-0.5235987755982988,0,-0.8877924,-0.98973215,0.2617001,-0.12387748,0.40256402,1.4231358,0.5581692,-0.67666465,-1.1186587,2.8455324,-0.08028995,0.054807764,1.2597221,0.37163857
0.0,0.0,0.7999999999999999,-0.5235987755982988,-0.5235987755982988,0,-0.87176037,-0.9858757,0.21910353,-0.15458804,0.5181713,1.432718,0.37804344,-0.6841776,-1.1199638,2.9088373,-0.07626679,-0.17249899,1.2772222,0.15396094
0.0,0.0,0.7999999999999999,-0.5235987755982988,-0.5235987755982988,0,-0.8959922,-0.9909458,0.25455537,-0.14527446,0.43254054,1.3928407,-0.22557715,-0.69966084,-1.1201087,2.8074036,-0.058681376,-0.06009303,1.30817,0.08647037
0.0,0.0,0.7999999999999999,-0.5235987755982988,-0.5235987755982988,0,-0.8654179,-0.99136007,0.29212794,-0.122350894,0.42786214,1.4321587,0.33878297,-0.70081645,-1.1176449,2.9178386,-0.08639009,-0.09368303,1.2757422,0.19039226
0.0,0.0,0.7999999999999999,-0.5235987755982988,-0.5235987755982988,0,-0.8799111,-0.9940145,0.23184365,-0.116074204,0.32980192,1.3812755,0.048702713,-0.69314545,-1.1172446,2.95606,-0.058693912,0.07416589,1.2540092,0.91574746
0.0,0.0,0.7999999999999999,-0.5235987755982988,-0.5235987755982988,0,-0.90577805,-0.98875266,0.30210903,-0.10912272,0.37643233,1.439969,0.100066625,-0.67100185,-1.1190414,2.7826529,-0.08208058,0.09396486,1.29703,0.9038143
0.0,0.0,0.7999999999999999,-0.5235987755982988,-0.5235987755982988,0,-0.89567125,-0.98807806,0.27793995,-0.14697653,0.2891908,1.4528544,0.34031227,-0.67588294,-1.1194394,2.8512914,-0.061958052,0.067899846,1.2986249,-0.5467301
0.0,0.0,0.7999999999999999,-0.5235987755982988,-0.5235987755982988,0,-0.8689981,-0.99011946,0.24328963,-0.12376347,0.45778894,1.3819455,-0.19510706,-0.6800417,-1.1165001,2.8117144,-0.0894743,-0.11759854,1.2910852,0.75948083
0.0,0.0,0.7999999999999999,-0.5235987755982988,-0.5235987755982988,0,-0.866063,-0.9895036,0.24343626,-0.120093085,0.38954446,1.4132929,0.71455723,-0.6909673,-1.1193651,2.7915592,-0.08021487,-0.12137087,1.2957374,-0.21679726
0.0,0.0,0.7999999999999999,-0.5235987755982988,-0.5235987755982988,0,-0.88214445,-0.98374486,0.2291972,-0.13052195,0.3564134,1.4160687,0.98088104,-0.67991537,-1.1166521,2.9017174,-0.0700729,0.02653931,1.2323973,0.3671431
0.0,0.0,0.7999999999999999,-0.5235987755982988,-0.5235987755982988,0,-0.8759476,-0.98802423,0.31713417,-0.14646852,0.36080354,1.399674,0.5112053,-0.68266684,-1.116241,2.8718705,-0.08942891,-0.12922713,1.3005399,0.10585971
0.0,0.0,0.7999999999999999,-0.5235987755982988,-0.5235987755982988,0,-0.86922187,-0.98919004,0.251185,-0.10905658,0.40642384,1.3886621,0.574676,-0.66688323,-1.1155232,2.8252017,-0.06319782,0.06806077,1.2673603,0.32998616
0.0,0.0,0.7999999999999999,-0.5235987755982988,-0.5235987755982988,0,-0.89003813,-0.9909541,0.21881722,-0.15083526,0.39659375,1.4162344,0.27768832,-0.6810046,-1.1159372,2.8045986,-0.074494295,0.12945984,1.2213355,0.81082106
0.0,0.0,0.7999999999999999,-0.5235987755982988,-0.5235987755982988,0,-0.9101707,-0.9843222,0.21096732,-0.13857777,0.31334737,1.4293528,0.26894706,-0.67220056,-1.1194103,2.8441274,-0.0508665,-0.13425294,1.2587619,0.08483167
0.0,0.0,0.7999999999999999,-0.5235987755982988,-0.5235987755982988,0,-0.9113505,-0.98625135,0.2513552,-0.10512521,0.2403256,1.4087704,0.181711,-0.6946225,-1.1203145,2.7878273,-0.07509345,-0.1157469,1.2764391,0.37120825
0.0,0.0,0.7999999999999999,-0.5235987755982988,-0.5235987755982988,0,-0.8916724,-0.9930304,0.2225964,-0.1483642,0.44746682,1.4195052,0.35117313,-0.6833305,-1.1179909,2.9623616,-0.063506976,0.021371325,1.1920714,-0.011140388
0.0,0.0,0.7999999999999999,-0.5235987755982988,-0.5235987755982988,0,-0.8939605,-0.9893979,0.15922846,-0.14681998,0.4035349,1.3966477,-0.21664463,-0.6868268,-1.1194954,2.9111524,-0.03650169,-0.01236101,1.3151972,0.5189358
0.0,0.0,0.7999999999999999,-0.5235987755982988,-0.5235987755982988,0,-0.89356786,-0.99201584,0.18720473,-0.16463628,0.34342477,1.4063413,0.24773242,-0.6812217,-1.116687,2.9194007,-0.067148805,-0.026582427,1.3202218,-0.701397
0.0,0.0,0.7999999999999999,-0.5235987755982988,-0.5235987755982988,0,-0.8852461,-0.9904595,0.3156967,-0.12259562,0.41322982,1.3956441,-0.1987835,-0.68282855,-1.1216854,2.9479282,-0.08483281,-0.10672398,1.2875481,0.48764578
0.0,0.0,0.7999999999999999,-0.5235987755982988,-0.5235987755982988,0,-0.8701575,-0.9906835,0.23629339,-0.11306221,0.22620559,1.397907,0.30706075,-0.67189825,-1.1201314,2.848851,-0.098343626,0.20076744,1.2476158,0.050340615
0.0,0.0,0.7999999999999999,-0.5235987755982988,-0.5235987755982988,0,-0.8846006,-0.99263155,0.18344982,-0.13540769,0.46664235,1.4167618,0.27827635,-0.69366676,-1.1157076,2.9476867,-0.05901874,0.016674334,1.1968799,0.026841482
0.0,0.0,0.7999999999999999,-0.5235987755982988,-0.5235987755982988,0,-0.8633469,-0.98782045,0.21666966,-0.13140562,0.41577545,1.4260691,0.55386275,-0.6825599,-1.1170026,2.8675733,-0.071703024,0.09523679,1.2695533,0.5350394
0.0,0.0,0.7999999999999999,-0.5235987755982988,-0.5235987755982988,0,-0.88946193,-0.9871352,0.25654218,-0.13060237,0.3969116,1.395772,0.45249847,-0.6869285,-1.1178731,2.8914897,-0.07288393,0.059444383,1.2382606,0.19604534
0.0,0.0,0.7999999999999999,-0.5235987755982988,-0.5235987755982988,0,-0.87946635,-0.9851831,0.22663555,-0.13223189,0.48257846,1.4445239,0.16635235,-0.66719466,-1.1194019,2.8825343,-0.11356093,-0.16749586,1.289102,-0.5486502
0.0,0.0,0.7999999999999999,-0.5235987755982988,-0.5235987755982988,0,-0.9285748,-0.9961696,0.26197377,-0.14174747,0.44255462,1.4048648,0.1747214,-0.7040612,-1.1179891,2.8385205,-0.051631197,-0.018619366,1.2929338,0.04601106
0.0,0.0,0.7999999999999999,-0.5235987755982988,-0.5235987755982988,0,-0.87871885,-0.987126,0.2315769,-0.1250953,0.40279007,1.4308634,0.6760537,-0.70471096,-1.121476,2.8084698,-0.07985855,0.047536798,1.2835774,0.00067284197
0.0,0.0,0.7999999999999999,-0.5235987755982988,-0.5235987755982988,0,-0.88890296,-0.9897357,0.2198431,-0.15736537,0.3478462,1.390856,0.69691163,-0.6774891,-1.1167326,2.8090458,-0.05954429,0.035645425,1.2982577,-0.54377985
0.0,0.0,0.7999999999999999,-0.5235987755982988,-0.5235987755982988,0,-0.8863722,-0.9889917,0.24449933,-0.10988591,0.46369827,1.4481331,0.6141559,-0.701764,-1.1194633,2.773223,-0.06520728,-0.010174773,1.2857916,0.1596818
0.0,0.0,0.7999999999999999,-0.5235987755982988,-0.5235987755982988,0,-0.8730203,-0.9883792,0.29940054,-0.11333802,0.38354483,1.4069504,0.25055563,-0.6992184,-1.1164454,2.8617623,-0.06875675,-0.049153347,1.3561409,-0.45599294
0.0,0.0,0.7999999999999999,-0.5235987755982988,-0.5235987755982988,0,-0.8695803,-0.9876043,0.28388694,-0.10346763,0.48558208,1.457326,0.4372074,-0.6879348,-1.1156008,2.8318915,-0.057851627,0.0017596403,1.2744111,-0.19508581
0.0,0.0,0.7999999999999999,-0.5235987755982988,-0.5235987755982988,0,-0.8750221,-0.9867387,0.2668125,-0.15712519,0.49428192,1.4205741,0.39466277,-0.67691654,-1.1200227,2.909719,-0.0751717,-0.016934244,1.2443557,-0.049092356
0.0,0.0,0.7999999999999999,-0.5235987755982988,-0.5235987755982988,0,-0.8844343,-0.99321616,0.2443678,-0.09707802,0.47828472,1.3758233,1.1624812,-0.7024772,-1.1206566,2.7915843,-0.05194485,-0.18673033,1.275503,-0.13998026
0.0,0.0,0.7999999999999999,-0.5235987755982988,-0.5235987755982988,0,-0.87741095,-0.9881195,0.295929,-0.095654,0.36332446,1.4418991,0.2628966,-0.6830856,-1.1201526,2.8345635,-0.07857463,0.009248034,1.2336748,-0.2526406
0.0,0.0,0.7999999999999999,-0.5235987755982988,-0.5235987755982988,0,-0.88346094,-0.9917046,0.18518165,-0.13146852,0.42841128,1.4165316,1.285087,-0.6802382,-1.1154444,3.0412474,-0.036165345,0.051737063,1.297108,0.09862589
0.0,0.0,0.7999999999999999,-0.5235987755982988,-0.5235987755982988,0,-0.8791634,-0.99188375,0.24142998,-0.104846574,0.38556772,1.4393079,0.35158715,-0.6920218,-1.1183819,2.7581449,-0.05601885,-0.04403208,1.3052859,0.26753992
0.0,0.0,0.7999999999999999,-0.5235987755982988,-0.5235987755982988,0,-0.90216935,-0.99141055,0.29237494,-0.095416576,0.39118525,1.387749,0.6321048,-0.6729756,-1.1192127,2.7902713,-0.07420965,-0.08599021,1.2048854,-0.17455883
0.0,0.0,0.7999999999999999,-0.5235987755982988,-0.5235987755982988,0,-0.8743056,-0.99690646,0.25748956,-0.110203095,0.34322107,1.4063009,-0.08008214,-0.68744916,-1.1196598,2.941013,-0.06659985,-0.12109671,1.2875897,0.109896675
0.0,0.0,0.7999999999999999,-0.5235987755982988,-0.5235987755982988,0,-0.8684281,-0.9861967,0.2716038,-0.15743321,0.26150438,1.4098396,0.5109745,-0.6841291,-1.1170238,2.8858685,-0.045449827,0.09223801,1.2318338,-0.31572422
0.0,0.0,0.7999999999999999,-0.5235987755982988,-0.5235987755982988,0,-0.86551744,-0.99296695,0.2264438,-0.095686615,0.2831526,1.4284921,0.13895659,-0.66699106,-1.1197686,2.895348,-0.027240107,0.03901472,1.2713795,0.24289657
0.0,0.0,0.7999999999999999,-0.5235987755982988,-0.5235987755982988,0,-0.8540559,-0.9930314,0.27275813,-0.10422219,0.3851013,1.3984693,0.5165915,-0.69375956,-1.1174119,2.8131876,-0.056423448,-0.0011518466,1.2356186,0.20603512
0.0,0.0,0.7999999999999999,-0.5235987755982988,-0.5235987755982988,0,-0.86671376,-0.98484945,0.24527307,-0.10900356,0.24839698,1.409709,0.28580195,-0.70388305,-1.1206052,2.9089122,-0.08437956,-0.021634625,1.3168623,0.20516473
0.0,0.0,0.7999999999999999,-0.5235987755982988,-0.5235987755982988,0,-0.88643336,-0.9804913,0.24752006,-0.1459117,0.50934064,1.3986408,-0.045187805,-0.684601,-1.1185186,2.8221884,-0.050509956,-0.0627106,1.2865028,-0.20585676
0.0,0.0,0.7999999999999999,-0.5235987755982988,-0.5235987755982988,0,-0.86373234,-0.9860922,0.23233584,-0.11801627,0.36845165,1.4079735,0.5170883,-0.68118095,-1.1150842,2.8216784,-0.06466361,0.041347463,1.3109182,-0.10899304
0.0,0.0,0.7999999999999999,-0.5235987755982988,-0.5235987755982988,0,-0.86850244,-0.988566,0.29651046,-0.13290551,0.36518258,1.4211845,-0.39645225,-0.68369985,-1.1175138,2.9100516,-0.045418948,0.05078098,1.2600992,-0.5912259
0.0,0.0,0.7999999999999999,-0.5235987755982988,-0.5235987755982988,0,-0.89939255,-0.9886922,0.23982519,-0.09838084,0.43378583,1.3999375,0.3281939,-0.67833316,-1.1176591,2.843891,-0.07135663,-0.006242981,1.3444268,-0.34339017
0.0,0.0,0.7999999999999999,-0.5235987755982988,-0.5235987755982988,0,-0.8635656,-0.98956,0.33575618,-0.12694795,0.3889285,1.4178281,0.26611924,-0.6744374,-1.1160064,2.8893228,-0.04185674,0.044877566,1.2171252,0.30022183
0.0,0.0,0.7999999999999999,-0.5235987755982988,-0.5235987755982988,0,-0.8968198,-0.99806243,0.2684614,-0.0984973,0.43406928,1.3658,1.0713695,-0.6733118,-1.1146595,2.8959885,-0.05755119,-0.008504294,1.2891273,0.6010713
0.0,0.0,0.7999999999999999,-0.5235987755982988,-0.5235987755982988,0,-0.91045684,-0.9952561,0.26664984,-0.08879946,0.5253229,1.3844727,0.44743967,-0.68633664,-1.1211231,2.8263369,-0.10968522,-0.039915957,1.2830269,0.048397038
0.0,0.0,0.7999999999999999,-0.5235987755982988,-0.5235987755982988,0,-0.903335,-0.9909723,0.26759303,-0.11933656,0.4657091,1.3549942,0.18969028,-0.7012416,-1.1190403,2.846324,-0.06618447,-0.06568132,1.2238871,0.2599315
0.0,0.0,0.7999999999999999,-0.5235987755982988,-0.5235987755982988,0,-0.88423836,-0.9866892,0.28395638,-0.1340095,0.2786035,1.3970081,0.604972,-0.708834,-1.1162757,2.8135962,-0.07435761,-0.1142261,1.3736203,-0.16274616
0.0,0.0,0.7999999999999999,-0.5235987755982988,-0.5235987755982988,0,-0.90408117,-0.9929037,0.25021827,-0.052058656,0.31761816,1.405006,0.22111282,-0.66564316,-1.1163265,2.8279738,-0.10480634,0.08129858,1.3109812,0.90045667
0.0,0.0,0.7999999999999999,-0.5235987755982988,-0.5235987755982988,0,-0.89412147,-0.98875064,0.21264116,-0.12614717,0.3036094,1.4022183,-0.052794002,-0.6975849,-1.1190631,2.8332062,-0.055699002,0.100204304,1.2913862,-0.16952379
0.0,0.0,0.7999999999999999,-0.5235987755982988,-0.5235987755982988,0,-0.88585246,-0.9855702,0.256346,-0.12550142,0.3895346,1.365248,0.71606654,-0.68500066,-1.1222595,2.7883272,-0.0892177,0.1119378,1.2948767,-0.013050813
0.0,0.0,0.7999999999999999,-0.5235987755982988,-0.5235987755982988,0,-0.9045143,-0.9895917,0.20671241,-0.09508787,0.35176876,1.387873,-0.15844841,-0.6776766,-1.117685,2.827871,-0.080086164,-0.07861189,1.331979,0.5709552
0.0,0.0,0.7999999999999999,-0.5235987755982988,-0.5235987755982988,0,-0.9006678,-0.98860675,0.31006223,-0.12807587,0.42721555,1.3905565,0.2309027,-0.7020702,-1.1179603,2.9308789,-0.08929435,-0.08155723,1.2944891,1.0051731
0.0,0.0,0.7999999999999999,-0.5235987755982988,-0.5235987755982988,0,-0.8925856,-0.9862952,0.24038668,-0.14799416,0.36409375,1.4411927,0.26732022,-0.68830216,-1.1207174,2.8086898,-0.048832737,-0.2722202,1.297211,-0.30087826
0.0,0.0,0.7999999999999999,-0.5235987755982988,-0.5235987755982988,0,-0.8837033,-0.99147654,0.26771465,-0.1592631,0.39797407,1.4327618,0.63831925,-0.68129534,-1.1217887,2.8276198,-0.070251025,-0.02627514,1.3624625,-0.17905171
0.0,0.0,0.7999999999999999,-0.5235987755982988,-0.5235987755982988,0,-0.87252605,-0.98703486,0.29062018,-0.1361807,0.3292382,1.4206134,0.349432,-0.6867241,-1.1158636,2.971823,-0.06215514,-0.08411846,1.3147675,-0.39925608
0.0,0.0,0.7999999999999999,-0.5235987755982988,-0.5235987755982988,0,-0.881421,-0.990718,0.24720244,-0.111883156,0.32700098,1.4077322,0.7754828,-0.67257446,-1.1201357,2.8571591,-0.0791513,0.041388743,1.2782731,-0.45599946
0.0,0.0,0.7999999999999999,-0.5235987755982988,-0.5235987755982988,0,-0.885105,-0.99100894,0.23464732,-0.16671558,0.38691476,1.3703848,0.39892793,-0.69615966,-1.1178801,2.944357,-0.055152174,0.045914665,1.2930558,0.50427216
0.0,0.0,0.7999999999999999,-0.5235987755982988,-0.5235987755982988,0,-0.87824565,-0.9861729,0.31439987,-0.13238049,0.4745174,1.3796679,0.13739055,-0.6959482,-1.1213001,2.9016404,-0.043936547,-0.053348474,1.3101834,0.2552745
0.0,0.0,0.7999999999999999,-0.5235987755982988,-0.5235987755982988,0,-0.8802465,-0.98595196,0.29249984,-0.12893629,0.37195295,1.4035864,-0.029936835,-0.6859591,-1.117031,2.9173837,-0.0723858,0.049169485,1.3025304,0.6230851
0.0,0.0,0.7999999999999999,-0.5235987755982988,-0.5235987755982988,0,-0.88741237,-0.99508303,0.26336688,-0.12525456,0.42436293,1.395417,0.6733156,-0.6782115,-1.1174546,2.918539,-0.0386863,-0.035842527,1.3251876,0.56575793
0.0,0.0,0.7999999999999999,-0.5235987755982988,-0.5235987755982988,0,-0.8957611,-0.9896479,0.25430024,-0.091853924,0.51132447,1.3910265,0.26942232,-0.6798223,-1.1195122,2.8986454,-0.063252576,0.031618718,1.2443221,-0.5906431
0.0,0.0,0.7999999999999999,-0.5235987755982988,-0.5235987755982988,0,-0.8967576,-0.9878296,0.2454127,-0.111866154,0.31298843,1.408728,0.26437643,-0.6720987,-1.1195178,2.8146775,-0.035687305,0.048570458,1.2492573,0.018681059
0.0,0.0,0.7999999999999999,-0.5235987755982988,-0.5235987755982988,0,-0.871389,-0.99133396,0.2942445,-0.11584877,0.39237198,1.3845103,0.45279175,-0.6813504,-1.1192147,2.8284643,-0.09483737,-0.122601904,1.3445911,-0.3083213
0.0,0.0,0.7999999999999999,-0.5235987755982988,-0.5235987755982988,0,-0.89617753,-0.9911721,0.28867126,-0.16054673,0.49017227,1.4194164,0.15980114,-0.68412524,-1.1159323,2.774007,-0.0950725,0.014549224,1.2664154,0.47433272
0.0,0.0,0.7999999999999999,-0.5235987755982988,-0.5235987755982988,0,-0.86650366,-0.9859945,0.24487743,-0.12584618,0.4524096,1.3806163,0.4231006,-0.68885356,-1.118627,2.895019,-0.08898226,-0.11026443,1.349835,0.25296265
0.0,0.0,0.7999999999999999,-0.5235987755982988,-0.5235987755982988,0,-0.8983184,-0.9926813,0.22086927,-0.109168485,0.3317062,1.3670671,0.33840042,-0.7059228,-1.1178824,2.8444963,-0.07847055,-0.07696144,1.3293004,-0.4632787
0.0,0.0,0.7999999999999999,-0.5235987755982988,-0.5235987755982988,0,-0.89953095,-0.99325264,0.20285942,-0.12218494,0.39687347,1.4094886,0.27855623,-0.6689145,-1.1189276,2.88224,-0.04046919,-0.057707094,1.3440249,0.60287046
0.0,0.0,0.7999999999999999,-0.5235987755982988,-0.5235987755982988,0,-0.88380086,-0.9885093,0.27915543,-0.11875291,0.30676264,1.3644435,0.23469569,-0.68151474,-1.1171823,2.9426913,-0.08840561,-0.043733533,1.2243384,0.032494426
0.0,0.0,0.7999999999999999,-0.5235987755982988,-0.5235987755982988,0,-0.8742772,-0.98712313,0.2771459,-0.12076085,0.31899783,1.3929344,0.53964597,-0.68769926,-1.1178764,2.863068,-0.102708906,0.024267547,1.1941977,0.17361817
0.0,0.0,0.7999999999999999,-0.5235987755982988,-0.5235987755982988,0,-0.8993061,-0.98850113,0.2573778,-0.1308383,0.3719462,1.4353226,0.260103,-0.67699254,-1.1211945,2.8146262,-0.057760976,-0.14249992,1.4062599,-0.3369612
0.0,0.0,0.7999999999999999,-0.5235987755982988,-0.5235987755982988,0,-0.9014666,-0.99175316,0.24466264,-0.12818693,0.3752068,1.3522897,0.081891656,-0.6822508,-1.1191049,2.8658943,-0.07509947,-0.06559909,1.33811,0.54026353
0.0,0.0,0.7999999999999999,-0.5235987755982988,-0.5235987755982988,0,-0.899501,-0.9926809,0.24938999,-0.1107158,0.40053397,1.3782425,0.51076233,-0.6934245,-1.1159389,2.786568,-0.039687302,-0.12139221,1.3105748,0.52747166
0.0,0.0,0.7999999999999999,-0.5235987755982988,-0.5235987755982988,0,-0.896971,-0.99236655,0.24132308,-0.11498998,0.40850228,1.3965868,-0.05894114,-0.6916323,-1.1192899,2.8985245,-0.07510383,0.015868984,1.3199006,0.8298751
0.0,0.0,0.7999999999999999,-0.5235987755982988,-0.5235987755982988,0,-0.88645864,-0.98847765,0.23189673,-0.13282411,0.29555357,1.3483262,0.06838948,-0.68403214,-1.1202393,2.8069634,-0.08970256,-0.031146199,1.2505741,0.013646364
0.0,0.0,0.7999999999999999,-0.5235987755982988,-0.5235987755982988,0,-0.8683045,-0.9871218,0.18586853,-0.1389055,0.39228916,1.4011511,0.06851536,-0.7068297,-1.1166414,2.9248538,-0.08674614,-0.07884445,1.13964,-0.29990986
0.0,0.0,0.7999999999999999,-0.5235987755982988,-0.5235987755982988,0,-0.9049288,-0.9887826,0.20043671,-0.091437496,0.39737087,1.4140869,0.49031174,-0.67832184,-1.1190382,2.9169629,-0.10526342,0.039554905,1.3493874,0.33817646
0.0,0.0,0.7999999999999999,-0.5235987755982988,-0.5235987755982988,0,-0.89680177,-0.9933224,0.2602311,-0.10997143,0.43843523,1.3634629,-0.19026558,-0.68267,-1.1191145,2.7162507,-0.10136234,-0.09243786,1.2419598,0.48172647
0.0,0.0,0.7999999999999999,-0.5235987755982988,-0.5235987755982988,0,-0.8485527,-0.9966264,0.24895865,-0.11208642,0.34769633,1.4209827,-0.01781333,-0.6901152,-1.1204908,2.8156433,-0.084210366,-0.10174068,1.1940538,0.6838684
0.0,0.0,0.7999999999999999,-0.5235987755982988,-0.5235987755982988,0,-0.8736816,-0.9886204,0.2909896,-0.14308901,0.37926048,1.4022732,-0.031318743,-0.6872824,-1.1212274,2.7995517,-0.06764847,-0.10676266,1.2675976,0.21271795
0.0,0.0,0.7999999999999999,-0.5235987755982988,-0.5235987755982988,0,-0.9237495,-0.9854796,0.2306485,-0.083256535,0.4100479,1.4201306,0.21590343,-0.66798717,-1.1166967,2.83509,-0.06199465,-0.020058583,1.298243,0.9116348
0.0,0.0,0.7999999999999999,-0.5235987755982988,-0.5235987755982988,0,-0.8841401,-0.9916145,0.2235047,-0.10245735,0.43169522,1.4354923,0.010966076,-0.6793304,-1.1193964,2.8059795,-0.09275189,0.021194953,1.3246108,-0.07096987
0.0,0.0,0.7999999999999999,-0.5235987755982988,-0.5235987755982988,0,-0.8779379,-0.99415743,0.2589822,-0.109626494,0.27572182,1.4585489,0.38830093,-0.66570705,-1.1205441,2.9507475,-0.049710523,0.04057744,1.252879,0.47804153
0.0,0.0,0.7999999999999999,-0.5235987755982988,-0.5235987755982988,0,-0.88273656,-0.98799324,0.28537226,-0.14053005,0.44809505,1.3808912,0.15983069,-0.6877811,-1.1185868,2.8764048,-0.11619438,-0.016582787,1.304658,-0.37595442
0.0,0.0,0.7999999999999999,-0.5235987755982988,-0.5235987755982988,0,-0.8889412,-0.9929335,0.22334738,-0.16337664,0.4373918,1.4346339,0.11836727,-0.67700475,-1.1182145,2.8833778,-0.0662893,-0.10504428,1.2365178,0.5602638
0.0,0.0,0.7999999999999999,-0.5235987755982988,-0.5235987755982988,0,-0.88559705,-0.98714274,0.25154513,-0.13529138,0.30471766,1.4161804,0.34535274,-0.6801882,-1.1197038,2.7900732,-0.048485626,-0.037384085,1.2916424,-0.2361843
0.0,0.0,0.7999999999999999,-0.5235987755982988,-0.5235987755982988,0,-0.8903013,-0.9898457,0.23272647,-0.12158901,0.45990485,1.4028802,0.5107616,-0.68648726,-1.1182076,2.8770049,-0.08744007,0.019144952,1.2902155,0.0849843
0.0,0.0,0.7999999999999999,-0.5235987755982988,-0.5235987755982988,0,-0.9121421,-0.9895522,0.2689235,-0.14056599,0.31144527,1.427156,-0.45514208,-0.6754663,-1.1186346,2.8864486,-0.045574937,-0.040489804,1.2822802,0.1893709
0.0,0.0,0.7999999999999999,-0.5235987755982988,-0.5235987755982988,0,-0.8888011,-0.9882068,0.23510107,-0.13336262,0.45723078,1.4477283,0.39899218,-0.65635663,-1.1184179,2.8874905,-0.042663902,0.07245685,1.2054659,-0.13479757
0.0,0.0,0.7999999999999999,-0.5235987755982988,-0.5235987755982988,0,-0.8902618,-0.9944085,0.2006347,-0.090025336,0.3589698,1.417266,0.7805656,-0.6885329,-1.1196531,2.9988077,-0.05358137,-0.23292176,1.2356206,-0.18376017
0.0,0.0,0.7999999999999999,-0.5235987755982988,-0.5235987755982988,0,-0.8826325,-0.99071395,0.21472748,-0.13621564,0.4633885,1.4651754,0.2763648,-0.6875419,-1.1194346,2.758193,-0.060596492,0.019158097,1.1878934,0.19520688
0.0,0.0,0.7999999999999999,-0.5235987755982988,-0.5235987755982988,0,-0.89775944,-0.992042,0.2307164,-0.13287735,0.4496011,1.4364946,0.83983266,-0.6840521,-1.117642,2.7557127,-0.10900446,-0.1753575,1.3351223,-0.055052686
0.0,0.0,0.7999999999999999,-0.5235987755982988,-0.5235987755982988,0,-0.8743072,-0.9884066,0.26158762,-0.15035473,0.16721462,1.4072324,0.88904256,-0.6864022,-1.1194038,2.7637198,-0.075277686,-0.011550201,1.2535872,0.33456525
0.0,0.0,0.7999999999999999,-0.5235987755982988,-0.5235987755982988,0,-0.8989348,-0.985609,0.26227573,-0.14808486,0.27562818,1.4217719,0.5707633,-0.6886515,-1.1168333,2.8434598,-0.11142044,0.09504399,1.2686284,0.086393684
0.0,0.0,0.7999999999999999,-0.5235987755982988,-0.5235987755982988,0,-0.8798146,-0.99005437,0.27443862,-0.18208268,0.30952182,1.4099412,0.8291094,-0.6660083,-1.118821,2.866815,-0.09234553,0.026761647,1.3626194,0.2425029
0.0,0.0,0.7999999999999999,-0.5235987755982988,-0.5235987755982988,0,-0.86192495,-0.98710114,0.25725648,-0.11921237,0.3457969,1.4075943,0.66076547,-0.6815131,-1.1175883,2.890892,-0.04276047,-0.0729148,1.1734293,-0.3830153
0.0,0.0,0.7999999999999999,-0.5235987755982988,-0.5235987755982988,0,-0.8999698,-0.9891553,0.24740617,-0.12353201,0.34141907,1.4361533,0.7298606,-0.707941,-1.116712,2.847689,-0.056894526,0.07106648,1.2709292,-0.3690968
0.0,0.0,0.7999999999999999,-0.5235987755982988,-0.5235987755982988,0,-0.876287,-0.9883538,0.253208,-0.14030384,0.33840477,1.4107153,0.7056588,-0.66492456,-1.1205641,2.882897,-0.05969283,0.04705711,1.2421926,0.1925176
0.0,0.0,0.7999999999999999,-0.5235987755982988,-0.5235987755982988,0,-0.8772963,-0.98859584,0.19074373,-0.12407492,0.40905526,1.4301059,0.1371253,-0.6967968,-1.1178381,2.8496814,-0.07021699,-0.0012683389,1.2377956,-0.36415496
0.0,0.0,0.7999999999999999,-0.5235987755982988,-0.5235987755982988,0,-0.87980115,-0.9857761,0.26464656,-0.12899095,0.36839792,1.4249301,0.08930771,-0.67490935,-1.1204703,2.8658888,-0.025828235,-0.09913347,1.3550934,0.037649892
0.0,0.0,0.7999999999999999,-0.5235987755982988,-0.5235987755982988,0,-0.8950417,-0.99264,0.2760764,-0.1149379,0.36558706,1.419857,0.2421886,-0.68474734,-1.11967,2.7919528,-0.06713605,0.18311194,1.3280177,-0.03176999
0.0,0.0,0.7999999999999999,-0.5235987755982988,-0.5235987755982988,0,-0.8775002,-0.9876868,0.2737898,-0.09617309,0.47764716,1.4239122,0.5106854,-0.6927752,-1.1181922,2.8440537,-0.029109124,-0.08931756,1.2496917,0.67985386
0.0,0.0,0.7999999999999999,-0.5235987755982988,-0.5235987755982988,0,-0.9015146,-0.9909111,0.21353945,-0.16458967,0.46409857,1.4132569,0.05830105,-0.6792531,-1.1141778,2.8697383,-0.074819595,-0.1580132,1.3338523,0.4713082
0.0,0.0,0.7999999999999999,-0.5235987755982988,-0.5235987755982988,0,-0.8821846,-0.98952395,0.23552664,-0.11684202,0.46247774,1.3617741,0.3111637,-0.7124145,-1.1147797,2.9127192,-0.10221265,-0.0077736876,1.2812444,-0.049649384
0.0,0.0,0.7999999999999999,-0.5235987755982988,-0.5235987755982988,0,-0.900156,-0.9912834,0.24441624,-0.1456195,0.32338116,1.4341574,0.24348105,-0.6876097,-1.1180556,2.8970692,-0.049673982,0.052628003,1.1850091,-0.13984866
0.0,0.0,0.7999999999999999,-0.5235987755982988,-0.5235987755982988,0,-0.8718716,-0.9899154,0.26838288,-0.13868669,0.5032766,1.3795599,0.21200292,-0.680209,-1.1171231,2.8615413,-0.053652886,0.017107083,1.3436855,-0.04471293
0.0,0.0,0.7999999999999999,-0.5235987755982988,-0.5235987755982988,0,-0.87013817,-0.98748255,0.30185825,-0.13205282,0.33933356,1.4177582,-0.07718599,-0.66724056,-1.1180333,2.77588,-0.08184484,-0.08675578,1.2264522,0.51461947
0.0,0.0,0.7999999999999999,-0.5235987755982988,-0.5235987755982988,0,-0.88408756,-0.98541766,0.24547613,-0.11776804,0.48996744,1.423234,0.28598404,-0.6869855,-1.1164948,2.8296297,-0.062656544,0.0004290855,1.2860254,-0.07112081
0.0,0.0,0.7999999999999999,-0.5235987755982988,-0.5235987755982988,0,-0.8835609,-0.9860259,0.23918498,-0.11578267,0.4128193,1.4226046,0.9104637,-0.69379795,-1.1195369,2.9256454,-0.08297296,-0.1263398,1.3059748,0.5324009
0.0,0.0,0.7999999999999999,-0.5235987755982988,-0.5235987755982988,0,-0.8727899,-0.9919383,0.23442546,-0.1146027,0.4187141,1.3984866,-0.08243523,-0.69310373,-1.1150411,2.8899384,-0.059234135,0.0033120774,1.3202415,0.034511175
0.0,0.0,0.7999999999999999,-0.5235987755982988,-0.5235987755982988,0,-0.8987483,-0.9854188,0.24281374,-0.14287598,0.5565215,1.4348855,0.4932972,-0.6600539,-1.1222662,2.941498,-0.112639226,0.042363632,1.2380753,0.4730563
0.0,0.0,0.7999999999999999,-0.5235987755982988,-0.5235987755982988,0,-0.88977087,-0.9820579,0.24855758,-0.1358317,0.4239766,1.4223111,0.5851599,-0.69104123,-1.1195052,2.8592288,-0.07859297,0.06489242,1.2359662,0.8996541
0.0,0.0,0.7999999999999999,-0.5235987755982988,-0.5235987755982988,0,-0.8874484,-0.98847103,0.25954595,-0.13420615,0.43822163,1.4009148,0.8336761,-0.67605126,-1.1190723,2.8631988,-0.09871218,-0.01248881,1.2578061,0.11258852
0.0,0.0,0.7999999999999999,-0.5235987755982988,-0.5235987755982988,0,-0.89217955,-0.9881387,0.26736146,-0.13106322,0.37847206,1.423163,0.00957677,-0.6908778,-1.1189721,2.8897066,-0.053033486,-0.069288,1.2575382,-0.13420457
0.0,0.0,0.7999999999999999,-0.5235987755982988,-0.5235987755982988,0,-0.87689245,-0.9885775,0.19513144,-0.112257086,0.3905078,1.3960092,0.31013384,-0.6806543,-1.117958,2.8489757,-0.0738381,0.01376435,1.2586169,-0.40755442
0.0,0.0,0.7999999999999999,-0.5235987755982988,-0.5235987755982988,0,-0.9041396,-0.98669314,0.25925252,-0.13994433,0.4325647,1.4014047,0.07573711,-0.69673634,-1.1162605,2.799811,-0.06524272,0.1771411,1.2720226,0.6133494
0.0,0.0,0.7999999999999999,-0.5235987755982988,-0.5235987755982988,0,-0.8999699,-0.98765874,0.24867688,-0.13196744,0.4290459,1.4030079,0.24068941,-0.71156836,-1.1176034,2.852137,-0.0799208,-0.04012538,1.2943714,0.519525
0.0,0.0,0.7999999999999999,-0.5235987755982988,-0.5235987755982988,0,-0.85929763,-0.99054146,0.24305107,-0.09355869,0.4414631,1.4113748,-0.5370524,-0.68842936,-1.1188492,2.8289566,-0.079765536,-0.059832033,1.28844,0.5020219
0.0,0.0,0.7999999999999999,-0.5235987755982988,-0.5235987755982988,0,-0.8845632,-0.98509496,0.29817095,-0.09336724,0.45712236,1.4208528,0.14493987,-0.70294267,-1.1144688,2.8902495,-0.015154773,0.029854782,1.3406671,0.2235155
0.0,0.0,0.7999999999999999,-0.5235987755982988,-0.5235987755982988,0,-0.8878103,-0.9879451,0.25113043,-0.13879496,0.47887883,1.3738809,0.21178979,-0.6796359,-1.1164645,2.7882338,-0.0280003,0.025987918,1.2968053,-0.2568065
0.0,0.0,0.7999999999999999,-0.5235987755982988,-0.5235987755982988,0,-0.89150023,-0.99152756,0.26390046,-0.11122385,0.45793045,1.393869,0.48080277,-0.685758,-1.1153706,2.785776,-0.06869821,-0.03303968,1.2923871,-0.097816825
0.0,0.0,0.7999999999999999,-0.5235987755982988,-0.5235987755982988,0,-0.85987574,-0.9875128,0.254666,-0.108408906,0.44302812,1.4267461,0.19534232,-0.67768395,-1.1171455,2.8414533,-0.017555403,-0.11604433,1.2799115,0.5440661
0.0,0.0,0.7999999999999999,-0.5235987755982988,-0.5235987755982988,0,-0.8664754,-0.9875037,0.22875626,-0.11908896,0.5024756,1.4547112,0.40353236,-0.67459816,-1.1187859,2.8233292,-0.09213202,-0.026900899,1.3127152,0.055868886
0.0,0.0,0.7999999999999999,-0.5235987755982988,-0.5235987755982988,0,-0.88929623,-0.9893344,0.24207515,-0.1102211,0.4312894,1.404336,0.37445116,-0.68867636,-1.1141869,2.8483806,-0.07084361,-0.0057851053,1.2370462,0.11346457
0.0,0.0,0.7999999999999999,-0.5235987755982988,-0.5235987755982988,0,-0.8803844,-0.98483175,0.28422105,-0.15924723,0.37173608,1.3819108,0.5585164,-0.6870118,-1.119094,2.8406277,-0.04901965,0.10028721,1.2087431,0.19884637
0.0,0.0,0.7999999999999999,-0.5235987755982988,-0.5235987755982988,0,-0.8925313,-0.9890371,0.29775634,-0.08096006,0.3693191,1.4099729,0.87757057,-0.68934435,-1.119456,2.7870464,-0.07107363,-0.13465567,1.3201483,0.106931776
0.0,0.0,0.7999999999999999,-0.5235987755982988,-0.5235987755982988,0,-0.9047509,-0.9875378,0.24564207,-0.12361368,0.2738734,1.4011974,0.7093024,-0.69595647,-1.1192564,2.8234541,-0.050981224,-0.05851498,1.2800964,0.1672068
0.0,0.0,0.7999999999999999,-0.5235987755982988,-0.5235987755982988,0,-0.8867189,-0.99162275,0.1808465,-0.1237188,0.4831493,1.4108477,0.47154212,-0.6804638,-1.1173716,2.746112,-0.06004176,0.0918851,1.3098899,0.49051023
0.0,0.0,0.7999999999999999,-0.5235987755982988,-0.5235987755982988,0,-0.8841035,-0.99305594,0.21494602,-0.13863704,0.38301846,1.4493026,-0.088969484,-0.6714786,-1.1179769,2.8424275,-0.077321805,-0.036409557,1.2819124,-0.1651152
0.0,0.0,0.7999999999999999,-0.5235987755982988,-0.5235987755982988,0,-0.89280367,-0.98566353,0.2823935,-0.11245881,0.37583527,1.4021641,0.030863596,-0.68839854,-1.1193385,2.9628139,-0.08196191,-0.11011093,1.2222184,-0.6367027
0.0,0.0,0.7999999999999999,-0.5235987755982988,-0.5235987755982988,0,-0.8997945,-0.99166816,0.23693432,-0.12477355,0.3244541,1.4376144,0.15893215,-0.6750485,-1.1188169,2.9225314,-0.09098498,0.056155685,1.2592746,0.40966445
0.0,0.0,0.7999999999999999,-0.5235987755982988,-0.5235987755982988,0,-0.8888731,-0.9904754,0.26625985,-0.12267442,0.37211066,1.4402312,-0.05168456,-0.66926193,-1.1192025,2.8686361,-0.1036912,-0.13726935,1.3001345,0.38962558
0.0,0.0,0.7999999999999999,-0.5235987755982988,-0.5235987755982988,0,-0.91654396,-0.98946744,0.27095136,-0.09312313,0.46467164,1.4441742,0.2586881,-0.7057199,-1.1221544,2.8687932,-0.04886464,-0.09752495,1.1853501,0.05068686
0.0,0.0,0.7999999999999999,-0.5235987755982988,-0.5235987755982988,0,-0.8792776,-0.9893573,0.2590926,-0.119465865,0.50684834,1.4105443,0.9142029,-0.69302016,-1.1196859,2.8246534,0.0013965053,-0.015516838,1.3058496,-0.1111567
0.0,0.0,0.7999999999999999,-0.5235987755982988,-0.5235987755982988,0,-0.8823176,-0.98818934,0.19244654,-0.12369371,0.37541628,1.4381903,0.2580842,-0.6924202,-1.1174,2.8303561,-0.07297149,0.09964292,1.2635705,0.015618045
0.0,0.0,0.7999999999999999,-0.5235987755982988,-0.5235987755982988,0,-0.89255905,-0.9900765,0.20331477,-0.16200975,0.47228122,1.3943514,0.69993484,-0.6827741,-1.1183772,2.904684,-0.08048964,-0.050281454,1.2574526,-0.06665876
0.0,0.0,0.7999999999999999,-0.5235987755982988,-0.5235987755982988,0,-0.86235577,-0.98770666,0.27313656,-0.121488124,0.48946545,1.3907834,0.29326773,-0.69233775,-1.119814,2.8628535,-0.067135565,-0.118862726,1.2420182,0.682251
0.0,0.0,0.7999999999999999,-0.5235987755982988,-0.5235987755982988,0,-0.8964103,-0.9884353,0.30426437,-0.09842642,0.40682602,1.3709464,-0.08279034,-0.67552567,-1.1172518,2.8583694,-0.10331906,0.2356909,1.3460181,-0.58815455
0.0,0.0,0.7999999999999999,-0.5235987755982988,-0.5235987755982988,0,-0.90135944,-0.98962736,0.25235847,-0.11244915,0.4956245,1.3968995,-0.21583317,-0.6907764,-1.1177652,2.8494062,-0.078826934,-0.1207155,1.2976681,0.38251966
0.0,0.0,0.7999999999999999,-0.5235987755982988,-0.5235987755982988,0,-0.86864245,-0.9881358,0.26201212,-0.11862541,0.39375716,1.3888748,0.6863534,-0.6717551,-1.1170512,2.8565683,-0.07252332,0.015276639,1.2035006,0.43358195
0.0,0.0,0.7999999999999999,-0.5235987755982988,-0.5235987755982988,0,-0.90369195,-0.9940668,0.31266397,-0.11033333,0.3416459,1.3984153,-0.12338901,-0.68599355,-1.1191003,2.8345816,-0.055302758,-0.12073638,1.2486566,0.10363302
0.0,0.0,0.7999999999999999,-0.5235987755982988,-0.5235987755982988,0,-0.88510036,-0.9895311,0.25836077,-0.12401642,0.50473875,1.4006816,0.06433115,-0.69788235,-1.1206383,2.821682,-0.059082873,-0.022662615,1.2738242,-0.21077713
0.0,0.0,0.7999999999999999,-0.5235987755982988,-0.5235987755982988,0,-0.90855396,-0.99435174,0.2546944,-0.1365558,0.42554525,1.4028041,-0.42655006,-0.6960916,-1.1167493,2.918365,-0.059960026,-0.037334263,1.304077,-0.017641226
0.0,0.0,0.7999999999999999,-0.5235987755982988,-0.5235987755982988,0,-0.89455134,-0.99182886,0.20366198,-0.11686864,0.5436268,1.4223014,0.79547876,-0.7056774,-1.1178983,2.8714366,-0.06710086,-0.051056333,1.2213882,-0.5834533
0.0,0.0,0.7999999999999999,-0.5235987755982988,-0.5235987755982988,0,-0.88657653,-0.9890472,0.29327965,-0.15217951,0.35378915,1.4142103,0.34085286,-0.6991234,-1.1160043,2.9127607,-0.10139043,0.0019355416,1.280901,-0.69345236
0.0,0.0,0.7999999999999999,-0.5235987755982988,-0.5235987755982988,0,-0.892007,-0.9928393,0.26555273,-0.100934185,0.37945533,1.3703221,0.089109674,-0.6821282,-1.1192534,2.79864,-0.058817666,-0.23368119,1.2973682,-0.52681524
0.0,0.0,0.7999999999999999,-0.5235987755982988,-0.5235987755982988,0,-0.9066654,-0.98771197,0.28255603,-0.11861021,0.44279867,1.411573,0.53858626,-0.6841248,-1.120862,2.8100421,-0.09410572,0.09596935,1.3393852,-0.42736366
0.0,0.0,0.7999999999999999,-0.5235987755982988,-0.5235987755982988,0,-0.88195664,-0.9950707,0.2256961,-0.13239698,0.37096483,1.3616762,1.006941,-0.6909902,-1.1191651,2.8548365,-0.08665642,-0.029629333,1.3275996,0.5136411
0.0,0.0,0.7999999999999999,-0.5235987755982988,-0.5235987755982988,0,-0.9027828,-0.986095,0.21691048,-0.10448448,0.25791094,1.4068987,0.64518803,-0.6724269,-1.1152772,2.8764284,-0.04425396,0.02091932,1.1939863,0.6598272
0.0,0.0,0.7999999999999999,-0.5235987755982988,-0.5235987755982988,0,-0.8794358,-0.99173635,0.27898583,-0.11022264,0.3776315,1.366336,0.7996802,-0.67169166,-1.1144048,2.870769,-0.077801116,-0.11712859,1.3673449,0.6850881
0.0,0.0,0.7999999999999999,-0.5235987755982988,-0.5235987755982988,0,-0.88677347,-0.99216586,0.23653622,-0.15317547,0.45953903,1.3786383,0.28299618,-0.69031805,-1.1189917,2.8316915,-0.054702275,-0.16407983,1.2577622,0.45739934
