sanky1234/BimanualDexCatch/isaacgymenvs/cem_results/football_pose_-0.2_-0.2_0.7_-0.5235987755982988_-0.5235987755982988_0_2025-05-24.csv
x,y,z,roll,pitch,yaw,robot1/joint1,robot1/joint2,robot1/joint3,robot1/joint4,robot1/joint5,robot1/joint6,robot1/joint7,robot2/joint1,robot2/joint2,robot2/joint3,robot2/joint4,robot2/joint5,robot2/joint6,robot2/joint7
-0.2,-0.2,0.7,-0.5235987755982988,-0.5235987755982988,0,1.8481436,1.4749433,0.43913972,-0.011126218,0.08562857,0.80261254,1.4567914,-0.14277107,1.5914195,-0.67918354,-0.27785456,-0.6027772,1.3359332,-0.48902842
-0.2,-0.2,0.7,-0.5235987755982988,-0.5235987755982988,0,1.8479662,1.4852576,0.43904877,-0.0010900475,0.07694387,0.79334223,1.4458348,-0.14130588,1.5856434,-0.68639344,-0.27394924,-0.5986539,1.3288338,-0.48192957
-0.2,-0.2,0.7,-0.5235987755982988,-0.5235987755982988,0,1.849872,1.4772394,0.44186375,-0.009418056,0.07772872,0.7886359,1.4240378,-0.14273024,1.5859873,-0.6673371,-0.2733937,-0.59099907,1.3278959,-0.5032124
-0.2,-0.2,0.7,-0.5235987755982988,-0.5235987755982988,0,1.8603752,1.4764048,0.43872717,0.0010996141,0.07537164,0.80528384,1.443651,-0.14182985,1.5933957,-0.683263,-0.27883127,-0.5911583,1.335442,-0.51678574
-0.2,-0.2,0.7,-0.5235987755982988,-0.5235987755982988,0,1.8447218,1.4622393,0.43712118,-0.0074231313,0.091161646,0.79539883,1.4361893,-0.14254278,1.5934495,-0.6794547,-0.28020886,-0.6085548,1.3286859,-0.5083699
-0.2,-0.2,0.7,-0.5235987755982988,-0.5235987755982988,0,1.8533678,1.4809473,0.43851992,-0.008659746,0.07526002,0.78694886,1.4333018,-0.14523087,1.5888861,-0.6712427,-0.27745882,-0.5815756,1.3288908,-0.51624453
-0.2,-0.2,0.7,-0.5235987755982988,-0.5235987755982988,0,1.8474633,1.4720718,0.43753007,0.0010561387,0.07749116,0.7790751,1.4454496,-0.14482328,1.5810813,-0.677917,-0.27442017,-0.6032301,1.3375665,-0.51634413
-0.2,-0.2,0.7,-0.5235987755982988,-0.5235987755982988,0,1.8568919,1.4824066,0.43996617,-0.0065126736,0.08142089,0.79761374,1.4350349,-0.14333086,1.5888283,-0.6897002,-0.2716602,-0.6023306,1.3280479,-0.5082463
-0.2,-0.2,0.7,-0.5235987755982988,-0.5235987755982988,0,1.8565934,1.4702777,0.44123653,-0.0010741388,0.089361615,0.783473,1.4344419,-0.1416562,1.5863154,-0.67585725,-0.27360326,-0.6076008,1.3344425,-0.46573037
-0.2,-0.2,0.7,-0.5235987755982988,-0.5235987755982988,0,1.8392435,1.4750537,0.44529206,-0.001849757,0.07495064,0.79687124,1.4527003,-0.13894048,1.5921474,-0.6647429,-0.2762915,-0.5875344,1.3386087,-0.5055605
-0.2,-0.2,0.7,-0.5235987755982988,-0.5235987755982988,0,1.845056,1.4771069,0.4390292,-0.011353718,0.0840822,0.7618029,1.4547274,-0.14586887,1.5933206,-0.68909323,-0.27462113,-0.6114245,1.3282272,-0.48562586
-0.2,-0.2,0.7,-0.5235987755982988,-0.5235987755982988,0,1.8549192,1.4794289,0.44048855,-0.0048923464,0.087811336,0.7911807,1.4216174,-0.14239258,1.5888617,-0.67394507,-0.27063805,-0.62020344,1.3346277,-0.5310974
-0.2,-0.2,0.7,-0.5235987755982988,-0.5235987755982988,0,1.857907,1.4737328,0.43656674,-0.008600534,0.08278422,0.7970311,1.4622126,-0.14722648,1.5910474,-0.67497194,-0.27132004,-0.616366,1.3238013,-0.5079804
-0.2,-0.2,0.7,-0.5235987755982988,-0.5235987755982988,0,1.847763,1.4896766,0.4406796,-0.007295585,0.07888288,0.8197282,1.4299679,-0.14178833,1.5885108,-0.68002033,-0.2783744,-0.60810196,1.3314568,-0.52652115
-0.2,-0.2,0.7,-0.5235987755982988,-0.5235987755982988,0,1.8540384,1.4765786,0.44025984,-0.008314778,0.08015794,0.79143536,1.4472435,-0.13891058,1.5806986,-0.6796186,-0.2766352,-0.6155794,1.3272756,-0.4890277
-0.2,-0.2,0.7,-0.5235987755982988,-0.5235987755982988,0,1.8599647,1.4832971,0.43617183,0.0010954259,0.0735406,0.76716214,1.4481353,-0.14195085,1.5863918,-0.68007684,-0.27605316,-0.610767,1.3337442,-0.50153565
-0.2,-0.2,0.7,-0.5235987755982988,-0.5235987755982988,0,1.8509827,1.4776318,0.44183683,-0.006946598,0.09144709,0.79097545,1.4371372,-0.14038019,1.5873643,-0.6866817,-0.2755145,-0.5920929,1.3316891,-0.4864086
-0.2,-0.2,0.7,-0.5235987755982988,-0.5235987755982988,0,1.8431107,1.4853328,0.43552288,0.0013528108,0.09303189,0.7969947,1.4453597,-0.14499405,1.5879027,-0.67068523,-0.2765332,-0.60033023,1.328709,-0.50215507
-0.2,-0.2,0.7,-0.5235987755982988,-0.5235987755982988,0,1.841223,1.4844083,0.44078615,0.0044522975,0.08851466,0.7796399,1.4425985,-0.1417097,1.5948944,-0.6715787,-0.27837932,-0.59301984,1.3326843,-0.5211291
-0.2,-0.2,0.7,-0.5235987755982988,-0.5235987755982988,0,1.8502773,1.4773263,0.44006026,-0.008783631,0.08916413,0.78812706,1.4473758,-0.1414762,1.5951381,-0.67497313,-0.27357215,-0.59554625,1.3328346,-0.481035
-0.2,-0.2,0.7,-0.5235987755982988,-0.5235987755982988,0,1.8559802,1.4814093,0.4408586,-0.005691369,0.0826229,0.8057557,1.4415537,-0.1437952,1.5865966,-0.67945075,-0.27306253,-0.6058256,1.3295922,-0.4715207
-0.2,-0.2,0.7,-0.5235987755982988,-0.5235987755982988,0,1.847512,1.4772948,0.44160396,-0.013763069,0.082821056,0.7916839,1.431012,-0.13717976,1.5903823,-0.67406636,-0.2770711,-0.5871117,1.3305608,-0.5030655
-0.2,-0.2,0.7,-0.5235987755982988,-0.5235987755982988,0,1.8539754,1.4814941,0.4419694,-0.0049116905,0.08546641,0.783078,1.4142251,-0.14374876,1.5879099,-0.68510455,-0.27341878,-0.59103984,1.3252187,-0.5207578
-0.2,-0.2,0.7,-0.5235987755982988,-0.5235987755982988,0,1.8506376,1.4683785,0.4413971,-0.0056396457,0.08068218,0.79161394,1.4397589,-0.1448167,1.5885434,-0.67036736,-0.2772471,-0.5954387,1.3247824,-0.50279105
-0.2,-0.2,0.7,-0.5235987755982988,-0.5235987755982988,0,1.8536863,1.4768964,0.43821853,-0.0123361545,0.077249356,0.7916376,1.447874,-0.14980894,1.5783149,-0.6879581,-0.27622324,-0.61076677,1.3379441,-0.50313073
-0.2,-0.2,0.7,-0.5235987755982988,-0.5235987755982988,0,1.8415798,1.4742492,0.44138962,-0.0013027859,0.089470096,0.81108123,1.4277627,-0.14223571,1.5890231,-0.6762428,-0.27811268,-0.60049325,1.3332822,-0.4847236
-0.2,-0.2,0.7,-0.5235987755982988,-0.5235987755982988,0,1.844067,1.4730859,0.43675652,-0.011659647,0.0822592,0.7778907,1.4342182,-0.14452414,1.5899385,-0.67878366,-0.27581716,-0.59654397,1.3212326,-0.49941942
-0.2,-0.2,0.7,-0.5235987755982988,-0.5235987755982988,0,1.8461401,1.4896097,0.4375883,-0.0059939427,0.08605464,0.7894117,1.4238105,-0.14613105,1.5856842,-0.6771725,-0.2750762,-0.59838104,1.3249553,-0.5086183
-0.2,-0.2,0.7,-0.5235987755982988,-0.5235987755982988,0,1.8586394,1.4851403,0.44044995,-0.006105209,0.08166337,0.7763841,1.4451383,-0.14518799,1.5892959,-0.6703952,-0.2771299,-0.59795463,1.3264185,-0.50892264
-0.2,-0.2,0.7,-0.5235987755982988,-0.5235987755982988,0,1.8523803,1.4757178,0.4362479,-0.009652934,0.0805125,0.7810712,1.4393293,-0.14444433,1.5861344,-0.68283385,-0.2780526,-0.6055737,1.3332723,-0.5066828
-0.2,-0.2,0.7,-0.5235987755982988,-0.5235987755982988,0,1.8486761,1.4800946,0.4389904,-0.007350282,0.08696613,0.77976453,1.4466963,-0.14229716,1.5900066,-0.67665464,-0.27617866,-0.6018504,1.3235085,-0.5129746
-0.2,-0.2,0.7,-0.5235987755982988,-0.5235987755982988,0,1.8441892,1.4857144,0.43783054,-0.0033443673,0.0842861,0.80196804,1.434777,-0.14314601,1.5956482,-0.6769986,-0.27441362,-0.6026722,1.3265471,-0.5013025
-0.2,-0.2,0.7,-0.5235987755982988,-0.5235987755982988,0,1.8452458,1.4818193,0.44351867,-0.009701439,0.08377121,0.80988634,1.4399955,-0.14408207,1.5830203,-0.67605615,-0.27494997,-0.6018819,1.3392783,-0.5150638
-0.2,-0.2,0.7,-0.5235987755982988,-0.5235987755982988,0,1.8509141,1.4788579,0.43814188,-0.0042907693,0.07559083,0.79767174,1.4331301,-0.14650841,1.5891627,-0.679266,-0.2784674,-0.61558616,1.3214961,-0.5116428
-0.2,-0.2,0.7,-0.5235987755982988,-0.5235987755982988,0,1.8519961,1.4817102,0.43799952,-0.0043499083,0.0879632,0.80273384,1.4447685,-0.14478269,1.5902115,-0.6892505,-0.2815205,-0.5990518,1.3277531,-0.53605205
-0.2,-0.2,0.7,-0.5235987755982988,-0.5235987755982988,0,1.840691,1.4755812,0.44016632,-0.008590862,0.077366896,0.7947121,1.4416456,-0.14439985,1.5870517,-0.67785376,-0.27328852,-0.60090876,1.3305794,-0.49711585
-0.2,-0.2,0.7,-0.5235987755982988,-0.5235987755982988,0,1.8564955,1.4828482,0.4414382,-0.01165644,0.08255016,0.79356366,1.427434,-0.14074051,1.5865562,-0.6836716,-0.27381673,-0.6024025,1.3211739,-0.50672835
-0.2,-0.2,0.7,-0.5235987755982988,-0.5235987755982988,0,1.8530877,1.4812324,0.4368031,-0.0074638664,0.08299323,0.78930146,1.4419792,-0.14512806,1.588834,-0.6706045,-0.2775857,-0.60219663,1.3297077,-0.5169863
-0.2,-0.2,0.7,-0.5235987755982988,-0.5235987755982988,0,1.8400223,1.4858403,0.43840596,-0.0018404421,0.07917942,0.7825077,1.4440118,-0.13924876,1.5911167,-0.68446213,-0.27553925,-0.5994699,1.3268071,-0.47752267
-0.2,-0.2,0.7,-0.5235987755982988,-0.5235987755982988,0,1.8445246,1.4836539,0.43629882,-0.008507342,0.08352812,0.7857161,1.4382479,-0.14152668,1.5929949,-0.670601,-0.269797,-0.5893534,1.3308153,-0.5027752
-0.2,-0.2,0.7,-0.5235987755982988,-0.5235987755982988,0,1.8522747,1.4724002,0.43524772,-0.013288085,0.09617355,0.7971257,1.4366939,-0.14231202,1.5896893,-0.68034303,-0.27101964,-0.5826114,1.3259413,-0.5172802
-0.2,-0.2,0.7,-0.5235987755982988,-0.5235987755982988,0,1.8441339,1.4744462,0.43967324,-0.010669378,0.08804952,0.7945746,1.4517403,-0.14535944,1.5840884,-0.66426,-0.27536377,-0.6015504,1.3277078,-0.5064398
-0.2,-0.2,0.7,-0.5235987755982988,-0.5235987755982988,0,1.8461455,1.4674004,0.43889892,-0.0076277205,0.08108876,0.7750131,1.4617913,-0.13876879,1.5862125,-0.68480146,-0.272048,-0.6234239,1.3220206,-0.51609254
-0.2,-0.2,0.7,-0.5235987755982988,-0.5235987755982988,0,1.8530307,1.4776449,0.43818048,-0.008887477,0.077768445,0.80852467,1.4544902,-0.14681047,1.5901389,-0.6782402,-0.27663305,-0.60989875,1.3288453,-0.5024794
-0.2,-0.2,0.7,-0.5235987755982988,-0.5235987755982988,0,1.8500947,1.4955219,0.43763155,-0.0024803814,0.07508299,0.80964357,1.4485718,-0.14829735,1.5842409,-0.6744379,-0.27583116,-0.5972976,1.3432158,-0.50389034
-0.2,-0.2,0.7,-0.5235987755982988,-0.5235987755982988,0,1.8407308,1.4762462,0.4382167,-0.0022593625,0.09629939,0.7783069,1.4446247,-0.1442541,1.5928392,-0.6736985,-0.2760696,-0.6043531,1.3367727,-0.5273019
-0.2,-0.2,0.7,-0.5235987755982988,-0.5235987755982988,0,1.8557552,1.467163,0.43981215,0.0018064701,0.07675617,0.78912187,1.445943,-0.14246476,1.5838007,-0.6792144,-0.27415088,-0.5995906,1.3296627,-0.50528204
-0.2,-0.2,0.7,-0.5235987755982988,-0.5235987755982988,0,1.8581668,1.4786419,0.44389886,-0.0038744698,0.07368313,0.7887404,1.442976,-0.14362288,1.5816678,-0.68117714,-0.27633595,-0.613059,1.3295283,-0.49760538
-0.2,-0.2,0.7,-0.5235987755982988,-0.5235987755982988,0,1.8425884,1.4858607,0.4382621,-0.009387518,0.081877604,0.77988034,1.4437486,-0.15042634,1.5803483,-0.67762226,-0.27733713,-0.59345216,1.3301998,-0.49057788
-0.2,-0.2,0.7,-0.5235987755982988,-0.5235987755982988,0,1.8510681,1.4664044,0.44024715,0.0075072274,0.08128951,0.784685,1.4373127,-0.14334695,1.5865725,-0.6914501,-0.27218217,-0.6004152,1.3261118,-0.48289654
-0.2,-0.2,0.7,-0.5235987755982988,-0.5235987755982988,0,1.8477421,1.4846369,0.44106293,0.004141106,0.086381786,0.77698153,1.4414378,-0.14473134,1.585977,-0.6711405,-0.27742934,-0.5968223,1.3280828,-0.5097243
-0.2,-0.2,0.7,-0.5235987755982988,-0.5235987755982988,0,1.8529645,1.4782443,0.43933308,-0.004825403,0.08313049,0.7675517,1.4546541,-0.15001808,1.5897716,-0.681714,-0.27663204,-0.6139985,1.3293934,-0.5000102
-0.2,-0.2,0.7,-0.5235987755982988,-0.5235987755982988,0,1.8418465,1.4814247,0.44281182,-0.001270675,0.08984273,0.7969049,1.446697,-0.14194979,1.5935848,-0.6803496,-0.27723914,-0.61307514,1.3371406,-0.5072578
-0.2,-0.2,0.7,-0.5235987755982988,-0.5235987755982988,0,1.8483647,1.473403,0.43925783,-0.015803352,0.0873311,0.7924819,1.4454315,-0.14073537,1.5989969,-0.6811024,-0.27706322,-0.59907275,1.3316416,-0.5276866
-0.2,-0.2,0.7,-0.5235987755982988,-0.5235987755982988,0,1.849373,1.4774832,0.43971205,0.003912948,0.08807071,0.78430593,1.4426615,-0.14410737,1.5850163,-0.6836992,-0.27607688,-0.5929537,1.3249474,-0.5084217
-0.2,-0.2,0.7,-0.5235987755982988,-0.5235987755982988,0,1.8569391,1.4805796,0.4359104,-0.0029057963,0.076161556,0.7806834,1.44772,-0.14208971,1.5907156,-0.67532307,-0.27238297,-0.59589875,1.3282493,-0.51150846
-0.2,-0.2,0.7,-0.5235987755982988,-0.5235987755982988,0,1.8640481,1.4696404,0.43887773,-0.015721845,0.08262643,0.79282224,1.4376519,-0.14190118,1.5838188,-0.68855304,-0.2757728,-0.6177457,1.3300885,-0.50762635
-0.2,-0.2,0.7,-0.5235987755982988,-0.5235987755982988,0,1.8523116,1.4759443,0.4418356,-0.005080726,0.07675394,0.7778138,1.4502192,-0.13979699,1.5868671,-0.6715789,-0.2722894,-0.6149628,1.3297665,-0.50983423
-0.2,-0.2,0.7,-0.5235987755982988,-0.5235987755982988,0,1.8487701,1.4753635,0.43806317,-0.010483008,0.08987005,0.79016095,1.4430882,-0.14528905,1.5799797,-0.67644,-0.2749813,-0.61695474,1.3334407,-0.5235536
-0.2,-0.2,0.7,-0.5235987755982988,-0.5235987755982988,0,1.8518758,1.474812,0.43621844,-0.002598055,0.09360062,0.7854843,1.4399501,-0.14290427,1.5902256,-0.6710957,-0.27584958,-0.6043269,1.3283576,-0.49962392
-0.2,-0.2,0.7,-0.5235987755982988,-0.5235987755982988,0,1.8398156,1.4768012,0.4416454,0.0011734769,0.07934619,0.772762,1.4480898,-0.14115267,1.5883967,-0.6837335,-0.2769076,-0.57902277,1.3235952,-0.4876385
-0.2,-0.2,0.7,-0.5235987755982988,-0.5235987755982988,0,1.8462619,1.4792609,0.441144,-0.0045598573,0.080938414,0.7813772,1.435816,-0.1446416,1.595556,-0.68351793,-0.27766502,-0.58886,1.3314054,-0.5066902
-0.2,-0.2,0.7,-0.5235987755982988,-0.5235987755982988,0,1.846768,1.4781681,0.43731943,-0.0076356437,0.084211655,0.79281235,1.4353924,-0.14088935,1.5835152,-0.6773574,-0.27681273,-0.61867565,1.3248234,-0.5202345
-0.2,-0.2,0.7,-0.5235987755982988,-0.5235987755982988,0,1.8538328,1.4754436,0.43686396,-0.008000555,0.08544337,0.79985416,1.4522026,-0.14614256,1.5919199,-0.67316484,-0.27556604,-0.62229043,1.3241479,-0.49882075
-0.2,-0.2,0.7,-0.5235987755982988,-0.5235987755982988,0,1.8496808,1.4690076,0.44335905,-0.009363562,0.07469372,0.7896271,1.4441125,-0.1424318,1.5813787,-0.6837886,-0.2774917,-0.5909934,1.3315266,-0.4984296
-0.2,-0.2,0.7,-0.5235987755982988,-0.5235987755982988,0,1.8491018,1.4811879,0.44194287,-0.010448659,0.07137142,0.8055998,1.4550031,-0.14341994,1.585254,-0.67576426,-0.2764432,-0.6069587,1.3359771,-0.501349
-0.2,-0.2,0.7,-0.5235987755982988,-0.5235987755982988,0,1.8557153,1.4842955,0.44045782,-0.014653404,0.07896781,0.7756728,1.4483962,-0.14416683,1.5909189,-0.685781,-0.27756685,-0.60491586,1.3321376,-0.5114344
-0.2,-0.2,0.7,-0.5235987755982988,-0.5235987755982988,0,1.8492973,1.4764577,0.4394718,-0.005758919,0.08842247,0.78107345,1.4514844,-0.14425166,1.5883187,-0.67714316,-0.27516812,-0.62722206,1.3241031,-0.5206719
-0.2,-0.2,0.7,-0.5235987755982988,-0.5235987755982988,0,1.849725,1.4799309,0.43869397,-0.002730967,0.07282755,0.7749486,1.4437602,-0.1478562,1.58457,-0.67662007,-0.27582708,-0.6085619,1.3406596,-0.47901765
-0.2,-0.2,0.7,-0.5235987755982988,-0.5235987755982988,0,1.8553764,1.4668827,0.44286746,-0.0054729683,0.07887354,0.76452553,1.4365218,-0.14137575,1.5940733,-0.68669474,-0.27592713,-0.59325594,1.3369122,-0.51831627
-0.2,-0.2,0.7,-0.5235987755982988,-0.5235987755982988,0,1.8464732,1.4761904,0.43812898,-0.0043603154,0.0859739,0.7929946,1.4305626,-0.1382461,1.5862355,-0.679443,-0.27315393,-0.6184182,1.338801,-0.5168535
-0.2,-0.2,0.7,-0.5235987755982988,-0.5235987755982988,0,1.8525803,1.4789912,0.4392648,-0.004438471,0.09025675,0.7765253,1.4601353,-0.14153385,1.5898675,-0.689885,-0.2744432,-0.59014374,1.3350323,-0.52332056
-0.2,-0.2,0.7,-0.5235987755982988,-0.5235987755982988,0,1.8458228,1.4750322,0.44096667,-0.010143681,0.09149839,0.81169355,1.4297838,-0.14312473,1.5841287,-0.668986,-0.27281561,-0.6096925,1.3281447,-0.50221366
-0.2,-0.2,0.7,-0.5235987755982988,-0.5235987755982988,0,1.850752,1.4742935,0.4378885,-0.011580066,0.08616977,0.7858302,1.4416158,-0.1445754,1.5886918,-0.67433757,-0.2741237,-0.60150653,1.3322288,-0.5347258
-0.2,-0.2,0.7,-0.5235987755982988,-0.5235987755982988,0,1.8446852,1.4877326,0.44041198,-0.012910368,0.08920296,0.7922609,1.4317417,-0.14118944,1.5901574,-0.67572033,-0.2745192,-0.62017965,1.3231341,-0.494512
-0.2,-0.2,0.7,-0.5235987755982988,-0.5235987755982988,0,1.8482071,1.4832988,0.4420941,-0.009510008,0.08444519,0.8003754,1.4456661,-0.14540392,1.5901433,-0.67901635,-0.2746101,-0.60819846,1.3297634,-0.50041664
-0.2,-0.2,0.7,-0.5235987755982988,-0.5235987755982988,0,1.8529241,1.4834399,0.4403401,-0.013863919,0.077903174,0.8152518,1.4321785,-0.14127104,1.5876434,-0.6819459,-0.276903,-0.6136919,1.3204875,-0.49203074
-0.2,-0.2,0.7,-0.5235987755982988,-0.5235987755982988,0,1.8504559,1.482104,0.43790233,-0.007974583,0.07300815,0.7775989,1.4391077,-0.13762145,1.5888169,-0.68109107,-0.2737271,-0.5885436,1.3405764,-0.4930625
-0.2,-0.2,0.7,-0.5235987755982988,-0.5235987755982988,0,1.8513604,1.4845237,0.4380323,-0.006607612,0.08428364,0.81151634,1.4454618,-0.14273374,1.5912373,-0.6735042,-0.2725394,-0.61884886,1.3256265,-0.51101005
-0.2,-0.2,0.7,-0.5235987755982988,-0.5235987755982988,0,1.8585248,1.4703581,0.4375386,-0.004384881,0.07780458,0.7967996,1.4411327,-0.13981439,1.5935268,-0.6759825,-0.27673927,-0.59139097,1.3330607,-0.50378084
-0.2,-0.2,0.7,-0.5235987755982988,-0.5235987755982988,0,1.8464501,1.4724864,0.43464547,-0.008798537,0.09378438,0.8035039,1.4371492,-0.14336367,1.5893979,-0.6763494,-0.27350813,-0.62768716,1.3312941,-0.532136
-0.2,-0.2,0.7,-0.5235987755982988,-0.5235987755982988,0,1.854363,1.485369,0.43949232,-0.0035044674,0.08868769,0.803703,1.4461515,-0.14059316,1.5868421,-0.67646164,-0.27401292,-0.5872098,1.3344808,-0.47847155
-0.2,-0.2,0.7,-0.5235987755982988,-0.5235987755982988,0,1.8515245,1.4728364,0.4397998,-0.0008020009,0.08497932,0.7964446,1.4298773,-0.14655861,1.581932,-0.6738693,-0.27969685,-0.6025681,1.3374994,-0.45822537
-0.2,-0.2,0.7,-0.5235987755982988,-0.5235987755982988,0,1.8567054,1.4812878,0.43804654,-0.0013013977,0.08633721,0.7929357,1.4537271,-0.14016156,1.5882989,-0.6856099,-0.27558202,-0.5989538,1.3298955,-0.46991327
-0.2,-0.2,0.7,-0.5235987755982988,-0.5235987755982988,0,1.8564534,1.4761713,0.44071132,-0.009342134,0.08374752,0.7969992,1.4641134,-0.14177811,1.5864774,-0.6913504,-0.27640703,-0.59798557,1.3244611,-0.5117065
-0.2,-0.2,0.7,-0.5235987755982988,-0.5235987755982988,0,1.854852,1.4732662,0.44154266,-0.0033442804,0.086035535,0.7960809,1.4396393,-0.14091893,1.5953696,-0.6817935,-0.27501264,-0.6122359,1.3333724,-0.50944346
-0.2,-0.2,0.7,-0.5235987755982988,-0.5235987755982988,0,1.8587798,1.4781576,0.44070593,-0.019172397,0.0894188,0.785567,1.4498479,-0.14057732,1.5967528,-0.6865891,-0.27667117,-0.580933,1.3357207,-0.48593295
-0.2,-0.2,0.7,-0.5235987755982988,-0.5235987755982988,0,1.8451134,1.4724793,0.4411312,0.00015577841,0.085188046,0.78860414,1.438698,-0.14092676,1.5853542,-0.67627376,-0.27781284,-0.615156,1.3334707,-0.5158257
-0.2,-0.2,0.7,-0.5235987755982988,-0.5235987755982988,0,1.8529607,1.4766011,0.43601784,-0.0049008313,0.08327432,0.7965595,1.4485794,-0.14127932,1.5886368,-0.67677975,-0.27702948,-0.6258219,1.3204912,-0.53683996
-0.2,-0.2,0.7,-0.5235987755982988,-0.5235987755982988,0,1.8523821,1.4771904,0.44067505,0.008014872,0.09401046,0.8026571,1.4406517,-0.13871709,1.5917271,-0.6785424,-0.27174562,-0.61848706,1.3339677,-0.5240363
-0.2,-0.2,0.7,-0.5235987755982988,-0.5235987755982988,0,1.8510869,1.4841938,0.43928385,-0.006775274,0.08717408,0.78846264,1.4277927,-0.14302234,1.5870569,-0.6761023,-0.2764255,-0.62198335,1.333228,-0.49135965
-0.2,-0.2,0.7,-0.5235987755982988,-0.5235987755982988,0,1.8531716,1.4789363,0.4386179,-0.013118155,0.08279314,0.7960674,1.4344144,-0.13807224,1.5942227,-0.6781678,-0.27166453,-0.60252005,1.3297932,-0.5111597
-0.2,-0.2,0.7,-0.5235987755982988,-0.5235987755982988,0,1.8548639,1.4746892,0.4365232,-0.012656151,0.08510901,0.8100452,1.4466239,-0.14247927,1.5892094,-0.68096787,-0.27537635,-0.5933146,1.3289427,-0.5138289
-0.2,-0.2,0.7,-0.5235987755982988,-0.5235987755982988,0,1.853993,1.4752232,0.43755767,-0.01255047,0.077564865,0.77597594,1.4457833,-0.142692,1.5866235,-0.67346424,-0.27470878,-0.6153092,1.3278325,-0.47692314
-0.2,-0.2,0.7,-0.5235987755982988,-0.5235987755982988,0,1.8543906,1.4835255,0.44075853,-0.0030601504,0.08916372,0.7700789,1.4466269,-0.14948839,1.582594,-0.6736861,-0.2725199,-0.5971474,1.3305525,-0.52396923
-0.2,-0.2,0.7,-0.5235987755982988,-0.5235987755982988,0,1.840201,1.4793831,0.43746507,-0.009429129,0.08976611,0.7865466,1.4545093,-0.14060897,1.5939941,-0.6783272,-0.27637848,-0.5990853,1.3320228,-0.53559375
-0.2,-0.2,0.7,-0.5235987755982988,-0.5235987755982988,0,1.8482127,1.4845674,0.43832937,0.0007163682,0.08404715,0.80169743,1.4357153,-0.15152122,1.5806034,-0.6710362,-0.27408266,-0.58833915,1.3266345,-0.50887346
-0.2,-0.2,0.7,-0.5235987755982988,-0.5235987755982988,0,1.855194,1.4862894,0.43984497,0.0052483696,0.08017328,0.7888527,1.4317161,-0.14429253,1.581846,-0.67668575,-0.27722725,-0.6156401,1.3338805,-0.4951293
-0.2,-0.2,0.7,-0.5235987755982988,-0.5235987755982988,0,1.8474137,1.4855324,0.436925,-0.007689028,0.084822275,0.81072146,1.4422562,-0.14390764,1.5879073,-0.6895973,-0.27272934,-0.5899464,1.3316398,-0.51779914
-0.2,-0.2,0.7,-0.5235987755982988,-0.5235987755982988,0,1.8478217,1.4847128,0.43788928,-0.006158873,0.07505687,0.79163814,1.4414338,-0.14464761,1.5891466,-0.68258137,-0.27500135,-0.6034878,1.3245451,-0.5129945
-0.2,-0.2,0.7,-0.5235987755982988,-0.5235987755982988,0,1.8529451,1.4668676,0.43754318,0.00395752,0.0827068,0.79775584,1.4364836,-0.13901801,1.5928305,-0.67617196,-0.27260563,-0.59595627,1.3251289,-0.5170048
-0.2,-0.2,0.7,-0.5235987755982988,-0.5235987755982988,0,1.8595699,1.4858577,0.44019383,0.0005658498,0.07623291,0.8180379,1.4396595,-0.14250499,1.5828093,-0.6739681,-0.27546442,-0.6109622,1.3394197,-0.50857556
-0.2,-0.2,0.7,-0.5235987755982988,-0.5235987755982988,0,1.8591336,1.4806798,0.44091606,0.0010312921,0.087890066,0.77883065,1.4199375,-0.14417344,1.588923,-0.6695345,-0.27242982,-0.60172814,1.3275267,-0.4778208
-0.2,-0.2,0.7,-0.5235987755982988,-0.5235987755982988,0,1.8448231,1.4815074,0.43946192,-0.009609752,0.091749355,0.80860966,1.4391253,-0.13971956,1.5889782,-0.67942786,-0.27568078,-0.59767145,1.3275579,-0.52039397
-0.2,-0.2,0.7,-0.5235987755982988,-0.5235987755982988,0,1.8476473,1.4818127,0.4383209,-0.013398641,0.092903964,0.78547066,1.4589148,-0.14155772,1.5837526,-0.6802367,-0.27779913,-0.59724724,1.3258979,-0.4961408
-0.2,-0.2,0.7,-0.5235987755982988,-0.5235987755982988,0,1.8537062,1.4809619,0.43634734,-0.0118815,0.082450636,0.79601467,1.4536141,-0.14106286,1.5909652,-0.6831945,-0.27803326,-0.60179645,1.32129,-0.5005233
-0.2,-0.2,0.7,-0.5235987755982988,-0.5235987755982988,0,1.8496205,1.4783818,0.4372564,-0.012480494,0.08434685,0.7789285,1.4391286,-0.14046809,1.5892913,-0.68290186,-0.27754185,-0.5935894,1.3341801,-0.48952454
-0.2,-0.2,0.7,-0.5235987755982988,-0.5235987755982988,0,1.8483365,1.476752,0.438313,-0.0041250954,0.07896863,0.78984505,1.4361262,-0.13724609,1.5903975,-0.68351966,-0.27550825,-0.59571624,1.329902,-0.52161103
-0.2,-0.2,0.7,-0.5235987755982988,-0.5235987755982988,0,1.8442311,1.4762945,0.4408322,-0.0031679538,0.08543972,0.7945879,1.4481901,-0.14280914,1.5857292,-0.6753676,-0.27610278,-0.5995083,1.3329855,-0.49491802
-0.2,-0.2,0.7,-0.5235987755982988,-0.5235987755982988,0,1.8571125,1.4794558,0.43617028,-0.018770399,0.0849832,0.78360176,1.4409051,-0.14254367,1.5855005,-0.67751324,-0.276249,-0.5835205,1.3314911,-0.47539797
-0.2,-0.2,0.7,-0.5235987755982988,-0.5235987755982988,0,1.8517677,1.4842348,0.43720493,-0.007510847,0.085341126,0.7984336,1.4614614,-0.1405221,1.5974128,-0.6806303,-0.27773175,-0.6105121,1.329802,-0.5167439
-0.2,-0.2,0.7,-0.5235987755982988,-0.5235987755982988,0,1.8411859,1.4858379,0.4369039,-0.01650168,0.088394664,0.7819848,1.4523087,-0.14271678,1.5880122,-0.6804217,-0.27825823,-0.6087012,1.3204044,-0.5237323
-0.2,-0.2,0.7,-0.5235987755982988,-0.5235987755982988,0,1.8547121,1.4683671,0.43992767,-0.005515019,0.08004693,0.80000097,1.4472625,-0.14070441,1.5917534,-0.67571765,-0.27615455,-0.61120075,1.3334906,-0.5002413
-0.2,-0.2,0.7,-0.5235987755982988,-0.5235987755982988,0,1.857361,1.4696871,0.4371135,-0.007556363,0.08078146,0.8007462,1.4437842,-0.14108479,1.5849948,-0.6760934,-0.27614132,-0.5938177,1.3185884,-0.49279666
-0.2,-0.2,0.7,-0.5235987755982988,-0.5235987755982988,0,1.857204,1.481316,0.44067496,-0.014051308,0.081586376,0.77724254,1.4460218,-0.14386481,1.5864339,-0.6781532,-0.27235526,-0.6053383,1.3264228,-0.51383805
-0.2,-0.2,0.7,-0.5235987755982988,-0.5235987755982988,0,1.8462183,1.4752898,0.44006795,-0.0011661161,0.08849587,0.7914251,1.4559357,-0.14209083,1.5861717,-0.68017983,-0.27818006,-0.5862414,1.338485,-0.4830714
-0.2,-0.2,0.7,-0.5235987755982988,-0.5235987755982988,0,1.8509197,1.4820023,0.4368553,-0.007762336,0.08324076,0.7767186,1.4532481,-0.14419052,1.584119,-0.67555755,-0.27734366,-0.6059871,1.3366218,-0.4974146
-0.2,-0.2,0.7,-0.5235987755982988,-0.5235987755982988,0,1.8547113,1.4883064,0.43999705,-0.011415387,0.08077851,0.7712119,1.4461854,-0.1403558,1.593337,-0.67193806,-0.27678248,-0.6063302,1.3300656,-0.5072651
-0.2,-0.2,0.7,-0.5235987755982988,-0.5235987755982988,0,1.8459061,1.476054,0.44145295,-0.010407608,0.08233129,0.7604704,1.4588946,-0.14274032,1.5879719,-0.67571265,-0.27416542,-0.5949997,1.3344162,-0.50510585
-0.2,-0.2,0.7,-0.5235987755982988,-0.5235987755982988,0,1.8550034,1.4741732,0.4378813,-0.011308555,0.0896811,0.79166156,1.438099,-0.14194377,1.5910478,-0.688255,-0.27577963,-0.6117484,1.3301098,-0.5292146
-0.2,-0.2,0.7,-0.5235987755982988,-0.5235987755982988,0,1.8511639,1.4759066,0.4356528,-0.0022397935,0.072103456,0.78485984,1.4302127,-0.14437051,1.5929419,-0.6829992,-0.27654403,-0.61950713,1.326383,-0.50202554
-0.2,-0.2,0.7,-0.5235987755982988,-0.5235987755982988,0,1.8462359,1.4805739,0.4416626,-0.0073388643,0.079988435,0.7873525,1.4451203,-0.1459318,1.5858952,-0.6696634,-0.27553284,-0.6237883,1.3272815,-0.48979008
-0.2,-0.2,0.7,-0.5235987755982988,-0.5235987755982988,0,1.8442211,1.4776921,0.44180256,-0.008468876,0.08611835,0.8004376,1.4421699,-0.13989922,1.5817192,-0.68774724,-0.27378583,-0.57965815,1.3375429,-0.48358792
-0.2,-0.2,0.7,-0.5235987755982988,-0.5235987755982988,0,1.8456553,1.4841949,0.43821913,-0.011450829,0.08758185,0.8028243,1.4567529,-0.14191438,1.5845203,-0.6866118,-0.2751421,-0.58813024,1.3291687,-0.4918966
-0.2,-0.2,0.7,-0.5235987755982988,-0.5235987755982988,0,1.8490393,1.4911563,0.4409486,-0.0069099837,0.07525862,0.79358715,1.4506983,-0.1440504,1.5850356,-0.68794495,-0.2741874,-0.59986806,1.3225766,-0.52021533
-0.2,-0.2,0.7,-0.5235987755982988,-0.5235987755982988,0,1.8550884,1.4746841,0.4387369,-0.005079901,0.086998925,0.78365934,1.4381593,-0.14450507,1.5874201,-0.6794616,-0.27878714,-0.58416486,1.3403803,-0.47800273
-0.2,-0.2,0.7,-0.5235987755982988,-0.5235987755982988,0,1.8477129,1.4733282,0.44035906,-4.3251555e-05,0.08240154,0.7949906,1.4394678,-0.1422545,1.5887461,-0.6762402,-0.27875298,-0.60459876,1.3328892,-0.5344817
-0.2,-0.2,0.7,-0.5235987755982988,-0.5235987755982988,0,1.8553654,1.4726887,0.4372153,-0.025917185,0.08783783,0.79105055,1.4463192,-0.14416026,1.5902715,-0.68845195,-0.27680078,-0.6110989,1.3251477,-0.5229567
-0.2,-0.2,0.7,-0.5235987755982988,-0.5235987755982988,0,1.8601419,1.4775745,0.4380579,-0.0073187393,0.08022352,0.7874042,1.4406205,-0.14010496,1.5860382,-0.6862358,-0.27516797,-0.5888248,1.3347075,-0.50554305
-0.2,-0.2,0.7,-0.5235987755982988,-0.5235987755982988,0,1.8481408,1.4900999,0.4360961,-0.023952391,0.08330339,0.79993623,1.4488984,-0.14517094,1.5831333,-0.6753742,-0.2773775,-0.5766122,1.3346417,-0.5038506
-0.2,-0.2,0.7,-0.5235987755982988,-0.5235987755982988,0,1.8584985,1.4816954,0.44052398,0.0010443073,0.07490536,0.801732,1.434586,-0.14594962,1.5895324,-0.6912902,-0.27852106,-0.60831916,1.3287933,-0.49177292
-0.2,-0.2,0.7,-0.5235987755982988,-0.5235987755982988,0,1.8483377,1.4830266,0.43790388,-0.004260164,0.08575328,0.80180377,1.4347603,-0.14153124,1.5851886,-0.6799786,-0.27732378,-0.60596126,1.3308923,-0.5179003
-0.2,-0.2,0.7,-0.5235987755982988,-0.5235987755982988,0,1.8419851,1.4813725,0.43651468,-0.017647045,0.07990622,0.7915802,1.4486259,-0.14520049,1.5880032,-0.6785842,-0.27160475,-0.5981831,1.340992,-0.49366266
-0.2,-0.2,0.7,-0.5235987755982988,-0.5235987755982988,0,1.840017,1.4881076,0.44018298,-0.010970508,0.08999769,0.7831677,1.4355727,-0.14045702,1.5910776,-0.67044455,-0.2716662,-0.5989901,1.3338909,-0.51324385
-0.2,-0.2,0.7,-0.5235987755982988,-0.5235987755982988,0,1.8538314,1.470428,0.4380842,0.00032421527,0.09152831,0.7868621,1.4506124,-0.1401174,1.5960547,-0.68461615,-0.27706203,-0.60356253,1.3324716,-0.51070094
-0.2,-0.2,0.7,-0.5235987755982988,-0.5235987755982988,0,1.8429718,1.4730841,0.4374988,-0.00092292926,0.09116936,0.78327876,1.4235748,-0.14097928,1.5895625,-0.6762455,-0.2758752,-0.5816193,1.33117,-0.510519
-0.2,-0.2,0.7,-0.5235987755982988,-0.5235987755982988,0,1.8473966,1.4784217,0.43789923,-0.01628336,0.07781734,0.78502274,1.433494,-0.14223081,1.591652,-0.69034094,-0.2756848,-0.6140933,1.3375763,-0.51435304
-0.2,-0.2,0.7,-0.5235987755982988,-0.5235987755982988,0,1.8568133,1.4774878,0.4368719,-0.0064827893,0.08392978,0.7706616,1.4135398,-0.14409633,1.5893829,-0.6718444,-0.27372393,-0.5839983,1.3325722,-0.5045911
-0.2,-0.2,0.7,-0.5235987755982988,-0.5235987755982988,0,1.8572956,1.481245,0.43925402,-0.0050371266,0.09022063,0.7805062,1.4177638,-0.14154857,1.5937314,-0.67578405,-0.27710912,-0.6136391,1.3354892,-0.47961134
-0.2,-0.2,0.7,-0.5235987755982988,-0.5235987755982988,0,1.8447448,1.4738817,0.44121927,-0.0065429215,0.08169384,0.7711091,1.4444929,-0.14458771,1.5882267,-0.6739396,-0.27766255,-0.6115514,1.3303764,-0.5066642
-0.2,-0.2,0.7,-0.5235987755982988,-0.5235987755982988,0,1.8510116,1.4648086,0.43967974,-0.00029332607,0.083717205,0.8023628,1.4411695,-0.14707692,1.5930344,-0.6811334,-0.2775821,-0.6072669,1.3284509,-0.5250515
-0.2,-0.2,0.7,-0.5235987755982988,-0.5235987755982988,0,1.8586148,1.4830172,0.43832558,-0.0010736216,0.07956407,0.78393304,1.4332728,-0.1456701,1.5828922,-0.68420374,-0.27798948,-0.60583526,1.3186659,-0.49744523
-0.2,-0.2,0.7,-0.5235987755982988,-0.5235987755982988,0,1.8569043,1.4748901,0.44075415,0.008310964,0.07432205,0.79100573,1.4447328,-0.14302158,1.5812861,-0.68635416,-0.27466583,-0.58952093,1.328093,-0.49988252
-0.2,-0.2,0.7,-0.5235987755982988,-0.5235987755982988,0,1.8550547,1.4798248,0.44039664,-0.012189674,0.08575043,0.8094572,1.4350431,-0.14232257,1.5851628,-0.682687,-0.27520558,-0.59605795,1.3321272,-0.50702107
-0.2,-0.2,0.7,-0.5235987755982988,-0.5235987755982988,0,1.855405,1.4766757,0.4426685,-0.010645714,0.07784041,0.77524674,1.4268843,-0.14007473,1.579229,-0.67392814,-0.27355415,-0.5944974,1.334154,-0.48426482
-0.2,-0.2,0.7,-0.5235987755982988,-0.5235987755982988,0,1.8529937,1.4766828,0.4373231,-0.0077468655,0.086646646,0.7864757,1.4245921,-0.13931778,1.5860684,-0.67878133,-0.27626824,-0.59754443,1.3279474,-0.4897438
-0.2,-0.2,0.7,-0.5235987755982988,-0.5235987755982988,0,1.8490508,1.4666265,0.4378436,-0.002104414,0.076562144,0.7941502,1.4299858,-0.14528291,1.5863576,-0.6718083,-0.2754125,-0.5974907,1.3234887,-0.4958423
-0.2,-0.2,0.7,-0.5235987755982988,-0.5235987755982988,0,1.8390801,1.4888058,0.44358096,-0.003964862,0.07457794,0.814648,1.4441569,-0.14240347,1.5865576,-0.6815487,-0.27561802,-0.61444575,1.3363402,-0.547016
-0.2,-0.2,0.7,-0.5235987755982988,-0.5235987755982988,0,1.8458605,1.4784313,0.43823257,-0.0095398985,0.08108058,0.79931986,1.4374048,-0.14273609,1.5807981,-0.68249726,-0.27472353,-0.5990253,1.332585,-0.49049532
-0.2,-0.2,0.7,-0.5235987755982988,-0.5235987755982988,0,1.8520255,1.4710228,0.43921095,-0.00054533035,0.0895858,0.7814973,1.4564284,-0.14218214,1.5904248,-0.6854236,-0.27375,-0.59776646,1.3277668,-0.51539177
-0.2,-0.2,0.7,-0.5235987755982988,-0.5235987755982988,0,1.8692398,1.4789906,0.43704322,-0.016295789,0.08662813,0.7945967,1.4110243,-0.14176948,1.5883132,-0.6703351,-0.27391937,-0.602733,1.3386623,-0.5236782
-0.2,-0.2,0.7,-0.5235987755982988,-0.5235987755982988,0,1.850592,1.4707538,0.43927842,-0.012764325,0.08153077,0.8024355,1.4150233,-0.14615773,1.5895447,-0.6739392,-0.27746966,-0.5769878,1.3353442,-0.50306076
-0.2,-0.2,0.7,-0.5235987755982988,-0.5235987755982988,0,1.8557049,1.47912,0.43739945,-0.001622666,0.09155112,0.80034786,1.4386665,-0.14397155,1.5893269,-0.67937535,-0.27682123,-0.5907124,1.333844,-0.50372535
-0.2,-0.2,0.7,-0.5235987755982988,-0.5235987755982988,0,1.8462033,1.4817708,0.438941,-0.006023314,0.09783483,0.78310347,1.4258238,-0.1462059,1.5868025,-0.6771009,-0.27208728,-0.61123604,1.3390788,-0.50230926
-0.2,-0.2,0.7,-0.5235987755982988,-0.5235987755982988,0,1.851578,1.4747674,0.4408246,-0.0010331926,0.083373874,0.79698753,1.4376125,-0.14134078,1.5867381,-0.68355656,-0.27622223,-0.5907893,1.3276851,-0.48139325
-0.2,-0.2,0.7,-0.5235987755982988,-0.5235987755982988,0,1.8518411,1.4682539,0.4362282,-0.004190798,0.083183646,0.80149305,1.4332834,-0.14374313,1.589368,-0.6742567,-0.2711146,-0.5992199,1.3352267,-0.49151695
-0.2,-0.2,0.7,-0.5235987755982988,-0.5235987755982988,0,1.8522522,1.4782988,0.43785757,-0.00559215,0.083151296,0.7829527,1.4326416,-0.14213584,1.5833528,-0.6790886,-0.2730841,-0.5950565,1.3249217,-0.5300138
-0.2,-0.2,0.7,-0.5235987755982988,-0.5235987755982988,0,1.8459531,1.4789138,0.4356654,-0.005654982,0.07935593,0.7925365,1.4514774,-0.14409383,1.5813564,-0.68356264,-0.27241787,-0.6061443,1.3204455,-0.4797123
-0.2,-0.2,0.7,-0.5235987755982988,-0.5235987755982988,0,1.8405948,1.4742446,0.44040596,-0.0056132115,0.09382154,0.79452735,1.447545,-0.14115612,1.5895649,-0.67759854,-0.27709287,-0.59790635,1.3321062,-0.49703574
-0.2,-0.2,0.7,-0.5235987755982988,-0.5235987755982988,0,1.852613,1.4790398,0.43922687,-0.0054778825,0.08552319,0.7852328,1.4493496,-0.14332792,1.5907445,-0.68462765,-0.27545106,-0.6182379,1.3242239,-0.5055576
-0.2,-0.2,0.7,-0.5235987755982988,-0.5235987755982988,0,1.8530617,1.4710903,0.44110143,-0.019706702,0.0819745,0.782615,1.4390868,-0.14103268,1.5909169,-0.6781482,-0.2762473,-0.593945,1.3327857,-0.5032838
-0.2,-0.2,0.7,-0.5235987755982988,-0.5235987755982988,0,1.847402,1.483233,0.44174334,-0.0044866307,0.08217565,0.80180556,1.4447805,-0.1425549,1.59263,-0.6814329,-0.27761808,-0.59024465,1.3377641,-0.5057959
-0.2,-0.2,0.7,-0.5235987755982988,-0.5235987755982988,0,1.8603699,1.4775894,0.43854287,-0.00048543615,0.08597505,0.77343327,1.4372711,-0.13825022,1.5890445,-0.6817592,-0.2719043,-0.6003411,1.3288503,-0.5166691
-0.2,-0.2,0.7,-0.5235987755982988,-0.5235987755982988,0,1.8455426,1.4873129,0.43819454,-0.0012043981,0.08148905,0.78081405,1.4563292,-0.1442331,1.5841097,-0.6715627,-0.27486935,-0.6111268,1.3269203,-0.47748864
-0.2,-0.2,0.7,-0.5235987755982988,-0.5235987755982988,0,1.859429,1.4771153,0.43425196,-0.0019648657,0.08495427,0.7758164,1.4271253,-0.14556575,1.5907122,-0.66714746,-0.27709812,-0.61258423,1.3302366,-0.49259454
-0.2,-0.2,0.7,-0.5235987755982988,-0.5235987755982988,0,1.8529432,1.4773692,0.43833405,-0.012611487,0.08241427,0.80030906,1.432641,-0.1436275,1.5860835,-0.6717668,-0.27500182,-0.59990406,1.3235207,-0.49173573
-0.2,-0.2,0.7,-0.5235987755982988,-0.5235987755982988,0,1.858679,1.4790955,0.43995613,-0.0077490597,0.08086987,0.7847654,1.4510181,-0.14432454,1.5906922,-0.6862569,-0.2755528,-0.5853807,1.3311254,-0.51453435
-0.2,-0.2,0.7,-0.5235987755982988,-0.5235987755982988,0,1.8498393,1.4787836,0.44067273,-0.005694157,0.09153583,0.77753395,1.4313085,-0.140768,1.5881485,-0.67836434,-0.27289626,-0.6046466,1.3346337,-0.4907786
-0.2,-0.2,0.7,-0.5235987755982988,-0.5235987755982988,0,1.8527211,1.47914,0.44139603,-0.012781369,0.07725658,0.7749544,1.4482542,-0.14776842,1.5878831,-0.68885493,-0.27692676,-0.59806406,1.3357407,-0.4993713
-0.2,-0.2,0.7,-0.5235987755982988,-0.5235987755982988,0,1.84086,1.4878663,0.4413648,-0.010659976,0.08252188,0.8021469,1.4411225,-0.14253466,1.5916364,-0.6828169,-0.27721226,-0.5989043,1.3307265,-0.5045315
-0.2,-0.2,0.7,-0.5235987755982988,-0.5235987755982988,0,1.8506775,1.4742942,0.43980503,-0.008192683,0.08421272,0.774026,1.4323845,-0.143377,1.590506,-0.68467593,-0.27726412,-0.577048,1.3202705,-0.5137695
-0.2,-0.2,0.7,-0.5235987755982988,-0.5235987755982988,0,1.8502885,1.464315,0.43751663,-0.0063142967,0.082654856,0.7605465,1.4455125,-0.14335501,1.5870922,-0.674811,-0.27325034,-0.5902882,1.3237346,-0.49797252
-0.2,-0.2,0.7,-0.5235987755982988,-0.5235987755982988,0,1.8502607,1.484258,0.43889642,-0.008439257,0.086647116,0.7898141,1.4256715,-0.14464399,1.5802107,-0.6797427,-0.277368,-0.5913317,1.3320373,-0.50318396
-0.2,-0.2,0.7,-0.5235987755982988,-0.5235987755982988,0,1.8543508,1.4791337,0.43646386,-0.004631043,0.074336626,0.7937568,1.4493631,-0.14191271,1.5902632,-0.67963916,-0.27672198,-0.61552525,1.3276751,-0.5212866
-0.2,-0.2,0.7,-0.5235987755982988,-0.5235987755982988,0,1.8478955,1.4699917,0.43692052,0.0059631285,0.084174246,0.8139042,1.4135596,-0.14389561,1.5881425,-0.68821,-0.27717322,-0.6167441,1.336279,-0.4944949
-0.2,-0.2,0.7,-0.5235987755982988,-0.5235987755982988,0,1.8425628,1.4787749,0.43999907,-0.011792762,0.080775715,0.80444163,1.4488524,-0.13774505,1.5862325,-0.68360686,-0.2755894,-0.62580395,1.3315303,-0.5255094
-0.2,-0.2,0.7,-0.5235987755982988,-0.5235987755982988,0,1.8532677,1.4748054,0.43811896,-0.009711812,0.08179522,0.8223842,1.4310827,-0.14446485,1.585257,-0.6777425,-0.277991,-0.5968583,1.3298192,-0.50027657
-0.2,-0.2,0.7,-0.5235987755982988,-0.5235987755982988,0,1.851968,1.4773203,0.43699571,0.0039808587,0.08146759,0.79290926,1.4168656,-0.14064679,1.5869182,-0.67847925,-0.27593735,-0.59985155,1.3364967,-0.48046875
-0.2,-0.2,0.7,-0.5235987755982988,-0.5235987755982988,0,1.8489078,1.4808018,0.43746534,-0.0036585247,0.08594628,0.7789258,1.4371045,-0.14245217,1.5925834,-0.680513,-0.2738881,-0.59058553,1.329049,-0.52041996
-0.2,-0.2,0.7,-0.5235987755982988,-0.5235987755982988,0,1.8499361,1.4803015,0.44080725,-0.0053404127,0.08106171,0.7929076,1.4285103,-0.14540811,1.5806065,-0.6790471,-0.27662647,-0.607648,1.33665,-0.52157736
-0.2,-0.2,0.7,-0.5235987755982988,-0.5235987755982988,0,1.845541,1.473638,0.436336,-0.010608203,0.0751397,0.8014502,1.439141,-0.14274062,1.5879995,-0.6865358,-0.27668792,-0.6122106,1.3284953,-0.4817508
-0.2,-0.2,0.7,-0.5235987755982988,-0.5235987755982988,0,1.852845,1.4699361,0.4381151,-0.005372368,0.07503393,0.80403894,1.427322,-0.14260511,1.5891339,-0.6782362,-0.27742982,-0.58903134,1.3436099,-0.5087313
-0.2,-0.2,0.7,-0.5235987755982988,-0.5235987755982988,0,1.8453274,1.4665718,0.438251,-0.011455505,0.09234269,0.7900639,1.4392942,-0.14236584,1.5877583,-0.6797449,-0.27848786,-0.604319,1.3294175,-0.49330923
-0.2,-0.2,0.7,-0.5235987755982988,-0.5235987755982988,0,1.8587742,1.468947,0.43934843,0.0037315658,0.0793001,0.7837802,1.4425157,-0.14164042,1.5927714,-0.6821398,-0.27360645,-0.58685666,1.3270074,-0.4898748
-0.2,-0.2,0.7,-0.5235987755982988,-0.5235987755982988,0,1.8561016,1.4700773,0.44019628,-0.0057518263,0.075945385,0.7813853,1.4180536,-0.14552827,1.5913421,-0.67144346,-0.2769757,-0.5908852,1.3358203,-0.5164739
-0.2,-0.2,0.7,-0.5235987755982988,-0.5235987755982988,0,1.8540279,1.4762387,0.4406076,-0.006049982,0.08293628,0.8079183,1.4271259,-0.14373404,1.5846181,-0.6858489,-0.2729101,-0.5882498,1.3239069,-0.52172065
-0.2,-0.2,0.7,-0.5235987755982988,-0.5235987755982988,0,1.8374071,1.4821651,0.43549663,-0.011664255,0.07919234,0.79201573,1.4341824,-0.14223924,1.5932457,-0.67779845,-0.27489978,-0.6295266,1.3262099,-0.48900032
-0.2,-0.2,0.7,-0.5235987755982988,-0.5235987755982988,0,1.8450551,1.4692588,0.44010985,-0.0060376767,0.0882158,0.78358775,1.4386445,-0.13982011,1.5866114,-0.6779573,-0.27653724,-0.59632576,1.3233603,-0.5151866
-0.2,-0.2,0.7,-0.5235987755982988,-0.5235987755982988,0,1.861341,1.4744272,0.43939412,-0.0015872691,0.07620942,0.7861601,1.4417973,-0.14738275,1.5881029,-0.6858495,-0.2767827,-0.60141784,1.3317192,-0.49428058
-0.2,-0.2,0.7,-0.5235987755982988,-0.5235987755982988,0,1.842385,1.4790277,0.442765,-0.004114893,0.07959339,0.8064525,1.4430209,-0.1393372,1.5929275,-0.6883884,-0.2770135,-0.6147487,1.3225132,-0.5020367
-0.2,-0.2,0.7,-0.5235987755982988,-0.5235987755982988,0,1.8631796,1.4801282,0.43978173,-0.017475113,0.07626767,0.810722,1.4224138,-0.1463404,1.5907317,-0.67761165,-0.2735487,-0.5981696,1.341433,-0.52304596
-0.2,-0.2,0.7,-0.5235987755982988,-0.5235987755982988,0,1.8535109,1.4813695,0.439534,-0.0011412783,0.08339577,0.77295566,1.4431845,-0.14220965,1.5894204,-0.68419135,-0.27847576,-0.5927821,1.3311129,-0.5286721
-0.2,-0.2,0.7,-0.5235987755982988,-0.5235987755982988,0,1.8593298,1.4879204,0.44209555,-0.010548273,0.08106415,0.7874385,1.4392458,-0.1398479,1.59373,-0.6818009,-0.27575052,-0.6078626,1.3312507,-0.53362995
-0.2,-0.2,0.7,-0.5235987755982988,-0.5235987755982988,0,1.8545035,1.4753087,0.4389056,-0.008361308,0.087630674,0.77907103,1.4322594,-0.13668565,1.5885887,-0.684914,-0.27452412,-0.5943086,1.330073,-0.5023588
-0.2,-0.2,0.7,-0.5235987755982988,-0.5235987755982988,0,1.8481156,1.4842184,0.43828523,-0.010843527,0.0770448,0.7806012,1.4516562,-0.14008333,1.5845104,-0.69615,-0.27528292,-0.6055846,1.3299257,-0.51232624
-0.2,-0.2,0.7,-0.5235987755982988,-0.5235987755982988,0,1.8493595,1.4715921,0.43592507,5.5571654e-05,0.078748375,0.79656845,1.4520825,-0.14052837,1.5919285,-0.6899774,-0.27765986,-0.5971178,1.3184233,-0.50798285
-0.2,-0.2,0.7,-0.5235987755982988,-0.5235987755982988,0,1.8474778,1.4873587,0.4393899,-0.0016081904,0.08726132,0.7896664,1.4358218,-0.14306362,1.593217,-0.6796303,-0.27077422,-0.59743065,1.329464,-0.50730085
-0.2,-0.2,0.7,-0.5235987755982988,-0.5235987755982988,0,1.850467,1.481575,0.44156805,-0.0142912455,0.08438282,0.7982971,1.4364798,-0.14539541,1.5863127,-0.67168266,-0.2800711,-0.6075905,1.3272531,-0.5085904
-0.2,-0.2,0.7,-0.5235987755982988,-0.5235987755982988,0,1.8521531,1.4877675,0.43964314,-0.0016012572,0.07970231,0.7943183,1.430887,-0.1409952,1.5904675,-0.68100166,-0.27424765,-0.61644334,1.3276954,-0.4895631
-0.2,-0.2,0.7,-0.5235987755982988,-0.5235987755982988,0,1.8460312,1.476551,0.4351587,-0.0057305493,0.08921424,0.79577506,1.4474294,-0.14018798,1.5952948,-0.68354243,-0.27696162,-0.60355085,1.3254764,-0.5053725
-0.2,-0.2,0.7,-0.5235987755982988,-0.5235987755982988,0,1.8528509,1.475901,0.4400072,-0.0048952233,0.08567457,0.78477705,1.4481217,-0.1436662,1.5850216,-0.68123156,-0.27448112,-0.6072987,1.3274676,-0.49695608
-0.2,-0.2,0.7,-0.5235987755982988,-0.5235987755982988,0,1.8538588,1.4798524,0.43945917,-0.014888209,0.080648094,0.7966367,1.4621882,-0.1449638,1.5884929,-0.68099624,-0.28065538,-0.6159639,1.3330728,-0.5281897
-0.2,-0.2,0.7,-0.5235987755982988,-0.5235987755982988,0,1.8529879,1.4843005,0.4407411,-0.011310481,0.08575043,0.80581516,1.4371206,-0.13903803,1.5879887,-0.6812777,-0.2723024,-0.6026626,1.3341504,-0.49488157
-0.2,-0.2,0.7,-0.5235987755982988,-0.5235987755982988,0,1.849817,1.4820021,0.43767872,-0.007050781,0.082584426,0.79706216,1.4410968,-0.13951997,1.5904016,-0.6862994,-0.27471656,-0.58161724,1.3343842,-0.53319806
-0.2,-0.2,0.7,-0.5235987755982988,-0.5235987755982988,0,1.8501192,1.4744804,0.43596667,-0.007852087,0.08808711,0.78147614,1.432781,-0.1414706,1.597915,-0.6814875,-0.27593145,-0.6108015,1.3301698,-0.515059
-0.2,-0.2,0.7,-0.5235987755982988,-0.5235987755982988,0,1.8386675,1.4741974,0.43778977,0.0016033975,0.08086466,0.7931801,1.4450555,-0.14367148,1.5857073,-0.6893519,-0.2775943,-0.61941504,1.3258414,-0.537931
-0.2,-0.2,0.7,-0.5235987755982988,-0.5235987755982988,0,1.8413047,1.4733205,0.43953776,-0.0021547452,0.08814152,0.7996116,1.4455593,-0.14255476,1.5818996,-0.6747465,-0.27543995,-0.6277581,1.3251903,-0.5078216
-0.2,-0.2,0.7,-0.5235987755982988,-0.5235987755982988,0,1.858754,1.4691557,0.43835905,-0.0059357807,0.08393802,0.80021465,1.4370505,-0.14343071,1.5874538,-0.67762035,-0.2717179,-0.5965242,1.3311572,-0.48370185
-0.2,-0.2,0.7,-0.5235987755982988,-0.5235987755982988,0,1.8521621,1.4649516,0.43812877,-0.0043386756,0.087470435,0.78522074,1.4346716,-0.14079203,1.5853395,-0.6732275,-0.27823704,-0.613238,1.331657,-0.47669563
-0.2,-0.2,0.7,-0.5235987755982988,-0.5235987755982988,0,1.854238,1.4718038,0.4380595,-0.01399757,0.09198759,0.7787633,1.4429798,-0.14085186,1.590104,-0.6862415,-0.27304965,-0.587019,1.3297095,-0.50880355
-0.2,-0.2,0.7,-0.5235987755982988,-0.5235987755982988,0,1.8540539,1.477925,0.43738914,-0.004981692,0.099518724,0.7815853,1.4374728,-0.14351104,1.58426,-0.680006,-0.27671012,-0.6268603,1.3274225,-0.50184083
-0.2,-0.2,0.7,-0.5235987755982988,-0.5235987755982988,0,1.8595448,1.478629,0.4358168,-0.0031993117,0.07653034,0.7937381,1.4430811,-0.14184323,1.595425,-0.6763732,-0.27622795,-0.6193859,1.3340852,-0.5308844
-0.2,-0.2,0.7,-0.5235987755982988,-0.5235987755982988,0,1.8535885,1.4726354,0.4383887,-0.0021692882,0.081489645,0.77668214,1.4533021,-0.14068142,1.5892764,-0.6796588,-0.27736774,-0.59757215,1.3331859,-0.49430284
-0.2,-0.2,0.7,-0.5235987755982988,-0.5235987755982988,0,1.8472837,1.4775412,0.43816033,-0.006596946,0.084797464,0.795553,1.4524279,-0.14259161,1.587732,-0.6787737,-0.2757079,-0.6070442,1.3317294,-0.48952997
-0.2,-0.2,0.7,-0.5235987755982988,-0.5235987755982988,0,1.8488599,1.4823349,0.4375695,-0.007454563,0.08039734,0.7770017,1.4324632,-0.1433454,1.5901239,-0.6801831,-0.27793095,-0.59918904,1.3250811,-0.4699784
-0.2,-0.2,0.7,-0.5235987755982988,-0.5235987755982988,0,1.844269,1.4826887,0.43727168,0.00017889794,0.08699186,0.8016406,1.4476386,-0.14161007,1.5836756,-0.6756979,-0.2754766,-0.58514404,1.3278229,-0.5081719
-0.2,-0.2,0.7,-0.5235987755982988,-0.5235987755982988,0,1.8484697,1.4801766,0.44164166,0.00063470355,0.086975306,0.774699,1.433113,-0.13957602,1.5885504,-0.6674398,-0.2805723,-0.5819315,1.3271282,-0.51410985
-0.2,-0.2,0.7,-0.5235987755982988,-0.5235987755982988,0,1.85278,1.4848928,0.43499103,-0.008166989,0.0813271,0.80528945,1.4519664,-0.13951737,1.5863745,-0.6637787,-0.27432677,-0.6050214,1.3275863,-0.50850546
-0.2,-0.2,0.7,-0.5235987755982988,-0.5235987755982988,0,1.8465827,1.4790741,0.4429415,-0.011093776,0.076183274,0.8034426,1.4324833,-0.13884243,1.5862734,-0.66106766,-0.27490732,-0.6249631,1.3366457,-0.5240221
-0.2,-0.2,0.7,-0.5235987755982988,-0.5235987755982988,0,1.8426352,1.4827145,0.43749887,-0.010581459,0.08209392,0.78510094,1.4314082,-0.14156811,1.5827439,-0.67524093,-0.27184996,-0.62719715,1.3305987,-0.52601683
-0.2,-0.2,0.7,-0.5235987755982988,-0.5235987755982988,0,1.8489339,1.4738183,0.4430902,-0.010735778,0.07288131,0.7877362,1.4309644,-0.14073932,1.5877436,-0.68221194,-0.276594,-0.57668996,1.3347857,-0.47908255
-0.2,-0.2,0.7,-0.5235987755982988,-0.5235987755982988,0,1.8442593,1.4861225,0.43650648,-0.0054012625,0.0866676,0.8234764,1.4325962,-0.13749518,1.5926847,-0.668492,-0.2732712,-0.60941136,1.3325976,-0.5227563
-0.2,-0.2,0.7,-0.5235987755982988,-0.5235987755982988,0,1.847973,1.4828465,0.43903372,-0.009098128,0.0743141,0.79064447,1.4473459,-0.13969702,1.5928942,-0.6717616,-0.27448815,-0.6292503,1.3249137,-0.49935108
-0.2,-0.2,0.7,-0.5235987755982988,-0.5235987755982988,0,1.8569503,1.4733475,0.44021246,0.008397184,0.083452694,0.78576356,1.4286344,-0.13838375,1.5896419,-0.68480086,-0.27384633,-0.58487743,1.3131618,-0.50347435
-0.2,-0.2,0.7,-0.5235987755982988,-0.5235987755982988,0,1.8478059,1.4872367,0.44226167,-0.0118513005,0.08079416,0.76187116,1.4389707,-0.13922459,1.5867642,-0.690061,-0.2753003,-0.5674098,1.3321611,-0.51960695
-0.2,-0.2,0.7,-0.5235987755982988,-0.5235987755982988,0,1.8462696,1.4771875,0.43831602,-0.00934814,0.078131326,0.78339285,1.424285,-0.14215438,1.5842978,-0.6809371,-0.27794084,-0.5850793,1.3228657,-0.50799984
-0.2,-0.2,0.7,-0.5235987755982988,-0.5235987755982988,0,1.852622,1.4754997,0.43893662,-0.0052341693,0.08592764,0.79243976,1.4323387,-0.14439611,1.5837235,-0.6732039,-0.27630994,-0.57949364,1.3230358,-0.5326409
-0.2,-0.2,0.7,-0.5235987755982988,-0.5235987755982988,0,1.8580885,1.4768171,0.44068816,-0.008777762,0.08976787,0.77880305,1.4247884,-0.14095166,1.5915698,-0.66584855,-0.2792254,-0.5969727,1.335686,-0.50748116
-0.2,-0.2,0.7,-0.5235987755982988,-0.5235987755982988,0,1.846482,1.4780027,0.44246942,-0.0047380924,0.085270725,0.77490515,1.4151174,-0.14281328,1.5910676,-0.659743,-0.2767504,-0.59038293,1.3342227,-0.49407738
-0.2,-0.2,0.7,-0.5235987755982988,-0.5235987755982988,0,1.8482366,1.4764655,0.43855584,-0.006223145,0.08507175,0.78928137,1.4494399,-0.1390314,1.5882189,-0.6729808,-0.2779444,-0.6181634,1.3320493,-0.49416968
-0.2,-0.2,0.7,-0.5235987755982988,-0.5235987755982988,0,1.8506451,1.480761,0.43697494,-0.0025920232,0.09251577,0.7979424,1.4424204,-0.14396644,1.5877799,-0.6732268,-0.27744836,-0.6206057,1.3282255,-0.5225012
-0.2,-0.2,0.7,-0.5235987755982988,-0.5235987755982988,0,1.846871,1.4722997,0.43950757,-0.01562935,0.08413395,0.7891187,1.4368258,-0.14353894,1.5861624,-0.6829969,-0.27800438,-0.57109666,1.3220359,-0.49470598
-0.2,-0.2,0.7,-0.5235987755982988,-0.5235987755982988,0,1.8443078,1.472998,0.43897772,-0.0074178805,0.08246879,0.78329825,1.429405,-0.14281344,1.589797,-0.6655175,-0.27494386,-0.61278,1.3314177,-0.52044797
-0.2,-0.2,0.7,-0.5235987755982988,-0.5235987755982988,0,1.84715,1.482415,0.44207925,-0.0062674265,0.08676342,0.7761367,1.4331464,-0.14225298,1.5888768,-0.66682553,-0.2748759,-0.6118721,1.3268336,-0.5140336
-0.2,-0.2,0.7,-0.5235987755982988,-0.5235987755982988,0,1.8507968,1.4772965,0.4394487,-0.007932504,0.08523137,0.7884728,1.4159914,-0.14047249,1.5863212,-0.67418545,-0.27473152,-0.61364007,1.3202467,-0.5309939
-0.2,-0.2,0.7,-0.5235987755982988,-0.5235987755982988,0,1.8536131,1.4890381,0.4391983,-0.0037833096,0.07873905,0.8046225,1.4368829,-0.13745521,1.5867989,-0.6735502,-0.27780592,-0.5851995,1.3310698,-0.51346767
-0.2,-0.2,0.7,-0.5235987755982988,-0.5235987755982988,0,1.8496474,1.4770982,0.44160482,-0.011375993,0.08355935,0.7894702,1.4282597,-0.14139396,1.5927688,-0.68481314,-0.2731617,-0.5868995,1.3322405,-0.50664073
-0.2,-0.2,0.7,-0.5235987755982988,-0.5235987755982988,0,1.8604156,1.4817951,0.43650186,-0.00078579166,0.08110265,0.7972431,1.447264,-0.13898942,1.5885694,-0.6734438,-0.279242,-0.5902664,1.3260514,-0.51272017
-0.2,-0.2,0.7,-0.5235987755982988,-0.5235987755982988,0,1.8598695,1.4886234,0.4394596,-0.002647604,0.08474342,0.7758681,1.4398799,-0.14173488,1.5868685,-0.67947525,-0.2744756,-0.6102212,1.3331729,-0.51983315
-0.2,-0.2,0.7,-0.5235987755982988,-0.5235987755982988,0,1.8504174,1.4829984,0.43956667,-0.0030288522,0.07856704,0.796719,1.4649819,-0.1436017,1.5868664,-0.673408,-0.2756666,-0.593123,1.3302367,-0.5126072
-0.2,-0.2,0.7,-0.5235987755982988,-0.5235987755982988,0,1.8527056,1.4833721,0.4409551,0.0020606222,0.074956685,0.8165232,1.4486464,-0.14173874,1.5871085,-0.6787329,-0.27596775,-0.60394186,1.3233391,-0.5129615
-0.2,-0.2,0.7,-0.5235987755982988,-0.5235987755982988,0,1.8582457,1.4692657,0.43563846,-0.013911672,0.08542103,0.8040975,1.4418228,-0.14768745,1.5857255,-0.67902434,-0.2775695,-0.59338444,1.3374763,-0.48767608
-0.2,-0.2,0.7,-0.5235987755982988,-0.5235987755982988,0,1.8440136,1.4897872,0.43884236,-0.006447937,0.079875335,0.79575425,1.4348459,-0.14213942,1.5881021,-0.67737305,-0.27323726,-0.57729256,1.337706,-0.49335676
-0.2,-0.2,0.7,-0.5235987755982988,-0.5235987755982988,0,1.8576641,1.4846494,0.43864453,-0.005095942,0.072229475,0.80748516,1.4396455,-0.14168423,1.5926695,-0.6806375,-0.27570698,-0.61533004,1.3199149,-0.5007936
-0.2,-0.2,0.7,-0.5235987755982988,-0.5235987755982988,0,1.8502696,1.4741061,0.441349,-0.024598395,0.079820745,0.78222555,1.4369657,-0.14199339,1.5905975,-0.67932814,-0.27362067,-0.59619826,1.3334659,-0.5070847
-0.2,-0.2,0.7,-0.5235987755982988,-0.5235987755982988,0,1.8417536,1.4699901,0.43942988,-0.0004072257,0.08488427,0.7924261,1.4320885,-0.14356887,1.5946338,-0.687234,-0.27769366,-0.6001533,1.3238509,-0.5080475
-0.2,-0.2,0.7,-0.5235987755982988,-0.5235987755982988,0,1.849578,1.4751158,0.4361017,-0.0018674548,0.08033745,0.78626174,1.4452145,-0.14273997,1.587951,-0.68092775,-0.27395293,-0.59108156,1.3282768,-0.53824764
-0.2,-0.2,0.7,-0.5235987755982988,-0.5235987755982988,0,1.8433616,1.4770321,0.4434683,-0.0071534757,0.07185911,0.79630214,1.4649093,-0.14351267,1.5860883,-0.68455356,-0.27819887,-0.60749525,1.3283303,-0.50135916
-0.2,-0.2,0.7,-0.5235987755982988,-0.5235987755982988,0,1.8475341,1.4852796,0.438096,-0.009815946,0.091541745,0.8047403,1.4428831,-0.14103779,1.586082,-0.6787806,-0.27476332,-0.5930929,1.3314401,-0.4991972
-0.2,-0.2,0.7,-0.5235987755982988,-0.5235987755982988,0,1.8545895,1.4786938,0.43745118,-0.0148010105,0.08559327,0.7913878,1.4546981,-0.14313781,1.5885053,-0.68743473,-0.27545613,-0.5805417,1.3288602,-0.49874792
-0.2,-0.2,0.7,-0.5235987755982988,-0.5235987755982988,0,1.8500304,1.4789175,0.4376517,-0.0073196655,0.083601624,0.8092122,1.4366008,-0.14291243,1.5854445,-0.67470974,-0.275732,-0.61148506,1.33465,-0.4713271
-0.2,-0.2,0.7,-0.5235987755982988,-0.5235987755982988,0,1.8722638,1.4842511,0.43879554,-0.0077476143,0.0873323,0.79353285,1.4326066,-0.14292614,1.5879128,-0.6700844,-0.27699617,-0.6167973,1.3303815,-0.49198112
-0.2,-0.2,0.7,-0.5235987755982988,-0.5235987755982988,0,1.8409241,1.4770038,0.43912488,-0.0048435037,0.08445816,0.7822004,1.4404488,-0.141941,1.5884252,-0.67651457,-0.2716415,-0.6130475,1.3253896,-0.5229816
-0.2,-0.2,0.7,-0.5235987755982988,-0.5235987755982988,0,1.8499621,1.4762504,0.4402467,-0.005052749,0.08971195,0.76852614,1.4219998,-0.14275196,1.5890841,-0.66767174,-0.276349,-0.59035474,1.3266739,-0.5442232
-0.2,-0.2,0.7,-0.5235987755982988,-0.5235987755982988,0,1.8433809,1.48107,0.44325352,-0.01176719,0.082849935,0.79187304,1.4483904,-0.14181851,1.5872521,-0.6670791,-0.27440852,-0.5933028,1.3184592,-0.5200509
-0.2,-0.2,0.7,-0.5235987755982988,-0.5235987755982988,0,1.8467058,1.4797868,0.43825135,-0.0067760213,0.08429484,0.8071368,1.4478453,-0.1388103,1.5896717,-0.6758273,-0.27490187,-0.63679487,1.3337896,-0.5396641
