sanky1234/BimanualDexCatch/isaacgymenvs/cem_results/football_pose_-0.2_0.0_1.2999999999999998_-0.5235987755982988_-0.5235987755982988_0_2025-05-24.csv
x,y,z,roll,pitch,yaw,robot1/joint1,robot1/joint2,robot1/joint3,robot1/joint4,robot1/joint5,robot1/joint6,robot1/joint7,robot2/joint1,robot2/joint2,robot2/joint3,robot2/joint4,robot2/joint5,robot2/joint6,robot2/joint7
-0.2,0.0,1.2999999999999998,-0.5235987755982988,-0.5235987755982988,0,-0.4443845,0.41841537,1.0226167,0.59439325,0.79095095,0.54286027,-1.7708575,0.255494,0.9174731,0.122155055,-0.07559806,0.17580594,-1.2989239,0.80912215
-0.2,0.0,1.2999999999999998,-0.5235987755982988,-0.5235987755982988,0,-0.44368848,0.42041206,1.0205814,0.59252673,0.7720974,0.54778755,-1.795176,0.21581544,0.81294924,1.0191653,0.07275427,-0.42032605,-1.394778,0.3648149
-0.2,0.0,1.2999999999999998,-0.5235987755982988,-0.5235987755982988,0,-0.44424212,0.4280385,1.0224476,0.5949867,0.807627,0.54219943,-1.9163694,0.23861606,0.98892426,0.41800597,-0.097106844,-1.2237148,-1.4852536,-0.07752711
-0.2,0.0,1.2999999999999998,-0.5235987755982988,-0.5235987755982988,0,-0.44428566,0.42151323,1.0252749,0.5934569,0.8030125,0.5492691,-1.7147398,0.3911401,0.7686929,0.8857645,-0.061526395,-0.64744294,-1.241118,-0.03878255
-0.2,0.0,1.2999999999999998,-0.5235987755982988,-0.5235987755982988,0,-0.44332218,0.42106315,1.029867,0.5941178,0.80960107,0.543713,-1.9485619,0.42563888,1.1416037,-0.30058333,-0.11751776,0.13613118,-1.255882,0.8789007
-0.2,0.0,1.2999999999999998,-0.5235987755982988,-0.5235987755982988,0,-0.44396618,0.42090735,1.030398,0.5924296,0.7875479,0.53953344,-1.4655409,0.10366044,0.7698248,0.44224542,0.019092707,0.86763597,-1.3962904,-0.9925424
-0.2,0.0,1.2999999999999998,-0.5235987755982988,-0.5235987755982988,0,-0.4433131,0.42119434,1.0174383,0.5939202,0.77950007,0.54235274,-1.8844831,-0.16819805,1.0778036,0.8034871,0.058993455,0.36860394,-1.2797693,1.1524734
-0.2,0.0,1.2999999999999998,-0.5235987755982988,-0.5235987755982988,0,-0.44415087,0.4227009,1.0209094,0.592556,0.7545761,0.5387688,-1.70263,-0.31759134,1.045951,-0.20782125,-0.073336534,-0.3345919,-1.374771,0.2369428
-0.2,0.0,1.2999999999999998,-0.5235987755982988,-0.5235987755982988,0,-0.44367102,0.42274213,1.0184127,0.5955781,0.7885559,0.5424874,-1.5695454,0.21425931,1.0966524,-0.3504236,-0.25144437,0.28917697,-1.3932368,0.12275955
-0.2,0.0,1.2999999999999998,-0.5235987755982988,-0.5235987755982988,0,-0.44374382,0.42024964,1.0174831,0.5932,0.79534715,0.5468869,-1.69881,-0.55393136,0.7921531,0.4765015,-0.15902235,-0.774967,-1.1836057,0.71514636
-0.2,0.0,1.2999999999999998,-0.5235987755982988,-0.5235987755982988,0,-0.44384244,0.41945702,1.0188848,0.5938506,0.7800324,0.5450978,-1.8860109,0.33408758,1.1972648,0.11700669,-0.08878084,0.5534109,-1.4078249,1.1401114
-0.2,0.0,1.2999999999999998,-0.5235987755982988,-0.5235987755982988,0,-0.44343492,0.41972435,1.0281172,0.59328896,0.7772075,0.5415504,-1.7433664,0.13200602,0.990785,-0.20556949,0.093383014,1.7709001,-1.2388389,-0.21263152
-0.2,0.0,1.2999999999999998,-0.5235987755982988,-0.5235987755982988,0,-0.4436242,0.4187916,1.0270493,0.594724,0.7606231,0.5457591,-2.0908456,0.34670678,1.2015142,0.5226173,0.11265266,-0.55003303,-1.5076523,-1.6795989
-0.2,0.0,1.2999999999999998,-0.5235987755982988,-0.5235987755982988,0,-0.444279,0.42027646,1.0217121,0.59290063,0.77983326,0.54741275,-1.8957709,0.28497687,1.3188653,-0.2336205,-0.015788814,-0.16566996,-1.1985447,-0.18868949
-0.2,0.0,1.2999999999999998,-0.5235987755982988,-0.5235987755982988,0,-0.44365868,0.42193186,1.0333564,0.5937725,0.79355246,0.5429235,-1.8634043,-0.26296222,1.3106453,0.114922106,-0.02364568,1.4731414,-1.1909871,-0.03701118
-0.2,0.0,1.2999999999999998,-0.5235987755982988,-0.5235987755982988,0,-0.44487146,0.41957298,1.0248699,0.5936581,0.78796613,0.5449689,-1.5569804,0.08571964,0.7782877,0.05185198,-0.14482261,0.10878207,-1.3400695,0.99658155
-0.2,0.0,1.2999999999999998,-0.5235987755982988,-0.5235987755982988,0,-0.44329935,0.42231327,1.0219332,0.59461766,0.78746575,0.54754984,-1.5070939,-0.34282246,1.0462068,0.81262445,0.12711968,0.5333398,-1.2530456,-0.2975399
-0.2,0.0,1.2999999999999998,-0.5235987755982988,-0.5235987755982988,0,-0.44401136,0.41851804,1.0212437,0.59429044,0.7757084,0.5452034,-1.886958,0.017182143,1.147684,0.7221656,-0.041602872,0.07466036,-1.1474215,0.5567219
-0.2,0.0,1.2999999999999998,-0.5235987755982988,-0.5235987755982988,0,-0.4435302,0.42116636,1.0261316,0.59478307,0.81136066,0.5489561,-1.6461915,0.7799218,0.8814552,-0.07831502,0.05045841,0.74252313,-1.1535463,1.0542936
-0.2,0.0,1.2999999999999998,-0.5235987755982988,-0.5235987755982988,0,-0.44425675,0.41971523,1.0290968,0.5947647,0.78848755,0.5424903,-1.4546877,0.4041875,1.2322628,0.16640718,0.16334274,0.41661114,-1.2811673,-0.42596912
-0.2,0.0,1.2999999999999998,-0.5235987755982988,-0.5235987755982988,0,-0.44319418,0.42207894,1.0248154,0.59470123,0.78729206,0.5476555,-1.7757567,0.12162766,0.8808717,-0.62683135,-0.110809855,0.54376334,-1.3678582,-0.2164783
-0.2,0.0,1.2999999999999998,-0.5235987755982988,-0.5235987755982988,0,-0.44399813,0.42462072,1.0200949,0.59293616,0.7723635,0.5443271,-1.6088575,0.21188423,1.1982025,-0.4386204,0.14312801,0.30954778,-1.2642095,0.33824432
-0.2,0.0,1.2999999999999998,-0.5235987755982988,-0.5235987755982988,0,-0.44397214,0.4213206,1.022396,0.5930894,0.78206384,0.54449344,-1.6401845,-0.028423943,0.8698283,-0.099132515,0.0764297,0.08763292,-1.2367564,-0.17886502
-0.2,0.0,1.2999999999999998,-0.5235987755982988,-0.5235987755982988,0,-0.44444486,0.4221284,1.0265101,0.59388345,0.79368556,0.5381622,-1.771999,-0.077402234,1.2221726,0.022621486,0.044426803,-0.16076612,-1.4934272,0.91864806
-0.2,0.0,1.2999999999999998,-0.5235987755982988,-0.5235987755982988,0,-0.4438736,0.42077857,1.0350343,0.5932112,0.78970075,0.5441872,-1.8079089,-0.48536345,0.8044723,0.8636339,-0.06917404,0.11232313,-1.3907249,-0.5912078
-0.2,0.0,1.2999999999999998,-0.5235987755982988,-0.5235987755982988,0,-0.44403946,0.42066485,1.0250081,0.5938717,0.7658141,0.5413283,-1.4728891,0.23534982,1.0597073,-0.01723654,0.06531676,-0.61944634,-1.1167039,-0.74776405
-0.2,0.0,1.2999999999999998,-0.5235987755982988,-0.5235987755982988,0,-0.4435463,0.41862035,1.0220258,0.59385955,0.77959394,0.5455125,-1.9159305,-0.06129653,1.2807271,0.109953046,0.19139977,0.24651514,-1.3328238,-0.0034580345
-0.2,0.0,1.2999999999999998,-0.5235987755982988,-0.5235987755982988,0,-0.443582,0.415314,1.0268098,0.5939053,0.7820031,0.54648286,-1.9641627,0.17375587,1.0397575,0.7862702,0.06483935,-0.75172025,-1.275223,0.7031534
-0.2,0.0,1.2999999999999998,-0.5235987755982988,-0.5235987755982988,0,-0.4442759,0.42139202,1.0313996,0.59362304,0.7876629,0.54284436,-1.4957664,0.07615163,1.335099,-0.24841644,-0.050830282,0.48333383,-1.289859,-0.50808805
-0.2,0.0,1.2999999999999998,-0.5235987755982988,-0.5235987755982988,0,-0.44453704,0.41981605,1.0288041,0.5953397,0.7767604,0.5417973,-1.7329888,-0.0051624654,0.8038464,0.3696016,-0.049367014,-1.5269781,-1.1549516,-0.6433756
-0.2,0.0,1.2999999999999998,-0.5235987755982988,-0.5235987755982988,0,-0.44348922,0.4219527,1.0293115,0.5936594,0.7884556,0.5514028,-1.5416241,-0.14198141,1.1760437,0.42930156,-0.121385455,0.46417525,-1.3481177,-1.1529132
-0.2,0.0,1.2999999999999998,-0.5235987755982988,-0.5235987755982988,0,-0.44332156,0.42345414,1.0190144,0.59412086,0.7879055,0.54102165,-1.776311,-0.06089941,1.1585488,-0.22670053,-0.009393389,-0.5172187,-1.2553936,-0.04818231
-0.2,0.0,1.2999999999999998,-0.5235987755982988,-0.5235987755982988,0,-0.44364166,0.41922486,1.026851,0.59358984,0.7814231,0.539551,-1.7645497,0.044951785,1.096835,-0.025642978,0.12062972,0.49213785,-1.2570081,0.8496552
-0.2,0.0,1.2999999999999998,-0.5235987755982988,-0.5235987755982988,0,-0.4443622,0.42575923,1.0141186,0.59335196,0.7641595,0.54874897,-1.4549491,0.010320804,1.1772134,0.03454389,-0.014060488,-0.28587195,-1.2456869,0.36308333
-0.2,0.0,1.2999999999999998,-0.5235987755982988,-0.5235987755982988,0,-0.44312158,0.42404398,1.0259991,0.5946879,0.79155934,0.5412904,-1.8077668,-0.47072986,0.72919375,0.056628376,0.12543488,0.5101024,-1.1959893,0.08275377
-0.2,0.0,1.2999999999999998,-0.5235987755982988,-0.5235987755982988,0,-0.44353262,0.4231173,1.0220339,0.5944339,0.7799922,0.5509498,-1.510134,0.521827,1.1456054,-0.11103803,0.09640619,0.5271952,-1.4974633,-1.3400704
-0.2,0.0,1.2999999999999998,-0.5235987755982988,-0.5235987755982988,0,-0.44442514,0.42245314,1.0206665,0.5932873,0.78457135,0.54721594,-1.784041,0.51740223,1.083681,0.6007593,-0.030622756,0.38900957,-1.0717472,-0.34691748
-0.2,0.0,1.2999999999999998,-0.5235987755982988,-0.5235987755982988,0,-0.4443478,0.4213992,1.0302209,0.59294945,0.7892563,0.5478609,-1.6872483,-0.38097927,0.7606003,0.68693477,0.0008137917,1.150088,-1.1969582,-1.556154
-0.2,0.0,1.2999999999999998,-0.5235987755982988,-0.5235987755982988,0,-0.44338447,0.42132095,1.0215216,0.5937264,0.7921314,0.5503733,-1.7810494,0.079611845,1.0883585,1.0368475,-0.13703626,-0.7148054,-1.3306181,0.07016557
-0.2,0.0,1.2999999999999998,-0.5235987755982988,-0.5235987755982988,0,-0.44355524,0.42036214,1.0179986,0.59549445,0.77295744,0.5489944,-1.6146834,-0.83526534,0.78678983,-0.2696976,-0.04447213,-0.30895692,-1.2302531,0.4525167
-0.2,0.0,1.2999999999999998,-0.5235987755982988,-0.5235987755982988,0,-0.4442923,0.42277247,1.0244563,0.5936038,0.7855294,0.5411898,-1.7213693,0.523126,0.84633726,-0.047341805,0.009200118,-0.5445873,-1.2955384,0.2011782
-0.2,0.0,1.2999999999999998,-0.5235987755982988,-0.5235987755982988,0,-0.44362846,0.42628664,1.024978,0.59482026,0.7936412,0.54948723,-1.39829,-0.09598728,1.1030622,0.56210256,-0.010579389,-0.67876965,-1.2358965,0.96737367
-0.2,0.0,1.2999999999999998,-0.5235987755982988,-0.5235987755982988,0,-0.4441951,0.4193678,1.0220983,0.59439033,0.81805015,0.5397769,-1.785322,0.39407873,0.9905902,0.4209723,-0.20121855,-0.27016762,-1.323703,0.52567613
-0.2,0.0,1.2999999999999998,-0.5235987755982988,-0.5235987755982988,0,-0.4433454,0.42417166,1.0176836,0.5910919,0.7768508,0.5462006,-1.7372835,0.22802687,0.76207703,0.07062147,-0.055166762,0.3342429,-1.2394452,0.5127519
-0.2,0.0,1.2999999999999998,-0.5235987755982988,-0.5235987755982988,0,-0.44429383,0.4224044,1.0299493,0.59215957,0.7768235,0.5543921,-1.7871096,0.17751934,1.1262335,0.55817276,0.03370108,0.11656152,-1.4636587,0.20192802
-0.2,0.0,1.2999999999999998,-0.5235987755982988,-0.5235987755982988,0,-0.44377443,0.423819,1.0226964,0.59309226,0.7905611,0.5436094,-1.619809,0.26837865,1.285754,0.0827239,-0.07996279,1.6579336,-1.5034806,0.6356011
-0.2,0.0,1.2999999999999998,-0.5235987755982988,-0.5235987755982988,0,-0.44311863,0.42448416,1.020365,0.5956554,0.7743842,0.54101855,-1.7296275,0.26472005,1.0498948,-0.42279932,-0.014254389,-0.22486338,-1.3846748,-0.3731122
-0.2,0.0,1.2999999999999998,-0.5235987755982988,-0.5235987755982988,0,-0.4435781,0.42333,1.0192575,0.59694225,0.78751796,0.54333377,-1.7652622,0.27836278,1.0816305,-0.35865745,-0.023744622,-0.7208357,-1.4112986,1.3858473
-0.2,0.0,1.2999999999999998,-0.5235987755982988,-0.5235987755982988,0,-0.44370136,0.42316028,1.0284841,0.59368074,0.7902485,0.5453299,-1.5908576,-0.23709553,1.155781,-0.19460395,0.1410105,0.26648402,-1.5188223,-1.6036385
-0.2,0.0,1.2999999999999998,-0.5235987755982988,-0.5235987755982988,0,-0.44330987,0.42290944,1.0205185,0.5944485,0.80134505,0.5418217,-1.872518,0.11875241,1.3222345,0.6978327,-0.034302134,-0.31243774,-1.3466717,-0.6971176
-0.2,0.0,1.2999999999999998,-0.5235987755982988,-0.5235987755982988,0,-0.4434758,0.42280796,1.0254995,0.59388936,0.7749914,0.54354817,-1.5363592,0.048757214,0.94722474,-0.17970455,-0.104839206,0.16342552,-1.4919877,-0.3242591
-0.2,0.0,1.2999999999999998,-0.5235987755982988,-0.5235987755982988,0,-0.44385445,0.42263606,1.0176548,0.59258413,0.7616027,0.5463936,-1.5242901,-0.52285886,0.8779143,-0.6213384,-0.042500034,0.8333581,-1.333811,-0.18309206
-0.2,0.0,1.2999999999999998,-0.5235987755982988,-0.5235987755982988,0,-0.44367388,0.42353436,1.0199379,0.59267575,0.7589746,0.5428254,-1.7281286,0.032595016,1.101081,0.69467527,0.1781808,1.0400362,-1.2155545,-1.266584
-0.2,0.0,1.2999999999999998,-0.5235987755982988,-0.5235987755982988,0,-0.4434954,0.42419904,1.0256823,0.5936241,0.77746224,0.54772305,-1.764372,-0.29195577,0.87329555,0.020706434,-0.043186184,0.12809016,-1.2181593,0.9105204
-0.2,0.0,1.2999999999999998,-0.5235987755982988,-0.5235987755982988,0,-0.4438627,0.42161468,1.0271716,0.5945466,0.7775989,0.54480016,-1.602552,0.008045316,0.9671791,-0.66269505,-0.06655835,0.76072764,-1.2166142,0.5631342
-0.2,0.0,1.2999999999999998,-0.5235987755982988,-0.5235987755982988,0,-0.4437589,0.41987234,1.0220937,0.59276694,0.7872055,0.5441168,-1.564553,-0.34731156,0.632911,0.22074516,-0.056462806,-0.55757385,-1.460141,-0.9333301
-0.2,0.0,1.2999999999999998,-0.5235987755982988,-0.5235987755982988,0,-0.44393697,0.42205152,1.0269775,0.5954174,0.7891127,0.5445923,-1.7179922,0.5527537,1.2832454,-0.2724166,-0.03724828,0.29776132,-1.3760719,-0.91499454
-0.2,0.0,1.2999999999999998,-0.5235987755982988,-0.5235987755982988,0,-0.443338,0.42191726,1.0246247,0.594019,0.79559976,0.5516889,-1.5658649,0.5076293,1.1500864,-0.42730016,0.105566934,0.8664871,-1.2450339,0.00063381885
-0.2,0.0,1.2999999999999998,-0.5235987755982988,-0.5235987755982988,0,-0.44374287,0.42277086,1.0215728,0.5924699,0.7904918,0.5437226,-1.6545578,-0.39464942,1.1518595,-0.09045923,0.02225476,-0.09059792,-1.1296097,-0.35226634
-0.2,0.0,1.2999999999999998,-0.5235987755982988,-0.5235987755982988,0,-0.4442608,0.42364323,1.0262629,0.59328,0.7771989,0.54486996,-1.6273873,0.24317655,1.1961669,0.32110134,0.014076531,-0.2526433,-1.3173289,-0.017514393
-0.2,0.0,1.2999999999999998,-0.5235987755982988,-0.5235987755982988,0,-0.4438091,0.4206313,1.0256945,0.5950954,0.7875971,0.54416955,-1.7221751,0.07349031,0.9995213,-0.3177892,0.0011360137,0.2548891,-1.1375422,0.5249733
-0.2,0.0,1.2999999999999998,-0.5235987755982988,-0.5235987755982988,0,-0.4433895,0.4222479,1.0197719,0.5942656,0.78892547,0.54906785,-1.8208091,0.103826635,1.0944028,-0.42028546,-0.16226394,0.77740663,-1.4288962,-0.33368084
-0.2,0.0,1.2999999999999998,-0.5235987755982988,-0.5235987755982988,0,-0.44359586,0.4161094,1.0247691,0.59448487,0.7850474,0.5402708,-1.807987,0.12939233,0.86695296,0.33427778,-0.204497,-0.3876833,-1.4026507,-1.2801238
-0.2,0.0,1.2999999999999998,-0.5235987755982988,-0.5235987755982988,0,-0.44375414,0.42247698,1.0272139,0.5938042,0.78464717,0.54605544,-1.6271158,-0.022381414,1.2423714,-0.46746796,0.0006229649,0.044579957,-1.2062632,1.1863762
-0.2,0.0,1.2999999999999998,-0.5235987755982988,-0.5235987755982988,0,-0.44437167,0.41764885,1.0250735,0.5952192,0.7874083,0.5445314,-1.7204245,0.0151407495,0.9877446,0.5169167,0.057221867,-0.7829652,-1.3478137,1.1994272
-0.2,0.0,1.2999999999999998,-0.5235987755982988,-0.5235987755982988,0,-0.44400144,0.42252684,1.030892,0.59391254,0.75010955,0.5455622,-1.5362911,0.65880734,1.0641768,0.30987105,0.2669137,0.32120726,-1.1075292,-0.13409962
-0.2,0.0,1.2999999999999998,-0.5235987755982988,-0.5235987755982988,0,-0.44403622,0.4210291,1.0274718,0.5932048,0.76440847,0.5441692,-1.5799093,0.12478939,0.985694,0.48965156,0.15334232,-0.15057936,-1.4759864,-1.4218539
-0.2,0.0,1.2999999999999998,-0.5235987755982988,-0.5235987755982988,0,-0.44418696,0.41943115,1.0329244,0.5937518,0.75820804,0.5508359,-1.6772742,-0.06435167,0.98495376,0.34784034,-0.10260553,0.11821883,-1.343777,-0.4011806
-0.2,0.0,1.2999999999999998,-0.5235987755982988,-0.5235987755982988,0,-0.44360012,0.42155403,1.024216,0.59395194,0.78812075,0.5463868,-1.8329237,-0.20124628,0.90599906,-0.19598863,0.11073792,0.1835655,-1.1310458,-0.33611295
-0.2,0.0,1.2999999999999998,-0.5235987755982988,-0.5235987755982988,0,-0.4441014,0.4210703,1.0208905,0.59482634,0.7866326,0.55032,-1.6501118,-0.3109766,0.8489235,0.5403367,-0.096464284,-0.5469471,-1.2396653,0.85432553
-0.2,0.0,1.2999999999999998,-0.5235987755982988,-0.5235987755982988,0,-0.44366297,0.42246202,1.0226741,0.5944617,0.79290867,0.5521205,-1.6518917,0.33384454,1.3396325,-0.19448471,0.057097066,0.15182017,-1.4034737,-0.87938267
-0.2,0.0,1.2999999999999998,-0.5235987755982988,-0.5235987755982988,0,-0.44306672,0.42339095,1.0171604,0.5949064,0.7807675,0.55031383,-1.8037969,0.04837036,1.2727708,0.42679167,0.1058473,0.17956522,-1.4126073,1.0216674
-0.2,0.0,1.2999999999999998,-0.5235987755982988,-0.5235987755982988,0,-0.44375223,0.42116904,1.0287217,0.59660137,0.7786962,0.54615414,-1.8882773,0.23450208,0.75595886,0.13116267,0.01559097,-0.59499955,-1.456779,0.19226946
-0.2,0.0,1.2999999999999998,-0.5235987755982988,-0.5235987755982988,0,-0.44331083,0.42108265,1.0209223,0.5926481,0.7964118,0.5426049,-1.7762772,0.28291625,1.0260609,0.3679094,-0.18716435,-1.0465478,-1.3848073,-1.1701318
-0.2,0.0,1.2999999999999998,-0.5235987755982988,-0.5235987755982988,0,-0.44425878,0.41945195,1.0255636,0.5925084,0.76844174,0.541121,-1.807042,0.35121405,1.096465,0.04040756,0.14741658,0.9337639,-1.3817738,0.5505394
-0.2,0.0,1.2999999999999998,-0.5235987755982988,-0.5235987755982988,0,-0.444235,0.41852087,1.0191568,0.5959052,0.76964635,0.54509276,-1.7354617,-0.003526078,1.0539527,0.9786359,-0.21836106,-1.0039322,-1.277033,0.6022393
-0.2,0.0,1.2999999999999998,-0.5235987755982988,-0.5235987755982988,0,-0.44352034,0.41729796,1.0245348,0.59388876,0.7990571,0.5395417,-1.5597268,0.553388,1.2641467,0.02718364,-0.18335105,-0.3316618,-1.3192471,-0.5663812
-0.2,0.0,1.2999999999999998,-0.5235987755982988,-0.5235987755982988,0,-0.44398847,0.42344326,1.0265971,0.5916843,0.7816114,0.5449903,-1.8112605,-0.5787276,1.0461246,-0.76231825,-0.026415017,0.36976215,-1.2894186,-0.4540577
-0.2,0.0,1.2999999999999998,-0.5235987755982988,-0.5235987755982988,0,-0.4447237,0.41691095,1.0191667,0.5938615,0.7725589,0.5481687,-1.6582668,-0.06561826,1.0997566,0.47104415,-0.056390066,0.8794545,-1.2461538,0.12540053
-0.2,0.0,1.2999999999999998,-0.5235987755982988,-0.5235987755982988,0,-0.443407,0.42144468,1.0261713,0.59089917,0.7815511,0.54005474,-1.6374853,0.4510994,1.0035881,-0.051202282,0.0637616,-0.2997431,-1.4266056,0.118675046
-0.2,0.0,1.2999999999999998,-0.5235987755982988,-0.5235987755982988,0,-0.443736,0.42131996,1.0256928,0.5934546,0.7862938,0.5472061,-1.9422681,0.5990813,1.1143517,-0.074891046,-0.005366607,1.0479869,-1.364179,0.4623609
-0.2,0.0,1.2999999999999998,-0.5235987755982988,-0.5235987755982988,0,-0.44424418,0.42170957,1.024674,0.5927294,0.78814054,0.54925877,-1.700669,0.24244536,0.8891727,-0.12190022,-0.11458858,0.48196542,-1.3120528,-0.018690785
-0.2,0.0,1.2999999999999998,-0.5235987755982988,-0.5235987755982988,0,-0.44366184,0.422229,1.0276961,0.596021,0.78143054,0.54309565,-1.4748496,0.25426435,0.93439674,0.027281795,-0.04397668,0.14230283,-1.3287834,-0.052657284
-0.2,0.0,1.2999999999999998,-0.5235987755982988,-0.5235987755982988,0,-0.44360915,0.4230058,1.0223247,0.59469396,0.7897693,0.54341817,-1.5418357,-0.109286085,1.183452,0.21293989,-0.14082597,1.1082803,-1.315267,0.450416
-0.2,0.0,1.2999999999999998,-0.5235987755982988,-0.5235987755982988,0,-0.44386414,0.42431757,1.0212877,0.5955766,0.7645437,0.54459226,-1.7045052,0.1924269,1.1646249,0.41926563,0.056357607,-0.42216116,-1.1789759,0.377738
-0.2,0.0,1.2999999999999998,-0.5235987755982988,-0.5235987755982988,0,-0.44384512,0.42068407,1.0220435,0.59537804,0.7703979,0.54737383,-1.9452775,-0.013895262,1.1410687,0.19482048,-0.17230214,0.7906121,-1.3550045,-0.76249987
-0.2,0.0,1.2999999999999998,-0.5235987755982988,-0.5235987755982988,0,-0.44419605,0.42275706,1.0161524,0.59345275,0.7598372,0.5464687,-1.6932049,0.5069777,0.8958065,-0.079819635,-0.16881041,-0.036086135,-1.4237331,0.72247547
-0.2,0.0,1.2999999999999998,-0.5235987755982988,-0.5235987755982988,0,-0.44389853,0.42487776,1.0237724,0.5959086,0.7756695,0.5469719,-1.4991026,-0.021411804,1.1690216,0.16472249,-0.017163033,-0.14466625,-1.286369,-1.2174686
-0.2,0.0,1.2999999999999998,-0.5235987755982988,-0.5235987755982988,0,-0.44383532,0.42152223,1.0209713,0.59524894,0.7730197,0.54645425,-1.8791456,0.69007766,1.013356,0.48209304,0.0069317813,1.217794,-1.3527172,-0.6642432
-0.2,0.0,1.2999999999999998,-0.5235987755982988,-0.5235987755982988,0,-0.44397756,0.42374405,1.0239561,0.594504,0.77755815,0.5385245,-1.5215565,0.0118256165,1.0882721,0.142584,0.15914416,1.5659837,-1.3271998,-0.58781946
-0.2,0.0,1.2999999999999998,-0.5235987755982988,-0.5235987755982988,0,-0.44345284,0.41680163,1.0257386,0.5927444,0.8008143,0.5500696,-1.7946613,0.30969104,1.0264096,0.44367722,-0.029424135,0.5260958,-1.2995791,0.5621872
-0.2,0.0,1.2999999999999998,-0.5235987755982988,-0.5235987755982988,0,-0.44349074,0.42204714,1.0303093,0.59480524,0.7978458,0.54935795,-1.6535509,0.047866352,0.83841366,-0.09004867,-0.066830516,1.3419017,-1.2570382,0.7073462
-0.2,0.0,1.2999999999999998,-0.5235987755982988,-0.5235987755982988,0,-0.44340223,0.4260451,1.0247942,0.5951976,0.7753148,0.5413268,-1.7525703,0.5958062,0.93810284,0.8288421,0.062471274,-0.20982824,-1.3936895,1.2304478
-0.2,0.0,1.2999999999999998,-0.5235987755982988,-0.5235987755982988,0,-0.44334507,0.41805488,1.0227896,0.59267867,0.7831996,0.5480448,-1.821137,0.32103655,0.944512,-0.115985885,-0.16857769,-0.68531656,-1.4277489,0.44078362
-0.2,0.0,1.2999999999999998,-0.5235987755982988,-0.5235987755982988,0,-0.4437153,0.4211514,1.0238853,0.5918301,0.7579178,0.5433358,-1.76571,-0.41464737,1.082129,-0.04695788,-0.10258218,0.15742308,-1.3612515,-0.8456365
-0.2,0.0,1.2999999999999998,-0.5235987755982988,-0.5235987755982988,0,-0.44356105,0.42136538,1.0269351,0.5952185,0.795269,0.5434037,-1.72671,0.58068,0.8632151,0.067114964,-0.041032393,0.4061798,-1.2886024,0.56994146
-0.2,0.0,1.2999999999999998,-0.5235987755982988,-0.5235987755982988,0,-0.44372505,0.42239746,1.0201006,0.5941592,0.79789793,0.54627043,-1.697736,0.02126967,1.0648443,-0.5700024,-0.032170426,-1.5000606,-1.197521,-0.8280954
-0.2,0.0,1.2999999999999998,-0.5235987755982988,-0.5235987755982988,0,-0.44366056,0.4205086,1.0291301,0.5948933,0.78521913,0.54842883,-1.6479083,0.33334592,1.1009051,0.54977375,0.0012258968,0.84113127,-1.4533978,0.2454113
-0.2,0.0,1.2999999999999998,-0.5235987755982988,-0.5235987755982988,0,-0.44364327,0.42502213,1.0239247,0.5959106,0.7806472,0.5425725,-1.7088665,-0.49057847,1.2214416,-0.6820281,-0.0074035125,0.089955166,-1.3474693,-0.050151303
-0.2,0.0,1.2999999999999998,-0.5235987755982988,-0.5235987755982988,0,-0.4441446,0.42444742,1.0300677,0.59408534,0.79459655,0.5424743,-1.6484262,0.062471174,0.93247914,-0.09276069,0.01623723,0.4816196,-1.4201359,0.4450209
-0.2,0.0,1.2999999999999998,-0.5235987755982988,-0.5235987755982988,0,-0.44389337,0.4225368,1.0194007,0.5940609,0.76207536,0.54822314,-1.4655638,0.20175731,0.78742194,0.04968057,-0.054116447,1.0137012,-1.2647332,-0.52093863
-0.2,0.0,1.2999999999999998,-0.5235987755982988,-0.5235987755982988,0,-0.44372383,0.41937694,1.0235354,0.59398925,0.7934479,0.5426547,-1.5310735,0.45690718,1.0843132,-0.17620814,-0.11243598,0.59775144,-1.344347,0.09056157
-0.2,0.0,1.2999999999999998,-0.5235987755982988,-0.5235987755982988,0,-0.44391122,0.4241191,1.022261,0.59284616,0.7837277,0.5439145,-1.6245306,0.32950655,1.1676685,0.19530985,-0.231008,-1.078124,-1.2528154,-0.40734085
-0.2,0.0,1.2999999999999998,-0.5235987755982988,-0.5235987755982988,0,-0.4433475,0.42108798,1.0225759,0.5931323,0.7800092,0.5487607,-1.5081848,-0.3147826,1.1433637,0.9424134,-0.008868085,0.83134055,-1.3440183,0.099729486
-0.2,0.0,1.2999999999999998,-0.5235987755982988,-0.5235987755982988,0,-0.44355795,0.42098576,1.0205123,0.59301656,0.7658841,0.5487175,-1.610339,0.36391333,1.3833529,0.0064755133,0.10696227,0.97390854,-1.3787273,0.5285319
-0.2,0.0,1.2999999999999998,-0.5235987755982988,-0.5235987755982988,0,-0.44370323,0.42317262,1.0302113,0.59272414,0.76479805,0.5438034,-1.6644881,-0.22600406,1.3199135,0.22230276,-0.11376534,1.2416725,-1.3700515,1.7868892
-0.2,0.0,1.2999999999999998,-0.5235987755982988,-0.5235987755982988,0,-0.4438917,0.42364123,1.0257556,0.5946926,0.7718718,0.5500482,-1.4819605,0.40875623,0.9109384,0.104351155,-0.17646171,1.519557,-1.2093712,0.2711771
-0.2,0.0,1.2999999999999998,-0.5235987755982988,-0.5235987755982988,0,-0.4440698,0.42257324,1.0227106,0.5947567,0.7818446,0.5524616,-1.6565658,0.23643053,1.3333119,0.51947933,0.04139576,0.7518802,-1.3959737,0.18242908
-0.2,0.0,1.2999999999999998,-0.5235987755982988,-0.5235987755982988,0,-0.44311792,0.42035565,1.0184808,0.5947221,0.7725944,0.5527252,-1.8168525,0.8117852,1.1049155,-0.22562112,-0.1363171,0.59229,-1.3464671,-1.2454218
-0.2,0.0,1.2999999999999998,-0.5235987755982988,-0.5235987755982988,0,-0.4436016,0.42172658,1.0300059,0.5929774,0.7573273,0.551678,-1.7198615,0.29340118,0.9113526,0.10074463,-0.06251869,0.15391596,-1.4141033,-0.9310713
-0.2,0.0,1.2999999999999998,-0.5235987755982988,-0.5235987755982988,0,-0.44509763,0.42443419,1.0265311,0.59235376,0.7818786,0.54098064,-1.5237172,0.09453269,1.0360774,0.33159226,-0.04108251,-0.8185223,-1.3647832,1.4942282
-0.2,0.0,1.2999999999999998,-0.5235987755982988,-0.5235987755982988,0,-0.4439202,0.42375097,1.0217105,0.59282154,0.77041745,0.55368304,-1.9945701,0.37730128,1.2188511,0.09834174,-0.08630584,1.1299415,-1.2288224,-0.9314593
-0.2,0.0,1.2999999999999998,-0.5235987755982988,-0.5235987755982988,0,-0.443728,0.4254183,1.0200363,0.59298694,0.7873207,0.54394287,-1.6613244,-0.14898078,1.0029413,-0.04734444,-0.060820527,0.5327786,-1.4198211,0.782396
-0.2,0.0,1.2999999999999998,-0.5235987755982988,-0.5235987755982988,0,-0.44368058,0.41993526,1.0255461,0.59218395,0.7821991,0.54801846,-2.0591226,0.3062754,0.94986117,-0.20013861,-0.092781864,0.853007,-1.2138646,0.1851177
-0.2,0.0,1.2999999999999998,-0.5235987755982988,-0.5235987755982988,0,-0.44416875,0.42379126,1.0232888,0.59127635,0.790599,0.540548,-1.8538885,-0.21307379,0.9290387,0.58985794,-0.032882143,-0.4785886,-1.4782059,0.38881418
-0.2,0.0,1.2999999999999998,-0.5235987755982988,-0.5235987755982988,0,-0.4438917,0.42194262,1.0216151,0.5930585,0.79175705,0.53940827,-1.8618058,0.5671436,1.2721888,0.6108161,-0.039343048,0.20355368,-1.4257457,-1.3243678
-0.2,0.0,1.2999999999999998,-0.5235987755982988,-0.5235987755982988,0,-0.44371232,0.42437282,1.0231462,0.59320045,0.77783114,0.5407569,-1.7119579,0.209818,0.9491795,0.5658613,0.16649814,1.148418,-1.3487576,-0.7822075
-0.2,0.0,1.2999999999999998,-0.5235987755982988,-0.5235987755982988,0,-0.44362536,0.42253312,1.0267069,0.5950053,0.7896896,0.54804844,-2.0855312,0.16801633,1.1010454,0.6574981,-0.059539158,0.1518157,-1.2638412,0.6774872
-0.2,0.0,1.2999999999999998,-0.5235987755982988,-0.5235987755982988,0,-0.44449478,0.42066315,1.0242491,0.5919947,0.79132706,0.5426163,-1.6553818,-0.32775167,0.941607,0.19094397,-0.23176548,0.10243707,-1.2156247,-0.22751962
-0.2,0.0,1.2999999999999998,-0.5235987755982988,-0.5235987755982988,0,-0.44378492,0.4232611,1.0235764,0.5948574,0.78834754,0.5365061,-1.6784205,0.5224874,1.2319708,0.3442722,0.02121563,-0.05672928,-1.4024785,0.6857845
-0.2,0.0,1.2999999999999998,-0.5235987755982988,-0.5235987755982988,0,-0.4437511,0.42054987,1.0243528,0.59440285,0.7970274,0.5483572,-1.8793793,-0.052095056,1.028127,-0.10634758,-0.07623828,-0.14898981,-1.3000503,0.56588626
-0.2,0.0,1.2999999999999998,-0.5235987755982988,-0.5235987755982988,0,-0.44364625,0.4260424,1.0191444,0.5936882,0.7743248,0.5405079,-1.8534139,0.25284585,1.244843,0.6441344,0.12185893,0.069274776,-1.4062301,-0.2356826
-0.2,0.0,1.2999999999999998,-0.5235987755982988,-0.5235987755982988,0,-0.4441398,0.4204683,1.0247415,0.59252715,0.78558064,0.5498049,-1.873673,-0.08023152,1.1829847,0.41943666,-0.13926207,0.74713904,-1.339077,0.098194644
-0.2,0.0,1.2999999999999998,-0.5235987755982988,-0.5235987755982988,0,-0.44360417,0.41917235,1.0283613,0.59573716,0.78646064,0.53972644,-1.3995624,0.2180551,0.87589025,0.59398437,0.118929245,1.2407818,-1.3048135,0.5898971
-0.2,0.0,1.2999999999999998,-0.5235987755982988,-0.5235987755982988,0,-0.4447615,0.42790034,1.0236051,0.5950337,0.7737636,0.53798103,-1.5413013,-0.71184355,1.1531276,0.2859678,0.032150574,-0.3567277,-1.4330533,0.48869333
-0.2,0.0,1.2999999999999998,-0.5235987755982988,-0.5235987755982988,0,-0.4439794,0.420877,1.0263389,0.5924982,0.7842654,0.5456471,-1.8515946,-0.29335982,1.3262515,-0.06562309,-0.055651788,1.7243937,-1.2506207,-0.2976174
-0.2,0.0,1.2999999999999998,-0.5235987755982988,-0.5235987755982988,0,-0.442161,0.41818827,1.0302517,0.5929063,0.7845079,0.53823876,-1.6083183,-0.0074375537,1.0498283,0.16651691,-0.08468009,0.7139594,-1.4139612,0.06849139
-0.2,0.0,1.2999999999999998,-0.5235987755982988,-0.5235987755982988,0,-0.44413534,0.42514926,1.017034,0.5950427,0.7766196,0.542782,-1.7863691,0.06748373,1.0107907,0.11918806,-0.00555642,0.1676411,-1.3516848,0.9768279
-0.2,0.0,1.2999999999999998,-0.5235987755982988,-0.5235987755982988,0,-0.4438558,0.42533502,1.0230316,0.596689,0.7875031,0.54419756,-1.8785924,-0.3283472,0.79625946,0.07250518,0.059636332,0.7202634,-1.4439472,0.5411611
-0.2,0.0,1.2999999999999998,-0.5235987755982988,-0.5235987755982988,0,-0.4423,0.42615345,1.0264602,0.59368575,0.7697513,0.539207,-1.4524686,-0.16677447,1.1130768,-0.24859564,-0.080354035,-0.40560636,-1.3708894,0.3284351
-0.2,0.0,1.2999999999999998,-0.5235987755982988,-0.5235987755982988,0,-0.44365826,0.42227426,1.0261496,0.59536064,0.7760717,0.5477241,-1.8975422,-0.32100552,1.0220838,-0.21777365,0.12061237,0.04422265,-1.3226342,0.43242666
-0.2,0.0,1.2999999999999998,-0.5235987755982988,-0.5235987755982988,0,-0.44355744,0.42204884,1.0313691,0.59447044,0.7754081,0.54821074,-1.9249368,-0.009752027,0.93344223,-0.17288682,-0.073006526,-0.17045645,-1.3314514,1.3624336
-0.2,0.0,1.2999999999999998,-0.5235987755982988,-0.5235987755982988,0,-0.4436424,0.42313054,1.0261614,0.5942296,0.79241973,0.5431806,-1.7407403,-0.061155103,1.2953383,0.78806955,-0.0868028,0.96246785,-1.2118421,0.33374017
-0.2,0.0,1.2999999999999998,-0.5235987755982988,-0.5235987755982988,0,-0.44348326,0.42030865,1.0238765,0.59284365,0.78847665,0.54078877,-1.924147,-0.05429746,0.8419749,-0.36545607,-0.062188752,0.05510038,-1.2967467,-0.64527327
-0.2,0.0,1.2999999999999998,-0.5235987755982988,-0.5235987755982988,0,-0.4445843,0.42330617,1.0194054,0.5915172,0.77322537,0.54308105,-1.682921,-0.24177869,0.9891969,0.41346285,-0.07444811,0.28368473,-1.2832158,-0.38918787
-0.2,0.0,1.2999999999999998,-0.5235987755982988,-0.5235987755982988,0,-0.4438163,0.42585924,1.0254666,0.5952412,0.7955579,0.54155755,-1.7345779,0.3766317,1.0264176,-0.3178364,0.13513955,-1.3120954,-0.97117376,0.4198748
-0.2,0.0,1.2999999999999998,-0.5235987755982988,-0.5235987755982988,0,-0.44401252,0.42328614,1.0174018,0.59457785,0.777482,0.5447784,-1.8535018,-0.05961447,0.71722007,0.21665135,0.0063702487,-0.06429497,-1.1819938,0.0938023
-0.2,0.0,1.2999999999999998,-0.5235987755982988,-0.5235987755982988,0,-0.4439111,0.42200932,1.0205443,0.59386235,0.7744486,0.54862887,-1.823823,0.03560238,1.3243121,0.09979908,-0.10575103,0.8269558,-1.2467041,-0.023317063
-0.2,0.0,1.2999999999999998,-0.5235987755982988,-0.5235987755982988,0,-0.4443717,0.42414784,1.0178225,0.5926858,0.77990973,0.5478516,-1.899629,0.013324842,0.62586665,0.089157164,-0.025015295,1.3808327,-1.2195789,1.5262865
-0.2,0.0,1.2999999999999998,-0.5235987755982988,-0.5235987755982988,0,-0.44370466,0.42380095,1.0213585,0.5930536,0.7915627,0.54532367,-1.7396028,0.22557229,1.2660918,0.38214335,-0.18547495,0.39950496,-1.3042616,-0.38778746
-0.2,0.0,1.2999999999999998,-0.5235987755982988,-0.5235987755982988,0,-0.44358534,0.4219711,1.0294672,0.59227145,0.78571755,0.5431558,-1.8049718,0.49926955,0.9668725,0.5563082,-0.044897813,0.4886239,-1.5242943,-0.75309265
-0.2,0.0,1.2999999999999998,-0.5235987755982988,-0.5235987755982988,0,-0.44331005,0.42673084,1.0222522,0.59300244,0.7749828,0.5462089,-1.8262893,0.31228992,1.3498306,-0.86562276,0.044048566,0.06367923,-1.4414271,0.08029356
-0.2,0.0,1.2999999999999998,-0.5235987755982988,-0.5235987755982988,0,-0.44376838,0.42106304,1.0238602,0.59259796,0.7798129,0.54907745,-1.8649582,-0.12405887,1.2466058,0.1806479,0.1435146,1.5148278,-1.3055835,0.16061978
-0.2,0.0,1.2999999999999998,-0.5235987755982988,-0.5235987755982988,0,-0.4435854,0.4219477,1.0274013,0.59621555,0.78535295,0.5416854,-1.6915691,0.05774331,0.8745929,-0.0906224,-0.04391754,-0.19972928,-1.3523508,-0.8372168
-0.2,0.0,1.2999999999999998,-0.5235987755982988,-0.5235987755982988,0,-0.44374198,0.4197852,1.0236853,0.593585,0.76703995,0.54107803,-1.8074245,-0.18605961,0.8803008,0.3282172,-0.15346895,0.33551913,-1.460699,0.012304476
-0.2,0.0,1.2999999999999998,-0.5235987755982988,-0.5235987755982988,0,-0.44372612,0.42498374,1.0227385,0.5953594,0.775067,0.54186785,-1.8384019,0.6708671,1.2222633,0.011823223,0.02540275,-0.007958824,-1.2768797,1.1522329
-0.2,0.0,1.2999999999999998,-0.5235987755982988,-0.5235987755982988,0,-0.4440426,0.42229107,1.019479,0.5945709,0.7757858,0.5468852,-1.8452624,-0.098855,0.76315737,0.26706782,-0.07930116,-0.007267901,-1.1903018,-0.2520935
-0.2,0.0,1.2999999999999998,-0.5235987755982988,-0.5235987755982988,0,-0.4443759,0.42423728,1.021906,0.593213,0.80886894,0.5443059,-1.7133719,0.26656392,1.092138,0.6870853,-0.118523054,0.4763947,-1.3729986,-0.9822622
-0.2,0.0,1.2999999999999998,-0.5235987755982988,-0.5235987755982988,0,-0.44327697,0.42645973,1.0234804,0.5950401,0.80040616,0.54775035,-1.795031,0.2725819,0.9417921,0.0767913,-0.007216808,-0.6865307,-1.2994505,-0.50315166
-0.2,0.0,1.2999999999999998,-0.5235987755982988,-0.5235987755982988,0,-0.44347537,0.41773108,1.0347768,0.5944227,0.7958506,0.5432044,-1.7594916,0.14316294,1.2864605,-0.1903357,-0.14893594,0.56522787,-1.168862,-0.65728104
-0.2,0.0,1.2999999999999998,-0.5235987755982988,-0.5235987755982988,0,-0.44315568,0.42531484,1.0245959,0.59353995,0.7727715,0.542914,-1.6057082,-0.4565177,1.0171077,1.0666469,-0.1581392,0.11005408,-1.2872252,-1.087429
-0.2,0.0,1.2999999999999998,-0.5235987755982988,-0.5235987755982988,0,-0.4445251,0.42145136,1.0269046,0.59414494,0.7756201,0.53927076,-1.8189021,0.6536374,0.68328655,0.3851257,-0.027324047,2.0192308,-1.339504,-0.91545826
-0.2,0.0,1.2999999999999998,-0.5235987755982988,-0.5235987755982988,0,-0.44382447,0.42317802,1.0237308,0.59523666,0.7780282,0.5463444,-1.7890034,-0.47106186,0.810008,-0.044184845,-0.06869893,0.034740288,-1.2708057,0.029410148
-0.2,0.0,1.2999999999999998,-0.5235987755982988,-0.5235987755982988,0,-0.44380018,0.42271057,1.0301703,0.59262633,0.77474016,0.539139,-1.8947812,0.3762594,1.3368881,-0.8188151,0.072925165,0.56759304,-1.4555147,-0.3665389
-0.2,0.0,1.2999999999999998,-0.5235987755982988,-0.5235987755982988,0,-0.44362518,0.4268662,1.0229132,0.59198326,0.79124296,0.5454134,-2.0100958,-0.17403355,0.95712894,-0.067698814,-0.066054344,0.4993031,-1.1744913,-0.33923396
-0.2,0.0,1.2999999999999998,-0.5235987755982988,-0.5235987755982988,0,-0.44400823,0.42229208,1.0319512,0.59378505,0.7829822,0.54366994,-1.6768651,0.027747754,1.350576,0.0997088,0.058703735,1.0111941,-1.2519797,0.49103823
-0.2,0.0,1.2999999999999998,-0.5235987755982988,-0.5235987755982988,0,-0.44380167,0.42433995,1.0203885,0.5934629,0.80521077,0.5433365,-1.540352,0.097346194,0.98290503,0.25950545,-0.07265615,-0.11582989,-1.3563609,-0.60603285
-0.2,0.0,1.2999999999999998,-0.5235987755982988,-0.5235987755982988,0,-0.44432262,0.4189343,1.0200627,0.59411126,0.7794987,0.5448595,-1.6056131,-0.024476144,1.1443417,-0.30344322,0.09149818,0.5794226,-1.3301024,0.4844859
-0.2,0.0,1.2999999999999998,-0.5235987755982988,-0.5235987755982988,0,-0.4440636,0.41999015,1.0246767,0.5925149,0.77557325,0.5428235,-1.7143023,-0.23556049,1.4628048,-0.6732578,0.08192913,-0.051489826,-1.3154011,1.0221101
-0.2,0.0,1.2999999999999998,-0.5235987755982988,-0.5235987755982988,0,-0.44370422,0.42224565,1.0258969,0.59360754,0.7825161,0.5470861,-1.9037501,-0.28639078,1.0795332,0.37268823,-0.09495908,-0.6169181,-1.398547,0.18658571
-0.2,0.0,1.2999999999999998,-0.5235987755982988,-0.5235987755982988,0,-0.4434736,0.42262942,1.0247362,0.5929532,0.78962404,0.5400348,-1.4845947,-0.10580506,0.60799205,0.5361312,-0.00054469914,-0.06369944,-1.2760209,0.14111008
-0.2,0.0,1.2999999999999998,-0.5235987755982988,-0.5235987755982988,0,-0.44434634,0.42390424,1.024754,0.5948642,0.8122332,0.5457477,-1.689,-0.11432831,0.55221295,-0.0040491647,-0.012043646,-0.6855281,-1.3294437,0.15875319
-0.2,0.0,1.2999999999999998,-0.5235987755982988,-0.5235987755982988,0,-0.44384184,0.42184508,1.0295544,0.59254324,0.808353,0.54569834,-1.999654,-0.22105792,1.0939003,-0.47936875,-0.0350687,-0.13684745,-1.3421813,1.664466
-0.2,0.0,1.2999999999999998,-0.5235987755982988,-0.5235987755982988,0,-0.44387093,0.4211157,1.0253717,0.59123886,0.7924762,0.54825014,-1.5515511,-0.00054803625,1.0222905,0.5512372,0.095913514,1.3571146,-1.198849,0.16889517
-0.2,0.0,1.2999999999999998,-0.5235987755982988,-0.5235987755982988,0,-0.4442663,0.4235144,1.0149808,0.592867,0.79773414,0.5477456,-1.6070948,0.08835812,1.1013857,0.29597253,0.07516426,1.7228917,-1.2860559,0.45544755
-0.2,0.0,1.2999999999999998,-0.5235987755982988,-0.5235987755982988,0,-0.44339862,0.41695166,1.0245993,0.59511656,0.8103857,0.54769385,-1.7864407,-0.1316966,0.96653557,-0.029724646,-0.0018467085,0.6613329,-1.344705,-0.38158685
-0.2,0.0,1.2999999999999998,-0.5235987755982988,-0.5235987755982988,0,-0.4439103,0.42009005,1.0230858,0.5938741,0.7925869,0.54656255,-1.7156466,0.0561013,0.8337182,0.018505327,-0.2239634,0.31129438,-1.1783488,0.54343367
-0.2,0.0,1.2999999999999998,-0.5235987755982988,-0.5235987755982988,0,-0.44348887,0.4235467,1.0280915,0.5955899,0.8018306,0.542478,-1.6098052,-0.36418647,0.933169,0.58238596,-0.19429114,-0.43759692,-1.3120183,-0.24254404
-0.2,0.0,1.2999999999999998,-0.5235987755982988,-0.5235987755982988,0,-0.44432312,0.42114094,1.026038,0.59559256,0.8034845,0.54563695,-1.6174635,0.13156609,0.68487215,0.54311854,-0.09958522,-0.8070366,-1.3301201,0.20911716
-0.2,0.0,1.2999999999999998,-0.5235987755982988,-0.5235987755982988,0,-0.44402948,0.41669825,1.0285076,0.59512854,0.80043447,0.54319173,-1.8616903,0.041603778,1.0165106,0.2557037,-0.07676783,1.0345947,-1.2569134,-1.1989492
-0.2,0.0,1.2999999999999998,-0.5235987755982988,-0.5235987755982988,0,-0.44401687,0.42095158,1.0237585,0.5964946,0.7927434,0.542559,-1.9357022,-0.33129084,0.9160664,0.093492284,-0.12519339,0.14693457,-1.1211387,0.8230751
-0.2,0.0,1.2999999999999998,-0.5235987755982988,-0.5235987755982988,0,-0.44368145,0.41744304,1.0261497,0.5920948,0.77868736,0.54306984,-1.949167,0.30641243,0.77687603,-0.07130313,0.12146004,-0.2962761,-1.4138193,-0.254477
-0.2,0.0,1.2999999999999998,-0.5235987755982988,-0.5235987755982988,0,-0.44364375,0.41935477,1.0259374,0.5947926,0.7798906,0.54488134,-1.6845319,-0.5810035,0.9071318,0.59932727,-0.06276386,-0.5457237,-1.3272831,-0.21161793
-0.2,0.0,1.2999999999999998,-0.5235987755982988,-0.5235987755982988,0,-0.4438674,0.41954234,1.022043,0.59252745,0.7895365,0.5487908,-1.9604614,0.41644588,0.9443315,-0.08344963,-0.012707707,0.5228083,-1.355624,-2.0175908
-0.2,0.0,1.2999999999999998,-0.5235987755982988,-0.5235987755982988,0,-0.4439874,0.41858336,1.0158665,0.5946792,0.7856005,0.5446066,-1.5331846,0.6657755,1.0477093,0.11676703,-0.10611461,0.58764285,-1.1151942,0.066600814
-0.2,0.0,1.2999999999999998,-0.5235987755982988,-0.5235987755982988,0,-0.4446616,0.42336246,1.0282143,0.59307444,0.79280984,0.5475546,-1.6877967,0.40738398,0.98136324,0.5195654,-0.048136104,0.38545284,-1.2464966,0.32798392
-0.2,0.0,1.2999999999999998,-0.5235987755982988,-0.5235987755982988,0,-0.44439274,0.42280033,1.0223517,0.5932331,0.7836588,0.5475096,-1.5539429,-0.5679049,1.066771,0.05143632,0.07399445,-0.4207471,-1.1202993,0.40747505
-0.2,0.0,1.2999999999999998,-0.5235987755982988,-0.5235987755982988,0,-0.4448237,0.41976693,1.0236421,0.5934862,0.779469,0.5384388,-1.5101987,0.8707806,1.184586,0.37821868,-0.11032556,0.17328924,-1.252564,0.1603405
-0.2,0.0,1.2999999999999998,-0.5235987755982988,-0.5235987755982988,0,-0.4445248,0.42257068,1.0243264,0.5956922,0.79339296,0.547687,-1.6635585,-0.2559286,0.91919714,0.4021356,0.01734441,1.3318715,-1.2450202,-0.84566593
-0.2,0.0,1.2999999999999998,-0.5235987755982988,-0.5235987755982988,0,-0.4440902,0.42464483,1.0253894,0.59551847,0.7791784,0.54261684,-1.709612,0.016768849,1.2006552,0.09454539,0.039402753,-0.8319644,-1.3998455,-0.72478426
-0.2,0.0,1.2999999999999998,-0.5235987755982988,-0.5235987755982988,0,-0.44347647,0.4261671,1.0222924,0.59565043,0.80023843,0.5452653,-1.6401405,0.41682118,0.99224335,0.31634995,0.06361872,-0.17030172,-1.4000847,-0.48965538
-0.2,0.0,1.2999999999999998,-0.5235987755982988,-0.5235987755982988,0,-0.44371197,0.4218654,1.0261519,0.59267694,0.8026398,0.54444647,-2.0302777,-0.42372394,1.1217797,0.3323977,-0.099248745,0.5632679,-1.0665095,1.2248471
-0.2,0.0,1.2999999999999998,-0.5235987755982988,-0.5235987755982988,0,-0.44377923,0.4230664,1.0223832,0.59462434,0.7790001,0.54431516,-1.9775308,-0.05277847,1.1535562,-0.30512846,0.11226795,1.5950657,-1.2731671,0.23662086
-0.2,0.0,1.2999999999999998,-0.5235987755982988,-0.5235987755982988,0,-0.4436948,0.41949767,1.0229725,0.59224874,0.7635804,0.5456663,-1.7398309,0.4033169,1.2792671,-0.31622806,0.09028689,-0.008743234,-1.288659,1.0683949
-0.2,0.0,1.2999999999999998,-0.5235987755982988,-0.5235987755982988,0,-0.44348967,0.41995737,1.0185522,0.59522337,0.78081155,0.5437709,-1.7330613,0.06556679,1.2504781,-0.045449294,0.007013238,0.37091917,-1.4718453,0.028810835
-0.2,0.0,1.2999999999999998,-0.5235987755982988,-0.5235987755982988,0,-0.4437765,0.42071065,1.0236785,0.5949674,0.8008124,0.55122817,-1.9572637,0.30583867,1.2010602,0.9653956,-0.0421906,-1.1635388,-1.1310422,-0.1267033
-0.2,0.0,1.2999999999999998,-0.5235987755982988,-0.5235987755982988,0,-0.44425097,0.42349753,1.0223054,0.5944016,0.7944271,0.5405511,-1.5275521,-0.1293095,0.9130952,0.056776423,-0.122896925,0.11987061,-1.3938255,0.21648791
-0.2,0.0,1.2999999999999998,-0.5235987755982988,-0.5235987755982988,0,-0.44398338,0.42223036,1.0205594,0.5943642,0.8024065,0.54808164,-1.5756546,0.4941575,1.2130198,0.4999538,-0.017296376,0.40309182,-1.2147112,0.2800524
-0.2,0.0,1.2999999999999998,-0.5235987755982988,-0.5235987755982988,0,-0.4447589,0.42358378,1.0281882,0.59446454,0.7908442,0.54162455,-2.044221,0.053872302,1.0582626,0.008054231,-0.12078605,-0.35967574,-1.2071565,-0.022827324
-0.2,0.0,1.2999999999999998,-0.5235987755982988,-0.5235987755982988,0,-0.4442217,0.42190403,1.0314578,0.59158534,0.82042474,0.5431574,-1.6469786,-0.609652,0.9942793,-0.27705312,0.009785248,-1.0967855,-1.3704954,0.09317844
-0.2,0.0,1.2999999999999998,-0.5235987755982988,-0.5235987755982988,0,-0.44480473,0.4186038,1.0305341,0.5920784,0.795656,0.5478835,-1.6160611,0.21889365,0.95467216,-0.07812221,0.035666745,-0.70643467,-1.3292837,-0.0033452646
-0.2,0.0,1.2999999999999998,-0.5235987755982988,-0.5235987755982988,0,-0.4430443,0.42018023,1.0249665,0.5965375,0.7734652,0.5419745,-1.6413671,-0.10876814,0.65049917,0.23907208,0.05074843,0.55635333,-1.3989412,0.059891347
-0.2,0.0,1.2999999999999998,-0.5235987755982988,-0.5235987755982988,0,-0.4436039,0.42365324,1.0268724,0.59367484,0.8100617,0.5425062,-2.0864756,-0.010058671,1.2473217,0.11584676,-0.09632823,-0.22052826,-1.2788926,-0.6533316
-0.2,0.0,1.2999999999999998,-0.5235987755982988,-0.5235987755982988,0,-0.44369516,0.42370072,1.0311998,0.5940815,0.78896064,0.54131025,-1.993656,0.0044216104,1.1757662,0.25352028,0.13876963,-0.46292806,-1.2849001,0.044535007
-0.2,0.0,1.2999999999999998,-0.5235987755982988,-0.5235987755982988,0,-0.44356918,0.42453295,1.0240715,0.5937106,0.7849656,0.5513695,-1.9536418,-0.22166239,1.1285589,-0.061791286,-0.005893953,-0.33464116,-1.4422705,0.104392804
-0.2,0.0,1.2999999999999998,-0.5235987755982988,-0.5235987755982988,0,-0.44418567,0.42327017,1.0183502,0.5933835,0.74770284,0.5416407,-2.0497189,0.075061,1.0753597,0.29335514,-0.21325749,-1.4300499,-1.4591733,-0.37584955
-0.2,0.0,1.2999999999999998,-0.5235987755982988,-0.5235987755982988,0,-0.44487074,0.42403093,1.0260181,0.5920128,0.7688954,0.53963244,-1.5617412,0.071253814,1.3965149,-0.55350584,-0.120306544,-1.1788067,-1.3706205,-0.7227645
-0.2,0.0,1.2999999999999998,-0.5235987755982988,-0.5235987755982988,0,-0.44362605,0.42139828,1.0219933,0.5948664,0.786648,0.556107,-1.5125991,0.047893427,1.1224651,0.51724917,-0.10928783,0.771854,-1.3585725,0.9992315
-0.2,0.0,1.2999999999999998,-0.5235987755982988,-0.5235987755982988,0,-0.44418603,0.42281795,1.0268612,0.5938798,0.8058458,0.54453427,-1.9618961,0.44918123,0.9426429,0.52264917,-0.08041574,0.52812964,-1.4089165,-0.4920192
-0.2,0.0,1.2999999999999998,-0.5235987755982988,-0.5235987755982988,0,-0.4437312,0.41861916,1.0227766,0.5938387,0.7826543,0.5409595,-2.1404376,-0.07761763,1.2845774,0.07722636,-0.09043258,-1.4434012,-1.374026,-0.17000173
-0.2,0.0,1.2999999999999998,-0.5235987755982988,-0.5235987755982988,0,-0.4433676,0.42062974,1.0289066,0.5962619,0.7526972,0.5443078,-1.5840187,0.12412774,1.0622953,-0.45158172,-0.07116755,-0.70483506,-1.2520621,0.47942248
-0.2,0.0,1.2999999999999998,-0.5235987755982988,-0.5235987755982988,0,-0.44480222,0.42546698,1.0253386,0.59394896,0.7696645,0.54468876,-1.3973202,0.3618912,0.78801215,-0.3312278,-0.18899693,-0.18970895,-1.2353306,0.25708497
-0.2,0.0,1.2999999999999998,-0.5235987755982988,-0.5235987755982988,0,-0.44306976,0.41761005,1.0275787,0.59352535,0.76658195,0.5458742,-2.2524,0.24949339,0.9383731,-0.16057147,-0.09843989,0.45531425,-1.2687751,-0.23470597
-0.2,0.0,1.2999999999999998,-0.5235987755982988,-0.5235987755982988,0,-0.4439955,0.42427126,1.0248765,0.5938545,0.7804565,0.5467657,-1.824057,-0.26228344,1.3191019,-0.9581453,-0.01047687,-0.72979105,-1.2771384,-0.31729457
-0.2,0.0,1.2999999999999998,-0.5235987755982988,-0.5235987755982988,0,-0.4443554,0.42600068,1.0262142,0.59373045,0.77136123,0.54568136,-1.2231122,0.12630635,1.2051455,-0.1964908,-0.037873242,0.53236395,-1.4362434,0.62064475
-0.2,0.0,1.2999999999999998,-0.5235987755982988,-0.5235987755982988,0,-0.44356698,0.4260366,1.0209583,0.5935494,0.7816091,0.5355239,-1.7261927,0.36187795,1.0754945,0.0266713,-0.09510281,-0.54976636,-1.2210189,0.02804969
-0.2,0.0,1.2999999999999998,-0.5235987755982988,-0.5235987755982988,0,-0.44412354,0.4231264,1.019999,0.5952853,0.7943584,0.5386112,-1.8074541,0.74956554,0.9001485,0.3455882,0.19292037,-0.07409023,-1.2277595,0.6802109
-0.2,0.0,1.2999999999999998,-0.5235987755982988,-0.5235987755982988,0,-0.44378346,0.42213696,1.0246252,0.5934398,0.79171044,0.5450029,-2.040365,0.09665829,1.1269083,-0.5784749,-0.018922629,0.04199774,-1.3185472,0.59657854
-0.2,0.0,1.2999999999999998,-0.5235987755982988,-0.5235987755982988,0,-0.44368434,0.42074388,1.0180699,0.59407,0.78467804,0.54457664,-2.035613,0.07200886,0.85439354,0.3612859,0.025530173,0.122476384,-1.0931748,-0.17822018
-0.2,0.0,1.2999999999999998,-0.5235987755982988,-0.5235987755982988,0,-0.44424248,0.42381284,1.0177808,0.5928344,0.78383905,0.545673,-1.9085355,0.28539044,1.2897793,-0.2546692,-0.13305663,-0.6600766,-1.1845685,0.51912254
-0.2,0.0,1.2999999999999998,-0.5235987755982988,-0.5235987755982988,0,-0.4437736,0.42155448,1.0243245,0.5948415,0.78834623,0.5368363,-1.4702202,-0.1367596,1.1346774,0.51546687,-0.15886839,-0.24281023,-1.3776834,0.6246309
-0.2,0.0,1.2999999999999998,-0.5235987755982988,-0.5235987755982988,0,-0.4437638,0.4180227,1.0192516,0.5937316,0.81074256,0.54161876,-1.8787315,0.67252684,1.4038739,0.26849422,-0.018438721,-0.5639901,-1.2179606,-1.7257464
-0.2,0.0,1.2999999999999998,-0.5235987755982988,-0.5235987755982988,0,-0.4435144,0.42124963,1.0206912,0.5926999,0.78009397,0.54074425,-1.9049,-0.4253904,0.9958305,0.3536527,-0.135642,0.29447663,-1.1434227,-0.79114634
-0.2,0.0,1.2999999999999998,-0.5235987755982988,-0.5235987755982988,0,-0.44381955,0.42066416,1.0177249,0.59190685,0.78992367,0.5441083,-1.8594726,0.2037088,1.1451355,0.7110582,-0.10337056,0.24072008,-1.2406906,0.56482
-0.2,0.0,1.2999999999999998,-0.5235987755982988,-0.5235987755982988,0,-0.4440004,0.42261147,1.0220772,0.5931534,0.8052324,0.5436995,-1.8627422,-0.043027334,0.8189815,0.2533074,0.06712977,-0.6150546,-1.3012778,-1.427245
-0.2,0.0,1.2999999999999998,-0.5235987755982988,-0.5235987755982988,0,-0.44370213,0.41964182,1.0201607,0.59370655,0.7896606,0.5453703,-1.9800175,0.48936632,0.7023076,-0.16240731,0.034740046,0.5314804,-1.2452431,-1.7308053
-0.2,0.0,1.2999999999999998,-0.5235987755982988,-0.5235987755982988,0,-0.444322,0.4200203,1.0149102,0.5931323,0.7783911,0.5399367,-1.7998468,0.28888568,1.2185442,0.16126908,-0.13037056,0.071272925,-1.2255127,-2.3301454
-0.2,0.0,1.2999999999999998,-0.5235987755982988,-0.5235987755982988,0,-0.44456783,0.421747,1.0286283,0.59364426,0.79330254,0.54039437,-1.9283794,0.79510367,1.1201884,-0.29801407,-0.06196264,-0.96264696,-1.2259343,-0.19547293
-0.2,0.0,1.2999999999999998,-0.5235987755982988,-0.5235987755982988,0,-0.443616,0.42310074,1.0298845,0.59380007,0.80004805,0.5418735,-1.6820189,0.1374715,0.75761306,1.0034298,0.04471033,0.7335105,-1.375562,0.8942041
-0.2,0.0,1.2999999999999998,-0.5235987755982988,-0.5235987755982988,0,-0.44392577,0.42272216,1.021571,0.59378934,0.77585334,0.53927135,-1.6906078,0.3602801,0.89725,-0.3256355,-0.08281583,0.42210284,-1.0827205,-0.49970356
-0.2,0.0,1.2999999999999998,-0.5235987755982988,-0.5235987755982988,0,-0.44454744,0.4236681,1.0279645,0.592056,0.78143585,0.5431757,-1.9391389,0.43601125,1.2663769,0.026811564,-0.14019868,0.9653562,-1.2734094,0.098946735
-0.2,0.0,1.2999999999999998,-0.5235987755982988,-0.5235987755982988,0,-0.44367048,0.42125034,1.0239767,0.59495074,0.7822703,0.5442911,-1.952994,-0.0046881004,1.1023881,0.18755403,0.07092591,-0.71631104,-1.267572,0.47703427
-0.2,0.0,1.2999999999999998,-0.5235987755982988,-0.5235987755982988,0,-0.44416013,0.42718896,1.0206792,0.5942719,0.7780523,0.5445155,-1.8625629,0.12677501,0.8958545,0.39541325,-0.017571919,0.052369695,-1.2216595,-0.19775943
-0.2,0.0,1.2999999999999998,-0.5235987755982988,-0.5235987755982988,0,-0.44396752,0.42615327,1.0234451,0.59425604,0.791868,0.54401606,-2.0647464,-0.47639272,1.0446275,0.01216941,-0.04334906,-0.6704515,-1.4258778,-0.8265295
-0.2,0.0,1.2999999999999998,-0.5235987755982988,-0.5235987755982988,0,-0.44399154,0.42145896,1.024044,0.5941601,0.7982438,0.5432536,-1.6715822,-0.4402967,0.7915683,-0.14326327,0.062126238,-0.24411334,-1.2182784,0.4367304
-0.2,0.0,1.2999999999999998,-0.5235987755982988,-0.5235987755982988,0,-0.44405988,0.421602,1.0258657,0.59534866,0.7901027,0.54822683,-1.8646258,0.3087795,0.8506862,0.5098609,-0.29290926,0.53733414,-1.1285135,-0.88080525
-0.2,0.0,1.2999999999999998,-0.5235987755982988,-0.5235987755982988,0,-0.44351712,0.4245202,1.0257436,0.5945273,0.788519,0.53961205,-1.8261919,-0.0879053,1.0249469,0.4479405,-0.03610516,0.376293,-1.3217909,-0.18121295
-0.2,0.0,1.2999999999999998,-0.5235987755982988,-0.5235987755982988,0,-0.4448313,0.4193033,1.0283395,0.59481287,0.76892644,0.54421127,-1.9748472,-0.12751871,0.8782673,0.8803765,-0.12565473,-0.37729445,-1.2620238,-0.7861762
-0.2,0.0,1.2999999999999998,-0.5235987755982988,-0.5235987755982988,0,-0.44353762,0.42439204,1.0231395,0.5925863,0.80229825,0.544237,-1.753281,0.5879258,1.0059668,-0.13654047,-0.12145787,-0.10360123,-1.2311014,0.77524674
-0.2,0.0,1.2999999999999998,-0.5235987755982988,-0.5235987755982988,0,-0.4439753,0.42776743,1.0168406,0.5948778,0.793039,0.5449562,-1.6629481,0.46597916,1.2108266,0.7352227,-0.17271551,0.2683496,-1.3029519,0.061964735
-0.2,0.0,1.2999999999999998,-0.5235987755982988,-0.5235987755982988,0,-0.44337055,0.4258896,1.0254318,0.5934533,0.8001241,0.5426476,-1.8091296,-0.027507886,1.6194489,-0.100553334,-0.18046963,-0.649185,-1.3588862,-0.4137387
-0.2,0.0,1.2999999999999998,-0.5235987755982988,-0.5235987755982988,0,-0.4442872,0.41852266,1.0185655,0.595796,0.78336936,0.54737103,-1.611629,0.65702176,0.7466306,-0.5722213,0.02571373,0.3192561,-1.1336075,-0.807155
-0.2,0.0,1.2999999999999998,-0.5235987755982988,-0.5235987755982988,0,-0.44341052,0.4209634,1.0292227,0.5949397,0.8111514,0.54294956,-1.6376488,0.33694673,1.1439786,-0.28186023,0.05793595,-0.38299337,-1.2051404,0.36098924
-0.2,0.0,1.2999999999999998,-0.5235987755982988,-0.5235987755982988,0,-0.44400424,0.42251864,1.0191576,0.5959004,0.79990214,0.54509425,-1.7418431,0.30152604,1.0557938,-0.09944876,0.051730588,0.18093999,-1.2700316,-0.4930159
-0.2,0.0,1.2999999999999998,-0.5235987755982988,-0.5235987755982988,0,-0.44418314,0.422374,1.0259062,0.5948491,0.7899963,0.54525894,-1.9367994,0.024894591,1.0874866,0.30589074,-0.17288552,-1.1712999,-1.3976926,-0.41512373
-0.2,0.0,1.2999999999999998,-0.5235987755982988,-0.5235987755982988,0,-0.44335088,0.41872948,1.018188,0.59242064,0.7763474,0.5470007,-1.7654464,0.28061154,0.95182866,0.45659855,-0.04957574,0.23188405,-1.2894447,-0.7569462
-0.2,0.0,1.2999999999999998,-0.5235987755982988,-0.5235987755982988,0,-0.44401625,0.42048407,1.0198082,0.59269744,0.77626514,0.5499107,-1.475185,-0.24840155,1.0955623,0.19011924,-0.061673466,-0.09062335,-1.1803107,-0.3683144
-0.2,0.0,1.2999999999999998,-0.5235987755982988,-0.5235987755982988,0,-0.44369873,0.42100272,1.0210035,0.5933105,0.7973247,0.54877573,-1.6672968,0.09982053,1.0246872,0.3021922,0.00014914545,1.0779003,-1.208412,-1.8978448
-0.2,0.0,1.2999999999999998,-0.5235987755982988,-0.5235987755982988,0,-0.44430923,0.42061734,1.024377,0.5945097,0.77480656,0.5443375,-1.7243791,0.55924815,0.5992149,0.21817729,0.0005904247,-0.7741309,-1.238169,-0.5834023
-0.2,0.0,1.2999999999999998,-0.5235987755982988,-0.5235987755982988,0,-0.44368982,0.4211823,1.0291066,0.5943275,0.772227,0.54242647,-1.8792204,-0.3720047,1.0042928,-0.35802338,-0.15535782,0.21406704,-1.3328229,0.21039476
-0.2,0.0,1.2999999999999998,-0.5235987755982988,-0.5235987755982988,0,-0.443764,0.4230432,1.0231149,0.59637016,0.7861967,0.5457588,-1.8751463,0.48341158,1.0857285,0.28742117,0.07516842,0.5077778,-1.3462945,0.6084876
-0.2,0.0,1.2999999999999998,-0.5235987755982988,-0.5235987755982988,0,-0.4439471,0.42363885,1.0248058,0.59490484,0.7905948,0.5442832,-1.6690935,0.0129309585,1.0612772,-0.29677925,-0.11613561,-1.1797104,-1.1596377,-0.122261494
-0.2,0.0,1.2999999999999998,-0.5235987755982988,-0.5235987755982988,0,-0.44445878,0.4178743,1.0215315,0.5938897,0.7797055,0.5521024,-1.3911331,0.47632667,1.0307792,0.15139338,-0.0319692,-0.54923713,-1.323359,-0.29976216
-0.2,0.0,1.2999999999999998,-0.5235987755982988,-0.5235987755982988,0,-0.4438338,0.4253402,1.0249572,0.59299445,0.7692124,0.5459446,-1.761732,0.1627107,1.1479774,-0.14717889,0.06550485,0.57714134,-1.1696974,-0.6753944
-0.2,0.0,1.2999999999999998,-0.5235987755982988,-0.5235987755982988,0,-0.4441227,0.42083457,1.020737,0.5934366,0.7639767,0.5461132,-1.6450768,0.23186524,0.9037133,0.03545834,0.08905602,-0.13431387,-1.3848559,-0.48025173
-0.2,0.0,1.2999999999999998,-0.5235987755982988,-0.5235987755982988,0,-0.44362277,0.42340994,1.0208688,0.5952227,0.7933986,0.55154634,-1.8272215,0.22291864,1.0539793,-0.46514705,-0.052427463,0.9138591,-1.3193532,1.3139994
-0.2,0.0,1.2999999999999998,-0.5235987755982988,-0.5235987755982988,0,-0.4439068,0.42405248,1.0272522,0.59383965,0.7869408,0.5449755,-1.7966806,-0.51411206,1.2030647,0.6502689,-0.0695721,-0.26663414,-1.3838649,0.85003984
-0.2,0.0,1.2999999999999998,-0.5235987755982988,-0.5235987755982988,0,-0.4439224,0.41966343,1.0249162,0.5958386,0.7767473,0.54367375,-1.6369176,-0.20018913,1.2057867,0.18865784,-0.12525032,-0.2255627,-1.4093866,-0.18908688
-0.2,0.0,1.2999999999999998,-0.5235987755982988,-0.5235987755982988,0,-0.44473246,0.42093816,1.0221574,0.59436214,0.7900472,0.5408001,-1.769023,-0.5185367,1.2142003,-0.018633993,0.11472543,0.25672358,-1.4189341,-0.32663885
-0.2,0.0,1.2999999999999998,-0.5235987755982988,-0.5235987755982988,0,-0.44411075,0.419206,1.0265154,0.59351975,0.79862183,0.5452357,-1.7792876,0.7169224,0.8054315,-0.107867345,-0.14524956,-0.03579791,-1.298792,-0.048678435
-0.2,0.0,1.2999999999999998,-0.5235987755982988,-0.5235987755982988,0,-0.44469154,0.42143375,1.0279174,0.5940429,0.8037125,0.5452994,-2.0072334,-0.087027356,1.1857572,-0.020458136,-0.008950684,0.70846194,-1.1185422,0.8801212
-0.2,0.0,1.2999999999999998,-0.5235987755982988,-0.5235987755982988,0,-0.44413403,0.42818248,1.0231928,0.5945074,0.78974473,0.5462819,-2.0009487,-0.25177175,1.076936,0.18150482,0.04250403,-1.8591155,-1.3476384,-0.051448204
-0.2,0.0,1.2999999999999998,-0.5235987755982988,-0.5235987755982988,0,-0.4438115,0.41911006,1.0254109,0.5951453,0.76158434,0.5433474,-1.5542179,0.0023071247,1.1418701,0.033447206,-0.0830869,0.1906734,-1.2366891,-0.9567913
-0.2,0.0,1.2999999999999998,-0.5235987755982988,-0.5235987755982988,0,-0.44400206,0.42093107,1.0230994,0.5944531,0.77670497,0.5444047,-1.776267,0.40145436,1.1111188,-0.41448855,0.068984896,-0.37357664,-1.2460245,-0.11526184
-0.2,0.0,1.2999999999999998,-0.5235987755982988,-0.5235987755982988,0,-0.44438428,0.41761133,1.0240098,0.59537226,0.77053785,0.54434484,-1.6385301,-0.20460823,1.0704231,0.027253825,-0.08862189,-0.3392117,-1.2421405,0.03545798
-0.2,0.0,1.2999999999999998,-0.5235987755982988,-0.5235987755982988,0,-0.44423556,0.41936243,1.024315,0.5914815,0.7823815,0.53998077,-2.0578668,0.19973539,0.7640244,0.1537491,0.033756427,0.079519995,-1.4585543,-0.32637727
