sanky1234/BimanualDexCatch/isaacgymenvs/cem_results/football_pose_-0.2_0.10000000000000003_1.1999999999999997_0.5235987755982988_-0.5235987755982988_0_2025-05-25.csv
x,y,z,roll,pitch,yaw,robot1/joint1,robot1/joint2,robot1/joint3,robot1/joint4,robot1/joint5,robot1/joint6,robot1/joint7,robot2/joint1,robot2/joint2,robot2/joint3,robot2/joint4,robot2/joint5,robot2/joint6,robot2/joint7
-0.2,0.10000000000000003,1.1999999999999997,0.5235987755982988,-0.5235987755982988,0,1.3097891,1.1337037,1.3640835,-0.45464018,-0.050101146,1.0282699,-0.2899246,-1.8750095,0.55042064,-0.018990682,0.21278048,-0.18517692,1.2651247,1.336432
-0.2,0.10000000000000003,1.1999999999999997,0.5235987755982988,-0.5235987755982988,0,1.3105769,1.1333829,1.3546463,-0.4518623,0.011585628,1.100385,0.43547943,-1.8730623,0.5552086,-0.00043604415,0.2102378,-0.19186261,1.2820525,1.3806967
-0.2,0.10000000000000003,1.1999999999999997,0.5235987755982988,-0.5235987755982988,0,1.3091778,1.1326734,1.3571905,-0.4519952,-0.18776025,1.0708572,-0.24498992,-1.8817286,0.55180997,-0.009057928,0.20774995,-0.20048507,1.2808158,1.2983456
-0.2,0.10000000000000003,1.1999999999999997,0.5235987755982988,-0.5235987755982988,0,1.3099113,1.1332816,1.3568957,-0.4517709,-0.2518692,0.99870205,0.049692005,-1.8693483,0.5424004,-0.012550716,0.21862014,-0.18008295,1.2816696,1.2162728
-0.2,0.10000000000000003,1.1999999999999997,0.5235987755982988,-0.5235987755982988,0,1.3100654,1.1329917,1.3603699,-0.45417574,-0.02780734,1.033953,-0.3899775,-1.8846161,0.544341,-0.009514984,0.21347052,-0.18110892,1.288787,1.2012675
-0.2,0.10000000000000003,1.1999999999999997,0.5235987755982988,-0.5235987755982988,0,1.3097365,1.1319734,1.3549726,-0.45261118,-0.08027388,0.9975942,-0.72548854,-1.8892885,0.55739933,-0.0054555936,0.22350775,-0.19005305,1.2871687,1.3326554
-0.2,0.10000000000000003,1.1999999999999997,0.5235987755982988,-0.5235987755982988,0,1.3086677,1.13379,1.3561095,-0.4524919,0.042171817,1.029022,0.06894528,-1.8870406,0.50987154,-0.009625209,0.2179481,-0.19116434,1.274895,1.3596826
-0.2,0.10000000000000003,1.1999999999999997,0.5235987755982988,-0.5235987755982988,0,1.3102714,1.1325922,1.357486,-0.45212078,-0.07760963,1.0579476,0.6600646,-1.8770761,0.5526255,-0.007361338,0.20658553,-0.18570551,1.2757231,1.2933371
-0.2,0.10000000000000003,1.1999999999999997,0.5235987755982988,-0.5235987755982988,0,1.3102673,1.1334782,1.3620479,-0.4537434,-0.009486297,1.0676967,1.5479968,-1.8762578,0.5529933,-0.009995002,0.21094486,-0.19116952,1.264552,1.3221273
-0.2,0.10000000000000003,1.1999999999999997,0.5235987755982988,-0.5235987755982988,0,1.3099065,1.133327,1.3557224,-0.45421326,-0.073348634,1.0749732,1.0229678,-1.8760506,0.5475283,0.0013689429,0.21757984,-0.17864038,1.2873268,1.3122535
-0.2,0.10000000000000003,1.1999999999999997,0.5235987755982988,-0.5235987755982988,0,1.3099229,1.1332098,1.3524427,-0.45180494,-0.1000098,1.1004627,0.48303616,-1.8712071,0.5406108,-0.011201295,0.21952207,-0.19750044,1.2945119,1.2706386
-0.2,0.10000000000000003,1.1999999999999997,0.5235987755982988,-0.5235987755982988,0,1.3099808,1.1317142,1.3586544,-0.45070556,0.034861077,1.0595742,0.21779436,-1.878528,0.5447835,-0.0074280333,0.20660765,-0.1885414,1.2703183,1.3134717
-0.2,0.10000000000000003,1.1999999999999997,0.5235987755982988,-0.5235987755982988,0,1.3099407,1.1326846,1.3660775,-0.45153043,0.02895961,1.07388,-0.29544187,-1.8644314,0.53828406,-0.024779715,0.212975,-0.17989695,1.2619507,1.2587937
-0.2,0.10000000000000003,1.1999999999999997,0.5235987755982988,-0.5235987755982988,0,1.3089446,1.1330373,1.3572237,-0.45246613,-0.16753106,1.058241,0.23876214,-1.8758668,0.5440267,0.0015790372,0.20469008,-0.19543232,1.2759194,1.3016992
-0.2,0.10000000000000003,1.1999999999999997,0.5235987755982988,-0.5235987755982988,0,1.3093499,1.1322665,1.3576477,-0.45218807,0.0009871452,1.0577546,-0.88484395,-1.8747244,0.53489673,0.0021372177,0.21507142,-0.19232206,1.2879531,1.2253919
-0.2,0.10000000000000003,1.1999999999999997,0.5235987755982988,-0.5235987755982988,0,1.310275,1.13342,1.3620036,-0.4515928,-0.0334302,1.024323,1.1024349,-1.8714055,0.55497164,-0.0014449942,0.2115763,-0.20100386,1.2914336,1.208085
-0.2,0.10000000000000003,1.1999999999999997,0.5235987755982988,-0.5235987755982988,0,1.3095871,1.1325245,1.3614796,-0.44976932,-0.03715453,1.0588044,0.6500056,-1.8703085,0.54126364,0.0010067639,0.21578461,-0.16854738,1.2808225,1.2475772
-0.2,0.10000000000000003,1.1999999999999997,0.5235987755982988,-0.5235987755982988,0,1.3105938,1.1317865,1.362166,-0.45227423,-0.21870781,1.01907,-0.6147145,-1.8822232,0.54143,-0.012468021,0.20567945,-0.19518028,1.2716432,1.2566429
-0.2,0.10000000000000003,1.1999999999999997,0.5235987755982988,-0.5235987755982988,0,1.3095701,1.1317918,1.3675914,-0.45231262,0.011608781,1.0313774,-0.62568563,-1.8736893,0.5558298,-0.0128329955,0.21723269,-0.19109693,1.2790562,1.2676361
-0.2,0.10000000000000003,1.1999999999999997,0.5235987755982988,-0.5235987755982988,0,1.3095146,1.131891,1.3636917,-0.44962204,0.08099502,1.1014146,1.0229102,-1.878838,0.55189604,-0.0032892409,0.20309013,-0.19527198,1.2972412,1.3332369
-0.2,0.10000000000000003,1.1999999999999997,0.5235987755982988,-0.5235987755982988,0,1.3101449,1.1329038,1.3633853,-0.4544186,-0.05533072,1.062729,-0.13239315,-1.8791496,0.5450099,-0.0044913283,0.20915554,-0.19050394,1.3022048,1.2969246
-0.2,0.10000000000000003,1.1999999999999997,0.5235987755982988,-0.5235987755982988,0,1.3097094,1.1320308,1.3563257,-0.45153442,0.09547028,1.0127574,0.29537797,-1.8764794,0.53924596,0.0002075983,0.22056258,-0.18863013,1.2921306,1.3063705
-0.2,0.10000000000000003,1.1999999999999997,0.5235987755982988,-0.5235987755982988,0,1.3096501,1.1331265,1.3723778,-0.4520505,0.14224616,1.0432241,-0.70918196,-1.8564057,0.55217063,-0.021576943,0.20298651,-0.19022244,1.2760605,1.2634292
-0.2,0.10000000000000003,1.1999999999999997,0.5235987755982988,-0.5235987755982988,0,1.3093449,1.1338078,1.355087,-0.44929916,-0.02429997,1.028171,0.7879669,-1.85736,0.5494261,0.0013442456,0.21016532,-0.1739984,1.2755005,1.2822496
-0.2,0.10000000000000003,1.1999999999999997,0.5235987755982988,-0.5235987755982988,0,1.3102187,1.1334155,1.3589418,-0.4547028,-0.18793482,1.0110766,-0.5158927,-1.8838898,0.5330028,-0.017471105,0.20145611,-0.18087006,1.2946053,1.2839231
-0.2,0.10000000000000003,1.1999999999999997,0.5235987755982988,-0.5235987755982988,0,1.3107237,1.1321108,1.3612858,-0.45370865,0.012787342,1.0559644,0.7505344,-1.88432,0.5444023,-0.013577326,0.21847707,-0.19495486,1.2971505,1.2456679
-0.2,0.10000000000000003,1.1999999999999997,0.5235987755982988,-0.5235987755982988,0,1.3099879,1.1328855,1.3628547,-0.45186952,0.020132424,1.0282592,0.3766735,-1.8546733,0.5385633,-0.010292441,0.21602876,-0.19764999,1.297768,1.2712955
-0.2,0.10000000000000003,1.1999999999999997,0.5235987755982988,-0.5235987755982988,0,1.3096702,1.1327406,1.366543,-0.45144808,0.0037414248,0.9849203,0.2159619,-1.8742696,0.5374919,-0.007854885,0.2230614,-0.18605882,1.2704595,1.2250342
-0.2,0.10000000000000003,1.1999999999999997,0.5235987755982988,-0.5235987755982988,0,1.3102078,1.1330018,1.3546549,-0.45340592,0.023473037,1.0836699,0.89583004,-1.880621,0.546397,-0.004061377,0.22068849,-0.16752656,1.2846335,1.3854122
-0.2,0.10000000000000003,1.1999999999999997,0.5235987755982988,-0.5235987755982988,0,1.3099643,1.13271,1.3706095,-0.45366058,-0.10223268,1.0770396,0.56081444,-1.8681123,0.5414882,-0.0020971235,0.21502921,-0.19781409,1.2780732,1.2799922
-0.2,0.10000000000000003,1.1999999999999997,0.5235987755982988,-0.5235987755982988,0,1.3108804,1.1318101,1.3583908,-0.45319968,-0.037529003,1.0650254,-1.5011333,-1.869504,0.5542852,-0.011692695,0.20341626,-0.18042839,1.2896878,1.2918307
-0.2,0.10000000000000003,1.1999999999999997,0.5235987755982988,-0.5235987755982988,0,1.3096087,1.1322378,1.3558422,-0.45491043,0.028018327,1.0154486,0.29798388,-1.8740774,0.5328248,-0.01594884,0.20456357,-0.18806921,1.2803451,1.2779695
-0.2,0.10000000000000003,1.1999999999999997,0.5235987755982988,-0.5235987755982988,0,1.3087491,1.1329209,1.3616686,-0.4531098,-0.104444,1.0465819,-0.05142341,-1.8648845,0.5344389,-0.013108271,0.2082517,-0.19693124,1.2536935,1.3682871
-0.2,0.10000000000000003,1.1999999999999997,0.5235987755982988,-0.5235987755982988,0,1.3092852,1.1323446,1.3609192,-0.4524296,-0.10319466,1.1048769,-0.5791508,-1.8840808,0.55001056,-0.0026269192,0.22395474,-0.1797143,1.2994282,1.2938178
-0.2,0.10000000000000003,1.1999999999999997,0.5235987755982988,-0.5235987755982988,0,1.3104786,1.1326423,1.3609676,-0.45286,-0.16563754,1.0880796,-0.084132254,-1.8687148,0.5484624,-0.0075459005,0.21219574,-0.19016723,1.2701961,1.2569937
-0.2,0.10000000000000003,1.1999999999999997,0.5235987755982988,-0.5235987755982988,0,1.3095624,1.1320595,1.3599463,-0.4506056,0.21708319,1.0355301,0.34821144,-1.8764015,0.538507,-0.0043141143,0.21426758,-0.20027882,1.2606233,1.2825955
-0.2,0.10000000000000003,1.1999999999999997,0.5235987755982988,-0.5235987755982988,0,1.3098986,1.1332679,1.3664954,-0.45225602,0.046784803,1.0521841,-0.12164822,-1.8791844,0.5480697,-0.009941534,0.21444254,-0.17772755,1.3208711,1.2836595
-0.2,0.10000000000000003,1.1999999999999997,0.5235987755982988,-0.5235987755982988,0,1.310632,1.1326705,1.3612443,-0.45002064,-0.13625911,1.0669309,-0.18028028,-1.8777453,0.55910885,-0.012224285,0.20828672,-0.19492126,1.2970401,1.3023332
-0.2,0.10000000000000003,1.1999999999999997,0.5235987755982988,-0.5235987755982988,0,1.3099641,1.1319534,1.3564743,-0.44864196,-0.0025584481,1.0520048,1.1783782,-1.8816849,0.5487089,-0.0076097692,0.21771295,-0.20046139,1.289579,1.3149391
-0.2,0.10000000000000003,1.1999999999999997,0.5235987755982988,-0.5235987755982988,0,1.3097293,1.1316075,1.3610754,-0.45345688,0.16165227,1.020863,-0.5229981,-1.8813076,0.5441993,0.0027281668,0.2210707,-0.18620929,1.2967173,1.3551052
-0.2,0.10000000000000003,1.1999999999999997,0.5235987755982988,-0.5235987755982988,0,1.310578,1.1323416,1.3590763,-0.4535679,0.107705146,1.0527998,-0.049900185,-1.8773191,0.55852675,-0.012176333,0.21385126,-0.1969195,1.290107,1.2328368
-0.2,0.10000000000000003,1.1999999999999997,0.5235987755982988,-0.5235987755982988,0,1.3096273,1.132771,1.3598382,-0.4536797,-0.1251703,1.0756813,0.63117987,-1.8813663,0.5462315,0.001990674,0.21345924,-0.1915945,1.2859696,1.3034662
-0.2,0.10000000000000003,1.1999999999999997,0.5235987755982988,-0.5235987755982988,0,1.3094196,1.1324683,1.3711591,-0.45338866,-0.08578295,1.0889281,-0.6443128,-1.8726069,0.537863,-0.02098461,0.21438375,-0.18822479,1.2791862,1.2570804
-0.2,0.10000000000000003,1.1999999999999997,0.5235987755982988,-0.5235987755982988,0,1.3100505,1.1316527,1.3619132,-0.45024619,0.0266316,1.080197,0.5171249,-1.8824148,0.5508452,-0.0012442045,0.20845605,-0.19334662,1.2587453,1.3384213
-0.2,0.10000000000000003,1.1999999999999997,0.5235987755982988,-0.5235987755982988,0,1.3108233,1.1316463,1.3578517,-0.45144427,0.048863616,1.0479692,-0.6824947,-1.8716257,0.53530943,0.001217304,0.21878724,-0.18070307,1.2751975,1.2672703
-0.2,0.10000000000000003,1.1999999999999997,0.5235987755982988,-0.5235987755982988,0,1.3091131,1.1331742,1.3540515,-0.4538018,-0.15988444,1.0776603,-0.24731857,-1.8662958,0.53580636,-0.012863819,0.21630363,-0.18731788,1.2906466,1.3275934
-0.2,0.10000000000000003,1.1999999999999997,0.5235987755982988,-0.5235987755982988,0,1.3102287,1.1317198,1.3626052,-0.45368415,-0.15403189,1.0332395,0.3761629,-1.8741004,0.5442073,-0.020175137,0.20712373,-0.18224609,1.2451208,1.3145068
-0.2,0.10000000000000003,1.1999999999999997,0.5235987755982988,-0.5235987755982988,0,1.3098725,1.1323818,1.3603749,-0.45306855,-0.12943487,0.9834562,0.15951505,-1.8769417,0.55402607,-0.019763188,0.20714508,-0.18925515,1.2818946,1.2502599
-0.2,0.10000000000000003,1.1999999999999997,0.5235987755982988,-0.5235987755982988,0,1.3094498,1.1336975,1.3621746,-0.45292473,-0.033022817,1.0892903,-0.15907472,-1.8841212,0.5368921,-0.0076029794,0.21604636,-0.18781455,1.2649394,1.3284394
-0.2,0.10000000000000003,1.1999999999999997,0.5235987755982988,-0.5235987755982988,0,1.3106564,1.1330887,1.3644052,-0.45156044,-0.014463834,0.95563704,1.0793247,-1.865485,0.53706497,-0.0039633536,0.2095292,-0.17613451,1.3006614,1.268366
-0.2,0.10000000000000003,1.1999999999999997,0.5235987755982988,-0.5235987755982988,0,1.3107235,1.1326873,1.3612052,-0.45320937,0.077344075,1.0823895,0.70895267,-1.8705933,0.54233193,-0.0055114445,0.2057814,-0.19094914,1.2810222,1.2714653
-0.2,0.10000000000000003,1.1999999999999997,0.5235987755982988,-0.5235987755982988,0,1.3092752,1.1329755,1.3559561,-0.4536598,-0.2274888,1.0104014,-1.9598793,-1.8738426,0.54380906,-0.002312894,0.20835544,-0.19550712,1.2910829,1.277688
-0.2,0.10000000000000003,1.1999999999999997,0.5235987755982988,-0.5235987755982988,0,1.3107078,1.1314515,1.3552493,-0.4527841,0.036798783,1.077006,1.2649559,-1.8727512,0.52595335,-0.0057184366,0.21565714,-0.18929237,1.2657335,1.301814
-0.2,0.10000000000000003,1.1999999999999997,0.5235987755982988,-0.5235987755982988,0,1.3089801,1.1330715,1.3593361,-0.44903782,-0.038882013,1.0643625,0.64056,-1.8738339,0.52547514,-0.019312413,0.20771393,-0.17739116,1.2894167,1.266897
-0.2,0.10000000000000003,1.1999999999999997,0.5235987755982988,-0.5235987755982988,0,1.3101379,1.1333658,1.3650583,-0.45383424,-0.073183775,1.071729,0.14453985,-1.8715385,0.5520729,-0.004133405,0.21333876,-0.18060684,1.2980385,1.350531
-0.2,0.10000000000000003,1.1999999999999997,0.5235987755982988,-0.5235987755982988,0,1.3092728,1.1324984,1.3659083,-0.45070472,0.03412686,1.0353689,0.42856762,-1.8690823,0.53371155,-0.010905423,0.21790043,-0.19825946,1.2738599,1.2788404
-0.2,0.10000000000000003,1.1999999999999997,0.5235987755982988,-0.5235987755982988,0,1.3106169,1.132769,1.3627911,-0.45316365,-0.025119575,1.0550097,0.69655824,-1.8794209,0.5425447,-0.020156313,0.21961117,-0.18535186,1.2748922,1.2371422
-0.2,0.10000000000000003,1.1999999999999997,0.5235987755982988,-0.5235987755982988,0,1.3092451,1.132483,1.3597958,-0.45295307,0.0480094,1.0678616,0.8112269,-1.8773408,0.5460387,-0.00044869003,0.21018988,-0.19365802,1.2855335,1.3223749
-0.2,0.10000000000000003,1.1999999999999997,0.5235987755982988,-0.5235987755982988,0,1.3096483,1.1331893,1.3598351,-0.4519767,-0.045713533,1.0381374,1.2322544,-1.8732713,0.5541133,-0.016093072,0.21314982,-0.17868748,1.2954285,1.3399576
-0.2,0.10000000000000003,1.1999999999999997,0.5235987755982988,-0.5235987755982988,0,1.3094467,1.1326648,1.3605998,-0.4505877,-0.0055408077,1.01167,1.0043689,-1.8784887,0.5521873,-0.016778613,0.19789785,-0.19857195,1.3059301,1.2827067
-0.2,0.10000000000000003,1.1999999999999997,0.5235987755982988,-0.5235987755982988,0,1.310386,1.134127,1.3588768,-0.44935817,-0.043250345,1.0671264,-0.08774174,-1.8749605,0.5574445,-0.011958628,0.21343762,-0.20526974,1.2950803,1.2743319
-0.2,0.10000000000000003,1.1999999999999997,0.5235987755982988,-0.5235987755982988,0,1.3099848,1.131602,1.358902,-0.45158052,-0.06490428,1.0197992,1.1385462,-1.887781,0.552108,0.0023162425,0.21477504,-0.1875229,1.2949681,1.2387944
-0.2,0.10000000000000003,1.1999999999999997,0.5235987755982988,-0.5235987755982988,0,1.3105932,1.1318412,1.3528937,-0.45089507,0.08217758,1.0773299,-0.7221059,-1.8703284,0.54087627,-0.0042165318,0.20797876,-0.18250494,1.2797749,1.2608095
-0.2,0.10000000000000003,1.1999999999999997,0.5235987755982988,-0.5235987755982988,0,1.3098077,1.1317544,1.3592771,-0.45030227,-0.04073335,1.0406206,0.64546484,-1.86943,0.5411846,0.004935639,0.20667098,-0.19811396,1.2868019,1.3325758
-0.2,0.10000000000000003,1.1999999999999997,0.5235987755982988,-0.5235987755982988,0,1.3089403,1.1338017,1.3671421,-0.45151868,-0.043084282,1.079313,0.53448576,-1.8844382,0.53444254,-0.02016929,0.22141549,-0.1845226,1.2923234,1.2452555
-0.2,0.10000000000000003,1.1999999999999997,0.5235987755982988,-0.5235987755982988,0,1.3105103,1.1329665,1.3595555,-0.45380142,0.11532376,1.0402356,-0.41004422,-1.8790478,0.54194945,-0.008134163,0.21143661,-0.18908986,1.2953322,1.2798666
-0.2,0.10000000000000003,1.1999999999999997,0.5235987755982988,-0.5235987755982988,0,1.3100432,1.1328006,1.3645153,-0.45154962,-0.057598367,1.0386178,0.8822446,-1.8748692,0.5524145,-0.013222484,0.22165257,-0.18726197,1.2775024,1.3960594
-0.2,0.10000000000000003,1.1999999999999997,0.5235987755982988,-0.5235987755982988,0,1.3092537,1.1328257,1.362535,-0.45074305,-0.052074306,1.0863007,0.08614977,-1.8840618,0.54165936,0.008415097,0.21459016,-0.18617277,1.281645,1.2893021
-0.2,0.10000000000000003,1.1999999999999997,0.5235987755982988,-0.5235987755982988,0,1.3103079,1.1334801,1.3588179,-0.45084888,-0.21421325,1.030888,0.64827055,-1.8814615,0.538813,-0.00284452,0.21114303,-0.18859613,1.2727073,1.2251431
-0.2,0.10000000000000003,1.1999999999999997,0.5235987755982988,-0.5235987755982988,0,1.3105859,1.1322827,1.3577868,-0.45196262,-0.041112613,1.0146606,0.695813,-1.8834996,0.550272,-0.012000654,0.21013515,-0.18510899,1.2754136,1.319022
-0.2,0.10000000000000003,1.1999999999999997,0.5235987755982988,-0.5235987755982988,0,1.3096352,1.1317649,1.3616382,-0.45112425,-0.025407573,1.0119628,-0.75263155,-1.8572314,0.5429626,-0.009442657,0.20706157,-0.18862367,1.2588559,1.3588866
-0.2,0.10000000000000003,1.1999999999999997,0.5235987755982988,-0.5235987755982988,0,1.3095113,1.1328502,1.3694187,-0.45399553,-0.078764096,1.1117139,-1.2977729,-1.8737901,0.5313471,-0.018948331,0.20966658,-0.17312084,1.2663965,1.2941117
-0.2,0.10000000000000003,1.1999999999999997,0.5235987755982988,-0.5235987755982988,0,1.3104883,1.1327289,1.3652161,-0.45434925,-0.28453723,1.0427464,-0.17891489,-1.87923,0.5375403,-0.011064695,0.20822574,-0.17554957,1.2936144,1.3079704
-0.2,0.10000000000000003,1.1999999999999997,0.5235987755982988,-0.5235987755982988,0,1.3092071,1.1329999,1.3550807,-0.45254478,0.12726845,1.0415889,-0.76636755,-1.8726103,0.5461199,-0.011964993,0.23055808,-0.19977777,1.3182746,1.2193192
-0.2,0.10000000000000003,1.1999999999999997,0.5235987755982988,-0.5235987755982988,0,1.3107487,1.1319447,1.3624809,-0.45329022,-0.062902465,1.0676867,0.40299526,-1.8744336,0.5410319,-0.016657358,0.21439104,-0.18923435,1.3027967,1.2621431
-0.2,0.10000000000000003,1.1999999999999997,0.5235987755982988,-0.5235987755982988,0,1.3099662,1.131953,1.3634965,-0.45099133,-0.040897347,1.0567592,0.52120817,-1.8799732,0.5450015,-0.012384229,0.20257945,-0.18530755,1.2690145,1.2427996
-0.2,0.10000000000000003,1.1999999999999997,0.5235987755982988,-0.5235987755982988,0,1.3097208,1.1336246,1.3653307,-0.45152348,-0.06450108,1.0740597,0.07130226,-1.8744738,0.5504617,-0.010116862,0.21748291,-0.17847045,1.2672782,1.2654542
-0.2,0.10000000000000003,1.1999999999999997,0.5235987755982988,-0.5235987755982988,0,1.310453,1.132534,1.3608938,-0.45324197,-0.1791372,1.0761333,-0.4536019,-1.8721507,0.54030985,0.0011854226,0.22271584,-0.19021535,1.2931072,1.2974839
-0.2,0.10000000000000003,1.1999999999999997,0.5235987755982988,-0.5235987755982988,0,1.3095305,1.1328028,1.3597379,-0.45065442,-0.06441525,1.0097046,0.10521548,-1.8897212,0.547446,0.0022846018,0.22294779,-0.19141379,1.2948499,1.3403158
-0.2,0.10000000000000003,1.1999999999999997,0.5235987755982988,-0.5235987755982988,0,1.3095161,1.1326342,1.3610896,-0.4519315,0.04356582,1.036392,-0.14913659,-1.8677418,0.53298247,-0.01812869,0.21420369,-0.19999614,1.2988876,1.3405159
-0.2,0.10000000000000003,1.1999999999999997,0.5235987755982988,-0.5235987755982988,0,1.3098584,1.132041,1.3604797,-0.45127738,-0.12777065,1.0163295,-0.10840959,-1.8722397,0.53483194,-0.007336666,0.2064525,-0.18859632,1.281762,1.3324808
-0.2,0.10000000000000003,1.1999999999999997,0.5235987755982988,-0.5235987755982988,0,1.3092191,1.1331618,1.3544028,-0.45189378,-0.0028947107,1.0549824,0.15063529,-1.8737926,0.54479045,-0.009643613,0.20043339,-0.18165472,1.2782111,1.278971
-0.2,0.10000000000000003,1.1999999999999997,0.5235987755982988,-0.5235987755982988,0,1.3101865,1.1329718,1.3625236,-0.45281634,-0.069432214,1.0467569,0.26685172,-1.8711594,0.5351127,-0.017796673,0.2064661,-0.19291379,1.2669537,1.2723154
-0.2,0.10000000000000003,1.1999999999999997,0.5235987755982988,-0.5235987755982988,0,1.3097143,1.1317952,1.3570575,-0.45174953,-0.0143192075,1.0189759,0.14076915,-1.8789226,0.55376565,-0.009481773,0.20951375,-0.1941707,1.272765,1.2702839
-0.2,0.10000000000000003,1.1999999999999997,0.5235987755982988,-0.5235987755982988,0,1.310449,1.1333954,1.3651716,-0.45101032,-0.14849949,1.0026879,0.829487,-1.8803453,0.5359015,-0.009943655,0.21225272,-0.19259027,1.2784796,1.2774247
-0.2,0.10000000000000003,1.1999999999999997,0.5235987755982988,-0.5235987755982988,0,1.3097473,1.1326405,1.3623149,-0.45185408,-0.08019115,1.0143464,-0.606127,-1.8655881,0.5514696,0.006827212,0.21740536,-0.18648691,1.2821139,1.2998606
-0.2,0.10000000000000003,1.1999999999999997,0.5235987755982988,-0.5235987755982988,0,1.3097085,1.1326121,1.3613412,-0.45059556,0.023360793,1.0145249,-0.6014758,-1.8738387,0.53061235,-0.014827909,0.20663095,-0.18484181,1.2999293,1.1793696
-0.2,0.10000000000000003,1.1999999999999997,0.5235987755982988,-0.5235987755982988,0,1.3096945,1.1329715,1.3542583,-0.45532507,-0.06905888,1.0030365,-1.2150698,-1.8567815,0.528966,-0.005309542,0.22275296,-0.1833478,1.261015,1.3087274
-0.2,0.10000000000000003,1.1999999999999997,0.5235987755982988,-0.5235987755982988,0,1.3104645,1.1328204,1.3538622,-0.4529184,-0.010021468,1.0716331,0.29169476,-1.8810142,0.5168005,-0.016247224,0.20621677,-0.18474638,1.2738256,1.2437112
-0.2,0.10000000000000003,1.1999999999999997,0.5235987755982988,-0.5235987755982988,0,1.3096479,1.1324099,1.3575923,-0.45050773,-0.24764393,1.0435764,0.5401848,-1.8773946,0.5365986,-0.0044602044,0.21686365,-0.1890506,1.2929733,1.2272321
-0.2,0.10000000000000003,1.1999999999999997,0.5235987755982988,-0.5235987755982988,0,1.3106835,1.1330177,1.3591628,-0.45261183,0.07107028,1.0349989,0.7935705,-1.879883,0.54453355,-0.0098580755,0.2158377,-0.18745954,1.2640295,1.2790383
-0.2,0.10000000000000003,1.1999999999999997,0.5235987755982988,-0.5235987755982988,0,1.3096473,1.1335359,1.3621082,-0.4528698,-0.052596517,1.0273248,1.3128852,-1.8838052,0.5502666,-0.007447131,0.20675793,-0.19121882,1.2839516,1.3270912
-0.2,0.10000000000000003,1.1999999999999997,0.5235987755982988,-0.5235987755982988,0,1.3090837,1.1332381,1.3591533,-0.4525855,-0.13564576,1.0610753,-0.24797265,-1.8686582,0.55225515,-0.009570885,0.21184233,-0.19242838,1.2622969,1.3008186
-0.2,0.10000000000000003,1.1999999999999997,0.5235987755982988,-0.5235987755982988,0,1.3109512,1.131789,1.3612946,-0.45364845,-0.08368438,1.01703,-0.061545596,-1.8880808,0.5407691,-0.008105172,0.21641971,-0.18958049,1.2730223,1.2768344
-0.2,0.10000000000000003,1.1999999999999997,0.5235987755982988,-0.5235987755982988,0,1.3101162,1.1322824,1.358276,-0.44969985,-0.27402925,1.0122919,-0.46596202,-1.8739116,0.5471844,-0.008738464,0.20471719,-0.19211115,1.289968,1.2174488
-0.2,0.10000000000000003,1.1999999999999997,0.5235987755982988,-0.5235987755982988,0,1.3090777,1.1326919,1.3584064,-0.45096976,-0.0851585,1.0672816,0.28522435,-1.8662387,0.53218454,-0.008534482,0.21177047,-0.1816699,1.3106879,1.3147024
-0.2,0.10000000000000003,1.1999999999999997,0.5235987755982988,-0.5235987755982988,0,1.3097159,1.1322588,1.3600844,-0.45461217,0.004495101,1.0317892,0.25068963,-1.8794436,0.5334591,-0.02958485,0.2134854,-0.18423668,1.2768956,1.3001994
-0.2,0.10000000000000003,1.1999999999999997,0.5235987755982988,-0.5235987755982988,0,1.3097125,1.1326079,1.3625127,-0.45038056,0.13611081,1.0482146,0.39833844,-1.8574568,0.53756016,-0.009914337,0.21469393,-0.2000315,1.2967198,1.2519989
-0.2,0.10000000000000003,1.1999999999999997,0.5235987755982988,-0.5235987755982988,0,1.3103042,1.1330994,1.3514446,-0.45093712,-0.19264477,1.0671799,-0.13370587,-1.869444,0.53663343,-0.0007263008,0.21223103,-0.19192293,1.2763863,1.2929181
-0.2,0.10000000000000003,1.1999999999999997,0.5235987755982988,-0.5235987755982988,0,1.3102773,1.1330546,1.36075,-0.4536081,-0.089532636,1.0458186,0.43075296,-1.8666033,0.5437101,-0.0115434965,0.21884803,-0.18484963,1.3142081,1.3092506
-0.2,0.10000000000000003,1.1999999999999997,0.5235987755982988,-0.5235987755982988,0,1.3103687,1.1337599,1.351888,-0.45176867,-0.07462354,0.9960061,-0.74147415,-1.8736387,0.54926956,-0.020631824,0.2205281,-0.19027951,1.2767165,1.3034118
-0.2,0.10000000000000003,1.1999999999999997,0.5235987755982988,-0.5235987755982988,0,1.3106922,1.132696,1.3661301,-0.45407873,0.027394911,0.99022335,-0.87440264,-1.8743869,0.5555952,-0.0019452297,0.21558431,-0.17077602,1.2833762,1.2332908
-0.2,0.10000000000000003,1.1999999999999997,0.5235987755982988,-0.5235987755982988,0,1.3107923,1.1323094,1.359329,-0.4544935,0.049706794,1.0854893,-0.032387055,-1.887397,0.54640007,-0.002914767,0.20795894,-0.18991207,1.2705017,1.285946
-0.2,0.10000000000000003,1.1999999999999997,0.5235987755982988,-0.5235987755982988,0,1.3101325,1.1323016,1.3551934,-0.45400658,0.020054588,1.0578691,-0.5714049,-1.877667,0.5350067,-0.010516001,0.21263742,-0.18164712,1.2777557,1.3453166
-0.2,0.10000000000000003,1.1999999999999997,0.5235987755982988,-0.5235987755982988,0,1.3096007,1.1334442,1.3598701,-0.4520516,0.04157463,1.0482477,0.1047745,-1.8742256,0.54636174,-0.008011641,0.21845552,-0.18449737,1.2711191,1.2304028
-0.2,0.10000000000000003,1.1999999999999997,0.5235987755982988,-0.5235987755982988,0,1.3107327,1.1327968,1.3660558,-0.45318735,0.03932112,1.0902704,0.6285275,-1.8754591,0.55287045,-0.006237239,0.2188757,-0.17726582,1.2593489,1.1655744
-0.2,0.10000000000000003,1.1999999999999997,0.5235987755982988,-0.5235987755982988,0,1.309802,1.1333601,1.3575432,-0.45178524,0.036607124,1.0771508,0.35445082,-1.8784933,0.51994306,0.007546688,0.21233402,-0.17586698,1.2918429,1.2678143
-0.2,0.10000000000000003,1.1999999999999997,0.5235987755982988,-0.5235987755982988,0,1.3104899,1.1345192,1.365733,-0.45153815,0.04734745,1.0758924,-0.2432573,-1.8789076,0.52781135,-0.02438572,0.2160212,-0.1894076,1.2614273,1.3253554
-0.2,0.10000000000000003,1.1999999999999997,0.5235987755982988,-0.5235987755982988,0,1.3101976,1.1326567,1.3594632,-0.44982174,-0.012605875,1.015763,0.3338068,-1.8829767,0.54525185,-0.017327612,0.2129984,-0.19224516,1.302719,1.2877718
-0.2,0.10000000000000003,1.1999999999999997,0.5235987755982988,-0.5235987755982988,0,1.3104509,1.132231,1.3651221,-0.45156905,-0.063781895,1.044986,0.9573845,-1.8805456,0.5389868,-0.01655396,0.21356161,-0.19572026,1.2801738,1.264882
-0.2,0.10000000000000003,1.1999999999999997,0.5235987755982988,-0.5235987755982988,0,1.3098831,1.1330446,1.3601849,-0.4528692,-0.030689431,1.0501715,1.3611475,-1.8745762,0.56120986,-0.022831,0.22031258,-0.1886565,1.2899086,1.2912842
-0.2,0.10000000000000003,1.1999999999999997,0.5235987755982988,-0.5235987755982988,0,1.3094733,1.1326349,1.3587291,-0.45366487,0.018663147,1.0420743,0.8424804,-1.8759474,0.5349216,-0.0034072583,0.21197334,-0.1900024,1.2931052,1.2847697
-0.2,0.10000000000000003,1.1999999999999997,0.5235987755982988,-0.5235987755982988,0,1.3105551,1.1342374,1.3653592,-0.45169175,-0.0840017,1.0585276,-0.36099765,-1.8752977,0.56199795,-0.013937106,0.21032417,-0.18035237,1.2777594,1.256642
-0.2,0.10000000000000003,1.1999999999999997,0.5235987755982988,-0.5235987755982988,0,1.3096668,1.1319616,1.3614689,-0.4497951,0.015615948,1.0440688,0.19356367,-1.8720415,0.54497343,-0.013720921,0.21383534,-0.17608099,1.2740003,1.3174777
-0.2,0.10000000000000003,1.1999999999999997,0.5235987755982988,-0.5235987755982988,0,1.3096877,1.1329337,1.3647134,-0.4507749,-0.053187184,1.0043226,0.27290535,-1.8710934,0.54431933,-0.007812577,0.21340168,-0.19391344,1.2899725,1.3374573
-0.2,0.10000000000000003,1.1999999999999997,0.5235987755982988,-0.5235987755982988,0,1.3102545,1.1328471,1.3577586,-0.45477185,-0.11747082,1.0357984,-0.7752117,-1.8872526,0.5460885,-0.011932919,0.2218182,-0.1915551,1.282598,1.3477235
-0.2,0.10000000000000003,1.1999999999999997,0.5235987755982988,-0.5235987755982988,0,1.309973,1.1325291,1.3618791,-0.45032224,-0.16101876,1.0323493,-0.041933794,-1.8700237,0.53810644,-0.015060114,0.20923997,-0.19151832,1.2823862,1.269596
-0.2,0.10000000000000003,1.1999999999999997,0.5235987755982988,-0.5235987755982988,0,1.3098359,1.1320376,1.3570865,-0.45113936,0.057730027,1.0529698,-0.4218298,-1.8824704,0.5530207,-0.011487568,0.2266549,-0.18356134,1.2742162,1.2587073
-0.2,0.10000000000000003,1.1999999999999997,0.5235987755982988,-0.5235987755982988,0,1.3091416,1.1328045,1.3603488,-0.4510385,-0.15697286,1.0008383,0.45998856,-1.8789704,0.5575783,-0.01825619,0.20298569,-0.1985784,1.2770593,1.3351045
-0.2,0.10000000000000003,1.1999999999999997,0.5235987755982988,-0.5235987755982988,0,1.3095778,1.1329274,1.360211,-0.45119414,0.08412581,1.0283388,1.3250314,-1.8666986,0.5532688,-0.006278305,0.21057066,-0.1908434,1.2672778,1.316384
-0.2,0.10000000000000003,1.1999999999999997,0.5235987755982988,-0.5235987755982988,0,1.3114524,1.133177,1.364113,-0.4532751,-0.04529356,1.0279248,0.84692276,-1.8830019,0.54481274,-0.015381178,0.21622472,-0.18488514,1.2873387,1.3275633
-0.2,0.10000000000000003,1.1999999999999997,0.5235987755982988,-0.5235987755982988,0,1.3101411,1.1329249,1.3594129,-0.4531462,0.06077582,1.0399272,0.31829217,-1.8791504,0.5324438,-0.008673175,0.21642758,-0.19278584,1.2982408,1.2285426
-0.2,0.10000000000000003,1.1999999999999997,0.5235987755982988,-0.5235987755982988,0,1.3107665,1.1324245,1.3563845,-0.45183933,-0.050140847,1.0791882,-1.2201837,-1.8787115,0.54019827,-0.013819998,0.21199234,-0.19690001,1.2665126,1.3402718
-0.2,0.10000000000000003,1.1999999999999997,0.5235987755982988,-0.5235987755982988,0,1.3101017,1.1340232,1.3576914,-0.45387763,0.0049522477,1.0252707,-0.07969059,-1.8787651,0.53631425,-0.012753447,0.21581358,-0.19629438,1.2720227,1.2702135
-0.2,0.10000000000000003,1.1999999999999997,0.5235987755982988,-0.5235987755982988,0,1.310546,1.1326631,1.3561692,-0.45128775,-0.18501154,1.0538013,-0.18798946,-1.8698447,0.53293043,-0.008542741,0.22173312,-0.19372207,1.2979002,1.2624415
-0.2,0.10000000000000003,1.1999999999999997,0.5235987755982988,-0.5235987755982988,0,1.3102012,1.1325445,1.3624188,-0.4507709,-0.0060324455,1.0613499,-0.25743225,-1.8791186,0.53847134,-0.008025515,0.21371867,-0.19907779,1.2901678,1.2772087
-0.2,0.10000000000000003,1.1999999999999997,0.5235987755982988,-0.5235987755982988,0,1.3096781,1.131708,1.350777,-0.45328912,-0.1443858,1.0280551,1.157113,-1.8775549,0.53555715,0.0048609665,0.22130582,-0.1850423,1.2737831,1.3030121
-0.2,0.10000000000000003,1.1999999999999997,0.5235987755982988,-0.5235987755982988,0,1.3111976,1.1328232,1.3599215,-0.45311636,-0.005462024,1.0573269,-0.0051200874,-1.8749236,0.5174325,-0.0106992945,0.20786841,-0.18783236,1.2740606,1.244519
-0.2,0.10000000000000003,1.1999999999999997,0.5235987755982988,-0.5235987755982988,0,1.3099787,1.1328797,1.3550729,-0.45265955,-0.03778106,0.9843182,0.31505686,-1.8729659,0.5398041,0.0063640075,0.2168313,-0.17749009,1.2957133,1.3450891
-0.2,0.10000000000000003,1.1999999999999997,0.5235987755982988,-0.5235987755982988,0,1.3100549,1.1313093,1.3578794,-0.4525296,0.07231639,1.0113512,0.2872742,-1.8758025,0.5386749,-0.018349338,0.2137035,-0.18714932,1.3006816,1.2778759
-0.2,0.10000000000000003,1.1999999999999997,0.5235987755982988,-0.5235987755982988,0,1.310232,1.1321772,1.3570807,-0.45042354,-0.17326866,1.0684177,0.40603834,-1.8789386,0.5470876,-0.0064204517,0.22058852,-0.18560588,1.2830608,1.3483542
-0.2,0.10000000000000003,1.1999999999999997,0.5235987755982988,-0.5235987755982988,0,1.3103559,1.1338853,1.3647698,-0.45678827,0.08821426,1.0708526,-0.6592207,-1.8812293,0.5369776,-0.02068807,0.21661799,-0.20192283,1.2855673,1.2927963
-0.2,0.10000000000000003,1.1999999999999997,0.5235987755982988,-0.5235987755982988,0,1.3101997,1.1326873,1.3572601,-0.4533382,-0.09936099,1.0930971,-0.14637777,-1.8794212,0.5417864,-0.0107156485,0.21463862,-0.20344193,1.2756945,1.3307923
-0.2,0.10000000000000003,1.1999999999999997,0.5235987755982988,-0.5235987755982988,0,1.3110416,1.1329403,1.3620793,-0.45343322,0.10753343,1.0101857,-0.22200473,-1.8800918,0.540658,0.0026552298,0.21439467,-0.17944475,1.2816997,1.2503468
-0.2,0.10000000000000003,1.1999999999999997,0.5235987755982988,-0.5235987755982988,0,1.3106297,1.1339995,1.3543209,-0.45352674,0.034470454,0.99262005,0.30394408,-1.8810006,0.54098153,-0.002952911,0.20948175,-0.19293624,1.2957431,1.3174127
-0.2,0.10000000000000003,1.1999999999999997,0.5235987755982988,-0.5235987755982988,0,1.3098733,1.1350688,1.3582884,-0.4521379,0.031145774,1.0397421,0.80985373,-1.8833022,0.5436782,0.009363895,0.21211779,-0.19601569,1.2840279,1.2386878
-0.2,0.10000000000000003,1.1999999999999997,0.5235987755982988,-0.5235987755982988,0,1.3104212,1.1333077,1.3553945,-0.45487663,0.045792717,1.0453401,-0.22124897,-1.8824745,0.5432815,0.0019458119,0.222389,-0.1929151,1.3159405,1.2885375
-0.2,0.10000000000000003,1.1999999999999997,0.5235987755982988,-0.5235987755982988,0,1.3104919,1.1323975,1.3606119,-0.45418334,-0.077565245,1.0190935,-0.21756569,-1.8838841,0.542631,0.0025257522,0.20892942,-0.19271953,1.2791998,1.2643899
-0.2,0.10000000000000003,1.1999999999999997,0.5235987755982988,-0.5235987755982988,0,1.3099312,1.132495,1.3500503,-0.45136195,0.019734282,1.0840645,1.0749874,-1.8706206,0.5446189,-0.014185421,0.21031034,-0.19984397,1.2891217,1.2830124
-0.2,0.10000000000000003,1.1999999999999997,0.5235987755982988,-0.5235987755982988,0,1.3101844,1.1340035,1.362189,-0.4538978,-0.010024775,0.9568879,-0.7358652,-1.8622653,0.56078917,0.0042806533,0.20703351,-0.18602262,1.2880433,1.3151523
-0.2,0.10000000000000003,1.1999999999999997,0.5235987755982988,-0.5235987755982988,0,1.3104928,1.1323445,1.3562975,-0.4503379,-0.044535484,1.0207593,0.041767735,-1.8773775,0.55020094,-0.017321821,0.22433366,-0.1864137,1.294218,1.2325524
-0.2,0.10000000000000003,1.1999999999999997,0.5235987755982988,-0.5235987755982988,0,1.3097478,1.1325395,1.3595557,-0.45229572,0.20438302,0.99638283,0.4570154,-1.8697448,0.5370228,-0.014259413,0.21682994,-0.19180846,1.2808442,1.3254458
-0.2,0.10000000000000003,1.1999999999999997,0.5235987755982988,-0.5235987755982988,0,1.3092515,1.1327043,1.362703,-0.45298162,-0.26539454,1.0943028,-0.3396263,-1.8843008,0.53782195,-0.006050416,0.21002455,-0.184054,1.2829635,1.2251637
-0.2,0.10000000000000003,1.1999999999999997,0.5235987755982988,-0.5235987755982988,0,1.309682,1.1320182,1.3560162,-0.4505415,0.06423727,1.0415524,0.23297532,-1.882331,0.5420437,-0.0030016548,0.20764694,-0.18401223,1.2704757,1.3480499
-0.2,0.10000000000000003,1.1999999999999997,0.5235987755982988,-0.5235987755982988,0,1.311225,1.132108,1.3603898,-0.45207193,0.06794531,1.0104762,0.2628396,-1.868594,0.5396625,-0.008051191,0.22151032,-0.18528804,1.2969614,1.227282
-0.2,0.10000000000000003,1.1999999999999997,0.5235987755982988,-0.5235987755982988,0,1.3101195,1.1331764,1.3586435,-0.45090318,-0.124421604,1.0267185,-0.79102904,-1.876819,0.52669364,-0.007835912,0.21075684,-0.18151598,1.2723742,1.2695404
-0.2,0.10000000000000003,1.1999999999999997,0.5235987755982988,-0.5235987755982988,0,1.310084,1.1326345,1.3590347,-0.45107654,-0.06985888,1.0681987,-0.8225763,-1.8725319,0.53577197,0.011290218,0.20540112,-0.17943144,1.2926111,1.288988
-0.2,0.10000000000000003,1.1999999999999997,0.5235987755982988,-0.5235987755982988,0,1.3104172,1.1326315,1.3644961,-0.45205763,0.06298437,1.1170287,0.82411903,-1.8648275,0.54478574,-0.013032325,0.20838355,-0.17600502,1.2748238,1.2925429
-0.2,0.10000000000000003,1.1999999999999997,0.5235987755982988,-0.5235987755982988,0,1.3108982,1.1323191,1.3606857,-0.45425186,-0.17958006,1.077481,-0.08180611,-1.8680744,0.53976125,0.0051057977,0.20844762,-0.18224986,1.2673858,1.3223039
-0.2,0.10000000000000003,1.1999999999999997,0.5235987755982988,-0.5235987755982988,0,1.3109202,1.1326058,1.3641793,-0.45207852,0.0903904,1.0256248,-0.44695395,-1.8741494,0.54171467,-0.010346179,0.21291906,-0.1793539,1.249436,1.3069057
-0.2,0.10000000000000003,1.1999999999999997,0.5235987755982988,-0.5235987755982988,0,1.3101748,1.1329309,1.3583506,-0.4508971,-0.07356803,1.0661159,-0.47722495,-1.8721007,0.54335487,-0.020227825,0.20845638,-0.18514664,1.2793357,1.2677753
-0.2,0.10000000000000003,1.1999999999999997,0.5235987755982988,-0.5235987755982988,0,1.3110747,1.1333821,1.3615716,-0.4549344,0.053973697,1.0300397,-0.0033674408,-1.8828387,0.5580882,0.00053318567,0.22140592,-0.1913557,1.265361,1.2892921
-0.2,0.10000000000000003,1.1999999999999997,0.5235987755982988,-0.5235987755982988,0,1.3112237,1.1315558,1.3615814,-0.45376256,0.10984919,1.0695828,-0.17692871,-1.8860266,0.5428323,-0.0006925589,0.2064672,-0.19585386,1.2899727,1.3665932
-0.2,0.10000000000000003,1.1999999999999997,0.5235987755982988,-0.5235987755982988,0,1.3103122,1.132934,1.3580883,-0.4513792,-0.1396154,1.0672483,0.25980848,-1.88551,0.5444789,0.0020612457,0.21416204,-0.18761869,1.2786001,1.296021
-0.2,0.10000000000000003,1.1999999999999997,0.5235987755982988,-0.5235987755982988,0,1.3107011,1.1335208,1.3665448,-0.44924942,-0.0965807,0.9859156,0.8100663,-1.8833998,0.5374189,-0.0014513677,0.21028952,-0.16967648,1.2785112,1.3327786
-0.2,0.10000000000000003,1.1999999999999997,0.5235987755982988,-0.5235987755982988,0,1.3106078,1.1312182,1.3647735,-0.45016465,0.07039246,1.0701383,-0.5878444,-1.8727407,0.5525733,-0.015980192,0.20483159,-0.19291055,1.2578158,1.3210742
-0.2,0.10000000000000003,1.1999999999999997,0.5235987755982988,-0.5235987755982988,0,1.3098204,1.1314546,1.3642466,-0.45311174,-0.07469606,1.0532532,0.41424933,-1.8869231,0.5363193,-0.01094934,0.21425325,-0.19480708,1.2665335,1.320807
-0.2,0.10000000000000003,1.1999999999999997,0.5235987755982988,-0.5235987755982988,0,1.3102838,1.1319599,1.3598139,-0.44898173,-0.004458504,1.0441903,0.09253553,-1.8743607,0.5435606,0.011339129,0.21498205,-0.19144179,1.2530669,1.3054386
-0.2,0.10000000000000003,1.1999999999999997,0.5235987755982988,-0.5235987755982988,0,1.3100951,1.1322752,1.3629568,-0.44780865,-0.09920859,1.0366412,0.7460197,-1.8798615,0.54309815,-0.01039676,0.21269302,-0.19613783,1.2711785,1.3437616
-0.2,0.10000000000000003,1.1999999999999997,0.5235987755982988,-0.5235987755982988,0,1.3094869,1.1331998,1.3657047,-0.4499128,-0.088751815,1.0710127,0.24981077,-1.8876312,0.53685445,-0.016154516,0.21163791,-0.17657691,1.298634,1.2981241
-0.2,0.10000000000000003,1.1999999999999997,0.5235987755982988,-0.5235987755982988,0,1.309788,1.1328001,1.3589001,-0.45319438,0.030446151,0.9823411,-0.07119712,-1.8755327,0.5359846,-0.014968863,0.21063367,-0.18780178,1.2829684,1.2755185
-0.2,0.10000000000000003,1.1999999999999997,0.5235987755982988,-0.5235987755982988,0,1.3100735,1.1336877,1.3605732,-0.45188314,-0.2014129,1.099499,-0.5595558,-1.8788588,0.53220505,-0.0072378647,0.21655788,-0.17817664,1.2780794,1.3237273
-0.2,0.10000000000000003,1.1999999999999997,0.5235987755982988,-0.5235987755982988,0,1.3098949,1.1326106,1.3631709,-0.45380068,0.0729521,1.046163,0.09255106,-1.868859,0.5426943,-0.009986922,0.22840323,-0.19133504,1.2729709,1.2857141
-0.2,0.10000000000000003,1.1999999999999997,0.5235987755982988,-0.5235987755982988,0,1.3098063,1.1331013,1.3645202,-0.44992667,-0.08937674,1.002716,0.8295244,-1.8731188,0.55563545,-0.012912658,0.21393856,-0.18360592,1.2756371,1.3059531
-0.2,0.10000000000000003,1.1999999999999997,0.5235987755982988,-0.5235987755982988,0,1.3094331,1.1328808,1.358347,-0.4537278,0.035933677,1.0596443,-0.040391885,-1.8689938,0.543349,-0.010007972,0.2068849,-0.20010863,1.3047109,1.2616795
-0.2,0.10000000000000003,1.1999999999999997,0.5235987755982988,-0.5235987755982988,0,1.3100314,1.1335645,1.3563567,-0.4521169,0.05236458,1.0583947,0.18951936,-1.8758426,0.53277624,-0.00037768696,0.20687172,-0.19521333,1.2694885,1.1979723
-0.2,0.10000000000000003,1.1999999999999997,0.5235987755982988,-0.5235987755982988,0,1.3107576,1.1327108,1.3534834,-0.45120907,-0.043532845,1.0310979,1.468929,-1.8858856,0.5576563,0.0024667743,0.21661176,-0.19937329,1.2698818,1.2589693
-0.2,0.10000000000000003,1.1999999999999997,0.5235987755982988,-0.5235987755982988,0,1.309513,1.1334343,1.3644663,-0.45131308,-0.034300234,1.0464301,0.6611454,-1.8760623,0.5522027,-0.007020794,0.2085718,-0.18287496,1.2694352,1.3743341
-0.2,0.10000000000000003,1.1999999999999997,0.5235987755982988,-0.5235987755982988,0,1.3098713,1.1325516,1.3660308,-0.45007268,0.12241378,1.0948881,0.97550017,-1.890016,0.54232764,-0.0014769306,0.21451762,-0.18716551,1.2916842,1.3003048
-0.2,0.10000000000000003,1.1999999999999997,0.5235987755982988,-0.5235987755982988,0,1.3093514,1.1341136,1.3653326,-0.45347124,-0.059636164,1.0316198,0.40235376,-1.8630027,0.53579575,-0.011283456,0.21173121,-0.18386848,1.2775654,1.3189545
-0.2,0.10000000000000003,1.1999999999999997,0.5235987755982988,-0.5235987755982988,0,1.3095978,1.1334362,1.3498034,-0.45061564,-0.27182594,1.0502174,-0.45500872,-1.8793879,0.5371283,-0.00971391,0.22095513,-0.18634856,1.3178192,1.2358434
-0.2,0.10000000000000003,1.1999999999999997,0.5235987755982988,-0.5235987755982988,0,1.3097755,1.1330838,1.3577346,-0.4505056,-0.007413922,1.0183331,0.015608386,-1.8644053,0.5398646,-0.008481005,0.21184944,-0.19055453,1.2563982,1.3165807
-0.2,0.10000000000000003,1.1999999999999997,0.5235987755982988,-0.5235987755982988,0,1.310076,1.1326513,1.3600261,-0.45172387,-0.17658854,1.057451,0.9324527,-1.8577911,0.54329586,-0.0167303,0.21140528,-0.19287874,1.2945321,1.3962518
-0.2,0.10000000000000003,1.1999999999999997,0.5235987755982988,-0.5235987755982988,0,1.310037,1.1335618,1.3594187,-0.45286822,0.033880126,1.0414633,0.40819734,-1.8695204,0.5483732,-0.009718266,0.21346335,-0.18861616,1.2872089,1.363086
-0.2,0.10000000000000003,1.1999999999999997,0.5235987755982988,-0.5235987755982988,0,1.3100007,1.1332892,1.3584117,-0.45203418,-0.10992182,1.0101638,-0.2878059,-1.8654885,0.5451523,-0.0069810064,0.21963726,-0.19775872,1.2765449,1.3388056
-0.2,0.10000000000000003,1.1999999999999997,0.5235987755982988,-0.5235987755982988,0,1.3100317,1.1325712,1.3680063,-0.45149514,0.09857957,1.0800517,0.8402885,-1.8613772,0.54549867,-0.0061319093,0.21145637,-0.18804792,1.3014187,1.3356819
-0.2,0.10000000000000003,1.1999999999999997,0.5235987755982988,-0.5235987755982988,0,1.3101497,1.1320161,1.3640785,-0.4506635,-0.07560335,1.0171051,-0.74877316,-1.884731,0.5358502,-0.021681694,0.20478228,-0.17907403,1.2588378,1.2456359
-0.2,0.10000000000000003,1.1999999999999997,0.5235987755982988,-0.5235987755982988,0,1.3101329,1.1334841,1.3604017,-0.45178875,0.005969144,1.0914203,0.72781974,-1.8725684,0.5549343,-0.0009216477,0.20810904,-0.17670354,1.3145114,1.2355759
-0.2,0.10000000000000003,1.1999999999999997,0.5235987755982988,-0.5235987755982988,0,1.3108172,1.1330405,1.367697,-0.4514188,-0.07501924,1.0665355,1.2928993,-1.8842219,0.5359171,-0.013231349,0.22009702,-0.18517952,1.2895887,1.298684
-0.2,0.10000000000000003,1.1999999999999997,0.5235987755982988,-0.5235987755982988,0,1.3099872,1.133275,1.3627917,-0.45043847,0.07648859,1.0719684,0.22135435,-1.8879751,0.5468924,-0.013987583,0.21117869,-0.19297723,1.2935177,1.2967763
-0.2,0.10000000000000003,1.1999999999999997,0.5235987755982988,-0.5235987755982988,0,1.3098375,1.1329523,1.3649285,-0.4533387,-0.004769439,1.0273867,-0.95697975,-1.8758719,0.5422839,-0.002181647,0.20540561,-0.19403183,1.2951857,1.2974098
-0.2,0.10000000000000003,1.1999999999999997,0.5235987755982988,-0.5235987755982988,0,1.3100212,1.133705,1.3545109,-0.4505786,-0.056324724,1.0779474,0.6104953,-1.873497,0.54237235,-0.0063376785,0.21278368,-0.18511942,1.2813923,1.3210168
-0.2,0.10000000000000003,1.1999999999999997,0.5235987755982988,-0.5235987755982988,0,1.310596,1.1316382,1.3612713,-0.45266873,0.01613491,1.0834166,-1.5893387,-1.8739048,0.5301879,-0.013574023,0.21193671,-0.20390226,1.2722068,1.2348742
-0.2,0.10000000000000003,1.1999999999999997,0.5235987755982988,-0.5235987755982988,0,1.3105546,1.134091,1.3571227,-0.4529611,0.006047682,1.0974017,-0.37177283,-1.8838145,0.55381733,0.00061738654,0.21298073,-0.19417003,1.2977941,1.2057377
-0.2,0.10000000000000003,1.1999999999999997,0.5235987755982988,-0.5235987755982988,0,1.310208,1.1329063,1.3691121,-0.45289117,0.13607593,1.0655862,-0.093937926,-1.8785449,0.54494566,-0.021148432,0.21108729,-0.20121978,1.2896305,1.3039049
-0.2,0.10000000000000003,1.1999999999999997,0.5235987755982988,-0.5235987755982988,0,1.3094491,1.1326662,1.363948,-0.4510866,-0.067671575,1.0393687,0.74312603,-1.8785968,0.5375396,-0.000978678,0.21884526,-0.19553122,1.2995067,1.2809942
-0.2,0.10000000000000003,1.1999999999999997,0.5235987755982988,-0.5235987755982988,0,1.309333,1.1334486,1.355604,-0.452273,-0.17798637,1.0074674,-0.89211947,-1.8707877,0.54200006,0.010845934,0.21870103,-0.19124138,1.2650857,1.2110786
-0.2,0.10000000000000003,1.1999999999999997,0.5235987755982988,-0.5235987755982988,0,1.3098557,1.1328079,1.3575647,-0.4513354,0.17879304,1.0546848,-0.04221367,-1.8659422,0.54179704,-0.007742923,0.21073459,-0.18857564,1.307771,1.3027107
-0.2,0.10000000000000003,1.1999999999999997,0.5235987755982988,-0.5235987755982988,0,1.311334,1.1332418,1.3637352,-0.45209697,-0.085172996,1.0806625,-0.079159796,-1.8709594,0.5332885,0.0077611674,0.21149032,-0.19403028,1.276826,1.2813808
-0.2,0.10000000000000003,1.1999999999999997,0.5235987755982988,-0.5235987755982988,0,1.310183,1.1324422,1.3605887,-0.45142987,-0.19358476,1.0890471,-0.06448391,-1.8816149,0.5519405,0.00020349621,0.21105981,-0.20428775,1.2985588,1.2671872
-0.2,0.10000000000000003,1.1999999999999997,0.5235987755982988,-0.5235987755982988,0,1.3094463,1.1333456,1.3595349,-0.45242196,-0.02650707,1.0575051,0.73399085,-1.8772223,0.53362745,-0.00965024,0.20563419,-0.17961891,1.2920272,1.2570832
-0.2,0.10000000000000003,1.1999999999999997,0.5235987755982988,-0.5235987755982988,0,1.3094417,1.1314992,1.36951,-0.4489016,-0.06551227,1.020523,-0.6452715,-1.8715848,0.5412289,-0.0023624664,0.21527933,-0.18537518,1.2733637,1.2791846
-0.2,0.10000000000000003,1.1999999999999997,0.5235987755982988,-0.5235987755982988,0,1.3101197,1.1320467,1.3591799,-0.45174816,-0.005140096,1.0632851,0.7983492,-1.8775736,0.53878284,0.0011302507,0.2183765,-0.18578398,1.2851703,1.3434132
-0.2,0.10000000000000003,1.1999999999999997,0.5235987755982988,-0.5235987755982988,0,1.3098904,1.133809,1.359066,-0.45093986,-0.032122664,1.0421468,0.690235,-1.8701603,0.5419259,-0.01059329,0.21089111,-0.18364525,1.272736,1.2813966
-0.2,0.10000000000000003,1.1999999999999997,0.5235987755982988,-0.5235987755982988,0,1.3088199,1.1331397,1.3656375,-0.45212713,0.033236593,1.0987265,0.30463028,-1.877518,0.5394937,-0.022711372,0.21790376,-0.16890073,1.3107538,1.2405871
-0.2,0.10000000000000003,1.1999999999999997,0.5235987755982988,-0.5235987755982988,0,1.3100489,1.1329043,1.3646379,-0.4527445,-0.105515584,1.092156,0.13785845,-1.8811662,0.5368142,-0.007343102,0.21283102,-0.17535426,1.2887819,1.3110828
-0.2,0.10000000000000003,1.1999999999999997,0.5235987755982988,-0.5235987755982988,0,1.3098984,1.1327752,1.367827,-0.45319453,-0.10540599,0.9805366,-0.31510684,-1.8836423,0.5484456,-0.024348708,0.21461384,-0.18398245,1.2936784,1.2393905
-0.2,0.10000000000000003,1.1999999999999997,0.5235987755982988,-0.5235987755982988,0,1.3105844,1.1334809,1.3670292,-0.45199707,0.111057974,1.0693192,0.09090231,-1.8699827,0.53683317,-0.010237323,0.20840639,-0.19117016,1.2994455,1.2755083
-0.2,0.10000000000000003,1.1999999999999997,0.5235987755982988,-0.5235987755982988,0,1.3099701,1.1326823,1.3668786,-0.4528658,-0.1184717,1.0684924,0.93954736,-1.8849571,0.54153204,-0.0031612243,0.2142796,-0.19242501,1.2734028,1.3538808
-0.2,0.10000000000000003,1.1999999999999997,0.5235987755982988,-0.5235987755982988,0,1.3110952,1.1329213,1.3679408,-0.45158494,0.009901976,1.018219,-0.8318902,-1.8867669,0.5398577,-0.00991624,0.21071151,-0.1793378,1.283231,1.2250116
-0.2,0.10000000000000003,1.1999999999999997,0.5235987755982988,-0.5235987755982988,0,1.3102959,1.13222,1.361363,-0.4512979,-0.0053196554,1.0771416,0.49253133,-1.8769267,0.5312512,-0.012334532,0.21517232,-0.1779872,1.2954024,1.2644364
-0.2,0.10000000000000003,1.1999999999999997,0.5235987755982988,-0.5235987755982988,0,1.3098197,1.1327807,1.3666329,-0.45370212,-0.012086601,1.020752,-0.22875069,-1.8823667,0.53705865,-0.011234678,0.20298104,-0.18103033,1.2960001,1.2618778
-0.2,0.10000000000000003,1.1999999999999997,0.5235987755982988,-0.5235987755982988,0,1.3091614,1.1327347,1.357284,-0.44913134,0.121710405,1.089687,-0.018692262,-1.8813703,0.5410885,0.0002486063,0.22053023,-0.17979167,1.2740315,1.2411431
-0.2,0.10000000000000003,1.1999999999999997,0.5235987755982988,-0.5235987755982988,0,1.3101298,1.1319959,1.3567202,-0.45275268,-0.102669984,1.0510901,0.25440228,-1.8707297,0.5287523,-0.008978962,0.22096696,-0.18257011,1.2849535,1.2511061
-0.2,0.10000000000000003,1.1999999999999997,0.5235987755982988,-0.5235987755982988,0,1.3095012,1.1335088,1.3604864,-0.45079148,-0.0011936233,1.0538753,0.81328875,-1.8604633,0.5347069,-0.010190296,0.22025819,-0.19940478,1.282232,1.3481323
-0.2,0.10000000000000003,1.1999999999999997,0.5235987755982988,-0.5235987755982988,0,1.3094823,1.1332743,1.3639476,-0.45012778,0.09086217,1.0342569,0.6500724,-1.8764915,0.54507464,0.0032064372,0.22146367,-0.20283392,1.2680155,1.2790377
-0.2,0.10000000000000003,1.1999999999999997,0.5235987755982988,-0.5235987755982988,0,1.3100659,1.1325904,1.3616209,-0.45144233,0.03363572,1.0495378,0.24362525,-1.8626404,0.5424882,0.0014450763,0.20836118,-0.19750288,1.2851559,1.2196112
-0.2,0.10000000000000003,1.1999999999999997,0.5235987755982988,-0.5235987755982988,0,1.3108445,1.1332623,1.3586513,-0.45290807,-0.06743253,1.030849,0.30705115,-1.8703773,0.5248441,-0.012336612,0.21627924,-0.17593597,1.2573702,1.3638209
-0.2,0.10000000000000003,1.1999999999999997,0.5235987755982988,-0.5235987755982988,0,1.3098074,1.1325793,1.3542807,-0.45128924,-0.049814794,1.0343695,-0.29004318,-1.8747666,0.5471082,0.0016733184,0.21185659,-0.20172617,1.2909691,1.2865274
-0.2,0.10000000000000003,1.1999999999999997,0.5235987755982988,-0.5235987755982988,0,1.3106315,1.1330804,1.3577893,-0.4515197,-0.033377387,1.036981,-0.9979678,-1.8670286,0.53967094,0.0044303625,0.22050545,-0.18265681,1.2939748,1.2204838
-0.2,0.10000000000000003,1.1999999999999997,0.5235987755982988,-0.5235987755982988,0,1.3094771,1.1337149,1.3544998,-0.45104524,-0.105068915,1.0544231,-0.60668975,-1.8772862,0.5421147,-0.0104765305,0.21604416,-0.17933209,1.2575749,1.2960232
-0.2,0.10000000000000003,1.1999999999999997,0.5235987755982988,-0.5235987755982988,0,1.3102121,1.1336006,1.3649449,-0.45155516,-0.10399546,1.0057838,0.53767884,-1.8818682,0.54211235,-0.0006252835,0.21283749,-0.2100239,1.276942,1.3027759
-0.2,0.10000000000000003,1.1999999999999997,0.5235987755982988,-0.5235987755982988,0,1.3103021,1.1332533,1.356283,-0.45307702,-0.04960371,1.0735877,1.0578715,-1.874029,0.5549433,-0.015226124,0.21681333,-0.19073078,1.269297,1.2345886
-0.2,0.10000000000000003,1.1999999999999997,0.5235987755982988,-0.5235987755982988,0,1.3109472,1.1329134,1.3600057,-0.45402747,0.027558727,1.0685462,0.7640238,-1.8784223,0.5327336,-0.016682962,0.2028929,-0.18480954,1.2895105,1.2800846
-0.2,0.10000000000000003,1.1999999999999997,0.5235987755982988,-0.5235987755982988,0,1.3098813,1.13313,1.3639734,-0.45130473,0.14196366,1.0141582,0.1446018,-1.8945656,0.5358146,-0.003783853,0.20664246,-0.18069357,1.285802,1.2897282
-0.2,0.10000000000000003,1.1999999999999997,0.5235987755982988,-0.5235987755982988,0,1.3101764,1.1325904,1.3587897,-0.45178315,0.022142043,1.0559137,1.7903645,-1.8773687,0.5484013,-0.0040505575,0.21778178,-0.19776703,1.2488993,1.2895675
-0.2,0.10000000000000003,1.1999999999999997,0.5235987755982988,-0.5235987755982988,0,1.3100271,1.1323692,1.3620617,-0.4494547,-0.015284388,1.0168165,1.0184207,-1.8964438,0.5558992,0.0009432959,0.21689047,-0.1759028,1.2722657,1.2884235
-0.2,0.10000000000000003,1.1999999999999997,0.5235987755982988,-0.5235987755982988,0,1.3100774,1.1328241,1.363648,-0.45298076,-0.019474734,1.0354965,-0.88876903,-1.8672944,0.54598683,1.3148051e-05,0.20430912,-0.18074308,1.3028976,1.3029119
-0.2,0.10000000000000003,1.1999999999999997,0.5235987755982988,-0.5235987755982988,0,1.3111972,1.1325619,1.3571315,-0.45200276,-0.13804595,1.0929466,1.0060813,-1.8674281,0.56092566,-0.017215474,0.20970394,-0.19143158,1.2982547,1.278321
-0.2,0.10000000000000003,1.1999999999999997,0.5235987755982988,-0.5235987755982988,0,1.3105501,1.1324067,1.3691398,-0.4517515,0.078922,1.0122229,0.03406558,-1.8752868,0.5249851,-0.019750604,0.20965724,-0.19654843,1.2818345,1.2917159
-0.2,0.10000000000000003,1.1999999999999997,0.5235987755982988,-0.5235987755982988,0,1.3098791,1.1330435,1.3640044,-0.451543,0.011090872,1.024074,1.1181126,-1.8754364,0.5326867,-0.004485914,0.21060924,-0.18287794,1.2511687,1.2671939
-0.2,0.10000000000000003,1.1999999999999997,0.5235987755982988,-0.5235987755982988,0,1.3101573,1.1332133,1.3620813,-0.45239022,-0.06574734,0.9883421,0.48702568,-1.8664869,0.5298595,-0.012559186,0.20714408,-0.1884339,1.2822257,1.259892
-0.2,0.10000000000000003,1.1999999999999997,0.5235987755982988,-0.5235987755982988,0,1.3095587,1.1318542,1.3613162,-0.4499028,0.13501549,1.0397997,0.41946203,-1.8813512,0.52905726,-0.0039391113,0.2217015,-0.18260714,1.2718801,1.2873304
-0.2,0.10000000000000003,1.1999999999999997,0.5235987755982988,-0.5235987755982988,0,1.3107712,1.1342795,1.3612256,-0.45329806,-0.25237432,1.0384501,0.013551336,-1.8676589,0.5402744,-0.017133374,0.21372372,-0.17583406,1.2726185,1.2562726
-0.2,0.10000000000000003,1.1999999999999997,0.5235987755982988,-0.5235987755982988,0,1.3104225,1.1324358,1.3578275,-0.45080066,-0.0590162,1.0584621,0.58604914,-1.8851976,0.5387637,-0.005881939,0.22219853,-0.18750432,1.2711127,1.2967632
-0.2,0.10000000000000003,1.1999999999999997,0.5235987755982988,-0.5235987755982988,0,1.3109444,1.1322465,1.3605279,-0.45134628,-0.074915975,1.0826604,-0.13032289,-1.8741633,0.5334635,-0.002864165,0.22094743,-0.18902089,1.2862308,1.283938
-0.2,0.10000000000000003,1.1999999999999997,0.5235987755982988,-0.5235987755982988,0,1.3107461,1.1328561,1.3649998,-0.453301,-0.0892491,1.0680084,-0.23383445,-1.8741165,0.54717934,-0.016264923,0.22564283,-0.19260137,1.303323,1.2673907
-0.2,0.10000000000000003,1.1999999999999997,0.5235987755982988,-0.5235987755982988,0,1.3101174,1.1324003,1.3570948,-0.45224556,-0.03756128,1.012534,0.6674609,-1.8790525,0.5523773,-0.012059821,0.21455532,-0.18540959,1.2530171,1.2889374
-0.2,0.10000000000000003,1.1999999999999997,0.5235987755982988,-0.5235987755982988,0,1.310492,1.13351,1.3639488,-0.45095775,0.00962937,1.0886023,0.37977535,-1.8708036,0.5403057,-0.0070668906,0.21033084,-0.17532821,1.2721312,1.2708925
-0.2,0.10000000000000003,1.1999999999999997,0.5235987755982988,-0.5235987755982988,0,1.3111771,1.1330513,1.3572842,-0.45246905,-0.06676293,1.0137246,1.0657874,-1.8756891,0.54153866,-0.0028531158,0.20314515,-0.18433937,1.3032974,1.3223372
-0.2,0.10000000000000003,1.1999999999999997,0.5235987755982988,-0.5235987755982988,0,1.3106879,1.1332276,1.3633004,-0.45410773,0.012336366,1.097071,0.5488718,-1.8695188,0.54308206,0.0002227934,0.2021693,-0.18714997,1.2879564,1.2657257
-0.2,0.10000000000000003,1.1999999999999997,0.5235987755982988,-0.5235987755982988,0,1.3108562,1.1330054,1.3583105,-0.45335147,-0.10181449,1.0409853,-0.2776769,-1.871862,0.54758555,0.008873701,0.21471572,-0.1890871,1.2603257,1.1698103
-0.2,0.10000000000000003,1.1999999999999997,0.5235987755982988,-0.5235987755982988,0,1.310092,1.1331393,1.3566021,-0.45230374,-0.052462354,1.0975275,0.61761296,-1.8721439,0.5496307,-0.024513012,0.21449344,-0.19056974,1.2778733,1.2765492
-0.2,0.10000000000000003,1.1999999999999997,0.5235987755982988,-0.5235987755982988,0,1.31058,1.1329305,1.3616087,-0.45144743,0.041474942,1.0501603,-0.5341264,-1.8893405,0.5380419,-0.0272413,0.21704513,-0.18628487,1.2793171,1.2970755
-0.2,0.10000000000000003,1.1999999999999997,0.5235987755982988,-0.5235987755982988,0,1.3101096,1.1344241,1.3568655,-0.45237824,0.022526631,1.0752574,0.089991845,-1.8763888,0.5440961,-0.004681974,0.22193226,-0.18787202,1.2949358,1.2485905
-0.2,0.10000000000000003,1.1999999999999997,0.5235987755982988,-0.5235987755982988,0,1.310028,1.1337082,1.3635118,-0.44992626,-0.009632296,1.0610415,-0.24342395,-1.8882715,0.55405957,-0.009174876,0.19297586,-0.1848426,1.2664666,1.2252145
-0.2,0.10000000000000003,1.1999999999999997,0.5235987755982988,-0.5235987755982988,0,1.3101906,1.1329336,1.365846,-0.45560467,-0.07837163,1.0352415,-0.05563818,-1.867672,0.5428724,-0.01756329,0.20840879,-0.17517328,1.2965578,1.3178154
-0.2,0.10000000000000003,1.1999999999999997,0.5235987755982988,-0.5235987755982988,0,1.3095021,1.131955,1.3585095,-0.45074347,-0.017860057,1.0229707,0.00025817525,-1.8737831,0.54846066,-0.0023257819,0.21699585,-0.17836855,1.2795459,1.2359622
-0.2,0.10000000000000003,1.1999999999999997,0.5235987755982988,-0.5235987755982988,0,1.3101805,1.1332092,1.3583169,-0.45118046,-0.1130866,0.92801714,0.18861584,-1.8701317,0.5480711,-0.0057090186,0.21785113,-0.18375932,1.3082939,1.2675855
-0.2,0.10000000000000003,1.1999999999999997,0.5235987755982988,-0.5235987755982988,0,1.3107921,1.1318473,1.368103,-0.45257023,0.057754803,1.0106041,0.42594418,-1.8762364,0.54204684,-0.015539491,0.21216363,-0.20185308,1.3024478,1.3450093
-0.2,0.10000000000000003,1.1999999999999997,0.5235987755982988,-0.5235987755982988,0,1.3103542,1.1332816,1.3571355,-0.45113292,-0.07436254,1.0425166,0.600497,-1.8796164,0.53331566,-0.007888897,0.21742824,-0.18837766,1.2740855,1.2810673
-0.2,0.10000000000000003,1.1999999999999997,0.5235987755982988,-0.5235987755982988,0,1.3105246,1.1331385,1.3597906,-0.45198566,0.030053739,1.0046831,0.2334877,-1.8749992,0.5421407,-0.01200686,0.203459,-0.19373657,1.2652944,1.2359072
-0.2,0.10000000000000003,1.1999999999999997,0.5235987755982988,-0.5235987755982988,0,1.3105065,1.1326085,1.363952,-0.4512381,-0.0055479985,1.0389782,0.30462044,-1.8767829,0.5285718,-0.0020215437,0.21134788,-0.18444383,1.2770257,1.3537834
-0.2,0.10000000000000003,1.1999999999999997,0.5235987755982988,-0.5235987755982988,0,1.3106114,1.1324737,1.3549329,-0.4492421,0.015535423,1.0416054,0.8165665,-1.8775601,0.5309887,-0.011003636,0.22046252,-0.18741383,1.2841712,1.2576035
-0.2,0.10000000000000003,1.1999999999999997,0.5235987755982988,-0.5235987755982988,0,1.3097705,1.1329925,1.3649044,-0.45193076,0.072060086,1.0561768,0.6226681,-1.8699794,0.5527084,0.006386681,0.2055261,-0.19149871,1.2834553,1.2916214
-0.2,0.10000000000000003,1.1999999999999997,0.5235987755982988,-0.5235987755982988,0,1.3092204,1.1329811,1.3571874,-0.45085236,-0.10933092,1.0081612,-0.3977862,-1.8784207,0.55567926,-0.015418547,0.2125297,-0.18811107,1.2881471,1.2982754
-0.2,0.10000000000000003,1.1999999999999997,0.5235987755982988,-0.5235987755982988,0,1.3098196,1.1318604,1.3618238,-0.45190716,0.008904129,1.0261081,-0.27451196,-1.8706768,0.5306856,-0.010119737,0.21211766,-0.18495862,1.2861722,1.329625
-0.2,0.10000000000000003,1.1999999999999997,0.5235987755982988,-0.5235987755982988,0,1.3101561,1.1324185,1.3585796,-0.45323113,-0.027818842,1.0108036,0.13161768,-1.8806598,0.53895175,-0.017618977,0.20505752,-0.18140493,1.2995175,1.2631332
-0.2,0.10000000000000003,1.1999999999999997,0.5235987755982988,-0.5235987755982988,0,1.310331,1.1324029,1.3525459,-0.45294374,-0.022017587,1.0606014,0.93366253,-1.8635163,0.54368514,-0.011175301,0.20696004,-0.19143711,1.2859492,1.262877
-0.2,0.10000000000000003,1.1999999999999997,0.5235987755982988,-0.5235987755982988,0,1.3095945,1.1337771,1.3671162,-0.45041305,-0.05007073,1.0306802,0.028633589,-1.8891598,0.54772973,-0.006260162,0.21448134,-0.19377267,1.2827568,1.2413917
-0.2,0.10000000000000003,1.1999999999999997,0.5235987755982988,-0.5235987755982988,0,1.3103393,1.1330185,1.3564991,-0.45261434,-0.1838727,1.0584328,-1.6154523,-1.8592994,0.5436521,-0.02012887,0.21940291,-0.1784134,1.2838199,1.2609653
-0.2,0.10000000000000003,1.1999999999999997,0.5235987755982988,-0.5235987755982988,0,1.3095762,1.1319182,1.3683156,-0.4534805,-0.022807948,1.0530441,-0.35013932,-1.8811992,0.5483616,-0.0044783186,0.21394673,-0.19362168,1.2716653,1.2404182
-0.2,0.10000000000000003,1.1999999999999997,0.5235987755982988,-0.5235987755982988,0,1.3096701,1.1322376,1.3602455,-0.4518089,-0.07437488,1.0970036,1.0043474,-1.8739269,0.53819203,-0.0064961934,0.21431844,-0.1869419,1.2745603,1.3248502
-0.2,0.10000000000000003,1.1999999999999997,0.5235987755982988,-0.5235987755982988,0,1.310863,1.1325175,1.3622977,-0.45171124,-0.09263649,1.0837942,0.16578653,-1.863682,0.5395331,-0.0049971766,0.2106969,-0.1945027,1.2846674,1.3094598
-0.2,0.10000000000000003,1.1999999999999997,0.5235987755982988,-0.5235987755982988,0,1.3104954,1.1334636,1.3611286,-0.45318416,-0.034469776,1.0307835,-0.85102993,-1.8798945,0.5419421,-0.00191737,0.20731194,-0.18671672,1.2937639,1.2381161
-0.2,0.10000000000000003,1.1999999999999997,0.5235987755982988,-0.5235987755982988,0,1.310232,1.1324345,1.37497,-0.4518225,-0.08726953,1.0049088,0.092621215,-1.8878206,0.5601178,0.00058986695,0.2102379,-0.18187843,1.2807038,1.3141927
