sanky1234/BimanualDexCatch/isaacgymenvs/cem_results/football_pose_0.0_0.1_0.8999999999999999_-0.5235987755982988_-0.5235987755982988_0_2025-05-26.csv
x,y,z,roll,pitch,yaw,robot1/joint1,robot1/joint2,robot1/joint3,robot1/joint4,robot1/joint5,robot1/joint6,robot1/joint7,robot2/joint1,robot2/joint2,robot2/joint3,robot2/joint4,robot2/joint5,robot2/joint6,robot2/joint7
0.0,0.1,0.8999999999999999,-0.5235987755982988,-0.5235987755982988,0,-0.67412215,-0.53477633,-2.840102,0.4190685,-0.059782825,1.2905178,0.21626577,0.16658692,-1.1536065,-2.3335268,-0.060174957,-0.06014558,1.2246885,-0.84965223
0.0,0.1,0.8999999999999999,-0.5235987755982988,-0.5235987755982988,0,-0.6738096,-0.5344721,-2.8854518,0.41632706,-0.06515433,1.2902313,0.10983842,0.17828931,-1.1519388,-2.252044,-0.03908483,-0.00081532507,1.2105497,0.88779664
0.0,0.1,0.8999999999999999,-0.5235987755982988,-0.5235987755982988,0,-0.67423683,-0.534412,-2.876397,0.41838044,-0.103005,1.2873142,0.27352765,0.17047755,-1.1490486,-2.3620555,-0.026594087,0.056835715,1.1499903,-1.2985785
0.0,0.1,0.8999999999999999,-0.5235987755982988,-0.5235987755982988,0,-0.67461824,-0.53434545,-2.8286586,0.4200823,-0.10960394,1.2933531,0.16275626,0.1583314,-1.1773064,-2.3712125,-0.12851444,-0.021192348,1.2527872,-1.0122648
0.0,0.1,0.8999999999999999,-0.5235987755982988,-0.5235987755982988,0,-0.67443395,-0.53448486,-2.8609567,0.41898048,-0.066639274,1.2932001,0.21508266,0.16987908,-1.1744338,-2.4151256,-0.048114613,0.0979186,1.0897772,-0.7876647
0.0,0.1,0.8999999999999999,-0.5235987755982988,-0.5235987755982988,0,-0.67400396,-0.53435034,-2.8505094,0.42097467,-0.08290554,1.3106817,0.11485512,0.16757911,-1.1585548,-2.3355637,-0.042450264,-0.018609464,1.1264147,-1.2318895
0.0,0.1,0.8999999999999999,-0.5235987755982988,-0.5235987755982988,0,-0.6742143,-0.5346915,-2.8731456,0.41748777,-0.10698503,1.2960985,0.12622485,0.16500223,-1.1767739,-2.314385,-0.057188157,0.037905093,1.1749573,-1.2220746
0.0,0.1,0.8999999999999999,-0.5235987755982988,-0.5235987755982988,0,-0.6737112,-0.5342273,-2.864052,0.41808075,-0.032666966,1.29516,0.31037822,0.1961945,-1.1590372,-2.2672496,-0.117838964,0.0029209403,1.1979457,-0.4548909
0.0,0.1,0.8999999999999999,-0.5235987755982988,-0.5235987755982988,0,-0.67484456,-0.53416777,-2.8451362,0.41152027,-0.09567381,1.3075691,0.1833207,0.16873118,-1.1364762,-2.430324,-0.09283944,0.10767656,1.1291142,-0.9997113
0.0,0.1,0.8999999999999999,-0.5235987755982988,-0.5235987755982988,0,-0.67442155,-0.5346205,-2.8862288,0.41510433,-0.0863192,1.2929742,0.21986857,0.17709473,-1.1831517,-2.1933024,-0.034476634,0.005333988,1.2417206,-1.2615603
0.0,0.1,0.8999999999999999,-0.5235987755982988,-0.5235987755982988,0,-0.6744433,-0.53405964,-2.893668,0.41956186,-0.08339971,1.3042603,0.20411754,0.1702877,-1.1777674,-2.214092,-0.026986476,-0.13642202,1.2312703,0.407155
0.0,0.1,0.8999999999999999,-0.5235987755982988,-0.5235987755982988,0,-0.6737367,-0.53480065,-2.8557994,0.4130679,-0.07498935,1.2987434,0.1371754,0.17614967,-1.1668005,-2.2914655,-0.03422855,-0.09374548,1.1853888,-0.9086355
0.0,0.1,0.8999999999999999,-0.5235987755982988,-0.5235987755982988,0,-0.6741719,-0.53427327,-2.8590536,0.4175237,-0.056616105,1.2864287,0.14552335,0.18795481,-1.1787169,-2.3258233,-0.07127245,-0.22633111,1.1736944,-1.6959453
0.0,0.1,0.8999999999999999,-0.5235987755982988,-0.5235987755982988,0,-0.6733133,-0.53400534,-2.8817248,0.41621512,-0.08142893,1.2918428,0.20290561,0.16490403,-1.1565425,-2.3059876,-0.1685061,0.19708952,1.1598959,-0.5880718
0.0,0.1,0.8999999999999999,-0.5235987755982988,-0.5235987755982988,0,-0.6745034,-0.53451514,-2.8342757,0.41434655,-0.07933201,1.2852497,0.11250043,0.19669771,-1.1637734,-2.3975592,-0.10692178,0.040544063,1.2503492,-1.1560031
0.0,0.1,0.8999999999999999,-0.5235987755982988,-0.5235987755982988,0,-0.67462677,-0.5343224,-2.8707898,0.41701835,-0.05067416,1.289782,0.16894406,0.17093931,-1.1854476,-2.3309386,-0.15286048,-0.12830254,1.2232103,0.19452007
0.0,0.1,0.8999999999999999,-0.5235987755982988,-0.5235987755982988,0,-0.67470497,-0.5344839,-2.9028208,0.41282344,-0.039575916,1.3026165,0.10550645,0.17308637,-1.1776155,-2.1984751,-0.059832115,0.018937344,1.2701916,0.5083781
0.0,0.1,0.8999999999999999,-0.5235987755982988,-0.5235987755982988,0,-0.67377174,-0.5344835,-2.8740504,0.4198211,-0.06242062,1.2955272,0.13443522,0.14644156,-1.1537596,-2.3221183,-0.14055817,-0.12556894,1.2187839,-0.44509572
0.0,0.1,0.8999999999999999,-0.5235987755982988,-0.5235987755982988,0,-0.67440754,-0.5349782,-2.858578,0.41601646,-0.10421532,1.2983547,0.24496657,0.15603016,-1.164527,-2.3930674,-0.100443475,-0.01596894,1.215502,-0.506593
0.0,0.1,0.8999999999999999,-0.5235987755982988,-0.5235987755982988,0,-0.6744935,-0.5343131,-2.8829098,0.42103285,-0.045219004,1.3001875,0.21913208,0.17051814,-1.159982,-2.2685049,-0.067916475,-0.015397258,1.1778767,-0.81811035
0.0,0.1,0.8999999999999999,-0.5235987755982988,-0.5235987755982988,0,-0.67499286,-0.5341266,-2.895726,0.4122372,-0.04282443,1.2916601,0.20019591,0.16625363,-1.1809309,-2.3019328,-0.07352883,0.1275723,1.1719456,0.2993938
0.0,0.1,0.8999999999999999,-0.5235987755982988,-0.5235987755982988,0,-0.67338014,-0.53447425,-2.8643572,0.41381732,-0.060941566,1.2967364,0.24922271,0.19548157,-1.1568469,-2.3239508,-0.07038216,-0.060547665,1.2459075,0.05428087
0.0,0.1,0.8999999999999999,-0.5235987755982988,-0.5235987755982988,0,-0.6735159,-0.5341555,-2.8549829,0.4191152,-0.09653231,1.2937932,0.14743659,0.16891094,-1.1576954,-2.268678,-0.05857815,0.038547833,1.1891054,-0.7017859
0.0,0.1,0.8999999999999999,-0.5235987755982988,-0.5235987755982988,0,-0.6737228,-0.53423977,-2.8639517,0.41636652,-0.08842113,1.3146251,0.17336817,0.15770774,-1.1527178,-2.2691603,-0.15575498,0.1776419,1.2392062,-0.35866994
0.0,0.1,0.8999999999999999,-0.5235987755982988,-0.5235987755982988,0,-0.67449534,-0.53451276,-2.8901532,0.41645026,-0.0608478,1.2924237,0.15851158,0.1845159,-1.1634192,-2.3645132,-0.050432295,0.009218831,1.134711,0.11519251
0.0,0.1,0.8999999999999999,-0.5235987755982988,-0.5235987755982988,0,-0.674427,-0.53438616,-2.8727238,0.41510105,-0.08766154,1.3045269,0.1453445,0.18278997,-1.1733063,-2.3043492,-0.067374356,0.01100115,1.1788191,-0.8583116
0.0,0.1,0.8999999999999999,-0.5235987755982988,-0.5235987755982988,0,-0.674435,-0.5347261,-2.8477724,0.41445562,-0.090739064,1.2983816,0.10395899,0.16922691,-1.172367,-2.3112042,-0.047742233,-0.09141908,1.2452477,0.08263863
0.0,0.1,0.8999999999999999,-0.5235987755982988,-0.5235987755982988,0,-0.6729158,-0.5341807,-2.8793252,0.4181207,-0.09753852,1.284843,0.1007135,0.18053384,-1.1808325,-2.1382284,-0.11161203,0.008054339,1.1938117,-0.17612351
0.0,0.1,0.8999999999999999,-0.5235987755982988,-0.5235987755982988,0,-0.67364746,-0.5342991,-2.8706248,0.41866902,-0.0834226,1.3023707,0.13057838,0.156827,-1.1668016,-2.2602382,-0.03725947,0.021640752,1.1036918,-1.3940122
0.0,0.1,0.8999999999999999,-0.5235987755982988,-0.5235987755982988,0,-0.67456263,-0.5344526,-2.8844538,0.41756818,-0.0636961,1.2893621,0.14551991,0.17479385,-1.1923581,-2.334949,-0.08775501,0.11952085,1.1332167,0.11181741
0.0,0.1,0.8999999999999999,-0.5235987755982988,-0.5235987755982988,0,-0.67481136,-0.5345598,-2.8989594,0.41271347,-0.05820831,1.2898096,0.2065405,0.16705103,-1.1564019,-2.347094,-0.06665975,0.13864684,1.1951056,-0.35881504
0.0,0.1,0.8999999999999999,-0.5235987755982988,-0.5235987755982988,0,-0.6743569,-0.53500897,-2.841566,0.41786787,-0.1012199,1.29465,0.13117197,0.17917855,-1.1682353,-2.4245923,-0.096321404,-0.06529523,1.2939707,-0.8253245
0.0,0.1,0.8999999999999999,-0.5235987755982988,-0.5235987755982988,0,-0.67420435,-0.53402144,-2.8893156,0.41535634,-0.061533757,1.2992691,0.16568407,0.16406766,-1.1688452,-2.1848798,-0.11624324,0.01263568,1.2826015,-0.5286176
0.0,0.1,0.8999999999999999,-0.5235987755982988,-0.5235987755982988,0,-0.67445976,-0.53468317,-2.893624,0.41689718,-0.05909712,1.3071015,0.1966683,0.17176768,-1.1590912,-2.324153,-0.053378895,0.24208422,1.2065072,-0.6928969
0.0,0.1,0.8999999999999999,-0.5235987755982988,-0.5235987755982988,0,-0.6740964,-0.53443027,-2.8681366,0.41602677,-0.0753325,1.2920251,0.069575034,0.16954078,-1.1760279,-2.271747,-0.09920944,0.26360756,1.26096,-0.466289
0.0,0.1,0.8999999999999999,-0.5235987755982988,-0.5235987755982988,0,-0.67482513,-0.53429997,-2.8652768,0.42029053,-0.04945427,1.2960862,0.26239935,0.16774724,-1.1843542,-2.3265557,-0.021912482,0.0895656,1.3049445,-0.67087895
0.0,0.1,0.8999999999999999,-0.5235987755982988,-0.5235987755982988,0,-0.6750462,-0.5344784,-2.8526886,0.4171217,-0.045265097,1.2987586,0.16456649,0.16505842,-1.1361927,-2.4959674,-0.09971498,-0.117221884,1.3423191,-0.90587723
0.0,0.1,0.8999999999999999,-0.5235987755982988,-0.5235987755982988,0,-0.6751232,-0.5339299,-2.8507018,0.42106247,-0.11629033,1.2958136,0.24216174,0.17213243,-1.1592551,-2.5158994,-0.033714168,-0.17177397,1.2186624,-0.1946744
0.0,0.1,0.8999999999999999,-0.5235987755982988,-0.5235987755982988,0,-0.6749761,-0.5343797,-2.9063752,0.41891325,-0.09653033,1.2867754,0.3019945,0.17690058,-1.1679497,-2.3119144,-0.051471084,-0.033223767,1.1935271,0.18229257
0.0,0.1,0.8999999999999999,-0.5235987755982988,-0.5235987755982988,0,-0.6741534,-0.5342869,-2.8922868,0.41248694,-0.08806257,1.2979425,0.15056494,0.18210204,-1.1611736,-2.321208,-0.06556526,0.13193987,1.2053559,-1.6517739
0.0,0.1,0.8999999999999999,-0.5235987755982988,-0.5235987755982988,0,-0.674052,-0.53420067,-2.871245,0.41546705,-0.063327044,1.3005207,0.16159412,0.16507168,-1.1702543,-2.2248616,-0.057236526,-0.03855396,1.1931723,0.035959292
0.0,0.1,0.8999999999999999,-0.5235987755982988,-0.5235987755982988,0,-0.6748637,-0.5341871,-2.880395,0.41787535,0.0036907487,1.2932991,0.2177388,0.16801564,-1.1516439,-2.394067,-0.04014988,-0.15160358,1.1980265,0.46374288
0.0,0.1,0.8999999999999999,-0.5235987755982988,-0.5235987755982988,0,-0.67435974,-0.53378475,-2.8464353,0.41428545,-0.04567265,1.3106381,0.1553852,0.18622226,-1.1717031,-2.2662983,-0.057323392,-0.018420145,1.1971457,-0.42360035
0.0,0.1,0.8999999999999999,-0.5235987755982988,-0.5235987755982988,0,-0.67401075,-0.534549,-2.863145,0.41284785,-0.08651418,1.298646,0.09960825,0.18210874,-1.166034,-2.3943317,-0.036248475,0.07355213,1.2871963,-0.06830582
0.0,0.1,0.8999999999999999,-0.5235987755982988,-0.5235987755982988,0,-0.67389834,-0.53389853,-2.8549478,0.41832852,-0.08179817,1.2955086,0.18677701,0.17633879,-1.1532599,-2.337141,-0.08645578,0.14538987,1.2347697,-0.47471127
0.0,0.1,0.8999999999999999,-0.5235987755982988,-0.5235987755982988,0,-0.6743277,-0.53382534,-2.857996,0.41960287,-0.062346272,1.2838135,0.21394013,0.14729725,-1.1750858,-2.306669,-0.09749955,-0.12923288,1.2145438,0.63542515
0.0,0.1,0.8999999999999999,-0.5235987755982988,-0.5235987755982988,0,-0.6739198,-0.53458446,-2.8755362,0.41757503,-0.11260699,1.299836,0.20578401,0.16603604,-1.156599,-2.3154283,-0.083258584,0.009678952,1.3442843,0.20676227
0.0,0.1,0.8999999999999999,-0.5235987755982988,-0.5235987755982988,0,-0.6735414,-0.53412217,-2.824116,0.4172853,-0.05624976,1.3044163,0.18313228,0.18141589,-1.163101,-2.3697896,-0.06802274,0.020552058,1.1337966,-1.785733
0.0,0.1,0.8999999999999999,-0.5235987755982988,-0.5235987755982988,0,-0.6740499,-0.53465754,-2.8829799,0.41879576,-0.1251249,1.2971615,0.16482487,0.20454183,-1.1570697,-2.3473353,-0.038676895,-0.052812792,1.3177028,-0.5401071
0.0,0.1,0.8999999999999999,-0.5235987755982988,-0.5235987755982988,0,-0.674431,-0.53378016,-2.876613,0.41889527,-0.06926937,1.2958707,0.21480767,0.17840315,-1.1606493,-2.3537912,-0.014879992,-0.033737864,1.2303765,0.65254277
0.0,0.1,0.8999999999999999,-0.5235987755982988,-0.5235987755982988,0,-0.67394334,-0.53432685,-2.8320022,0.41755491,-0.079539545,1.3021784,0.12970874,0.15822448,-1.1854982,-2.3165703,-0.07726667,-0.0011109443,1.247322,-0.17986554
0.0,0.1,0.8999999999999999,-0.5235987755982988,-0.5235987755982988,0,-0.6743772,-0.53459793,-2.865158,0.42079923,-0.071174525,1.3120368,0.19543111,0.16702835,-1.1672572,-2.4695673,-0.14038227,0.15339857,1.2421694,-0.5328771
0.0,0.1,0.8999999999999999,-0.5235987755982988,-0.5235987755982988,0,-0.67425656,-0.53437924,-2.9058669,0.41315928,-0.05148599,1.2928041,0.12819521,0.16536525,-1.1635683,-2.455218,0.034136932,0.14985362,1.2097942,-0.5775746
0.0,0.1,0.8999999999999999,-0.5235987755982988,-0.5235987755982988,0,-0.6737419,-0.5344565,-2.8833492,0.41642454,-0.09181348,1.291177,0.26950383,0.16365312,-1.1717043,-2.4049423,-0.057879314,0.017579507,1.131027,-0.30663115
0.0,0.1,0.8999999999999999,-0.5235987755982988,-0.5235987755982988,0,-0.67456937,-0.53383297,-2.8418765,0.41889432,-0.04942192,1.3019024,0.06064876,0.17607667,-1.1587254,-2.4406362,-0.08005957,-0.040748324,1.2275081,-0.18703286
0.0,0.1,0.8999999999999999,-0.5235987755982988,-0.5235987755982988,0,-0.674414,-0.53435737,-2.8569026,0.41756,-0.08607506,1.2891486,0.23754132,0.17553505,-1.1534916,-2.424351,-0.06664836,0.14038028,1.235035,-1.1019932
0.0,0.1,0.8999999999999999,-0.5235987755982988,-0.5235987755982988,0,-0.67434007,-0.5343495,-2.9115362,0.41517594,-0.06888093,1.2895149,0.15476914,0.18332961,-1.1716213,-2.3756742,-0.07455724,-0.18592629,1.1090127,-0.8587701
0.0,0.1,0.8999999999999999,-0.5235987755982988,-0.5235987755982988,0,-0.67408687,-0.5344441,-2.9096446,0.42023152,-0.09473266,1.3079046,0.13472952,0.1794229,-1.1508561,-2.3766403,-0.004704916,-0.2512964,1.208083,-1.0538925
0.0,0.1,0.8999999999999999,-0.5235987755982988,-0.5235987755982988,0,-0.6744102,-0.5345095,-2.8999486,0.41329068,-0.10073496,1.2868322,0.13126463,0.17835642,-1.1853325,-2.25351,-0.05872494,-0.004052323,1.2277062,-0.6289312
0.0,0.1,0.8999999999999999,-0.5235987755982988,-0.5235987755982988,0,-0.67486787,-0.5342168,-2.8369074,0.4150089,-0.0677684,1.2977345,0.112745084,0.18206948,-1.1759139,-2.4519675,-0.08553156,-0.041281622,1.1452261,-0.15748507
0.0,0.1,0.8999999999999999,-0.5235987755982988,-0.5235987755982988,0,-0.6737315,-0.53447914,-2.8800013,0.41315785,-0.07905405,1.2905339,0.23283024,0.15915456,-1.1712624,-2.2816148,-0.061384477,0.12531762,1.2840999,-1.0191219
0.0,0.1,0.8999999999999999,-0.5235987755982988,-0.5235987755982988,0,-0.6738121,-0.53416544,-2.8600173,0.41811687,-0.06266704,1.2852814,0.2697215,0.17954361,-1.1549903,-2.351958,-0.07000698,-0.025489809,1.2100114,0.11310031
0.0,0.1,0.8999999999999999,-0.5235987755982988,-0.5235987755982988,0,-0.67290515,-0.5346183,-2.8598979,0.41566554,-0.011619523,1.2961015,0.24081998,0.1583326,-1.164176,-2.3736508,-0.07335337,0.017466895,1.1140623,-1.1373156
0.0,0.1,0.8999999999999999,-0.5235987755982988,-0.5235987755982988,0,-0.6750458,-0.53441197,-2.8958163,0.41777167,-0.05165239,1.2906396,0.17930865,0.16498305,-1.1759028,-2.4405835,-0.13105062,0.061790787,1.1923296,-0.253589
0.0,0.1,0.8999999999999999,-0.5235987755982988,-0.5235987755982988,0,-0.6740643,-0.5340107,-2.8525207,0.416636,-0.06520786,1.2976305,0.22859491,0.15511025,-1.1788323,-2.40835,-0.17822075,0.009680857,1.248096,0.030864624
0.0,0.1,0.8999999999999999,-0.5235987755982988,-0.5235987755982988,0,-0.6742673,-0.5342276,-2.9117377,0.4229809,-0.08522669,1.3015666,0.18687566,0.16651908,-1.1562788,-2.39655,-0.080084294,0.09159065,1.260868,0.7735063
0.0,0.1,0.8999999999999999,-0.5235987755982988,-0.5235987755982988,0,-0.6734438,-0.5339931,-2.8723586,0.4136045,-0.067458265,1.2883714,0.2155165,0.18341309,-1.1725434,-2.29486,-0.104474775,0.022544725,1.1719782,-0.023896752
0.0,0.1,0.8999999999999999,-0.5235987755982988,-0.5235987755982988,0,-0.67454016,-0.5338629,-2.9171705,0.41787627,-0.08775431,1.2867517,0.31505325,0.19167373,-1.1644086,-2.329191,-0.073198535,-0.0494062,1.2327507,-1.7167127
0.0,0.1,0.8999999999999999,-0.5235987755982988,-0.5235987755982988,0,-0.67384356,-0.53409106,-2.863929,0.41620508,-0.051545706,1.3089784,0.2062671,0.16050899,-1.1729518,-2.3034258,-0.114078954,0.08657672,1.2691901,-0.39008242
0.0,0.1,0.8999999999999999,-0.5235987755982988,-0.5235987755982988,0,-0.6745313,-0.5339257,-2.8430784,0.41974485,-0.08681197,1.2989578,0.16550377,0.1658807,-1.1774437,-2.4071264,-0.084718026,0.053684045,1.250212,-1.0511124
0.0,0.1,0.8999999999999999,-0.5235987755982988,-0.5235987755982988,0,-0.6738134,-0.5344711,-2.9034758,0.4133563,-0.059536256,1.2907032,0.088495746,0.17327619,-1.1589946,-2.328581,-0.05751557,-0.059164308,1.1544614,-0.22562452
0.0,0.1,0.8999999999999999,-0.5235987755982988,-0.5235987755982988,0,-0.6740944,-0.53395736,-2.867465,0.4155994,-0.07293851,1.2864147,0.22139722,0.17920986,-1.171841,-2.3442876,-0.07217352,-0.090516314,1.2903472,0.22236036
0.0,0.1,0.8999999999999999,-0.5235987755982988,-0.5235987755982988,0,-0.6736624,-0.534165,-2.8857634,0.41251546,-0.06827503,1.3070675,0.08948939,0.19219956,-1.178294,-2.3118424,-0.043530166,0.019598601,1.1482897,-0.09336775
0.0,0.1,0.8999999999999999,-0.5235987755982988,-0.5235987755982988,0,-0.674443,-0.5342407,-2.8862598,0.41707063,-0.088630974,1.2980784,0.28612393,0.18411429,-1.1773994,-2.3569553,-0.06760386,0.061180312,1.2080967,-1.2769997
0.0,0.1,0.8999999999999999,-0.5235987755982988,-0.5235987755982988,0,-0.6745697,-0.5338231,-2.856654,0.4227236,-0.06514407,1.3073336,0.108069435,0.17878126,-1.1690644,-2.3802235,-0.059150044,0.01064432,1.2970322,0.3115488
0.0,0.1,0.8999999999999999,-0.5235987755982988,-0.5235987755982988,0,-0.6742356,-0.53441536,-2.9225187,0.41646123,-0.11352378,1.2991607,0.15992324,0.17644402,-1.1748488,-2.413851,-0.14207612,0.08752948,1.150627,-1.008591
0.0,0.1,0.8999999999999999,-0.5235987755982988,-0.5235987755982988,0,-0.6739042,-0.53457767,-2.8787,0.41778278,-0.07917089,1.2973639,0.21387187,0.1746153,-1.1778294,-2.409457,-0.016396655,0.1544299,1.2879021,-0.37240535
0.0,0.1,0.8999999999999999,-0.5235987755982988,-0.5235987755982988,0,-0.67342544,-0.53440326,-2.8706806,0.4169377,-0.07655183,1.3066807,0.22675551,0.15955292,-1.176639,-2.237366,-0.06339723,0.042122383,1.2355263,-0.390126
0.0,0.1,0.8999999999999999,-0.5235987755982988,-0.5235987755982988,0,-0.67376685,-0.5341367,-2.889686,0.4184604,-0.070616186,1.2901869,0.04821881,0.18546431,-1.1614546,-2.4271421,-0.07468862,-0.046284765,1.1381783,-1.4521827
0.0,0.1,0.8999999999999999,-0.5235987755982988,-0.5235987755982988,0,-0.6749033,-0.5339901,-2.8761942,0.41519362,-0.08434873,1.3005307,0.21147618,0.18927485,-1.1647173,-2.4290187,-0.103709415,0.114843845,1.1627215,-1.3254222
0.0,0.1,0.8999999999999999,-0.5235987755982988,-0.5235987755982988,0,-0.67434555,-0.53384155,-2.9012094,0.4140049,-0.05001711,1.2890888,0.085126966,0.18196166,-1.1581695,-2.2447062,-0.0116101,-0.10829577,1.2490803,-0.44121748
0.0,0.1,0.8999999999999999,-0.5235987755982988,-0.5235987755982988,0,-0.6742206,-0.5344693,-2.8790693,0.41693455,-0.08574396,1.3037949,0.13672413,0.16260412,-1.1629205,-2.373062,-0.12586932,-0.09387504,1.2419,-1.5569553
0.0,0.1,0.8999999999999999,-0.5235987755982988,-0.5235987755982988,0,-0.6738482,-0.5348324,-2.871348,0.4167905,-0.058247805,1.2890627,0.18820907,0.18126757,-1.187199,-2.4179823,-0.0708432,-0.03777704,1.1662167,-0.7066101
0.0,0.1,0.8999999999999999,-0.5235987755982988,-0.5235987755982988,0,-0.67364377,-0.5346605,-2.8494067,0.42116618,-0.05175544,1.2980281,0.23206799,0.1816993,-1.1608583,-2.5229967,-0.09036344,0.18618038,1.195502,-0.7307983
0.0,0.1,0.8999999999999999,-0.5235987755982988,-0.5235987755982988,0,-0.6736024,-0.53458524,-2.8489392,0.4199966,-0.09231896,1.3024181,0.1780248,0.16135281,-1.1616453,-2.3959737,-0.026950996,0.037173465,1.2046613,-0.79496926
0.0,0.1,0.8999999999999999,-0.5235987755982988,-0.5235987755982988,0,-0.67334634,-0.5341027,-2.8713865,0.42055154,-0.0928862,1.283469,0.13365567,0.17388639,-1.2010896,-2.2548795,-0.08033033,0.0671658,1.1887552,-1.4842054
0.0,0.1,0.8999999999999999,-0.5235987755982988,-0.5235987755982988,0,-0.6737025,-0.5340918,-2.8663142,0.4181516,-0.04867259,1.2993563,0.22406738,0.17237046,-1.1651545,-2.330122,-0.15096208,-0.08601761,1.251801,-0.9087332
0.0,0.1,0.8999999999999999,-0.5235987755982988,-0.5235987755982988,0,-0.673747,-0.5341927,-2.8799274,0.4170468,-0.10933177,1.3055159,0.22491369,0.15439695,-1.1626863,-2.3765063,-0.10706325,-0.010004808,1.2048503,0.5055213
0.0,0.1,0.8999999999999999,-0.5235987755982988,-0.5235987755982988,0,-0.67357385,-0.5343301,-2.8680613,0.41927177,-0.07370409,1.3081399,0.20255686,0.16922392,-1.1650896,-2.332727,-0.04809599,0.13955449,1.1839141,0.37579313
0.0,0.1,0.8999999999999999,-0.5235987755982988,-0.5235987755982988,0,-0.6748117,-0.53413105,-2.8486009,0.41953182,-0.059189767,1.2980325,0.18142432,0.17166725,-1.1709188,-2.492598,-0.09259196,-0.07886831,1.2398944,-1.2120109
0.0,0.1,0.8999999999999999,-0.5235987755982988,-0.5235987755982988,0,-0.6739127,-0.5344508,-2.9076362,0.41237542,-0.09395799,1.2954513,0.13772236,0.18806158,-1.1680963,-2.348655,-0.120045304,0.15671337,1.2340589,-0.43712524
0.0,0.1,0.8999999999999999,-0.5235987755982988,-0.5235987755982988,0,-0.6742974,-0.5344846,-2.8813658,0.41646436,-0.08881984,1.3022683,0.17671858,0.16728427,-1.1791573,-2.3974369,-0.05143255,-0.13148272,1.2180034,-0.4251124
0.0,0.1,0.8999999999999999,-0.5235987755982988,-0.5235987755982988,0,-0.6741364,-0.5341822,-2.8563027,0.4178367,-0.08844656,1.3003861,0.20367679,0.18271203,-1.1801344,-2.3951359,-0.079929344,0.1025637,1.286981,0.47893497
0.0,0.1,0.8999999999999999,-0.5235987755982988,-0.5235987755982988,0,-0.6739935,-0.53407854,-2.88886,0.41920272,-0.05179594,1.3019763,0.11147613,0.17321411,-1.1691895,-2.345493,-0.09573963,0.05689174,1.2758741,-0.55129516
0.0,0.1,0.8999999999999999,-0.5235987755982988,-0.5235987755982988,0,-0.67382115,-0.5346628,-2.875833,0.41697142,-0.044282854,1.3036697,0.13591702,0.1842471,-1.1757613,-2.4721088,-0.11594226,0.02927463,1.2085981,-1.0735918
0.0,0.1,0.8999999999999999,-0.5235987755982988,-0.5235987755982988,0,-0.67421,-0.5342211,-2.8693924,0.4174929,-0.06216619,1.2989565,0.23430115,0.17021856,-1.168503,-2.4484172,-0.08958309,-0.010128015,1.2578456,0.42071614
0.0,0.1,0.8999999999999999,-0.5235987755982988,-0.5235987755982988,0,-0.67376447,-0.53433543,-2.8676834,0.4142995,-0.08106971,1.2977213,0.276755,0.16736323,-1.155783,-2.4634194,-0.033849493,0.05883628,1.2485536,-1.1854202
0.0,0.1,0.8999999999999999,-0.5235987755982988,-0.5235987755982988,0,-0.6741209,-0.5345731,-2.9116116,0.41938034,-0.03423378,1.2928177,0.20544568,0.16297115,-1.1685766,-2.3513417,-0.035215832,-0.1014516,1.2829525,-0.72233254
0.0,0.1,0.8999999999999999,-0.5235987755982988,-0.5235987755982988,0,-0.674568,-0.5341084,-2.8784096,0.41836363,-0.0804412,1.2901808,0.16177647,0.15689956,-1.175155,-2.4873421,-0.0902371,-0.0036823954,1.2036418,-0.74094784
0.0,0.1,0.8999999999999999,-0.5235987755982988,-0.5235987755982988,0,-0.674142,-0.53459436,-2.9112031,0.41665447,-0.115992755,1.2970313,0.17739576,0.16943547,-1.178638,-2.3863463,-0.06651146,0.09674084,1.2510856,-0.28057557
0.0,0.1,0.8999999999999999,-0.5235987755982988,-0.5235987755982988,0,-0.67398506,-0.53392017,-2.8779898,0.41229647,-0.08099678,1.296987,0.19346653,0.17564702,-1.166384,-2.337383,-0.03501913,-0.023430321,1.3136466,-0.47209716
0.0,0.1,0.8999999999999999,-0.5235987755982988,-0.5235987755982988,0,-0.67347074,-0.53420025,-2.861891,0.41255522,-0.073690444,1.2979283,0.20976005,0.17355911,-1.1864505,-2.3213227,-0.060521662,0.033482466,1.1526049,-0.9147476
0.0,0.1,0.8999999999999999,-0.5235987755982988,-0.5235987755982988,0,-0.6750728,-0.53417265,-2.897589,0.4195464,-0.092514604,1.3019445,0.16509339,0.15633644,-1.1672713,-2.4395552,-0.081163734,0.059097297,1.2913079,1.1695834
0.0,0.1,0.8999999999999999,-0.5235987755982988,-0.5235987755982988,0,-0.67366576,-0.53450406,-2.8689077,0.41958615,-0.056917857,1.2917786,0.15820567,0.15945607,-1.1573936,-2.4725332,-0.0691151,0.053428035,1.25761,-0.7379592
0.0,0.1,0.8999999999999999,-0.5235987755982988,-0.5235987755982988,0,-0.673951,-0.53422487,-2.857833,0.41808894,-0.08436917,1.2899206,0.2114353,0.16658454,-1.1728692,-2.3784125,-0.064709604,-0.043134935,1.2621591,0.2663291
0.0,0.1,0.8999999999999999,-0.5235987755982988,-0.5235987755982988,0,-0.6741596,-0.5338921,-2.8927836,0.41969553,-0.042518105,1.2947189,0.2209597,0.16646123,-1.1887648,-2.367163,-0.092856586,0.05888211,1.1801422,0.20461668
0.0,0.1,0.8999999999999999,-0.5235987755982988,-0.5235987755982988,0,-0.67360026,-0.5342829,-2.8896487,0.4148358,-0.06994521,1.2952796,0.18047054,0.1914291,-1.1701708,-2.3893948,-0.14299577,0.043585446,1.1965058,-0.67429924
0.0,0.1,0.8999999999999999,-0.5235987755982988,-0.5235987755982988,0,-0.673702,-0.5345153,-2.8829932,0.41264004,-0.08653502,1.3041184,0.007046399,0.16464975,-1.1571424,-2.4342036,-0.106465295,0.061521493,1.2141868,-0.9216268
0.0,0.1,0.8999999999999999,-0.5235987755982988,-0.5235987755982988,0,-0.6737197,-0.5342938,-2.9009197,0.4194868,-0.104325265,1.2997632,0.32711458,0.19179356,-1.172688,-2.3005967,-0.069798,-0.13742073,1.1973305,0.85710996
0.0,0.1,0.8999999999999999,-0.5235987755982988,-0.5235987755982988,0,-0.6738364,-0.5341829,-2.9059622,0.4174014,-0.07051982,1.2977633,0.20269325,0.1603033,-1.1540473,-2.4421494,-0.03834278,-0.18057694,1.2309833,-0.09301043
0.0,0.1,0.8999999999999999,-0.5235987755982988,-0.5235987755982988,0,-0.6730249,-0.53402513,-2.893105,0.41426817,-0.07770503,1.2868279,0.14853972,0.17457788,-1.1628103,-2.3536205,-0.039515346,0.14643036,1.2460577,-0.10318173
0.0,0.1,0.8999999999999999,-0.5235987755982988,-0.5235987755982988,0,-0.67436445,-0.53430086,-2.8772068,0.41858187,-0.07906356,1.3002101,0.2766087,0.16872579,-1.1825048,-2.481039,-0.033610288,-0.05516284,1.2263415,-0.40360203
0.0,0.1,0.8999999999999999,-0.5235987755982988,-0.5235987755982988,0,-0.6740026,-0.5339553,-2.8881464,0.41790053,-0.059674285,1.3012704,0.22861692,0.18766528,-1.1772817,-2.3478444,-0.07505904,0.012081862,1.2021191,-0.5055058
0.0,0.1,0.8999999999999999,-0.5235987755982988,-0.5235987755982988,0,-0.67326903,-0.53404367,-2.8864102,0.415178,-0.0364097,1.2847117,0.11204017,0.16400206,-1.1702998,-2.4019477,-0.028651299,-0.020614116,1.1554519,1.4738889
0.0,0.1,0.8999999999999999,-0.5235987755982988,-0.5235987755982988,0,-0.6742597,-0.53441054,-2.855072,0.41795853,-0.08214779,1.2921351,0.25081465,0.19307876,-1.175595,-2.5803883,-0.10937029,0.00021366958,1.1991987,-0.66599125
0.0,0.1,0.8999999999999999,-0.5235987755982988,-0.5235987755982988,0,-0.67425394,-0.5343878,-2.8584895,0.42316958,-0.055030588,1.2953407,0.120426096,0.18077819,-1.1666514,-2.564411,-0.09676788,-0.0628691,1.3255893,-1.1381624
0.0,0.1,0.8999999999999999,-0.5235987755982988,-0.5235987755982988,0,-0.6734731,-0.5342908,-2.9147668,0.4165201,-0.07650906,1.2853423,0.06916325,0.16124423,-1.159521,-2.4740303,-0.14157884,-0.14708114,1.2878499,0.2734494
0.0,0.1,0.8999999999999999,-0.5235987755982988,-0.5235987755982988,0,-0.67390126,-0.5344233,-2.900071,0.41608414,-0.07831161,1.2933016,0.13458484,0.16220812,-1.1782883,-2.4328625,-0.079062894,-0.10379363,1.2079172,-1.2631823
0.0,0.1,0.8999999999999999,-0.5235987755982988,-0.5235987755982988,0,-0.6738407,-0.53456503,-2.8952315,0.41955793,-0.06941938,1.3079215,0.21447282,0.1874236,-1.1792736,-2.4334905,-0.040278953,0.118263,1.1920034,-1.5400488
0.0,0.1,0.8999999999999999,-0.5235987755982988,-0.5235987755982988,0,-0.6737116,-0.5337732,-2.8923452,0.42077637,-0.08817197,1.2989178,0.09702835,0.16996218,-1.1562454,-2.5696228,-0.066041335,0.036326565,1.3017344,-0.62994367
0.0,0.1,0.8999999999999999,-0.5235987755982988,-0.5235987755982988,0,-0.6733468,-0.53423506,-2.890615,0.4149272,-0.060662962,1.301871,0.19872417,0.16796169,-1.1791123,-2.400543,-0.05573683,-0.04523197,1.2027202,-0.5479061
0.0,0.1,0.8999999999999999,-0.5235987755982988,-0.5235987755982988,0,-0.6743374,-0.53414834,-2.912486,0.4173747,-0.054924972,1.3082461,0.18421167,0.16710006,-1.1765531,-2.45473,-0.05174093,-0.044365957,1.2394236,0.86336225
0.0,0.1,0.8999999999999999,-0.5235987755982988,-0.5235987755982988,0,-0.6725379,-0.5340021,-2.8509946,0.41453385,-0.06563801,1.3009888,0.24646488,0.18495718,-1.1789953,-2.4150453,-0.08730305,0.06292442,1.1659861,0.17146969
0.0,0.1,0.8999999999999999,-0.5235987755982988,-0.5235987755982988,0,-0.67468965,-0.53427434,-2.8586195,0.4137018,-0.11250366,1.2907808,0.06441609,0.15057272,-1.1516063,-2.309937,-0.0051412648,0.006581382,1.1115235,0.72174203
0.0,0.1,0.8999999999999999,-0.5235987755982988,-0.5235987755982988,0,-0.6735806,-0.53429306,-2.8937993,0.42088267,-0.07936121,1.2921878,0.08874894,0.16035874,-1.1563426,-2.170056,-0.089133665,0.10645187,1.1960713,-0.28048795
0.0,0.1,0.8999999999999999,-0.5235987755982988,-0.5235987755982988,0,-0.67455876,-0.5340237,-2.8452675,0.41807577,-0.09599709,1.2879102,0.16628425,0.1628137,-1.1618726,-2.2764287,-0.08260533,-0.064824045,1.2510793,0.45144328
0.0,0.1,0.8999999999999999,-0.5235987755982988,-0.5235987755982988,0,-0.67536354,-0.5341636,-2.9135041,0.41531605,-0.04940287,1.3076401,0.14235443,0.18998855,-1.1768991,-2.2263842,-0.029982863,-0.27109113,1.2298397,-0.30719453
0.0,0.1,0.8999999999999999,-0.5235987755982988,-0.5235987755982988,0,-0.6740941,-0.53438246,-2.8758051,0.41267675,-0.098495044,1.2858773,0.3368529,0.17728187,-1.1721556,-2.3813233,-0.036017038,-0.025263349,1.2001916,-0.29723892
0.0,0.1,0.8999999999999999,-0.5235987755982988,-0.5235987755982988,0,-0.67380285,-0.5344594,-2.876266,0.41338032,-0.04705963,1.2897702,0.15953991,0.16772382,-1.1648749,-2.3547125,-0.18813103,0.026199961,1.1697108,-0.27974996
0.0,0.1,0.8999999999999999,-0.5235987755982988,-0.5235987755982988,0,-0.67380226,-0.5344746,-2.895697,0.4192358,-0.089550056,1.3150352,0.16263725,0.16513573,-1.1691611,-2.1310968,-0.088062085,0.08243287,1.1650909,-0.28985095
0.0,0.1,0.8999999999999999,-0.5235987755982988,-0.5235987755982988,0,-0.67508394,-0.53471184,-2.8974288,0.4153078,-0.09421151,1.3091547,0.26039457,0.14710161,-1.1724354,-2.289528,-0.096017905,0.10153879,1.1037918,-0.44457465
0.0,0.1,0.8999999999999999,-0.5235987755982988,-0.5235987755982988,0,-0.67439246,-0.5343537,-2.8753803,0.4165063,-0.079293065,1.3043582,0.20594248,0.16862652,-1.1747931,-2.340205,-0.0960441,0.12967344,1.2112544,0.26330066
0.0,0.1,0.8999999999999999,-0.5235987755982988,-0.5235987755982988,0,-0.67346585,-0.5341692,-2.8738813,0.41834745,-0.03174616,1.292964,0.2284339,0.15517534,-1.1817366,-2.2567039,-0.13371058,0.042175155,1.1760647,-0.5434635
0.0,0.1,0.8999999999999999,-0.5235987755982988,-0.5235987755982988,0,-0.6737639,-0.53438014,-2.823309,0.41648984,-0.060361654,1.2942427,0.18732344,0.16326493,-1.1650971,-2.3561082,-0.009261308,-0.09797748,1.2192513,-0.090393424
0.0,0.1,0.8999999999999999,-0.5235987755982988,-0.5235987755982988,0,-0.67423576,-0.53431565,-2.87348,0.41706672,-0.06883599,1.3009373,0.11084229,0.18239799,-1.1610785,-2.3424377,-0.10474791,0.055201482,1.3139528,-0.46392035
0.0,0.1,0.8999999999999999,-0.5235987755982988,-0.5235987755982988,0,-0.6746868,-0.53421474,-2.8401573,0.41431364,-0.040997483,1.2959249,0.28785375,0.16347678,-1.163737,-2.4288843,-0.06920212,-0.07650871,1.2083273,0.03852808
0.0,0.1,0.8999999999999999,-0.5235987755982988,-0.5235987755982988,0,-0.6749241,-0.5344451,-2.8626173,0.4175215,-0.0536672,1.3057365,0.20788962,0.15831158,-1.1863434,-2.3905709,-0.054457907,-0.011332172,1.2480875,-1.1379322
0.0,0.1,0.8999999999999999,-0.5235987755982988,-0.5235987755982988,0,-0.6747365,-0.53418416,-2.8494937,0.41598076,-0.081462346,1.2981688,0.18816459,0.1710303,-1.1768118,-2.4016948,0.017179053,0.08124059,1.2684323,-0.2982097
0.0,0.1,0.8999999999999999,-0.5235987755982988,-0.5235987755982988,0,-0.674274,-0.53448963,-2.87487,0.41707686,-0.058702376,1.2904906,0.21025413,0.16749604,-1.1886456,-2.3686762,-0.05402986,-0.20211473,1.1698523,0.7513564
0.0,0.1,0.8999999999999999,-0.5235987755982988,-0.5235987755982988,0,-0.6739033,-0.53421867,-2.8669524,0.41557956,-0.075228065,1.2906321,0.086584,0.16282265,-1.1656824,-2.2568762,-0.13324955,0.009289969,1.2211226,-1.1632061
0.0,0.1,0.8999999999999999,-0.5235987755982988,-0.5235987755982988,0,-0.6747351,-0.53457934,-2.8549685,0.41923463,-0.10590099,1.3048022,0.27185443,0.17407016,-1.172473,-2.5641844,-0.059819162,-0.05851571,1.1707422,0.24880101
0.0,0.1,0.8999999999999999,-0.5235987755982988,-0.5235987755982988,0,-0.67514986,-0.534856,-2.8989525,0.4155032,-0.09781474,1.3009318,0.2686816,0.16687213,-1.1725174,-2.4952915,-0.08351851,0.051439833,1.2570547,-0.25757328
0.0,0.1,0.8999999999999999,-0.5235987755982988,-0.5235987755982988,0,-0.67319065,-0.5343583,-2.8514485,0.4175475,-0.07423527,1.2877419,0.08229761,0.17595057,-1.1582189,-2.377461,-0.029642459,0.027476534,1.2230413,-0.28205115
0.0,0.1,0.8999999999999999,-0.5235987755982988,-0.5235987755982988,0,-0.6733319,-0.5345264,-2.8568022,0.4160091,-0.07370693,1.2990503,0.17447284,0.18819784,-1.1620913,-2.4902363,0.01214997,-0.04914404,1.1966285,-0.42237604
0.0,0.1,0.8999999999999999,-0.5235987755982988,-0.5235987755982988,0,-0.67406917,-0.53399986,-2.8443053,0.41436502,-0.04629242,1.304564,0.23161322,0.17357264,-1.1622866,-2.2623098,-0.06331058,-0.03716231,1.237393,0.32980365
0.0,0.1,0.8999999999999999,-0.5235987755982988,-0.5235987755982988,0,-0.674262,-0.53469974,-2.890587,0.41728666,-0.104589075,1.2954075,0.21251938,0.16898154,-1.1601881,-2.210709,-0.07203219,0.07021845,1.2603279,-0.23033193
0.0,0.1,0.8999999999999999,-0.5235987755982988,-0.5235987755982988,0,-0.6741687,-0.5344934,-2.856628,0.42031702,-0.08657788,1.2982291,0.21477705,0.16029838,-1.1590197,-2.095434,-0.09398293,0.09481596,1.245021,-0.15225165
0.0,0.1,0.8999999999999999,-0.5235987755982988,-0.5235987755982988,0,-0.67462486,-0.53466916,-2.8279595,0.41652307,-0.034236558,1.2907351,0.088927835,0.16988358,-1.1765147,-2.1650107,-0.08202849,-0.07088388,1.1531504,1.1651309
0.0,0.1,0.8999999999999999,-0.5235987755982988,-0.5235987755982988,0,-0.6744001,-0.53485733,-2.8383188,0.4209582,-0.101903036,1.2983744,0.07392202,0.16489819,-1.1775646,-2.2075975,-0.15514885,0.06366358,1.2195523,0.83909994
0.0,0.1,0.8999999999999999,-0.5235987755982988,-0.5235987755982988,0,-0.67473614,-0.5344001,-2.8513236,0.4171589,-0.06501642,1.3075597,0.15523125,0.16706556,-1.1683832,-2.2777824,-0.062493984,-0.068891495,1.3401773,0.02193698
0.0,0.1,0.8999999999999999,-0.5235987755982988,-0.5235987755982988,0,-0.67435104,-0.53466463,-2.854824,0.41799358,-0.057721466,1.3049195,0.2391238,0.17111035,-1.1777105,-2.1327937,-0.011068001,0.10263339,1.2423058,-1.295533
0.0,0.1,0.8999999999999999,-0.5235987755982988,-0.5235987755982988,0,-0.6750695,-0.5346577,-2.8592591,0.41667387,-0.104515225,1.2887253,0.10487932,0.17729327,-1.1612445,-2.2496004,-0.07456404,0.12868093,1.2186702,0.11533656
0.0,0.1,0.8999999999999999,-0.5235987755982988,-0.5235987755982988,0,-0.67500865,-0.5343784,-2.8598554,0.41519806,-0.07673395,1.3007874,0.10023414,0.16262199,-1.1587763,-2.2388415,-0.15205047,0.00839892,1.2670693,1.1127445
0.0,0.1,0.8999999999999999,-0.5235987755982988,-0.5235987755982988,0,-0.6747817,-0.534554,-2.8655992,0.4199714,-0.033711664,1.2950387,0.2334672,0.16756378,-1.1779171,-2.3036132,-0.0794048,-0.14961834,1.356016,0.12573501
0.0,0.1,0.8999999999999999,-0.5235987755982988,-0.5235987755982988,0,-0.6758229,-0.53468585,-2.8944566,0.4160424,-0.08390196,1.305159,0.29469624,0.173574,-1.15871,-2.328237,-0.133412,0.13321015,1.2287871,-0.5983446
0.0,0.1,0.8999999999999999,-0.5235987755982988,-0.5235987755982988,0,-0.67405033,-0.5343529,-2.839546,0.41294986,-0.10515028,1.3087955,0.22537757,0.17423609,-1.1617364,-2.257212,-0.09466382,0.086125344,1.1142708,-0.21139778
0.0,0.1,0.8999999999999999,-0.5235987755982988,-0.5235987755982988,0,-0.67396754,-0.5345292,-2.8365307,0.4162705,-0.081195034,1.2966381,0.14149714,0.18551654,-1.153967,-2.3650131,-0.05901193,-0.02716058,1.145607,-0.26611125
0.0,0.1,0.8999999999999999,-0.5235987755982988,-0.5235987755982988,0,-0.67392534,-0.53455406,-2.8620687,0.41820243,-0.087954104,1.2934015,0.22978354,0.16993393,-1.1891831,-2.235572,-0.052294254,0.10150159,1.0700804,-0.0075007495
0.0,0.1,0.8999999999999999,-0.5235987755982988,-0.5235987755982988,0,-0.6748944,-0.5345369,-2.8610842,0.417725,-0.09050337,1.2988992,0.2139624,0.16912797,-1.1742116,-2.2111008,-0.032627705,-0.04208928,1.1341838,-0.598841
0.0,0.1,0.8999999999999999,-0.5235987755982988,-0.5235987755982988,0,-0.6756474,-0.5343088,-2.87986,0.41547894,-0.084969826,1.2861518,0.081897445,0.16721171,-1.1517951,-2.3534148,-0.082542874,0.118525065,1.2022293,0.15835592
0.0,0.1,0.8999999999999999,-0.5235987755982988,-0.5235987755982988,0,-0.6740141,-0.53402865,-2.8767464,0.42093167,-0.100613676,1.2989484,0.21860191,0.18987179,-1.1793166,-2.168197,-0.13109033,0.15542379,1.1405011,0.52487266
0.0,0.1,0.8999999999999999,-0.5235987755982988,-0.5235987755982988,0,-0.6745282,-0.5342468,-2.867247,0.4172502,-0.0550345,1.2913026,0.25617787,0.17611293,-1.1674836,-2.284507,-0.07347415,-0.05207069,1.1725789,0.9548046
0.0,0.1,0.8999999999999999,-0.5235987755982988,-0.5235987755982988,0,-0.67463166,-0.5343993,-2.859794,0.41607103,-0.06967293,1.3050222,0.15177716,0.16478994,-1.1831387,-2.2192078,-0.09065959,0.13911195,1.2733388,0.18520552
0.0,0.1,0.8999999999999999,-0.5235987755982988,-0.5235987755982988,0,-0.67375267,-0.5342034,-2.8808825,0.4214782,-0.093280815,1.2954546,0.18937041,0.17193435,-1.1899807,-2.3045564,0.028977785,0.09854134,1.146411,-0.27736062
0.0,0.1,0.8999999999999999,-0.5235987755982988,-0.5235987755982988,0,-0.67454755,-0.53464633,-2.8922477,0.42048827,-0.04894565,1.3023133,0.29541236,0.17615107,-1.184609,-2.3717592,-0.15238932,0.12733264,1.1583079,-0.8156193
0.0,0.1,0.8999999999999999,-0.5235987755982988,-0.5235987755982988,0,-0.6737029,-0.534402,-2.8737857,0.41783184,-0.07927495,1.2926795,0.21394125,0.1619195,-1.1929951,-2.2754595,-0.04867058,-0.023690892,1.0570228,-1.3284235
0.0,0.1,0.8999999999999999,-0.5235987755982988,-0.5235987755982988,0,-0.6749812,-0.5340863,-2.873308,0.4144746,-0.0919235,1.2960294,0.10321961,0.17375691,-1.166983,-2.2879214,-0.046511732,0.0636236,1.2562604,-0.74809575
0.0,0.1,0.8999999999999999,-0.5235987755982988,-0.5235987755982988,0,-0.67367506,-0.5342513,-2.8494558,0.41523284,-0.08666428,1.2869673,0.19417812,0.17887984,-1.1485437,-2.3352978,-0.0852311,-0.1371648,1.1818985,-0.6863382
0.0,0.1,0.8999999999999999,-0.5235987755982988,-0.5235987755982988,0,-0.6749088,-0.534133,-2.8728898,0.41245973,-0.108362935,1.2925695,0.2011943,0.15982236,-1.1780702,-2.2058027,-0.07245065,0.077693686,1.1910398,-0.6162935
0.0,0.1,0.8999999999999999,-0.5235987755982988,-0.5235987755982988,0,-0.67364806,-0.5348197,-2.88627,0.41724232,-0.106116824,1.2874538,0.16463777,0.17395924,-1.1593575,-2.160292,-0.087351084,-0.0821963,1.3097799,-0.80152875
0.0,0.1,0.8999999999999999,-0.5235987755982988,-0.5235987755982988,0,-0.6746879,-0.5345546,-2.8999631,0.4117025,-0.063160606,1.2925639,0.21234097,0.16228528,-1.1515402,-2.2883372,-0.0497067,0.047191612,1.3415034,-1.6081246
0.0,0.1,0.8999999999999999,-0.5235987755982988,-0.5235987755982988,0,-0.6743804,-0.534314,-2.9016333,0.41573966,-0.09696671,1.3029826,0.10518177,0.15788093,-1.1552366,-2.3707306,-0.15312257,0.14313665,1.2666587,-0.051829215
0.0,0.1,0.8999999999999999,-0.5235987755982988,-0.5235987755982988,0,-0.67435026,-0.5340923,-2.8781085,0.4192201,-0.10463056,1.2890955,0.14309467,0.16634229,-1.1740406,-2.2297106,-0.027801163,0.1838175,1.2488513,0.68197596
0.0,0.1,0.8999999999999999,-0.5235987755982988,-0.5235987755982988,0,-0.67473716,-0.53393096,-2.871907,0.4124296,-0.045320395,1.3074424,0.27907816,0.16923401,-1.1641052,-2.3172064,0.007170191,-0.020644328,1.2855153,-0.8319279
0.0,0.1,0.8999999999999999,-0.5235987755982988,-0.5235987755982988,0,-0.6743515,-0.5344108,-2.8723495,0.42068583,-0.0563529,1.2973491,0.20107582,0.16945554,-1.1678197,-2.3385608,-0.035449807,0.10587406,1.2959646,-0.2047233
0.0,0.1,0.8999999999999999,-0.5235987755982988,-0.5235987755982988,0,-0.67407626,-0.53435993,-2.8673766,0.41534355,-0.05656125,1.2944522,0.19953074,0.17960934,-1.1607955,-2.4398248,-0.16846554,0.22602424,1.1735842,-1.1056575
0.0,0.1,0.8999999999999999,-0.5235987755982988,-0.5235987755982988,0,-0.6743166,-0.53442264,-2.876505,0.4142478,-0.013135629,1.2939769,0.12817879,0.17351475,-1.159174,-2.281006,-0.09374272,0.053299326,1.2662446,-0.30680215
0.0,0.1,0.8999999999999999,-0.5235987755982988,-0.5235987755982988,0,-0.67388785,-0.5340892,-2.8642442,0.41736716,-0.060596798,1.3022996,0.16729863,0.18668388,-1.1574546,-2.273979,-0.048349567,0.06947088,1.3082635,0.052116152
0.0,0.1,0.8999999999999999,-0.5235987755982988,-0.5235987755982988,0,-0.6745442,-0.5347096,-2.910197,0.4156723,-0.06583231,1.2969024,0.26871103,0.17647202,-1.1547076,-2.3710353,-0.056334604,0.031770356,1.22033,-0.57265073
0.0,0.1,0.8999999999999999,-0.5235987755982988,-0.5235987755982988,0,-0.67398024,-0.53453904,-2.8945436,0.41661417,-0.07227618,1.2897495,0.2411673,0.16486873,-1.1693076,-2.2750146,-0.04487558,0.0393619,1.1225661,-0.6704079
0.0,0.1,0.8999999999999999,-0.5235987755982988,-0.5235987755982988,0,-0.6740871,-0.5340144,-2.8618166,0.42030886,-0.03938355,1.2886153,0.22898786,0.17891908,-1.1806108,-2.400181,-0.07475899,-0.05075177,1.1747577,-0.86685157
0.0,0.1,0.8999999999999999,-0.5235987755982988,-0.5235987755982988,0,-0.6751508,-0.5344081,-2.8998048,0.4174616,-0.06729822,1.2962939,0.17673692,0.17330949,-1.1544955,-2.4734452,-0.08189338,0.084740296,1.1207565,-0.7817011
0.0,0.1,0.8999999999999999,-0.5235987755982988,-0.5235987755982988,0,-0.6745661,-0.5344746,-2.8825357,0.41673058,-0.06984393,1.294956,0.19643506,0.18284899,-1.138403,-2.38731,-0.040183328,0.08564881,1.227849,-0.31671613
0.0,0.1,0.8999999999999999,-0.5235987755982988,-0.5235987755982988,0,-0.67408997,-0.534492,-2.87513,0.4182623,-0.08441893,1.2811049,0.23570877,0.15062292,-1.1612633,-2.2733486,-0.10350065,0.07065309,1.2415061,-0.87817866
0.0,0.1,0.8999999999999999,-0.5235987755982988,-0.5235987755982988,0,-0.6741947,-0.5342247,-2.8490188,0.4189807,-0.09905312,1.2951491,0.073868774,0.16851594,-1.1628802,-2.3477206,-0.107087724,0.020602055,1.239752,-0.4861556
0.0,0.1,0.8999999999999999,-0.5235987755982988,-0.5235987755982988,0,-0.6742631,-0.53449214,-2.894187,0.4183935,-0.065317415,1.3047415,0.2190628,0.19280314,-1.1704156,-2.286746,-0.09525682,0.1756203,1.2389148,-0.97172344
0.0,0.1,0.8999999999999999,-0.5235987755982988,-0.5235987755982988,0,-0.6739402,-0.5345116,-2.8459995,0.41804114,-0.095921464,1.2928354,0.20540246,0.17537965,-1.1655245,-2.359471,-0.09269242,-0.21752846,1.2489786,-0.5428806
0.0,0.1,0.8999999999999999,-0.5235987755982988,-0.5235987755982988,0,-0.67454845,-0.53411335,-2.8862858,0.4151428,-0.09634729,1.2993374,0.08772377,0.1728787,-1.1827705,-2.2671578,-0.107128896,0.013866297,1.1943109,-0.5619879
0.0,0.1,0.8999999999999999,-0.5235987755982988,-0.5235987755982988,0,-0.673627,-0.53411806,-2.8610737,0.41178516,-0.058231734,1.2972606,0.10448741,0.17359102,-1.1616797,-2.24772,-0.080540545,-0.01971512,1.1382618,0.22113629
0.0,0.1,0.8999999999999999,-0.5235987755982988,-0.5235987755982988,0,-0.67407715,-0.5342412,-2.8379545,0.42011464,-0.07886187,1.294265,0.153315,0.16925457,-1.181627,-2.3057597,-0.09125453,-0.10015829,1.1925353,-0.06596365
0.0,0.1,0.8999999999999999,-0.5235987755982988,-0.5235987755982988,0,-0.67434496,-0.53410935,-2.8933084,0.41991273,-0.05842419,1.3011179,0.1973711,0.16502681,-1.174367,-2.4404092,-0.012814014,0.03339899,1.2111653,0.21150109
0.0,0.1,0.8999999999999999,-0.5235987755982988,-0.5235987755982988,0,-0.6749131,-0.53402174,-2.8578439,0.42030668,-0.09149396,1.2753428,0.18826565,0.16990611,-1.1703228,-2.4230978,-0.04091935,0.2422698,1.2287136,-0.8887379
0.0,0.1,0.8999999999999999,-0.5235987755982988,-0.5235987755982988,0,-0.6745642,-0.5343723,-2.835132,0.4134025,-0.04437388,1.3017049,0.16980657,0.18047209,-1.1663729,-2.4193559,-0.09258606,-0.06704241,1.2405295,-0.9341318
0.0,0.1,0.8999999999999999,-0.5235987755982988,-0.5235987755982988,0,-0.6740509,-0.5343241,-2.8265734,0.41533178,-0.08315944,1.3080002,0.22511329,0.19347794,-1.1701933,-2.336308,-0.044605285,-0.023951435,1.2874137,-0.6859367
0.0,0.1,0.8999999999999999,-0.5235987755982988,-0.5235987755982988,0,-0.6738789,-0.5344273,-2.855284,0.4168911,-0.06552237,1.2981203,0.15001757,0.18515438,-1.1793008,-2.4298475,-0.04772006,0.0112960255,1.1143498,-0.7800916
0.0,0.1,0.8999999999999999,-0.5235987755982988,-0.5235987755982988,0,-0.67456317,-0.53418285,-2.870186,0.41890025,-0.092867166,1.3030666,0.1561888,0.15677911,-1.1705154,-2.3741536,-0.112145364,0.08249476,1.2823792,-0.5681568
0.0,0.1,0.8999999999999999,-0.5235987755982988,-0.5235987755982988,0,-0.6730515,-0.5341051,-2.899047,0.41766337,-0.07527019,1.3029755,0.18508194,0.1783781,-1.1442649,-2.2802796,-0.06572158,-0.18422866,1.2148625,-0.7500973
0.0,0.1,0.8999999999999999,-0.5235987755982988,-0.5235987755982988,0,-0.6742885,-0.5340837,-2.869437,0.41482514,-0.033113897,1.3001392,0.21110904,0.1814992,-1.1813444,-2.3739502,-0.064911105,-0.05279341,1.1559929,0.4709809
0.0,0.1,0.8999999999999999,-0.5235987755982988,-0.5235987755982988,0,-0.67376876,-0.5344285,-2.8692932,0.42140275,-0.023960417,1.2984983,0.27676377,0.16826117,-1.1695819,-2.3860934,-0.09497487,-0.14010221,1.2272701,0.21866153
0.0,0.1,0.8999999999999999,-0.5235987755982988,-0.5235987755982988,0,-0.6742604,-0.53458476,-2.882502,0.41746995,0.004713773,1.3125532,0.16029678,0.18683429,-1.1767014,-2.301173,-0.073027216,0.06386977,1.2147946,-0.76980877
0.0,0.1,0.8999999999999999,-0.5235987755982988,-0.5235987755982988,0,-0.6749831,-0.53434414,-2.9080482,0.41566482,-0.062259525,1.295472,0.17792404,0.18226467,-1.1593933,-2.5018833,0.0068939957,0.09453666,1.2281383,-0.13595542
0.0,0.1,0.8999999999999999,-0.5235987755982988,-0.5235987755982988,0,-0.67469525,-0.53435653,-2.8840168,0.41556448,-0.09320888,1.3029319,0.25142205,0.16284631,-1.1906888,-2.3396928,-0.1269856,-0.045991536,1.1731805,-0.73047173
0.0,0.1,0.8999999999999999,-0.5235987755982988,-0.5235987755982988,0,-0.67453253,-0.53418916,-2.885817,0.41796544,-0.07975679,1.2949744,0.12560329,0.16431822,-1.1553655,-2.3787436,-0.08221588,0.049010813,1.2282485,-0.3795028
0.0,0.1,0.8999999999999999,-0.5235987755982988,-0.5235987755982988,0,-0.6750862,-0.5340454,-2.9219313,0.41523525,-0.051502846,1.3058989,0.16420458,0.17155424,-1.1566077,-2.3566074,-0.11659398,-0.022138136,1.1985546,-0.94991404
0.0,0.1,0.8999999999999999,-0.5235987755982988,-0.5235987755982988,0,-0.6741079,-0.53438866,-2.8764112,0.4160316,-0.07862097,1.2979277,0.118913904,0.19010624,-1.1609045,-2.3626575,-0.06899001,0.1726049,1.2107558,0.44829217
0.0,0.1,0.8999999999999999,-0.5235987755982988,-0.5235987755982988,0,-0.6733022,-0.53432965,-2.9053946,0.4213205,-0.055669118,1.2886525,0.17513733,0.16453321,-1.1589867,-2.3108134,-0.08176072,-0.101949945,1.2136792,-0.05615846
0.0,0.1,0.8999999999999999,-0.5235987755982988,-0.5235987755982988,0,-0.6733193,-0.5336003,-2.8500051,0.41932198,-0.034372676,1.3108287,0.15844546,0.15405007,-1.1695893,-2.3477185,-0.12418444,-0.04699122,1.178406,1.2143477
0.0,0.1,0.8999999999999999,-0.5235987755982988,-0.5235987755982988,0,-0.67453736,-0.53387445,-2.865448,0.4139056,-0.049791895,1.2949847,0.17902505,0.17734578,-1.1760175,-2.4962645,-0.06438683,7.456453e-05,1.1480958,0.9141518
0.0,0.1,0.8999999999999999,-0.5235987755982988,-0.5235987755982988,0,-0.6741713,-0.5341161,-2.866688,0.4184439,-0.09154457,1.296535,0.11818875,0.16795199,-1.1747557,-2.454336,-0.08832359,0.03200662,1.2039361,0.52690166
0.0,0.1,0.8999999999999999,-0.5235987755982988,-0.5235987755982988,0,-0.6736185,-0.5338795,-2.9101758,0.41609496,-0.098001905,1.2980621,0.18483618,0.16874471,-1.1557677,-2.2964153,-0.0496444,0.06711486,1.2879035,-0.27176976
0.0,0.1,0.8999999999999999,-0.5235987755982988,-0.5235987755982988,0,-0.6745706,-0.5340751,-2.903045,0.41421756,-0.06418228,1.2966739,0.12028681,0.17877789,-1.1815224,-2.3139107,-0.06531032,0.06849939,1.1937742,-0.13002698
0.0,0.1,0.8999999999999999,-0.5235987755982988,-0.5235987755982988,0,-0.6736145,-0.5343613,-2.8383474,0.41377556,-0.06910688,1.3071584,0.23600276,0.1884173,-1.1494739,-2.5061703,0.017705787,-0.015774824,1.1909081,-0.36542442
0.0,0.1,0.8999999999999999,-0.5235987755982988,-0.5235987755982988,0,-0.6738032,-0.53429985,-2.8961186,0.4193823,-0.07048397,1.2990627,0.20261233,0.16127238,-1.1719452,-2.3282087,-0.09189813,-0.06677243,1.2344851,-0.18437952
0.0,0.1,0.8999999999999999,-0.5235987755982988,-0.5235987755982988,0,-0.6747607,-0.53401333,-2.9019978,0.41850388,-0.08889827,1.2926841,0.11307558,0.17015867,-1.1866715,-2.4026031,-0.049410366,0.0027665817,1.1942823,-0.1816692
0.0,0.1,0.8999999999999999,-0.5235987755982988,-0.5235987755982988,0,-0.67451316,-0.5338133,-2.8964052,0.4108879,-0.027377393,1.2904774,0.18147431,0.1557772,-1.155202,-2.413539,-0.11162449,0.056305237,1.1799175,-0.36153373
0.0,0.1,0.8999999999999999,-0.5235987755982988,-0.5235987755982988,0,-0.6743059,-0.5338111,-2.876296,0.41751418,-0.053465948,1.2977718,0.22058885,0.17150907,-1.1728946,-2.3732898,-0.022064181,0.029420832,1.2512519,0.6872004
0.0,0.1,0.8999999999999999,-0.5235987755982988,-0.5235987755982988,0,-0.67462796,-0.5339227,-2.8916237,0.41296464,-0.07280639,1.2899282,0.15046725,0.1712278,-1.1757042,-2.3994987,-0.12949087,0.027783437,1.2080421,-0.9092242
0.0,0.1,0.8999999999999999,-0.5235987755982988,-0.5235987755982988,0,-0.6745331,-0.5339973,-2.8604608,0.4163016,-0.10399276,1.2993599,0.3313163,0.17858972,-1.1865491,-2.4279258,-0.11544904,0.042470504,1.2597818,-0.4063474
0.0,0.1,0.8999999999999999,-0.5235987755982988,-0.5235987755982988,0,-0.6740934,-0.53413683,-2.8929482,0.4190287,-0.093750164,1.2860137,0.21302596,0.17450616,-1.1779003,-2.4277666,-0.045706794,0.066119984,1.2897968,-0.60673845
0.0,0.1,0.8999999999999999,-0.5235987755982988,-0.5235987755982988,0,-0.67355764,-0.53440917,-2.89915,0.41446662,-0.058059584,1.3034253,0.21355991,0.17409378,-1.1614357,-2.3838596,-0.06505457,-0.026114441,1.0987704,-0.5248877
0.0,0.1,0.8999999999999999,-0.5235987755982988,-0.5235987755982988,0,-0.673827,-0.53404504,-2.9080398,0.4120175,-0.08743355,1.2864414,0.12062654,0.18595214,-1.1633421,-2.347933,-0.089969404,0.065211214,1.2315172,-0.5408549
0.0,0.1,0.8999999999999999,-0.5235987755982988,-0.5235987755982988,0,-0.6735996,-0.5339627,-2.9169075,0.41466257,-0.06260685,1.2905704,0.17911138,0.16964078,-1.1738188,-2.3302877,-0.11710522,0.043268196,1.1373707,-1.3922247
0.0,0.1,0.8999999999999999,-0.5235987755982988,-0.5235987755982988,0,-0.6739953,-0.53434396,-2.8827417,0.41493943,-0.064653546,1.3041142,0.20005707,0.16079795,-1.1671405,-2.4223526,-0.06192249,0.24700195,1.2154772,-0.30776826
0.0,0.1,0.8999999999999999,-0.5235987755982988,-0.5235987755982988,0,-0.6747169,-0.53438056,-2.8654659,0.4148925,-0.08109918,1.2871834,0.16114229,0.18470292,-1.1871383,-2.4873364,-0.099443264,0.0376113,1.2645676,-0.17494886
0.0,0.1,0.8999999999999999,-0.5235987755982988,-0.5235987755982988,0,-0.67414176,-0.53423905,-2.8967416,0.41660792,-0.08677245,1.3090967,0.20622557,0.163027,-1.1626987,-2.4113574,-0.075486034,0.08857016,1.2741144,-0.53281015
0.0,0.1,0.8999999999999999,-0.5235987755982988,-0.5235987755982988,0,-0.67323786,-0.53425014,-2.9063704,0.41942817,-0.06911537,1.2871363,0.15062556,0.18508136,-1.1742555,-2.342883,-0.06364551,-0.047779977,1.2040366,-0.6114985
0.0,0.1,0.8999999999999999,-0.5235987755982988,-0.5235987755982988,0,-0.67465395,-0.5340769,-2.891637,0.41041982,-0.056777064,1.2998897,0.2591487,0.15989251,-1.1625199,-2.460712,-0.09035118,0.15874124,1.219409,-0.94402355
0.0,0.1,0.8999999999999999,-0.5235987755982988,-0.5235987755982988,0,-0.673965,-0.53460044,-2.8921373,0.41968784,-0.055943284,1.2800864,0.16657169,0.20032345,-1.1769539,-2.4286933,-0.040397085,0.0013607922,1.1962863,-0.37451804
0.0,0.1,0.8999999999999999,-0.5235987755982988,-0.5235987755982988,0,-0.67396015,-0.534291,-2.8775916,0.4135127,-0.058855392,1.2925963,0.2026661,0.17657739,-1.1546632,-2.466711,-0.054370243,-0.0822966,1.2958585,-0.43104622
0.0,0.1,0.8999999999999999,-0.5235987755982988,-0.5235987755982988,0,-0.6743404,-0.5339397,-2.8914595,0.4173618,-0.05965052,1.3011343,0.13023296,0.18360797,-1.1640208,-2.470507,-0.05710003,0.019481821,1.1733004,-1.0800433
0.0,0.1,0.8999999999999999,-0.5235987755982988,-0.5235987755982988,0,-0.6742533,-0.53446496,-2.872548,0.4148286,-0.090777494,1.2920913,0.17924005,0.17769642,-1.1784625,-2.6598952,-0.08697461,-0.066869,1.218483,-0.83542186
0.0,0.1,0.8999999999999999,-0.5235987755982988,-0.5235987755982988,0,-0.67454666,-0.53438765,-2.8702557,0.4174025,-0.060817245,1.290545,0.27364498,0.18212736,-1.1593921,-2.3559692,-0.111953914,0.1594003,1.1168013,0.5464642
0.0,0.1,0.8999999999999999,-0.5235987755982988,-0.5235987755982988,0,-0.6738593,-0.53392017,-2.847976,0.41307294,-0.021786641,1.298384,0.04006398,0.17671393,-1.191611,-2.3752012,-0.08337147,0.008048883,1.2189131,-1.1317984
0.0,0.1,0.8999999999999999,-0.5235987755982988,-0.5235987755982988,0,-0.6739967,-0.53471196,-2.8800085,0.4163952,-0.069503814,1.3031834,0.24796113,0.16420108,-1.1519634,-2.1888356,-0.033396382,-0.042442482,1.1369189,-1.5188363
0.0,0.1,0.8999999999999999,-0.5235987755982988,-0.5235987755982988,0,-0.67496836,-0.5348326,-2.8424525,0.41725507,-0.06728666,1.294881,0.24058309,0.16392434,-1.1535438,-2.3536167,-0.044824556,0.09892749,1.1551716,1.199764
0.0,0.1,0.8999999999999999,-0.5235987755982988,-0.5235987755982988,0,-0.6741848,-0.5342126,-2.8837655,0.4170245,-0.07222412,1.2909602,0.24896574,0.17196783,-1.1526976,-2.2832093,-0.17341828,-0.101928845,1.1965157,-0.106433384
0.0,0.1,0.8999999999999999,-0.5235987755982988,-0.5235987755982988,0,-0.6742708,-0.5340925,-2.9020176,0.42103016,-0.050399266,1.2917775,0.19299875,0.16690238,-1.1883186,-2.1755025,-0.07712831,0.1645148,1.1754162,-0.35558978
0.0,0.1,0.8999999999999999,-0.5235987755982988,-0.5235987755982988,0,-0.67428315,-0.5343089,-2.8471432,0.41717827,-0.09859626,1.3031837,0.24161336,0.19066815,-1.160996,-2.3329816,-0.1005577,0.18127216,1.1306288,-0.4931365
0.0,0.1,0.8999999999999999,-0.5235987755982988,-0.5235987755982988,0,-0.67380315,-0.53387463,-2.8708332,0.41763863,-0.061153438,1.3018304,0.14169353,0.16928571,-1.1677558,-2.2217345,-0.061693534,0.14046595,1.1958764,0.81583184
0.0,0.1,0.8999999999999999,-0.5235987755982988,-0.5235987755982988,0,-0.67404366,-0.53413695,-2.8518076,0.41558614,-0.033513587,1.2937223,0.124768995,0.17339689,-1.1950305,-2.1900353,-0.06822028,-0.098170415,1.2604347,-0.89663136
0.0,0.1,0.8999999999999999,-0.5235987755982988,-0.5235987755982988,0,-0.6738205,-0.53452975,-2.8375978,0.41632637,-0.076077305,1.2937255,0.16615807,0.16789109,-1.161635,-2.3569746,-0.16502279,0.16828999,1.2880762,-0.4776842
0.0,0.1,0.8999999999999999,-0.5235987755982988,-0.5235987755982988,0,-0.67509866,-0.5344092,-2.8833108,0.41658065,-0.08094168,1.3072191,0.22572297,0.1612748,-1.1783903,-2.4310122,-0.12008335,0.021142539,1.3179272,-0.62692636
0.0,0.1,0.8999999999999999,-0.5235987755982988,-0.5235987755982988,0,-0.6744752,-0.53413385,-2.8850057,0.41609547,-0.07950221,1.29035,0.17559299,0.18998753,-1.1548524,-2.2713554,-0.04821177,-0.05885838,1.1723262,0.5211212
0.0,0.1,0.8999999999999999,-0.5235987755982988,-0.5235987755982988,0,-0.67414594,-0.5343232,-2.8684626,0.41361582,-0.08148311,1.2968979,0.12751663,0.16528988,-1.166269,-2.2734869,-0.13572413,0.1565263,1.1812077,-0.1596369
0.0,0.1,0.8999999999999999,-0.5235987755982988,-0.5235987755982988,0,-0.67432785,-0.5341782,-2.9279976,0.4189987,-0.09635046,1.29625,0.18424149,0.15531752,-1.1656584,-2.267421,-0.0563427,0.071857765,1.1401874,-1.1390766
0.0,0.1,0.8999999999999999,-0.5235987755982988,-0.5235987755982988,0,-0.6746372,-0.5342907,-2.8814232,0.4201963,-0.0803532,1.2950717,0.191106,0.1601436,-1.1653739,-2.429103,-0.04199439,0.17194134,1.1845098,-1.2710489
0.0,0.1,0.8999999999999999,-0.5235987755982988,-0.5235987755982988,0,-0.6745539,-0.5339761,-2.885305,0.41972864,-0.040359907,1.3044105,0.18968563,0.16752294,-1.182831,-2.3606741,-0.04165066,-0.18354021,1.142491,-0.623135
0.0,0.1,0.8999999999999999,-0.5235987755982988,-0.5235987755982988,0,-0.6737671,-0.53435755,-2.8836234,0.4199824,-0.07248782,1.2940589,0.14143243,0.16999014,-1.1878897,-2.3185892,-0.13600422,0.0579521,1.1895128,-0.1561157
0.0,0.1,0.8999999999999999,-0.5235987755982988,-0.5235987755982988,0,-0.67437035,-0.5346152,-2.888063,0.4157006,-0.10126388,1.3003647,0.20961575,0.16822562,-1.1763806,-2.3580937,-0.055262703,0.13561939,1.267589,0.38145044
0.0,0.1,0.8999999999999999,-0.5235987755982988,-0.5235987755982988,0,-0.67394507,-0.5342434,-2.8641832,0.4176739,-0.0708223,1.290897,0.2631467,0.17207864,-1.1937025,-2.3411078,-0.03307063,0.16158186,1.2344055,-1.2169733
0.0,0.1,0.8999999999999999,-0.5235987755982988,-0.5235987755982988,0,-0.675218,-0.5340845,-2.8784213,0.4182361,-0.043271225,1.3124515,0.2572879,0.1663363,-1.1863819,-2.4490309,-0.106020406,-0.08532407,1.1781297,-0.8299338
0.0,0.1,0.8999999999999999,-0.5235987755982988,-0.5235987755982988,0,-0.6734842,-0.53428614,-2.8619127,0.4182425,-0.07892036,1.3113745,0.21122938,0.17050642,-1.1613028,-2.3236163,-0.062225766,-0.1705019,1.2152239,-0.021695664
0.0,0.1,0.8999999999999999,-0.5235987755982988,-0.5235987755982988,0,-0.67398804,-0.53443253,-2.8566263,0.41843042,-0.054158237,1.3074769,0.19518407,0.16145065,-1.1759914,-2.3643396,-0.09927032,0.0064567793,1.2363272,0.112877615
0.0,0.1,0.8999999999999999,-0.5235987755982988,-0.5235987755982988,0,-0.67319375,-0.53415346,-2.8686104,0.41568053,-0.060780082,1.2849414,0.1893833,0.18018799,-1.179389,-2.3784168,-0.017872578,-0.22268777,1.309411,-0.2852834
0.0,0.1,0.8999999999999999,-0.5235987755982988,-0.5235987755982988,0,-0.67475736,-0.5341101,-2.8333316,0.4165109,-0.10395351,1.301126,0.1846164,0.16714567,-1.1835623,-2.2046764,-0.055771627,0.061179165,1.2174451,-0.38128567
0.0,0.1,0.8999999999999999,-0.5235987755982988,-0.5235987755982988,0,-0.67405796,-0.53464675,-2.8445795,0.4147317,-0.057253063,1.3097222,0.17013367,0.16328664,-1.1698022,-2.3451254,-0.034928616,0.1324502,1.3178173,0.29880232
