sanky1234/BimanualDexCatch/isaacgymenvs/cem_results/football_pose_-0.2_0.10000000000000003_1.4999999999999998_0.0_0.5235987755982988_0_2025-05-25.csv
x,y,z,roll,pitch,yaw,robot1/joint1,robot1/joint2,robot1/joint3,robot1/joint4,robot1/joint5,robot1/joint6,robot1/joint7,robot2/joint1,robot2/joint2,robot2/joint3,robot2/joint4,robot2/joint5,robot2/joint6,robot2/joint7
-0.2,0.10000000000000003,1.4999999999999998,0.0,0.5235987755982988,0,0.64482206,0.07554804,1.0994494,0.4236106,0.596098,0.83782065,1.2778238,0.23660286,-1.6849226,0.9953178,0.09484564,0.06114717,0.9519981,-0.19959058
-0.2,0.10000000000000003,1.4999999999999998,0.0,0.5235987755982988,0,0.6541191,0.08812191,1.1153296,0.4226076,0.58923626,0.83737946,1.208297,0.2399277,-1.6889173,0.9576893,0.0062320037,0.030244896,0.42273077,0.48324054
-0.2,0.10000000000000003,1.4999999999999998,0.0,0.5235987755982988,0,0.6413976,0.06661566,1.1085162,0.40209645,0.60858065,0.8509534,1.1650792,0.24319495,-1.7077744,0.9331608,0.2549077,0.18118335,1.1397696,0.8871493
-0.2,0.10000000000000003,1.4999999999999998,0.0,0.5235987755982988,0,0.6624935,0.07753766,1.097958,0.40967992,0.633027,0.83992714,1.3159132,0.26175943,-1.6866928,0.81588274,0.09083678,0.46830064,0.5989691,0.83780575
-0.2,0.10000000000000003,1.4999999999999998,0.0,0.5235987755982988,0,0.6656472,0.06811252,1.0873213,0.410409,0.6186523,0.8603142,1.2029288,0.2407867,-1.6944202,1.0411146,-0.2672618,0.13717957,0.2534531,-0.46765655
-0.2,0.10000000000000003,1.4999999999999998,0.0,0.5235987755982988,0,0.65997124,0.071446195,1.1024152,0.40274718,0.61586744,0.8426461,1.2707177,0.22098133,-1.709211,0.97027445,0.14077292,0.3025697,0.11535097,0.14059852
-0.2,0.10000000000000003,1.4999999999999998,0.0,0.5235987755982988,0,0.6659372,0.08542848,1.0982989,0.4191052,0.63690174,0.8587549,1.2687236,0.24489349,-1.6889595,0.9659827,0.21145327,0.8842665,0.54346097,0.73805666
-0.2,0.10000000000000003,1.4999999999999998,0.0,0.5235987755982988,0,0.6511423,0.055701334,1.0947205,0.42195377,0.5936925,0.8397397,1.2810001,0.25643277,-1.7109125,0.7358937,0.22287694,0.506653,0.5046311,0.5797473
-0.2,0.10000000000000003,1.4999999999999998,0.0,0.5235987755982988,0,0.6703789,0.071390584,1.10733,0.40110683,0.58558345,0.83776635,1.2288699,0.24881378,-1.6969869,1.0992849,0.20405072,-0.5609901,0.9639349,1.2742075
-0.2,0.10000000000000003,1.4999999999999998,0.0,0.5235987755982988,0,0.65181637,0.072692685,1.1143512,0.4154748,0.5791159,0.8488834,1.3108425,0.2725216,-1.704423,0.9266853,0.11303522,0.08362048,0.4261797,-0.2971184
-0.2,0.10000000000000003,1.4999999999999998,0.0,0.5235987755982988,0,0.67344457,0.06895136,1.1003205,0.4072633,0.6088261,0.8596388,1.3558654,0.2744955,-1.7295514,0.90210164,0.48477602,0.28923285,0.6384429,-0.4619462
-0.2,0.10000000000000003,1.4999999999999998,0.0,0.5235987755982988,0,0.6568778,0.059539866,1.0973285,0.408154,0.66203177,0.8413224,1.2175349,0.2521064,-1.6941366,0.8055646,0.24833623,0.3820868,0.83433646,-0.43810928
-0.2,0.10000000000000003,1.4999999999999998,0.0,0.5235987755982988,0,0.6473147,0.06822163,1.103907,0.40983286,0.64115316,0.8533625,1.2086718,0.2573804,-1.6969513,0.9145863,0.18359764,-0.26331124,0.95658284,0.20458077
-0.2,0.10000000000000003,1.4999999999999998,0.0,0.5235987755982988,0,0.6404121,0.075192675,1.1164744,0.42072788,0.638215,0.84246945,1.1829239,0.22640571,-1.6851828,0.81198186,0.2716801,0.49739632,1.0635381,0.8447085
-0.2,0.10000000000000003,1.4999999999999998,0.0,0.5235987755982988,0,0.66939336,0.07640196,1.1066121,0.41213697,0.6125333,0.84919566,1.1352808,0.27730852,-1.703649,0.90632194,0.47644335,0.12702568,0.83390284,1.6016479
-0.2,0.10000000000000003,1.4999999999999998,0.0,0.5235987755982988,0,0.6423518,0.06444268,1.1086138,0.40955415,0.60534275,0.8429259,1.2876809,0.25689036,-1.7017245,0.94565225,0.17947364,0.04863603,0.74701864,0.8398558
-0.2,0.10000000000000003,1.4999999999999998,0.0,0.5235987755982988,0,0.6810295,0.09351589,1.1155732,0.4067663,0.60695857,0.85416317,1.3134334,0.25466236,-1.7000085,0.8824085,0.45344508,-0.32642037,0.5820798,0.022278856
-0.2,0.10000000000000003,1.4999999999999998,0.0,0.5235987755982988,0,0.64552045,0.06187768,1.1097232,0.40540972,0.5775026,0.8602628,1.2586157,0.2675486,-1.6892735,0.7453177,-0.09651605,0.15600157,0.22475041,-0.1474902
-0.2,0.10000000000000003,1.4999999999999998,0.0,0.5235987755982988,0,0.653962,0.062712446,1.1151187,0.40314695,0.63126963,0.8416312,1.235353,0.25298354,-1.695739,0.8627985,0.23551355,0.15158458,0.39930907,-0.16248685
-0.2,0.10000000000000003,1.4999999999999998,0.0,0.5235987755982988,0,0.66581166,0.061518986,1.108622,0.39990932,0.59984034,0.8575849,1.1929861,0.26051894,-1.7080837,0.9297956,0.3537197,0.08031765,0.08140909,0.8758821
-0.2,0.10000000000000003,1.4999999999999998,0.0,0.5235987755982988,0,0.6372383,0.08167359,1.1058105,0.4338715,0.6356249,0.85903996,1.2014921,0.24775477,-1.680842,0.8469357,0.016700452,0.19723637,0.14112106,-0.077495374
-0.2,0.10000000000000003,1.4999999999999998,0.0,0.5235987755982988,0,0.6648776,0.06403191,1.1101058,0.39905545,0.5871628,0.8287867,1.2659513,0.26073882,-1.6864047,0.7313865,0.058667272,-0.08139266,0.9638504,0.9822453
-0.2,0.10000000000000003,1.4999999999999998,0.0,0.5235987755982988,0,0.6468378,0.07096069,1.1083505,0.4165846,0.652856,0.8628706,1.3479859,0.23073132,-1.685216,0.9251344,0.058241963,-0.20659883,0.33324292,0.73044175
-0.2,0.10000000000000003,1.4999999999999998,0.0,0.5235987755982988,0,0.655619,0.08668951,1.1055299,0.42351687,0.5934638,0.8422113,1.2732631,0.24244265,-1.6902142,0.9544239,0.21314044,0.44247118,0.8882425,0.08719157
-0.2,0.10000000000000003,1.4999999999999998,0.0,0.5235987755982988,0,0.66840315,0.08064953,1.0973811,0.42018342,0.5966102,0.83514065,1.3722394,0.26306617,-1.7010208,0.86741775,0.08474842,0.13468497,0.18492743,-1.6927706
-0.2,0.10000000000000003,1.4999999999999998,0.0,0.5235987755982988,0,0.65645033,0.09815157,1.1268872,0.4121185,0.6163669,0.8562059,1.3080999,0.24453793,-1.7134918,0.8946318,0.26028398,0.8456267,0.7205053,-0.18635161
-0.2,0.10000000000000003,1.4999999999999998,0.0,0.5235987755982988,0,0.64753574,0.06518788,1.1068068,0.41397047,0.5929057,0.84487367,1.2298368,0.25544727,-1.6915351,0.81652933,-0.061526872,-0.33394256,1.1015673,0.82101494
-0.2,0.10000000000000003,1.4999999999999998,0.0,0.5235987755982988,0,0.6585866,0.055534042,1.108992,0.41422868,0.6334514,0.85152966,1.1827893,0.22670482,-1.7004484,0.8781194,0.03027863,-0.1879452,-0.11425405,0.1921324
-0.2,0.10000000000000003,1.4999999999999998,0.0,0.5235987755982988,0,0.6655717,0.03924007,1.0990031,0.41130418,0.6255435,0.844881,1.3329368,0.22156179,-1.7194798,0.8786003,0.1389944,-0.03740368,0.64535266,-0.37803409
-0.2,0.10000000000000003,1.4999999999999998,0.0,0.5235987755982988,0,0.6530629,0.05866833,1.0946348,0.40940934,0.6362394,0.85409415,1.2005138,0.24580817,-1.6954411,0.927779,-0.011155608,0.27210167,0.69587696,-0.522747
-0.2,0.10000000000000003,1.4999999999999998,0.0,0.5235987755982988,0,0.65945303,0.06545831,1.1084893,0.4008497,0.5828671,0.8420814,1.2912313,0.2581405,-1.7193124,0.8548631,0.17891702,-0.048827536,0.8100165,0.8192672
-0.2,0.10000000000000003,1.4999999999999998,0.0,0.5235987755982988,0,0.6396028,0.058628228,1.1014274,0.40858293,0.5877845,0.8575475,1.2754847,0.25009796,-1.714601,0.9807201,0.13126692,-0.42620865,0.36216676,0.1561546
-0.2,0.10000000000000003,1.4999999999999998,0.0,0.5235987755982988,0,0.6355812,0.070471354,1.1051283,0.4156954,0.6290554,0.856238,1.3724074,0.25067458,-1.6989695,0.8664013,0.3572703,0.2469672,1.2177836,1.0821494
-0.2,0.10000000000000003,1.4999999999999998,0.0,0.5235987755982988,0,0.64975625,0.077857465,1.1050631,0.39988652,0.6446655,0.8500963,1.2542,0.25880817,-1.7059803,0.98158807,0.16117378,-0.16543682,0.8170094,0.5196393
-0.2,0.10000000000000003,1.4999999999999998,0.0,0.5235987755982988,0,0.6631274,0.06595732,1.1046883,0.41389185,0.67854655,0.84217024,1.2263412,0.2544513,-1.6959475,0.989986,0.37226337,0.2580624,0.27183583,0.112063184
-0.2,0.10000000000000003,1.4999999999999998,0.0,0.5235987755982988,0,0.6593868,0.033859268,1.1111273,0.40254998,0.62804645,0.8430294,1.2251328,0.2569202,-1.6925377,0.9617372,-0.05540349,0.22189903,0.6281198,0.91193575
-0.2,0.10000000000000003,1.4999999999999998,0.0,0.5235987755982988,0,0.6526056,0.05978264,1.09763,0.408299,0.6192038,0.8510525,1.3094094,0.2472793,-1.7010882,0.8286725,0.24476811,0.7121896,0.3330265,1.0612184
-0.2,0.10000000000000003,1.4999999999999998,0.0,0.5235987755982988,0,0.6437411,0.061519284,1.1017815,0.41427734,0.6293001,0.84866166,1.3014408,0.22952664,-1.7031935,1.0056789,0.27780077,0.48247978,0.31625864,1.4927359
-0.2,0.10000000000000003,1.4999999999999998,0.0,0.5235987755982988,0,0.65718544,0.05737811,1.0993768,0.40669996,0.58997273,0.84114677,1.2913998,0.24374004,-1.7004867,0.83044684,0.0751146,0.1255135,0.6704993,-0.2599996
-0.2,0.10000000000000003,1.4999999999999998,0.0,0.5235987755982988,0,0.6594519,0.06813265,1.1007894,0.4167771,0.62425685,0.8448498,1.2106084,0.23996757,-1.7122492,0.9094889,0.25057793,0.31361797,0.34218615,-0.40086243
-0.2,0.10000000000000003,1.4999999999999998,0.0,0.5235987755982988,0,0.65790224,0.06206977,1.1032438,0.43448764,0.59402794,0.856009,1.2646152,0.25048518,-1.7063584,1.0267992,0.10110995,-0.1866689,-0.26662904,0.27849445
-0.2,0.10000000000000003,1.4999999999999998,0.0,0.5235987755982988,0,0.6647189,0.050788693,1.0820159,0.42071798,0.60147816,0.84883577,1.235125,0.23432098,-1.7033385,0.9053021,0.19368795,0.28038666,0.92364293,0.13033292
-0.2,0.10000000000000003,1.4999999999999998,0.0,0.5235987755982988,0,0.66323334,0.06873679,1.0930018,0.40899244,0.63286245,0.85540074,1.1987859,0.24951905,-1.6976454,0.9618309,-0.04793063,0.07959132,0.5161427,0.081908315
-0.2,0.10000000000000003,1.4999999999999998,0.0,0.5235987755982988,0,0.6726763,0.074396305,1.1032927,0.3983868,0.60980433,0.8692446,1.3439072,0.26879916,-1.7076339,0.86528724,0.18534495,-0.29311132,0.45057085,0.38465694
-0.2,0.10000000000000003,1.4999999999999998,0.0,0.5235987755982988,0,0.6555164,0.06803786,1.1110309,0.41967073,0.61444753,0.8396047,1.2154738,0.24401,-1.7201648,0.9392102,0.34574473,0.59791195,0.9110776,0.2428203
-0.2,0.10000000000000003,1.4999999999999998,0.0,0.5235987755982988,0,0.6522382,0.04806253,1.1029447,0.40918568,0.6181962,0.86047554,1.2060494,0.2683309,-1.7095236,0.73078036,0.23368338,0.32693312,0.26913366,0.17846729
-0.2,0.10000000000000003,1.4999999999999998,0.0,0.5235987755982988,0,0.667534,0.065272994,1.0908166,0.41519114,0.5993438,0.84695303,1.2711316,0.2513243,-1.6713439,1.0614415,0.16529115,0.7405862,0.58446056,0.22594446
-0.2,0.10000000000000003,1.4999999999999998,0.0,0.5235987755982988,0,0.6703785,0.0580291,1.0879785,0.42078933,0.59421223,0.84371746,1.2844185,0.24645396,-1.7247634,0.8744472,0.32837433,0.3206078,1.1994528,0.7248114
-0.2,0.10000000000000003,1.4999999999999998,0.0,0.5235987755982988,0,0.6899926,0.053969614,1.1147093,0.41654715,0.6320206,0.83002275,1.2751279,0.22915934,-1.7204586,0.89379257,-0.03129575,0.33419427,0.4257254,0.6299773
-0.2,0.10000000000000003,1.4999999999999998,0.0,0.5235987755982988,0,0.63288105,0.090980634,1.1033213,0.413218,0.6237498,0.8743925,1.256031,0.23956035,-1.7066349,0.99511653,-0.17511068,0.18167603,0.08691057,0.22931519
-0.2,0.10000000000000003,1.4999999999999998,0.0,0.5235987755982988,0,0.65275824,0.07064643,1.1040788,0.40880346,0.6290646,0.8613984,1.22534,0.23977886,-1.7010199,0.6184448,0.32352918,0.5920797,0.6052834,-0.6085623
-0.2,0.10000000000000003,1.4999999999999998,0.0,0.5235987755982988,0,0.66340375,0.06779027,1.1075903,0.4122837,0.6340182,0.8454483,1.2391492,0.24228768,-1.698526,0.79248124,0.39972144,0.023439901,1.2484266,0.0048515997
-0.2,0.10000000000000003,1.4999999999999998,0.0,0.5235987755982988,0,0.64620954,0.07148882,1.1108773,0.42481577,0.641786,0.85326004,1.3163762,0.26601213,-1.7077175,0.87947613,0.12503265,0.21166399,0.3239401,0.76024747
-0.2,0.10000000000000003,1.4999999999999998,0.0,0.5235987755982988,0,0.6587071,0.05779618,1.1075901,0.4128042,0.62703043,0.8495089,1.2245662,0.24723163,-1.6912796,0.9105146,0.36901957,0.4624371,0.4888055,-0.58979255
-0.2,0.10000000000000003,1.4999999999999998,0.0,0.5235987755982988,0,0.6691995,0.061062172,1.0917366,0.42206666,0.61346585,0.8444084,1.3341471,0.24362311,-1.7242286,0.96745014,0.40518686,0.3973553,0.30510506,1.7829577
-0.2,0.10000000000000003,1.4999999999999998,0.0,0.5235987755982988,0,0.68705475,0.045326702,1.0960685,0.42042956,0.6404624,0.8490443,1.3513829,0.2540713,-1.7195628,0.902344,0.2210856,-0.2033127,0.57126594,0.84086347
-0.2,0.10000000000000003,1.4999999999999998,0.0,0.5235987755982988,0,0.64365894,0.074124336,1.1002837,0.42251006,0.61483467,0.86206686,1.2500465,0.2387243,-1.696498,0.9967586,0.09826822,0.35723597,0.5132033,0.18629025
-0.2,0.10000000000000003,1.4999999999999998,0.0,0.5235987755982988,0,0.64683753,0.06762165,1.1105032,0.40326574,0.6346548,0.8468812,1.2658578,0.27894083,-1.69178,0.852516,0.12649663,0.32505998,0.72455496,-0.11576427
-0.2,0.10000000000000003,1.4999999999999998,0.0,0.5235987755982988,0,0.65099424,0.063975684,1.1093775,0.41913554,0.60252535,0.8486208,1.2269706,0.25258774,-1.7078805,0.8249502,0.12848125,-0.09065334,0.64360064,-0.7890512
-0.2,0.10000000000000003,1.4999999999999998,0.0,0.5235987755982988,0,0.66565657,0.058761578,1.1047517,0.4176309,0.6340796,0.8336859,1.2031293,0.2318795,-1.6929233,0.7973625,-0.13235046,-0.028942263,1.0856394,1.0988029
-0.2,0.10000000000000003,1.4999999999999998,0.0,0.5235987755982988,0,0.6587463,0.077442914,1.1052705,0.4238956,0.64977086,0.8453643,1.2243428,0.27653977,-1.693763,0.83495235,0.06442052,0.4390073,0.8731239,0.028709022
-0.2,0.10000000000000003,1.4999999999999998,0.0,0.5235987755982988,0,0.6907014,0.055144206,1.1212708,0.41975123,0.60999775,0.8272422,1.22177,0.23892114,-1.6884476,0.99467564,0.047545366,0.6891658,0.81737435,0.38015622
-0.2,0.10000000000000003,1.4999999999999998,0.0,0.5235987755982988,0,0.653752,0.06847324,1.0998839,0.40654096,0.6173102,0.85347533,1.2741665,0.25550944,-1.7006623,0.9151773,0.22901528,-0.36705148,0.7036485,-0.10412268
-0.2,0.10000000000000003,1.4999999999999998,0.0,0.5235987755982988,0,0.68105227,0.05629326,1.1035511,0.41293797,0.6035272,0.85520947,1.3259003,0.2618747,-1.6816345,0.97416353,0.35084286,0.71571815,0.45729744,0.3930231
-0.2,0.10000000000000003,1.4999999999999998,0.0,0.5235987755982988,0,0.66109234,0.0749719,1.1044921,0.41317537,0.65515697,0.84643847,1.2485104,0.22272724,-1.6991692,0.8727728,0.23864184,0.84402406,0.6590005,0.24682227
-0.2,0.10000000000000003,1.4999999999999998,0.0,0.5235987755982988,0,0.6580761,0.064152725,1.1022928,0.41818985,0.6283707,0.84949785,1.2476048,0.25244257,-1.6921133,0.93703324,0.2562107,0.36731318,0.75992364,0.5581761
-0.2,0.10000000000000003,1.4999999999999998,0.0,0.5235987755982988,0,0.6608496,0.065817945,1.103074,0.4145044,0.6019981,0.8486255,1.2978102,0.25625205,-1.691335,0.84007937,0.29917544,0.24335982,0.18017824,-0.4937713
-0.2,0.10000000000000003,1.4999999999999998,0.0,0.5235987755982988,0,0.63534653,0.06757283,1.1019014,0.41696385,0.6170018,0.86579454,1.2503622,0.25806642,-1.704131,0.96460444,0.18682298,0.49622965,0.6279121,-0.32410792
-0.2,0.10000000000000003,1.4999999999999998,0.0,0.5235987755982988,0,0.6452389,0.07221742,1.1199983,0.40843582,0.63369,0.84809095,1.2302992,0.26353115,-1.7046076,0.75016546,0.09507841,0.5421533,0.6846748,1.1529964
-0.2,0.10000000000000003,1.4999999999999998,0.0,0.5235987755982988,0,0.6308068,0.082300454,1.1168588,0.41696236,0.61656123,0.8584644,1.2759938,0.252459,-1.7133752,0.88812536,0.27354798,0.11622402,0.35226357,1.1633435
-0.2,0.10000000000000003,1.4999999999999998,0.0,0.5235987755982988,0,0.65459645,0.076763734,1.1023048,0.41661137,0.63156784,0.86046106,1.2922825,0.25003234,-1.6999296,0.95684564,0.403607,0.103037894,0.23966901,-0.39074606
-0.2,0.10000000000000003,1.4999999999999998,0.0,0.5235987755982988,0,0.64983094,0.095794395,1.0987868,0.41031155,0.6182309,0.8619111,1.2769794,0.25001886,-1.7126976,0.93458015,0.046025474,0.13273999,0.6352648,0.86641467
-0.2,0.10000000000000003,1.4999999999999998,0.0,0.5235987755982988,0,0.66026366,0.07752746,1.0978557,0.40408373,0.5957368,0.8508864,1.3158218,0.27866247,-1.6992325,1.0141666,0.30454016,0.25899664,0.9469332,-1.0348265
-0.2,0.10000000000000003,1.4999999999999998,0.0,0.5235987755982988,0,0.6491032,0.08813327,1.1074235,0.42568016,0.6269271,0.84411377,1.295189,0.2607044,-1.6967275,0.92053026,-0.013978285,-0.07276427,0.82213664,-0.14344428
-0.2,0.10000000000000003,1.4999999999999998,0.0,0.5235987755982988,0,0.64604884,0.07707946,1.0936353,0.41442162,0.6064013,0.8736184,1.2531095,0.25120133,-1.7158159,0.8646194,-0.010835733,0.18048705,0.43686017,0.1241736
-0.2,0.10000000000000003,1.4999999999999998,0.0,0.5235987755982988,0,0.6588046,0.05535304,1.1009097,0.4176698,0.5765949,0.85049933,1.3006989,0.24646178,-1.6997836,0.91113615,0.19531907,0.0571553,0.2868249,-0.43276268
-0.2,0.10000000000000003,1.4999999999999998,0.0,0.5235987755982988,0,0.66190135,0.07252589,1.0965297,0.40256315,0.6194364,0.85094166,1.3056567,0.2488737,-1.6875415,0.83106357,0.071229994,0.13159242,0.64140195,0.21002439
-0.2,0.10000000000000003,1.4999999999999998,0.0,0.5235987755982988,0,0.6457541,0.089464,1.1138349,0.41970894,0.6300225,0.8650721,1.1606494,0.2328717,-1.69998,1.0810486,0.11436343,0.9087765,1.125739,-0.4354971
-0.2,0.10000000000000003,1.4999999999999998,0.0,0.5235987755982988,0,0.6483978,0.05815817,1.1164097,0.41039222,0.623363,0.8504576,1.2584912,0.27072763,-1.7031306,0.9438247,0.22660764,-0.337384,0.64569414,0.28691846
-0.2,0.10000000000000003,1.4999999999999998,0.0,0.5235987755982988,0,0.6473341,0.06327413,1.104201,0.40652326,0.59496623,0.8650571,1.2780551,0.24101016,-1.7085276,0.9111706,-0.07446094,0.2689872,0.23017117,0.6366078
-0.2,0.10000000000000003,1.4999999999999998,0.0,0.5235987755982988,0,0.6553651,0.0665637,1.101477,0.41148794,0.58585346,0.8656605,1.2799784,0.25951803,-1.6806507,0.8545249,0.37222868,-0.1869896,0.22213073,0.90505695
-0.2,0.10000000000000003,1.4999999999999998,0.0,0.5235987755982988,0,0.658091,0.08569181,1.1080118,0.41023374,0.607198,0.8501878,1.3084469,0.23267308,-1.7062153,0.7762743,0.2530377,0.048735365,0.5865159,-0.09667393
-0.2,0.10000000000000003,1.4999999999999998,0.0,0.5235987755982988,0,0.6481037,0.07518623,1.1016195,0.41774634,0.60592926,0.85908854,1.3046709,0.26619318,-1.6974113,1.0560125,0.18423218,0.3350011,0.3237846,1.0780126
-0.2,0.10000000000000003,1.4999999999999998,0.0,0.5235987755982988,0,0.65210414,0.08991263,1.0907619,0.42046508,0.6194472,0.8562385,1.2807053,0.27004117,-1.7026528,0.89291555,0.24038261,0.07087617,0.3519761,-0.1001269
-0.2,0.10000000000000003,1.4999999999999998,0.0,0.5235987755982988,0,0.67028135,0.08480909,1.098626,0.40691426,0.63718987,0.86291134,1.2309536,0.2641261,-1.7050611,0.86673397,0.1037138,0.4637935,1.4689277,-0.09675253
-0.2,0.10000000000000003,1.4999999999999998,0.0,0.5235987755982988,0,0.6595863,0.057379648,1.1073632,0.4088299,0.6156785,0.8530434,1.2765272,0.25826418,-1.6972327,0.8245731,0.53003705,-0.21330199,0.7411349,-0.05558065
-0.2,0.10000000000000003,1.4999999999999998,0.0,0.5235987755982988,0,0.66731304,0.07314853,1.0984564,0.4179942,0.62250465,0.84252995,1.2524507,0.2346578,-1.6999887,0.7982603,-0.09081124,-0.36790532,0.8658758,1.4804797
-0.2,0.10000000000000003,1.4999999999999998,0.0,0.5235987755982988,0,0.6555652,0.056767892,1.1028954,0.42087945,0.6291662,0.8496443,1.2385596,0.26277095,-1.7004185,0.8622619,0.070592366,0.032901168,0.41200694,1.6721492
-0.2,0.10000000000000003,1.4999999999999998,0.0,0.5235987755982988,0,0.6668862,0.059337646,1.0980539,0.42117682,0.67072105,0.8660566,1.2553453,0.2705989,-1.6928215,0.9765961,0.28487164,0.41124585,0.59533894,0.6698656
-0.2,0.10000000000000003,1.4999999999999998,0.0,0.5235987755982988,0,0.65378135,0.07436745,1.1039093,0.4184804,0.6011826,0.8484214,1.2848847,0.23184028,-1.7036368,0.85593,0.030395733,0.11768506,1.0683448,1.3536483
-0.2,0.10000000000000003,1.4999999999999998,0.0,0.5235987755982988,0,0.66179967,0.046992656,1.1153045,0.42193782,0.57372046,0.8411632,1.2570207,0.24662945,-1.7078308,1.1404716,0.05754844,0.021267043,0.8179678,-0.842802
-0.2,0.10000000000000003,1.4999999999999998,0.0,0.5235987755982988,0,0.6651352,0.06628771,1.0950999,0.41342786,0.6310703,0.8478487,1.2964474,0.2513716,-1.6709763,0.94027543,-0.08887068,0.3998235,0.7379469,0.45724252
-0.2,0.10000000000000003,1.4999999999999998,0.0,0.5235987755982988,0,0.65671945,0.076853655,1.0951109,0.4189766,0.6376858,0.8565365,1.3005435,0.25402606,-1.715732,1.0493366,0.13859783,-0.009643035,0.45140472,1.0671387
-0.2,0.10000000000000003,1.4999999999999998,0.0,0.5235987755982988,0,0.6513008,0.071891434,1.1047547,0.41897646,0.63926154,0.84801155,1.2947559,0.2586314,-1.7186228,1.0214186,0.28671584,-0.0703716,0.7301109,1.0845082
-0.2,0.10000000000000003,1.4999999999999998,0.0,0.5235987755982988,0,0.65079874,0.068567164,1.1166177,0.40838242,0.6139458,0.8593265,1.2550248,0.24882337,-1.7125142,0.92267054,0.09285228,0.4725213,0.7723445,0.9142321
-0.2,0.10000000000000003,1.4999999999999998,0.0,0.5235987755982988,0,0.64836633,0.06606911,1.115737,0.41394386,0.5896619,0.8665193,1.2469196,0.2803819,-1.7097309,0.9235369,0.06881815,1.0560595,0.65523416,-0.29020798
-0.2,0.10000000000000003,1.4999999999999998,0.0,0.5235987755982988,0,0.6459351,0.07190179,1.1073214,0.4097993,0.63073206,0.8562672,1.2728726,0.22615567,-1.7028961,0.70901746,-0.09195065,0.119921334,1.1126572,-0.61186004
-0.2,0.10000000000000003,1.4999999999999998,0.0,0.5235987755982988,0,0.659184,0.053847067,1.1109159,0.42363554,0.6775104,0.85716474,1.2526014,0.272943,-1.694856,0.9357293,0.15293668,0.45001748,0.74261135,0.62707454
-0.2,0.10000000000000003,1.4999999999999998,0.0,0.5235987755982988,0,0.6734869,0.05652778,1.1124078,0.4131071,0.61129355,0.8635759,1.2822962,0.26212418,-1.7106868,0.96317524,0.130239,0.16541718,1.2359375,2.7793183
-0.2,0.10000000000000003,1.4999999999999998,0.0,0.5235987755982988,0,0.6589122,0.047108185,1.1139876,0.42737782,0.6132572,0.86824167,1.2821705,0.25794938,-1.6931767,0.7728809,0.026062522,0.11205373,0.22756815,1.4439275
-0.2,0.10000000000000003,1.4999999999999998,0.0,0.5235987755982988,0,0.6727385,0.03985894,1.0991848,0.413423,0.6098474,0.86381775,1.2979811,0.2670991,-1.7047042,1.0233307,-0.14022171,-0.07907591,0.24981678,-0.33850136
-0.2,0.10000000000000003,1.4999999999999998,0.0,0.5235987755982988,0,0.65285194,0.07803666,1.113124,0.42080855,0.64265776,0.87348366,1.3050845,0.2445823,-1.7030082,0.8086625,0.13785444,0.17405269,0.63867694,1.48729
-0.2,0.10000000000000003,1.4999999999999998,0.0,0.5235987755982988,0,0.6549308,0.0726538,1.1038904,0.4171124,0.64150226,0.83126146,1.3292844,0.260467,-1.6735982,0.8520211,0.23535226,0.5795104,0.64675987,0.47752228
-0.2,0.10000000000000003,1.4999999999999998,0.0,0.5235987755982988,0,0.645721,0.084854744,1.1066477,0.411646,0.64634746,0.8364716,1.3848351,0.25483057,-1.7027965,0.91112965,0.3295172,0.5456316,0.9657217,0.8726149
-0.2,0.10000000000000003,1.4999999999999998,0.0,0.5235987755982988,0,0.66061443,0.078969136,1.0945302,0.4005186,0.65470874,0.84166217,1.3061198,0.25783858,-1.6809822,0.96011746,0.09507939,0.08033823,0.46452275,1.210308
-0.2,0.10000000000000003,1.4999999999999998,0.0,0.5235987755982988,0,0.66150934,0.066359535,1.1077656,0.40628153,0.67301345,0.84821147,1.266602,0.25330752,-1.7049032,0.88078517,-0.11440449,0.30763978,0.7729765,1.4042172
-0.2,0.10000000000000003,1.4999999999999998,0.0,0.5235987755982988,0,0.6485286,0.07149592,1.0933827,0.41063964,0.6797257,0.8482084,1.2481459,0.24352756,-1.703091,0.9094577,0.16622083,0.1973355,0.63776875,-0.3171302
-0.2,0.10000000000000003,1.4999999999999998,0.0,0.5235987755982988,0,0.66946167,0.07798242,1.1242074,0.40764078,0.6454358,0.8321079,1.2827877,0.25399426,-1.6874349,0.88735366,-0.023378137,0.043621533,1.0215205,0.31391904
-0.2,0.10000000000000003,1.4999999999999998,0.0,0.5235987755982988,0,0.6420563,0.07729231,1.1067563,0.40530547,0.62671006,0.8221441,1.3187491,0.2580418,-1.7097118,0.8812431,-0.102744564,-0.30522352,0.9484898,0.39200217
-0.2,0.10000000000000003,1.4999999999999998,0.0,0.5235987755982988,0,0.6406864,0.07880639,1.1037115,0.41778657,0.66730523,0.82247394,1.3503734,0.2742592,-1.7233104,0.9392695,0.5780738,0.20837742,0.57672185,-0.05029722
-0.2,0.10000000000000003,1.4999999999999998,0.0,0.5235987755982988,0,0.63348156,0.08023408,1.1028566,0.40220064,0.6147321,0.81396025,1.3504497,0.23075032,-1.6951469,1.0025198,0.04417053,0.17769347,0.76582396,-0.22303429
-0.2,0.10000000000000003,1.4999999999999998,0.0,0.5235987755982988,0,0.6738327,0.0826143,1.1099405,0.40879545,0.66971123,0.81852293,1.3101186,0.25098434,-1.6850345,0.9870423,0.2524873,-0.12376164,0.91892505,1.0142881
-0.2,0.10000000000000003,1.4999999999999998,0.0,0.5235987755982988,0,0.6562784,0.07260519,1.1254705,0.40407056,0.66342115,0.80300456,1.2728801,0.2604384,-1.7037076,0.9983839,0.10636825,0.29576156,1.0765932,1.0543883
-0.2,0.10000000000000003,1.4999999999999998,0.0,0.5235987755982988,0,0.65382016,0.087799504,1.0945132,0.4093086,0.6169857,0.8279884,1.2785577,0.27139044,-1.6875639,0.9601255,0.16684659,-0.092024095,0.06974462,-1.1671398
-0.2,0.10000000000000003,1.4999999999999998,0.0,0.5235987755982988,0,0.6721261,0.05975843,1.1092292,0.40785265,0.6155182,0.8455617,1.2360955,0.25889534,-1.6762905,0.85004544,0.2100169,0.1694663,0.44563717,1.3597924
-0.2,0.10000000000000003,1.4999999999999998,0.0,0.5235987755982988,0,0.64944625,0.06898792,1.0981026,0.4162837,0.6236069,0.83491075,1.2321707,0.21924892,-1.7033195,0.9495372,0.6032855,0.34383526,0.85244614,0.044293422
-0.2,0.10000000000000003,1.4999999999999998,0.0,0.5235987755982988,0,0.64880157,0.079616725,1.103517,0.4196712,0.6340411,0.8394606,1.295134,0.2499974,-1.7022712,0.93405825,0.3133727,0.028873242,0.6734913,0.45773372
-0.2,0.10000000000000003,1.4999999999999998,0.0,0.5235987755982988,0,0.6531801,0.082803555,1.0998594,0.4091282,0.5945922,0.84321576,1.2835804,0.2551242,-1.7045248,0.7818757,0.22970335,0.16385281,0.027851883,-0.29273123
-0.2,0.10000000000000003,1.4999999999999998,0.0,0.5235987755982988,0,0.66210216,0.065487504,1.09656,0.40508497,0.6391606,0.840415,1.2754827,0.2492054,-1.6916289,1.0326877,-0.08548615,0.09351669,0.91865027,-0.3353386
-0.2,0.10000000000000003,1.4999999999999998,0.0,0.5235987755982988,0,0.66659826,0.06407095,1.0882689,0.42153943,0.63044995,0.82855546,1.2097406,0.25199914,-1.6668227,1.0537255,0.12792973,0.48422164,0.088928655,1.0939457
-0.2,0.10000000000000003,1.4999999999999998,0.0,0.5235987755982988,0,0.67816854,0.10124163,1.0848026,0.4054028,0.6495628,0.81479,1.2692852,0.24487896,-1.686979,0.7061343,0.21642639,0.37015983,0.85588306,0.73065984
-0.2,0.10000000000000003,1.4999999999999998,0.0,0.5235987755982988,0,0.6687818,0.069378726,1.1169297,0.41170883,0.63918555,0.83609545,1.2218804,0.25000033,-1.703578,0.9674066,0.31363052,0.5975391,0.5548054,-0.19817254
-0.2,0.10000000000000003,1.4999999999999998,0.0,0.5235987755982988,0,0.6482545,0.08623792,1.1070304,0.4216807,0.65380526,0.82944953,1.2420353,0.2755567,-1.7050292,0.8976686,0.29795855,-0.05972769,1.0727924,0.8296521
-0.2,0.10000000000000003,1.4999999999999998,0.0,0.5235987755982988,0,0.6837848,0.08412357,1.1127523,0.41050488,0.68229413,0.8242133,1.2372423,0.23824528,-1.6978295,0.8248032,-0.26697788,-0.056410193,0.9970867,0.020703975
-0.2,0.10000000000000003,1.4999999999999998,0.0,0.5235987755982988,0,0.63894826,0.08314977,1.098956,0.41583782,0.63893396,0.8404265,1.2533689,0.25206378,-1.6982402,0.94758046,0.32299635,0.6332503,0.17962404,0.6165261
-0.2,0.10000000000000003,1.4999999999999998,0.0,0.5235987755982988,0,0.668134,0.066304475,1.1208658,0.41299564,0.6390273,0.84847313,1.3004006,0.2430116,-1.6847523,1.0064126,0.2413125,0.7427147,0.35608524,0.26459816
-0.2,0.10000000000000003,1.4999999999999998,0.0,0.5235987755982988,0,0.6409261,0.10012427,1.1058813,0.40220013,0.59115326,0.80749726,1.2762958,0.28049806,-1.695176,0.90646744,-0.18138653,0.4777012,0.28523582,0.2780155
-0.2,0.10000000000000003,1.4999999999999998,0.0,0.5235987755982988,0,0.6840638,0.05648839,1.1065037,0.41548845,0.6503976,0.83354884,1.2510238,0.24452236,-1.6979015,0.95508236,0.597217,0.3678985,0.52592856,-0.34283534
-0.2,0.10000000000000003,1.4999999999999998,0.0,0.5235987755982988,0,0.6521726,0.061460435,1.1159819,0.40756002,0.63250935,0.8376147,1.2519089,0.23531544,-1.6951115,0.7940377,0.3583717,0.012665413,1.1012539,1.244596
-0.2,0.10000000000000003,1.4999999999999998,0.0,0.5235987755982988,0,0.6433601,0.06839692,1.1100758,0.4063106,0.6338278,0.83929646,1.3878537,0.26148874,-1.6885216,0.7455402,0.032593,0.79459596,0.7340745,0.033507556
-0.2,0.10000000000000003,1.4999999999999998,0.0,0.5235987755982988,0,0.6427324,0.06495074,1.1010646,0.40897766,0.6169158,0.84913796,1.3108864,0.25310537,-1.7147635,0.9252168,0.2856045,0.5609532,0.31426367,1.5567633
-0.2,0.10000000000000003,1.4999999999999998,0.0,0.5235987755982988,0,0.6541866,0.095918015,1.0977912,0.40492478,0.6195556,0.82776755,1.231074,0.25465226,-1.7117838,0.9787703,0.41053167,0.025002103,-0.15498476,1.3126034
-0.2,0.10000000000000003,1.4999999999999998,0.0,0.5235987755982988,0,0.63900524,0.08585054,1.0994693,0.40926304,0.61304414,0.8487133,1.219518,0.24255869,-1.6851283,0.92504376,-0.192885,0.00829215,0.4323132,1.388445
-0.2,0.10000000000000003,1.4999999999999998,0.0,0.5235987755982988,0,0.63917786,0.06283243,1.1183876,0.4112728,0.6352844,0.835648,1.2782562,0.26527268,-1.7104948,0.9192458,0.41464412,0.1650682,0.5978605,0.8237957
-0.2,0.10000000000000003,1.4999999999999998,0.0,0.5235987755982988,0,0.65313625,0.061864525,1.1031603,0.41740027,0.6480142,0.82806826,1.2896662,0.25082684,-1.7137052,0.86382943,0.216998,0.17128888,0.2887986,0.35333633
-0.2,0.10000000000000003,1.4999999999999998,0.0,0.5235987755982988,0,0.65619123,0.08128478,1.1095535,0.4146581,0.6792619,0.83444667,1.2395887,0.24067199,-1.7078637,0.9343631,-0.009536953,0.50282615,1.357878,1.3727129
-0.2,0.10000000000000003,1.4999999999999998,0.0,0.5235987755982988,0,0.6433198,0.08561961,1.1066567,0.41228426,0.613192,0.8422877,1.1914837,0.25983304,-1.7150612,0.7258381,0.37477547,-0.33163702,1.3571544,0.30675942
-0.2,0.10000000000000003,1.4999999999999998,0.0,0.5235987755982988,0,0.65647227,0.06869308,1.0985506,0.41566533,0.58837485,0.84226674,1.2824199,0.24804682,-1.7197851,1.1201648,0.439261,0.037343726,1.1701168,0.16992274
-0.2,0.10000000000000003,1.4999999999999998,0.0,0.5235987755982988,0,0.64363855,0.07778961,1.1029639,0.4166709,0.6468101,0.82220954,1.2861792,0.28366506,-1.7148604,0.7389881,0.21002571,0.37707564,0.19649047,0.58215535
-0.2,0.10000000000000003,1.4999999999999998,0.0,0.5235987755982988,0,0.63546103,0.07270073,1.1228094,0.40465322,0.627049,0.8415864,1.2410657,0.24291529,-1.694887,0.8730147,-0.036624923,0.17418975,0.87022257,0.8044045
-0.2,0.10000000000000003,1.4999999999999998,0.0,0.5235987755982988,0,0.6462535,0.062234912,1.1038465,0.41713274,0.6360512,0.8460167,1.2198728,0.23286974,-1.7179633,0.9106727,0.32212844,0.20609523,0.27403283,0.41476434
-0.2,0.10000000000000003,1.4999999999999998,0.0,0.5235987755982988,0,0.6493595,0.06510135,1.0976675,0.4164242,0.6234872,0.833354,1.2693125,0.25749728,-1.6980847,0.947686,0.32812464,0.07842314,0.8662876,0.553933
-0.2,0.10000000000000003,1.4999999999999998,0.0,0.5235987755982988,0,0.67145485,0.057064343,1.1066567,0.4065992,0.6571107,0.8366752,1.2678127,0.26993304,-1.6926392,0.8372498,0.12602858,-0.021080319,0.76626694,0.96970254
-0.2,0.10000000000000003,1.4999999999999998,0.0,0.5235987755982988,0,0.6384909,0.052249365,1.1110053,0.41397017,0.6393212,0.8370296,1.3771665,0.27184996,-1.7159835,0.96440434,0.060168747,0.04786871,-0.02737463,1.4785714
-0.2,0.10000000000000003,1.4999999999999998,0.0,0.5235987755982988,0,0.663452,0.06932383,1.0928429,0.40211806,0.63835835,0.8439216,1.304637,0.27091557,-1.7060573,0.87768584,0.165686,-0.023731252,0.5139547,-0.49938124
-0.2,0.10000000000000003,1.4999999999999998,0.0,0.5235987755982988,0,0.6607548,0.06078524,1.1098924,0.40810055,0.6317504,0.8371784,1.3169351,0.23297521,-1.7075403,0.9538654,0.25134748,0.69278187,0.7874664,-0.13783386
-0.2,0.10000000000000003,1.4999999999999998,0.0,0.5235987755982988,0,0.6420362,0.0763305,1.095572,0.41603437,0.63730395,0.80035454,1.225017,0.26035854,-1.689969,0.9349602,0.42016926,0.5771389,0.5359927,1.0700716
-0.2,0.10000000000000003,1.4999999999999998,0.0,0.5235987755982988,0,0.65772253,0.07126491,1.097012,0.40697074,0.6233927,0.82361764,1.2219745,0.2595621,-1.6914583,0.7756821,0.20623675,0.23030502,0.21713792,1.1762202
-0.2,0.10000000000000003,1.4999999999999998,0.0,0.5235987755982988,0,0.6328402,0.07657709,1.114384,0.41435146,0.6280086,0.8367332,1.1683561,0.23499888,-1.7029965,1.1027834,0.1156441,0.24000947,0.50937295,0.8217685
-0.2,0.10000000000000003,1.4999999999999998,0.0,0.5235987755982988,0,0.64273524,0.068474874,1.1047666,0.41489977,0.625197,0.8338061,1.2150419,0.24472986,-1.7037034,0.95563173,0.4549729,0.28658134,0.8793421,1.0985928
-0.2,0.10000000000000003,1.4999999999999998,0.0,0.5235987755982988,0,0.6500756,0.09253348,1.096257,0.40094006,0.6133615,0.82942593,1.2756075,0.25792778,-1.7132236,0.82742345,0.09208916,0.31532946,0.43642816,0.15900439
-0.2,0.10000000000000003,1.4999999999999998,0.0,0.5235987755982988,0,0.6384279,0.07521642,1.1018091,0.41893637,0.5945681,0.83193064,1.2480382,0.25166172,-1.6868281,1.0427619,0.46653602,-0.090775974,0.71313256,0.75697947
-0.2,0.10000000000000003,1.4999999999999998,0.0,0.5235987755982988,0,0.6347183,0.07663463,1.1151584,0.40083975,0.6239818,0.8272575,1.2280644,0.22949909,-1.7010254,0.72925705,0.037094563,0.17755012,0.44455236,1.0376902
-0.2,0.10000000000000003,1.4999999999999998,0.0,0.5235987755982988,0,0.663071,0.09196505,1.1000361,0.42358968,0.62483096,0.83493966,1.2922554,0.265398,-1.7071482,0.98199445,0.08619252,-0.15219024,0.13649353,0.9842059
-0.2,0.10000000000000003,1.4999999999999998,0.0,0.5235987755982988,0,0.6443448,0.06984518,1.1010568,0.40736598,0.6544786,0.8409563,1.2818437,0.27532858,-1.688909,0.88516396,-0.075940296,-0.072588064,0.68275625,0.45961392
-0.2,0.10000000000000003,1.4999999999999998,0.0,0.5235987755982988,0,0.64590335,0.08330032,1.1144329,0.4118375,0.645847,0.8378429,1.2968953,0.23536964,-1.7042975,0.83089656,0.23603341,0.13654558,0.9903153,2.0176158
-0.2,0.10000000000000003,1.4999999999999998,0.0,0.5235987755982988,0,0.64156663,0.0811796,1.1109456,0.40830228,0.6114569,0.8239663,1.2098097,0.24664219,-1.6707842,0.83175576,-0.0059142113,0.280962,0.6448607,1.3389999
-0.2,0.10000000000000003,1.4999999999999998,0.0,0.5235987755982988,0,0.6563163,0.09422052,1.0957774,0.40019888,0.6309356,0.8359214,1.2419406,0.21788962,-1.7218859,0.8537544,-0.024999863,0.6981532,0.55071974,0.22944868
-0.2,0.10000000000000003,1.4999999999999998,0.0,0.5235987755982988,0,0.6607541,0.06761281,1.0950766,0.4243192,0.6171686,0.8336452,1.2661769,0.26440367,-1.7185353,0.79622215,0.094868936,0.6057472,0.4509769,1.3058335
-0.2,0.10000000000000003,1.4999999999999998,0.0,0.5235987755982988,0,0.664233,0.09084511,1.1048032,0.41461316,0.5799985,0.838195,1.2004335,0.26326358,-1.7111723,0.7642612,0.21737932,-0.03953349,0.06785824,0.26033884
-0.2,0.10000000000000003,1.4999999999999998,0.0,0.5235987755982988,0,0.6580509,0.071076035,1.1049821,0.4117485,0.58346784,0.82299984,1.2574006,0.25193167,-1.691633,0.94384897,0.24353738,0.09018845,0.4112784,-0.4320139
-0.2,0.10000000000000003,1.4999999999999998,0.0,0.5235987755982988,0,0.66514444,0.075411655,1.1029978,0.41277325,0.63798296,0.8398334,1.2710795,0.26157248,-1.7095633,0.9730783,0.09363409,0.47114992,0.41064623,0.43273833
-0.2,0.10000000000000003,1.4999999999999998,0.0,0.5235987755982988,0,0.6501876,0.069477536,1.1077135,0.4132843,0.58770347,0.8314722,1.2792495,0.24684446,-1.6954633,0.9357525,0.5028281,0.008783895,0.94435304,1.1285516
-0.2,0.10000000000000003,1.4999999999999998,0.0,0.5235987755982988,0,0.6494723,0.07122519,1.1013752,0.42042625,0.6085177,0.8322344,1.3088602,0.2415678,-1.70099,0.9116411,0.26603004,0.32804498,0.9632624,0.36095944
-0.2,0.10000000000000003,1.4999999999999998,0.0,0.5235987755982988,0,0.6314666,0.0736596,1.1069236,0.4163642,0.6393212,0.8457227,1.2089942,0.24522477,-1.6800809,0.97192425,0.23530413,-0.15598701,0.8275331,1.2800127
-0.2,0.10000000000000003,1.4999999999999998,0.0,0.5235987755982988,0,0.6752688,0.057137284,1.0946577,0.42770267,0.668234,0.83976966,1.2666538,0.24299854,-1.69616,0.82945013,0.30018225,0.119933315,-0.48383635,0.560134
-0.2,0.10000000000000003,1.4999999999999998,0.0,0.5235987755982988,0,0.66018134,0.06909995,1.1061227,0.41147798,0.63228077,0.8527862,1.2234716,0.26024714,-1.6928042,1.0059658,0.1820924,0.34086108,0.8507399,-0.73854876
-0.2,0.10000000000000003,1.4999999999999998,0.0,0.5235987755982988,0,0.6780151,0.09058082,1.1048355,0.41210347,0.6299107,0.81296426,1.2815734,0.2488114,-1.7177624,1.0773091,0.17051339,0.26640183,0.5885805,2.0712512
-0.2,0.10000000000000003,1.4999999999999998,0.0,0.5235987755982988,0,0.64949226,0.06457465,1.0969163,0.41545382,0.5741713,0.8158049,1.3021975,0.2671543,-1.6886597,1.0894165,0.029227914,0.5824004,0.50838757,0.8536418
-0.2,0.10000000000000003,1.4999999999999998,0.0,0.5235987755982988,0,0.6507399,0.08172765,1.1112496,0.40724587,0.6093806,0.83396393,1.2336171,0.24047627,-1.6948272,0.9400805,-0.13976827,0.2762642,0.80311674,-0.3341796
-0.2,0.10000000000000003,1.4999999999999998,0.0,0.5235987755982988,0,0.6658134,0.06743412,1.1016983,0.42079902,0.63941896,0.8160251,1.2259606,0.28311163,-1.708304,0.90451044,0.318953,0.22315876,0.55602145,0.3625251
-0.2,0.10000000000000003,1.4999999999999998,0.0,0.5235987755982988,0,0.6519207,0.055488,1.1043798,0.41789964,0.6447507,0.8239585,1.2631359,0.23623534,-1.69738,0.99022293,-0.044637505,-0.04688628,0.34037796,-0.60558707
-0.2,0.10000000000000003,1.4999999999999998,0.0,0.5235987755982988,0,0.6585219,0.06540308,1.097822,0.42431793,0.5767826,0.82045007,1.2689406,0.24313132,-1.7078017,0.9486546,0.30610994,0.058548607,0.81562924,0.012958435
-0.2,0.10000000000000003,1.4999999999999998,0.0,0.5235987755982988,0,0.66583043,0.07880692,1.0967513,0.40602955,0.6176083,0.8488005,1.333129,0.24122038,-1.6953073,0.81735635,0.16638535,0.24763148,0.58153266,1.6696227
-0.2,0.10000000000000003,1.4999999999999998,0.0,0.5235987755982988,0,0.6645552,0.07464822,1.0977612,0.4217063,0.5818958,0.8379828,1.2423975,0.23286475,-1.6947701,0.84262204,0.3514229,0.082236685,0.9035805,0.12729889
-0.2,0.10000000000000003,1.4999999999999998,0.0,0.5235987755982988,0,0.64578235,0.033432554,1.1071385,0.4118777,0.6621633,0.83211267,1.2776946,0.23760687,-1.7099748,0.8775381,0.5238695,0.13042663,0.4123848,0.8917079
-0.2,0.10000000000000003,1.4999999999999998,0.0,0.5235987755982988,0,0.6588898,0.06813353,1.118634,0.4140176,0.6515425,0.8497703,1.3553219,0.23389591,-1.6965201,0.8725878,-0.12400251,0.6458321,0.4531711,0.98910487
-0.2,0.10000000000000003,1.4999999999999998,0.0,0.5235987755982988,0,0.6357031,0.07293346,1.0959272,0.41611797,0.6284589,0.8364907,1.1973727,0.21810292,-1.7111714,0.9185173,0.28310615,0.84556425,1.0432492,0.19788095
-0.2,0.10000000000000003,1.4999999999999998,0.0,0.5235987755982988,0,0.6333193,0.061102983,1.1073428,0.4162935,0.63708436,0.8316849,1.2230843,0.27319646,-1.7011818,0.8769726,-0.2584512,0.86632454,1.103361,-0.18356812
-0.2,0.10000000000000003,1.4999999999999998,0.0,0.5235987755982988,0,0.63088423,0.078763366,1.1026065,0.40683568,0.6084001,0.8112638,1.2543495,0.2538024,-1.7181047,0.9774137,0.35840824,0.55169624,0.5979481,-0.19785447
-0.2,0.10000000000000003,1.4999999999999998,0.0,0.5235987755982988,0,0.6305057,0.0674247,1.1149899,0.41077793,0.5844591,0.8448692,1.3003483,0.2365716,-1.7034948,0.907552,0.17329676,0.22420329,0.5538933,-0.0049302233
-0.2,0.10000000000000003,1.4999999999999998,0.0,0.5235987755982988,0,0.6546152,0.073179655,1.1161238,0.4128728,0.6417253,0.82631814,1.2857296,0.23950005,-1.708717,0.90583396,0.22196516,0.56885153,0.6026402,1.1694194
-0.2,0.10000000000000003,1.4999999999999998,0.0,0.5235987755982988,0,0.64432275,0.048261385,1.1088024,0.4096506,0.63764596,0.8439651,1.2211702,0.25975958,-1.6983072,0.8276325,0.31137097,0.10375421,1.0094025,-0.7191233
-0.2,0.10000000000000003,1.4999999999999998,0.0,0.5235987755982988,0,0.6535913,0.05666367,1.0909016,0.41259924,0.64739937,0.8433231,1.2492825,0.26032078,-1.7029452,0.9783844,0.10223022,-0.44604144,0.4417197,0.7449682
-0.2,0.10000000000000003,1.4999999999999998,0.0,0.5235987755982988,0,0.67137736,0.061392926,1.1149973,0.41267782,0.6636076,0.8260393,1.3270447,0.24502468,-1.6963252,1.0126498,0.091338776,0.3814179,0.43657118,0.36486188
-0.2,0.10000000000000003,1.4999999999999998,0.0,0.5235987755982988,0,0.6859597,0.042080272,1.090278,0.40310124,0.63316566,0.8431843,1.3224112,0.2604109,-1.7042109,0.8747535,0.14504549,0.7962208,0.9109668,-0.29342425
-0.2,0.10000000000000003,1.4999999999999998,0.0,0.5235987755982988,0,0.6433326,0.055698596,1.1178393,0.41651472,0.6513642,0.8335795,1.2833687,0.23493908,-1.681703,1.0141248,0.036156096,0.409406,0.87843394,0.42403167
-0.2,0.10000000000000003,1.4999999999999998,0.0,0.5235987755982988,0,0.666298,0.03605275,1.1111964,0.41572505,0.60600036,0.8302461,1.3163866,0.24782363,-1.7038015,0.97401625,0.21830532,0.0014202726,0.6742587,0.53028226
-0.2,0.10000000000000003,1.4999999999999998,0.0,0.5235987755982988,0,0.67833656,0.059201792,1.1037536,0.40717342,0.62582064,0.83085966,1.3035489,0.26211452,-1.7096565,0.9727134,-0.28081608,0.30600017,0.5283794,-0.53425467
-0.2,0.10000000000000003,1.4999999999999998,0.0,0.5235987755982988,0,0.66127217,0.06567002,1.0922848,0.4139884,0.6342065,0.8327755,1.1887884,0.24117999,-1.7230442,0.8202414,0.23745377,-0.24728319,0.98856574,-0.42301753
-0.2,0.10000000000000003,1.4999999999999998,0.0,0.5235987755982988,0,0.6474711,0.07465319,1.0968446,0.4112321,0.61006963,0.8448774,1.3829472,0.26496503,-1.6984254,0.8459132,0.3064799,0.100190826,0.50563943,0.52488726
-0.2,0.10000000000000003,1.4999999999999998,0.0,0.5235987755982988,0,0.6434154,0.072366886,1.0957991,0.40418977,0.6563104,0.85621226,1.163669,0.24715462,-1.7032585,1.164726,0.0265181,-0.13618863,1.00137,-0.2983292
-0.2,0.10000000000000003,1.4999999999999998,0.0,0.5235987755982988,0,0.67453104,0.06747424,1.0960137,0.40587023,0.6373219,0.82457113,1.2567844,0.25715005,-1.6998748,0.8536115,0.032141842,0.7450612,1.0492175,-0.07021313
-0.2,0.10000000000000003,1.4999999999999998,0.0,0.5235987755982988,0,0.64091384,0.05626355,1.1033075,0.41955024,0.6618693,0.8290639,1.2032748,0.2665871,-1.703678,1.1068188,0.16527285,0.45955405,1.2514874,2.102632
-0.2,0.10000000000000003,1.4999999999999998,0.0,0.5235987755982988,0,0.68868446,0.05236044,1.1208394,0.42032573,0.61589515,0.829908,1.2963822,0.24851921,-1.7001231,0.93923527,0.21719794,0.5562079,0.21032046,0.21782672
-0.2,0.10000000000000003,1.4999999999999998,0.0,0.5235987755982988,0,0.65218747,0.06931316,1.0980415,0.40338737,0.63709325,0.84360576,1.2797208,0.24601214,-1.698652,0.97401845,0.43942642,0.57350457,-0.12673129,-0.22164324
-0.2,0.10000000000000003,1.4999999999999998,0.0,0.5235987755982988,0,0.66208166,0.06524583,1.1189954,0.41799384,0.61518717,0.8425741,1.3128202,0.28322926,-1.7013805,0.8919597,0.21615921,-0.03341653,-0.26111552,1.2557259
-0.2,0.10000000000000003,1.4999999999999998,0.0,0.5235987755982988,0,0.654087,0.07182685,1.1023327,0.41616935,0.6441675,0.8190555,1.2341751,0.25275227,-1.6921992,0.7341846,0.26009288,0.06306829,0.8844548,-0.45058274
-0.2,0.10000000000000003,1.4999999999999998,0.0,0.5235987755982988,0,0.6730682,0.06128483,1.1016688,0.4048307,0.6501317,0.8552781,1.3619045,0.22483394,-1.7029306,1.1055635,0.1131079,0.23691237,0.5563298,-0.4658697
-0.2,0.10000000000000003,1.4999999999999998,0.0,0.5235987755982988,0,0.6683349,0.08102446,1.0923257,0.41398758,0.6051696,0.85301816,1.2294546,0.26564762,-1.6951224,1.0480622,0.039401438,-0.21906894,0.25715688,-0.0728226
-0.2,0.10000000000000003,1.4999999999999998,0.0,0.5235987755982988,0,0.65421855,0.04442485,1.1025473,0.41742292,0.5995954,0.83611196,1.2605406,0.25150725,-1.702112,0.90143675,0.13099682,0.11412671,0.53807366,1.4316878
-0.2,0.10000000000000003,1.4999999999999998,0.0,0.5235987755982988,0,0.66496265,0.05366563,1.0967249,0.41855142,0.61363494,0.83414465,1.26984,0.25026426,-1.6901021,0.9618413,0.22599934,0.663603,1.2457,0.46810424
-0.2,0.10000000000000003,1.4999999999999998,0.0,0.5235987755982988,0,0.66539794,0.07202326,1.1158063,0.40937093,0.6171434,0.85289454,1.280862,0.23859425,-1.713764,0.8333784,0.042301223,-0.071672566,0.6248935,-0.1860695
-0.2,0.10000000000000003,1.4999999999999998,0.0,0.5235987755982988,0,0.6550094,0.061879657,1.1076165,0.42162588,0.63841265,0.8349344,1.2863846,0.25460267,-1.7103505,0.9507873,0.3334602,-0.052715074,0.7567871,-0.06329541
-0.2,0.10000000000000003,1.4999999999999998,0.0,0.5235987755982988,0,0.652561,0.07107264,1.1065394,0.40038863,0.6673438,0.83373815,1.2713554,0.2743589,-1.6908891,0.8547431,0.10244038,0.19420047,0.57268256,0.513942
-0.2,0.10000000000000003,1.4999999999999998,0.0,0.5235987755982988,0,0.6652707,0.058178846,1.0910163,0.42608514,0.65853685,0.83171237,1.2449011,0.26288664,-1.7104993,0.95805764,0.11390209,0.63998574,1.0623116,1.6822352
-0.2,0.10000000000000003,1.4999999999999998,0.0,0.5235987755982988,0,0.68360126,0.05853482,1.1015713,0.4026221,0.71149415,0.83167285,1.2312429,0.23729919,-1.7009524,0.8831013,0.33706573,0.37313643,0.7053562,1.4361367
-0.2,0.10000000000000003,1.4999999999999998,0.0,0.5235987755982988,0,0.6569814,0.06756837,1.1137395,0.41506904,0.62416494,0.84102654,1.3059552,0.25523815,-1.7163737,0.7849055,0.048599534,0.13300371,0.72965986,1.4023963
-0.2,0.10000000000000003,1.4999999999999998,0.0,0.5235987755982988,0,0.6768835,0.064975865,1.1058682,0.4060304,0.647524,0.82829887,1.2294679,0.2785916,-1.6919245,0.88168126,0.08375223,0.057905253,1.387274,-0.7619364
-0.2,0.10000000000000003,1.4999999999999998,0.0,0.5235987755982988,0,0.6857588,0.047509007,1.0909705,0.41813618,0.6423194,0.8435125,1.1859915,0.26241732,-1.6846416,0.78841245,-0.06366046,0.13006324,1.1339332,0.18090133
-0.2,0.10000000000000003,1.4999999999999998,0.0,0.5235987755982988,0,0.66786355,0.07085603,1.1027702,0.40685612,0.58105373,0.8218634,1.2042022,0.2685309,-1.7122359,0.9067136,0.14906144,0.3902665,0.7590814,0.45478424
-0.2,0.10000000000000003,1.4999999999999998,0.0,0.5235987755982988,0,0.67779744,0.08454172,1.107003,0.4032878,0.61359596,0.870407,1.265779,0.2324268,-1.6965793,0.90593725,0.10492922,0.28584307,-0.15766427,1.1813009
-0.2,0.10000000000000003,1.4999999999999998,0.0,0.5235987755982988,0,0.6669553,0.04262234,1.120594,0.40506005,0.63019866,0.87069297,1.3003222,0.25628442,-1.6950585,0.93545955,0.2751054,-0.03864609,0.7501521,0.9093643
-0.2,0.10000000000000003,1.4999999999999998,0.0,0.5235987755982988,0,0.6532229,0.07496662,1.1079203,0.40626,0.6246145,0.8268165,1.3209844,0.25825587,-1.705286,0.94239193,0.07535253,0.06989989,0.6080319,-0.71797717
-0.2,0.10000000000000003,1.4999999999999998,0.0,0.5235987755982988,0,0.6717055,0.06302453,1.1146636,0.40834546,0.6379009,0.8711435,1.168898,0.23168653,-1.7051462,1.0391456,-0.009741876,0.13931921,-0.07628401,-0.38135052
-0.2,0.10000000000000003,1.4999999999999998,0.0,0.5235987755982988,0,0.6549924,0.08040506,1.1086415,0.39585304,0.59584033,0.85323304,1.3412907,0.25803968,-1.7023689,0.96614015,0.66499925,0.6186649,0.7612983,1.2026378
-0.2,0.10000000000000003,1.4999999999999998,0.0,0.5235987755982988,0,0.666446,0.05682511,1.1249796,0.40491834,0.6172465,0.86306566,1.156818,0.24441357,-1.7019893,0.9071159,-0.00019542484,0.34413457,-0.6385742,-0.9542436
-0.2,0.10000000000000003,1.4999999999999998,0.0,0.5235987755982988,0,0.6528093,0.077373624,1.1099465,0.4037075,0.6536744,0.8429258,1.2406828,0.23037732,-1.6928468,0.84808785,0.29539344,0.04328107,0.669666,1.0296087
-0.2,0.10000000000000003,1.4999999999999998,0.0,0.5235987755982988,0,0.6459705,0.04349853,1.0998287,0.4025397,0.6117403,0.84228367,1.2303381,0.25632915,-1.7053561,1.0044811,0.13323182,0.8503597,0.71980286,0.047988575
-0.2,0.10000000000000003,1.4999999999999998,0.0,0.5235987755982988,0,0.6539182,0.07861426,1.1042535,0.42165375,0.59756136,0.8398208,1.249084,0.21754886,-1.6844618,0.9296612,0.2448309,0.26658368,0.9180236,-0.20991272
-0.2,0.10000000000000003,1.4999999999999998,0.0,0.5235987755982988,0,0.6537929,0.06481658,1.1079695,0.4009518,0.63399,0.8440955,1.293001,0.24183927,-1.7219881,0.96223706,0.051059145,-0.5233675,-0.3406784,1.1636078
-0.2,0.10000000000000003,1.4999999999999998,0.0,0.5235987755982988,0,0.6811917,0.067939125,1.1078337,0.39811656,0.64548403,0.84893733,1.2666997,0.23587602,-1.7142857,0.763318,0.00047631477,0.13717726,0.43928555,0.7296846
-0.2,0.10000000000000003,1.4999999999999998,0.0,0.5235987755982988,0,0.6661643,0.06819476,1.0864167,0.41613302,0.67283326,0.846277,1.2332238,0.25742432,-1.696479,0.963392,0.21723291,0.5758747,1.0406568,0.19110407
-0.2,0.10000000000000003,1.4999999999999998,0.0,0.5235987755982988,0,0.6674673,0.040411476,1.096826,0.4139785,0.60477227,0.8270935,1.1891137,0.24316733,-1.6803006,0.9694756,0.29064402,-0.35019746,0.33327156,0.14805679
-0.2,0.10000000000000003,1.4999999999999998,0.0,0.5235987755982988,0,0.67588544,0.05291236,1.1019336,0.41123277,0.6577564,0.8418547,1.1348764,0.26719338,-1.6968515,0.94074863,0.12118481,-0.37185395,1.0752748,-0.38901556
-0.2,0.10000000000000003,1.4999999999999998,0.0,0.5235987755982988,0,0.6394521,0.08571694,1.1083966,0.40385523,0.614546,0.8447466,1.1899211,0.23892874,-1.7075576,0.87257606,0.13584383,0.042062465,1.5354642,1.7533658
-0.2,0.10000000000000003,1.4999999999999998,0.0,0.5235987755982988,0,0.660749,0.0661104,1.1106359,0.41126323,0.58491474,0.82612413,1.2297797,0.2547122,-1.7028,0.81377554,-0.012201593,0.45669466,0.16204582,-0.1406405
-0.2,0.10000000000000003,1.4999999999999998,0.0,0.5235987755982988,0,0.65939647,0.039825406,1.1046671,0.40753016,0.61395276,0.8280755,1.1759856,0.26028705,-1.7060418,0.86579067,-0.013211214,0.08421451,0.5373146,0.58002526
-0.2,0.10000000000000003,1.4999999999999998,0.0,0.5235987755982988,0,0.6275851,0.06386617,1.1014066,0.40893748,0.6296232,0.83622515,1.2467107,0.251012,-1.7169421,0.89842844,0.116814375,0.5782437,0.51477486,0.94975746
-0.2,0.10000000000000003,1.4999999999999998,0.0,0.5235987755982988,0,0.63985616,0.03364176,1.1032183,0.41718975,0.64226836,0.84868133,1.2954262,0.2544284,-1.6854327,0.9019362,0.30136937,-0.389615,0.41478628,1.3912101
-0.2,0.10000000000000003,1.4999999999999998,0.0,0.5235987755982988,0,0.6526718,0.06593935,1.093576,0.41580686,0.6123841,0.84527177,1.2193543,0.2343427,-1.7256575,0.8970747,0.20119053,0.099216,0.2166617,0.59643483
-0.2,0.10000000000000003,1.4999999999999998,0.0,0.5235987755982988,0,0.6583607,0.0742092,1.0895995,0.4114845,0.62896264,0.86801964,1.384339,0.267855,-1.7177956,0.7921163,0.3959386,0.09129374,-0.07082936,0.4241031
-0.2,0.10000000000000003,1.4999999999999998,0.0,0.5235987755982988,0,0.6582316,0.07464574,1.1029044,0.41696978,0.6264419,0.83765596,1.2530075,0.25438684,-1.6996888,0.86170185,0.4646235,0.43924507,0.32614595,0.22245082
-0.2,0.10000000000000003,1.4999999999999998,0.0,0.5235987755982988,0,0.66262096,0.05648889,1.1144465,0.39720115,0.6515864,0.8642408,1.2693605,0.2553894,-1.7031927,0.8475268,0.23596536,0.6399382,0.7929534,-0.6511472
-0.2,0.10000000000000003,1.4999999999999998,0.0,0.5235987755982988,0,0.6479995,0.034768544,1.1144207,0.4031746,0.65012586,0.8548945,1.3011882,0.26307622,-1.7032093,0.888943,0.19402099,0.38808507,0.8777322,1.372918
-0.2,0.10000000000000003,1.4999999999999998,0.0,0.5235987755982988,0,0.6566429,0.08579233,1.1122513,0.41018942,0.5870211,0.84494925,1.2378106,0.25881782,-1.6946429,0.99473536,-0.10993833,0.04951119,0.16712461,1.2305349
-0.2,0.10000000000000003,1.4999999999999998,0.0,0.5235987755982988,0,0.6536198,0.062943876,1.0970086,0.39152893,0.6251505,0.86871237,1.266408,0.2608517,-1.6991928,0.88837516,0.25966355,0.49213383,0.15430419,1.2262875
-0.2,0.10000000000000003,1.4999999999999998,0.0,0.5235987755982988,0,0.65258926,0.07037436,1.1077722,0.40497968,0.6269978,0.8685775,1.2763578,0.24616244,-1.7234365,0.9044874,0.11700042,0.44297352,0.037792914,-0.5387434
-0.2,0.10000000000000003,1.4999999999999998,0.0,0.5235987755982988,0,0.6550357,0.06931186,1.1078738,0.40910524,0.6076872,0.8434456,1.2964662,0.21865983,-1.7124448,1.0299119,0.106996536,-0.2653942,1.391774,0.955349
-0.2,0.10000000000000003,1.4999999999999998,0.0,0.5235987755982988,0,0.66497624,0.06941908,1.0970359,0.41279873,0.61012584,0.8287025,1.2689793,0.25235224,-1.7050759,0.91655463,0.29951745,-0.10355143,1.0425034,1.2388728
-0.2,0.10000000000000003,1.4999999999999998,0.0,0.5235987755982988,0,0.6434564,0.10983984,1.1087651,0.42142707,0.56929475,0.85592675,1.3062383,0.2632942,-1.7048428,1.0127627,0.16351391,0.33033144,0.67811507,-0.5547732
-0.2,0.10000000000000003,1.4999999999999998,0.0,0.5235987755982988,0,0.6592943,0.07144841,1.1081016,0.40789813,0.6177923,0.84073013,1.2613482,0.24496886,-1.7184937,0.9565754,0.36339796,0.18453299,0.45673448,0.9425686
-0.2,0.10000000000000003,1.4999999999999998,0.0,0.5235987755982988,0,0.671136,0.051901415,1.1080209,0.41834673,0.6200333,0.8399248,1.2239587,0.2764675,-1.7032881,0.9603867,-0.0043280977,-0.036664974,0.042231,-0.30033162
-0.2,0.10000000000000003,1.4999999999999998,0.0,0.5235987755982988,0,0.6834534,0.050582025,1.0890391,0.40491477,0.6225322,0.83895224,1.2551233,0.22772451,-1.7142364,0.89832884,0.13750753,0.24953695,0.41618028,0.6299946
-0.2,0.10000000000000003,1.4999999999999998,0.0,0.5235987755982988,0,0.68692297,0.062166374,1.1026046,0.4126189,0.59693325,0.8419392,1.26028,0.21243332,-1.7075422,0.82538843,0.08276065,0.61463094,0.6963214,-0.49804902
-0.2,0.10000000000000003,1.4999999999999998,0.0,0.5235987755982988,0,0.64941394,0.061620418,1.1143751,0.41535833,0.62503254,0.85132474,1.228751,0.23315403,-1.7210226,0.9715798,0.12731983,1.1458263,1.1466485,0.2141455
-0.2,0.10000000000000003,1.4999999999999998,0.0,0.5235987755982988,0,0.6608768,0.04933761,1.0910606,0.41598472,0.6397432,0.8568879,1.2141844,0.2631622,-1.7188662,0.8025399,0.4833453,-0.09872228,1.0382735,0.41811275
-0.2,0.10000000000000003,1.4999999999999998,0.0,0.5235987755982988,0,0.65580446,0.07392392,1.0888388,0.4094567,0.62564373,0.86660737,1.2802644,0.2428386,-1.7088063,0.8196934,0.24954325,-0.004667992,0.8334792,0.76352686
-0.2,0.10000000000000003,1.4999999999999998,0.0,0.5235987755982988,0,0.65376174,0.062032253,1.1043024,0.41804713,0.65875286,0.8451487,1.2473351,0.25058743,-1.7004488,0.8734354,0.08079925,-0.11531467,0.46053326,-0.5978615
-0.2,0.10000000000000003,1.4999999999999998,0.0,0.5235987755982988,0,0.6658689,0.05530432,1.105787,0.41312194,0.6138063,0.8591302,1.202557,0.23904559,-1.6975906,0.7185421,0.47891372,0.7733698,1.0366682,0.71555775
-0.2,0.10000000000000003,1.4999999999999998,0.0,0.5235987755982988,0,0.6678349,0.057792038,1.1111811,0.41465506,0.6122353,0.8548045,1.2462095,0.27140656,-1.688187,0.7993814,0.006556711,0.30253252,-0.12779379,-0.032125454
-0.2,0.10000000000000003,1.4999999999999998,0.0,0.5235987755982988,0,0.6312992,0.057663593,1.1131823,0.41907436,0.65380096,0.8552183,1.261271,0.26573664,-1.7064881,0.9120082,0.30736974,-0.0596683,1.0835874,0.8170752
-0.2,0.10000000000000003,1.4999999999999998,0.0,0.5235987755982988,0,0.65431994,0.08075357,1.1051444,0.40726325,0.6009131,0.8544187,1.318697,0.2398703,-1.7219352,1.0118246,-0.09802771,0.09670902,0.7476707,-0.2054549
-0.2,0.10000000000000003,1.4999999999999998,0.0,0.5235987755982988,0,0.6458764,0.049097024,1.114533,0.4197574,0.604635,0.8463592,1.3319211,0.21429278,-1.697997,0.80768937,0.2999824,0.4788921,0.5618484,0.27115196
-0.2,0.10000000000000003,1.4999999999999998,0.0,0.5235987755982988,0,0.6595419,0.05239082,1.1064547,0.4175026,0.60908115,0.8469109,1.3305743,0.25596997,-1.7207344,0.75987417,0.10224307,-0.48100954,0.56241435,0.9345043
-0.2,0.10000000000000003,1.4999999999999998,0.0,0.5235987755982988,0,0.644281,0.071078666,1.1217949,0.42224327,0.6808783,0.8273609,1.2375361,0.25118408,-1.7397351,0.9075731,0.14765559,0.11895361,0.67845947,0.93727326
