sanky1234/BimanualDexCatch/isaacgymenvs/cem_results/football_pose_0.0_-0.1_0.8999999999999999_-0.5235987755982988_0.0_0_2025-05-26.csv
x,y,z,roll,pitch,yaw,robot1/joint1,robot1/joint2,robot1/joint3,robot1/joint4,robot1/joint5,robot1/joint6,robot1/joint7,robot2/joint1,robot2/joint2,robot2/joint3,robot2/joint4,robot2/joint5,robot2/joint6,robot2/joint7
0.0,-0.1,0.8999999999999999,-0.5235987755982988,0.0,0,0.30947787,-0.90846646,2.865652,0.06654538,-0.19526379,1.5031564,-2.0734777,0.10143548,-0.6959025,2.8649733,0.14925385,-0.0010453115,1.4079674,-1.708977
0.0,-0.1,0.8999999999999999,-0.5235987755982988,0.0,0,0.39294982,-0.9269802,2.8601108,-0.028059721,-0.21008888,1.5103567,-2.199172,0.078870155,-0.7174664,2.9148078,0.14643686,0.30785322,1.5227649,-1.281891
0.0,-0.1,0.8999999999999999,-0.5235987755982988,0.0,0,0.36057717,-0.93922263,2.8859797,0.057229914,-0.2692472,1.5176728,-2.3219774,0.1221879,-0.71273035,2.8002687,0.16854513,0.06288071,1.439713,-1.5135221
0.0,-0.1,0.8999999999999999,-0.5235987755982988,0.0,0,0.30475414,-0.89701754,2.8327053,-0.007922027,-0.072509475,1.4935971,-2.4112332,0.06688644,-0.72153115,2.9064384,0.19160718,0.06832252,1.4932697,-1.5791652
0.0,-0.1,0.8999999999999999,-0.5235987755982988,0.0,0,0.3258834,-0.9102176,2.8768241,-0.04125299,-0.19954664,1.4827012,-2.2711792,0.12414475,-0.7244343,2.8063211,0.19113813,-0.123011254,1.476484,-1.6012901
0.0,-0.1,0.8999999999999999,-0.5235987755982988,0.0,0,0.35887522,-0.91660726,2.844401,-0.033351745,-0.27171868,1.4967204,-1.7569869,0.17030245,-0.70996433,2.852461,0.17880958,-0.09365047,1.4536014,-1.6854073
0.0,-0.1,0.8999999999999999,-0.5235987755982988,0.0,0,0.3111275,-0.9006978,2.824929,0.03404456,-0.1789142,1.5235207,-2.3789306,0.16688785,-0.7185287,2.7952595,0.17672136,-0.022857394,1.4429314,-1.5270637
0.0,-0.1,0.8999999999999999,-0.5235987755982988,0.0,0,0.31337574,-0.91710114,2.8199437,-0.03677895,-0.22523613,1.5018821,-2.4474175,0.18875946,-0.6974513,2.9276266,0.1582119,0.034206852,1.440682,-1.4259777
0.0,-0.1,0.8999999999999999,-0.5235987755982988,0.0,0,0.27570894,-0.91924846,2.7947464,-0.017109467,-0.2602999,1.5063344,-2.198587,0.097426,-0.72351515,2.9990666,0.1814637,-0.017362619,1.4104307,-1.1883658
0.0,-0.1,0.8999999999999999,-0.5235987755982988,0.0,0,0.28211015,-0.9006565,2.811824,-0.04578148,-0.23761821,1.4929122,-2.5271842,0.16944431,-0.7060936,2.8739827,0.07418214,0.123354904,1.4285693,-1.6702383
0.0,-0.1,0.8999999999999999,-0.5235987755982988,0.0,0,0.30152184,-0.8832813,2.81424,-0.042539183,-0.33793464,1.5149999,-1.8173493,0.12119974,-0.6961965,2.8456323,0.085736156,0.24547222,1.4938198,-1.7533484
0.0,-0.1,0.8999999999999999,-0.5235987755982988,0.0,0,0.29993755,-0.897743,2.8736656,-0.062266067,-0.25650805,1.532806,-2.2103872,0.20254521,-0.7106237,2.7755823,0.21599494,0.24314551,1.482288,-1.4873942
0.0,-0.1,0.8999999999999999,-0.5235987755982988,0.0,0,0.3846478,-0.8959787,2.8909807,0.007899507,-0.22980067,1.5265082,-2.1737978,0.14133309,-0.71057415,2.764811,0.15395963,0.1650335,1.4837327,-1.9650586
0.0,-0.1,0.8999999999999999,-0.5235987755982988,0.0,0,0.3426982,-0.88987285,2.881751,0.016550012,-0.088862754,1.4970769,-2.174675,0.11731711,-0.69671065,2.856363,0.15463686,0.02403577,1.476215,-1.0147833
0.0,-0.1,0.8999999999999999,-0.5235987755982988,0.0,0,0.31355053,-0.9178485,2.841969,0.04881573,-0.23206356,1.493201,-2.1351528,0.1258903,-0.7245553,2.8723288,0.100098364,0.109541744,1.5284873,-1.2574332
0.0,-0.1,0.8999999999999999,-0.5235987755982988,0.0,0,0.25331113,-0.90625364,2.8404999,-0.009991415,-0.32879218,1.4448321,-2.3744214,0.11671805,-0.7182819,2.8532658,0.15618984,-0.03870339,1.5000385,-1.6102095
0.0,-0.1,0.8999999999999999,-0.5235987755982988,0.0,0,0.28618455,-0.9185666,2.8814275,0.006358195,-0.10804877,1.5311365,-2.3744676,0.117926694,-0.6979333,2.7794175,0.16120882,-0.14632511,1.3776499,-1.5851442
0.0,-0.1,0.8999999999999999,-0.5235987755982988,0.0,0,0.40529302,-0.8862779,2.9073288,-0.054081645,-0.2423549,1.5323254,-2.462233,0.103902526,-0.7005046,2.9514456,0.20064189,0.10715828,1.3985696,-1.9413198
0.0,-0.1,0.8999999999999999,-0.5235987755982988,0.0,0,0.28883088,-0.8911265,2.7815924,-0.027433505,-0.2544245,1.507373,-2.3236527,0.13795389,-0.7096191,2.8567457,0.29307702,0.24642295,1.4432101,-1.4248505
0.0,-0.1,0.8999999999999999,-0.5235987755982988,0.0,0,0.3434062,-0.9034513,2.8022902,-0.021242745,-0.35236043,1.515568,-1.8423526,0.13631856,-0.7260933,2.8922555,0.14485028,0.17884944,1.4561046,-2.0456667
0.0,-0.1,0.8999999999999999,-0.5235987755982988,0.0,0,0.30686796,-0.91898423,2.8500612,-0.07186705,-0.25572902,1.5163848,-2.1873791,0.11061076,-0.70177436,2.938692,0.1614284,0.17798874,1.4684919,-1.5040762
0.0,-0.1,0.8999999999999999,-0.5235987755982988,0.0,0,0.3860179,-0.9265892,2.8731668,-0.0016945179,-0.21080005,1.5053673,-2.2840302,0.07976943,-0.71957254,2.981366,0.12143318,-0.044351425,1.4776118,-1.5148113
0.0,-0.1,0.8999999999999999,-0.5235987755982988,0.0,0,0.32396027,-0.9051826,2.8174884,0.043478116,-0.35913855,1.4944686,-2.0621283,0.1571772,-0.7232524,2.9102983,0.13726069,-0.05279026,1.4644215,-1.208548
0.0,-0.1,0.8999999999999999,-0.5235987755982988,0.0,0,0.31281093,-0.8876166,2.8582685,-0.026876014,-0.24735817,1.5138308,-2.5286512,0.118927345,-0.70436555,2.9318535,0.12434356,-0.09643103,1.404244,-1.5241017
0.0,-0.1,0.8999999999999999,-0.5235987755982988,0.0,0,0.31227148,-0.8983185,2.9331167,-0.008426907,-0.2992695,1.5243433,-2.3473952,0.07728368,-0.7018175,2.8460336,0.17687984,0.09157374,1.4663577,-1.1062895
0.0,-0.1,0.8999999999999999,-0.5235987755982988,0.0,0,0.38981947,-0.9042332,2.7628067,-0.0020488466,-0.31738588,1.4987621,-2.3445284,0.13344365,-0.6972739,2.9513922,0.13037525,-0.038166948,1.3646935,-1.5140811
0.0,-0.1,0.8999999999999999,-0.5235987755982988,0.0,0,0.3283031,-0.91781104,2.8172777,-0.073510006,-0.23927298,1.4782884,-2.2506983,0.12201416,-0.71327794,2.8733163,0.096679196,0.03234858,1.5059044,-1.3733135
0.0,-0.1,0.8999999999999999,-0.5235987755982988,0.0,0,0.4215444,-0.9002964,2.8257782,-0.045521606,-0.3621982,1.5451713,-2.2989016,0.14424548,-0.7191639,2.9208536,0.103601694,-0.052973226,1.5628722,-1.5699531
0.0,-0.1,0.8999999999999999,-0.5235987755982988,0.0,0,0.29719183,-0.9306796,2.896295,0.059768353,-0.37356135,1.4665154,-2.2531934,0.14012615,-0.73433006,2.922421,0.20811354,0.087730296,1.4633629,-1.6364253
0.0,-0.1,0.8999999999999999,-0.5235987755982988,0.0,0,0.39153287,-0.92324007,2.9539108,-0.012049879,-0.39992893,1.5298835,-1.781916,0.13349444,-0.70515645,2.8117914,0.1492722,-0.06748382,1.4982064,-1.7691694
0.0,-0.1,0.8999999999999999,-0.5235987755982988,0.0,0,0.33127722,-0.9053867,2.7983606,0.018139515,-0.1382799,1.5022138,-1.9646329,0.11739931,-0.7235459,2.9300897,0.08286782,-0.110266864,1.5346729,-1.6940892
0.0,-0.1,0.8999999999999999,-0.5235987755982988,0.0,0,0.28424042,-0.9135308,2.8629348,-0.0413188,-0.344514,1.5187523,-2.0050347,0.07337241,-0.7097365,2.813966,0.16686656,0.06571276,1.4745915,-1.634901
0.0,-0.1,0.8999999999999999,-0.5235987755982988,0.0,0,0.31812876,-0.89727074,2.9141233,-0.006342729,-0.28356037,1.4995885,-2.2444215,0.10609659,-0.7075428,2.8982997,0.16790128,-0.088697255,1.3951318,-1.573312
0.0,-0.1,0.8999999999999999,-0.5235987755982988,0.0,0,0.37740546,-0.91912127,2.8582704,0.04622187,-0.25228462,1.4545729,-2.2457304,0.11419968,-0.6958366,2.881991,0.16818021,0.08074165,1.453836,-1.0471654
0.0,-0.1,0.8999999999999999,-0.5235987755982988,0.0,0,0.31343728,-0.9142873,2.8134594,-0.0043463623,-0.17641556,1.509003,-2.2541847,0.12479536,-0.7175365,2.813214,0.18544893,0.12326632,1.4638783,-1.681099
0.0,-0.1,0.8999999999999999,-0.5235987755982988,0.0,0,0.30699033,-0.90358424,2.778387,-0.040168565,-0.16415802,1.4777856,-2.4825215,0.051628757,-0.70664215,2.8492947,0.13199882,0.06755002,1.529104,-0.9674046
0.0,-0.1,0.8999999999999999,-0.5235987755982988,0.0,0,0.29730114,-0.93126637,2.8764732,-0.030024916,-0.26425177,1.4774082,-2.340339,0.10990462,-0.72501856,2.9472744,0.21151936,0.1931324,1.4888604,-1.5134482
0.0,-0.1,0.8999999999999999,-0.5235987755982988,0.0,0,0.34019923,-0.909937,2.8247342,0.019075107,-0.20182183,1.5042422,-2.4544213,0.19111113,-0.718291,2.898701,0.057497628,0.15252866,1.5220257,-1.8633828
0.0,-0.1,0.8999999999999999,-0.5235987755982988,0.0,0,0.3245224,-0.90045923,2.857869,-0.016719697,-0.32220343,1.413035,-1.7704976,0.14922023,-0.71321005,2.8793628,0.14638011,0.100246415,1.5367461,-1.5518411
0.0,-0.1,0.8999999999999999,-0.5235987755982988,0.0,0,0.3550114,-0.9079077,2.8664505,-0.052372597,-0.21997769,1.5607634,-2.3042517,0.14772215,-0.7156699,2.8384395,0.1511118,0.037637282,1.5071801,-1.6271679
0.0,-0.1,0.8999999999999999,-0.5235987755982988,0.0,0,0.34901994,-0.928711,2.865746,-0.0051099276,-0.20733425,1.5099394,-2.263295,0.16723649,-0.72853494,2.8444965,0.100770816,-0.13665222,1.5158721,-1.4291937
0.0,-0.1,0.8999999999999999,-0.5235987755982988,0.0,0,0.32027283,-0.9169536,2.811355,0.014662851,-0.22728609,1.4619883,-2.4105763,0.11216862,-0.7218585,2.8769405,0.17371778,0.08798082,1.4363617,-1.4430408
0.0,-0.1,0.8999999999999999,-0.5235987755982988,0.0,0,0.35335314,-0.8986457,2.8599596,-0.041154914,-0.310337,1.4783248,-2.0952697,0.08304461,-0.7208822,2.9045238,0.15169439,-0.054158356,1.4921371,-1.5988544
0.0,-0.1,0.8999999999999999,-0.5235987755982988,0.0,0,0.29624563,-0.90508497,2.8850906,0.023562802,-0.32062638,1.4931595,-2.3080049,0.107368074,-0.71317893,2.8302166,0.19831154,-0.022331212,1.42034,-1.496912
0.0,-0.1,0.8999999999999999,-0.5235987755982988,0.0,0,0.37088618,-0.9095225,2.838301,-0.08053408,-0.32303765,1.5318048,-2.229678,0.12758929,-0.6968705,2.8477426,0.17520306,-0.027319694,1.5277619,-1.5720457
0.0,-0.1,0.8999999999999999,-0.5235987755982988,0.0,0,0.2862645,-0.9110589,2.8768487,0.005199522,-0.18900442,1.4971019,-2.5807738,0.14064577,-0.71418816,2.9179194,0.14131212,0.021148553,1.4844013,-1.5975866
0.0,-0.1,0.8999999999999999,-0.5235987755982988,0.0,0,0.30360413,-0.9139083,2.858206,-0.019977333,-0.39844057,1.5193077,-1.7311804,0.12857595,-0.69634926,2.8744504,0.27965775,0.1428361,1.4106295,-1.5250881
0.0,-0.1,0.8999999999999999,-0.5235987755982988,0.0,0,0.35612914,-0.91050416,2.809212,0.026981814,-0.17095898,1.4999748,-2.1713943,0.15070054,-0.70524997,2.7826724,0.1459599,-0.10679757,1.4993747,-1.7168634
0.0,-0.1,0.8999999999999999,-0.5235987755982988,0.0,0,0.3774725,-0.9064927,2.8629315,-0.07805745,-0.29986808,1.5222396,-2.4028077,0.15501207,-0.72048503,2.968306,0.14571984,-0.19444518,1.5553329,-1.1334206
0.0,-0.1,0.8999999999999999,-0.5235987755982988,0.0,0,0.28379768,-0.93214685,2.8642168,0.058671746,-0.28359053,1.5136476,-2.1084738,0.12318709,-0.7044554,2.7663143,0.16630355,0.002666099,1.5003159,-1.9746884
0.0,-0.1,0.8999999999999999,-0.5235987755982988,0.0,0,0.30014554,-0.9089719,2.898992,-0.040480375,-0.32183793,1.4685184,-2.0359733,0.07408149,-0.73016083,2.841828,0.09236943,0.088890634,1.5484381,-1.2898306
0.0,-0.1,0.8999999999999999,-0.5235987755982988,0.0,0,0.28431574,-0.89357156,2.9589415,0.0396509,-0.28562313,1.4822568,-2.3453445,0.07372272,-0.6970542,2.8847632,0.16175841,0.008607583,1.4755371,-1.3103753
0.0,-0.1,0.8999999999999999,-0.5235987755982988,0.0,0,0.31531286,-0.915082,2.818845,-0.04788996,-0.28707474,1.4720751,-2.4779882,0.18678235,-0.69747114,2.9150286,0.2076567,-0.049018044,1.4188077,-1.5891279
0.0,-0.1,0.8999999999999999,-0.5235987755982988,0.0,0,0.28820506,-0.8979871,2.792457,-0.023995064,-0.29574305,1.5061393,-2.4178054,0.13549857,-0.6998841,2.9112613,0.14568396,-0.1202391,1.4308957,-1.4748303
0.0,-0.1,0.8999999999999999,-0.5235987755982988,0.0,0,0.26720324,-0.9404446,2.9300313,0.010723621,-0.2428294,1.4882087,-2.4350028,0.15853418,-0.70308596,2.8892596,0.222346,-0.016858654,1.4234066,-1.5987198
0.0,-0.1,0.8999999999999999,-0.5235987755982988,0.0,0,0.34985247,-0.94565815,2.7985387,-0.025080405,-0.22517978,1.5565184,-2.2991328,0.12732096,-0.7280718,2.8045619,0.1760798,-0.17722875,1.5054045,-1.0875162
0.0,-0.1,0.8999999999999999,-0.5235987755982988,0.0,0,0.32635418,-0.93134105,2.8530092,0.031582177,-0.20831457,1.4739406,-2.2964244,0.17715499,-0.7089174,2.8448687,0.16575718,-0.027833903,1.4988194,-1.4078053
0.0,-0.1,0.8999999999999999,-0.5235987755982988,0.0,0,0.2615087,-0.9240269,2.8243334,0.04731963,-0.17111048,1.5132679,-2.578006,0.13510159,-0.7234395,2.8048172,0.18545052,0.06565633,1.5008072,-1.7142136
0.0,-0.1,0.8999999999999999,-0.5235987755982988,0.0,0,0.387479,-0.9205328,2.8315656,0.0011744245,-0.17838886,1.5162851,-2.4270775,0.15666017,-0.7262801,2.8801007,0.108874306,0.06006689,1.4577763,-1.6729428
0.0,-0.1,0.8999999999999999,-0.5235987755982988,0.0,0,0.3538369,-0.9082898,2.8551145,-0.11404806,-0.25884494,1.5119143,-2.1141758,0.10710773,-0.6900291,2.8435571,0.12144107,0.09180197,1.4363847,-1.848101
0.0,-0.1,0.8999999999999999,-0.5235987755982988,0.0,0,0.3244828,-0.90911376,2.9062495,-0.017711526,-0.24452126,1.4958605,-1.9109343,0.11593741,-0.7175047,2.9228551,0.19929509,0.029928328,1.4839772,-1.5704446
0.0,-0.1,0.8999999999999999,-0.5235987755982988,0.0,0,0.41660264,-0.9472031,2.862724,-0.06918836,-0.36521977,1.4839654,-2.388166,0.15186529,-0.71434873,2.7819886,0.15614058,0.0650797,1.4914339,-1.9047151
0.0,-0.1,0.8999999999999999,-0.5235987755982988,0.0,0,0.33640796,-0.90297574,2.8606308,0.053620875,-0.32112366,1.4959733,-2.3563204,0.11354616,-0.7016703,2.73154,0.2329062,0.059369728,1.4470221,-1.6285713
0.0,-0.1,0.8999999999999999,-0.5235987755982988,0.0,0,0.30928472,-0.8979816,2.9294026,0.0446568,-0.29401228,1.4871938,-2.2669966,0.14237967,-0.71467,2.836998,0.14699303,0.14270033,1.4861736,-1.9059701
0.0,-0.1,0.8999999999999999,-0.5235987755982988,0.0,0,0.29503274,-0.8893872,2.8211317,0.058491033,-0.28935096,1.4621309,-2.4717393,0.13174602,-0.7031886,2.877072,0.15844797,-0.012393298,1.4490956,-1.2151511
0.0,-0.1,0.8999999999999999,-0.5235987755982988,0.0,0,0.33611184,-0.9191388,2.8646698,-0.030897416,-0.21845675,1.5541724,-2.2778392,0.09164244,-0.7041656,2.829573,0.11012919,-0.0986848,1.5310438,-1.3032328
0.0,-0.1,0.8999999999999999,-0.5235987755982988,0.0,0,0.3553382,-0.8999806,2.8701212,-0.010338845,-0.36852175,1.5311682,-2.1945355,0.11164673,-0.7073703,2.899046,0.1718133,0.047857385,1.4865713,-1.8849341
0.0,-0.1,0.8999999999999999,-0.5235987755982988,0.0,0,0.3139036,-0.9080876,2.8073552,-0.055067424,-0.21598363,1.4840505,-2.2527468,0.1405396,-0.71417785,2.892957,0.14787334,0.2379813,1.3957336,-1.2212341
0.0,-0.1,0.8999999999999999,-0.5235987755982988,0.0,0,0.36357218,-0.945842,2.903372,-0.03642443,-0.23449808,1.5002323,-2.1388211,0.110626094,-0.6760433,2.8335786,0.12357646,0.0842243,1.4762237,-1.4429412
0.0,-0.1,0.8999999999999999,-0.5235987755982988,0.0,0,0.33379275,-0.906398,2.863608,0.030421926,-0.17977527,1.5072926,-2.4328294,0.096167065,-0.6976705,2.7793329,0.16140589,0.13603216,1.5176554,-1.8291241
0.0,-0.1,0.8999999999999999,-0.5235987755982988,0.0,0,0.3165019,-0.92965174,2.822786,-0.012043514,-0.31033462,1.4935718,-2.2209878,0.14903958,-0.71797633,2.8592112,0.18853545,0.32529345,1.4289662,-1.5431589
0.0,-0.1,0.8999999999999999,-0.5235987755982988,0.0,0,0.2890705,-0.90636253,2.9601912,-0.06681732,-0.19311833,1.4646889,-2.4748847,0.11391375,-0.71623266,2.7946312,0.12855387,0.19572785,1.4923898,-1.2401589
0.0,-0.1,0.8999999999999999,-0.5235987755982988,0.0,0,0.2734849,-0.9345587,2.8601878,-0.043240417,-0.20429277,1.5462927,-2.4290173,0.13390926,-0.71290463,2.9022593,0.17298567,-0.09446177,1.4714249,-1.6568927
0.0,-0.1,0.8999999999999999,-0.5235987755982988,0.0,0,0.31670457,-0.89638454,2.9015942,-0.008496694,-0.2131629,1.4875855,-2.2262683,0.12837358,-0.6820249,2.870615,0.10911136,0.1151006,1.4569991,-1.705257
0.0,-0.1,0.8999999999999999,-0.5235987755982988,0.0,0,0.3641148,-0.9141771,2.8101246,-0.0089949565,-0.26640877,1.5080527,-2.413701,0.13632661,-0.70112354,2.8680828,0.19853428,-0.082554355,1.3423313,-1.3479145
0.0,-0.1,0.8999999999999999,-0.5235987755982988,0.0,0,0.2725778,-0.92033726,2.8276784,-0.076430984,-0.2114842,1.4649855,-2.0478685,0.0884939,-0.7023064,2.8709161,0.15707166,0.052960776,1.45643,-1.378761
0.0,-0.1,0.8999999999999999,-0.5235987755982988,0.0,0,0.3129838,-0.92207575,2.8261523,-0.026237473,-0.11128551,1.4984163,-2.2087998,0.15127952,-0.7155643,2.7846491,0.10807991,-0.068072595,1.5414952,-1.702661
0.0,-0.1,0.8999999999999999,-0.5235987755982988,0.0,0,0.32996252,-0.8951889,2.8378415,0.023224635,-0.2639807,1.5042145,-2.2333307,0.11933646,-0.7215661,2.8675475,0.21471602,-0.13624166,1.4628025,-1.5511732
0.0,-0.1,0.8999999999999999,-0.5235987755982988,0.0,0,0.28810275,-0.90481436,2.8731034,0.022227755,-0.32974735,1.5328432,-2.488408,0.1088178,-0.7179572,2.8651063,0.15282811,0.053984076,1.4962416,-1.5694273
0.0,-0.1,0.8999999999999999,-0.5235987755982988,0.0,0,0.31287983,-0.91914314,2.8097696,-0.034639757,-0.14391091,1.5168059,-2.2359111,0.16508852,-0.7009652,2.8231084,0.16772453,0.17047717,1.5295396,-1.2865444
0.0,-0.1,0.8999999999999999,-0.5235987755982988,0.0,0,0.31458035,-0.91884565,2.858927,0.012244183,-0.27757123,1.4764593,-2.1386719,0.13151185,-0.6934371,2.8518233,0.11893019,0.17539635,1.4860983,-1.6678829
0.0,-0.1,0.8999999999999999,-0.5235987755982988,0.0,0,0.33328703,-0.93871355,2.7577057,-0.04804664,-0.21176507,1.4905825,-2.3217094,0.13779931,-0.73098177,2.813598,0.13886096,0.046788894,1.4234824,-1.4885863
0.0,-0.1,0.8999999999999999,-0.5235987755982988,0.0,0,0.3546117,-0.92665756,2.8503356,-0.020520242,-0.33063576,1.5039525,-2.4043164,0.15007898,-0.71199757,2.873662,0.10752347,0.11869896,1.5093086,-1.3510172
0.0,-0.1,0.8999999999999999,-0.5235987755982988,0.0,0,0.31862873,-0.9003014,2.782454,-0.054548178,-0.15878665,1.5196661,-2.246805,0.18375666,-0.7030527,2.805197,0.16468412,0.12631473,1.5482897,-1.134781
0.0,-0.1,0.8999999999999999,-0.5235987755982988,0.0,0,0.2434744,-0.91872984,2.868593,-0.0153559735,-0.21091896,1.4965904,-2.4906812,0.04436991,-0.7150525,2.7419558,0.1447057,0.12717187,1.507897,-1.7508303
0.0,-0.1,0.8999999999999999,-0.5235987755982988,0.0,0,0.34673733,-0.88725275,2.9176867,-0.014417125,-0.18312803,1.5414283,-2.30509,0.16482939,-0.7244804,2.8424556,0.06747515,0.051033493,1.4256529,-1.1879354
0.0,-0.1,0.8999999999999999,-0.5235987755982988,0.0,0,0.34197608,-0.8896659,2.793193,-0.01598288,-0.11906412,1.5320599,-2.6403139,0.079027414,-0.70486104,2.8642192,0.16218384,0.016664881,1.492188,-1.7306012
0.0,-0.1,0.8999999999999999,-0.5235987755982988,0.0,0,0.3852858,-0.88125205,2.8174093,-0.016305942,-0.27035838,1.5088023,-2.3972747,0.11058188,-0.712834,2.843667,0.23628654,-0.03068873,1.4315101,-0.9926584
0.0,-0.1,0.8999999999999999,-0.5235987755982988,0.0,0,0.35524648,-0.9306972,2.8550417,-0.07232426,-0.3061198,1.5095372,-2.0694468,0.13925315,-0.71357805,2.8496976,0.22354059,-0.15080643,1.50189,-1.5138885
0.0,-0.1,0.8999999999999999,-0.5235987755982988,0.0,0,0.2525163,-0.92013764,2.855481,0.038318854,-0.31560174,1.4843137,-2.3516042,0.15074582,-0.70353025,2.807999,0.17808007,0.17482015,1.5134616,-1.1236484
0.0,-0.1,0.8999999999999999,-0.5235987755982988,0.0,0,0.30458996,-0.907841,2.8719876,-0.044993967,-0.32027778,1.4896142,-2.0195901,0.14047515,-0.7247902,2.8174129,0.20063077,-0.043676928,1.4178562,-1.6019506
0.0,-0.1,0.8999999999999999,-0.5235987755982988,0.0,0,0.36645535,-0.9031216,2.7975295,0.022719024,-0.26910645,1.4964578,-2.2246745,0.17612265,-0.7106199,2.9139636,0.23119551,-0.023623263,1.4718729,-1.5115833
0.0,-0.1,0.8999999999999999,-0.5235987755982988,0.0,0,0.3263991,-0.9387093,2.764726,0.036416646,-0.21071711,1.5048916,-2.3096588,0.12749913,-0.704837,2.8185842,0.16790515,0.030292861,1.4030299,-1.792867
0.0,-0.1,0.8999999999999999,-0.5235987755982988,0.0,0,0.34539336,-0.9051691,2.8434122,-0.027857954,-0.23196228,1.4923602,-2.2918682,0.13698597,-0.71376485,2.9004729,0.21999033,0.03834448,1.4793835,-1.7561848
0.0,-0.1,0.8999999999999999,-0.5235987755982988,0.0,0,0.31997287,-0.8995869,2.8289618,-0.047914345,-0.22611724,1.511901,-2.154123,0.12341813,-0.72575086,2.8357825,0.21572398,0.074918106,1.5024177,-1.6233052
0.0,-0.1,0.8999999999999999,-0.5235987755982988,0.0,0,0.30598682,-0.92143744,2.885463,0.02829303,-0.2933245,1.5323441,-2.4258318,0.058535997,-0.6902144,2.844227,0.1851294,-0.0051926454,1.50591,-1.566607
0.0,-0.1,0.8999999999999999,-0.5235987755982988,0.0,0,0.3686889,-0.9158716,2.9114974,0.028232303,-0.2597351,1.4546041,-2.6361504,0.083126746,-0.72185045,2.8602266,0.1568295,0.109481044,1.4186157,-1.7025979
0.0,-0.1,0.8999999999999999,-0.5235987755982988,0.0,0,0.37011376,-0.8970445,2.7753897,-0.04020258,-0.1618853,1.4875326,-2.4198725,0.10829889,-0.7214538,2.8778515,0.14413472,0.027662667,1.4077082,-1.811478
0.0,-0.1,0.8999999999999999,-0.5235987755982988,0.0,0,0.35441256,-0.90966,2.883916,0.010889921,-0.2822059,1.51963,-2.4795096,0.15002295,-0.7260438,2.8872242,0.21077754,0.14762305,1.5226281,-1.3790798
0.0,-0.1,0.8999999999999999,-0.5235987755982988,0.0,0,0.3270454,-0.9117224,2.9117565,-0.056573916,-0.25343335,1.4983028,-2.17664,0.14699349,-0.69209564,2.934961,0.14147058,0.099366456,1.4473776,-1.4356995
0.0,-0.1,0.8999999999999999,-0.5235987755982988,0.0,0,0.29662025,-0.9339197,2.8617773,0.0043058572,-0.37928614,1.4864224,-2.179424,0.15608254,-0.744968,2.856266,0.20536053,-0.015786065,1.383205,-1.6640425
0.0,-0.1,0.8999999999999999,-0.5235987755982988,0.0,0,0.32152307,-0.9055126,2.917072,0.0017654974,-0.2654136,1.4957203,-2.3010483,0.12352952,-0.7090453,2.825188,0.11586208,0.14362098,1.4376303,-1.5128859
0.0,-0.1,0.8999999999999999,-0.5235987755982988,0.0,0,0.29057068,-0.89788216,2.84259,-0.023970671,-0.12746632,1.4777277,-2.2539012,0.16188253,-0.73507893,2.8498816,0.13564767,0.15945776,1.4098245,-1.4265465
0.0,-0.1,0.8999999999999999,-0.5235987755982988,0.0,0,0.37215468,-0.9136179,2.9187667,-0.040684737,-0.30399084,1.4956422,-1.971405,0.13444707,-0.72161883,2.8357968,0.13361181,0.2230289,1.4437331,-1.3141909
0.0,-0.1,0.8999999999999999,-0.5235987755982988,0.0,0,0.3680834,-0.8965546,2.8112092,-0.025598949,-0.18208688,1.4912443,-2.2514718,0.09784474,-0.7312356,2.7988124,0.16889669,-0.009164755,1.385336,-1.6079625
0.0,-0.1,0.8999999999999999,-0.5235987755982988,0.0,0,0.30439225,-0.90232223,2.8548338,-0.0052955346,-0.24803941,1.5213844,-2.3231814,0.16477837,-0.7271485,2.8818464,0.12583077,0.10698318,1.4280615,-1.1371903
0.0,-0.1,0.8999999999999999,-0.5235987755982988,0.0,0,0.36737588,-0.908255,2.8472526,-0.028666332,-0.16347297,1.4795567,-2.283988,0.09988155,-0.71934545,2.849109,0.16310664,-0.119664766,1.461306,-1.4000982
0.0,-0.1,0.8999999999999999,-0.5235987755982988,0.0,0,0.3241227,-0.9106821,2.891597,-0.08324359,-0.18399492,1.530694,-2.1188624,0.06461784,-0.7079321,2.8744988,0.12573957,0.091398254,1.5338676,-1.206026
0.0,-0.1,0.8999999999999999,-0.5235987755982988,0.0,0,0.3644775,-0.89786774,2.8613737,-0.0076586558,-0.29390457,1.5302953,-1.8936613,0.13853335,-0.7143445,2.91509,0.15794452,0.03697206,1.3642731,-1.1826766
0.0,-0.1,0.8999999999999999,-0.5235987755982988,0.0,0,0.32457623,-0.92154646,2.784572,-0.080362506,-0.2534333,1.5188923,-1.8926023,0.1749769,-0.68785435,2.881542,0.162596,-0.0050254012,1.4826753,-1.671435
0.0,-0.1,0.8999999999999999,-0.5235987755982988,0.0,0,0.39225993,-0.90081704,2.8432314,-0.030681476,-0.2797182,1.4876313,-2.4357026,0.12820597,-0.72986954,2.8337402,0.11130564,-0.0029951665,1.4965469,-1.3963208
0.0,-0.1,0.8999999999999999,-0.5235987755982988,0.0,0,0.33890983,-0.89710945,2.846895,-0.025377523,-0.2038071,1.4893613,-1.8550261,0.14140554,-0.71250814,2.8729715,0.19379178,0.045153424,1.3796577,-1.1798131
0.0,-0.1,0.8999999999999999,-0.5235987755982988,0.0,0,0.3184019,-0.8988392,2.8519003,-0.0530159,-0.43528488,1.5303763,-2.1754787,0.19669755,-0.6773337,2.8140361,0.12780304,0.27391002,1.493428,-1.4450215
0.0,-0.1,0.8999999999999999,-0.5235987755982988,0.0,0,0.34676373,-0.9074103,2.780764,-0.04128203,-0.2362661,1.4907498,-2.2464042,0.13761665,-0.7197547,2.821823,0.15628584,0.015870882,1.4382191,-1.0377797
0.0,-0.1,0.8999999999999999,-0.5235987755982988,0.0,0,0.3464284,-0.90186065,2.8438833,-0.01512084,-0.2712546,1.4866394,-2.273003,0.14419504,-0.68992305,2.9335673,0.15544419,0.23984674,1.4952867,-1.4923418
0.0,-0.1,0.8999999999999999,-0.5235987755982988,0.0,0,0.2799704,-0.9135849,2.802197,0.014489442,-0.31952944,1.515527,-2.3144567,0.07270064,-0.7300803,2.893437,0.13704357,-0.03294726,1.443173,-1.1102694
0.0,-0.1,0.8999999999999999,-0.5235987755982988,0.0,0,0.33196333,-0.9241695,2.841437,0.07955598,-0.12281768,1.4751312,-2.118677,0.08887711,-0.70368654,2.9003468,0.17347503,0.16194426,1.4248378,-1.8299445
0.0,-0.1,0.8999999999999999,-0.5235987755982988,0.0,0,0.33573028,-0.9049377,2.763775,-0.011441972,-0.20415173,1.481526,-2.1186876,0.13439733,-0.70549905,2.8124235,0.20099628,0.13717872,1.4085844,-1.4115363
0.0,-0.1,0.8999999999999999,-0.5235987755982988,0.0,0,0.27780473,-0.8859772,2.89826,0.01782783,-0.30374497,1.4918082,-2.3986819,0.14830291,-0.7337628,2.875418,0.20213936,0.2796954,1.4577754,-1.3427173
0.0,-0.1,0.8999999999999999,-0.5235987755982988,0.0,0,0.34820896,-0.9313545,2.818542,-0.06514823,-0.2217986,1.5007696,-2.2789376,0.15116808,-0.71325976,2.8501024,0.17437702,-0.1437295,1.4471946,-1.0786206
0.0,-0.1,0.8999999999999999,-0.5235987755982988,0.0,0,0.30758652,-0.91421354,2.8535378,-0.04085834,-0.3132657,1.5076495,-2.1955504,0.17055269,-0.70706415,2.8660913,0.16322495,0.01620337,1.4874817,-1.2321126
0.0,-0.1,0.8999999999999999,-0.5235987755982988,0.0,0,0.31650332,-0.91389227,2.790061,-0.059533823,-0.19292171,1.4925383,-2.1423755,0.14087822,-0.7455792,2.8518422,0.13731329,0.030255282,1.4907122,-0.9288962
0.0,-0.1,0.8999999999999999,-0.5235987755982988,0.0,0,0.29194736,-0.9044291,2.8283086,-0.015634624,-0.25574595,1.5058608,-2.2164068,0.06093281,-0.7258456,2.884927,0.22852504,0.078125946,1.4381571,-1.2158302
0.0,-0.1,0.8999999999999999,-0.5235987755982988,0.0,0,0.33583084,-0.917133,2.872763,-0.056545768,-0.28164753,1.5307367,-2.1175303,0.15923505,-0.7239112,2.8228047,0.25157756,0.20222883,1.4688824,-1.2656611
0.0,-0.1,0.8999999999999999,-0.5235987755982988,0.0,0,0.38262773,-0.8916883,2.864956,-0.017010855,-0.25552914,1.4767963,-1.9608669,0.075666,-0.6995256,2.8478124,0.17218389,0.12666951,1.4277133,-1.3802471
0.0,-0.1,0.8999999999999999,-0.5235987755982988,0.0,0,0.31932107,-0.91744417,2.8086689,0.002865546,-0.23775299,1.5097164,-2.030325,0.0924644,-0.72574675,2.7945123,0.1304029,-0.008068448,1.5398173,-1.3071766
0.0,-0.1,0.8999999999999999,-0.5235987755982988,0.0,0,0.32682475,-0.92503625,2.8935044,-0.0075729634,-0.37607196,1.495224,-2.0724835,0.13914081,-0.69287294,2.7945929,0.19821824,-0.020859126,1.3983185,-1.6361514
0.0,-0.1,0.8999999999999999,-0.5235987755982988,0.0,0,0.3866259,-0.9106485,2.9174747,-0.0009937882,-0.07173399,1.5173331,-2.1087182,0.13397269,-0.71595776,2.821947,0.19417831,0.10499853,1.4218252,-1.5276998
0.0,-0.1,0.8999999999999999,-0.5235987755982988,0.0,0,0.30566218,-0.9205311,2.8904822,-0.011039325,-0.13510261,1.4646205,-2.527438,0.17736183,-0.7103745,2.8800268,0.15955289,0.0823195,1.4061273,-1.4575105
0.0,-0.1,0.8999999999999999,-0.5235987755982988,0.0,0,0.2744273,-0.8955892,2.8669686,-0.032180477,-0.4035238,1.4457479,-2.2686179,0.14562415,-0.70205414,2.9244845,0.24228586,0.07304811,1.4777021,-1.2305399
0.0,-0.1,0.8999999999999999,-0.5235987755982988,0.0,0,0.34226054,-0.895484,2.7710578,-0.028783556,-0.20935531,1.5012568,-2.2961376,0.14827557,-0.6956533,2.885517,0.223268,-0.031014431,1.4109787,-1.6399133
0.0,-0.1,0.8999999999999999,-0.5235987755982988,0.0,0,0.36354518,-0.9286486,2.844723,-0.0758312,-0.2328354,1.5300636,-2.0706234,0.13173853,-0.7257313,2.8857121,0.14874993,0.05633952,1.4986688,-1.3852144
0.0,-0.1,0.8999999999999999,-0.5235987755982988,0.0,0,0.29022792,-0.8979029,2.8062508,-0.034791134,-0.07177667,1.5133938,-1.8846227,0.10909643,-0.7169716,2.853346,0.11289834,-0.09229181,1.5341765,-1.6305627
0.0,-0.1,0.8999999999999999,-0.5235987755982988,0.0,0,0.30946738,-0.89830387,2.8801482,-0.0029577112,-0.27844113,1.4921753,-2.1701555,0.14274764,-0.71498287,2.920472,0.19104269,0.09390371,1.518017,-1.5336611
0.0,-0.1,0.8999999999999999,-0.5235987755982988,0.0,0,0.31506863,-0.9239553,2.8890107,0.009559913,-0.12435489,1.4925247,-1.9793953,0.11555747,-0.7181963,2.910062,0.2415565,-0.008428107,1.4373024,-1.8730037
0.0,-0.1,0.8999999999999999,-0.5235987755982988,0.0,0,0.31873983,-0.8941052,2.8145015,0.019549986,-0.19203651,1.5205978,-2.5173573,0.13097456,-0.69656163,2.8578641,0.15677752,0.18137409,1.4531832,-1.0807948
0.0,-0.1,0.8999999999999999,-0.5235987755982988,0.0,0,0.3737828,-0.9007142,2.8281248,-0.011367092,-0.23665115,1.5328989,-2.2674062,0.11674896,-0.67805934,2.850354,0.15927812,0.027027924,1.4581761,-1.020015
0.0,-0.1,0.8999999999999999,-0.5235987755982988,0.0,0,0.34357554,-0.9091531,2.9118495,-0.09294928,-0.23787712,1.562254,-2.1053936,0.094709136,-0.72344315,2.825601,0.14320165,0.02728552,1.5143183,-1.0777825
0.0,-0.1,0.8999999999999999,-0.5235987755982988,0.0,0,0.34623018,-0.93101853,2.7672372,-0.04809874,-0.29313415,1.4838438,-2.3129215,0.075978026,-0.6975671,2.8518624,0.25434905,-0.07940665,1.4630997,-1.8043816
0.0,-0.1,0.8999999999999999,-0.5235987755982988,0.0,0,0.31667283,-0.9312373,2.8205962,-0.017599186,-0.21191394,1.507952,-2.5299628,0.122190185,-0.70250934,2.8813436,0.117543116,-0.092342205,1.5131817,-0.9954656
0.0,-0.1,0.8999999999999999,-0.5235987755982988,0.0,0,0.32809803,-0.9115383,2.84534,-0.00991152,-0.2371702,1.4647044,-2.1240423,0.15739338,-0.7097799,2.818683,0.117333375,0.015585995,1.4552352,-1.4764022
0.0,-0.1,0.8999999999999999,-0.5235987755982988,0.0,0,0.27159244,-0.89553076,2.832891,-0.00820656,-0.36328495,1.5054936,-1.9341598,0.17647183,-0.7081602,2.8552544,0.22381967,0.10030509,1.4577041,-1.4872105
0.0,-0.1,0.8999999999999999,-0.5235987755982988,0.0,0,0.2866832,-0.89472413,2.9128997,-0.011751685,-0.34334266,1.4837922,-2.0224,0.13732834,-0.71536535,2.831463,0.08393279,0.0789906,1.4837984,-1.7792606
0.0,-0.1,0.8999999999999999,-0.5235987755982988,0.0,0,0.26427177,-0.9253618,2.8251734,0.0519287,-0.2677187,1.4834272,-2.544744,0.12317446,-0.70688266,2.7922864,0.21673816,0.12760021,1.4216119,-1.4669548
0.0,-0.1,0.8999999999999999,-0.5235987755982988,0.0,0,0.2693829,-0.9207201,2.9006128,-0.00033754134,-0.25450835,1.5011002,-2.1347435,0.1092421,-0.74247396,2.8065796,0.19078054,0.11778901,1.5166796,-1.3804388
0.0,-0.1,0.8999999999999999,-0.5235987755982988,0.0,0,0.26743576,-0.90339607,2.8696797,-0.02888518,-0.16620748,1.4925753,-2.058398,0.1404151,-0.7014437,2.782736,0.15030456,0.04281694,1.4904525,-1.6529166
0.0,-0.1,0.8999999999999999,-0.5235987755982988,0.0,0,0.3593741,-0.90722334,2.9059777,-0.019527381,-0.31115827,1.5214872,-2.2224479,0.13816078,-0.70857877,2.7812588,0.2130908,0.027624622,1.4320083,-1.1869783
0.0,-0.1,0.8999999999999999,-0.5235987755982988,0.0,0,0.3195599,-0.9155033,2.7783175,-0.004868862,-0.21557488,1.4919866,-2.1914463,0.10616977,-0.7160615,2.8297708,0.108407006,0.06437196,1.4939884,-1.7204051
0.0,-0.1,0.8999999999999999,-0.5235987755982988,0.0,0,0.3055099,-0.91955817,2.9361997,-0.035646826,-0.16447824,1.4613394,-2.5375757,0.1315453,-0.7325324,2.8736587,0.16673306,0.17705414,1.5025934,-1.3672256
0.0,-0.1,0.8999999999999999,-0.5235987755982988,0.0,0,0.3150668,-0.91669613,2.812835,0.0112031,-0.2485114,1.5134845,-2.187375,0.084778845,-0.71170443,2.804757,0.15806061,0.122849286,1.4856539,-1.7217243
0.0,-0.1,0.8999999999999999,-0.5235987755982988,0.0,0,0.31258696,-0.91036165,2.8703868,-0.04374662,-0.19264914,1.5125105,-2.3412557,0.15925401,-0.6889074,2.7985442,0.12692422,0.036918536,1.3887314,-1.5875533
0.0,-0.1,0.8999999999999999,-0.5235987755982988,0.0,0,0.33662578,-0.9212905,2.8889322,0.007404146,-0.2207106,1.4634539,-2.0923235,0.122766174,-0.70458287,2.8559787,0.21135725,-0.1723542,1.4197184,-1.5247556
0.0,-0.1,0.8999999999999999,-0.5235987755982988,0.0,0,0.32984295,-0.89217496,2.858916,0.003761687,-0.28363425,1.5002662,-2.3458683,0.14366065,-0.7138888,2.7685807,0.013123449,-0.111710116,1.5288666,-1.5705655
0.0,-0.1,0.8999999999999999,-0.5235987755982988,0.0,0,0.2724215,-0.89706504,2.8813944,-0.00095906,-0.260905,1.485819,-2.568124,0.121517465,-0.71059364,2.8865068,0.14770514,-0.013656317,1.5014311,-1.0571026
0.0,-0.1,0.8999999999999999,-0.5235987755982988,0.0,0,0.34535763,-0.9185443,2.8418958,-0.070314266,-0.1693105,1.500646,-2.2885263,0.15702868,-0.7251342,2.834061,0.20079327,0.027731683,1.4965744,-1.2198656
0.0,-0.1,0.8999999999999999,-0.5235987755982988,0.0,0,0.3726077,-0.89620876,2.914757,0.015003137,-0.35198265,1.5069824,-2.3522787,0.0837513,-0.73048013,2.8126154,0.11447123,0.06624304,1.4418768,-1.6942894
0.0,-0.1,0.8999999999999999,-0.5235987755982988,0.0,0,0.3383386,-0.9216919,2.7468724,-0.012995897,-0.32166603,1.4869975,-2.2747865,0.13460532,-0.7435803,2.9022086,0.14725178,0.166813,1.4399467,-1.8751943
0.0,-0.1,0.8999999999999999,-0.5235987755982988,0.0,0,0.3450419,-0.8961399,2.8845687,-0.05204989,-0.19563287,1.4763626,-2.2428057,0.12966609,-0.72321725,2.8809958,0.17541116,-0.031892706,1.4399809,-1.6030799
0.0,-0.1,0.8999999999999999,-0.5235987755982988,0.0,0,0.3186036,-0.9052194,2.822975,-0.035762325,-0.23703867,1.5012549,-2.301159,0.123928554,-0.7148149,2.8717468,0.10184185,0.18907487,1.4258922,-1.78956
0.0,-0.1,0.8999999999999999,-0.5235987755982988,0.0,0,0.36850306,-0.92785513,2.87375,-0.008177829,-0.2028025,1.4890574,-2.516225,0.13234521,-0.6928402,2.8325818,0.106551975,0.026969638,1.4266601,-1.6764351
0.0,-0.1,0.8999999999999999,-0.5235987755982988,0.0,0,0.3571396,-0.92702484,2.9426098,-0.01157007,-0.20405923,1.509611,-2.3715014,0.09230026,-0.69561046,2.8922007,0.106237724,0.014827073,1.3778224,-1.624959
0.0,-0.1,0.8999999999999999,-0.5235987755982988,0.0,0,0.32640254,-0.9194667,2.8586836,0.02803864,-0.2019213,1.494709,-2.3163877,0.13349669,-0.69927514,2.8311071,0.19313198,0.27037257,1.3923987,-1.7870922
0.0,-0.1,0.8999999999999999,-0.5235987755982988,0.0,0,0.3700203,-0.90037185,2.8560019,0.016978629,-0.23647396,1.5118873,-2.5544288,0.1277493,-0.7324584,2.91181,0.16285226,0.084318645,1.4720924,-1.7493886
0.0,-0.1,0.8999999999999999,-0.5235987755982988,0.0,0,0.35143387,-0.91760623,2.8906984,-0.025458002,-0.27198446,1.5247811,-2.5634134,0.14689717,-0.72863156,2.8708878,0.17976227,-0.0047073835,1.4364402,-1.3537539
0.0,-0.1,0.8999999999999999,-0.5235987755982988,0.0,0,0.28674367,-0.9011267,2.8425562,0.045058377,-0.24470451,1.5366329,-2.23084,0.067064926,-0.70503306,2.876258,0.1788852,-0.07944239,1.4634777,-1.5613784
0.0,-0.1,0.8999999999999999,-0.5235987755982988,0.0,0,0.36967534,-0.91555023,2.85176,-0.04522006,-0.2772283,1.5250815,-2.3744497,0.13569568,-0.7226487,2.7881832,0.27786392,0.0059710126,1.3753594,-1.4523963
0.0,-0.1,0.8999999999999999,-0.5235987755982988,0.0,0,0.3117062,-0.9306552,2.831334,0.027214909,-0.24308567,1.4982111,-2.5303848,0.11242668,-0.7150672,2.8569207,0.1346929,0.12847303,1.4329621,-1.6626632
0.0,-0.1,0.8999999999999999,-0.5235987755982988,0.0,0,0.27653524,-0.9034944,2.8644197,-0.034425568,-0.27375156,1.4982203,-2.1806476,0.08923372,-0.6968418,2.8161907,0.18415277,0.07831804,1.502213,-1.4043696
0.0,-0.1,0.8999999999999999,-0.5235987755982988,0.0,0,0.31899968,-0.9083373,2.858099,-0.0019260463,-0.26434696,1.5007541,-2.5202024,0.097383864,-0.7115211,2.8751385,0.20849623,-0.060804486,1.5120842,-1.5460408
0.0,-0.1,0.8999999999999999,-0.5235987755982988,0.0,0,0.26513204,-0.910219,2.9675658,0.0020479385,-0.3385176,1.5119114,-2.2752562,0.0904118,-0.7401298,2.9036238,0.19576001,-0.03344207,1.439933,-1.7629169
0.0,-0.1,0.8999999999999999,-0.5235987755982988,0.0,0,0.34178382,-0.9032569,2.8292723,0.02330789,-0.3625883,1.4749137,-2.485974,0.12752464,-0.69470894,2.9058714,0.17392221,0.05642507,1.4399517,-1.2049295
0.0,-0.1,0.8999999999999999,-0.5235987755982988,0.0,0,0.32536575,-0.91897887,2.8373919,-0.012410457,-0.22495872,1.4895118,-2.4585981,0.13400784,-0.7096502,2.8452773,0.13534258,0.14429677,1.4790474,-1.1741728
0.0,-0.1,0.8999999999999999,-0.5235987755982988,0.0,0,0.34546873,-0.9090374,2.8290546,-0.02531773,-0.27796927,1.5135497,-2.4882855,0.09280535,-0.70976806,2.9323413,0.19989839,-0.058401372,1.4237454,-1.1704662
0.0,-0.1,0.8999999999999999,-0.5235987755982988,0.0,0,0.3282934,-0.9104413,2.8680704,-0.071893625,-0.15986957,1.5154605,-2.2815557,0.113417484,-0.70057046,2.88071,0.16702087,0.23144472,1.442866,-1.1840669
0.0,-0.1,0.8999999999999999,-0.5235987755982988,0.0,0,0.4039129,-0.9011402,2.9155512,0.01932976,-0.21416263,1.5139685,-2.487306,0.06309665,-0.7110949,2.8918087,0.16960058,0.024918556,1.4366513,-1.5253246
0.0,-0.1,0.8999999999999999,-0.5235987755982988,0.0,0,0.42589214,-0.91413134,2.8078325,0.005782185,-0.1941608,1.4591709,-2.3820806,0.13644293,-0.7284745,2.838041,0.22994858,-0.06429161,1.4909074,-1.5593503
0.0,-0.1,0.8999999999999999,-0.5235987755982988,0.0,0,0.29670772,-0.9078886,2.878646,-0.01316993,-0.21811382,1.4591396,-2.284004,0.14544839,-0.72836274,2.805613,0.16603726,0.082763895,1.4973373,-1.802779
0.0,-0.1,0.8999999999999999,-0.5235987755982988,0.0,0,0.33884126,-0.9256121,2.8490484,-0.033904146,-0.30070993,1.5294462,-2.31876,0.16613522,-0.70767224,2.8223574,0.08573378,0.18996349,1.4816495,-1.2981557
0.0,-0.1,0.8999999999999999,-0.5235987755982988,0.0,0,0.29959518,-0.93629056,2.860483,0.00856938,-0.23672904,1.4981818,-2.2975323,0.14808023,-0.71471727,2.785133,0.15867254,0.09640087,1.4850775,-1.5111012
0.0,-0.1,0.8999999999999999,-0.5235987755982988,0.0,0,0.28203762,-0.89435124,2.8804696,-0.027544396,-0.21466663,1.5176268,-2.1826067,0.12817998,-0.70032513,2.782223,0.18749094,0.02409622,1.498485,-1.5183401
0.0,-0.1,0.8999999999999999,-0.5235987755982988,0.0,0,0.33500028,-0.90956604,2.8587978,-0.045216355,-0.23164959,1.4853436,-2.2546852,0.06021913,-0.71521884,2.8876634,0.21662028,-0.1497418,1.4863133,-1.5552552
0.0,-0.1,0.8999999999999999,-0.5235987755982988,0.0,0,0.35448113,-0.9032119,2.8253386,-0.04216057,-0.2603486,1.5285449,-2.1523752,0.18339367,-0.7292954,2.7933383,0.16405325,0.046558127,1.4427972,-1.6592522
0.0,-0.1,0.8999999999999999,-0.5235987755982988,0.0,0,0.33472097,-0.9420508,2.7655067,-0.035990205,-0.1984467,1.483528,-2.091553,0.10226834,-0.73093367,2.8016512,0.1968234,0.029512195,1.507647,-1.5524852
0.0,-0.1,0.8999999999999999,-0.5235987755982988,0.0,0,0.34710267,-0.906415,2.8708608,0.010479057,-0.23670645,1.5146034,-2.2708843,0.1708944,-0.71527994,2.8022223,0.16424078,0.24646962,1.4628508,-1.4418094
0.0,-0.1,0.8999999999999999,-0.5235987755982988,0.0,0,0.29699552,-0.87919956,2.882077,-0.029719755,-0.16851081,1.4991714,-2.3515677,0.10510304,-0.70926946,2.8342326,0.21377985,0.023342844,1.3938696,-1.5748198
0.0,-0.1,0.8999999999999999,-0.5235987755982988,0.0,0,0.27446574,-0.8806609,2.8482342,0.01282153,-0.3295316,1.5110693,-2.241487,0.1786432,-0.68168473,2.7977223,0.113259256,0.06531498,1.3515205,-1.2086905
0.0,-0.1,0.8999999999999999,-0.5235987755982988,0.0,0,0.35780928,-0.9114387,2.7627654,0.0029893045,-0.21353361,1.5061867,-2.2596493,0.17592485,-0.71013325,2.8579981,0.16118589,-0.09626633,1.4325814,-1.1504616
0.0,-0.1,0.8999999999999999,-0.5235987755982988,0.0,0,0.34397447,-0.92524076,2.8303354,0.0066548814,-0.1871233,1.4908752,-2.1354446,0.0780144,-0.7201847,2.9030137,0.029533014,-0.13165101,1.5089195,-1.1274145
0.0,-0.1,0.8999999999999999,-0.5235987755982988,0.0,0,0.39355132,-0.92525387,2.7555256,-0.02271155,-0.24460381,1.4538575,-2.058556,0.11663826,-0.7159629,2.8171535,0.19994786,0.107630745,1.4491516,-0.88091284
0.0,-0.1,0.8999999999999999,-0.5235987755982988,0.0,0,0.34550917,-0.94691366,2.8533356,-0.059414152,-0.27520114,1.5021408,-2.1200128,0.092828594,-0.7044809,2.8890576,0.16373223,0.26549205,1.4896185,-1.6152378
0.0,-0.1,0.8999999999999999,-0.5235987755982988,0.0,0,0.33964658,-0.8979103,2.8421547,-0.00074277836,-0.2688787,1.4953272,-2.0418577,0.1227049,-0.7360521,2.8401725,0.10645579,0.00026061168,1.3830085,-1.6398467
0.0,-0.1,0.8999999999999999,-0.5235987755982988,0.0,0,0.3204036,-0.8814216,2.7827022,-0.053433273,-0.078237906,1.4961874,-2.2566745,0.12019077,-0.723219,2.7441084,0.15954931,-0.08606163,1.444079,-1.5825319
0.0,-0.1,0.8999999999999999,-0.5235987755982988,0.0,0,0.34125248,-0.92169863,2.804328,-0.009417344,-0.20632963,1.5219153,-2.4354887,0.096164644,-0.6950323,2.972873,0.1337417,0.017424984,1.4906698,-1.3879865
0.0,-0.1,0.8999999999999999,-0.5235987755982988,0.0,0,0.2970636,-0.88803506,2.8708415,-0.046182893,-0.27170476,1.5256796,-2.3205302,0.118581034,-0.7014825,2.8984208,0.12434066,0.1932805,1.4689783,-1.6816658
0.0,-0.1,0.8999999999999999,-0.5235987755982988,0.0,0,0.32038563,-0.9019,2.8768313,-0.011505387,-0.29459998,1.5331653,-2.4253635,0.15198873,-0.6882007,2.8756447,0.13435218,0.15322074,1.4432817,-1.4181786
0.0,-0.1,0.8999999999999999,-0.5235987755982988,0.0,0,0.3253881,-0.91713446,2.8469172,0.005270463,-0.23573807,1.4910957,-2.176448,0.14393485,-0.7063774,2.8384469,0.1251275,0.15438645,1.4086236,-1.3130963
0.0,-0.1,0.8999999999999999,-0.5235987755982988,0.0,0,0.3527539,-0.9206796,2.7849972,0.0072137523,-0.24966674,1.4859519,-2.2644722,0.14503764,-0.7152715,2.9155524,0.11692413,0.005653493,1.4545034,-1.6082513
0.0,-0.1,0.8999999999999999,-0.5235987755982988,0.0,0,0.3795106,-0.9265485,2.8847492,-0.027968315,-0.25182086,1.4737234,-2.4961205,0.18073647,-0.7013107,2.9806225,0.15139948,0.070219494,1.4460855,-1.3133445
0.0,-0.1,0.8999999999999999,-0.5235987755982988,0.0,0,0.35863096,-0.904769,2.8762734,-0.03266456,-0.3108478,1.5153688,-1.9492755,0.12014832,-0.72233325,2.820875,0.14679536,0.036069766,1.4639143,-1.2429764
0.0,-0.1,0.8999999999999999,-0.5235987755982988,0.0,0,0.30677867,-0.92335224,2.8719049,-1.27995445e-05,-0.17576748,1.4863733,-2.288366,0.14193714,-0.70240355,2.8677347,0.12444781,0.024100462,1.4558569,-1.540958
0.0,-0.1,0.8999999999999999,-0.5235987755982988,0.0,0,0.28916842,-0.9081124,2.8662899,-0.05462598,-0.18208638,1.5227882,-2.200758,0.10485101,-0.72144043,2.9000747,0.20659591,0.24533553,1.482684,-1.0220426
0.0,-0.1,0.8999999999999999,-0.5235987755982988,0.0,0,0.3074933,-0.9266702,2.8779843,-0.072606966,-0.26849955,1.511204,-2.0375555,0.15377563,-0.7093504,2.9341922,0.13201681,-0.0654993,1.5106863,-1.4157252
0.0,-0.1,0.8999999999999999,-0.5235987755982988,0.0,0,0.3407777,-0.90642375,2.9085813,0.020913728,-0.25673258,1.4957209,-2.2011518,0.10494585,-0.71075046,2.864056,0.21475236,0.0052082776,1.3685541,-1.489344
0.0,-0.1,0.8999999999999999,-0.5235987755982988,0.0,0,0.2843404,-0.92352504,2.9689753,-0.08174177,-0.2983924,1.5378772,-2.0694323,0.16383463,-0.715209,2.8370392,0.24426724,0.2450212,1.3888588,-1.3933182
0.0,-0.1,0.8999999999999999,-0.5235987755982988,0.0,0,0.35428149,-0.91553235,2.8297324,-0.0052096047,-0.28522828,1.5117142,-2.4787784,0.1300558,-0.7018492,2.8079383,0.17087573,0.030179856,1.4113214,-1.487722
0.0,-0.1,0.8999999999999999,-0.5235987755982988,0.0,0,0.3287198,-0.92831206,2.8036218,-0.07994713,-0.19311045,1.5225039,-2.2325742,0.16109884,-0.70835316,2.834675,0.2019096,0.108311355,1.4562588,-1.3800304
0.0,-0.1,0.8999999999999999,-0.5235987755982988,0.0,0,0.3453271,-0.9293523,2.8705814,-0.048088513,-0.31531468,1.5240405,-2.317779,0.12423,-0.6971759,2.7775156,0.15691175,0.108845964,1.5068456,-1.425484
0.0,-0.1,0.8999999999999999,-0.5235987755982988,0.0,0,0.31681514,-0.91379297,2.8014536,-0.012007505,-0.17231655,1.4665788,-2.2036366,0.12564313,-0.72928154,2.902701,0.102037646,-1.5029683e-06,1.4529582,-1.7832515
0.0,-0.1,0.8999999999999999,-0.5235987755982988,0.0,0,0.30908424,-0.8935969,2.8756733,-0.062387437,-0.21887702,1.5278847,-2.4980934,0.08867331,-0.6882792,2.8330956,0.13312422,0.09909894,1.4926618,-1.4179853
0.0,-0.1,0.8999999999999999,-0.5235987755982988,0.0,0,0.3329443,-0.918614,2.8771899,-0.04318907,-0.26230353,1.4894377,-2.253305,0.10390079,-0.70552504,2.9628587,0.13588318,0.02164539,1.4657527,-1.383944
0.0,-0.1,0.8999999999999999,-0.5235987755982988,0.0,0,0.3048409,-0.9384439,2.942725,0.003705443,-0.41866517,1.4866703,-2.6854506,0.096447825,-0.72926605,2.7610006,0.1921319,0.070531346,1.4658102,-1.0611784
0.0,-0.1,0.8999999999999999,-0.5235987755982988,0.0,0,0.36273846,-0.908375,2.8148203,-0.00031816316,-0.215569,1.4665507,-2.1005723,0.09206066,-0.7320844,2.846365,0.15993613,0.26759115,1.5330155,-1.5267026
0.0,-0.1,0.8999999999999999,-0.5235987755982988,0.0,0,0.3180105,-0.9139499,2.819831,-0.017315552,-0.15561028,1.5150602,-2.0757036,0.1584764,-0.7244835,2.8392718,0.20518544,0.18964395,1.5140511,-1.3403357
0.0,-0.1,0.8999999999999999,-0.5235987755982988,0.0,0,0.26302218,-0.90087825,2.8956249,-0.014868979,-0.17951441,1.5176914,-2.725715,0.09420963,-0.70950013,2.8159888,0.1974787,0.24283335,1.4590455,-1.2773044
0.0,-0.1,0.8999999999999999,-0.5235987755982988,0.0,0,0.31984654,-0.9060988,2.833761,0.009258899,-0.27311453,1.4805129,-2.220969,0.15950063,-0.707377,2.8354297,0.17592993,0.14520314,1.3486403,-1.6756736
0.0,-0.1,0.8999999999999999,-0.5235987755982988,0.0,0,0.32304305,-0.91827893,2.8751678,-0.046804648,-0.24905688,1.4938673,-2.4039938,0.13326144,-0.7198836,2.8857458,0.118400626,0.24056855,1.5611904,-1.6080964
0.0,-0.1,0.8999999999999999,-0.5235987755982988,0.0,0,0.31899804,-0.87846833,2.9088497,0.027368013,-0.2954986,1.500696,-2.4027412,0.13772686,-0.72078013,2.9021432,0.20549488,-0.014123316,1.364817,-1.5503746
0.0,-0.1,0.8999999999999999,-0.5235987755982988,0.0,0,0.31104317,-0.9303207,2.8411689,-0.1045194,-0.25222474,1.5166785,-2.0695267,0.1438524,-0.7123952,2.8503213,0.1836251,0.21476702,1.4583397,-1.495277
0.0,-0.1,0.8999999999999999,-0.5235987755982988,0.0,0,0.37730935,-0.8874118,2.811348,-0.02261754,-0.22448106,1.4807385,-2.1328964,0.14126618,-0.7273797,2.7899635,0.16308154,0.005069938,1.445933,-1.247007
0.0,-0.1,0.8999999999999999,-0.5235987755982988,0.0,0,0.30975646,-0.910654,2.8609366,-0.03276546,-0.28050995,1.5413532,-2.3206758,0.12345662,-0.72116226,2.8529751,0.15574075,0.040570617,1.4790969,-1.2933338
0.0,-0.1,0.8999999999999999,-0.5235987755982988,0.0,0,0.27773514,-0.9467919,2.7921731,-0.024926156,-0.21493724,1.5063277,-2.2937875,0.11949112,-0.7250105,2.8472245,0.16861312,0.03347317,1.4563884,-1.2943811
0.0,-0.1,0.8999999999999999,-0.5235987755982988,0.0,0,0.32436717,-0.90285337,2.8989456,-0.044085838,-0.25732553,1.501511,-2.110772,0.051364023,-0.7150881,2.8559897,0.16476329,-0.0042833816,1.4490085,-1.7154483
0.0,-0.1,0.8999999999999999,-0.5235987755982988,0.0,0,0.36113393,-0.911487,2.8141038,0.021871721,-0.18891929,1.4745929,-2.4333017,0.123365626,-0.69292027,2.87535,0.23939939,0.031648465,1.4486814,-1.8956472
0.0,-0.1,0.8999999999999999,-0.5235987755982988,0.0,0,0.32802397,-0.91407,2.8144429,0.036504325,-0.24851511,1.5129439,-2.418355,0.13928512,-0.7040568,2.84609,0.15857323,0.114623085,1.4489288,-1.344159
0.0,-0.1,0.8999999999999999,-0.5235987755982988,0.0,0,0.33464524,-0.91268647,2.9460602,-0.0084237885,-0.3689012,1.4843348,-2.164939,0.13605945,-0.7258499,2.8214254,0.16063349,-0.032578368,1.53038,-1.5789374
0.0,-0.1,0.8999999999999999,-0.5235987755982988,0.0,0,0.36418155,-0.9123173,2.8435435,-0.055535983,-0.21179387,1.521236,-2.2336097,0.10483517,-0.68525666,2.8937411,0.18749273,0.30649328,1.5254995,-1.5657046
0.0,-0.1,0.8999999999999999,-0.5235987755982988,0.0,0,0.31433538,-0.915741,2.8007991,-0.013005199,-0.31604347,1.4965014,-2.3853512,0.18234518,-0.72555995,2.789263,0.16047595,0.11068789,1.4888909,-1.9289206
0.0,-0.1,0.8999999999999999,-0.5235987755982988,0.0,0,0.3095961,-0.9335803,2.790977,-0.0027127939,-0.10110026,1.5172728,-2.2006476,0.13719761,-0.7194378,2.9110115,0.13118914,-0.040352166,1.5270345,-1.3896695
0.0,-0.1,0.8999999999999999,-0.5235987755982988,0.0,0,0.3908389,-0.8910536,2.8958604,-0.07331786,-0.21556517,1.5148983,-2.1727223,0.16315323,-0.70650715,2.8308284,0.17661357,0.052590802,1.4541599,-1.5715475
0.0,-0.1,0.8999999999999999,-0.5235987755982988,0.0,0,0.33568475,-0.922447,2.8003764,-0.037866503,-0.23526967,1.5050517,-2.3553915,0.08408401,-0.71875674,2.909277,0.19384845,0.22237979,1.4629027,-1.5227679
0.0,-0.1,0.8999999999999999,-0.5235987755982988,0.0,0,0.31036818,-0.89389586,2.9074488,0.020749804,-0.28324378,1.4764005,-2.4809165,0.117075145,-0.72735035,2.7831883,0.13990399,0.047339655,1.4615437,-1.6497676
0.0,-0.1,0.8999999999999999,-0.5235987755982988,0.0,0,0.33494797,-0.90771157,2.8913732,0.037158277,-0.36688992,1.534917,-2.3249674,0.16216421,-0.7141116,2.849623,0.18180265,-0.07244865,1.4342538,-1.5312381
0.0,-0.1,0.8999999999999999,-0.5235987755982988,0.0,0,0.30683172,-0.8966658,2.9212902,-0.025220476,-0.33280888,1.5281347,-2.5096564,0.16015781,-0.7109053,2.9620268,0.18934524,0.10999234,1.3858798,-1.5684781
0.0,-0.1,0.8999999999999999,-0.5235987755982988,0.0,0,0.30093384,-0.90090704,2.921222,-0.028408667,-0.2741575,1.4879117,-2.3477178,0.08390736,-0.70117015,2.9857576,0.092414476,0.13626952,1.4545729,-1.5574313
0.0,-0.1,0.8999999999999999,-0.5235987755982988,0.0,0,0.3413685,-0.9166835,2.9160547,-0.013314659,-0.20566852,1.4764733,-2.404798,0.09490845,-0.68365455,2.8954146,0.12903516,-0.11768553,1.484584,-1.124889
0.0,-0.1,0.8999999999999999,-0.5235987755982988,0.0,0,0.30896264,-0.9251619,2.868717,-0.011803446,-0.2745425,1.5095,-2.603234,0.10719613,-0.7465506,2.8927507,0.0957903,0.04091159,1.527196,-1.4413931
0.0,-0.1,0.8999999999999999,-0.5235987755982988,0.0,0,0.26314119,-0.9195478,2.8507953,-0.0067238985,-0.29282653,1.4995557,-2.4368587,0.13961296,-0.7245356,2.8457272,0.16575603,0.09716688,1.5104066,-1.2113304
0.0,-0.1,0.8999999999999999,-0.5235987755982988,0.0,0,0.330584,-0.90433097,2.8262644,-0.055990357,-0.18840253,1.4956914,-2.414228,0.14813311,-0.7154276,2.7977307,0.1898812,0.061441448,1.4640535,-1.6109952
0.0,-0.1,0.8999999999999999,-0.5235987755982988,0.0,0,0.39020884,-0.9121649,2.8684754,0.024549792,-0.28492007,1.4619294,-2.635464,0.12576336,-0.70642245,2.896174,0.18666562,0.16395769,1.4700685,-1.1968712
0.0,-0.1,0.8999999999999999,-0.5235987755982988,0.0,0,0.3626478,-0.91236144,2.922792,-0.048392307,-0.2993087,1.5366784,-2.16881,0.16900092,-0.6908052,2.906934,0.17259915,0.0372268,1.5161463,-1.1987469
0.0,-0.1,0.8999999999999999,-0.5235987755982988,0.0,0,0.32019055,-0.90952957,2.8516393,0.002593955,-0.18703033,1.4995021,-2.3848472,0.06737841,-0.72251624,2.8550692,0.19594572,-0.02027686,1.4882156,-1.5029601
0.0,-0.1,0.8999999999999999,-0.5235987755982988,0.0,0,0.3240892,-0.9061696,2.8593016,-0.0011385311,-0.28738505,1.5073496,-2.1788025,0.14819127,-0.7184056,2.84458,0.23364733,0.19208738,1.4569403,-1.8064865
0.0,-0.1,0.8999999999999999,-0.5235987755982988,0.0,0,0.29142582,-0.9321456,2.8254027,-0.037683867,-0.29673815,1.5194321,-2.450104,0.16432637,-0.6979325,2.8697364,0.13670641,-0.04921773,1.5017058,-1.4559048
0.0,-0.1,0.8999999999999999,-0.5235987755982988,0.0,0,0.3159322,-0.91816235,2.8669958,-0.037810605,-0.20439701,1.488156,-2.4699597,0.18886475,-0.6985656,2.7853124,0.1755942,0.019584313,1.4269301,-1.5735989
0.0,-0.1,0.8999999999999999,-0.5235987755982988,0.0,0,0.3267485,-0.9152678,2.8472118,-0.026815476,-0.26168782,1.517848,-2.3221097,0.19697015,-0.7320533,2.8811793,0.11852313,-0.062917076,1.5365064,-1.1005932
0.0,-0.1,0.8999999999999999,-0.5235987755982988,0.0,0,0.3409745,-0.9033221,2.732084,-0.00770389,-0.23617437,1.4622623,-2.4796088,0.1875247,-0.7292837,2.807799,0.20977463,0.03392798,1.422411,-1.1257365
0.0,-0.1,0.8999999999999999,-0.5235987755982988,0.0,0,0.28023687,-0.9108568,2.798656,0.022482267,-0.24813238,1.4730213,-2.359972,0.15154864,-0.72838974,2.7875504,0.20164374,0.020231899,1.4346474,-1.5303873
0.0,-0.1,0.8999999999999999,-0.5235987755982988,0.0,0,0.27705666,-0.91026837,2.8455443,-0.01648715,-0.26737148,1.5108984,-2.3228788,0.13173498,-0.71368223,2.790604,0.18033382,0.009752143,1.4888471,-1.3310834
0.0,-0.1,0.8999999999999999,-0.5235987755982988,0.0,0,0.34469992,-0.8907089,2.8565547,0.017524952,-0.3456111,1.4951029,-2.0094683,0.108938456,-0.7342973,2.8672442,0.1978451,-0.11902388,1.4933435,-1.5034993
0.0,-0.1,0.8999999999999999,-0.5235987755982988,0.0,0,0.34469065,-0.92559844,2.8984487,-0.02281042,-0.33461425,1.4982235,-2.38147,0.16682875,-0.7364461,2.884588,0.17262141,-0.058363747,1.5411562,-1.2600415
0.0,-0.1,0.8999999999999999,-0.5235987755982988,0.0,0,0.33389303,-0.9201106,2.87316,0.003793234,-0.29877543,1.5336246,-2.2126064,0.14066069,-0.7384669,2.8509552,0.14733985,0.1405242,1.4412776,-1.3372403
0.0,-0.1,0.8999999999999999,-0.5235987755982988,0.0,0,0.33126456,-0.92679965,2.8245168,0.0013135545,-0.20330329,1.4948479,-1.9629896,0.13270672,-0.7087696,2.9258192,0.05889247,0.27854502,1.4807622,-1.1294248
0.0,-0.1,0.8999999999999999,-0.5235987755982988,0.0,0,0.2986474,-0.88715637,2.812269,0.03405854,-0.1946182,1.5042293,-2.410333,0.0925318,-0.694626,2.8427093,0.10117892,0.037335537,1.4228702,-1.2211808
0.0,-0.1,0.8999999999999999,-0.5235987755982988,0.0,0,0.41365662,-0.8918433,2.83595,-0.020948403,-0.22656216,1.487546,-2.021413,0.1037429,-0.7178782,2.876036,0.18290703,0.23005056,1.4146389,-1.0710618
0.0,-0.1,0.8999999999999999,-0.5235987755982988,0.0,0,0.31165755,-0.90651274,2.8086128,0.0325387,-0.1945291,1.4806068,-2.1057103,0.1493318,-0.7134459,2.7803988,0.18637048,0.20012979,1.4165139,-1.5614196
0.0,-0.1,0.8999999999999999,-0.5235987755982988,0.0,0,0.27879372,-0.93761855,2.8608387,-0.020536639,-0.20512266,1.4676254,-2.1035204,0.15175553,-0.70919096,2.881299,0.109398365,0.17129163,1.4830567,-1.3265727
