sanky1234/BimanualDexCatch/isaacgymenvs/cem_results/football_pose_-0.1_-0.2_0.7999999999999999_-0.5235987755982988_-0.5235987755982988_0_2025-05-25.csv
x,y,z,roll,pitch,yaw,robot1/joint1,robot1/joint2,robot1/joint3,robot1/joint4,robot1/joint5,robot1/joint6,robot1/joint7,robot2/joint1,robot2/joint2,robot2/joint3,robot2/joint4,robot2/joint5,robot2/joint6,robot2/joint7
-0.1,-0.2,0.7999999999999999,-0.5235987755982988,-0.5235987755982988,0,-0.4329855,1.2541658,-0.118080124,-0.21496217,0.1868743,1.1845733,-0.73082125,-0.40673172,0.36816233,-0.19396229,0.053104576,-0.24643871,1.4355747,-0.5771899
-0.1,-0.2,0.7999999999999999,-0.5235987755982988,-0.5235987755982988,0,0.29457876,1.3299772,-0.21067967,-0.08713891,0.62252766,0.9023541,1.1111896,-0.40845397,0.3638288,-0.19541681,0.05782299,-0.2623942,1.4355454,-0.574485
-0.1,-0.2,0.7999999999999999,-0.5235987755982988,-0.5235987755982988,0,0.46690157,1.3791614,-0.40544632,-0.24239065,0.56553316,1.1391653,-0.67349255,-0.41107005,0.36720827,-0.17986858,0.056671605,-0.2609442,1.4379332,-0.6047241
-0.1,-0.2,0.7999999999999999,-0.5235987755982988,-0.5235987755982988,0,-1.217929,1.1644292,0.056259606,0.047807556,0.011074617,1.2246128,-0.3096595,-0.40383485,0.36275557,-0.19829796,0.05815047,-0.25190023,1.430311,-0.57472193
-0.1,-0.2,0.7999999999999999,-0.5235987755982988,-0.5235987755982988,0,-0.45283455,1.3279766,0.17161855,-0.02560395,0.31994963,1.185117,-1.2012694,-0.40269965,0.36406854,-0.18591604,0.05540267,-0.25237077,1.4372386,-0.5869763
-0.1,-0.2,0.7999999999999999,-0.5235987755982988,-0.5235987755982988,0,0.4029984,1.4169316,-0.1310548,-0.10740803,0.33016264,1.2752502,-0.3820144,-0.40651596,0.36749694,-0.19173452,0.056026764,-0.2447472,1.4391384,-0.6145347
-0.1,-0.2,0.7999999999999999,-0.5235987755982988,-0.5235987755982988,0,-0.05312959,1.111933,-0.23526233,0.046912044,0.3964907,1.1341361,-1.4280653,-0.40840328,0.36763406,-0.19064996,0.055315945,-0.26756918,1.4397783,-0.56555223
-0.1,-0.2,0.7999999999999999,-0.5235987755982988,-0.5235987755982988,0,-0.48538512,1.376324,-0.12445143,0.032073908,0.14607297,0.8925884,-1.0612663,-0.4061376,0.36340243,-0.20312382,0.06006036,-0.2470226,1.4318584,-0.60037005
-0.1,-0.2,0.7999999999999999,-0.5235987755982988,-0.5235987755982988,0,-0.18849713,1.3317912,0.16878416,0.08654583,0.06154318,1.3980249,-1.1500853,-0.4068052,0.36696184,-0.19006619,0.06269837,-0.25775114,1.431853,-0.56881875
-0.1,-0.2,0.7999999999999999,-0.5235987755982988,-0.5235987755982988,0,-0.19261412,1.2174565,-0.30038217,-0.089198634,0.43317473,0.9296603,0.70717275,-0.4033999,0.36388585,-0.19663915,0.054537125,-0.2525813,1.4394324,-0.60228455
-0.1,-0.2,0.7999999999999999,-0.5235987755982988,-0.5235987755982988,0,-1.0552922,1.2418082,-0.1148629,0.035201807,0.19694683,1.1955938,-0.3627396,-0.39855585,0.36519083,-0.19424848,0.059899557,-0.26313746,1.433006,-0.59067285
-0.1,-0.2,0.7999999999999999,-0.5235987755982988,-0.5235987755982988,0,-0.3393327,1.3144464,-0.1692175,0.03847272,0.096927926,1.2156423,1.4268371,-0.40380862,0.3663482,-0.17671888,0.05474478,-0.25218546,1.4457355,-0.5886083
-0.1,-0.2,0.7999999999999999,-0.5235987755982988,-0.5235987755982988,0,-0.8989876,1.3637433,0.022730414,0.10946119,-0.17192449,1.0681876,0.796708,-0.4040749,0.36391583,-0.19082788,0.05406708,-0.2787907,1.4470915,-0.5197608
-0.1,-0.2,0.7999999999999999,-0.5235987755982988,-0.5235987755982988,0,-1.5753503,1.2888817,0.0672135,0.10847659,-0.16199286,1.2153955,0.35758948,-0.3995001,0.3657183,-0.19490284,0.059261333,-0.26130313,1.4350452,-0.58311933
-0.1,-0.2,0.7999999999999999,-0.5235987755982988,-0.5235987755982988,0,-0.045209907,1.2979478,-0.10024495,-0.05991243,0.13332084,1.2579508,0.70748955,-0.40593532,0.37275225,-0.19706546,0.05779314,-0.26993513,1.4326322,-0.585616
-0.1,-0.2,0.7999999999999999,-0.5235987755982988,-0.5235987755982988,0,-0.3397906,1.1308384,0.15684085,-0.15571852,0.20005417,1.2928481,0.3535321,-0.4004756,0.3673822,-0.1916089,0.05946758,-0.2414624,1.4363042,-0.5838188
-0.1,-0.2,0.7999999999999999,-0.5235987755982988,-0.5235987755982988,0,0.6763705,1.439237,0.14059989,-0.21699364,-0.007950422,1.0789423,-0.64305145,-0.4031737,0.3670481,-0.19675098,0.057384524,-0.26960263,1.4335304,-0.59866595
-0.1,-0.2,0.7999999999999999,-0.5235987755982988,-0.5235987755982988,0,-0.5488498,1.1437609,0.04346086,0.104371056,-0.1318891,1.0819914,0.53755957,-0.410488,0.36733508,-0.20038408,0.058376696,-0.25620088,1.4345752,-0.5554781
-0.1,-0.2,0.7999999999999999,-0.5235987755982988,-0.5235987755982988,0,-1.0199251,1.4182299,-0.22124352,-0.051631726,-0.060440157,1.169895,1.8907037,-0.40156597,0.36532488,-0.18945974,0.059766535,-0.27027985,1.4310046,-0.5578317
-0.1,-0.2,0.7999999999999999,-0.5235987755982988,-0.5235987755982988,0,-0.033563364,1.4720725,-0.1325621,0.077627294,-0.2502203,1.1044488,0.79758346,-0.4061843,0.36551502,-0.20065662,0.056205064,-0.2599268,1.4361877,-0.5683582
-0.1,-0.2,0.7999999999999999,-0.5235987755982988,-0.5235987755982988,0,-0.5903528,1.266889,0.092410885,0.065533146,0.14339775,1.4218318,-0.42008212,-0.40496445,0.36694637,-0.19860524,0.05303444,-0.26819757,1.4387598,-0.5902468
-0.1,-0.2,0.7999999999999999,-0.5235987755982988,-0.5235987755982988,0,-1.410688,1.5828879,-0.14448552,-0.18345608,-0.4019805,1.2549878,0.06855744,-0.40684146,0.3647097,-0.18846768,0.058419567,-0.24951562,1.431386,-0.6012833
-0.1,-0.2,0.7999999999999999,-0.5235987755982988,-0.5235987755982988,0,-0.27644202,1.2983688,0.061909985,0.032469742,-0.23854187,0.9570599,0.61234415,-0.39898285,0.36323836,-0.18820642,0.058067188,-0.24491821,1.4414996,-0.57763886
-0.1,-0.2,0.7999999999999999,-0.5235987755982988,-0.5235987755982988,0,-2.3411703,1.4242306,0.11066677,-0.24417043,0.16818511,1.0522548,-0.59493804,-0.40484405,0.365383,-0.19487834,0.05429517,-0.25437018,1.4318305,-0.61850446
-0.1,-0.2,0.7999999999999999,-0.5235987755982988,-0.5235987755982988,0,-0.5880062,1.37453,-0.21108787,-0.1426694,0.23295838,0.9155212,-0.64375937,-0.40369228,0.36524943,-0.2009938,0.05779887,-0.26293916,1.438297,-0.54828906
-0.1,-0.2,0.7999999999999999,-0.5235987755982988,-0.5235987755982988,0,-0.9279414,1.209969,0.39764038,-0.0985177,-0.116754085,1.2034937,-0.43092683,-0.40200695,0.3657867,-0.19466332,0.05612298,-0.2465081,1.4402589,-0.57593155
-0.1,-0.2,0.7999999999999999,-0.5235987755982988,-0.5235987755982988,0,0.18715538,1.4051068,-0.14999,-0.051126327,0.42734772,1.0946335,-1.3292091,-0.40968704,0.3601767,-0.18725277,0.058407187,-0.25099984,1.4345658,-0.6345599
-0.1,-0.2,0.7999999999999999,-0.5235987755982988,-0.5235987755982988,0,-0.6127015,1.3625281,0.06495977,-0.048063338,0.17843594,1.2704446,0.5272162,-0.3978949,0.3669331,-0.187471,0.05632036,-0.25224093,1.4427847,-0.58537436
-0.1,-0.2,0.7999999999999999,-0.5235987755982988,-0.5235987755982988,0,-1.087916,1.3810077,-0.012118878,-0.07826676,0.3806028,1.1057255,-0.9145429,-0.40170702,0.36570472,-0.19238725,0.059713535,-0.27359265,1.4329844,-0.59331024
-0.1,-0.2,0.7999999999999999,-0.5235987755982988,-0.5235987755982988,0,-0.47912782,1.1448802,-0.066679776,-0.13441272,-0.16561745,1.1175426,0.21184018,-0.40515128,0.36365622,-0.18844745,0.057630785,-0.24783583,1.4371289,-0.60290945
-0.1,-0.2,0.7999999999999999,-0.5235987755982988,-0.5235987755982988,0,-0.10772205,1.2030197,0.22950545,-0.0007215418,-0.023018593,0.9395146,0.49515927,-0.40410888,0.36556438,-0.18713905,0.05474232,-0.26086226,1.4426132,-0.5962107
-0.1,-0.2,0.7999999999999999,-0.5235987755982988,-0.5235987755982988,0,-0.7598683,1.2952955,-0.03828664,0.12442521,-0.10754518,0.9780413,1.8001908,-0.40394515,0.36400026,-0.18894742,0.054580398,-0.270144,1.4393584,-0.6178005
-0.1,-0.2,0.7999999999999999,-0.5235987755982988,-0.5235987755982988,0,-0.51852,1.4082271,0.06995208,-0.07484717,0.19652271,0.9943526,-0.25142708,-0.4001744,0.36435354,-0.18875214,0.055436037,-0.25605512,1.4384542,-0.5793744
-0.1,-0.2,0.7999999999999999,-0.5235987755982988,-0.5235987755982988,0,0.4483276,1.1737034,0.27361986,-0.027346646,-0.29435748,1.2853054,0.85596925,-0.40455493,0.36744225,-0.19542664,0.052794322,-0.24336387,1.4366953,-0.5932239
-0.1,-0.2,0.7999999999999999,-0.5235987755982988,-0.5235987755982988,0,-0.23906402,1.3350075,0.058970723,0.1578513,0.17269735,0.87330836,0.33701813,-0.39654493,0.36717123,-0.20138362,0.05711049,-0.27678546,1.4390845,-0.58375883
-0.1,-0.2,0.7999999999999999,-0.5235987755982988,-0.5235987755982988,0,-0.79844385,1.2421968,-0.18308559,-0.09968466,0.33215535,1.33076,-0.6365323,-0.41120797,0.36490253,-0.1974636,0.056760106,-0.2711688,1.427708,-0.5576813
-0.1,-0.2,0.7999999999999999,-0.5235987755982988,-0.5235987755982988,0,0.23352148,1.235666,0.19063015,0.026145354,0.25714168,1.1832094,1.5212741,-0.39951196,0.36340684,-0.19410363,0.052888222,-0.253503,1.4411651,-0.5687933
-0.1,-0.2,0.7999999999999999,-0.5235987755982988,-0.5235987755982988,0,-0.060162116,1.381113,-0.24720588,-0.1987186,-0.02505814,1.1750077,0.050134417,-0.40215933,0.3637513,-0.18577261,0.055527166,-0.26010644,1.4362427,-0.5986598
-0.1,-0.2,0.7999999999999999,-0.5235987755982988,-0.5235987755982988,0,-0.22788984,1.3523059,-0.48645073,-0.03936764,-0.22010969,1.118477,0.7910574,-0.40272203,0.3629295,-0.19651008,0.055753775,-0.24999239,1.4430192,-0.5464486
-0.1,-0.2,0.7999999999999999,-0.5235987755982988,-0.5235987755982988,0,-0.03411558,1.1630131,-0.14064656,0.050093554,0.1111553,1.2883294,-1.2512387,-0.40871233,0.36621016,-0.19207834,0.05961257,-0.24698369,1.4346945,-0.582461
-0.1,-0.2,0.7999999999999999,-0.5235987755982988,-0.5235987755982988,0,0.17809035,1.2768978,-0.24464981,-0.11099437,0.94824564,1.2426636,-0.4368653,-0.3983779,0.36346582,-0.18376711,0.059560847,-0.2459811,1.444319,-0.5584426
-0.1,-0.2,0.7999999999999999,-0.5235987755982988,-0.5235987755982988,0,0.15451086,1.4622356,-0.11591816,-0.1758761,-0.13161902,1.1240516,0.40389553,-0.40373704,0.3674962,-0.1899416,0.054587908,-0.25562397,1.4369164,-0.58173037
-0.1,-0.2,0.7999999999999999,-0.5235987755982988,-0.5235987755982988,0,-0.10646846,1.2845027,0.34887353,-0.1354564,-0.38914406,1.130137,-0.43368107,-0.4059738,0.36390224,-0.19372419,0.05933895,-0.2642445,1.434418,-0.5749895
-0.1,-0.2,0.7999999999999999,-0.5235987755982988,-0.5235987755982988,0,0.05951736,1.1061552,0.038838338,-0.10538159,0.22282217,1.3740501,-0.3691924,-0.4074794,0.3666672,-0.19156463,0.054379247,-0.25425455,1.4391931,-0.5966031
-0.1,-0.2,0.7999999999999999,-0.5235987755982988,-0.5235987755982988,0,-0.2717818,1.2825727,0.06354442,0.11232157,-0.018650556,1.2124606,-0.75603795,-0.4073317,0.3632714,-0.1916556,0.05853309,-0.25155833,1.4359945,-0.5866885
-0.1,-0.2,0.7999999999999999,-0.5235987755982988,-0.5235987755982988,0,0.019726167,1.3673829,0.20154156,-0.10285574,0.13256338,0.99847835,0.6067061,-0.40441033,0.36512315,-0.18941116,0.052297905,-0.2758413,1.4359556,-0.6145239
-0.1,-0.2,0.7999999999999999,-0.5235987755982988,-0.5235987755982988,0,-0.32087207,1.2175746,-0.40606242,0.17345217,0.1997502,1.1791404,0.039598767,-0.4071477,0.36328462,-0.1969511,0.054629024,-0.2642208,1.4415338,-0.561722
-0.1,-0.2,0.7999999999999999,-0.5235987755982988,-0.5235987755982988,0,-1.0177792,1.3466768,-0.12134583,-0.08749285,0.21150193,1.3278294,0.3668339,-0.40880683,0.37153688,-0.19603838,0.0623593,-0.25749588,1.4297417,-0.577532
-0.1,-0.2,0.7999999999999999,-0.5235987755982988,-0.5235987755982988,0,-1.8173614,1.3697261,-0.22855079,-0.06154831,0.3440171,1.0954957,0.70845485,-0.39855093,0.3614143,-0.19993421,0.058139317,-0.26539496,1.4367038,-0.5670656
-0.1,-0.2,0.7999999999999999,-0.5235987755982988,-0.5235987755982988,0,-0.24478519,1.1463168,0.10343808,-0.015327206,0.12814806,0.90106106,-1.4932172,-0.40680924,0.36629987,-0.18645853,0.059394017,-0.2756598,1.4279135,-0.6031625
-0.1,-0.2,0.7999999999999999,-0.5235987755982988,-0.5235987755982988,0,-1.0244709,1.4038856,-0.16198592,-0.13994654,0.22103328,1.1831582,0.6304633,-0.40826842,0.37022877,-0.19849993,0.060237482,-0.266822,1.4301603,-0.5827068
-0.1,-0.2,0.7999999999999999,-0.5235987755982988,-0.5235987755982988,0,-0.82669276,1.3198941,0.11098122,-0.025456721,0.4920225,1.1126045,1.2214969,-0.40513915,0.3649235,-0.20217592,0.051290285,-0.2522929,1.4432626,-0.57898074
-0.1,-0.2,0.7999999999999999,-0.5235987755982988,-0.5235987755982988,0,-0.29753357,1.2011228,-0.20358808,0.052222148,-0.4359583,1.2052422,-2.08001,-0.4104534,0.37001273,-0.19742791,0.0514296,-0.2515347,1.4424103,-0.5922287
-0.1,-0.2,0.7999999999999999,-0.5235987755982988,-0.5235987755982988,0,0.63659054,1.3362634,0.12352335,-0.28693792,0.37402815,1.1413935,1.0029979,-0.4132646,0.36443487,-0.19106168,0.05005128,-0.25559792,1.4466965,-0.57458085
-0.1,-0.2,0.7999999999999999,-0.5235987755982988,-0.5235987755982988,0,0.55502266,1.1432856,-0.04068885,-0.025652882,0.022202067,1.2196113,-0.4959421,-0.40572274,0.36477298,-0.19996466,0.059271444,-0.25961813,1.4290586,-0.5586394
-0.1,-0.2,0.7999999999999999,-0.5235987755982988,-0.5235987755982988,0,-0.3034791,1.3969995,-0.17344995,-0.14535777,-0.22727768,1.2652856,0.47605205,-0.40568858,0.3611585,-0.19282901,0.059505034,-0.24849011,1.4340912,-0.5903582
-0.1,-0.2,0.7999999999999999,-0.5235987755982988,-0.5235987755982988,0,0.56241506,1.2829738,0.061591227,0.09429526,-0.13709685,1.2243247,-0.91893274,-0.4033116,0.3606781,-0.20075162,0.05902698,-0.2465154,1.4330455,-0.59271544
-0.1,-0.2,0.7999999999999999,-0.5235987755982988,-0.5235987755982988,0,0.31942284,1.2984964,0.28201288,-0.12638842,-0.19219427,1.2443948,1.094845,-0.40204254,0.3663333,-0.19366837,0.05418007,-0.25560835,1.4366416,-0.5839932
-0.1,-0.2,0.7999999999999999,-0.5235987755982988,-0.5235987755982988,0,-0.53844345,1.3193629,0.009949617,0.04089307,0.38552904,1.1012725,-0.16174619,-0.40876967,0.36566302,-0.19263479,0.05962622,-0.2569021,1.4323604,-0.6003912
-0.1,-0.2,0.7999999999999999,-0.5235987755982988,-0.5235987755982988,0,-0.4699538,1.1748854,0.17023909,-0.14051701,-0.30825686,1.0474114,0.9535838,-0.40621126,0.36392802,-0.18376599,0.058188453,-0.25623024,1.4464791,-0.5836908
-0.1,-0.2,0.7999999999999999,-0.5235987755982988,-0.5235987755982988,0,-0.44164032,1.2604766,-0.2366521,-0.1052498,0.029658835,1.1080521,0.29395816,-0.4082508,0.36884302,-0.19072293,0.057243485,-0.25526595,1.4409083,-0.58335894
-0.1,-0.2,0.7999999999999999,-0.5235987755982988,-0.5235987755982988,0,-0.956454,1.5099851,0.10534358,-0.025517046,0.14030293,1.1465663,1.3894974,-0.4085812,0.36205512,-0.1811535,0.06411378,-0.25125858,1.4341384,-0.5646886
-0.1,-0.2,0.7999999999999999,-0.5235987755982988,-0.5235987755982988,0,-1.5374304,1.4095663,-0.06317882,0.017850986,0.24625304,1.3362437,-0.20306179,-0.40962148,0.36439845,-0.1820941,0.05898092,-0.26770526,1.4412166,-0.5424941
-0.1,-0.2,0.7999999999999999,-0.5235987755982988,-0.5235987755982988,0,-1.0402678,1.3601533,0.19157887,-0.10700112,0.25270766,1.1568047,-0.5714163,-0.4096344,0.37051946,-0.19570124,0.060495183,-0.25235066,1.4293913,-0.61047107
-0.1,-0.2,0.7999999999999999,-0.5235987755982988,-0.5235987755982988,0,-1.0448875,1.3657862,-0.07721952,0.058151327,-0.12429921,1.0656207,-0.67846406,-0.40759018,0.36534962,-0.20820823,0.054391008,-0.2598665,1.4354261,-0.5762924
-0.1,-0.2,0.7999999999999999,-0.5235987755982988,-0.5235987755982988,0,-0.6789716,1.2282914,0.16929008,0.007341243,0.46297997,1.1838106,0.37130976,-0.3993614,0.3642735,-0.19026724,0.056618895,-0.27071014,1.434229,-0.59641296
-0.1,-0.2,0.7999999999999999,-0.5235987755982988,-0.5235987755982988,0,-0.44171017,1.2608541,-0.10172195,0.10938694,0.02227932,1.0672134,-0.38794443,-0.4048203,0.3652382,-0.18458591,0.0614012,-0.27688298,1.4417417,-0.58737963
-0.1,-0.2,0.7999999999999999,-0.5235987755982988,-0.5235987755982988,0,-0.18925399,1.4917412,0.19243085,0.08263921,0.32514074,1.1548418,0.34421095,-0.40729287,0.36400616,-0.18487051,0.06185946,-0.25765392,1.4366112,-0.5702385
-0.1,-0.2,0.7999999999999999,-0.5235987755982988,-0.5235987755982988,0,-0.8422616,1.3503569,-0.18387666,-0.04504209,-0.0035747953,1.2017684,0.10906627,-0.40293267,0.36420184,-0.1879345,0.061963484,-0.2642347,1.4322008,-0.59784025
-0.1,-0.2,0.7999999999999999,-0.5235987755982988,-0.5235987755982988,0,-0.26641494,1.3258545,-0.1734849,0.05643743,0.2755922,1.4518135,0.7655539,-0.40744638,0.36550486,-0.19756773,0.05099972,-0.24620913,1.4455421,-0.5810229
-0.1,-0.2,0.7999999999999999,-0.5235987755982988,-0.5235987755982988,0,0.6978721,1.2440019,0.25054207,0.026714716,0.037456103,1.269934,-0.013379013,-0.40848303,0.3653754,-0.19895625,0.05764414,-0.24747734,1.4370266,-0.5562383
-0.1,-0.2,0.7999999999999999,-0.5235987755982988,-0.5235987755982988,0,-0.8987147,1.2581158,-0.2367437,0.09129704,0.15732235,1.1478926,-0.039617002,-0.4106677,0.3654637,-0.19266334,0.061818596,-0.2567035,1.4312675,-0.57550347
-0.1,-0.2,0.7999999999999999,-0.5235987755982988,-0.5235987755982988,0,0.25067508,1.2697704,0.17704059,0.017396031,0.100867555,1.1997533,0.58946586,-0.41376817,0.36491558,-0.19254696,0.060488332,-0.24756932,1.4323927,-0.57052237
-0.1,-0.2,0.7999999999999999,-0.5235987755982988,-0.5235987755982988,0,-0.42561367,1.2700294,0.11640849,0.12152168,0.32180765,0.96775544,-0.6776692,-0.4063641,0.3641612,-0.19135539,0.060081076,-0.26271948,1.4403603,-0.5420677
-0.1,-0.2,0.7999999999999999,-0.5235987755982988,-0.5235987755982988,0,-0.13703391,1.4105788,0.10556701,-0.034057155,0.1341543,1.1164466,2.0739,-0.40581816,0.3653384,-0.19308044,0.05476739,-0.25653106,1.445837,-0.5340681
-0.1,-0.2,0.7999999999999999,-0.5235987755982988,-0.5235987755982988,0,0.5023775,1.3318591,-0.1767677,-0.003961395,-0.16105512,1.2815287,0.019336779,-0.4000227,0.36611772,-0.19837014,0.059766743,-0.2606034,1.4339577,-0.58962363
-0.1,-0.2,0.7999999999999999,-0.5235987755982988,-0.5235987755982988,0,0.5138221,1.1996113,0.1256814,-0.068498984,0.033214577,1.3719261,1.5450826,-0.40198874,0.36303237,-0.19104995,0.05663705,-0.2763362,1.4418817,-0.55078286
-0.1,-0.2,0.7999999999999999,-0.5235987755982988,-0.5235987755982988,0,-0.4376215,1.27568,-0.17842226,0.07772029,0.47526652,1.2006725,-0.6141879,-0.403064,0.36923826,-0.19406468,0.060339898,-0.2588696,1.4407713,-0.53576535
-0.1,-0.2,0.7999999999999999,-0.5235987755982988,-0.5235987755982988,0,-0.45813385,1.3440976,-0.08141293,-0.10577736,-0.17244238,1.1788945,0.09467343,-0.40016896,0.3635855,-0.19369455,0.060670946,-0.25961396,1.436209,-0.56475264
-0.1,-0.2,0.7999999999999999,-0.5235987755982988,-0.5235987755982988,0,-1.1054144,1.261883,0.06127882,0.11695577,-0.1928938,1.1518036,1.8914875,-0.4104842,0.36645082,-0.19671227,0.055856954,-0.25011015,1.4371505,-0.5945666
-0.1,-0.2,0.7999999999999999,-0.5235987755982988,-0.5235987755982988,0,0.48062834,1.1817548,-0.041342184,-0.1265063,0.37329596,1.1919401,0.33602685,-0.4097722,0.3700238,-0.18846712,0.057508998,-0.2640911,1.4372438,-0.5909077
-0.1,-0.2,0.7999999999999999,-0.5235987755982988,-0.5235987755982988,0,0.7350088,1.3059696,-0.079251364,-0.064016275,0.4034522,1.068298,0.043673873,-0.40751272,0.36407048,-0.1882071,0.05490498,-0.2507194,1.4385979,-0.62969947
-0.1,-0.2,0.7999999999999999,-0.5235987755982988,-0.5235987755982988,0,-1.0125241,1.28691,-0.07579694,-0.066267334,0.2898472,1.1151911,-0.37053913,-0.4039072,0.36837453,-0.18917914,0.05921672,-0.2690318,1.4347899,-0.5969174
-0.1,-0.2,0.7999999999999999,-0.5235987755982988,-0.5235987755982988,0,-0.2172075,1.248839,-0.29500338,-0.082758956,0.16443872,1.3400782,-0.5768414,-0.3989285,0.36668012,-0.18842375,0.059695058,-0.26111233,1.4377251,-0.59197164
-0.1,-0.2,0.7999999999999999,-0.5235987755982988,-0.5235987755982988,0,0.18660603,1.269483,-0.17636809,-0.026692025,-0.2814366,1.0746773,0.16894673,-0.40652123,0.36992246,-0.18809022,0.06307197,-0.2754445,1.4318289,-0.58444244
-0.1,-0.2,0.7999999999999999,-0.5235987755982988,-0.5235987755982988,0,0.51697904,1.3157277,-0.05546546,-0.06966239,-0.111421324,0.81826496,1.0847039,-0.4068922,0.36636493,-0.18479346,0.057364848,-0.26126227,1.4404236,-0.5966965
-0.1,-0.2,0.7999999999999999,-0.5235987755982988,-0.5235987755982988,0,-0.5860541,1.2274977,-0.11455639,-0.24286258,0.31299716,0.98937124,1.4955724,-0.4021964,0.36280864,-0.20578499,0.05674474,-0.25734264,1.4396077,-0.55870056
-0.1,-0.2,0.7999999999999999,-0.5235987755982988,-0.5235987755982988,0,-0.3914726,1.2995808,0.29779574,-0.123115644,-0.24101996,1.0411355,0.21982601,-0.4044064,0.36321878,-0.18832852,0.057355147,-0.26851064,1.4408383,-0.56910545
-0.1,-0.2,0.7999999999999999,-0.5235987755982988,-0.5235987755982988,0,-1.3412925,1.3065399,-0.04289634,-0.07955329,0.32269877,1.0921266,-0.26785943,-0.39823017,0.36259055,-0.18473089,0.05904921,-0.2585899,1.4328223,-0.61467314
-0.1,-0.2,0.7999999999999999,-0.5235987755982988,-0.5235987755982988,0,0.31308794,1.3301986,-0.07715671,-0.021970708,-0.13156681,1.2081753,-1.0159066,-0.4028405,0.36586303,-0.19422041,0.058154043,-0.26152787,1.43749,-0.579562
-0.1,-0.2,0.7999999999999999,-0.5235987755982988,-0.5235987755982988,0,0.21827099,1.4135195,0.061052985,-0.017394543,0.13180186,1.4083496,0.05212916,-0.40709963,0.36430728,-0.19089909,0.056535926,-0.25417897,1.439055,-0.5863009
-0.1,-0.2,0.7999999999999999,-0.5235987755982988,-0.5235987755982988,0,-0.58539665,1.4441878,0.071086295,0.03024774,-0.22854157,1.4620925,1.6237308,-0.40518504,0.36424458,-0.20868033,0.054276194,-0.25964534,1.4437329,-0.56083804
-0.1,-0.2,0.7999999999999999,-0.5235987755982988,-0.5235987755982988,0,-0.1454828,1.1951984,0.20758304,-0.07613304,0.29450703,1.193684,1.2421418,-0.40476888,0.3645461,-0.18439491,0.05449202,-0.2579086,1.4462105,-0.5697486
-0.1,-0.2,0.7999999999999999,-0.5235987755982988,-0.5235987755982988,0,-1.1701025,1.2620181,-0.21054721,-0.03667413,-0.18862787,1.1601502,0.14840531,-0.4034086,0.36626184,-0.1913633,0.05878166,-0.2621382,1.4360825,-0.5929322
-0.1,-0.2,0.7999999999999999,-0.5235987755982988,-0.5235987755982988,0,-0.059459906,1.3168194,0.17605968,-0.14234154,-0.29660165,1.0808163,0.4624031,-0.40782744,0.36243376,-0.18461202,0.06023537,-0.25156462,1.4374652,-0.5737872
-0.1,-0.2,0.7999999999999999,-0.5235987755982988,-0.5235987755982988,0,-0.23618934,1.3640275,0.14824474,0.02990406,-0.11523892,1.1168195,-1.5214756,-0.40654677,0.36443636,-0.20268436,0.05938819,-0.2505108,1.4334474,-0.57036585
-0.1,-0.2,0.7999999999999999,-0.5235987755982988,-0.5235987755982988,0,-0.06583943,1.2555764,-0.0345222,-0.03483688,-0.3427021,1.1340827,-0.092479885,-0.3981952,0.36348933,-0.19783051,0.05383285,-0.25600454,1.4417379,-0.6038398
-0.1,-0.2,0.7999999999999999,-0.5235987755982988,-0.5235987755982988,0,-0.7891506,1.3081416,-0.10454681,-0.0393835,0.10049657,1.1191255,1.727432,-0.40663952,0.3636858,-0.19340141,0.055529848,-0.25395864,1.4418163,-0.56519395
-0.1,-0.2,0.7999999999999999,-0.5235987755982988,-0.5235987755982988,0,0.35411605,1.0978177,0.35756657,-0.063005045,0.082296506,1.1978923,-0.9173656,-0.40404278,0.36180142,-0.18666893,0.056713928,-0.26990357,1.4420583,-0.57038957
-0.1,-0.2,0.7999999999999999,-0.5235987755982988,-0.5235987755982988,0,-1.0535862,1.3507133,0.113456674,-0.022855708,0.09108648,1.0359647,0.6620807,-0.40864724,0.3658385,-0.18947497,0.05887817,-0.27364007,1.4330851,-0.6016048
-0.1,-0.2,0.7999999999999999,-0.5235987755982988,-0.5235987755982988,0,-0.9222902,1.3945458,-0.17811838,-0.07427614,0.13897806,1.021389,0.30183965,-0.40489092,0.3623829,-0.18542586,0.05938885,-0.260807,1.4371468,-0.5975744
-0.1,-0.2,0.7999999999999999,-0.5235987755982988,-0.5235987755982988,0,-0.022999723,1.0928574,0.21959905,0.0072236084,-0.03288529,1.3626708,-0.15247667,-0.40109742,0.36750242,-0.19068241,0.05754403,-0.27609283,1.4398402,-0.5834846
-0.1,-0.2,0.7999999999999999,-0.5235987755982988,-0.5235987755982988,0,-0.1089599,1.1736764,-0.077640645,-0.14825547,0.5246598,1.2317599,-1.0848383,-0.4033601,0.3627812,-0.18707424,0.058612082,-0.26305687,1.4406064,-0.5701935
-0.1,-0.2,0.7999999999999999,-0.5235987755982988,-0.5235987755982988,0,-0.77519536,1.0855825,0.30546212,0.09961391,0.14586431,1.2309836,0.31274393,-0.40917736,0.3656058,-0.19304244,0.05649736,-0.25045434,1.4410173,-0.5721065
-0.1,-0.2,0.7999999999999999,-0.5235987755982988,-0.5235987755982988,0,-1.1216906,1.4935818,-0.08430202,-0.13415287,-0.11771828,1.1222788,0.84914,-0.40613928,0.36214465,-0.20119603,0.056684144,-0.2749183,1.4278321,-0.5927757
-0.1,-0.2,0.7999999999999999,-0.5235987755982988,-0.5235987755982988,0,-1.0156924,1.280865,-0.17248914,-0.014988315,0.2291137,0.997709,0.086452685,-0.3952013,0.36644042,-0.19344132,0.05475074,-0.257221,1.4468223,-0.5767528
-0.1,-0.2,0.7999999999999999,-0.5235987755982988,-0.5235987755982988,0,-0.61407876,1.1876754,0.235169,-0.07966313,0.019817531,1.1836439,1.7637972,-0.40825042,0.36809555,-0.1940053,0.059107356,-0.26621652,1.4325172,-0.6042039
-0.1,-0.2,0.7999999999999999,-0.5235987755982988,-0.5235987755982988,0,-1.1862729,1.2629292,0.04519706,0.09456802,0.04083626,1.2479346,0.59029204,-0.40394557,0.36351553,-0.18899965,0.054754145,-0.24156836,1.4375198,-0.61524636
-0.1,-0.2,0.7999999999999999,-0.5235987755982988,-0.5235987755982988,0,-0.14083937,1.332355,-0.19291137,0.017445665,0.1872726,1.2195741,-1.9969192,-0.40601027,0.36688644,-0.18414871,0.059439477,-0.26636803,1.4420116,-0.54316354
-0.1,-0.2,0.7999999999999999,-0.5235987755982988,-0.5235987755982988,0,-0.5661871,1.3114872,0.02031629,-0.11725553,-0.09738952,1.1913189,0.38433236,-0.40576372,0.3647764,-0.18368292,0.056071497,-0.25953087,1.4385557,-0.6290229
-0.1,-0.2,0.7999999999999999,-0.5235987755982988,-0.5235987755982988,0,0.6240321,1.3229138,-0.35348615,0.0031054004,0.17845526,1.0904973,-0.99905914,-0.40496883,0.3649668,-0.19127505,0.059527736,-0.27268133,1.4320463,-0.62068355
-0.1,-0.2,0.7999999999999999,-0.5235987755982988,-0.5235987755982988,0,-0.016733577,1.4404954,-0.06485894,-0.11357235,0.24129795,0.99218524,1.2411373,-0.41199428,0.36898112,-0.18251626,0.05138503,-0.2860459,1.4459406,-0.5717563
-0.1,-0.2,0.7999999999999999,-0.5235987755982988,-0.5235987755982988,0,-0.6089788,1.1687248,-0.43060705,-0.034704063,-0.4199012,1.2633924,0.006519211,-0.40817156,0.36351225,-0.18713436,0.05507449,-0.26438093,1.4426621,-0.5793579
-0.1,-0.2,0.7999999999999999,-0.5235987755982988,-0.5235987755982988,0,0.16804788,1.2008265,0.25694418,0.03488448,0.3794327,1.1653646,0.13080709,-0.4045112,0.36796817,-0.20139518,0.052179653,-0.25331676,1.4440105,-0.58394086
-0.1,-0.2,0.7999999999999999,-0.5235987755982988,-0.5235987755982988,0,-0.20634674,1.1826118,0.026870184,-0.124041125,-0.5311374,1.1947255,0.6558295,-0.39812785,0.36365587,-0.17661832,0.05992782,-0.26041007,1.4372216,-0.6020402
-0.1,-0.2,0.7999999999999999,-0.5235987755982988,-0.5235987755982988,0,0.025734896,1.3513416,0.13098958,-0.053609014,0.44452843,1.173804,0.6096471,-0.40643105,0.3636604,-0.19375445,0.0632231,-0.25709268,1.4294528,-0.5897225
-0.1,-0.2,0.7999999999999999,-0.5235987755982988,-0.5235987755982988,0,-0.26439387,1.3467387,0.1423981,-0.10862415,0.38117632,1.1470928,1.1480902,-0.409555,0.36725798,-0.18115935,0.055650495,-0.27434734,1.4382927,-0.5792767
-0.1,-0.2,0.7999999999999999,-0.5235987755982988,-0.5235987755982988,0,0.0056316243,1.2682515,-0.24368656,-0.118485235,0.039105926,1.2724397,-0.017859502,-0.4149152,0.36687174,-0.19898699,0.0596426,-0.25763714,1.4326621,-0.54914844
-0.1,-0.2,0.7999999999999999,-0.5235987755982988,-0.5235987755982988,0,-0.552284,1.2959216,-0.19561848,-0.0015989534,0.6274887,1.0938847,1.7453239,-0.4114736,0.36125293,-0.19658002,0.05222815,-0.25851607,1.4426252,-0.5765226
-0.1,-0.2,0.7999999999999999,-0.5235987755982988,-0.5235987755982988,0,-0.20046364,1.2328389,-0.032963008,-0.08553206,-0.18951899,1.3137047,0.76737,-0.3998809,0.36042148,-0.19027849,0.06092469,-0.26339078,1.4349611,-0.5868507
-0.1,-0.2,0.7999999999999999,-0.5235987755982988,-0.5235987755982988,0,0.4226357,1.2814264,0.14318827,-0.044643797,0.16557638,1.208307,0.004992231,-0.40803733,0.364774,-0.18468815,0.058027826,-0.26388732,1.4353237,-0.6009402
-0.1,-0.2,0.7999999999999999,-0.5235987755982988,-0.5235987755982988,0,0.1416364,1.3090732,-0.18855917,0.012927022,0.315192,1.1695278,-0.47480056,-0.40900424,0.36452645,-0.20307283,0.059909698,-0.2684275,1.4272865,-0.59927946
-0.1,-0.2,0.7999999999999999,-0.5235987755982988,-0.5235987755982988,0,-0.23667996,1.420433,0.10645438,-0.11681646,0.21406606,1.0362349,0.26322442,-0.40200025,0.36165768,-0.20281129,0.0562591,-0.24734168,1.4393531,-0.5795556
-0.1,-0.2,0.7999999999999999,-0.5235987755982988,-0.5235987755982988,0,0.07345465,1.3718872,0.19962308,0.06561292,0.30822465,1.2847614,0.40995252,-0.39883906,0.36178502,-0.1832361,0.056960624,-0.25816217,1.4398133,-0.5936906
-0.1,-0.2,0.7999999999999999,-0.5235987755982988,-0.5235987755982988,0,-0.09058976,1.3736758,0.019521466,-0.1641131,0.3642895,1.301803,0.058863726,-0.39894378,0.36678237,-0.19145538,0.059435103,-0.25249192,1.4408035,-0.5687621
-0.1,-0.2,0.7999999999999999,-0.5235987755982988,-0.5235987755982988,0,-0.9096712,1.5270287,-0.061684385,0.019466253,0.15497728,1.0735265,-0.0015959438,-0.41583622,0.36798942,-0.19619702,0.057149474,-0.2533653,1.4332451,-0.60515255
-0.1,-0.2,0.7999999999999999,-0.5235987755982988,-0.5235987755982988,0,-1.2992429,1.1123221,0.08717092,-0.070791654,0.21909186,1.3952233,0.6871559,-0.4062305,0.36615163,-0.17881016,0.055389155,-0.2565874,1.4450004,-0.5971107
-0.1,-0.2,0.7999999999999999,-0.5235987755982988,-0.5235987755982988,0,0.4703878,1.3076994,0.012443321,0.011190177,0.5263608,1.2187818,-0.16087791,-0.40216747,0.36938825,-0.19009198,0.055136945,-0.2695168,1.4444844,-0.5786587
-0.1,-0.2,0.7999999999999999,-0.5235987755982988,-0.5235987755982988,0,0.30898005,1.2285875,0.008246459,-0.050333884,-0.13289233,1.0188662,-0.39358488,-0.4086598,0.36467102,-0.18391567,0.056633063,-0.26883346,1.4323882,-0.6182174
-0.1,-0.2,0.7999999999999999,-0.5235987755982988,-0.5235987755982988,0,-0.059043013,1.4617592,-0.13049448,-0.020759454,0.027225235,1.0633123,0.48383522,-0.41004288,0.3637406,-0.20497766,0.053585652,-0.26708353,1.4355991,-0.5895133
-0.1,-0.2,0.7999999999999999,-0.5235987755982988,-0.5235987755982988,0,-0.6680912,1.3140184,-0.031078184,-0.025983881,0.05171543,1.1919868,-0.9453381,-0.40197012,0.36732727,-0.2005694,0.055414017,-0.2680456,1.4405607,-0.5692757
-0.1,-0.2,0.7999999999999999,-0.5235987755982988,-0.5235987755982988,0,-1.3150696,1.2396958,-0.47416243,0.026187565,-0.42788994,1.2544608,-0.7644236,-0.40854108,0.36197615,-0.18813837,0.05729711,-0.2693176,1.4379271,-0.58970803
-0.1,-0.2,0.7999999999999999,-0.5235987755982988,-0.5235987755982988,0,0.3548374,1.1717801,0.15490432,-0.18705754,-0.103470266,1.2084584,-0.20457709,-0.4093238,0.36529806,-0.19496314,0.061790086,-0.26576078,1.4285239,-0.601765
-0.1,-0.2,0.7999999999999999,-0.5235987755982988,-0.5235987755982988,0,-1.0391498,1.2281572,-0.07802973,0.07533565,-0.017492024,1.2213231,-1.1950196,-0.3952626,0.36154267,-0.1982231,0.059721835,-0.24765669,1.4422886,-0.5517679
-0.1,-0.2,0.7999999999999999,-0.5235987755982988,-0.5235987755982988,0,1.0810553,1.166366,0.38832092,-0.059974313,-0.047639273,1.3178152,-0.2898258,-0.40227482,0.3657717,-0.18871042,0.05555687,-0.27102888,1.4411302,-0.6070321
-0.1,-0.2,0.7999999999999999,-0.5235987755982988,-0.5235987755982988,0,-0.248623,1.2650776,0.26651725,-0.09449557,-0.026479809,1.3004997,-0.745127,-0.4092464,0.3660932,-0.19839014,0.061275132,-0.23941667,1.4327844,-0.58029485
-0.1,-0.2,0.7999999999999999,-0.5235987755982988,-0.5235987755982988,0,-0.9749124,1.3395373,-0.20592694,0.0033447552,-0.24602859,1.2268174,0.42643124,-0.4085182,0.3663901,-0.18764138,0.05948917,-0.2606563,1.428731,-0.60063785
-0.1,-0.2,0.7999999999999999,-0.5235987755982988,-0.5235987755982988,0,-2.1293259,1.3159727,0.34510764,0.048870653,-0.21447022,1.2058175,0.5729362,-0.406141,0.36517414,-0.19514589,0.058927633,-0.2437217,1.4391357,-0.5702096
-0.1,-0.2,0.7999999999999999,-0.5235987755982988,-0.5235987755982988,0,-1.7356609,1.4776627,-0.18596643,0.11358627,0.10271086,1.4361739,-0.3212231,-0.40322495,0.36297706,-0.19862111,0.06370842,-0.27822137,1.429646,-0.5786991
-0.1,-0.2,0.7999999999999999,-0.5235987755982988,-0.5235987755982988,0,-1.5475438,1.213304,-0.18053743,-0.056263994,0.60896367,1.2977557,-0.77626055,-0.40433583,0.36668676,-0.20551495,0.05510906,-0.25218606,1.4378177,-0.5921542
-0.1,-0.2,0.7999999999999999,-0.5235987755982988,-0.5235987755982988,0,-0.8700175,1.1656446,0.053174958,0.022528851,0.043188285,1.1569753,0.7941745,-0.39957294,0.3640146,-0.19866602,0.060971264,-0.25259838,1.4384822,-0.5541078
-0.1,-0.2,0.7999999999999999,-0.5235987755982988,-0.5235987755982988,0,-1.5866574,1.2118735,0.15793094,-0.089882106,0.12008043,1.4415781,1.1519105,-0.4082104,0.363201,-0.19337592,0.05821777,-0.26505303,1.4333824,-0.61092985
-0.1,-0.2,0.7999999999999999,-0.5235987755982988,-0.5235987755982988,0,-1.2498403,1.5412505,-0.15294276,-0.069183014,0.09854699,1.1387564,-1.0193123,-0.40797707,0.36616752,-0.20302942,0.05256165,-0.26497984,1.4412466,-0.5770146
-0.1,-0.2,0.7999999999999999,-0.5235987755982988,-0.5235987755982988,0,-0.32723093,1.3367616,-0.20695113,-0.050826136,-0.041472718,1.0981035,0.37092918,-0.408191,0.36747622,-0.19253954,0.049940117,-0.25334445,1.4384995,-0.617568
-0.1,-0.2,0.7999999999999999,-0.5235987755982988,-0.5235987755982988,0,-0.11617208,1.112272,0.23254693,0.06151481,-0.179641,1.085335,-0.4735307,-0.4072543,0.36539888,-0.18515104,0.061724994,-0.25974914,1.4376354,-0.56853384
-0.1,-0.2,0.7999999999999999,-0.5235987755982988,-0.5235987755982988,0,-0.05086914,1.1291386,-0.16613302,-0.09352547,0.20279963,1.0918798,0.4366721,-0.40618333,0.3645944,-0.20173569,0.05436215,-0.2539787,1.4409229,-0.5803646
-0.1,-0.2,0.7999999999999999,-0.5235987755982988,-0.5235987755982988,0,-0.102211654,1.2215593,-0.30143782,-0.0114886705,0.38010418,1.2346965,0.23202887,-0.4039445,0.36025965,-0.1934916,0.05990662,-0.26176834,1.434381,-0.5929792
-0.1,-0.2,0.7999999999999999,-0.5235987755982988,-0.5235987755982988,0,-0.3153065,1.2677959,-0.03447754,-0.17617355,0.30548334,1.1617544,0.29922637,-0.40320754,0.36339492,-0.19713438,0.0541623,-0.27818787,1.438406,-0.6097416
-0.1,-0.2,0.7999999999999999,-0.5235987755982988,-0.5235987755982988,0,-0.5213765,1.2049448,-0.039863028,-0.07993888,-0.23541121,1.2968347,-0.48915184,-0.40999818,0.36616728,-0.20087238,0.057538606,-0.25896576,1.430664,-0.613509
-0.1,-0.2,0.7999999999999999,-0.5235987755982988,-0.5235987755982988,0,-0.23732899,1.3389946,0.09433575,-0.173507,0.15825231,1.2512583,-1.4020871,-0.4005667,0.36501583,-0.18331282,0.053607985,-0.2725894,1.4390013,-0.6150805
-0.1,-0.2,0.7999999999999999,-0.5235987755982988,-0.5235987755982988,0,-0.30457526,1.2427936,-0.032875545,0.12740436,-0.09669172,1.1479948,-0.21700256,-0.41232935,0.36529234,-0.18874304,0.054480568,-0.26817545,1.4409397,-0.59257936
-0.1,-0.2,0.7999999999999999,-0.5235987755982988,-0.5235987755982988,0,-0.8568196,1.5365609,0.123602964,0.009243557,0.054753955,1.0965309,0.00375329,-0.40300018,0.36698616,-0.20100595,0.054577187,-0.26394817,1.4379684,-0.61705095
-0.1,-0.2,0.7999999999999999,-0.5235987755982988,-0.5235987755982988,0,0.08344222,1.6229634,0.14119214,0.013961812,0.048731837,1.3766308,-1.067577,-0.41305992,0.3640065,-0.18590166,0.055427685,-0.27355176,1.4392793,-0.6092505
-0.1,-0.2,0.7999999999999999,-0.5235987755982988,-0.5235987755982988,0,-0.20561256,1.2047176,0.15222314,-0.022986226,-0.22632048,1.1140776,1.0889466,-0.40545937,0.36545676,-0.20066631,0.056476045,-0.24695997,1.4409269,-0.56912893
-0.1,-0.2,0.7999999999999999,-0.5235987755982988,-0.5235987755982988,0,0.38719556,1.398643,0.049860742,-0.12134302,0.035520453,1.1635894,0.11288895,-0.40519673,0.36534026,-0.18820463,0.053516816,-0.25707546,1.4463317,-0.5954964
-0.1,-0.2,0.7999999999999999,-0.5235987755982988,-0.5235987755982988,0,-0.04917715,1.3485357,0.09677704,0.019952383,-0.04045544,1.0082535,-0.9972103,-0.39836657,0.36244732,-0.19319984,0.056621134,-0.25555554,1.43972,-0.5948166
-0.1,-0.2,0.7999999999999999,-0.5235987755982988,-0.5235987755982988,0,-1.0143617,1.2239227,-0.085432425,0.022908093,0.056040946,1.2348708,1.3544663,-0.4024969,0.36919814,-0.1986791,0.05666681,-0.25330287,1.4410751,-0.57472074
-0.1,-0.2,0.7999999999999999,-0.5235987755982988,-0.5235987755982988,0,-0.13082176,1.1230397,-0.13595831,-0.06550395,0.03404117,0.9993887,1.3223041,-0.40544134,0.36467242,-0.19079615,0.059000775,-0.25554842,1.4414139,-0.56120896
-0.1,-0.2,0.7999999999999999,-0.5235987755982988,-0.5235987755982988,0,0.6668453,1.2323232,-0.26295274,-0.076548375,0.14560638,0.9901883,0.58155686,-0.4082531,0.36366448,-0.1959863,0.056954537,-0.25775808,1.4355088,-0.62009454
-0.1,-0.2,0.7999999999999999,-0.5235987755982988,-0.5235987755982988,0,-0.21523127,1.3796483,-0.11428552,-0.018563969,0.10782395,1.2035693,-0.38319448,-0.39885736,0.36076173,-0.18583554,0.057730604,-0.26330945,1.4445989,-0.5679101
-0.1,-0.2,0.7999999999999999,-0.5235987755982988,-0.5235987755982988,0,-0.20163503,1.138535,-0.08049234,-0.17316636,0.2829957,1.2639714,-1.5798274,-0.4121693,0.3624739,-0.19275919,0.056489203,-0.2575314,1.4391044,-0.5699696
-0.1,-0.2,0.7999999999999999,-0.5235987755982988,-0.5235987755982988,0,-0.88136923,1.4171832,0.25877517,0.01740897,0.11737638,1.0832558,-0.6324042,-0.407094,0.36432642,-0.19635259,0.057791118,-0.2551035,1.4371524,-0.5934713
-0.1,-0.2,0.7999999999999999,-0.5235987755982988,-0.5235987755982988,0,-1.3666577,1.299427,-0.17143804,-0.16600549,-0.115812846,1.2123871,1.5198246,-0.4037571,0.36435142,-0.18973622,0.056636028,-0.24648929,1.4414859,-0.6040586
-0.1,-0.2,0.7999999999999999,-0.5235987755982988,-0.5235987755982988,0,-0.41444668,1.3347927,-0.37866798,-0.10489639,-0.23574984,1.021045,-0.53142035,-0.4051298,0.36468396,-0.19982022,0.058380418,-0.25279924,1.4392773,-0.5663529
-0.1,-0.2,0.7999999999999999,-0.5235987755982988,-0.5235987755982988,0,-0.4422468,1.2945032,0.1951324,-0.09164276,0.49008307,0.9627845,0.46062127,-0.40931723,0.36180416,-0.20633458,0.057655495,-0.26002374,1.4334648,-0.5867784
-0.1,-0.2,0.7999999999999999,-0.5235987755982988,-0.5235987755982988,0,-0.24512187,1.2571954,-0.2821623,0.15040448,-0.17560351,1.2301686,0.40819257,-0.40386978,0.36197492,-0.19244608,0.060479604,-0.2638741,1.4366179,-0.5896514
-0.1,-0.2,0.7999999999999999,-0.5235987755982988,-0.5235987755982988,0,0.08511116,1.0750549,0.23294123,-0.011116043,-0.054720733,1.281145,0.50754356,-0.40591747,0.36317897,-0.19418222,0.054189138,-0.24131444,1.4437371,-0.6001878
-0.1,-0.2,0.7999999999999999,-0.5235987755982988,-0.5235987755982988,0,-0.5583251,1.3034216,-0.119582765,-0.07598478,-0.16174096,1.0702105,1.0559672,-0.40413937,0.36962402,-0.19566101,0.058361676,-0.2603388,1.4402349,-0.5758474
-0.1,-0.2,0.7999999999999999,-0.5235987755982988,-0.5235987755982988,0,0.514352,1.2102958,0.31545663,-0.02868604,0.45325905,1.1986318,-0.1268201,-0.4063309,0.36726463,-0.19261274,0.059681468,-0.2719393,1.43319,-0.6210974
-0.1,-0.2,0.7999999999999999,-0.5235987755982988,-0.5235987755982988,0,-0.119344175,1.3400421,-0.2748459,0.056095574,-0.044861767,1.320799,0.0141601665,-0.40403488,0.3627373,-0.19571453,0.058430143,-0.2545687,1.4393884,-0.5769613
-0.1,-0.2,0.7999999999999999,-0.5235987755982988,-0.5235987755982988,0,-0.46745247,1.3391445,-0.026264511,0.09567896,-0.09298532,1.2322801,-0.7145229,-0.41422093,0.36845833,-0.19274087,0.054997485,-0.26033095,1.4370649,-0.6186365
-0.1,-0.2,0.7999999999999999,-0.5235987755982988,-0.5235987755982988,0,-0.7820415,1.201598,-0.28757283,-0.005733488,-0.20489518,1.1259909,0.28165507,-0.4068401,0.36920744,-0.20051134,0.059619755,-0.25034043,1.4354495,-0.57976896
-0.1,-0.2,0.7999999999999999,-0.5235987755982988,-0.5235987755982988,0,-0.41783515,1.3166171,-0.009875324,-0.0052871904,0.5535862,1.1139795,-0.8082529,-0.4079726,0.36209583,-0.20403138,0.05929482,-0.2599538,1.4318599,-0.5956394
-0.1,-0.2,0.7999999999999999,-0.5235987755982988,-0.5235987755982988,0,-0.6060458,1.4327037,0.18537438,-0.06350447,-0.10019052,1.1574159,-1.7203164,-0.40829515,0.362083,-0.20457141,0.060070228,-0.25293908,1.4302047,-0.5998591
-0.1,-0.2,0.7999999999999999,-0.5235987755982988,-0.5235987755982988,0,-1.5294253,1.4157823,-0.13676538,-0.203412,0.45690122,1.3175975,-0.20968872,-0.40580863,0.3651435,-0.1971131,0.057835005,-0.27831867,1.4386284,-0.56160426
-0.1,-0.2,0.7999999999999999,-0.5235987755982988,-0.5235987755982988,0,-0.23699416,1.1548076,-0.10161499,-0.043610495,-0.020909319,1.1463823,0.04743518,-0.4106974,0.36742395,-0.19322023,0.057585094,-0.25244817,1.4396055,-0.5760281
-0.1,-0.2,0.7999999999999999,-0.5235987755982988,-0.5235987755982988,0,-0.03719981,1.2431883,-0.02281187,0.041848052,-0.11842707,1.0110867,-0.575031,-0.40758142,0.36775628,-0.19168642,0.05563193,-0.27478838,1.4405612,-0.6009753
-0.1,-0.2,0.7999999999999999,-0.5235987755982988,-0.5235987755982988,0,-1.3913636,1.2337468,-0.07832594,-0.278497,-0.02330647,1.1081653,-1.1749527,-0.4074542,0.3602527,-0.18654414,0.058043893,-0.25298923,1.4406033,-0.6030171
-0.1,-0.2,0.7999999999999999,-0.5235987755982988,-0.5235987755982988,0,-0.6037679,1.2896612,0.13540033,0.087663844,-0.16843402,1.036989,0.9896081,-0.4026845,0.3612945,-0.19492558,0.060461555,-0.25834405,1.4371276,-0.58476835
-0.1,-0.2,0.7999999999999999,-0.5235987755982988,-0.5235987755982988,0,-0.22923332,1.3733964,-0.115675755,-0.056691553,-0.13909322,1.1709368,0.3336869,-0.410826,0.36050242,-0.1840118,0.054072794,-0.26059946,1.4459716,-0.56734484
-0.1,-0.2,0.7999999999999999,-0.5235987755982988,-0.5235987755982988,0,-0.5037333,1.2591916,-0.15682922,-0.10039928,-0.5488976,1.2981895,-0.6327227,-0.40549916,0.36204743,-0.19009681,0.06041383,-0.2684683,1.4375396,-0.5767814
-0.1,-0.2,0.7999999999999999,-0.5235987755982988,-0.5235987755982988,0,0.41676638,1.1791052,0.109214775,-0.0013286378,-0.22157314,1.2826105,0.11171298,-0.40135518,0.3652111,-0.18799993,0.06064466,-0.25944692,1.4424785,-0.589064
-0.1,-0.2,0.7999999999999999,-0.5235987755982988,-0.5235987755982988,0,-0.5596551,1.3959302,0.001733611,-0.039436366,-0.023776375,1.2793087,-1.8947066,-0.40676966,0.36916247,-0.19254012,0.054229066,-0.27215058,1.4429841,-0.59349495
-0.1,-0.2,0.7999999999999999,-0.5235987755982988,-0.5235987755982988,0,0.0056666913,1.5131875,-0.01974948,-0.09197204,0.3321948,1.4121009,0.18798503,-0.40608507,0.3625113,-0.19524898,0.0606429,-0.26011783,1.4381881,-0.55938196
-0.1,-0.2,0.7999999999999999,-0.5235987755982988,-0.5235987755982988,0,-0.4080339,1.1815552,-0.2321689,-0.025456706,0.2737759,1.1914072,-0.8087851,-0.4102264,0.364584,-0.19654898,0.05551339,-0.26320574,1.4378763,-0.5942387
-0.1,-0.2,0.7999999999999999,-0.5235987755982988,-0.5235987755982988,0,0.5341986,1.2683924,-0.16277598,-0.06343118,0.14324377,1.1040673,0.36318243,-0.40602854,0.36764884,-0.20724073,0.05680407,-0.25144342,1.4358265,-0.591718
-0.1,-0.2,0.7999999999999999,-0.5235987755982988,-0.5235987755982988,0,-0.37980825,1.4485711,0.11827142,-0.09307238,0.071876444,1.170137,0.33608088,-0.41104576,0.3678756,-0.20494297,0.0586931,-0.27476618,1.432507,-0.56272334
-0.1,-0.2,0.7999999999999999,-0.5235987755982988,-0.5235987755982988,0,-0.96590656,1.2250271,-0.121461876,-0.16016342,0.11263383,1.2312795,-0.18344098,-0.40418127,0.36031714,-0.18976764,0.05449684,-0.26135024,1.4426687,-0.6120784
-0.1,-0.2,0.7999999999999999,-0.5235987755982988,-0.5235987755982988,0,-0.44839463,1.4727829,-0.28598136,0.06440206,0.18458454,1.2956601,-1.2249385,-0.40833285,0.3648382,-0.19079104,0.05750036,-0.259864,1.4423287,-0.5729357
-0.1,-0.2,0.7999999999999999,-0.5235987755982988,-0.5235987755982988,0,-0.39403993,1.4135016,0.3037772,-0.029070536,0.11279445,1.0574476,0.63801664,-0.40872112,0.36525175,-0.19473314,0.060513515,-0.26709306,1.4365389,-0.5615439
-0.1,-0.2,0.7999999999999999,-0.5235987755982988,-0.5235987755982988,0,-0.93552166,1.3538904,0.10166275,-0.029837428,-0.15571041,1.2865335,0.16899209,-0.4103492,0.36540926,-0.19550715,0.06047477,-0.26316056,1.4345392,-0.57525843
-0.1,-0.2,0.7999999999999999,-0.5235987755982988,-0.5235987755982988,0,0.01058243,1.334733,-0.40078628,0.08054462,-0.019652214,1.0993357,0.94868046,-0.41026005,0.36415663,-0.19582154,0.057105113,-0.2475123,1.4403732,-0.5762393
-0.1,-0.2,0.7999999999999999,-0.5235987755982988,-0.5235987755982988,0,-0.27912503,1.2333432,-0.15402071,0.07112093,-0.048355523,1.045696,-0.019622317,-0.41328034,0.3656077,-0.18991356,0.060042292,-0.27571574,1.4321542,-0.62240744
-0.1,-0.2,0.7999999999999999,-0.5235987755982988,-0.5235987755982988,0,0.08845097,1.2098174,-0.3780358,-0.004541015,-0.15364978,1.2928486,-0.6603237,-0.4084552,0.36402538,-0.19849037,0.053513728,-0.24887401,1.4465405,-0.56021976
-0.1,-0.2,0.7999999999999999,-0.5235987755982988,-0.5235987755982988,0,-0.023668457,1.2265984,0.4540532,0.028706912,-0.023964858,1.2143521,-0.034180727,-0.4106434,0.36193985,-0.20975412,0.059381444,-0.26320332,1.4328709,-0.59351474
-0.1,-0.2,0.7999999999999999,-0.5235987755982988,-0.5235987755982988,0,-0.7493527,1.2427839,0.15498929,-0.024442928,0.114192866,1.0589921,-0.16090477,-0.4093151,0.36602807,-0.19224972,0.052530058,-0.24874765,1.4477305,-0.5836243
-0.1,-0.2,0.7999999999999999,-0.5235987755982988,-0.5235987755982988,0,-1.1447647,1.281076,0.17506042,0.08182573,-0.07758171,1.1148217,-0.40036768,-0.40596506,0.3642036,-0.19568597,0.05489357,-0.2714008,1.451591,-0.5577045
-0.1,-0.2,0.7999999999999999,-0.5235987755982988,-0.5235987755982988,0,0.62457114,1.2157302,0.14001696,0.08683172,0.5368198,1.2597411,1.4758847,-0.40245104,0.36311358,-0.20017223,0.059095453,-0.25069833,1.4349519,-0.55557543
-0.1,-0.2,0.7999999999999999,-0.5235987755982988,-0.5235987755982988,0,-0.2510044,1.2855811,0.09450468,0.030320222,-0.19693221,1.2506847,-0.44729415,-0.4020286,0.3677291,-0.2000967,0.057442855,-0.2643311,1.4382509,-0.5815264
-0.1,-0.2,0.7999999999999999,-0.5235987755982988,-0.5235987755982988,0,0.1784679,1.3378912,0.19706488,-0.14503027,0.07342461,1.2732892,-1.2746279,-0.4111788,0.36227015,-0.20537058,0.056427725,-0.24746405,1.4376225,-0.5656217
-0.1,-0.2,0.7999999999999999,-0.5235987755982988,-0.5235987755982988,0,-0.14157003,1.2585051,0.19935478,0.00432396,-0.019197999,1.1640081,-1.3814486,-0.4079304,0.3658614,-0.18636571,0.05478343,-0.24991123,1.4452567,-0.6033973
-0.1,-0.2,0.7999999999999999,-0.5235987755982988,-0.5235987755982988,0,-1.875813,1.5364178,0.00278407,-0.07010663,0.06646689,1.1914262,-0.14684667,-0.40792298,0.36195016,-0.19213396,0.062113702,-0.25184238,1.4353197,-0.5750128
-0.1,-0.2,0.7999999999999999,-0.5235987755982988,-0.5235987755982988,0,0.3882229,1.373258,-0.22930105,-0.21521445,-0.17628422,1.2847464,-0.6073445,-0.40836766,0.36409193,-0.19127437,0.05842308,-0.24976733,1.4407601,-0.58263844
-0.1,-0.2,0.7999999999999999,-0.5235987755982988,-0.5235987755982988,0,0.60321695,1.2992058,-0.0277762,-0.030537643,0.12773696,1.3793199,-0.07634706,-0.40981057,0.36292997,-0.20034239,0.060376633,-0.26249346,1.4319037,-0.5869164
-0.1,-0.2,0.7999999999999999,-0.5235987755982988,-0.5235987755982988,0,-0.5102257,1.3852805,-0.09477048,0.041993633,0.33752385,1.2268894,-0.48360282,-0.3989388,0.36477488,-0.20190097,0.052019015,-0.2553128,1.439177,-0.61872584
-0.1,-0.2,0.7999999999999999,-0.5235987755982988,-0.5235987755982988,0,0.024805773,1.213788,-0.24059361,0.0075212177,-0.29732272,1.0829147,0.71625423,-0.4030945,0.3650807,-0.18623893,0.05306205,-0.25881827,1.4401165,-0.62592
-0.1,-0.2,0.7999999999999999,-0.5235987755982988,-0.5235987755982988,0,-0.94577014,1.323409,-0.26165468,-0.05654177,0.25328422,1.2940205,0.56919086,-0.4089996,0.36703163,-0.18601708,0.058547862,-0.2560193,1.4412173,-0.57062227
-0.1,-0.2,0.7999999999999999,-0.5235987755982988,-0.5235987755982988,0,-0.49754137,1.3008286,0.056437418,-0.1836102,0.49385503,1.3515385,0.5625282,-0.41016215,0.36313048,-0.1906242,0.061484963,-0.2913882,1.4359026,-0.549143
-0.1,-0.2,0.7999999999999999,-0.5235987755982988,-0.5235987755982988,0,0.45604992,1.2694565,0.10492521,-0.04185656,0.10001396,1.212413,-1.3028047,-0.4026609,0.36574498,-0.20039412,0.057777204,-0.2759658,1.44027,-0.56651944
-0.1,-0.2,0.7999999999999999,-0.5235987755982988,-0.5235987755982988,0,-0.6739001,1.3619449,0.19804525,-0.10006892,0.010114601,1.0919868,1.8474149,-0.40432885,0.36548844,-0.19725744,0.05371127,-0.2905047,1.4401052,-0.6133458
-0.1,-0.2,0.7999999999999999,-0.5235987755982988,-0.5235987755982988,0,-0.10185231,1.386774,0.21320117,-0.059679218,-0.45902625,1.0165871,0.124171965,-0.40464222,0.36834425,-0.20077184,0.05883606,-0.26502654,1.4396497,-0.5881908
-0.1,-0.2,0.7999999999999999,-0.5235987755982988,-0.5235987755982988,0,-0.7376046,1.1396672,-0.1277865,-0.007833293,-0.26245356,1.1672689,-1.3799547,-0.40784395,0.3615107,-0.1966477,0.056278206,-0.24226986,1.4410934,-0.5715012
-0.1,-0.2,0.7999999999999999,-0.5235987755982988,-0.5235987755982988,0,-0.44340894,1.4520273,0.11199571,-0.0531001,0.090072416,1.2471181,-0.9316105,-0.40094933,0.3583612,-0.19587322,0.056964744,-0.27867207,1.4389586,-0.6059008
-0.1,-0.2,0.7999999999999999,-0.5235987755982988,-0.5235987755982988,0,-0.1405779,1.1794792,0.23830985,0.014462355,0.16099544,1.0059155,0.33352867,-0.40850085,0.36647072,-0.2021982,0.055393986,-0.267585,1.4426864,-0.58046955
-0.1,-0.2,0.7999999999999999,-0.5235987755982988,-0.5235987755982988,0,-0.41536805,1.3636923,-0.0824158,-0.08609279,-0.15274161,1.1521065,-0.24218082,-0.4036698,0.36345044,-0.18739374,0.054629818,-0.264075,1.442624,-0.5783062
-0.1,-0.2,0.7999999999999999,-0.5235987755982988,-0.5235987755982988,0,0.27367523,1.2041278,-0.1044444,-0.18563372,0.03024518,1.1090041,1.1361314,-0.40665787,0.35896158,-0.18051474,0.06460788,-0.25539345,1.4347026,-0.60038877
-0.1,-0.2,0.7999999999999999,-0.5235987755982988,-0.5235987755982988,0,-0.7394082,1.3761094,0.119740285,-0.00087305036,0.33653054,1.1614364,-0.23787199,-0.4088182,0.36280066,-0.1992054,0.061309613,-0.27109334,1.4332141,-0.570903
-0.1,-0.2,0.7999999999999999,-0.5235987755982988,-0.5235987755982988,0,-1.170515,1.2279296,0.031077165,-0.07712086,0.15612054,1.1755109,2.519387,-0.40422156,0.3641221,-0.19926341,0.056843694,-0.26341066,1.4468796,-0.60863155
-0.1,-0.2,0.7999999999999999,-0.5235987755982988,-0.5235987755982988,0,0.13225889,1.2741178,-0.056016345,-0.02306861,0.10950519,1.1806896,-0.3519378,-0.4059183,0.36119047,-0.19428806,0.0624816,-0.25802532,1.4350998,-0.59911925
-0.1,-0.2,0.7999999999999999,-0.5235987755982988,-0.5235987755982988,0,0.29614988,1.4520258,0.23677708,-0.17203851,-0.1701666,1.2208472,1.1116642,-0.4027102,0.36585808,-0.20406045,0.05962969,-0.27322948,1.4371483,-0.59970075
-0.1,-0.2,0.7999999999999999,-0.5235987755982988,-0.5235987755982988,0,0.026136467,1.2967156,0.108724184,-0.2619574,0.08859366,1.0350913,-1.532979,-0.40456697,0.3659882,-0.20344281,0.056138035,-0.264328,1.441329,-0.6093981
-0.1,-0.2,0.7999999999999999,-0.5235987755982988,-0.5235987755982988,0,0.051085897,1.2483152,0.029191298,0.056854703,0.20398721,1.0584204,0.8198432,-0.40485123,0.3677551,-0.18216257,0.057369545,-0.25888267,1.4462198,-0.62090653
-0.1,-0.2,0.7999999999999999,-0.5235987755982988,-0.5235987755982988,0,-0.5380909,1.4252071,0.22346374,-0.01834544,-0.024051698,1.0845201,-0.7293077,-0.40381053,0.3669777,-0.18807584,0.054002453,-0.26144233,1.450974,-0.5927677
-0.1,-0.2,0.7999999999999999,-0.5235987755982988,-0.5235987755982988,0,0.16291949,1.580454,0.19365877,-0.12824261,-0.40999988,1.1467354,-0.020390283,-0.40553582,0.36600658,-0.20739987,0.0606182,-0.25519064,1.4473658,-0.57290864
-0.1,-0.2,0.7999999999999999,-0.5235987755982988,-0.5235987755982988,0,1.0127685,1.3376466,-0.27933615,-0.0008434565,0.59709555,1.1452826,-0.11770516,-0.40621373,0.37019694,-0.19812426,0.06006872,-0.23989405,1.4388641,-0.6017719
-0.1,-0.2,0.7999999999999999,-0.5235987755982988,-0.5235987755982988,0,-2.1256566,1.2303777,0.005810334,-0.0062416587,0.017419335,0.98539996,-1.0497044,-0.3924154,0.36526167,-0.20127039,0.05628648,-0.25579464,1.4480487,-0.59156924
-0.1,-0.2,0.7999999999999999,-0.5235987755982988,-0.5235987755982988,0,-1.0917225,1.3248191,-0.27509925,-0.031156205,-0.017348597,1.1390649,1.4903945,-0.40600795,0.3654209,-0.19465019,0.060043905,-0.2418831,1.4447708,-0.5915848
-0.1,-0.2,0.7999999999999999,-0.5235987755982988,-0.5235987755982988,0,0.73035747,1.2812837,0.07032858,-0.09171147,0.11890159,1.3046998,0.5127583,-0.41239768,0.36137378,-0.19925654,0.059359327,-0.26327175,1.4337816,-0.5467509
-0.1,-0.2,0.7999999999999999,-0.5235987755982988,-0.5235987755982988,0,-1.5917236,1.2966447,0.2628266,-0.10270198,0.20189328,0.9807324,0.019250257,-0.39908248,0.36493492,-0.19074284,0.056623146,-0.26721218,1.4356182,-0.57096267
-0.1,-0.2,0.7999999999999999,-0.5235987755982988,-0.5235987755982988,0,0.73102844,1.3449742,0.19040693,-0.11349397,0.37549153,0.9548247,0.5761297,-0.397995,0.364222,-0.19533612,0.063473485,-0.26319897,1.4412973,-0.61011237
-0.1,-0.2,0.7999999999999999,-0.5235987755982988,-0.5235987755982988,0,0.54309773,1.4944055,0.2731508,-0.016536515,0.12538095,0.9827611,0.6917635,-0.4057136,0.36358458,-0.20043835,0.060213458,-0.24652378,1.4429142,-0.6051013
-0.1,-0.2,0.7999999999999999,-0.5235987755982988,-0.5235987755982988,0,-0.6196049,1.302187,-0.29933816,0.16664131,0.48154563,1.2231716,0.26134336,-0.40140027,0.3638147,-0.18341433,0.059344392,-0.260318,1.4543188,-0.59479165
-0.1,-0.2,0.7999999999999999,-0.5235987755982988,-0.5235987755982988,0,-1.2482076,1.2938653,0.13458575,-0.15042089,0.0635166,1.2333148,0.59836614,-0.40702036,0.36451146,-0.19357729,0.06198634,-0.24371757,1.4475071,-0.57300395
-0.1,-0.2,0.7999999999999999,-0.5235987755982988,-0.5235987755982988,0,-0.24961485,1.5126137,-0.18687645,-0.18882886,-0.37041652,1.3496364,-1.2425774,-0.40801573,0.36003765,-0.19375011,0.063361414,-0.26867208,1.4362471,-0.6026125
-0.1,-0.2,0.7999999999999999,-0.5235987755982988,-0.5235987755982988,0,0.37762487,1.4163665,0.17020288,0.11960338,-0.033584975,1.541746,0.52634704,-0.4063348,0.36499694,-0.19031727,0.058327336,-0.2620728,1.4438578,-0.60173
-0.1,-0.2,0.7999999999999999,-0.5235987755982988,-0.5235987755982988,0,-1.1227998,1.2322443,-0.09472944,-0.0144184595,-0.25032654,1.1735737,0.8290284,-0.40671873,0.36498827,-0.18507612,0.060382046,-0.25963876,1.441264,-0.5963567
-0.1,-0.2,0.7999999999999999,-0.5235987755982988,-0.5235987755982988,0,-1.087816,1.384468,-0.004515335,-0.045101143,0.03719691,0.952299,-0.9213059,-0.40663037,0.3680983,-0.19483851,0.057237606,-0.25443098,1.4442991,-0.5879883
-0.1,-0.2,0.7999999999999999,-0.5235987755982988,-0.5235987755982988,0,0.56673115,1.3140666,0.3014387,-0.03705544,0.16169514,1.1405404,0.89001316,-0.40795043,0.36670586,-0.20013568,0.057578705,-0.24611652,1.4463634,-0.58045244
-0.1,-0.2,0.7999999999999999,-0.5235987755982988,-0.5235987755982988,0,0.10183133,1.3907664,-0.051797498,-0.117172614,-0.40091833,1.155396,-1.2159213,-0.39849934,0.3676498,-0.18977875,0.06051699,-0.26300317,1.4473565,-0.60607284
-0.1,-0.2,0.7999999999999999,-0.5235987755982988,-0.5235987755982988,0,-0.5537833,1.4699434,-0.3591336,0.11446696,0.07090242,1.0712265,-0.9999147,-0.40610087,0.36330935,-0.19934405,0.05892714,-0.26911274,1.4451824,-0.5951175
-0.1,-0.2,0.7999999999999999,-0.5235987755982988,-0.5235987755982988,0,-0.26815325,1.1711242,-0.16593204,-0.058058217,-0.0037470674,1.1579981,-0.70783615,-0.41117126,0.36318845,-0.18879165,0.06391139,-0.24600889,1.4410974,-0.59809095
-0.1,-0.2,0.7999999999999999,-0.5235987755982988,-0.5235987755982988,0,0.6347414,1.3961693,-0.0550807,0.008380415,-0.3612458,1.3520101,-0.87679946,-0.40015942,0.36455235,-0.19067866,0.05770591,-0.2678261,1.4377836,-0.5668466
-0.1,-0.2,0.7999999999999999,-0.5235987755982988,-0.5235987755982988,0,-1.1942444,1.3228272,0.062086437,0.030468933,-0.14472006,1.2051365,0.92989504,-0.39793724,0.36601788,-0.19651498,0.055818915,-0.26677915,1.4396155,-0.56862926
-0.1,-0.2,0.7999999999999999,-0.5235987755982988,-0.5235987755982988,0,-1.4534762,1.3587238,-0.32723802,0.023681447,-0.20110215,1.2195705,-0.575833,-0.4035276,0.3696576,-0.19728398,0.057231836,-0.24462427,1.4334117,-0.6103534
-0.1,-0.2,0.7999999999999999,-0.5235987755982988,-0.5235987755982988,0,-0.84277993,1.1220896,-0.061648466,-0.14537346,0.47287247,1.3647971,-1.5883547,-0.41372684,0.36845428,-0.1912215,0.04678101,-0.257569,1.4450593,-0.60415435
-0.1,-0.2,0.7999999999999999,-0.5235987755982988,-0.5235987755982988,0,-0.25798085,1.2184961,0.43423843,-0.069322444,0.27639714,1.0673981,0.20159435,-0.40448532,0.3679032,-0.19315997,0.058627702,-0.26209718,1.4347688,-0.5970976
-0.1,-0.2,0.7999999999999999,-0.5235987755982988,-0.5235987755982988,0,-0.06611338,1.509122,-0.00035789542,-0.10095741,0.2076516,1.1209353,1.3521903,-0.40341875,0.36673102,-0.19331788,0.058248874,-0.26482666,1.4262385,-0.6081677
-0.1,-0.2,0.7999999999999999,-0.5235987755982988,-0.5235987755982988,0,-0.18249445,1.2170274,-0.12540615,0.09921592,0.21533403,1.0728222,0.7851329,-0.4093546,0.36783215,-0.18563332,0.05742782,-0.24609442,1.4319898,-0.60332566
-0.1,-0.2,0.7999999999999999,-0.5235987755982988,-0.5235987755982988,0,-0.14190064,1.3250772,-0.028709816,-0.12794276,-0.06949099,1.2867591,0.35784575,-0.4121268,0.36749527,-0.18966264,0.057945013,-0.2372999,1.4382461,-0.5723689
-0.1,-0.2,0.7999999999999999,-0.5235987755982988,-0.5235987755982988,0,-0.6536517,1.3440503,-0.032492816,0.045522675,0.12693366,1.060202,-0.7335728,-0.40010306,0.36684993,-0.20774403,0.057969365,-0.23744956,1.4344577,-0.602987
-0.1,-0.2,0.7999999999999999,-0.5235987755982988,-0.5235987755982988,0,-0.018211767,1.3469645,-0.37133294,-0.0151378615,0.26564658,0.9907163,0.3195023,-0.40655395,0.36388844,-0.19028664,0.0569207,-0.26203382,1.4381386,-0.60301846
-0.1,-0.2,0.7999999999999999,-0.5235987755982988,-0.5235987755982988,0,-0.6534782,1.4123882,-0.00022020024,-0.0684132,0.6877222,1.1787393,0.25333023,-0.40599492,0.36299703,-0.19390649,0.060111646,-0.26872396,1.4369751,-0.55532557
-0.1,-0.2,0.7999999999999999,-0.5235987755982988,-0.5235987755982988,0,-0.682916,1.2954313,0.31670457,-0.0101825055,0.12399469,1.1517965,0.05635524,-0.40592888,0.36472157,-0.19549668,0.06008363,-0.26257104,1.4324064,-0.59766763
-0.1,-0.2,0.7999999999999999,-0.5235987755982988,-0.5235987755982988,0,-2.1494267,1.1880643,0.21846585,-0.031065086,0.031419527,1.0397758,0.40840846,-0.40907604,0.36232203,-0.1978728,0.055662617,-0.26065344,1.4376118,-0.58925176
-0.1,-0.2,0.7999999999999999,-0.5235987755982988,-0.5235987755982988,0,-0.22954911,1.1773189,-0.021332337,-0.013564589,-0.2816962,1.1885743,0.4435159,-0.40241158,0.36808372,-0.18661533,0.058410965,-0.28722462,1.4264709,-0.5738885
-0.1,-0.2,0.7999999999999999,-0.5235987755982988,-0.5235987755982988,0,-1.0270847,1.2506194,0.44817704,-0.090564206,-0.031081852,1.2541891,-0.21152723,-0.40725237,0.36355522,-0.1953684,0.057236534,-0.26123667,1.435966,-0.6139726
