sanky1234/BimanualDexCatch/isaacgymenvs/cem_results/football_pose_0.1_0.0_1.4999999999999998_0.5235987755982988_0.5235987755982988_0_2025-05-27.csv
x,y,z,roll,pitch,yaw,robot1/joint1,robot1/joint2,robot1/joint3,robot1/joint4,robot1/joint5,robot1/joint6,robot1/joint7,robot2/joint1,robot2/joint2,robot2/joint3,robot2/joint4,robot2/joint5,robot2/joint6,robot2/joint7
0.1,0.0,1.4999999999999998,0.5235987755982988,0.5235987755982988,0,-1.0288029,0.8937756,-0.81210184,0.83944935,0.6534884,0.111918695,0.8078368,-2.560928,1.392675,-0.17037131,-0.0399488,-0.27324086,1.1968448,0.6343902
0.1,0.0,1.4999999999999998,0.5235987755982988,0.5235987755982988,0,-1.0293698,0.9006142,-0.81140375,0.84147257,0.6492606,0.13382892,0.9045127,-2.5342631,1.3750787,0.13405192,0.0015467969,-0.037634913,1.2533861,-0.71165204
0.1,0.0,1.4999999999999998,0.5235987755982988,0.5235987755982988,0,-1.0284257,0.9001444,-0.8123639,0.83777505,0.64957905,0.14106122,1.1517721,-2.500962,1.3824114,0.02912307,-0.05473964,-0.03879201,1.2144353,2.137826
0.1,0.0,1.4999999999999998,0.5235987755982988,0.5235987755982988,0,-1.0303837,0.89329827,-0.8113355,0.8402077,0.64583015,0.13968089,1.2392085,-2.5045147,1.3989381,0.37185144,-0.08023627,-0.5150439,1.25071,-1.1595006
0.1,0.0,1.4999999999999998,0.5235987755982988,0.5235987755982988,0,-1.0306046,0.8858669,-0.81444293,0.8374483,0.6583075,0.1368215,1.2555686,-2.4554007,1.3906527,0.108005226,-0.080301896,-0.19112319,1.1253752,-0.24456309
0.1,0.0,1.4999999999999998,0.5235987755982988,0.5235987755982988,0,-1.0303619,0.89512086,-0.8122878,0.84154475,0.65195715,0.14549543,1.4566863,-2.4820426,1.3889381,0.009371107,-0.0919503,-0.32338244,1.2558595,1.0146557
0.1,0.0,1.4999999999999998,0.5235987755982988,0.5235987755982988,0,-1.0294409,0.89542735,-0.8141455,0.8389538,0.64290184,0.13182484,1.1727507,-2.4806888,1.3606989,0.054929595,-0.018721053,0.1708692,1.1393602,0.14743103
0.1,0.0,1.4999999999999998,0.5235987755982988,0.5235987755982988,0,-1.0292805,0.8888521,-0.8146297,0.8414894,0.66390854,0.14477986,1.5053021,-2.44661,1.3772867,-0.06590335,-0.061175767,-0.41910362,1.1442116,-0.44551805
0.1,0.0,1.4999999999999998,0.5235987755982988,0.5235987755982988,0,-1.0297034,0.89448845,-0.8134108,0.8391162,0.6631289,0.14732598,1.3798891,-2.4614978,1.3619862,0.15251292,-0.07120809,-0.1998009,1.1656011,1.1237191
0.1,0.0,1.4999999999999998,0.5235987755982988,0.5235987755982988,0,-1.0300927,0.8900593,-0.8119131,0.8416202,0.6508035,0.12259648,1.3113618,-2.4467404,1.4156406,0.2722586,-0.005618338,-0.105712175,1.1380646,-0.06842985
0.1,0.0,1.4999999999999998,0.5235987755982988,0.5235987755982988,0,-1.0271484,0.89049095,-0.8121877,0.8391105,0.6653879,0.13104044,0.6775625,-2.4113884,1.3711352,0.045117307,-0.22486144,0.108585104,1.130085,0.30937546
0.1,0.0,1.4999999999999998,0.5235987755982988,0.5235987755982988,0,-1.0288209,0.8962735,-0.81328535,0.83973086,0.6561215,0.14316282,0.79303676,-2.4911985,1.4050674,-0.21631522,-0.105385564,-0.11211443,1.1656041,0.917115
0.1,0.0,1.4999999999999998,0.5235987755982988,0.5235987755982988,0,-1.0303503,0.88918084,-0.8116456,0.8388487,0.64737785,0.12712474,1.2368234,-2.4648309,1.3595734,0.071772486,-0.09597491,-0.054387793,1.1206906,-1.077916
0.1,0.0,1.4999999999999998,0.5235987755982988,0.5235987755982988,0,-1.0279037,0.8953428,-0.8124796,0.84125596,0.66012704,0.13947229,1.2006841,-2.4545896,1.4170352,0.14483672,-0.028117334,0.2569232,1.1215558,-0.5273326
0.1,0.0,1.4999999999999998,0.5235987755982988,0.5235987755982988,0,-1.0299767,0.8933905,-0.81330395,0.83892196,0.656283,0.13884461,0.96980953,-2.4686894,1.3852383,0.15317279,-0.060756747,-0.35766247,1.1342335,0.2915107
0.1,0.0,1.4999999999999998,0.5235987755982988,0.5235987755982988,0,-1.0302049,0.8943767,-0.8131864,0.8406448,0.6476286,0.12624964,1.2746224,-2.4545617,1.4047419,0.010522561,-0.1326384,-0.43234777,1.1888943,0.052576322
0.1,0.0,1.4999999999999998,0.5235987755982988,0.5235987755982988,0,-1.0300676,0.889309,-0.8135698,0.8393894,0.6678892,0.12951314,0.8969844,-2.5772495,1.3802941,0.38867167,-0.11699504,-0.021074604,1.1680448,-0.2670235
0.1,0.0,1.4999999999999998,0.5235987755982988,0.5235987755982988,0,-1.0291142,0.9003375,-0.8114115,0.84103906,0.6484862,0.13036174,0.9921622,-2.4581873,1.3946202,0.30395943,-0.072421834,0.14381881,1.1931654,0.2013087
0.1,0.0,1.4999999999999998,0.5235987755982988,0.5235987755982988,0,-1.0301641,0.9002326,-0.8124078,0.84069836,0.68486273,0.14202362,1.1051227,-2.5075693,1.3904735,0.16266683,-0.06664634,-0.16127355,1.1789558,-0.2938258
0.1,0.0,1.4999999999999998,0.5235987755982988,0.5235987755982988,0,-1.0285767,0.88809544,-0.81501657,0.8405811,0.6594343,0.13012105,1.2112823,-2.554924,1.3654954,0.36994314,-0.17423417,-0.29530966,1.1869247,2.0143342
0.1,0.0,1.4999999999999998,0.5235987755982988,0.5235987755982988,0,-1.0294755,0.8928398,-0.81348354,0.8413013,0.6377573,0.15127604,1.3293699,-2.5604343,1.3675716,0.14946866,-0.117011406,-0.27306893,1.1135597,0.36747423
0.1,0.0,1.4999999999999998,0.5235987755982988,0.5235987755982988,0,-1.0294279,0.8871762,-0.81384677,0.84080434,0.65466833,0.12713113,1.5526313,-2.5596287,1.4059858,0.004643501,-0.040583216,0.060329396,1.2228687,0.61882144
0.1,0.0,1.4999999999999998,0.5235987755982988,0.5235987755982988,0,-1.0295393,0.89286715,-0.81405884,0.8400357,0.65253496,0.12708838,1.0941724,-2.4392257,1.421911,0.19316362,-0.13679583,-0.3112095,1.2145338,-0.044195157
0.1,0.0,1.4999999999999998,0.5235987755982988,0.5235987755982988,0,-1.0292892,0.89304954,-0.81336695,0.8402167,0.6709117,0.1265813,0.67072916,-2.5940363,1.3414947,0.45477778,-0.081526205,-0.16055351,1.2942836,0.631837
0.1,0.0,1.4999999999999998,0.5235987755982988,0.5235987755982988,0,-1.0300863,0.89943385,-0.81288236,0.83658904,0.6693753,0.12601858,1.0953829,-2.5625672,1.3607801,-0.0005133434,-0.11745851,0.18823881,1.2199348,0.09810553
0.1,0.0,1.4999999999999998,0.5235987755982988,0.5235987755982988,0,-1.0293461,0.8911009,-0.8126357,0.8402268,0.6602886,0.14477667,1.402244,-2.5634546,1.3733605,0.069874406,-0.068753846,-0.2405316,1.1523098,0.17106877
0.1,0.0,1.4999999999999998,0.5235987755982988,0.5235987755982988,0,-1.029584,0.89221686,-0.8124396,0.84042144,0.65705425,0.11122756,1.0478293,-2.5408754,1.4058142,0.17998219,-0.13673307,-0.27915934,1.156064,-0.06311899
0.1,0.0,1.4999999999999998,0.5235987755982988,0.5235987755982988,0,-1.0286342,0.89842236,-0.81412286,0.8399167,0.65457004,0.113533966,0.90498084,-2.5606265,1.376737,-0.029916355,-0.07817474,-0.043822583,1.2255266,0.28414965
0.1,0.0,1.4999999999999998,0.5235987755982988,0.5235987755982988,0,-1.0285512,0.89277065,-0.81359756,0.8413799,0.6569503,0.1433115,0.7450672,-2.5710235,1.3820392,0.15121019,-0.112992615,-0.20900239,1.2467809,-1.1294749
0.1,0.0,1.4999999999999998,0.5235987755982988,0.5235987755982988,0,-1.0295918,0.89108235,-0.81348747,0.8400902,0.6520654,0.12989646,1.1849703,-2.549824,1.3823378,0.04212105,0.017814662,-0.045346607,1.1720062,0.917357
0.1,0.0,1.4999999999999998,0.5235987755982988,0.5235987755982988,0,-1.0283332,0.89589036,-0.81382656,0.84183186,0.6500256,0.14319327,0.9227997,-2.589077,1.3678671,0.23657404,-0.154597,-0.047449846,1.1077607,0.53162956
0.1,0.0,1.4999999999999998,0.5235987755982988,0.5235987755982988,0,-1.0303928,0.88520926,-0.81380826,0.84066147,0.6569073,0.13958842,1.2064662,-2.5555131,1.4142497,-0.26818553,-0.118207626,-0.38482383,1.1387597,0.7341197
0.1,0.0,1.4999999999999998,0.5235987755982988,0.5235987755982988,0,-1.0302646,0.8912769,-0.813604,0.84049696,0.65311337,0.12586248,1.6573802,-2.5688124,1.3909096,0.213187,-0.05367722,-0.07718856,1.2359049,-0.90992135
0.1,0.0,1.4999999999999998,0.5235987755982988,0.5235987755982988,0,-1.0291774,0.89693433,-0.81350815,0.83847743,0.65067387,0.12891173,1.1422698,-2.5352218,1.4518931,0.2396397,-0.00943194,-0.46096227,1.275284,0.94414693
0.1,0.0,1.4999999999999998,0.5235987755982988,0.5235987755982988,0,-1.0292333,0.9040531,-0.812937,0.83891314,0.65316397,0.14541192,1.2356081,-2.5497475,1.4071435,0.098661475,-0.12026007,-0.25581267,1.0483688,0.34602383
0.1,0.0,1.4999999999999998,0.5235987755982988,0.5235987755982988,0,-1.0293576,0.89007217,-0.81234634,0.8413009,0.65125996,0.1285387,0.97456235,-2.5602427,1.3548238,-0.098707385,-0.17572485,-0.14140294,1.3211366,0.09989949
0.1,0.0,1.4999999999999998,0.5235987755982988,0.5235987755982988,0,-1.0296452,0.9023344,-0.8141016,0.8423649,0.6469127,0.13426477,0.83268666,-2.5518937,1.3849195,0.35834333,-0.04034873,-0.3476049,1.1357918,0.1790748
0.1,0.0,1.4999999999999998,0.5235987755982988,0.5235987755982988,0,-1.0288237,0.89312017,-0.8143183,0.8398413,0.6536131,0.13579299,0.92844653,-2.5623035,1.3999069,0.09409331,-0.015399204,0.064032115,1.2380133,0.38224754
0.1,0.0,1.4999999999999998,0.5235987755982988,0.5235987755982988,0,-1.0285215,0.8949489,-0.8122592,0.84211576,0.64087284,0.122977085,1.0160146,-2.5407908,1.4460164,-0.17709012,-0.11770109,-0.03933378,1.1008998,0.2260048
0.1,0.0,1.4999999999999998,0.5235987755982988,0.5235987755982988,0,-1.029102,0.8967261,-0.81321514,0.84237117,0.66683114,0.12224416,0.9300397,-2.548987,1.3903247,-0.16398771,-0.18817359,-0.16134211,1.1575406,1.1418407
0.1,0.0,1.4999999999999998,0.5235987755982988,0.5235987755982988,0,-1.0302306,0.8900218,-0.8134353,0.8406961,0.6501656,0.14174618,1.4612063,-2.5541983,1.4266522,-0.18770146,-0.13357441,-0.019709565,1.1411605,0.28937343
0.1,0.0,1.4999999999999998,0.5235987755982988,0.5235987755982988,0,-1.0304148,0.89235556,-0.8123912,0.8400901,0.65476006,0.1336369,1.2115635,-2.5484717,1.3991382,0.29117185,-0.03454063,0.2394523,1.2206075,0.010314583
0.1,0.0,1.4999999999999998,0.5235987755982988,0.5235987755982988,0,-1.029376,0.89527273,-0.8119083,0.8398416,0.65999764,0.13391438,1.4258778,-2.5448933,1.4239217,-0.18549022,-0.11012582,-0.4570751,1.1395931,1.3097539
0.1,0.0,1.4999999999999998,0.5235987755982988,0.5235987755982988,0,-1.0300647,0.89188284,-0.8125962,0.8400426,0.6516517,0.14408724,1.4870993,-2.5420284,1.3950151,-0.017617308,-0.14070041,-0.26806712,1.166223,1.1079402
0.1,0.0,1.4999999999999998,0.5235987755982988,0.5235987755982988,0,-1.0268044,0.89353085,-0.81346875,0.8418726,0.6614045,0.13919559,1.0570714,-2.5361328,1.4210494,0.18874109,-0.057217196,-0.017312588,1.1882327,0.30185696
0.1,0.0,1.4999999999999998,0.5235987755982988,0.5235987755982988,0,-1.0284721,0.8942643,-0.81371003,0.84072113,0.63575965,0.110871874,1.4641318,-2.5374553,1.3982841,-0.18223403,-0.095491946,-0.15231359,1.23176,0.87493443
0.1,0.0,1.4999999999999998,0.5235987755982988,0.5235987755982988,0,-1.0291402,0.8967534,-0.8129831,0.8372815,0.6591458,0.141049,1.4416693,-2.51711,1.4450783,-0.19739531,-0.06299906,-0.4266761,1.1666014,0.96744174
0.1,0.0,1.4999999999999998,0.5235987755982988,0.5235987755982988,0,-1.0304477,0.8915812,-0.81359845,0.83993083,0.6396779,0.12936841,0.99188435,-2.5386055,1.4147428,-0.1017401,-0.13399947,-0.3768264,1.1703827,-0.008566548
0.1,0.0,1.4999999999999998,0.5235987755982988,0.5235987755982988,0,-1.0299097,0.89707214,-0.81305957,0.84300506,0.6628178,0.15358138,1.025727,-2.5398943,1.4323499,0.017579943,-0.06841849,-0.4618498,1.3733063,1.0420192
0.1,0.0,1.4999999999999998,0.5235987755982988,0.5235987755982988,0,-1.02973,0.89819646,-0.8162179,0.83999,0.6505438,0.14618549,1.0996414,-2.544606,1.409961,0.059275057,-0.09972843,0.15032615,1.1378427,-0.73942465
0.1,0.0,1.4999999999999998,0.5235987755982988,0.5235987755982988,0,-1.0304364,0.8880038,-0.81163895,0.8398256,0.6571504,0.12357471,1.5350161,-2.6163523,1.379903,-0.16362725,-0.08090547,0.011401408,1.1108553,-0.009394305
0.1,0.0,1.4999999999999998,0.5235987755982988,0.5235987755982988,0,-1.0294871,0.8947504,-0.8127936,0.8396653,0.66265655,0.14062054,0.40467152,-2.5842037,1.4277999,0.20716703,-0.14988498,-0.46857357,1.2742926,0.5987115
0.1,0.0,1.4999999999999998,0.5235987755982988,0.5235987755982988,0,-1.0283844,0.89580256,-0.8140477,0.84014267,0.6696774,0.15782085,1.361928,-2.5286775,1.40756,0.29887664,0.009815799,0.19108036,1.2605451,-0.32811615
0.1,0.0,1.4999999999999998,0.5235987755982988,0.5235987755982988,0,-1.0288146,0.8972967,-0.8115026,0.8405245,0.65690327,0.1337437,0.95350116,-2.5816271,1.3937607,0.29558367,-0.16959575,-0.26415083,1.2686727,1.0639411
0.1,0.0,1.4999999999999998,0.5235987755982988,0.5235987755982988,0,-1.0268159,0.89318776,-0.8138238,0.84361917,0.65745234,0.11414134,2.1519568,-2.6675754,1.3545288,0.26352328,-0.05754963,-0.2478581,1.1603968,0.680779
0.1,0.0,1.4999999999999998,0.5235987755982988,0.5235987755982988,0,-1.0285803,0.88739777,-0.8141587,0.84360844,0.657251,0.13517824,1.1994319,-2.576628,1.4227332,-0.070038445,-0.20764188,-0.27780715,1.2069294,0.35152933
0.1,0.0,1.4999999999999998,0.5235987755982988,0.5235987755982988,0,-1.0279568,0.8994267,-0.8123752,0.83911467,0.6614845,0.11333775,1.4844482,-2.5182743,1.3682402,-0.041948963,-0.105309196,-0.15765902,1.1424086,0.9238021
0.1,0.0,1.4999999999999998,0.5235987755982988,0.5235987755982988,0,-1.029438,0.8954092,-0.81106293,0.83953947,0.657226,0.12718599,1.7069899,-2.4874527,1.4023849,-0.22515741,-0.14475149,-0.10068653,1.2548364,-0.45931348
0.1,0.0,1.4999999999999998,0.5235987755982988,0.5235987755982988,0,-1.0296975,0.8962817,-0.8125562,0.83982193,0.6526425,0.1560444,0.43860763,-2.5173085,1.37534,0.28913176,-0.11192443,-0.17992881,1.2245505,1.0592601
0.1,0.0,1.4999999999999998,0.5235987755982988,0.5235987755982988,0,-1.0302708,0.89120686,-0.81288886,0.8402221,0.656049,0.15952966,1.2677836,-2.5041742,1.3674182,0.34019327,-0.059946533,0.00875861,1.1659157,-0.14841597
0.1,0.0,1.4999999999999998,0.5235987755982988,0.5235987755982988,0,-1.0288795,0.89176154,-0.8128974,0.8419741,0.6467987,0.15522033,1.2299186,-2.4997418,1.3990823,0.17888655,-0.05975131,0.036379963,1.0661963,1.4054924
0.1,0.0,1.4999999999999998,0.5235987755982988,0.5235987755982988,0,-1.0298296,0.89485186,-0.8143581,0.83768576,0.66068196,0.12905228,1.3314426,-2.46647,1.3987943,0.07166572,-0.032067228,-0.07831182,1.1448936,1.91986
0.1,0.0,1.4999999999999998,0.5235987755982988,0.5235987755982988,0,-1.0295725,0.8913076,-0.81283385,0.83912396,0.6423868,0.13136442,1.5606108,-2.5088758,1.3613081,0.012212553,0.024248516,0.06844392,1.1664574,0.5840763
0.1,0.0,1.4999999999999998,0.5235987755982988,0.5235987755982988,0,-1.0292032,0.8938839,-0.811655,0.83898807,0.6549624,0.124715,1.6393852,-2.484133,1.3910362,0.24107943,-0.029755672,-0.15201105,1.2591908,1.3837203
0.1,0.0,1.4999999999999998,0.5235987755982988,0.5235987755982988,0,-1.029697,0.89528364,-0.81149435,0.8397757,0.65643847,0.13511215,1.6573851,-2.5025523,1.3772154,-0.15682359,-0.03546604,0.05507598,1.2365141,0.49044687
0.1,0.0,1.4999999999999998,0.5235987755982988,0.5235987755982988,0,-1.0282266,0.89129126,-0.815094,0.83901876,0.64051986,0.13527797,1.756535,-2.4595978,1.3561063,0.0986635,0.00720681,-0.16792618,1.1787343,0.9824053
0.1,0.0,1.4999999999999998,0.5235987755982988,0.5235987755982988,0,-1.0282052,0.89125305,-0.81202704,0.842663,0.65865237,0.13878158,0.6112532,-2.5318546,1.3657514,0.05169455,-0.051606767,-0.214735,1.1115981,-0.54770434
0.1,0.0,1.4999999999999998,0.5235987755982988,0.5235987755982988,0,-1.0291961,0.8935336,-0.8122418,0.84011894,0.6644986,0.12383042,1.4982233,-2.5038679,1.372017,0.2534263,-0.11796738,-0.41071582,1.1696655,0.694235
0.1,0.0,1.4999999999999998,0.5235987755982988,0.5235987755982988,0,-1.0300077,0.892568,-0.8139298,0.83961797,0.6574051,0.13421199,1.5102079,-2.5634894,1.3272735,-0.20854008,-0.04409786,0.019027121,1.1990237,0.21559809
0.1,0.0,1.4999999999999998,0.5235987755982988,0.5235987755982988,0,-1.0303086,0.89282376,-0.8135808,0.840135,0.6627968,0.12820669,1.9089257,-2.5224774,1.39355,0.1546819,-0.071955994,-0.16250978,1.2034807,0.5891282
0.1,0.0,1.4999999999999998,0.5235987755982988,0.5235987755982988,0,-1.0287821,0.8952597,-0.81338495,0.842355,0.63998854,0.13627268,1.5595859,-2.553709,1.3323331,0.016939811,-0.08678744,-0.20744282,1.1665516,-0.1494017
0.1,0.0,1.4999999999999998,0.5235987755982988,0.5235987755982988,0,-1.0289118,0.8919332,-0.81381583,0.8399367,0.65524,0.1416025,1.780608,-2.5037005,1.3430623,0.39902577,-0.05697192,-0.19038449,1.1960824,0.56179893
0.1,0.0,1.4999999999999998,0.5235987755982988,0.5235987755982988,0,-1.0280524,0.8915905,-0.8145284,0.83963954,0.6708872,0.13221465,1.6132822,-2.4896457,1.4050511,0.073010065,-0.021617843,-0.08953242,1.2634159,0.93996
0.1,0.0,1.4999999999999998,0.5235987755982988,0.5235987755982988,0,-1.0279502,0.89138025,-0.8136519,0.84132606,0.639574,0.14072035,1.8954023,-2.5289164,1.3803002,0.37686592,-0.1373144,-0.028961446,1.1510905,-0.8393561
0.1,0.0,1.4999999999999998,0.5235987755982988,0.5235987755982988,0,-1.0269696,0.89544106,-0.81294936,0.8440846,0.6620665,0.13491188,1.2910949,-2.4974878,1.3873581,-0.05818951,-0.047297023,-0.5145251,1.1789174,-0.19663359
0.1,0.0,1.4999999999999998,0.5235987755982988,0.5235987755982988,0,-1.0284967,0.8920557,-0.8130102,0.84211403,0.6476529,0.15031621,0.64844817,-2.4864354,1.397664,0.07896578,-0.05270084,-0.092406675,1.2344755,0.90222806
0.1,0.0,1.4999999999999998,0.5235987755982988,0.5235987755982988,0,-1.0272776,0.8944639,-0.8120246,0.8452624,0.6503844,0.13599725,1.1961093,-2.5244334,1.3598828,0.29962292,0.07274221,-0.41201392,1.1294425,1.1894866
0.1,0.0,1.4999999999999998,0.5235987755982988,0.5235987755982988,0,-1.0278286,0.89695036,-0.81426656,0.84102744,0.6527079,0.13588403,1.6551558,-2.48553,1.3654705,0.13964802,-0.0077632368,-0.5249503,1.2510831,1.608564
0.1,0.0,1.4999999999999998,0.5235987755982988,0.5235987755982988,0,-1.0297606,0.89350104,-0.814307,0.84201175,0.664586,0.13729233,0.43019408,-2.5103314,1.3793346,0.21321659,-0.023649374,0.0749847,1.1305332,-0.650051
0.1,0.0,1.4999999999999998,0.5235987755982988,0.5235987755982988,0,-1.0307767,0.89074886,-0.8130111,0.8392554,0.64891046,0.1254623,1.7269012,-2.5539567,1.3454592,0.11629273,-0.14028284,-0.16743453,1.196695,0.31015489
0.1,0.0,1.4999999999999998,0.5235987755982988,0.5235987755982988,0,-1.0274453,0.89424366,-0.81301886,0.8432584,0.6565779,0.12962532,2.0449235,-2.5386658,1.3488767,-0.12195101,-0.058680736,-0.09159496,1.235388,0.17670225
0.1,0.0,1.4999999999999998,0.5235987755982988,0.5235987755982988,0,-1.0312241,0.90011317,-0.8127396,0.83988523,0.6531364,0.13525887,0.20817861,-2.500265,1.3769734,-0.05093805,-0.047863353,-0.27299392,1.2310601,-0.62913996
0.1,0.0,1.4999999999999998,0.5235987755982988,0.5235987755982988,0,-1.0294526,0.89418876,-0.8141139,0.8405658,0.64519227,0.1224446,1.2810923,-2.551601,1.3395689,0.022799056,0.023967303,-0.05729378,1.2506067,0.8086047
0.1,0.0,1.4999999999999998,0.5235987755982988,0.5235987755982988,0,-1.0298458,0.8867107,-0.8125362,0.84240896,0.6468385,0.11760268,1.3360664,-2.5058043,1.3671603,-0.0058587906,-0.064255886,-0.051264323,1.0974518,-0.5716525
0.1,0.0,1.4999999999999998,0.5235987755982988,0.5235987755982988,0,-1.0298407,0.89400214,-0.810768,0.83927995,0.6612593,0.1281963,0.9517072,-2.5629601,1.3642449,0.07935334,-0.16783017,-0.3259329,1.2092382,1.6253462
0.1,0.0,1.4999999999999998,0.5235987755982988,0.5235987755982988,0,-1.0278718,0.8956529,-0.8130005,0.83938026,0.6520453,0.12538666,0.11854022,-2.5086436,1.3541471,0.4148958,-0.12047459,-0.248855,1.3255774,-0.8218941
0.1,0.0,1.4999999999999998,0.5235987755982988,0.5235987755982988,0,-1.0278676,0.89568377,-0.8136035,0.84029263,0.655056,0.14133446,0.9009658,-2.5819643,1.3740891,0.33338103,-0.15067688,-0.3187786,1.1431866,0.19550213
0.1,0.0,1.4999999999999998,0.5235987755982988,0.5235987755982988,0,-1.0297985,0.8974624,-0.81380194,0.83814424,0.6561995,0.14924309,2.0751216,-2.5409358,1.3763763,0.20335035,-0.09618258,-0.24855512,1.2590119,1.9514617
0.1,0.0,1.4999999999999998,0.5235987755982988,0.5235987755982988,0,-1.0282855,0.89800566,-0.81319225,0.84050095,0.65189195,0.1423862,0.047836386,-2.586746,1.3840264,0.36173907,-0.02803521,-0.47113997,1.1108627,1.1981881
0.1,0.0,1.4999999999999998,0.5235987755982988,0.5235987755982988,0,-1.0292513,0.9020444,-0.8135961,0.8371772,0.65109324,0.13416113,0.7989254,-2.5555155,1.3690972,-0.10380534,-0.1525883,-0.14944418,1.196749,-1.3316125
0.1,0.0,1.4999999999999998,0.5235987755982988,0.5235987755982988,0,-1.0294605,0.8994924,-0.81327087,0.83795637,0.6560073,0.13973208,0.95184624,-2.526562,1.3515974,0.14778124,-0.12084688,0.12506384,1.2705711,1.4989059
0.1,0.0,1.4999999999999998,0.5235987755982988,0.5235987755982988,0,-1.0285181,0.89538896,-0.81177574,0.8405077,0.65387225,0.14177263,0.6195232,-2.5827177,1.3979343,0.27995944,-0.169222,-0.45727062,1.2011576,0.46842596
0.1,0.0,1.4999999999999998,0.5235987755982988,0.5235987755982988,0,-1.0283837,0.89895976,-0.81383723,0.8388353,0.647562,0.1252164,1.3254163,-2.5391793,1.3647023,0.1825611,-0.023795474,-0.16521198,1.357047,-0.22179852
0.1,0.0,1.4999999999999998,0.5235987755982988,0.5235987755982988,0,-1.0295486,0.8890706,-0.8119812,0.8401926,0.6551315,0.12081517,0.5233956,-2.5850446,1.3733423,-0.05554896,-0.07816034,-0.5086031,1.1508379,1.8864875
0.1,0.0,1.4999999999999998,0.5235987755982988,0.5235987755982988,0,-1.0270952,0.8873493,-0.8142302,0.83730847,0.6547392,0.15951787,1.2987651,-2.604547,1.3464482,0.19528404,-0.09738785,-0.2094435,1.2549592,0.6255889
0.1,0.0,1.4999999999999998,0.5235987755982988,0.5235987755982988,0,-1.0294355,0.89433664,-0.81097955,0.84071195,0.6697687,0.16470675,0.7699868,-2.5259101,1.4047478,0.44544327,-0.13669756,-0.17585701,1.1457645,1.2624874
0.1,0.0,1.4999999999999998,0.5235987755982988,0.5235987755982988,0,-1.0288186,0.89783907,-0.81393623,0.83851874,0.6383092,0.12770559,0.8179436,-2.529812,1.3728127,0.2735948,-0.09826232,-0.10305408,1.1306636,-0.016677968
0.1,0.0,1.4999999999999998,0.5235987755982988,0.5235987755982988,0,-1.0298727,0.89781994,-0.8154827,0.84082794,0.64048845,0.11631116,1.1176082,-2.4604056,1.383705,0.35980564,-0.089555494,0.0074408823,1.2354827,2.3400164
0.1,0.0,1.4999999999999998,0.5235987755982988,0.5235987755982988,0,-1.030225,0.8870189,-0.8145663,0.83937645,0.64639896,0.12144571,0.38596964,-2.5586793,1.4127195,0.009108993,-0.10716116,-0.08235096,1.2443008,-1.2167614
0.1,0.0,1.4999999999999998,0.5235987755982988,0.5235987755982988,0,-1.0288622,0.88899565,-0.81330526,0.8408665,0.66057414,0.1409679,0.7946123,-2.5798793,1.3837502,0.27835318,0.04108487,-0.31046107,1.2549143,-0.21668153
0.1,0.0,1.4999999999999998,0.5235987755982988,0.5235987755982988,0,-1.0306222,0.8919889,-0.812148,0.8392778,0.6587637,0.12229128,0.7931486,-2.5468802,1.4267199,-0.02665371,-0.034642577,-0.5065222,1.0968455,0.25629374
0.1,0.0,1.4999999999999998,0.5235987755982988,0.5235987755982988,0,-1.029113,0.89683956,-0.8113229,0.84039766,0.63882285,0.13462472,1.0287969,-2.5454485,1.431954,0.009432629,-0.059233386,-0.0097207315,1.0799153,-1.4969186
0.1,0.0,1.4999999999999998,0.5235987755982988,0.5235987755982988,0,-1.0284619,0.8913539,-0.8125855,0.84025025,0.66897666,0.1282069,1.7285132,-2.561985,1.4132906,0.13193543,0.012282861,-0.27929667,1.0730891,0.96042556
0.1,0.0,1.4999999999999998,0.5235987755982988,0.5235987755982988,0,-1.0278999,0.8983299,-0.8146449,0.8387815,0.6592371,0.13020845,0.7314293,-2.5891802,1.3872912,-0.11584652,-0.04833657,0.23427391,1.0780904,0.016210211
0.1,0.0,1.4999999999999998,0.5235987755982988,0.5235987755982988,0,-1.0300955,0.8884445,-0.8131851,0.84103423,0.6606783,0.14448148,1.5011829,-2.5631385,1.3798003,0.36958978,-0.0092778,-0.3436826,1.1716201,0.8962924
0.1,0.0,1.4999999999999998,0.5235987755982988,0.5235987755982988,0,-1.0298277,0.8877769,-0.81214166,0.842371,0.6589831,0.13146453,0.80227804,-2.56438,1.4116572,0.30187526,-0.18880719,-0.4819548,1.1723317,0.28754097
0.1,0.0,1.4999999999999998,0.5235987755982988,0.5235987755982988,0,-1.02807,0.89538664,-0.81257975,0.8412028,0.6510677,0.12487342,1.2815869,-2.5797474,1.379386,0.12305373,-0.06503472,-0.2551619,1.2614458,0.4312484
0.1,0.0,1.4999999999999998,0.5235987755982988,0.5235987755982988,0,-1.0280002,0.8931754,-0.81421345,0.8407635,0.6566832,0.12859157,1.3439347,-2.5945458,1.3837259,0.18159226,-0.13680373,-0.052015703,1.1418918,1.2764263
0.1,0.0,1.4999999999999998,0.5235987755982988,0.5235987755982988,0,-1.0300455,0.9031875,-0.8123308,0.84079605,0.6444952,0.13184303,0.68238163,-2.564367,1.4166092,0.28837803,0.006087921,0.10378374,1.1494912,-1.2117063
0.1,0.0,1.4999999999999998,0.5235987755982988,0.5235987755982988,0,-1.0302207,0.8916217,-0.8116763,0.83993167,0.6483983,0.124914765,1.4148303,-2.5838816,1.4029642,0.22208008,-0.025335157,-0.6659241,1.2065206,-1.6252841
0.1,0.0,1.4999999999999998,0.5235987755982988,0.5235987755982988,0,-1.0290076,0.89374214,-0.8125123,0.8413597,0.644941,0.12234131,1.0843364,-2.4954963,1.4195035,0.20577395,-0.11077508,-0.22153893,1.238991,1.4691284
0.1,0.0,1.4999999999999998,0.5235987755982988,0.5235987755982988,0,-1.028149,0.8944072,-0.8127176,0.8442058,0.6391005,0.1349397,1.426346,-2.5702918,1.3929397,0.4328437,-0.05566155,-0.58264387,1.0807488,1.3236084
0.1,0.0,1.4999999999999998,0.5235987755982988,0.5235987755982988,0,-1.0306056,0.89065826,-0.8129455,0.8379082,0.667435,0.13627999,1.1049004,-2.624487,1.3746246,0.23058459,-0.07491239,0.044880804,1.2440008,0.4054823
0.1,0.0,1.4999999999999998,0.5235987755982988,0.5235987755982988,0,-1.0279415,0.8873905,-0.8137114,0.8407457,0.6613361,0.12954265,1.0598571,-2.6297774,1.4165492,0.2585704,-0.06067764,-0.2818789,0.9884592,1.9605308
0.1,0.0,1.4999999999999998,0.5235987755982988,0.5235987755982988,0,-1.0282277,0.90163,-0.8144602,0.8412876,0.64577013,0.12318436,0.81003094,-2.5519915,1.4351367,-0.06308985,-0.05836843,-0.5829906,1.1801602,-1.3757123
0.1,0.0,1.4999999999999998,0.5235987755982988,0.5235987755982988,0,-1.0269183,0.8931883,-0.8148996,0.84168553,0.6586568,0.12750019,1.1255131,-2.6078618,1.3773578,-0.009732592,-0.081354804,0.09146718,1.1117511,-0.736033
0.1,0.0,1.4999999999999998,0.5235987755982988,0.5235987755982988,0,-1.0295293,0.8933314,-0.8131545,0.8408252,0.666075,0.12207848,1.0293809,-2.606408,1.377869,0.0857313,-0.15353945,-0.3537914,1.2802861,0.2136312
0.1,0.0,1.4999999999999998,0.5235987755982988,0.5235987755982988,0,-1.0273483,0.89411515,-0.8123708,0.8405138,0.65261805,0.12215187,1.0988512,-2.6427398,1.3355803,0.017177228,-0.038121354,-0.18869698,1.048889,-0.46031633
0.1,0.0,1.4999999999999998,0.5235987755982988,0.5235987755982988,0,-1.0302659,0.88958794,-0.8124043,0.8398829,0.6552811,0.1212034,1.5761182,-2.493184,1.4170581,0.07389169,-0.047752243,-0.23004512,1.2326463,0.8048827
0.1,0.0,1.4999999999999998,0.5235987755982988,0.5235987755982988,0,-1.032052,0.8963262,-0.8120783,0.84115314,0.64574367,0.11790041,1.0342075,-2.5684319,1.4223297,0.031061068,-0.1196811,-0.025244309,1.1687073,1.4374746
0.1,0.0,1.4999999999999998,0.5235987755982988,0.5235987755982988,0,-1.0297227,0.8906965,-0.81479704,0.8407685,0.6451827,0.13957486,1.6951454,-2.6141033,1.3862022,0.12345742,-0.021915607,0.13611473,1.1877134,-0.49309936
0.1,0.0,1.4999999999999998,0.5235987755982988,0.5235987755982988,0,-1.0302223,0.8925861,-0.8133321,0.83850324,0.6579976,0.13797168,0.63654757,-2.6283195,1.3869313,0.028350476,-0.094418064,-0.033780333,1.3189487,1.4083215
0.1,0.0,1.4999999999999998,0.5235987755982988,0.5235987755982988,0,-1.028305,0.89650875,-0.8113848,0.83995503,0.65803456,0.13479593,1.2067639,-2.5822723,1.4041123,-0.29348084,-0.12396076,0.31026867,1.1757578,0.17813253
0.1,0.0,1.4999999999999998,0.5235987755982988,0.5235987755982988,0,-1.0295616,0.89356065,-0.81404275,0.8403572,0.64095694,0.14160062,1.4647727,-2.5635371,1.4418361,0.2653474,-0.061117154,-0.46811128,1.1924384,0.8592075
0.1,0.0,1.4999999999999998,0.5235987755982988,0.5235987755982988,0,-1.0291251,0.8944555,-0.814074,0.8372454,0.6575597,0.15352082,1.1871912,-2.5974889,1.4142965,0.12181166,-0.06780094,-0.0072188764,1.2479635,-0.43514562
0.1,0.0,1.4999999999999998,0.5235987755982988,0.5235987755982988,0,-1.0298842,0.8937595,-0.8154843,0.84028786,0.65516484,0.14786068,1.0955124,-2.5922616,1.4225227,-0.05501122,-0.046758477,0.15427928,1.268307,-1.2780864
0.1,0.0,1.4999999999999998,0.5235987755982988,0.5235987755982988,0,-1.0286868,0.8994214,-0.8136392,0.83873296,0.65898204,0.1325518,1.6729316,-2.5082881,1.3914548,0.28888765,-0.076407515,-0.023930231,1.1934055,-0.5138182
0.1,0.0,1.4999999999999998,0.5235987755982988,0.5235987755982988,0,-1.0292834,0.8963657,-0.8136932,0.83921385,0.66455317,0.1270707,0.74328005,-2.6530554,1.3997909,-0.010169887,-0.077094756,-0.25308108,1.0999081,-0.306914
0.1,0.0,1.4999999999999998,0.5235987755982988,0.5235987755982988,0,-1.0288591,0.89759165,-0.81227356,0.84094554,0.663266,0.13962159,0.84457564,-2.4734478,1.4222391,0.09087828,-0.081358574,0.16133288,1.2801871,-0.74627024
0.1,0.0,1.4999999999999998,0.5235987755982988,0.5235987755982988,0,-1.0285836,0.8946731,-0.8103644,0.8437021,0.6459632,0.12505841,1.7595329,-2.555721,1.3419358,0.07669234,-0.119676694,0.1173663,1.1893224,1.0785857
0.1,0.0,1.4999999999999998,0.5235987755982988,0.5235987755982988,0,-1.027912,0.89100796,-0.814525,0.8402996,0.66071165,0.1303498,1.5090293,-2.5036993,1.3748789,0.03968831,-0.08188941,0.26071346,1.1851864,-1.1285839
0.1,0.0,1.4999999999999998,0.5235987755982988,0.5235987755982988,0,-1.029905,0.8966924,-0.8110412,0.8377109,0.65917784,0.13526744,1.7647986,-2.5231233,1.3799199,0.06511822,-0.086083815,-0.39447132,1.1189646,-0.41220877
0.1,0.0,1.4999999999999998,0.5235987755982988,0.5235987755982988,0,-1.0306449,0.894765,-0.8127983,0.8370467,0.6440445,0.14831278,1.4632244,-2.5322254,1.3880808,0.31039396,-0.06736785,-0.03248129,1.3626285,0.13708515
0.1,0.0,1.4999999999999998,0.5235987755982988,0.5235987755982988,0,-1.02975,0.8906882,-0.81261677,0.84106475,0.65028435,0.134357,1.1279165,-2.589504,1.4147027,-0.062385608,-0.0810547,0.020042533,1.1865398,0.1925086
0.1,0.0,1.4999999999999998,0.5235987755982988,0.5235987755982988,0,-1.0288663,0.89079875,-0.8112007,0.84199846,0.6539288,0.13133489,1.5002352,-2.4972777,1.3775886,-0.20366983,-0.053116385,-0.61856055,1.2649459,1.0139251
0.1,0.0,1.4999999999999998,0.5235987755982988,0.5235987755982988,0,-1.028756,0.9003005,-0.81476283,0.8377952,0.640292,0.1299527,0.35965517,-2.5949898,1.3739834,0.2459864,-0.011000614,0.015196366,1.1412586,0.529278
0.1,0.0,1.4999999999999998,0.5235987755982988,0.5235987755982988,0,-1.0316525,0.888148,-0.81285596,0.8395923,0.6441274,0.14144996,0.50387496,-2.5921957,1.4222484,0.33157033,0.001727621,-0.20721494,1.176579,1.089086
0.1,0.0,1.4999999999999998,0.5235987755982988,0.5235987755982988,0,-1.0285256,0.89476013,-0.81429607,0.84012455,0.6642603,0.12814024,1.8973538,-2.5076838,1.3678418,0.13077837,-0.09467408,-0.11800381,1.1707855,0.8484818
0.1,0.0,1.4999999999999998,0.5235987755982988,0.5235987755982988,0,-1.028996,0.89678913,-0.8137275,0.83892286,0.65532,0.13287856,1.7698166,-2.4803944,1.4391402,0.09761462,-0.062397208,-0.14048956,1.1595231,-0.23493595
0.1,0.0,1.4999999999999998,0.5235987755982988,0.5235987755982988,0,-1.0265667,0.8992773,-0.814204,0.8367022,0.6504047,0.1361318,1.1287853,-2.5807116,1.3771304,0.0662022,-0.111411855,-0.22236416,1.1017888,0.4692586
0.1,0.0,1.4999999999999998,0.5235987755982988,0.5235987755982988,0,-1.0299364,0.8908018,-0.81260854,0.8385024,0.6589645,0.1360349,1.597529,-2.5945942,1.3461645,0.197103,-0.1138214,-0.43693525,1.0760459,0.10631859
0.1,0.0,1.4999999999999998,0.5235987755982988,0.5235987755982988,0,-1.0296311,0.8879913,-0.81323385,0.8400397,0.65296525,0.1441495,1.3240031,-2.5869567,1.3868461,0.3845562,-0.08180502,-0.1995713,1.1649308,1.1000186
0.1,0.0,1.4999999999999998,0.5235987755982988,0.5235987755982988,0,-1.0263327,0.9054241,-0.81287247,0.8388993,0.65060097,0.13891079,0.79282385,-2.6200414,1.3501278,0.293636,-0.07752008,-0.1004846,1.1897948,1.8254137
0.1,0.0,1.4999999999999998,0.5235987755982988,0.5235987755982988,0,-1.0299197,0.9015837,-0.8116926,0.83944374,0.6534035,0.11031737,1.6597539,-2.5658798,1.3883159,-0.015494512,-0.055992175,-0.5222374,1.041638,-0.5797885
0.1,0.0,1.4999999999999998,0.5235987755982988,0.5235987755982988,0,-1.0295703,0.9001696,-0.81352025,0.8387106,0.6362727,0.12932119,0.6828288,-2.5472133,1.4119128,0.22048865,-0.111869976,-0.50231206,1.1512091,0.5680243
0.1,0.0,1.4999999999999998,0.5235987755982988,0.5235987755982988,0,-1.029895,0.90014154,-0.8120439,0.83787775,0.6436616,0.13417827,1.6033648,-2.541483,1.4091014,0.21894792,-0.026369793,-0.21951324,1.1420585,1.0268532
0.1,0.0,1.4999999999999998,0.5235987755982988,0.5235987755982988,0,-1.0294969,0.901332,-0.8139265,0.83773434,0.6480541,0.12823549,0.56955266,-2.5921817,1.397933,-0.008768914,-0.004448554,0.507843,1.1844867,0.43611112
0.1,0.0,1.4999999999999998,0.5235987755982988,0.5235987755982988,0,-1.0290073,0.88721335,-0.81334794,0.841131,0.6540937,0.13387543,1.8653215,-2.598789,1.4199657,0.26680228,-0.020188514,-0.14905453,1.2063715,2.41535
0.1,0.0,1.4999999999999998,0.5235987755982988,0.5235987755982988,0,-1.029828,0.890539,-0.81308496,0.8397924,0.6678864,0.14287724,1.8700306,-2.564255,1.4567504,-0.4561912,-0.1344651,-0.46339452,1.2471436,1.7257538
0.1,0.0,1.4999999999999998,0.5235987755982988,0.5235987755982988,0,-1.027992,0.88821673,-0.8143757,0.84071267,0.6465505,0.12969215,1.7459915,-2.6433759,1.3318199,0.031083487,-0.0292052,-0.3485867,1.0804964,-0.21283704
0.1,0.0,1.4999999999999998,0.5235987755982988,0.5235987755982988,0,-1.0295162,0.88866425,-0.81304026,0.84240055,0.6498806,0.12367491,0.39432934,-2.6199818,1.393253,-0.0453517,0.006789302,-0.043474652,1.2333627,-0.5288224
0.1,0.0,1.4999999999999998,0.5235987755982988,0.5235987755982988,0,-1.0284407,0.89825577,-0.8142662,0.83881223,0.6597712,0.12955742,0.72156703,-2.591724,1.3853589,0.21881594,-0.0915328,-0.024902085,1.0884962,0.15230143
0.1,0.0,1.4999999999999998,0.5235987755982988,0.5235987755982988,0,-1.0271542,0.89767176,-0.8141754,0.8405216,0.65825224,0.13778456,2.0278275,-2.6288106,1.4263158,0.22026408,-0.14864157,0.025164168,1.2603334,0.7642239
0.1,0.0,1.4999999999999998,0.5235987755982988,0.5235987755982988,0,-1.0297399,0.9030498,-0.8132444,0.8406675,0.65396506,0.1439857,0.9278083,-2.5970778,1.439108,0.3549163,0.0004204573,-0.47628987,1.1486897,-0.94252765
0.1,0.0,1.4999999999999998,0.5235987755982988,0.5235987755982988,0,-1.0288054,0.8907947,-0.81201077,0.8390518,0.6636207,0.13448893,1.1265556,-2.4763398,1.4043664,-0.10550512,-0.05405023,0.08274939,1.2278991,0.67323303
0.1,0.0,1.4999999999999998,0.5235987755982988,0.5235987755982988,0,-1.027352,0.88867,-0.8128646,0.83919984,0.67089456,0.13165332,0.67263687,-2.478568,1.433003,0.03366988,-0.11494092,0.2148635,1.1662948,1.2525687
0.1,0.0,1.4999999999999998,0.5235987755982988,0.5235987755982988,0,-1.0271469,0.8885102,-0.812268,0.8431807,0.6570907,0.12355387,0.4262951,-2.4826643,1.395454,0.25161693,-0.16387269,-0.29246834,1.2306173,0.14987132
0.1,0.0,1.4999999999999998,0.5235987755982988,0.5235987755982988,0,-1.0270375,0.8921723,-0.8124641,0.841124,0.65930516,0.1446011,1.0200093,-2.4908333,1.3727587,0.113719895,-0.07814521,0.1648688,0.9964748,-1.690736
0.1,0.0,1.4999999999999998,0.5235987755982988,0.5235987755982988,0,-1.0288037,0.8964518,-0.812275,0.8380011,0.6494411,0.15249541,0.95197374,-2.5443273,1.3636096,0.40012157,-0.053870328,0.2219755,1.19475,-0.5581495
0.1,0.0,1.4999999999999998,0.5235987755982988,0.5235987755982988,0,-1.0289843,0.89639646,-0.8118577,0.83809793,0.6555745,0.14552045,0.24604519,-2.4139798,1.458723,0.06464622,-0.062369354,-0.267687,1.063213,0.075434096
0.1,0.0,1.4999999999999998,0.5235987755982988,0.5235987755982988,0,-1.0296181,0.8897208,-0.8115589,0.83823353,0.658798,0.1296624,0.19689955,-2.5201445,1.396403,0.00399553,-0.08382573,-0.48423722,1.2955179,-0.03991876
0.1,0.0,1.4999999999999998,0.5235987755982988,0.5235987755982988,0,-1.0280676,0.8932538,-0.8131058,0.83893675,0.6619337,0.13974541,0.85659486,-2.4850192,1.3666606,-0.1527262,-0.075093776,0.15815887,1.1139722,-0.9189699
0.1,0.0,1.4999999999999998,0.5235987755982988,0.5235987755982988,0,-1.0273976,0.8912947,-0.8151291,0.8372797,0.66462725,0.13399458,0.4945972,-2.46102,1.4366714,0.46981275,-0.037295487,-0.4200623,1.2143394,0.12669966
0.1,0.0,1.4999999999999998,0.5235987755982988,0.5235987755982988,0,-1.0291842,0.88804847,-0.813501,0.83913547,0.654017,0.14711024,0.97961754,-2.525811,1.3743105,0.07470157,-0.053407956,0.147512,1.0659966,0.18958305
0.1,0.0,1.4999999999999998,0.5235987755982988,0.5235987755982988,0,-1.0284759,0.89248216,-0.81184363,0.83903307,0.6663568,0.14344212,0.83969253,-2.5480838,1.3621043,-0.21179143,-0.037489854,-0.1674105,1.190938,1.5409778
0.1,0.0,1.4999999999999998,0.5235987755982988,0.5235987755982988,0,-1.0288548,0.8901044,-0.8123643,0.8379296,0.67342657,0.14720017,1.0815706,-2.5065606,1.3822343,0.051396906,-0.043606773,-0.0019130793,1.2441465,1.0441753
0.1,0.0,1.4999999999999998,0.5235987755982988,0.5235987755982988,0,-1.0292865,0.8800154,-0.81405807,0.8389043,0.66102564,0.13687915,-0.24862993,-2.567081,1.3580891,0.14610481,-0.09913279,0.2591033,1.2197301,0.32461324
0.1,0.0,1.4999999999999998,0.5235987755982988,0.5235987755982988,0,-1.0266665,0.8908925,-0.81329256,0.8393642,0.6697662,0.13667141,1.1818722,-2.5290143,1.3796693,0.5500354,-0.09298891,-0.16666329,1.1303222,0.16873494
0.1,0.0,1.4999999999999998,0.5235987755982988,0.5235987755982988,0,-1.0275882,0.8866509,-0.8145253,0.84267694,0.64888585,0.14765272,0.9299333,-2.463248,1.3767208,-0.11342482,-0.13375388,-0.13320643,1.2209638,-0.23640925
0.1,0.0,1.4999999999999998,0.5235987755982988,0.5235987755982988,0,-1.0282693,0.88948184,-0.8135556,0.83907115,0.6650493,0.14215487,1.0923144,-2.53194,1.3767854,0.1742183,-0.040920313,-0.08291277,1.2376639,1.0174485
0.1,0.0,1.4999999999999998,0.5235987755982988,0.5235987755982988,0,-1.0265077,0.8879851,-0.815067,0.8414361,0.6559889,0.14438592,1.1596216,-2.5340583,1.368649,0.0055875788,-0.11847236,-0.21413423,1.1430397,-0.08125208
0.1,0.0,1.4999999999999998,0.5235987755982988,0.5235987755982988,0,-1.0281936,0.89166474,-0.813499,0.83868927,0.6574895,0.14277835,0.20110962,-2.4993582,1.3739818,0.2545372,-0.06423991,-0.26213863,1.2591879,2.2306848
0.1,0.0,1.4999999999999998,0.5235987755982988,0.5235987755982988,0,-1.0307908,0.8933643,-0.81138295,0.83827686,0.6477956,0.14810582,0.83748513,-2.4706643,1.4395463,0.036678065,-0.055446494,-0.34122887,1.0734044,-0.4695286
0.1,0.0,1.4999999999999998,0.5235987755982988,0.5235987755982988,0,-1.0294713,0.8886672,-0.81038874,0.8408124,0.6565474,0.13083999,0.37828058,-2.5074763,1.409619,0.24118818,-0.06621743,-0.6660894,1.198926,0.84233224
0.1,0.0,1.4999999999999998,0.5235987755982988,0.5235987755982988,0,-1.0279369,0.89126986,-0.8128639,0.83993244,0.67215896,0.14745992,0.840441,-2.5102851,1.3816161,-0.07429408,-0.030581186,-0.5063511,1.2285458,-2.1166713
0.1,0.0,1.4999999999999998,0.5235987755982988,0.5235987755982988,0,-1.0297735,0.88800126,-0.81064755,0.8374095,0.66718847,0.13337901,0.9898303,-2.4977925,1.3767891,0.43841606,-0.053008184,-0.03681775,1.1997647,0.54724604
0.1,0.0,1.4999999999999998,0.5235987755982988,0.5235987755982988,0,-1.0290385,0.8953978,-0.81226605,0.8367919,0.65921,0.14310935,0.64949626,-2.5381942,1.3853109,0.015778083,-0.113847986,-0.13589677,1.2654687,-0.039308228
0.1,0.0,1.4999999999999998,0.5235987755982988,0.5235987755982988,0,-1.0295972,0.8925933,-0.8118385,0.8391779,0.66090876,0.1378473,1.1043339,-2.5051363,1.3756744,0.1277944,-0.053759567,0.22057322,1.1519032,0.21364097
0.1,0.0,1.4999999999999998,0.5235987755982988,0.5235987755982988,0,-1.0265528,0.8805653,-0.81454164,0.84018826,0.66508275,0.14128765,0.2758904,-2.4882638,1.3666636,0.16191423,-0.13355584,-0.20775506,1.1013778,0.1416077
0.1,0.0,1.4999999999999998,0.5235987755982988,0.5235987755982988,0,-1.0292989,0.88161576,-0.81475884,0.83888274,0.657954,0.14135575,1.7391016,-2.4383996,1.3950728,0.15948212,-0.09650992,0.04292452,1.1630546,0.43217897
0.1,0.0,1.4999999999999998,0.5235987755982988,0.5235987755982988,0,-1.0289489,0.8877024,-0.811556,0.8385488,0.678732,0.12774664,0.9268579,-2.5180178,1.4013257,0.090254664,-0.074620485,-0.3572893,1.1742401,0.5141452
0.1,0.0,1.4999999999999998,0.5235987755982988,0.5235987755982988,0,-1.028082,0.8938109,-0.8116686,0.8390649,0.64889467,0.14640091,1.1423364,-2.4895492,1.354637,0.25434804,-0.0378461,-0.115020745,1.2101398,2.1216462
0.1,0.0,1.4999999999999998,0.5235987755982988,0.5235987755982988,0,-1.0280676,0.8868321,-0.81304276,0.8386052,0.66210693,0.13779029,1.1449717,-2.456547,1.3539553,0.021518651,-0.17624316,0.028108845,1.1724466,0.5951964
0.1,0.0,1.4999999999999998,0.5235987755982988,0.5235987755982988,0,-1.0297469,0.88642883,-0.81069076,0.8401941,0.65780663,0.12600154,0.887963,-2.515013,1.3982339,0.039578322,-0.04061707,-0.071026646,1.1135774,1.0532469
0.1,0.0,1.4999999999999998,0.5235987755982988,0.5235987755982988,0,-1.0293721,0.8881474,-0.8135864,0.83944577,0.6699246,0.14275785,0.35648072,-2.5389035,1.3347617,0.33192894,0.037796143,0.1931994,1.183442,0.5940715
0.1,0.0,1.4999999999999998,0.5235987755982988,0.5235987755982988,0,-1.0289366,0.8970758,-0.8111304,0.8377912,0.66654205,0.15081483,0.725979,-2.520446,1.3977177,-0.29750293,-0.09724206,-0.08212093,1.2671351,1.8825682
0.1,0.0,1.4999999999999998,0.5235987755982988,0.5235987755982988,0,-1.0280932,0.8902847,-0.8129714,0.83977145,0.66425544,0.14413664,1.0231055,-2.5766594,1.3725145,-0.016107753,-0.08912468,-0.28325635,1.0846701,-0.42322913
0.1,0.0,1.4999999999999998,0.5235987755982988,0.5235987755982988,0,-1.0304188,0.8861568,-0.8123263,0.83868706,0.66777444,0.13435337,0.42142832,-2.5606835,1.3871323,-0.078095615,-0.062502466,-0.15335761,1.1526902,-0.628129
0.1,0.0,1.4999999999999998,0.5235987755982988,0.5235987755982988,0,-1.0269365,0.8953192,-0.81325346,0.84067696,0.66428536,0.15750396,0.7468055,-2.4244227,1.4431751,-0.08008696,-0.15944108,0.04911255,1.1289549,0.6020654
0.1,0.0,1.4999999999999998,0.5235987755982988,0.5235987755982988,0,-1.0294546,0.89033854,-0.81190324,0.8407768,0.6364992,0.14174674,0.977162,-2.508817,1.3943473,-0.037335508,-0.13036178,-0.023329576,1.2019838,-1.6139988
0.1,0.0,1.4999999999999998,0.5235987755982988,0.5235987755982988,0,-1.02641,0.89396536,-0.81385684,0.84111774,0.65154535,0.14430648,0.9209963,-2.5619729,1.3800768,0.12819923,-0.07487851,-0.18127576,1.2757595,0.4296774
0.1,0.0,1.4999999999999998,0.5235987755982988,0.5235987755982988,0,-1.0277065,0.8973764,-0.81087786,0.8384793,0.66113865,0.12985982,1.1484046,-2.542925,1.4006019,0.047703203,-0.068568856,-0.13158153,1.129184,0.5619291
0.1,0.0,1.4999999999999998,0.5235987755982988,0.5235987755982988,0,-1.0267985,0.9024196,-0.81200033,0.84066117,0.64470536,0.1304095,0.41939482,-2.5531757,1.4291083,0.0017042656,-0.010910441,-0.53587943,1.1310357,0.39624077
0.1,0.0,1.4999999999999998,0.5235987755982988,0.5235987755982988,0,-1.0306003,0.8905747,-0.8152944,0.83671933,0.6404553,0.12058963,1.0331066,-2.5745947,1.4003233,0.00465399,-0.14026298,-0.51173383,1.0966519,0.070525974
0.1,0.0,1.4999999999999998,0.5235987755982988,0.5235987755982988,0,-1.0288634,0.891486,-0.8123976,0.836376,0.64425427,0.13327205,1.3043116,-2.5119534,1.414941,-0.079499036,-0.15151861,0.06790651,1.2756095,0.731218
0.1,0.0,1.4999999999999998,0.5235987755982988,0.5235987755982988,0,-1.0298908,0.8851089,-0.8117183,0.84174716,0.6714863,0.14911327,0.45506737,-2.465165,1.4139867,0.07440289,-0.110136814,0.018401155,1.2744684,0.17853957
0.1,0.0,1.4999999999999998,0.5235987755982988,0.5235987755982988,0,-1.0276779,0.89194113,-0.81218976,0.8399633,0.649126,0.14425316,0.88729286,-2.5508275,1.3940513,-0.008089783,-0.13878265,0.011034016,1.2049965,-0.062340233
0.1,0.0,1.4999999999999998,0.5235987755982988,0.5235987755982988,0,-1.0301237,0.8924326,-0.81327856,0.83882314,0.64567286,0.14871791,1.503991,-2.5536082,1.4559602,0.18461248,-0.075102046,0.11263865,1.2343475,0.38807657
0.1,0.0,1.4999999999999998,0.5235987755982988,0.5235987755982988,0,-1.0280459,0.8927223,-0.8135972,0.84062415,0.65125954,0.1327989,0.7940892,-2.6587665,1.3736454,0.10954355,-0.00057200703,0.081048265,1.2113986,-0.9407363
0.1,0.0,1.4999999999999998,0.5235987755982988,0.5235987755982988,0,-1.0290118,0.89628196,-0.81384224,0.84133404,0.6529312,0.13987327,0.7962703,-2.6085815,1.440375,0.35286114,-0.13671029,-0.39633206,1.1836395,-0.9180194
0.1,0.0,1.4999999999999998,0.5235987755982988,0.5235987755982988,0,-1.0297374,0.89491165,-0.81380206,0.837925,0.64414185,0.14717807,1.1703451,-2.6209755,1.4168259,0.053600423,-0.1412126,0.10261954,1.1489918,0.6122305
0.1,0.0,1.4999999999999998,0.5235987755982988,0.5235987755982988,0,-1.0307902,0.8970109,-0.81176215,0.8404063,0.65481406,0.12944445,0.57579464,-2.6591394,1.389944,0.42591885,-0.007306834,-0.19044863,1.1473581,-0.5884491
0.1,0.0,1.4999999999999998,0.5235987755982988,0.5235987755982988,0,-1.028722,0.8878386,-0.8097053,0.839814,0.65554816,0.13775282,1.3646312,-2.5402708,1.3810738,0.0010304669,-0.052479982,-0.4416755,1.1982704,0.22428375
0.1,0.0,1.4999999999999998,0.5235987755982988,0.5235987755982988,0,-1.0280671,0.8916475,-0.8125321,0.8393087,0.6537381,0.15102981,0.77509505,-2.4360845,1.4400615,-0.30066046,-0.055385545,0.20474628,1.2661828,-0.43427226
0.1,0.0,1.4999999999999998,0.5235987755982988,0.5235987755982988,0,-1.0294036,0.8837205,-0.8128269,0.840173,0.6517894,0.14368638,1.486626,-2.497813,1.4046599,-0.09773514,-0.07670124,-0.06393655,1.2057062,0.93854624
0.1,0.0,1.4999999999999998,0.5235987755982988,0.5235987755982988,0,-1.0277692,0.8932462,-0.81128025,0.84095806,0.65786904,0.12838063,1.7198287,-2.526483,1.374469,0.12067527,-0.08076903,-0.49131456,1.1884457,0.4611008
0.1,0.0,1.4999999999999998,0.5235987755982988,0.5235987755982988,0,-1.0271174,0.88906974,-0.81307936,0.8407373,0.66905403,0.12947524,1.488913,-2.4566283,1.3960545,0.050833266,-0.061038684,-0.29933575,1.190697,0.9248772
0.1,0.0,1.4999999999999998,0.5235987755982988,0.5235987755982988,0,-1.0278956,0.89291126,-0.8130716,0.83822304,0.6620012,0.14457968,0.37521857,-2.4990435,1.3742172,-0.014970241,-0.03458601,-0.4967061,1.1114948,-0.3159777
0.1,0.0,1.4999999999999998,0.5235987755982988,0.5235987755982988,0,-1.028468,0.89296603,-0.8123486,0.8396905,0.65778184,0.1428154,1.5363756,-2.508517,1.3884525,-0.07804889,-0.020314375,-0.04605525,1.1821758,0.39353937
0.1,0.0,1.4999999999999998,0.5235987755982988,0.5235987755982988,0,-1.0277226,0.89097226,-0.8106208,0.84135044,0.6547007,0.13572906,1.4601158,-2.5421367,1.3664614,0.01734382,-0.0416572,-0.21718746,1.1232253,0.49524412
0.1,0.0,1.4999999999999998,0.5235987755982988,0.5235987755982988,0,-1.0286782,0.8814764,-0.81140137,0.8416996,0.6599646,0.14084533,1.7191069,-2.466523,1.415674,0.3456096,-0.09894243,0.0013404263,1.2018952,0.60955024
0.1,0.0,1.4999999999999998,0.5235987755982988,0.5235987755982988,0,-1.029581,0.8870024,-0.81290686,0.8402405,0.65948915,0.13797858,1.5231978,-2.5012696,1.3851459,0.12656465,-0.080973096,-0.2206928,1.1907549,0.18447204
0.1,0.0,1.4999999999999998,0.5235987755982988,0.5235987755982988,0,-1.0281775,0.8949019,-0.8118439,0.8379271,0.65415186,0.14870061,1.4236736,-2.511171,1.3691666,-0.052888013,-0.07647752,0.11732688,1.2215824,2.02065
0.1,0.0,1.4999999999999998,0.5235987755982988,0.5235987755982988,0,-1.0272402,0.89246035,-0.81223524,0.8404832,0.66123635,0.12736438,1.6695458,-2.4486108,1.4503428,0.46579605,-0.072885215,-0.55956596,1.116713,0.22953047
0.1,0.0,1.4999999999999998,0.5235987755982988,0.5235987755982988,0,-1.0298703,0.892482,-0.8118412,0.84022695,0.6421981,0.15355407,0.5286239,-2.5102546,1.3773012,0.5986501,-0.11413153,0.4062374,1.2817867,-1.2890064
0.1,0.0,1.4999999999999998,0.5235987755982988,0.5235987755982988,0,-1.0293951,0.8802073,-0.8131405,0.8422221,0.6534965,0.12932426,0.52664226,-2.4962301,1.3822088,0.2559919,0.002205393,0.03108943,1.2776588,-0.1631073
0.1,0.0,1.4999999999999998,0.5235987755982988,0.5235987755982988,0,-1.029747,0.88402367,-0.81300986,0.8387432,0.6676643,0.1421704,0.6735138,-2.4829714,1.3908092,0.13889258,-0.109551586,-0.320722,1.1827359,0.83818775
0.1,0.0,1.4999999999999998,0.5235987755982988,0.5235987755982988,0,-1.0290823,0.89197636,-0.812355,0.83872205,0.6442652,0.15461034,1.8058442,-2.5124493,1.3802185,0.2887603,0.024916539,-0.09024205,1.2875568,-0.9092844
0.1,0.0,1.4999999999999998,0.5235987755982988,0.5235987755982988,0,-1.0318913,0.88534766,-0.8125347,0.8388298,0.64874136,0.15139581,1.5793146,-2.5251203,1.3740584,0.08504408,-0.06470808,-0.23180024,1.3460338,0.8958595
0.1,0.0,1.4999999999999998,0.5235987755982988,0.5235987755982988,0,-1.0304177,0.8834984,-0.81447417,0.8373282,0.6569703,0.15747374,0.33858517,-2.4565263,1.3654246,0.060479205,-0.07918345,-0.17977823,1.2271122,0.26335412
0.1,0.0,1.4999999999999998,0.5235987755982988,0.5235987755982988,0,-1.0285429,0.8840409,-0.8139036,0.8401624,0.66102654,0.14118609,1.5961001,-2.5710075,1.3394377,0.17004429,-0.15457036,-0.27613935,1.1814853,-0.39538231
0.1,0.0,1.4999999999999998,0.5235987755982988,0.5235987755982988,0,-1.0282285,0.88787544,-0.812933,0.8412821,0.6566425,0.1361668,1.8623743,-2.513873,1.3886764,0.10816523,-0.098456405,0.13580392,1.2431678,0.80424947
0.1,0.0,1.4999999999999998,0.5235987755982988,0.5235987755982988,0,-1.0274086,0.8861523,-0.8135263,0.8436631,0.6589967,0.14011504,0.59626013,-2.4334621,1.4111669,-0.09984327,-0.05686511,-0.49908414,1.2300037,0.14651586
0.1,0.0,1.4999999999999998,0.5235987755982988,0.5235987755982988,0,-1.0297594,0.8960689,-0.81149095,0.8372774,0.66584796,0.14661416,0.4606459,-2.5129545,1.3508674,-0.21306911,-0.15361094,-0.1365704,1.199468,0.27760294
0.1,0.0,1.4999999999999998,0.5235987755982988,0.5235987755982988,0,-1.0294645,0.89216113,-0.81175107,0.8403948,0.66664445,0.14724874,0.21981573,-2.4580188,1.3774406,0.24964896,-0.12890129,-0.18708542,1.2609835,0.60163003
0.1,0.0,1.4999999999999998,0.5235987755982988,0.5235987755982988,0,-1.028164,0.886911,-0.8116154,0.8398858,0.65602094,0.14278786,0.6505163,-2.4724019,1.3939638,0.03750236,-0.09672189,-0.49887064,1.1883659,0.15676197
0.1,0.0,1.4999999999999998,0.5235987755982988,0.5235987755982988,0,-1.0287597,0.8944415,-0.81159925,0.8388942,0.6576396,0.13157226,2.3921976,-2.5302699,1.3879442,-0.02213632,-0.0785821,-0.29908398,1.2312754,0.6495801
0.1,0.0,1.4999999999999998,0.5235987755982988,0.5235987755982988,0,-1.0279115,0.8877315,-0.8116167,0.8387157,0.6598111,0.14978643,1.0958239,-2.5090435,1.4061745,-0.07744922,-0.10780557,0.02702919,1.2576828,-0.108056925
0.1,0.0,1.4999999999999998,0.5235987755982988,0.5235987755982988,0,-1.0291688,0.8920863,-0.81197137,0.8397075,0.67263293,0.13812295,1.8814987,-2.4942086,1.3824944,0.23618685,-0.12626152,-0.20391078,1.1478877,0.81301665
0.1,0.0,1.4999999999999998,0.5235987755982988,0.5235987755982988,0,-1.0295253,0.8920554,-0.8122886,0.8380879,0.6723804,0.13693243,1.6544561,-2.4353166,1.3962083,-0.20715453,-0.06518391,0.030173525,1.0823326,0.079856396
0.1,0.0,1.4999999999999998,0.5235987755982988,0.5235987755982988,0,-1.0281123,0.8910156,-0.8109443,0.84181017,0.65023893,0.15064035,1.504651,-2.4438195,1.4136709,-0.20786911,-0.16932337,-0.3072411,1.2701397,1.724613
0.1,0.0,1.4999999999999998,0.5235987755982988,0.5235987755982988,0,-1.0290711,0.8917057,-0.8131799,0.83825177,0.65399224,0.14080192,0.5002867,-2.5239055,1.3946735,-0.13662493,-0.059397604,-0.19860494,1.1879821,-0.063583106
0.1,0.0,1.4999999999999998,0.5235987755982988,0.5235987755982988,0,-1.0284829,0.89425594,-0.8137592,0.837916,0.6660596,0.1477311,0.8035147,-2.5192196,1.4053044,0.26053548,-0.09816237,-0.5323607,1.1000818,-0.097810805
0.1,0.0,1.4999999999999998,0.5235987755982988,0.5235987755982988,0,-1.0260187,0.8919765,-0.8130536,0.83958685,0.6568052,0.13340092,0.56636304,-2.4381468,1.407956,0.014493467,-0.031636268,-0.3299093,1.1892614,0.47997576
0.1,0.0,1.4999999999999998,0.5235987755982988,0.5235987755982988,0,-1.0276617,0.88966936,-0.8126579,0.84040743,0.65335673,0.13258493,1.6116862,-2.5303667,1.3941673,0.16983962,-0.041846257,-0.045782473,1.203584,0.72343564
0.1,0.0,1.4999999999999998,0.5235987755982988,0.5235987755982988,0,-1.0287654,0.89219177,-0.81142944,0.8395705,0.65923744,0.12999298,0.5684461,-2.4713404,1.3693668,0.080097236,-0.084678136,-0.19494829,1.1228886,1.2336293
0.1,0.0,1.4999999999999998,0.5235987755982988,0.5235987755982988,0,-1.0270787,0.8873327,-0.81088877,0.8424673,0.6586007,0.14462815,1.5109146,-2.53796,1.3809916,0.3326112,-0.16866116,-0.21881588,1.123422,0.8929032
0.1,0.0,1.4999999999999998,0.5235987755982988,0.5235987755982988,0,-1.0277338,0.88506263,-0.8158259,0.83931637,0.65752053,0.15001023,1.611743,-2.42523,1.4368594,0.26356208,-0.112492345,0.03825419,1.1920114,-0.21936047
0.1,0.0,1.4999999999999998,0.5235987755982988,0.5235987755982988,0,-1.0283363,0.8884302,-0.81341934,0.8405261,0.65513784,0.1429915,0.5205597,-2.5108106,1.4054501,-0.010915235,-0.029071474,-0.09647392,1.1767448,-0.8076996
0.1,0.0,1.4999999999999998,0.5235987755982988,0.5235987755982988,0,-1.0286263,0.89829254,-0.8105786,0.8393109,0.6669612,0.15094262,1.5454873,-2.4874763,1.400127,0.005105686,-0.13194813,-0.26309484,1.2874143,-0.6021391
0.1,0.0,1.4999999999999998,0.5235987755982988,0.5235987755982988,0,-1.0282345,0.8829798,-0.81413656,0.8410213,0.6538446,0.12750602,1.226126,-2.511039,1.4008039,0.28642064,-0.060149465,-0.49156138,1.1632094,-2.12363
0.1,0.0,1.4999999999999998,0.5235987755982988,0.5235987755982988,0,-1.0295442,0.885167,-0.81277984,0.8380159,0.6558379,0.15424907,1.3566377,-2.5347471,1.3832313,-0.047803182,-0.020152671,-0.29723707,1.1607047,0.5671233
0.1,0.0,1.4999999999999998,0.5235987755982988,0.5235987755982988,0,-1.0280755,0.8891921,-0.81187606,0.83773214,0.6690184,0.1378123,1.444748,-2.5690277,1.3766943,0.07255126,-0.042702753,-0.38453645,1.1276408,-0.12724015
0.1,0.0,1.4999999999999998,0.5235987755982988,0.5235987755982988,0,-1.0269297,0.8901463,-0.8122254,0.84319186,0.64858127,0.13800918,1.398608,-2.5310287,1.4095409,-0.05834694,-0.095030434,-0.33491877,1.1996078,1.7387327
0.1,0.0,1.4999999999999998,0.5235987755982988,0.5235987755982988,0,-1.0298635,0.8875154,-0.8121189,0.8388505,0.65454346,0.12661241,1.497068,-2.5731757,1.3720144,0.217798,0.009327816,-0.21385705,1.0866008,-0.64745206
0.1,0.0,1.4999999999999998,0.5235987755982988,0.5235987755982988,0,-1.0288957,0.88405854,-0.81220686,0.84089863,0.6698781,0.12500203,1.343366,-2.4647448,1.4529616,0.07648372,0.05457467,-0.044323508,1.1963844,-9.352815e-05
0.1,0.0,1.4999999999999998,0.5235987755982988,0.5235987755982988,0,-1.0285945,0.8886057,-0.81396645,0.8381653,0.65470713,0.14817268,1.176733,-2.520227,1.3647648,0.14234076,-0.055007398,-0.7383636,1.1664926,0.74345934
0.1,0.0,1.4999999999999998,0.5235987755982988,0.5235987755982988,0,-1.029424,0.87737745,-0.8128236,0.8393775,0.6619196,0.16711354,0.8934684,-2.4970708,1.3925745,0.024547394,-0.090103805,-0.82233495,1.2003348,0.6134049
0.1,0.0,1.4999999999999998,0.5235987755982988,0.5235987755982988,0,-1.0287888,0.890145,-0.8128317,0.83910435,0.6672107,0.13940191,0.47383556,-2.579822,1.3777853,0.016256223,-0.12730019,-0.28754848,1.0897201,0.9868304
0.1,0.0,1.4999999999999998,0.5235987755982988,0.5235987755982988,0,-1.0276152,0.8872463,-0.81304765,0.8401905,0.6537182,0.1443104,1.2216088,-2.581664,1.3699148,0.45237458,-0.09128385,-0.2665847,1.1749805,-0.4531363
0.1,0.0,1.4999999999999998,0.5235987755982988,0.5235987755982988,0,-1.0290681,0.89392537,-0.8129766,0.83801436,0.66575736,0.11888084,0.44581187,-2.6175075,1.3863151,0.02924563,-0.087349586,0.026472861,1.2112583,0.2197621
0.1,0.0,1.4999999999999998,0.5235987755982988,0.5235987755982988,0,-1.0283846,0.8852978,-0.81267875,0.8430739,0.6655818,0.14579739,1.8075281,-2.5112073,1.4085559,-0.18896928,-0.06913542,0.02674939,1.2824888,0.758691
0.1,0.0,1.4999999999999998,0.5235987755982988,0.5235987755982988,0,-1.0307282,0.89609176,-0.81487715,0.8394076,0.6578897,0.15301491,1.4082739,-2.6455214,1.4036909,0.024833128,0.008871956,-0.03416538,1.1329769,0.77531654
0.1,0.0,1.4999999999999998,0.5235987755982988,0.5235987755982988,0,-1.0281814,0.88794166,-0.8131672,0.84185064,0.656708,0.14390062,1.6078572,-2.4349208,1.3866066,-0.12599698,-0.17912607,-0.27316967,1.1212109,-0.32370862
0.1,0.0,1.4999999999999998,0.5235987755982988,0.5235987755982988,0,-1.0286756,0.8851825,-0.81308895,0.84039116,0.6546491,0.13899954,1.2186539,-2.530674,1.4148414,-0.13772547,-0.060199473,-0.014334868,1.2011119,1.3023798
0.1,0.0,1.4999999999999998,0.5235987755982988,0.5235987755982988,0,-1.0292691,0.8916709,-0.8125004,0.83894396,0.66263145,0.14263083,1.4194027,-2.4612784,1.3853507,0.24396275,-0.119583435,-0.2540344,1.2148982,0.5179737
