sanky1234/BimanualDexCatch/isaacgymenvs/cem_results/football_pose_-0.1_-0.1_1.2999999999999998_0.5235987755982988_-0.5235987755982988_0_2025-05-25.csv
x,y,z,roll,pitch,yaw,robot1/joint1,robot1/joint2,robot1/joint3,robot1/joint4,robot1/joint5,robot1/joint6,robot1/joint7,robot2/joint1,robot2/joint2,robot2/joint3,robot2/joint4,robot2/joint5,robot2/joint6,robot2/joint7
-0.1,-0.1,1.2999999999999998,0.5235987755982988,-0.5235987755982988,0,0.006035045,-0.012476692,2.0011463,0.59977853,1.0861858,0.3148678,1.1888382,0.6004333,1.248382,-0.0828774,0.008042391,0.23978917,1.3554279,0.117547594
-0.1,-0.1,1.2999999999999998,0.5235987755982988,-0.5235987755982988,0,0.0058389595,-0.014198029,1.9966322,0.59905833,1.0866256,0.31127092,1.181137,0.6372902,1.1869235,-0.06894542,-0.06933654,0.19579633,1.3340626,0.62604755
-0.1,-0.1,1.2999999999999998,0.5235987755982988,-0.5235987755982988,0,0.0041481294,-0.013668596,2.000758,0.6002156,1.0763805,0.30866906,1.1725483,0.639507,1.1176289,-0.07828228,-0.10548392,-0.05191797,1.3393159,0.17296056
-0.1,-0.1,1.2999999999999998,0.5235987755982988,-0.5235987755982988,0,0.0059161377,-0.013802462,1.9973931,0.60101724,1.0846694,0.32036093,1.1855233,0.6601428,1.113293,0.089463584,-0.09949115,0.3194233,1.3032191,1.0200305
-0.1,-0.1,1.2999999999999998,0.5235987755982988,-0.5235987755982988,0,0.008661517,-0.015742708,1.9980404,0.6010746,1.0782355,0.31218734,1.1981721,0.6685954,1.1376086,-0.1598851,-0.01693937,0.2812892,1.3891784,1.3096108
-0.1,-0.1,1.2999999999999998,0.5235987755982988,-0.5235987755982988,0,0.0076187933,-0.014467052,1.9992161,0.60128284,1.0835612,0.32716128,1.1683168,0.94082767,1.2068813,0.14270158,-0.044868164,0.1734957,1.2894864,0.19285809
-0.1,-0.1,1.2999999999999998,0.5235987755982988,-0.5235987755982988,0,0.0056135934,-0.013752039,1.9989984,0.60084337,1.0798723,0.3116777,1.1587367,0.8390096,1.177123,-0.089676976,-0.03160667,-0.012153356,1.3470063,-0.2881287
-0.1,-0.1,1.2999999999999998,0.5235987755982988,-0.5235987755982988,0,0.0062947427,-0.01393285,2.0011992,0.5998664,1.0715154,0.31994236,1.1757407,0.6804346,1.2057202,0.09325243,-0.054953262,-0.19677559,1.2607733,0.9304118
-0.1,-0.1,1.2999999999999998,0.5235987755982988,-0.5235987755982988,0,0.0073080673,-0.010956144,2.0018153,0.5993449,1.084842,0.3143731,1.1447914,0.5858919,1.1902857,-0.14715017,-0.048610143,0.15210263,1.2800177,0.5762084
-0.1,-0.1,1.2999999999999998,0.5235987755982988,-0.5235987755982988,0,0.005854863,-0.011383106,2.002322,0.60000235,1.0834423,0.3126436,1.1791462,0.6091471,1.2018191,0.052647095,-0.081297085,-0.046298265,1.3058987,-0.15187125
-0.1,-0.1,1.2999999999999998,0.5235987755982988,-0.5235987755982988,0,0.005684884,-0.011568223,2.0039654,0.5990145,1.087629,0.31416956,1.1757398,0.56926364,1.2268101,-0.04876265,-0.06915192,0.12741628,1.3089206,-0.45103127
-0.1,-0.1,1.2999999999999998,0.5235987755982988,-0.5235987755982988,0,0.0048669763,-0.013144457,2.001054,0.60065657,1.0885082,0.31280565,1.1711346,0.7023191,1.1228414,-0.17279105,-0.033572726,-0.139618,1.2432185,-0.4003699
-0.1,-0.1,1.2999999999999998,0.5235987755982988,-0.5235987755982988,0,0.0053448984,-0.016045209,2.0009542,0.5995762,1.0843956,0.32039225,1.1569086,0.56304246,1.1084651,-0.0023721398,-0.07767614,-0.049325038,1.2820281,0.24999149
-0.1,-0.1,1.2999999999999998,0.5235987755982988,-0.5235987755982988,0,0.009042376,-0.013797355,1.9976598,0.5990965,1.078971,0.32296726,1.185224,0.74964565,1.1447312,0.060183715,-0.06716315,0.19452389,1.2860656,-0.46649092
-0.1,-0.1,1.2999999999999998,0.5235987755982988,-0.5235987755982988,0,0.006317719,-0.014219676,1.9975319,0.601295,1.0842857,0.32201275,1.1729485,0.6203112,1.2084891,0.084609605,-0.09627564,0.05832928,1.2835339,-0.035470746
-0.1,-0.1,1.2999999999999998,0.5235987755982988,-0.5235987755982988,0,0.0071810116,-0.011986772,2.0028808,0.5992841,1.0944848,0.3135081,1.1846437,0.8420541,1.1834403,0.062114034,-0.048250295,0.08259233,1.306193,-0.91700506
-0.1,-0.1,1.2999999999999998,0.5235987755982988,-0.5235987755982988,0,0.008612349,-0.012515877,2.0030987,0.60118407,1.0674825,0.31255025,1.1976771,0.7649556,1.1037557,-0.064291686,-0.044814184,0.041054603,1.3134626,0.74593866
-0.1,-0.1,1.2999999999999998,0.5235987755982988,-0.5235987755982988,0,0.0065286336,-0.0121793235,1.997007,0.6002547,1.079763,0.30517218,1.1727742,0.5807296,1.1810827,-0.08392319,-0.096788816,-0.1023852,1.2467791,-0.07973858
-0.1,-0.1,1.2999999999999998,0.5235987755982988,-0.5235987755982988,0,0.0062734666,-0.01320773,1.9985867,0.59945786,1.0883076,0.315836,1.1464576,0.66081434,1.1770754,-0.15261012,-0.10094925,0.038774915,1.2815477,-0.13811259
-0.1,-0.1,1.2999999999999998,0.5235987755982988,-0.5235987755982988,0,0.0064607235,-0.0134188915,2.0017433,0.5992272,1.0856612,0.31341758,1.1849227,0.56635046,1.2409278,-0.057336036,-0.026100405,0.22810218,1.3627423,0.3787788
-0.1,-0.1,1.2999999999999998,0.5235987755982988,-0.5235987755982988,0,0.007071157,-0.012808154,1.9968306,0.5994865,1.0756543,0.31767523,1.1815976,0.6491085,1.1951927,-0.17520073,-0.033008922,0.0005971472,1.3028574,-0.015514513
-0.1,-0.1,1.2999999999999998,0.5235987755982988,-0.5235987755982988,0,0.0067807087,-0.012196557,2.0000598,0.60058755,1.0875254,0.31157055,1.2066516,0.78094983,1.2395644,-0.15748376,-0.06456877,-0.13083586,1.278202,0.058799345
-0.1,-0.1,1.2999999999999998,0.5235987755982988,-0.5235987755982988,0,0.006875265,-0.01247927,2.0002518,0.6003492,1.0840194,0.31876203,1.2087812,0.59763604,1.1803108,-0.1093836,-0.09786565,-0.087471,1.3135575,0.43612772
-0.1,-0.1,1.2999999999999998,0.5235987755982988,-0.5235987755982988,0,0.0058943466,-0.012546851,1.9987785,0.6018483,1.0838442,0.315143,1.2267029,0.73185784,1.2134132,-0.018892,-0.025757138,-0.06171749,1.3782928,1.1729726
-0.1,-0.1,1.2999999999999998,0.5235987755982988,-0.5235987755982988,0,0.006065959,-0.014427856,2.0002482,0.599212,1.09325,0.32411277,1.1789161,0.5680835,1.1878128,-0.124684714,-0.025625661,0.17406239,1.2193046,0.8572836
-0.1,-0.1,1.2999999999999998,0.5235987755982988,-0.5235987755982988,0,0.005054922,-0.015118944,2.0015426,0.59943044,1.0849655,0.32553813,1.2192504,0.5017626,1.258612,-0.069152944,-0.015731594,0.22628321,1.2405784,-0.28022128
-0.1,-0.1,1.2999999999999998,0.5235987755982988,-0.5235987755982988,0,0.004958211,-0.013591285,1.9981695,0.60081017,1.0909636,0.31913534,1.1817297,0.76978475,1.1428179,0.03250918,-0.031249631,0.0603304,1.2979028,-0.0928765
-0.1,-0.1,1.2999999999999998,0.5235987755982988,-0.5235987755982988,0,0.008093906,-0.01449771,2.0012598,0.5987763,1.0759333,0.32367295,1.1592544,0.6059881,1.142847,-0.05986002,-0.08196849,-0.008170165,1.3006704,0.39932716
-0.1,-0.1,1.2999999999999998,0.5235987755982988,-0.5235987755982988,0,0.008631647,-0.01335797,1.9948993,0.6007482,1.0871367,0.32455,1.2038983,0.7214631,1.1857585,-0.042407654,-0.03544601,-0.25547713,1.3435482,0.0647095
-0.1,-0.1,1.2999999999999998,0.5235987755982988,-0.5235987755982988,0,0.007068148,-0.01077296,1.9987775,0.60308933,1.0937233,0.30177942,1.1584922,0.63187665,1.1199595,-0.019350905,-0.08042884,0.14677687,1.2550089,0.7923382
-0.1,-0.1,1.2999999999999998,0.5235987755982988,-0.5235987755982988,0,0.005187885,-0.01438238,2.00074,0.60127515,1.0804496,0.31728777,1.1854669,0.68904686,1.1930195,-0.025714913,-0.1044447,-0.24657588,1.3069733,-0.2702098
-0.1,-0.1,1.2999999999999998,0.5235987755982988,-0.5235987755982988,0,0.007010505,-0.012449093,2.000356,0.59971124,1.0797522,0.31832904,1.218531,0.5147465,1.1867088,-0.1229729,-0.07277407,0.28352675,1.3226186,0.8603093
-0.1,-0.1,1.2999999999999998,0.5235987755982988,-0.5235987755982988,0,0.0066113523,-0.014250792,2.0024989,0.5997504,1.0769362,0.31814343,1.1757308,0.4586989,1.0927664,0.008049906,-0.01905235,-0.009725763,1.2646829,0.08693004
-0.1,-0.1,1.2999999999999998,0.5235987755982988,-0.5235987755982988,0,0.006384729,-0.013788679,1.9990523,0.6001014,1.0867764,0.3181991,1.1847999,0.6427756,1.2271845,-0.056255937,-0.062222037,-0.047819827,1.2659172,0.52952063
-0.1,-0.1,1.2999999999999998,0.5235987755982988,-0.5235987755982988,0,0.0051504388,-0.013299008,2.004127,0.59881943,1.0759935,0.32267284,1.2056324,0.7444694,1.2054607,0.03675804,-0.068042316,-0.03820851,1.2990831,-0.33161905
-0.1,-0.1,1.2999999999999998,0.5235987755982988,-0.5235987755982988,0,0.007658877,-0.012801613,2.002596,0.6004939,1.0768603,0.3132883,1.1952891,0.65315527,1.1216366,-0.12107022,-0.08727928,-0.041705962,1.2888533,-0.14340383
-0.1,-0.1,1.2999999999999998,0.5235987755982988,-0.5235987755982988,0,0.0071455752,-0.012698011,1.9995362,0.59999317,1.0825579,0.3241311,1.184528,0.7371281,1.1912552,-0.1876904,-0.038219247,0.14718714,1.3462402,-0.7400402
-0.1,-0.1,1.2999999999999998,0.5235987755982988,-0.5235987755982988,0,0.0052336347,-0.013070384,1.9977977,0.60216326,1.0858762,0.32300758,1.1983638,0.6750505,1.2055249,-0.15915243,-0.05373088,0.13635701,1.3153113,-0.10256442
-0.1,-0.1,1.2999999999999998,0.5235987755982988,-0.5235987755982988,0,0.0085820835,-0.012418103,1.9998611,0.60028535,1.0792102,0.32095206,1.1682131,0.6384791,1.1507086,-0.12165737,-0.07124479,-0.076963134,1.2390088,-1.2089983
-0.1,-0.1,1.2999999999999998,0.5235987755982988,-0.5235987755982988,0,0.005665906,-0.014226629,2.0011375,0.5998481,1.0871766,0.31616846,1.1813422,0.6773375,1.1562183,0.059739098,-0.06960841,-0.09895635,1.3009332,0.7216682
-0.1,-0.1,1.2999999999999998,0.5235987755982988,-0.5235987755982988,0,0.0070686024,-0.011284447,2.000956,0.6008,1.0844883,0.3178627,1.1782832,0.61107737,1.2032243,0.0766813,-0.028958976,-0.15315658,1.3365237,-0.48429283
-0.1,-0.1,1.2999999999999998,0.5235987755982988,-0.5235987755982988,0,0.0070188665,-0.0123759145,2.0017197,0.60021245,1.0871605,0.31319347,1.1795386,0.7566346,1.1320002,0.08417629,-0.05564325,-0.1785236,1.2871974,-0.94067883
-0.1,-0.1,1.2999999999999998,0.5235987755982988,-0.5235987755982988,0,0.0065422985,-0.014786021,2.0011327,0.5999728,1.0860971,0.31846774,1.1871772,0.78542566,1.1524856,-0.122799054,-0.040997528,0.036963962,1.2758365,0.08854087
-0.1,-0.1,1.2999999999999998,0.5235987755982988,-0.5235987755982988,0,0.005410055,-0.014481307,1.9998338,0.60171914,1.0872716,0.31625816,1.2198354,0.7623994,1.1829624,-0.09493824,-0.044703823,-0.0066811787,1.27332,-0.2830913
-0.1,-0.1,1.2999999999999998,0.5235987755982988,-0.5235987755982988,0,0.006639154,-0.014594546,1.9996574,0.6015676,1.0875112,0.31453785,1.209781,0.3266979,1.219576,-0.08872487,-0.076307446,0.20864074,1.2496631,0.19496776
-0.1,-0.1,1.2999999999999998,0.5235987755982988,-0.5235987755982988,0,0.008652959,-0.014194406,2.0016356,0.60064274,1.0761136,0.3080158,1.1614572,0.656267,1.1618738,-0.01582557,-0.0628117,0.013172216,1.2968307,0.060631365
-0.1,-0.1,1.2999999999999998,0.5235987755982988,-0.5235987755982988,0,0.0053971233,-0.012667905,2.0005996,0.6000365,1.0910131,0.31544015,1.1518357,0.6408238,1.1629163,0.076082624,-0.02115166,0.11133468,1.225965,0.3126972
-0.1,-0.1,1.2999999999999998,0.5235987755982988,-0.5235987755982988,0,0.006849509,-0.011957652,2.0016785,0.6011484,1.0792538,0.31729084,1.1458232,0.6900458,1.1725155,-0.027100282,-0.08094664,0.09348835,1.2497402,-0.2831537
-0.1,-0.1,1.2999999999999998,0.5235987755982988,-0.5235987755982988,0,0.005952869,-0.015361524,1.999909,0.60049874,1.0850348,0.3162356,1.1683551,0.5945072,1.2014096,-0.09282097,-0.038170595,-0.025400953,1.2254282,0.5329504
-0.1,-0.1,1.2999999999999998,0.5235987755982988,-0.5235987755982988,0,0.008325059,-0.014148499,1.9968994,0.6008517,1.077135,0.32277682,1.1806597,0.72672933,1.1828486,0.017830748,-0.061174612,0.2745975,1.3227125,-0.9870868
-0.1,-0.1,1.2999999999999998,0.5235987755982988,-0.5235987755982988,0,0.009259437,-0.015085412,1.9975893,0.60051167,1.0787735,0.31254488,1.1524776,0.75725573,1.1720614,-0.06340229,-0.059510637,-0.13281839,1.3076996,0.075641945
-0.1,-0.1,1.2999999999999998,0.5235987755982988,-0.5235987755982988,0,0.00674096,-0.013701285,1.9977164,0.6013944,1.0890985,0.31642193,1.2228221,0.8042353,1.2039658,-0.038963716,-0.12089283,-0.025476687,1.3076148,-0.006782516
-0.1,-0.1,1.2999999999999998,0.5235987755982988,-0.5235987755982988,0,0.006307583,-0.014915579,2.0047984,0.6000443,1.0708047,0.31658763,1.1662797,0.6289343,1.1977751,-0.031058764,-0.04773182,0.13924709,1.2694232,0.05791973
-0.1,-0.1,1.2999999999999998,0.5235987755982988,-0.5235987755982988,0,0.007721033,-0.014452938,2.0012865,0.5998509,1.0872855,0.31650048,1.2038445,0.58473516,1.1740974,-0.043066233,-0.04636012,0.062052984,1.3525472,-0.060783904
-0.1,-0.1,1.2999999999999998,0.5235987755982988,-0.5235987755982988,0,0.007033213,-0.013692051,2.0032134,0.6003418,1.0747463,0.31713188,1.1963172,0.550059,1.2136534,-0.08302924,-0.0733346,-0.05521912,1.2863563,0.21493053
-0.1,-0.1,1.2999999999999998,0.5235987755982988,-0.5235987755982988,0,0.005861,-0.012417693,2.000378,0.6007344,1.0898367,0.32216525,1.1738715,0.5270364,1.1448182,0.12280177,-0.009849282,0.13090192,1.3339591,-0.23693779
-0.1,-0.1,1.2999999999999998,0.5235987755982988,-0.5235987755982988,0,0.006731069,-0.014894194,1.9997863,0.6017275,1.0839663,0.30977732,1.1401021,0.4151256,1.1300318,0.06690055,-0.045131017,-0.07134106,1.2571878,-0.50834405
-0.1,-0.1,1.2999999999999998,0.5235987755982988,-0.5235987755982988,0,0.010049297,-0.01249423,1.9985538,0.5999507,1.0757744,0.3271519,1.160592,0.6768677,1.1968788,0.061021507,-0.008694054,0.13396032,1.3331109,1.1812936
-0.1,-0.1,1.2999999999999998,0.5235987755982988,-0.5235987755982988,0,0.0074887755,-0.014825804,1.9989444,0.59858704,1.0772831,0.31881917,1.1851592,0.70675766,1.1781584,-0.07968185,-0.0637582,0.10328885,1.313139,-0.4208249
-0.1,-0.1,1.2999999999999998,0.5235987755982988,-0.5235987755982988,0,0.008155213,-0.013923326,1.9951866,0.60212153,1.0856442,0.32113597,1.1576911,0.8514557,1.1424652,-0.06352493,-0.0063993703,-0.03737062,1.3051542,0.24847603
-0.1,-0.1,1.2999999999999998,0.5235987755982988,-0.5235987755982988,0,0.0062954947,-0.013506377,1.9993218,0.6019158,1.0849147,0.31727684,1.1904399,0.60502887,1.1716267,0.12873457,-0.006882585,0.009195986,1.2980907,-0.1661979
-0.1,-0.1,1.2999999999999998,0.5235987755982988,-0.5235987755982988,0,0.007820927,-0.012628881,2.0011783,0.59925777,1.0761621,0.3259248,1.1616185,0.5562266,1.1887196,0.055008665,-0.049688675,0.10317047,1.2865744,0.36004028
-0.1,-0.1,1.2999999999999998,0.5235987755982988,-0.5235987755982988,0,0.007113622,-0.0137484735,2.003946,0.5997065,1.0835838,0.31247422,1.1773814,0.6189787,1.1608263,0.0881901,-0.03259874,-0.16183357,1.3627888,1.2323017
-0.1,-0.1,1.2999999999999998,0.5235987755982988,-0.5235987755982988,0,0.0074455063,-0.013573333,2.0012572,0.59981763,1.0921632,0.31414232,1.1419065,0.61950135,1.1402473,0.08281568,-0.07756344,0.13192011,1.2529922,0.25493577
-0.1,-0.1,1.2999999999999998,0.5235987755982988,-0.5235987755982988,0,0.008082915,-0.012632007,2.0009944,0.5979772,1.0850713,0.32939664,1.1751369,0.539847,1.1812288,0.09164993,-0.03304526,0.087908365,1.3224334,1.0275612
-0.1,-0.1,1.2999999999999998,0.5235987755982988,-0.5235987755982988,0,0.0047901007,-0.013634578,1.9995378,0.60181856,1.0887907,0.3203681,1.183189,0.70853853,1.1798868,0.080396354,-0.05646145,-0.04597189,1.2637339,-0.11886906
-0.1,-0.1,1.2999999999999998,0.5235987755982988,-0.5235987755982988,0,0.0077411104,-0.012420983,2.000266,0.6008011,1.078863,0.3240972,1.1266544,0.8089623,1.1784216,-0.08703798,-0.055809986,0.3585153,1.2599776,-0.23705816
-0.1,-0.1,1.2999999999999998,0.5235987755982988,-0.5235987755982988,0,0.008048515,-0.013268594,1.9978935,0.6002962,1.0883306,0.32377374,1.1844754,0.7571424,1.2237444,-0.06789278,-0.07559241,-0.034771763,1.3097101,0.5006606
-0.1,-0.1,1.2999999999999998,0.5235987755982988,-0.5235987755982988,0,0.0068494612,-0.0146162,2.0014052,0.6001333,1.0836107,0.31320146,1.1950945,0.8837299,1.1566435,-0.057445053,-0.06260968,-0.076035224,1.3240404,0.49979195
-0.1,-0.1,1.2999999999999998,0.5235987755982988,-0.5235987755982988,0,0.0076218336,-0.013775537,1.9974324,0.6010731,1.0905907,0.31749147,1.1974448,0.5826046,1.2205573,-0.030018728,-0.107160226,0.10279543,1.2457367,0.61108154
-0.1,-0.1,1.2999999999999998,0.5235987755982988,-0.5235987755982988,0,0.005773421,-0.012246348,2.0010912,0.5992557,1.0766319,0.31205416,1.1904892,0.7137141,1.1407906,-0.18987651,-0.074190825,0.09491007,1.2637738,0.43572626
-0.1,-0.1,1.2999999999999998,0.5235987755982988,-0.5235987755982988,0,0.0067619714,-0.01446951,2.0013435,0.599669,1.0881639,0.3139725,1.1842837,0.4954309,1.2021849,0.0040094145,-0.07178115,0.11194379,1.372023,0.52091855
-0.1,-0.1,1.2999999999999998,0.5235987755982988,-0.5235987755982988,0,0.007015869,-0.013571208,1.9988309,0.60086113,1.0928693,0.3201489,1.1810668,0.6671623,1.1451982,0.26817718,-0.100231074,0.23821123,1.2834034,0.031582862
-0.1,-0.1,1.2999999999999998,0.5235987755982988,-0.5235987755982988,0,0.0058474853,-0.013044159,1.9994252,0.6006603,1.0951766,0.31746855,1.1721302,0.6421589,1.1850224,-0.07805917,-0.07754837,0.042656798,1.3262681,1.1932445
-0.1,-0.1,1.2999999999999998,0.5235987755982988,-0.5235987755982988,0,0.0055732275,-0.015174487,2.0013328,0.5998052,1.0865948,0.32213983,1.2155956,0.7483384,1.2137187,0.14387026,-0.051565096,-0.18763718,1.2958944,0.5827438
-0.1,-0.1,1.2999999999999998,0.5235987755982988,-0.5235987755982988,0,0.006424314,-0.014239519,2.0028722,0.60042423,1.0807859,0.31327394,1.1549242,0.6924204,1.1993092,-0.13158542,-0.095908955,-0.04751014,1.246895,0.1372147
-0.1,-0.1,1.2999999999999998,0.5235987755982988,-0.5235987755982988,0,0.0075424276,-0.01316591,1.9997767,0.6004813,1.0849808,0.32577452,1.1429015,0.54291517,1.1797836,-0.0337848,-0.07137739,-0.022043828,1.3468032,0.29451945
-0.1,-0.1,1.2999999999999998,0.5235987755982988,-0.5235987755982988,0,0.0066006524,-0.01402781,1.9999318,0.5997169,1.0893197,0.32452992,1.2166482,0.74474454,1.1768724,-0.1863935,-0.081103854,0.09020856,1.3180908,-0.14447995
-0.1,-0.1,1.2999999999999998,0.5235987755982988,-0.5235987755982988,0,0.007959834,-0.013701193,1.9973613,0.59857124,1.0852017,0.3217054,1.1620731,0.44951504,1.1772327,-0.07559414,-0.05804545,0.098899946,1.2815771,0.3885222
-0.1,-0.1,1.2999999999999998,0.5235987755982988,-0.5235987755982988,0,0.005303015,-0.014738539,1.9996527,0.60063004,1.091901,0.31861702,1.1901332,0.7210052,1.2673739,-0.08232458,-0.10244685,0.039358027,1.2520556,0.27695325
-0.1,-0.1,1.2999999999999998,0.5235987755982988,-0.5235987755982988,0,0.008576959,-0.01679803,2.0004835,0.60041964,1.0769483,0.31734282,1.1562778,0.64152646,1.1475266,0.02108341,-0.057607006,-0.25141862,1.3389845,0.87689525
-0.1,-0.1,1.2999999999999998,0.5235987755982988,-0.5235987755982988,0,0.0051464858,-0.017066082,2.0024781,0.60056406,1.0791154,0.31955102,1.1854929,0.5497428,1.1750606,0.14784738,-0.04347535,-0.19363545,1.2170438,-0.43156147
-0.1,-0.1,1.2999999999999998,0.5235987755982988,-0.5235987755982988,0,0.0066324538,-0.012340967,1.9989498,0.6007985,1.098096,0.31335467,1.1842792,0.6124366,1.243367,-0.011584511,-0.06303875,-0.18688372,1.2804781,0.25587586
-0.1,-0.1,1.2999999999999998,0.5235987755982988,-0.5235987755982988,0,0.0072865523,-0.015564106,1.9991627,0.6000006,1.090902,0.31824076,1.1841415,0.772917,1.2335762,0.06824203,-0.070467785,-0.006659028,1.2360212,0.34847686
-0.1,-0.1,1.2999999999999998,0.5235987755982988,-0.5235987755982988,0,0.0049887793,-0.015728364,2.0028584,0.60079575,1.0849764,0.31598106,1.1717749,0.7534982,1.1771984,-0.19917527,-0.016894346,-0.0075811143,1.3165828,1.1776929
-0.1,-0.1,1.2999999999999998,0.5235987755982988,-0.5235987755982988,0,0.0066668936,-0.012985398,1.9989878,0.5985515,1.0781956,0.3139436,1.154708,0.51537025,1.1578017,0.08850803,-0.0418811,0.14064327,1.2473022,0.74764967
-0.1,-0.1,1.2999999999999998,0.5235987755982988,-0.5235987755982988,0,0.006499807,-0.016080625,1.9990807,0.60189,1.0794361,0.3177067,1.1541736,0.8565022,1.2135645,-0.11773552,-0.06596914,-0.10334275,1.3022592,-0.49579585
-0.1,-0.1,1.2999999999999998,0.5235987755982988,-0.5235987755982988,0,0.008555109,-0.012363822,1.9982502,0.6011319,1.0908142,0.31624064,1.2055366,0.79871124,1.1899194,-0.004088313,-0.021897454,-0.147571,1.2769835,0.007829084
-0.1,-0.1,1.2999999999999998,0.5235987755982988,-0.5235987755982988,0,0.005562615,-0.013958544,2.0007038,0.600124,1.0753703,0.3114614,1.1996604,0.6421058,1.1462594,-0.08212964,-0.058580372,0.20194747,1.2941129,0.5294156
-0.1,-0.1,1.2999999999999998,0.5235987755982988,-0.5235987755982988,0,0.0057555903,-0.015624952,1.9995072,0.6018841,1.0825127,0.32628632,1.1761954,0.6388206,1.1482795,-0.16219106,-0.023884876,0.24285223,1.2850238,-0.590459
-0.1,-0.1,1.2999999999999998,0.5235987755982988,-0.5235987755982988,0,0.0056459135,-0.013164382,1.9986494,0.60195434,1.0840179,0.32228684,1.1459326,0.6084715,1.1895382,-0.09940717,-0.07506802,-0.072142825,1.2881293,1.1227022
-0.1,-0.1,1.2999999999999998,0.5235987755982988,-0.5235987755982988,0,0.006214797,-0.014157367,2.0007517,0.59946954,1.0898007,0.32362318,1.2036529,0.5262658,1.1357062,0.16312452,-0.08214166,-0.081740186,1.3492025,0.5499527
-0.1,-0.1,1.2999999999999998,0.5235987755982988,-0.5235987755982988,0,0.005192036,-0.01541993,1.9998906,0.60153383,1.0824051,0.31879455,1.1678435,0.623287,1.2649755,0.027778335,-0.043370545,-0.00896948,1.29169,-0.54315394
-0.1,-0.1,1.2999999999999998,0.5235987755982988,-0.5235987755982988,0,0.006997357,-0.013710259,2.000546,0.6006041,1.0879025,0.3218608,1.1898037,0.7646617,1.1555626,0.19552581,0.00026124637,-0.25182578,1.2772204,1.0568041
-0.1,-0.1,1.2999999999999998,0.5235987755982988,-0.5235987755982988,0,0.008936089,-0.015011192,2.0030937,0.59913146,1.0836768,0.3107653,1.2076354,0.6102041,1.1908946,-0.1049635,-0.040130373,0.10534229,1.2645922,-0.20341702
-0.1,-0.1,1.2999999999999998,0.5235987755982988,-0.5235987755982988,0,0.0069727483,-0.013501184,2.0007544,0.60019517,1.0772663,0.3269557,1.1855257,0.7804736,1.1870534,0.09060199,-0.07223345,0.007460241,1.3338135,-0.22344376
-0.1,-0.1,1.2999999999999998,0.5235987755982988,-0.5235987755982988,0,0.009036937,-0.0119020315,1.9994917,0.6019953,1.0799736,0.31362003,1.182084,0.70718133,1.2015207,-0.008139403,-0.08055962,0.15351644,1.3690134,0.9726572
-0.1,-0.1,1.2999999999999998,0.5235987755982988,-0.5235987755982988,0,0.0066486155,-0.0136862695,2.002524,0.6011392,1.0837721,0.31732795,1.1472144,0.61612767,1.1692584,0.057964783,-0.10803865,0.0063454406,1.3075643,0.041943975
-0.1,-0.1,1.2999999999999998,0.5235987755982988,-0.5235987755982988,0,0.0077756625,-0.014096156,1.9991452,0.60014915,1.0957633,0.3186347,1.1829691,0.73038846,1.1581118,0.1285181,-0.052038655,0.025667476,1.3369138,0.55137706
-0.1,-0.1,1.2999999999999998,0.5235987755982988,-0.5235987755982988,0,0.0057888473,-0.012420905,2.001303,0.6009242,1.0960574,0.31923038,1.1834975,0.53625995,1.1073384,0.027828883,-0.07635349,0.026745774,1.2350016,0.19894654
-0.1,-0.1,1.2999999999999998,0.5235987755982988,-0.5235987755982988,0,0.0057305684,-0.015585859,2.0037067,0.6003203,1.085906,0.31700617,1.1655903,0.68404895,1.1659164,-0.074531086,-0.096531615,-0.060667377,1.2329559,-0.17525692
-0.1,-0.1,1.2999999999999998,0.5235987755982988,-0.5235987755982988,0,0.0060243155,-0.01482247,1.999983,0.5995608,1.1051993,0.3182684,1.1755269,0.80110645,1.1084777,0.039113436,-0.071997106,0.12604718,1.2459021,0.45667917
-0.1,-0.1,1.2999999999999998,0.5235987755982988,-0.5235987755982988,0,0.0073807538,-0.013020903,2.0012965,0.5992899,1.0950087,0.32347667,1.1860511,0.64853656,1.1557729,0.04895791,-0.06730555,0.20242584,1.3041153,0.7335814
-0.1,-0.1,1.2999999999999998,0.5235987755982988,-0.5235987755982988,0,0.0065807737,-0.013531253,2.000912,0.60089374,1.0852785,0.32142445,1.1880034,0.8778709,1.1967993,-0.1809686,-0.034269296,-0.10570135,1.3355495,-0.0013522817
-0.1,-0.1,1.2999999999999998,0.5235987755982988,-0.5235987755982988,0,0.006189261,-0.01453532,2.0004563,0.59920144,1.0851567,0.3171601,1.1824355,0.56568235,1.236737,-8.7789675e-05,-0.08370731,-0.016461423,1.3356755,0.5820958
-0.1,-0.1,1.2999999999999998,0.5235987755982988,-0.5235987755982988,0,0.006200759,-0.01363878,2.004302,0.59965426,1.0853442,0.31832844,1.1894993,0.7577494,1.1932927,0.17292057,-0.08445859,0.033322446,1.3933464,-0.07937385
-0.1,-0.1,1.2999999999999998,0.5235987755982988,-0.5235987755982988,0,0.006307327,-0.014133404,1.9976671,0.59905434,1.076472,0.3154867,1.1806332,0.6059699,1.183648,-0.08159485,-0.06669012,0.16177481,1.3433019,0.7202937
-0.1,-0.1,1.2999999999999998,0.5235987755982988,-0.5235987755982988,0,0.0070905173,-0.014005445,2.0016024,0.59992886,1.0930362,0.3193825,1.184525,0.85664874,1.1635407,-0.09477037,-0.037876014,-0.08932642,1.3283737,1.6812074
-0.1,-0.1,1.2999999999999998,0.5235987755982988,-0.5235987755982988,0,0.009515797,-0.013862937,2.0010395,0.6004219,1.0831652,0.31778404,1.1807001,0.5856248,1.1646373,-0.0049224133,-0.08362873,-0.015317089,1.3404174,1.0509697
-0.1,-0.1,1.2999999999999998,0.5235987755982988,-0.5235987755982988,0,0.009118251,-0.011420704,1.9964352,0.59911263,1.0805284,0.3144007,1.1689337,0.61855227,1.1901789,-0.15149166,-0.0636092,0.28063086,1.3346748,0.16346908
-0.1,-0.1,1.2999999999999998,0.5235987755982988,-0.5235987755982988,0,0.0076787653,-0.012512132,2.0011888,0.5999772,1.0967261,0.316178,1.188719,0.6623289,1.2133383,0.030596292,-0.11149952,-0.053377423,1.2557377,0.06737406
-0.1,-0.1,1.2999999999999998,0.5235987755982988,-0.5235987755982988,0,0.008125492,-0.013610478,2.0034306,0.5999196,1.0803488,0.3111956,1.2170905,0.7136729,1.2400374,0.020818954,-0.045911763,0.07953736,1.3174317,-0.4225007
-0.1,-0.1,1.2999999999999998,0.5235987755982988,-0.5235987755982988,0,0.00683389,-0.012911023,1.9996063,0.60135823,1.0896664,0.32340333,1.1938434,0.746617,1.1889467,-0.048847247,-0.04400959,0.15535872,1.2639636,-0.32540292
-0.1,-0.1,1.2999999999999998,0.5235987755982988,-0.5235987755982988,0,0.0072195646,-0.014708028,2.0006492,0.60038525,1.0876019,0.3190768,1.1850001,0.69819766,1.1329947,0.15707366,0.02573525,-0.09678823,1.3220345,0.2806252
-0.1,-0.1,1.2999999999999998,0.5235987755982988,-0.5235987755982988,0,0.0087467935,-0.011806065,1.9988346,0.6010652,1.0981333,0.31726322,1.1775968,0.7448233,1.1793112,-0.07916881,-0.06377972,-0.047709655,1.3106674,0.711196
-0.1,-0.1,1.2999999999999998,0.5235987755982988,-0.5235987755982988,0,0.0059566866,-0.013644091,2.0005286,0.6011794,1.0946637,0.31749237,1.1696259,0.8326085,1.2048584,-0.0033310198,-0.108662345,0.0010733203,1.2932891,-0.78501636
-0.1,-0.1,1.2999999999999998,0.5235987755982988,-0.5235987755982988,0,0.006349324,-0.012850823,2.0007856,0.60029787,1.0952865,0.32017836,1.16361,0.50790185,1.1699054,-0.021636784,-0.08436662,0.048702423,1.3365439,0.13750054
-0.1,-0.1,1.2999999999999998,0.5235987755982988,-0.5235987755982988,0,0.008890463,-0.014055273,2.0034857,0.5995623,1.0788132,0.3226084,1.1524655,0.7454449,1.1483333,-0.10133825,-0.023038741,-0.054106373,1.4078932,0.018201696
-0.1,-0.1,1.2999999999999998,0.5235987755982988,-0.5235987755982988,0,0.005972366,-0.013222987,2.0028226,0.60081166,1.083458,0.32299015,1.1576126,0.590489,1.1820847,-0.04180345,-0.030236231,0.054588225,1.3035187,-0.12428072
-0.1,-0.1,1.2999999999999998,0.5235987755982988,-0.5235987755982988,0,0.008094967,-0.013646951,2.0004787,0.6009193,1.0845228,0.32073104,1.1719807,0.56637436,1.1832926,-0.06642214,-0.05554332,0.024430662,1.2881765,-0.18131617
-0.1,-0.1,1.2999999999999998,0.5235987755982988,-0.5235987755982988,0,0.0065836776,-0.014418602,2.0003738,0.59856474,1.0773159,0.31807646,1.2121329,0.66903776,1.1410735,0.061537396,-0.06305961,0.06677218,1.2963492,-0.59187526
-0.1,-0.1,1.2999999999999998,0.5235987755982988,-0.5235987755982988,0,0.00630371,-0.01259281,2.0015059,0.601086,1.0993707,0.31183532,1.2027615,0.58667904,1.1285337,0.0023686243,-0.035459347,0.08424448,1.3744869,-0.5599054
-0.1,-0.1,1.2999999999999998,0.5235987755982988,-0.5235987755982988,0,0.0053159003,-0.013940268,2.0033581,0.6020882,1.079053,0.32310078,1.1693006,0.5889132,1.1327271,0.08014189,-0.06778943,0.024377186,1.4143995,-0.10876346
-0.1,-0.1,1.2999999999999998,0.5235987755982988,-0.5235987755982988,0,0.006881569,-0.0140968915,2.002844,0.5998313,1.0896442,0.32074735,1.1880457,0.61698127,1.2062328,-0.03809237,-0.0416423,0.036148194,1.3459201,0.9076998
-0.1,-0.1,1.2999999999999998,0.5235987755982988,-0.5235987755982988,0,0.0070759696,-0.014152081,2.0024455,0.6005926,1.0898601,0.31904623,1.1903138,0.7136229,1.1577475,-0.020663226,-0.033653583,0.10700799,1.3092716,0.22106978
-0.1,-0.1,1.2999999999999998,0.5235987755982988,-0.5235987755982988,0,0.007385682,-0.013259417,2.0027137,0.60015106,1.0909079,0.32028094,1.1872604,0.5403548,1.2032063,8.341284e-05,-0.11941734,0.13527879,1.3634971,0.17101905
-0.1,-0.1,1.2999999999999998,0.5235987755982988,-0.5235987755982988,0,0.008573818,-0.012324742,2.001727,0.5999081,1.0916436,0.32371804,1.2113999,0.5670874,1.2079022,0.0021885377,-0.007386383,0.0754246,1.3415605,-0.27952766
-0.1,-0.1,1.2999999999999998,0.5235987755982988,-0.5235987755982988,0,0.0076141274,-0.013023174,1.999899,0.60112566,1.0744935,0.31045693,1.17999,0.70942473,1.2154953,-0.011080256,-0.0772985,0.083978094,1.334969,-0.09893427
-0.1,-0.1,1.2999999999999998,0.5235987755982988,-0.5235987755982988,0,0.0049661435,-0.015393949,1.9979588,0.5993736,1.0862424,0.31762293,1.1814859,0.54183614,1.172127,0.030273903,-0.084438175,0.064185694,1.3475981,0.16654922
-0.1,-0.1,1.2999999999999998,0.5235987755982988,-0.5235987755982988,0,0.0060964576,-0.015028208,2.0000021,0.60025597,1.0934424,0.3179016,1.1917846,0.6446796,1.1931149,-0.14583938,-0.07206706,0.055835802,1.3989398,-0.366217
-0.1,-0.1,1.2999999999999998,0.5235987755982988,-0.5235987755982988,0,0.008180192,-0.014149183,1.997466,0.60148704,1.0809077,0.31382433,1.1693432,1.0296376,1.2008852,-0.11317356,-0.12313612,0.20895278,1.3802772,0.17779763
-0.1,-0.1,1.2999999999999998,0.5235987755982988,-0.5235987755982988,0,0.0075879144,-0.01377211,1.9980677,0.5993195,1.088848,0.3170323,1.1939225,0.63927776,1.2134225,0.04400433,-0.0064853393,0.077427335,1.2525452,0.8452359
-0.1,-0.1,1.2999999999999998,0.5235987755982988,-0.5235987755982988,0,0.007515749,-0.014133458,1.9986566,0.5999163,1.0841485,0.31464216,1.1525608,0.5837134,1.2008686,-0.19777067,-0.1076431,0.006292554,1.2819133,-0.20723607
-0.1,-0.1,1.2999999999999998,0.5235987755982988,-0.5235987755982988,0,0.0056223944,-0.0120969135,1.9994537,0.60072905,1.0748113,0.30773744,1.1962153,0.6711565,1.2217724,-0.042070493,-0.060180917,-0.01722199,1.3165647,0.15405332
-0.1,-0.1,1.2999999999999998,0.5235987755982988,-0.5235987755982988,0,0.005735851,-0.012750737,2.000246,0.5996863,1.0906185,0.30842492,1.1927524,0.8128562,1.145139,0.15380308,-0.058790512,0.2564288,1.3252621,-0.16924803
-0.1,-0.1,1.2999999999999998,0.5235987755982988,-0.5235987755982988,0,0.005402199,-0.012944236,1.9986727,0.60096645,1.0821532,0.32056955,1.1657457,0.6389356,1.2330561,0.040676266,-0.10316423,-0.21618025,1.2391257,0.95798033
-0.1,-0.1,1.2999999999999998,0.5235987755982988,-0.5235987755982988,0,0.008485804,-0.014100925,2.002244,0.6009978,1.0780776,0.3223201,1.1600925,0.66251314,1.2111678,-0.005698504,-0.0691748,0.16378573,1.3014865,0.19604754
-0.1,-0.1,1.2999999999999998,0.5235987755982988,-0.5235987755982988,0,0.0074260486,-0.014937818,1.999691,0.6008369,1.0789847,0.31125247,1.2141594,0.57431155,1.1725619,0.0041991575,-0.004785986,0.24802645,1.3206698,1.0162203
-0.1,-0.1,1.2999999999999998,0.5235987755982988,-0.5235987755982988,0,0.006860632,-0.015772523,1.9984902,0.59890515,1.079139,0.31298426,1.1496679,0.7229929,1.257978,0.044072118,-0.1156964,0.17720279,1.2789704,0.7702807
-0.1,-0.1,1.2999999999999998,0.5235987755982988,-0.5235987755982988,0,0.0061376244,-0.011636838,1.9995313,0.60029644,1.0828521,0.31902924,1.1427163,0.7980956,1.1450343,-0.13762058,-0.090436585,-0.2420868,1.3439069,0.14630297
-0.1,-0.1,1.2999999999999998,0.5235987755982988,-0.5235987755982988,0,0.0050068093,-0.012628105,2.0003176,0.60069585,1.0811726,0.31309,1.199527,0.8150855,1.2105465,0.044534184,-0.10090277,-0.12882337,1.2762402,-0.030793782
-0.1,-0.1,1.2999999999999998,0.5235987755982988,-0.5235987755982988,0,0.0074787694,-0.012682035,1.9978126,0.60089403,1.0856491,0.3254545,1.1974105,0.7629432,1.1884049,0.032601546,-0.054447826,-0.10661983,1.3232685,-0.044054013
-0.1,-0.1,1.2999999999999998,0.5235987755982988,-0.5235987755982988,0,0.0069357003,-0.0139393825,2.00019,0.6004303,1.0724249,0.3199174,1.1680303,0.7023749,1.2260197,0.17275348,-0.04573518,-0.21886002,1.3128556,-0.20027508
-0.1,-0.1,1.2999999999999998,0.5235987755982988,-0.5235987755982988,0,0.005966894,-0.013276345,2.0001318,0.59981054,1.0946575,0.32135615,1.1637415,0.61549747,1.1836975,-0.043296985,-0.09471686,-0.005784972,1.2648853,0.5735669
-0.1,-0.1,1.2999999999999998,0.5235987755982988,-0.5235987755982988,0,0.0076584746,-0.014463,1.9976542,0.59986705,1.0812994,0.31830835,1.1807612,0.6265782,1.1898236,0.044817153,0.008370348,0.030801522,1.331647,-0.38320807
-0.1,-0.1,1.2999999999999998,0.5235987755982988,-0.5235987755982988,0,0.007293761,-0.013606506,1.9993088,0.6014896,1.0790262,0.3084992,1.1833403,0.7053886,1.1041683,-0.10288845,-0.05182903,0.053919695,1.275447,-0.17059283
-0.1,-0.1,1.2999999999999998,0.5235987755982988,-0.5235987755982988,0,0.0052050464,-0.012696653,1.999106,0.6013486,1.0795949,0.31656933,1.1798437,0.6300221,1.2558038,-0.09345692,-0.052861933,-0.1320313,1.3138666,0.44308528
-0.1,-0.1,1.2999999999999998,0.5235987755982988,-0.5235987755982988,0,0.0052463654,-0.012924377,2.0014455,0.60023034,1.0763258,0.31894183,1.204705,0.5012358,1.2357892,-0.31710064,-0.042659923,0.28453007,1.2898582,0.27245185
-0.1,-0.1,1.2999999999999998,0.5235987755982988,-0.5235987755982988,0,0.0051730745,-0.013331182,2.0016875,0.60072935,1.0763725,0.316105,1.1526546,0.65561676,1.1390479,-0.036914125,-0.075565346,0.21487136,1.3023405,-0.6357981
-0.1,-0.1,1.2999999999999998,0.5235987755982988,-0.5235987755982988,0,0.007972674,-0.014715939,1.9990125,0.5996684,1.0904256,0.31269857,1.2063481,0.62785965,1.1772424,-0.11360042,-0.04315548,0.098417856,1.2396977,-0.30772585
-0.1,-0.1,1.2999999999999998,0.5235987755982988,-0.5235987755982988,0,0.0054676165,-0.012635617,1.9987897,0.59922874,1.0824033,0.31846282,1.1657748,0.33324072,1.1854672,-0.13623098,-0.0519818,0.016766718,1.4129407,0.016929053
-0.1,-0.1,1.2999999999999998,0.5235987755982988,-0.5235987755982988,0,0.004494807,-0.012966236,2.0005777,0.5999741,1.0828656,0.31746015,1.183099,0.46754566,1.1455338,-0.076338716,-0.046971433,0.039078634,1.289538,0.078198306
-0.1,-0.1,1.2999999999999998,0.5235987755982988,-0.5235987755982988,0,0.0063700047,-0.012337545,2.001213,0.60144866,1.0773085,0.3192543,1.1592712,0.72810405,1.1809797,-0.12785588,-0.036389012,0.04728528,1.3433635,0.4752081
-0.1,-0.1,1.2999999999999998,0.5235987755982988,-0.5235987755982988,0,0.0072380686,-0.011466362,1.9981629,0.59917474,1.0911436,0.32493955,1.1697867,0.7315701,1.1309004,-0.05069642,-0.1454553,-0.20707707,1.3984599,-0.041277427
-0.1,-0.1,1.2999999999999998,0.5235987755982988,-0.5235987755982988,0,0.0055666044,-0.015349087,1.998462,0.5996203,1.0822479,0.31722683,1.1651735,0.6585438,1.1844771,-0.026096482,-0.06715149,0.24887922,1.2863823,-0.12056449
-0.1,-0.1,1.2999999999999998,0.5235987755982988,-0.5235987755982988,0,0.0065457355,-0.012178834,1.999815,0.5989928,1.0790799,0.3290025,1.1563319,0.55863947,1.0842187,-0.09438147,-0.10414513,-0.14562109,1.3233886,0.3757099
-0.1,-0.1,1.2999999999999998,0.5235987755982988,-0.5235987755982988,0,0.006424712,-0.015538488,1.9974291,0.5990617,1.0863978,0.31012857,1.1981624,0.63423836,1.155686,0.026209757,-0.07576867,0.20835416,1.3191723,-0.25776264
-0.1,-0.1,1.2999999999999998,0.5235987755982988,-0.5235987755982988,0,0.007450355,-0.013223571,1.9984146,0.5998255,1.0855564,0.31757802,1.1808015,0.8412725,1.1158377,-0.17010985,-0.07727137,-0.0024523246,1.2606158,-0.656828
-0.1,-0.1,1.2999999999999998,0.5235987755982988,-0.5235987755982988,0,0.005530145,-0.0113237165,2.0011842,0.59960014,1.0800624,0.31889382,1.1870741,0.68906754,1.1825975,0.11052253,-0.05835195,0.0030132025,1.3636866,0.27557483
-0.1,-0.1,1.2999999999999998,0.5235987755982988,-0.5235987755982988,0,0.0061379024,-0.013407023,1.9976948,0.59948784,1.0868161,0.32362878,1.1715921,0.74214125,1.2225267,-0.13264519,-0.06253277,-0.2662175,1.2542381,0.079847686
-0.1,-0.1,1.2999999999999998,0.5235987755982988,-0.5235987755982988,0,0.006761895,-0.014451076,1.9994844,0.60128456,1.0775095,0.3096569,1.1760668,0.7246794,1.1358665,-0.05892582,-0.06519951,-0.030730093,1.2756175,0.03786103
-0.1,-0.1,1.2999999999999998,0.5235987755982988,-0.5235987755982988,0,0.0047987853,-0.0147325555,1.9979863,0.59928286,1.0749695,0.31461266,1.1802533,0.75050277,1.2220731,-0.16418082,-0.06091046,0.0007498543,1.2505718,0.01616251
-0.1,-0.1,1.2999999999999998,0.5235987755982988,-0.5235987755982988,0,0.008089321,-0.012948282,1.9965818,0.6011995,1.0851837,0.31548622,1.2000928,0.622548,1.1522447,-0.013653217,-0.002603266,-0.13084376,1.3227458,0.36016345
-0.1,-0.1,1.2999999999999998,0.5235987755982988,-0.5235987755982988,0,0.0055536716,-0.014156048,1.9957157,0.60009277,1.0878516,0.31465128,1.1875259,0.7510254,1.171872,-0.08122153,-0.047677174,0.113984294,1.2438682,0.49423555
-0.1,-0.1,1.2999999999999998,0.5235987755982988,-0.5235987755982988,0,0.006367006,-0.012111842,2.0026283,0.59934926,1.0962523,0.31610513,1.2083033,0.63093704,1.1855587,0.06264297,-0.06062842,0.14145488,1.259729,0.9463379
-0.1,-0.1,1.2999999999999998,0.5235987755982988,-0.5235987755982988,0,0.004402826,-0.014360526,1.999617,0.59868205,1.0866221,0.32056984,1.1864522,0.53471875,1.1419512,-0.07069041,-0.069117,0.14433937,1.3175433,0.3913082
-0.1,-0.1,1.2999999999999998,0.5235987755982988,-0.5235987755982988,0,0.006083277,-0.014486509,1.9993871,0.600144,1.0816392,0.32041606,1.2017884,0.6188423,1.232167,-0.03965169,-0.014790519,-0.03904283,1.2749913,-0.5263894
-0.1,-0.1,1.2999999999999998,0.5235987755982988,-0.5235987755982988,0,0.008227757,-0.013212746,1.9998004,0.59971416,1.0837537,0.320908,1.1229779,0.6990892,1.1544154,0.08544047,-0.091009535,-0.15914953,1.3771809,0.19855618
-0.1,-0.1,1.2999999999999998,0.5235987755982988,-0.5235987755982988,0,0.0041039963,-0.012157717,1.9973878,0.5995,1.0839721,0.31455335,1.1815282,0.84435815,1.188625,-0.0490563,-0.031263042,-0.10165533,1.2705528,1.1252457
-0.1,-0.1,1.2999999999999998,0.5235987755982988,-0.5235987755982988,0,0.0077179815,-0.014908387,1.9986469,0.6005653,1.0997598,0.32049307,1.1702605,0.80733055,1.2053951,-0.06414852,-0.06975803,-0.28125992,1.246278,0.4312349
-0.1,-0.1,1.2999999999999998,0.5235987755982988,-0.5235987755982988,0,0.005285592,-0.0132963685,2.0016174,0.6001292,1.0793417,0.3161405,1.1481886,0.4888145,1.1896092,0.056168836,-0.010074992,0.094176546,1.2470282,-0.1854772
-0.1,-0.1,1.2999999999999998,0.5235987755982988,-0.5235987755982988,0,0.0071478076,-0.0129518155,1.9951642,0.5998835,1.0901706,0.31426546,1.1794221,0.69886446,1.1450905,0.027675785,-0.063670814,-0.00883604,1.2397519,0.21834883
-0.1,-0.1,1.2999999999999998,0.5235987755982988,-0.5235987755982988,0,0.0066695656,-0.015015835,1.9968277,0.59948844,1.0809902,0.31613523,1.2006634,0.67042434,1.1779685,-0.012239481,-0.08934653,0.25453752,1.3091415,-0.041456524
-0.1,-0.1,1.2999999999999998,0.5235987755982988,-0.5235987755982988,0,0.006336074,-0.013771385,1.9996598,0.6003378,1.0772312,0.3198539,1.1755564,0.73891133,1.173307,-0.09986851,-0.04936231,-0.1322117,1.346188,0.5749078
-0.1,-0.1,1.2999999999999998,0.5235987755982988,-0.5235987755982988,0,0.005699501,-0.012711123,2.0009744,0.59990525,1.0902901,0.31747603,1.2072247,0.58982897,1.1918619,0.019476196,-0.03908713,0.048863847,1.2880985,0.58528167
-0.1,-0.1,1.2999999999999998,0.5235987755982988,-0.5235987755982988,0,0.0062001892,-0.013357183,2.0000346,0.5995794,1.0852687,0.31609118,1.1633353,0.7227365,1.1052284,-0.021658765,-0.06837345,0.33283228,1.2981913,0.5242206
-0.1,-0.1,1.2999999999999998,0.5235987755982988,-0.5235987755982988,0,0.005466656,-0.014512818,1.999223,0.5985046,1.0830475,0.31937844,1.2196754,0.48154268,1.2018712,-0.07402641,-0.019481035,-0.0487624,1.3462951,-0.063035354
-0.1,-0.1,1.2999999999999998,0.5235987755982988,-0.5235987755982988,0,0.004398376,-0.015521054,1.9982489,0.5986244,1.0783532,0.3146176,1.1977346,0.91475916,1.1941013,-0.15719305,-0.05431333,-0.34347048,1.3445657,-0.8065079
-0.1,-0.1,1.2999999999999998,0.5235987755982988,-0.5235987755982988,0,0.0051902393,-0.014970851,2.0018513,0.5997517,1.0836,0.31530842,1.1578444,0.65423274,1.1195791,-0.10124264,-0.061046846,0.2212169,1.2990583,1.1721987
-0.1,-0.1,1.2999999999999998,0.5235987755982988,-0.5235987755982988,0,0.005799649,-0.014050367,1.9988178,0.5987889,1.0778475,0.31295756,1.1987549,0.7888772,1.1393975,0.09716038,-0.0359721,0.17812285,1.2797132,0.06112724
-0.1,-0.1,1.2999999999999998,0.5235987755982988,-0.5235987755982988,0,0.0069352887,-0.014116217,1.9969736,0.59906024,1.0833768,0.31778657,1.1524463,0.64216936,1.1686578,-0.09906859,-0.039813526,0.06923979,1.2698681,-0.518848
-0.1,-0.1,1.2999999999999998,0.5235987755982988,-0.5235987755982988,0,0.0068347245,-0.0149159515,1.9998306,0.5988749,1.0815052,0.30943713,1.1820291,0.6083051,1.1677532,-0.29927284,-0.066278845,-0.18893659,1.1748064,0.18823661
-0.1,-0.1,1.2999999999999998,0.5235987755982988,-0.5235987755982988,0,0.0054762564,-0.0141305085,2.000276,0.600262,1.0852535,0.31448805,1.164458,0.52216405,1.2609836,-0.007096241,-0.06803858,0.2818975,1.2439989,1.0313404
-0.1,-0.1,1.2999999999999998,0.5235987755982988,-0.5235987755982988,0,0.006749827,-0.015273114,2.0029888,0.6004116,1.0798067,0.32073012,1.1632035,0.43133867,1.255164,0.101259895,-0.019039277,0.050117504,1.2464627,0.052957155
-0.1,-0.1,1.2999999999999998,0.5235987755982988,-0.5235987755982988,0,0.006790888,-0.013859732,1.9968046,0.60018337,1.0823396,0.3247533,1.1731626,0.64247924,1.168947,0.097914726,-0.07666756,0.16593501,1.3116511,0.9123386
-0.1,-0.1,1.2999999999999998,0.5235987755982988,-0.5235987755982988,0,0.004461297,-0.013960849,1.9981163,0.6002193,1.08402,0.3273587,1.19292,0.62231576,1.1039307,0.067163095,-0.057340395,-0.0077413977,1.260574,0.48233706
-0.1,-0.1,1.2999999999999998,0.5235987755982988,-0.5235987755982988,0,0.007288821,-0.013461333,2.0000212,0.60033613,1.0738856,0.316956,1.205458,0.44683552,1.1854509,0.026995808,-0.019260377,-0.059680346,1.2718934,-1.052452
-0.1,-0.1,1.2999999999999998,0.5235987755982988,-0.5235987755982988,0,0.006576662,-0.014342456,1.9997693,0.5985045,1.0755782,0.3144959,1.1718465,0.6508238,1.2050414,-0.053798467,-0.105386816,0.13135433,1.2709426,-0.31656578
-0.1,-0.1,1.2999999999999998,0.5235987755982988,-0.5235987755982988,0,0.006091975,-0.0135584315,2.000102,0.6000539,1.0805585,0.31159475,1.1858299,0.6206609,1.1788213,0.13768664,-0.107878566,-0.08649223,1.2858651,1.101265
-0.1,-0.1,1.2999999999999998,0.5235987755982988,-0.5235987755982988,0,0.0063133514,-0.014936792,1.9967433,0.59962416,1.0768762,0.31929517,1.1815493,0.52863455,1.2052702,-0.17008908,-0.04238793,0.11890968,1.3397912,0.6772761
-0.1,-0.1,1.2999999999999998,0.5235987755982988,-0.5235987755982988,0,0.0064669694,-0.015103469,2.0002534,0.60122293,1.0857437,0.32066366,1.1558261,0.540074,1.1128998,-0.022980465,-0.061421998,-0.022648085,1.3207963,-0.45203188
-0.1,-0.1,1.2999999999999998,0.5235987755982988,-0.5235987755982988,0,0.006191624,-0.0143625075,1.9972129,0.60116684,1.0800822,0.31407458,1.1421427,0.60532016,1.108485,0.11381575,-0.080630116,0.34114558,1.3716904,-0.65335625
-0.1,-0.1,1.2999999999999998,0.5235987755982988,-0.5235987755982988,0,0.0055743973,-0.012708829,2.0005271,0.5988825,1.0711133,0.32246852,1.1826762,0.48888555,1.1673506,-0.07323901,-0.04750342,0.14647184,1.2852805,-0.16546708
-0.1,-0.1,1.2999999999999998,0.5235987755982988,-0.5235987755982988,0,0.004895684,-0.014398775,2.0022628,0.60113686,1.0895379,0.31122234,1.1667757,0.6030862,1.1125326,-0.0033961292,-0.030041523,-0.18611497,1.2646968,-0.6931641
-0.1,-0.1,1.2999999999999998,0.5235987755982988,-0.5235987755982988,0,0.0055835964,-0.013794401,1.9977305,0.6010116,1.0841527,0.31522173,1.194284,0.5489958,1.2106229,-0.008421863,-0.09350868,0.034510095,1.3764216,0.13440871
-0.1,-0.1,1.2999999999999998,0.5235987755982988,-0.5235987755982988,0,0.008162041,-0.016269073,2.000671,0.59862065,1.0848669,0.31589195,1.1596825,0.98883504,1.1247336,-0.001832149,-0.009052444,-0.27422604,1.2811711,-0.09321377
-0.1,-0.1,1.2999999999999998,0.5235987755982988,-0.5235987755982988,0,0.0044621504,-0.012552529,1.9979867,0.60094035,1.0823729,0.31282872,1.1761597,0.67711335,1.1667172,0.0809283,-0.106272735,-0.05100699,1.3187736,0.017728087
-0.1,-0.1,1.2999999999999998,0.5235987755982988,-0.5235987755982988,0,0.0064976993,-0.014106178,2.000564,0.60101366,1.0900683,0.3262302,1.1691885,0.45644262,1.1768363,0.025423989,-0.08543646,-0.11597734,1.296886,0.4777317
-0.1,-0.1,1.2999999999999998,0.5235987755982988,-0.5235987755982988,0,0.006369349,-0.01416319,2.0009205,0.59907734,1.0909255,0.32225057,1.1647407,0.7338712,1.1762618,0.04882806,-0.077068284,0.0014091774,1.3157727,-0.03580538
-0.1,-0.1,1.2999999999999998,0.5235987755982988,-0.5235987755982988,0,0.004122761,-0.013542062,2.0001438,0.6001413,1.0876604,0.32084346,1.1505212,0.76865715,1.1227616,-0.05461155,-0.06931216,0.12121412,1.3165927,0.9133547
-0.1,-0.1,1.2999999999999998,0.5235987755982988,-0.5235987755982988,0,0.0063079614,-0.01390169,1.9948006,0.6018139,1.0803493,0.31495342,1.1382154,0.6926648,1.1593935,-0.10162455,-0.0077480474,0.0342708,1.3428106,1.0777364
-0.1,-0.1,1.2999999999999998,0.5235987755982988,-0.5235987755982988,0,0.0065936097,-0.014092921,2.0040686,0.59949917,1.0875357,0.32567772,1.1580456,0.7523587,1.1719468,-0.2856067,-0.066408284,-0.21724328,1.2536302,0.58674186
-0.1,-0.1,1.2999999999999998,0.5235987755982988,-0.5235987755982988,0,0.0070515843,-0.013189585,2.000502,0.5984577,1.0777148,0.32085568,1.1934233,0.7322369,1.1624866,-0.02370747,-0.004537548,-0.042617057,1.2573397,-1.0982512
-0.1,-0.1,1.2999999999999998,0.5235987755982988,-0.5235987755982988,0,0.007862818,-0.012344593,1.9990804,0.6004161,1.080438,0.31729233,1.1939912,0.5446668,1.1431917,0.07927823,-0.020827062,-0.1469845,1.3058342,0.26198468
-0.1,-0.1,1.2999999999999998,0.5235987755982988,-0.5235987755982988,0,0.0058013946,-0.014689226,1.9994256,0.60227793,1.0832175,0.31809348,1.1748072,0.67667425,1.1655852,0.007698824,-0.10370811,0.31125024,1.2539369,-0.71669525
-0.1,-0.1,1.2999999999999998,0.5235987755982988,-0.5235987755982988,0,0.006718219,-0.013346931,2.0010254,0.6000912,1.0784417,0.31945097,1.1026509,0.7089394,1.1085056,0.03643129,-0.08992459,0.001389532,1.315714,-0.52728933
-0.1,-0.1,1.2999999999999998,0.5235987755982988,-0.5235987755982988,0,0.008083966,-0.015369995,1.9995148,0.6000527,1.0754766,0.3270785,1.1704408,0.7809779,1.1603632,0.17040464,-0.04567604,0.09055575,1.3090227,-0.20130336
-0.1,-0.1,1.2999999999999998,0.5235987755982988,-0.5235987755982988,0,0.006815384,-0.012916963,1.9975734,0.6004068,1.0889218,0.31886134,1.1839573,0.68543345,1.1358771,-0.011121464,-0.009056363,-0.086118415,1.2851194,-0.12924697
-0.1,-0.1,1.2999999999999998,0.5235987755982988,-0.5235987755982988,0,0.005447172,-0.012250853,1.9953779,0.60045797,1.0918297,0.3207196,1.1717975,0.6420223,1.2085648,-0.028199473,-0.052435514,-0.058907196,1.271399,0.8183331
-0.1,-0.1,1.2999999999999998,0.5235987755982988,-0.5235987755982988,0,0.004837846,-0.012324791,1.9971099,0.5995511,1.0777371,0.31598005,1.1800733,0.7791806,1.1737479,0.094402805,-0.055609703,0.16433941,1.3973547,0.018762913
-0.1,-0.1,1.2999999999999998,0.5235987755982988,-0.5235987755982988,0,0.0050548823,-0.013197264,1.9994496,0.59861636,1.0756396,0.30954722,1.1814482,0.6898632,1.1441367,-0.08176271,-0.06533736,0.19075486,1.3295574,-0.41069344
-0.1,-0.1,1.2999999999999998,0.5235987755982988,-0.5235987755982988,0,0.0062325285,-0.013998932,1.9975934,0.5999991,1.0774344,0.3177454,1.1981131,0.627346,1.1396006,0.013247079,-0.06243782,0.11028335,1.3605994,1.2026552
-0.1,-0.1,1.2999999999999998,0.5235987755982988,-0.5235987755982988,0,0.0067284442,-0.012283094,1.9984051,0.60072297,1.0876023,0.32624403,1.1690205,0.5178138,1.1256576,-0.21216288,-0.06364935,0.096461795,1.244405,-0.80730957
-0.1,-0.1,1.2999999999999998,0.5235987755982988,-0.5235987755982988,0,0.0067788237,-0.015332688,1.9946644,0.6007664,1.0777452,0.3094026,1.1789211,0.63848615,1.1656431,0.05120561,-0.10068645,-0.07011473,1.3581985,0.5909531
-0.1,-0.1,1.2999999999999998,0.5235987755982988,-0.5235987755982988,0,0.005262946,-0.015060476,1.999644,0.5988907,1.0874643,0.32291895,1.1649615,0.69363445,1.1685053,-0.09939236,-0.09059712,-0.047717072,1.3643029,0.17793596
-0.1,-0.1,1.2999999999999998,0.5235987755982988,-0.5235987755982988,0,0.00592992,-0.015093958,1.9972217,0.6002848,1.098198,0.31429014,1.2001362,0.7991535,1.1791002,-0.0023380613,-0.091088146,-0.028584491,1.2666184,-0.47561175
-0.1,-0.1,1.2999999999999998,0.5235987755982988,-0.5235987755982988,0,0.0072975843,-0.014445445,1.9972618,0.5982175,1.0714602,0.3204949,1.1724652,0.4505773,1.1553392,-0.222353,-0.119578026,-0.06123368,1.3443427,-0.14519422
-0.1,-0.1,1.2999999999999998,0.5235987755982988,-0.5235987755982988,0,0.0037197599,-0.012581787,1.9954762,0.6005887,1.0839818,0.31678477,1.2109603,0.7759891,1.1744866,0.028240502,-0.023897162,-0.12771939,1.2994131,0.38648567
-0.1,-0.1,1.2999999999999998,0.5235987755982988,-0.5235987755982988,0,0.005037201,-0.01341555,2.0008197,0.59890336,1.0846075,0.31745648,1.1833704,0.7433365,1.145876,0.07277359,-0.008938558,0.011374977,1.3116019,-0.2937439
-0.1,-0.1,1.2999999999999998,0.5235987755982988,-0.5235987755982988,0,0.0060808347,-0.011360254,1.9993968,0.5992501,1.082837,0.3053086,1.1937798,0.55564743,1.152759,0.2149015,-0.09381895,0.12036468,1.3390263,-0.8585163
-0.1,-0.1,1.2999999999999998,0.5235987755982988,-0.5235987755982988,0,0.0058390177,-0.012256486,1.997382,0.5999241,1.0701758,0.31414092,1.1824176,0.63108456,1.1807742,-0.044502918,-0.084918104,0.08379165,1.3046038,0.3554129
-0.1,-0.1,1.2999999999999998,0.5235987755982988,-0.5235987755982988,0,0.00593681,-0.012131599,2.0010934,0.6007956,1.0884567,0.3140156,1.1587963,0.85744715,1.1440948,-0.0074984077,-0.0057158233,-0.120503016,1.3911985,-0.6653406
-0.1,-0.1,1.2999999999999998,0.5235987755982988,-0.5235987755982988,0,0.0064318953,-0.012913558,1.9963515,0.5989324,1.0837903,0.31058568,1.1671503,0.57652223,1.2223573,0.09015443,-0.08635409,-0.23951502,1.3736047,0.0118723195
-0.1,-0.1,1.2999999999999998,0.5235987755982988,-0.5235987755982988,0,0.0049263393,-0.013585831,1.9965857,0.59897983,1.0772653,0.32356712,1.1693012,0.7415108,1.1794956,0.010395739,-0.03347617,0.039223034,1.3065768,0.6219807
-0.1,-0.1,1.2999999999999998,0.5235987755982988,-0.5235987755982988,0,0.004569605,-0.013352026,1.998016,0.5988534,1.0868378,0.31763408,1.1498712,0.7157727,1.1655405,0.07035472,-0.036073904,-0.04394787,1.2791446,0.66955185
-0.1,-0.1,1.2999999999999998,0.5235987755982988,-0.5235987755982988,0,0.007319964,-0.015156898,2.0017636,0.60108614,1.0775534,0.31778532,1.181237,0.69715875,1.2028583,0.012941057,-0.06530611,-0.13269386,1.2996031,0.0036844935
-0.1,-0.1,1.2999999999999998,0.5235987755982988,-0.5235987755982988,0,0.0048977137,-0.0127312355,1.998157,0.5989208,1.0892074,0.31121844,1.2019442,0.5462431,1.2161415,0.020834956,0.004310123,0.0046084668,1.2952992,-0.16632898
-0.1,-0.1,1.2999999999999998,0.5235987755982988,-0.5235987755982988,0,0.007715081,-0.01237032,2.0001478,0.59940225,1.0850145,0.31450254,1.1629611,0.9224586,1.1472218,0.14610176,-0.046382267,0.0025816218,1.2825462,1.0839455
-0.1,-0.1,1.2999999999999998,0.5235987755982988,-0.5235987755982988,0,0.007142156,-0.012769664,2.0004177,0.59909433,1.078292,0.3190457,1.2072263,0.61827517,1.15151,-0.15352422,-0.04948722,0.0537956,1.2594432,-0.41309202
-0.1,-0.1,1.2999999999999998,0.5235987755982988,-0.5235987755982988,0,0.0075532626,-0.015057775,1.998935,0.60032076,1.0860234,0.31660998,1.1686909,0.79064274,1.2006259,-0.13107054,-0.058854222,0.0049668634,1.3091118,-0.7640019
-0.1,-0.1,1.2999999999999998,0.5235987755982988,-0.5235987755982988,0,0.0050966353,-0.011791011,1.9994862,0.6002015,1.0959098,0.3152902,1.1960486,0.41853184,1.1931729,-0.02963866,-0.09659353,0.06855632,1.2637254,0.2188345
-0.1,-0.1,1.2999999999999998,0.5235987755982988,-0.5235987755982988,0,0.0063453033,-0.014000893,1.9995868,0.5994895,1.0837455,0.31857425,1.1508512,0.7895402,1.2072884,0.015401195,-0.072025776,0.21199057,1.254972,0.61213666
-0.1,-0.1,1.2999999999999998,0.5235987755982988,-0.5235987755982988,0,0.007942204,-0.013702227,1.9968448,0.6010385,1.0789591,0.3235891,1.2110159,0.5336773,1.1823347,0.056642387,-0.091133416,0.021406645,1.2807372,0.8129989
-0.1,-0.1,1.2999999999999998,0.5235987755982988,-0.5235987755982988,0,0.006967765,-0.0135943955,2.0019584,0.60076654,1.0830109,0.31323588,1.1673383,0.6753864,1.1461172,-0.02321043,-0.049050987,0.058358632,1.2928972,0.45479706
-0.1,-0.1,1.2999999999999998,0.5235987755982988,-0.5235987755982988,0,0.0066717034,-0.012768894,1.9979647,0.60049653,1.0942137,0.32663682,1.1320229,0.65976197,1.1372153,-0.22233096,0.021156747,-0.12884262,1.298471,1.099839
-0.1,-0.1,1.2999999999999998,0.5235987755982988,-0.5235987755982988,0,0.007009538,-0.014501081,2.00052,0.60127056,1.0840529,0.3137748,1.1870387,0.6300052,1.1403236,-0.07874824,-0.07433166,0.49326545,1.2449493,1.428492
-0.1,-0.1,1.2999999999999998,0.5235987755982988,-0.5235987755982988,0,0.006671328,-0.012334374,2.0003486,0.6012961,1.0808226,0.32248968,1.1380308,0.86474097,1.171053,-0.15403739,-0.007598777,0.2180846,1.3293241,0.41426018
-0.1,-0.1,1.2999999999999998,0.5235987755982988,-0.5235987755982988,0,0.0069547864,-0.014274336,2.0012884,0.60007066,1.0817393,0.3190998,1.1487612,0.694373,1.1110914,0.02680772,-0.13937286,-0.11956849,1.3417882,-0.98705554
-0.1,-0.1,1.2999999999999998,0.5235987755982988,-0.5235987755982988,0,0.0070116706,-0.012321711,1.999782,0.6011686,1.0819728,0.32110187,1.204822,0.5407966,1.167756,0.11386041,-0.05633015,-0.117804974,1.2542033,0.1841711
-0.1,-0.1,1.2999999999999998,0.5235987755982988,-0.5235987755982988,0,0.0066240085,-0.012755428,2.0014453,0.6006656,1.0881947,0.31309313,1.1559184,0.7208818,1.1814169,-0.022737114,-0.08840981,0.18318334,1.237154,0.38852012
-0.1,-0.1,1.2999999999999998,0.5235987755982988,-0.5235987755982988,0,0.008036667,-0.013411719,2.000734,0.60061324,1.0792454,0.3219815,1.1592373,0.5365588,1.1952572,-0.08687253,-0.029992346,0.38254002,1.2771951,0.62167126
-0.1,-0.1,1.2999999999999998,0.5235987755982988,-0.5235987755982988,0,0.008214702,-0.014185311,1.9992484,0.599616,1.0946828,0.3133313,1.1993544,0.8012054,1.1044946,-0.058230244,-0.0870857,-0.02733542,1.3516709,-0.043326497
-0.1,-0.1,1.2999999999999998,0.5235987755982988,-0.5235987755982988,0,0.007204561,-0.0123293875,2.0025284,0.6005359,1.0792766,0.3183596,1.1841617,0.5336607,1.2311156,-0.14759971,-0.03652445,-0.0110093495,1.2643801,0.46168697
-0.1,-0.1,1.2999999999999998,0.5235987755982988,-0.5235987755982988,0,0.0056183105,-0.014040181,2.0030324,0.60040975,1.0897467,0.3138698,1.2164476,0.4479381,1.0833867,0.14268558,-0.10325046,0.03802325,1.3331515,0.5870284
-0.1,-0.1,1.2999999999999998,0.5235987755982988,-0.5235987755982988,0,0.0053487523,-0.01317532,1.9981323,0.59955305,1.0828797,0.31720576,1.2109023,0.58681,1.1880187,0.10977023,-0.08552867,-0.011702142,1.2601159,0.049852535
-0.1,-0.1,1.2999999999999998,0.5235987755982988,-0.5235987755982988,0,0.005470223,-0.015410345,1.9984291,0.6020513,1.0822136,0.32186824,1.2163141,0.7565615,1.1623583,-0.06152044,-0.026582934,-0.0070934184,1.3075902,-0.7308253
-0.1,-0.1,1.2999999999999998,0.5235987755982988,-0.5235987755982988,0,0.007481729,-0.012428385,2.0013459,0.6019689,1.0869087,0.31407163,1.1746026,0.66608965,1.1562269,-0.09444719,-0.024384694,-0.20272459,1.2643551,0.6462017
-0.1,-0.1,1.2999999999999998,0.5235987755982988,-0.5235987755982988,0,0.0076893824,-0.0117156645,1.9991139,0.5994237,1.0879596,0.31452152,1.1288083,0.8254774,1.1561462,-0.026099382,-0.03771757,0.2312455,1.2556322,0.15022048
-0.1,-0.1,1.2999999999999998,0.5235987755982988,-0.5235987755982988,0,0.0059378427,-0.015914125,1.9967557,0.6000206,1.0741956,0.32528317,1.1625253,0.43188068,1.2458678,-0.09984674,-0.07639167,0.01011698,1.3096995,-0.48758453
-0.1,-0.1,1.2999999999999998,0.5235987755982988,-0.5235987755982988,0,0.0065711862,-0.014528959,1.9991517,0.5998568,1.0799806,0.3154219,1.1749479,0.7239396,1.2249006,0.01855204,-0.07276587,0.28032085,1.3042948,0.38861242
-0.1,-0.1,1.2999999999999998,0.5235987755982988,-0.5235987755982988,0,0.0065438133,-0.01408579,2.0020707,0.59833556,1.0776814,0.31831118,1.1707039,0.56229913,1.174708,0.013514003,-0.039524056,-0.0022439128,1.2109976,-0.4152106
-0.1,-0.1,1.2999999999999998,0.5235987755982988,-0.5235987755982988,0,0.006568177,-0.014117323,1.9984505,0.5985421,1.0806271,0.321961,1.1898998,0.5119923,1.1805234,-0.0089505585,-0.13414459,0.09055238,1.2710847,0.86894256
-0.1,-0.1,1.2999999999999998,0.5235987755982988,-0.5235987755982988,0,0.007098499,-0.012849628,2.000008,0.6002801,1.0779271,0.3177293,1.1897978,0.69838625,1.2447876,-0.0033699416,-0.026709734,0.14833762,1.3363222,0.7973494
-0.1,-0.1,1.2999999999999998,0.5235987755982988,-0.5235987755982988,0,0.008878515,-0.01408509,2.0002806,0.59975487,1.0847255,0.31253192,1.1491348,0.7683128,1.2758776,-0.06273009,-0.06506348,0.27566937,1.2791575,1.386603
-0.1,-0.1,1.2999999999999998,0.5235987755982988,-0.5235987755982988,0,0.00937608,-0.01388609,1.9988921,0.60129696,1.082221,0.31992435,1.1811749,0.4629369,1.2086267,-0.07855876,-0.026823066,0.1888791,1.3205689,0.671164
-0.1,-0.1,1.2999999999999998,0.5235987755982988,-0.5235987755982988,0,0.0073203514,-0.014561095,1.9990282,0.60061646,1.0940114,0.31729048,1.190751,0.6834463,1.1872153,-0.07048039,-0.09677716,-0.10090486,1.2739034,0.060531154
