sanky1234/BimanualDexCatch/isaacgymenvs/cem_results/football_pose_0.0_0.0_0.7999999999999999_0.5235987755982988_-0.5235987755982988_0_2025-05-26.csv
x,y,z,roll,pitch,yaw,robot1/joint1,robot1/joint2,robot1/joint3,robot1/joint4,robot1/joint5,robot1/joint6,robot1/joint7,robot2/joint1,robot2/joint2,robot2/joint3,robot2/joint4,robot2/joint5,robot2/joint6,robot2/joint7
0.0,0.0,0.7999999999999999,0.5235987755982988,-0.5235987755982988,0,-0.20224668,-1.052206,-1.8198497,-0.26080734,0.2567801,1.1487046,0.45316833,-0.370561,-0.87011075,-0.20819223,0.0019097476,0.05377687,0.9876912,1.5416737
0.0,0.0,0.7999999999999999,0.5235987755982988,-0.5235987755982988,0,-0.19955234,-1.0475525,-1.808476,-0.27012295,0.11238872,1.2756457,-0.8705662,-0.37375858,-0.87675333,-0.11654372,0.024778875,-0.017515311,1.0026945,0.21925701
0.0,0.0,0.7999999999999999,0.5235987755982988,-0.5235987755982988,0,-0.20386294,-1.0533911,-1.8013244,-0.25472608,0.08075353,1.2727716,-1.4445323,-0.36540422,-0.87014776,-0.42253095,-0.004382297,0.014870161,1.1125462,0.75551796
0.0,0.0,0.7999999999999999,0.5235987755982988,-0.5235987755982988,0,-0.20262538,-1.0573907,-1.8148293,-0.24487507,-0.34114012,1.2775319,-1.0895797,-0.35911903,-0.8753322,-0.28669778,0.0023417894,0.056224726,1.0102493,0.54055846
0.0,0.0,0.7999999999999999,0.5235987755982988,-0.5235987755982988,0,-0.20492288,-1.0569139,-1.8138256,-0.27349398,0.22932225,1.1581458,0.39510906,-0.3617904,-0.8758623,-0.08680726,0.017535536,-0.13056761,1.1576183,0.020448029
0.0,0.0,0.7999999999999999,0.5235987755982988,-0.5235987755982988,0,-0.20299695,-1.0566368,-1.8047918,-0.21912557,0.1702889,1.1646644,-1.8191402,-0.35656017,-0.87360483,-0.08217453,0.022049181,-0.06389433,1.1068386,-0.31684074
0.0,0.0,0.7999999999999999,0.5235987755982988,-0.5235987755982988,0,-0.20321962,-1.0524713,-1.8089564,-0.24821144,0.123165615,1.2060097,-0.16727227,-0.380574,-0.8736755,-0.1868479,-0.00763182,-0.008058436,1.1584867,0.36591706
0.0,0.0,0.7999999999999999,0.5235987755982988,-0.5235987755982988,0,-0.20083062,-1.0533204,-1.81764,-0.23995416,-0.13552935,1.2671798,0.14619501,-0.362066,-0.8755102,-0.5685601,0.026062196,0.027547669,1.1799419,-0.27415156
0.0,0.0,0.7999999999999999,0.5235987755982988,-0.5235987755982988,0,-0.20321876,-1.0543164,-1.8190631,-0.25820917,0.14343965,1.3209807,-1.5837319,-0.36467016,-0.87208426,-0.19459221,0.057257652,-0.10403239,1.1144075,1.7064692
0.0,0.0,0.7999999999999999,0.5235987755982988,-0.5235987755982988,0,-0.19969901,-1.0507716,-1.8195044,-0.24759997,-0.055417586,1.2169784,-0.718887,-0.3600623,-0.87201536,-0.38017341,0.06701074,-0.0046762936,1.0292867,0.086345054
0.0,0.0,0.7999999999999999,0.5235987755982988,-0.5235987755982988,0,-0.2007204,-1.0511389,-1.8181554,-0.24540772,0.031021388,1.2154148,-1.6533774,-0.36823246,-0.8719494,-0.1389531,0.08078657,-0.0021028728,1.0724111,0.5821083
0.0,0.0,0.7999999999999999,0.5235987755982988,-0.5235987755982988,0,-0.20158853,-1.0537362,-1.8061553,-0.24646313,-0.19333546,1.1937869,-0.55716234,-0.36113146,-0.87408876,-0.6005447,0.05413732,-0.17209832,1.0597037,0.15447342
0.0,0.0,0.7999999999999999,0.5235987755982988,-0.5235987755982988,0,-0.19865972,-1.0495613,-1.8207052,-0.27023447,-0.13209766,1.2768948,-1.3560208,-0.38106695,-0.8753037,-0.22290736,0.018123962,0.07492731,1.1539814,-0.23562126
0.0,0.0,0.7999999999999999,0.5235987755982988,-0.5235987755982988,0,-0.20064493,-1.0542383,-1.8128271,-0.22082554,-0.06589598,1.1380849,-0.86944085,-0.3635324,-0.8742469,-0.35955927,0.06128088,-0.26433337,1.0993925,-0.65844697
0.0,0.0,0.7999999999999999,0.5235987755982988,-0.5235987755982988,0,-0.20171985,-1.0560582,-1.8057864,-0.25039726,0.032052297,1.3344151,-2.7167532,-0.37518233,-0.87453526,-0.25322744,0.07560911,-0.04357389,1.1826671,-1.3326906
0.0,0.0,0.7999999999999999,0.5235987755982988,-0.5235987755982988,0,-0.20199633,-1.0535741,-1.80925,-0.2845102,-0.013068323,1.2019916,-1.2242862,-0.36365473,-0.873981,-0.0924322,0.06806759,-0.011900186,0.9902999,-0.9813924
0.0,0.0,0.7999999999999999,0.5235987755982988,-0.5235987755982988,0,-0.20301317,-1.0555003,-1.8026059,-0.2577918,-0.12495691,1.2323354,-0.4040474,-0.35649815,-0.8731357,-0.30283275,0.017146485,-0.16653727,1.0857602,-1.0981189
0.0,0.0,0.7999999999999999,0.5235987755982988,-0.5235987755982988,0,-0.20369273,-1.0550456,-1.8193996,-0.27213314,0.15979116,1.335482,0.44023272,-0.37724712,-0.8768509,-0.30517358,0.035458174,0.039566647,1.0449035,1.0436889
0.0,0.0,0.7999999999999999,0.5235987755982988,-0.5235987755982988,0,-0.2010893,-1.0543216,-1.803088,-0.24282244,0.026686113,1.2062596,-2.445934,-0.36801043,-0.8723506,-0.3256654,0.024900693,-0.22818388,1.1157016,-0.95201796
0.0,0.0,0.7999999999999999,0.5235987755982988,-0.5235987755982988,0,-0.19929428,-1.0499562,-1.8286873,-0.2435517,-0.016358465,1.1974545,0.276204,-0.37898418,-0.87395287,-0.74227333,0.026064767,0.018762425,1.0886992,0.5380941
0.0,0.0,0.7999999999999999,0.5235987755982988,-0.5235987755982988,0,-0.20511107,-1.0517012,-1.8054552,-0.2511749,0.04261475,1.1776251,-0.4487911,-0.35913488,-0.87260467,-0.26898226,0.040789615,0.061898783,1.1557755,1.5264517
0.0,0.0,0.7999999999999999,0.5235987755982988,-0.5235987755982988,0,-0.1995606,-1.0531148,-1.785224,-0.28500658,0.26168433,1.2933781,0.308974,-0.3616362,-0.87526196,-0.19831328,0.060962193,-0.13405962,1.065193,-0.40974346
0.0,0.0,0.7999999999999999,0.5235987755982988,-0.5235987755982988,0,-0.20301451,-1.052536,-1.8120118,-0.23949742,0.20417385,1.21967,-1.7591879,-0.3554842,-0.87362814,-0.42009687,0.06537398,0.051181503,1.0204983,-1.6443918
0.0,0.0,0.7999999999999999,0.5235987755982988,-0.5235987755982988,0,-0.20316164,-1.0558985,-1.7981912,-0.23969504,0.14907196,1.319354,-0.34918255,-0.36124715,-0.87164974,-0.46837714,0.009685215,0.013359081,1.0891304,0.40530506
0.0,0.0,0.7999999999999999,0.5235987755982988,-0.5235987755982988,0,-0.20438445,-1.0547163,-1.8092539,-0.29098862,0.10730659,1.2475994,-1.661925,-0.34913883,-0.8715164,-0.29022136,-0.0044486644,-0.15264632,0.99247897,-0.079602174
0.0,0.0,0.7999999999999999,0.5235987755982988,-0.5235987755982988,0,-0.19879939,-1.0507281,-1.8179193,-0.24844332,-0.0365911,1.2217748,0.49735466,-0.3734786,-0.8735732,-0.30590487,0.06208368,-0.20500693,1.0380926,0.4461963
0.0,0.0,0.7999999999999999,0.5235987755982988,-0.5235987755982988,0,-0.20253299,-1.0503812,-1.8056207,-0.2678071,0.11401073,1.2156528,0.5216586,-0.3645798,-0.874938,-0.4164895,0.03362156,0.089994304,1.040509,-1.1044394
0.0,0.0,0.7999999999999999,0.5235987755982988,-0.5235987755982988,0,-0.20135535,-1.0556345,-1.8164725,-0.24466601,0.472412,1.211282,1.8318797,-0.3599326,-0.87480754,-0.19323304,0.086063296,-0.15148775,1.1124635,-0.72703785
0.0,0.0,0.7999999999999999,0.5235987755982988,-0.5235987755982988,0,-0.20237175,-1.056832,-1.8154325,-0.2401534,0.009117375,1.1810181,-0.25809446,-0.3679543,-0.874294,-0.25566512,0.013296065,0.03800079,1.0715734,1.1425056
0.0,0.0,0.7999999999999999,0.5235987755982988,-0.5235987755982988,0,-0.20441668,-1.0552204,-1.8118118,-0.23513333,0.06263161,1.2238737,0.18221304,-0.37279934,-0.87330633,-0.32663888,0.023794658,-0.013159592,1.0827211,-1.1961346
0.0,0.0,0.7999999999999999,0.5235987755982988,-0.5235987755982988,0,-0.20166022,-1.051039,-1.8206705,-0.24591947,0.025960518,1.181943,-1.2579352,-0.36280707,-0.87399966,-0.29735723,0.020145496,0.010643852,1.1498622,0.14175744
0.0,0.0,0.7999999999999999,0.5235987755982988,-0.5235987755982988,0,-0.20054196,-1.0574518,-1.8141636,-0.25354588,-0.270456,1.3212652,-0.12634233,-0.37326416,-0.8744118,-0.6159556,0.05801824,0.05696716,1.0668695,-0.46914122
0.0,0.0,0.7999999999999999,0.5235987755982988,-0.5235987755982988,0,-0.20336345,-1.0527658,-1.8118047,-0.2245048,0.22275117,1.2233546,-1.1669742,-0.36801338,-0.8745672,-0.61407185,-0.016928915,0.09168898,1.0740994,0.3035163
0.0,0.0,0.7999999999999999,0.5235987755982988,-0.5235987755982988,0,-0.20214733,-1.0516149,-1.8154786,-0.30126646,0.121488385,1.3336245,-0.5587867,-0.36276087,-0.87267995,-0.5116336,0.09031564,-0.25079724,0.9994952,-2.3276594
0.0,0.0,0.7999999999999999,0.5235987755982988,-0.5235987755982988,0,-0.20446523,-1.0545766,-1.8093412,-0.23621091,-0.11147421,1.2039179,-1.6139064,-0.3584876,-0.8721198,-0.3795904,0.08138607,-0.09691369,1.1002518,0.67467517
0.0,0.0,0.7999999999999999,0.5235987755982988,-0.5235987755982988,0,-0.20263807,-1.055785,-1.8004175,-0.25196412,0.0688771,1.2871234,-0.9042608,-0.35027972,-0.871587,-0.38900456,-0.010071367,-0.037594855,1.1193116,0.12084184
0.0,0.0,0.7999999999999999,0.5235987755982988,-0.5235987755982988,0,-0.20307223,-1.0533197,-1.8120012,-0.2501458,0.06497286,1.2858522,-3.127762,-0.37078568,-0.8741189,-0.48851848,0.11079921,-0.06936814,1.1094724,-0.0785727
0.0,0.0,0.7999999999999999,0.5235987755982988,-0.5235987755982988,0,-0.20074409,-1.0541373,-1.8244164,-0.22930452,-0.007316625,1.2442206,-2.4621186,-0.37226564,-0.8721928,-0.57924116,0.06396275,-0.14937437,1.059711,0.9568259
0.0,0.0,0.7999999999999999,0.5235987755982988,-0.5235987755982988,0,-0.20380221,-1.0533507,-1.8211048,-0.23517743,-0.05924185,1.2281882,-0.18697713,-0.36216712,-0.8730082,-0.39140892,0.045930363,-0.05099958,1.1459209,-0.16834772
0.0,0.0,0.7999999999999999,0.5235987755982988,-0.5235987755982988,0,-0.19918698,-1.0494475,-1.8161799,-0.26073247,-0.029317297,1.2445995,-0.5519078,-0.3662837,-0.8770094,-0.49859974,0.06843006,-0.0027132728,1.1366092,1.0354162
0.0,0.0,0.7999999999999999,0.5235987755982988,-0.5235987755982988,0,-0.19877613,-1.049866,-1.8253138,-0.2630718,0.28833514,1.2994275,-0.9433119,-0.3708414,-0.87579054,-0.17707008,0.0055025876,0.026473876,1.219309,0.07045611
0.0,0.0,0.7999999999999999,0.5235987755982988,-0.5235987755982988,0,-0.20037274,-1.0542809,-1.8156968,-0.26742893,0.34244594,1.2758342,0.2861393,-0.36433774,-0.8748653,-0.502531,0.055050053,0.20430657,1.0907977,-0.34691975
0.0,0.0,0.7999999999999999,0.5235987755982988,-0.5235987755982988,0,-0.20074722,-1.0525013,-1.8213725,-0.24623531,-0.17066018,1.2213676,0.5766996,-0.37546226,-0.87514544,-0.35182732,0.013277529,-0.043255493,1.082379,-0.60723466
0.0,0.0,0.7999999999999999,0.5235987755982988,-0.5235987755982988,0,-0.20103782,-1.0542685,-1.8008959,-0.2661113,-0.3463102,1.2359322,-1.1269951,-0.36754614,-0.87337965,-0.46412957,-0.025244316,0.014013049,1.2923058,-0.23964545
0.0,0.0,0.7999999999999999,0.5235987755982988,-0.5235987755982988,0,-0.20218566,-1.0536958,-1.8144548,-0.21419176,-0.28613293,1.231429,-1.1777557,-0.37706134,-0.87470263,-0.2469513,0.027646221,-0.10659261,1.1570487,1.2127092
0.0,0.0,0.7999999999999999,0.5235987755982988,-0.5235987755982988,0,-0.2029873,-1.0482358,-1.8154615,-0.25737286,-0.26242355,1.2394336,-2.2178125,-0.35633835,-0.875178,-0.600943,0.06170473,-0.13969293,1.1480953,0.6702078
0.0,0.0,0.7999999999999999,0.5235987755982988,-0.5235987755982988,0,-0.19864258,-1.0537019,-1.8193127,-0.2426719,-0.0561827,1.1806896,1.7570906,-0.38231418,-0.8732485,-0.15918311,0.020710548,-0.13944615,1.1215289,-0.38635132
0.0,0.0,0.7999999999999999,0.5235987755982988,-0.5235987755982988,0,-0.20246236,-1.0576035,-1.8101323,-0.2161633,-0.033849813,1.2569684,0.08935183,-0.36464515,-0.87388563,-0.38416493,0.062035557,-0.14125276,1.0078968,-1.0422885
0.0,0.0,0.7999999999999999,0.5235987755982988,-0.5235987755982988,0,-0.20276001,-1.0522466,-1.811559,-0.24485889,0.15133846,1.1519134,0.102277525,-0.37762687,-0.8761594,0.15228787,-0.028167,0.070659295,1.0534685,0.04408964
0.0,0.0,0.7999999999999999,0.5235987755982988,-0.5235987755982988,0,-0.20661375,-1.0534178,-1.8130794,-0.27493575,0.10854414,1.3107203,1.3565618,-0.37742978,-0.87136096,-0.46043944,0.09112912,-0.23625022,0.99868995,1.0421216
0.0,0.0,0.7999999999999999,0.5235987755982988,-0.5235987755982988,0,-0.20307767,-1.0535289,-1.807656,-0.23872674,-0.11622359,1.2005702,-0.41273233,-0.3700364,-0.87362206,-0.3297223,0.037382077,0.1065779,1.17086,0.6398247
0.0,0.0,0.7999999999999999,0.5235987755982988,-0.5235987755982988,0,-0.20188665,-1.0508082,-1.8059947,-0.26457608,-0.15415174,1.2223434,0.05781962,-0.36537892,-0.87118846,-0.17422594,0.059311636,-0.097453915,1.0635598,-0.58870435
0.0,0.0,0.7999999999999999,0.5235987755982988,-0.5235987755982988,0,-0.2016947,-1.0500137,-1.817747,-0.27484682,-0.22801398,1.26651,-0.28847495,-0.3551494,-0.8772116,-0.55202407,0.02164313,0.06040293,1.1585538,0.73022956
0.0,0.0,0.7999999999999999,0.5235987755982988,-0.5235987755982988,0,-0.19944613,-1.0488633,-1.8105733,-0.25755292,0.10106155,1.2482686,-1.5022117,-0.36148483,-0.8764343,-0.18950473,0.06872523,-0.04321667,1.1860889,-0.58460146
0.0,0.0,0.7999999999999999,0.5235987755982988,-0.5235987755982988,0,-0.19933791,-1.0553919,-1.8133616,-0.21789958,0.49119517,1.3435009,0.35228634,-0.36431062,-0.8757972,-0.40257016,0.05102441,0.06577956,1.1676779,-0.006623696
0.0,0.0,0.7999999999999999,0.5235987755982988,-0.5235987755982988,0,-0.20511693,-1.0557321,-1.8122829,-0.26374587,-0.0106537985,1.2236744,-1.486532,-0.35708913,-0.87472713,-0.23864622,-0.020287812,-0.039570056,1.0154196,-0.24309237
0.0,0.0,0.7999999999999999,0.5235987755982988,-0.5235987755982988,0,-0.20357762,-1.0567846,-1.8140253,-0.22542387,-0.013715774,1.2548418,0.4866107,-0.3557925,-0.87615246,-0.020938506,0.075647004,0.06923242,1.2386752,-0.34187013
0.0,0.0,0.7999999999999999,0.5235987755982988,-0.5235987755982988,0,-0.20175633,-1.0531191,-1.8116624,-0.21447998,0.06590277,1.1759492,1.3613746,-0.35384265,-0.8773849,-0.36107722,0.03280743,0.06372552,0.98185277,-0.1581633
0.0,0.0,0.7999999999999999,0.5235987755982988,-0.5235987755982988,0,-0.20146279,-1.0489346,-1.8149229,-0.25487313,-0.15575892,1.2144749,0.47926316,-0.3699168,-0.87491655,-0.42938328,0.0887744,-0.15170379,1.0719533,-1.4127052
0.0,0.0,0.7999999999999999,0.5235987755982988,-0.5235987755982988,0,-0.2022148,-1.0537102,-1.8045692,-0.21393098,-0.053337544,1.1398753,-0.7083805,-0.36438566,-0.87303233,-0.33378634,0.044784624,-0.028944965,1.1197184,-0.30184385
0.0,0.0,0.7999999999999999,0.5235987755982988,-0.5235987755982988,0,-0.2022232,-1.0544345,-1.8171536,-0.22236328,-0.051898073,1.1933244,1.1810997,-0.37337244,-0.8762386,-0.5142348,0.08622535,0.00256404,1.0325017,0.516754
0.0,0.0,0.7999999999999999,0.5235987755982988,-0.5235987755982988,0,-0.20409058,-1.0563889,-1.8039212,-0.22788075,0.07874069,1.2627378,-2.7760603,-0.35526785,-0.87251675,-0.4228226,0.021338547,-0.114388615,1.1295242,0.41183
0.0,0.0,0.7999999999999999,0.5235987755982988,-0.5235987755982988,0,-0.20107058,-1.0505242,-1.8126441,-0.27092746,0.16217415,1.2807479,0.58261174,-0.3685276,-0.8748472,-0.45980412,0.007016843,0.02349508,1.135191,-0.612818
0.0,0.0,0.7999999999999999,0.5235987755982988,-0.5235987755982988,0,-0.20545325,-1.0518633,-1.8048334,-0.23154119,-0.41458112,1.2710475,-1.1329383,-0.3658441,-0.87696874,-0.08878848,0.039366342,0.0059844563,1.0858924,-0.26379207
0.0,0.0,0.7999999999999999,0.5235987755982988,-0.5235987755982988,0,-0.20060118,-1.0537759,-1.8220546,-0.24169666,0.06255147,1.2497613,-0.03166165,-0.3583795,-0.8732101,-0.3105557,0.034742318,-0.10076371,1.1823462,0.75616395
0.0,0.0,0.7999999999999999,0.5235987755982988,-0.5235987755982988,0,-0.20140775,-1.0549256,-1.8303487,-0.25908443,0.28902552,1.2403736,-0.798893,-0.37228495,-0.8751289,-0.037305593,0.040574707,-0.124180056,1.1100055,1.4051675
0.0,0.0,0.7999999999999999,0.5235987755982988,-0.5235987755982988,0,-0.20028576,-1.0531967,-1.8152574,-0.21357125,0.24076699,1.3052223,-1.1935062,-0.3685635,-0.87529105,-0.18651105,0.003538814,-0.07373339,1.0137861,0.543701
0.0,0.0,0.7999999999999999,0.5235987755982988,-0.5235987755982988,0,-0.20117481,-1.0548012,-1.8256779,-0.2441903,-0.29702735,1.2867111,-1.8194115,-0.3670001,-0.87620777,-0.031495642,0.055870503,0.17756528,1.1072271,0.21525441
0.0,0.0,0.7999999999999999,0.5235987755982988,-0.5235987755982988,0,-0.20350938,-1.0563627,-1.803221,-0.25556773,-0.33679253,1.3166865,-0.27457482,-0.3629133,-0.8736099,-0.333793,0.016581934,-0.080272414,1.2172186,1.490112
0.0,0.0,0.7999999999999999,0.5235987755982988,-0.5235987755982988,0,-0.20538391,-1.0532976,-1.8178871,-0.23073168,-0.1448566,1.205799,-1.2497416,-0.37862247,-0.8737377,-0.31415078,0.0184444,-0.116529435,1.0314051,-2.0628982
0.0,0.0,0.7999999999999999,0.5235987755982988,-0.5235987755982988,0,-0.20021628,-1.053154,-1.8203695,-0.24561264,0.12079682,1.1884707,-0.5117699,-0.37818083,-0.8740754,-0.44796962,-0.006042853,-0.02078394,1.1076624,-0.17682901
0.0,0.0,0.7999999999999999,0.5235987755982988,-0.5235987755982988,0,-0.20436743,-1.0536475,-1.8134087,-0.21823686,-0.03495988,1.2000682,1.1762555,-0.3666573,-0.87256044,-0.2689774,0.046636946,0.083545424,1.0540284,0.46319693
0.0,0.0,0.7999999999999999,0.5235987755982988,-0.5235987755982988,0,-0.20231181,-1.0547986,-1.8086997,-0.24753241,-0.011981273,1.2272586,-1.1050632,-0.3747828,-0.8734557,-0.68859303,-0.020263944,0.018565323,1.0905329,0.6009049
0.0,0.0,0.7999999999999999,0.5235987755982988,-0.5235987755982988,0,-0.20102595,-1.0580214,-1.8002095,-0.23364756,0.05344005,1.3003236,0.3634422,-0.3738148,-0.8734296,-0.34467974,0.0039001699,0.03603544,1.1030004,-0.16675033
0.0,0.0,0.7999999999999999,0.5235987755982988,-0.5235987755982988,0,-0.20030613,-1.0540608,-1.808558,-0.22642238,0.15574369,1.1743569,-0.26340333,-0.36718023,-0.8749414,-0.13898762,0.04822105,0.017811093,0.97438437,0.24172238
0.0,0.0,0.7999999999999999,0.5235987755982988,-0.5235987755982988,0,-0.20075212,-1.0548123,-1.8014141,-0.26344305,-0.122519344,1.335444,-0.9407117,-0.3629944,-0.870001,-0.34802333,-0.011326088,-0.13168617,1.0883553,1.0618579
0.0,0.0,0.7999999999999999,0.5235987755982988,-0.5235987755982988,0,-0.20409259,-1.0543513,-1.8050044,-0.267807,0.28400394,1.2568239,0.4306099,-0.35299915,-0.87365913,-0.3716929,0.07503151,-0.15203658,1.1268296,0.21188757
0.0,0.0,0.7999999999999999,0.5235987755982988,-0.5235987755982988,0,-0.20326175,-1.0497174,-1.8078724,-0.2570629,-0.12072799,1.2332678,-0.10373192,-0.34698516,-0.8740654,-0.46865395,-0.03193244,-0.20921643,1.1842775,0.8144434
0.0,0.0,0.7999999999999999,0.5235987755982988,-0.5235987755982988,0,-0.20593606,-1.0520117,-1.8114944,-0.24003358,-0.23253365,1.164826,-0.17658208,-0.36419964,-0.87424386,-0.2909935,0.057999227,0.007360633,1.1928278,-0.52986926
0.0,0.0,0.7999999999999999,0.5235987755982988,-0.5235987755982988,0,-0.20145413,-1.0508173,-1.8207355,-0.26315117,0.05227007,1.2467332,2.2541957,-0.3688044,-0.87300766,-0.43674392,0.06230369,-0.04642649,1.1124339,-0.024942528
0.0,0.0,0.7999999999999999,0.5235987755982988,-0.5235987755982988,0,-0.203849,-1.0514404,-1.8223099,-0.25969312,-0.13559107,1.2682555,0.7050746,-0.36004356,-0.87611806,-0.51164657,0.02880493,-0.11354263,1.0960433,1.2790788
0.0,0.0,0.7999999999999999,0.5235987755982988,-0.5235987755982988,0,-0.2007205,-1.0517755,-1.8041372,-0.24663548,0.20800216,1.221837,0.9461135,-0.36786133,-0.8741874,-0.24289118,0.04084893,-0.07421779,1.1732492,0.44847718
0.0,0.0,0.7999999999999999,0.5235987755982988,-0.5235987755982988,0,-0.20085886,-1.0540665,-1.8121147,-0.2463858,0.13515806,1.268982,-0.17583403,-0.3740638,-0.87348044,-0.19189118,0.07189238,-0.012576966,1.0534725,-0.038089626
0.0,0.0,0.7999999999999999,0.5235987755982988,-0.5235987755982988,0,-0.20178235,-1.0537777,-1.8055905,-0.2542981,0.21766703,1.2891314,-0.102550015,-0.3638388,-0.87420255,-0.34632275,0.053950258,-0.0029311408,1.0897648,-1.4786457
0.0,0.0,0.7999999999999999,0.5235987755982988,-0.5235987755982988,0,-0.20149672,-1.0512308,-1.8061787,-0.25255656,0.051959574,1.2102664,-0.98256874,-0.3691614,-0.87393963,-0.19168647,0.014989118,-0.016075905,1.1854253,0.4764251
0.0,0.0,0.7999999999999999,0.5235987755982988,-0.5235987755982988,0,-0.20271663,-1.0533578,-1.8192322,-0.27057496,-0.2985511,1.3175648,-0.6306936,-0.36333805,-0.87513876,-0.25292292,0.07590729,-0.029187955,1.1465496,0.39853147
0.0,0.0,0.7999999999999999,0.5235987755982988,-0.5235987755982988,0,-0.20065627,-1.0543579,-1.8118147,-0.23766857,-0.068652414,1.1976196,-1.0526649,-0.36318853,-0.87275815,-0.2796627,0.0515791,-0.015665265,1.0343287,0.52429044
0.0,0.0,0.7999999999999999,0.5235987755982988,-0.5235987755982988,0,-0.19946735,-1.05074,-1.8125454,-0.25990582,-0.2732353,1.2284392,-1.4461472,-0.3649572,-0.8747522,-0.30068597,0.056778304,-0.008195852,1.1731639,0.25653607
0.0,0.0,0.7999999999999999,0.5235987755982988,-0.5235987755982988,0,-0.20188296,-1.0505998,-1.8121548,-0.26908436,-0.063052714,1.237716,-0.095967144,-0.363191,-0.8751628,-0.13185087,0.06560447,-0.0718307,1.1500278,0.3717934
0.0,0.0,0.7999999999999999,0.5235987755982988,-0.5235987755982988,0,-0.20171608,-1.0535774,-1.8044462,-0.24098371,0.23003389,1.271573,0.117455006,-0.36713618,-0.87365496,-0.26869476,0.034453265,-0.2980727,1.113063,-0.3847227
0.0,0.0,0.7999999999999999,0.5235987755982988,-0.5235987755982988,0,-0.20293544,-1.053535,-1.8141221,-0.24810521,0.08492091,1.2732363,-0.60341984,-0.37044007,-0.8730866,-0.5703978,0.06129023,0.11243199,1.1180813,-0.30471414
0.0,0.0,0.7999999999999999,0.5235987755982988,-0.5235987755982988,0,-0.20319417,-1.0533681,-1.8112508,-0.2389184,0.15436809,1.2395109,0.09300673,-0.35801786,-0.8751291,-0.5252801,0.075856425,-0.017700706,1.0635656,-0.5180824
0.0,0.0,0.7999999999999999,0.5235987755982988,-0.5235987755982988,0,-0.20395747,-1.0528252,-1.8050288,-0.25710717,-0.0039376034,1.1706402,-0.508229,-0.36103183,-0.8754487,-0.51287603,-0.0052904766,-0.10835605,1.0559373,0.53156286
0.0,0.0,0.7999999999999999,0.5235987755982988,-0.5235987755982988,0,-0.20232505,-1.0537338,-1.8103126,-0.23729469,-0.034170024,1.164541,-1.6433176,-0.3711553,-0.8739983,-0.4409636,0.058098733,-0.08922792,1.1055388,-0.26577604
0.0,0.0,0.7999999999999999,0.5235987755982988,-0.5235987755982988,0,-0.20092043,-1.0515586,-1.8138689,-0.2631693,-0.21208397,1.207205,-1.2785503,-0.37250814,-0.87609345,-0.028747732,0.083549626,0.078345485,1.0585335,-0.44624743
0.0,0.0,0.7999999999999999,0.5235987755982988,-0.5235987755982988,0,-0.2032562,-1.0567024,-1.8086504,-0.281925,0.10629123,1.2046549,-0.47886628,-0.36982813,-0.87622285,0.12229024,0.07462206,-0.13910455,1.1410642,1.2596525
0.0,0.0,0.7999999999999999,0.5235987755982988,-0.5235987755982988,0,-0.20275426,-1.0525123,-1.8183793,-0.22899295,0.1640406,1.128255,-0.53269047,-0.36950836,-0.8726865,-0.59225446,0.015069589,0.072275564,1.1001868,-1.3574103
0.0,0.0,0.7999999999999999,0.5235987755982988,-0.5235987755982988,0,-0.2025721,-1.053133,-1.8159738,-0.2499192,0.049524993,1.1339406,-1.3611242,-0.3753653,-0.8719475,0.09652225,0.10005136,0.121438235,1.1259098,0.7709154
0.0,0.0,0.7999999999999999,0.5235987755982988,-0.5235987755982988,0,-0.20253654,-1.0552586,-1.815697,-0.22312923,-0.111195944,1.220444,-1.1607306,-0.3760781,-0.87229747,-0.52644926,0.045050066,-0.07957463,1.1431184,0.34761623
0.0,0.0,0.7999999999999999,0.5235987755982988,-0.5235987755982988,0,-0.20046197,-1.0554852,-1.8176926,-0.2955329,0.14854793,1.1712064,-0.35029182,-0.3712344,-0.87226707,-0.5310321,-0.009032711,0.07609822,1.0513371,-0.4776855
0.0,0.0,0.7999999999999999,0.5235987755982988,-0.5235987755982988,0,-0.20270216,-1.055046,-1.8142074,-0.23920922,0.5204095,1.2014225,1.2715226,-0.370328,-0.8713863,-0.33910418,0.0044524735,0.14658347,1.1248901,1.5163374
0.0,0.0,0.7999999999999999,0.5235987755982988,-0.5235987755982988,0,-0.20390134,-1.0527005,-1.8093497,-0.22171146,0.112516575,1.30022,0.025635973,-0.36382505,-0.87362623,-0.07521139,0.041786537,-0.15978582,1.1949892,0.25049388
0.0,0.0,0.7999999999999999,0.5235987755982988,-0.5235987755982988,0,-0.20284179,-1.055539,-1.8209947,-0.2661443,0.15373018,1.3206383,-0.18228668,-0.37600887,-0.87317246,-0.3481418,0.020324828,0.049889624,1.1150277,1.3004572
0.0,0.0,0.7999999999999999,0.5235987755982988,-0.5235987755982988,0,-0.20396854,-1.0546361,-1.8009102,-0.25432736,-0.11630057,1.2772701,-1.2584904,-0.3592096,-0.8717492,-0.34697136,0.10330323,0.08335737,1.1727052,-0.2705482
0.0,0.0,0.7999999999999999,0.5235987755982988,-0.5235987755982988,0,-0.20421565,-1.0528278,-1.8307139,-0.2240315,0.0506162,1.2389815,-0.6217604,-0.3691129,-0.87355596,-0.086217046,0.0624329,0.008632528,1.058663,0.9624607
0.0,0.0,0.7999999999999999,0.5235987755982988,-0.5235987755982988,0,-0.20213522,-1.0504982,-1.818412,-0.26139647,-0.03146638,1.2081351,-1.041926,-0.37035528,-0.8752658,-0.2880363,0.059464622,0.13871194,1.2136322,0.64847076
0.0,0.0,0.7999999999999999,0.5235987755982988,-0.5235987755982988,0,-0.20375076,-1.054854,-1.8060771,-0.24870819,0.077977456,1.2274836,-0.35370624,-0.36966792,-0.872875,-0.56895727,0.046615273,-0.041751966,1.0341885,-0.084491484
0.0,0.0,0.7999999999999999,0.5235987755982988,-0.5235987755982988,0,-0.20234293,-1.0510948,-1.8089796,-0.25433865,0.4588095,1.1322075,0.49105132,-0.36669102,-0.8756225,-0.18613705,0.084420055,0.027241433,1.0823674,-0.7581265
0.0,0.0,0.7999999999999999,0.5235987755982988,-0.5235987755982988,0,-0.20124406,-1.0557768,-1.8126073,-0.27727592,-0.3505055,1.1551648,0.7037545,-0.3644074,-0.87353766,-0.2862007,0.0109148845,-0.051393267,1.130812,0.56533664
0.0,0.0,0.7999999999999999,0.5235987755982988,-0.5235987755982988,0,-0.2041182,-1.0529668,-1.812192,-0.24538599,-0.022199629,1.1608862,0.20635352,-0.36876675,-0.87383235,-0.45240486,0.028359493,-0.11607897,1.2363056,-0.5581724
0.0,0.0,0.7999999999999999,0.5235987755982988,-0.5235987755982988,0,-0.20231684,-1.0530213,-1.8094066,-0.25008348,-0.13637683,1.2453976,-0.92586404,-0.3627381,-0.8744165,-0.3583449,0.026210831,0.08253511,1.1732734,0.56633955
0.0,0.0,0.7999999999999999,0.5235987755982988,-0.5235987755982988,0,-0.20314911,-1.0543599,-1.8205965,-0.26165533,0.14136954,1.2321626,-0.120261475,-0.36882704,-0.87496114,-0.21973677,0.036703605,0.100397386,1.0798695,0.54593086
0.0,0.0,0.7999999999999999,0.5235987755982988,-0.5235987755982988,0,-0.20092213,-1.0548923,-1.8076038,-0.24244846,-0.18557383,1.2518383,0.46264794,-0.36838847,-0.8722299,-0.112253204,0.02071333,0.062090117,1.089672,-0.65625364
0.0,0.0,0.7999999999999999,0.5235987755982988,-0.5235987755982988,0,-0.20314862,-1.0550122,-1.8105074,-0.264735,0.31092846,1.2504648,-0.622779,-0.36035085,-0.8733376,-0.25792235,0.024426136,-0.068230666,0.97847503,-0.21601234
0.0,0.0,0.7999999999999999,0.5235987755982988,-0.5235987755982988,0,-0.20134032,-1.0547922,-1.807922,-0.2398263,-0.28693166,1.2204313,1.0684153,-0.36291108,-0.8747212,-0.17660907,0.049257044,0.010983732,1.2775401,-1.3086506
0.0,0.0,0.7999999999999999,0.5235987755982988,-0.5235987755982988,0,-0.20362177,-1.0528033,-1.812372,-0.24710692,-0.098145306,1.1707754,1.3685725,-0.3682305,-0.8759503,-0.4822629,0.010539894,-0.0048732655,1.1370866,-0.48188794
0.0,0.0,0.7999999999999999,0.5235987755982988,-0.5235987755982988,0,-0.20118679,-1.0536025,-1.8170329,-0.2404352,0.004860241,1.2511662,-1.2861106,-0.3612016,-0.87496376,-0.08402191,0.012559514,-0.008757026,1.1202686,-0.36369115
0.0,0.0,0.7999999999999999,0.5235987755982988,-0.5235987755982988,0,-0.20146185,-1.055983,-1.8143479,-0.28089762,-0.47210634,1.2260973,-0.7135344,-0.36199048,-0.8753814,-0.31451672,0.07753426,0.058984213,1.1611624,1.0230203
0.0,0.0,0.7999999999999999,0.5235987755982988,-0.5235987755982988,0,-0.20016858,-1.0537698,-1.8103614,-0.27556255,-0.15431485,1.1925321,-2.154118,-0.36142868,-0.87649053,-0.28613558,0.08271588,-0.17162788,1.1557443,-0.7376649
0.0,0.0,0.7999999999999999,0.5235987755982988,-0.5235987755982988,0,-0.20126364,-1.0520012,-1.815828,-0.22682934,0.20621108,1.2164682,-0.29869545,-0.36842,-0.87265396,0.18577416,0.034660306,-0.04244879,1.0790046,-0.06912584
0.0,0.0,0.7999999999999999,0.5235987755982988,-0.5235987755982988,0,-0.20235567,-1.0493963,-1.824406,-0.22158884,0.35492274,1.259255,-0.50762194,-0.37127924,-0.8745008,-0.09841968,0.009525872,0.1181291,1.173222,0.014536763
0.0,0.0,0.7999999999999999,0.5235987755982988,-0.5235987755982988,0,-0.20342506,-1.0529354,-1.8035141,-0.25492752,0.11086752,1.1518024,-1.908204,-0.36231455,-0.8738781,-0.29334685,0.025989626,-0.020608705,1.0112951,-1.561726
0.0,0.0,0.7999999999999999,0.5235987755982988,-0.5235987755982988,0,-0.20081222,-1.0564727,-1.8103622,-0.22773747,0.2501947,1.2844341,0.06782378,-0.36789957,-0.8735637,-0.2460949,0.0049053524,0.13739848,1.1438855,1.9366564
0.0,0.0,0.7999999999999999,0.5235987755982988,-0.5235987755982988,0,-0.20501047,-1.0509131,-1.8149996,-0.27754977,0.09359244,1.3006767,1.6016458,-0.37212774,-0.8739532,-0.41325545,0.04836468,0.0072320495,1.118824,-0.32313114
0.0,0.0,0.7999999999999999,0.5235987755982988,-0.5235987755982988,0,-0.20242612,-1.0529014,-1.8198733,-0.25023425,-0.21056488,1.2764906,1.1727724,-0.36775798,-0.8746164,-0.23832051,0.04478393,-0.16928236,1.0607412,-0.64925617
0.0,0.0,0.7999999999999999,0.5235987755982988,-0.5235987755982988,0,-0.20415762,-1.0536442,-1.8159502,-0.2469001,-0.17198473,1.1450729,-1.6569159,-0.36771354,-0.87466353,-0.49918067,0.020312373,0.11008308,1.0865531,-0.8307939
0.0,0.0,0.7999999999999999,0.5235987755982988,-0.5235987755982988,0,-0.20337495,-1.0530676,-1.8114429,-0.24177143,0.0038915214,1.2443229,-0.13786937,-0.36947387,-0.8734353,-0.45569152,-0.011253074,0.05434509,1.0139945,0.12290815
0.0,0.0,0.7999999999999999,0.5235987755982988,-0.5235987755982988,0,-0.20415816,-1.0540543,-1.8086166,-0.2588613,-0.1464188,1.1893104,0.61172754,-0.36859617,-0.8736327,-0.15283363,0.061736062,-0.034936544,0.9850957,0.43061677
0.0,0.0,0.7999999999999999,0.5235987755982988,-0.5235987755982988,0,-0.20295326,-1.0544512,-1.8130667,-0.25520957,0.21547753,1.2983565,0.6796876,-0.37698445,-0.8729421,-0.22198015,0.050547287,0.01620696,1.0330273,1.1323394
0.0,0.0,0.7999999999999999,0.5235987755982988,-0.5235987755982988,0,-0.20155612,-1.0523062,-1.8044723,-0.253409,0.15367074,1.1684338,-1.8343112,-0.35991392,-0.8742997,-0.18146983,0.057406615,0.042707197,1.1184697,-1.7959121
0.0,0.0,0.7999999999999999,0.5235987755982988,-0.5235987755982988,0,-0.20504418,-1.0547566,-1.8203706,-0.24869357,-0.04743368,1.3128419,-1.5265551,-0.38321635,-0.87447506,-0.19864286,0.0072981725,-0.12786706,1.038817,0.8284625
0.0,0.0,0.7999999999999999,0.5235987755982988,-0.5235987755982988,0,-0.20094681,-1.0556259,-1.8060932,-0.2629903,0.11318576,1.355204,-1.7542553,-0.36513376,-0.87388486,-0.2932519,0.049366698,-0.014148213,1.0949082,1.1184139
0.0,0.0,0.7999999999999999,0.5235987755982988,-0.5235987755982988,0,-0.20118518,-1.0546427,-1.805027,-0.2651571,0.25887206,1.246778,0.12195884,-0.3671931,-0.8723921,-0.35992706,0.009697993,0.053899694,1.159886,-1.3141013
0.0,0.0,0.7999999999999999,0.5235987755982988,-0.5235987755982988,0,-0.20293261,-1.053032,-1.8135114,-0.22842757,-0.08021379,1.356011,0.32979488,-0.36785138,-0.8746946,-0.294643,0.06728063,-0.03132394,1.0516676,0.7486123
0.0,0.0,0.7999999999999999,0.5235987755982988,-0.5235987755982988,0,-0.204343,-1.0541272,-1.830117,-0.29934126,0.139293,1.2152019,0.45359942,-0.38148224,-0.875093,-0.15445675,0.10170903,-0.27684584,1.051734,1.4242877
0.0,0.0,0.7999999999999999,0.5235987755982988,-0.5235987755982988,0,-0.20311917,-1.0527693,-1.8085102,-0.2628239,-0.1021359,1.2784227,2.5819871,-0.3643511,-0.8754941,-0.03866596,-0.0018184606,0.07201676,1.1591944,-0.29633254
0.0,0.0,0.7999999999999999,0.5235987755982988,-0.5235987755982988,0,-0.20421295,-1.0527539,-1.8052838,-0.25696993,0.15597707,1.2112919,0.95931005,-0.3697606,-0.8742655,-0.46651682,0.07705359,0.054734472,0.92358327,0.9426109
0.0,0.0,0.7999999999999999,0.5235987755982988,-0.5235987755982988,0,-0.20273449,-1.0547326,-1.8067541,-0.23517902,0.14280738,1.2489487,-0.23532291,-0.3596824,-0.8757896,-0.27253693,0.030557327,-0.05413324,1.1084143,0.5723368
0.0,0.0,0.7999999999999999,0.5235987755982988,-0.5235987755982988,0,-0.20213173,-1.0541776,-1.8152567,-0.2346852,-0.20156685,1.2189162,-0.36643264,-0.38558632,-0.87319887,-0.19211452,-0.024085766,0.028109761,1.0321788,-2.2709389
0.0,0.0,0.7999999999999999,0.5235987755982988,-0.5235987755982988,0,-0.2050304,-1.0533197,-1.8048186,-0.25514454,-0.055585958,1.2790616,-1.6225102,-0.38367626,-0.87430304,0.011387091,0.012084696,0.069936536,1.0952955,-0.7432964
0.0,0.0,0.7999999999999999,0.5235987755982988,-0.5235987755982988,0,-0.20271417,-1.0526367,-1.8105248,-0.2454597,-0.0147571415,1.2284532,-1.1296699,-0.36615038,-0.87625664,-0.32456213,0.052853055,0.11965895,1.1191624,-0.8985846
0.0,0.0,0.7999999999999999,0.5235987755982988,-0.5235987755982988,0,-0.20146498,-1.0550404,-1.8184334,-0.21173854,0.032316394,1.26272,-0.9569093,-0.37123585,-0.8750996,-0.3584094,0.011629108,-0.11376287,1.1136305,-0.27385703
0.0,0.0,0.7999999999999999,0.5235987755982988,-0.5235987755982988,0,-0.1979658,-1.0534562,-1.8086376,-0.28391975,0.22368807,1.2926787,0.2569201,-0.34399313,-0.87450224,-0.4723001,0.02235577,-0.24002123,1.1878862,0.45991874
0.0,0.0,0.7999999999999999,0.5235987755982988,-0.5235987755982988,0,-0.20363949,-1.0541993,-1.8086987,-0.2141557,0.14901151,1.1777686,0.23776613,-0.3636209,-0.8730717,0.014199572,0.057239052,0.06392664,1.1608338,1.1695981
0.0,0.0,0.7999999999999999,0.5235987755982988,-0.5235987755982988,0,-0.20437159,-1.0537492,-1.8095237,-0.2472159,0.06832348,1.1790947,0.3434706,-0.36585978,-0.8739846,-0.13643356,0.06172829,0.036151443,1.1780953,0.4868096
0.0,0.0,0.7999999999999999,0.5235987755982988,-0.5235987755982988,0,-0.20360665,-1.0554146,-1.8032738,-0.23654908,-0.24795142,1.2805965,-0.9706093,-0.36165708,-0.8713578,-0.44142193,-0.006730374,0.020871114,1.1075801,-0.10341413
0.0,0.0,0.7999999999999999,0.5235987755982988,-0.5235987755982988,0,-0.20613532,-1.0542299,-1.8027956,-0.22238652,-0.03714967,1.3792045,-0.08135831,-0.3623098,-0.8745332,-0.51304835,0.0032046398,0.10699687,1.153929,0.7771746
0.0,0.0,0.7999999999999999,0.5235987755982988,-0.5235987755982988,0,-0.20375659,-1.0536846,-1.8222237,-0.2591794,-0.031995215,1.310703,-0.64156115,-0.37334657,-0.8763184,-0.14365168,0.013424962,0.10554841,1.1022369,-0.1930149
0.0,0.0,0.7999999999999999,0.5235987755982988,-0.5235987755982988,0,-0.20231993,-1.0552806,-1.8079226,-0.21933551,-0.000686114,1.2444739,-0.56314194,-0.36697006,-0.87588626,-0.03055386,0.0021586195,-0.083480164,1.0661293,0.9701097
0.0,0.0,0.7999999999999999,0.5235987755982988,-0.5235987755982988,0,-0.20355093,-1.0534295,-1.7990106,-0.25794515,0.18897451,1.2361722,-2.1462288,-0.36449307,-0.8734745,-0.13398944,0.086468406,-0.16001604,1.0699248,0.614008
0.0,0.0,0.7999999999999999,0.5235987755982988,-0.5235987755982988,0,-0.20603143,-1.0524881,-1.8074433,-0.20621996,0.2987672,1.1966218,-0.1422885,-0.3664437,-0.8734685,-0.019887475,0.056931805,-0.03834834,1.0447074,0.23598593
0.0,0.0,0.7999999999999999,0.5235987755982988,-0.5235987755982988,0,-0.20452642,-1.0541064,-1.8202543,-0.22807214,0.088572524,1.2371088,-0.69187,-0.3603659,-0.8727919,-0.5053271,0.047918852,0.031220136,1.1367499,0.33855042
0.0,0.0,0.7999999999999999,0.5235987755982988,-0.5235987755982988,0,-0.20171228,-1.0533539,-1.8246579,-0.2438836,0.073263265,1.2704333,-0.8298652,-0.36610606,-0.87718946,-0.4490275,0.041325938,0.04114459,1.0777419,-0.8805688
0.0,0.0,0.7999999999999999,0.5235987755982988,-0.5235987755982988,0,-0.20175202,-1.0513299,-1.8073087,-0.26032498,-0.13229167,1.2128876,0.5284646,-0.37661132,-0.8795272,-0.6702796,0.0689867,0.08007272,1.1563255,0.46338463
0.0,0.0,0.7999999999999999,0.5235987755982988,-0.5235987755982988,0,-0.20354573,-1.054438,-1.8144014,-0.24260299,0.026371503,1.2827046,-0.81110346,-0.3610053,-0.87577784,-0.35239297,0.03999961,-0.052077744,1.107904,0.6281437
0.0,0.0,0.7999999999999999,0.5235987755982988,-0.5235987755982988,0,-0.20371336,-1.0577662,-1.8101387,-0.28702343,0.17523552,1.2380261,1.0621823,-0.37294033,-0.8746572,-0.12816088,0.04188725,0.0067770807,1.1235963,-1.0019425
0.0,0.0,0.7999999999999999,0.5235987755982988,-0.5235987755982988,0,-0.20460676,-1.0547693,-1.8149908,-0.25008836,0.02612309,1.2100995,-0.43473917,-0.36897147,-0.8750225,-0.43120992,-0.0019767403,-0.032218706,1.0274093,0.034908943
0.0,0.0,0.7999999999999999,0.5235987755982988,-0.5235987755982988,0,-0.20265372,-1.0564842,-1.807662,-0.22010317,0.07719766,1.2501197,0.26085937,-0.3660113,-0.87532943,-0.27371162,0.06540054,-0.0058500846,1.2453177,1.7866412
0.0,0.0,0.7999999999999999,0.5235987755982988,-0.5235987755982988,0,-0.20443654,-1.0550158,-1.8167562,-0.25509268,-0.05470086,1.3162268,-0.91798234,-0.3710073,-0.87511694,0.08831485,0.052045513,0.09153697,1.185318,0.9779138
0.0,0.0,0.7999999999999999,0.5235987755982988,-0.5235987755982988,0,-0.20564966,-1.0538454,-1.8230845,-0.24555086,-0.061646715,1.1694646,0.28343052,-0.36870152,-0.8744012,-0.18880768,0.018869942,-0.14892772,0.99684465,-0.909538
0.0,0.0,0.7999999999999999,0.5235987755982988,-0.5235987755982988,0,-0.200217,-1.0536525,-1.8098547,-0.2330875,0.43164623,1.3531071,-2.2585669,-0.37163657,-0.87585825,-0.3223804,0.017633729,-0.029449763,1.0642347,-0.97435343
0.0,0.0,0.7999999999999999,0.5235987755982988,-0.5235987755982988,0,-0.20302144,-1.0539356,-1.8175411,-0.23495427,-0.037127145,1.2098712,-0.59881693,-0.36647627,-0.87340295,-0.1638129,0.034251533,0.10060428,1.1029171,0.8344168
0.0,0.0,0.7999999999999999,0.5235987755982988,-0.5235987755982988,0,-0.20348784,-1.0524046,-1.8099943,-0.2470635,-0.031812027,1.2603728,-1.2290161,-0.36713108,-0.8765245,-0.31320027,0.029386045,-0.05156393,1.0852742,-0.4962138
0.0,0.0,0.7999999999999999,0.5235987755982988,-0.5235987755982988,0,-0.19942962,-1.0517424,-1.8090154,-0.263165,-0.17021242,1.2041999,-1.9787388,-0.36971593,-0.87694216,-0.64866865,0.035588898,-0.054049283,1.039286,-0.4357939
0.0,0.0,0.7999999999999999,0.5235987755982988,-0.5235987755982988,0,-0.20560847,-1.0545895,-1.8131155,-0.25273713,-0.091931224,1.227644,-0.6381362,-0.36471853,-0.8731087,-0.60839117,-0.017340036,-0.25702643,1.0994534,-0.5471614
0.0,0.0,0.7999999999999999,0.5235987755982988,-0.5235987755982988,0,-0.20137385,-1.0518125,-1.8099978,-0.23726262,-0.06579536,1.1312264,1.7199631,-0.35581964,-0.8757753,-0.30763245,0.007098185,-0.16833124,1.1926336,0.5221947
0.0,0.0,0.7999999999999999,0.5235987755982988,-0.5235987755982988,0,-0.20591712,-1.0511409,-1.8154548,-0.26150274,-0.10035677,1.2296534,-0.8164445,-0.37452832,-0.8770491,-0.17163904,0.044793043,-0.13161965,1.0727428,-1.2324014
0.0,0.0,0.7999999999999999,0.5235987755982988,-0.5235987755982988,0,-0.20320639,-1.0536561,-1.8155494,-0.25582772,0.37265068,1.2474248,0.1065646,-0.37217763,-0.8740638,-0.27992445,-0.032052547,-0.03184283,1.0803179,0.7509583
0.0,0.0,0.7999999999999999,0.5235987755982988,-0.5235987755982988,0,-0.20912752,-1.0543561,-1.8122418,-0.28602612,0.11692899,1.3241957,1.7512705,-0.37575272,-0.8736645,-0.45096114,0.066091396,0.2172577,0.9735047,0.043260336
0.0,0.0,0.7999999999999999,0.5235987755982988,-0.5235987755982988,0,-0.2021808,-1.0550526,-1.8089516,-0.27018076,0.0954757,1.2748008,0.33973902,-0.37660068,-0.8725747,-0.11606127,-0.038468014,-0.04431089,0.975758,0.2401456
0.0,0.0,0.7999999999999999,0.5235987755982988,-0.5235987755982988,0,-0.20274897,-1.0498505,-1.8225154,-0.22557946,0.23912272,1.2685121,-2.0778568,-0.36636925,-0.87607795,-0.19768065,-0.0014449243,-0.25252274,0.99371624,0.37834704
0.0,0.0,0.7999999999999999,0.5235987755982988,-0.5235987755982988,0,-0.20225301,-1.0523674,-1.8144534,-0.22654283,0.16449608,1.218433,-0.37352487,-0.3600702,-0.8767281,-0.21770288,0.0014283212,-0.21444227,1.1786771,-0.8974564
0.0,0.0,0.7999999999999999,0.5235987755982988,-0.5235987755982988,0,-0.20041746,-1.0541822,-1.809715,-0.246092,0.014067408,1.1984568,-1.167554,-0.36634442,-0.87551373,-0.32628945,-0.0066232723,-0.02802527,1.1133393,-1.0065627
0.0,0.0,0.7999999999999999,0.5235987755982988,-0.5235987755982988,0,-0.20226148,-1.0546234,-1.8063666,-0.23935175,0.327332,1.2168543,1.335673,-0.36071828,-0.8738853,-0.30325195,-0.047420807,0.08035901,1.1577642,0.7736529
0.0,0.0,0.7999999999999999,0.5235987755982988,-0.5235987755982988,0,-0.20323344,-1.0554353,-1.798201,-0.23242436,0.13870172,1.1687623,-1.0459852,-0.3681452,-0.87063354,-0.44486666,-0.002632731,-0.06397721,1.2355847,-0.5897971
0.0,0.0,0.7999999999999999,0.5235987755982988,-0.5235987755982988,0,-0.20346102,-1.052392,-1.8140869,-0.2559396,0.01889817,1.1358745,-2.027577,-0.3756379,-0.8745985,-0.26594055,-0.018772628,0.081437,1.1615344,0.15520267
0.0,0.0,0.7999999999999999,0.5235987755982988,-0.5235987755982988,0,-0.2031801,-1.0531731,-1.8172774,-0.25753438,0.032865517,1.2418039,1.0967978,-0.3639441,-0.8705112,-0.24947296,-0.03981238,0.08668692,1.0887967,0.13934131
0.0,0.0,0.7999999999999999,0.5235987755982988,-0.5235987755982988,0,-0.20123358,-1.0531744,-1.8089345,-0.2388822,-0.101065494,1.193476,0.112426594,-0.37234542,-0.87286633,-0.12683147,-0.045471437,-0.04592005,1.0491524,-1.1330312
0.0,0.0,0.7999999999999999,0.5235987755982988,-0.5235987755982988,0,-0.20266324,-1.0549693,-1.8035979,-0.28005603,-0.022479232,1.2955658,-1.9353569,-0.3618365,-0.8764703,-0.3337051,-0.031905517,0.022285964,1.0633582,0.6089157
0.0,0.0,0.7999999999999999,0.5235987755982988,-0.5235987755982988,0,-0.20267749,-1.0531847,-1.8108678,-0.23200189,0.018126298,1.2310698,1.6679438,-0.3706341,-0.87591547,-0.61573184,-0.0025630265,-0.18576293,1.1547365,-1.2293065
0.0,0.0,0.7999999999999999,0.5235987755982988,-0.5235987755982988,0,-0.20076244,-1.0537763,-1.8138936,-0.24841988,0.08770281,1.2377717,0.25265092,-0.36172494,-0.8731347,-0.26827198,0.07094142,-0.121315844,1.1624278,0.66258574
0.0,0.0,0.7999999999999999,0.5235987755982988,-0.5235987755982988,0,-0.2027031,-1.0524616,-1.8155361,-0.25109097,0.007917687,1.2922887,0.15982665,-0.3601635,-0.87313575,-0.49988553,0.09578662,-0.10779051,1.2004603,0.6527322
0.0,0.0,0.7999999999999999,0.5235987755982988,-0.5235987755982988,0,-0.20184883,-1.049712,-1.8099705,-0.20406882,-0.26931214,1.2627647,-1.1025037,-0.36660028,-0.8726547,-0.31662688,0.028200336,-0.2603451,1.1027428,-0.51588005
0.0,0.0,0.7999999999999999,0.5235987755982988,-0.5235987755982988,0,-0.20234682,-1.051067,-1.7996627,-0.26628157,0.16420248,1.2326808,-0.18109597,-0.3655444,-0.8729986,-0.43930513,0.079621114,0.044233773,1.0425134,0.6076548
0.0,0.0,0.7999999999999999,0.5235987755982988,-0.5235987755982988,0,-0.20038654,-1.0530623,-1.8073435,-0.26963195,0.068421654,1.2336341,-1.0022874,-0.37090686,-0.87939006,-0.089207396,0.08921979,-0.10957893,1.1728213,-0.022808386
0.0,0.0,0.7999999999999999,0.5235987755982988,-0.5235987755982988,0,-0.20474567,-1.051497,-1.812028,-0.24984714,-0.10616893,1.201295,-1.1076885,-0.36243883,-0.87449926,-0.45321366,0.055780023,-0.029506382,1.044591,0.4457721
0.0,0.0,0.7999999999999999,0.5235987755982988,-0.5235987755982988,0,-0.20162013,-1.0572139,-1.8135568,-0.2653702,0.11615417,1.2359663,-0.7199454,-0.36258057,-0.87410194,-0.19671409,0.023622198,0.05257214,1.0584993,0.7653442
0.0,0.0,0.7999999999999999,0.5235987755982988,-0.5235987755982988,0,-0.20232984,-1.0503949,-1.8109827,-0.28083736,-0.038954813,1.2685895,-0.7686619,-0.36209276,-0.8730532,0.23935288,0.011114712,-0.082222596,1.1913723,-0.16338082
0.0,0.0,0.7999999999999999,0.5235987755982988,-0.5235987755982988,0,-0.20227307,-1.0500814,-1.8131961,-0.24242546,0.05459425,1.1659657,-1.5213085,-0.3841167,-0.8778744,-0.46208113,0.062268563,-0.14019075,1.0068064,-1.273691
0.0,0.0,0.7999999999999999,0.5235987755982988,-0.5235987755982988,0,-0.20042674,-1.055045,-1.824252,-0.25906143,0.17742169,1.2611783,0.13711497,-0.3694138,-0.87596935,-0.44696376,0.008244485,0.081478626,1.1022015,0.25177738
0.0,0.0,0.7999999999999999,0.5235987755982988,-0.5235987755982988,0,-0.20255056,-1.0544848,-1.8051519,-0.26096693,0.29402283,1.1814423,-1.0197805,-0.37871403,-0.8750393,-0.22880353,0.07703616,-0.03528129,1.1616635,-0.03862774
0.0,0.0,0.7999999999999999,0.5235987755982988,-0.5235987755982988,0,-0.20033196,-1.0516118,-1.809362,-0.25832483,0.066939324,1.2636126,1.360123,-0.35782272,-0.8760744,-0.44010666,0.051491927,-0.15368736,1.0724728,-0.3500976
0.0,0.0,0.7999999999999999,0.5235987755982988,-0.5235987755982988,0,-0.20183285,-1.0571862,-1.7960646,-0.27038157,0.06962138,1.1207771,-0.8872968,-0.37143248,-0.87484914,-0.04061958,0.048051246,0.094808266,1.0558614,-0.35476178
0.0,0.0,0.7999999999999999,0.5235987755982988,-0.5235987755982988,0,-0.20115429,-1.048622,-1.8154638,-0.26026344,-0.058113277,1.2329832,1.4018613,-0.36284867,-0.8745406,0.15305533,-0.009468293,-0.012371531,1.0026362,-0.052946236
0.0,0.0,0.7999999999999999,0.5235987755982988,-0.5235987755982988,0,-0.20284338,-1.0569819,-1.8081899,-0.24316251,-0.18622884,1.2283657,0.130694,-0.36406392,-0.87372094,-0.20261814,0.031100135,-0.08958758,1.0424217,1.1640093
0.0,0.0,0.7999999999999999,0.5235987755982988,-0.5235987755982988,0,-0.20546098,-1.0568857,-1.8084453,-0.2529846,-0.070970014,1.1822444,1.2644308,-0.35524586,-0.8743468,-0.33702353,-0.024773838,-0.015286536,1.1436143,-0.76524645
0.0,0.0,0.7999999999999999,0.5235987755982988,-0.5235987755982988,0,-0.20043622,-1.0512997,-1.8148983,-0.24633232,0.017421281,1.1834189,-0.050140716,-0.35512412,-0.8771051,-0.09009456,-0.0115863,0.058699206,1.044044,0.8234905
0.0,0.0,0.7999999999999999,0.5235987755982988,-0.5235987755982988,0,-0.20107245,-1.0535161,-1.8071406,-0.25737137,0.08952025,1.2249188,-1.0690228,-0.37235093,-0.8730987,-0.5304713,0.05204624,0.16590165,1.131113,0.8156497
0.0,0.0,0.7999999999999999,0.5235987755982988,-0.5235987755982988,0,-0.2029385,-1.056712,-1.808947,-0.25721028,0.24811442,1.2024605,2.0103638,-0.37545976,-0.8743084,-0.06826382,-0.0049248445,-0.1673671,1.1134245,-0.29853404
0.0,0.0,0.7999999999999999,0.5235987755982988,-0.5235987755982988,0,-0.20442373,-1.0563321,-1.8057935,-0.2525303,0.16413073,1.273886,1.1513846,-0.37093407,-0.8708606,-0.3106316,0.011875958,0.07732764,1.0755323,-1.0228046
0.0,0.0,0.7999999999999999,0.5235987755982988,-0.5235987755982988,0,-0.20093967,-1.0531803,-1.7996467,-0.2768402,0.0032744275,1.2013018,0.41481382,-0.3660929,-0.87727,-0.41639864,0.01602606,-0.10633978,1.0360823,0.83951443
0.0,0.0,0.7999999999999999,0.5235987755982988,-0.5235987755982988,0,-0.20302333,-1.0489509,-1.8193579,-0.26682568,-0.016425679,1.1952268,0.19292448,-0.3646545,-0.8762279,-0.22940418,0.04402433,-0.08614979,1.0517987,-0.7092488
0.0,0.0,0.7999999999999999,0.5235987755982988,-0.5235987755982988,0,-0.20263593,-1.0556034,-1.8128393,-0.27578107,-0.024278438,1.2010021,0.578047,-0.37029195,-0.8729976,-0.80914044,0.029115543,-0.1057423,0.9969138,0.9446489
0.0,0.0,0.7999999999999999,0.5235987755982988,-0.5235987755982988,0,-0.2027869,-1.0552055,-1.8060919,-0.27127975,-0.13680792,1.2661633,-2.100727,-0.367656,-0.87357026,-0.10496183,0.026553601,-0.08898917,1.161073,-0.46824527
0.0,0.0,0.7999999999999999,0.5235987755982988,-0.5235987755982988,0,-0.20339572,-1.0565453,-1.8208339,-0.2598264,0.16102956,1.269038,1.0519438,-0.35737902,-0.8735021,-0.3475069,-0.035879914,-0.26928258,1.1460676,-1.6445186
0.0,0.0,0.7999999999999999,0.5235987755982988,-0.5235987755982988,0,-0.19991596,-1.0524071,-1.8098253,-0.23133282,-0.33253828,1.2020947,-1.814892,-0.35864055,-0.8738088,-0.044565894,0.025234655,-0.14198588,1.2167928,0.32858825
0.0,0.0,0.7999999999999999,0.5235987755982988,-0.5235987755982988,0,-0.20271003,-1.0555509,-1.8112627,-0.23010421,-0.14920083,1.2233613,-1.4551241,-0.34790307,-0.8738251,-0.299615,0.09247548,0.001307689,1.0388714,-0.24579038
0.0,0.0,0.7999999999999999,0.5235987755982988,-0.5235987755982988,0,-0.19983694,-1.0486358,-1.8267826,-0.24887273,-0.04177465,1.2391559,0.21528916,-0.35797355,-0.874443,-0.6178711,0.058702163,-0.058504786,1.0262794,0.6643415
0.0,0.0,0.7999999999999999,0.5235987755982988,-0.5235987755982988,0,-0.20333849,-1.0531507,-1.8160924,-0.24680324,0.045016155,1.2355783,0.026486414,-0.37959832,-0.8761938,-0.38553855,0.03219101,0.081674546,1.0559624,0.42058167
0.0,0.0,0.7999999999999999,0.5235987755982988,-0.5235987755982988,0,-0.20242438,-1.0520548,-1.8101239,-0.2370063,-0.19047827,1.2198801,-1.766832,-0.3686739,-0.8747918,-0.47895372,0.012211871,-0.14879696,1.0959569,0.35900804
0.0,0.0,0.7999999999999999,0.5235987755982988,-0.5235987755982988,0,-0.20256275,-1.053123,-1.814007,-0.2633032,-0.15167892,1.198167,1.4232932,-0.37031233,-0.8724019,-0.58933896,0.031181416,-0.09121875,1.2111111,-0.58173126
0.0,0.0,0.7999999999999999,0.5235987755982988,-0.5235987755982988,0,-0.20161326,-1.0536386,-1.7972499,-0.2552727,-0.22811003,1.1417044,-0.52115303,-0.37719432,-0.8719983,-0.10606624,0.05514217,-0.15883352,1.1535137,0.6476962
0.0,0.0,0.7999999999999999,0.5235987755982988,-0.5235987755982988,0,-0.2055248,-1.0556841,-1.8144768,-0.2557121,0.049632438,1.2621378,-0.21547225,-0.36274183,-0.87123966,-0.3720787,0.057353046,0.029171426,1.1975113,-0.51277095
0.0,0.0,0.7999999999999999,0.5235987755982988,-0.5235987755982988,0,-0.19728824,-1.053389,-1.8156443,-0.2460548,-0.24460313,1.2180362,-0.25434,-0.3708829,-0.875201,-0.31389374,0.039392367,0.14126588,1.0782068,-0.09777263
0.0,0.0,0.7999999999999999,0.5235987755982988,-0.5235987755982988,0,-0.20002317,-1.0535508,-1.8106753,-0.27712762,-0.051026016,1.218596,0.6376902,-0.35946268,-0.87570655,-0.2823386,0.0788465,0.056839436,1.1488776,-1.2566587
0.0,0.0,0.7999999999999999,0.5235987755982988,-0.5235987755982988,0,-0.19999264,-1.0553913,-1.8065283,-0.2536166,0.33425263,1.2058439,0.12681535,-0.3546289,-0.87518245,-0.40945405,0.071371794,0.044565085,1.1090863,0.5070675
0.0,0.0,0.7999999999999999,0.5235987755982988,-0.5235987755982988,0,-0.20113799,-1.0560429,-1.8135042,-0.22216998,0.40648454,1.2069979,-0.39304912,-0.3601437,-0.87253445,-0.2618929,0.017530886,0.012503463,1.0852503,0.3497875
0.0,0.0,0.7999999999999999,0.5235987755982988,-0.5235987755982988,0,-0.20401426,-1.0579394,-1.8149862,-0.30294472,0.082246,1.2597885,1.055566,-0.36287037,-0.8754284,-0.21785448,0.0065143886,0.015667826,1.068322,-0.3720267
0.0,0.0,0.7999999999999999,0.5235987755982988,-0.5235987755982988,0,-0.20328423,-1.0545073,-1.8101591,-0.23729093,0.01903431,1.321374,0.95450485,-0.35782835,-0.87884223,-0.31521913,0.040440697,0.021721171,1.1064197,-0.7894534
0.0,0.0,0.7999999999999999,0.5235987755982988,-0.5235987755982988,0,-0.20565341,-1.0525055,-1.8006897,-0.20140654,-0.24172889,1.3737305,0.9617529,-0.36531356,-0.87554634,-0.29555202,0.042544913,0.08576109,1.1199468,0.38569117
0.0,0.0,0.7999999999999999,0.5235987755982988,-0.5235987755982988,0,-0.20213552,-1.0539547,-1.8203274,-0.23126258,-0.07407065,1.2259525,-0.87732553,-0.36206502,-0.8734838,-0.34029388,0.013382444,-0.026027586,1.164999,-0.15103984
0.0,0.0,0.7999999999999999,0.5235987755982988,-0.5235987755982988,0,-0.19909906,-1.0573658,-1.8123691,-0.26802528,-0.2234041,1.2963531,1.329196,-0.3634584,-0.8731516,-0.41573521,0.002918196,-0.07062158,1.138634,0.3269547
0.0,0.0,0.7999999999999999,0.5235987755982988,-0.5235987755982988,0,-0.20163962,-1.0546532,-1.8149886,-0.23756002,0.0973629,1.3244317,-1.5028505,-0.38477787,-0.87234443,-0.13202217,0.107302,-0.056598067,1.1640426,-0.103728965
0.0,0.0,0.7999999999999999,0.5235987755982988,-0.5235987755982988,0,-0.2003544,-1.0521836,-1.8013004,-0.23786968,0.17717995,1.2486904,1.1620079,-0.3672981,-0.87550974,-0.44647205,0.043903776,0.0077613937,1.0374092,1.0161382
0.0,0.0,0.7999999999999999,0.5235987755982988,-0.5235987755982988,0,-0.20355749,-1.0574908,-1.803093,-0.24268636,0.10586675,1.319592,-0.77732915,-0.3595136,-0.8712827,-0.22641869,0.019487407,-0.063113816,1.1128469,0.9296135
0.0,0.0,0.7999999999999999,0.5235987755982988,-0.5235987755982988,0,-0.20385589,-1.0510218,-1.8137106,-0.26519054,-0.3219345,1.1880497,0.0940871,-0.37291014,-0.8731088,-0.103681825,0.04249688,-0.059537128,1.0087792,-0.15146223
0.0,0.0,0.7999999999999999,0.5235987755982988,-0.5235987755982988,0,-0.19947565,-1.0553033,-1.8135732,-0.23844996,-0.07887759,1.2187017,-1.427194,-0.3743453,-0.87307906,-0.46443766,0.025366742,-0.09271669,1.146124,1.2164098
0.0,0.0,0.7999999999999999,0.5235987755982988,-0.5235987755982988,0,-0.19957365,-1.0531197,-1.810812,-0.2408459,0.037380055,1.2516308,-0.21908298,-0.3673204,-0.87563014,-0.42381987,0.037278347,-0.021012738,1.1190523,0.2447322
0.0,0.0,0.7999999999999999,0.5235987755982988,-0.5235987755982988,0,-0.1999821,-1.0500937,-1.8149579,-0.2442952,-0.13965093,1.1660254,-2.3332531,-0.35449246,-0.8767606,-0.2533293,0.030069169,-0.26953828,1.0673032,-0.17143857
0.0,0.0,0.7999999999999999,0.5235987755982988,-0.5235987755982988,0,-0.20282845,-1.0488536,-1.8117517,-0.25883725,0.22296622,1.2667316,-0.91079205,-0.3681377,-0.8752598,-0.5669344,0.037877142,0.028755767,1.1375138,-0.9255612
0.0,0.0,0.7999999999999999,0.5235987755982988,-0.5235987755982988,0,-0.20175152,-1.0531399,-1.8057386,-0.27504867,-0.14503609,1.2417902,-0.6998492,-0.36875525,-0.87158597,-0.48216274,0.05948328,0.05571557,1.1534909,-1.1751668
0.0,0.0,0.7999999999999999,0.5235987755982988,-0.5235987755982988,0,-0.20369698,-1.0532221,-1.8164691,-0.24495967,-0.001050814,1.2785,-1.8411926,-0.37672344,-0.87886345,-0.5625162,0.03934983,0.020321636,1.0519077,-0.7882318
0.0,0.0,0.7999999999999999,0.5235987755982988,-0.5235987755982988,0,-0.2040518,-1.0548551,-1.808483,-0.22677545,-0.33226192,1.2686949,0.8444331,-0.36781058,-0.8758755,-0.1791612,0.014951178,-0.1765186,1.0756215,-0.32611185
0.0,0.0,0.7999999999999999,0.5235987755982988,-0.5235987755982988,0,-0.20314959,-1.0552703,-1.8060874,-0.28393626,-0.00015785823,1.2315819,-0.6886395,-0.3739394,-0.8733339,-0.42693174,0.01798682,-0.026802583,1.0102834,-0.344849
0.0,0.0,0.7999999999999999,0.5235987755982988,-0.5235987755982988,0,-0.20443712,-1.0565752,-1.8024919,-0.27622682,-0.32973805,1.1766706,1.074906,-0.3690765,-0.8731322,-0.3111895,0.04597636,0.15799037,1.112906,-0.7585776
0.0,0.0,0.7999999999999999,0.5235987755982988,-0.5235987755982988,0,-0.2010547,-1.0553433,-1.8059353,-0.223621,-0.088238165,1.2857723,-0.19373015,-0.36070508,-0.8755549,-0.15706299,0.010959449,-0.19911644,1.1005923,0.60649896
0.0,0.0,0.7999999999999999,0.5235987755982988,-0.5235987755982988,0,-0.20534833,-1.0535375,-1.8251626,-0.25448343,-0.07677962,1.3029879,0.75867814,-0.36388817,-0.8752961,-0.34865817,0.014798086,0.044651825,1.104473,-0.78816724
0.0,0.0,0.7999999999999999,0.5235987755982988,-0.5235987755982988,0,-0.203038,-1.0561364,-1.8247331,-0.25137395,-0.14111315,1.335777,1.1258501,-0.37762958,-0.87495947,-0.55375516,-0.012409023,-0.079587616,1.0554919,0.9766049
0.0,0.0,0.7999999999999999,0.5235987755982988,-0.5235987755982988,0,-0.20147064,-1.0573435,-1.8052962,-0.2386535,-0.01290591,1.29843,-0.5956209,-0.36468926,-0.87360406,-0.35545298,0.06446044,0.07653504,1.1136863,0.24146438
0.0,0.0,0.7999999999999999,0.5235987755982988,-0.5235987755982988,0,-0.20413256,-1.0543061,-1.8153273,-0.24362876,-0.19836368,1.2602545,1.0633155,-0.36256397,-0.8715589,-0.4210453,0.028900653,-0.0004467687,1.2175974,0.4221714
0.0,0.0,0.7999999999999999,0.5235987755982988,-0.5235987755982988,0,-0.20385915,-1.0527002,-1.8097836,-0.28237453,0.033726685,1.2395386,-2.0324647,-0.36684433,-0.8759541,-0.15958183,0.013705339,-0.07216941,1.1895909,0.6198311
0.0,0.0,0.7999999999999999,0.5235987755982988,-0.5235987755982988,0,-0.2023727,-1.0526817,-1.8078972,-0.25940654,-0.12140023,1.1950499,0.65673894,-0.34899074,-0.8764271,-0.39913365,0.029421998,0.0020496044,1.1206144,-0.162524
0.0,0.0,0.7999999999999999,0.5235987755982988,-0.5235987755982988,0,-0.20249844,-1.0546166,-1.8075161,-0.25571215,-0.23897462,1.2471817,-0.7544027,-0.36350182,-0.870775,-0.52678007,-0.0014736903,-0.23947103,1.2189949,0.40258822
0.0,0.0,0.7999999999999999,0.5235987755982988,-0.5235987755982988,0,-0.20460784,-1.0481625,-1.822154,-0.26373565,-0.23582684,1.2182858,0.53525454,-0.36952603,-0.8731304,-0.47174332,0.037010334,-0.005483624,1.0881681,0.3656135
0.0,0.0,0.7999999999999999,0.5235987755982988,-0.5235987755982988,0,-0.20191705,-1.0528909,-1.8102719,-0.24383931,-0.22776349,1.2638466,0.5913533,-0.35551888,-0.8708196,-0.7043385,-0.030847002,0.100847095,1.124837,-0.9325497
0.0,0.0,0.7999999999999999,0.5235987755982988,-0.5235987755982988,0,-0.20195068,-1.0521768,-1.8029478,-0.28377065,-0.36552033,1.2809232,1.0265923,-0.36032265,-0.8723688,-0.62445605,0.06364211,-0.010020696,1.0342681,0.16957201
0.0,0.0,0.7999999999999999,0.5235987755982988,-0.5235987755982988,0,-0.20134127,-1.0552713,-1.8103548,-0.246465,0.25572306,1.1497594,1.2259367,-0.3761819,-0.874231,-0.21426253,-0.0012920948,-0.150149,1.1189147,-1.6356277
0.0,0.0,0.7999999999999999,0.5235987755982988,-0.5235987755982988,0,-0.20273754,-1.0552802,-1.8044245,-0.2396737,-0.017683292,1.2405573,-2.1033492,-0.3732783,-0.87539536,-0.22764918,0.004357413,-0.15700951,1.1332673,0.6657746
0.0,0.0,0.7999999999999999,0.5235987755982988,-0.5235987755982988,0,-0.20159727,-1.0520962,-1.8065038,-0.251759,0.26249075,1.2645196,-1.3076632,-0.36655474,-0.87186855,-0.5003347,0.09716692,0.025011795,1.0638598,0.090995826
0.0,0.0,0.7999999999999999,0.5235987755982988,-0.5235987755982988,0,-0.20381665,-1.053593,-1.8100232,-0.22311147,-0.118307196,1.2399056,-0.039608788,-0.3801062,-0.8754113,0.11182422,-0.037492417,-0.18738702,1.2385513,0.8593429
0.0,0.0,0.7999999999999999,0.5235987755982988,-0.5235987755982988,0,-0.20246866,-1.0528182,-1.8024936,-0.29327005,0.06686597,1.2329705,-0.15975435,-0.37630257,-0.87411964,-0.18213162,0.051856957,0.101638,1.1460291,0.11119705
0.0,0.0,0.7999999999999999,0.5235987755982988,-0.5235987755982988,0,-0.20142409,-1.0506418,-1.8201324,-0.2453957,0.08969663,1.21232,1.075814,-0.36539125,-0.87244296,-0.18600062,0.051134527,-0.21303627,1.0901693,0.49166247
0.0,0.0,0.7999999999999999,0.5235987755982988,-0.5235987755982988,0,-0.20598717,-1.0527141,-1.8038037,-0.2675553,-0.06464618,1.2857587,-2.1953976,-0.37239248,-0.8731342,-0.42172986,0.012618137,0.04544402,1.083731,0.42215148
0.0,0.0,0.7999999999999999,0.5235987755982988,-0.5235987755982988,0,-0.2010178,-1.0504307,-1.8171282,-0.26908502,-0.11388559,1.1921066,0.46007878,-0.35547507,-0.8777539,-0.254454,0.069459006,-0.32750803,1.0733926,1.419825
0.0,0.0,0.7999999999999999,0.5235987755982988,-0.5235987755982988,0,-0.20193325,-1.0541235,-1.8076063,-0.27418634,-0.05263627,1.2493209,-1.3713418,-0.36895576,-0.8739395,-0.1574627,0.051649872,0.10084868,1.0728025,-0.64101523
0.0,0.0,0.7999999999999999,0.5235987755982988,-0.5235987755982988,0,-0.19992311,-1.0505745,-1.8066492,-0.22829026,-0.3691555,1.3180182,0.48188582,-0.36730343,-0.8753796,-0.1629181,0.06304552,-0.16320835,0.9829909,0.5007002
